mach0312/omni-docking-bench/src/icros_test_setup/results/kinematic_sample/timeseries/trial_143.csv
t,x,y,yaw,vx,vy,wz,bl_x,bl_y,bl_yaw,front_steering_joint,front_wheel_joint,rear_steering_joint,rear_wheel_joint
0.0,0.069018,-0.023709,-0.087277,-0.008617,-0.001501,-0.003494,0.026083,-0.531608,-0.08563,0.399111,-263.939179,-0.07333,62.25584
0.0005,0.068556,-0.023485,-0.086815,-0.003892,-0.000678,-0.001578,0.025848,-0.531499,-0.085528,0.399111,-263.94292,-0.07333,62.252384
0.0008,0.068866,-0.023201,-0.086459,-0.002996,-0.000522,-0.001215,0.025848,-0.531499,-0.085528,0.399111,-263.945927,-0.07333,62.249606
0.0012,0.068728,-0.023538,-0.086501,-0.002053,-0.000357,-0.000832,0.025848,-0.531499,-0.085528,0.399111,-263.948323,-0.07333,62.247392
0.0016,0.068516,-0.023553,-0.087657,-0.001054,-0.000183,-0.000427,0.025848,-0.531499,-0.085528,0.399111,-263.949621,-0.07333,62.246192
0.0019,0.068587,-0.023302,-0.086933,-1e-06,-0.0,-0.0,0.025438,-0.531171,-0.085781,0.399111,-263.950078,-0.07333,62.24577
0.0022,0.068665,-0.023481,-0.086331,0.0,0.0,0.0,0.025425,-0.531219,-0.085764,0.399111,-263.950078,-0.07333,62.24577
0.0025,0.068219,-0.023662,-0.085013,0.0,0.0,0.0,0.025425,-0.531219,-0.085764,0.399111,-263.950078,-0.07333,62.24577
0.0027,0.068553,-0.023474,-0.087193,0.0,0.0,0.0,0.024859,-0.531289,-0.086409,0.399111,-263.950078,-0.07333,62.24577
0.003,0.068427,-0.023717,-0.086582,0.0,0.0,0.0,0.024859,-0.531289,-0.086409,0.399111,-263.950078,-0.07333,62.24577
0.0065,0.068669,-0.023506,-0.086416,0.0,0.0,0.0,0.024325,-0.531807,-0.086582,0.399111,-263.950078,-0.07333,62.24577
0.0266,0.067947,-0.023378,-0.087132,-0.016,0.016,0.03,0.02451,-0.531691,-0.086488,0.399111,-263.950078,-0.07333,62.24577
0.0465,0.068062,-0.023468,-0.084785,-0.032,0.017377,0.05,0.02451,-0.531691,-0.086488,0.399111,-263.950078,-0.07333,62.24577
0.0664,0.068547,-0.023629,-0.087807,-0.048,0.01762,0.05,0.024873,-0.531636,-0.084785,0.399111,-263.950078,-0.07333,62.24577
0.0867,0.068562,-0.023458,-0.086514,-0.064,0.017526,0.05,0.024804,-0.531638,-0.084984,0.399111,-263.950078,-0.07333,62.24577
0.1064,0.068615,-0.023926,-0.086123,-0.070333,0.017446,0.05,0.024495,-0.53155,-0.086514,0.324112,-263.950078,0.001668,62.24577
0.1264,0.068366,-0.023707,-0.088253,-0.070419,0.017935,0.05,0.02464,-0.531829,-0.086289,0.324112,-263.950078,0.001668,62.24577
0.1467,0.068162,-0.023705,-0.087133,-0.070189,0.01759,0.05,0.02464,-0.531829,-0.086289,0.324112,-263.950078,0.001668,62.24577
0.1666,0.068436,-0.023532,-0.085822,-0.069966,0.017683,0.05,0.02378,-0.53177,-0.087133,0.248967,-263.95008,0.076814,62.245769
0.1865,0.068115,-0.023348,-0.087738,-0.070201,0.017579,0.05,0.02384,-0.531763,-0.08705,0.248967,-263.95008,0.076814,62.245769
0.2069,0.068345,-0.023359,-0.085768,-0.069899,0.017289,0.05,0.023426,-0.531386,-0.087738,0.174104,-263.950083,0.151677,62.245767
0.2266,0.06835,-0.02339,-0.085735,-0.070095,0.017418,0.05,0.024131,-0.531442,-0.08661,0.174104,-263.950083,0.151677,62.245767
0.2468,0.068143,-0.02353,-0.086797,-0.070102,0.017451,0.05,0.024131,-0.531442,-0.08661,0.174104,-263.950083,0.151677,62.245767
0.2664,0.068521,-0.023834,-0.086659,-0.069927,0.017535,0.05,0.023932,-0.53161,-0.086797,0.098971,-263.950087,0.182535,62.245763
0.2864,0.068238,-0.023885,-0.086431,-0.070327,0.017814,0.05,0.023967,-0.531635,-0.086786,0.098971,-263.950087,0.182535,62.245763
0.3064,0.068541,-0.02385,-0.087091,-0.070045,0.017905,0.05,0.024212,-0.531981,-0.086431,0.023772,-263.950097,0.184556,62.245755
0.3264,0.0682,-0.023349,-0.087142,-0.070356,0.017797,0.05,0.024194,-0.531944,-0.086813,0.023772,-263.950097,0.184556,62.245755
0.3467,0.068396,-0.023263,-0.088403,-0.069974,0.017325,0.05,0.024194,-0.531944,-0.086813,0.023772,-263.950097,0.184556,62.245755
0.3665,0.068369,-0.02355,-0.086713,-0.070182,0.017133,0.05,0.023364,-0.531271,-0.088402,-0.051173,-263.950141,0.178989,62.245718
0.3867,0.068479,-0.023626,-0.086283,-0.070152,0.01754,0.05,0.023417,-0.531294,-0.088295,-0.051173,-263.950141,0.178989,62.245718
0.4065,0.068732,-0.023345,-0.087178,-0.07026,0.017637,0.05,0.024511,-0.531728,-0.086278,-0.125891,-263.950354,0.186619,62.245539
0.4265,0.068063,-0.023608,-0.086213,-0.070504,0.017272,0.05,0.024404,-0.531545,-0.086792,-0.125891,-263.950354,0.186619,62.245539
0.4465,0.068429,-0.023402,-0.086405,-0.069843,0.01766,0.05,0.024404,-0.531545,-0.086792,-0.125891,-263.950354,0.186619,62.245539
0.4664,0.068184,-0.023529,-0.085457,-0.070193,0.017409,0.05,0.02433,-0.531489,-0.086377,-0.201013,-263.951152,0.183196,62.24487
0.4867,0.06838,-0.023261,-0.084996,-0.069943,0.017623,0.05,0.024349,-0.531501,-0.086316,-0.201013,-263.951152,0.183196,62.24487
0.5065,0.067901,-0.023584,-0.086513,-0.070108,0.017372,0.05,0.024884,-0.531389,-0.084917,-0.275882,-263.9535,0.182327,62.242905
0.5266,0.067539,-0.023629,-0.086117,-0.069685,0.017628,0.05,0.024259,-0.531549,-0.08582,-0.275882,-263.9535,0.182327,62.242905
0.5468,0.067786,-0.023373,-0.08698,-0.069321,0.017732,0.05,0.024259,-0.531549,-0.08582,-0.275882,-263.9535,0.182327,62.242905
0.5668,0.067238,-0.023501,-0.086525,-0.06956,0.017396,0.05,0.022946,-0.531347,-0.086733,-0.350976,-263.95835,0.182586,62.238437
0.587,0.067051,-0.023342,-0.087172,-0.069018,0.017603,0.05,0.022947,-0.531362,-0.086711,-0.350976,-263.95835,0.182586,62.238437
0.6069,0.066457,-0.023435,-0.085073,-0.068829,0.017416,0.05,0.022005,-0.531264,-0.086832,-0.426029,-263.9657,0.182665,62.23147
0.6264,0.065981,-0.023096,-0.086056,-0.068208,0.017703,0.05,0.022559,-0.531431,-0.085789,-0.426029,-263.9657,0.182665,62.23147
0.6466,0.066118,-0.023015,-0.085404,-0.067722,0.01734,0.05,0.022559,-0.531431,-0.085789,-0.426029,-263.9657,0.182665,62.23147
0.6664,0.06471,-0.0231,-0.083478,-0.067841,0.017291,0.05,0.021546,-0.530883,-0.084761,-0.501018,-263.975532,0.185262,62.222019
0.6868,0.065022,-0.022617,-0.084187,-0.066411,0.017624,0.05,0.021563,-0.530907,-0.084654,-0.501018,-263.975532,0.185262,62.222019
0.7065,0.062774,-0.022371,-0.085192,-0.066694,0.01707,0.05,0.021093,-0.530509,-0.083474,-0.575891,-263.987892,0.192471,62.210041
0.7265,0.06308,-0.022336,-0.084333,-0.06445,0.016949,0.05,0.019979,-0.530478,-0.084367,-0.575891,-263.987892,0.192471,62.210041
0.7466,0.063134,-0.022626,-0.084525,-0.064738,0.016944,0.05,0.019979,-0.530478,-0.084367,-0.575891,-263.987892,0.192471,62.210041
0.7667,0.060518,-0.021798,-0.083587,-0.064819,0.017215,0.05,0.01852,-0.530311,-0.083383,-0.627439,-264.002744,0.192056,62.195572
0.787,0.060645,-0.021933,-0.084321,-0.062126,0.016669,0.05,0.018438,-0.530277,-0.083367,-0.627439,-264.002744,0.192056,62.195572
0.8066,0.058451,-0.021637,-0.081318,-0.062276,0.016747,0.05,0.016248,-0.529672,-0.083235,-0.632816,-264.020068,0.206978,62.17863
0.8266,0.058191,-0.021183,-0.082158,-0.060015,0.016818,0.05,0.016506,-0.529774,-0.082008,-0.632816,-264.020068,0.206978,62.17863
0.847,0.058135,-0.02142,-0.083238,-0.059733,0.016336,0.05,0.016506,-0.529774,-0.082008,-0.632816,-264.020068,0.206978,62.17863
0.8668,0.055397,-0.020786,-0.081495,-0.059715,0.016512,0.05,0.013665,-0.52901,-0.081622,-0.649772,-264.039913,0.21963,62.159168
0.8871,0.055526,-0.020471,-0.079955,-0.056905,0.016207,0.05,0.013625,-0.528998,-0.08157,-0.649772,-264.039913,0.21963,62.159168
0.9069,0.052102,-0.019632,-0.077624,-0.056984,0.015971,0.05,0.012945,-0.528272,-0.078458,-0.665351,-264.062257,0.233416,62.137206
0.9268,0.051906,-0.019789,-0.078038,-0.053467,0.015532,0.05,0.012491,-0.528101,-0.077798,-0.665351,-264.062257,0.233416,62.137206
0.9466,0.05198,-0.019782,-0.078911,-0.053291,0.015682,0.05,0.012491,-0.528101,-0.077798,-0.665351,-264.062257,0.233416,62.137206
0.9667,0.048214,-0.018604,-0.075994,-0.053378,0.015623,0.05,0.009297,-0.527386,-0.076778,-0.687689,-264.087141,0.246695,62.113949
0.987,0.048258,-0.018565,-0.075974,-0.049488,0.01489,0.05,0.009243,-0.527345,-0.076661,-0.687689,-264.087141,0.246695,62.113949
1.0072,0.044397,-0.017897,-0.073795,-0.049528,0.014849,0.05,0.007596,-0.526363,-0.074101,-0.714455,-264.114572,0.271863,62.092228
1.0266,0.044485,-0.017774,-0.072958,-0.045596,0.014575,0.05,0.006886,-0.526355,-0.073686,-0.714455,-264.114572,0.271863,62.092228
1.0465,0.044291,-0.017614,-0.071819,-0.045663,0.014484,0.05,0.006886,-0.526355,-0.073686,-0.714455,-264.114572,0.271863,62.092228
1.0664,0.041049,-0.016977,-0.069389,-0.045441,0.01439,0.05,0.00543,-0.525439,-0.069475,-0.742646,-264.140487,0.306245,62.072206
1.0864,0.040758,-0.016728,-0.070192,-0.042127,0.01409,0.05,0.005388,-0.525438,-0.069407,-0.742646,-264.140487,0.306245,62.072206
1.1068,0.037572,-0.015442,-0.071215,-0.041831,0.013829,0.05,0.00333,-0.524817,-0.06833,-0.778332,-264.165216,0.338061,62.05354
1.1271,0.037423,-0.015804,-0.06899,-0.038576,0.01273,0.05,0.001959,-0.524356,-0.069725,-0.778332,-264.165216,0.338061,62.05354
1.1471,0.037574,-0.015904,-0.067822,-0.038424,0.013187,0.05,0.001959,-0.524356,-0.069725,-0.778332,-264.165216,0.338061,62.05354
1.1667,0.034344,-0.015215,-0.06699,-0.038565,0.013321,0.05,0.001084,-0.52394,-0.065478,-0.814209,-264.188818,0.37223,62.036148
1.1868,0.034542,-0.014925,-0.066092,-0.035286,0.012882,0.05,0.000984,-0.52393,-0.065515,-0.814209,-264.188818,0.37223,62.036148
1.2064,0.031462,-0.013864,-0.064237,-0.035453,0.012611,0.05,-0.000502,-0.523243,-0.064276,-0.849832,-264.210672,0.424157,62.020319
1.2263,0.031092,-0.014015,-0.065545,-0.032287,0.011816,0.05,-0.001114,-0.522926,-0.064024,-0.849832,-264.210672,0.424157,62.020319
1.2463,0.031134,-0.014205,-0.062809,-0.031943,0.011948,0.05,-0.001114,-0.522926,-0.064024,-0.849832,-264.210672,0.424157,62.020319
1.2664,0.028406,-0.01317,-0.060251,-0.031964,0.012223,0.05,-0.00247,-0.522504,-0.060497,-0.888377,-264.231976,0.463929,62.005295
1.287,0.02848,-0.01343,-0.060562,-0.029147,0.011436,0.05,-0.002501,-0.522468,-0.060419,-0.888377,-264.231976,0.463929,62.005295
1.3066,0.025503,-0.012436,-0.059455,-0.029241,0.011682,0.05,-0.003501,-0.522002,-0.058778,-0.926111,-264.251474,0.527036,61.991738
1.327,0.025831,-0.012561,-0.060703,-0.026197,0.010899,0.05,-0.004371,-0.521678,-0.058936,-0.926111,-264.251474,0.527036,61.991738
1.3467,0.025982,-0.012556,-0.059326,-0.026545,0.01097,0.05,-0.004371,-0.521678,-0.058936,-0.926111,-264.251474,0.527036,61.991738
1.3668,0.023227,-0.012025,-0.056281,-0.02668,0.010994,0.05,-0.005551,-0.521062,-0.057052,-0.963826,-264.270605,0.580131,61.978692
1.3867,0.023603,-0.011748,-0.05767,-0.023866,0.010699,0.05,-0.005579,-0.521057,-0.056937,-0.963826,-264.270605,0.580131,61.978692
1.4066,0.020671,-0.01098,-0.054364,-0.024241,0.010368,0.05,-0.006724,-0.520452,-0.055871,-1.001826,-264.288949,0.635214,61.966414
1.4271,0.021085,-0.011176,-0.055145,-0.021238,0.009841,0.05,-0.007022,-0.520267,-0.054784,-1.001826,-264.288949,0.635214,61.966414
1.4472,0.020757,-0.010906,-0.05382,-0.021669,0.009997,0.05,-0.007022,-0.520267,-0.054784,-1.001826,-264.288949,0.635214,61.966414
1.4665,0.018556,-0.010394,-0.050963,-0.021313,0.009774,0.05,-0.007714,-0.519636,-0.051594,-1.046143,-264.306472,0.693491,61.955
1.4872,0.018618,-0.010698,-0.052952,-0.019061,0.009436,0.05,-0.007723,-0.519627,-0.051478,-1.046143,-264.306472,0.693491,61.955
1.5065,0.016497,-0.009928,-0.048323,-0.019159,0.009698,0.05,-0.009128,-0.519587,-0.051168,-1.079861,-264.3233,0.758672,61.944068
1.5266,0.01641,-0.010035,-0.050571,-0.016957,0.00912,0.048323,-0.008665,-0.519395,-0.049349,-1.079861,-264.3233,0.758672,61.944068
1.5464,0.016682,-0.010272,-0.049781,-0.016897,0.009192,0.05,-0.008665,-0.519395,-0.049349,-1.079861,-264.3233,0.758672,61.944068
1.5664,0.014479,-0.009973,-0.047092,-0.017172,0.00943,0.049781,-0.00949,-0.519198,-0.047651,-1.125837,-264.338834,0.833498,61.934094
1.5865,0.014642,-0.009098,-0.048494,-0.014933,0.00928,0.047092,-0.009513,-0.519201,-0.047556,-1.125837,-264.338834,0.833498,61.934094
1.6071,0.01235,-0.009018,-0.047381,-0.015066,0.008377,0.048494,-0.010654,-0.51815,-0.046747,-1.16868,-264.354415,0.901202,61.924269
1.6264,0.012589,-0.009581,-0.0458,-0.012763,0.008423,0.047381,-0.011379,-0.518273,-0.046886,-1.16868,-264.354415,0.901202,61.924269
1.6464,0.012785,-0.009322,-0.045115,-0.013014,0.008994,0.0458,-0.011379,-0.518273,-0.046886,-1.16868,-264.354415,0.901202,61.924269
1.6667,0.010919,-0.008573,-0.042616,-0.013193,0.008736,0.045115,-0.01091,-0.518328,-0.042862,-1.196739,-264.370495,0.916817,61.914611
1.6867,0.010541,-0.008688,-0.043271,-0.011274,0.0081,0.042616,-0.010921,-0.518301,-0.042787,-1.196739,-264.370495,0.916817,61.914611
1.7066,0.009497,-0.008007,-0.039928,-0.010907,0.008223,0.043271,-0.011977,-0.517865,-0.041614,-1.232299,-264.385184,0.969699,61.905986
1.7266,0.009429,-0.007884,-0.040794,-0.009809,0.007621,0.039928,-0.0114,-0.517671,-0.040444,-1.232299,-264.385184,0.969699,61.905986
1.7469,0.009439,-0.008245,-0.041752,-0.009742,0.007492,0.040794,-0.0114,-0.517671,-0.040444,-1.232299,-264.385184,0.969699,61.905986
1.7667,0.007722,-0.007817,-0.03713,-0.009775,0.007844,0.041752,-0.012363,-0.517398,-0.039744,-1.251728,-264.399131,1.009427,61.897767
1.7871,0.007593,-0.007818,-0.039288,-0.008007,0.007525,0.03713,-0.012294,-0.517391,-0.039499,-1.251728,-264.399131,1.009427,61.897767
1.8067,0.006197,-0.007302,-0.036141,-0.007894,0.007514,0.039288,-0.012784,-0.517137,-0.037798,-1.278776,-264.411943,1.060942,61.89021
1.8269,0.006066,-0.007194,-0.036108,-0.007894,0.007514,0.039288,-0.012512,-0.517005,-0.036662,-1.278776,-264.411943,1.060942,61.89021
1.8466,0.005839,-0.00733,-0.036976,-6.7e-05,7.4e-05,0.0,-0.012512,-0.517005,-0.036662,-1.278776,-264.411943,1.060942,61.89021
1.8665,0.005086,-0.007043,-0.034334,-6.7e-05,7.4e-05,0.0,-0.013381,-0.516611,-0.035213,-1.311653,-264.424114,1.08467,61.883535
1.8868,0.00486,-0.006936,-0.034151,-6.7e-05,7.4e-05,0.0,-0.01333,-0.51661,-0.035117,-1.311653,-264.424114,1.08467,61.883535
1.907,0.00445,-0.006534,-0.034482,-6.7e-05,7.4e-05,0.0,-0.012585,-0.516538,-0.033988,-1.236713,-264.426295,1.00973,61.883535
1.9265,0.004504,-0.006588,-0.035094,-6.7e-05,7.4e-05,0.0,-0.012901,-0.51635,-0.034249,-1.236713,-264.426295,1.00973,61.883535
1.9464,0.004768,-0.006417,-0.034827,-6.7e-05,7.4e-05,0.0,-0.012901,-0.51635,-0.034249,-1.236713,-264.426295,1.00973,61.883535
1.9664,0.004671,-0.006489,-0.035334,-6.7e-05,7.4e-05,0.0,-0.01299,-0.516108,-0.034827,-1.161717,-264.426295,0.934734,61.883535
1.9864,0.004548,-0.006445,-0.035033,-6.7e-05,7.4e-05,0.0,-0.013015,-0.516112,-0.034862,-1.161717,-264.426295,0.934734,61.883535
2.0064,0.004694,-0.00696,-0.036033,-6.7e-05,7.4e-05,0.0,-0.013316,-0.516132,-0.035033,-1.086698,-264.426295,0.859715,61.883535
2.0264,0.004444,-0.006683,-0.034847,-6.7e-05,7.4e-05,0.0,-0.013523,-0.516415,-0.035602,-1.086698,-264.426295,0.859715,61.883535
2.0464,0.004262,-0.006565,-0.034473,-4e-06,4e-06,2.3e-05,-0.013523,-0.516415,-0.035602,-1.086698,-264.426295,0.859715,61.883535
2.0664,0.00452,-0.006949,-0.035026,-0.000923,0.001018,0.005273,-0.013315,-0.516262,-0.034473,-1.011708,-264.426295,0.784725,61.883535
2.0869,0.004722,-0.006512,-0.035175,-0.001798,0.001983,0.010273,-0.013317,-0.51629,-0.034514,-1.011708,-264.426295,0.784725,61.883535
2.1066,0.004657,-0.006953,-0.036056,-0.002629,0.002899,0.015017,-0.013213,-0.516196,-0.035175,-1.087004,-264.426295,0.860021,61.883535
2.1264,0.004912,-0.006563,-0.035813,-0.003411,0.003762,0.019486,-0.013506,-0.516438,-0.035676,-1.087004,-264.426295,0.860021,61.883535
2.1467,0.005095,-0.006436,-0.034931,-0.004146,0.004572,0.023681,-0.013506,-0.516438,-0.035676,-1.087004,-264.426295,0.860021,61.883535
2.1665,0.004449,-0.006636,-0.033661,-0.004834,0.00533,0.027612,-0.012725,-0.516119,-0.034903,-1.161796,-264.426505,0.934814,61.883419
2.1864,0.004578,-0.006914,-0.035382,-0.005474,0.006036,0.031268,-0.012725,-0.516135,-0.034811,-1.161796,-264.426505,0.934814,61.883419
2.2066,0.004394,-0.006401,-0.034652,-0.006067,0.00669,0.034657,-0.013512,-0.516554,-0.035195,-1.236817,-264.428184,1.009834,61.882495
2.227,0.00516,-0.006633,-0.033365,-0.006611,0.007291,0.037766,-0.013383,-0.516288,-0.034862,-1.236817,-264.428184,1.009834,61.882495
2.2465,0.004305,-0.006645,-0.035132,-0.00711,0.00784,0.040612,-0.013383,-0.516288,-0.034862,-1.236817,-264.428184,1.009834,61.882495
2.2663,0.003783,-0.006307,-0.03396,-0.007561,0.008337,0.043188,-0.013753,-0.516237,-0.034473,-1.311714,-264.432362,1.084731,61.879573
2.2867,0.003848,-0.006795,-0.035633,-0.007964,0.008782,0.04549,-0.013742,-0.516219,-0.03442,-1.311714,-264.432362,1.084731,61.879573
2.3064,0.002824,-0.006354,-0.032585,-0.00832,0.009175,0.047526,-0.014491,-0.51639,-0.034724,-1.356349,-264.43905,1.159717,61.874144
2.3265,0.003227,-0.00585,-0.033343,-0.008628,0.009514,0.049285,-0.014111,-0.516204,-0.033382,-1.356349,-264.43905,1.159717,61.874144
2.3467,0.003559,-0.006242,-0.032559,-0.008889,0.009802,0.050775,-0.014111,-0.516204,-0.033382,-1.356349,-264.43905,1.159717,61.874144
2.3665,0.002199,-0.006437,-0.030281,-0.009102,0.010037,0.051993,-0.013344,-0.515861,-0.030942,-1.356349,-264.448218,1.173922,61.86623
2.3871,0.002048,-0.006073,-0.030247,-0.009268,0.01022,0.052941,-0.013345,-0.515882,-0.030852,-1.356349,-264.448218,1.173922,61.86623
2.4066,0.000642,-0.00618,-0.028668,-0.009387,0.010351,0.05362,-0.013666,-0.515688,-0.028656,-1.356349,-264.459899,1.173922,61.857028
2.4266,0.000504,-0.005891,-0.02894,-0.009458,0.01043,0.054026,-0.013876,-0.515828,-0.028467,-1.356349,-264.459899,1.173922,61.857028
2.4465,0.000396,-0.005867,-0.029253,-0.009482,0.010456,0.054163,-0.013876,-0.515828,-0.028467,-1.356349,-264.459899,1.173922,61.857028
2.4665,-0.000643,-0.005735,-0.027856,-0.009458,0.01043,0.054027,-0.014921,-0.515333,-0.026994,-1.356349,-264.474073,1.173922,61.847442
2.4867,-0.000768,-0.005671,-0.027381,-0.009387,0.010351,0.05362,-0.014927,-0.515338,-0.026994,-1.356349,-264.474073,1.173922,61.847442
2.5075,-0.002571,-0.004973,-0.023085,-0.009268,0.01022,0.052941,-0.015077,-0.51512,-0.025371,-1.356349,-264.490752,1.173922,61.837629
2.5268,-0.002848,-0.005245,-0.023474,-0.009101,0.010036,0.051986,-0.014728,-0.514919,-0.023868,-1.356349,-264.490752,1.173922,61.837629
2.5466,-0.002599,-0.004939,-0.022537,-0.008889,0.009803,0.050778,-0.014728,-0.514919,-0.023868,-1.356349,-264.490752,1.173922,61.837629
2.5668,-0.004365,-0.00428,-0.021374,-0.008628,0.009515,0.049286,-0.014538,-0.514296,-0.019928,-1.356349,-264.508395,1.173922,61.827915
2.5869,-0.00459,-0.004759,-0.022425,-0.00832,0.009175,0.047527,-0.014598,-0.514274,-0.019958,-1.356349,-264.508395,1.173922,61.827915
2.6069,-0.006234,-0.004338,-0.020127,-0.007964,0.008782,0.045493,-0.016361,-0.514244,-0.020459,-1.356349,-264.525105,1.173922,61.818715
2.6269,-0.006023,-0.003934,-0.019803,-0.007562,0.008338,0.043193,-0.016481,-0.51419,-0.020022,-1.356349,-264.525105,1.173922,61.818715
2.6466,-0.006577,-0.003615,-0.018462,-0.007112,0.007843,0.040626,-0.016481,-0.51419,-0.020022,-1.356349,-264.525105,1.173922,61.818715
2.6667,-0.008004,-0.003747,-0.01555,-0.006613,0.007292,0.037774,-0.016389,-0.513075,-0.016152,-1.356349,-264.540744,1.173922,61.810106
2.6871,-0.007702,-0.003641,-0.017284,-0.006068,0.006692,0.034663,-0.016368,-0.513105,-0.016049,-1.356349,-264.540744,1.173922,61.810106
2.7069,-0.009395,-0.003058,-0.014006,-0.005473,0.006035,0.031263,-0.016786,-0.513257,-0.015711,-1.356349,-264.554114,1.173922,61.802745
2.7272,-0.009214,-0.003353,-0.01545,-0.00483,0.005327,0.027592,-0.01668,-0.513078,-0.014549,-1.356349,-264.554114,1.173922,61.802745
2.7471,-0.009028,-0.003071,-0.014373,-0.004149,0.004575,0.023698,-0.01668,-0.513078,-0.014549,-1.356349,-264.554114,1.173922,61.802745
2.7668,-0.010552,-0.002245,-0.012651,-0.003413,0.003763,0.019495,-0.016649,-0.512688,-0.012682,-1.356349,-264.565519,1.173922,61.796465
2.7867,-0.010504,-0.002769,-0.012388,-0.002631,0.002901,0.015027,-0.016678,-0.51265,-0.01264,-1.356349,-264.565519,1.173922,61.796465
2.8067,-0.011415,-0.002812,-0.011168,-0.001803,0.001988,0.010297,-0.01698,-0.512552,-0.011473,-1.356349,-264.57333,1.173922,61.792165
2.8268,-0.010965,-0.002191,-0.012656,-0.000927,0.001022,0.005293,-0.017075,-0.51266,-0.011182,-1.356349,-264.57333,1.173922,61.792165
2.8467,-0.011394,-0.002353,-0.0127,-2e-06,3e-06,1.3e-05,-0.017075,-0.51266,-0.011182,-1.356349,-264.57333,1.173922,61.792165
2.8669,-0.011976,-0.002074,-0.010577,0.0,0.0,0.0,-0.017997,-0.512169,-0.011971,-1.356349,-264.578266,1.173922,61.789448
2.8867,-0.01205,-0.002602,-0.011197,0.0,0.0,0.0,-0.017958,-0.512157,-0.011858,-1.356349,-264.578266,1.173922,61.789448
2.9068,-0.011793,-0.002693,-0.010203,0.0,0.0,0.0,-0.017761,-0.51257,-0.011197,-1.356349,-264.57827,1.173922,61.789445
2.9271,-0.011584,-0.002653,-0.012632,0.0,0.0,0.0,-0.017321,-0.512625,-0.010625,-1.356349,-264.57827,1.173922,61.789445
2.9465,-0.011678,-0.002162,-0.011472,0.0,0.0,0.0,-0.017321,-0.512625,-0.010625,-1.356349,-264.57827,1.173922,61.789445
2.9666,-0.012076,-0.002546,-0.011665,0.0,0.0,0.0,-0.017529,-0.512129,-0.011472,-1.356349,-264.57827,1.173922,61.789445
2.9866,-0.011464,-0.002697,-0.010472,0.0,0.0,0.0,-0.017562,-0.512154,-0.011485,-1.356349,-264.57827,1.173922,61.789445
3.0066,-0.012167,-0.002276,-0.011508,0.0,0.0,0.0,-0.016804,-0.512669,-0.010472,-1.356349,-264.57827,1.173922,61.789445
3.0267,-0.011948,-0.00216,-0.012586,0.0,0.0,0.0,-0.0175,-0.512427,-0.011058,-1.356349,-264.57827,1.173922,61.789445
3.0469,-0.012036,-0.002214,-0.01053,0.0,0.0,0.0,-0.0175,-0.512427,-0.011058,-1.356349,-264.57827,1.173922,61.789445
3.0665,-0.011978,-0.002461,-0.008826,9.8e-05,1.9e-05,0.0,-0.017406,-0.512186,-0.01053,-1.356349,-264.57827,1.173922,61.789445
3.0864,-0.011817,-0.002198,-0.011721,9.8e-05,1.9e-05,0.0,-0.017333,-0.512206,-0.010396,-1.356349,-264.57827,1.173922,61.789445
3.1065,-0.011652,-0.00269,-0.010945,9.8e-05,1.9e-05,0.0,-0.017795,-0.512163,-0.011721,-1.356349,-264.57827,1.173922,61.789445
3.1266,-0.011675,-0.002386,-0.011583,9.8e-05,1.9e-05,0.0,-0.017474,-0.512447,-0.011277,-1.356349,-264.57827,1.173922,61.789445
3.1465,-0.011781,-0.002213,-0.011398,9.8e-05,1.9e-05,0.0,-0.017474,-0.512447,-0.011277,-1.356349,-264.57827,1.173922,61.789445
3.1665,-0.011886,-0.002364,-0.009912,9.8e-05,1.9e-05,0.0,-0.017594,-0.51218,-0.011398,-1.281564,-264.57827,1.099138,61.789445
3.1866,-0.011723,-0.00261,-0.009417,9.8e-05,1.9e-05,0.0,-0.017543,-0.512192,-0.011284,-1.281564,-264.57827,1.099138,61.789445
3.2067,-0.012105,-0.002755,-0.010062,9.8e-05,1.9e-05,0.0,-0.016526,-0.512587,-0.009417,-1.206435,-264.57827,1.024008,61.789445
3.2269,-0.011562,-0.002453,-0.010986,9.8e-05,1.9e-05,0.0,-0.016924,-0.512667,-0.009779,-1.206435,-264.57827,1.024008,61.789445
3.2468,-0.011652,-0.002281,-0.011169,9.8e-05,1.9e-05,0.0,-0.016924,-0.512667,-0.009779,-1.206435,-264.57827,1.024008,61.789445
3.2665,-0.011943,-0.002425,-0.010829,9.8e-05,1.9e-05,0.0,-0.017349,-0.51225,-0.011169,-1.131673,-264.57827,0.949247,61.789445
3.2865,-0.012242,-0.002253,-0.010833,0.001739,0.000339,0.001525,-0.017358,-0.512261,-0.011142,-1.131673,-264.57827,0.949247,61.789445
3.3066,-0.011903,-0.002611,-0.010582,0.003411,0.000665,0.00299,-0.017767,-0.512223,-0.010833,-1.056275,-264.57827,0.873849,61.789445
3.3264,-0.011872,-0.002692,-0.011629,0.004984,0.000971,0.00437,-0.017502,-0.512427,-0.010691,-1.056275,-264.57827,0.873849,61.789445
3.3466,-0.01189,-0.002688,-0.01145,0.006475,0.001262,0.005676,-0.017502,-0.512427,-0.010691,-1.056275,-264.57827,0.873849,61.789445
3.3667,-0.011593,-0.002288,-0.01132,0.007869,0.001533,0.006899,-0.017729,-0.512654,-0.01145,-0.981677,-264.57827,0.799251,61.789445
3.3867,-0.011952,-0.0022,-0.010444,0.009176,0.001788,0.008044,-0.017706,-0.512629,-0.011441,-0.981677,-264.57827,0.799251,61.789445
3.4071,-0.011754,-0.002495,-0.010984,0.010399,0.002026,0.009116,-0.017279,-0.512172,-0.010444,-0.906684,-264.57827,0.724257,61.789445
3.4269,-0.011834,-0.002648,-0.010462,0.011522,0.002245,0.010101,-0.017322,-0.512337,-0.01075,-0.906684,-264.57827,0.724257,61.789445
3.4466,-0.011866,-0.002692,-0.009807,0.012557,0.002447,0.011008,-0.017322,-0.512337,-0.01075,-0.906684,-264.57827,0.724257,61.789445
3.4665,-0.011544,-0.002467,-0.011087,0.013504,0.002632,0.011838,-0.016867,-0.512667,-0.009807,-0.831675,-264.57827,0.649248,61.789445
3.4867,-0.011648,-0.002197,-0.010647,0.014361,0.002799,0.01259,-0.016895,-0.512648,-0.009912,-0.831675,-264.57827,0.649248,61.789445
3.5069,-0.011645,-0.002357,-0.011295,0.015129,0.002948,0.013263,-0.017078,-0.512168,-0.010647,-0.756273,-264.57827,0.573847,61.789445
3.5266,-0.011847,-0.002318,-0.011689,0.015805,0.00308,0.013856,-0.017264,-0.512257,-0.011015,-0.756273,-264.57827,0.573847,61.789445
3.5466,-0.011831,-0.00215,-0.011081,0.016392,0.003194,0.01437,-0.017264,-0.512257,-0.011015,-0.756273,-264.57827,0.573847,61.789445
3.5665,-0.011913,-0.002529,-0.010254,0.016888,0.003291,0.014805,-0.017482,-0.512119,-0.011081,-0.681545,-264.57827,0.499118,61.789445
3.587,-0.011726,-0.001989,-0.011179,0.017296,0.00337,0.015162,-0.01746,-0.512144,-0.011027,-0.681545,-264.57827,0.499118,61.789445
3.6065,-0.011759,-0.002298,-0.012077,0.01761,0.003432,0.015438,-0.017427,-0.511957,-0.011179,-0.606681,-264.57827,0.424254,61.789445
3.6269,-0.011851,-0.002369,-0.010159,0.017837,0.003476,0.015637,-0.017706,-0.51213,-0.01169,-0.606681,-264.57827,0.424254,61.789445
3.6467,-0.011748,-0.002376,-0.011019,0.017972,0.003502,0.015755,-0.017706,-0.51213,-0.01169,-0.606681,-264.57827,0.424254,61.789445
3.667,-0.011731,-0.002676,-0.012706,0.018018,0.003511,0.015795,-0.017367,-0.512345,-0.011019,-0.531627,-264.57827,0.349201,61.789445
3.6874,-0.011886,-0.002628,-0.011028,0.017973,0.003502,0.015756,-0.017422,-0.512364,-0.011128,-0.531627,-264.57827,0.349201,61.789445
3.7067,-0.012089,-0.002488,-0.010513,0.017839,0.003476,0.015639,-0.01751,-0.512597,-0.011028,-0.456681,-264.57827,0.274254,61.789445
3.7271,-0.011411,-0.002346,-0.01141,0.017616,0.003433,0.015443,-0.017478,-0.512522,-0.010748,-0.456681,-264.57827,0.274254,61.789445
3.7465,-0.011675,-0.002283,-0.011005,0.017301,0.003371,0.015167,-0.017478,-0.512522,-0.010748,-0.456681,-264.57827,0.274254,61.789445
3.7666,-0.011974,-0.002621,-0.009229,0.016893,0.003292,0.014809,-0.017288,-0.512252,-0.011005,-0.381682,-264.57827,0.199255,61.789445
3.7867,-0.011622,-0.002301,-0.012243,0.016397,0.003195,0.014375,-0.017247,-0.512276,-0.010886,-0.381682,-264.57827,0.199255,61.789445
3.8065,-0.011812,-0.002865,-0.009279,0.015805,0.00308,0.013855,-0.017866,-0.512263,-0.012243,-0.306679,-264.57827,0.124252,61.789445
3.8267,-0.011737,-0.002048,-0.011137,0.015137,0.00295,0.01327,-0.017118,-0.512591,-0.010567,-0.306679,-264.57827,0.124252,61.789445
3.8466,-0.011616,-0.002406,-0.010689,0.014378,0.002802,0.012605,-0.017118,-0.512591,-0.010567,-0.306679,-264.57827,0.124252,61.789445
3.8665,-0.01179,-0.002006,-0.011286,0.01352,0.002635,0.011852,-0.017068,-0.512376,-0.010689,-0.231679,-264.57827,0.049253,61.789446
3.8869,-0.011538,-0.002296,-0.012258,0.012568,0.002449,0.011018,-0.0171,-0.512349,-0.01073,-0.231679,-264.57827,0.049253,61.789446
3.9064,-0.012035,-0.002171,-0.011568,0.011543,0.002249,0.010119,-0.01779,-0.512257,-0.012258,-0.156683,-264.57827,-0.025744,61.789446
3.9264,-0.011888,-0.002662,-0.011284,0.010419,0.00203,0.009134,-0.017873,-0.512188,-0.011864,-0.156683,-264.57827,-0.025744,61.789446
3.9467,-0.01184,-0.002667,-0.011275,0.009196,0.001792,0.008061,-0.017873,-0.512188,-0.011864,-0.156683,-264.57827,-0.025744,61.789446
3.9666,-0.011769,-0.002372,-0.011271,0.007899,0.001539,0.006925,-0.01759,-0.512634,-0.011275,-0.081622,-264.57827,-0.100805,61.789446
3.987,-0.011733,-0.002056,-0.011548,0.006502,0.001267,0.0057,-0.017585,-0.512614,-0.011274,-0.081622,-264.57827,-0.100805,61.789446
4.0066,-0.011722,-0.002311,-0.010828,0.005016,0.000978,0.004397,-0.017622,-0.512022,-0.011548,-0.006685,-264.57827,-0.175741,61.789446
4.0267,-0.011851,-0.00228,-0.010119,0.003441,0.00067,0.003016,-0.017406,-0.51217,-0.011137,-0.006685,-264.57827,-0.175741,61.789446
4.0464,-0.01189,-0.002064,-0.010121,0.001778,0.000347,0.001559,-0.017406,-0.51217,-0.011137,-0.006685,-264.57827,-0.175741,61.789446
4.0665,-0.011804,-0.001799,-0.012929,2.2e-05,4e-06,1.9e-05,-0.017052,-0.512038,-0.010121,0.068388,-264.578267,-0.250815,61.789448
4.0868,-0.011923,-0.002425,-0.011267,0.0,0.0,0.0,-0.017146,-0.512018,-0.010317,0.068388,-264.578267,-0.250815,61.789448
4.1068,-0.012081,-0.002248,-0.010475,0.0,0.0,0.0,-0.017669,-0.512393,-0.011267,0.143302,-264.578263,-0.325728,61.789451
4.1267,-0.012015,-0.002562,-0.012834,0.0,0.0,0.0,-0.017529,-0.512294,-0.010815,0.143302,-264.578263,-0.325728,61.789451
4.1466,-0.011669,-0.002503,-0.010224,0.0,0.0,0.0,-0.017529,-0.512294,-0.010815,0.143302,-264.578263,-0.325728,61.789451
4.1666,-0.011974,-0.002421,-0.01189,0.0,0.0,0.0,-0.016883,-0.512477,-0.010224,0.143302,-264.578263,-0.325728,61.789451
4.1869,-0.011554,-0.002757,-0.010402,0.0,0.0,0.0,-0.016961,-0.51247,-0.010337,0.143302,-264.578263,-0.325728,61.789451
4.2065,-0.011325,-0.00249,-0.011121,0.0,0.0,0.0,-0.016859,-0.512729,-0.010402,0.143302,-264.578263,-0.325728,61.789451
4.2266,-0.011933,-0.002544,-0.009735,0.0,0.0,0.0,-0.016937,-0.512576,-0.01081,0.143302,-264.578263,-0.325728,61.789451
4.2466,-0.011843,-0.002317,-0.010577,0.0,0.0,0.0,-0.016937,-0.512576,-0.01081,0.143302,-264.578263,-0.325728,61.789451
4.2664,-0.012008,-0.002296,-0.011329,0.0,0.0,0.0,-0.017237,-0.512289,-0.010577,0.143302,-264.578263,-0.325728,61.789451
4.2868,-0.011988,-0.002254,-0.012252,0.0,0.0,0.0,-0.017275,-0.512287,-0.01063,0.143302,-264.578263,-0.325728,61.789451
4.3068,-0.011829,-0.00231,-0.010662,9.8e-05,2e-05,0.0,-0.018237,-0.512216,-0.012252,0.143302,-264.578263,-0.325728,61.789451
4.3265,-0.012096,-0.002776,-0.010719,9.8e-05,2e-05,0.0,-0.017685,-0.512253,-0.011347,0.143302,-264.578263,-0.325728,61.789451
4.3465,-0.011879,-0.002515,-0.009465,9.8e-05,2e-05,0.0,-0.017685,-0.512253,-0.011347,0.143302,-264.578263,-0.325728,61.789451
4.3673,-0.011873,-0.002726,-0.010694,9.8e-05,2e-05,0.0,-0.016706,-0.512492,-0.009465,0.143302,-264.578263,-0.325728,61.789451
4.3868,-0.011583,-0.002128,-0.012773,9.8e-05,2e-05,0.0,-0.016749,-0.512507,-0.00955,0.143302,-264.578263,-0.325728,61.789451
4.4071,-0.011553,-0.002209,-0.010822,9.8e-05,2e-05,0.0,-0.018096,-0.512086,-0.012772,0.198098,-264.578263,-0.250737,61.789452
4.4267,-0.011851,-0.00235,-0.009718,9.8e-05,2e-05,0.0,-0.017513,-0.512139,-0.011661,0.198098,-264.578263,-0.250737,61.789452
4.4465,-0.012104,-0.002518,-0.011137,9.8e-05,2e-05,0.0,-0.017513,-0.512139,-0.011661,0.198098,-264.578263,-0.250737,61.789452
4.4664,-0.011549,-0.002513,-0.010779,9.8e-05,2e-05,0.0,-0.017784,-0.512487,-0.011137,0.198098,-264.578262,-0.17567,61.789453
4.4867,-0.011802,-0.002419,-0.010333,9.8e-05,2e-05,0.0,-0.017735,-0.512486,-0.011114,0.198098,-264.578262,-0.17567,61.789453
4.5065,-0.011961,-0.002382,-0.011217,4.5e-05,9e-06,4.6e-05,-0.017071,-0.512392,-0.010333,0.198098,-264.578258,-0.100733,61.789457
4.5268,-0.012237,-0.002257,-0.009728,0.001751,0.000352,0.001794,-0.017418,-0.512368,-0.010835,0.198098,-264.578258,-0.100733,61.789457
4.5464,-0.011854,-0.002207,-0.012387,0.003414,0.000685,0.003498,-0.017418,-0.512368,-0.010835,0.198098,-264.578258,-0.100733,61.789457
4.5665,-0.012126,-0.002407,-0.010051,0.004979,0.000999,0.005101,-0.01817,-0.512168,-0.012387,0.198098,-264.578248,-0.025735,61.789467
4.587,-0.012159,-0.002253,-0.009357,0.006459,0.001296,0.006617,-0.018106,-0.512183,-0.012224,0.198098,-264.578248,-0.025735,61.789467
4.6066,-0.011727,-0.002332,-0.009964,0.007851,0.001576,0.008042,-0.016931,-0.51223,-0.009357,0.273108,-264.578245,-0.100745,61.789469
4.6265,-0.011501,-0.002541,-0.01051,0.009154,0.001837,0.009378,-0.016861,-0.512274,-0.009703,0.273108,-264.578245,-0.100745,61.789469
4.6467,-0.011856,-0.001975,-0.010722,0.010361,0.00208,0.010614,-0.016861,-0.512274,-0.009703,0.273108,-264.578245,-0.100745,61.789469
4.6664,-0.01185,-0.002601,-0.011041,0.011482,0.002305,0.011763,-0.017319,-0.511945,-0.01072,0.348099,-264.578202,-0.175736,61.789505
4.6864,-0.011889,-0.002339,-0.010826,0.012515,0.002512,0.012821,-0.01733,-0.511985,-0.010741,0.348099,-264.578202,-0.175736,61.789505
4.7064,-0.011818,-0.002237,-0.012241,0.013457,0.002701,0.013786,-0.017382,-0.512306,-0.010809,0.4231,-264.577855,-0.250738,61.789796
4.7266,-0.011828,-0.002458,-0.01185,0.01431,0.002873,0.01466,-0.017764,-0.512245,-0.011621,0.4231,-264.577855,-0.250738,61.789796
4.7464,-0.011544,-0.002426,-0.01249,0.01507,0.003025,0.015438,-0.017764,-0.512245,-0.011621,0.4231,-264.577855,-0.250738,61.789796
4.7672,-0.011382,-0.002416,-0.011154,0.015743,0.00316,0.016128,-0.01777,-0.51237,-0.012385,0.498105,-264.576443,-0.325742,61.790978
4.7869,-0.011651,-0.002249,-0.012599,0.016326,0.003277,0.016725,-0.017717,-0.51237,-0.012297,0.498105,-264.576443,-0.325742,61.790978
4.8063,-0.011154,-0.002527,-0.01018,0.016819,0.003376,0.01723,-0.017772,-0.512172,-0.01233,0.573104,-264.572532,-0.400741,61.794264
4.8266,-0.011971,-0.00213,-0.009496,0.017224,0.003457,0.017645,-0.016921,-0.512354,-0.011072,0.573104,-264.572532,-0.400741,61.794264
4.847,-0.011443,-0.001967,-0.011111,0.017537,0.00352,0.017965,-0.016921,-0.512354,-0.011072,0.573104,-264.572532,-0.400741,61.794264
4.8666,-0.011134,-0.002637,-0.009518,0.017761,0.003565,0.018195,-0.016479,-0.511842,-0.010504,0.648103,-264.566121,-0.401826,61.799949
4.8868,-0.011172,-0.00226,-0.010819,0.017895,0.003592,0.018332,-0.016431,-0.51189,-0.010424,0.648103,-264.566121,-0.401826,61.799949
4.9069,-0.010809,-0.002214,-0.009159,0.01794,0.003601,0.018378,-0.01603,-0.512104,-0.010145,0.690637,-264.557281,-0.401826,61.807353
4.9269,-0.010886,-0.002033,-0.009139,0.017894,0.003592,0.018332,-0.015634,-0.512139,-0.009498,0.690637,-264.557281,-0.401826,61.807353
4.9466,-0.010754,-0.002063,-0.008753,0.01776,0.003565,0.018195,-0.015634,-0.512139,-0.009498,0.690637,-264.557281,-0.401826,61.807353
4.9666,-0.010482,-0.001322,-0.007882,0.017534,0.00352,0.017963,-0.014346,-0.511876,-0.007862,0.690637,-264.547995,-0.401826,61.815131
4.9864,-0.010118,-0.002054,-0.00831,0.017222,0.003457,0.017643,-0.014334,-0.511833,-0.007839,0.690637,-264.547995,-0.401826,61.815131
5.0065,-0.009435,-0.001437,-0.008063,0.016817,0.003376,0.017229,-0.013669,-0.511904,-0.007607,0.690637,-264.538778,-0.401826,61.82285
5.0269,-0.009786,-0.001818,-0.007807,0.016326,0.003277,0.016725,-0.013512,-0.511612,-0.007778,0.690637,-264.538778,-0.401826,61.82285
5.0465,-0.009985,-0.00157,-0.006667,0.015742,0.00316,0.016127,-0.013512,-0.511612,-0.007778,0.690637,-264.538778,-0.401826,61.82285
5.0665,-0.009464,-0.001731,-0.006172,0.015069,0.003025,0.015438,-0.012547,-0.511396,-0.00581,0.690637,-264.529821,-0.401826,61.830352
5.0871,-0.009472,-0.001685,-0.006142,0.014307,0.002872,0.014657,-0.012528,-0.511416,-0.005812,0.690637,-264.529821,-0.401826,61.830352
5.1066,-0.008865,-0.001208,-0.004243,0.013454,0.002701,0.013783,-0.011997,-0.511557,-0.00552,0.690637,-264.521671,-0.401826,61.837178
5.1271,-0.009121,-0.00175,-0.005638,0.012509,0.002511,0.012814,-0.01137,-0.511341,-0.004716,0.690637,-264.521671,-0.401826,61.837178
5.1465,-0.009316,-0.001454,-0.005841,0.011477,0.002304,0.011758,-0.01137,-0.511341,-0.004716,0.690637,-264.521671,-0.401826,61.837178
5.1666,-0.00876,-0.001254,-0.005094,0.01036,0.00208,0.010613,-0.011598,-0.511309,-0.005128,0.690637,-264.514246,-0.401826,61.843397
5.187,-0.008585,-0.001221,-0.00459,0.009144,0.001836,0.009368,-0.011564,-0.511301,-0.005107,0.690637,-264.514246,-0.401826,61.843397
5.2069,-0.00821,-0.001247,-0.004078,0.007839,0.001574,0.00803,-0.010482,-0.511128,-0.004136,0.690637,-264.50829,-0.401826,61.848385
5.2267,-0.008628,-0.001251,-0.005846,0.006447,0.001294,0.006605,-0.010317,-0.511182,-0.004045,0.690637,-264.50829,-0.401826,61.848385
5.2467,-0.008699,-0.001391,-0.003658,0.00497,0.000998,0.005092,-0.010317,-0.511182,-0.004045,0.690637,-264.50829,-0.401826,61.848385
5.2664,-0.008345,-0.000865,-0.003139,0.003401,0.000683,0.003484,-0.010117,-0.5113,-0.0032,0.690637,-264.503505,-0.401826,61.852393
5.2867,-0.008054,-0.00133,-0.003926,0.001747,0.000351,0.00179,-0.01009,-0.511262,-0.003182,0.690637,-264.503505,-0.401826,61.852393
5.3067,-0.008162,-0.0008,-0.003431,0.0,0.0,0.0,-0.009866,-0.511288,-0.003731,0.690637,-264.500937,-0.401826,61.854543
5.3266,-0.008188,-0.001236,-0.00357,0.0,0.0,0.0,-0.009868,-0.511,-0.003533,0.690637,-264.500937,-0.401826,61.854543
5.3467,-0.008301,-0.001189,-0.002377,0.0,0.0,0.0,-0.009868,-0.511,-0.003533,0.690637,-264.500937,-0.401826,61.854543
5.3666,-0.008013,-0.001158,-0.002389,0.0,0.0,0.0,-0.009428,-0.511171,-0.00229,0.690637,-264.500034,-0.401826,61.8553
5.387,-0.008267,-0.000883,-0.001801,0.0,0.0,0.0,-0.009412,-0.511169,-0.002295,0.690637,-264.500034,-0.401826,61.8553
5.407,-0.007921,-0.000896,-0.003945,0.0,0.0,0.0,-0.009185,-0.510882,-0.001801,0.690637,-264.500034,-0.401826,61.8553
5.4268,-0.007957,-0.000712,-0.002567,0.0,0.0,0.0,-0.009613,-0.510888,-0.003028,0.690637,-264.500034,-0.401826,61.8553
5.4467,-0.008137,-0.000913,-0.003199,0.0,0.0,0.0,-0.009613,-0.510888,-0.003028,0.690637,-264.500034,-0.401826,61.8553
5.4664,-0.007698,-0.000844,-0.002292,0.0,0.0,0.0,-0.009768,-0.51091,-0.003199,0.690637,-264.500034,-0.401826,61.8553
5.4869,-0.008,-0.000608,-0.003574,0.0,0.0,0.0,-0.009705,-0.510906,-0.003136,0.690637,-264.500034,-0.401826,61.8553
5.5064,-0.007891,-0.000952,-0.003946,0.0,0.0,0.0,-0.009822,-0.510605,-0.003574,0.690637,-264.500034,-0.401826,61.8553
5.5267,-0.008112,-0.001153,-0.003914,9.9e-05,1.2e-05,0.0,-0.009868,-0.510799,-0.003785,0.690637,-264.500034,-0.401826,61.8553
5.5467,-0.007915,-0.000932,-0.004795,9.9e-05,1.2e-05,0.0,-0.009868,-0.510799,-0.003785,0.690637,-264.500034,-0.401826,61.8553
5.5666,-0.008284,-0.000596,-0.003638,9.9e-05,1.2e-05,0.0,-0.01036,-0.510926,-0.004795,0.690637,-264.500034,-0.401826,61.8553
5.5864,-0.008001,-0.000907,-0.002993,9.9e-05,1.2e-05,0.0,-0.010345,-0.510903,-0.004713,0.690637,-264.500034,-0.401826,61.8553
5.6066,-0.007512,-0.000659,-0.003165,9.9e-05,1.2e-05,0.0,-0.009527,-0.510905,-0.002993,0.615621,-264.500034,-0.32681,61.8553
5.6265,-0.007818,-0.001266,-0.002815,9.9e-05,1.2e-05,0.0,-0.009297,-0.510762,-0.003092,0.615621,-264.500034,-0.32681,61.8553
5.6467,-0.008166,-0.000655,-0.002894,9.9e-05,1.2e-05,0.0,-0.009297,-0.510762,-0.003092,0.615621,-264.500034,-0.32681,61.8553
5.6665,-0.008089,-0.001209,-0.004174,9.9e-05,1.2e-05,0.0,-0.009642,-0.510653,-0.002894,0.540493,-264.500034,-0.251682,61.8553
5.6864,-0.00807,-0.001006,-0.004133,9.9e-05,1.2e-05,0.0,-0.009687,-0.510697,-0.002995,0.540493,-264.500034,-0.251682,61.8553
5.7063,-0.007967,-0.001089,-0.003682,9.9e-05,1.2e-05,0.0,-0.010177,-0.511001,-0.004133,0.46531,-264.500034,-0.176499,61.8553
5.7264,-0.007986,-0.00112,-0.005182,9.9e-05,1.2e-05,0.0,-0.009988,-0.511049,-0.003876,0.46531,-264.500034,-0.176499,61.8553
5.7467,-0.008072,-0.001164,-0.003099,0.001149,0.000143,0.000575,-0.009988,-0.511049,-0.003876,0.46531,-264.500034,-0.176499,61.8553
5.7664,-0.008137,-0.000526,-0.002995,0.002245,0.00028,0.001123,-0.009653,-0.511162,-0.003099,0.390618,-264.500033,-0.101807,61.855301
5.7864,-0.007859,-0.001138,-0.004178,0.00328,0.000409,0.001641,-0.009653,-0.51112,-0.003092,0.390618,-264.500033,-0.101807,61.855301
5.8065,-0.007789,-0.001074,-0.00402,0.004257,0.000531,0.00213,-0.009949,-0.511129,-0.004158,0.406322,-264.499579,-0.176787,61.855725
5.827,-0.00825,-0.000885,-0.00344,0.005172,0.000645,0.002588,-0.009881,-0.511094,-0.004076,0.406322,-264.499579,-0.176787,61.855725
5.8467,-0.007919,-0.001121,-0.002781,0.006032,0.000752,0.003018,-0.009881,-0.511094,-0.004076,0.406322,-264.499579,-0.176787,61.855725
5.8666,-0.00779,-0.000933,-0.003229,0.00683,0.000852,0.003418,-0.009178,-0.5111,-0.002701,0.406322,-264.498152,-0.178971,61.857057
5.8864,-0.008099,-0.000947,-0.002086,0.007571,0.000944,0.003788,-0.009192,-0.511087,-0.002736,0.406322,-264.498152,-0.178971,61.857057
5.9064,-0.007693,-0.001188,-0.001575,0.008251,0.001029,0.004128,-0.00893,-0.510917,-0.00197,0.406322,-264.495527,-0.178971,61.859507
5.9268,-0.007677,-0.001114,-0.003677,0.008872,0.001106,0.004439,-0.008654,-0.511067,-0.00173,0.406322,-264.495527,-0.178971,61.859507
5.9469,-0.007662,-0.000915,-0.003607,0.009434,0.001176,0.00472,-0.008654,-0.511067,-0.00173,0.406322,-264.495527,-0.178971,61.859507
5.9664,-0.007666,-0.001014,-0.002964,0.009937,0.001239,0.004972,-0.009133,-0.510867,-0.003423,0.406322,-264.492208,-0.178971,61.862606
5.9865,-0.007412,-0.000922,-0.002345,0.010381,0.001294,0.005194,-0.009125,-0.510878,-0.003377,0.406322,-264.492208,-0.178971,61.862606
6.0064,-0.007577,-0.000665,-0.001966,0.010765,0.001342,0.005386,-0.008246,-0.510876,-0.002164,0.406322,-264.488128,-0.178971,61.866414
6.0267,-0.00755,-0.000764,-0.002491,0.01109,0.001383,0.005549,-0.00839,-0.51075,-0.002028,0.406322,-264.488128,-0.178971,61.866414
6.0469,-0.006858,-0.00073,-0.002429,0.011357,0.001416,0.005682,-0.00839,-0.51075,-0.002028,0.406322,-264.488128,-0.178971,61.866414
6.0667,-0.006385,-0.000582,-0.001856,0.011564,0.001442,0.005786,-0.00759,-0.510667,-0.002175,0.406322,-264.483608,-0.178971,61.870634
6.0868,-0.006838,-0.000729,-0.002623,0.011713,0.00146,0.005861,-0.007562,-0.51066,-0.002149,0.406322,-264.483608,-0.178971,61.870634
6.1071,-0.00675,-0.000717,-0.003727,0.011801,0.001471,0.005905,-0.007736,-0.510674,-0.002403,0.406322,-264.478663,-0.178971,61.87525
6.1267,-0.005944,-0.000405,-0.001572,0.011831,0.001475,0.00592,-0.008189,-0.510689,-0.003113,0.406322,-264.478663,-0.178971,61.87525
6.1466,-0.006417,-0.000817,0.001207,0.011802,0.001471,0.005905,-0.008189,-0.510689,-0.003113,0.406322,-264.478663,-0.178971,61.87525
6.1664,-0.005659,-0.000414,-0.000941,0.011712,0.00146,0.00586,-0.005232,-0.510745,0.001492,0.406322,-264.473555,-0.178971,61.880018
6.1864,-0.005752,-0.000559,5.1e-05,0.011565,0.001442,0.005787,-0.005282,-0.510719,0.001323,0.406322,-264.473555,-0.178971,61.880018
6.2066,-0.005186,-0.000681,-0.001435,0.011358,0.001416,0.005683,-0.00527,-0.510502,0.000279,0.406322,-264.468422,-0.178971,61.88481
6.2266,-0.00529,-0.000412,-0.00133,0.011092,0.001383,0.00555,-0.005579,-0.510596,-0.000664,0.406322,-264.468422,-0.178971,61.88481
6.2467,-0.005164,-0.000906,-0.001425,0.010767,0.001342,0.005387,-0.005579,-0.510596,-0.000664,0.406322,-264.468422,-0.178971,61.88481
6.2665,-0.005123,-0.00056,-0.001909,0.010383,0.001294,0.005195,-0.005329,-0.510837,-0.001144,0.406322,-264.463387,-0.178971,61.88951
6.2868,-0.004367,-0.000803,-0.002383,0.009939,0.001239,0.004973,-0.005367,-0.510816,-0.001189,0.406322,-264.463387,-0.178971,61.88951
6.3067,-0.004682,-8e-05,-0.001091,0.009436,0.001176,0.004721,-0.005164,-0.510751,-0.002174,0.406322,-264.458698,-0.178971,61.893887
6.3268,-0.004512,-0.000614,-0.001146,0.008875,0.001107,0.004441,-0.005153,-0.510368,-0.00154,0.406322,-264.458698,-0.178971,61.893887
6.3469,-0.004631,-0.000311,-0.000773,0.008254,0.001029,0.00413,-0.005153,-0.510368,-0.00154,0.406322,-264.458698,-0.178971,61.893887
6.3665,-0.004312,-0.000199,0.000103,0.007574,0.000944,0.00379,-0.00454,-0.510251,-0.000531,0.406322,-264.45437,-0.178971,61.897927
6.3864,-0.003666,0.000201,-0.000989,0.006834,0.000852,0.003419,-0.004513,-0.510246,-0.000488,0.406322,-264.45437,-0.178971,61.897927
6.4065,-0.003504,-0.000292,-0.001179,0.006036,0.000753,0.00302,-0.003851,-0.509759,-0.00083,0.406322,-264.450776,-0.178971,61.901282
6.4266,-0.003725,-0.000229,-0.000563,0.005176,0.000645,0.00259,-0.003955,-0.510057,-0.001008,0.406322,-264.450776,-0.178971,61.901282
6.4464,-0.004104,-0.000479,-0.002492,0.00426,0.000531,0.002131,-0.003955,-0.510057,-0.001008,0.406322,-264.450776,-0.178971,61.901282
6.4666,-0.003831,-0.000238,-0.001303,0.003285,0.00041,0.001644,-0.005043,-0.510437,-0.002326,0.406322,-264.4478,-0.178971,61.90406
6.4869,-0.003667,-0.000218,0.001604,0.002247,0.00028,0.001124,-0.004996,-0.510422,-0.002251,0.406322,-264.4478,-0.178971,61.90406
6.5065,-0.003688,0.000243,0.000501,0.001152,0.000144,0.000576,-0.002684,-0.510197,0.001687,0.406322,-264.445945,-0.178971,61.905792
6.5265,-0.003238,7.7e-05,-0.001329,1e-06,0.0,1e-06,-0.003089,-0.509944,0.001023,0.406322,-264.445945,-0.178971,61.905792
6.5465,-0.003008,-3.2e-05,-0.001495,0.0,0.0,0.0,-0.003089,-0.509944,0.001023,0.406322,-264.445945,-0.178971,61.905792
6.5665,-0.003107,-2.3e-05,0.001528,0.0,0.0,0.0,-0.003662,-0.510018,-0.00144,0.406322,-264.444967,-0.178971,61.906705
6.5866,-0.003137,-0.000407,0.000246,0.0,0.0,0.0,-0.003566,-0.510018,-0.001233,0.406322,-264.444967,-0.178971,61.906705
6.6068,-0.003246,-0.000258,-0.000507,0.0,0.0,0.0,-0.003012,-0.510406,0.000246,0.406322,-264.444967,-0.178971,61.906705
6.6269,-0.003394,-0.000567,-0.002361,0.0,0.0,0.0,-0.003292,-0.510322,-0.000183,0.406322,-264.444967,-0.178971,61.906705
6.6467,-0.003559,-0.000176,-0.000109,0.0,0.0,0.0,-0.003292,-0.510322,-0.000183,0.406322,-264.444967,-0.178971,61.906705
6.6666,-0.003267,-0.000521,-0.000892,0.0,0.0,0.0,-0.003614,-0.510176,-0.000109,0.406322,-264.444967,-0.178971,61.906705
6.6864,-0.002946,-0.000227,-0.000149,0.0,0.0,0.0,-0.003621,-0.510198,-0.00016,0.406322,-264.444967,-0.178971,61.906705
