mach0312/omni-docking-bench/src/icros_test_setup/results/kinematic_sample/timeseries/trial_094.csv
t,x,y,yaw,vx,vy,wz,bl_x,bl_y,bl_yaw,front_steering_joint,front_wheel_joint,rear_steering_joint,rear_wheel_joint
0.0,0.029885,0.028724,-0.051154,-0.006153,0.001431,-0.002485,0.004731,-0.481213,-0.050294,0.014143,-264.101793,-0.44686,62.769298
0.0005,0.029747,0.028477,-0.049402,-0.0,0.0,-0.0,0.004731,-0.481213,-0.050294,0.014143,-264.104882,-0.44686,62.765873
0.0008,0.029793,0.02844,-0.050461,0.0,0.0,0.0,0.003491,-0.480702,-0.0526,0.014143,-264.107344,-0.44686,62.763143
0.0011,0.029404,0.028647,-0.051742,0.0,0.0,0.0,0.003732,-0.48083,-0.05156,0.014143,-264.108684,-0.44686,62.761658
0.0014,0.029515,0.028387,-0.049991,0.0,0.0,0.0,0.003732,-0.48083,-0.05156,0.014143,-264.109156,-0.44686,62.761134
0.0017,0.029871,0.028831,-0.052707,0.0,0.0,0.0,0.003732,-0.48083,-0.05156,0.014143,-264.109156,-0.44686,62.761134
0.002,0.029661,0.028747,-0.052499,0.0,0.0,0.0,0.003532,-0.480793,-0.051428,0.014143,-264.109156,-0.44686,62.761134
0.0023,0.029584,0.028581,-0.052109,0.0,0.0,0.0,0.003532,-0.480793,-0.051428,0.014143,-264.109156,-0.44686,62.761134
0.0025,0.029796,0.028642,-0.050695,0.0,0.0,0.0,0.003524,-0.480783,-0.051429,0.014143,-264.109156,-0.44686,62.761134
0.0028,0.029513,0.028593,-0.051477,0.0,0.0,0.0,0.003524,-0.480783,-0.051429,0.014143,-264.109156,-0.44686,62.761134
0.0184,0.029814,0.028779,-0.051644,-0.016,-0.016,0.03,0.003271,-0.480731,-0.051477,0.014143,-264.109156,-0.44686,62.761134
0.0384,0.029762,0.028628,-0.050955,-0.028289,-0.03028,0.05,0.003394,-0.480623,-0.051572,0.014143,-264.109156,-0.44686,62.761134
0.0593,0.0296,0.028941,-0.050252,-0.028265,-0.030107,0.05,0.003394,-0.480623,-0.051572,0.014143,-264.109156,-0.44686,62.761134
0.0787,0.029333,0.028965,-0.051289,-0.028109,-0.030391,0.05,0.003983,-0.480415,-0.050252,0.014143,-264.109156,-0.44686,62.761134
0.0987,0.029654,0.02836,-0.051201,-0.02781,-0.03043,0.05,0.003939,-0.480413,-0.05031,0.014143,-264.109156,-0.44686,62.761134
0.1188,0.029637,0.028301,-0.051091,-0.028164,-0.02984,0.05,0.003553,-0.480972,-0.051201,-0.015228,-264.109157,-0.371845,62.761132
0.1385,0.029813,0.028688,-0.049896,-0.028153,-0.029778,0.05,0.003575,-0.481007,-0.051138,-0.015228,-264.109157,-0.371845,62.761132
0.1585,0.029664,0.028185,-0.051186,-0.028345,-0.030139,0.049896,0.003575,-0.481007,-0.051138,-0.015228,-264.109157,-0.371845,62.761132
0.1787,0.029593,0.028553,-0.050563,-0.028183,-0.029665,0.05,0.00357,-0.481147,-0.051186,-0.003855,-264.109158,-0.296727,62.761129
0.1983,0.029686,0.028661,-0.05122,-0.028112,-0.030012,0.05,0.003587,-0.481124,-0.051145,-0.003855,-264.109158,-0.296727,62.761129
0.2185,0.029702,0.028434,-0.050574,-0.02818,-0.030143,0.05,0.003575,-0.480671,-0.05122,-0.011806,-264.109159,-0.221801,62.761126
0.2384,0.030002,0.028776,-0.049718,-0.028227,-0.029899,0.05,0.003772,-0.48081,-0.050851,-0.011806,-264.109159,-0.221801,62.761126
0.2586,0.029532,0.028646,-0.051287,-0.028535,-0.030231,0.049718,0.003772,-0.48081,-0.050851,-0.011806,-264.109159,-0.221801,62.761126
0.2784,0.029843,0.028724,-0.051852,-0.028024,-0.030122,0.05,0.003386,-0.480683,-0.051287,-0.018677,-264.10916,-0.14678,62.761124
0.2986,0.029844,0.028733,-0.05019,-0.028315,-0.030232,0.05,0.003388,-0.480677,-0.051324,-0.018677,-264.10916,-0.14678,62.761124
0.3186,0.029618,0.028714,-0.051396,-0.028365,-0.030194,0.05,0.004257,-0.480625,-0.05019,-0.004683,-264.109161,-0.071863,62.761121
0.3386,0.029703,0.028772,-0.050092,-0.028104,-0.030197,0.05,0.003776,-0.480618,-0.050881,-0.004683,-264.109161,-0.071863,62.761121
0.3584,0.029907,0.028508,-0.050553,-0.028225,-0.030223,0.05,0.003776,-0.480618,-0.050881,-0.004683,-264.109161,-0.071863,62.761121
0.3784,0.029695,0.0286,-0.052326,-0.028428,-0.029983,0.05,0.004135,-0.48084,-0.050553,-0.010779,-264.109162,0.003247,62.761118
0.3986,0.029159,0.028621,-0.050683,-0.028158,-0.030114,0.05,0.004054,-0.48083,-0.050683,-0.010779,-264.109162,0.003247,62.761118
0.4185,0.029659,0.028491,-0.053301,-0.027671,-0.030061,0.05,0.003321,-0.480724,-0.050683,-0.011131,-264.109163,0.078234,62.761116
0.4383,0.029396,0.028889,-0.052263,-0.028099,-0.030031,0.05,0.002846,-0.480758,-0.052178,-0.011131,-264.109163,0.078234,62.761116
0.4585,0.029457,0.028802,-0.05242,-0.027847,-0.030385,0.05,0.002846,-0.480758,-0.052178,-0.011131,-264.109163,0.078234,62.761116
0.4782,0.029842,0.028818,-0.051744,-0.027907,-0.030306,0.05,0.002734,-0.480497,-0.05242,-0.015038,-264.109165,0.153245,62.761113
0.4983,0.029309,0.028719,-0.051142,-0.028311,-0.030323,0.05,0.002786,-0.480497,-0.052372,-0.015038,-264.109165,0.153245,62.761113
0.5188,0.029773,0.028582,-0.05208,-0.027802,-0.03018,0.05,0.003238,-0.480614,-0.051142,-0.005483,-264.109166,0.228233,62.76111
0.5386,0.029493,0.028446,-0.051348,-0.028245,-0.030093,0.05,0.00323,-0.480679,-0.051679,-0.005483,-264.109166,0.228233,62.76111
0.5585,0.029527,0.028791,-0.051856,-0.027994,-0.029922,0.05,0.00323,-0.480679,-0.051679,-0.005483,-264.109166,0.228233,62.76111
0.579,0.029793,0.028882,-0.051159,-0.027995,-0.030283,0.05,0.003092,-0.480523,-0.051856,-0.00757,-264.109167,0.30324,62.761108
0.5992,0.029768,0.028588,-0.050736,-0.028278,-0.030367,0.05,0.003137,-0.480518,-0.051805,-0.00757,-264.109167,0.30324,62.761108
0.6189,0.029592,0.028536,-0.052464,-0.028279,-0.030061,0.05,0.003903,-0.480756,-0.050736,-0.02199,-264.109168,0.378244,62.761105
0.6383,0.029535,0.028556,-0.052602,-0.028055,-0.030048,0.05,0.003304,-0.48076,-0.051717,-0.02199,-264.109168,0.378244,62.761105
0.6587,0.029458,0.028714,-0.050681,-0.027993,-0.030069,0.05,0.003304,-0.48076,-0.051717,-0.02199,-264.109168,0.378244,62.761105
0.6785,0.029373,0.028485,-0.051159,-0.027966,-0.030169,0.05,0.003622,-0.480631,-0.05068,-0.006015,-264.109169,0.453142,62.761101
0.6986,0.029532,0.028591,-0.049922,-0.027878,-0.02995,0.05,0.003599,-0.480646,-0.050713,-0.006015,-264.109169,0.453142,62.761101
0.7187,0.029834,0.028797,-0.051294,-0.028068,-0.030029,0.049922,0.004082,-0.480774,-0.049921,-0.016726,-264.109174,0.528137,62.761091
0.7388,0.03005,0.029063,-0.051253,-0.028319,-0.030289,0.05,0.003856,-0.480636,-0.050706,-0.016726,-264.109174,0.528137,62.761091
0.7586,0.029667,0.028715,-0.051506,-0.028521,-0.030564,0.05,0.003856,-0.480636,-0.050706,-0.016726,-264.109174,0.528137,62.761091
0.7787,0.029714,0.02854,-0.051365,-0.028149,-0.030205,0.05,0.003407,-0.48061,-0.051503,-0.021062,-264.109194,0.603238,62.761044
0.7986,0.029749,0.028799,-0.051997,-0.02821,-0.030028,0.05,0.003417,-0.480624,-0.051492,-0.021062,-264.109194,0.603238,62.761044
0.8183,0.029812,0.02893,-0.051559,-0.028212,-0.030306,0.05,0.003229,-0.480518,-0.051985,0.000938,-264.109293,0.678569,62.760808
0.8386,0.029818,0.028802,-0.05305,-0.028282,-0.030428,0.05,0.003399,-0.480447,-0.05174,0.000938,-264.109293,0.678569,62.760808
0.8583,0.030018,0.028979,-0.049896,-0.028248,-0.030343,0.05,0.003399,-0.480447,-0.05174,0.000938,-264.109293,0.678569,62.760808
0.8789,0.029631,0.028905,-0.051662,-0.028536,-0.03044,0.049896,0.004522,-0.480418,-0.049838,-0.018047,-264.109649,0.753273,62.759967
0.8986,0.02976,0.028477,-0.052465,-0.028098,-0.030396,0.05,0.004429,-0.480419,-0.049971,-0.018047,-264.109649,0.753273,62.759967
0.9183,0.029789,0.028249,-0.050578,-0.028226,-0.029998,0.05,0.002883,-0.4809,-0.052325,-0.00689,-264.110661,0.828284,62.75756
0.9382,0.029257,0.028821,-0.052709,-0.028323,-0.029719,0.05,0.003503,-0.481023,-0.051316,-0.00689,-264.110661,0.828284,62.75756
0.9584,0.029332,0.028695,-0.05107,-0.027697,-0.030323,0.05,0.003503,-0.481023,-0.051316,-0.00689,-264.110661,0.828284,62.75756
0.9789,0.028834,0.028356,-0.050375,-0.027829,-0.030155,0.05,0.002959,-0.480856,-0.050686,-0.005027,-264.113004,0.903181,62.752654
0.9983,0.028955,0.028155,-0.050141,-0.02737,-0.029772,0.05,0.002963,-0.480871,-0.050655,-0.005027,-264.113004,0.903181,62.752654
1.0187,0.027956,0.028293,-0.050378,-0.027507,-0.02957,0.05,0.002969,-0.481479,-0.049653,-0.007756,-264.11736,0.978139,62.745237
1.0384,0.027843,0.028225,-0.050433,-0.026496,-0.029665,0.05,0.002517,-0.481273,-0.050007,-0.007756,-264.11736,0.978139,62.745237
1.0585,0.028482,0.02816,-0.051728,-0.026385,-0.029593,0.05,0.002517,-0.481273,-0.050007,-0.007756,-264.11736,0.978139,62.745237
1.0787,0.026498,0.027221,-0.050187,-0.026988,-0.029595,0.05,0.001374,-0.481631,-0.050854,-0.027965,-264.124234,1.053266,62.735295
1.0983,0.026434,0.02751,-0.049936,-0.025099,-0.028516,0.05,0.001314,-0.481687,-0.050772,-0.027965,-264.124234,1.053266,62.735295
1.1182,0.025087,0.027008,-0.048809,-0.025028,-0.028795,0.049936,0.000272,-0.482343,-0.04903,-0.035776,-264.133074,1.128503,62.722919
1.1384,0.025018,0.026986,-0.048343,-0.02374,-0.0282,0.048809,0.000144,-0.482429,-0.048788,-0.035776,-264.133074,1.128503,62.722919
1.1583,0.024949,0.026416,-0.049345,-0.023685,-0.028164,0.048343,0.000144,-0.482429,-0.048788,-0.035776,-264.133074,1.128503,62.722919
1.1785,0.023571,0.026294,-0.046772,-0.023615,-0.027614,0.049345,-0.001172,-0.483703,-0.047907,-0.080351,-264.142567,1.168912,62.708028
1.1988,0.023398,0.026431,-0.046954,-0.022316,-0.027367,0.046772,-0.001135,-0.483684,-0.047788,-0.080351,-264.142567,1.168912,62.708028
1.2186,0.021612,0.025493,-0.045809,-0.022131,-0.0275,0.046954,-0.001352,-0.483727,-0.045628,-0.05745,-264.151954,1.18122,62.690624
1.2383,0.021517,0.02539,-0.045668,-0.020422,-0.026456,0.045809,-0.001673,-0.483955,-0.045565,-0.05745,-264.151954,1.18122,62.690624
1.2587,0.021454,0.025209,-0.044634,-0.020335,-0.026346,0.045668,-0.001673,-0.483955,-0.045565,-0.05745,-264.151954,1.18122,62.690624
1.2785,0.019582,0.02394,-0.043232,-0.020308,-0.026141,0.044634,-0.00234,-0.485334,-0.042744,-0.053675,-264.160891,1.191172,62.670687
1.2987,0.019737,0.024357,-0.040861,-0.018529,-0.024764,0.043232,-0.002376,-0.48538,-0.042728,-0.053675,-264.160891,1.191172,62.670687
1.3186,0.017071,0.02345,-0.041485,-0.018726,-0.025143,0.040861,-0.0019,-0.486168,-0.039157,-0.075877,-264.168925,1.212092,62.648284
1.3384,0.016791,0.023129,-0.039839,-0.016084,-0.024137,0.041485,-0.003248,-0.486256,-0.040272,-0.075877,-264.168925,1.212092,62.648284
1.3586,0.017146,0.022727,-0.041226,-0.015856,-0.02378,0.039839,-0.003248,-0.486256,-0.040272,-0.075877,-264.168925,1.212092,62.648284
1.3784,0.014649,0.022073,-0.038216,-0.016195,-0.023414,0.041226,-0.004818,-0.488003,-0.039131,-0.088299,-264.176323,1.22336,62.62664
1.3984,0.01517,0.021826,-0.038621,-0.013795,-0.022616,0.038216,-0.004842,-0.488003,-0.039023,-0.088299,-264.176323,1.22336,62.62664
1.4185,0.013468,0.020863,-0.036206,-0.014316,-0.022396,0.038621,-0.005133,-0.488638,-0.037168,-0.034794,-264.182313,1.25243,62.607517
1.4383,0.012975,0.020964,-0.036811,-0.012704,-0.021337,0.036206,-0.00513,-0.488839,-0.036435,-0.034794,-264.182313,1.25243,62.607517
1.4584,0.013049,0.020712,-0.036417,-0.012195,-0.021427,0.036811,-0.00513,-0.488839,-0.036435,-0.034794,-264.182313,1.25243,62.607517
1.4787,0.01141,0.019799,-0.035096,-0.012287,-0.021174,0.036417,-0.006216,-0.490006,-0.034592,-0.052426,-264.18774,1.279189,62.588665
1.4987,0.01202,0.020118,-0.03393,-0.010709,-0.020188,0.035096,-0.006252,-0.490025,-0.034578,-0.052426,-264.18774,1.279189,62.588665
1.5183,0.01004,0.018835,-0.033354,-0.011331,-0.020514,0.03393,-0.005767,-0.49038,-0.032543,-0.086321,-264.192522,1.299904,62.57086
1.5386,0.010249,0.018826,-0.032019,-0.009406,-0.019159,0.033354,-0.006517,-0.490768,-0.032833,-0.086321,-264.192522,1.299904,62.57086
1.5584,0.010456,0.018424,-0.033359,-0.009642,-0.019145,0.032019,-0.006517,-0.490768,-0.032833,-0.086321,-264.192522,1.299904,62.57086
1.5787,0.008962,0.017752,-0.031222,-0.009836,-0.018762,0.033359,-0.007095,-0.492238,-0.031685,-0.115938,-264.196766,1.318974,62.553943
1.5983,0.008874,0.017883,-0.031344,-0.008404,-0.018023,0.031222,-0.007101,-0.492248,-0.0316,-0.115938,-264.196766,1.318974,62.553943
1.6183,0.007823,0.017074,-0.029891,-0.00831,-0.018153,0.031344,-0.007468,-0.492528,-0.030219,-0.042562,-264.200291,1.326633,62.539376
1.6384,0.007569,0.017064,-0.029615,-0.007309,-0.0173,0.029891,-0.007486,-0.49271,-0.029887,-0.042562,-264.200291,1.326633,62.539376
1.6584,0.007348,0.016898,-0.030217,-0.00706,-0.017281,0.029615,-0.007486,-0.49271,-0.029887,-0.042562,-264.200291,1.326633,62.539376
1.6785,0.006978,0.016498,-0.027907,-0.006835,-0.017112,0.030217,-0.008448,-0.493641,-0.028865,-0.117288,-264.203321,1.347995,62.525765
1.6987,0.006646,0.016226,-0.027756,-0.006515,-0.016686,0.027907,-0.008369,-0.493638,-0.028754,-0.117288,-264.203321,1.347995,62.525765
1.7188,0.005423,0.015364,-0.027077,-0.006194,-0.016405,0.027756,-0.007793,-0.494227,-0.026629,-0.113758,-264.206123,1.373771,62.511544
1.7387,0.004978,0.015303,-0.02571,-0.005005,-0.015505,0.027077,-0.008167,-0.494437,-0.026741,-0.113758,-264.206123,1.373771,62.511544
1.7583,0.005278,0.015124,-0.0274,-0.004583,-0.015426,0.02571,-0.008167,-0.494437,-0.026741,-0.113758,-264.206123,1.373771,62.511544
1.7783,0.004474,0.014757,-0.026674,-0.004862,-0.015263,0.0274,-0.009014,-0.495443,-0.026119,-0.054883,-264.20859,1.380007,62.498556
1.7983,0.0045,0.014465,-0.025746,-0.004079,-0.014871,0.026674,-0.00903,-0.495436,-0.026123,-0.054883,-264.20859,1.380007,62.498556
1.8187,0.003266,0.013875,-0.023727,-0.004126,-0.014576,0.025746,-0.008816,-0.495939,-0.024785,-0.060201,-264.210369,1.424614,62.486368
1.8382,0.003444,0.013865,-0.024577,-0.002936,-0.013949,0.023727,-0.008849,-0.496035,-0.024059,-0.060201,-264.210369,1.424614,62.486368
1.859,0.003481,0.014089,-0.02369,-0.003103,-0.013945,0.024577,-0.008849,-0.496035,-0.024059,-0.060201,-264.210369,1.424614,62.486368
1.8789,0.003227,0.013699,-0.024513,-0.003147,-0.014167,0.02369,-0.008664,-0.495985,-0.023318,-0.135241,-264.210875,1.440646,62.482685
1.8983,0.003134,0.01359,-0.024176,-0.002891,-0.013774,0.024513,-0.008702,-0.496,-0.023382,-0.135241,-264.210875,1.440646,62.482685
1.9187,0.002872,0.01321,-0.023712,-0.002804,-0.013662,0.024176,-0.009266,-0.496549,-0.023678,-0.210201,-264.211577,1.464053,62.476503
1.9386,0.003061,0.013216,-0.024493,-0.002558,-0.013274,0.023712,-0.00925,-0.496641,-0.023634,-0.210201,-264.211577,1.464053,62.476503
1.9583,0.002323,0.013479,-0.022183,-0.002737,-0.013287,0.024493,-0.00925,-0.496641,-0.023634,-0.210201,-264.211577,1.464053,62.476503
1.9787,0.002237,0.013172,-0.022759,-0.002024,-0.013528,0.022183,-0.009081,-0.496789,-0.021494,-0.28519,-264.212309,1.470574,62.46975
1.9983,0.002479,0.012876,-0.022732,-0.001936,-0.01322,0.022759,-0.009103,-0.496793,-0.021563,-0.28519,-264.212309,1.470574,62.46975
2.0185,0.001798,0.012736,-0.024885,-0.002186,-0.012929,0.022732,-0.009153,-0.497162,-0.022429,-0.360192,-264.212728,1.474204,62.466042
2.0383,0.00187,0.012563,-0.022774,-0.00148,-0.012777,0.024885,-0.010155,-0.497152,-0.023799,-0.360192,-264.212728,1.474204,62.466042
2.0583,0.002208,0.012732,-0.022494,-0.001584,-0.012603,0.022774,-0.010155,-0.497152,-0.023799,-0.360192,-264.212728,1.474204,62.466042
2.0783,0.001358,0.012356,-0.022356,-0.001921,-0.012779,0.022494,-0.009344,-0.497496,-0.021853,-0.337931,-264.213534,1.499514,62.459839
2.0989,0.001418,0.012681,-0.023486,-0.001082,-0.012383,0.022356,-0.009397,-0.497508,-0.021872,-0.337931,-264.213534,1.499514,62.459839
2.1186,0.001297,0.012183,-0.022013,-0.00112,-0.012711,0.023486,-0.010569,-0.497244,-0.023371,-0.412897,-264.213642,1.511129,62.458438
2.1383,0.00171,0.012463,-0.022891,-0.001028,-0.012209,0.022013,-0.01021,-0.497505,-0.022593,-0.412897,-264.213642,1.511129,62.458438
2.1585,0.001623,0.012306,-0.021012,-0.001424,-0.012499,0.022891,-0.01021,-0.497505,-0.022593,-0.412897,-264.213642,1.511129,62.458438
2.1788,0.001483,0.011983,-0.020876,-0.001364,-0.012337,0.021012,-0.009095,-0.497602,-0.020977,-0.48792,-264.213664,1.529275,62.458091
2.1988,0.001491,0.012438,-0.020887,-0.001232,-0.012011,0.020876,-0.0091,-0.497622,-0.020969,-0.48792,-264.213664,1.529275,62.458091
2.2188,0.001201,0.011998,-0.022799,-0.001231,-0.012467,0.020887,-0.009175,-0.497545,-0.020718,-0.562808,-264.213823,1.517065,62.456039
2.2384,0.001538,0.012082,-0.020875,-0.000927,-0.012022,0.022799,-0.009887,-0.497741,-0.021878,-0.562808,-264.213823,1.517065,62.456039
2.2585,0.001031,0.012297,-0.021058,-0.001285,-0.012112,0.020875,-0.009887,-0.497741,-0.021878,-0.562808,-264.213823,1.517065,62.456039
2.2782,0.000819,0.011913,-0.020318,-0.000772,-0.012316,0.021058,-0.009756,-0.497847,-0.020576,-0.540352,-264.214394,1.521063,62.45148
2.2983,0.001084,0.011997,-0.020707,-0.000576,-0.011927,0.020318,-0.009742,-0.497864,-0.020544,-0.540352,-264.214394,1.521063,62.45148
2.3187,0.000493,0.011235,-0.019534,-0.000835,-0.012017,0.020707,-0.009522,-0.498221,-0.020132,-0.465228,-264.214912,1.51914,62.444436
2.3385,0.00036,0.011356,-0.019768,-0.000273,-0.011242,0.019534,-0.009498,-0.498516,-0.01972,-0.465228,-264.214912,1.51914,62.444436
2.3586,0.000487,0.011242,-0.02039,-0.000135,-0.011361,0.019768,-0.009498,-0.498516,-0.01972,-0.465228,-264.214912,1.51914,62.444436
2.3783,0.000373,0.0113,-0.020061,-0.000258,-0.01125,0.02039,-0.009928,-0.498894,-0.019981,-0.540097,-264.215037,1.547118,62.440386
2.3986,0.000618,0.011023,-0.019412,-0.000146,-0.011305,0.020061,-0.009924,-0.498879,-0.019976,-0.540097,-264.215037,1.547118,62.440386
2.4182,0.000484,0.01114,-0.019009,-0.000404,-0.011033,0.019412,-0.009282,-0.498881,-0.019412,-0.615214,-264.215037,1.565024,62.440385
2.4382,0.000451,0.011184,-0.02036,-0.000272,-0.011147,0.019009,-0.009241,-0.498816,-0.019182,-0.615214,-264.215037,1.565024,62.440385
2.4582,0.000753,0.011265,-0.021257,-0.000223,-0.011191,0.02036,-0.009241,-0.498816,-0.019182,-0.615214,-264.215037,1.565024,62.440385
2.4785,0.000691,0.011617,-0.019382,-0.000513,-0.011278,0.021257,-0.010087,-0.49862,-0.021257,-0.690199,-264.215037,1.56458,62.440384
2.4986,0.000326,0.011546,-0.021118,-0.000466,-0.011628,0.019382,-0.010026,-0.498597,-0.021127,-0.690199,-264.215037,1.56458,62.440384
2.5183,0.000697,0.011403,-0.019208,-8.2e-05,-0.011551,0.021118,-0.010443,-0.49834,-0.021118,-0.765112,-264.215037,1.561348,62.440381
2.5387,0.000658,0.011547,-0.018699,-0.000478,-0.011414,0.019208,-0.009679,-0.498433,-0.020033,-0.765112,-264.215037,1.561348,62.440381
2.5584,0.000578,0.011368,-0.01764,-0.000442,-0.011558,0.018699,-0.009679,-0.498433,-0.020033,-0.765112,-264.215037,1.561348,62.440381
2.5786,0.000227,0.011181,-0.017415,-0.000377,-0.011376,0.01764,-0.008423,-0.498635,-0.017501,-0.690125,-264.215067,1.550949,62.439002
2.5986,-0.000252,0.010853,-0.019206,-3.2e-05,-0.011183,0.017415,-0.00844,-0.498645,-0.017491,-0.690125,-264.215067,1.550949,62.439002
2.6183,0.000344,0.011324,-0.018791,0.00046,-0.010846,0.019206,-0.010046,-0.499053,-0.019205,-0.615039,-264.215067,1.551565,62.439001
2.6384,0.000269,0.011014,-0.018935,-0.000131,-0.011329,0.018791,-0.009584,-0.498786,-0.018968,-0.615039,-264.215067,1.551565,62.439001
2.6584,0.000366,0.011264,-0.020371,-6.1e-05,-0.011017,0.018935,-0.009584,-0.498786,-0.018968,-0.615039,-264.215067,1.551565,62.439001
2.6784,0.000165,0.011517,-0.0183,-0.000137,-0.011269,0.020371,-0.010022,-0.49863,-0.020371,-0.690041,-264.215067,1.569339,62.439
2.6986,0.0004,0.011298,-0.01861,4.5e-05,-0.011518,0.0183,-0.009968,-0.498616,-0.02024,-0.690041,-264.215067,1.569339,62.439
2.7186,0.000208,0.011349,-0.020038,-0.00019,-0.011303,0.01861,-0.009091,-0.498614,-0.01861,-0.764954,-264.215067,1.568101,62.438999
2.7399,0.000432,0.010933,-0.019024,2e-05,-0.011351,0.020038,-0.009615,-0.498577,-0.019423,-0.764954,-264.215067,1.568101,62.438999
2.7588,0.000714,0.011245,-0.019506,-0.000224,-0.010939,0.019024,-0.009615,-0.498577,-0.019423,-0.764954,-264.215067,1.568101,62.438999
2.7787,0.000158,0.0111,-0.020697,-0.000494,-0.011256,0.019506,-0.009234,-0.498659,-0.019505,-0.839957,-264.215067,1.572801,62.438995
2.7983,0.000281,0.01122,-0.020367,7.2e-05,-0.011101,0.020697,-0.009308,-0.498667,-0.019581,-0.839957,-264.215067,1.572801,62.438995
2.8185,0.000259,0.010948,-0.020812,-5.3e-05,-0.011223,0.020367,-0.010106,-0.4987,-0.020323,-0.914964,-264.215084,1.560883,62.438453
2.8383,0.000174,0.011303,-0.02142,-3.2e-05,-0.010951,0.020812,-0.010247,-0.498841,-0.020595,-0.914964,-264.215084,1.560883,62.438453
2.8582,0.00054,0.010817,-0.019653,6.8e-05,-0.011304,0.02142,-0.010247,-0.498841,-0.020595,-0.914964,-264.215084,1.560883,62.438453
2.8784,0.000477,0.01096,-0.019804,-0.000327,-0.010825,0.019653,-0.009483,-0.499085,-0.019652,-0.989946,-264.215084,1.573836,62.438451
2.8986,0.000384,0.010697,-0.018781,-0.00026,-0.010968,0.019804,-0.009492,-0.499075,-0.019663,-0.989946,-264.215084,1.573836,62.438451
2.9185,0.000624,0.011074,-0.020271,-0.000183,-0.010702,0.018781,-0.009194,-0.499214,-0.01878,-1.064948,-264.215085,1.573592,62.438436
2.9384,0.000568,0.011063,-0.018687,-0.0004,-0.011085,0.020271,-0.009486,-0.498993,-0.019618,-1.064948,-264.215085,1.573592,62.438436
2.9584,8.7e-05,0.011175,-0.017713,-0.000361,-0.011071,0.018687,-0.009486,-0.498993,-0.019618,-1.064948,-264.215085,1.573592,62.438436
2.9785,-0.000183,0.011049,-0.019142,0.000111,-0.011175,0.017713,-0.008954,-0.49889,-0.017451,-1.139962,-264.215215,1.559541,62.435921
2.9989,0.000227,0.010751,-0.019239,0.000395,-0.011044,0.019142,-0.009022,-0.498892,-0.01756,-1.139962,-264.215215,1.559541,62.435921
3.0186,-2.4e-05,0.010974,-0.018134,-2e-05,-0.010753,0.019239,-0.009586,-0.499194,-0.019173,-1.064978,-264.215233,1.554745,62.435099
3.0383,0.000128,0.01124,-0.018947,0.000223,-0.010972,0.018134,-0.009407,-0.499055,-0.018573,-1.064978,-264.215233,1.554745,62.435099
3.059,-0.000134,0.010883,-0.018973,8.5e-05,-0.01124,0.018947,-0.009407,-0.499055,-0.018573,-1.064978,-264.215233,1.554745,62.435099
3.0785,-0.000106,0.0112,-0.019449,0.00034,-0.010879,0.018973,-0.00981,-0.499025,-0.018973,-0.989977,-264.215233,1.588158,62.435098
3.0986,3.4e-05,0.010843,-0.018873,0.000324,-0.011195,0.019449,-0.009816,-0.499015,-0.018988,-0.989977,-264.215233,1.588158,62.435098
3.1183,0.000373,0.01083,-0.018505,0.00017,-0.010842,0.018873,-0.00959,-0.499066,-0.018873,-0.914963,-264.215233,1.574525,62.435097
3.1381,-0.00014,0.011067,-0.020079,-0.000173,-0.010835,0.018505,-0.009288,-0.499076,-0.018662,-0.914963,-264.215233,1.574525,62.435097
3.1581,-0.000181,0.010993,-0.018257,0.000362,-0.011062,0.020079,-0.009288,-0.499076,-0.018662,-0.914963,-264.215233,1.574525,62.435097
3.1786,0.000106,0.010767,-0.018616,0.000382,-0.010988,0.018257,-0.009492,-0.498922,-0.018257,-0.839856,-264.215233,1.584832,62.435096
3.1986,0.000101,0.010965,-0.018383,9.5e-05,-0.010767,0.018616,-0.009485,-0.498938,-0.018282,-0.839856,-264.215233,1.584832,62.435096
3.2182,0.000114,0.011252,-0.018917,0.0001,-0.010965,0.018383,-0.009273,-0.498949,-0.018383,-0.764975,-264.215233,1.586324,62.435095
3.2385,0.000343,0.010919,-0.018894,9.8e-05,-0.011252,0.018917,-0.009422,-0.498782,-0.018689,-0.764975,-264.215233,1.586324,62.435095
3.2585,-0.000188,0.010965,-0.017694,-0.000137,-0.010923,0.018894,-0.009422,-0.498782,-0.018689,-0.764975,-264.215233,1.586324,62.435095
3.2783,-4.7e-05,0.011014,-0.019153,0.000382,-0.01096,0.017694,-0.009212,-0.498955,-0.017694,-0.840073,-264.215233,1.575075,62.435094
3.2987,-2.5e-05,0.011136,-0.019319,0.000258,-0.011011,0.019153,-0.009254,-0.498951,-0.017796,-0.840073,-264.215233,1.575075,62.435094
3.3184,0.000126,0.010925,-0.020106,0.00024,-0.011134,0.019319,-0.009877,-0.498774,-0.01931,-0.914972,-264.215236,1.564702,62.434982
3.3386,0.000252,0.010691,-0.018652,9.4e-05,-0.010926,0.020106,-0.01002,-0.498887,-0.019763,-0.914972,-264.215236,1.564702,62.434982
3.3586,0.000168,0.010897,-0.019364,-5.2e-05,-0.010694,0.018652,-0.01002,-0.498887,-0.019763,-0.914972,-264.215236,1.564702,62.434982
3.3784,0.000269,0.010967,-0.0185,4.3e-05,-0.010898,0.019364,-0.009707,-0.499008,-0.019364,-0.839863,-264.215236,1.582146,62.434981
3.3986,0.000169,0.010922,-0.018436,-6.6e-05,-0.01097,0.0185,-0.00967,-0.499003,-0.019305,-0.839863,-264.215236,1.582146,62.434981
3.4185,0.000206,0.011308,-0.018252,3.2e-05,-0.010923,0.018436,-0.009233,-0.498992,-0.018435,-0.914769,-264.215236,1.568427,62.434975
3.4384,2.6e-05,0.01083,-0.019562,1e-06,-0.01131,0.018252,-0.009158,-0.498771,-0.01833,-0.914769,-264.215236,1.568427,62.434975
3.4584,0.000161,0.010527,-0.019755,0.000186,-0.010828,0.019562,-0.009158,-0.498771,-0.01833,-0.914769,-264.215236,1.568427,62.434975
3.4783,8.4e-05,0.011129,-0.018904,4.7e-05,-0.010528,0.019755,-0.009914,-0.49939,-0.019728,-0.989886,-264.21524,1.567851,62.434705
3.4987,-8.6e-05,0.01051,-0.017472,0.000126,-0.011128,0.018904,-0.009889,-0.499347,-0.019669,-0.989886,-264.21524,1.567851,62.434705
3.5185,1.9e-05,0.010664,-0.018769,0.000269,-0.010507,0.017472,-0.008996,-0.499412,-0.017472,-1.064757,-264.215241,1.578947,62.434704
3.5385,0.00035,0.010775,-0.018831,0.000181,-0.010662,0.018769,-0.009313,-0.499318,-0.018211,-1.064757,-264.215241,1.578947,62.434704
3.559,-7.6e-05,0.010596,-0.019698,-0.000147,-0.010779,0.018831,-0.009313,-0.499318,-0.018211,-1.064757,-264.215241,1.578947,62.434704
3.5786,8.5e-05,0.011066,-0.019431,0.000285,-0.010593,0.019698,-0.010121,-0.499305,-0.019698,-0.989644,-264.215241,1.576371,62.434703
3.5987,0.000194,0.010988,-0.019609,0.00013,-0.011066,0.019431,-0.010102,-0.499275,-0.019681,-0.989644,-264.215241,1.576371,62.434703
3.6186,0.000197,0.010709,-0.01931,2.2e-05,-0.01099,0.019609,-0.009808,-0.498953,-0.019541,-1.064533,-264.215268,1.564187,62.433868
3.6383,-0.000556,0.010693,-0.018008,1e-05,-0.010711,0.01931,-0.009718,-0.499097,-0.019401,-1.064533,-264.215268,1.564187,62.433868
3.6583,1.4e-05,0.011024,-0.01857,0.000748,-0.010682,0.018008,-0.009718,-0.499097,-0.019401,-1.064533,-264.215268,1.564187,62.433868
3.6787,6e-06,0.01072,-0.018665,0.000191,-0.011023,0.01857,-0.009457,-0.498888,-0.01857,-1.139636,-264.215268,1.576459,62.433863
3.6988,-9.8e-05,0.01115,-0.019589,0.000194,-0.010718,0.018665,-0.00946,-0.498909,-0.018576,-1.139636,-264.215268,1.576459,62.433863
3.7184,7.6e-05,0.010777,-0.018662,0.000317,-0.011146,0.019589,-0.010088,-0.498752,-0.019589,-1.064741,-264.215268,1.605286,62.433862
3.7384,7.8e-05,0.010959,-0.019594,0.000125,-0.010777,0.018662,-0.009718,-0.498971,-0.019058,-1.064741,-264.215268,1.605286,62.433862
3.7591,8.4e-05,0.010604,-0.018164,0.000137,-0.010958,0.019594,-0.009718,-0.498971,-0.019058,-1.064741,-264.215268,1.605286,62.433862
3.7783,-7e-05,0.010964,-0.016822,0.000108,-0.010604,0.018164,-0.009179,-0.499311,-0.018164,-0.989593,-264.215268,1.579568,62.433861
3.7983,-0.000475,0.010949,-0.018119,0.000254,-0.010962,0.016822,-0.009135,-0.499283,-0.018054,-0.989593,-264.215268,1.579568,62.433861
3.8184,2.4e-05,0.010883,-0.019875,0.000674,-0.010938,0.018119,-0.009716,-0.498968,-0.018119,-1.064848,-264.215268,1.576775,62.433859
3.8383,0.000138,0.011288,-0.019984,0.000192,-0.010881,0.019875,-0.009941,-0.498996,-0.01912,-1.064848,-264.215268,1.576775,62.433859
3.8586,6e-06,0.011068,-0.017633,8.8e-05,-0.011288,0.019984,-0.009941,-0.498996,-0.01912,-1.064848,-264.215268,1.576775,62.433859
3.8785,0.000103,0.0107,-0.018311,0.000189,-0.011066,0.017633,-0.008982,-0.499016,-0.017403,-1.139588,-264.215067,1.582754,62.431369
3.8987,-0.000305,0.01053,-0.018464,9.3e-05,-0.0107,0.018311,-0.008998,-0.499032,-0.017455,-1.139588,-264.215067,1.582754,62.431369
3.9186,0.000213,0.010617,-0.019574,0.0005,-0.010523,0.018464,-0.009722,-0.499387,-0.018457,-1.214441,-264.21507,1.574541,62.43128
3.9384,0.000509,0.010475,-0.01936,-6e-06,-0.010619,0.019574,-0.009749,-0.499329,-0.019096,-1.214441,-264.21507,1.574541,62.43128
3.9585,3.3e-05,0.011002,-0.019401,-0.000306,-0.010483,0.01936,-0.009749,-0.499329,-0.019096,-1.214441,-264.21507,1.574541,62.43128
3.9784,-7.4e-05,0.011108,-0.019,0.00018,-0.011001,0.019401,-0.009861,-0.498902,-0.019401,-1.139285,-264.21507,1.575054,62.431279
3.9984,-0.000242,0.010451,-0.019106,0.000285,-0.011104,0.019,-0.009854,-0.498895,-0.019375,-1.139285,-264.21507,1.575054,62.431279
4.0186,-0.00031,0.010457,-0.018934,0.000441,-0.010445,0.019106,-0.009994,-0.499564,-0.018888,-1.214132,-264.215344,1.557083,62.428783
4.0384,-0.00036,0.010307,-0.018213,0.000507,-0.010449,0.018934,-0.009978,-0.499514,-0.018886,-1.214132,-264.215344,1.557083,62.428783
4.0585,-0.000259,0.010962,-0.018007,0.000548,-0.010298,0.018213,-0.009978,-0.499514,-0.018886,-1.214132,-264.215344,1.557083,62.428783
4.0784,-0.00045,0.010417,-0.018722,0.000457,-0.010955,0.018007,-0.009443,-0.498956,-0.018007,-1.139125,-264.215344,1.583353,62.428782
4.0987,-0.000338,0.010496,-0.018496,0.000645,-0.010407,0.018722,-0.009481,-0.498993,-0.018056,-1.139125,-264.215344,1.583353,62.428782
4.1188,-0.000454,0.010572,-0.018449,0.000532,-0.010488,0.018496,-0.00977,-0.499416,-0.018496,-1.064029,-264.215344,1.596363,62.428781
4.1383,7.8e-05,0.010464,-0.017721,0.000649,-0.010562,0.018449,-0.009823,-0.499373,-0.018469,-1.064029,-264.215344,1.596363,62.428781
4.1583,3.9e-05,0.01068,-0.017437,0.000108,-0.010464,0.017721,-0.009823,-0.499373,-0.018469,-1.064029,-264.215344,1.596363,62.428781
4.1786,-0.000384,0.010509,-0.019463,0.000148,-0.010679,0.017437,-0.008854,-0.499242,-0.017437,-0.988987,-264.215344,1.600305,62.42878
4.1983,-8.6e-05,0.010373,-0.018757,0.000589,-0.0105,0.019463,-0.008959,-0.499253,-0.017584,-0.988987,-264.215344,1.600305,62.42878
4.2189,-0.000278,0.010528,-0.018185,0.000281,-0.010369,0.018757,-0.009652,-0.499538,-0.018757,-0.914028,-264.215344,1.575858,62.42878
4.2383,-0.000323,0.010362,-0.018181,0.000469,-0.010521,0.018185,-0.009595,-0.499452,-0.018432,-0.914028,-264.215344,1.575858,62.42878
4.2589,-0.000266,0.01061,-0.018387,0.000512,-0.010355,0.018181,-0.009595,-0.499452,-0.018432,-0.914028,-264.215344,1.575858,62.42878
4.2788,-1.6e-05,0.010897,-0.01972,0.000461,-0.010603,0.018387,-0.009642,-0.499304,-0.018387,-0.839128,-264.215344,1.597089,62.428779
4.2986,-0.000437,0.010453,-0.017407,0.000231,-0.010894,0.01972,-0.009672,-0.499283,-0.018478,-0.839128,-264.215344,1.597089,62.428779
4.3184,-0.000863,0.010611,-0.018451,0.000619,-0.010444,0.017407,-0.009314,-0.49947,-0.017407,-0.764124,-264.215344,1.594638,62.428778
4.3385,-0.000449,0.010376,-0.018359,0.001058,-0.010593,0.018451,-0.009859,-0.499375,-0.018001,-0.764124,-264.215344,1.594638,62.428778
4.3583,-0.000501,0.010389,-0.018322,0.000639,-0.010366,0.018359,-0.009859,-0.499375,-0.018001,-0.764124,-264.215344,1.594638,62.428778
4.3782,-0.000455,0.010647,-0.018702,0.000692,-0.010378,0.018322,-0.009845,-0.499526,-0.018322,-0.688971,-264.215344,1.580862,62.428777
4.3987,-0.000245,0.010463,-0.018515,0.000654,-0.010637,0.018702,-0.009856,-0.499506,-0.01835,-0.688971,-264.215344,1.580862,62.428777
4.4189,-3.9e-05,0.010403,-0.018044,0.000439,-0.010457,0.018515,-0.009687,-0.49945,-0.018515,-0.613947,-264.215344,1.600419,62.428776
4.4383,-0.00017,0.010398,-0.019709,0.000227,-0.010401,0.018044,-0.009435,-0.499486,-0.018249,-0.613947,-264.215344,1.600419,62.428776
4.4584,-0.000223,0.010491,-0.018924,0.000375,-0.010393,0.019709,-0.009435,-0.499486,-0.018249,-0.613947,-264.215344,1.600419,62.428776
4.4784,-0.000165,0.010267,-0.018219,0.000422,-0.010485,0.018924,-0.009874,-0.499418,-0.018924,-0.539006,-264.215344,1.600418,62.428775
4.4988,-0.000156,0.010774,-0.018156,0.000352,-0.010263,0.018219,-0.009845,-0.499434,-0.018875,-0.539006,-264.215344,1.600418,62.428775
4.5183,-0.00027,0.010893,-0.018576,0.000352,-0.010769,0.018156,-0.009415,-0.499142,-0.018155,-0.464136,-264.215344,1.587492,62.428774
4.5383,-0.000266,0.010904,-0.018808,0.000472,-0.010887,0.018576,-0.009603,-0.499071,-0.018397,-0.464136,-264.215344,1.587492,62.428774
4.5586,-0.000451,0.010152,-0.018386,0.000471,-0.010897,0.018808,-0.009603,-0.499071,-0.018397,-0.464136,-264.215344,1.587492,62.428774
4.5786,-0.000553,0.010503,-0.017723,0.000637,-0.010142,0.018386,-0.009827,-0.499762,-0.018386,-0.388969,-264.215344,1.587234,62.428773
4.5988,-0.000579,0.010359,-0.01803,0.000739,-0.010491,0.017723,-0.009811,-0.499738,-0.01834,-0.388969,-264.215344,1.587234,62.428773
4.6187,-7.8e-05,0.010602,-0.019606,0.000766,-0.010347,0.01803,-0.009774,-0.499558,-0.01803,-0.314133,-264.215344,1.591817,62.428773
4.6385,3e-05,0.010482,-0.018056,0.000285,-0.010598,0.019606,-0.009948,-0.49941,-0.018936,-0.314133,-264.215344,1.591817,62.428773
4.6585,-0.000282,0.010476,-0.018105,0.000159,-0.010481,0.018056,-0.009948,-0.49941,-0.018936,-0.314133,-264.215344,1.591817,62.428773
4.6787,-0.000202,0.010805,-0.018997,0.000471,-0.010469,0.018105,-0.009515,-0.49944,-0.018105,-0.238942,-264.215343,1.605454,62.428771
4.6983,-0.000301,0.010622,-0.019124,0.000408,-0.010799,0.018997,-0.009543,-0.499416,-0.018171,-0.238942,-264.215343,1.605454,62.428771
4.7187,-0.000622,0.01044,-0.018604,0.000504,-0.010614,0.019124,-0.010053,-0.499285,-0.019124,-0.164001,-264.215343,1.578196,62.42877
4.7386,-4.6e-05,0.010876,-0.019554,0.000816,-0.010426,0.018604,-0.010085,-0.499392,-0.018827,-0.164001,-264.215343,1.578196,62.42877
4.7586,-0.00016,0.010838,-0.019551,0.000258,-0.010873,0.019554,-0.010085,-0.499392,-0.018827,-0.164001,-264.215343,1.578196,62.42877
4.7785,-0.000244,0.010775,-0.01663,0.000372,-0.010833,0.019551,-0.01013,-0.499064,-0.019551,-0.08901,-264.215343,1.588994,62.428769
4.7992,0.000192,0.010425,-0.019259,0.000423,-0.01077,0.01663,-0.01004,-0.49907,-0.019362,-0.08901,-264.215343,1.588994,62.428769
4.8184,-0.000246,0.010217,-0.018949,9e-06,-0.010427,0.019259,-0.009629,-0.49948,-0.019258,-0.014114,-264.215343,1.582119,62.428768
4.8386,-2e-05,0.010758,-0.017429,0.000439,-0.010211,0.018949,-0.009786,-0.499598,-0.019085,-0.014114,-264.215343,1.582119,62.428768
4.8586,1e-06,0.010081,-0.01891,0.000207,-0.010756,0.017429,-0.009786,-0.499598,-0.019085,-0.014114,-264.215343,1.582119,62.428768
4.8786,-2e-05,0.010993,-0.017713,0.00019,-0.010079,0.01891,-0.009643,-0.499828,-0.01891,-0.08928,-264.215343,1.591024,62.428768
4.8988,-0.00019,0.010594,-0.019317,0.000214,-0.010991,0.017713,-0.009597,-0.499758,-0.018816,-0.08928,-264.215343,1.591024,62.428768
4.9186,-0.00017,0.01011,-0.017976,0.000394,-0.010589,0.019317,-0.010041,-0.499339,-0.01927,-0.164394,-264.215337,1.580469,62.428169
4.9386,-3.9e-05,0.01006,-0.018485,0.000352,-0.010105,0.017976,-0.009642,-0.499609,-0.018529,-0.164394,-264.215337,1.580469,62.428169
4.9584,-0.000414,0.010712,-0.017738,0.000225,-0.010058,0.018485,-0.009642,-0.499609,-0.018529,-0.164394,-264.215337,1.580469,62.428169
4.9785,-0.00024,0.010638,-0.018835,0.000604,-0.010703,0.017738,-0.00946,-0.499214,-0.017728,-0.239121,-264.215335,1.580631,62.428065
4.9986,-0.000466,0.010544,-0.01806,0.00044,-0.010632,0.018835,-0.009486,-0.499218,-0.017804,-0.239121,-264.215335,1.580631,62.428065
5.0183,-0.000321,0.010376,-0.018588,0.000656,-0.010534,0.01806,-0.009676,-0.499373,-0.01806,-0.164136,-264.215335,1.581344,62.428064
5.0385,-0.000238,0.010549,-0.018709,0.000514,-0.010368,0.018588,-0.009747,-0.499465,-0.01836,-0.164136,-264.215335,1.581344,62.428064
5.0585,-0.000181,0.010529,-0.019503,0.000435,-0.010543,0.018709,-0.009747,-0.499465,-0.01836,-0.164136,-264.215335,1.581344,62.428064
5.0784,-0.000615,0.010732,-0.017723,0.000386,-0.010524,0.019503,-0.010127,-0.499374,-0.019503,-0.08918,-264.215335,1.590673,62.428063
5.0985,-0.000468,0.010711,-0.018675,0.000805,-0.01072,0.017723,-0.010093,-0.499361,-0.019378,-0.08918,-264.215335,1.590673,62.428063
5.1182,-0.000465,0.010691,-0.019358,0.000668,-0.010701,0.018675,-0.009992,-0.4992,-0.018675,-0.014144,-264.215335,1.590596,62.428062
5.1386,-0.000583,0.010371,-0.017653,0.000672,-0.01068,0.019358,-0.010189,-0.499208,-0.019065,-0.014144,-264.215335,1.590596,62.428062
5.1584,-0.000365,0.010181,-0.019013,0.000766,-0.010359,0.017653,-0.010189,-0.499208,-0.019065,-0.014144,-264.215335,1.590596,62.428062
5.1784,-0.000345,0.010441,-0.017116,0.000558,-0.010172,0.019013,-0.010044,-0.499878,-0.018763,0.060925,-264.215103,1.608128,62.42556
5.1982,-0.000734,0.010468,-0.018645,0.000523,-0.010434,0.017116,-0.009975,-0.499855,-0.018641,0.060925,-264.215103,1.608128,62.42556
5.2186,8e-05,0.009649,-0.017912,0.000929,-0.010452,0.018645,-0.010241,-0.49946,-0.018619,0.135862,-264.21509,1.606995,62.425231
5.2383,-0.00041,0.010206,-0.016991,0.000929,-0.010452,0.018645,-0.009564,-0.499923,-0.018212,0.135862,-264.21509,1.606995,62.425231
5.2585,-0.000507,0.010006,-0.018737,6e-06,-0.0001,0.0,-0.009564,-0.499923,-0.018212,0.135862,-264.21509,1.606995,62.425231
5.2783,-0.000822,0.010145,-0.018532,6e-06,-0.0001,0.0,-0.01005,-0.500076,-0.018454,0.060814,-264.214911,1.595846,62.422401
5.2987,-0.000743,0.010283,-0.017571,6e-06,-0.0001,0.0,-0.010065,-0.50006,-0.018452,0.060814,-264.214911,1.595846,62.422401
5.3184,-0.000296,0.010115,-0.018138,6e-06,-0.0001,0.0,-0.009704,-0.499638,-0.017571,0.135766,-264.214911,1.627905,62.422401
5.3384,-0.000134,0.009977,-0.018017,6e-06,-0.0001,0.0,-0.009614,-0.499732,-0.017895,0.135766,-264.214911,1.627905,62.422401
5.3583,-0.000916,0.010129,-0.017596,6e-06,-0.0001,0.0,-0.009614,-0.499732,-0.017895,0.135766,-264.214911,1.627905,62.422401
5.3782,-0.000405,0.01027,-0.01705,6e-06,-0.0001,0.0,-0.00989,-0.499792,-0.017596,0.210821,-264.214911,1.627905,62.422401
5.3985,-0.000699,0.010366,-0.017097,6e-06,-0.0001,0.0,-0.009832,-0.499782,-0.017556,0.210821,-264.214911,1.627905,62.422401
5.4182,-0.000532,0.009765,-0.017289,6e-06,-0.0001,0.0,-0.009418,-0.499559,-0.017097,0.285865,-264.214911,1.627905,62.422401
5.4383,-0.00068,0.00974,-0.018415,6e-06,-0.0001,0.0,-0.009378,-0.499904,-0.017207,0.285865,-264.214911,1.627905,62.422401
5.4589,-0.000558,0.010173,-0.017692,0.0,-3e-06,6e-06,-0.009378,-0.499904,-0.017207,0.285865,-264.214911,1.627905,62.422401
5.4782,-0.000496,0.010257,-0.017337,8.5e-05,-0.001492,0.002486,-0.00958,-0.499747,-0.017692,0.36092,-264.214911,1.627905,62.422401
5.4989,-0.000511,0.010265,-0.017254,0.000166,-0.002907,0.004844,-0.009565,-0.499742,-0.01767,0.36092,-264.214911,1.627905,62.422401
5.5185,-0.000695,0.010016,-0.017351,0.000243,-0.004247,0.007076,-0.00931,-0.49966,-0.017254,0.298721,-264.21491,1.599125,62.422399
5.5387,-0.000651,0.00983,-0.017246,0.000315,-0.005506,0.009174,-0.009444,-0.499801,-0.017309,0.298721,-264.21491,1.599125,62.422399
5.5584,-0.000602,0.010314,-0.019088,0.000383,-0.006694,0.011153,-0.009444,-0.499801,-0.017309,0.298721,-264.21491,1.599125,62.422399
5.5784,-0.000626,0.010171,-0.018205,0.000446,-0.007805,0.013005,-0.010331,-0.499735,-0.018853,0.298721,-264.214841,1.599125,62.420055
5.5993,-0.000774,0.010114,-0.017485,0.000505,-0.008836,0.014722,-0.010303,-0.499739,-0.018804,0.298721,-264.214841,1.599125,62.420055
5.6187,-0.001401,0.010018,-0.015656,0.00056,-0.009797,0.016324,-0.009681,-0.500043,-0.017093,0.298721,-264.214681,1.599125,62.41521
5.6383,-0.000852,0.009838,-0.015989,0.00061,-0.010672,0.017781,-0.009515,-0.500003,-0.016244,0.298721,-264.214681,1.599125,62.41521
5.6585,-0.001202,0.00984,-0.018067,0.000656,-0.011473,0.019115,-0.009515,-0.500003,-0.016244,0.298721,-264.214681,1.599125,62.41521
5.6785,-0.001214,0.009821,-0.017198,0.000697,-0.0122,0.020327,-0.010399,-0.500507,-0.01735,0.298721,-264.214469,1.599125,62.408077
5.6986,-0.001025,0.009463,-0.015365,0.000735,-0.01285,0.02141,-0.010372,-0.500492,-0.017322,0.298721,-264.214469,1.599125,62.408077
5.7184,-0.001657,0.008527,-0.01494,0.000768,-0.013427,0.022371,-0.008842,-0.500921,-0.014626,0.298721,-264.214195,1.599125,62.398814
5.7385,-0.001934,0.008665,-0.015719,0.000796,-0.013922,0.023197,-0.009086,-0.501259,-0.014711,0.298721,-264.214195,1.599125,62.398814
5.7586,-0.002101,0.008894,-0.016775,0.00082,-0.014342,0.023895,-0.009086,-0.501259,-0.014711,0.298721,-264.214195,1.599125,62.398814
5.7785,-0.00226,0.007944,-0.014918,0.00084,-0.014685,0.024468,-0.01063,-0.50166,-0.015734,0.298721,-264.213887,1.599125,62.38844
5.7988,-0.002672,0.008354,-0.015905,0.000855,-0.014953,0.024914,-0.010577,-0.501699,-0.01565,0.298721,-264.213887,1.599125,62.38844
5.8184,-0.002641,0.007407,-0.012058,0.000866,-0.015144,0.025233,-0.01076,-0.502136,-0.014982,0.298721,-264.213544,1.599125,62.376861
5.8383,-0.002824,0.007374,-0.013199,0.000872,-0.015259,0.025423,-0.009635,-0.502445,-0.0132,0.298721,-264.213544,1.599125,62.376861
5.8583,-0.003044,0.007407,-0.012196,0.000875,-0.015297,0.025487,-0.009635,-0.502445,-0.0132,0.298721,-264.213544,1.599125,62.376861
5.8783,-0.003496,0.006608,-0.010549,0.000872,-0.015259,0.025423,-0.00923,-0.503282,-0.010985,0.298721,-264.213186,1.599125,62.364789
5.8982,-0.003026,0.006617,-0.011621,0.000866,-0.015144,0.025232,-0.009205,-0.503307,-0.010922,0.298721,-264.213186,1.599125,62.364789
5.9185,-0.004706,0.005964,-0.009846,0.000855,-0.014953,0.024913,-0.008925,-0.50394,-0.010637,0.298721,-264.21282,1.599125,62.352439
5.9383,-0.00411,0.005937,-0.011157,0.00084,-0.014685,0.024468,-0.009379,-0.504055,-0.010061,0.298721,-264.21282,1.599125,62.352439
5.9583,-0.004187,0.005931,-0.010184,0.00082,-0.014341,0.023894,-0.009379,-0.504055,-0.010061,0.298721,-264.21282,1.599125,62.352439
5.9784,-0.004573,0.005194,-0.009063,0.000796,-0.013919,0.023191,-0.009345,-0.504779,-0.008957,0.298721,-264.212458,1.599125,62.340212
5.9986,-0.004809,0.005183,-0.009914,0.000767,-0.013423,0.022365,-0.009334,-0.504799,-0.008932,0.298721,-264.212458,1.599125,62.340212
6.0183,-0.005177,0.004363,-0.008008,0.000735,-0.012848,0.021406,-0.009839,-0.505346,-0.008991,0.298721,-264.212115,1.599125,62.328634
6.0389,-0.005077,0.004517,-0.009525,0.000697,-0.012196,0.020321,-0.009507,-0.505572,-0.008315,0.298721,-264.212115,1.599125,62.328634
6.0587,-0.005569,0.004421,-0.009205,0.000656,-0.011472,0.019114,-0.009507,-0.505572,-0.008315,0.298721,-264.212115,1.599125,62.328634
6.0784,-0.005791,0.003805,-0.007463,0.000609,-0.010661,0.017762,-0.010232,-0.506211,-0.008118,0.298721,-264.211794,1.599125,62.317796
6.0983,-0.005645,0.003653,-0.006899,0.00056,-0.00979,0.016312,-0.010188,-0.506226,-0.008044,0.298721,-264.211794,1.599125,62.317796
6.1189,-0.006095,0.002974,-0.005235,0.000505,-0.008833,0.014718,-0.009141,-0.506779,-0.006161,0.298721,-264.211519,1.599125,62.308518
6.1386,-0.006387,0.002731,-0.005996,0.000446,-0.007796,0.01299,-0.008924,-0.506972,-0.00554,0.298721,-264.211519,1.599125,62.308518
6.1584,-0.006244,0.002963,-0.003978,0.000383,-0.006692,0.01115,-0.008924,-0.506972,-0.00554,0.298721,-264.211519,1.599125,62.308518
6.1785,-0.006689,0.002449,-0.006421,0.000315,-0.005506,0.009173,-0.008248,-0.507509,-0.003186,0.298721,-264.211285,1.599125,62.300617
6.1982,-0.006402,0.002741,-0.004818,0.000243,-0.004244,0.007071,-0.008365,-0.507523,-0.003388,0.298721,-264.211285,1.599125,62.300617
6.2185,-0.006866,0.001884,-0.006551,0.000166,-0.002903,0.004838,-0.008846,-0.507511,-0.004388,0.298721,-264.211125,1.599125,62.295221
6.2385,-0.006949,0.002423,-0.002851,8.5e-05,-0.001485,0.002474,-0.009618,-0.507882,-0.005563,0.298721,-264.211125,1.599125,62.295221
6.2583,-0.006765,0.001935,-0.004083,0.0,0.0,0.0,-0.009618,-0.507882,-0.005563,0.298721,-264.211125,1.599125,62.295221
6.2785,-0.007023,0.002566,-0.003653,0.0,0.0,0.0,-0.008836,-0.508267,-0.003739,0.298721,-264.211023,1.599125,62.291791
6.2986,-0.007428,0.002166,-0.004103,0.0,0.0,0.0,-0.008839,-0.508212,-0.003723,0.298721,-264.211023,1.599125,62.291791
6.3185,-0.007293,0.00202,-0.004154,0.0,0.0,0.0,-0.009521,-0.507829,-0.004103,0.298721,-264.211023,1.599125,62.291791
6.3389,-0.006871,0.002204,-0.005208,0.0,0.0,0.0,-0.009458,-0.507914,-0.004132,0.298721,-264.211023,1.599125,62.291791
6.3585,-0.006879,0.002233,-0.004136,0.0,0.0,0.0,-0.009458,-0.507914,-0.004132,0.298721,-264.211023,1.599125,62.291791
6.3786,-0.007234,0.002311,-0.004208,0.0,0.0,0.0,-0.008988,-0.507762,-0.004136,0.298721,-264.211023,1.599125,62.291791
6.3987,-0.006805,0.001964,-0.00366,0.0,0.0,0.0,-0.009017,-0.507757,-0.004142,0.298721,-264.211023,1.599125,62.291791
6.4189,-0.006958,0.002024,-0.003035,0.0,0.0,0.0,-0.008672,-0.508033,-0.00366,0.298721,-264.211023,1.599125,62.291791
6.4384,-0.007113,0.002374,-0.004937,0.0,0.0,0.0,-0.008576,-0.507999,-0.0033,0.298721,-264.211023,1.599125,62.291791
6.4583,-0.006776,0.002181,-0.00346,0.0,0.0,0.0,-0.008576,-0.507999,-0.0033,0.298721,-264.211023,1.599125,62.291791
6.4783,-0.00718,0.002275,-0.00276,9.5e-05,-3e-05,0.0,-0.00854,-0.507816,-0.00346,0.298721,-264.211023,1.599125,62.291791
6.4991,-0.006725,0.002243,-0.004421,9.5e-05,-3e-05,0.0,-0.008544,-0.507808,-0.003402,0.298721,-264.211023,1.599125,62.291791
6.5188,-0.007105,0.002137,-0.004243,9.5e-05,-3e-05,0.0,-0.00898,-0.507752,-0.004421,0.298721,-264.211023,1.599125,62.291791
6.5385,-0.007584,0.002256,-0.004876,9.5e-05,-3e-05,0.0,-0.009144,-0.507813,-0.004319,0.298721,-264.211023,1.599125,62.291791
6.5584,-0.006905,0.002093,-0.004786,9.5e-05,-3e-05,0.0,-0.009144,-0.507813,-0.004319,0.298721,-264.211023,1.599125,62.291791
6.5786,-0.007206,0.002235,-0.005193,9.5e-05,-3e-05,0.0,-0.009346,-0.507901,-0.004786,0.223983,-264.211023,1.524387,62.291791
6.5982,-0.007097,0.002185,-0.004363,9.5e-05,-3e-05,0.0,-0.009388,-0.507889,-0.00482,0.223983,-264.211023,1.524387,62.291791
6.6182,-0.007071,0.002137,-0.00377,9.5e-05,-3e-05,0.0,-0.009322,-0.507811,-0.004363,0.148712,-264.211023,1.449116,62.291791
6.6384,-0.007326,0.002236,-0.003486,9.5e-05,-3e-05,0.0,-0.009134,-0.507839,-0.004024,0.148712,-264.211023,1.449116,62.291791
6.6588,-0.006931,0.002304,-0.005007,9.5e-05,-3e-05,0.0,-0.009134,-0.507839,-0.004024,0.148712,-264.211023,1.449116,62.291791
6.6788,-0.006959,0.002174,-0.00522,5e-06,-2e-06,3e-06,-0.009485,-0.50769,-0.005007,0.074016,-264.211023,1.37442,62.291791
6.6989,-0.007046,0.001836,-0.004364,0.000996,-0.000317,0.000508,-0.009495,-0.5077,-0.005023,0.074016,-264.211023,1.37442,62.291791
6.7185,-0.00718,0.002389,-0.004109,0.001938,-0.000616,0.000989,-0.009272,-0.508159,-0.004364,-0.001161,-264.211023,1.299243,62.291791
6.7388,-0.007088,0.001687,-0.003172,0.00283,-0.0009,0.001444,-0.009274,-0.507842,-0.004218,-0.001161,-264.211023,1.299243,62.291791
6.7589,-0.007558,0.001807,-0.004977,0.003667,-0.001166,0.001871,-0.009274,-0.507842,-0.004218,-0.001161,-264.211023,1.299243,62.291791
6.7786,-0.007166,0.002127,-0.006393,0.004455,-0.001417,0.002273,-0.010097,-0.508187,-0.004977,-0.006466,-264.211023,1.224346,62.291791
6.7989,-0.007272,0.002042,-0.005179,0.005193,-0.001651,0.002649,-0.010123,-0.508161,-0.00509,-0.006466,-264.211023,1.224346,62.291791
6.8188,-0.007035,0.001672,-0.004198,0.005879,-0.00187,0.002999,-0.009913,-0.507952,-0.005179,-0.006466,-264.211023,1.148927,62.291791
6.8388,-0.007404,0.002127,-0.00398,0.006517,-0.002073,0.003325,-0.009498,-0.508161,-0.004627,-0.006466,-264.211023,1.148927,62.291791
6.859,-0.007303,0.002401,-0.005656,0.007098,-0.002258,0.003621,-0.009498,-0.508161,-0.004627,-0.006466,-264.211023,1.148927,62.291791
6.8788,-0.006918,0.002174,-0.004437,0.007637,-0.002429,0.003896,-0.010188,-0.50759,-0.005656,-0.006466,-264.211023,1.074469,62.291791
6.8986,-0.007158,0.002141,-0.004367,0.008117,-0.002582,0.004141,-0.010108,-0.507608,-0.00556,-0.006466,-264.211023,1.074469,62.291791
6.9188,-0.007097,0.002347,-0.00311,0.008549,-0.002719,0.004361,-0.009385,-0.507854,-0.004367,-0.006466,-264.211022,0.999115,62.291792
6.9383,-0.007026,0.00203,-0.005179,0.00893,-0.00284,0.004556,-0.00899,-0.507739,-0.003659,-0.006466,-264.211022,0.999115,62.291792
6.9583,-0.006801,0.002584,-0.004112,0.00926,-0.002945,0.004724,-0.00899,-0.507739,-0.003659,-0.006466,-264.211022,0.999115,62.291792
6.9788,-0.007025,0.00245,-0.003304,0.009539,-0.003034,0.004866,-0.008898,-0.507411,-0.004112,-0.006466,-264.211022,0.924488,62.291792
6.9987,-0.006975,0.002113,-0.005471,0.009768,-0.003107,0.004983,-0.008883,-0.507422,-0.004047,-0.006466,-264.211022,0.924488,62.291792
7.0185,-0.006793,0.002163,-0.003683,0.009946,-0.003163,0.005074,-0.009766,-0.50788,-0.005471,-0.006466,-264.211022,0.849052,62.291793
7.0391,-0.007046,0.001996,-0.005327,0.010075,-0.003204,0.00514,-0.009147,-0.507853,-0.00446,-0.006466,-264.211022,0.849052,62.291793
7.0585,-0.00685,0.002112,-0.003309,0.010149,-0.003228,0.005178,-0.009147,-0.507853,-0.00446,-0.006466,-264.211022,0.849052,62.291793
7.0791,-0.006695,0.002414,-0.004482,0.010175,-0.003236,0.005191,-0.008538,-0.507885,-0.003309,-0.006466,-264.211021,0.774512,62.291793
7.0989,-0.006699,0.002157,-0.002995,0.010149,-0.003228,0.005178,-0.008566,-0.507866,-0.003383,-0.006466,-264.211021,0.774512,62.291793
7.1187,-0.007113,0.001993,-0.004066,0.010072,-0.003204,0.005139,-0.008226,-0.507841,-0.002995,-0.006466,-264.211021,0.69949,62.291793
7.1389,-0.006888,0.002557,-0.003998,0.009946,-0.003163,0.005074,-0.008772,-0.507933,-0.003604,-0.006466,-264.211021,0.69949,62.291793
7.1583,-0.007097,0.002267,-0.004308,0.009767,-0.003106,0.004983,-0.008772,-0.507933,-0.003604,-0.006466,-264.211021,0.69949,62.291793
7.1785,-0.007023,0.002129,-0.004423,0.009531,-0.003031,0.004862,-0.009295,-0.507728,-0.004308,-0.006466,-264.21102,0.624397,62.291794
7.1984,-0.007378,0.001972,-0.005211,0.009258,-0.002944,0.004723,-0.009294,-0.507737,-0.004316,-0.006466,-264.21102,0.624397,62.291794
7.2184,-0.007253,0.002249,-0.004149,0.008928,-0.002839,0.004554,-0.010036,-0.508021,-0.005211,-0.006466,-264.21102,0.549517,62.291794
7.2383,-0.006923,0.002076,-0.004558,0.008547,-0.002718,0.00436,-0.009657,-0.507865,-0.004608,-0.006466,-264.21102,0.549517,62.291794
7.2587,-0.006989,0.002204,-0.005367,0.008113,-0.00258,0.004139,-0.009657,-0.507865,-0.004608,-0.006466,-264.21102,0.549517,62.291794
7.2783,-0.007036,0.001535,-0.003721,0.00763,-0.002427,0.003893,-0.009726,-0.507789,-0.005367,-0.006466,-264.21102,0.474507,62.291795
7.2987,-0.007056,0.001718,-0.003498,0.007097,-0.002257,0.00362,-0.009672,-0.507835,-0.005254,-0.006466,-264.21102,0.474507,62.291795
7.3183,-0.006831,0.002267,-0.002742,0.006511,-0.002071,0.003321,-0.00884,-0.508279,-0.003498,-0.006466,-264.211019,0.39951,62.291795
7.3383,-0.006908,0.002654,-0.005278,0.005876,-0.001869,0.002997,-0.008493,-0.507967,-0.003068,-0.006466,-264.211019,0.39951,62.291795
7.3586,-0.007233,0.001843,-0.004299,0.005189,-0.00165,0.002647,-0.008493,-0.507967,-0.003068,-0.006466,-264.211019,0.39951,62.291795
7.3786,-0.007056,0.001745,-0.004746,0.004451,-0.001416,0.002271,-0.009426,-0.508152,-0.004299,-0.006466,-264.211019,0.324522,62.291796
7.399,-0.006945,0.001821,-0.003655,0.003662,-0.001165,0.001868,-0.009429,-0.508159,-0.00433,-0.006466,-264.211019,0.324522,62.291796
7.4187,-0.006713,0.002245,-0.003938,0.002823,-0.000898,0.00144,-0.008809,-0.508176,-0.003655,-0.006466,-264.211019,0.249518,62.291796
7.4386,-0.007596,0.001857,-0.003091,0.001927,-0.000613,0.000983,-0.008759,-0.507935,-0.003816,-0.006466,-264.211019,0.249518,62.291796
7.4582,-0.007159,0.002147,-0.004527,0.000993,-0.000316,0.000507,-0.008759,-0.507935,-0.003816,-0.006466,-264.211019,0.249518,62.291796
7.4784,-0.007355,0.002067,-0.004619,0.0,0.0,0.0,-0.009468,-0.507848,-0.004527,-0.006466,-264.211019,0.174519,62.291796
7.4989,-0.007049,0.001975,-0.004238,0.0,0.0,0.0,-0.009484,-0.507853,-0.004534,-0.006466,-264.211019,0.174519,62.291796
7.5183,-0.007032,0.002493,-0.00335,0.0,0.0,0.0,-0.009211,-0.50802,-0.004238,-0.006466,-264.211019,0.099522,62.291796
7.5383,-0.007021,0.002322,-0.004642,0.0,0.0,0.0,-0.008941,-0.507725,-0.003729,-0.006466,-264.211019,0.099522,62.291796
7.5582,-0.007095,0.001859,-0.004578,0.0,0.0,0.0,-0.008941,-0.507725,-0.003729,-0.006466,-264.211019,0.099522,62.291796
7.5787,-0.007313,0.002183,-0.004139,0.0,0.0,0.0,-0.00943,-0.508135,-0.004578,-0.006466,-264.211019,0.099522,62.291796
7.5992,-0.006849,0.001978,-0.004346,0.0,0.0,0.0,-0.009429,-0.508112,-0.004546,-0.006466,-264.211019,0.099522,62.291796
7.6186,-0.006783,0.002085,-0.002995,0.0,0.0,0.0,-0.009066,-0.508017,-0.004346,-0.006466,-264.211019,0.099522,62.291796
7.6384,-0.007391,0.002287,-0.005122,0.0,0.0,0.0,-0.008633,-0.507957,-0.003572,-0.006466,-264.211019,0.099522,62.291796
7.6583,-0.007058,0.002277,-0.005153,0.0,0.0,0.0,-0.008633,-0.507957,-0.003572,-0.006466,-264.211019,0.099522,62.291796
7.6783,-0.006997,0.002243,-0.00481,0.0,0.0,0.0,-0.009686,-0.507716,-0.005153,-0.006466,-264.211019,0.099522,62.291796
7.6994,-0.006965,0.002199,-0.003177,9.5e-05,-3e-05,0.0,-0.009666,-0.507719,-0.005124,-0.006466,-264.211019,0.099522,62.291796
7.7185,-0.007123,0.001993,-0.00282,9.5e-05,-3e-05,0.0,-0.008585,-0.507799,-0.003177,-0.006466,-264.211019,0.099522,62.291796
7.7385,-0.00693,0.002241,-0.005224,9.5e-05,-3e-05,0.0,-0.008572,-0.507914,-0.002977,-0.006466,-264.211019,0.099522,62.291796
7.7587,-0.006943,0.002091,-0.00426,9.5e-05,-3e-05,0.0,-0.008572,-0.507914,-0.002977,-0.006466,-264.211019,0.099522,62.291796
7.7786,-0.007036,0.002135,-0.005468,9.5e-05,-3e-05,0.0,-0.009116,-0.507904,-0.00426,-0.081022,-264.211018,0.024966,62.291797
7.7992,-0.007069,0.002323,-0.004638,9.5e-05,-3e-05,0.0,-0.009164,-0.507901,-0.004343,-0.081022,-264.211018,0.024966,62.291797
7.8187,-0.006793,0.002194,-0.003717,9.5e-05,-3e-05,0.0,-0.009434,-0.507671,-0.004638,-0.156039,-264.211015,-0.050051,62.2918
7.8386,-0.007111,0.002159,-0.004328,9.5e-05,-3e-05,0.0,-0.009013,-0.507745,-0.004118,-0.156039,-264.211015,-0.050051,62.2918
7.8588,-0.007037,0.002169,-0.004916,9.5e-05,-3e-05,0.0,-0.009013,-0.507745,-0.004118,-0.156039,-264.211015,-0.050051,62.2918
7.8786,-0.006794,0.002173,-0.004244,9.5e-05,-3e-05,0.0,-0.009543,-0.507825,-0.004916,-0.231137,-264.211005,-0.125149,62.291809
7.8988,-0.007285,0.002122,-0.003779,9.5e-05,-3e-05,0.0,-0.009503,-0.507825,-0.004871,-0.231137,-264.211005,-0.125149,62.291809
7.9184,-0.007086,0.001938,-0.004786,0.001029,-0.000325,0.000707,-0.009211,-0.507875,-0.003779,-0.305421,-264.210984,-0.200053,62.291831
7.9385,-0.0069,0.002046,-0.004787,0.001996,-0.000629,0.00137,-0.009389,-0.507977,-0.004348,-0.305421,-264.210984,-0.200053,62.291831
7.959,-0.006991,0.001769,-0.003364,0.002916,-0.000919,0.002002,-0.009389,-0.507977,-0.004348,-0.305421,-264.210984,-0.200053,62.291831
7.9782,-0.006978,0.001852,-0.003906,0.003784,-0.001193,0.002598,-0.008703,-0.508229,-0.003364,-0.305421,-264.21095,-0.275135,62.291865
7.9983,-0.007496,0.002441,-0.00407,0.004598,-0.00145,0.003156,-0.008722,-0.508223,-0.003403,-0.305421,-264.21095,-0.275135,62.291865
8.0184,-0.007124,0.002164,-0.005396,0.005362,-0.001691,0.003681,-0.009571,-0.507555,-0.004069,-0.230421,-264.210941,-0.350135,62.291876
8.0384,-0.007038,0.002411,-0.005167,0.00607,-0.001914,0.004166,-0.009745,-0.507711,-0.004824,-0.230421,-264.210941,-0.350135,62.291876
8.0588,-0.007064,0.002134,-0.006159,0.00673,-0.002122,0.00462,-0.009745,-0.507711,-0.004824,-0.230421,-264.210941,-0.350135,62.291876
8.0783,-0.007161,0.002216,-0.004907,0.007332,-0.002312,0.005033,-0.010194,-0.507859,-0.006156,-0.155519,-264.21086,-0.425037,62.291976
8.0984,-0.007064,0.002481,-0.00536,0.007884,-0.002486,0.005412,-0.010157,-0.507854,-0.006069,-0.155519,-264.21086,-0.425037,62.291976
8.1187,-0.00653,0.002336,-0.003946,0.008383,-0.002643,0.005755,-0.009752,-0.507527,-0.005342,-0.080517,-264.210407,-0.500039,62.292535
8.1385,-0.007199,0.002189,-0.00501,0.008831,-0.002784,0.006062,-0.009063,-0.507604,-0.004551,-0.080517,-264.210407,-0.500039,62.292535
8.1586,-0.006944,0.00206,-0.00499,0.009224,-0.002908,0.006331,-0.009063,-0.507604,-0.004551,-0.080517,-264.210407,-0.500039,62.292535
8.1787,-0.006931,0.002158,-0.005253,0.009574,-0.003018,0.006572,-0.009318,-0.507991,-0.004899,-0.005517,-264.209026,-0.575039,62.294239
8.1987,-0.006557,0.00204,-0.004573,0.009856,-0.003107,0.006765,-0.009333,-0.507982,-0.00492,-0.005517,-264.209026,-0.575039,62.294239
8.2182,-0.006427,0.001569,-0.003534,0.010092,-0.003182,0.006927,-0.008608,-0.508049,-0.004388,0.069488,-264.20612,-0.633524,62.297826
8.2387,-0.006629,0.002102,-0.005373,0.010276,-0.00324,0.007053,-0.008358,-0.508276,-0.00388,0.069488,-264.20612,-0.633524,62.297826
8.2586,-0.006555,0.001817,-0.003376,0.010406,-0.003281,0.007143,-0.008358,-0.508276,-0.00388,0.069488,-264.20612,-0.633524,62.297826
8.2783,-0.006087,0.002139,-0.002415,0.010485,-0.003306,0.007197,-0.007807,-0.50833,-0.003053,0.103582,-264.202236,-0.633524,62.302619
8.2994,-0.006413,0.001779,-0.00456,0.010512,-0.003314,0.007215,-0.007764,-0.508303,-0.003004,0.103582,-264.202236,-0.633524,62.302619
8.3185,-0.006061,0.001665,-0.003409,0.010485,-0.003306,0.007197,-0.008333,-0.508345,-0.004282,0.103582,-264.198046,-0.633524,62.30779
8.3384,-0.005618,0.001863,-0.002766,0.010406,-0.003281,0.007143,-0.007982,-0.508354,-0.003754,0.103582,-264.198046,-0.633524,62.30779
8.3583,-0.006106,0.001885,-0.001388,0.010275,-0.00324,0.007053,-0.007982,-0.508354,-0.003754,0.103582,-264.198046,-0.633524,62.30779
8.3785,-0.005946,0.001537,-0.002974,0.010091,-0.003182,0.006927,-0.006303,-0.508276,-0.001037,0.103582,-264.193824,-0.633524,62.313001
8.3983,-0.005394,0.001511,-0.003227,0.009855,-0.003107,0.006765,-0.006369,-0.508293,-0.00116,0.103582,-264.193824,-0.633524,62.313001
8.4184,-0.005332,0.001508,-0.003416,0.009565,-0.003016,0.006566,-0.006643,-0.508613,-0.002955,0.103582,-264.189684,-0.633524,62.318109
8.4383,-0.005334,0.001502,-0.000782,0.009224,-0.002908,0.006332,-0.006841,-0.508558,-0.003186,0.103582,-264.189684,-0.633524,62.318109
8.4588,-0.005108,0.001363,-0.004415,0.008829,-0.002784,0.006061,-0.006841,-0.508558,-0.003186,0.103582,-264.189684,-0.633524,62.318109
8.4786,-0.005112,0.00115,-0.003488,0.008383,-0.002643,0.005754,-0.006882,-0.508785,-0.004087,0.103582,-264.185728,-0.633524,62.322992
8.4986,-0.005134,0.001276,-0.001578,0.007885,-0.002486,0.005413,-0.00687,-0.508793,-0.004037,0.103582,-264.185728,-0.633524,62.322992
8.5183,-0.004988,0.000912,-0.001885,0.007331,-0.002311,0.005032,-0.005598,-0.508831,-0.001344,0.103582,-264.182177,-0.633524,62.327374
8.5386,-0.004757,0.001281,-0.001147,0.006725,-0.00212,0.004617,-0.005755,-0.508991,-0.001622,0.103582,-264.182177,-0.633524,62.327374
8.5593,-0.004652,0.000867,-0.002415,0.006071,-0.001914,0.004167,-0.005755,-0.508991,-0.001622,0.103582,-264.182177,-0.633524,62.327374
8.5786,-0.004475,0.001124,-0.001697,0.005359,-0.00169,0.003679,-0.005501,-0.509253,-0.002152,0.103582,-264.179006,-0.633524,62.331287
8.5988,-0.004697,0.001035,-0.001061,0.004599,-0.00145,0.003157,-0.00548,-0.50923,-0.002114,0.103582,-264.179006,-0.633524,62.331287
8.6182,-0.004383,0.000702,-0.002177,0.003784,-0.001193,0.002598,-0.005004,-0.509039,-0.000901,0.103582,-264.176562,-0.633524,62.334304
8.6383,-0.003932,0.000727,-0.001147,0.002917,-0.00092,0.002002,-0.005255,-0.509196,-0.001611,0.103582,-264.176562,-0.633524,62.334304
8.6584,-0.004272,0.000898,-0.003123,0.001998,-0.00063,0.001372,-0.005255,-0.509196,-0.001611,0.103582,-264.176562,-0.633524,62.334304
8.6783,-0.003996,0.000483,-0.001057,0.001023,-0.000323,0.000702,-0.005642,-0.50917,-0.00297,0.103582,-264.174706,-0.633524,62.336594
8.6984,-0.004,0.00083,-0.000766,0.0,-0.0,0.0,-0.005548,-0.5092,-0.002815,0.103582,-264.174706,-0.633524,62.336594
8.7182,-0.003829,0.000744,-0.001326,0.0,0.0,0.0,-0.004314,-0.509194,-0.000714,0.103582,-264.173906,-0.633524,62.337581
8.7383,-0.003863,0.000616,-0.001416,0.0,0.0,0.0,-0.004413,-0.509232,-0.001055,0.103582,-264.173906,-0.633524,62.337581
8.7584,-0.003628,0.00061,-0.001337,0.0,0.0,0.0,-0.004413,-0.509232,-0.001055,0.103582,-264.173906,-0.633524,62.337581
8.7784,-0.00384,0.000659,-0.001174,0.0,0.0,0.0,-0.00431,-0.509389,-0.001337,0.103582,-264.173906,-0.633524,62.337581
8.7983,-0.00407,0.000473,-0.001696,0.0,0.0,0.0,-0.004319,-0.509386,-0.001326,0.103582,-264.173906,-0.633524,62.337581
8.8187,-0.003862,0.000701,-0.001984,0.0,0.0,0.0,-0.004935,-0.509526,-0.001696,0.103582,-264.173906,-0.633524,62.337581
8.8383,-0.003753,0.000857,-0.000273,0.0,0.0,0.0,-0.0049,-0.509397,-0.00186,0.103582,-264.173906,-0.633524,62.337581
8.8584,-0.004088,0.000222,0.000723,0.0,0.0,0.0,-0.0049,-0.509397,-0.00186,0.103582,-264.173906,-0.633524,62.337581
8.8786,-0.003698,0.000584,-0.002993,0.0,0.0,0.0,-0.003719,-0.509778,0.000723,0.103582,-264.173906,-0.633524,62.337581
8.899,-0.004158,0.000709,-0.002401,0.0,0.0,0.0,-0.003817,-0.509754,0.000481,0.103582,-264.173906,-0.633524,62.337581
8.9186,-0.003665,0.000554,0.000517,0.0,0.0,0.0,-0.005382,-0.509289,-0.002401,0.103582,-264.173906,-0.633524,62.337581
8.9384,-0.004247,0.0005,-0.001038,9.9e-05,-1.5e-05,0.0,-0.004248,-0.509379,-0.00073,0.103582,-264.173906,-0.633524,62.337581
8.9586,-0.004205,0.00073,-0.003317,9.9e-05,-1.5e-05,0.0,-0.004248,-0.509379,-0.00073,0.103582,-264.173906,-0.633524,62.337581
8.9783,-0.003968,0.000883,-0.000752,9.9e-05,-1.5e-05,0.0,-0.005897,-0.509267,-0.003317,0.103582,-264.173906,-0.633524,62.337581
8.9985,-0.004019,0.000346,-0.001208,9.9e-05,-1.5e-05,0.0,-0.005799,-0.509258,-0.003154,0.103582,-264.173906,-0.633524,62.337581
9.0184,-0.003869,0.000766,-0.000342,9.9e-05,-1.5e-05,0.0,-0.004635,-0.509654,-0.001208,0.028668,-264.173906,-0.55861,62.337582
9.0385,-0.004399,0.000663,-0.001096,9.9e-05,-1.5e-05,0.0,-0.004297,-0.509414,-0.000712,0.028668,-264.173906,-0.55861,62.337582
9.0593,-0.003881,0.000252,-0.002322,9.9e-05,-1.5e-05,0.0,-0.004297,-0.509414,-0.000712,0.028668,-264.173906,-0.55861,62.337582
9.0785,-0.004156,0.00064,-0.000753,9.9e-05,-1.5e-05,0.0,-0.005065,-0.509746,-0.002322,-0.046419,-264.173904,-0.483523,62.337583
9.0987,-0.004098,0.000811,-0.001263,9.9e-05,-1.5e-05,0.0,-0.005044,-0.50973,-0.002258,-0.046419,-264.173904,-0.483523,62.337583
9.1188,-0.003743,0.000513,-0.002329,9.9e-05,-1.5e-05,0.0,-0.004742,-0.509189,-0.001263,-0.121327,-264.173899,-0.408615,62.337589
9.1385,-0.004173,0.000477,-0.001237,9.9e-05,-1.5e-05,0.0,-0.004849,-0.509357,-0.001867,-0.121327,-264.173899,-0.408615,62.337589
9.1585,-0.003847,0.000419,0.000545,0.000534,-8.1e-05,-7.5e-05,-0.004849,-0.509357,-0.001867,-0.121327,-264.173899,-0.408615,62.337589
9.1786,-0.004238,0.000665,-0.00182,0.001043,-0.000158,-0.000147,-0.003567,-0.509581,0.000546,-0.150614,-264.173885,-0.333621,62.337602
9.1983,-0.003933,0.000735,-0.001668,0.001523,-0.000231,-0.000215,-0.003677,-0.509564,0.000383,-0.150614,-264.173885,-0.333621,62.337602
9.2186,-0.004028,0.00058,-0.001539,0.001978,-0.0003,-0.000279,-0.004778,-0.509265,-0.001668,-0.225699,-264.173824,-0.258536,62.337662
9.2383,-0.003768,0.00066,-0.001527,0.002404,-0.000365,-0.000339,-0.004797,-0.509354,-0.001594,-0.225699,-264.173824,-0.258536,62.337662
9.2582,-0.003902,0.000804,-0.000765,0.002802,-0.000425,-0.000395,-0.004797,-0.509354,-0.001594,-0.225699,-264.173824,-0.258536,62.337662
9.2785,-0.004055,0.00041,-0.002899,0.003174,-0.000482,-0.000448,-0.004252,-0.509204,-0.000767,-0.233572,-264.173481,-0.183529,62.337996
9.2983,-0.003822,0.000498,-0.001231,0.003517,-0.000534,-0.000496,-0.004341,-0.509231,-0.000917,-0.233572,-264.173481,-0.183529,62.337996
9.3185,-0.004072,0.000391,-0.000682,0.003833,-0.000582,-0.000541,-0.004364,-0.509517,-0.001241,-0.233572,-264.172559,-0.108611,62.338896
9.3383,-0.003902,0.000678,-0.001777,0.004121,-0.000625,-0.000581,-0.004385,-0.509572,-0.000922,-0.233572,-264.172559,-0.108611,62.338896
9.3586,-0.003605,0.000829,-0.001267,0.004382,-0.000665,-0.000618,-0.004385,-0.509572,-0.000922,-0.233572,-264.172559,-0.108611,62.338896
9.3785,-0.003653,0.000566,0.000235,0.004617,-0.000701,-0.000651,-0.004086,-0.509196,-0.00129,-0.233572,-264.171157,-0.065518,62.340262
9.3986,-0.003962,0.000563,-0.000542,0.004822,-0.000732,-0.00068,-0.004043,-0.509213,-0.001185,-0.233572,-264.171157,-0.065518,62.340262
9.4184,-0.003116,0.000453,-0.001547,0.005001,-0.000759,-0.000705,-0.004069,-0.509463,-0.000566,-0.233572,-264.169355,-0.065518,62.342019
9.4386,-0.003561,0.000544,-0.000592,0.005153,-0.000782,-0.000727,-0.003955,-0.509513,-0.001123,-0.233572,-264.169355,-0.065518,62.342019
9.4584,-0.003246,0.000498,-0.001016,0.005276,-0.000801,-0.000744,-0.003955,-0.509513,-0.001123,-0.233572,-264.169355,-0.065518,62.342019
9.4784,-0.00303,0.000806,-0.001466,0.005372,-0.000815,-0.000758,-0.003529,-0.509538,-0.001049,-0.233572,-264.167372,-0.065518,62.343952
9.4992,-0.003237,0.000628,-0.001479,0.005441,-0.000826,-0.000768,-0.00354,-0.509516,-0.001077,-0.233572,-264.167372,-0.065518,62.343952
9.5187,-0.002804,0.000549,-0.000712,0.005483,-0.000832,-0.000773,-0.003788,-0.509402,-0.001508,-0.233572,-264.165203,-0.065518,62.346067
9.5394,-0.003141,0.000756,-0.001508,0.005496,-0.000834,-0.000775,-0.003409,-0.509434,-0.00106,-0.233572,-264.165203,-0.065518,62.346067
9.5584,-0.002985,0.000629,-0.001129,0.005483,-0.000832,-0.000773,-0.003409,-0.509434,-0.00106,-0.233572,-264.165203,-0.065518,62.346067
9.5785,-0.002575,0.000368,-0.000713,0.005442,-0.000826,-0.000768,-0.003296,-0.509411,-0.001166,-0.233572,-264.162957,-0.065518,62.348256
9.5988,-0.002126,0.000464,-0.001354,0.005373,-0.000815,-0.000758,-0.003261,-0.509429,-0.001133,-0.233572,-264.162957,-0.065518,62.348256
