mach0312/omni-docking-bench/src/icros_test_setup/results/kinematic_sample/timeseries/trial_025.csv
t,x,y,yaw,vx,vy,wz,bl_x,bl_y,bl_yaw,front_steering_joint,front_wheel_joint,rear_steering_joint,rear_wheel_joint
0.0,-0.040659,0.027498,0.067596,0.0001,9e-06,0.0,-0.004972,-0.48069,0.069145,0.443787,-264.253777,-0.109355,62.851674
0.0005,-0.040221,0.028084,0.067501,0.0001,9e-06,0.0,-0.005527,-0.480912,0.067969,0.36888,-264.253775,-0.034447,62.851677
0.0008,-0.040408,0.027865,0.06808,0.0001,9e-06,0.0,-0.005527,-0.480919,0.06796,0.293872,-264.253766,0.04056,62.851685
0.0011,-0.040238,0.027733,0.067281,0.0001,9e-06,0.0,-0.005527,-0.480919,0.06796,0.218893,-264.253746,0.087862,62.851705
0.0015,-0.040311,0.027903,0.068526,3e-06,0.0,0.0,-0.00566,-0.480971,0.067788,0.143877,-264.253716,0.087862,62.851735
0.0018,-0.040118,0.028004,0.068282,0.000683,6e-05,0.000104,-0.00566,-0.480971,0.067788,0.17935,-264.253479,0.012848,62.851968
0.0021,-0.040157,0.028075,0.068817,0.001329,0.000117,0.000203,-0.005289,-0.480888,0.06817,0.17935,-264.252696,-0.005122,62.852739
0.0024,-0.039974,0.028008,0.068596,0.001937,0.000171,0.000296,-0.005289,-0.480888,0.06817,0.17935,-264.252696,-0.005122,62.852739
0.0027,-0.040139,0.028054,0.068439,0.002512,0.000221,0.000383,-0.005289,-0.480888,0.06817,0.17935,-264.252696,-0.005122,62.852739
0.0029,-0.04011,0.02782,0.068789,0.003054,0.000269,0.000466,-0.005708,-0.480854,0.067981,0.17935,-264.252696,-0.005122,62.852739
0.0164,-0.040088,0.028408,0.067339,0.01956,-0.015686,-0.029457,-0.004963,-0.480959,0.068803,0.17935,-264.252696,-0.005122,62.852739
0.0365,-0.040256,0.027959,0.068906,0.03556,-0.031041,-0.05,-0.005015,-0.480924,0.068705,0.17935,-264.252696,-0.005122,62.852739
0.0567,-0.040304,0.028225,0.067796,0.038236,-0.030665,-0.05,-0.005006,-0.480809,0.068927,0.17935,-264.251249,-0.005122,62.854163
0.0763,-0.039648,0.028231,0.068025,0.0383,-0.03089,-0.05,-0.005414,-0.480689,0.068286,0.17935,-264.251249,-0.005122,62.854163
0.0965,-0.039922,0.028312,0.069589,0.037637,-0.030861,-0.05,-0.005414,-0.480689,0.068286,0.17935,-264.251249,-0.005122,62.854163
0.1162,-0.039868,0.02761,0.067381,0.037856,-0.03102,-0.05,-0.00446,-0.480453,0.069589,0.104339,-264.251246,-0.01415,62.854165
0.1362,-0.0398,0.028047,0.067135,0.037919,-0.030231,-0.05,-0.004533,-0.480507,0.069438,0.104339,-264.251246,-0.01415,62.854165
0.1564,-0.039831,0.02827,0.068578,0.037828,-0.030654,-0.05,-0.005586,-0.480804,0.067135,0.029331,-264.251243,-0.008599,62.854166
0.1766,-0.039854,0.028187,0.068078,0.0378,-0.030933,-0.05,-0.005186,-0.480649,0.067956,0.029331,-264.251243,-0.008599,62.854166
0.1963,-0.040004,0.02809,0.068849,0.037844,-0.030833,-0.05,-0.005186,-0.480649,0.067956,0.029331,-264.251243,-0.008599,62.854166
0.2162,-0.040006,0.028115,0.070172,0.037977,-0.030775,-0.05,-0.004918,-0.480702,0.068849,-0.045663,-264.25124,0.008077,62.854168
0.2362,-0.040089,0.028402,0.069559,0.037936,-0.030851,-0.05,-0.004869,-0.480697,0.068946,-0.045663,-264.25124,0.008077,62.854168
0.2567,-0.040035,0.027924,0.068461,0.038019,-0.031119,-0.05,-0.004643,-0.480365,0.069559,-0.12075,-264.251237,-0.00781,62.854169
0.2763,-0.039971,0.028257,0.06802,0.038031,-0.030597,-0.05,-0.00493,-0.480659,0.068934,-0.12075,-264.251237,-0.00781,62.854169
0.2963,-0.040179,0.028276,0.068206,0.037958,-0.030909,-0.05,-0.00493,-0.480659,0.068934,-0.12075,-264.251237,-0.00781,62.854169
0.3165,-0.039532,0.027938,0.067637,0.038159,-0.030948,-0.05,-0.005421,-0.480538,0.068206,-0.195658,-264.251234,-0.00827,62.854171
0.3366,-0.040352,0.027852,0.069485,0.037554,-0.030546,-0.05,-0.005397,-0.480563,0.068167,-0.195658,-264.251234,-0.00827,62.854171
0.3563,-0.040221,0.028336,0.068896,0.038321,-0.030587,-0.05,-0.004943,-0.480917,0.069485,-0.270661,-264.251231,-0.009775,62.854172
0.3765,-0.040123,0.028032,0.069708,0.038175,-0.031038,-0.05,-0.00504,-0.480651,0.069147,-0.270661,-264.251231,-0.009775,62.854172
0.3962,-0.040023,0.027955,0.069292,0.038073,-0.030759,-0.05,-0.00504,-0.480651,0.069147,-0.270661,-264.251231,-0.009775,62.854172
0.4163,-0.040033,0.028096,0.068047,0.037992,-0.030659,-0.05,-0.004712,-0.480821,0.069291,-0.345799,-264.251227,-0.000214,62.854174
0.4367,-0.040024,0.028286,0.068206,0.03803,-0.030753,-0.05,-0.004757,-0.480814,0.069205,-0.345799,-264.251227,-0.000214,62.854174
0.4568,-0.03993,0.028166,0.067192,0.038003,-0.030948,-0.05,-0.005264,-0.480528,0.068205,-0.420662,-264.251212,-0.005807,62.854182
0.4765,-0.040108,0.02808,0.069604,0.037949,-0.030784,-0.05,-0.005506,-0.480617,0.067626,-0.420662,-264.251212,-0.005807,62.854182
0.4965,-0.039963,0.027944,0.06775,0.038058,-0.030801,-0.05,-0.005506,-0.480617,0.067626,-0.420662,-264.251212,-0.005807,62.854182
0.5165,-0.039788,0.028249,0.067191,0.03798,-0.030585,-0.05,-0.005431,-0.480888,0.067746,-0.495761,-264.25114,-0.005666,62.85422
0.5365,-0.040113,0.027807,0.068434,0.037802,-0.030856,-0.05,-0.005439,-0.480869,0.06771,-0.495761,-264.25114,-0.005666,62.85422
0.5564,-0.039891,0.028286,0.067084,0.038118,-0.030485,-0.05,-0.005218,-0.481006,0.068421,-0.570671,-264.250827,-0.006922,62.854385
0.5769,-0.040058,0.028019,0.068572,0.037905,-0.030896,-0.05,-0.005492,-0.480757,0.067657,-0.570671,-264.250827,-0.006922,62.854385
0.5963,-0.040034,0.028019,0.067895,0.038044,-0.030698,-0.05,-0.005492,-0.480757,0.067657,-0.570671,-264.250827,-0.006922,62.854385
0.6166,-0.039708,0.02812,0.068577,0.038041,-0.030671,-0.05,-0.005349,-0.480838,0.067833,-0.645667,-264.249792,-0.008431,62.854928
0.6369,-0.039492,0.028243,0.068063,0.037688,-0.030775,-0.05,-0.005306,-0.480828,0.067883,-0.645667,-264.249792,-0.008431,62.854928
0.6563,-0.039703,0.027716,0.069612,0.03748,-0.030864,-0.05,-0.004609,-0.480662,0.067902,-0.720663,-264.246701,-0.004218,62.856559
0.6763,-0.039406,0.028212,0.067133,0.037679,-0.03041,-0.05,-0.004369,-0.480892,0.068851,-0.720663,-264.246701,-0.004218,62.856559
0.6967,-0.039649,0.028063,0.069144,0.037425,-0.030792,-0.05,-0.004369,-0.480892,0.068851,-0.720663,-264.246701,-0.004218,62.856559
0.7166,-0.038643,0.027418,0.068665,0.037616,-0.030735,-0.05,-0.003946,-0.480931,0.068748,-0.795683,-264.241109,-0.00629,62.860086
0.7373,-0.038681,0.027591,0.067015,0.036671,-0.030004,-0.05,-0.003914,-0.480967,0.068732,-0.795683,-264.241109,-0.00629,62.860086
0.7566,-0.037782,0.027895,0.067542,0.036747,-0.030119,-0.05,-0.003967,-0.481529,0.066528,-0.870671,-264.233018,-0.006808,62.866113
0.777,-0.037776,0.027292,0.065061,0.035813,-0.030381,-0.05,-0.003553,-0.48123,0.067042,-0.870671,-264.233018,-0.006808,62.866113
0.7966,-0.037769,0.027443,0.065503,0.035922,-0.02969,-0.05,-0.003553,-0.48123,0.067042,-0.870671,-264.233018,-0.006808,62.866113
0.8163,-0.036573,0.026841,0.065348,0.035892,-0.029856,-0.05,-0.003459,-0.481919,0.064635,-0.945666,-264.222426,0.014534,62.87464
0.8367,-0.036405,0.026729,0.066124,0.034742,-0.029172,-0.05,-0.003423,-0.481941,0.06466,-0.945666,-264.222426,0.014534,62.87464
0.8565,-0.035089,0.026502,0.064663,0.034559,-0.029076,-0.05,-0.001811,-0.482625,0.065221,-1.020662,-264.209313,0.023584,62.885685
0.8766,-0.034654,0.026502,0.065517,0.033303,-0.028714,-0.05,-0.001882,-0.482574,0.064787,-1.020662,-264.209313,0.023584,62.885685
0.8968,-0.034311,0.026331,0.065351,0.032845,-0.028714,-0.05,-0.001882,-0.482574,0.064787,-1.020662,-264.209313,0.023584,62.885685
0.9162,-0.03225,0.025384,0.063273,0.032519,-0.028516,-0.05,0.000341,-0.483282,0.063957,-1.043822,-264.193744,0.039294,62.899193
0.9366,-0.032456,0.025817,0.06436,0.03058,-0.027372,-0.05,0.000352,-0.483319,0.063878,-1.043822,-264.193744,0.039294,62.899193
0.9565,-0.030376,0.024904,0.063056,0.030729,-0.027851,-0.05,0.00144,-0.483788,0.063052,-1.064637,-264.175653,0.05547,62.912206
0.9769,-0.029984,0.024893,0.060779,0.028747,-0.026769,-0.05,0.001761,-0.484039,0.062888,-1.064637,-264.175653,0.05547,62.912206
0.997,-0.029919,0.024911,0.062357,0.028417,-0.026668,-0.05,0.001761,-0.484039,0.062888,-1.064637,-264.175653,0.05547,62.912206
1.0164,-0.027442,0.024216,0.058922,0.028308,-0.026728,-0.05,0.003222,-0.48505,0.060422,-1.084948,-264.155063,0.103134,62.923985
1.0364,-0.028085,0.023838,0.059512,0.025968,-0.02579,-0.05,0.003215,-0.485064,0.060276,-1.084948,-264.155063,0.103134,62.923985
1.0563,-0.025379,0.023013,0.056545,0.026617,-0.025466,-0.05,0.003331,-0.486123,0.057758,-1.109751,-264.131943,0.13533,62.935172
1.0763,-0.025038,0.023099,0.058367,0.024038,-0.024411,-0.05,0.003532,-0.486261,0.056842,-1.109751,-264.131943,0.13533,62.935172
1.0963,-0.025468,0.0234,0.056949,0.023648,-0.02452,-0.05,0.003532,-0.486261,0.056842,-1.109751,-264.131943,0.13533,62.935172
1.1163,-0.022762,0.021645,0.055625,0.024095,-0.024811,-0.05,0.004829,-0.4869,0.054631,-1.138819,-264.108264,0.180823,62.94525
1.1364,-0.023079,0.021642,0.056213,0.021524,-0.022877,-0.05,0.004918,-0.486979,0.054639,-1.138819,-264.108264,0.180823,62.94525
1.1563,-0.020243,0.021119,0.053965,0.021827,-0.022905,-0.05,0.006457,-0.488372,0.054444,-1.165106,-264.086259,0.249152,62.95421
1.1762,-0.020529,0.020662,0.053368,0.019075,-0.02218,-0.05,0.007033,-0.488343,0.053945,-1.165106,-264.086259,0.249152,62.95421
1.1963,-0.020796,0.02098,0.054761,0.019397,-0.021727,-0.05,0.007033,-0.488343,0.053945,-1.165106,-264.086259,0.249152,62.95421
1.2163,-0.018418,0.01999,0.050896,0.019617,-0.022087,-0.05,0.008074,-0.489173,0.052678,-1.187742,-264.066389,0.324169,62.962093
1.2365,-0.018463,0.020192,0.050517,0.017377,-0.020901,-0.05,0.008061,-0.48921,0.052498,-1.187742,-264.066389,0.324169,62.962093
1.2563,-0.016308,0.019259,0.047729,0.01742,-0.021099,-0.05,0.007953,-0.489834,0.048919,-1.21542,-264.047726,0.399051,62.969225
1.2761,-0.01646,0.019232,0.049968,0.01537,-0.020015,-0.047729,0.008079,-0.490107,0.048034,-1.21542,-264.047726,0.399051,62.969225
1.2964,-0.016598,0.019073,0.047854,0.015479,-0.02003,-0.049968,0.008079,-0.490107,0.048034,-1.21542,-264.047726,0.399051,62.969225
1.3167,-0.01471,0.018606,0.046063,0.015667,-0.019845,-0.047854,0.008534,-0.491153,0.045883,-1.245015,-264.029951,0.474167,62.975731
1.3367,-0.014868,0.018408,0.046402,0.013838,-0.019264,-0.046063,0.00857,-0.491153,0.045843,-1.245015,-264.029951,0.474167,62.975731
1.3564,-0.013113,0.017939,0.045213,0.013998,-0.019078,-0.046402,0.009289,-0.491635,0.044916,-1.273644,-264.013473,0.549046,62.981559
1.3764,-0.013009,0.017806,0.044525,0.012288,-0.018513,-0.045213,0.009722,-0.491656,0.044896,-1.273644,-264.013473,0.549046,62.981559
1.3965,-0.012915,0.017752,0.044943,0.012203,-0.018368,-0.044525,0.009722,-0.491656,0.044896,-1.273644,-264.013473,0.549046,62.981559
1.4161,-0.011308,0.016829,0.043946,0.012105,-0.018314,-0.044943,0.010694,-0.492599,0.042778,-1.286733,-263.994473,0.56997,62.988077
1.4367,-0.01123,0.016964,0.041783,0.010558,-0.01731,-0.043946,0.01074,-0.492627,0.042802,-1.286733,-263.994473,0.56997,62.988077
1.4564,-0.009432,0.015686,0.040941,0.010512,-0.017418,-0.041783,0.010543,-0.49324,0.040164,-1.309094,-263.976678,0.626167,62.993759
1.4765,-0.009629,0.015974,0.039911,0.008782,-0.016059,-0.040941,0.011118,-0.493693,0.040404,-1.309094,-263.976678,0.626167,62.993759
1.4963,-0.009342,0.015604,0.039928,0.008984,-0.016345,-0.039911,0.011118,-0.493693,0.040404,-1.309094,-263.976678,0.626167,62.993759
1.5164,-0.008083,0.015347,0.038666,0.008712,-0.015965,-0.039928,0.011469,-0.494667,0.038192,-1.33606,-263.961799,0.701168,62.998421
1.5367,-0.007892,0.015037,0.038867,0.007483,-0.015648,-0.038666,0.011493,-0.494657,0.038178,-1.33606,-263.961799,0.701168,62.998421
1.5562,-0.007021,0.015077,0.036511,0.007302,-0.015333,-0.038867,0.012288,-0.495183,0.037355,-1.353661,-263.945432,0.729463,63.00315
1.5761,-0.006617,0.014572,0.037484,0.006466,-0.015323,-0.036511,0.011941,-0.494919,0.036683,-1.353661,-263.945432,0.729463,63.00315
1.5963,-0.006789,0.014547,0.035256,0.006066,-0.01481,-0.037484,0.011941,-0.494919,0.036683,-1.353661,-263.945432,0.729463,63.00315
1.6162,-0.005381,0.013866,0.035418,0.006272,-0.014777,-0.035256,0.01153,-0.495791,0.033618,-1.382461,-263.931468,0.80437,63.006969
1.6367,-0.005582,0.013858,0.036068,0.004887,-0.014048,-0.035418,0.01162,-0.49581,0.0337,-1.382461,-263.931468,0.80437,63.006969
1.6566,-0.004656,0.013185,0.034185,0.005078,-0.014051,-0.036068,0.013012,-0.496251,0.034953,-1.411275,-263.919629,0.879371,63.010103
1.6764,-0.004522,0.013334,0.033847,0.004203,-0.013337,-0.034185,0.012902,-0.496458,0.034374,-1.411275,-263.919629,0.879371,63.010103
1.697,-0.004547,0.013379,0.033933,0.004068,-0.01348,-0.033847,0.012902,-0.496458,0.034374,-1.411275,-263.919629,0.879371,63.010103
1.7163,-0.003611,0.012819,0.032739,0.00409,-0.013525,-0.033933,0.012968,-0.496865,0.032578,-1.434676,-263.908251,0.954381,63.012953
1.737,-0.0035,0.012754,0.031709,0.003189,-0.01293,-0.032739,0.012981,-0.496882,0.032554,-1.434676,-263.908251,0.954381,63.012953
1.7568,-0.002611,0.012451,0.031823,0.003094,-0.012859,-0.031709,0.012819,-0.497431,0.030597,-1.452226,-263.89665,1.029379,63.01574
1.7763,-0.002693,0.012395,0.031671,0.002214,-0.012528,-0.031823,0.013281,-0.497408,0.03114,-1.452226,-263.89665,1.029379,63.01574
1.7964,-0.002819,0.012561,0.030593,0.002299,-0.012474,-0.031671,0.013281,-0.497408,0.03114,-1.452226,-263.89665,1.029379,63.01574
1.8163,-0.00185,0.011756,0.029989,0.002433,-0.012641,-0.030593,0.012926,-0.497699,0.029331,-1.474238,-263.886126,1.10438,63.018206
1.8368,-0.001582,0.01189,0.028613,0.001497,-0.011806,-0.029989,0.012964,-0.497733,0.029343,-1.474238,-263.886126,1.10438,63.018206
1.8568,-0.001035,0.01169,0.02717,0.001241,-0.01193,-0.028613,0.01309,-0.49825,0.027734,-1.49866,-263.877043,1.179369,63.020269
1.8768,-0.001135,0.011053,0.027517,0.000717,-0.011714,-0.02717,0.012949,-0.498221,0.027311,-1.49866,-263.877043,1.179369,63.020269
1.8965,-0.000958,0.01168,0.026139,0.000831,-0.01108,-0.027517,0.012949,-0.498221,0.027311,-1.49866,-263.877043,1.179369,63.020269
1.9168,-0.000254,0.011212,0.02812,0.000652,-0.011701,-0.026139,0.012436,-0.498513,0.025212,-1.521147,-263.869337,1.254428,63.021976
1.9367,-0.000448,0.011358,0.026132,-6.1e-05,-0.011215,-0.02812,0.012552,-0.498528,0.025389,-1.521147,-263.869337,1.254428,63.021976
1.9569,2.5e-05,0.010705,0.026709,0.000151,-0.011366,-0.026132,0.012911,-0.498732,0.025478,-1.541019,-263.862436,1.329373,63.023407
1.9763,-0.000124,0.01093,0.026839,-0.000311,-0.0107,-0.026709,0.013336,-0.498984,0.026101,-1.541019,-263.862436,1.329373,63.023407
1.9965,-0.000183,0.010714,0.027062,-0.000169,-0.01093,-0.026839,0.013336,-0.498984,0.026101,-1.541019,-263.862436,1.329373,63.023407
2.0166,7.4e-05,0.010436,0.025759,-0.000107,-0.010715,-0.027062,0.01363,-0.499292,0.026582,-1.57296,-263.858442,1.404638,63.024245
2.0366,0.00027,0.010432,0.026484,-0.000342,-0.010431,-0.025759,0.013602,-0.499304,0.026512,-1.57296,-263.858442,1.404638,63.024245
2.0566,0.000402,0.010375,0.025355,-0.000546,-0.010421,-0.026484,0.013784,-0.499615,0.02593,-1.576988,-263.8526,1.479423,63.025414
2.0765,0.000724,0.010811,0.02536,-0.000665,-0.010361,-0.025355,0.013528,-0.499556,0.025533,-1.576988,-263.8526,1.479423,63.025414
2.0965,0.000862,0.010165,0.024802,-0.000998,-0.010789,-0.02536,0.013528,-0.499556,0.025533,-1.576988,-263.8526,1.479423,63.025414
2.1167,0.001183,0.009396,0.023692,-0.001114,-0.010141,-0.024802,0.013514,-0.500021,0.023955,-1.583884,-263.845523,1.554365,63.026851
2.1366,0.001196,0.010288,0.024752,-0.001114,-0.010141,-0.024802,0.013497,-0.50006,0.023914,-1.583884,-263.845523,1.554365,63.026851
2.1569,0.001136,0.009853,0.024618,-1.4e-05,-9.9e-05,0.0,0.013818,-0.499556,0.024752,-1.608752,-263.845521,1.479347,63.026851
2.1765,0.001042,0.009816,0.023239,-1.4e-05,-9.9e-05,0.0,0.013746,-0.499803,0.024676,-1.608752,-263.845521,1.479347,63.026851
2.1965,0.001084,0.010018,0.024704,-1.4e-05,-9.9e-05,0.0,0.013746,-0.499803,0.024676,-1.608752,-263.845521,1.479347,63.026851
2.2162,0.000861,0.009956,0.023388,-1.4e-05,-9.9e-05,0.0,0.013682,-0.499826,0.024704,-1.614808,-263.84552,1.404357,63.026851
2.2369,0.00108,0.010244,0.024538,-1.4e-05,-9.9e-05,0.0,0.01362,-0.499831,0.024613,-1.614808,-263.84552,1.404357,63.026851
2.2568,0.00108,0.009744,0.023907,-1.4e-05,-9.9e-05,0.0,0.013593,-0.499606,0.024538,-1.689811,-263.845486,1.430279,63.026817
2.2767,0.000812,0.010109,0.023599,-1.4e-05,-9.9e-05,0.0,0.013409,-0.499895,0.024177,-1.689811,-263.845486,1.430279,63.026817
2.2967,0.00102,0.009923,0.023547,-1.4e-05,-9.9e-05,0.0,0.013409,-0.499895,0.024177,-1.689811,-263.845486,1.430279,63.026817
2.3164,0.001393,0.010054,0.023555,-1.4e-05,-9.9e-05,0.0,0.013027,-0.49994,0.023547,-1.711313,-263.845447,1.430279,63.026777
2.3367,0.00118,0.010122,0.024155,-1.4e-05,-9.9e-05,0.0,0.013053,-0.499931,0.023547,-1.711313,-263.845447,1.430279,63.026777
2.3563,0.001624,0.009994,0.024278,-1.4e-05,-9.9e-05,0.0,0.013497,-0.499734,0.024155,-1.711313,-263.845407,1.430279,63.026737
2.3763,0.001029,0.009569,0.025718,-0.000211,-0.001494,-0.003606,0.013787,-0.499804,0.024226,-1.711313,-263.845407,1.430279,63.026737
2.3963,0.00093,0.009605,0.023919,-0.000413,-0.002917,-0.007041,0.013787,-0.499804,0.024226,-1.711313,-263.845407,1.430279,63.026737
2.4164,0.001164,0.010143,0.023136,-0.000603,-0.004262,-0.010286,0.013127,-0.500254,0.023919,-1.711313,-263.845367,1.430279,63.026697
2.4366,0.000883,0.009957,0.024107,-0.000782,-0.00553,-0.013348,0.013115,-0.500215,0.023862,-1.711313,-263.845367,1.430279,63.026697
2.4565,0.001303,0.009439,0.024867,-0.000951,-0.006725,-0.01623,0.013176,-0.499895,0.024107,-1.636276,-263.845366,1.355242,63.026697
2.4765,0.001082,0.010317,0.022989,-0.001109,-0.00784,-0.018922,0.013638,-0.500186,0.024542,-1.636276,-263.845366,1.355242,63.026697
2.4963,0.001068,0.01025,0.025361,-0.001256,-0.008881,-0.021434,0.013638,-0.500186,0.024542,-1.636276,-263.845366,1.355242,63.026697
2.5166,0.001148,0.010148,0.023764,-0.001392,-0.00984,-0.023749,0.014001,-0.499586,0.025361,-1.627907,-263.845366,1.280212,63.026697
2.5362,0.001331,0.009919,0.02414,-0.001517,-0.010724,-0.025883,0.01395,-0.499594,0.02525,-1.627907,-263.845366,1.280212,63.026697
2.5564,0.001202,0.009847,0.02634,-0.001631,-0.011534,-0.027837,0.013641,-0.499933,0.02414,-1.627907,-263.845365,1.20534,63.026697
2.5764,0.001083,0.010099,0.023152,-0.001735,-0.012264,-0.0296,0.014207,-0.499957,0.025393,-1.627907,-263.845365,1.20534,63.026697
2.5965,0.001478,0.009915,0.023683,-0.001827,-0.012918,-0.031179,0.014207,-0.499957,0.025393,-1.627907,-263.845365,1.20534,63.026697
2.6165,0.001082,0.009432,0.023911,-0.001909,-0.013496,-0.032573,0.013555,-0.499942,0.023683,-1.627907,-263.845364,1.130347,63.026696
2.637,0.000906,0.010051,0.024276,-0.00198,-0.013996,-0.03378,0.013537,-0.499974,0.023698,-1.627907,-263.845364,1.130347,63.026696
2.6569,0.000936,0.009788,0.022571,-0.00204,-0.01442,-0.034804,0.013286,-0.499799,0.024276,-1.627907,-263.845363,1.055333,63.026696
2.6765,0.000702,0.010194,0.024508,-0.002089,-0.014767,-0.035641,0.012816,-0.499958,0.023322,-1.627907,-263.845363,1.055333,63.026696
2.6964,0.000973,0.009794,0.023541,-0.002127,-0.015037,-0.036292,0.012816,-0.499958,0.023322,-1.627907,-263.845363,1.055333,63.026696
2.7166,0.000943,0.00977,0.024003,-0.002154,-0.015228,-0.036754,0.012978,-0.500065,0.02354,-1.627907,-263.845361,0.980336,63.026696
2.7366,0.001319,0.01001,0.02526,-0.00217,-0.015344,-0.037034,0.012992,-0.500066,0.023573,-1.627907,-263.845361,0.980336,63.026696
2.7565,0.001083,0.010046,0.023338,-0.002176,-0.015383,-0.037128,0.0142,-0.499828,0.02526,-1.627907,-263.84536,0.90499,63.026695
2.7763,0.000979,0.009549,0.024235,-0.002171,-0.015345,-0.037035,0.013504,-0.49982,0.02416,-1.627907,-263.84536,0.90499,63.026695
2.797,0.000974,0.00992,0.024432,-0.002154,-0.01523,-0.036759,0.013504,-0.49982,0.02416,-1.627907,-263.84536,0.90499,63.026695
2.8163,0.000893,0.009976,0.024711,-0.002127,-0.015038,-0.036295,0.013434,-0.499928,0.024432,-1.627907,-263.845358,0.830222,63.026695
2.8366,0.001188,0.010015,0.02435,-0.002089,-0.01477,-0.035647,0.013438,-0.499924,0.024451,-1.627907,-263.845358,0.830222,63.026695
2.8563,0.001312,0.010189,0.024623,-0.00204,-0.014424,-0.034812,0.013606,-0.499834,0.02435,-1.627907,-263.845357,0.755351,63.026695
2.8767,0.001085,0.01003,0.024905,-0.001981,-0.014002,-0.033794,0.013756,-0.499733,0.024506,-1.627907,-263.845357,0.755351,63.026695
2.8966,0.001265,0.010011,0.02579,-0.00191,-0.013501,-0.032586,0.013756,-0.499733,0.024506,-1.627907,-263.845357,0.755351,63.026695
2.9163,0.001027,0.010025,0.026023,-0.001828,-0.012925,-0.031195,0.014416,-0.49982,0.02579,-1.627907,-263.845355,0.680237,63.026695
2.9362,0.001183,0.010029,0.02369,-0.001736,-0.012272,-0.029618,0.014408,-0.499818,0.025807,-1.627907,-263.845355,0.680237,63.026695
2.9562,0.001226,0.009939,0.024438,-0.001633,-0.011541,-0.027855,0.013264,-0.499828,0.023689,-1.627907,-263.845354,0.605219,63.026694
2.9762,0.001527,0.00978,0.023226,-0.001518,-0.010735,-0.025908,0.013508,-0.499875,0.02412,-1.627907,-263.845354,0.605219,63.026694
2.9965,0.001217,0.00983,0.024187,-0.001393,-0.00985,-0.023774,0.013508,-0.499875,0.02412,-1.627907,-263.845354,0.605219,63.026694
3.0164,0.001218,0.010033,0.024083,-0.001257,-0.00889,-0.021455,0.013551,-0.500021,0.024187,-1.627907,-263.845353,0.53019,63.026694
3.0365,0.00094,0.009727,0.024289,-0.001111,-0.007852,-0.01895,0.013548,-0.500006,0.024179,-1.627907,-263.845353,0.53019,63.026694
3.0562,0.000864,0.009833,0.02323,-0.000953,-0.006734,-0.016254,0.013327,-0.500123,0.024289,-1.627907,-263.845352,0.45535,63.026694
3.0762,0.001236,0.010029,0.025294,-0.000781,-0.005525,-0.013334,0.012973,-0.500069,0.023682,-1.627907,-263.845352,0.45535,63.026694
3.0964,0.001201,0.009495,0.023963,-0.000604,-0.004271,-0.010309,0.012973,-0.500069,0.023682,-1.627907,-263.845352,0.45535,63.026694
3.1167,0.001014,0.009916,0.024259,-0.000414,-0.002928,-0.007068,0.013421,-0.500359,0.023963,-1.627907,-263.845351,0.380212,63.026694
3.1363,0.000932,0.010077,0.02416,-0.000213,-0.001506,-0.003635,0.013418,-0.50033,0.023982,-1.627907,-263.845351,0.380212,63.026694
3.1566,0.001423,0.009723,0.023296,-1e-06,-6e-06,-1.5e-05,0.013252,-0.499774,0.02416,-1.627907,-263.845351,0.305298,63.026694
3.1764,0.001248,0.009667,0.025856,0.0,0.0,0.0,0.013281,-0.499983,0.023667,-1.627907,-263.845351,0.305298,63.026694
3.1971,0.000886,0.009878,0.023165,0.0,0.0,0.0,0.013281,-0.499983,0.023667,-1.627907,-263.845351,0.305298,63.026694
3.2163,0.001049,0.009989,0.024123,0.0,0.0,0.0,0.012699,-0.499985,0.023165,-1.627907,-263.84535,0.230231,63.026694
3.2368,0.001363,0.010038,0.024952,0.0,0.0,0.0,0.012744,-0.499976,0.023232,-1.627907,-263.84535,0.230231,63.026694
3.2564,0.001301,0.010047,0.023247,0.0,0.0,0.0,0.014088,-0.499804,0.024952,-1.627907,-263.84535,0.230231,63.026694
3.2763,0.001053,0.009924,0.024419,0.0,0.0,0.0,0.013553,-0.49981,0.023974,-1.627907,-263.84535,0.230231,63.026694
3.2965,0.000807,0.009438,0.022774,0.0,0.0,0.0,0.013553,-0.49981,0.023974,-1.627907,-263.84535,0.230231,63.026694
3.3163,0.001171,0.009714,0.024625,0.0,0.0,0.0,0.012421,-0.50043,0.022774,-1.627907,-263.84535,0.230231,63.026694
3.3368,0.001062,0.010079,0.025032,0.0,0.0,0.0,0.012517,-0.500408,0.022909,-1.627907,-263.84535,0.230231,63.026694
3.3564,0.001342,0.009758,0.024466,0.0,0.0,0.0,0.013827,-0.499762,0.025032,-1.627907,-263.84535,0.230231,63.026694
3.3767,0.000806,0.00991,0.023627,0.0,0.0,0.0,0.013822,-0.499949,0.024708,-1.627907,-263.84535,0.230231,63.026694
3.3964,0.001136,0.00964,0.022968,-1e-05,-9.9e-05,0.0,0.013822,-0.499949,0.024708,-1.627907,-263.84535,0.230231,63.026694
3.4164,0.001514,0.009909,0.023564,-1e-05,-9.9e-05,0.0,0.012849,-0.500226,0.022968,-1.627907,-263.84535,0.230231,63.026694
3.4369,0.000719,0.009833,0.024626,-1e-05,-9.9e-05,0.0,0.012899,-0.500205,0.023012,-1.627907,-263.84535,0.230231,63.026694
3.4562,0.000952,0.010146,0.023867,-1e-05,-9.9e-05,0.0,0.013277,-0.500012,0.024626,-1.675588,-263.84535,0.305219,63.026694
3.4762,0.001291,0.010231,0.023513,-1e-05,-9.9e-05,0.0,0.013189,-0.499839,0.024192,-1.675588,-263.84535,0.305219,63.026694
3.4963,0.00146,0.010168,0.025414,-1e-05,-9.9e-05,0.0,0.013189,-0.499839,0.024192,-1.675588,-263.84535,0.305219,63.026694
3.5165,0.001196,0.010208,0.024589,-1e-05,-9.9e-05,0.0,0.014419,-0.499667,0.025414,-1.675588,-263.84535,0.380253,63.026694
3.5366,0.001068,0.009937,0.023406,-1e-05,-9.9e-05,0.0,0.014373,-0.499665,0.025358,-1.675588,-263.84535,0.380253,63.026694
3.5563,0.000769,0.009625,0.020698,-1e-05,-9.9e-05,0.0,0.013004,-0.499923,0.023406,-1.675588,-263.84535,0.455119,63.026694
3.5764,0.000697,0.009829,0.023346,-1e-05,-9.9e-05,0.0,0.012051,-0.500117,0.021869,-1.675588,-263.84535,0.455119,63.026694
3.5966,0.001245,0.01018,0.023914,-0.0,-4e-06,-1e-05,0.012051,-0.500117,0.021869,-1.675588,-263.84535,0.455119,63.026694
3.6166,0.001031,0.009948,0.023764,-0.000152,-0.001449,-0.003461,0.01344,-0.499674,0.023914,-1.675588,-263.84535,0.530196,63.026694
3.6362,0.00108,0.00979,0.024602,-0.000297,-0.002819,-0.006737,0.013421,-0.499689,0.023905,-1.675588,-263.84535,0.530196,63.026694
3.6564,0.000792,0.009633,0.023763,-0.000433,-0.004118,-0.009839,0.013626,-0.500055,0.024602,-1.613536,-263.84535,0.45528,63.026694
3.6762,0.000635,0.009809,0.024282,-0.000562,-0.005341,-0.012763,0.013216,-0.500151,0.024121,-1.613536,-263.84535,0.45528,63.026694
3.6961,0.001068,0.010077,0.025056,-0.000683,-0.006496,-0.015521,0.013216,-0.500151,0.024121,-1.613536,-263.84535,0.45528,63.026694
3.7165,0.000863,0.009563,0.022652,-0.000796,-0.007566,-0.018078,0.013845,-0.499762,0.025056,-1.613536,-263.84535,0.380143,63.026694
3.7367,0.000764,0.009606,0.023751,-0.000901,-0.008567,-0.020471,0.013733,-0.499805,0.024866,-1.613536,-263.84535,0.380143,63.026694
3.7564,0.001348,0.009875,0.025233,-0.000999,-0.009494,-0.022687,0.012876,-0.50025,0.023751,-1.613536,-263.845349,0.304993,63.026693
3.7764,0.001034,0.010106,0.024519,-0.001088,-0.010345,-0.02472,0.013646,-0.500084,0.024604,-1.613536,-263.845349,0.304993,63.026693
3.7964,0.00117,0.010004,0.024251,-0.00117,-0.011126,-0.026585,0.013646,-0.500084,0.024604,-1.613536,-263.845349,0.304993,63.026693
3.8163,0.001534,0.009546,0.023848,-0.001244,-0.011829,-0.028265,0.013536,-0.499846,0.024251,-1.613536,-263.845349,0.230094,63.026693
3.8367,0.000925,0.009972,0.024434,-0.00131,-0.012459,-0.029771,0.013547,-0.499877,0.024224,-1.613536,-263.845349,0.230094,63.026693
3.8563,0.000605,0.009782,0.02472,-0.001369,-0.013016,-0.031101,0.013385,-0.499876,0.024434,-1.613536,-263.845347,0.155275,63.026693
3.8764,0.00084,0.009622,0.023182,-0.00142,-0.013497,-0.032252,0.013286,-0.499982,0.024597,-1.613536,-263.845347,0.155275,63.026693
3.8965,0.000876,0.009731,0.022207,-0.001463,-0.013905,-0.033226,0.013286,-0.499982,0.024597,-1.613536,-263.845347,0.155275,63.026693
3.9164,0.000855,0.00981,0.024217,-0.001498,-0.01424,-0.034026,0.012201,-0.500144,0.022207,-1.613536,-263.845346,0.080282,63.026693
3.9364,0.001297,0.009829,0.023973,-0.001525,-0.014499,-0.034645,0.012267,-0.500137,0.02234,-1.613536,-263.845346,0.080282,63.026693
3.9563,0.001123,0.009569,0.023915,-0.001544,-0.014684,-0.035087,0.013522,-0.500025,0.023973,-1.613536,-263.845345,0.005271,63.026693
3.9762,0.001162,0.009908,0.025446,-0.001556,-0.014795,-0.035352,0.013407,-0.500172,0.02394,-1.613536,-263.845345,0.005271,63.026693
3.9967,0.001194,0.009742,0.024424,-0.00156,-0.014832,-0.03544,0.013407,-0.500172,0.02394,-1.613536,-263.845345,0.005271,63.026693
4.0162,0.001298,0.010351,0.025086,-0.001556,-0.014794,-0.035351,0.013649,-0.500106,0.024424,-1.613536,-263.845343,-0.069738,63.026692
4.0371,0.000787,0.010016,0.025198,-0.001544,-0.014683,-0.035085,0.013675,-0.500068,0.024464,-1.613536,-263.845343,-0.069738,63.026692
4.0567,0.000962,0.009553,0.025161,-0.001525,-0.014498,-0.034642,0.013637,-0.499822,0.025198,-1.613536,-263.845342,-0.144723,63.026692
4.0765,0.000861,0.009941,0.023991,-0.001497,-0.014237,-0.034019,0.013724,-0.500082,0.025177,-1.613536,-263.845342,-0.144723,63.026692
4.0963,0.001332,0.010095,0.023681,-0.001462,-0.013904,-0.033223,0.013724,-0.500082,0.025177,-1.613536,-263.845342,-0.144723,63.026692
4.1168,0.001148,0.009989,0.023574,-0.001419,-0.013496,-0.032249,0.013409,-0.499762,0.023681,-1.613536,-263.845341,-0.21972,63.026692
4.1369,0.001454,0.009952,0.022373,-0.001369,-0.013015,-0.031098,0.013393,-0.499769,0.023674,-1.613536,-263.845341,-0.21972,63.026692
4.1564,0.000775,0.009934,0.025588,-0.00131,-0.012458,-0.029768,0.012864,-0.49992,0.022373,-1.613536,-263.845339,-0.294729,63.026691
4.1763,0.001318,0.010251,0.024458,-0.001244,-0.011829,-0.028264,0.013401,-0.499908,0.024172,-1.613536,-263.845339,-0.294729,63.026691
4.1962,0.000773,0.009659,0.022893,-0.00117,-0.011124,-0.026581,0.013401,-0.499908,0.024172,-1.613536,-263.845339,-0.294729,63.026691
4.2164,0.000942,0.010135,0.023866,-0.001088,-0.010343,-0.024715,0.012447,-0.500207,0.022893,-1.613536,-263.845338,-0.369718,63.026691
4.2362,0.001228,0.010263,0.023375,-0.000998,-0.009492,-0.022681,0.012494,-0.500173,0.022961,-1.613536,-263.845338,-0.369718,63.026691
4.2562,0.001121,0.009842,0.025197,-0.000901,-0.008564,-0.020463,0.013148,-0.499598,0.023375,-1.613536,-263.845337,-0.444719,63.026691
4.2764,0.001127,0.009796,0.023778,-0.000795,-0.007559,-0.018063,0.013616,-0.499825,0.024413,-1.613536,-263.845337,-0.444719,63.026691
4.2962,0.000836,0.010064,0.023449,-0.000682,-0.006489,-0.015505,0.013616,-0.499825,0.024413,-1.613536,-263.845337,-0.444719,63.026691
4.3165,0.001094,0.010081,0.02578,-0.000562,-0.005339,-0.012757,0.012794,-0.499795,0.023449,-1.613536,-263.845336,-0.51972,63.026691
4.3363,0.000998,0.009745,0.024633,-0.000433,-0.004115,-0.009833,0.012895,-0.499792,0.023612,-1.613536,-263.845336,-0.51972,63.026691
4.3561,0.001257,0.009846,0.025213,-0.000296,-0.002816,-0.006728,0.01356,-0.5001,0.024633,-1.613536,-263.845335,-0.594721,63.026691
4.3763,0.000915,0.010007,0.025275,-0.000152,-0.001447,-0.003456,0.013876,-0.500038,0.024963,-1.613536,-263.845335,-0.594721,63.026691
4.3963,0.001185,0.009848,0.024864,0.0,0.0,0.0,0.013876,-0.500038,0.024963,-1.613536,-263.845335,-0.594721,63.026691
4.4164,0.001224,0.009561,0.024194,0.0,0.0,0.0,0.013864,-0.499994,0.024863,-1.613536,-263.845335,-0.66972,63.026691
4.4367,0.001134,0.01012,0.023134,0.0,0.0,0.0,0.013843,-0.500015,0.024817,-1.613536,-263.845335,-0.66972,63.026691
4.4565,0.001057,0.01008,0.024529,0.0,0.0,0.0,0.012931,-0.499744,0.023134,-1.613536,-263.845335,-0.66972,63.026691
4.4766,0.001191,0.010258,0.022654,0.0,0.0,0.0,0.013293,-0.499757,0.023929,-1.613536,-263.845335,-0.66972,63.026691
4.4968,0.000991,0.009989,0.024748,0.0,0.0,0.0,0.013293,-0.499757,0.023929,-1.613536,-263.845335,-0.66972,63.026691
4.5163,0.000951,0.01025,0.024853,0.0,0.0,0.0,0.013611,-0.499855,0.024748,-1.613536,-263.845335,-0.66972,63.026691
4.5362,0.000961,0.009741,0.023093,0.0,0.0,0.0,0.013612,-0.499836,0.024755,-1.613536,-263.845335,-0.66972,63.026691
4.5567,0.001243,0.009732,0.023122,0.0,0.0,0.0,0.012737,-0.500123,0.023093,-1.613536,-263.845335,-0.66972,63.026691
4.5764,0.001072,0.009885,0.025167,0.0,0.0,0.0,0.012906,-0.500128,0.023109,-1.613536,-263.845335,-0.66972,63.026691
4.5964,0.00108,0.009767,0.026279,0.0,0.0,0.0,0.012906,-0.500128,0.023109,-1.613536,-263.845335,-0.66972,63.026691
4.6166,0.000798,0.009903,0.022914,-1.4e-05,-9.9e-05,0.0,0.01448,-0.500057,0.026279,-1.613536,-263.845335,-0.66972,63.026691
4.6366,0.001106,0.009854,0.025197,-1.4e-05,-9.9e-05,0.0,0.014331,-0.50005,0.026028,-1.613536,-263.845335,-0.66972,63.026691
4.6566,0.000818,0.010025,0.023827,-1.4e-05,-9.9e-05,0.0,0.013955,-0.499985,0.025197,-1.613536,-263.845335,-0.66972,63.026691
4.6765,0.00112,0.009634,0.024775,-1.4e-05,-9.9e-05,0.0,0.013393,-0.499896,0.024417,-1.613536,-263.845335,-0.66972,63.026691
4.6963,0.001115,0.00954,0.0241,-1.4e-05,-9.9e-05,0.0,0.013393,-0.499896,0.024417,-1.613536,-263.845335,-0.66972,63.026691
4.7166,0.00124,0.009694,0.024694,-1.4e-05,-9.9e-05,0.0,0.013405,-0.500311,0.0241,-1.688383,-263.845335,-0.744567,63.026691
4.7363,0.00093,0.010215,0.02361,-1.4e-05,-9.9e-05,0.0,0.013434,-0.500301,0.02414,-1.688383,-263.845335,-0.744567,63.026691
4.7562,0.000955,0.009839,0.024734,-1.4e-05,-9.9e-05,0.0,0.01297,-0.499643,0.02361,-1.707157,-263.845335,-0.819583,63.026691
4.7762,0.000837,0.010058,0.024762,-1.4e-05,-9.9e-05,0.0,0.013318,-0.499854,0.024264,-1.707157,-263.845335,-0.819583,63.026691
4.7962,0.001144,0.010337,0.024715,-1.4e-05,-9.9e-05,0.0,0.013318,-0.499854,0.024264,-1.707157,-263.845335,-0.819583,63.026691
4.8163,0.000875,0.010184,0.025404,-1.4e-05,-9.9e-05,0.0,0.013747,-0.499507,0.024715,-1.707157,-263.845335,-0.895001,63.026691
4.8365,0.001012,0.00987,0.024633,-0.000195,-0.001423,-0.003842,0.013753,-0.499517,0.024764,-1.707157,-263.845335,-0.895001,63.026691
4.8565,0.001269,0.009698,0.025562,-0.000381,-0.002776,-0.007492,0.013574,-0.499975,0.024633,-1.707157,-263.845335,-0.969653,63.026691
4.8763,0.001117,0.009998,0.024782,-0.000556,-0.004052,-0.010937,0.013989,-0.500066,0.025161,-1.707157,-263.845335,-0.969653,63.026691
4.8962,0.000992,0.009643,0.025063,-0.000722,-0.005261,-0.014202,0.013989,-0.500066,0.025161,-1.707157,-263.845335,-0.969653,63.026691
4.9163,0.000964,0.009524,0.023683,-0.000877,-0.006389,-0.017246,0.013771,-0.500202,0.02505,-1.632232,-263.845228,-1.044578,63.026664
4.9368,0.001124,0.009829,0.024265,-0.001022,-0.007447,-0.020101,0.01372,-0.500211,0.024953,-1.632232,-263.845228,-1.044578,63.026664
4.9566,0.001082,0.010365,0.024008,-0.001157,-0.008434,-0.022768,0.01349,-0.500061,0.02416,-1.622555,-263.844151,-1.119568,63.026395
4.9762,0.000778,0.009694,0.023482,-0.001283,-0.009352,-0.025244,0.013396,-0.499743,0.024061,-1.622555,-263.844151,-1.119568,63.026395
4.9968,0.001307,0.010052,0.02357,-0.001398,-0.010187,-0.027499,0.013396,-0.499743,0.024061,-1.622555,-263.844151,-1.119568,63.026395
5.0164,0.001232,0.009577,0.02386,-0.001503,-0.010954,-0.029568,0.013303,-0.499949,0.023197,-1.622555,-263.841104,-1.194569,63.025633
5.0364,0.001222,0.009564,0.022563,-0.001598,-0.011646,-0.031437,0.013309,-0.499975,0.023234,-1.622555,-263.841104,-1.194569,63.025633
5.0568,0.001833,0.0094,0.022588,-0.001683,-0.012267,-0.033113,0.012694,-0.500495,0.021996,-1.622555,-263.835557,-1.269565,63.023915
5.0763,0.001729,0.009441,0.022871,-0.001758,-0.012816,-0.034595,0.013064,-0.500505,0.022261,-1.622555,-263.835557,-1.269565,63.023915
5.0966,0.001694,0.00928,0.023758,-0.001823,-0.013289,-0.035873,0.013064,-0.500505,0.022261,-1.622555,-263.835557,-1.269565,63.023915
5.1162,0.002109,0.009332,0.022281,-0.001879,-0.013691,-0.036956,0.013755,-0.500907,0.022697,-1.622555,-263.82751,-1.344564,63.021224
5.1369,0.001914,0.009482,0.021893,-0.001924,-0.014019,-0.037843,0.013734,-0.50089,0.02264,-1.622555,-263.82751,-1.344564,63.021224
5.1563,0.00277,0.008718,0.019387,-0.001959,-0.014276,-0.038536,0.013025,-0.500739,0.020789,-1.622555,-263.816962,-1.36233,63.017718
5.1763,0.00265,0.008551,0.021387,-0.001984,-0.014457,-0.039024,0.012808,-0.501037,0.019851,-1.622555,-263.816962,-1.36233,63.017718
5.1963,0.002772,0.008746,0.021471,-0.001999,-0.014567,-0.039321,0.012808,-0.501037,0.019851,-1.622555,-263.816962,-1.36233,63.017718
5.2165,0.003534,0.008244,0.019638,-0.002004,-0.014603,-0.039419,0.013645,-0.501709,0.019813,-1.622555,-263.803915,-1.36233,63.014
5.2366,0.003339,0.008366,0.019014,-0.001999,-0.014566,-0.03932,0.013636,-0.50172,0.019757,-1.622555,-263.803915,-1.36233,63.014
5.2564,0.004282,0.007367,0.01596,-0.001984,-0.014457,-0.039025,0.012969,-0.502106,0.017495,-1.622555,-263.788462,-1.36233,63.010137
5.2762,0.004212,0.007495,0.016669,-0.001959,-0.014275,-0.038533,0.012649,-0.502441,0.016429,-1.622555,-263.788462,-1.36233,63.010137
5.2966,0.004399,0.007514,0.016862,-0.001924,-0.014019,-0.037843,0.012649,-0.502441,0.016429,-1.622555,-263.788462,-1.36233,63.010137
5.3165,0.005527,0.006434,0.014456,-0.001878,-0.01369,-0.036955,0.012913,-0.503123,0.01495,-1.622555,-263.773008,-1.36233,63.006274
5.3368,0.005563,0.00668,0.01501,-0.001823,-0.013288,-0.03587,0.012909,-0.503169,0.014865,-1.622555,-263.773008,-1.36233,63.006274
5.3563,0.006285,0.006291,0.013612,-0.001758,-0.012814,-0.03459,0.013151,-0.503805,0.013549,-1.622555,-263.758136,-1.36233,63.002556
5.3764,0.006571,0.005737,0.012722,-0.001683,-0.012267,-0.033114,0.013186,-0.503792,0.013399,-1.622555,-263.758136,-1.36233,63.002556
5.3969,0.0062,0.006189,0.012494,-0.001598,-0.011646,-0.031437,0.013186,-0.503792,0.013399,-1.622555,-263.758136,-1.36233,63.002556
5.4163,0.007102,0.005319,0.011558,-0.001503,-0.010952,-0.029565,0.012491,-0.504418,0.010751,-1.622555,-263.744039,-1.36233,62.999032
5.4366,0.006863,0.005008,0.010811,-0.001398,-0.010186,-0.027496,0.012524,-0.504451,0.010761,-1.622555,-263.744039,-1.36233,62.999032
5.4565,0.007662,0.004693,0.00835,-0.001282,-0.009346,-0.025227,0.012319,-0.505413,0.009594,-1.622555,-263.731683,-1.36233,62.995943
5.4763,0.007568,0.00506,0.008458,-0.001157,-0.00843,-0.022757,0.012086,-0.5054,0.008735,-1.622555,-263.731683,-1.36233,62.995943
5.4963,0.007783,0.004872,0.009904,-0.001022,-0.007448,-0.020104,0.012086,-0.5054,0.008735,-1.622555,-263.731683,-1.36233,62.995943
5.5163,0.008633,0.004581,0.007888,-0.000876,-0.006386,-0.017238,0.012771,-0.505598,0.008568,-1.622555,-263.720877,-1.36233,62.993242
5.5366,0.008656,0.004152,0.007286,-0.000721,-0.005258,-0.014193,0.012761,-0.505598,0.008484,-1.622555,-263.720877,-1.36233,62.993242
5.5566,0.009119,0.00333,0.006005,-0.000553,-0.004033,-0.010886,0.012335,-0.506122,0.00651,-1.622555,-263.712976,-1.36233,62.991267
5.5763,0.008935,0.003914,0.005934,-0.00038,-0.002769,-0.007474,0.012243,-0.506464,0.006124,-1.622555,-263.712976,-1.36233,62.991267
5.5963,0.008902,0.003945,0.008716,-0.000195,-0.001425,-0.003846,0.012243,-0.506464,0.006124,-1.622555,-263.712976,-1.36233,62.991267
5.6162,0.00895,0.003703,0.005123,0.0,0.0,0.0,0.013314,-0.506291,0.008026,-1.622555,-263.707398,-1.36233,62.989873
5.6368,0.009267,0.003891,0.005449,0.0,0.0,0.0,0.013191,-0.506298,0.007805,-1.622555,-263.707398,-1.36233,62.989873
5.6563,0.009711,0.003537,0.006681,0.0,0.0,0.0,0.012038,-0.506156,0.0053,-1.622555,-263.705886,-1.36233,62.989495
5.6763,0.00947,0.003678,0.006187,0.0,0.0,0.0,0.012652,-0.506331,0.006067,-1.622555,-263.705886,-1.36233,62.989495
5.6962,0.009291,0.004059,0.005861,0.0,0.0,0.0,0.012652,-0.506331,0.006067,-1.622555,-263.705886,-1.36233,62.989495
5.7166,0.00877,0.003633,0.006832,0.0,0.0,0.0,0.01228,-0.505932,0.005861,-1.622555,-263.705886,-1.36233,62.989495
5.7362,0.009408,0.003728,0.005375,0.0,0.0,0.0,0.012278,-0.505963,0.005932,-1.622555,-263.705886,-1.36233,62.989495
5.7564,0.009087,0.003439,0.006934,0.0,0.0,0.0,0.01215,-0.506264,0.005375,-1.622555,-263.705886,-1.36233,62.989495
5.7763,0.00963,0.003385,0.006548,0.0,0.0,0.0,0.012419,-0.506426,0.006261,-1.622555,-263.705886,-1.36233,62.989495
5.7964,0.009536,0.003301,0.007506,0.0,0.0,0.0,0.012419,-0.506426,0.006261,-1.622555,-263.705886,-1.36233,62.989495
5.8163,0.009283,0.003475,0.007655,0.0,0.0,0.0,0.013364,-0.506685,0.007506,-1.622555,-263.705886,-1.36233,62.989495
5.8369,0.009354,0.003563,0.005523,-9.4e-05,-3.4e-05,0.0,0.013351,-0.506672,0.007517,-1.622555,-263.705886,-1.36233,62.989495
5.8566,0.009082,0.003492,0.005623,-9.4e-05,-3.4e-05,0.0,0.012171,-0.506429,0.005523,-1.622555,-263.705886,-1.36233,62.989495
5.8764,0.009683,0.003708,0.007085,-9.4e-05,-3.4e-05,0.0,0.012045,-0.506469,0.00558,-1.622555,-263.705886,-1.36233,62.989495
5.8965,0.009107,0.003473,0.005518,-9.4e-05,-3.4e-05,0.0,0.012045,-0.506469,0.00558,-1.622555,-263.705886,-1.36233,62.989495
5.9162,0.009472,0.003434,0.006606,-9.4e-05,-3.4e-05,0.0,0.011921,-0.506519,0.005518,-1.5477,-263.705886,-1.287475,62.989495
5.9362,0.009298,0.003345,0.005854,-9.4e-05,-3.4e-05,0.0,0.011983,-0.506522,0.005591,-1.5477,-263.705886,-1.287475,62.989495
5.9566,0.009548,0.003766,0.005383,-9.4e-05,-3.4e-05,0.0,0.012284,-0.506646,0.005854,-1.472684,-263.705886,-1.212459,62.989495
5.9764,0.009302,0.003614,0.006922,-9.4e-05,-3.4e-05,0.0,0.012289,-0.506401,0.005579,-1.472684,-263.705886,-1.212459,62.989495
5.9965,0.009402,0.003551,0.006922,-9.4e-05,-3.4e-05,0.0,0.012289,-0.506401,0.005579,-1.472684,-263.705886,-1.212459,62.989495
6.0163,0.009311,0.003466,0.006248,-9.4e-05,-3.4e-05,0.0,0.012932,-0.506436,0.006922,-1.397186,-263.705886,-1.136961,62.989495
6.0367,0.009495,0.003639,0.006836,-9.4e-05,-3.4e-05,0.0,0.012903,-0.506442,0.006878,-1.397186,-263.705886,-1.136961,62.989495
6.0565,0.00966,0.00335,0.008502,-0.001362,-0.000498,-0.00112,0.012981,-0.506349,0.006836,-1.322676,-263.705886,-1.062451,62.989495
6.0763,0.009464,0.003663,0.005389,-0.002655,-0.000971,-0.002183,0.013564,-0.506511,0.007793,-1.322676,-263.705886,-1.062451,62.989495
6.0964,0.009181,0.00357,0.007885,-0.003876,-0.001418,-0.003188,0.013564,-0.506511,0.007793,-1.322676,-263.705886,-1.062451,62.989495
6.1163,0.009452,0.003709,0.00503,-0.005027,-0.001838,-0.004134,0.013202,-0.506414,0.007885,-1.247573,-263.705886,-0.987349,62.989495
6.1362,0.00949,0.003521,0.005755,-0.006109,-0.002234,-0.005024,0.013119,-0.506405,0.007686,-1.247573,-263.705886,-0.987349,62.989495
6.1567,0.009515,0.003532,0.006938,-0.007122,-0.002604,-0.005857,0.012425,-0.50647,0.005755,-1.172697,-263.705886,-0.912473,62.989495
6.1763,0.009153,0.003369,0.006576,-0.008068,-0.00295,-0.006634,0.012786,-0.506462,0.006435,-1.172697,-263.705886,-0.912473,62.989495
6.1963,0.009621,0.003634,0.005171,-0.008939,-0.003269,-0.00735,0.012786,-0.506462,0.006435,-1.172697,-263.705886,-0.912473,62.989495
6.2162,0.009076,0.003762,0.007598,-0.00974,-0.003562,-0.008009,0.012259,-0.506359,0.005171,-1.097562,-263.705886,-0.837337,62.989495
6.2367,0.009147,0.003887,0.006355,-0.010473,-0.00383,-0.008612,0.012315,-0.506348,0.00537,-1.097562,-263.705886,-0.837337,62.989495
6.2564,0.009606,0.004088,0.007449,-0.011137,-0.004073,-0.009159,0.012388,-0.506102,0.006355,-1.022362,-263.705886,-0.762137,62.989495
6.2769,0.009529,0.003779,0.007082,-0.011733,-0.00429,-0.009648,0.012972,-0.505985,0.006983,-1.022362,-263.705886,-0.762137,62.989495
6.297,0.009436,0.003753,0.005372,-0.012253,-0.004481,-0.010076,0.012972,-0.505985,0.006983,-1.022362,-263.705886,-0.762137,62.989495
6.3168,0.009472,0.003574,0.004705,-0.01271,-0.004648,-0.010452,0.012176,-0.506239,0.005372,-0.947595,-263.705886,-0.68737,62.989495
6.3362,0.009212,0.003521,0.00676,-0.013093,-0.004788,-0.010767,0.012155,-0.506251,0.005327,-0.947595,-263.705886,-0.68737,62.989495
6.3563,0.009249,0.003746,0.00736,-0.013406,-0.004902,-0.011024,0.012659,-0.506467,0.00676,-0.872714,-263.705886,-0.612489,62.989495
6.3768,0.009754,0.003671,0.007357,-0.013651,-0.004992,-0.011226,0.012856,-0.506338,0.007103,-0.872714,-263.705886,-0.612489,62.989495
6.3968,0.009683,0.003957,0.006941,-0.013824,-0.005055,-0.011368,0.012856,-0.506338,0.007103,-0.872714,-263.705886,-0.612489,62.989495
6.4163,0.009376,0.004026,0.006115,-0.013929,-0.005093,-0.011454,0.013223,-0.506031,0.006941,-0.79759,-263.705887,-0.537366,62.989495
6.4366,0.009236,0.003752,0.005622,-0.013964,-0.005106,-0.011483,0.013174,-0.506027,0.006885,-0.79759,-263.705887,-0.537366,62.989495
6.4563,0.009198,0.003894,0.006217,-0.013929,-0.005093,-0.011454,0.012103,-0.50624,0.005622,-0.722553,-263.705887,-0.462328,62.989495
6.4765,0.00953,0.003448,0.00571,-0.013823,-0.005055,-0.011367,0.012252,-0.50616,0.005955,-0.722553,-263.705887,-0.462328,62.989495
6.4965,0.008991,0.003795,0.006143,-0.013649,-0.004991,-0.011224,0.012252,-0.50616,0.005955,-0.722553,-263.705887,-0.462328,62.989495
6.5162,0.009341,0.003267,0.006963,-0.013405,-0.004902,-0.011024,0.012124,-0.506195,0.006143,-0.647705,-263.705887,-0.38748,62.989495
6.5362,0.009378,0.004019,0.006411,-0.013091,-0.004787,-0.010765,0.012175,-0.50623,0.006198,-0.647705,-263.705887,-0.38748,62.989495
6.5564,0.00928,0.003544,0.007593,-0.012707,-0.004647,-0.010449,0.012647,-0.50597,0.006411,-0.5727,-263.705887,-0.312476,62.989494
6.5768,0.00922,0.003607,0.006479,-0.012254,-0.004481,-0.010077,0.012932,-0.506236,0.007078,-0.5727,-263.705887,-0.312476,62.989494
6.5966,0.009283,0.002711,0.00667,-0.011728,-0.004288,-0.009644,0.012932,-0.506236,0.007078,-0.5727,-263.705887,-0.312476,62.989494
6.6164,0.009226,0.003569,0.006969,-0.011135,-0.004072,-0.009157,0.012685,-0.507278,0.00667,-0.497702,-263.705887,-0.237478,62.989494
6.6364,0.009486,0.003942,0.006129,-0.010472,-0.003829,-0.008611,0.012691,-0.507222,0.006689,-0.497702,-263.705887,-0.237478,62.989494
6.6564,0.009386,0.003593,0.005598,-0.009735,-0.00356,-0.008005,0.012612,-0.506048,0.006129,-0.422695,-263.705888,-0.16247,62.989494
6.6767,0.009212,0.003754,0.005383,-0.008934,-0.003267,-0.007346,0.012402,-0.506247,0.005828,-0.422695,-263.705888,-0.16247,62.989494
6.6964,0.009039,0.003565,0.005689,-0.008061,-0.002948,-0.006629,0.012402,-0.506247,0.005828,-0.422695,-263.705888,-0.16247,62.989494
6.7165,0.009048,0.003638,0.006078,-0.007115,-0.002602,-0.005851,0.011941,-0.506427,0.005689,-0.34769,-263.705888,-0.135723,62.989493
6.7363,0.009391,0.003707,0.007384,-0.006102,-0.002231,-0.005018,0.011955,-0.506422,0.005716,-0.34769,-263.705888,-0.135723,62.989493
6.7567,0.009607,0.003812,0.005774,-0.005019,-0.001835,-0.004127,0.013157,-0.506279,0.007384,-0.272686,-263.705889,-0.135723,62.989493
6.777,0.009512,0.003554,0.006337,-0.003866,-0.001414,-0.003179,0.012815,-0.506223,0.006473,-0.272686,-263.705889,-0.135723,62.989493
6.7967,0.009377,0.003772,0.007037,-0.002639,-0.000965,-0.00217,0.012815,-0.506223,0.006473,-0.272686,-263.705889,-0.135723,62.989493
6.8166,0.009459,0.003692,0.00646,-0.001357,-0.000496,-0.001116,0.012965,-0.506215,0.007037,-0.19763,-263.705889,-0.135723,62.989493
6.8367,0.009401,0.00368,0.005935,0.0,0.0,0.0,0.012952,-0.50622,0.007001,-0.19763,-263.705889,-0.135723,62.989493
6.8566,0.009341,0.003895,0.008285,0.0,0.0,0.0,0.012428,-0.506311,0.005935,-0.12269,-263.705889,-0.135723,62.989493
6.8764,0.009288,0.003588,0.006111,0.0,0.0,0.0,0.01307,-0.506185,0.007261,-0.12269,-263.705889,-0.135723,62.989493
6.8966,0.009375,0.003818,0.004823,0.0,0.0,0.0,0.01307,-0.506185,0.007261,-0.12269,-263.705889,-0.135723,62.989493
6.9167,0.009363,0.00364,0.007548,0.0,0.0,0.0,0.011835,-0.506177,0.004823,-0.12269,-263.705889,-0.135723,62.989493
6.9369,0.009407,0.003926,0.008006,0.0,0.0,0.0,0.011919,-0.506187,0.004988,-0.12269,-263.705889,-0.135723,62.989493
6.9564,0.009484,0.003504,0.004961,0.0,0.0,0.0,0.01349,-0.506057,0.008006,-0.12269,-263.705889,-0.135723,62.989493
6.9766,0.009335,0.003838,0.005494,0.0,0.0,0.0,0.012654,-0.506302,0.006281,-0.12269,-263.705889,-0.135723,62.989493
6.9967,0.0094,0.003745,0.005283,0.0,0.0,0.0,0.012654,-0.506302,0.006281,-0.12269,-263.705889,-0.135723,62.989493
7.0168,0.009194,0.003529,0.006559,0.0,0.0,0.0,0.012094,-0.506248,0.005283,-0.12269,-263.705889,-0.135723,62.989493
7.0371,0.009208,0.003743,0.005501,0.0,0.0,0.0,0.012123,-0.506262,0.005367,-0.12269,-263.705889,-0.135723,62.989493
7.0566,0.009384,0.003712,0.006143,-9.3e-05,-3.7e-05,0.0,0.012013,-0.506249,0.005501,-0.12269,-263.705889,-0.135723,62.989493
7.0771,0.009293,0.003716,0.006407,-9.3e-05,-3.7e-05,0.0,0.012293,-0.506265,0.005857,-0.12269,-263.705889,-0.135723,62.989493
7.0965,0.009615,0.003536,0.006824,-9.3e-05,-3.7e-05,0.0,0.012293,-0.506265,0.005857,-0.12269,-263.705889,-0.135723,62.989493
7.1167,0.009456,0.003541,0.006286,-9.3e-05,-3.7e-05,0.0,0.013095,-0.506453,0.006824,-0.12269,-263.705889,-0.135723,62.989493
7.1365,0.009454,0.003846,0.005935,-9.3e-05,-3.7e-05,0.0,0.013066,-0.506452,0.006788,-0.12269,-263.705889,-0.135723,62.989493
7.1566,0.009221,0.003834,0.006704,-9.3e-05,-3.7e-05,0.0,0.012481,-0.506145,0.005935,-0.047725,-263.705889,-0.060758,62.989493
7.177,0.009526,0.003725,0.005817,-9.3e-05,-3.7e-05,0.0,0.012571,-0.50615,0.006368,-0.047725,-263.705889,-0.060758,62.989493
7.1965,0.009333,0.003502,0.006126,-9.3e-05,-3.7e-05,0.0,0.012571,-0.50615,0.006368,-0.047725,-263.705889,-0.060758,62.989493
7.2165,0.009258,0.003592,0.005919,-9.3e-05,-3.7e-05,0.0,0.012457,-0.506489,0.006126,0.0273,-263.705889,0.014267,62.989493
7.2363,0.00927,0.003579,0.007934,-9.3e-05,-3.7e-05,0.0,0.012447,-0.506484,0.006114,0.0273,-263.705889,0.014267,62.989493
7.2568,0.00928,0.003809,0.005675,-9.3e-05,-3.7e-05,0.0,0.013316,-0.506405,0.007934,0.102276,-263.70589,0.089243,62.989492
7.2764,0.009502,0.003383,0.006878,-0.001342,-0.000537,-0.0008,0.012671,-0.50628,0.006658,0.102276,-263.70589,0.089243,62.989492
7.2963,0.00914,0.003561,0.007344,-0.002634,-0.001054,-0.00157,0.012671,-0.50628,0.006658,0.102276,-263.70589,0.089243,62.989492
7.3164,0.009389,0.003841,0.007485,-0.003839,-0.001536,-0.002288,0.012885,-0.506425,0.007344,0.177267,-263.705893,0.164234,62.989489
7.3365,0.009438,0.003666,0.006169,-0.004978,-0.001992,-0.002967,0.012907,-0.506406,0.007354,0.177267,-263.705893,0.164234,62.989489
7.3563,0.009252,0.003808,0.006458,-0.006054,-0.002422,-0.003609,0.012582,-0.506325,0.006168,0.252269,-263.705917,0.089231,62.98947
7.3764,0.009573,0.003543,0.007538,-0.007055,-0.002823,-0.004205,0.012561,-0.506244,0.006333,0.252269,-263.705917,0.089231,62.98947
7.3964,0.009505,0.00375,0.005177,-0.00799,-0.003197,-0.004763,0.012561,-0.506244,0.006333,0.252269,-263.705917,0.089231,62.98947
7.4171,0.0092,0.003572,0.007025,-0.008856,-0.003543,-0.005279,0.012127,-0.506247,0.005172,0.327275,-263.706089,0.036025,62.989334
7.4366,0.009179,0.003697,0.006132,-0.009652,-0.003862,-0.005754,0.012171,-0.506258,0.005296,0.327275,-263.706089,0.036025,62.989334
7.4563,0.009482,0.003635,0.007426,-0.010385,-0.004155,-0.00619,0.012246,-0.506308,0.006111,0.402273,-263.706806,0.036025,62.988763
7.4767,0.00934,0.003714,0.005328,-0.011036,-0.004416,-0.006579,0.012819,-0.506334,0.006854,0.402273,-263.706806,0.036025,62.988763
7.4966,0.009165,0.003704,0.005541,-0.011624,-0.004651,-0.006929,0.012819,-0.506334,0.006854,0.402273,-263.706806,0.036025,62.988763
7.5168,0.008963,0.003302,0.007242,-0.012147,-0.00486,-0.007241,0.011811,-0.506341,0.005465,0.477272,-263.708571,0.036025,62.98736
7.5369,0.008725,0.003564,0.005995,-0.012595,-0.005039,-0.007507,0.011865,-0.506366,0.005586,0.477272,-263.708571,0.036025,62.98736
7.5566,0.009013,0.00322,0.006096,-0.012977,-0.005192,-0.007736,0.011498,-0.506524,0.005854,0.552273,-263.712142,0.036025,62.984521
7.5766,0.00932,0.003562,0.00556,-0.013288,-0.005316,-0.007921,0.011812,-0.506675,0.005972,0.552273,-263.712142,0.036025,62.984521
7.5966,0.009023,0.003384,0.006833,-0.01353,-0.005413,-0.008065,0.011812,-0.506675,0.005972,0.552273,-263.712142,0.036025,62.984521
7.6167,0.008316,0.003391,0.005613,-0.013703,-0.005483,-0.008168,0.011982,-0.50681,0.006533,0.627281,-263.717539,0.036025,62.980229
7.6368,0.008286,0.002941,0.006652,-0.013807,-0.005524,-0.00823,0.011919,-0.506802,0.006467,0.627281,-263.717539,0.036025,62.980229
7.6564,0.00819,0.002965,0.005103,-0.013842,-0.005538,-0.008251,0.011162,-0.507258,0.006344,0.652502,-263.724281,0.036025,62.974869
7.6764,0.008221,0.003053,0.006433,-0.013807,-0.005524,-0.00823,0.010887,-0.507155,0.005602,0.652502,-263.724281,0.036025,62.974869
7.6966,0.008335,0.002942,0.004148,-0.013704,-0.005483,-0.008169,0.010887,-0.507155,0.005602,0.652502,-263.724281,0.036025,62.974869
7.7168,0.007509,0.002523,0.006074,-0.013532,-0.005414,-0.008066,0.009776,-0.507327,0.003746,0.652502,-263.731232,0.036025,62.969342
7.7363,0.007465,0.002774,0.005404,-0.013289,-0.005317,-0.007921,0.009807,-0.50734,0.003861,0.652502,-263.731232,0.036025,62.969342
7.7566,0.007495,0.002223,0.005261,-0.012978,-0.005192,-0.007736,0.009691,-0.507433,0.005087,0.652502,-263.738157,0.036025,62.963837
7.7765,0.007003,0.002129,0.004943,-0.012594,-0.005039,-0.007507,0.009904,-0.507654,0.005147,0.652502,-263.738157,0.036025,62.963837
7.7965,0.007062,0.002029,0.004996,-0.012148,-0.00486,-0.007241,0.009904,-0.507654,0.005147,0.652502,-263.738157,0.036025,62.963837
7.8165,0.006722,0.002223,0.003976,-0.01163,-0.004653,-0.006932,0.008966,-0.508225,0.004612,0.652502,-263.744859,0.036025,62.958508
7.8366,0.006326,0.00222,0.003997,-0.011041,-0.004418,-0.006582,0.00893,-0.508197,0.00455,0.652502,-263.744859,0.036025,62.958508
7.8563,0.006212,0.001477,0.00468,-0.010369,-0.004149,-0.006181,0.007899,-0.507964,0.003719,0.652502,-263.751001,0.036025,62.953625
7.8765,0.006174,0.001779,0.004229,-0.009648,-0.00386,-0.005751,0.008255,-0.508315,0.004253,0.652502,-263.751001,0.036025,62.953625
7.8965,0.006358,0.001687,0.00261,-0.008862,-0.003545,-0.005282,0.008255,-0.508315,0.004253,0.652502,-263.751001,0.036025,62.953625
7.9168,0.006026,0.001842,0.003819,-0.007975,-0.003191,-0.004754,0.007158,-0.508526,0.002293,0.652502,-263.756529,0.036025,62.949229
7.9373,0.005831,0.001841,0.002706,-0.007063,-0.002826,-0.00421,0.007205,-0.508503,0.002403,0.652502,-263.756529,0.036025,62.949229
7.9563,0.005518,0.001564,0.000913,-0.006057,-0.002423,-0.00361,0.006866,-0.508296,0.0025,0.652502,-263.760976,0.036025,62.945693
7.9766,0.005695,0.001394,0.004211,-0.00498,-0.001993,-0.002969,0.006329,-0.508391,0.001585,0.652502,-263.760976,0.036025,62.945693
7.9965,0.005196,0.001622,0.003457,-0.003845,-0.001538,-0.002292,0.006329,-0.508391,0.001585,0.652502,-263.760976,0.036025,62.945693
8.0168,0.005127,0.001441,0.002384,-0.002635,-0.001054,-0.001571,0.006617,-0.508513,0.003253,0.652502,-263.764527,0.036025,62.94287
8.0368,0.005749,0.001358,0.002877,-0.001334,-0.000534,-0.000795,0.006589,-0.50852,0.003187,0.652502,-263.764527,0.036025,62.94287
8.0573,0.005169,0.001204,0.003456,-0.0,-0.0,-0.0,0.007068,-0.5087,0.002789,0.652502,-263.766463,0.036025,62.941331
8.0767,0.005483,0.001288,0.002821,0.0,0.0,0.0,0.006973,-0.50876,0.003148,0.652502,-263.766463,0.036025,62.941331
8.097,0.004804,0.001691,0.004098,0.0,0.0,0.0,0.006973,-0.50876,0.003148,0.652502,-263.766463,0.036025,62.941331
8.1167,0.005094,0.001206,0.002414,0.0,0.0,0.0,0.006829,-0.508331,0.004059,0.652502,-263.767134,0.036025,62.940797
8.1372,0.005118,0.001762,0.002583,0.0,0.0,0.0,0.0068,-0.508357,0.003968,0.652502,-263.767134,0.036025,62.940797
8.1564,0.005193,0.001228,0.002533,0.0,0.0,0.0,0.006435,-0.508237,0.002583,0.652502,-263.767134,0.036025,62.940797
8.1762,0.004823,0.000934,0.003948,0.0,0.0,0.0,0.006463,-0.508537,0.002555,0.652502,-263.767134,0.036025,62.940797
8.1963,0.005237,0.000978,0.003121,0.0,0.0,0.0,0.006463,-0.508537,0.002555,0.652502,-263.767134,0.036025,62.940797
8.2165,0.005164,0.001225,0.002384,0.0,0.0,0.0,0.006829,-0.50902,0.003121,0.652502,-263.767134,0.036025,62.940797
8.2368,0.005033,0.001464,0.002715,0.0,0.0,0.0,0.0068,-0.509004,0.003073,0.652502,-263.767134,0.036025,62.940797
8.2563,0.005015,0.001163,0.001486,0.0,0.0,0.0,0.006417,-0.508534,0.002715,0.652502,-263.767134,0.036025,62.940797
8.2763,0.005058,0.001401,0.002767,0.0,0.0,0.0,0.006051,-0.508706,0.002017,0.652502,-263.767134,0.036025,62.940797
8.297,0.005296,0.001134,0.004546,-9.6e-05,-2.6e-05,0.0,0.006051,-0.508706,0.002017,0.652502,-263.767134,0.036025,62.940797
8.3168,0.004766,0.001279,0.002388,-9.6e-05,-2.6e-05,0.0,0.007614,-0.508861,0.004546,0.652502,-263.767134,0.036025,62.940797
8.337,0.004807,0.001402,0.002311,-9.6e-05,-2.6e-05,0.0,0.007503,-0.508851,0.004398,0.652502,-263.767134,0.036025,62.940797
8.3566,0.004958,0.001259,0.001614,-9.6e-05,-2.6e-05,0.0,0.005985,-0.508597,0.002311,0.577493,-263.767136,0.111033,62.940795
8.3762,0.00508,0.000961,0.001589,-9.6e-05,-2.6e-05,0.0,0.005871,-0.508677,0.00192,0.577493,-263.767136,0.111033,62.940795
8.397,0.004901,0.001383,0.003478,-9.6e-05,-2.6e-05,0.0,0.005871,-0.508677,0.00192,0.577493,-263.767136,0.111033,62.940795
8.4166,0.004949,0.000812,0.003192,-9.6e-05,-2.6e-05,0.0,0.006674,-0.508614,0.003478,0.50244,-263.767142,0.186087,62.94079
8.4372,0.004719,0.001218,0.002644,-9.6e-05,-2.6e-05,0.0,0.006666,-0.508663,0.003454,0.50244,-263.767142,0.186087,62.94079
8.4567,0.005246,0.001364,0.002593,-9.6e-05,-2.6e-05,0.0,0.006065,-0.50878,0.002643,0.426854,-263.767156,0.261672,62.940775
8.4765,0.005223,0.001127,0.002623,-9.6e-05,-2.6e-05,0.0,0.006353,-0.508697,0.002615,0.426854,-263.767156,0.261672,62.940775
8.4964,0.004951,0.001026,0.003387,-9.6e-05,-2.6e-05,0.0,0.006353,-0.508697,0.002615,0.426854,-263.767156,0.261672,62.940775
8.5165,0.004875,0.001588,0.002306,-0.00074,-0.000203,-0.000405,0.006675,-0.508972,0.003387,0.352365,-263.767183,0.267522,62.940749
8.5369,0.00483,0.00104,0.002313,-0.001443,-0.000395,-0.000789,0.006634,-0.508935,0.003316,0.352365,-263.767183,0.267522,62.940749
8.5564,0.005087,0.001168,0.001819,-0.002108,-0.000578,-0.001152,0.006006,-0.508959,0.002313,0.277494,-263.767218,0.267522,62.940713
8.5766,0.004825,0.001159,0.004646,-0.002736,-0.00075,-0.001496,0.006011,-0.508887,0.002032,0.277494,-263.767218,0.267522,62.940713
8.5963,0.005465,0.001265,0.003764,-0.003322,-0.00091,-0.001816,0.006011,-0.508887,0.002032,0.277494,-263.767218,0.267522,62.940713
8.6162,0.004776,0.000901,0.002826,-0.003873,-0.001062,-0.002117,0.007381,-0.508732,0.003763,0.352487,-263.767255,0.19253,62.940682
8.6368,0.005189,0.001006,0.004156,-0.004385,-0.001202,-0.002397,0.007297,-0.508759,0.003695,0.352487,-263.767255,0.19253,62.940682
8.6564,0.004931,0.001064,0.002959,-0.00486,-0.001332,-0.002657,0.007283,-0.508997,0.004148,0.427582,-263.767558,0.117435,62.940422
8.6762,0.005068,0.000997,0.002434,-0.005297,-0.001452,-0.002896,0.006802,-0.508962,0.003473,0.427582,-263.767558,0.117435,62.940422
8.6963,0.00504,0.001501,0.001625,-0.005695,-0.001561,-0.003113,0.006802,-0.508962,0.003473,0.427582,-263.767558,0.117435,62.940422
8.7168,0.004949,0.001254,0.003702,-0.006056,-0.00166,-0.003311,0.005765,-0.508529,0.001581,0.502502,-263.768546,0.042515,62.939576
8.7367,0.00491,0.001395,0.00383,-0.00638,-0.001749,-0.003488,0.005836,-0.508545,0.001725,0.502502,-263.768546,0.042515,62.939576
8.7568,0.004872,0.00077,0.002627,-0.006663,-0.001826,-0.003643,0.006683,-0.508654,0.003735,0.546275,-263.770733,-0.032478,62.937705
8.7765,0.004597,0.000975,0.003847,-0.00691,-0.001894,-0.003778,0.006393,-0.508987,0.003095,0.546275,-263.770733,-0.032478,62.937705
8.7962,0.005272,0.000701,0.002798,-0.007119,-0.001951,-0.003892,0.006393,-0.508987,0.003095,0.546275,-263.770733,-0.032478,62.937705
8.8167,0.004418,0.000695,0.003963,-0.00729,-0.001998,-0.003986,0.006393,-0.509382,0.00263,0.546275,-263.773684,-0.059735,62.935179
8.8367,0.004606,0.000996,0.001127,-0.007422,-0.002034,-0.004058,0.006388,-0.509379,0.002717,0.546275,-263.773684,-0.059735,62.935179
8.8565,0.004194,0.000877,0.002683,-0.007517,-0.00206,-0.00411,0.004906,-0.50908,0.000977,0.546275,-263.777016,-0.059735,62.932326
8.8762,0.004147,0.000878,0.002448,-0.007575,-0.002076,-0.004141,0.005243,-0.509113,0.001925,0.546275,-263.777016,-0.059735,62.932326
8.8963,0.004359,0.000701,0.002049,-0.007593,-0.002081,-0.004151,0.005243,-0.509113,0.001925,0.546275,-263.777016,-0.059735,62.932326
8.9163,0.003788,0.000921,0.000959,-0.007574,-0.002076,-0.004141,0.005043,-0.509398,0.001852,0.546275,-263.780491,-0.059735,62.929352
8.9368,0.004163,0.000552,0.002081,-0.007517,-0.00206,-0.00411,0.004983,-0.509379,0.001787,0.546275,-263.780491,-0.059735,62.929352
8.9563,0.003818,0.000796,0.001248,-0.007422,-0.002034,-0.004058,0.004931,-0.509528,0.00192,0.546275,-263.784051,-0.059735,62.926304
8.9763,0.003594,0.000565,0.002202,-0.007289,-0.001998,-0.003985,0.004621,-0.509353,0.001515,0.546275,-263.784051,-0.059735,62.926304
8.9963,0.003743,0.000869,0.003655,-0.007118,-0.001951,-0.003892,0.004621,-0.509353,0.001515,0.546275,-263.784051,-0.059735,62.926304
9.0164,0.003898,0.000742,0.003199,-0.00691,-0.001894,-0.003777,0.005242,-0.509229,0.003455,0.546275,-263.787565,-0.059735,62.923296
9.0367,0.003737,0.000815,0.001384,-0.006663,-0.001826,-0.003643,0.005253,-0.509233,0.003432,0.546275,-263.787565,-0.059735,62.923296
9.0568,0.002683,0.000397,-0.00014,-0.006378,-0.001748,-0.003487,0.004168,-0.50926,0.001234,0.546275,-263.790897,-0.059735,62.920444
9.0766,0.003007,0.000554,0.002626,-0.006056,-0.00166,-0.003311,0.003248,-0.509465,0.000433,0.546275,-263.790897,-0.059735,62.920444
9.0965,0.003162,0.000396,0.002392,-0.005694,-0.001561,-0.003113,0.003248,-0.509465,0.000433,0.546275,-263.790897,-0.059735,62.920444
9.1162,0.002806,0.000335,0.002917,-0.005295,-0.001451,-0.002895,0.004058,-0.509692,0.002215,0.546275,-263.794016,-0.059735,62.917775
9.1367,0.002768,0.000276,0.001125,-0.00486,-0.001332,-0.002657,0.004065,-0.509693,0.002258,0.546275,-263.794016,-0.059735,62.917775
