mach0312/omni-docking-bench/src/icros_test_setup/results/kinematic_sample/timeseries/trial_097.csv
t,x,y,yaw,vx,vy,wz,bl_x,bl_y,bl_yaw,front_steering_joint,front_wheel_joint,rear_steering_joint,rear_wheel_joint
0.0,-0.038495,0.028118,0.068573,0.008646,0.001457,0.004279,-0.004195,-0.48099,0.069518,0.439995,-264.467052,-0.133006,62.182156
0.0005,-0.038457,0.028366,0.068847,0.007338,0.001236,0.003632,-0.005639,-0.480736,0.06631,0.439995,-264.463189,-0.133006,62.185682
0.0009,-0.038421,0.027982,0.067415,0.006968,0.001174,0.003449,-0.005639,-0.480736,0.06631,0.439995,-264.459368,-0.133006,62.189171
0.0012,-0.038007,0.028147,0.070308,0.006552,0.001104,0.003243,-0.00472,-0.480898,0.068313,0.439995,-264.455746,-0.133006,62.192477
0.0015,-0.038397,0.028166,0.069577,0.006092,0.001026,0.003015,-0.00472,-0.480898,0.068313,0.439995,-264.452354,-0.133006,62.195574
0.0019,-0.038215,0.028595,0.06952,0.00559,0.000942,0.002767,-0.00472,-0.480898,0.068313,0.439995,-264.449456,-0.133006,62.198218
0.0022,-0.038257,0.02805,0.069593,0.005042,0.000849,0.002495,-0.003683,-0.480733,0.068242,0.439995,-264.446988,-0.133006,62.200472
0.0024,-0.037871,0.028583,0.069832,0.004455,0.000751,0.002205,-0.003702,-0.480747,0.068219,0.439995,-264.446988,-0.133006,62.200472
0.0027,-0.038102,0.028308,0.068196,0.003822,0.000644,0.001892,-0.003702,-0.480747,0.068219,0.439995,-264.446988,-0.133006,62.200472
0.0029,-0.03789,0.028233,0.068784,0.003145,0.00053,0.001556,-0.004071,-0.48078,0.068322,0.439995,-264.446988,-0.133006,62.200472
0.018,-0.037909,0.028082,0.068626,0.018424,-0.015592,-0.0288,-0.002692,-0.480526,0.068857,0.439995,-264.445296,-0.133006,62.202016
0.0379,-0.037904,0.028474,0.070032,0.034424,-0.030615,-0.05,-0.002814,-0.480631,0.068734,0.439995,-264.445296,-0.133006,62.202016
0.0578,-0.037765,0.028183,0.069725,0.035818,-0.031057,-0.05,-0.002814,-0.480631,0.068734,0.439995,-264.445296,-0.133006,62.202016
0.0784,-0.037436,0.028512,0.067416,0.03571,-0.030746,-0.05,-0.002118,-0.48055,0.069784,0.439995,-264.444226,-0.133006,62.202993
0.0978,-0.037701,0.028386,0.069801,0.03543,-0.030969,-0.05,-0.002179,-0.480534,0.069629,0.439995,-264.444226,-0.133006,62.202993
0.1179,-0.037741,0.02848,0.069671,0.035629,-0.030947,-0.05,-0.002131,-0.480372,0.069801,0.365073,-264.444224,-0.058084,62.202994
0.1379,-0.037895,0.02853,0.070151,0.035667,-0.031038,-0.05,-0.002192,-0.480321,0.069727,0.365073,-264.444224,-0.058084,62.202994
0.1578,-0.037305,0.02838,0.069255,0.035802,-0.031116,-0.05,-0.002192,-0.480321,0.069727,0.365073,-264.444224,-0.058084,62.202994
0.1779,-0.037423,0.028688,0.068533,0.035252,-0.030894,-0.05,-0.002013,-0.480397,0.069256,0.289938,-264.444221,-0.012167,62.202995
0.1981,-0.037545,0.028583,0.069562,0.035371,-0.031184,-0.05,-0.002055,-0.480372,0.069193,0.289938,-264.444221,-0.012167,62.202995
0.2179,-0.037549,0.028453,0.069374,0.035468,-0.031124,-0.05,-0.002097,-0.480184,0.069562,0.214545,-264.444218,-0.016157,62.202997
0.2378,-0.037662,0.028605,0.068933,0.035487,-0.030987,-0.05,-0.002154,-0.480261,0.069455,0.214545,-264.444218,-0.016157,62.202997
0.2581,-0.037412,0.028331,0.069619,0.035602,-0.031131,-0.05,-0.002154,-0.480261,0.069455,0.214545,-264.444218,-0.016157,62.202997
0.2779,-0.03754,0.02847,0.070606,0.035351,-0.030865,-0.05,-0.001935,-0.480434,0.069619,0.140101,-264.444215,-0.018264,62.202998
0.2983,-0.037778,0.028442,0.067327,0.035438,-0.031047,-0.05,-0.001911,-0.480422,0.069682,0.140101,-264.444215,-0.018264,62.202998
0.3179,-0.037589,0.028605,0.068719,0.035779,-0.030919,-0.05,-0.003467,-0.480402,0.067327,0.0651,-264.444212,-0.016661,62.202999
0.3378,-0.037961,0.028551,0.068844,0.035537,-0.031119,-0.05,-0.002959,-0.480283,0.068115,0.0651,-264.444212,-0.016661,62.202999
0.3581,-0.037283,0.028438,0.069589,0.035907,-0.031095,-0.05,-0.002959,-0.480283,0.068115,0.0651,-264.444212,-0.016661,62.202999
0.3778,-0.037546,0.0284,0.069646,0.035216,-0.030961,-0.05,-0.001821,-0.480328,0.069589,-0.010052,-264.44421,-0.014388,62.203001
0.3984,-0.037416,0.02862,0.069573,0.035479,-0.030944,-0.05,-0.001838,-0.48033,0.069593,-0.010052,-264.44421,-0.014388,62.203001
0.4187,-0.037654,0.028048,0.06959,0.035336,-0.031152,-0.05,-0.001962,-0.480146,0.069573,-0.084988,-264.444207,-0.01552,62.203002
0.4379,-0.037695,0.028266,0.069078,0.035612,-0.030598,-0.05,-0.002091,-0.480467,0.069583,-0.084988,-264.444207,-0.01552,62.203002
0.4579,-0.037677,0.0283,0.069514,0.035654,-0.0308,-0.05,-0.002091,-0.480467,0.069583,-0.084988,-264.444207,-0.01552,62.203002
0.4779,-0.037617,0.028574,0.068917,0.03562,-0.030849,-0.05,-0.002253,-0.480468,0.069514,-0.159894,-264.444204,-0.011445,62.203004
0.4977,-0.037585,0.028257,0.069282,0.03556,-0.031097,-0.05,-0.002269,-0.480452,0.069475,-0.159894,-264.444204,-0.011445,62.203004
0.5179,-0.037402,0.028253,0.068757,0.035539,-0.030791,-0.05,-0.002279,-0.48052,0.069282,-0.234895,-264.444201,-0.007371,62.203005
0.5379,-0.037521,0.028405,0.070958,0.035372,-0.030756,-0.05,-0.002328,-0.480532,0.068981,-0.234895,-264.444201,-0.007371,62.203005
0.5578,-0.037674,0.028578,0.069197,0.035412,-0.030994,-0.05,-0.002328,-0.480532,0.068981,-0.234895,-264.444201,-0.007371,62.203005
0.5779,-0.037809,0.028677,0.069419,0.035608,-0.031115,-0.05,-0.002412,-0.480201,0.069197,-0.310048,-264.444198,-0.015723,62.203007
0.598,-0.03774,0.02823,0.069112,0.035729,-0.031231,-0.05,-0.002413,-0.480194,0.069212,-0.310048,-264.444198,-0.015723,62.203007
0.6177,-0.037552,0.028163,0.068692,0.035701,-0.030769,-0.05,-0.002521,-0.480552,0.069112,-0.384887,-264.444193,-0.012895,62.203009
0.6378,-0.037606,0.028628,0.06919,0.03553,-0.030674,-0.05,-0.002535,-0.480599,0.068873,-0.384887,-264.444193,-0.012895,62.203009
0.6579,-0.037888,0.028494,0.06884,0.035537,-0.031159,-0.05,-0.002535,-0.480599,0.068873,-0.384887,-264.444193,-0.012895,62.203009
0.6782,-0.037451,0.028223,0.072649,0.035838,-0.031032,-0.05,-0.002806,-0.480299,0.06884,-0.459898,-264.444176,-0.019399,62.203018
0.6983,-0.037387,0.028419,0.071328,0.035303,-0.030866,-0.05,-0.002648,-0.480308,0.069093,-0.459898,-264.444176,-0.019399,62.203018
0.7181,-0.037403,0.028362,0.069694,0.035266,-0.031011,-0.05,-0.001035,-0.480286,0.071325,-0.534895,-264.444095,-0.017492,62.203058
0.7379,-0.037211,0.028292,0.06893,0.035337,-0.030898,-0.05,-0.001518,-0.480351,0.070399,-0.534895,-264.444095,-0.017492,62.203058
0.7587,-0.037832,0.028729,0.068739,0.035174,-0.030788,-0.05,-0.001518,-0.480351,0.070399,-0.534895,-264.444095,-0.017492,62.203058
0.7782,-0.037577,0.028636,0.069383,0.03577,-0.031259,-0.05,-0.002775,-0.480077,0.06872,-0.6099,-264.443755,-0.009318,62.203227
0.7985,-0.037428,0.0283,0.069341,0.035501,-0.031173,-0.05,-0.002748,-0.48008,0.068751,-0.6099,-264.443755,-0.009318,62.203227
0.818,-0.037389,0.028371,0.067768,0.035377,-0.030826,-0.05,-0.002018,-0.480505,0.069284,-0.684915,-264.442606,-0.007113,62.203799
0.8379,-0.037257,0.028678,0.068032,0.035382,-0.030838,-0.05,-0.002481,-0.480482,0.068421,-0.684915,-264.442606,-0.007113,62.203799
0.8584,-0.037751,0.028352,0.068844,0.035221,-0.031144,-0.05,-0.002481,-0.480482,0.068421,-0.684915,-264.442606,-0.007113,62.203799
0.8782,-0.037259,0.028101,0.069333,0.035712,-0.030882,-0.05,-0.002418,-0.480561,0.068623,-0.760044,-264.439355,-0.017888,62.20542
0.8984,-0.03755,0.027853,0.070453,0.035222,-0.030615,-0.05,-0.00238,-0.480571,0.068664,-0.760044,-264.439355,-0.017888,62.20542
0.918,-0.036161,0.027745,0.068641,0.035496,-0.030427,-0.05,-0.001278,-0.481065,0.070121,-0.834899,-264.433604,-0.017231,62.208953
0.938,-0.036741,0.027964,0.068266,0.034173,-0.03016,-0.05,-0.001176,-0.481082,0.069235,-0.834899,-264.433604,-0.017231,62.208953
0.9579,-0.036585,0.027995,0.067623,0.034748,-0.030405,-0.05,-0.001176,-0.481082,0.069235,-0.834899,-264.433604,-0.017231,62.208953
0.9783,-0.035235,0.027508,0.067773,0.034609,-0.030404,-0.05,-0.001423,-0.48119,0.066975,-0.909903,-264.425349,-0.002197,62.214987
0.9978,-0.03568,0.027553,0.067354,0.033291,-0.029831,-0.05,-0.001356,-0.481208,0.067012,-0.909903,-264.425349,-0.002197,62.214987
1.018,-0.033356,0.027237,0.068117,0.033744,-0.029891,-0.05,-0.000629,-0.481674,0.066644,-0.984944,-264.414601,0.003804,62.223517
1.0377,-0.034065,0.026953,0.067129,0.031425,-0.029444,-0.05,0.000592,-0.48167,0.067391,-0.984944,-264.414601,0.003804,62.223517
1.0577,-0.033814,0.027277,0.066477,0.03218,-0.029178,-0.05,0.000592,-0.48167,0.067391,-0.984944,-264.414601,0.003804,62.223517
1.0778,-0.032198,0.026698,0.065782,0.031927,-0.029463,-0.05,0.001172,-0.482214,0.065303,-1.0599,-264.40135,0.021227,62.234549
1.0981,-0.031777,0.0272,0.065325,0.030374,-0.028757,-0.05,0.001212,-0.482229,0.065305,-1.0599,-264.40135,0.021227,62.234549
1.1179,-0.030341,0.025538,0.063964,0.029934,-0.029216,-0.05,0.002529,-0.482291,0.064186,-1.076517,-264.385599,0.042234,62.247285
1.1382,-0.029827,0.025351,0.063417,0.028647,-0.027425,-0.05,0.002504,-0.483006,0.063915,-1.076517,-264.385599,0.042234,62.247285
1.1581,-0.030362,0.025499,0.065607,0.02816,-0.02719,-0.05,0.002504,-0.483006,0.063915,-1.076517,-264.385599,0.042234,62.247285
1.1778,-0.02787,0.024935,0.061765,0.028625,-0.027434,-0.05,0.004371,-0.484269,0.063916,-1.097391,-264.367348,0.058566,62.259319
1.198,-0.027847,0.025234,0.062693,0.026278,-0.026608,-0.05,0.004355,-0.484279,0.063741,-1.097391,-264.367348,0.058566,62.259319
1.218,-0.026018,0.024319,0.060299,0.026212,-0.026929,-0.05,0.005105,-0.484543,0.061119,-1.116946,-264.346597,0.118304,62.269967
1.238,-0.025412,0.024172,0.062286,0.024506,-0.025842,-0.05,0.00501,-0.484762,0.060453,-1.116946,-264.346597,0.118304,62.269967
1.2579,-0.025754,0.024146,0.061859,0.023858,-0.025706,-0.05,0.00501,-0.484762,0.060453,-1.116946,-264.346597,0.118304,62.269967
1.278,-0.022643,0.023147,0.058565,0.024212,-0.025692,-0.05,0.00706,-0.485995,0.0596,-1.13978,-264.323345,0.148453,62.280355
1.2983,-0.02274,0.023308,0.056533,0.021249,-0.024433,-0.05,0.007102,-0.486022,0.059476,-1.13978,-264.323345,0.148453,62.280355
1.3177,-0.02093,0.021858,0.054568,0.021386,-0.024556,-0.05,0.006998,-0.486765,0.054708,-1.169614,-264.300219,0.199791,62.289569
1.3381,-0.02066,0.021754,0.056251,0.019707,-0.022967,-0.05,0.00705,-0.487232,0.054397,-1.169614,-264.300219,0.199791,62.289569
1.359,-0.020587,0.022328,0.056763,0.019405,-0.022881,-0.05,0.00705,-0.487232,0.054397,-1.169614,-264.300219,0.199791,62.289569
1.3782,-0.0184,0.02109,0.053874,0.019287,-0.02346,-0.05,0.009326,-0.48786,0.054598,-1.201932,-264.279319,0.27488,62.297409
1.3989,-0.01832,0.021481,0.052786,0.017238,-0.02205,-0.05,0.009332,-0.487898,0.054513,-1.201932,-264.279319,0.27488,62.297409
1.4178,-0.016851,0.020248,0.051325,0.017161,-0.022418,-0.05,0.009269,-0.488535,0.051155,-1.222364,-264.260121,0.3498,62.304456
1.4378,-0.016454,0.020279,0.05095,0.01579,-0.021086,-0.05,0.009378,-0.488931,0.051047,-1.222364,-264.260121,0.3498,62.304456
1.4578,-0.016533,0.01996,0.051442,0.015399,-0.02109,-0.05,0.009378,-0.488931,0.051047,-1.222364,-264.260121,0.3498,62.304456
1.4783,-0.014956,0.019293,0.048436,0.015485,-0.020783,-0.05,0.010423,-0.490216,0.049477,-1.254036,-264.242013,0.424867,62.310743
1.4985,-0.01511,0.019422,0.051037,0.014005,-0.019994,-0.048436,0.010393,-0.490232,0.049342,-1.254036,-264.242013,0.424867,62.310743
1.5181,-0.013706,0.01872,0.047192,0.0141,-0.020168,-0.05,0.011405,-0.490531,0.049565,-1.280921,-264.225499,0.499965,62.31628
1.5381,-0.013246,0.018348,0.048187,0.012808,-0.019346,-0.047192,0.010876,-0.490709,0.048048,-1.280921,-264.225499,0.499965,62.31628
1.5579,-0.013052,0.018391,0.049132,0.012347,-0.018965,-0.048187,0.010876,-0.490709,0.048048,-1.280921,-264.225499,0.499965,62.31628
1.5781,-0.01156,0.017638,0.046708,0.012133,-0.01901,-0.049132,0.012619,-0.491799,0.047141,-1.295482,-264.208025,0.574789,62.322037
1.5977,-0.011346,0.017787,0.045785,0.010724,-0.018159,-0.046708,0.012611,-0.491818,0.047067,-1.295482,-264.208025,0.574789,62.322037
1.618,-0.010308,0.017208,0.045308,0.01052,-0.018288,-0.045785,0.012392,-0.492227,0.044387,-1.321003,-264.192842,0.649785,62.326958
1.6378,-0.01039,0.017107,0.043548,0.009518,-0.017657,-0.045308,0.01267,-0.492321,0.044734,-1.321003,-264.192842,0.649785,62.326958
1.6585,-0.010017,0.017088,0.043097,0.009636,-0.017543,-0.043548,0.01267,-0.492321,0.044734,-1.321003,-264.192842,0.649785,62.326958
1.6781,-0.008748,0.016503,0.041532,0.009272,-0.017504,-0.043097,0.012407,-0.49313,0.041311,-1.345014,-264.177705,0.724838,62.331671
1.6981,-0.008486,0.016504,0.04228,0.008055,-0.016852,-0.041532,0.012419,-0.493141,0.041284,-1.345014,-264.177705,0.724838,62.331671
1.7179,-0.007243,0.015267,0.040551,0.007781,-0.016848,-0.04228,0.013462,-0.493685,0.040635,-1.355868,-264.160067,0.754268,62.336877
1.7384,-0.007399,0.015684,0.038928,0.006619,-0.015548,-0.040551,0.013495,-0.494124,0.040378,-1.355868,-264.160067,0.754268,62.336877
1.7584,-0.007186,0.015796,0.038142,0.006783,-0.01596,-0.038928,0.013495,-0.494124,0.040378,-1.355868,-264.160067,0.754268,62.336877
1.7777,-0.005852,0.014631,0.036375,0.006578,-0.016059,-0.038142,0.012658,-0.494587,0.036248,-1.38226,-264.14398,0.813022,62.341264
1.7982,-0.005909,0.014856,0.036439,0.005316,-0.014835,-0.036375,0.01267,-0.494634,0.03621,-1.38226,-264.14398,0.813022,62.341264
1.8181,-0.004185,0.014395,0.036442,0.005364,-0.015061,-0.036439,0.012946,-0.495395,0.034978,-1.401725,-264.128422,0.856016,62.345258
1.8377,-0.004309,0.014288,0.0374,0.003658,-0.014538,-0.036442,0.013796,-0.495396,0.035619,-1.401725,-264.128422,0.856016,62.345258
1.8579,-0.004724,0.014201,0.036527,0.003772,-0.014439,-0.0374,0.013796,-0.495396,0.035619,-1.401725,-264.128422,0.856016,62.345258
1.878,-0.003152,0.013465,0.033854,0.004202,-0.014365,-0.036527,0.01415,-0.496078,0.034994,-1.428284,-264.115443,0.931001,62.348412
1.8984,-0.002929,0.013428,0.033341,0.002695,-0.013564,-0.033854,0.014154,-0.496104,0.034883,-1.428284,-264.115443,0.931001,62.348412
1.9179,-0.002962,0.013208,0.033259,0.00248,-0.013518,-0.033341,0.014156,-0.496544,0.032696,-1.469963,-264.108665,1.006003,62.350078
1.9382,-0.002911,0.013344,0.033093,0.002521,-0.013299,-0.033259,0.014076,-0.496557,0.032933,-1.469963,-264.108665,1.006003,62.350078
1.958,-0.002826,0.013166,0.032626,0.002468,-0.013433,-0.033093,0.014076,-0.496557,0.032933,-1.469963,-264.108665,1.006003,62.350078
1.9784,-0.001896,0.01269,0.033438,0.002395,-0.013251,-0.032626,0.013899,-0.496902,0.031792,-1.492252,-264.101634,1.081053,62.351635
1.9984,-0.002402,0.012806,0.032688,0.001471,-0.012747,-0.033438,0.013988,-0.49692,0.031883,-1.492252,-264.101634,1.081053,62.351635
2.0183,-0.001542,0.012299,0.031266,0.001982,-0.012877,-0.032688,0.014352,-0.497285,0.031784,-1.497571,-264.092103,1.15601,62.353735
2.0382,-0.001643,0.012633,0.030414,0.001157,-0.012341,-0.031266,0.014391,-0.497426,0.031374,-1.497571,-264.092103,1.15601,62.353735
2.058,-0.001262,0.012543,0.029512,0.001258,-0.012678,-0.030414,0.014391,-0.497426,0.031374,-1.497571,-264.092103,1.15601,62.353735
2.0777,-0.000887,0.012258,0.030834,0.000891,-0.012575,-0.029512,0.013838,-0.497505,0.028811,-1.52649,-264.086336,1.231006,62.355093
2.0977,-0.00113,0.012024,0.031565,0.000508,-0.012279,-0.030834,0.013909,-0.497512,0.028934,-1.52649,-264.086336,1.231006,62.355093
2.118,-0.000451,0.011676,0.030731,0.00075,-0.012054,-0.031565,0.015014,-0.498033,0.030772,-1.530563,-264.078069,1.306006,62.356934
2.138,-0.000233,0.012025,0.029474,9.2e-05,-0.011685,-0.030731,0.015137,-0.498101,0.030648,-1.530563,-264.078069,1.306006,62.356934
2.1584,-0.000596,0.011924,0.029622,-0.000122,-0.012027,-0.029474,0.015137,-0.498101,0.030648,-1.530563,-264.078069,1.306006,62.356934
2.1781,-0.000425,0.011517,0.031505,0.000243,-0.011937,-0.029622,0.014543,-0.498188,0.02878,-1.554454,-264.07106,1.381005,62.358415
2.1984,-0.000414,0.011779,0.030181,6.2e-05,-0.011525,-0.031505,0.01462,-0.4982,0.028947,-1.554454,-264.07106,1.381005,62.358415
2.2181,0.000202,0.011235,0.028675,5.8e-05,-0.011786,-0.030181,0.014988,-0.498216,0.029626,-1.574846,-264.065206,1.456003,62.359579
2.2379,0.000254,0.011256,0.02735,-0.000524,-0.011225,-0.028675,0.014896,-0.498438,0.029015,-1.574846,-264.065206,1.456003,62.359579
2.2583,0.000397,0.01119,0.028,-0.000562,-0.011245,-0.02735,0.014896,-0.498438,0.029015,-1.574846,-264.065206,1.456003,62.359579
2.2782,0.00087,0.010599,0.02832,-0.00071,-0.011175,-0.028,0.014692,-0.498961,0.026913,-1.568776,-264.056852,1.531004,62.362149
2.298,0.000788,0.010765,0.027929,-0.00117,-0.01057,-0.02832,0.014735,-0.498987,0.026981,-1.568776,-264.056852,1.531004,62.362149
2.3179,0.001179,0.010098,0.026366,-0.001088,-0.010739,-0.027929,0.015027,-0.499347,0.02717,-1.590894,-264.048824,1.606007,62.363725
2.3386,0.001214,0.010352,0.025558,-0.001445,-0.010063,-0.026366,0.014796,-0.499603,0.026614,-1.590894,-264.048824,1.606007,62.363725
2.358,0.00158,0.01015,0.027198,-0.001478,-0.010318,-0.025558,0.014796,-0.499603,0.026614,-1.590894,-264.048824,1.606007,62.363725
2.3779,0.002085,0.009836,0.024844,-0.001855,-0.010103,-0.027198,0.015425,-0.500039,0.026185,-1.612751,-264.040628,1.681146,62.365732
2.3985,0.002185,0.010233,0.024844,-0.002329,-0.009781,-0.024844,0.015377,-0.500046,0.026064,-1.612751,-264.040628,1.681146,62.365732
2.4182,0.002043,0.010523,0.025146,-0.002438,-0.010175,-0.024844,0.014854,-0.49961,0.024844,-1.62773,-264.040627,1.606105,62.365731
2.438,0.001972,0.009974,0.024451,-0.002307,-0.010469,-0.025146,0.014861,-0.499441,0.025017,-1.62773,-264.040627,1.606105,62.365731
2.4578,0.001821,0.010348,0.025226,-0.002215,-0.009922,-0.024451,0.014861,-0.499441,0.025017,-1.62773,-264.040627,1.606105,62.365731
2.4786,0.001906,0.009917,0.025293,-0.002081,-0.010299,-0.025226,0.014685,-0.49949,0.025226,-1.663841,-264.040626,1.531166,62.365731
2.498,0.00204,0.010289,0.025142,-0.002156,-0.009866,-0.025293,0.014693,-0.49952,0.025231,-1.663841,-264.040626,1.531166,62.365731
2.5179,0.002186,0.010057,0.026268,-0.002298,-0.010234,-0.025142,0.014861,-0.49955,0.025141,-1.659681,-264.040625,1.45629,62.365731
2.5379,0.002281,0.010095,0.023892,-0.002449,-0.009996,-0.026268,0.015274,-0.499674,0.025788,-1.659681,-264.040625,1.45629,62.365731
2.5581,0.00212,0.010427,0.025108,-0.002521,-0.010037,-0.023892,0.015274,-0.499674,0.025788,-1.659681,-264.040625,1.45629,62.365731
2.578,0.002112,0.010363,0.025633,-0.002381,-0.01037,-0.025108,0.014923,-0.499413,0.025108,-1.655772,-264.040624,1.381165,62.365731
2.5987,0.002134,0.010189,0.026298,-0.002377,-0.010306,-0.025633,0.014938,-0.499416,0.025136,-1.655772,-264.040624,1.381165,62.365731
2.618,0.00172,0.010393,0.02569,-0.002401,-0.010129,-0.026298,0.015544,-0.499635,0.026298,-1.672817,-264.040623,1.306284,62.36573
2.6378,0.00181,0.010269,0.024954,-0.001986,-0.010345,-0.02569,0.015129,-0.499522,0.025949,-1.672817,-264.040623,1.306284,62.36573
2.6581,0.0021,0.010494,0.026527,-0.002066,-0.010221,-0.024954,0.015129,-0.499522,0.025949,-1.672817,-264.040623,1.306284,62.36573
2.6781,0.001867,0.010078,0.027289,-0.002378,-0.010434,-0.026527,0.015627,-0.499327,0.026527,-1.662103,-264.040622,1.23117,62.36573
2.6977,0.002053,0.009906,0.025612,-0.002141,-0.010023,-0.027289,0.015638,-0.499354,0.026578,-1.662103,-264.040622,1.23117,62.36573
2.7179,0.002011,0.009847,0.026173,-0.002306,-0.009851,-0.025612,0.015113,-0.499926,0.025612,-1.651756,-264.040621,1.156295,62.36573
2.7381,0.002029,0.010024,0.025977,-0.002268,-0.009791,-0.026173,0.015253,-0.499956,0.025932,-1.651756,-264.040621,1.156295,62.36573
2.758,0.001637,0.010236,0.024852,-0.002289,-0.009968,-0.025977,0.015253,-0.499956,0.025932,-1.651756,-264.040621,1.156295,62.36573
2.7779,0.00223,0.01025,0.024731,-0.001891,-0.010192,-0.024852,0.01431,-0.499606,0.024852,-1.650852,-264.04062,1.081295,62.36573
2.7978,0.001799,0.010233,0.025312,-0.002483,-0.010191,-0.024731,0.014344,-0.499606,0.024844,-1.650852,-264.04062,1.081295,62.36573
2.8185,0.001835,0.010171,0.024248,-0.002057,-0.010185,-0.025312,0.014707,-0.499603,0.025312,-1.659166,-264.040619,1.006308,62.365729
2.8379,0.001792,0.010138,0.024813,-0.002081,-0.010123,-0.024248,0.014419,-0.499646,0.024708,-1.659166,-264.040619,1.006308,62.365729
2.8578,0.001968,0.00987,0.024621,-0.002043,-0.01009,-0.024813,0.014419,-0.499646,0.024708,-1.659166,-264.040619,1.006308,62.365729
2.8778,0.002008,0.009869,0.024162,-0.002211,-0.009819,-0.024621,0.014524,-0.499975,0.024621,-1.668633,-264.040618,0.931302,62.365729
2.8981,0.001767,0.009924,0.025604,-0.002246,-0.009817,-0.024162,0.014511,-0.499976,0.024592,-1.668633,-264.040618,0.931302,62.365729
2.9179,0.002011,0.010179,0.024185,-0.002021,-0.009876,-0.025604,0.014824,-0.499909,0.025604,-1.651549,-264.040617,0.856299,62.365729
2.9379,0.001897,0.01007,0.025123,-0.002257,-0.010128,-0.024185,0.014549,-0.499773,0.024791,-1.651549,-264.040617,0.856299,62.365729
2.9582,0.001889,0.009749,0.025689,-0.002149,-0.01002,-0.025123,0.014549,-0.499773,0.024791,-1.651549,-264.040617,0.856299,62.365729
2.9778,0.002081,0.009909,0.02432,-0.002149,-0.01002,-0.025123,0.014989,-0.500083,0.025689,-1.661928,-264.040616,0.78115,62.365729
2.9978,0.00225,0.009997,0.025629,-2.3e-05,-9.7e-05,0.0,0.014949,-0.500072,0.02558,-1.661928,-264.040616,0.78115,62.365729
3.0182,0.001994,0.01018,0.025224,-2.3e-05,-9.7e-05,0.0,0.01532,-0.499836,0.025629,-1.655319,-264.040615,0.705984,62.365729
3.0379,0.001545,0.010003,0.025095,-2.3e-05,-9.7e-05,0.0,0.015056,-0.499734,0.025398,-1.655319,-264.040615,0.705984,62.365729
3.0581,0.001919,0.010153,0.025375,-2.3e-05,-9.7e-05,0.0,0.015056,-0.499734,0.025398,-1.655319,-264.040615,0.705984,62.365729
3.078,0.002043,0.010114,0.024392,-2.3e-05,-9.7e-05,0.0,0.014859,-0.499683,0.025375,-1.580525,-264.040615,0.780778,62.365729
3.0981,0.001953,0.009885,0.024516,-2.3e-05,-9.7e-05,0.0,0.014832,-0.499687,0.025304,-1.580525,-264.040615,0.780778,62.365729
3.118,0.001617,0.010093,0.025679,-2.3e-05,-9.7e-05,0.0,0.014455,-0.499962,0.024516,-1.505306,-264.040615,0.855998,62.365729
3.138,0.001638,0.010085,0.024517,-2.3e-05,-9.7e-05,0.0,0.014602,-0.499834,0.025182,-1.505306,-264.040615,0.855998,62.365729
3.1584,0.001896,0.010101,0.025088,-2.3e-05,-9.7e-05,0.0,0.014602,-0.499834,0.025182,-1.505306,-264.040615,0.855998,62.365729
3.178,0.001843,0.009954,0.025349,-2.3e-05,-9.7e-05,0.0,0.01469,-0.499739,0.025088,-1.430521,-264.040615,0.930782,62.365729
3.1977,0.001511,0.010389,0.024914,-2.3e-05,-9.7e-05,0.0,0.014695,-0.499748,0.025105,-1.430521,-264.040615,0.930782,62.365729
3.2177,0.001806,0.010403,0.023667,-0.00034,-0.001443,-0.00356,0.014216,-0.499453,0.024914,-1.355617,-264.040615,1.005687,62.365729
3.2378,0.001775,0.010165,0.026123,-0.000661,-0.002807,-0.006928,0.014022,-0.499453,0.024205,-1.355617,-264.040615,1.005687,62.365729
3.2578,0.001827,0.010172,0.02525,-0.000966,-0.0041,-0.010119,0.014022,-0.499453,0.024205,-1.355617,-264.040615,1.005687,62.365729
3.2778,0.001722,0.010359,0.024683,-0.001253,-0.005322,-0.013135,0.014703,-0.499665,0.02525,-1.280627,-264.040615,1.080677,62.365729
3.2977,0.002077,0.010058,0.025735,-0.001523,-0.006466,-0.015957,0.014676,-0.499653,0.02521,-1.280627,-264.040615,1.080677,62.365729
3.3179,0.00199,0.010032,0.025243,-0.001778,-0.007549,-0.01863,0.0152,-0.499773,0.025735,-1.355632,-264.040615,1.005671,62.365729
3.3379,0.002074,0.009762,0.023828,-0.00201,-0.008536,-0.021065,0.015007,-0.499791,0.025453,-1.355632,-264.040615,1.005671,62.365729
3.3578,0.001899,0.010423,0.025811,-0.002228,-0.00946,-0.023345,0.015007,-0.499791,0.025453,-1.355632,-264.040615,1.005671,62.365729
3.3778,0.001601,0.00995,0.024254,-0.002428,-0.01031,-0.025444,0.015062,-0.499407,0.025811,-1.430739,-264.040615,0.930564,62.365729
3.3983,0.001749,0.010107,0.024904,-0.002611,-0.011086,-0.02736,0.014981,-0.499443,0.025697,-1.430739,-264.040615,0.930564,62.365729
3.4181,0.001969,0.010112,0.025573,-0.002776,-0.011788,-0.029091,0.014449,-0.499734,0.024904,-1.505717,-264.040614,0.855586,62.365728
3.4379,0.001853,0.010143,0.024388,-0.002925,-0.012418,-0.030645,0.014769,-0.499727,0.025285,-1.505717,-264.040614,0.855586,62.365728
3.4578,0.001616,0.010352,0.024994,-0.003055,-0.012971,-0.03201,0.014769,-0.499727,0.025285,-1.505717,-264.040614,0.855586,62.365728
3.4779,0.002108,0.010129,0.025214,-0.003168,-0.013452,-0.033198,0.014361,-0.499489,0.024993,-1.580771,-264.040614,0.780532,62.365728
3.498,0.00172,0.010167,0.025911,-0.003264,-0.013858,-0.0342,0.014404,-0.499504,0.025009,-1.580771,-264.040614,0.780532,62.365728
3.5178,0.001456,0.009933,0.024975,-0.003344,-0.014198,-0.035038,0.014933,-0.499662,0.025911,-1.655664,-264.040612,0.705639,62.365728
3.5379,0.001762,0.010535,0.024461,-0.003403,-0.01445,-0.03566,0.014509,-0.499803,0.025376,-1.655664,-264.040612,0.705639,62.365728
3.5579,0.00184,0.009766,0.025278,-0.003447,-0.014635,-0.036116,0.014509,-0.499803,0.025376,-1.655664,-264.040612,0.705639,62.365728
3.578,0.002023,0.010501,0.024381,-0.003473,-0.014746,-0.03639,0.014731,-0.500071,0.025278,-1.664455,-264.040611,0.630586,62.365728
3.5977,0.002089,0.010191,0.024272,-0.003481,-0.014782,-0.036481,0.014711,-0.50002,0.025215,-1.664455,-264.040611,0.630586,62.365728
3.6179,0.001657,0.010157,0.025045,-0.003473,-0.014746,-0.03639,0.014467,-0.499659,0.024272,-1.664455,-264.04061,0.555682,62.365727
3.6381,0.001945,0.009822,0.025833,-0.003447,-0.014635,-0.036116,0.014445,-0.499673,0.024712,-1.664455,-264.04061,0.555682,62.365727
3.6579,0.001951,0.010248,0.026575,-0.003403,-0.01445,-0.035659,0.014445,-0.499673,0.024712,-1.664455,-264.04061,0.555682,62.365727
3.6779,0.002433,0.009967,0.024783,-0.003342,-0.014189,-0.035017,0.015503,-0.499572,0.026575,-1.664455,-264.040608,0.48068,62.365727
3.6983,0.001699,0.010113,0.024605,-0.003264,-0.013857,-0.034197,0.015476,-0.499592,0.026462,-1.664455,-264.040608,0.48068,62.365727
3.7178,0.001813,0.010541,0.02463,-0.003168,-0.013451,-0.033196,0.014246,-0.499733,0.024605,-1.664455,-264.040607,0.405707,62.365727
3.7379,0.002104,0.010377,0.024911,-0.003055,-0.01297,-0.032009,0.014318,-0.49949,0.024619,-1.664455,-264.040607,0.405707,62.365727
3.7578,0.001936,0.009782,0.023875,-0.002924,-0.012415,-0.030639,0.014318,-0.49949,0.024619,-1.664455,-264.040607,0.405707,62.365727
3.7777,0.001745,0.010119,0.025664,-0.002773,-0.011776,-0.029062,0.014111,-0.500072,0.023875,-1.664455,-264.040605,0.330662,62.365726
3.7978,0.002451,0.009824,0.025212,-0.002611,-0.011087,-0.027361,0.01416,-0.500048,0.023995,-1.664455,-264.040605,0.330662,62.365726
3.8179,0.001868,0.010137,0.024874,-0.002428,-0.01031,-0.025443,0.015308,-0.500014,0.025212,-1.664455,-264.040604,0.255659,62.365726
3.8378,0.001506,0.009871,0.025718,-0.002228,-0.009462,-0.023351,0.014879,-0.499838,0.02502,-1.664455,-264.040604,0.255659,62.365726
3.8579,0.002116,0.010218,0.024045,-0.002011,-0.008538,-0.021071,0.014879,-0.499838,0.02502,-1.664455,-264.040604,0.255659,62.365726
3.8779,0.002188,0.009972,0.023563,-0.001775,-0.007539,-0.018604,0.014378,-0.499634,0.024045,-1.664455,-264.040603,0.180681,62.365726
3.8989,0.001792,0.010513,0.024509,-0.001523,-0.006467,-0.01596,0.014367,-0.499651,0.024013,-1.664455,-264.040603,0.180681,62.365726
3.9177,0.001972,0.009711,0.02504,-0.001253,-0.00532,-0.013129,0.01429,-0.499334,0.024509,-1.664455,-264.040602,0.105669,62.365726
3.9384,0.001834,0.010089,0.025388,-0.000965,-0.004096,-0.010107,0.014543,-0.499779,0.024806,-1.664455,-264.040602,0.105669,62.365726
3.9581,0.001804,0.00993,0.025637,-0.000662,-0.00281,-0.006934,0.014543,-0.499779,0.024806,-1.664455,-264.040602,0.105669,62.365726
3.9783,0.001839,0.010294,0.024932,-0.00034,-0.001442,-0.003558,0.014878,-0.499902,0.025637,-1.664455,-264.040601,0.030676,62.365726
3.9978,0.001927,0.009961,0.025945,0.0,0.0,0.0,0.014857,-0.499879,0.025592,-1.664455,-264.040601,0.030676,62.365726
4.0185,0.001839,0.010074,0.024834,0.0,0.0,0.0,0.015158,-0.499867,0.025945,-1.664455,-264.040601,-0.044329,62.365725
4.0382,0.002103,0.01043,0.025638,0.0,0.0,0.0,0.014785,-0.499811,0.025313,-1.664455,-264.040601,-0.044329,62.365725
4.0581,0.001653,0.009861,0.02483,0.0,0.0,0.0,0.014785,-0.499811,0.025313,-1.664455,-264.040601,-0.044329,62.365725
4.0778,0.001825,0.010079,0.02483,0.0,0.0,0.0,0.014316,-0.499982,0.02483,-1.664455,-264.040601,-0.044329,62.365725
4.098,0.001903,0.010116,0.026207,0.0,0.0,0.0,0.014331,-0.499963,0.02483,-1.664455,-264.040601,-0.044329,62.365725
4.1178,0.001846,0.009836,0.02543,0.0,0.0,0.0,0.015267,-0.499709,0.026207,-1.664455,-264.040601,-0.044329,62.365725
4.1379,0.001861,0.009918,0.025769,0.0,0.0,0.0,0.01501,-0.499873,0.025766,-1.664455,-264.040601,-0.044329,62.365725
4.1578,0.001957,0.010151,0.024706,0.0,0.0,0.0,0.01501,-0.499873,0.025766,-1.664455,-264.040601,-0.044329,62.365725
4.1778,0.001472,0.009897,0.025804,0.0,0.0,0.0,0.014556,-0.499693,0.024706,-1.664455,-264.040601,-0.044329,62.365725
4.1981,0.001689,0.010648,0.026097,0.0,0.0,0.0,0.014561,-0.49971,0.024783,-1.664455,-264.040601,-0.044329,62.365725
4.218,0.001905,0.010154,0.025393,0.0,0.0,0.0,0.014997,-0.499178,0.026097,-1.664455,-264.040601,-0.044329,62.365725
4.2378,0.001909,0.010089,0.025657,-2.1e-05,-9.8e-05,0.0,0.014916,-0.499464,0.025697,-1.664455,-264.040601,-0.044329,62.365725
4.2579,0.001979,0.010004,0.02511,-2.1e-05,-9.8e-05,0.0,0.014916,-0.499464,0.025697,-1.664455,-264.040601,-0.044329,62.365725
4.2777,0.001759,0.010012,0.025987,-2.1e-05,-9.8e-05,0.0,0.014783,-0.499835,0.02511,-1.664455,-264.040601,-0.044329,62.365725
4.2977,0.001765,0.010108,0.025171,-2.1e-05,-9.8e-05,0.0,0.0148,-0.499834,0.025172,-1.664455,-264.040601,-0.044329,62.365725
4.3177,0.00175,0.010067,0.025487,-2.1e-05,-9.8e-05,0.0,0.014601,-0.499731,0.025171,-1.58944,-264.040601,0.030686,62.365725
4.338,0.002037,0.010422,0.024509,-2.1e-05,-9.8e-05,0.0,0.014684,-0.499752,0.025351,-1.58944,-264.040601,0.030686,62.365725
4.3589,0.002288,0.009946,0.025215,-2.1e-05,-9.8e-05,0.0,0.014684,-0.499752,0.025351,-1.58944,-264.040601,0.030686,62.365725
4.3785,0.002095,0.010174,0.025541,-2.1e-05,-9.8e-05,0.0,0.015146,-0.499892,0.025215,-1.514461,-264.040601,0.105665,62.365725
4.3982,0.00173,0.009749,0.025337,-2.1e-05,-9.8e-05,0.0,0.015144,-0.499878,0.025235,-1.514461,-264.040601,0.105665,62.365725
4.4179,0.001721,0.009812,0.025751,-2.1e-05,-9.8e-05,0.0,0.014651,-0.500087,0.025337,-1.439451,-264.040601,0.180675,62.365725
4.4378,0.002054,0.010288,0.026008,-0.0,-2e-06,-5e-06,0.014765,-0.500049,0.025572,-1.439451,-264.040601,0.180675,62.365725
4.458,0.001441,0.010278,0.024238,-0.000316,-0.001475,-0.003707,0.014765,-0.500049,0.025572,-1.439451,-264.040601,0.180675,62.365725
4.4779,0.001578,0.010088,0.02428,-0.000616,-0.00288,-0.007238,0.013801,-0.499572,0.024238,-1.364461,-264.040601,0.255665,62.365725
4.498,0.001886,0.01015,0.024578,-0.0009,-0.004204,-0.010567,0.013812,-0.499585,0.024241,-1.364461,-264.040601,0.255665,62.365725
4.5179,0.001825,0.00995,0.026416,-0.001168,-0.005457,-0.013718,0.014419,-0.499696,0.024578,-1.439467,-264.040601,0.180659,62.365725
4.5378,0.001975,0.01019,0.024344,-0.001419,-0.006628,-0.016659,0.014922,-0.499797,0.025631,-1.439467,-264.040601,0.180659,62.365725
4.558,0.001738,0.010161,0.025907,-0.001654,-0.007727,-0.019421,0.014922,-0.499797,0.025631,-1.439467,-264.040601,0.180659,62.365725
4.5777,0.002191,0.010012,0.024745,-0.001873,-0.00875,-0.021994,0.014949,-0.499668,0.025907,-1.514576,-264.040601,0.105551,62.365725
4.5977,0.001941,0.009876,0.026333,-0.002077,-0.009702,-0.024388,0.014938,-0.499681,0.025817,-1.514576,-264.040601,0.105551,62.365725
4.6179,0.001782,0.009707,0.024335,-0.002263,-0.010571,-0.026571,0.015369,-0.499947,0.026333,-1.589676,-264.0406,0.03045,62.365725
4.638,0.002416,0.010314,0.02564,-0.002433,-0.011364,-0.028565,0.014696,-0.500058,0.02519,-1.589676,-264.0406,0.03045,62.365725
4.658,0.001651,0.010274,0.026052,-0.002587,-0.012084,-0.030375,0.014696,-0.500058,0.02519,-1.589676,-264.0406,0.03045,62.365725
4.6778,0.00172,0.009906,0.025279,-0.002725,-0.012728,-0.031994,0.014936,-0.499553,0.026052,-1.655037,-264.040599,-0.044423,62.365725
4.6982,0.001596,0.009888,0.024196,-0.002846,-0.013297,-0.033422,0.014914,-0.499578,0.025999,-1.655037,-264.040599,-0.044423,62.365725
4.7178,0.001484,0.010072,0.023866,-0.002952,-0.01379,-0.034661,0.013935,-0.499963,0.024196,-1.655037,-264.040598,-0.119442,62.365725
4.7377,0.002019,0.010093,0.027018,-0.003041,-0.014208,-0.035712,0.013775,-0.49986,0.024008,-1.655037,-264.040598,-0.119442,62.365725
4.7578,0.001915,0.010101,0.024955,-0.003114,-0.014547,-0.036565,0.013775,-0.49986,0.024008,-1.655037,-264.040598,-0.119442,62.365725
4.778,0.002066,0.010619,0.025848,-0.003171,-0.014814,-0.037235,0.014641,-0.499741,0.024955,-1.655037,-264.040597,-0.194443,62.365725
4.7981,0.00215,0.010323,0.024503,-0.003211,-0.015002,-0.037708,0.014689,-0.499698,0.025027,-1.655037,-264.040597,-0.194443,62.365725
4.8181,0.001914,0.010358,0.02678,-0.003236,-0.015116,-0.037995,0.014646,-0.499524,0.024503,-1.655037,-264.040595,-0.269633,62.365724
4.8382,0.001676,0.010146,0.023193,-0.003244,-0.015153,-0.03809,0.015174,-0.499487,0.025805,-1.655037,-264.040595,-0.269633,62.365724
4.858,0.002112,0.010029,0.026603,-0.003236,-0.015116,-0.037995,0.015174,-0.499487,0.025805,-1.655037,-264.040595,-0.269633,62.365724
4.878,0.001685,0.010391,0.024673,-0.003212,-0.015002,-0.037709,0.015678,-0.49979,0.026603,-1.655037,-264.040594,-0.344438,62.365724
4.8981,0.001814,0.010171,0.023669,-0.003171,-0.014813,-0.037233,0.015562,-0.499763,0.026445,-1.655037,-264.040594,-0.344438,62.365724
4.9183,0.002068,0.009864,0.025454,-0.003114,-0.014547,-0.036567,0.013884,-0.499686,0.023668,-1.655037,-264.040592,-0.419811,62.365723
4.9378,0.001677,0.010262,0.025221,-0.003041,-0.014207,-0.03571,0.014547,-0.499848,0.024685,-1.655037,-264.040592,-0.419811,62.365723
4.9583,0.00153,0.010129,0.024509,-0.002952,-0.01379,-0.034662,0.014547,-0.499848,0.024685,-1.655037,-264.040592,-0.419811,62.365723
4.978,0.001733,0.009983,0.025867,-0.002845,-0.013291,-0.033409,0.014028,-0.499718,0.024508,-1.655037,-264.04059,-0.494344,62.365723
4.9977,0.001926,0.010071,0.024555,-0.002725,-0.012729,-0.031996,0.014081,-0.499725,0.024589,-1.655037,-264.04059,-0.494344,62.365723
5.0179,0.001866,0.01008,0.024033,-0.002587,-0.012084,-0.030375,0.014447,-0.499775,0.024554,-1.655037,-264.040586,-0.569349,62.365722
5.0378,0.002126,0.010253,0.025548,-0.002432,-0.011359,-0.028552,0.01426,-0.499774,0.024255,-1.655037,-264.040586,-0.569349,62.365722
5.058,0.001809,0.010044,0.025707,-0.002263,-0.01057,-0.026569,0.01426,-0.499774,0.024255,-1.655037,-264.040586,-0.569349,62.365722
5.0783,0.002036,0.010342,0.025205,-0.002076,-0.009697,-0.024375,0.014918,-0.499789,0.025705,-1.655037,-264.040567,-0.644436,62.365718
5.0988,0.002115,0.01019,0.02517,-0.001874,-0.008752,-0.022,0.014916,-0.49977,0.025673,-1.655037,-264.040567,-0.644436,62.365718
5.1186,0.001787,0.01,0.025912,-0.001654,-0.007728,-0.019424,0.01495,-0.499652,0.025163,-1.655037,-264.040496,-0.719349,62.365702
5.1386,0.002236,0.010025,0.026293,-0.001419,-0.006631,-0.016667,0.014979,-0.499753,0.025587,-1.655037,-264.040496,-0.719349,62.365702
5.1578,0.001549,0.010396,0.025772,-0.001168,-0.005457,-0.013716,0.014979,-0.499753,0.025587,-1.655037,-264.040496,-0.719349,62.365702
5.1785,0.001783,0.010125,0.025928,-0.0009,-0.004205,-0.010569,0.014688,-0.499446,0.025746,-1.655037,-264.040272,-0.79435,62.365651
5.1979,0.001569,0.01013,0.025008,-0.000617,-0.002881,-0.007243,0.014709,-0.499463,0.025757,-1.655037,-264.040272,-0.79435,62.365651
5.2183,0.002008,0.010117,0.023416,-0.000316,-0.001478,-0.003715,0.014317,-0.499727,0.024969,-1.655037,-264.03985,-0.869347,62.365555
5.2379,0.002157,0.009875,0.023936,-0.0,-2e-06,-6e-06,0.014108,-0.499738,0.024085,-1.655037,-264.03985,-0.869347,62.365555
5.2579,0.001951,0.010201,0.023907,0.0,0.0,0.0,0.014108,-0.499738,0.024085,-1.655037,-264.03985,-0.869347,62.365555
5.2778,0.00171,0.009783,0.025104,0.0,0.0,0.0,0.014136,-0.499681,0.023843,-1.655037,-264.0393,-0.944336,62.365431
5.2982,0.002249,0.009845,0.024808,0.0,0.0,0.0,0.014164,-0.49971,0.023938,-1.655037,-264.0393,-0.944336,62.365431
5.3177,0.002254,0.010009,0.024507,0.0,0.0,0.0,0.0149,-0.499998,0.024808,-1.655037,-264.0393,-0.944336,62.365431
5.338,0.002113,0.010038,0.024396,0.0,0.0,0.0,0.014815,-0.499906,0.024635,-1.655037,-264.0393,-0.944336,62.365431
5.358,0.002019,0.01004,0.02558,0.0,0.0,0.0,0.014815,-0.499906,0.024635,-1.655037,-264.0393,-0.944336,62.365431
5.3781,0.00213,0.010121,0.025433,0.0,0.0,0.0,0.015063,-0.499793,0.02558,-1.655037,-264.0393,-0.944336,62.365431
5.3984,0.001972,0.010029,0.023362,0.0,0.0,0.0,0.015066,-0.499787,0.025569,-1.655037,-264.0393,-0.944336,62.365431
5.418,0.001841,0.009926,0.024702,0.0,0.0,0.0,0.013885,-0.499832,0.023362,-1.655037,-264.0393,-0.944336,62.365431
5.4376,0.002242,0.009962,0.025075,0.0,0.0,0.0,0.014202,-0.499882,0.02413,-1.655037,-264.0393,-0.944336,62.365431
5.4578,0.002176,0.009724,0.025512,0.0,0.0,0.0,0.014202,-0.499882,0.02413,-1.655037,-264.0393,-0.944336,62.365431
5.4781,0.002045,0.010043,0.025853,-2.4e-05,-9.7e-05,0.0,0.015186,-0.50011,0.025512,-1.655037,-264.0393,-0.944336,62.365431
5.4978,0.001972,0.009557,0.0238,-2.4e-05,-9.7e-05,0.0,0.015189,-0.500087,0.025536,-1.655037,-264.0393,-0.944336,62.365431
5.5186,0.001798,0.010028,0.02591,-2.4e-05,-9.7e-05,0.0,0.014109,-0.500299,0.0238,-1.655037,-264.0393,-0.944336,62.365431
5.5378,0.001853,0.010107,0.02365,-2.4e-05,-9.7e-05,0.0,0.014626,-0.500013,0.02501,-1.655037,-264.0393,-0.944336,62.365431
5.5581,0.002081,0.010134,0.025099,-2.4e-05,-9.7e-05,0.0,0.014626,-0.500013,0.02501,-1.655037,-264.0393,-0.944336,62.365431
5.5782,0.002023,0.009772,0.025205,-2.4e-05,-9.7e-05,0.0,0.01488,-0.499705,0.025099,-1.579899,-264.0393,-0.869198,62.365431
5.5981,0.001581,0.009397,0.025251,-2.4e-05,-9.7e-05,0.0,0.01488,-0.49973,0.025106,-1.579899,-264.0393,-0.869198,62.365431
5.6178,0.001799,0.010212,0.025297,-2.4e-05,-9.7e-05,0.0,0.014457,-0.50044,0.025251,-1.505028,-264.0393,-0.794328,62.365431
5.6378,0.002103,0.00995,0.025422,-2.4e-05,-9.7e-05,0.0,0.014596,-0.499974,0.025277,-1.505028,-264.0393,-0.794328,62.365431
5.658,0.00189,0.009815,0.025297,-2.4e-05,-9.7e-05,0.0,0.014596,-0.499974,0.025277,-1.505028,-264.0393,-0.794328,62.365431
5.6778,0.001766,0.010018,0.025453,-2.4e-05,-9.7e-05,0.0,0.01479,-0.500022,0.025297,-1.429963,-264.0393,-0.719263,62.365431
5.6979,0.002294,0.009681,0.026988,-0.000354,-0.001412,-0.003728,0.014787,-0.500007,0.025308,-1.429963,-264.0393,-0.719263,62.365431
5.7181,0.002195,0.010115,0.023757,-0.000692,-0.002758,-0.007281,0.016057,-0.500133,0.026988,-1.354941,-264.0393,-0.64424,62.365431
5.7382,0.002062,0.010176,0.024903,-0.001008,-0.004021,-0.010614,0.015065,-0.499911,0.025154,-1.354941,-264.0393,-0.64424,62.365431
5.7584,0.001989,0.009945,0.024058,-0.001309,-0.005222,-0.013782,0.015065,-0.499911,0.025154,-1.354941,-264.0393,-0.64424,62.365431
5.7781,0.001926,0.010089,0.025617,-0.001592,-0.006349,-0.016759,0.014257,-0.499907,0.024057,-1.429856,-264.039298,-0.719155,62.36543
5.7977,0.002047,0.009744,0.023602,-0.001854,-0.007393,-0.019514,0.014318,-0.499894,0.024186,-1.429856,-264.039298,-0.719155,62.36543
5.8181,0.002488,0.010068,0.025546,-0.002104,-0.00839,-0.022145,0.014083,-0.500117,0.023596,-1.50536,-264.039235,-0.794659,62.365414
5.8379,0.002519,0.010025,0.024173,-0.002326,-0.009277,-0.024486,0.01491,-0.499914,0.024721,-1.50536,-264.039235,-0.794659,62.365414
5.8579,0.001649,0.010227,0.024692,-0.002536,-0.010111,-0.026689,0.01491,-0.499914,0.024721,-1.50536,-264.039235,-0.794659,62.365414
5.8778,0.00166,0.010016,0.025501,-0.002727,-0.010875,-0.028705,0.014236,-0.499638,0.02464,-1.580079,-264.038801,-0.869378,62.365305
5.898,0.002151,0.009771,0.024478,-0.0029,-0.011563,-0.030521,0.014264,-0.499651,0.024695,-1.580079,-264.038801,-0.869378,62.365305
5.9182,0.001888,0.009932,0.023842,-0.003054,-0.012179,-0.032147,0.014614,-0.500151,0.024295,-1.654834,-264.03688,-0.944133,62.364821
5.9379,0.002475,0.009919,0.025597,-0.00319,-0.012723,-0.033582,0.014292,-0.500032,0.024017,-1.654834,-264.03688,-0.944133,62.364821
5.9582,0.00241,0.010005,0.024435,-0.003308,-0.013193,-0.034823,0.014292,-0.500032,0.024017,-1.654834,-264.03688,-0.944133,62.364821
5.9779,0.00259,0.009737,0.022633,-0.003409,-0.013593,-0.03588,0.01481,-0.500048,0.023893,-1.666503,-264.03246,-1.019145,62.363597
5.9981,0.002521,0.009487,0.023644,-0.00349,-0.013918,-0.036737,0.014763,-0.500059,0.023793,-1.666503,-264.03246,-1.019145,62.363597
6.0181,0.002681,0.009416,0.022549,-0.003554,-0.014172,-0.037408,0.014501,-0.500608,0.022938,-1.666503,-264.025529,-1.094136,62.361314
6.0383,0.002278,0.00929,0.023799,-0.003599,-0.014354,-0.037887,0.014308,-0.500551,0.022627,-1.666503,-264.025529,-1.094136,62.361314
6.0579,0.003001,0.00983,0.023347,-0.003626,-0.014462,-0.038173,0.014308,-0.500551,0.022627,-1.666503,-264.025529,-1.094136,62.361314
6.0779,0.003208,0.00886,0.022184,-0.003636,-0.014498,-0.038269,0.014784,-0.500422,0.022116,-1.666503,-264.016119,-1.169251,62.358065
6.0981,0.003233,0.008817,0.022268,-0.003627,-0.014462,-0.038173,0.014763,-0.500472,0.022089,-1.666503,-264.016119,-1.169251,62.358065
6.1178,0.004127,0.00855,0.019727,-0.003599,-0.014354,-0.037886,0.014473,-0.501461,0.02105,-1.666503,-264.004184,-1.181972,62.354244
6.1382,0.003904,0.00808,0.021005,-0.003554,-0.014173,-0.037409,0.014295,-0.501449,0.020139,-1.666503,-264.004184,-1.181972,62.354244
6.1582,0.003853,0.008546,0.020552,-0.00349,-0.013918,-0.036738,0.014295,-0.501449,0.020139,-1.666503,-264.004184,-1.181972,62.354244
6.1783,0.004653,0.007881,0.018904,-0.003408,-0.013593,-0.035878,0.014175,-0.502008,0.018769,-1.666503,-263.989778,-1.181972,62.350422
6.1987,0.004313,0.007956,0.018723,-0.003309,-0.013194,-0.034827,0.014178,-0.502025,0.018735,-1.666503,-263.989778,-1.181972,62.350422
6.2178,0.005419,0.007402,0.016578,-0.003187,-0.012711,-0.03355,0.013736,-0.502495,0.017304,-1.666503,-263.975169,-1.181972,62.34674
6.2379,0.005558,0.00712,0.015795,-0.003054,-0.012177,-0.032143,0.013798,-0.502582,0.016711,-1.666503,-263.975169,-1.181972,62.34674
6.2578,0.005283,0.007549,0.016051,-0.002899,-0.011562,-0.030519,0.013798,-0.502582,0.016711,-1.666503,-263.975169,-1.181972,62.34674
6.2779,0.006315,0.006566,0.014651,-0.002726,-0.010871,-0.028694,0.013318,-0.50303,0.014357,-1.666503,-263.96132,-1.181972,62.343249
6.2982,0.00577,0.006442,0.013215,-0.002536,-0.010114,-0.026696,0.013345,-0.50307,0.014333,-1.666503,-263.96132,-1.181972,62.343249
6.3179,0.006546,0.005471,0.014465,-0.002327,-0.00928,-0.024494,0.012403,-0.503961,0.012036,-1.666503,-263.949164,-1.181972,62.340185
6.338,0.007232,0.005942,0.012735,-0.002099,-0.008371,-0.022096,0.013262,-0.504313,0.013281,-1.666503,-263.949164,-1.181972,62.340185
6.3578,0.006854,0.005843,0.01435,-0.001854,-0.007392,-0.019512,0.013262,-0.504313,0.013281,-1.666503,-263.949164,-1.181972,62.340185
6.378,0.007308,0.005397,0.012976,-0.001591,-0.006343,-0.016743,0.014056,-0.504597,0.013054,-1.666503,-263.938544,-1.181972,62.337508
6.3977,0.007277,0.005423,0.011763,-0.001309,-0.005221,-0.013781,0.014043,-0.504608,0.013012,-1.666503,-263.938544,-1.181972,62.337508
6.418,0.007667,0.004946,0.011299,-0.001009,-0.004025,-0.010623,0.013207,-0.504827,0.011011,-1.666503,-263.93079,-1.181972,62.335553
6.4379,0.007792,0.004931,0.011752,-0.000691,-0.002754,-0.00727,0.013326,-0.504975,0.011081,-1.666503,-263.93079,-1.181972,62.335553
6.4581,0.007761,0.005016,0.01108,-0.000354,-0.001412,-0.003728,0.013326,-0.504975,0.011081,-1.666503,-263.93079,-1.181972,62.335553
6.4785,0.007939,0.004969,0.010301,0.0,0.0,0.0,0.01335,-0.505208,0.010409,-1.666503,-263.925305,-1.181972,62.33417
6.498,0.007562,0.004764,0.011419,0.0,0.0,0.0,0.013337,-0.5052,0.010384,-1.666503,-263.925305,-1.181972,62.33417
6.5183,0.008261,0.00465,0.010458,0.0,0.0,0.0,0.013373,-0.505257,0.011275,-1.666503,-263.923825,-1.181972,62.333797
6.5379,0.008247,0.004466,0.010301,0.0,0.0,0.0,0.013496,-0.505301,0.010796,-1.666503,-263.923825,-1.181972,62.333797
6.5582,0.008052,0.005067,0.010903,0.0,0.0,0.0,0.013496,-0.505301,0.010796,-1.666503,-263.923825,-1.181972,62.333797
6.578,0.008182,0.004898,0.011469,0.0,0.0,0.0,0.013613,-0.504903,0.010903,-1.666503,-263.923825,-1.181972,62.333797
6.5979,0.007973,0.004789,0.011156,0.0,0.0,0.0,0.01364,-0.504913,0.01094,-1.666503,-263.923825,-1.181972,62.333797
6.6184,0.007976,0.004622,0.009024,0.0,0.0,0.0,0.013663,-0.50518,0.011156,-1.666503,-263.923825,-1.181972,62.333797
6.6385,0.007979,0.004762,0.009508,0.0,0.0,0.0,0.01305,-0.50528,0.009952,-1.666503,-263.923825,-1.181972,62.333797
6.6584,0.00787,0.004616,0.010236,0.0,0.0,0.0,0.01305,-0.50528,0.009952,-1.666503,-263.923825,-1.181972,62.333797
6.6783,0.007886,0.004773,0.009552,0.0,0.0,0.0,0.01309,-0.505357,0.010236,-1.666503,-263.923825,-1.181972,62.333797
6.698,0.008007,0.004704,0.011566,-8.6e-05,-5.1e-05,0.0,0.01307,-0.505348,0.010195,-1.666503,-263.923825,-1.181972,62.333797
6.7178,0.008423,0.004504,0.010361,-8.6e-05,-5.1e-05,0.0,0.013905,-0.505261,0.011566,-1.666503,-263.923825,-1.181972,62.333797
6.7378,0.008331,0.004827,0.010573,-8.6e-05,-5.1e-05,0.0,0.013791,-0.50538,0.010876,-1.666503,-263.923825,-1.181972,62.333797
6.7583,0.008216,0.004865,0.011499,-8.6e-05,-5.1e-05,0.0,0.013791,-0.50538,0.010876,-1.666503,-263.923825,-1.181972,62.333797
6.7778,0.007942,0.004539,0.009247,-8.6e-05,-5.1e-05,0.0,0.01408,-0.505101,0.011499,-1.591378,-263.923825,-1.106848,62.333797
6.798,0.007738,0.004685,0.011998,-8.6e-05,-5.1e-05,0.0,0.013965,-0.505128,0.011317,-1.591378,-263.923825,-1.106848,62.333797
6.8178,0.008247,0.004333,0.010256,-8.6e-05,-5.1e-05,0.0,0.013857,-0.505278,0.011998,-1.516162,-263.923825,-1.031632,62.333797
6.838,0.008105,0.004678,0.009716,-8.6e-05,-5.1e-05,0.0,0.01364,-0.505486,0.010999,-1.516162,-263.923825,-1.031632,62.333797
6.8579,0.007861,0.004717,0.010278,-8.6e-05,-5.1e-05,0.0,0.01364,-0.505486,0.010999,-1.516162,-263.923825,-1.031632,62.333797
6.878,0.008386,0.004391,0.011012,-8.6e-05,-5.1e-05,0.0,0.013102,-0.505256,0.010278,-1.441388,-263.923825,-0.956858,62.333797
6.8983,0.008184,0.005056,0.011037,-8.6e-05,-5.1e-05,0.0,0.013184,-0.505286,0.010345,-1.441388,-263.923825,-0.956858,62.333797
6.9182,0.008239,0.004759,0.009935,-0.00116,-0.000687,-0.001397,0.013812,-0.504913,0.011037,-1.365882,-263.923825,-0.881352,62.333797
6.9379,0.00814,0.004793,0.00903,-0.002264,-0.001341,-0.002726,0.013523,-0.505086,0.010408,-1.365882,-263.923825,-0.881352,62.333797
6.958,0.008221,0.004531,0.010468,-0.0033,-0.001955,-0.003975,0.013523,-0.505086,0.010408,-1.365882,-263.923825,-0.881352,62.333797
6.9779,0.007866,0.004715,0.011442,-0.004283,-0.002537,-0.005159,0.013559,-0.505441,0.010468,-1.291378,-263.923825,-0.806848,62.333797
6.9978,0.008063,0.004565,0.010035,-0.005205,-0.003083,-0.006269,0.013568,-0.505429,0.010531,-1.291378,-263.923825,-0.806848,62.333797
7.018,0.00816,0.004696,0.010507,-0.006073,-0.003597,-0.007314,0.013181,-0.505409,0.010035,-1.216518,-263.923825,-0.731988,62.333797
7.038,0.007896,0.004747,0.011328,-0.00687,-0.004069,-0.008274,0.013373,-0.505333,0.010304,-1.216518,-263.923825,-0.731988,62.333797
7.0582,0.00838,0.004749,0.010584,-0.007616,-0.004511,-0.009173,0.013373,-0.505333,0.010304,-1.216518,-263.923825,-0.731988,62.333797
7.0784,0.008326,0.004322,0.00994,-0.008309,-0.004921,-0.010007,0.013778,-0.505223,0.010584,-1.141487,-263.923825,-0.656957,62.333797
7.099,0.008195,0.004594,0.010167,-0.008925,-0.005286,-0.010749,0.013758,-0.505245,0.01055,-1.141487,-263.923825,-0.656957,62.333797
7.1185,0.00804,0.004708,0.010092,-0.00949,-0.005621,-0.011429,0.01338,-0.50538,0.010167,-1.066503,-263.923825,-0.581973,62.333797
7.1385,0.007801,0.004971,0.010978,-0.009994,-0.005919,-0.012036,0.01327,-0.505315,0.010124,-1.066503,-263.923825,-0.581973,62.333797
7.1582,0.007865,0.004646,0.010422,-0.01044,-0.006184,-0.012573,0.01327,-0.505315,0.010124,-1.066503,-263.923825,-0.581973,62.333797
7.1781,0.008414,0.004514,0.010503,-0.010832,-0.006416,-0.013046,0.01318,-0.505326,0.010422,-0.991376,-263.923825,-0.506846,62.333797
7.1982,0.008094,0.004914,0.009246,-0.011155,-0.006607,-0.013434,0.013219,-0.505335,0.010427,-0.991376,-263.923825,-0.506846,62.333797
7.2179,0.00776,0.004838,0.010128,-0.011423,-0.006766,-0.013757,0.012809,-0.505064,0.009246,-0.916506,-263.923825,-0.431976,62.333797
7.2378,0.007986,0.004719,0.010327,-0.01163,-0.006888,-0.014007,0.012875,-0.505105,0.009748,-0.916506,-263.923825,-0.431976,62.333797
7.2577,0.008282,0.004303,0.010829,-0.011778,-0.006976,-0.014185,0.012875,-0.505105,0.009748,-0.916506,-263.923825,-0.431976,62.333797
7.2785,0.007917,0.004385,0.009309,-0.011867,-0.007029,-0.014293,0.013804,-0.505667,0.010829,-0.841397,-263.923826,-0.356866,62.333797
7.2978,0.007859,0.004716,0.010778,-0.011897,-0.007047,-0.014328,0.013715,-0.505662,0.010709,-0.841397,-263.923826,-0.356866,62.333797
7.3179,0.008323,0.004513,0.010485,-0.011867,-0.007029,-0.014292,0.013355,-0.505254,0.010778,-0.766253,-263.923826,-0.281723,62.333797
7.3379,0.008005,0.004571,0.010776,-0.011778,-0.006976,-0.014185,0.013536,-0.505372,0.01061,-0.766253,-263.923826,-0.281723,62.333797
7.3583,0.007663,0.004973,0.011427,-0.011629,-0.006888,-0.014006,0.013536,-0.505372,0.01061,-0.766253,-263.923826,-0.281723,62.333797
7.3778,0.008099,0.004556,0.010868,-0.011421,-0.006765,-0.013755,0.01349,-0.504994,0.011427,-0.691375,-263.923827,-0.206845,62.333797
7.3981,0.008211,0.00457,0.009097,-0.011154,-0.006606,-0.013433,0.013503,-0.505028,0.011381,-0.691375,-263.923827,-0.206845,62.333797
7.4183,0.007806,0.004905,0.010917,-0.010826,-0.006412,-0.013039,0.01285,-0.505409,0.009097,-0.616085,-263.923827,-0.142297,62.333796
7.4378,0.008527,0.004995,0.009744,-0.010438,-0.006182,-0.012571,0.013148,-0.505213,0.010131,-0.616085,-263.923827,-0.142297,62.333796
7.4579,0.008116,0.004773,0.010536,-0.009992,-0.005918,-0.012034,0.013148,-0.505213,0.010131,-0.616085,-263.923827,-0.142297,62.333796
7.4782,0.007829,0.004856,0.009782,-0.009488,-0.00562,-0.011427,0.013489,-0.505199,0.010536,-0.541411,-263.923828,-0.142297,62.333796
7.4984,0.007782,0.004692,0.010606,-0.008923,-0.005285,-0.010747,0.013439,-0.505193,0.01048,-0.541411,-263.923828,-0.142297,62.333796
7.5183,0.00819,0.004851,0.010246,-0.008298,-0.004915,-0.009993,0.01319,-0.505279,0.010606,-0.466237,-263.923829,-0.142297,62.333795
7.538,0.007817,0.004573,0.009717,-0.007615,-0.00451,-0.009171,0.013319,-0.505189,0.010399,-0.466237,-263.923829,-0.142297,62.333795
7.558,0.007898,0.004949,0.010165,-0.006867,-0.004067,-0.008271,0.013319,-0.505189,0.010399,-0.466237,-263.923829,-0.142297,62.333795
7.5781,0.007766,0.004497,0.009315,-0.006068,-0.003594,-0.007308,0.013083,-0.505025,0.010165,-0.391261,-263.923829,-0.142297,62.333795
7.5981,0.008206,0.00496,0.00956,-0.005203,-0.003081,-0.006266,0.013046,-0.505054,0.01011,-0.391261,-263.923829,-0.142297,62.333795
7.6183,0.008561,0.004648,0.0111,-0.004283,-0.002537,-0.005158,0.013081,-0.505016,0.00956,-0.316524,-263.92383,-0.142297,62.333795
7.6384,0.008097,0.004597,0.010776,-0.003303,-0.001956,-0.003978,0.013734,-0.505191,0.010441,-0.316524,-263.92383,-0.142297,62.333795
7.658,0.00767,0.004661,0.010293,-0.002259,-0.001338,-0.002721,0.013734,-0.505191,0.010441,-0.316524,-263.92383,-0.142297,62.333795
7.6779,0.008007,0.004622,0.010554,-0.001158,-0.000686,-0.001395,0.012919,-0.505312,0.010293,-0.241413,-263.92383,-0.142297,62.333795
7.6982,0.008173,0.004772,0.010134,-1e-06,-0.0,-1e-06,0.012952,-0.505315,0.010311,-0.241413,-263.92383,-0.142297,62.333795
7.7179,0.008241,0.004701,0.010767,0.0,0.0,0.0,0.013342,-0.505202,0.010134,-0.166514,-263.92383,-0.142297,62.333794
7.7378,0.007921,0.004928,0.00998,0.0,0.0,0.0,0.013563,-0.50524,0.010494,-0.166514,-263.92383,-0.142297,62.333794
7.7579,0.008256,0.004458,0.009605,0.0,0.0,0.0,0.013563,-0.50524,0.010494,-0.166514,-263.92383,-0.142297,62.333794
7.7778,0.008125,0.004476,0.010923,0.0,0.0,0.0,0.013155,-0.505519,0.009605,-0.091471,-263.92383,-0.142297,62.333794
7.7977,0.007975,0.004869,0.009415,0.0,0.0,0.0,0.013188,-0.505517,0.009686,-0.091471,-263.92383,-0.142297,62.333794
7.8178,0.008228,0.004787,0.010166,0.0,0.0,0.0,0.012776,-0.505109,0.009415,-0.091471,-263.92383,-0.142297,62.333794
7.8377,0.008391,0.004653,0.010669,0.0,0.0,0.0,0.013139,-0.505153,0.009842,-0.091471,-263.92383,-0.142297,62.333794
7.8581,0.008202,0.004974,0.009988,0.0,0.0,0.0,0.013139,-0.505153,0.009842,-0.091471,-263.92383,-0.142297,62.333794
7.8778,0.008167,0.004897,0.011286,0.0,0.0,0.0,0.013295,-0.505001,0.009988,-0.091471,-263.92383,-0.142297,62.333794
7.8977,0.008099,0.005156,0.009927,0.0,0.0,0.0,0.013341,-0.505006,0.010083,-0.091471,-263.92383,-0.142297,62.333794
7.9177,0.007915,0.004555,0.010083,0.0,0.0,0.0,0.013162,-0.504819,0.009927,-0.091471,-263.92383,-0.142297,62.333794
7.9382,0.008059,0.004648,0.01095,-8.7e-05,-4.9e-05,0.0,0.013102,-0.505161,0.010016,-0.091471,-263.92383,-0.142297,62.333794
7.9581,0.008273,0.004802,0.010007,-8.7e-05,-4.9e-05,0.0,0.013102,-0.505161,0.010016,-0.091471,-263.92383,-0.142297,62.333794
7.9783,0.008314,0.004664,0.010615,-8.7e-05,-4.9e-05,0.0,0.013376,-0.505172,0.010007,-0.091471,-263.92383,-0.142297,62.333794
7.9981,0.008018,0.004466,0.010916,-8.7e-05,-4.9e-05,0.0,0.013401,-0.505182,0.010049,-0.091471,-263.92383,-0.142297,62.333794
8.0177,0.008261,0.00462,0.011459,-8.7e-05,-4.9e-05,0.0,0.013585,-0.505504,0.010916,-0.016463,-263.92383,-0.067289,62.333794
8.0379,0.008089,0.004856,0.011363,-8.7e-05,-4.9e-05,0.0,0.013881,-0.505414,0.011225,-0.016463,-263.92383,-0.067289,62.333794
8.0579,0.008186,0.004806,0.008802,-8.7e-05,-4.9e-05,0.0,0.013881,-0.505414,0.011225,-0.016463,-263.92383,-0.067289,62.333794
8.0779,0.008364,0.005039,0.011846,-8.7e-05,-4.9e-05,0.0,0.012674,-0.505174,0.008802,0.05853,-263.92383,0.007704,62.333794
8.0985,0.007822,0.004784,0.009286,-8.7e-05,-4.9e-05,0.0,0.012788,-0.505158,0.009002,0.05853,-263.92383,0.007704,62.333794
8.1179,0.008422,0.00463,0.008774,-8.7e-05,-4.9e-05,0.0,0.012558,-0.505194,0.009286,0.133537,-263.92383,0.08271,62.333794
8.1378,0.008175,0.00489,0.010611,-8.7e-05,-4.9e-05,0.0,0.012748,-0.505281,0.008999,0.133537,-263.92383,0.08271,62.333794
8.1579,0.007592,0.004424,0.009968,-0.001164,-0.000654,-0.001475,0.012748,-0.505281,0.008999,0.133537,-263.92383,0.08271,62.333794
8.178,0.007576,0.004428,0.010049,-0.002273,-0.001278,-0.002879,0.012675,-0.505551,0.009968,0.208534,-263.923831,0.157708,62.333794
8.1987,0.008041,0.005095,0.010175,-0.003313,-0.001862,-0.004197,0.012677,-0.505551,0.009973,0.208534,-263.923831,0.157708,62.333794
8.2182,0.008032,0.004819,0.011448,-0.0043,-0.002417,-0.005447,0.01323,-0.504879,0.010175,0.28354,-263.923831,0.082703,62.333794
8.2378,0.008495,0.004667,0.010959,-0.005223,-0.002936,-0.006616,0.013592,-0.505031,0.010895,0.28354,-263.923831,0.082703,62.333794
8.2579,0.007864,0.004692,0.010008,-0.006092,-0.003424,-0.007716,0.013592,-0.505031,0.010895,0.28354,-263.923831,0.082703,62.333794
8.278,0.008061,0.00472,0.009868,-0.006896,-0.003876,-0.008735,0.012968,-0.505283,0.010008,0.358532,-263.923831,0.00771,62.333794
8.2982,0.008097,0.00457,0.009391,-0.00765,-0.0043,-0.00969,0.012976,-0.505281,0.009998,0.358532,-263.923831,0.00771,62.333794
8.3181,0.008065,0.004163,0.011518,-0.00833,-0.004682,-0.01055,0.012886,-0.505407,0.009391,0.433534,-263.923839,-0.067291,62.333789
8.3384,0.008055,0.004621,0.00931,-0.008955,-0.005034,-0.011343,0.013485,-0.505633,0.010601,0.433534,-263.923839,-0.067291,62.333789
8.3582,0.008145,0.004276,0.010271,-0.009522,-0.005353,-0.012061,0.013485,-0.505633,0.010601,0.433534,-263.923839,-0.067291,62.333789
8.3778,0.008373,0.004935,0.011748,-0.01003,-0.005638,-0.012704,0.013378,-0.505699,0.010267,0.508533,-263.923902,-0.14229,62.333751
8.3977,0.00815,0.004797,0.009035,-0.010478,-0.00589,-0.013271,0.013447,-0.505652,0.010371,0.508533,-263.923902,-0.14229,62.333751
8.4181,0.007957,0.00444,0.009773,-0.010866,-0.006108,-0.013763,0.012736,-0.505189,0.009018,0.58353,-263.924226,-0.208407,62.333552
8.4381,0.008017,0.004703,0.010587,-0.011194,-0.006293,-0.014179,0.012849,-0.505387,0.009445,0.58353,-263.924226,-0.208407,62.333552
8.4579,0.007877,0.004698,0.010883,-0.011463,-0.006443,-0.014519,0.012849,-0.505387,0.009445,0.58353,-263.924226,-0.208407,62.333552
8.4782,0.008473,0.004915,0.00893,-0.011672,-0.006561,-0.014784,0.013343,-0.505303,0.010809,0.658528,-263.925232,-0.208407,62.332936
8.4981,0.00805,0.004247,0.00967,-0.011821,-0.006645,-0.014973,0.013319,-0.505287,0.010675,0.658528,-263.925232,-0.208407,62.332936
8.5179,0.008036,0.004854,0.010914,-0.011911,-0.006695,-0.015086,0.012829,-0.505792,0.009522,0.733528,-263.927588,-0.208407,62.331493
8.538,0.007923,0.005012,0.009024,-0.01194,-0.006712,-0.015124,0.013249,-0.505416,0.010294,0.733528,-263.927588,-0.208407,62.331493
8.5582,0.007975,0.004724,0.008388,-0.011911,-0.006695,-0.015086,0.013249,-0.505416,0.010294,0.733528,-263.927588,-0.208407,62.331493
8.5777,0.007566,0.00454,0.010743,-0.011821,-0.006645,-0.014973,0.011915,-0.505417,0.008023,0.808529,-263.931874,-0.208407,62.328867
8.598,0.007319,0.004307,0.009777,-0.011672,-0.006561,-0.014784,0.01197,-0.505421,0.008164,0.808529,-263.931874,-0.208407,62.328867
8.6179,0.007529,0.00449,0.009197,-0.011462,-0.006443,-0.014518,0.011931,-0.505869,0.009328,0.88354,-263.938193,-0.208407,62.324996
8.6385,0.007578,0.003951,0.009146,-0.011194,-0.006292,-0.014178,0.012047,-0.505678,0.009196,0.88354,-263.938193,-0.208407,62.324996
8.6583,0.00746,0.004098,0.008578,-0.010866,-0.006108,-0.013763,0.012047,-0.505678,0.009196,0.88354,-263.938193,-0.208407,62.324996
8.6781,0.006928,0.003804,0.007757,-0.010476,-0.005889,-0.013269,0.011288,-0.506196,0.007882,0.928147,-263.945738,-0.208407,62.320374
8.6982,0.00732,0.003916,0.007432,-0.01003,-0.005638,-0.012704,0.011245,-0.506204,0.007855,0.928147,-263.945738,-0.208407,62.320374
8.7179,0.007355,0.00336,0.007413,-0.009521,-0.005352,-0.01206,0.010692,-0.506308,0.0069,0.928147,-263.953,-0.208407,62.315926
8.7381,0.007294,0.003983,0.006402,-0.008956,-0.005034,-0.011344,0.010893,-0.50652,0.007126,0.928147,-263.953,-0.208407,62.315926
8.758,0.007257,0.003979,0.008356,-0.008329,-0.004682,-0.010549,0.010893,-0.50652,0.007126,0.928147,-263.953,-0.208407,62.315926
8.778,0.007541,0.003137,0.008252,-0.007642,-0.004296,-0.009679,0.011033,-0.506282,0.007738,0.928147,-263.959688,-0.208407,62.311829
8.7978,0.006801,0.003426,0.007112,-0.006896,-0.003876,-0.008735,0.011068,-0.506326,0.007756,0.928147,-263.959688,-0.208407,62.311829
8.8182,0.006971,0.003249,0.006853,-0.006089,-0.003423,-0.007712,0.010108,-0.506745,0.006705,0.928147,-263.965253,-0.208407,62.30842
8.8379,0.007075,0.002717,0.006367,-0.005222,-0.002936,-0.006615,0.010273,-0.506764,0.006738,0.928147,-263.965253,-0.208407,62.30842
8.8581,0.006583,0.003099,0.00665,-0.004298,-0.002416,-0.005444,0.010273,-0.506764,0.006738,0.928147,-263.965253,-0.208407,62.30842
8.8782,0.006796,0.003013,0.005396,-0.003312,-0.001861,-0.004194,0.00964,-0.507081,0.006225,0.928147,-263.969849,-0.208407,62.305605
8.8981,0.006414,0.002284,0.00556,-0.002266,-0.001274,-0.00287,0.009626,-0.507079,0.00616,0.928147,-263.969849,-0.208407,62.305605
8.9182,0.006626,0.002652,0.007179,-0.001162,-0.000653,-0.001472,0.009084,-0.507803,0.005349,0.928147,-263.972723,-0.208407,62.303844
8.9377,0.00687,0.002372,0.006214,0.0,0.0,0.0,0.009752,-0.507547,0.006371,0.928147,-263.972723,-0.208407,62.303844
8.958,0.007024,0.002621,0.005903,0.0,0.0,0.0,0.009752,-0.507547,0.006371,0.928147,-263.972723,-0.208407,62.303844
8.978,0.006409,0.002539,0.00611,0.0,0.0,0.0,0.009925,-0.507432,0.005764,0.928147,-263.974243,-0.208407,62.302913
8.998,0.006627,0.002696,0.005614,0.0,0.0,0.0,0.009887,-0.507436,0.005789,0.928147,-263.974243,-0.208407,62.302913
9.0177,0.006605,0.002626,0.007361,0.0,0.0,0.0,0.00949,-0.507296,0.005614,0.928147,-263.974243,-0.208407,62.302913
9.0377,0.006361,0.002415,0.005406,0.0,0.0,0.0,0.009985,-0.507333,0.006608,0.928147,-263.974243,-0.208407,62.302913
9.0578,0.006906,0.002872,0.00583,0.0,0.0,0.0,0.009985,-0.507333,0.006608,0.928147,-263.974243,-0.208407,62.302913
9.0779,0.006671,0.002823,0.004675,0.0,0.0,0.0,0.00988,-0.507119,0.00583,0.928147,-263.974243,-0.208407,62.302913
9.0984,0.007049,0.002847,0.005543,0.0,0.0,0.0,0.009824,-0.507122,0.005753,0.928147,-263.974243,-0.208407,62.302913
9.1178,0.007088,0.002611,0.005543,0.0,0.0,0.0,0.009876,-0.507145,0.005543,0.928147,-263.974243,-0.208407,62.302913
9.1381,0.006882,0.002763,0.005708,0.0,0.0,0.0,0.009898,-0.50728,0.005543,0.928147,-263.974243,-0.208407,62.302913
9.1584,0.006492,0.002346,0.005931,-9.3e-05,-3.7e-05,0.0,0.009898,-0.50728,0.005543,0.928147,-263.974243,-0.208407,62.302913
9.1778,0.006772,0.002831,0.0045,-9.3e-05,-3.7e-05,0.0,0.009517,-0.507645,0.005931,0.928147,-263.974243,-0.208407,62.302913
9.1982,0.006688,0.002839,0.006793,-9.3e-05,-3.7e-05,0.0,0.009489,-0.507616,0.005843,0.928147,-263.974243,-0.208407,62.302913
9.2182,0.00648,0.003021,0.003244,-9.3e-05,-3.7e-05,0.0,0.010152,-0.50715,0.006793,0.853195,-263.974243,-0.133454,62.302913
9.2379,0.006409,0.002995,0.005136,-9.3e-05,-3.7e-05,0.0,0.009005,-0.507051,0.004774,0.853195,-263.974243,-0.133454,62.302913
9.2582,0.00642,0.0024,0.005589,-9.3e-05,-3.7e-05,0.0,0.009005,-0.507051,0.004774,0.853195,-263.974243,-0.133454,62.302913
9.2778,0.006307,0.002575,0.006995,-9.3e-05,-3.7e-05,0.0,0.00927,-0.507592,0.005589,0.778213,-263.974243,-0.058472,62.302913
9.2985,0.006781,0.002526,0.005265,-9.3e-05,-3.7e-05,0.0,0.009312,-0.50758,0.005686,0.778213,-263.974243,-0.058472,62.302913
9.3179,0.006494,0.00269,0.006303,-9.3e-05,-3.7e-05,0.0,0.009466,-0.507467,0.005265,0.703075,-263.974243,0.016666,62.302913
9.3379,0.006701,0.002678,0.006552,-9.3e-05,-3.7e-05,0.0,0.009605,-0.507372,0.005858,0.703075,-263.974243,0.016666,62.302913
9.3578,0.00649,0.00271,0.005766,-9.3e-05,-3.7e-05,0.0,0.009605,-0.507372,0.005858,0.703075,-263.974243,0.016666,62.302913
9.3778,0.006872,0.002746,0.004976,-0.001003,-0.000396,-0.00083,0.00943,-0.507281,0.005766,0.628078,-263.974244,0.091663,62.302912
9.3982,0.007045,0.002546,0.006947,-0.00196,-0.000774,-0.001622,0.009429,-0.507279,0.005713,0.628078,-263.974244,0.091663,62.302912
9.418,0.006604,0.00273,0.003815,-0.002863,-0.00113,-0.002369,0.010588,-0.507441,0.006947,0.553202,-263.974248,0.166539,62.302908
9.4378,0.006898,0.002963,0.004904,-0.003722,-0.001469,-0.00308,0.009436,-0.507343,0.005177,0.553202,-263.974248,0.166539,62.302908
9.4579,0.006811,0.002772,0.006829,-0.004519,-0.001784,-0.00374,0.009436,-0.507343,0.005177,0.553202,-263.974248,0.166539,62.302908
9.4782,0.00655,0.00304,0.00536,-0.00527,-0.002081,-0.004361,0.010277,-0.507224,0.006819,0.628289,-263.974429,0.091452,62.302772
9.4978,0.006389,0.002685,0.004512,-0.00597,-0.002357,-0.00494,0.010207,-0.507205,0.006718,0.628289,-263.974429,0.091452,62.302772
9.5179,0.006491,0.002627,0.007001,-0.006617,-0.002612,-0.005476,0.008613,-0.507344,0.004459,0.703199,-263.975491,0.016542,62.301979
9.5378,0.006472,0.002375,0.005354,-0.007214,-0.002848,-0.00597,0.009429,-0.507358,0.005902,0.703199,-263.975491,0.016542,62.301979
9.5578,0.006964,0.002453,0.003611,-0.007757,-0.003062,-0.006418,0.009429,-0.507358,0.005902,0.703199,-263.975491,0.016542,62.301979
9.5781,0.006806,0.002499,0.005492,-0.008248,-0.003256,-0.006825,0.008585,-0.507637,0.003437,0.732909,-263.977936,-0.058569,62.30015
9.5981,0.006335,0.00244,0.004349,-0.008687,-0.00343,-0.007189,0.00865,-0.50763,0.003576,0.732909,-263.977936,-0.058569,62.30015
9.6179,0.006546,0.00252,0.003758,-0.009076,-0.003583,-0.00751,0.008267,-0.507669,0.004112,0.732909,-263.981936,-0.110149,62.297159
9.6379,0.006347,0.002151,0.005804,-0.009413,-0.003716,-0.007789,0.008342,-0.507574,0.00388,0.732909,-263.981936,-0.110149,62.297159
9.6579,0.00648,0.00253,0.005165,-0.009697,-0.003828,-0.008024,0.008342,-0.507574,0.00388,0.732909,-263.981936,-0.110149,62.297159
9.6782,0.005915,0.001903,0.00565,-0.009931,-0.003921,-0.008218,0.008692,-0.507632,0.004815,0.732909,-263.986612,-0.110149,62.293663
9.6981,0.006077,0.002327,0.00465,-0.010112,-0.003992,-0.008368,0.008688,-0.507669,0.004864,0.732909,-263.986612,-0.110149,62.293663
9.7176,0.005652,0.002302,0.005927,-0.010242,-0.004044,-0.008475,0.008074,-0.507817,0.00434,0.732909,-263.991831,-0.110149,62.28976
9.738,0.005651,0.002105,0.005165,-0.01032,-0.004074,-0.00854,0.008369,-0.507763,0.005206,0.732909,-263.991831,-0.110149,62.28976
9.7582,0.005941,0.001856,0.005415,-0.010347,-0.004085,-0.008562,0.008369,-0.507763,0.005206,0.732909,-263.991831,-0.110149,62.28976
9.7784,0.005401,0.001817,0.003261,-0.010321,-0.004075,-0.008541,0.008211,-0.508334,0.005007,0.732909,-263.997273,-0.110149,62.285691
9.7981,0.005663,0.001841,0.003983,-0.010243,-0.004044,-0.008476,0.008126,-0.508329,0.004887,0.732909,-263.997273,-0.110149,62.285691
9.8183,0.005088,0.001279,0.003672,-0.010115,-0.003993,-0.00837,0.007295,-0.508314,0.003652,0.732909,-264.002842,-0.110149,62.281527
9.8379,0.005117,0.002017,0.002262,-0.009935,-0.003922,-0.008221,0.007055,-0.508563,0.003621,0.732909,-264.002842,-0.110149,62.281527
9.8578,0.004856,0.001533,0.002273,-0.009702,-0.00383,-0.008028,0.007055,-0.508563,0.003621,0.732909,-264.002842,-0.110149,62.281527
9.8779,0.004643,0.001167,0.003851,-0.009416,-0.003717,-0.007792,0.005518,-0.508663,0.001861,0.732909,-264.008355,-0.110149,62.277404
9.8978,0.00493,0.001306,0.004996,-0.009082,-0.003586,-0.007515,0.005579,-0.50868,0.001986,0.732909,-264.008355,-0.110149,62.277404
9.9181,0.004617,0.001233,0.00169,-0.008694,-0.003432,-0.007194,0.007104,-0.508837,0.004686,0.732909,-264.01359,-0.110149,62.273489
9.9379,0.004392,0.000793,0.003707,-0.008256,-0.003259,-0.006831,0.006125,-0.508815,0.002929,0.732909,-264.01359,-0.110149,62.273489
9.9579,0.004354,0.001612,0.003556,-0.007765,-0.003065,-0.006425,0.006125,-0.508815,0.002929,0.732909,-264.01359,-0.110149,62.273489
9.9778,0.004443,0.001146,0.000848,-0.007222,-0.002851,-0.005976,0.005727,-0.50856,0.003191,0.732909,-264.018465,-0.110149,62.269844
9.9977,0.004035,0.000911,0.00319,-0.006627,-0.002616,-0.005484,0.005661,-0.508583,0.003031,0.732909,-264.018465,-0.110149,62.269844
10.0177,0.004027,0.000548,0.002022,-0.00598,-0.002361,-0.004949,0.005363,-0.509206,0.002942,0.732909,-264.022644,-0.110149,62.266719
10.0382,0.003892,0.000771,0.002351,-0.005283,-0.002086,-0.004372,0.005152,-0.509361,0.002388,0.732909,-264.022644,-0.110149,62.266719
10.0579,0.004042,0.000517,0.002287,-0.004532,-0.001789,-0.00375,0.005152,-0.509361,0.002388,0.732909,-264.022644,-0.110149,62.266719
10.0779,0.003908,0.000641,0.001141,-0.00373,-0.001472,-0.003086,0.004886,-0.509609,0.00202,0.732909,-264.026215,-0.110149,62.264049
10.0979,0.003882,0.000956,0.002491,-0.002879,-0.001137,-0.002382,0.004849,-0.509595,0.00195,0.732909,-264.026215,-0.110149,62.264049
10.1179,0.00357,0.00056,0.002777,-0.001974,-0.000779,-0.001634,0.004978,-0.509112,0.002346,0.732909,-264.028655,-0.110149,62.262224
10.1377,0.003821,0.000779,0.001767,-0.001019,-0.000402,-0.000843,0.004961,-0.509308,0.002575,0.732909,-264.028655,-0.110149,62.262224
10.1581,0.003962,0.000813,-0.000587,-1e-05,-4e-06,-8e-06,0.004961,-0.509308,0.002575,0.732909,-264.028655,-0.110149,62.262224
10.1782,0.003725,0.000669,0.000259,0.0,0.0,0.0,0.003523,-0.509241,-0.000703,0.732909,-264.030202,-0.110149,62.261068
10.1981,0.003789,0.00073,0.001371,0.0,0.0,0.0,0.003542,-0.509249,-0.000639,0.732909,-264.030202,-0.110149,62.261068
10.2177,0.003979,0.000531,0.000682,0.0,0.0,0.0,0.004487,-0.50927,0.001371,0.732909,-264.030207,-0.110149,62.261064
10.2379,0.003752,0.000895,0.000703,0.0,0.0,0.0,0.004395,-0.509384,0.000974,0.732909,-264.030207,-0.110149,62.261064
10.2578,0.00359,0.00081,0.000328,0.0,0.0,0.0,0.004395,-0.509384,0.000974,0.732909,-264.030207,-0.110149,62.261064
10.2778,0.003945,0.000571,0.002348,0.0,0.0,0.0,0.003757,-0.50919,0.000328,0.732909,-264.030207,-0.110149,62.261064
10.2984,0.003684,0.000403,0.000672,0.0,0.0,0.0,0.003857,-0.509207,0.000474,0.732909,-264.030207,-0.110149,62.261064
10.318,0.003619,0.000221,-0.000215,0.0,0.0,0.0,0.004027,-0.509597,0.000672,0.732909,-264.030207,-0.110149,62.261064
10.3381,0.003696,0.000681,0.002393,0.0,0.0,0.0,0.003733,-0.5097,0.000169,0.732909,-264.030207,-0.110149,62.261064
10.3582,0.003557,0.000832,0.000516,0.0,0.0,0.0,0.003733,-0.5097,0.000169,0.732909,-264.030207,-0.110149,62.261064
10.378,0.003963,0.000536,0.001688,0.0,0.0,0.0,0.00382,-0.509167,0.000516,0.732909,-264.030207,-0.110149,62.261064
10.3989,0.00353,0.000804,0.001592,-9.9e-05,-1.3e-05,0.0,0.003883,-0.509186,0.000589,0.732909,-264.030207,-0.110149,62.261064
10.4182,0.003533,0.000829,0.00135,-9.9e-05,-1.3e-05,0.0,0.004342,-0.509196,0.001592,0.732909,-264.030207,-0.110149,62.261064
10.4379,0.003444,0.000847,0.000838,-9.9e-05,-1.3e-05,0.0,0.004274,-0.509181,0.001455,0.732909,-264.030207,-0.110149,62.261064
10.4578,0.003686,0.000657,0.002376,-9.9e-05,-1.3e-05,0.0,0.004274,-0.509181,0.001455,0.732909,-264.030207,-0.110149,62.261064
10.4777,0.003661,0.000769,0.000512,-9.9e-05,-1.3e-05,0.0,0.004898,-0.509341,0.002376,0.65783,-264.030207,-0.03507,62.261064
10.4979,0.00377,0.000965,0.002336,-9.9e-05,-1.3e-05,0.0,0.004826,-0.509333,0.002239,0.65783,-264.030207,-0.03507,62.261064
10.518,0.003861,0.000628,0.001148,-9.9e-05,-1.3e-05,0.0,0.004961,-0.509034,0.002336,0.582822,-264.030207,0.039938,62.261064
10.5382,0.003433,0.00071,0.001114,-9.9e-05,-1.3e-05,0.0,0.004668,-0.509226,0.001659,0.582822,-264.030207,0.039938,62.261064
10.5579,0.003319,0.000505,-0.001144,-9.9e-05,-1.3e-05,0.0,0.004668,-0.509226,0.001659,0.582822,-264.030207,0.039938,62.261064
10.578,0.003925,0.000776,0.000251,-9.9e-05,-1.3e-05,0.0,0.002735,-0.509495,-0.001144,0.507812,-264.030209,0.114948,62.261062
10.5982,0.004079,0.000539,-0.000827,-0.0,-0.0,-0.0,0.002822,-0.509477,-0.001053,0.507812,-264.030209,0.114948,62.261062
10.6178,0.003533,0.000747,0.00132,-0.000581,-7.8e-05,-0.000247,0.003657,-0.509461,-0.000827,0.432926,-264.030213,0.132868,62.261058
10.6379,0.003399,0.000592,0.001166,-0.001133,-0.000151,-0.000482,0.003971,-0.509342,0.000399,0.432926,-264.030213,0.132868,62.261058
10.6579,0.003565,0.000459,0.001406,-0.00165,-0.000221,-0.000703,0.003971,-0.509342,0.000399,0.432926,-264.030213,0.132868,62.261058
10.6779,0.003485,0.000522,0.001251,-0.002142,-0.000286,-0.000912,0.004282,-0.509541,0.001406,0.375116,-264.030213,0.057753,62.261058
10.6986,0.00335,0.000442,0.002918,-0.002601,-0.000348,-0.001108,0.004269,-0.509536,0.001394,0.375116,-264.030213,0.057753,62.261058
10.7181,0.003401,0.000616,0.001611,-0.003035,-0.000406,-0.001293,0.004801,-0.509562,0.002905,0.375116,-264.030624,-0.017467,62.260673
10.7378,0.003875,0.000592,0.002108,-0.003436,-0.000459,-0.001463,0.004467,-0.509461,0.002166,0.375116,-264.030624,-0.017467,62.260673
10.758,0.003751,0.000856,0.001173,-0.003805,-0.000509,-0.001621,0.004467,-0.509461,0.002166,0.375116,-264.030624,-0.017467,62.260673
10.7779,0.003395,0.000481,0.000825,-0.004149,-0.000555,-0.001767,0.004244,-0.50916,0.001131,0.375116,-264.031549,-0.092261,62.259805
10.7981,0.003543,0.000636,0.000736,-0.00446,-0.000596,-0.001899,0.004212,-0.509185,0.001109,0.375116,-264.031549,-0.092261,62.259805
10.818,0.003608,0.000597,0.000649,-0.004748,-0.000635,-0.002022,0.003774,-0.509383,0.000674,0.375116,-264.033158,-0.125781,62.258296
10.8378,0.003138,0.000555,0.000119,-0.004995,-0.000668,-0.002127,0.00385,-0.509397,0.000652,0.375116,-264.033158,-0.125781,62.258296
10.8581,0.003313,0.000277,0.002342,-0.005218,-0.000697,-0.002222,0.00385,-0.509397,0.000652,0.375116,-264.033158,-0.125781,62.258296
10.8777,0.003186,0.00041,-6e-06,-0.005411,-0.000723,-0.002304,0.004291,-0.509751,0.00225,0.375116,-264.035073,-0.125781,62.2565
10.898,0.003411,0.000534,0.000585,-0.005574,-0.000745,-0.002374,0.004213,-0.509741,0.002101,0.375116,-264.035073,-0.125781,62.2565
10.9181,0.002527,0.000318,-0.000206,-0.005708,-0.000763,-0.002431,0.003508,-0.509493,0.000499,0.375116,-264.037319,-0.125781,62.254394
10.9378,0.003021,0.000566,0.000864,-0.005812,-0.000777,-0.002475,0.00286,-0.509605,8.4e-05,0.375116,-264.037319,-0.125781,62.254394
10.9583,0.002811,0.000798,0.000642,-0.005887,-0.000787,-0.002507,0.00286,-0.509605,8.4e-05,0.375116,-264.037319,-0.125781,62.254394
