mach0312/omni-docking-bench/src/icros_test_setup/results/kinematic_sample/timeseries/trial_034.csv
t,x,y,yaw,vx,vy,wz,bl_x,bl_y,bl_yaw,front_steering_joint,front_wheel_joint,rear_steering_joint,rear_wheel_joint
0.0,-0.060912,0.019366,0.067214,0.0,0.0,0.0,-0.026282,-0.488959,0.068674,0.51652,-264.601477,-0.129506,62.550245
0.0004,-0.061454,0.01942,0.068365,0.0,0.0,0.0,-0.026332,-0.489087,0.068403,0.51652,-264.600816,-0.129506,62.550824
0.0008,-0.061365,0.019317,0.068828,0.0,0.0,0.0,-0.026332,-0.489087,0.068403,0.51652,-264.600816,-0.129506,62.550824
0.0011,-0.060845,0.019492,0.066542,0.0,0.0,0.0,-0.026042,-0.4893,0.069094,0.51652,-264.600816,-0.129506,62.550824
0.0014,-0.061218,0.01963,0.066814,0.0,0.0,0.0,-0.026042,-0.4893,0.069094,0.51652,-264.600816,-0.129506,62.550824
0.0017,-0.060919,0.019759,0.068356,0.0001,5e-06,0.0,-0.026042,-0.4893,0.069094,0.51652,-264.600816,-0.129506,62.550824
0.002,-0.061519,0.019437,0.066991,0.0001,5e-06,0.0,-0.026182,-0.489422,0.069092,0.441519,-264.600816,-0.054505,62.550825
0.0023,-0.061055,0.019464,0.06666,0.0001,5e-06,0.0,-0.02624,-0.489402,0.068957,0.441519,-264.600816,-0.054505,62.550825
0.0025,-0.06115,0.019035,0.067948,0.0001,5e-06,0.0,-0.02624,-0.489402,0.068957,0.441519,-264.600816,-0.054505,62.550825
0.0028,-0.061097,0.019578,0.068054,0.0001,5e-06,0.0,-0.02624,-0.489402,0.068957,0.441519,-264.600816,-0.054505,62.550825
0.0184,-0.061445,0.019804,0.068075,0.0161,-0.015995,-0.03,-0.026416,-0.489241,0.068054,0.366531,-264.600813,0.020483,62.550828
0.0383,-0.06122,0.019715,0.069466,0.0321,-0.023938,-0.05,-0.02661,-0.489111,0.068066,0.366531,-264.600813,0.020483,62.550828
0.0582,-0.061291,0.019544,0.068318,0.0481,-0.023917,-0.05,-0.02661,-0.489111,0.068066,0.366531,-264.600813,0.020483,62.550828
0.078,-0.061176,0.01931,0.067022,0.059813,-0.023683,-0.05,-0.026474,-0.489266,0.068319,0.291478,-264.600805,0.051027,62.550835
0.0981,-0.060952,0.01949,0.067805,0.059745,-0.023364,-0.05,-0.026512,-0.489285,0.068229,0.291478,-264.600805,0.051027,62.550835
0.1186,-0.061204,0.019153,0.068479,0.059491,-0.023575,-0.05,-0.026398,-0.489338,0.067805,0.216643,-264.600803,0.125862,62.550837
0.1385,-0.061211,0.019446,0.070119,0.05975,-0.023296,-0.05,-0.026346,-0.489517,0.068189,0.216643,-264.600803,0.125862,62.550837
0.1583,-0.061159,0.019552,0.068271,0.059698,-0.023687,-0.05,-0.026346,-0.489517,0.068189,0.216643,-264.600803,0.125862,62.550837
0.1781,-0.060994,0.019228,0.066992,0.059683,-0.023679,-0.05,-0.026368,-0.48926,0.068271,0.141519,-264.600799,0.119499,62.55084
0.1981,-0.061345,0.019789,0.067966,0.05957,-0.023268,-0.05,-0.026401,-0.489284,0.068185,0.141519,-264.600799,0.119499,62.55084
0.2181,-0.060946,0.019634,0.068345,0.059859,-0.02391,-0.05,-0.026709,-0.489033,0.067966,0.066619,-264.600796,0.114256,62.550842
0.2381,-0.061259,0.019192,0.066974,0.059463,-0.02375,-0.05,-0.02637,-0.489115,0.068183,0.066619,-264.600796,0.114256,62.550842
0.2581,-0.061226,0.019455,0.068754,0.059837,-0.023249,-0.05,-0.02637,-0.489115,0.068183,0.066619,-264.600796,0.114256,62.550842
0.2784,-0.061089,0.019645,0.068945,0.059745,-0.023615,-0.05,-0.026189,-0.48934,0.068754,-0.008478,-264.600793,0.121428,62.550845
0.2987,-0.061344,0.01968,0.067898,0.059591,-0.023806,-0.05,-0.026173,-0.489327,0.068767,-0.008478,-264.600793,0.121428,62.550845
0.3184,-0.061093,0.019434,0.066999,0.059867,-0.023796,-0.05,-0.026742,-0.489145,0.067897,-0.083361,-264.600786,0.121212,62.550849
0.3382,-0.061189,0.019628,0.067882,0.059655,-0.02348,-0.05,-0.026861,-0.489304,0.067382,-0.083361,-264.600786,0.121212,62.550849
0.3583,-0.061396,0.019295,0.067814,0.059717,-0.023733,-0.05,-0.026861,-0.489304,0.067382,-0.083361,-264.600786,0.121212,62.550849
0.3781,-0.061451,0.019252,0.067425,0.059947,-0.02341,-0.05,-0.026835,-0.489533,0.067813,-0.158512,-264.600764,0.112478,62.550866
0.3981,-0.061312,0.019755,0.067914,0.060014,-0.023349,-0.05,-0.026853,-0.489537,0.067785,-0.158512,-264.600764,0.112478,62.550866
0.4181,-0.06124,0.019517,0.067982,0.05983,-0.02387,-0.05,-0.026693,-0.48907,0.067911,-0.233566,-264.600653,0.11345,62.550949
0.4382,-0.06102,0.019206,0.067866,0.059773,-0.023631,-0.05,-0.026636,-0.489205,0.067951,-0.233566,-264.600653,0.11345,62.550949
0.4582,-0.061201,0.019413,0.066356,0.059577,-0.0233,-0.05,-0.026636,-0.489205,0.067951,-0.233566,-264.600653,0.11345,62.550949
0.4784,-0.061057,0.019426,0.067407,0.059779,-0.023429,-0.05,-0.027331,-0.489468,0.066336,-0.308501,-264.600138,0.119214,62.551335
0.4981,-0.061219,0.019332,0.068486,0.059609,-0.023494,-0.05,-0.027275,-0.489463,0.066428,-0.308501,-264.600138,0.119214,62.551335
0.5184,-0.060788,0.019471,0.066599,0.059753,-0.023476,-0.05,-0.02619,-0.489485,0.068428,-0.383851,-264.598547,0.12089,62.552523
0.5383,-0.060633,0.019436,0.066917,0.059357,-0.023473,-0.05,-0.02655,-0.489437,0.067374,-0.383851,-264.598547,0.12089,62.552523
0.5585,-0.060648,0.019599,0.068566,0.059198,-0.023447,-0.05,-0.02655,-0.489437,0.067374,-0.383851,-264.598547,0.12089,62.552523
0.5785,-0.060558,0.019563,0.065911,0.059163,-0.023708,-0.05,-0.02529,-0.489262,0.068349,-0.458502,-264.594461,0.117614,62.555672
0.599,-0.060446,0.019581,0.067416,0.059138,-0.023509,-0.05,-0.025399,-0.489269,0.068168,-0.458502,-264.594461,0.117614,62.555672
0.6182,-0.059525,0.019397,0.067541,0.058989,-0.023608,-0.05,-0.025538,-0.489353,0.067099,-0.533508,-264.587873,0.119203,62.561323
0.6384,-0.059557,0.019424,0.067647,0.05808,-0.02337,-0.05,-0.025221,-0.489414,0.067311,-0.533508,-264.587873,0.119203,62.561323
0.6584,-0.059715,0.019651,0.069189,0.058108,-0.023406,-0.05,-0.025221,-0.489414,0.067311,-0.533508,-264.587873,0.119203,62.561323
0.6787,-0.058089,0.019125,0.066741,0.058213,-0.023732,-0.05,-0.023497,-0.48932,0.068577,-0.608523,-264.578751,0.118298,62.569504
0.6987,-0.058215,0.019026,0.067007,0.056684,-0.022956,-0.05,-0.023514,-0.48936,0.068411,-0.608523,-264.578751,0.118298,62.569504
0.7181,-0.056383,0.018692,0.065596,0.05681,-0.022881,-0.05,-0.02311,-0.490056,0.066328,-0.683793,-264.5672,0.122125,62.58012
0.7381,-0.056687,0.018454,0.064177,0.055036,-0.022347,-0.05,-0.022898,-0.490173,0.065825,-0.683793,-264.5672,0.122125,62.58012
0.7583,-0.056527,0.019083,0.064794,0.055387,-0.022052,-0.05,-0.022898,-0.490173,0.065825,-0.683793,-264.5672,0.122125,62.58012
0.7788,-0.054251,0.017984,0.065737,0.055173,-0.022703,-0.05,-0.022065,-0.490236,0.063661,-0.756451,-264.553136,0.13296,62.593249
0.7987,-0.054597,0.018706,0.064883,0.052953,-0.021509,-0.05,-0.021936,-0.490293,0.063773,-0.756451,-264.553136,0.13296,62.593249
0.8189,-0.051862,0.018133,0.063681,0.05327,-0.022206,-0.05,-0.020177,-0.490572,0.063793,-0.759495,-264.536554,0.152029,62.608894
0.8382,-0.052005,0.018212,0.062594,0.050603,-0.021396,-0.05,-0.019567,-0.490765,0.063591,-0.759495,-264.536554,0.152029,62.608894
0.8582,-0.051748,0.018134,0.06381,0.050764,-0.02143,-0.05,-0.019567,-0.490765,0.063591,-0.759495,-264.536554,0.152029,62.608894
0.8783,-0.048824,0.017329,0.060531,0.050487,-0.021397,-0.05,-0.017279,-0.491334,0.062177,-0.776765,-264.517472,0.168878,62.627038
0.8981,-0.049035,0.017707,0.062126,0.047686,-0.020251,-0.05,-0.017275,-0.491376,0.062017,-0.776765,-264.517472,0.168878,62.627038
0.9184,-0.046047,0.016853,0.060213,0.047841,-0.020717,-0.05,-0.015639,-0.491775,0.06062,-0.797106,-264.49589,0.177528,62.647507
0.9382,-0.045652,0.016845,0.060069,0.04495,-0.019593,-0.05,-0.015259,-0.492089,0.060197,-0.797106,-264.49589,0.177528,62.647507
0.9582,-0.045809,0.017073,0.060257,0.044559,-0.019555,-0.05,-0.015259,-0.492089,0.060197,-0.797106,-264.49589,0.177528,62.647507
0.9787,-0.042271,0.016575,0.056975,0.044697,-0.0198,-0.05,-0.012921,-0.492697,0.058112,-0.816889,-264.471808,0.21246,62.666524
0.9992,-0.042367,0.016542,0.056805,0.041258,-0.018955,-0.05,-0.012884,-0.492709,0.057974,-0.816889,-264.471808,0.21246,62.666524
1.0186,-0.039059,0.015282,0.053688,0.041359,-0.01892,-0.05,-0.01169,-0.49328,0.054916,-0.843803,-264.445653,0.241648,62.684427
1.0382,-0.038782,0.015842,0.054079,0.038183,-0.017356,-0.05,-0.011474,-0.49376,0.053981,-0.843803,-264.445653,0.241648,62.684427
1.0585,-0.038964,0.015861,0.055963,0.037869,-0.017915,-0.05,-0.011474,-0.49376,0.053981,-0.843803,-264.445653,0.241648,62.684427
1.0784,-0.035424,0.015016,0.05288,0.038016,-0.018015,-0.05,-0.008453,-0.494124,0.053614,-0.875886,-264.420719,0.273689,62.70101
1.0985,-0.035509,0.01501,0.053006,0.034581,-0.016868,-0.05,-0.008401,-0.494156,0.053499,-0.875886,-264.420719,0.273689,62.70101
1.1182,-0.032493,0.014272,0.050811,0.034664,-0.01687,-0.05,-0.007052,-0.494864,0.051152,-0.907388,-264.397388,0.321738,62.716155
1.1381,-0.032632,0.014416,0.049545,0.031727,-0.015904,-0.05,-0.006618,-0.495052,0.050733,-0.907388,-264.397388,0.321738,62.716155
1.1582,-0.032871,0.014077,0.049083,0.031878,-0.016015,-0.049545,-0.006618,-0.495052,0.050733,-0.907388,-264.397388,0.321738,62.716155
1.1781,-0.029518,0.013644,0.047804,0.032141,-0.015673,-0.049083,-0.00624,-0.496,0.046807,-0.940557,-264.375406,0.376451,62.730085
1.1982,-0.029844,0.013334,0.0478,0.028833,-0.015039,-0.047804,-0.00612,-0.496003,0.046816,-0.940557,-264.375406,0.376451,62.730085
1.2185,-0.026682,0.012672,0.044429,0.029173,-0.014745,-0.0478,-0.004266,-0.496622,0.045962,-0.967563,-264.353861,0.420239,62.743472
1.2385,-0.02707,0.013056,0.045876,0.026093,-0.013845,-0.044429,-0.00398,-0.496805,0.04486,-0.967563,-264.353861,0.420239,62.743472
1.2585,-0.026867,0.012564,0.045096,0.026443,-0.014283,-0.045876,-0.00398,-0.496805,0.04486,-0.967563,-264.353861,0.420239,62.743472
1.2785,-0.02484,0.012718,0.042472,0.026274,-0.013762,-0.045096,-0.002481,-0.497569,0.042833,-0.993162,-264.333393,0.456429,62.755923
1.2986,-0.024124,0.012281,0.042041,0.024278,-0.013762,-0.042472,-0.002491,-0.49754,0.042762,-0.993162,-264.333393,0.456429,62.755923
1.3184,-0.021574,0.011914,0.039813,0.023586,-0.013284,-0.042041,-0.001661,-0.497771,0.040293,-1.012134,-264.313715,0.479089,62.767677
1.3387,-0.021993,0.01185,0.04028,0.021083,-0.012764,-0.039813,-0.001311,-0.497785,0.039798,-1.012134,-264.313715,0.479089,62.767677
1.3589,-0.022178,0.011394,0.040343,0.021498,-0.012726,-0.04028,-0.001311,-0.497785,0.039798,-1.012134,-264.313715,0.479089,62.767677
1.3788,-0.019329,0.011375,0.039029,0.0217,-0.01228,-0.040343,-0.000405,-0.498812,0.038281,-1.021957,-264.29519,0.464936,62.778489
1.3982,-0.019359,0.011518,0.038254,0.01887,-0.01212,-0.039029,-0.000317,-0.498791,0.038278,-1.021957,-264.29519,0.464936,62.778489
1.4186,-0.017687,0.010559,0.035699,0.018904,-0.01225,-0.038254,0.000965,-0.498553,0.036751,-1.048253,-264.278573,0.504679,62.787964
1.4382,-0.017313,0.01057,0.03438,0.017299,-0.011184,-0.035699,0.000813,-0.49893,0.035963,-1.048253,-264.278573,0.504679,62.787964
1.4581,-0.017289,0.010555,0.036294,0.016939,-0.011158,-0.03438,0.000813,-0.49893,0.035963,-1.048253,-264.278573,0.504679,62.787964
1.4784,-0.015723,0.00977,0.033389,0.016894,-0.011176,-0.036294,0.002094,-0.49963,0.034519,-1.087513,-264.263374,0.555654,62.796277
1.4986,-0.015405,0.010003,0.032537,0.015388,-0.010289,-0.033389,0.002063,-0.499665,0.034395,-1.087513,-264.263374,0.555654,62.796277
1.5185,-0.013838,0.009598,0.033213,0.015072,-0.010499,-0.032537,0.001844,-0.500132,0.031228,-1.085958,-264.249037,0.526236,62.804005
1.5382,-0.014171,0.009397,0.034718,0.013512,-0.010052,-0.033213,0.002641,-0.500177,0.032192,-1.085958,-264.249037,0.526236,62.804005
1.5582,-0.013782,0.009608,0.032406,0.013837,-0.009883,-0.034718,0.002641,-0.500177,0.032192,-1.085958,-264.249037,0.526236,62.804005
1.5781,-0.012708,0.009006,0.031461,0.013463,-0.010049,-0.032406,0.003466,-0.500576,0.030868,-1.105912,-264.235954,0.580948,62.811021
1.5986,-0.012524,0.00917,0.032234,0.012418,-0.009401,-0.031461,0.003477,-0.500604,0.030869,-1.105912,-264.235954,0.580948,62.811021
1.6188,-0.011035,0.00858,0.030026,0.012222,-0.009569,-0.032234,0.004357,-0.500864,0.031166,-1.152027,-264.224974,0.656411,62.81679
1.6382,-0.010978,0.00893,0.029056,0.010773,-0.008908,-0.030026,0.004367,-0.501089,0.030377,-1.152027,-264.224974,0.656411,62.81679
1.6581,-0.011506,0.008977,0.029982,0.010714,-0.009246,-0.029056,0.004367,-0.501089,0.030377,-1.152027,-264.224974,0.656411,62.81679
1.6781,-0.009708,0.008266,0.027755,0.011231,-0.009318,-0.029982,0.004397,-0.501231,0.02846,-1.16136,-264.21256,0.668756,62.823088
1.6982,-0.010042,0.008295,0.029419,0.009475,-0.008532,-0.027755,0.004416,-0.501263,0.028372,-1.16136,-264.21256,0.668756,62.823088
1.7181,-0.008467,0.008113,0.027452,0.009794,-0.008587,-0.029419,0.005378,-0.501825,0.028311,-1.192945,-264.20113,0.670718,62.828471
1.7381,-0.008844,0.008093,0.026689,0.008241,-0.008343,-0.027452,0.005518,-0.501795,0.027687,-1.192945,-264.20113,0.670718,62.828471
1.7581,-0.008672,0.007798,0.026167,0.008625,-0.008326,-0.026689,0.005518,-0.501795,0.027687,-1.192945,-264.20113,0.670718,62.828471
1.7784,-0.007154,0.00761,0.024923,0.008465,-0.008022,-0.026167,0.005116,-0.502408,0.024893,-1.214827,-264.190862,0.726499,62.833259
1.7985,-0.00733,0.00773,0.025286,0.006962,-0.007786,-0.024923,0.005159,-0.502406,0.024861,-1.214827,-264.190862,0.726499,62.833259
1.8185,-0.006154,0.007503,0.024839,0.007132,-0.007913,-0.025286,0.005902,-0.502416,0.024267,-1.233904,-264.180547,0.746208,62.837902
1.8387,-0.006076,0.007452,0.023387,0.007132,-0.007913,-0.025286,0.006292,-0.502412,0.024464,-1.233904,-264.180547,0.746208,62.837902
1.8586,-0.006284,0.006654,0.025166,6.1e-05,-7.9e-05,0.0,0.006292,-0.502412,0.024464,-1.233904,-264.180547,0.746208,62.837902
1.8782,-0.00519,0.006799,0.023844,6.1e-05,-7.9e-05,0.0,0.00686,-0.503514,0.024085,-1.276948,-264.171961,0.818293,62.841541
1.8984,-0.005541,0.006796,0.022754,6.1e-05,-7.9e-05,0.0,0.006875,-0.503491,0.02404,-1.276948,-264.171961,0.818293,62.841541
1.9183,-0.005428,0.006648,0.022729,6.1e-05,-7.9e-05,0.0,0.006062,-0.503072,0.022754,-1.202009,-264.171961,0.743354,62.841541
1.9382,-0.005166,0.006937,0.023759,6.1e-05,-7.9e-05,0.0,0.006119,-0.503157,0.02274,-1.202009,-264.171961,0.743354,62.841541
1.9588,-0.005293,0.007225,0.022405,6.1e-05,-7.9e-05,0.0,0.006119,-0.503157,0.02274,-1.202009,-264.171961,0.743354,62.841541
1.9781,-0.005551,0.006585,0.023218,6.1e-05,-7.9e-05,0.0,0.006132,-0.502647,0.022405,-1.126955,-264.171961,0.6683,62.841541
1.9984,-0.004975,0.006398,0.023214,6.1e-05,-7.9e-05,0.0,0.006143,-0.50269,0.022461,-1.126955,-264.171961,0.6683,62.841541
2.0182,-0.005492,0.006789,0.025215,6.1e-05,-7.9e-05,0.0,0.006863,-0.503465,0.023214,-1.051995,-264.171961,0.593341,62.841541
2.0381,-0.004964,0.006512,0.022017,6.1e-05,-7.9e-05,0.0,0.007151,-0.503227,0.024357,-1.051995,-264.171961,0.593341,62.841541
2.0582,-0.005579,0.006717,0.023097,6.1e-05,-7.9e-05,0.0,0.007151,-0.503227,0.024357,-1.051995,-264.171961,0.593341,62.841541
2.0784,-0.005287,0.006542,0.023367,0.000864,-0.001111,-0.003424,0.0062,-0.503147,0.023097,-0.976962,-264.171961,0.518307,62.841541
2.0981,-0.005559,0.006484,0.023365,0.001682,-0.002164,-0.006667,0.00623,-0.503159,0.023116,-0.976962,-264.171961,0.518307,62.841541
2.118,-0.005422,0.006986,0.023772,0.002458,-0.003163,-0.009743,0.006356,-0.503377,0.023365,-0.910168,-264.171961,0.443355,62.841541
2.1382,-0.005291,0.007325,0.023353,0.003189,-0.004104,-0.012641,0.006552,-0.503088,0.023597,-0.910168,-264.171961,0.443355,62.841541
2.1582,-0.004985,0.006644,0.023407,0.003873,-0.004984,-0.015353,0.006552,-0.503088,0.023597,-0.910168,-264.171961,0.443355,62.841541
2.1783,-0.005526,0.007035,0.023427,0.004523,-0.00582,-0.01793,0.006952,-0.503216,0.023406,-0.98517,-264.171948,0.518357,62.841546
2.1984,-0.005427,0.006694,0.024477,0.005112,-0.006578,-0.020264,0.006916,-0.50319,0.023407,-0.98517,-264.171948,0.518357,62.841546
2.218,-0.005716,0.006993,0.022974,0.005669,-0.007295,-0.022474,0.007063,-0.503159,0.024461,-1.060176,-264.171762,0.593363,62.841619
2.2381,-0.004996,0.007396,0.022526,0.006173,-0.007943,-0.024469,0.00646,-0.502997,0.023615,-1.060176,-264.171762,0.593363,62.841619
2.2581,-0.005294,0.006525,0.023667,0.006638,-0.008541,-0.026311,0.00646,-0.502997,0.023615,-1.060176,-264.171762,0.593363,62.841619
2.279,-0.004825,0.006753,0.022755,0.007058,-0.009083,-0.027979,0.006821,-0.503372,0.02355,-1.135179,-264.17074,0.668366,62.842022
2.2991,-0.005329,0.007006,0.022956,0.007435,-0.009568,-0.029473,0.006819,-0.503355,0.023492,-1.135179,-264.17074,0.668366,62.842022
2.3181,-0.005036,0.006504,0.022618,0.007767,-0.009995,-0.030789,0.006493,-0.502968,0.022615,-1.210179,-264.167217,0.743366,62.843502
2.3384,-0.004765,0.006836,0.021603,0.008055,-0.010365,-0.031928,0.00651,-0.503207,0.022574,-1.210179,-264.167217,0.743366,62.843502
2.3585,-0.0048,0.006632,0.022048,0.008298,-0.010677,-0.032892,0.00651,-0.503207,0.022574,-1.210179,-264.167217,0.743366,62.843502
2.3781,-0.004063,0.0068,0.021871,0.008496,-0.010933,-0.033679,0.006686,-0.503446,0.021237,-1.285196,-264.161195,0.818383,62.846743
2.3983,-0.004161,0.00637,0.020805,0.008651,-0.011132,-0.034292,0.00672,-0.503426,0.02126,-1.285196,-264.161195,0.818383,62.846743
2.4184,-0.00334,0.006198,0.021141,0.008762,-0.011274,-0.034731,0.006717,-0.503734,0.019864,-1.307365,-264.152673,0.848203,62.851652
2.4381,-0.002744,0.006234,0.021723,0.008828,-0.01136,-0.034995,0.007164,-0.503735,0.020472,-1.307365,-264.152673,0.848203,62.851652
2.4585,-0.003504,0.006241,0.021767,0.00885,-0.011388,-0.035081,0.007164,-0.503735,0.020472,-1.307365,-264.152673,0.848203,62.851652
2.4783,-0.00198,0.005372,0.018873,0.008828,-0.01136,-0.034994,0.00799,-0.504038,0.020318,-1.307365,-264.14165,0.848203,62.856884
2.4985,-0.001821,0.005751,0.019415,0.008761,-0.011274,-0.034729,0.007976,-0.504085,0.020175,-1.307365,-264.14165,0.848203,62.856884
2.5186,-0.000742,0.005489,0.018808,0.008651,-0.011132,-0.034291,0.008429,-0.504582,0.018067,-1.307365,-264.128128,0.848203,62.862237
2.5389,-0.00096,0.005345,0.018859,0.008496,-0.010933,-0.033679,0.008713,-0.504545,0.018317,-1.307365,-264.128128,0.848203,62.862237
2.5581,-0.000678,0.005266,0.017126,0.008297,-0.010676,-0.032889,0.008713,-0.504545,0.018317,-1.307365,-264.128128,0.848203,62.862237
2.5783,0.000343,0.004892,0.016522,0.008053,-0.010363,-0.031924,0.008491,-0.5052,0.015438,-1.307365,-264.11467,0.848203,62.867536
2.5984,0.000611,0.004854,0.016945,0.007766,-0.009993,-0.030784,0.008522,-0.505204,0.015468,-1.307365,-264.11467,0.848203,62.867536
2.6183,0.002043,0.004465,0.014377,0.007434,-0.009566,-0.029468,0.009579,-0.50548,0.015675,-1.307365,-264.101925,0.848203,62.872554
2.6382,0.002122,0.004533,0.013689,0.007057,-0.009081,-0.027974,0.009504,-0.505533,0.014774,-1.307365,-264.101925,0.848203,62.872554
2.6581,0.002143,0.004102,0.014224,0.006638,-0.008541,-0.026311,0.009504,-0.505533,0.014774,-1.307365,-264.101925,0.848203,62.872554
2.6783,0.002982,0.003657,0.011842,0.006171,-0.007941,-0.024461,0.009781,-0.506327,0.012727,-1.307365,-264.089996,0.848203,62.877251
2.6985,0.003151,0.003654,0.011564,0.005664,-0.007288,-0.02245,0.009739,-0.506338,0.012628,-1.307365,-264.089996,0.848203,62.877251
2.7185,0.004172,0.00347,0.010211,0.00511,-0.006575,-0.020255,0.009308,-0.506639,0.010547,-1.307365,-264.0798,0.848203,62.881266
2.7382,0.004045,0.003474,0.011244,0.004514,-0.005809,-0.017893,0.009382,-0.506603,0.010227,-1.307365,-264.0798,0.848203,62.881266
2.7585,0.00415,0.003551,0.010739,0.003872,-0.004982,-0.015348,0.009382,-0.506603,0.010227,-1.307365,-264.0798,0.848203,62.881266
2.7781,0.004962,0.002692,0.009374,0.003186,-0.004099,-0.012628,0.009906,-0.506772,0.009646,-1.307365,-264.071099,0.848203,62.884692
2.7985,0.004657,0.002917,0.008177,0.002455,-0.003159,-0.009731,0.009902,-0.506814,0.0096,-1.307365,-264.071099,0.848203,62.884692
2.8181,0.005435,0.002759,0.009751,0.00168,-0.002162,-0.006661,0.008979,-0.507257,0.007585,-1.307365,-264.065151,0.848203,62.887034
2.8381,0.005416,0.002928,0.008943,0.00086,-0.001107,-0.003411,0.009813,-0.507258,0.008746,-1.307365,-264.065151,0.848203,62.887034
2.8582,0.005724,0.002905,0.009579,0.0,0.0,0.0,0.009813,-0.507258,0.008746,-1.307365,-264.065151,0.848203,62.887034
2.8782,0.005887,0.002439,0.009078,0.0,0.0,0.0,0.01073,-0.507224,0.009106,-1.307365,-264.061381,0.848203,62.888518
2.8983,0.005908,0.002773,0.009569,0.0,0.0,0.0,0.010718,-0.50725,0.009092,-1.307365,-264.061381,0.848203,62.888518
2.9187,0.00575,0.002808,0.009624,0.0,0.0,0.0,0.010788,-0.507204,0.009569,-1.307365,-264.061381,0.848203,62.888518
2.9382,0.005949,0.002469,0.007427,0.0,0.0,0.0,0.010714,-0.507184,0.0096,-1.307365,-264.061381,0.848203,62.888518
2.9581,0.005714,0.00256,0.008417,0.0,0.0,0.0,0.010714,-0.507184,0.0096,-1.307365,-264.061381,0.848203,62.888518
2.9782,0.006178,0.00266,0.008962,0.0,0.0,0.0,0.010007,-0.507422,0.008417,-1.307365,-264.061381,0.848203,62.888518
2.9987,0.005872,0.002231,0.009083,0.0,0.0,0.0,0.010061,-0.507415,0.008457,-1.307365,-264.061381,0.848203,62.888518
3.0182,0.005837,0.00281,0.009152,0.0,0.0,0.0,0.010504,-0.507748,0.009083,-1.307365,-264.061381,0.848203,62.888518
3.0387,0.006259,0.002448,0.009475,0.0,0.0,0.0,0.010504,-0.507417,0.009123,-1.307365,-264.061381,0.848203,62.888518
3.0587,0.0057,0.002279,0.010053,0.0,0.0,0.0,0.010504,-0.507417,0.009123,-1.307365,-264.061381,0.848203,62.888518
3.0782,0.006011,0.002468,0.007714,-9.3e-05,-3.6e-05,0.0,0.010827,-0.507695,0.010053,-1.307365,-264.061381,0.848203,62.888518
3.0986,0.006044,0.002572,0.009774,-9.3e-05,-3.6e-05,0.0,0.010766,-0.507683,0.009891,-1.307365,-264.061381,0.848203,62.888518
3.1182,0.006039,0.002707,0.008007,-9.3e-05,-3.6e-05,0.0,0.011029,-0.507403,0.009774,-1.307365,-264.061381,0.848203,62.888518
3.1381,0.005723,0.002844,0.009936,-9.3e-05,-3.6e-05,0.0,0.010523,-0.507333,0.008787,-1.307365,-264.061381,0.848203,62.888518
3.1581,0.00586,0.002961,0.008826,-9.3e-05,-3.6e-05,0.0,0.010523,-0.507333,0.008787,-1.307365,-264.061381,0.848203,62.888518
3.1783,0.005873,0.002428,0.010223,-9.3e-05,-3.6e-05,0.0,0.010361,-0.507019,0.008826,-1.23237,-264.061381,0.773207,62.888518
3.1981,0.006173,0.002333,0.009473,-9.3e-05,-3.6e-05,0.0,0.010415,-0.507058,0.008929,-1.23237,-264.061381,0.773207,62.888518
3.2183,0.005998,0.002263,0.007962,-9.3e-05,-3.6e-05,0.0,0.011004,-0.507644,0.009473,-1.157253,-264.061381,0.69809,62.888518
3.2382,0.005487,0.002909,0.00843,-9.3e-05,-3.6e-05,0.0,0.010465,-0.507688,0.008612,-1.157253,-264.061381,0.69809,62.888518
3.2582,0.005589,0.002835,0.008413,-9.3e-05,-3.6e-05,0.0,0.010465,-0.507688,0.008612,-1.157253,-264.061381,0.69809,62.888518
3.2781,0.005916,0.002692,0.008836,-1e-06,-0.0,-1e-06,0.009879,-0.507147,0.008413,-1.082362,-264.061381,0.623199,62.888518
3.2991,0.006148,0.00259,0.008965,-0.000838,-0.000325,-0.001472,0.00992,-0.507157,0.008445,-1.082362,-264.061381,0.623199,62.888518
3.3186,0.005835,0.002322,0.007782,-0.00163,-0.000633,-0.002863,0.01072,-0.50739,0.008965,-1.007234,-264.061381,0.548071,62.888518
3.3384,0.005877,0.00291,0.009098,-0.002379,-0.000923,-0.004179,0.010194,-0.507546,0.008287,-1.007234,-264.061381,0.548071,62.888518
3.3586,0.005891,0.002477,0.008554,-0.003088,-0.001199,-0.005424,0.010194,-0.507546,0.008287,-1.007234,-264.061381,0.548071,62.888518
3.3782,0.005816,0.00255,0.007764,-0.003754,-0.001457,-0.006594,0.010253,-0.507504,0.008554,-0.932241,-264.061381,0.473078,62.888518
3.3983,0.005889,0.002487,0.009512,-0.004379,-0.0017,-0.007691,0.010218,-0.507499,0.008496,-0.932241,-264.061381,0.473078,62.888518
3.4183,0.005859,0.002665,0.009668,-0.004957,-0.001924,-0.008708,0.010739,-0.50749,0.009512,-0.857266,-264.061381,0.398103,62.888518
3.4381,0.005759,0.002469,0.009084,-0.005493,-0.002132,-0.009649,0.010768,-0.507388,0.0096,-0.857266,-264.061381,0.398103,62.888518
3.4587,0.00625,0.00266,0.008888,-0.005987,-0.002324,-0.010516,0.010768,-0.507388,0.0096,-0.857266,-264.061381,0.398103,62.888518
3.478,0.006084,0.002467,0.00635,-0.006437,-0.002499,-0.011307,0.010783,-0.50732,0.008888,-0.782202,-264.061381,0.323039,62.888518
3.498,0.005799,0.002763,0.007472,-0.006845,-0.002657,-0.012023,0.010696,-0.507332,0.008737,-0.782202,-264.061381,0.323039,62.888518
3.5184,0.005815,0.002739,0.00823,-0.007211,-0.002799,-0.012666,0.00961,-0.507222,0.007472,-0.707374,-264.061381,0.248211,62.888518
3.5388,0.006042,0.002566,0.008095,-0.007532,-0.002924,-0.01323,0.009841,-0.507235,0.007907,-0.707374,-264.061381,0.248211,62.888518
3.5589,0.005821,0.002837,0.007292,-0.007812,-0.003032,-0.013721,0.009841,-0.507235,0.007907,-0.707374,-264.061381,0.248211,62.888518
3.5782,0.005779,0.002679,0.008801,-0.008047,-0.003124,-0.014136,0.009539,-0.507149,0.007292,-0.632201,-264.061381,0.173038,62.888518
3.5986,0.006356,0.002432,0.010166,-0.00824,-0.003199,-0.014475,0.00959,-0.50716,0.007397,-0.632201,-264.061381,0.173038,62.888518
3.6186,0.006381,0.002639,0.008667,-0.008391,-0.003257,-0.014739,0.011541,-0.507542,0.010166,-0.557363,-264.061381,0.098201,62.888518
3.6383,0.005776,0.002387,0.009609,-0.008498,-0.003299,-0.014928,0.011117,-0.507428,0.009307,-0.557363,-264.061381,0.098201,62.888518
3.6581,0.005856,0.0029,0.008454,-0.008563,-0.003324,-0.015041,0.011117,-0.507428,0.009307,-0.557363,-264.061381,0.098201,62.888518
3.6782,0.005892,0.002601,0.009427,-0.008584,-0.003332,-0.015079,0.010167,-0.507082,0.008454,-0.482245,-264.061381,0.023082,62.888518
3.6982,0.005938,0.002738,0.009232,-0.008563,-0.003324,-0.015041,0.010206,-0.507103,0.008524,-0.482245,-264.061381,0.023082,62.888518
3.7183,0.005996,0.002683,0.008392,-0.008498,-0.003299,-0.014928,0.010646,-0.507241,0.009232,-0.407264,-264.061381,-0.051899,62.888518
3.7381,0.00593,0.002585,0.009091,-0.008392,-0.003258,-0.01474,0.010432,-0.507274,0.008747,-0.407264,-264.061381,-0.051899,62.888518
3.7582,0.005593,0.00251,0.009628,-0.008242,-0.003199,-0.014477,0.010432,-0.507274,0.008747,-0.407264,-264.061381,-0.051899,62.888518
3.7783,0.005919,0.002832,0.008728,-0.008047,-0.003124,-0.014135,0.010503,-0.507466,0.009628,-0.332104,-264.061381,-0.127059,62.888518
3.7985,0.005708,0.00248,0.008304,-0.007813,-0.003033,-0.013723,0.010493,-0.507443,0.009562,-0.332104,-264.061381,-0.127059,62.888518
3.8182,0.005899,0.002831,0.009102,-0.007532,-0.002924,-0.013231,0.009943,-0.507502,0.008304,-0.25728,-264.061381,-0.201883,62.888518
3.8387,0.005569,0.003181,0.009199,-0.007212,-0.0028,-0.012668,0.010283,-0.507301,0.008757,-0.25728,-264.061381,-0.201883,62.888518
3.8584,0.005781,0.002359,0.010045,-0.006847,-0.002658,-0.012027,0.010283,-0.507301,0.008757,-0.25728,-264.061381,-0.201883,62.888518
3.8784,0.005979,0.002613,0.006956,-0.006438,-0.002499,-0.011309,0.010904,-0.507615,0.010045,-0.182355,-264.061381,-0.276808,62.888518
3.8984,0.005956,0.002623,0.010054,-0.005987,-0.002324,-0.010517,0.010805,-0.507598,0.009825,-0.182355,-264.061381,-0.276808,62.888518
3.9182,0.005946,0.00245,0.008031,-0.00548,-0.002127,-0.009626,0.011083,-0.507351,0.010054,-0.107238,-264.061381,-0.351925,62.888518
3.9381,0.005888,0.002344,0.006965,-0.004948,-0.001921,-0.008691,0.010493,-0.507455,0.008908,-0.107238,-264.061381,-0.351925,62.888518
3.9581,0.006215,0.002269,0.009503,-0.004373,-0.001698,-0.007682,0.010493,-0.507455,0.008908,-0.107238,-264.061381,-0.351925,62.888518
3.9785,0.005647,0.002913,0.008111,-0.003753,-0.001457,-0.006592,0.011062,-0.507708,0.009503,-0.032263,-264.061381,-0.4269,62.888518
3.9987,0.005936,0.002292,0.008793,-0.00309,-0.0012,-0.005429,0.010976,-0.507665,0.00941,-0.032263,-264.061381,-0.4269,62.888518
4.0181,0.005869,0.00263,0.008689,-0.002381,-0.000924,-0.004183,0.010421,-0.507688,0.008793,0.042639,-264.061381,-0.501802,62.888518
4.0385,0.005922,0.002635,0.009364,-0.00163,-0.000633,-0.002863,0.010353,-0.507497,0.008734,0.042639,-264.061381,-0.501802,62.888518
4.0585,0.005727,0.00244,0.010447,-0.000838,-0.000325,-0.001472,0.010353,-0.507497,0.008734,0.042639,-264.061381,-0.501802,62.888518
4.0781,0.0057,0.002659,0.008533,-1e-06,-0.0,-1e-06,0.011055,-0.507533,0.010447,0.117642,-264.061381,-0.576804,62.888518
4.0984,0.006069,0.002485,0.008963,0.0,0.0,0.0,0.010989,-0.507519,0.010321,0.117642,-264.061381,-0.576804,62.888518
4.119,0.005891,0.002327,0.008807,0.0,0.0,0.0,0.01064,-0.507494,0.008963,0.192639,-264.061382,-0.60033,62.888518
4.1385,0.005969,0.002846,0.009447,0.0,0.0,0.0,0.010494,-0.507585,0.008874,0.192639,-264.061382,-0.60033,62.888518
4.1581,0.005862,0.002816,0.010234,0.0,0.0,0.0,0.010494,-0.507585,0.008874,0.192639,-264.061382,-0.60033,62.888518
4.1781,0.005841,0.00268,0.008494,0.0,0.0,0.0,0.011081,-0.507157,0.010234,0.192639,-264.061382,-0.60033,62.888518
4.1986,0.006004,0.002354,0.009259,0.0,0.0,0.0,0.011021,-0.507167,0.010119,0.192639,-264.061382,-0.60033,62.888518
4.2186,0.006035,0.002715,0.009103,0.0,0.0,0.0,0.010727,-0.507624,0.009259,0.192639,-264.061382,-0.60033,62.888518
4.2382,0.005845,0.002577,0.009151,0.0,0.0,0.0,0.0107,-0.507425,0.009173,0.192639,-264.061382,-0.60033,62.888518
4.2583,0.00603,0.002492,0.010085,0.0,0.0,0.0,0.0107,-0.507425,0.009173,0.192639,-264.061382,-0.60033,62.888518
4.2783,0.005868,0.002766,0.008183,0.0,0.0,0.0,0.011173,-0.507482,0.010085,0.192639,-264.061382,-0.60033,62.888518
4.2987,0.005713,0.002295,0.008159,0.0,0.0,0.0,0.011078,-0.50746,0.009924,0.192639,-264.061382,-0.60033,62.888518
4.3183,0.006285,0.002669,0.010239,-9.3e-05,-3.7e-05,0.0,0.009873,-0.507688,0.008159,0.192639,-264.061382,-0.60033,62.888518
4.3386,0.005852,0.00257,0.010843,-9.3e-05,-3.7e-05,0.0,0.010798,-0.507471,0.009336,0.192639,-264.061382,-0.60033,62.888518
4.3584,0.005832,0.002613,0.009154,-9.3e-05,-3.7e-05,0.0,0.010798,-0.507471,0.009336,0.192639,-264.061382,-0.60033,62.888518
4.3786,0.005746,0.002593,0.009225,-9.3e-05,-3.7e-05,0.0,0.0105,-0.507366,0.009154,0.192639,-264.061382,-0.60033,62.888518
4.3981,0.006198,0.002321,0.010705,-9.3e-05,-3.7e-05,0.0,0.010496,-0.507367,0.009159,0.192639,-264.061382,-0.60033,62.888518
4.418,0.00593,0.002685,0.008936,-9.3e-05,-3.7e-05,0.0,0.011657,-0.50765,0.010705,0.26792,-264.061382,-0.525049,62.888518
4.4381,0.005984,0.002504,0.0091,-9.3e-05,-3.7e-05,0.0,0.010987,-0.507446,0.009692,0.26792,-264.061382,-0.525049,62.888518
4.4583,0.006502,0.003088,0.009789,-9.3e-05,-3.7e-05,0.0,0.010987,-0.507446,0.009692,0.26792,-264.061382,-0.525049,62.888518
4.4784,0.006004,0.002537,0.009241,-9.3e-05,-3.7e-05,0.0,0.011495,-0.506888,0.009789,0.342762,-264.061382,-0.450207,62.888518
4.4981,0.005907,0.002583,0.008831,-9.3e-05,-3.7e-05,0.0,0.011434,-0.506931,0.009747,0.342762,-264.061382,-0.450207,62.888518
4.5183,0.005597,0.002713,0.008374,-9.3e-05,-3.7e-05,0.0,0.010411,-0.507398,0.008831,0.373794,-264.061382,-0.375079,62.888518
4.5381,0.005678,0.002838,0.008493,-0.00083,-0.000326,-0.001182,0.0101,-0.507324,0.00857,0.373794,-264.061382,-0.375079,62.888518
4.5582,0.005963,0.002979,0.007432,-0.001628,-0.000639,-0.002318,0.0101,-0.507324,0.00857,0.373794,-264.061382,-0.375079,62.888518
4.5781,0.005898,0.002576,0.010373,-0.00238,-0.000934,-0.003388,0.009753,-0.507007,0.007432,0.373794,-264.061382,-0.300233,62.888518
4.5985,0.00582,0.002637,0.008887,-0.003089,-0.001211,-0.004397,0.009857,-0.507035,0.007645,0.373794,-264.061382,-0.300233,62.888518
4.618,0.006095,0.002761,0.009149,-0.003758,-0.001474,-0.005349,0.010352,-0.507343,0.008886,0.448787,-264.061389,-0.375227,62.888513
4.638,0.006014,0.002424,0.009945,-0.004383,-0.001719,-0.00624,0.010586,-0.507271,0.009037,0.448787,-264.061389,-0.375227,62.888513
4.6582,0.005851,0.002468,0.009092,-0.00496,-0.001946,-0.007061,0.010586,-0.507271,0.009037,0.448787,-264.061389,-0.375227,62.888513
4.6782,0.005854,0.002581,0.009135,-0.005499,-0.002157,-0.007828,0.010482,-0.507511,0.009087,0.523806,-264.061451,-0.445249,62.88847
4.6987,0.00612,0.002777,0.010115,-0.005998,-0.002353,-0.008539,0.010484,-0.507503,0.00909,0.523806,-264.061451,-0.445249,62.88847
4.7185,0.006137,0.002719,0.009758,-0.006445,-0.002528,-0.009175,0.011257,-0.507202,0.010093,0.598784,-264.061763,-0.445249,62.888255
4.7388,0.00582,0.002554,0.009401,-0.006853,-0.002688,-0.009756,0.011173,-0.507234,0.0099,0.598784,-264.061763,-0.445249,62.888255
4.7585,0.005968,0.002808,0.011176,-0.007218,-0.002831,-0.010276,0.011173,-0.507234,0.0099,0.598784,-264.061763,-0.445249,62.888255
4.7781,0.005798,0.002375,0.007947,-0.007543,-0.002959,-0.010738,0.011593,-0.507179,0.011096,0.673817,-264.06264,-0.445249,62.887651
4.7983,0.005524,0.002394,0.007884,-0.007822,-0.003068,-0.011135,0.011476,-0.507208,0.010885,0.673817,-264.06264,-0.445249,62.887651
4.8184,0.005661,0.002345,0.007127,-0.008058,-0.003161,-0.011471,0.009412,-0.507629,0.007727,0.74868,-264.064671,-0.445249,62.886254
4.8386,0.005857,0.002577,0.006872,-0.008251,-0.003236,-0.011746,0.009329,-0.507641,0.007365,0.74868,-264.064671,-0.445249,62.886254
4.8582,0.005827,0.002507,0.008374,-0.008402,-0.003296,-0.011961,0.009329,-0.507641,0.007365,0.74868,-264.064671,-0.445249,62.886254
4.8787,0.005814,0.002069,0.008187,-0.00851,-0.003338,-0.012114,0.009823,-0.507569,0.008018,0.823832,-264.068166,-0.445249,62.883848
4.8987,0.005657,0.002127,0.008355,-0.008575,-0.003363,-0.012207,0.009829,-0.507601,0.008021,0.823832,-264.068166,-0.445249,62.883848
4.9182,0.005298,0.002591,0.007472,-0.008597,-0.003372,-0.012238,0.009625,-0.507972,0.007939,0.899219,-264.073054,-0.445249,62.880484
4.9384,0.005588,0.002092,0.008791,-0.008575,-0.003364,-0.012208,0.009295,-0.507659,0.00762,0.899219,-264.073054,-0.445249,62.880484
4.9584,0.005542,0.002374,0.007875,-0.008511,-0.003338,-0.012116,0.009295,-0.507659,0.00762,0.899219,-264.073054,-0.445249,62.880484
4.9781,0.005475,0.002138,0.00755,-0.008404,-0.003296,-0.011964,0.009142,-0.507777,0.007281,0.900586,-264.078578,-0.445249,62.876682
4.9981,0.005716,0.001816,0.007601,-0.008253,-0.003237,-0.011749,0.009144,-0.507786,0.007284,0.900586,-264.078578,-0.445249,62.876682
5.0185,0.00535,0.002039,0.006323,-0.008061,-0.003162,-0.011475,0.009264,-0.5083,0.007133,0.900586,-264.084056,-0.445249,62.872912
5.0387,0.005237,0.001767,0.006719,-0.007824,-0.003069,-0.011139,0.008832,-0.50812,0.006615,0.900586,-264.084056,-0.445249,62.872912
5.0587,0.004904,0.002178,0.007003,-0.007543,-0.002959,-0.010738,0.008832,-0.50812,0.006615,0.900586,-264.084056,-0.445249,62.872912
5.0785,0.005322,0.00211,0.005156,-0.007222,-0.002833,-0.010281,0.008075,-0.50797,0.006431,0.900586,-264.089417,-0.445249,62.869222
5.0987,0.005025,0.001636,0.007007,-0.006859,-0.00269,-0.009764,0.008051,-0.507968,0.0063,0.900586,-264.089417,-0.445249,62.869222
5.1181,0.004868,0.001637,0.005505,-0.006448,-0.002529,-0.009179,0.008312,-0.508466,0.006597,0.900586,-264.094233,-0.445249,62.865908
5.1384,0.005024,0.001904,0.0048,-0.005997,-0.002352,-0.008537,0.007914,-0.508418,0.005925,0.900586,-264.094233,-0.445249,62.865908
5.1587,0.00524,0.00164,0.00614,-0.005503,-0.002159,-0.007834,0.007914,-0.508418,0.005925,0.900586,-264.094233,-0.445249,62.865908
5.1786,0.004992,0.00154,0.004035,-0.004958,-0.001945,-0.007059,0.008038,-0.508484,0.005663,0.900586,-264.098669,-0.445249,62.862854
5.1987,0.004996,0.001726,0.004658,-0.004388,-0.001721,-0.006247,0.007956,-0.508486,0.005531,0.900586,-264.098669,-0.445249,62.862854
5.2185,0.005122,0.001567,0.004073,-0.003765,-0.001477,-0.005359,0.00716,-0.508352,0.004357,0.900586,-264.102197,-0.445249,62.860426
5.2385,0.004591,0.001399,0.004724,-0.003098,-0.001215,-0.00441,0.007156,-0.508406,0.004157,0.900586,-264.102197,-0.445249,62.860426
5.2585,0.004993,0.001138,0.005142,-0.002385,-0.000935,-0.003395,0.007156,-0.508406,0.004157,0.900586,-264.102197,-0.445249,62.860426
5.2784,0.004882,0.001294,0.004457,-0.001638,-0.000642,-0.002332,0.007402,-0.50894,0.004838,0.900586,-264.105024,-0.445249,62.858481
5.2989,0.00488,0.001197,0.002285,-0.000844,-0.000331,-0.001201,0.007381,-0.508927,0.004806,0.900586,-264.105024,-0.445249,62.858481
5.3185,0.004867,0.001198,0.002918,-4e-06,-2e-06,-6e-06,0.005953,-0.508838,0.002154,0.900586,-264.106559,-0.445249,62.857424
5.3381,0.004605,0.00122,0.003839,0.0,0.0,0.0,0.00617,-0.508821,0.002571,0.900586,-264.106559,-0.445249,62.857424
5.3582,0.004798,0.001355,0.004356,0.0,0.0,0.0,0.00617,-0.508821,0.002571,0.900586,-264.106559,-0.445249,62.857424
5.3785,0.004762,0.001506,0.005072,0.0,0.0,0.0,0.006979,-0.508656,0.004298,0.900586,-264.107103,-0.445249,62.85705
5.3997,0.004931,0.001038,0.004655,0.0,0.0,0.0,0.007003,-0.508645,0.004349,0.900586,-264.107103,-0.445249,62.85705
5.4188,0.0049,0.001106,0.003828,0.0,0.0,0.0,0.007304,-0.508957,0.004655,0.900586,-264.107103,-0.445249,62.85705
5.4386,0.004733,0.001326,0.00248,0.0,0.0,0.0,0.007059,-0.508921,0.004206,0.900586,-264.107103,-0.445249,62.85705
5.4587,0.004876,0.00119,0.003337,0.0,0.0,0.0,0.007059,-0.508921,0.004206,0.900586,-264.107103,-0.445249,62.85705
5.4785,0.004914,0.001239,0.004965,0.0,0.0,0.0,0.006578,-0.508807,0.003337,0.900586,-264.107103,-0.445249,62.85705
5.4983,0.004531,0.001202,0.002712,0.0,0.0,0.0,0.006631,-0.508804,0.003436,0.900586,-264.107103,-0.445249,62.85705
5.5182,0.004703,0.001296,0.005954,0.0,0.0,0.0,0.005914,-0.508796,0.002712,0.900586,-264.107103,-0.445249,62.85705
5.5382,0.004923,0.001467,0.004752,0.0,0.0,0.0,0.006951,-0.508738,0.004554,0.900586,-264.107103,-0.445249,62.85705
5.5584,0.004741,0.001101,0.004863,-9.6e-05,-2.8e-05,0.0,0.006951,-0.508738,0.004554,0.900586,-264.107103,-0.445249,62.85705
5.5784,0.00496,0.001413,0.003461,-9.6e-05,-2.8e-05,0.0,0.007221,-0.508893,0.004863,0.900586,-264.107103,-0.445249,62.85705
5.5991,0.00472,0.001078,0.003356,-9.6e-05,-2.8e-05,0.0,0.007188,-0.508872,0.004768,0.900586,-264.107103,-0.445249,62.85705
5.6189,0.005147,0.00113,0.00464,-9.6e-05,-2.8e-05,0.0,0.006432,-0.508919,0.003356,0.825579,-264.107103,-0.370242,62.85705
5.6388,0.004923,0.001062,0.004793,-9.6e-05,-2.8e-05,0.0,0.007013,-0.50889,0.004046,0.825579,-264.107103,-0.370242,62.85705
5.6587,0.004659,0.001323,0.004462,-9.6e-05,-2.8e-05,0.0,0.007013,-0.50889,0.004046,0.825579,-264.107103,-0.370242,62.85705
5.6786,0.004881,0.001168,0.006592,-9.6e-05,-2.8e-05,0.0,0.006935,-0.508672,0.004462,0.750555,-264.107103,-0.295219,62.85705
5.6981,0.004778,0.001391,0.004173,-9.6e-05,-2.8e-05,0.0,0.007017,-0.508681,0.004596,0.750555,-264.107103,-0.295219,62.85705
5.7182,0.004974,0.001203,0.003461,-9.6e-05,-2.8e-05,0.0,0.006907,-0.508605,0.004173,0.675587,-264.107103,-0.22025,62.85705
5.7381,0.004906,0.001376,0.004556,-9.6e-05,-2.8e-05,0.0,0.006811,-0.508712,0.003769,0.675587,-264.107103,-0.22025,62.85705
5.7584,0.004707,0.001211,0.00484,-9.6e-05,-2.8e-05,0.0,0.006811,-0.508712,0.003769,0.675587,-264.107103,-0.22025,62.85705
5.7782,0.005045,0.00129,0.004377,-0.000721,-0.000211,-0.000695,0.007175,-0.508783,0.00484,0.600578,-264.107103,-0.145241,62.85705
5.7984,0.00479,0.001261,0.002809,-0.001405,-0.000411,-0.001354,0.007182,-0.508777,0.004808,0.600578,-264.107103,-0.145241,62.85705
5.8182,0.004644,0.001416,0.003715,-0.002063,-0.000604,-0.001989,0.006223,-0.508737,0.002809,0.525557,-264.107103,-0.07022,62.85705
5.8382,0.004929,0.001078,0.003975,-0.002661,-0.000779,-0.002565,0.006402,-0.508648,0.003324,0.525557,-264.107103,-0.07022,62.85705
5.858,0.005067,0.001294,0.002447,-0.003234,-0.000947,-0.003117,0.006402,-0.508648,0.003324,0.525557,-264.107103,-0.07022,62.85705
5.8787,0.005005,0.001056,0.00408,-0.003771,-0.001105,-0.003634,0.006297,-0.508709,0.002434,0.600539,-264.10729,-0.145202,62.856903
5.8984,0.004954,0.001093,0.005424,-0.00427,-0.001251,-0.004116,0.00635,-0.508725,0.002546,0.600539,-264.10729,-0.145202,62.856903
5.9181,0.005018,0.001658,0.003936,-0.004742,-0.001389,-0.00457,0.007647,-0.508921,0.005362,0.675517,-264.108274,-0.22018,62.856134
5.9381,0.004743,0.001208,0.002285,-0.00516,-0.001511,-0.004973,0.00728,-0.508589,0.004535,0.675517,-264.108274,-0.22018,62.856134
5.9582,0.004899,0.001022,0.003833,-0.005545,-0.001624,-0.005345,0.00728,-0.508589,0.004535,0.675517,-264.108274,-0.22018,62.856134
5.9784,0.004871,0.001116,0.002372,-0.005897,-0.001727,-0.005683,0.006668,-0.50903,0.003654,0.722535,-264.110312,-0.287534,62.854539
5.9987,0.00496,0.001119,0.002989,-0.006211,-0.001819,-0.005986,0.006623,-0.509021,0.003561,0.722535,-264.110312,-0.287534,62.854539
6.0188,0.004573,0.000935,0.00265,-0.006489,-0.001901,-0.006254,0.00627,-0.508942,0.002782,0.722535,-264.113273,-0.287534,62.852223
6.0385,0.004615,0.001022,0.003071,-0.00673,-0.001971,-0.006486,0.006048,-0.509018,0.002682,0.722535,-264.113273,-0.287534,62.852223
6.0583,0.004862,0.000966,0.003381,-0.006933,-0.002031,-0.006682,0.006048,-0.509018,0.002682,0.722535,-264.113273,-0.287534,62.852223
6.0787,0.004365,0.001248,0.003572,-0.007099,-0.002079,-0.006842,0.006285,-0.50912,0.00309,0.722535,-264.116597,-0.287534,62.849623
6.0988,0.004441,0.000657,0.00311,-0.007229,-0.002117,-0.006967,0.006268,-0.509093,0.00312,0.722535,-264.116597,-0.287534,62.849623
6.1182,0.004172,0.00066,0.002976,-0.007321,-0.002144,-0.007056,0.005761,-0.509419,0.002853,0.722535,-264.120281,-0.287534,62.846741
6.1383,0.004307,0.001446,0.00322,-0.007376,-0.002161,-0.007109,0.005687,-0.509383,0.00289,0.722535,-264.120281,-0.287534,62.846741
6.1586,0.004547,0.000997,0.002459,-0.007395,-0.002166,-0.007127,0.005687,-0.509383,0.00289,0.722535,-264.120281,-0.287534,62.846741
6.1783,0.003723,0.00055,0.002144,-0.007376,-0.002161,-0.007109,0.00545,-0.509105,0.002121,0.722535,-264.124159,-0.287534,62.843707
6.1981,0.003955,0.000875,0.002375,-0.00732,-0.002144,-0.007055,0.005383,-0.509138,0.002112,0.722535,-264.124159,-0.287534,62.843707
6.218,0.004,0.000746,0.002119,-0.007228,-0.002117,-0.006966,0.004884,-0.509207,0.002103,0.722535,-264.128073,-0.287534,62.840646
6.2381,0.004162,0.00079,0.000965,-0.007098,-0.002079,-0.006841,0.00496,-0.509244,0.002077,0.722535,-264.128073,-0.287534,62.840646
6.258,0.003727,0.000199,0.00086,-0.006933,-0.002031,-0.006682,0.00496,-0.509244,0.002077,0.722535,-264.128073,-0.287534,62.840646
6.2782,0.003639,0.000702,0.001568,-0.00673,-0.001971,-0.006486,0.00381,-0.509905,0.000517,0.722535,-264.131976,-0.287534,62.837593
6.298,0.003807,0.000562,0.002409,-0.00649,-0.001901,-0.006255,0.003843,-0.509866,0.00058,0.722535,-264.131976,-0.287534,62.837593
6.3182,0.003436,0.00026,0.001416,-0.006212,-0.00182,-0.005987,0.004769,-0.509515,0.002151,0.722535,-264.135673,-0.287534,62.834701
6.3386,0.003356,0.000386,0.001908,-0.005895,-0.001727,-0.005682,0.004386,-0.509653,0.001698,0.722535,-264.135673,-0.287534,62.834701
6.3586,0.003551,0.000607,0.00182,-0.005544,-0.001624,-0.005343,0.004386,-0.509653,0.001698,0.722535,-264.135673,-0.287534,62.834701
6.3781,0.002919,0.0002,8.8e-05,-0.005158,-0.001511,-0.004972,0.004163,-0.509485,0.001516,0.722535,-264.139133,-0.287534,62.831994
6.3982,0.003352,0.000637,0.002322,-0.004726,-0.001384,-0.004555,0.004077,-0.509508,0.001415,0.722535,-264.139133,-0.287534,62.831994
6.4186,0.003068,0.000349,-0.000485,-0.004267,-0.00125,-0.004113,0.004322,-0.509425,0.002116,0.722535,-264.142089,-0.287534,62.829682
6.4382,0.003135,0.000403,0.000396,-0.003772,-0.001105,-0.003636,0.003446,-0.509561,0.000618,0.722535,-264.142089,-0.287534,62.829682
6.4582,0.003211,0.000419,0.000537,-0.003237,-0.000948,-0.00312,0.003446,-0.509561,0.000618,0.722535,-264.142089,-0.287534,62.829682
6.4784,0.002987,0.000281,-8.2e-05,-0.002663,-0.00078,-0.002566,0.003255,-0.509649,0.000315,0.722535,-264.144609,-0.287534,62.827711
6.4982,0.00265,0.000303,0.000682,-0.002052,-0.000601,-0.001978,0.003231,-0.509655,0.000286,0.722535,-264.144609,-0.287534,62.827711
