mach0312/omni-docking-bench/src/icros_test_setup/results/kinematic_sample/timeseries/trial_101.csv
t,x,y,yaw,vx,vy,wz,bl_x,bl_y,bl_yaw,front_steering_joint,front_wheel_joint,rear_steering_joint,rear_wheel_joint
0.0,-5.9e-05,0.020504,-0.032692,-0.00841,0.001584,-0.003964,-0.016786,-0.489428,-0.034065,0.099225,-264.46876,-0.44439,61.711201
0.0004,4.8e-05,0.020577,-0.032979,-0.006861,0.001292,-0.003234,-0.016793,-0.489421,-0.034043,0.099225,-264.47214,-0.44439,61.707476
0.0007,-0.000324,0.02076,-0.034743,-0.006452,0.001215,-0.003041,-0.016793,-0.489421,-0.034043,0.099225,-264.475378,-0.44439,61.703907
0.0011,-0.000953,0.020501,-0.034188,-0.006,0.00113,-0.002828,-0.016793,-0.489421,-0.034043,0.099225,-264.478283,-0.44439,61.700706
0.0013,-0.000503,0.020818,-0.032597,-0.005506,0.001037,-0.002595,-0.015894,-0.48908,-0.031592,0.099225,-264.480877,-0.44439,61.697847
0.0016,-0.00058,0.020365,-0.033296,-0.004968,0.000935,-0.002341,-0.016265,-0.489349,-0.032059,0.099225,-264.482874,-0.44439,61.695646
0.0018,-0.00099,0.020788,-0.034414,-0.004387,0.000826,-0.002068,-0.016265,-0.489349,-0.032059,0.099225,-264.484402,-0.44439,61.693961
0.0021,-0.000898,0.020484,-0.034645,-0.003763,0.000709,-0.001774,-0.016265,-0.489349,-0.032059,0.099225,-264.484402,-0.44439,61.693961
0.0023,-0.000816,0.020384,-0.034829,-0.003095,0.000583,-0.001459,-0.017539,-0.489468,-0.034248,0.099225,-264.484402,-0.44439,61.693961
0.0025,-0.000905,0.020537,-0.033953,-0.002386,0.000449,-0.001124,-0.017493,-0.489449,-0.034145,0.099225,-264.484402,-0.44439,61.693961
0.0167,-0.000953,0.020602,-0.033154,0.001602,-0.015693,0.029232,-0.018399,-0.489129,-0.034039,0.099225,-264.484402,-0.44439,61.693961
0.0364,-0.001218,0.020656,-0.034685,0.001635,-0.020559,0.033154,-0.018355,-0.489126,-0.033959,0.099225,-264.484402,-0.44439,61.693961
0.0565,-0.001316,0.020428,-0.033563,0.001933,-0.020602,0.034685,-0.018965,-0.489023,-0.034714,0.099225,-264.485051,-0.44439,61.693246
0.0763,-0.001278,0.020565,-0.034086,0.002,-0.020372,0.033563,-0.018667,-0.489171,-0.034061,0.099225,-264.485051,-0.44439,61.693246
0.0969,-0.001327,0.020581,-0.033018,0.001978,-0.020509,0.034086,-0.018667,-0.489171,-0.034061,0.099225,-264.485051,-0.44439,61.693246
0.1168,-0.001362,0.02087,-0.034535,0.002006,-0.020526,0.033018,-0.018163,-0.489141,-0.033018,0.024907,-264.485051,-0.518709,61.693247
0.137,-0.00097,0.020629,-0.033037,0.002081,-0.020811,0.034535,-0.018217,-0.48912,-0.033119,0.024907,-264.485051,-0.518709,61.693247
0.1561,-0.001454,0.020394,-0.031945,0.001651,-0.020585,0.033037,-0.017815,-0.489093,-0.033037,0.099826,-264.485051,-0.593628,61.693248
0.1763,-0.001263,0.020612,-0.037898,0.002105,-0.020337,0.031945,-0.017774,-0.489237,-0.032415,0.099826,-264.485051,-0.593628,61.693248
0.1965,-0.001145,0.02063,-0.03436,0.002044,-0.02055,0.037898,-0.017774,-0.489237,-0.032415,0.099826,-264.485051,-0.593628,61.693248
0.2162,-0.001031,0.020993,-0.032785,0.001853,-0.020579,0.03436,-0.018665,-0.489069,-0.03436,0.13421,-264.485051,-0.668892,61.69325
0.2364,-0.001706,0.02074,-0.033343,0.001719,-0.020948,0.032785,-0.018601,-0.489045,-0.034249,0.13421,-264.485051,-0.668892,61.69325
0.2561,-0.00096,0.021066,-0.035299,0.002397,-0.020671,0.033343,-0.018708,-0.488977,-0.033343,0.208911,-264.485051,-0.743592,61.69325
0.2761,-0.000811,0.020731,-0.034907,0.001703,-0.021019,0.035299,-0.018852,-0.48877,-0.034465,0.208911,-264.485051,-0.743592,61.69325
0.296,-0.000595,0.020651,-0.03608,0.001534,-0.02069,0.034907,-0.018852,-0.48877,-0.034465,0.208911,-264.485051,-0.743592,61.69325
0.3162,-0.000789,0.020674,-0.033647,0.00134,-0.020616,0.03608,-0.018992,-0.489017,-0.03608,0.133765,-264.485051,-0.818738,61.69325
0.3368,-0.001307,0.020882,-0.033514,0.001484,-0.020636,0.033647,-0.018919,-0.489019,-0.03591,0.133765,-264.485051,-0.818738,61.69325
0.3565,-0.001083,0.02048,-0.034208,0.002006,-0.020826,0.033514,-0.018396,-0.488832,-0.033514,0.208616,-264.485051,-0.893588,61.693251
0.3762,-0.00087,0.020915,-0.034051,0.001783,-0.020431,0.034208,-0.01847,-0.489056,-0.033913,0.208616,-264.485051,-0.893588,61.693251
0.3962,-0.001308,0.020915,-0.033701,0.001582,-0.020874,0.034051,-0.01847,-0.489056,-0.033913,0.208616,-264.485051,-0.893588,61.693251
0.4163,-0.001419,0.020598,-0.034765,0.002012,-0.020859,0.033701,-0.018492,-0.488795,-0.0337,0.133426,-264.485051,-0.968777,61.693256
0.4366,-0.000974,0.020754,-0.033747,0.002134,-0.020536,0.034765,-0.018538,-0.488816,-0.033774,0.133426,-264.485051,-0.968777,61.693256
0.4564,-0.001127,0.021101,-0.031836,0.001673,-0.02071,0.033747,-0.01818,-0.488957,-0.033744,0.058614,-264.485049,-1.04359,61.693301
0.4763,-0.001168,0.020491,-0.035345,0.001798,-0.021055,0.031836,-0.017714,-0.488777,-0.032659,0.058614,-264.485049,-1.04359,61.693301
0.497,-0.001303,0.020883,-0.034172,0.001892,-0.020437,0.035345,-0.017714,-0.488777,-0.032659,0.058614,-264.485049,-1.04359,61.693301
0.5162,-0.001162,0.020795,-0.03497,0.002015,-0.020826,0.034172,-0.018724,-0.488826,-0.034161,0.133617,-264.485042,-1.118593,61.693434
0.5366,-0.000788,0.020583,-0.035651,0.001888,-0.020741,0.03497,-0.01874,-0.488831,-0.034211,0.133617,-264.485042,-1.118593,61.693434
0.5561,-0.001163,0.020508,-0.034862,0.001521,-0.020542,0.035651,-0.018965,-0.489096,-0.035646,0.208618,-264.485038,-1.193594,61.6935
0.5763,-0.001032,0.0206,-0.036015,0.001877,-0.020455,0.034862,-0.01895,-0.489146,-0.035197,0.208618,-264.485038,-1.193594,61.6935
0.5962,-0.00146,0.020906,-0.033474,0.001773,-0.02055,0.036015,-0.01895,-0.489146,-0.035197,0.208618,-264.485038,-1.193594,61.6935
0.6164,-0.001101,0.020816,-0.034407,0.002158,-0.020846,0.033474,-0.018485,-0.488942,-0.033252,0.28367,-264.484929,-1.268646,61.695817
0.637,-0.001094,0.020424,-0.034554,0.001817,-0.020765,0.034407,-0.018495,-0.488941,-0.033328,0.28367,-264.484929,-1.268646,61.695817
0.6562,-0.001331,0.020493,-0.032835,0.001799,-0.020374,0.034554,-0.018709,-0.48929,-0.034522,0.358682,-264.484907,-1.343658,61.696221
0.6766,-0.001219,0.020692,-0.033321,0.002003,-0.020438,0.032835,-0.01835,-0.48926,-0.033566,0.358682,-264.484907,-1.343658,61.696221
0.6967,-0.001295,0.020399,-0.035489,0.001908,-0.020639,0.033321,-0.01835,-0.48926,-0.033566,0.358682,-264.484907,-1.343658,61.696221
0.7164,-0.001142,0.019789,-0.03317,0.002018,-0.02034,0.035489,-0.019359,-0.489452,-0.035198,0.283617,-264.484716,-1.418724,61.699135
0.7365,-0.001148,0.02044,-0.031413,0.001798,-0.01974,0.03317,-0.019264,-0.489492,-0.035043,0.283617,-264.484716,-1.418724,61.699135
0.7561,-0.001255,0.020231,-0.033321,0.001789,-0.020394,0.031413,-0.017163,-0.489337,-0.031365,0.208447,-264.484687,-1.493893,61.699746
0.7765,-0.00114,0.020423,-0.033033,0.001928,-0.020178,0.033321,-0.017776,-0.489426,-0.032467,0.208447,-264.484687,-1.493893,61.699746
0.7963,-0.001195,0.020451,-0.032613,0.001814,-0.020374,0.033033,-0.017776,-0.489426,-0.032467,0.208447,-264.484687,-1.493893,61.699746
0.8164,-0.001971,0.020176,-0.033504,0.001861,-0.020401,0.032613,-0.017783,-0.489457,-0.032285,0.280597,-264.484009,-1.525872,61.702854
0.8362,-0.001259,0.019937,-0.032769,0.002646,-0.020099,0.033504,-0.01787,-0.489467,-0.032362,0.280597,-264.484009,-1.525872,61.702854
0.8563,-0.001817,0.019869,-0.031778,0.001912,-0.019885,0.032769,-0.017965,-0.489853,-0.032663,0.205494,-264.483949,-1.526101,61.704189
0.8762,-0.001701,0.019666,-0.032308,0.002447,-0.019801,0.031778,-0.017996,-0.489873,-0.032146,0.205494,-264.483949,-1.526101,61.704189
0.8962,-0.001443,0.020087,-0.034357,0.002335,-0.019601,0.032308,-0.017996,-0.489873,-0.032146,0.205494,-264.483949,-1.526101,61.704189
0.9168,-0.001576,0.020251,-0.03492,0.002132,-0.020026,0.034357,-0.018895,-0.489839,-0.033963,0.136721,-264.482965,-1.505659,61.708023
0.9362,-0.001475,0.019921,-0.033429,0.002282,-0.020183,0.03492,-0.018925,-0.489818,-0.034017,0.136721,-264.482965,-1.505659,61.708023
0.9568,-0.001605,0.01937,-0.030601,0.00214,-0.01986,0.033429,-0.018472,-0.490099,-0.032926,0.061735,-264.482121,-1.511489,61.714364
0.9762,-0.001798,0.019614,-0.033102,0.002197,-0.019311,0.030601,-0.017741,-0.490305,-0.031528,0.061735,-264.482121,-1.511489,61.714364
0.9962,-0.001641,0.01924,-0.031678,0.002446,-0.019544,0.033102,-0.017741,-0.490305,-0.031528,0.061735,-264.482121,-1.511489,61.714364
1.0164,-0.002349,0.019481,-0.032012,0.002249,-0.019178,0.031678,-0.017788,-0.490574,-0.031563,0.136856,-264.48205,-1.515867,61.715514
1.0366,-0.00203,0.01933,-0.032006,0.002972,-0.019396,0.032012,-0.017853,-0.490553,-0.031593,0.136856,-264.48205,-1.515867,61.715514
1.0564,-0.002202,0.018756,-0.0323,0.002648,-0.019255,0.032006,-0.018309,-0.490578,-0.031706,0.211828,-264.481283,-1.509353,61.719163
1.0764,-0.002075,0.01886,-0.033742,0.002806,-0.018675,0.0323,-0.018511,-0.490829,-0.032008,0.211828,-264.481283,-1.509353,61.719163
1.0966,-0.002157,0.018693,-0.032883,0.00271,-0.018779,0.033742,-0.018511,-0.490829,-0.032008,0.211828,-264.481283,-1.509353,61.719163
1.1166,-0.002492,0.018928,-0.030226,0.002771,-0.018612,0.032883,-0.018861,-0.491399,-0.032263,0.136804,-264.480496,-1.494641,61.725302
1.1365,-0.002279,0.018804,-0.031886,0.003063,-0.018844,0.030226,-0.018792,-0.49137,-0.032105,0.136804,-264.480496,-1.494641,61.725302
1.1562,-0.002252,0.018705,-0.031689,0.002878,-0.018722,0.031886,-0.018536,-0.49096,-0.031846,0.211679,-264.480455,-1.502089,61.725799
1.1762,-0.002555,0.018419,-0.030404,0.002843,-0.018624,0.031689,-0.018464,-0.491008,-0.031751,0.211679,-264.480455,-1.502089,61.725799
1.1963,-0.00242,0.019043,-0.028912,0.003113,-0.018333,0.030404,-0.018464,-0.491008,-0.031751,0.211679,-264.480455,-1.502089,61.725799
1.2163,-0.002293,0.018921,-0.029725,0.00297,-0.018965,0.028912,-0.017144,-0.490886,-0.028675,0.136577,-264.480261,-1.488878,61.728153
1.2367,-0.002382,0.018594,-0.03013,0.002855,-0.018844,0.029725,-0.017164,-0.490887,-0.02874,0.136577,-264.480261,-1.488878,61.728153
1.2568,-0.002433,0.018228,-0.030165,0.002941,-0.018514,0.03013,-0.017676,-0.491405,-0.029741,0.075721,-264.479084,-1.486626,61.733007
1.2763,-0.002884,0.018201,-0.030143,0.002982,-0.018146,0.030165,-0.017746,-0.491511,-0.029932,0.075721,-264.479084,-1.486626,61.733007
1.2967,-0.002893,0.01848,-0.030605,0.003431,-0.018105,0.030143,-0.017746,-0.491511,-0.029932,0.075721,-264.479084,-1.486626,61.733007
1.3164,-0.003024,0.017996,-0.02999,0.003457,-0.018383,0.030605,-0.018477,-0.491465,-0.030306,0.000726,-264.478845,-1.493793,61.736024
1.3367,-0.00288,0.017814,-0.028492,0.003562,-0.017897,0.02999,-0.018465,-0.49149,-0.030277,0.000726,-264.478845,-1.493793,61.736024
1.3561,-0.003357,0.017982,-0.028744,0.003387,-0.017725,0.028492,-0.017333,-0.492242,-0.028051,0.075718,-264.477631,-1.477117,61.741551
1.3761,-0.003415,0.018014,-0.029491,0.003873,-0.017878,0.028744,-0.017715,-0.492026,-0.028393,0.075718,-264.477631,-1.477117,61.741551
1.3963,-0.003182,0.017969,-0.028955,0.003945,-0.017906,0.029491,-0.017715,-0.492026,-0.028393,0.075718,-264.477631,-1.477117,61.741551
1.4167,-0.003347,0.017247,-0.026831,0.0037,-0.017869,0.028955,-0.017828,-0.492296,-0.028145,0.1171,-264.476236,-1.472752,61.749571
1.4368,-0.003256,0.017418,-0.028502,0.003808,-0.017151,0.026831,-0.017769,-0.492328,-0.028031,0.1171,-264.476236,-1.472752,61.749571
1.4563,-0.003671,0.016457,-0.028837,0.003751,-0.017318,0.028502,-0.017681,-0.492884,-0.027664,0.042115,-264.474855,-1.461395,61.76008
1.4762,-0.003917,0.016566,-0.029409,0.004144,-0.016344,0.028837,-0.018057,-0.493198,-0.028218,0.042115,-264.474855,-1.461395,61.76008
1.4963,-0.003752,0.016811,-0.027976,0.004402,-0.016444,0.029409,-0.018057,-0.493198,-0.028218,0.042115,-264.474855,-1.461395,61.76008
1.5162,-0.003805,0.016704,-0.025129,0.00422,-0.016699,0.027976,-0.017953,-0.493314,-0.027453,-0.032783,-264.474244,-1.45773,61.765392
1.5368,-0.003956,0.016595,-0.026894,0.004223,-0.016603,0.025129,-0.017858,-0.49331,-0.027277,-0.032783,-264.474244,-1.45773,61.765392
1.5562,-0.004172,0.015897,-0.027898,0.0044,-0.016482,0.026894,-0.017652,-0.493296,-0.02677,0.042204,-264.474033,-1.443545,61.766958
1.5761,-0.00425,0.016041,-0.025852,0.004614,-0.015775,0.027898,-0.018076,-0.493653,-0.027399,0.042204,-264.474033,-1.443545,61.766958
1.5966,-0.004155,0.016361,-0.027294,0.004664,-0.015926,0.025852,-0.018076,-0.493653,-0.027399,0.042204,-264.474033,-1.443545,61.766958
1.6162,-0.004142,0.015972,-0.025046,0.0046,-0.016241,0.027294,-0.018042,-0.49358,-0.027082,-0.032886,-264.473739,-1.439378,61.769112
1.637,-0.004242,0.016302,-0.026362,0.00454,-0.015863,0.025046,-0.017963,-0.493604,-0.026935,-0.032886,-264.473739,-1.439378,61.769112
1.6562,-0.004118,0.015975,-0.025644,0.00467,-0.016184,0.026362,-0.017567,-0.493752,-0.025997,-0.02925,-264.471879,-1.424798,61.773765
1.6761,-0.004032,0.016016,-0.026084,0.004526,-0.015865,0.025644,-0.017345,-0.493839,-0.025756,-0.02925,-264.471879,-1.424798,61.773765
1.6962,-0.0043,0.015549,-0.024177,0.004448,-0.015906,0.026084,-0.017345,-0.493839,-0.025756,-0.02925,-264.471879,-1.424798,61.773765
1.7164,-0.004514,0.015578,-0.026787,0.004675,-0.015441,0.024177,-0.016481,-0.494745,-0.023489,-0.10424,-264.470295,-1.426102,61.780918
1.7368,-0.004286,0.015673,-0.025604,0.00493,-0.015451,0.026787,-0.016595,-0.494722,-0.023699,-0.10424,-264.470295,-1.426102,61.780918
1.7561,-0.005057,0.014747,-0.024237,0.004686,-0.015558,0.025604,-0.017219,-0.494627,-0.024851,-0.029234,-264.468831,-1.431975,61.790571
1.7762,-0.005061,0.014693,-0.0238,0.005413,-0.01462,0.024237,-0.017316,-0.494957,-0.024406,-0.029234,-264.468831,-1.431975,61.790571
1.7961,-0.004563,0.015102,-0.022826,0.005409,-0.014569,0.0238,-0.017316,-0.494957,-0.024406,-0.029234,-264.468831,-1.431975,61.790571
1.8164,-0.005161,0.014774,-0.022632,0.004907,-0.014993,0.022826,-0.016095,-0.49514,-0.022209,0.045769,-264.46786,-1.417042,61.796804
1.8366,-0.004951,0.014716,-0.024556,0.005494,-0.014653,0.022632,-0.016134,-0.495147,-0.022221,0.045769,-264.46786,-1.417042,61.796804
1.8566,-0.005122,0.013729,-0.021681,0.005311,-0.01459,0.024556,-0.017307,-0.49555,-0.023878,-0.006076,-264.465815,-1.387032,61.805547
1.8766,-0.004669,0.01414,-0.02049,0.005418,-0.013614,0.021681,-0.01664,-0.495947,-0.022534,-0.006076,-264.465815,-1.387032,61.805547
1.8965,-0.004973,0.013816,-0.022701,0.004958,-0.014041,0.02049,-0.01664,-0.495947,-0.022534,-0.006076,-264.465815,-1.387032,61.805547
1.9163,-0.005182,0.013406,-0.021488,0.005285,-0.0137,0.022701,-0.016369,-0.496559,-0.021903,-0.08118,-264.464215,-1.380204,61.813898
1.9366,-0.005398,0.013505,-0.021987,0.005469,-0.013292,0.021488,-0.016344,-0.496568,-0.021842,-0.08118,-264.464215,-1.380204,61.813898
1.9563,-0.005504,0.013177,-0.02225,0.005693,-0.013383,0.021987,-0.016525,-0.496618,-0.021611,-0.156545,-264.463253,-1.386229,61.818904
1.9768,-0.005735,0.013092,-0.021865,0.005796,-0.013051,0.02225,-0.0167,-0.496694,-0.021927,-0.156545,-264.463253,-1.386229,61.818904
1.9964,-0.005371,0.013046,-0.021151,0.00602,-0.012964,0.021865,-0.0167,-0.496694,-0.021927,-0.156545,-264.463253,-1.386229,61.818904
2.0162,-0.005721,0.012411,-0.019544,0.005646,-0.012929,0.021151,-0.015972,-0.497299,-0.020433,-0.081907,-264.461569,-1.36664,61.826412
2.0365,-0.005352,0.012945,-0.020395,0.005962,-0.012296,0.019544,-0.015948,-0.497325,-0.020352,-0.081907,-264.461569,-1.36664,61.826412
2.0563,-0.006146,0.01229,-0.020697,0.005615,-0.012833,0.020395,-0.015596,-0.49731,-0.019811,-0.007027,-264.459872,-1.34592,61.834003
2.0763,-0.00588,0.012192,-0.018347,0.006399,-0.01216,0.020697,-0.016206,-0.497521,-0.020242,-0.007027,-264.459872,-1.34592,61.834003
2.0962,-0.005645,0.012029,-0.018088,0.006102,-0.012082,0.018347,-0.016206,-0.497521,-0.020242,-0.007027,-264.459872,-1.34592,61.834003
2.1163,-0.0058,0.011572,-0.019757,0.005862,-0.011925,0.018088,-0.014603,-0.498461,-0.017183,-0.060322,-264.457599,-1.329546,61.843501
2.1367,-0.006254,0.011415,-0.018394,0.006027,-0.011455,0.019757,-0.014682,-0.498467,-0.017332,-0.060322,-264.457599,-1.329546,61.843501
2.1561,-0.00623,0.011052,-0.017947,0.006463,-0.011298,0.018394,-0.015432,-0.498919,-0.017759,-0.135317,-264.455387,-1.314519,61.85214
2.1766,-0.006286,0.011167,-0.016677,0.006428,-0.010939,0.017947,-0.015378,-0.498941,-0.017788,-0.135317,-264.455387,-1.314519,61.85214
2.197,-0.006222,0.011353,-0.018008,0.006471,-0.011061,0.016677,-0.015378,-0.498941,-0.017788,-0.135317,-264.455387,-1.314519,61.85214
2.2164,-0.006442,0.011044,-0.017162,0.006426,-0.011239,0.018008,-0.015291,-0.498802,-0.017635,-0.060006,-264.454406,-1.31996,61.856072
2.2361,-0.006257,0.011039,-0.017483,0.006631,-0.010932,0.017162,-0.015282,-0.498814,-0.017593,-0.060006,-264.454406,-1.31996,61.856072
2.2564,-0.006469,0.00984,-0.017677,0.006449,-0.010928,0.017483,-0.014979,-0.499197,-0.017024,-0.134391,-264.452096,-1.275132,61.86249
2.2763,-0.006321,0.010524,-0.017292,0.006642,-0.009724,0.017677,-0.015244,-0.499743,-0.01734,-0.134391,-264.452096,-1.275132,61.86249
2.2962,-0.00656,0.010442,-0.016361,0.006502,-0.010414,0.017292,-0.015244,-0.499743,-0.01734,-0.134391,-264.452096,-1.275132,61.86249
2.3162,-0.006427,0.009921,-0.016546,0.00673,-0.010334,0.016361,-0.014612,-0.499988,-0.015585,-0.067832,-264.449624,-1.270509,61.870829
2.3365,-0.006102,0.009999,-0.01724,0.006591,-0.009813,0.016546,-0.014622,-0.500003,-0.015632,-0.067832,-264.449624,-1.270509,61.870829
2.3562,-0.00666,0.009393,-0.014926,0.006273,-0.009892,0.01724,-0.014679,-0.500284,-0.016657,0.007056,-264.447339,-1.27019,61.878544
2.3764,-0.006284,0.00956,-0.016191,0.0068,-0.009293,0.014926,-0.014419,-0.500482,-0.01559,0.007056,-264.447339,-1.27019,61.878544
2.3965,-0.006703,0.009032,-0.015798,0.006438,-0.009457,0.016191,-0.014419,-0.500482,-0.01559,0.007056,-264.447339,-1.27019,61.878544
2.4161,-0.006634,0.008579,-0.012684,0.006845,-0.008925,0.015798,-0.014455,-0.501374,-0.015015,0.044271,-264.444777,-1.251256,61.886691
2.4361,-0.006697,0.00915,-0.014899,0.006743,-0.008494,0.012684,-0.014363,-0.501385,-0.014849,0.044271,-264.444777,-1.251256,61.886691
2.4563,-0.00633,0.008319,-0.013258,0.006833,-0.009049,0.014899,-0.014054,-0.501159,-0.014279,0.066911,-264.442214,-1.249545,61.89479
2.4762,-0.007042,0.008626,-0.014448,0.00644,-0.008235,0.013258,-0.013472,-0.501478,-0.013616,0.066911,-264.442214,-1.249545,61.89479
2.4963,-0.007035,0.008287,-0.01587,0.007166,-0.008523,0.014448,-0.013472,-0.501478,-0.013616,0.066911,-264.442214,-1.249545,61.89479
2.5163,-0.007329,0.008078,-0.01423,0.007166,-0.008174,0.01587,-0.01495,-0.501871,-0.015512,-0.008197,-264.440711,-1.177289,61.898687
2.5365,-0.00721,0.008668,-0.0122,0.007443,-0.007972,0.01423,-0.014922,-0.501877,-0.015421,-0.008197,-264.440711,-1.177289,61.898687
2.5561,-0.006915,0.007856,-0.014137,0.007315,-0.00858,0.0122,-0.013185,-0.501576,-0.011724,0.042017,-264.437951,-1.179035,61.905094
2.5762,-0.006552,0.007981,-0.012268,0.007026,-0.007757,0.014137,-0.013693,-0.501909,-0.013049,0.042017,-264.437951,-1.179035,61.905094
2.5963,-0.007199,0.00801,-0.01282,0.00665,-0.0079,0.012268,-0.013693,-0.501909,-0.013049,0.042017,-264.437951,-1.179035,61.905094
2.6165,-0.007157,0.008056,-0.012422,0.007301,-0.007917,0.01282,-0.013402,-0.502316,-0.01217,0.096257,-264.435138,-1.150727,61.911959
2.637,-0.006678,0.007874,-0.012738,0.007256,-0.007967,0.012422,-0.013399,-0.502297,-0.01217,0.096257,-264.435138,-1.150727,61.911959
2.6563,-0.006441,0.007047,-0.0115,0.006778,-0.007789,0.012738,-0.013004,-0.502284,-0.012408,0.021395,-264.433352,-1.162994,61.916456
2.6763,-0.00651,0.00674,-0.010921,0.006778,-0.007789,0.012738,-0.012584,-0.502672,-0.011848,0.021395,-264.433352,-1.162994,61.916456
2.6961,-0.006731,0.007437,-0.012456,7e-05,-7.1e-05,0.0,-0.012584,-0.502672,-0.011848,0.021395,-264.433352,-1.162994,61.916456
2.7166,-0.006824,0.006802,-0.011342,7e-05,-7.1e-05,0.0,-0.012769,-0.502877,-0.011911,-0.052288,-264.430725,-1.134282,61.92266
2.7365,-0.006845,0.007036,-0.013025,7e-05,-7.1e-05,0.0,-0.01275,-0.502906,-0.011856,-0.052288,-264.430725,-1.134282,61.92266
2.7564,-0.006797,0.006895,-0.010458,7e-05,-7.1e-05,0.0,-0.013487,-0.502921,-0.013025,-0.127181,-264.430725,-1.059389,61.92266
2.7762,-0.006371,0.006761,-0.011546,7e-05,-7.1e-05,0.0,-0.01271,-0.50301,-0.011554,-0.127181,-264.430725,-1.059389,61.92266
2.7962,-0.006605,0.006999,-0.013536,7e-05,-7.1e-05,0.0,-0.01271,-0.50301,-0.011554,-0.127181,-264.430725,-1.059389,61.92266
2.8161,-0.00639,0.006626,-0.012194,7e-05,-7.1e-05,0.0,-0.013508,-0.502955,-0.013536,-0.20232,-264.430725,-0.98425,61.92266
2.8366,-0.006741,0.007178,-0.011788,7e-05,-7.1e-05,0.0,-0.013445,-0.502981,-0.013442,-0.20232,-264.430725,-0.98425,61.92266
2.8564,-0.006542,0.006588,-0.011296,7e-05,-7.1e-05,0.0,-0.012753,-0.502787,-0.011788,-0.27719,-264.430725,-0.90938,61.92266
2.8765,-0.006796,0.006831,-0.013024,7e-05,-7.1e-05,0.0,-0.012494,-0.503127,-0.011505,-0.27719,-264.430725,-0.90938,61.92266
2.8963,-0.006556,0.007314,-0.011812,0.0,-0.0,0.0,-0.012494,-0.503127,-0.011505,-0.27719,-264.430725,-0.90938,61.92266
2.9166,-0.006553,0.00682,-0.01173,0.000968,-0.00098,0.001606,-0.01258,-0.502651,-0.011812,-0.352341,-264.430725,-0.834229,61.92266
2.9366,-0.006703,0.006991,-0.011277,0.001877,-0.001901,0.003113,-0.012577,-0.502685,-0.011806,-0.352341,-264.430725,-0.834229,61.92266
2.9563,-0.007143,0.006874,-0.010016,0.002761,-0.002797,0.00458,-0.012454,-0.502977,-0.011277,-0.277362,-264.430725,-0.909208,61.92266
2.9763,-0.006802,0.006982,-0.010613,0.003559,-0.003605,0.005904,-0.012338,-0.503047,-0.010556,-0.277362,-264.430725,-0.909208,61.92266
2.9964,-0.00707,0.006537,-0.010392,0.004335,-0.004391,0.007191,-0.012338,-0.503047,-0.010556,-0.277362,-264.430725,-0.909208,61.92266
3.0166,-0.00696,0.006963,-0.010813,0.005037,-0.005102,0.008356,-0.012355,-0.50345,-0.010374,-0.202399,-264.430614,-0.984171,61.92291
3.0369,-0.006539,0.006743,-0.010879,0.005702,-0.005777,0.00946,-0.012363,-0.50342,-0.010403,-0.202399,-264.430614,-0.984171,61.92291
3.0561,-0.006524,0.00678,-0.010616,0.006324,-0.006406,0.010491,-0.012018,-0.503298,-0.010779,-0.127483,-264.429926,-1.059087,61.924464
3.0761,-0.006419,0.00687,-0.011248,0.00689,-0.00698,0.01143,-0.011964,-0.503246,-0.010673,-0.127483,-264.429926,-1.059087,61.924464
3.0962,-0.006592,0.006577,-0.010862,0.007406,-0.007502,0.012286,-0.011964,-0.503246,-0.010673,-0.127483,-264.429926,-1.059087,61.924464
3.1164,-0.006708,0.006338,-0.011256,0.007877,-0.007979,0.013067,-0.01193,-0.503608,-0.010532,-0.052484,-264.428248,-1.112348,61.928256
3.1366,-0.006623,0.006393,-0.010946,0.008296,-0.008404,0.013762,-0.01196,-0.503615,-0.010573,-0.052484,-264.428248,-1.112348,61.928256
3.1561,-0.006685,0.006151,-0.010417,0.008665,-0.008778,0.014375,-0.011937,-0.503852,-0.010499,0.000141,-264.425414,-1.112348,61.934549
3.1762,-0.006427,0.00612,-0.009577,0.008985,-0.009103,0.014906,-0.011937,-0.503869,-0.010396,0.000141,-264.425414,-1.112348,61.934549
3.1963,-0.006447,0.006498,-0.009139,0.009257,-0.009378,0.015357,-0.011937,-0.503869,-0.010396,0.000141,-264.425414,-1.112348,61.934549
3.2169,-0.006425,0.00565,-0.009458,0.00948,-0.009604,0.015727,-0.010708,-0.503893,-0.00847,0.000141,-264.422097,-1.112348,61.942045
3.2365,-0.00668,0.005804,-0.010283,0.009652,-0.009778,0.016012,-0.010733,-0.503932,-0.008518,0.000141,-264.422097,-1.112348,61.942045
3.2566,-0.006538,0.005138,-0.008816,0.009776,-0.009903,0.016217,-0.01157,-0.504535,-0.00969,0.000141,-264.418389,-1.112348,61.950423
3.2762,-0.006484,0.00548,-0.0097,0.00985,-0.009978,0.01634,-0.011219,-0.504757,-0.009116,0.000141,-264.418389,-1.112348,61.950423
3.2968,-0.006428,0.005547,-0.007532,0.009874,-0.010003,0.016381,-0.011219,-0.504757,-0.009116,0.000141,-264.418389,-1.112348,61.950423
3.3163,-0.006193,0.005242,-0.008295,0.009849,-0.009978,0.01634,-0.009804,-0.504917,-0.006754,0.000141,-264.414516,-1.112348,61.959174
3.3368,-0.005927,0.004529,-0.007062,0.009775,-0.009903,0.016216,-0.00984,-0.504917,-0.006854,0.000141,-264.414516,-1.112348,61.959174
3.3564,-0.005929,0.003998,-0.008109,0.009648,-0.009774,0.016005,-0.009152,-0.505845,-0.006433,0.000141,-264.410584,-1.112348,61.968059
3.3766,-0.006386,0.004145,-0.008576,0.009479,-0.009603,0.015726,-0.009623,-0.505974,-0.007307,0.000141,-264.410584,-1.112348,61.968059
3.3963,-0.006254,0.004364,-0.005178,0.009257,-0.009378,0.015357,-0.009623,-0.505974,-0.007307,0.000141,-264.410584,-1.112348,61.968059
3.4161,-0.006062,0.003885,-0.006138,0.008985,-0.009103,0.014906,-0.00842,-0.506114,-0.004388,0.000141,-264.406674,-1.112348,61.976894
3.4362,-0.00647,0.003789,-0.00707,0.008664,-0.008778,0.014374,-0.008458,-0.506125,-0.00448,0.000141,-264.406674,-1.112348,61.976894
3.4562,-0.006205,0.003258,-0.00673,0.008283,-0.008392,0.013742,-0.00972,-0.506563,-0.006476,0.000141,-264.402971,-1.112348,61.985262
3.4761,-0.006194,0.00338,-0.004783,0.007873,-0.007976,0.013061,-0.009628,-0.506705,-0.006546,0.000141,-264.402971,-1.112348,61.985262
3.4961,-0.006048,0.003437,-0.005972,0.007405,-0.007501,0.012284,-0.009628,-0.506705,-0.006546,0.000141,-264.402971,-1.112348,61.985262
3.5161,-0.006367,0.003068,-0.005942,0.006887,-0.006977,0.011425,-0.008675,-0.506982,-0.005273,0.000141,-264.399505,-1.112348,61.993093
3.5361,-0.006293,0.00282,-0.006081,0.006316,-0.006399,0.010479,-0.008715,-0.50699,-0.005301,0.000141,-264.399505,-1.112348,61.993093
3.5563,-0.006083,0.00237,-0.005851,0.005702,-0.005776,0.009459,-0.00911,-0.507461,-0.005607,0.000141,-264.396543,-1.112348,61.999785
3.5767,-0.006131,0.002558,-0.005606,0.005037,-0.005102,0.008355,-0.00905,-0.507589,-0.005686,0.000141,-264.396543,-1.112348,61.999785
3.5964,-0.006418,0.002401,-0.003518,0.004319,-0.004375,0.007165,-0.00905,-0.507589,-0.005686,0.000141,-264.396543,-1.112348,61.999785
3.6163,-0.005893,0.002605,-0.00314,0.003554,-0.003601,0.005896,-0.007906,-0.507908,-0.003009,0.000141,-264.394017,-1.112348,62.005495
3.6364,-0.005961,0.002417,-0.003788,0.00274,-0.002776,0.004545,-0.007869,-0.50788,-0.003004,0.000141,-264.394017,-1.112348,62.005495
3.6568,-0.005847,0.001833,-0.003838,0.001875,-0.0019,0.003111,-0.007726,-0.507749,-0.003511,0.000141,-264.392286,-1.112348,62.009404
3.6763,-0.006121,0.0021,-0.003782,0.00096,-0.000972,0.001592,-0.00775,-0.508007,-0.003663,0.000141,-264.392286,-1.112348,62.009404
3.6963,-0.006132,0.002488,-0.001946,0.0,0.0,0.0,-0.00775,-0.508007,-0.003663,0.000141,-264.392286,-1.112348,62.009404
3.7163,-0.005794,0.001753,-0.00361,0.0,0.0,0.0,-0.006992,-0.507646,-0.001726,0.000141,-264.391191,-1.112348,62.01188
3.7364,-0.006242,0.00179,-0.002398,0.0,0.0,0.0,-0.007033,-0.507692,-0.001851,0.000141,-264.391191,-1.112348,62.01188
3.7567,-0.006128,0.001963,-0.003534,0.0,0.0,0.0,-0.007465,-0.508208,-0.002398,0.000141,-264.391191,-1.112348,62.01188
3.7772,-0.005993,0.001961,-0.003564,0.0,0.0,0.0,-0.007729,-0.508109,-0.003044,0.000141,-264.391191,-1.112348,62.01188
3.7963,-0.006034,0.001741,-0.002411,0.0,0.0,0.0,-0.007729,-0.508109,-0.003044,0.000141,-264.391191,-1.112348,62.01188
3.8161,-0.005919,0.001781,-0.00242,0.0,0.0,0.0,-0.007264,-0.508258,-0.002411,0.000141,-264.391191,-1.112348,62.01188
3.8367,-0.005997,0.001665,-0.00359,0.0,0.0,0.0,-0.007256,-0.508255,-0.002412,0.000141,-264.391191,-1.112348,62.01188
3.8564,-0.005979,0.002496,-0.00234,0.0,0.0,0.0,-0.007828,-0.508332,-0.00359,0.000141,-264.391191,-1.112348,62.01188
3.8768,-0.005652,0.00165,-0.003118,0.0,0.0,0.0,-0.007457,-0.507862,-0.002882,0.000141,-264.391191,-1.112348,62.01188
3.8963,-0.005805,0.002536,-0.003512,0.0,0.0,0.0,-0.007457,-0.507862,-0.002882,0.000141,-264.391191,-1.112348,62.01188
3.9168,-0.006199,0.001855,-0.002626,9.2e-05,-4e-05,0.0,-0.007596,-0.507461,-0.003512,0.000141,-264.391191,-1.112348,62.01188
3.9362,-0.006491,0.001611,-0.003866,9.2e-05,-4e-05,0.0,-0.007592,-0.507508,-0.003451,0.000141,-264.391191,-1.112348,62.01188
3.9562,-0.006274,0.00202,-0.003677,9.2e-05,-4e-05,0.0,-0.008462,-0.508386,-0.003866,0.000141,-264.391191,-1.112348,62.01188
3.9766,-0.005878,0.001822,-0.004155,9.2e-05,-4e-05,0.0,-0.008284,-0.508153,-0.003759,0.000141,-264.391191,-1.112348,62.01188
3.9962,-0.006007,0.001998,-0.002943,9.2e-05,-4e-05,0.0,-0.008284,-0.508153,-0.003759,0.000141,-264.391191,-1.112348,62.01188
4.0162,-0.005721,0.001651,-0.003956,9.2e-05,-4e-05,0.0,-0.007508,-0.508,-0.002943,-0.074855,-264.391191,-1.037352,62.01188
4.0368,-0.006009,0.001612,-0.001857,9.2e-05,-4e-05,0.0,-0.007524,-0.508024,-0.003014,-0.074855,-264.391191,-1.037352,62.01188
4.0569,-0.00577,0.001846,-0.002326,9.2e-05,-4e-05,0.0,-0.006956,-0.508387,-0.001857,-0.14985,-264.391191,-0.962357,62.01188
4.0765,-0.00596,0.001746,-0.004645,9.2e-05,-4e-05,0.0,-0.006956,-0.508256,-0.00212,-0.14985,-264.391191,-0.962357,62.01188
4.0968,-0.005805,0.002005,-0.003675,9.2e-05,-4e-05,0.0,-0.006956,-0.508256,-0.00212,-0.14985,-264.391191,-0.962357,62.01188
4.1165,-0.006048,0.001778,-0.00158,0.0,-0.0,0.0,-0.007679,-0.507992,-0.003675,-0.224851,-264.391191,-0.887356,62.01188
4.1371,-0.006154,0.00168,-0.002145,0.000849,-0.000367,0.000513,-0.007627,-0.508006,-0.003544,-0.224851,-264.391191,-0.887356,62.01188
4.1563,-0.005906,0.002008,-0.002051,0.001679,-0.000726,0.001014,-0.007248,-0.508319,-0.002145,-0.299857,-264.39119,-0.81235,62.01188
4.1764,-0.00584,0.002159,-0.004766,0.002425,-0.001049,0.001465,-0.007083,-0.508136,-0.002092,-0.299857,-264.39119,-0.81235,62.01188
4.1963,-0.005943,0.001503,-0.003276,0.003143,-0.00136,0.001899,-0.007083,-0.508136,-0.002092,-0.299857,-264.39119,-0.81235,62.01188
4.2164,-0.005829,0.001471,-0.002902,0.003818,-0.001652,0.002307,-0.007602,-0.508501,-0.00327,-0.224826,-264.391088,-0.737319,62.012011
4.2369,-0.006109,0.001888,-0.003305,0.004446,-0.001924,0.002686,-0.007582,-0.508503,-0.003245,-0.224826,-264.391088,-0.737319,62.012011
4.2569,-0.005906,0.001864,-0.003561,0.005035,-0.002178,0.003042,-0.007719,-0.508146,-0.003264,-0.149853,-264.390307,-0.675705,62.01301
4.2765,-0.006088,0.001939,-0.003074,0.005581,-0.002415,0.003371,-0.007711,-0.508143,-0.003424,-0.149853,-264.390307,-0.675705,62.01301
4.2964,-0.005899,0.001897,-0.002007,0.006081,-0.002631,0.003673,-0.007711,-0.508143,-0.003424,-0.149853,-264.390307,-0.675705,62.01301
4.3166,-0.005726,0.001473,-0.00264,0.006539,-0.002829,0.00395,-0.006731,-0.508186,-0.001893,-0.074866,-264.388725,-0.675705,62.015033
4.3369,-0.005564,0.001777,-0.004458,0.006953,-0.003008,0.0042,-0.00675,-0.508212,-0.001943,-0.074866,-264.388725,-0.675705,62.015033
4.3563,-0.005527,0.001795,-0.003508,0.007325,-0.003169,0.004425,-0.007604,-0.50832,-0.004317,-0.063612,-264.386292,-0.675705,62.018145
4.3763,-0.005773,0.001477,-0.003478,0.007653,-0.003311,0.004623,-0.00741,-0.508265,-0.003838,-0.063612,-264.386292,-0.675705,62.018145
4.3965,-0.005628,0.001778,-0.002879,0.007935,-0.003433,0.004793,-0.00741,-0.508265,-0.003838,-0.063612,-264.386292,-0.675705,62.018145
4.4163,-0.005307,0.001494,-0.004324,0.008175,-0.003537,0.004938,-0.006758,-0.508367,-0.002675,-0.063612,-264.383506,-0.675705,62.021708
4.4362,-0.005305,0.001286,-0.002466,0.008371,-0.003622,0.005057,-0.006802,-0.50838,-0.002784,-0.063612,-264.383506,-0.675705,62.021708
4.4565,-0.004967,0.001223,-0.002498,0.008524,-0.003688,0.005149,-0.006257,-0.508846,-0.002281,-0.063612,-264.380325,-0.675705,62.025777
4.4762,-0.005025,0.001399,-0.002389,0.008633,-0.003735,0.005215,-0.006209,-0.508822,-0.002381,-0.063612,-264.380325,-0.675705,62.025777
4.4961,-0.005134,0.001365,-0.001545,0.008698,-0.003763,0.005255,-0.006209,-0.508822,-0.002381,-0.063612,-264.380325,-0.675705,62.025777
4.5161,-0.004822,0.000822,-0.003573,0.00872,-0.003773,0.005268,-0.005515,-0.508811,-0.001299,-0.063612,-264.37697,-0.675705,62.030068
4.5361,-0.005002,0.000782,-0.002359,0.008699,-0.003763,0.005255,-0.005583,-0.508841,-0.001452,-0.063612,-264.37697,-0.675705,62.030068
4.5564,-0.004381,0.001032,-0.002233,0.008633,-0.003735,0.005215,-0.005869,-0.509362,-0.002156,-0.063612,-264.373484,-0.675705,62.034527
4.5767,-0.00467,0.000955,-0.002057,0.008524,-0.003688,0.005149,-0.005628,-0.509156,-0.002174,-0.063612,-264.373484,-0.675705,62.034527
4.5962,-0.004562,0.001167,-0.003309,0.008372,-0.003622,0.005057,-0.005628,-0.509156,-0.002174,-0.063612,-264.373484,-0.675705,62.034527
4.6162,-0.004068,0.000944,-0.002055,0.008176,-0.003537,0.004939,-0.005827,-0.509015,-0.003054,-0.063612,-264.369998,-0.675705,62.038986
4.6363,-0.004086,0.000449,-0.001952,0.007936,-0.003434,0.004794,-0.005766,-0.509022,-0.002977,-0.063612,-264.369998,-0.675705,62.038986
4.6562,-0.003731,0.000508,-0.000767,0.007653,-0.003311,0.004623,-0.004758,-0.50969,-0.001756,-0.063612,-264.366642,-0.675705,62.043278
4.6762,-0.003982,0.000581,0.000101,0.007325,-0.003169,0.004425,-0.004355,-0.509595,-0.001168,-0.063612,-264.366642,-0.675705,62.043278
4.6964,-0.003619,0.00042,-0.000894,0.006955,-0.003009,0.004202,-0.004355,-0.509595,-0.001168,-0.063612,-264.366642,-0.675705,62.043278
4.7168,-0.003565,4.8e-05,-0.001458,0.006534,-0.002827,0.003947,-0.003689,-0.509747,-0.00066,-0.063612,-264.363461,-0.675705,62.047346
4.737,-0.003986,0.000364,-0.000952,0.006083,-0.002632,0.003675,-0.003721,-0.509765,-0.000709,-0.063612,-264.363461,-0.675705,62.047346
4.7564,-0.003612,0.000109,0.000873,0.005582,-0.002415,0.003372,-0.004203,-0.509752,-0.00079,-0.063612,-264.360673,-0.675705,62.050912
4.7764,-0.003338,1e-06,0.000106,0.005037,-0.002179,0.003043,-0.003579,-0.509846,0.000177,-0.063612,-264.360673,-0.675705,62.050912
4.7963,-0.003777,0.000226,-0.001984,0.004448,-0.001925,0.002687,-0.003579,-0.509846,0.000177,-0.063612,-264.360673,-0.675705,62.050912
4.8167,-0.003362,7.6e-05,-0.001964,0.003816,-0.001651,0.002305,-0.004493,-0.509901,-0.001805,-0.063612,-264.358235,-0.675705,62.054031
4.8365,-0.003034,0.00033,-0.000857,0.003141,-0.001359,0.001897,-0.004477,-0.509906,-0.001811,-0.063612,-264.358235,-0.675705,62.054031
4.8565,-0.003174,-2e-06,-4.7e-05,0.002418,-0.001046,0.00146,-0.0033,-0.509744,-0.000753,-0.063612,-264.35645,-0.675705,62.056314
4.8771,-0.003055,-2.3e-05,-0.000346,0.001646,-0.000712,0.000994,-0.00322,-0.509901,-0.000336,-0.063612,-264.35645,-0.675705,62.056314
4.8972,-0.00274,3.8e-05,-0.001799,0.000852,-0.000369,0.000515,-0.00322,-0.509901,-0.000336,-0.063612,-264.35645,-0.675705,62.056314
