mach0312/omni-docking-bench/src/icros_test_setup/results/kinematic_sample/timeseries/trial_056.csv
t,x,y,yaw,vx,vy,wz,bl_x,bl_y,bl_yaw,front_steering_joint,front_wheel_joint,rear_steering_joint,rear_wheel_joint
0.0,0.021084,-0.028432,-0.032771,-0.004608,-0.003823,-0.003866,0.005224,-0.537979,-0.031154,0.930352,-264.343538,0.307159,62.428689
0.0005,0.020999,-0.028675,-0.032083,-0.001368,-0.001135,-0.001148,0.004853,-0.537897,-0.032611,0.930352,-264.347155,0.307159,62.426422
0.0008,0.020979,-0.028359,-0.032036,-0.000702,-0.000583,-0.000589,0.004853,-0.537897,-0.032611,0.930352,-264.350239,0.307159,62.424488
0.0012,0.020488,-0.028309,-0.031907,-0.0,-0.0,-0.0,0.004834,-0.537715,-0.032328,0.930352,-264.352352,0.307159,62.423164
0.0015,0.02117,-0.028336,-0.032511,0.0,0.0,0.0,0.004834,-0.537715,-0.032328,0.930352,-264.353687,0.307159,62.422327
0.0017,0.021011,-0.028585,-0.032736,0.0,0.0,0.0,0.004834,-0.537715,-0.032328,0.930352,-264.353687,0.307159,62.422327
0.002,0.021265,-0.02877,-0.032583,0.0,0.0,0.0,0.004148,-0.538122,-0.033813,0.930352,-264.353687,0.307159,62.422327
0.0023,0.021,-0.028958,-0.032901,0.0,0.0,0.0,0.004179,-0.538087,-0.033716,0.930352,-264.353687,0.307159,62.422327
0.0025,0.020831,-0.028781,-0.032169,0.0,0.0,0.0,0.004179,-0.538087,-0.033716,0.930352,-264.353687,0.307159,62.422327
0.0028,0.020951,-0.028567,-0.031527,0.0,0.0,0.0,0.004126,-0.538143,-0.032683,0.930352,-264.353687,0.307159,62.422327
0.0173,0.020679,-0.027898,-0.032921,-0.016,0.016,0.03,0.004875,-0.538314,-0.031527,0.930352,-264.353687,0.307159,62.422327
0.0374,0.020329,-0.028764,-0.03333,-0.021586,0.027203,0.032921,0.004319,-0.537923,-0.032315,0.930352,-264.353687,0.307159,62.422327
0.0572,0.020956,-0.028171,-0.0331,-0.021276,0.028071,0.03333,0.004319,-0.537923,-0.032315,0.930352,-264.353687,0.307159,62.422327
0.0774,0.020736,-0.028492,-0.032304,-0.021877,0.027462,0.0331,0.004078,-0.537891,-0.0331,0.930352,-264.353687,0.307159,62.422327
0.0979,0.021167,-0.028848,-0.031278,-0.021645,0.027807,0.032304,0.004091,-0.537914,-0.033045,0.930352,-264.353687,0.307159,62.422327
0.1174,0.020521,-0.028879,-0.032656,-0.022058,0.028172,0.031278,0.005218,-0.538599,-0.031278,0.855478,-264.353687,0.232285,62.422327
0.1373,0.020653,-0.028448,-0.033051,-0.021453,0.028194,0.032656,0.004452,-0.538604,-0.032061,0.855478,-264.353687,0.232285,62.422327
0.1578,0.020645,-0.028457,-0.033702,-0.021582,0.02775,0.033051,0.004452,-0.538604,-0.032061,0.855478,-264.353687,0.232285,62.422327
0.1774,0.021072,-0.028536,-0.031558,-0.021593,0.027745,0.033702,0.003461,-0.538167,-0.033702,0.780462,-264.353687,0.157269,62.422327
0.1971,0.020985,-0.028724,-0.031684,-0.021962,0.027856,0.031558,0.00359,-0.538177,-0.033519,0.780462,-264.353687,0.157269,62.422327
0.2173,0.020997,-0.02825,-0.032,-0.021884,0.028045,0.031684,0.004829,-0.538468,-0.031684,0.704922,-264.353687,0.081729,62.422327
0.2373,0.020223,-0.028496,-0.032255,-0.02189,0.027564,0.032,0.004743,-0.538193,-0.031865,0.704922,-264.353687,0.081729,62.422327
0.2573,0.021028,-0.028588,-0.032478,-0.021132,0.027829,0.032255,0.004743,-0.538193,-0.031865,0.704922,-264.353687,0.081729,62.422327
0.2772,0.020778,-0.028846,-0.033428,-0.021945,0.02789,0.032478,0.004467,-0.538319,-0.032478,0.63032,-264.353687,0.007127,62.422327
0.2975,0.020804,-0.02853,-0.0325,-0.021731,0.028136,0.033428,0.004416,-0.538336,-0.032545,0.63032,-264.353687,0.007127,62.422327
0.3172,0.020951,-0.028798,-0.031895,-0.02172,0.027839,0.0325,0.004232,-0.53826,-0.0325,0.555472,-264.353687,-0.067721,62.422327
0.3372,0.020812,-0.028405,-0.032248,-0.021859,0.028115,0.031895,0.004493,-0.53842,-0.032153,0.555472,-264.353687,-0.067721,62.422327
0.3571,0.020934,-0.028739,-0.030659,-0.021717,0.027719,0.032248,0.004493,-0.53842,-0.032153,0.555472,-264.353687,-0.067721,62.422327
0.3771,0.020909,-0.028892,-0.033017,-0.021805,0.028084,0.030659,0.0053,-0.5385,-0.030659,0.480346,-264.353688,-0.142847,62.422326
0.3976,0.020942,-0.028661,-0.032082,-0.021851,0.028186,0.033017,0.005217,-0.538507,-0.030819,0.480346,-264.353688,-0.142847,62.422326
0.4173,0.020567,-0.028633,-0.032676,-0.02185,0.027975,0.032082,0.004582,-0.538399,-0.032082,0.405469,-264.353689,-0.217725,62.422326
0.4375,0.020879,-0.028624,-0.033172,-0.021492,0.027946,0.032676,0.004168,-0.538375,-0.032446,0.405469,-264.353689,-0.217725,62.422326
0.4575,0.020586,-0.028434,-0.031044,-0.021816,0.027916,0.033172,0.004168,-0.538375,-0.032446,0.405469,-264.353689,-0.217725,62.422326
0.4778,0.020762,-0.028292,-0.0312,-0.021459,0.027781,0.031044,0.004756,-0.538188,-0.031045,0.329163,-264.35369,-0.29403,62.422325
0.4977,0.020542,-0.028685,-0.030165,-0.021634,0.02763,0.0312,0.004763,-0.538178,-0.031056,0.329163,-264.35369,-0.29403,62.422325
0.5172,0.020891,-0.028572,-0.032099,-0.021398,0.028053,0.030165,0.00516,-0.538453,-0.030165,0.255362,-264.353693,-0.337505,62.422324
0.5372,0.020771,-0.028485,-0.03192,-0.021797,0.027887,0.032099,0.004797,-0.538372,-0.031266,0.255362,-264.353693,-0.337505,62.422324
0.5574,0.020686,-0.028856,-0.032824,-0.02167,0.027808,0.03192,0.004797,-0.538372,-0.031266,0.255362,-264.353693,-0.337505,62.422324
0.5777,0.020694,-0.028432,-0.033499,-0.021621,0.028162,0.032824,0.003948,-0.538582,-0.032824,0.180482,-264.353695,-0.377371,62.422323
0.5975,0.020929,-0.028495,-0.033091,-0.021634,0.027723,0.033499,0.003925,-0.538551,-0.032871,0.180482,-264.353695,-0.377371,62.422323
0.6174,0.020715,-0.028326,-0.031074,-0.021861,0.027787,0.033091,0.004056,-0.538216,-0.033091,0.105484,-264.353697,-0.366308,62.422323
0.6372,0.020952,-0.028856,-0.033096,-0.021585,0.027668,0.031074,0.004523,-0.538138,-0.031933,0.105484,-264.353697,-0.366308,62.422323
0.6577,0.020853,-0.02848,-0.032205,-0.021896,0.028147,0.033096,0.004523,-0.538138,-0.031933,0.105484,-264.353697,-0.366308,62.422323
0.6776,0.020944,-0.028622,-0.030842,-0.02176,0.027794,0.032205,0.004431,-0.538215,-0.032205,0.030339,-264.353699,-0.323913,62.422322
0.6977,0.020492,-0.028333,-0.032648,-0.021817,0.027962,0.030842,0.004472,-0.538224,-0.032135,0.030339,-264.353699,-0.323913,62.422322
0.7174,0.020655,-0.028458,-0.033426,-0.021406,0.027649,0.032648,0.003845,-0.538061,-0.032648,-0.04455,-264.353701,-0.347593,62.422321
0.7375,0.020705,-0.028401,-0.032152,-0.021595,0.027751,0.033426,0.003711,-0.538125,-0.033094,-0.04455,-264.353701,-0.347593,62.422321
0.7575,0.020772,-0.028368,-0.03221,-0.021608,0.027721,0.032152,0.003711,-0.538125,-0.033094,-0.04455,-264.353701,-0.347593,62.422321
0.7772,0.020587,-0.028371,-0.033341,-0.021675,0.027684,0.03221,0.004348,-0.538103,-0.03221,-0.119672,-264.353703,-0.396172,62.42232
0.7972,0.02077,-0.028687,-0.032787,-0.021522,0.027669,0.033341,0.00429,-0.538102,-0.032296,-0.119672,-264.353703,-0.396172,62.42232
0.8176,0.020557,-0.02879,-0.031182,-0.021699,0.027991,0.032787,0.004051,-0.538413,-0.032787,-0.194871,-264.353705,-0.357994,62.422319
0.8373,0.02067,-0.028534,-0.032972,-0.021445,0.028135,0.031182,0.004397,-0.538487,-0.03187,-0.194871,-264.353705,-0.357994,62.422319
0.8574,0.020592,-0.028568,-0.032641,-0.021599,0.027837,0.032972,0.004397,-0.538487,-0.03187,-0.194871,-264.353705,-0.357994,62.422319
0.8773,0.020565,-0.028409,-0.031518,-0.021513,0.027881,0.032641,0.003947,-0.538296,-0.032641,-0.269625,-264.353707,-0.327247,62.422318
0.8976,0.020514,-0.028576,-0.034423,-0.02145,0.027747,0.031518,0.003985,-0.538286,-0.032563,-0.269625,-264.353707,-0.327247,62.422318
0.9173,0.020229,-0.02876,-0.034009,-0.021485,0.027853,0.034423,0.002962,-0.538274,-0.034423,-0.344532,-264.353709,-0.342421,62.422317
0.9372,0.020587,-0.028355,-0.03271,-0.021195,0.028055,0.034009,0.00292,-0.538382,-0.034188,-0.344532,-264.353709,-0.342421,62.422317
0.9572,0.020947,-0.028598,-0.032389,-0.021504,0.027666,0.03271,0.00292,-0.538382,-0.034188,-0.344532,-264.353709,-0.342421,62.422317
0.9776,0.020976,-0.028608,-0.031738,-0.021862,0.027905,0.032389,0.004431,-0.538331,-0.032389,-0.419571,-264.353711,-0.377183,62.422316
0.9975,0.020903,-0.028677,-0.030933,-0.021873,0.027928,0.031738,0.004454,-0.538332,-0.032347,-0.419571,-264.353711,-0.377183,62.422316
1.0172,0.021013,-0.02875,-0.031993,-0.02178,0.028017,0.030933,0.00513,-0.538433,-0.030933,-0.494539,-264.353715,-0.343394,62.422314
1.0373,0.020765,-0.028794,-0.032825,-0.021921,0.028063,0.031993,0.004885,-0.538465,-0.031536,-0.494539,-264.353715,-0.343394,62.422314
1.0572,0.020896,-0.028866,-0.032538,-0.021699,0.028097,0.032825,0.004885,-0.538465,-0.031536,-0.494539,-264.353715,-0.343394,62.422314
1.0773,0.020741,-0.028538,-0.032121,-0.021824,0.028171,0.032538,0.004303,-0.538595,-0.032538,-0.569516,-264.353733,-0.372388,62.422306
1.0983,0.021206,-0.028527,-0.032461,-0.021646,0.027857,0.032121,0.004307,-0.538573,-0.032509,-0.569516,-264.353733,-0.372388,62.422306
1.1173,0.020511,-0.028446,-0.031011,-0.02212,0.027824,0.032461,0.004649,-0.538255,-0.032458,-0.644518,-264.353808,-0.355196,62.422274
1.1372,0.020947,-0.028594,-0.033034,-0.021383,0.027796,0.031011,0.004676,-0.538224,-0.031636,-0.644518,-264.353808,-0.355196,62.422274
1.1574,0.021101,-0.028362,-0.032864,-0.02188,0.027886,0.033034,0.004676,-0.538224,-0.031636,-0.644518,-264.353808,-0.355196,62.422274
1.1772,0.020826,-0.028357,-0.032608,-0.022022,0.027653,0.032864,0.004321,-0.538069,-0.032848,-0.719519,-264.354137,-0.363705,62.422127
1.1975,0.0207,-0.028594,-0.031197,-0.021739,0.027663,0.032608,0.004312,-0.53807,-0.032831,-0.719519,-264.354137,-0.363705,62.422127
1.2176,0.021046,-0.028394,-0.034268,-0.021582,0.027935,0.031197,0.004736,-0.5383,-0.031149,-0.79453,-264.355214,-0.338821,62.421654
1.2376,0.020847,-0.02843,-0.031115,-0.022006,0.027656,0.034268,0.004064,-0.538177,-0.032924,-0.79453,-264.355214,-0.338821,62.421654
1.2577,0.020833,-0.028655,-0.030873,-0.021721,0.027768,0.031115,0.004064,-0.538177,-0.032924,-0.79453,-264.355214,-0.338821,62.421654
1.2774,0.020178,-0.028238,-0.031007,-0.021707,0.027998,0.030873,0.004908,-0.538245,-0.030695,-0.869629,-264.358114,-0.342345,62.420375
1.2974,0.020311,-0.028383,-0.032907,-0.021044,0.027599,0.031007,0.004868,-0.538224,-0.030711,-0.869629,-264.358114,-0.342345,62.420375
1.3176,0.019798,-0.02806,-0.031065,-0.021234,0.027699,0.032907,0.003258,-0.537834,-0.032646,-0.94453,-264.363515,-0.383515,62.417486
1.3371,0.019755,-0.028153,-0.033624,-0.02066,0.027432,0.031065,0.003622,-0.537788,-0.031712,-0.94453,-264.363515,-0.383515,62.417486
1.3574,0.019993,-0.027746,-0.031663,-0.02069,0.027473,0.033624,0.003622,-0.537788,-0.031712,-0.94453,-264.363515,-0.383515,62.417486
1.3778,0.019247,-0.027686,-0.03179,-0.020862,0.027099,0.031663,0.003345,-0.536954,-0.031171,-1.019531,-264.371416,-0.390457,62.412761
1.3973,0.019079,-0.027524,-0.032238,-0.020118,0.02706,0.03179,0.003315,-0.53697,-0.031196,-1.019531,-264.371416,-0.390457,62.412761
1.4173,0.018046,-0.026567,-0.031767,-0.019956,0.026894,0.032238,0.002161,-0.536708,-0.031653,-1.094532,-264.381816,-0.323493,62.406948
1.4375,0.018029,-0.026466,-0.031863,-0.018881,0.025981,0.031767,0.001922,-0.536412,-0.031643,-1.094532,-264.381816,-0.323493,62.406948
1.4573,0.018107,-0.027029,-0.031485,-0.018863,0.025878,0.031863,0.001922,-0.536412,-0.031643,-1.094532,-264.381816,-0.323493,62.406948
1.4774,0.017126,-0.025557,-0.02854,-0.018949,0.026445,0.031485,0.001326,-0.535865,-0.030583,-1.162282,-264.394717,-0.36313,62.399148
1.4975,0.016509,-0.025513,-0.028849,-0.017848,0.025058,0.02854,0.001394,-0.535805,-0.030416,-1.162282,-264.394717,-0.36313,62.399148
1.5173,0.015593,-0.024986,-0.028356,-0.017238,0.025027,0.028849,0.001179,-0.534476,-0.027923,-1.176525,-264.410117,-0.327932,62.39136
1.5373,0.015546,-0.024379,-0.029067,-0.016295,0.024534,0.028356,0.001074,-0.534545,-0.028052,-1.176525,-264.410117,-0.327932,62.39136
1.5573,0.015154,-0.024868,-0.027998,-0.016248,0.023917,0.029067,0.001074,-0.534545,-0.028052,-1.176525,-264.410117,-0.327932,62.39136
1.5773,0.013915,-0.023009,-0.02698,-0.015844,0.024434,0.027998,0.000116,-0.533537,-0.026733,-1.173112,-264.426923,-0.402925,62.384282
1.5972,0.013336,-0.023385,-0.027286,-0.014531,0.022626,0.02698,9.9e-05,-0.533457,-0.026716,-1.173112,-264.426923,-0.402925,62.384282
1.6174,0.012437,-0.022108,-0.025653,-0.013969,0.023012,0.027286,-0.001159,-0.532289,-0.026204,-1.199012,-264.444168,-0.362633,62.377582
1.6372,0.012637,-0.022146,-0.024926,-0.013,0.021782,0.025653,-0.00094,-0.531975,-0.025753,-1.199012,-264.444168,-0.362633,62.377582
1.6577,0.012568,-0.022338,-0.025483,-0.013185,0.021824,0.024926,-0.00094,-0.531975,-0.025753,-1.199012,-264.444168,-0.362633,62.377582
1.6774,0.011,-0.021306,-0.024319,-0.013134,0.02201,0.025483,-0.001088,-0.531083,-0.024204,-1.21501,-264.460415,-0.400241,62.371437
1.6977,0.011417,-0.021227,-0.024151,-0.011515,0.021033,0.024319,-0.001126,-0.53106,-0.024179,-1.21501,-264.460415,-0.400241,62.371437
1.7172,0.010063,-0.02037,-0.02381,-0.011926,0.020946,0.024151,-0.001356,-0.530279,-0.02325,-1.228875,-264.475103,-0.464126,62.365929
1.7374,0.009862,-0.020039,-0.024378,-0.010546,0.020125,0.02381,-0.001823,-0.530148,-0.023453,-1.228875,-264.475103,-0.464126,62.365929
1.7573,0.010153,-0.020203,-0.022879,-0.010348,0.019793,0.024378,-0.001823,-0.530148,-0.023453,-1.228875,-264.475103,-0.464126,62.365929
1.7774,0.009104,-0.018836,-0.022448,-0.010613,0.019965,0.022879,-0.002036,-0.529063,-0.021729,-1.260286,-264.489752,-0.492552,62.36085
1.7975,0.00892,-0.018897,-0.021494,-0.009524,0.018627,0.022448,-0.00207,-0.529014,-0.021748,-1.260286,-264.489752,-0.492552,62.36085
1.8171,0.007781,-0.018039,-0.020549,-0.009324,0.018701,0.021494,-0.002407,-0.528042,-0.020595,-1.280837,-264.503566,-0.442527,62.356479
1.8372,0.008138,-0.018136,-0.020628,-0.00815,0.017875,0.020549,-0.002619,-0.527885,-0.020455,-1.280837,-264.503566,-0.442527,62.356479
1.8572,0.007845,-0.018377,-0.020402,-0.00851,0.017964,0.020628,-0.002619,-0.527885,-0.020455,-1.280837,-264.503566,-0.442527,62.356479
1.8773,0.006609,-0.017209,-0.019681,-0.008218,0.018213,0.020402,-0.002996,-0.527373,-0.019331,-1.284375,-264.5168,-0.476572,62.352271
1.8977,0.006637,-0.01706,-0.019176,-0.006946,0.017076,0.019681,-0.003037,-0.527331,-0.019326,-1.284375,-264.5168,-0.476572,62.352271
1.9173,0.0058,-0.016476,-0.019598,-0.006963,0.016929,0.019176,-0.003422,-0.526348,-0.018468,-1.299224,-264.528033,-0.551584,62.348709
1.9373,0.006251,-0.016321,-0.019068,-0.006122,0.01636,0.019598,-0.003897,-0.526287,-0.019022,-1.299224,-264.528033,-0.551584,62.348709
1.9574,0.006125,-0.016297,-0.017604,-0.006561,0.016199,0.019068,-0.003897,-0.526287,-0.019022,-1.299224,-264.528033,-0.551584,62.348709
1.9772,0.005397,-0.015691,-0.018774,-0.006411,0.016187,0.017604,-0.003141,-0.525472,-0.016749,-1.336448,-264.53866,-0.626575,62.345657
1.9978,0.005338,-0.015685,-0.019759,-0.005691,0.015587,0.018774,-0.003207,-0.525463,-0.016847,-1.336448,-264.53866,-0.626575,62.345657
2.0172,0.004308,-0.014777,-0.01695,-0.005647,0.015577,0.019759,-0.004978,-0.524959,-0.019027,-1.339386,-264.550029,-0.606645,62.342483
2.0377,0.004665,-0.014513,-0.017603,-0.004558,0.014702,0.01695,-0.004643,-0.524735,-0.017753,-1.339386,-264.550029,-0.606645,62.342483
2.0573,0.004531,-0.014686,-0.018163,-0.00492,0.014428,0.017603,-0.004643,-0.524735,-0.017753,-1.339386,-264.550029,-0.606645,62.342483
2.0773,0.003863,-0.014279,-0.015064,-0.004797,0.014601,0.018163,-0.004991,-0.523849,-0.017262,-1.363451,-264.560915,-0.626638,62.339716
2.0975,0.00344,-0.01395,-0.016375,-0.004077,0.014219,0.015064,-0.004922,-0.523855,-0.017098,-1.363451,-264.560915,-0.626638,62.339716
2.1177,0.003147,-0.013456,-0.014953,-0.003668,0.013892,0.016375,-0.005091,-0.523325,-0.015698,-1.377848,-264.571119,-0.641936,62.337274
2.1372,0.00307,-0.013051,-0.014512,-0.003348,0.013408,0.014953,-0.004764,-0.523297,-0.015187,-1.377848,-264.571119,-0.641936,62.337274
2.1573,0.00305,-0.013316,-0.016768,-0.00326,0.013005,0.014512,-0.004764,-0.523297,-0.015187,-1.377848,-264.571119,-0.641936,62.337274
2.1775,0.002833,-0.013156,-0.016398,-0.003273,0.013263,0.016768,-0.005578,-0.522993,-0.016485,-1.398424,-264.574647,-0.717036,62.336314
2.1972,0.002579,-0.0129,-0.015846,-0.003048,0.013107,0.016398,-0.005577,-0.522993,-0.016472,-1.398424,-264.574647,-0.717036,62.336314
2.2172,0.00242,-0.012539,-0.014817,-0.002783,0.012858,0.015846,-0.005574,-0.522556,-0.015523,-1.422834,-264.579633,-0.791949,62.335125
2.2374,0.002616,-0.012833,-0.014785,-0.002605,0.012501,0.014817,-0.005334,-0.522479,-0.01508,-1.422834,-264.579633,-0.791949,62.335125
2.2572,0.002773,-0.012597,-0.013904,-0.002806,0.012793,0.014785,-0.005334,-0.522479,-0.01508,-1.422834,-264.579633,-0.791949,62.335125
2.2771,0.001973,-0.012042,-0.012364,-0.002948,0.012558,0.013904,-0.004443,-0.522021,-0.013288,-1.439726,-264.587118,-0.792624,62.333396
2.2977,0.00209,-0.011783,-0.013044,-0.002122,0.012017,0.012364,-0.004439,-0.522005,-0.013207,-1.439726,-264.587118,-0.792624,62.333396
2.3171,0.001868,-0.011675,-0.014386,-0.002244,0.011755,0.013044,-0.004641,-0.521376,-0.012618,-1.442925,-264.593614,-0.867626,62.33201
2.3371,0.001382,-0.011477,-0.013152,-0.002036,0.011647,0.014386,-0.005121,-0.52147,-0.013568,-1.442925,-264.593614,-0.867626,62.33201
2.3572,0.00179,-0.011792,-0.014304,-0.001533,0.011458,0.013152,-0.005121,-0.52147,-0.013568,-1.442925,-264.593614,-0.867626,62.33201
2.3772,0.001522,-0.011123,-0.013758,-0.001958,0.011765,0.014304,-0.005543,-0.521548,-0.014098,-1.462788,-264.596242,-0.94262,62.33135
2.3977,0.001317,-0.011411,-0.013383,-0.001675,0.011101,0.013758,-0.005541,-0.52151,-0.014069,-1.462788,-264.596242,-0.94262,62.33135
2.4173,0.001418,-0.011288,-0.012637,-0.00147,0.011392,0.013383,-0.005539,-0.521149,-0.013129,-1.492296,-264.600098,-1.017625,62.33061
2.4373,0.001638,-0.011135,-0.0133,-0.00156,0.011269,0.012637,-0.005251,-0.521177,-0.012817,-1.492296,-264.600098,-1.017625,62.33061
2.4574,0.001245,-0.010695,-0.013683,-0.001786,0.011113,0.0133,-0.005251,-0.521177,-0.012817,-1.492296,-264.600098,-1.017625,62.33061
2.4772,0.000779,-0.01073,-0.012475,-0.001391,0.010677,0.013683,-0.005801,-0.520195,-0.01316,-1.485115,-264.606454,-1.015269,62.329341
2.4975,0.000776,-0.010916,-0.013717,-0.000913,0.01072,0.012475,-0.005788,-0.520216,-0.013102,-1.485115,-264.606454,-1.015269,62.329341
2.5173,0.000394,-0.010068,-0.012283,-0.000926,0.010904,0.013717,-0.006282,-0.520441,-0.013206,-1.478234,-264.61414,-1.032353,62.327955
2.5379,0.000406,-0.010392,-0.011367,-0.000517,0.010062,0.012283,-0.006055,-0.520151,-0.012614,-1.478234,-264.61414,-1.032353,62.327955
2.558,0.000319,-0.009825,-0.011735,-0.000525,0.010387,0.011367,-0.006055,-0.520151,-0.012614,-1.478234,-264.61414,-1.032353,62.327955
2.5775,0.0005,-0.009669,-0.011802,-0.000525,0.010387,0.011367,-0.005684,-0.51961,-0.011522,-1.521054,-264.616691,-1.107391,62.327506
2.5976,0.000411,-0.009664,-0.011917,-6e-06,0.0001,0.0,-0.005673,-0.519607,-0.011535,-1.521054,-264.616691,-1.107391,62.327506
2.6172,0.00064,-0.009549,-0.011905,-6e-06,0.0001,0.0,-0.005673,-0.519547,-0.011826,-1.540538,-264.618101,-1.182348,62.327223
2.6372,0.000377,-0.009583,-0.013424,-6e-06,0.0001,0.0,-0.005536,-0.519518,-0.01186,-1.540538,-264.618101,-1.182348,62.327223
2.6575,0.000182,-0.009832,-0.010488,-6e-06,0.0001,0.0,-0.005536,-0.519518,-0.01186,-1.540538,-264.618101,-1.182348,62.327223
2.6773,0.000568,-0.009808,-0.010653,-6e-06,0.0001,0.0,-0.005166,-0.519803,-0.010488,-1.507286,-264.618109,-1.257346,62.327216
2.698,0.00021,-0.0101,-0.012237,-6e-06,0.0001,0.0,-0.005147,-0.519802,-0.010499,-1.507286,-264.618109,-1.257346,62.327216
2.7177,0.000518,-0.009863,-0.012373,-6e-06,0.0001,0.0,-0.00603,-0.520061,-0.012237,-1.507286,-264.618123,-1.332347,62.327201
2.7379,0.000148,-0.01004,-0.012353,-6e-06,0.0001,0.0,-0.005895,-0.519926,-0.012314,-1.507286,-264.618123,-1.332347,62.327201
2.7572,0.000155,-0.009745,-0.011849,-6e-06,0.0001,0.0,-0.005895,-0.519926,-0.012314,-1.507286,-264.618123,-1.332347,62.327201
2.7771,0.000523,-0.009657,-0.010631,-6e-06,0.0001,0.0,-0.005888,-0.519706,-0.011849,-1.507286,-264.618148,-1.407364,62.327177
2.7976,0.000224,-0.009412,-0.009116,-0.0,0.0,0.0,-0.005818,-0.519701,-0.011763,-1.507286,-264.618148,-1.407364,62.327177
2.8175,0.000202,-0.009883,-0.011687,-9e-05,0.001415,0.001728,-0.004426,-0.519388,-0.009116,-1.507286,-264.618182,-1.482348,62.327143
2.8372,0.000193,-0.009602,-0.013058,-0.000175,0.002757,0.003367,-0.005177,-0.519646,-0.010565,-1.507286,-264.618182,-1.482348,62.327143
2.8573,0.00016,-0.009891,-0.011906,-0.000256,0.004022,0.004913,-0.005177,-0.519646,-0.010565,-1.507286,-264.618182,-1.482348,62.327143
2.8777,0.000302,-0.010087,-0.011519,-0.000332,0.005219,0.006374,-0.005911,-0.519855,-0.011906,-1.534388,-264.618182,-1.407354,62.327143
2.8977,0.000564,-0.009905,-0.010057,-0.000403,0.006342,0.007746,-0.005889,-0.519868,-0.01188,-1.534388,-264.618182,-1.407354,62.327143
2.9172,6.3e-05,-0.009637,-0.013418,-0.000471,0.007399,0.009038,-0.004573,-0.51974,-0.009889,-1.534388,-264.620682,-1.332347,62.326764
2.9371,0.000384,-0.009914,-0.010978,-0.000533,0.008374,0.010228,-0.005827,-0.519638,-0.011872,-1.534388,-264.620682,-1.332347,62.326764
2.9573,-1.8e-05,-0.009756,-0.010446,-0.00059,0.009277,0.011331,-0.005827,-0.519638,-0.011872,-1.534388,-264.620682,-1.332347,62.326764
2.9773,0.000149,-0.009043,-0.011404,-0.000643,0.010118,0.012358,-0.005361,-0.519419,-0.010068,-1.534388,-264.625111,-1.325485,62.3261
2.9976,-0.000259,-0.009661,-0.010138,-0.000691,0.010871,0.013278,-0.005381,-0.519387,-0.010142,-1.534388,-264.625111,-1.325485,62.3261
3.0171,-0.000613,-0.008479,-0.010396,-0.000735,0.011559,0.014119,-0.005449,-0.519271,-0.009694,-1.534388,-264.631594,-1.325485,62.325129
3.0375,4.5e-05,-0.008941,-0.009059,-0.000774,0.012174,0.01487,-0.005711,-0.51877,-0.01003,-1.534388,-264.631594,-1.325485,62.325129
3.0572,-0.000239,-0.00872,-0.011376,-0.000809,0.012718,0.015534,-0.005711,-0.51877,-0.01003,-1.534388,-264.631594,-1.325485,62.325129
3.0774,-0.000368,-0.008074,-0.009064,-0.000839,0.01319,0.01611,-0.006068,-0.518157,-0.01073,-1.534388,-264.639191,-1.325485,62.32399
3.0978,-0.000775,-0.008294,-0.00844,-0.000864,0.013588,0.016597,-0.005996,-0.518137,-0.010601,-1.534388,-264.639191,-1.325485,62.32399
3.1173,-0.001355,-0.00755,-0.0071,-0.000885,0.013915,0.016995,-0.005107,-0.517785,-0.00784,-1.534388,-264.648079,-1.325485,62.322658
3.1371,-0.00092,-0.007752,-0.00771,-0.000901,0.014168,0.017305,-0.005036,-0.517581,-0.007343,-1.534388,-264.648079,-1.325485,62.322658
3.1574,-0.001249,-0.007076,-0.00914,-0.000913,0.014349,0.017526,-0.005036,-0.517581,-0.007343,-1.534388,-264.648079,-1.325485,62.322658
3.1773,-0.00136,-0.006795,-0.007802,-0.000919,0.014458,0.017659,-0.005946,-0.516392,-0.008331,-1.534388,-264.657575,-1.325485,62.321235
3.1975,-0.001571,-0.007021,-0.007423,-0.000922,0.014494,0.017703,-0.005907,-0.516401,-0.008276,-1.534388,-264.657575,-1.325485,62.321235
3.2173,-0.002097,-0.006146,-0.007989,-0.000919,0.014457,0.017658,-0.005388,-0.516452,-0.006746,-1.534388,-264.667603,-1.325485,62.319732
3.2372,-0.002174,-0.00596,-0.007604,-0.000912,0.014348,0.017525,-0.005838,-0.516199,-0.007368,-1.534388,-264.667603,-1.325485,62.319732
3.2574,-0.002063,-0.006335,-0.006693,-0.000901,0.014166,0.017303,-0.005838,-0.516199,-0.007368,-1.534388,-264.667603,-1.325485,62.319732
3.2772,-0.002603,-0.005733,-0.005418,-0.000885,0.013912,0.016993,-0.005517,-0.515619,-0.005833,-1.534388,-264.677732,-1.325485,62.318213
3.2971,-0.002284,-0.005407,-0.005357,-0.000864,0.013588,0.016596,-0.005507,-0.515607,-0.005781,-1.534388,-264.677732,-1.325485,62.318213
3.3172,-0.003136,-0.005049,-0.004751,-0.000838,0.013174,0.016091,-0.005048,-0.514853,-0.004688,-1.534388,-264.687635,-1.325485,62.316729
3.3375,-0.003173,-0.004827,-0.006669,-0.000809,0.012715,0.015531,-0.005344,-0.514892,-0.00464,-1.534388,-264.687635,-1.325485,62.316729
3.3573,-0.002958,-0.004778,-0.003947,-0.000774,0.012175,0.01487,-0.005344,-0.514892,-0.00464,-1.534388,-264.687635,-1.325485,62.316729
3.3772,-0.003428,-0.004025,-0.004919,-0.000735,0.011558,0.014117,-0.005011,-0.514114,-0.003141,-1.534388,-264.697128,-1.325485,62.315306
3.3971,-0.003471,-0.004341,-0.005803,-0.000691,0.01087,0.013277,-0.005077,-0.514089,-0.003244,-1.534388,-264.697128,-1.325485,62.315306
3.4172,-0.003891,-0.003491,-0.004222,-0.000643,0.010104,0.012341,-0.006458,-0.513862,-0.005229,-1.534388,-264.705648,-1.325485,62.314029
3.4373,-0.004393,-0.003592,-0.003651,-0.00059,0.009271,0.011324,-0.006225,-0.513587,-0.00458,-1.534388,-264.705648,-1.325485,62.314029
3.4575,-0.003888,-0.003811,-0.003025,-0.000532,0.00837,0.010223,-0.006225,-0.513587,-0.00458,-1.534388,-264.705648,-1.325485,62.314029
3.4775,-0.003984,-0.002893,-0.003052,-0.00047,0.00739,0.009026,-0.005462,-0.513281,-0.00238,-1.534388,-264.713234,-1.325485,62.312892
3.4977,-0.004379,-0.003369,-0.003259,-0.000403,0.00634,0.007744,-0.005469,-0.51324,-0.002409,-1.534388,-264.713234,-1.325485,62.312892
3.5174,-0.004775,-0.00222,-0.001684,-0.000332,0.005216,0.006371,-0.006061,-0.513043,-0.002864,-1.534388,-264.719084,-1.325485,62.312016
3.5373,-0.004677,-0.002238,-0.003769,-0.000256,0.004022,0.004913,-0.005822,-0.512537,-0.002147,-1.534388,-264.719084,-1.325485,62.312016
3.5573,-0.004766,-0.002365,-0.001652,-0.000175,0.002752,0.003362,-0.005822,-0.512537,-0.002147,-1.534388,-264.719084,-1.325485,62.312016
3.5777,-0.00507,-0.002477,-0.001639,-8.9e-05,0.001405,0.001716,-0.005628,-0.512055,-0.001275,-1.534388,-264.723522,-1.325485,62.31135
3.5973,-0.004883,-0.002028,-0.001663,0.0,0.0,0.0,-0.005648,-0.512076,-0.00129,-1.534388,-264.723522,-1.325485,62.31135
3.6173,-0.005006,-0.00225,-0.00282,0.0,0.0,0.0,-0.005737,-0.511921,-0.001533,-1.534388,-264.725442,-1.325485,62.311063
3.6372,-0.004673,-0.001664,-0.00169,0.0,0.0,0.0,-0.00614,-0.512093,-0.002248,-1.534388,-264.725442,-1.325485,62.311063
3.6574,-0.004857,-0.001404,-0.002187,0.0,0.0,0.0,-0.00614,-0.512093,-0.002248,-1.534388,-264.725442,-1.325485,62.311063
3.6774,-0.004633,-0.002155,-0.002107,0.0,0.0,0.0,-0.005973,-0.511403,-0.002187,-1.534388,-264.725442,-1.325485,62.311063
3.6978,-0.004992,-0.002086,-0.003075,0.0,0.0,0.0,-0.005955,-0.511453,-0.002182,-1.534388,-264.725442,-1.325485,62.311063
3.7178,-0.004756,-0.001888,-0.000483,0.0,0.0,0.0,-0.00656,-0.512084,-0.003075,-1.534388,-264.725442,-1.325485,62.311063
3.7373,-0.004857,-0.001754,-0.003053,0.0,0.0,0.0,-0.005679,-0.511973,-0.001609,-1.534388,-264.725442,-1.325485,62.311063
3.7576,-0.004656,-0.001745,-0.002848,0.0,0.0,0.0,-0.005679,-0.511973,-0.001609,-1.534388,-264.725442,-1.325485,62.311063
3.7775,-0.005009,-0.001764,-0.00267,0.0,0.0,0.0,-0.006109,-0.511743,-0.002848,-1.534388,-264.725442,-1.325485,62.311063
3.7972,-0.004543,-0.001752,-0.002351,0.0,0.0,0.0,-0.006126,-0.511744,-0.002837,-1.534388,-264.725442,-1.325485,62.311063
3.8173,-0.004983,-0.002005,-0.001493,9.3e-05,3.6e-05,0.0,-0.005742,-0.511751,-0.002351,-1.534388,-264.725442,-1.325485,62.311063
3.8374,-0.004968,-0.00227,-0.001702,9.3e-05,3.6e-05,0.0,-0.005744,-0.511894,-0.001866,-1.534388,-264.725442,-1.325485,62.311063
3.8572,-0.00494,-0.001767,-0.001539,9.3e-05,3.6e-05,0.0,-0.005744,-0.511894,-0.001866,-1.534388,-264.725442,-1.325485,62.311063
3.8774,-0.004849,-0.001866,-0.00221,9.3e-05,3.6e-05,0.0,-0.005725,-0.511767,-0.001539,-1.534388,-264.725442,-1.325485,62.311063
3.8976,-0.004674,-0.001897,-0.002732,9.3e-05,3.6e-05,0.0,-0.005742,-0.511773,-0.001584,-1.534388,-264.725442,-1.325485,62.311063
3.9172,-0.004908,-0.001794,-0.00128,9.3e-05,3.6e-05,0.0,-0.006067,-0.511895,-0.002732,-1.459385,-264.725442,-1.250481,62.311063
3.9374,-0.005175,-0.002355,-0.002331,9.3e-05,3.6e-05,0.0,-0.00578,-0.511837,-0.001908,-1.459385,-264.725442,-1.250481,62.311063
3.9574,-0.004935,-0.00205,0.00019,9.3e-05,3.6e-05,0.0,-0.00578,-0.511837,-0.001908,-1.459385,-264.725442,-1.250481,62.311063
3.9773,-0.004835,-0.001911,-0.00207,9.3e-05,3.6e-05,0.0,-0.004838,-0.51205,0.00019,-1.384392,-264.725442,-1.175489,62.311063
3.9976,-0.005148,-0.001726,-0.001521,9.3e-05,3.6e-05,0.0,-0.004911,-0.512041,3.4e-05,-1.384392,-264.725442,-1.175489,62.311063
4.0172,-0.004533,-0.001971,9.8e-05,9.3e-05,3.6e-05,0.0,-0.005924,-0.511725,-0.001521,-1.309384,-264.725442,-1.100481,62.311063
4.0378,-0.004981,-0.001947,-0.002498,0.000666,0.000259,0.000345,-0.005104,-0.511865,-0.0006,-1.309384,-264.725442,-1.100481,62.311063
4.0572,-0.004799,-0.002173,-0.001815,0.001293,0.000502,0.00067,-0.005104,-0.511865,-0.0006,-1.309384,-264.725442,-1.100481,62.311063
4.0774,-0.00488,-0.002312,-0.001902,0.001892,0.000735,0.00098,-0.005724,-0.512172,-0.001815,-1.234394,-264.725442,-1.025491,62.311063
4.0972,-0.004542,-0.002038,-0.003071,0.002451,0.000952,0.001269,-0.005733,-0.512182,-0.001821,-1.234394,-264.725442,-1.025491,62.311063
4.1172,-0.004413,-0.002103,-0.00102,0.002979,0.001157,0.001543,-0.006109,-0.512036,-0.003071,-1.159402,-264.725442,-0.950499,62.311063
4.1372,-0.004633,-0.002187,-0.000633,0.003474,0.001349,0.001799,-0.005435,-0.512074,-0.001896,-1.159402,-264.725442,-0.950499,62.311063
4.1573,-0.004707,-0.002116,-0.002253,0.003932,0.001527,0.002036,-0.005435,-0.512074,-0.001896,-1.159402,-264.725442,-0.950499,62.311063
4.1776,-0.004462,-0.001817,-0.001873,0.004359,0.001693,0.002258,-0.005856,-0.512115,-0.002253,-1.084279,-264.725442,-0.875375,62.311063
4.1972,-0.005174,-0.00215,-0.001991,0.00475,0.001844,0.00246,-0.005828,-0.512096,-0.002229,-1.084279,-264.725442,-0.875375,62.311063
4.2173,-0.005004,-0.002156,-0.002272,0.005107,0.001983,0.002645,-0.006189,-0.512149,-0.001991,-1.009379,-264.725442,-0.800476,62.311063
4.2375,-0.004842,-0.00221,-0.002396,0.005432,0.002109,0.002814,-0.006174,-0.512152,-0.002153,-1.009379,-264.725442,-0.800476,62.311063
4.2577,-0.004501,-0.002062,-0.001752,0.00572,0.002221,0.002963,-0.006174,-0.512152,-0.002153,-1.009379,-264.725442,-0.800476,62.311063
4.2775,-0.004658,-0.001726,-0.002906,0.005975,0.00232,0.003095,-0.005394,-0.512062,-0.001752,-0.93414,-264.725442,-0.725237,62.311063
4.2978,-0.004801,-0.002096,0.000433,0.006197,0.002406,0.003209,-0.005443,-0.51204,-0.001826,-0.93414,-264.725442,-0.725237,62.311063
4.3177,-0.004942,-0.001772,-0.003501,0.006384,0.002479,0.003306,-0.00458,-0.512096,0.000433,-0.859387,-264.725442,-0.650484,62.311063
4.3371,-0.004571,-0.001725,-0.002133,0.006537,0.002538,0.003386,-0.005774,-0.511914,-0.001753,-0.859387,-264.725442,-0.650484,62.311063
4.3571,-0.00487,-0.002171,-0.002439,0.006655,0.002584,0.003447,-0.005774,-0.511914,-0.001753,-0.859387,-264.725442,-0.650484,62.311063
4.3774,-0.004563,-0.001833,-0.003553,0.006741,0.002618,0.003491,-0.006114,-0.51217,-0.002439,-0.784383,-264.725442,-0.575479,62.311063
4.398,-0.00506,-0.002055,-0.001896,0.006792,0.002637,0.003518,-0.006134,-0.512144,-0.002524,-0.784383,-264.725442,-0.575479,62.311063
4.4176,-0.00468,-0.00244,-0.000367,0.006809,0.002644,0.003526,-0.006027,-0.512054,-0.001896,-0.709169,-264.725442,-0.500266,62.311063
4.4373,-0.004887,-0.002183,-0.001835,0.006791,0.002637,0.003517,-0.005377,-0.51227,-0.001039,-0.709169,-264.725442,-0.500266,62.311063
4.4573,-0.005473,-0.002179,-0.001642,0.006741,0.002617,0.003491,-0.005377,-0.51227,-0.001039,-0.709169,-264.725442,-0.500266,62.311063
4.4772,-0.004722,-0.001869,-0.002196,0.006655,0.002584,0.003447,-0.00631,-0.512178,-0.001642,-0.634366,-264.725442,-0.425462,62.311063
4.4971,-0.00469,-0.002245,0.000481,0.006536,0.002538,0.003385,-0.006276,-0.512156,-0.001682,-0.634366,-264.725442,-0.425462,62.311063
4.5173,-0.005034,-0.002209,-0.002369,0.006383,0.002479,0.003306,-0.004444,-0.512245,0.000481,-0.559297,-264.725442,-0.350394,62.311063
4.5373,-0.005016,-0.002255,-0.001874,0.006196,0.002406,0.003209,-0.005467,-0.512223,-0.001139,-0.559297,-264.725442,-0.350394,62.311063
4.5571,-0.004981,-0.002212,-0.002305,0.005974,0.00232,0.003094,-0.005467,-0.512223,-0.001139,-0.559297,-264.725442,-0.350394,62.311063
4.5774,-0.004931,-0.001752,-0.000911,0.00572,0.002221,0.002962,-0.006156,-0.512211,-0.002305,-0.484402,-264.725442,-0.275499,62.311063
4.5979,-0.004981,-0.00207,-0.002706,0.00543,0.002109,0.002813,-0.006107,-0.512181,-0.002214,-0.484402,-264.725442,-0.275499,62.311063
4.6175,-0.005027,-0.001851,-0.001016,0.005105,0.001982,0.002644,-0.006361,-0.512068,-0.002706,-0.409402,-264.725442,-0.200498,62.311063
4.6375,-0.004819,-0.001988,-0.003536,0.004747,0.001843,0.002459,-0.0059,-0.511945,-0.001751,-0.409402,-264.725442,-0.200498,62.311063
4.6575,-0.005047,-0.002089,-0.001885,0.004358,0.001692,0.002257,-0.0059,-0.511945,-0.001751,-0.409402,-264.725442,-0.200498,62.311063
4.6773,-0.005,-0.002295,-0.001825,0.003933,0.001527,0.002037,-0.006008,-0.512088,-0.001885,-0.334201,-264.725442,-0.125298,62.311063
4.6979,-0.004725,-0.00194,-0.003024,0.003473,0.001349,0.001799,-0.006002,-0.512105,-0.00188,-0.334201,-264.725442,-0.125298,62.311063
4.7171,-0.004679,-0.001842,-0.001293,0.002972,0.001154,0.001539,-0.006267,-0.511937,-0.003024,-0.258922,-264.725442,-0.050019,62.311063
4.7371,-0.0048,-0.002064,-0.003317,0.002448,0.000951,0.001268,-0.005739,-0.511883,-0.002041,-0.258922,-264.725442,-0.050019,62.311063
4.7571,-0.005097,-0.001774,-0.001822,0.001887,0.000733,0.000978,-0.005739,-0.511883,-0.002041,-0.258922,-264.725442,-0.050019,62.311063
4.7776,-0.004777,-0.002079,-0.001948,0.001294,0.000503,0.00067,-0.006026,-0.511773,-0.001822,-0.184228,-264.725442,0.024676,62.311063
4.7971,-0.005138,-0.001735,-0.002184,0.000665,0.000258,0.000344,-0.006008,-0.511795,-0.001831,-0.184228,-264.725442,0.024676,62.311063
4.8177,-0.004989,-0.002097,-0.002978,0.0,0.0,0.0,-0.006251,-0.511733,-0.002184,-0.109256,-264.725442,0.071863,62.311063
4.8375,-0.005015,-0.00219,-0.003176,0.0,0.0,0.0,-0.006398,-0.51194,-0.002639,-0.109256,-264.725442,0.071863,62.311063
4.8572,-0.004659,-0.002033,-0.002492,0.0,0.0,0.0,-0.006398,-0.51194,-0.002639,-0.109256,-264.725442,0.071863,62.311063
4.8773,-0.004562,-0.002066,-0.002778,0.0,0.0,0.0,-0.00593,-0.512031,-0.002492,-0.034286,-264.725442,0.071863,62.311063
4.8972,-0.004996,-0.002167,-0.001367,0.0,0.0,0.0,-0.005934,-0.512033,-0.002513,-0.034286,-264.725442,0.071863,62.311063
4.9176,-0.005039,-0.002211,-0.002633,0.0,0.0,0.0,-0.005693,-0.512167,-0.001367,-0.034286,-264.725442,0.071863,62.311063
4.9374,-0.00472,-0.002311,-0.003149,0.0,0.0,0.0,-0.006084,-0.512191,-0.002086,-0.034286,-264.725442,0.071863,62.311063
4.9577,-0.004903,-0.001982,-0.000142,0.0,0.0,0.0,-0.006084,-0.512191,-0.002086,-0.034286,-264.725442,0.071863,62.311063
4.9773,-0.004682,-0.001849,-0.002964,0.0,0.0,0.0,-0.004975,-0.511982,-0.000142,-0.034286,-264.725442,0.071863,62.311063
4.9973,-0.004679,-0.001849,-0.002161,0.0,0.0,0.0,-0.005053,-0.511974,-0.000322,-0.034286,-264.725442,0.071863,62.311063
5.0173,-0.004702,-0.001899,-0.001063,0.0,0.0,0.0,-0.005781,-0.511848,-0.002161,-0.034286,-264.725442,0.071863,62.311063
5.0374,-0.004875,-0.002146,-0.001307,0.0,0.0,0.0,-0.005474,-0.511877,-0.001534,-0.034286,-264.725442,0.071863,62.311063
5.0573,-0.004933,-0.002195,-0.001445,9.1e-05,4e-05,0.0,-0.005474,-0.511877,-0.001534,-0.034286,-264.725442,0.071863,62.311063
5.0774,-0.004468,-0.002224,-0.002261,9.1e-05,4e-05,0.0,-0.005669,-0.512195,-0.001445,-0.034286,-264.725442,0.071863,62.311063
5.0978,-0.004991,-0.002238,-0.002076,9.1e-05,4e-05,0.0,-0.005666,-0.512196,-0.001497,-0.034286,-264.725442,0.071863,62.311063
5.1172,-0.005175,-0.002165,-0.001852,9.1e-05,4e-05,0.0,-0.006049,-0.512236,-0.002076,0.040623,-264.725441,0.146771,62.311063
5.1371,-0.005054,-0.001919,-0.001127,9.1e-05,4e-05,0.0,-0.006089,-0.512195,-0.001948,0.040623,-264.725441,0.146771,62.311063
5.1572,-0.004757,-0.0025,-0.001267,9.1e-05,4e-05,0.0,-0.006089,-0.512195,-0.001948,0.040623,-264.725441,0.146771,62.311063
5.1772,-0.004682,-0.002121,-0.002572,9.1e-05,4e-05,0.0,-0.005403,-0.5125,-0.001267,0.115736,-264.72544,0.221885,62.311064
5.1976,-0.004747,-0.002187,-0.001679,9.1e-05,4e-05,0.0,-0.005446,-0.512472,-0.00136,0.115736,-264.72544,0.221885,62.311064
5.2171,-0.004943,-0.001842,-0.003047,9.1e-05,4e-05,0.0,-0.005603,-0.512186,-0.001679,0.190711,-264.725435,0.29686,62.311069
5.2371,-0.004526,-0.001429,-0.00148,9.1e-05,4e-05,0.0,-0.006115,-0.511987,-0.002463,0.190711,-264.725435,0.29686,62.311069
5.2573,-0.004998,-0.002272,-0.002905,9.1e-05,4e-05,0.0,-0.006115,-0.511987,-0.002463,0.190711,-264.725435,0.29686,62.311069
5.2772,-0.00509,-0.002013,-0.001332,0.000713,0.000315,0.000191,-0.006478,-0.512269,-0.002905,0.265748,-264.725421,0.371897,62.311084
5.2974,-0.004929,-0.001875,-0.001415,0.001389,0.000614,0.000373,-0.006427,-0.51225,-0.002791,0.265748,-264.725421,0.371897,62.311084
5.3174,-0.004985,-0.001577,0.000322,0.002028,0.000896,0.000544,-0.005648,-0.511874,-0.001415,0.340698,-264.725394,0.416022,62.31111
5.3372,-0.004787,-0.002019,-0.001056,0.00263,0.001162,0.000705,-0.005174,-0.511704,-0.000419,0.340698,-264.725394,0.416022,62.31111
5.3573,-0.004651,-0.001917,-0.00066,0.003197,0.001412,0.000858,-0.005174,-0.511704,-0.000419,0.340698,-264.725394,0.416022,62.31111
5.3775,-0.004514,-0.002359,-0.002043,0.003728,0.001647,0.001,-0.004963,-0.511906,-0.000658,0.41574,-264.725157,0.34098,62.311321
5.3975,-0.005015,-0.001887,-0.003676,0.00422,0.001864,0.001132,-0.005,-0.511935,-0.000747,0.41574,-264.725157,0.34098,62.311321
5.4173,-0.005008,-0.002196,-0.001485,0.004678,0.002067,0.001255,-0.0068,-0.511848,-0.003656,0.490608,-264.724096,0.27114,62.312263
5.4372,-0.004323,-0.002164,-0.001565,0.005097,0.002252,0.001367,-0.006197,-0.512042,-0.002411,0.490608,-264.724096,0.27114,62.312263
5.4574,-0.00458,-0.002078,-0.00222,0.005481,0.002421,0.00147,-0.006197,-0.512042,-0.002411,0.490608,-264.724096,0.27114,62.312263
5.4772,-0.004714,-0.001857,-0.001412,0.005829,0.002575,0.001563,-0.005517,-0.511991,-0.002168,0.544552,-264.722213,0.27114,62.313935
5.4976,-0.004656,-0.001647,-0.001796,0.006138,0.002712,0.001646,-0.005506,-0.511979,-0.002111,0.544552,-264.722213,0.27114,62.313935
5.5172,-0.004418,-0.002098,-0.00206,0.006413,0.002833,0.00172,-0.005361,-0.511554,-0.001739,0.544552,-264.71965,0.27114,62.31621
5.5374,-0.004141,-0.001861,-0.003415,0.00665,0.002938,0.001784,-0.005396,-0.511853,-0.001916,0.544552,-264.71965,0.27114,62.31621
5.5572,-0.004321,-0.002246,-0.001354,0.006851,0.003027,0.001838,-0.005396,-0.511853,-0.001916,0.544552,-264.71965,0.27114,62.31621
5.5778,-0.004135,-0.001583,-0.003025,0.007015,0.003099,0.001882,-0.004713,-0.512114,-0.001274,0.544552,-264.716783,0.27114,62.318755
5.5973,-0.00392,-0.001671,-0.001332,0.007143,0.003156,0.001916,-0.004771,-0.512075,-0.001391,0.544552,-264.716783,0.27114,62.318755
5.6172,-0.003828,-0.001068,-0.00115,0.007235,0.003196,0.001941,-0.004335,-0.511554,-0.001261,0.544552,-264.713579,0.27114,62.321599
5.6373,-0.003626,-0.001806,-0.001696,0.007289,0.003221,0.001955,-0.004347,-0.511262,-0.001189,0.544552,-264.713579,0.27114,62.321599
5.6576,-0.003857,-0.001552,-0.00177,0.007308,0.003229,0.00196,-0.004347,-0.511262,-0.001189,0.544552,-264.713579,0.27114,62.321599
5.6773,-0.003478,-0.001289,-0.001786,0.007289,0.00322,0.001955,-0.004412,-0.511398,-0.001677,0.544552,-264.710215,0.27114,62.324586
5.6974,-0.003489,-0.001184,-0.001361,0.007235,0.003196,0.001941,-0.004399,-0.511384,-0.001684,0.544552,-264.710215,0.27114,62.324586
5.7173,-0.003194,-0.001068,-0.000266,0.007143,0.003156,0.001916,-0.003903,-0.51106,-0.001286,0.544552,-264.706816,0.27114,62.327604
5.7374,-0.003234,-0.001362,-0.003021,0.007015,0.003099,0.001882,-0.003539,-0.511049,-0.000692,0.544552,-264.706816,0.27114,62.327604
5.7574,-0.003237,-0.000943,-0.000207,0.00685,0.003026,0.001837,-0.003539,-0.511049,-0.000692,0.544552,-264.706816,0.27114,62.327604
5.7771,-0.002924,-0.000711,-0.000408,0.00665,0.002938,0.001784,-0.002991,-0.510788,-0.000112,0.544552,-264.703438,0.27114,62.330603
5.7972,-0.002912,-0.001414,-0.000132,0.006413,0.002833,0.00172,-0.002992,-0.510779,-0.00013,0.544552,-264.703438,0.27114,62.330603
5.8177,-0.002515,-0.000817,-0.00137,0.006137,0.002712,0.001646,-0.002714,-0.511297,-6.1e-05,0.544552,-264.700232,0.27114,62.333449
5.8373,-0.002692,-0.001064,-0.000715,0.005828,0.002575,0.001563,-0.002964,-0.511009,-0.000795,0.544552,-264.700232,0.27114,62.333449
