mach0312/omni-docking-bench/src/icros_test_setup/results/kinematic_sample/timeseries/trial_099.csv
t,x,y,yaw,vx,vy,wz,bl_x,bl_y,bl_yaw,front_steering_joint,front_wheel_joint,rear_steering_joint,rear_wheel_joint
0.0,-0.050126,0.027182,0.084272,0.010332,0.001013,0.001449,-0.006464,-0.481116,0.087412,0.181641,-264.618037,0.012385,61.994315
0.0005,-0.05041,0.027356,0.084986,0.011326,0.00111,0.001588,-0.006464,-0.481116,0.087412,0.181641,-264.613831,0.012385,61.998452
0.0009,-0.050208,0.026985,0.08627,0.011241,0.001102,0.001576,-0.007211,-0.481243,0.086226,0.181641,-264.609318,0.012385,62.002891
0.0012,-0.04952,0.027275,0.084397,0.011099,0.001088,0.001556,-0.007211,-0.481243,0.086226,0.181641,-264.604716,0.012385,62.007418
0.0016,-0.049876,0.027066,0.084535,0.010901,0.001069,0.001529,-0.007211,-0.481243,0.086226,0.181641,-264.600144,0.012385,62.011915
0.0019,-0.049286,0.027088,0.086608,0.010645,0.001044,0.001493,-0.007376,-0.481008,0.084725,0.181641,-264.595711,0.012385,62.016275
0.0022,-0.049177,0.027459,0.084493,0.010333,0.001013,0.001449,-0.007376,-0.481008,0.084725,0.181641,-264.591658,0.012385,62.020262
0.0025,-0.049156,0.026868,0.085324,0.009964,0.000977,0.001397,-0.007346,-0.481017,0.084793,0.181641,-264.591658,0.012385,62.020262
0.0027,-0.048631,0.027647,0.085757,0.009536,0.000935,0.001337,-0.007346,-0.481017,0.084793,0.181641,-264.591658,0.012385,62.020262
0.003,-0.048101,0.027239,0.085807,0.009056,0.000888,0.00127,-0.007045,-0.480873,0.085409,0.181641,-264.591658,0.012385,62.020262
0.0062,-0.048136,0.027857,0.08641,0.0085,0.000833,0.001192,-0.004013,-0.480814,0.085861,0.181641,-264.591658,0.012385,62.020262
0.0262,-0.048317,0.027485,0.087208,0.0245,-0.015167,-0.028808,-0.004026,-0.48048,0.086179,0.181641,-264.591658,0.012385,62.020262
0.046,-0.04769,0.02774,0.086643,0.0405,-0.031167,-0.05,-0.004026,-0.48048,0.086179,0.181641,-264.591658,0.012385,62.020262
0.0661,-0.04763,0.027452,0.08503,0.04511,-0.031763,-0.05,-0.003123,-0.480266,0.086705,0.181641,-264.587976,0.012385,62.023884
0.086,-0.047885,0.027789,0.084546,0.045127,-0.031398,-0.05,-0.003195,-0.480294,0.086589,0.181641,-264.587976,0.012385,62.023884
0.1061,-0.047733,0.027493,0.085925,0.045367,-0.031734,-0.05,-0.004818,-0.480389,0.084546,0.106696,-264.587973,-0.015536,62.023886
0.1261,-0.048079,0.027783,0.086072,0.045198,-0.031488,-0.05,-0.004332,-0.480524,0.085332,0.106696,-264.587973,-0.015536,62.023886
0.1461,-0.047956,0.027564,0.084947,0.045512,-0.031813,-0.05,-0.004332,-0.480524,0.085332,0.106696,-264.587973,-0.015536,62.023886
0.1661,-0.047611,0.027677,0.085281,0.045445,-0.031533,-0.05,-0.004685,-0.480597,0.084947,0.03165,-264.58797,-0.019075,62.023887
0.1861,-0.047589,0.027773,0.085236,0.045081,-0.031632,-0.05,-0.004649,-0.480589,0.08497,0.03165,-264.58797,-0.019075,62.023887
0.206,-0.047701,0.027677,0.084274,0.045052,-0.031724,-0.05,-0.004171,-0.480376,0.085236,-0.043304,-264.587967,-0.028015,62.023889
0.226,-0.04793,0.027595,0.086256,0.045202,-0.031593,-0.05,-0.004513,-0.480454,0.084688,-0.043304,-264.587967,-0.028015,62.023889
0.2462,-0.047636,0.027408,0.086259,0.045375,-0.031621,-0.05,-0.004513,-0.480454,0.084688,-0.043304,-264.587967,-0.028015,62.023889
0.2662,-0.047254,0.027658,0.086201,0.045097,-0.03141,-0.05,-0.003698,-0.480696,0.086259,-0.11836,-264.587964,-0.02428,62.023891
0.2864,-0.047626,0.02732,0.085553,0.044697,-0.031623,-0.05,-0.003673,-0.480678,0.086254,-0.11836,-264.587964,-0.02428,62.023891
0.3066,-0.047979,0.027442,0.085517,0.045118,-0.03129,-0.05,-0.004047,-0.480814,0.085553,-0.193485,-264.58796,-0.023879,62.023893
0.326,-0.047513,0.027814,0.087949,0.04546,-0.03144,-0.05,-0.004258,-0.480746,0.085533,-0.193485,-264.58796,-0.023879,62.023893
0.3462,-0.048029,0.027538,0.086484,0.044886,-0.03188,-0.05,-0.004258,-0.480746,0.085533,-0.193485,-264.58796,-0.023879,62.023893
0.366,-0.047728,0.027471,0.084569,0.045471,-0.031584,-0.05,-0.003977,-0.480556,0.086484,-0.268301,-264.587956,-0.024291,62.023895
0.3865,-0.047753,0.027869,0.086411,0.045237,-0.031405,-0.05,-0.004023,-0.480566,0.086353,-0.268301,-264.587956,-0.024291,62.023895
0.406,-0.047585,0.027849,0.085507,0.04517,-0.031886,-0.05,-0.003738,-0.480228,0.08641,-0.343315,-264.587943,-0.029906,62.023903
0.4262,-0.047852,0.027783,0.086242,0.045032,-0.031811,-0.05,-0.003905,-0.480262,0.085891,-0.343315,-264.587943,-0.029906,62.023903
0.4461,-0.047859,0.02795,0.08647,0.045281,-0.031801,-0.05,-0.003905,-0.480262,0.085891,-0.343315,-264.587943,-0.029906,62.023903
0.4661,-0.047624,0.027465,0.084326,0.045266,-0.031979,-0.05,-0.003807,-0.480146,0.086467,-0.418468,-264.58787,-0.019166,62.023946
0.486,-0.047354,0.027365,0.086014,0.045142,-0.031379,-0.05,-0.003867,-0.480186,0.086318,-0.418468,-264.58787,-0.019166,62.023946
0.5063,-0.047836,0.027227,0.084982,0.044828,-0.031332,-0.05,-0.003519,-0.480755,0.086002,-0.493314,-264.587562,-0.027907,62.024127
0.5261,-0.047825,0.027815,0.085659,0.045352,-0.031189,-0.05,-0.004101,-0.480857,0.08542,-0.493314,-264.587562,-0.027907,62.024127
0.5461,-0.047926,0.027779,0.085921,0.04527,-0.031805,-0.05,-0.004101,-0.480857,0.08542,-0.493314,-264.587562,-0.027907,62.024127
0.5662,-0.047508,0.027109,0.086491,0.045366,-0.03179,-0.05,-0.004061,-0.480368,0.085862,-0.568308,-264.586449,-0.018637,62.024783
0.5867,-0.047188,0.027818,0.08669,0.044989,-0.031111,-0.05,-0.004013,-0.480414,0.085907,-0.568308,-264.586449,-0.018637,62.024783
0.6061,-0.047108,0.027196,0.084304,0.044603,-0.031799,-0.05,-0.002818,-0.48034,0.086547,-0.643438,-264.583356,-0.027992,62.026601
0.6266,-0.046983,0.027738,0.086565,0.044651,-0.031066,-0.05,-0.003563,-0.480724,0.085242,-0.643438,-264.583356,-0.027992,62.026601
0.6463,-0.046938,0.027298,0.085301,0.044409,-0.031696,-0.05,-0.003563,-0.480724,0.085242,-0.643438,-264.583356,-0.027992,62.026601
0.6663,-0.046611,0.02733,0.08572,0.044442,-0.031198,-0.05,-0.002954,-0.48103,0.084941,-0.718461,-264.577765,-0.012752,62.03088
0.6864,-0.046197,0.027186,0.085111,0.0441,-0.03122,-0.05,-0.002939,-0.481018,0.084986,-0.718461,-264.577765,-0.012752,62.03088
0.7064,-0.045486,0.027181,0.084403,0.043718,-0.031015,-0.05,-0.00222,-0.481202,0.08467,-0.793442,-264.569675,-0.026075,62.037658
0.7263,-0.045118,0.027105,0.084253,0.043033,-0.030919,-0.05,-0.002297,-0.481118,0.084461,-0.793442,-264.569675,-0.026075,62.037658
0.746,-0.0453,0.02713,0.084513,0.042677,-0.030806,-0.05,-0.002297,-0.481118,0.084461,-0.793442,-264.569675,-0.026075,62.037658
0.7662,-0.043687,0.026649,0.082865,0.042849,-0.030857,-0.05,-0.001234,-0.481465,0.083725,-0.868414,-264.559099,-0.01548,62.046923
0.7865,-0.043993,0.02688,0.083825,0.041331,-0.030173,-0.05,-0.001223,-0.481486,0.083643,-0.868414,-264.559099,-0.01548,62.046923
0.8062,-0.041992,0.026331,0.082486,0.041588,-0.030469,-0.05,-0.000313,-0.481764,0.082993,-0.943306,-264.546012,-0.006292,62.058698
0.8263,-0.042581,0.026223,0.081948,0.03968,-0.029701,-0.05,5e-06,-0.481917,0.082599,-0.943306,-264.546012,-0.006292,62.058698
0.846,-0.042028,0.02585,0.0822,0.040292,-0.029621,-0.05,5e-06,-0.481917,0.082599,-0.943306,-264.546012,-0.006292,62.058698
0.8662,-0.039874,0.025421,0.080016,0.039764,-0.029213,-0.05,0.001305,-0.483087,0.080906,-0.973082,-264.530424,0.008808,62.072974
0.8864,-0.039929,0.025827,0.082389,0.037714,-0.028527,-0.05,0.001315,-0.483095,0.080808,-0.973082,-264.530424,0.008808,62.072974
0.9063,-0.037537,0.024831,0.080791,0.037668,-0.029026,-0.05,0.003356,-0.483046,0.081171,-0.98065,-264.512337,0.022754,62.089029
0.9263,-0.037205,0.024816,0.080051,0.035411,-0.027779,-0.05,0.003674,-0.483384,0.080801,-0.98065,-264.512337,0.022754,62.089029
0.9462,-0.037218,0.024784,0.079512,0.035101,-0.027712,-0.05,0.003674,-0.483384,0.080801,-0.98065,-264.512337,0.022754,62.089029
0.966,-0.034703,0.023799,0.078301,0.035132,-0.027662,-0.05,0.004934,-0.484485,0.077707,-1.002529,-264.491749,0.053254,62.1038
0.9864,-0.034504,0.023921,0.079241,0.032735,-0.026441,-0.05,0.004995,-0.484519,0.0777,-1.002529,-264.491749,0.053254,62.1038
1.0063,-0.032135,0.023052,0.075538,0.032502,-0.026577,-0.05,0.007178,-0.485285,0.077582,-1.028462,-264.468623,0.080335,62.117595
1.0263,-0.032208,0.022743,0.075789,0.030304,-0.025411,-0.05,0.006873,-0.485505,0.076212,-1.028462,-264.468623,0.080335,62.117595
1.0463,-0.0323,0.022987,0.075801,0.030393,-0.025116,-0.05,0.006873,-0.485505,0.076212,-1.028462,-264.468623,0.080335,62.117595
1.0664,-0.028909,0.022057,0.073671,0.030466,-0.025367,-0.05,0.007941,-0.486668,0.073461,-1.04933,-264.443141,0.124493,62.130388
1.0861,-0.029057,0.022058,0.071728,0.027207,-0.024125,-0.05,0.008055,-0.486695,0.073403,-1.04933,-264.443141,0.124493,62.130388
1.1063,-0.026459,0.020819,0.071699,0.027401,-0.024084,-0.05,0.008659,-0.487463,0.069911,-1.070938,-264.419246,0.176517,62.142021
1.1259,-0.026773,0.02103,0.069358,0.0249,-0.022661,-0.05,0.009608,-0.4878,0.070684,-1.070938,-264.419246,0.176517,62.142021
1.1461,-0.026377,0.020775,0.07294,0.025251,-0.022835,-0.05,0.009608,-0.4878,0.070684,-1.070938,-264.419246,0.176517,62.142021
1.1661,-0.023863,0.020086,0.068969,0.024793,-0.022642,-0.05,0.012096,-0.488869,0.070677,-1.108965,-264.396477,0.231453,62.152445
1.1862,-0.023695,0.019682,0.069023,0.022422,-0.021683,-0.05,0.012073,-0.488885,0.07049,-1.108965,-264.396477,0.231453,62.152445
1.2065,-0.02153,0.019192,0.065333,0.022281,-0.021269,-0.05,0.012437,-0.489859,0.067231,-1.128895,-264.37453,0.296078,62.162258
1.2266,-0.021435,0.018784,0.066248,0.020231,-0.020557,-0.05,0.012175,-0.489875,0.065918,-1.128895,-264.37453,0.296078,62.162258
1.2462,-0.021356,0.019362,0.06758,0.020145,-0.020162,-0.05,0.012175,-0.489875,0.065918,-1.128895,-264.37453,0.296078,62.162258
1.2661,-0.019027,0.018172,0.064708,0.02,-0.02076,-0.05,0.014107,-0.49034,0.065439,-1.16523,-264.354417,0.371069,62.17079
1.2864,-0.019171,0.01837,0.063754,0.017813,-0.019364,-0.05,0.014124,-0.490397,0.065322,-1.16523,-264.354417,0.371069,62.17079
1.3061,-0.017283,0.017677,0.06312,0.017961,-0.019554,-0.05,0.014009,-0.491205,0.062173,-1.192594,-264.336367,0.44617,62.178287
1.3263,-0.017052,0.017622,0.062,0.016133,-0.018732,-0.05,0.014596,-0.491341,0.06251,-1.192594,-264.336367,0.44617,62.178287
1.3465,-0.017291,0.017565,0.062742,0.015928,-0.018645,-0.05,0.014596,-0.491341,0.06251,-1.192594,-264.336367,0.44617,62.178287
1.3663,-0.015571,0.017028,0.060416,0.016156,-0.018615,-0.05,0.015432,-0.492152,0.060824,-1.227939,-264.319505,0.520983,62.184978
1.3867,-0.015533,0.016903,0.060008,0.014515,-0.017937,-0.05,0.015437,-0.492162,0.060754,-1.227939,-264.319505,0.520983,62.184978
1.4067,-0.013771,0.016239,0.057756,0.014491,-0.017804,-0.05,0.01558,-0.492729,0.058502,-1.257604,-264.303325,0.596003,62.1912
1.4267,-0.013934,0.016272,0.05855,0.01281,-0.017007,-0.05,0.015695,-0.492899,0.057896,-1.257604,-264.303325,0.596003,62.1912
1.4462,-0.014,0.016424,0.057467,0.012957,-0.01706,-0.05,0.015695,-0.492899,0.057896,-1.257604,-264.303325,0.596003,62.1912
1.4661,-0.012213,0.01615,0.05645,0.013033,-0.017201,-0.05,0.0159,-0.493403,0.055564,-1.279865,-264.287341,0.671087,62.197271
1.4867,-0.012103,0.015315,0.055116,0.011282,-0.016814,-0.05,0.015958,-0.493396,0.055575,-1.279865,-264.287341,0.671087,62.197271
1.5063,-0.010798,0.015153,0.054069,0.011241,-0.015958,-0.05,0.016401,-0.49439,0.053702,-1.305007,-264.272674,0.745981,62.20283
1.5263,-0.011063,0.015047,0.054443,0.009964,-0.015714,-0.05,0.01666,-0.494286,0.053732,-1.305007,-264.272674,0.745981,62.20283
1.5465,-0.010855,0.015175,0.055402,0.010228,-0.015627,-0.05,0.01666,-0.494286,0.053732,-1.305007,-264.272674,0.745981,62.20283
1.5662,-0.009145,0.014462,0.051637,0.009998,-0.015753,-0.05,0.017832,-0.494626,0.053655,-1.336888,-264.25851,0.821111,62.208
1.5863,-0.009452,0.01453,0.052001,0.008387,-0.014915,-0.05,0.017798,-0.494658,0.053467,-1.336888,-264.25851,0.821111,62.208
1.6062,-0.008392,0.013946,0.050331,0.008684,-0.015002,-0.05,0.017372,-0.495201,0.050657,-1.352761,-264.245269,0.895981,62.213063
1.626,-0.007761,0.01427,0.050221,0.00768,-0.01435,-0.05,0.017351,-0.495371,0.050306,-1.352761,-264.245269,0.895981,62.213063
1.6461,-0.007896,0.014186,0.051256,0.007035,-0.014642,-0.05,0.017351,-0.495371,0.050306,-1.352761,-264.245269,0.895981,62.213063
1.6661,-0.007371,0.013643,0.050295,0.007159,-0.014572,-0.05,0.018511,-0.49556,0.049884,-1.388334,-264.234662,0.97109,62.217132
1.6865,-0.006709,0.013707,0.050527,0.006676,-0.013996,-0.05,0.018502,-0.495582,0.049876,-1.388334,-264.234662,0.97109,62.217132
1.706,-0.00617,0.013255,0.048491,0.006008,-0.014028,-0.05,0.019241,-0.495969,0.049429,-1.41632,-264.224126,1.045991,62.221137
1.7261,-0.006045,0.013211,0.048877,0.005521,-0.013539,-0.048491,0.018871,-0.496111,0.048755,-1.41632,-264.224126,1.045991,62.221137
1.7461,-0.005924,0.013341,0.04833,0.005392,-0.01349,-0.048877,0.018871,-0.496111,0.048755,-1.41632,-264.224126,1.045991,62.221137
1.7662,-0.005137,0.012289,0.044841,0.005272,-0.013612,-0.04833,0.018992,-0.49655,0.046586,-1.422004,-264.211096,1.121034,62.226313
1.7864,-0.00511,0.012871,0.046835,0.004581,-0.012507,-0.044841,0.01891,-0.496609,0.046416,-1.422004,-264.211096,1.121034,62.226313
1.8065,-0.003852,0.012813,0.045547,0.004502,-0.013096,-0.046835,0.018954,-0.496958,0.045426,-1.447024,-264.197984,1.19598,62.231484
1.8261,-0.003803,0.012004,0.045086,0.003264,-0.012975,-0.045547,0.019215,-0.496836,0.045316,-1.447024,-264.197984,1.19598,62.231484
1.846,-0.00404,0.012235,0.045588,0.003258,-0.012163,-0.045086,0.019215,-0.496836,0.045316,-1.447024,-264.197984,1.19598,62.231484
1.8669,-0.002658,0.011903,0.04275,0.003478,-0.012406,-0.045588,0.019429,-0.497779,0.043607,-1.456474,-264.183373,1.271033,62.23715
1.8867,-0.002771,0.011798,0.04236,0.002147,-0.012005,-0.04275,0.019415,-0.497783,0.043494,-1.456474,-264.183373,1.271033,62.23715
1.906,-0.001392,0.011616,0.040189,0.002269,-0.011905,-0.04236,0.018955,-0.498146,0.04086,-1.48891,-264.16965,1.345977,62.242563
1.9259,-0.001212,0.011266,0.040064,0.000925,-0.011662,-0.040189,0.019053,-0.498098,0.040289,-1.48891,-264.16965,1.345977,62.242563
1.9461,-0.001377,0.011142,0.039489,0.000759,-0.011305,-0.040064,0.019053,-0.498098,0.040289,-1.48891,-264.16965,1.345977,62.242563
1.9661,-7.1e-05,0.010642,0.038975,0.000936,-0.011187,-0.039489,0.018873,-0.498987,0.037601,-1.514523,-264.1558,1.419723,62.247739
1.9863,-0.000117,0.01075,0.040109,-0.000344,-0.010636,-0.038975,0.018937,-0.498999,0.037644,-1.514523,-264.1558,1.419723,62.247739
2.0064,0.000677,0.010414,0.037123,-0.000314,-0.010746,-0.040109,0.020377,-0.499211,0.03879,-1.549575,-264.143599,1.494732,62.252235
2.0261,0.000984,0.010158,0.038126,-0.001063,-0.010382,-0.037123,0.019944,-0.499271,0.037674,-1.549575,-264.143599,1.494732,62.252235
2.0461,0.000817,0.010478,0.038078,-0.001371,-0.010113,-0.038126,0.019944,-0.499271,0.037674,-1.549575,-264.143599,1.494732,62.252235
2.0666,0.00162,0.009966,0.035413,-0.001216,-0.01044,-0.038078,0.020242,-0.499582,0.0365,-1.580773,-264.132125,1.569734,62.256623
2.0861,0.001578,0.00983,0.033724,-0.001972,-0.009903,-0.035413,0.020203,-0.499603,0.036383,-1.580773,-264.132125,1.569734,62.256623
2.106,0.002234,0.009391,0.034407,-0.001972,-0.009903,-0.035413,0.018747,-0.500203,0.032507,-1.611814,-264.121083,1.644734,62.260998
2.1264,0.002323,0.009542,0.034055,-2.6e-05,-9.6e-05,0.0,0.01933,-0.500303,0.033435,-1.611814,-264.121083,1.644734,62.260998
2.1462,0.002271,0.0093,0.034599,-2.6e-05,-9.6e-05,0.0,0.01933,-0.500303,0.033435,-1.611814,-264.121083,1.644734,62.260998
2.1666,0.003115,0.009219,0.032107,-2.6e-05,-9.6e-05,0.0,0.019848,-0.500813,0.033109,-1.633244,-264.110151,1.719736,62.265112
2.186,0.002929,0.009225,0.032217,-2.6e-05,-9.6e-05,0.0,0.019822,-0.500804,0.033,-1.633244,-264.110151,1.719736,62.265112
2.2067,0.002581,0.009071,0.031582,-2.6e-05,-9.6e-05,0.0,0.019359,-0.500555,0.032143,-1.558244,-264.109219,1.644736,62.265112
2.2268,0.002964,0.009119,0.030687,-2.6e-05,-9.6e-05,0.0,0.018979,-0.500628,0.031817,-1.558244,-264.109219,1.644736,62.265112
2.2467,0.003041,0.008969,0.032707,-2.6e-05,-9.6e-05,0.0,0.018979,-0.500628,0.031817,-1.558244,-264.109219,1.644736,62.265112
2.2666,0.002946,0.008987,0.030706,-2.6e-05,-9.6e-05,0.0,0.019719,-0.500758,0.032707,-1.483241,-264.109219,1.569733,62.265112
2.286,0.002965,0.009244,0.03244,-2.6e-05,-9.6e-05,0.0,0.019642,-0.500759,0.032569,-1.483241,-264.109219,1.569733,62.265112
2.3065,0.002853,0.009049,0.03232,-2.6e-05,-9.6e-05,0.0,0.019506,-0.500488,0.03244,-1.408238,-264.109219,1.494729,62.265112
2.3262,0.003523,0.009007,0.032091,-2.6e-05,-9.6e-05,0.0,0.019408,-0.5006,0.032372,-1.408238,-264.109219,1.494729,62.265112
2.3459,0.00314,0.009304,0.032402,-0.000372,-0.001355,-0.00501,0.019408,-0.5006,0.032372,-1.408238,-264.109219,1.494729,62.265112
2.3661,0.003354,0.009267,0.03434,-0.000727,-0.002647,-0.009784,0.019662,-0.500428,0.032402,-1.333244,-264.109219,1.419736,62.265112
2.3863,0.003002,0.008801,0.032532,-0.001062,-0.00387,-0.014305,0.019746,-0.500428,0.032538,-1.333244,-264.109219,1.419736,62.265112
2.407,0.003404,0.009136,0.032742,-0.001379,-0.005022,-0.018563,0.019591,-0.500929,0.032532,-1.408248,-264.109219,1.344733,62.265112
2.4265,0.003255,0.009072,0.032498,-0.001677,-0.006108,-0.022576,0.019881,-0.500736,0.032652,-1.408248,-264.109219,1.344733,62.265112
2.4464,0.003071,0.009124,0.031483,-0.001954,-0.007119,-0.026315,0.019881,-0.500736,0.032652,-1.408248,-264.109219,1.344733,62.265112
2.4668,0.003209,0.009353,0.031826,-0.002213,-0.008063,-0.029802,0.019124,-0.500623,0.031483,-1.483381,-264.109219,1.2696,62.265112
2.4867,0.003111,0.00921,0.031391,-0.002452,-0.008933,-0.03302,0.019148,-0.500606,0.031509,-1.483381,-264.109219,1.2696,62.265112
2.5061,0.003149,0.008889,0.032705,-0.002673,-0.009738,-0.035995,0.019118,-0.500539,0.031391,-1.558441,-264.109218,1.19454,62.265112
2.5266,0.003051,0.009195,0.029665,-0.002875,-0.010473,-0.03871,0.019519,-0.500709,0.032137,-1.558441,-264.109218,1.19454,62.265112
2.5463,0.003387,0.009032,0.034015,-0.003056,-0.011132,-0.041148,0.019519,-0.500709,0.032137,-1.558441,-264.109218,1.19454,62.265112
2.5663,0.002552,0.00873,0.031704,-0.003219,-0.011726,-0.043343,0.020731,-0.500673,0.034015,-1.633251,-264.109217,1.11973,62.265112
2.586,0.003166,0.009168,0.032251,-0.003363,-0.01225,-0.045281,0.02059,-0.500697,0.033853,-1.633251,-264.109217,1.11973,62.265112
2.6062,0.003092,0.009307,0.032471,-0.003488,-0.012705,-0.046961,0.019611,-0.500567,0.032251,-1.654871,-264.109216,1.044554,62.265111
2.6266,0.003275,0.009334,0.031826,-0.003593,-0.013088,-0.048378,0.019633,-0.500486,0.032375,-1.654871,-264.109216,1.044554,62.265111
2.6463,0.0028,0.009102,0.032774,-0.003679,-0.013403,-0.049541,0.019633,-0.500486,0.032375,-1.654871,-264.109216,1.044554,62.265111
2.6661,0.003162,0.009212,0.031353,-0.003747,-0.013647,-0.050446,0.019512,-0.500625,0.032773,-1.654871,-264.109214,0.969731,62.265111
2.6865,0.003109,0.008965,0.031559,-0.003795,-0.013822,-0.051092,0.019488,-0.500619,0.03268,-1.654871,-264.109214,0.969731,62.265111
2.7064,0.003154,0.009,0.031665,-0.003823,-0.013927,-0.05148,0.019201,-0.500781,0.031559,-1.654871,-264.109212,0.894733,62.26511
2.7264,0.003331,0.009242,0.032054,-0.003833,-0.013963,-0.05161,0.019258,-0.50076,0.031619,-1.654871,-264.109212,0.894733,62.26511
2.7462,0.002612,0.009104,0.031551,-0.003824,-0.013928,-0.051482,0.019258,-0.50076,0.031619,-1.654871,-264.109212,0.894733,62.26511
2.7664,0.002997,0.008905,0.032367,-0.003795,-0.013824,-0.051096,0.0187,-0.500642,0.031551,-1.654871,-264.10921,0.819735,62.265109
2.7869,0.002838,0.009107,0.031982,-0.003747,-0.013649,-0.050453,0.018751,-0.500654,0.031604,-1.654871,-264.10921,0.819735,62.265109
2.8064,0.002925,0.008801,0.03205,-0.00368,-0.013405,-0.049548,0.019146,-0.500633,0.031982,-1.654871,-264.109209,0.744736,62.265108
2.8263,0.002839,0.00924,0.032389,-0.003594,-0.013092,-0.048392,0.019215,-0.500803,0.03202,-1.654871,-264.109209,0.744736,62.265108
2.8463,0.002757,0.009175,0.030609,-0.003489,-0.012708,-0.046972,0.019215,-0.500803,0.03202,-1.654871,-264.109209,0.744736,62.265108
2.8663,0.00301,0.00904,0.032356,-0.003363,-0.012252,-0.045287,0.018365,-0.500587,0.030609,-1.654871,-264.109207,0.669629,62.265108
2.8868,0.003182,0.009115,0.032377,-0.00322,-0.011729,-0.043355,0.018443,-0.500594,0.030728,-1.654871,-264.109207,0.669629,62.265108
2.906,0.002885,0.00929,0.033148,-0.003057,-0.011137,-0.041167,0.019691,-0.500618,0.032377,-1.654871,-264.109205,0.59473,62.265107
2.926,0.003208,0.008968,0.032361,-0.002876,-0.010475,-0.03872,0.019746,-0.500512,0.032812,-1.654871,-264.109205,0.59473,62.265107
2.9461,0.002999,0.008834,0.031887,-0.002675,-0.009743,-0.036013,0.019746,-0.500512,0.032812,-1.654871,-264.109205,0.59473,62.265107
2.9662,0.0028,0.008923,0.032172,-0.002454,-0.00894,-0.033045,0.019259,-0.500907,0.031887,-1.654871,-264.109204,0.519675,62.265106
2.9865,0.003384,0.009126,0.032094,-0.002215,-0.008068,-0.029822,0.019255,-0.500899,0.03191,-1.654871,-264.109204,0.519675,62.265106
3.006,0.003044,0.008999,0.031677,-0.001956,-0.007125,-0.026337,0.019749,-0.500611,0.032094,-1.654871,-264.109202,0.444171,62.265106
3.0261,0.003295,0.008764,0.03188,-0.001678,-0.006114,-0.022599,0.019433,-0.500688,0.031855,-1.654871,-264.109202,0.444171,62.265106
3.0462,0.003475,0.008915,0.032012,-0.001381,-0.005032,-0.018598,0.019433,-0.500688,0.031855,-1.654871,-264.109202,0.444171,62.265106
3.0664,0.003044,0.008696,0.031312,-0.001065,-0.00388,-0.014341,0.019799,-0.500824,0.032012,-1.654871,-264.109201,0.369643,62.265106
3.0865,0.003294,0.009346,0.032715,-0.00073,-0.002659,-0.009828,0.019746,-0.500839,0.031965,-1.654871,-264.109201,0.369643,62.265106
3.1061,0.003025,0.009035,0.03125,-0.000373,-0.00136,-0.005026,0.019976,-0.500381,0.032715,-1.654871,-264.109201,0.294649,62.265105
3.1261,0.00278,0.008966,0.031438,-1e-06,-5e-06,-1.9e-05,0.019393,-0.500573,0.031875,-1.654871,-264.109201,0.294649,62.265105
3.1461,0.00327,0.008962,0.031951,0.0,0.0,0.0,0.019393,-0.500573,0.031875,-1.654871,-264.109201,0.294649,62.265105
3.1663,0.002918,0.009107,0.031816,0.0,0.0,0.0,0.019562,-0.500777,0.031951,-1.654871,-264.1092,0.219613,62.265105
3.1866,0.003369,0.008938,0.033227,0.0,0.0,0.0,0.019533,-0.500767,0.031941,-1.654871,-264.1092,0.219613,62.265105
3.2064,0.002921,0.009008,0.030938,0.0,0.0,0.0,0.020311,-0.50078,0.033227,-1.654871,-264.1092,0.219613,62.265105
3.2262,0.003096,0.00931,0.030739,0.0,0.0,0.0,0.019393,-0.500762,0.031925,-1.654871,-264.1092,0.219613,62.265105
3.2461,0.003089,0.008793,0.032169,0.0,0.0,0.0,0.019393,-0.500762,0.031925,-1.654871,-264.1092,0.219613,62.265105
3.2661,0.003191,0.008998,0.031891,0.0,0.0,0.0,0.019493,-0.500943,0.032169,-1.654871,-264.1092,0.219613,62.265105
3.2866,0.003289,0.008809,0.032304,0.0,0.0,0.0,0.01949,-0.500927,0.032146,-1.654871,-264.1092,0.219613,62.265105
3.3062,0.003259,0.009161,0.032964,0.0,0.0,0.0,0.019761,-0.500924,0.032304,-1.654871,-264.1092,0.219613,62.265105
3.3265,0.002803,0.009139,0.031326,0.0,0.0,0.0,0.019937,-0.500717,0.032683,-1.654871,-264.1092,0.219613,62.265105
3.3466,0.002807,0.009274,0.031137,0.0,0.0,0.0,0.019937,-0.500717,0.032683,-1.654871,-264.1092,0.219613,62.265105
3.3665,0.002934,0.009243,0.032838,-3.2e-05,-9.5e-05,0.0,0.018685,-0.500478,0.031137,-1.654871,-264.1092,0.219613,62.265105
3.3862,0.003057,0.009168,0.032992,-3.2e-05,-9.5e-05,0.0,0.018771,-0.500479,0.031285,-1.654871,-264.1092,0.219613,62.265105
3.4063,0.002843,0.009045,0.031806,-3.2e-05,-9.5e-05,0.0,0.019879,-0.500554,0.032992,-1.654871,-264.1092,0.219613,62.265105
3.4266,0.003033,0.00925,0.032422,-3.2e-05,-9.5e-05,0.0,0.019413,-0.500636,0.032315,-1.654871,-264.1092,0.219613,62.265105
3.4465,0.003154,0.00914,0.032342,-3.2e-05,-9.5e-05,0.0,0.019413,-0.500636,0.032315,-1.654871,-264.1092,0.219613,62.265105
3.4663,0.002833,0.009154,0.032241,-3.2e-05,-9.5e-05,0.0,0.019646,-0.500593,0.032342,-1.580289,-264.1092,0.294194,62.265105
3.4864,0.003249,0.009221,0.032192,-3.2e-05,-9.5e-05,0.0,0.01962,-0.500592,0.032335,-1.580289,-264.1092,0.294194,62.265105
3.5064,0.003067,0.008871,0.031346,-3.2e-05,-9.5e-05,0.0,0.019664,-0.500515,0.032192,-1.505435,-264.1092,0.369048,62.265105
3.5261,0.003569,0.00929,0.03215,-3.2e-05,-9.5e-05,0.0,0.019317,-0.500721,0.031713,-1.505435,-264.1092,0.369048,62.265105
3.546,0.00298,0.008971,0.031552,-3.2e-05,-9.5e-05,0.0,0.019317,-0.500721,0.031713,-1.505435,-264.1092,0.369048,62.265105
3.5664,0.003174,0.008791,0.033314,-3.2e-05,-9.5e-05,0.0,0.019069,-0.500775,0.031552,-1.430438,-264.1092,0.444045,62.265105
3.587,0.002981,0.009279,0.031947,-0.000449,-0.001333,-0.004521,0.019145,-0.500785,0.031675,-1.430438,-264.1092,0.444045,62.265105
3.6063,0.003252,0.00915,0.032216,-0.000879,-0.002609,-0.008846,0.019271,-0.500461,0.031947,-1.35545,-264.1092,0.519034,62.265105
3.6262,0.002894,0.008822,0.031818,-0.001286,-0.003816,-0.012939,0.019504,-0.500532,0.0321,-1.35545,-264.1092,0.519034,62.265105
3.6468,0.003054,0.008997,0.032066,-0.001668,-0.004949,-0.016782,0.019504,-0.500532,0.0321,-1.35545,-264.1092,0.519034,62.265105
3.6662,0.002896,0.00897,0.031749,-0.002028,-0.006018,-0.020406,0.019405,-0.500741,0.032066,-1.430543,-264.1092,0.443941,62.265105
3.6863,0.003116,0.009147,0.031402,-0.002365,-0.007017,-0.023795,0.019384,-0.500743,0.032045,-1.430543,-264.1092,0.443941,62.265105
3.7066,0.003304,0.008975,0.032372,-0.002679,-0.007948,-0.026952,0.019129,-0.500601,0.031402,-1.505451,-264.1092,0.369033,62.265105
3.7263,0.003251,0.009376,0.032891,-0.00297,-0.008813,-0.029884,0.019518,-0.500691,0.031956,-1.505451,-264.1092,0.369033,62.265105
3.7462,0.003249,0.008838,0.030015,-0.003236,-0.009601,-0.032555,0.019518,-0.500691,0.031956,-1.505451,-264.1092,0.369033,62.265105
3.7661,0.003015,0.008898,0.031422,-0.00348,-0.010325,-0.035012,0.018554,-0.500933,0.030015,-1.580558,-264.1092,0.293925,62.265105
3.7864,0.003058,0.009185,0.031978,-0.003701,-0.010983,-0.037242,0.018589,-0.500927,0.030115,-1.580558,-264.1092,0.293925,62.265105
3.8061,0.002923,0.009104,0.031447,-0.003898,-0.011566,-0.03922,0.019364,-0.500555,0.031978,-1.655548,-264.109199,0.218935,62.265104
3.8262,0.003245,0.009246,0.033293,-0.004072,-0.012083,-0.040972,0.019132,-0.500606,0.031674,-1.655548,-264.109199,0.218935,62.265104
3.8461,0.003127,0.00913,0.029903,-0.004224,-0.012533,-0.042498,0.019132,-0.500606,0.031674,-1.655548,-264.109199,0.218935,62.265104
3.8662,0.00324,0.008647,0.033579,-0.004351,-0.012911,-0.04378,0.018375,-0.500642,0.029903,-1.6801,-264.109197,0.143937,62.265104
3.886,0.002737,0.00914,0.032101,-0.004456,-0.013221,-0.044831,0.018519,-0.500673,0.030168,-1.6801,-264.109197,0.143937,62.265104
3.9063,0.003175,0.009171,0.032335,-0.004538,-0.013466,-0.045662,0.019106,-0.500597,0.032101,-1.6801,-264.109196,0.068882,62.265103
3.9266,0.002879,0.009327,0.032301,-0.004595,-0.013635,-0.046235,0.019425,-0.500577,0.032236,-1.6801,-264.109196,0.068882,62.265103
3.9461,0.003525,0.008714,0.033251,-0.00463,-0.013739,-0.046587,0.019425,-0.500577,0.032236,-1.6801,-264.109196,0.068882,62.265103
3.9667,0.003203,0.008831,0.033346,-0.004642,-0.013774,-0.046706,0.02048,-0.501004,0.033251,-1.6801,-264.109194,-0.006111,62.265103
3.986,0.003258,0.009104,0.032593,-0.00463,-0.013739,-0.046589,0.020461,-0.500996,0.033257,-1.6801,-264.109194,-0.006111,62.265103
4.006,0.003153,0.009091,0.032665,-0.004596,-0.013637,-0.046242,0.019878,-0.500625,0.032593,-1.6801,-264.109192,-0.080977,62.265102
4.0263,0.003185,0.009487,0.031329,-0.004538,-0.013465,-0.04566,0.019839,-0.500632,0.032634,-1.6801,-264.109192,-0.080977,62.265102
4.0462,0.002776,0.009061,0.034139,-0.004457,-0.013224,-0.044843,0.019839,-0.500632,0.032634,-1.6801,-264.109192,-0.080977,62.265102
4.0663,0.003169,0.008986,0.032387,-0.004352,-0.012914,-0.043792,0.020184,-0.500642,0.034139,-1.6801,-264.109191,-0.155977,62.265102
4.0863,0.002902,0.008999,0.032235,-0.004225,-0.012537,-0.042514,0.020149,-0.500649,0.03402,-1.6801,-264.109191,-0.155977,62.265102
4.1059,0.002898,0.009289,0.032655,-0.004072,-0.012081,-0.040966,0.019339,-0.500736,0.032234,-1.6801,-264.109189,-0.230988,62.265101
4.1264,0.003176,0.00894,0.032058,-0.0039,-0.011571,-0.039237,0.019458,-0.500568,0.032473,-1.6801,-264.109189,-0.230988,62.265101
4.1462,0.002941,0.009284,0.032753,-0.003703,-0.010986,-0.037255,0.019458,-0.500568,0.032473,-1.6801,-264.109189,-0.230988,62.265101
4.1664,0.002948,0.008642,0.034051,-0.003482,-0.010333,-0.035038,0.019642,-0.500443,0.032753,-1.6801,-264.109187,-0.305978,62.2651
4.1864,0.002874,0.00945,0.032871,-0.003239,-0.00961,-0.032589,0.019686,-0.500483,0.032837,-1.6801,-264.109187,-0.305978,62.2651
4.206,0.003217,0.008898,0.032047,-0.002971,-0.008816,-0.029894,0.019635,-0.500275,0.032871,-1.6801,-264.109186,-0.380971,62.2651
4.2261,0.003458,0.009011,0.031536,-0.002682,-0.007957,-0.026981,0.019591,-0.500599,0.032398,-1.6801,-264.109186,-0.380971,62.2651
4.2463,0.003045,0.009218,0.032261,-0.00237,-0.007032,-0.023846,0.019591,-0.500599,0.032398,-1.6801,-264.109186,-0.380971,62.2651
4.2666,0.003213,0.008837,0.03143,-0.002034,-0.006034,-0.020461,0.019496,-0.500516,0.032261,-1.6801,-264.109185,-0.45609,62.2651
4.2866,0.003153,0.009127,0.030974,-0.001674,-0.004967,-0.016841,0.019479,-0.500542,0.032207,-1.6801,-264.109185,-0.45609,62.2651
4.3065,0.003018,0.008807,0.031257,-0.00129,-0.003828,-0.012982,0.018947,-0.500628,0.030974,-1.6801,-264.109184,-0.530964,62.265099
4.3263,0.003046,0.00937,0.031659,-0.000885,-0.002625,-0.008901,0.018952,-0.500809,0.031136,-1.6801,-264.109184,-0.530964,62.265099
4.3463,0.00327,0.009127,0.032329,-0.000455,-0.00135,-0.004579,0.018952,-0.500809,0.031136,-1.6801,-264.109184,-0.530964,62.265099
4.366,0.003238,0.009163,0.033119,-3e-06,-9e-06,-3e-05,0.019754,-0.500607,0.032329,-1.6801,-264.109183,-0.606072,62.265099
4.3863,0.003087,0.009071,0.032738,0.0,0.0,0.0,0.01978,-0.500603,0.032382,-1.6801,-264.109183,-0.606072,62.265099
4.4062,0.002817,0.009189,0.031679,0.0,0.0,0.0,0.01978,-0.500656,0.032737,-1.6801,-264.109182,-0.680965,62.265098
4.4262,0.003213,0.009112,0.033042,0.0,0.0,0.0,0.019314,-0.500597,0.032128,-1.6801,-264.109182,-0.680965,62.265098
4.4462,0.003086,0.008982,0.031425,0.0,0.0,0.0,0.019314,-0.500597,0.032128,-1.6801,-264.109182,-0.680965,62.265098
4.4659,0.003192,0.009249,0.032023,0.0,0.0,0.0,0.01911,-0.500766,0.031425,-1.6801,-264.109182,-0.680965,62.265098
4.4867,0.003151,0.008821,0.032026,0.0,0.0,0.0,0.019138,-0.500747,0.031466,-1.6801,-264.109182,-0.680965,62.265098
4.5065,0.002793,0.008866,0.031407,0.0,0.0,0.0,0.019481,-0.500917,0.032026,-1.6801,-264.109182,-0.680965,62.265098
4.526,0.00316,0.008735,0.032565,0.0,0.0,0.0,0.019096,-0.500897,0.031672,-1.6801,-264.109182,-0.680965,62.265098
4.5463,0.003173,0.008756,0.032297,0.0,0.0,0.0,0.019096,-0.500897,0.031672,-1.6801,-264.109182,-0.680965,62.265098
4.5664,0.002866,0.008907,0.03262,0.0,0.0,0.0,0.019642,-0.500978,0.032297,-1.6801,-264.109182,-0.680965,62.265098
4.5863,0.003289,0.008719,0.031403,-3.4e-05,-9.4e-05,0.0,0.019631,-0.500967,0.032321,-1.6801,-264.109182,-0.680965,62.265098
4.606,0.002864,0.009243,0.031866,-3.4e-05,-9.4e-05,0.0,0.019302,-0.501029,0.031403,-1.6801,-264.109182,-0.680965,62.265098
4.6261,0.003075,0.009051,0.031169,-3.4e-05,-9.4e-05,0.0,0.019194,-0.500725,0.031669,-1.6801,-264.109182,-0.680965,62.265098
4.6459,0.002945,0.008735,0.032267,-3.4e-05,-9.4e-05,0.0,0.019194,-0.500725,0.031669,-1.6801,-264.109182,-0.680965,62.265098
4.6664,0.002658,0.009123,0.031781,-3.4e-05,-9.4e-05,0.0,0.019398,-0.501,0.032267,-1.605062,-264.109182,-0.605927,62.265098
4.6865,0.003184,0.009197,0.031158,-3.4e-05,-9.4e-05,0.0,0.019345,-0.500962,0.032219,-1.605062,-264.109182,-0.605927,62.265098
4.7062,0.003066,0.009124,0.030707,-3.4e-05,-9.4e-05,0.0,0.019072,-0.500555,0.031158,-1.529306,-264.109182,-0.530171,62.265098
4.7262,0.003193,0.008907,0.034396,-3.4e-05,-9.4e-05,0.0,0.018873,-0.500601,0.0309,-1.529306,-264.109182,-0.530171,62.265098
4.746,0.003244,0.009235,0.031667,-3.4e-05,-9.4e-05,0.0,0.018873,-0.500601,0.0309,-1.529306,-264.109182,-0.530171,62.265098
4.7661,0.003031,0.008901,0.030496,-3.4e-05,-9.4e-05,0.0,0.019391,-0.500509,0.031667,-1.455071,-264.109182,-0.455937,62.265098
4.7861,0.003567,0.009271,0.032167,-3.4e-05,-9.4e-05,0.0,0.019331,-0.500536,0.03158,-1.455071,-264.109182,-0.455937,62.265098
4.8065,0.002948,0.009145,0.030507,-0.000462,-0.00129,-0.004778,0.019969,-0.500465,0.032167,-1.380066,-264.109182,-0.380931,62.265098
4.8263,0.003271,0.00904,0.030701,-0.000899,-0.002509,-0.009293,0.019133,-0.500552,0.03122,-1.380066,-264.109182,-0.380931,62.265098
4.8462,0.003152,0.008902,0.032519,-0.001313,-0.003666,-0.013575,0.019133,-0.500552,0.03122,-1.380066,-264.109182,-0.380931,62.265098
4.8665,0.003284,0.009185,0.033542,-0.001704,-0.004757,-0.017615,0.019734,-0.500828,0.032519,-1.305056,-264.109182,-0.305921,62.265098
4.886,0.002973,0.009002,0.032206,-0.00207,-0.00578,-0.021404,0.019781,-0.500807,0.032592,-1.305056,-264.109182,-0.305921,62.265098
4.9062,0.003215,0.009284,0.031517,-0.002414,-0.006739,-0.024956,0.019395,-0.500734,0.032206,-1.38016,-264.109182,-0.381025,62.265098
4.9262,0.002888,0.008456,0.031955,-0.002732,-0.007629,-0.028252,0.019334,-0.500581,0.031818,-1.38016,-264.109182,-0.381025,62.265098
4.9461,0.003124,0.009221,0.031871,-0.003028,-0.008456,-0.031313,0.019334,-0.500581,0.031818,-1.38016,-264.109182,-0.381025,62.265098
4.9664,0.003264,0.009189,0.031532,-0.003301,-0.009216,-0.034129,0.019376,-0.50052,0.031871,-1.454917,-264.109182,-0.455782,62.265098
4.9864,0.002924,0.008935,0.030766,-0.003549,-0.00991,-0.036698,0.019374,-0.500522,0.031848,-1.454917,-264.109182,-0.455782,62.265098
5.0064,0.002767,0.009129,0.031208,-0.003774,-0.010537,-0.039021,0.018613,-0.500824,0.030766,-1.529947,-264.109181,-0.530812,62.265098
5.0261,0.003067,0.009242,0.032598,-0.003975,-0.011098,-0.041098,0.018652,-0.500708,0.03102,-1.529947,-264.109181,-0.530812,62.265098
5.046,0.003096,0.009069,0.031573,-0.004152,-0.011594,-0.042935,0.018652,-0.500708,0.03102,-1.529947,-264.109181,-0.530812,62.265098
5.0661,0.003401,0.008968,0.032951,-0.004306,-0.012024,-0.044526,0.019196,-0.500677,0.031573,-1.605093,-264.10918,-0.605958,62.265098
5.0867,0.002821,0.008893,0.03299,-0.004436,-0.012387,-0.045871,0.019272,-0.500683,0.031677,-1.605093,-264.10918,-0.605958,62.265098
5.106,0.002966,0.008971,0.031202,-0.004543,-0.012685,-0.046973,0.019642,-0.50083,0.032989,-1.680055,-264.109175,-0.68092,62.265096
5.1263,0.002974,0.009704,0.033008,-0.004626,-0.012916,-0.047829,0.019212,-0.500803,0.031984,-1.680055,-264.109175,-0.68092,62.265096
5.1461,0.003565,0.008853,0.031201,-0.004685,-0.013081,-0.048441,0.019212,-0.500803,0.031984,-1.680055,-264.109175,-0.68092,62.265096
5.1665,0.003091,0.008832,0.031584,-0.00472,-0.01318,-0.048808,0.019474,-0.5009,0.031197,-1.680158,-264.109147,-0.75589,62.265085
5.1866,0.002962,0.008829,0.032361,-0.004732,-0.013213,-0.048931,0.019455,-0.500901,0.031223,-1.680158,-264.109147,-0.75589,62.265085
5.206,0.003421,0.009276,0.032693,-0.00472,-0.01318,-0.048808,0.019461,-0.500909,0.032347,-1.680158,-264.109015,-0.830783,62.265032
5.2261,0.002944,0.008854,0.03224,-0.004685,-0.013081,-0.048441,0.019817,-0.500651,0.032541,-1.680158,-264.109015,-0.830783,62.265032
5.2463,0.00299,0.008853,0.030562,-0.004625,-0.012914,-0.047824,0.019817,-0.500651,0.032541,-1.680158,-264.109015,-0.830783,62.265032
5.2663,0.002981,0.00949,0.031818,-0.004543,-0.012685,-0.046973,0.018564,-0.500929,0.030498,-1.680158,-264.108526,-0.905898,62.264836
5.2871,0.002938,0.009042,0.030148,-0.004435,-0.012384,-0.045859,0.018607,-0.500884,0.030586,-1.680158,-264.108526,-0.905898,62.264836
5.306,0.002985,0.00927,0.030659,-0.004306,-0.012024,-0.044526,0.018289,-0.500772,0.029998,-1.680158,-264.107098,-0.980789,62.264266
5.3262,0.002932,0.009134,0.031663,-0.004153,-0.011595,-0.042938,0.018474,-0.500617,0.030356,-1.680158,-264.107098,-0.980789,62.264266
5.3463,0.00318,0.008746,0.031344,-0.003974,-0.011098,-0.041096,0.018474,-0.500617,0.030356,-1.680158,-264.107098,-0.980789,62.264266
5.3668,0.002807,0.009241,0.029738,-0.003774,-0.010538,-0.039023,0.019106,-0.501134,0.030906,-1.680158,-264.103818,-1.055914,62.262954
5.3862,0.00337,0.009174,0.030057,-0.003547,-0.009905,-0.036681,0.019026,-0.501096,0.030813,-1.680158,-264.103818,-1.055914,62.262954
5.4067,0.00378,0.008525,0.030205,-0.003298,-0.00921,-0.034106,0.018624,-0.500774,0.029435,-1.680158,-264.098013,-1.130789,62.260619
5.4264,0.003108,0.008712,0.03189,-0.003027,-0.008453,-0.031303,0.018936,-0.501066,0.0298,-1.680158,-264.098013,-1.130789,62.260619
5.4462,0.003252,0.008827,0.032132,-0.00273,-0.007623,-0.028229,0.018936,-0.501066,0.0298,-1.680158,-264.098013,-1.130789,62.260619
5.4661,0.004196,0.008508,0.028226,-0.002412,-0.006736,-0.024945,0.019519,-0.501221,0.031003,-1.680158,-264.089753,-1.206131,62.257251
5.4861,0.004236,0.008152,0.028925,-0.00207,-0.005781,-0.021409,0.019451,-0.501234,0.03078,-1.680158,-264.089753,-1.206131,62.257251
5.5062,0.004638,0.007516,0.028034,-0.001703,-0.004756,-0.017613,0.018898,-0.501898,0.027961,-1.680158,-264.080918,-1.280783,62.253719
5.526,0.004666,0.007702,0.029223,-0.001313,-0.003665,-0.013573,0.018907,-0.502148,0.027878,-1.680158,-264.080918,-1.280783,62.253719
5.5462,0.004881,0.008061,0.028688,-0.0009,-0.002512,-0.009302,0.018907,-0.502148,0.027878,-1.680158,-264.080918,-1.280783,62.253719
5.5663,0.00539,0.007921,0.027873,-0.000462,-0.001289,-0.004774,0.019417,-0.502013,0.027648,-1.680158,-264.073352,-1.294221,62.250695
5.5865,0.004984,0.007636,0.026772,0.0,0.0,0.0,0.019427,-0.502011,0.027637,-1.680158,-264.073352,-1.294221,62.250695
5.6062,0.005499,0.007616,0.025541,0.0,0.0,0.0,0.018604,-0.50228,0.026413,-1.680158,-264.070055,-1.294221,62.249377
5.6266,0.005287,0.007591,0.026992,0.0,0.0,0.0,0.018554,-0.502257,0.025874,-1.680158,-264.070055,-1.294221,62.249377
5.6463,0.005306,0.007561,0.026171,0.0,0.0,0.0,0.018554,-0.502257,0.025874,-1.680158,-264.070055,-1.294221,62.249377
5.6661,0.005471,0.007278,0.026052,0.0,0.0,0.0,0.018652,-0.502265,0.026171,-1.680158,-264.070055,-1.294221,62.249377
5.6865,0.005221,0.007727,0.027193,0.0,0.0,0.0,0.018659,-0.502283,0.026163,-1.680158,-264.070055,-1.294221,62.249377
5.706,0.005514,0.007932,0.026732,0.0,0.0,0.0,0.019088,-0.502084,0.027193,-1.680158,-264.070055,-1.294221,62.249377
5.7264,0.005541,0.007134,0.02611,0.0,0.0,0.0,0.01912,-0.501973,0.026934,-1.680158,-264.070055,-1.294221,62.249377
5.7463,0.005382,0.007689,0.027507,0.0,0.0,0.0,0.01912,-0.501973,0.026934,-1.680158,-264.070055,-1.294221,62.249377
5.7661,0.005225,0.007633,0.027068,0.0,0.0,0.0,0.019409,-0.502118,0.027507,-1.680158,-264.070055,-1.294221,62.249377
5.7865,0.0051,0.00779,0.025544,0.0,0.0,0.0,0.019383,-0.502122,0.027478,-1.680158,-264.070055,-1.294221,62.249377
5.8061,0.005242,0.007728,0.025704,0.0,0.0,0.0,0.018127,-0.502044,0.025544,-1.680158,-264.070055,-1.294221,62.249377
5.826,0.005567,0.007584,0.027956,-5.8e-05,-8.1e-05,0.0,0.018254,-0.502078,0.025636,-1.680158,-264.070055,-1.294221,62.249377
5.8466,0.00544,0.007911,0.027393,-5.8e-05,-8.1e-05,0.0,0.018254,-0.502078,0.025636,-1.680158,-264.070055,-1.294221,62.249377
5.8662,0.005462,0.007603,0.025832,-5.8e-05,-8.1e-05,0.0,0.019409,-0.501898,0.027393,-1.680158,-264.070055,-1.294221,62.249377
5.8865,0.005046,0.007628,0.025637,-5.8e-05,-8.1e-05,0.0,0.019358,-0.50192,0.02729,-1.680158,-264.070055,-1.294221,62.249377
5.9063,0.005274,0.007669,0.027536,-5.8e-05,-8.1e-05,0.0,0.01812,-0.502204,0.025637,-1.605235,-264.070055,-1.219297,62.249377
5.9262,0.005367,0.007805,0.027943,-5.8e-05,-8.1e-05,0.0,0.018816,-0.502165,0.026742,-1.605235,-264.070055,-1.219297,62.249377
5.9465,0.004987,0.007829,0.026871,-5.8e-05,-8.1e-05,0.0,0.018816,-0.502165,0.026742,-1.605235,-264.070055,-1.219297,62.249377
5.9661,0.005187,0.0073,0.027224,-5.8e-05,-8.1e-05,0.0,0.01869,-0.501987,0.026871,-1.529812,-264.070055,-1.143874,62.249377
5.9863,0.005498,0.007742,0.026875,-5.8e-05,-8.1e-05,0.0,0.018715,-0.502022,0.026894,-1.529812,-264.070055,-1.143874,62.249377
6.0066,0.004928,0.00774,0.025933,-5.8e-05,-8.1e-05,0.0,0.019203,-0.502074,0.026875,-1.455148,-264.070055,-1.069211,62.249377
6.0262,0.00532,0.007759,0.026006,-5.8e-05,-8.1e-05,0.0,0.0186,-0.502082,0.026335,-1.455148,-264.070055,-1.069211,62.249377
6.0461,0.00505,0.007298,0.026102,-0.00079,-0.001103,-0.003734,0.0186,-0.502082,0.026335,-1.455148,-264.070055,-1.069211,62.249377
6.0659,0.0054,0.007676,0.025487,-0.001545,-0.002156,-0.007301,0.01836,-0.502528,0.026102,-1.380103,-264.070055,-0.994166,62.249377
6.0861,0.00531,0.007438,0.025901,-0.002259,-0.003153,-0.010676,0.018363,-0.502502,0.026059,-1.380103,-264.070055,-0.994166,62.249377
6.1061,0.005384,0.007552,0.028165,-0.002934,-0.004095,-0.013867,0.018519,-0.502391,0.025901,-1.305249,-264.070055,-0.979913,62.249377
6.1261,0.005204,0.00765,0.026089,-0.003564,-0.004974,-0.016845,0.019219,-0.502308,0.027193,-1.305249,-264.070055,-0.979913,62.249377
6.1462,0.005034,0.00778,0.026184,-0.004157,-0.005801,-0.019643,0.019219,-0.502308,0.027193,-1.305249,-264.070055,-0.979913,62.249377
6.1662,0.005416,0.007896,0.026849,-0.004708,-0.006571,-0.022251,0.018386,-0.502045,0.026184,-1.230148,-264.070055,-0.979913,62.249377
6.1863,0.005403,0.007531,0.025168,-0.005219,-0.007284,-0.024664,0.018433,-0.502037,0.026227,-1.230148,-264.070055,-0.979913,62.249377
6.2062,0.005148,0.007346,0.0269,-0.005689,-0.007939,-0.026883,0.018238,-0.502308,0.025168,-1.15525,-264.070056,-0.979913,62.249377
6.2264,0.004995,0.007756,0.025035,-0.006117,-0.008536,-0.028906,0.018592,-0.502399,0.026146,-1.15525,-264.070056,-0.979913,62.249377
6.2463,0.005326,0.007773,0.025598,-0.006504,-0.009077,-0.030737,0.018592,-0.502399,0.026146,-1.15525,-264.070056,-0.979913,62.249377
6.2666,0.00508,0.007567,0.027607,-0.006851,-0.009562,-0.032378,0.01838,-0.50206,0.025598,-1.080235,-264.070057,-0.979913,62.249376
6.2863,0.00551,0.007605,0.025893,-0.007157,-0.009989,-0.033824,0.018432,-0.502072,0.025735,-1.080235,-264.070057,-0.979913,62.249376
6.3063,0.005396,0.007369,0.027082,-0.007423,-0.010359,-0.035079,0.018714,-0.502224,0.025893,-1.005246,-264.070058,-0.979913,62.249376
6.3263,0.005333,0.007612,0.027615,-0.007647,-0.010672,-0.036139,0.018995,-0.502349,0.026573,-1.005246,-264.070058,-0.979913,62.249376
6.3463,0.005037,0.00788,0.027214,-0.007831,-0.010929,-0.037009,0.018995,-0.502349,0.026573,-1.005246,-264.070058,-0.979913,62.249376
6.3661,0.005327,0.00788,0.025914,-0.007974,-0.011129,-0.037685,0.018915,-0.501931,0.027214,-0.930151,-264.070059,-0.979913,62.249375
6.387,0.005391,0.007868,0.026371,-0.008077,-0.011272,-0.038168,0.018886,-0.501933,0.027113,-0.930151,-264.070059,-0.979913,62.249375
6.4066,0.005137,0.007524,0.026055,-0.008138,-0.011357,-0.038459,0.018838,-0.501955,0.026371,-0.854908,-264.070061,-0.979913,62.249375
6.4264,0.005076,0.007637,0.026953,-0.008159,-0.011386,-0.038556,0.018601,-0.502154,0.02619,-0.854908,-264.070061,-0.979913,62.249375
6.4463,0.004821,0.008007,0.024925,-0.008139,-0.011358,-0.038461,0.018601,-0.502154,0.02619,-0.854908,-264.070061,-0.979913,62.249375
6.4665,0.005237,0.007879,0.026722,-0.008078,-0.011273,-0.038173,0.017532,-0.501834,0.024925,-0.780152,-264.070062,-0.979913,62.249374
6.4865,0.004987,0.007454,0.026737,-0.007975,-0.01113,-0.03769,0.017617,-0.501841,0.02504,-0.780152,-264.070062,-0.979913,62.249374
6.5061,0.00506,0.007806,0.026812,-0.007833,-0.010932,-0.037019,0.018621,-0.502364,0.026737,-0.705234,-264.070064,-0.979913,62.249374
6.5261,0.005096,0.007462,0.027132,-0.007649,-0.010675,-0.036148,0.018684,-0.502164,0.026779,-0.705234,-264.070064,-0.979913,62.249374
6.546,0.004897,0.007655,0.028926,-0.007426,-0.010364,-0.035094,0.018684,-0.502164,0.026779,-0.705234,-264.070064,-0.979913,62.249374
6.566,0.005584,0.007656,0.027084,-0.007161,-0.009993,-0.03384,0.019647,-0.502131,0.028926,-0.630239,-264.070065,-0.979913,62.249373
6.5866,0.005404,0.007428,0.027566,-0.006855,-0.009566,-0.032393,0.019629,-0.502133,0.028796,-0.630239,-264.070065,-0.979913,62.249373
6.6062,0.005186,0.007642,0.02683,-0.006506,-0.00908,-0.030748,0.019461,-0.502378,0.027566,-0.555084,-264.070066,-0.979913,62.249373
6.6266,0.005309,0.007429,0.027148,-0.006122,-0.008544,-0.028932,0.019123,-0.502262,0.027147,-0.555084,-264.070066,-0.979913,62.249373
6.6461,0.005328,0.007431,0.026961,-0.005694,-0.007946,-0.026908,0.019123,-0.502262,0.027147,-0.555084,-264.070066,-0.979913,62.249373
6.6662,0.005434,0.007698,0.026468,-0.005223,-0.007289,-0.024682,0.019076,-0.502384,0.026961,-0.480243,-264.070068,-0.979913,62.249372
6.6862,0.005016,0.00777,0.026815,-0.004715,-0.00658,-0.022283,0.019066,-0.502365,0.026926,-0.480243,-264.070068,-0.979913,62.249372
6.7064,0.005163,0.007209,0.025003,-0.004164,-0.005812,-0.01968,0.01869,-0.502046,0.026815,-0.405246,-264.070069,-0.979913,62.249372
6.7262,0.005312,0.00753,0.026931,-0.003574,-0.004988,-0.016892,0.018248,-0.502379,0.025783,-0.405246,-264.070069,-0.979913,62.249372
6.7466,0.005719,0.007838,0.026235,-0.002942,-0.004105,-0.013901,0.018248,-0.502379,0.025783,-0.405246,-264.070069,-0.979913,62.249372
6.7663,0.005071,0.007634,0.028384,-0.002266,-0.003162,-0.010708,0.019098,-0.501986,0.026235,-0.330251,-264.070069,-0.979913,62.249371
6.7866,0.005416,0.007446,0.025878,-0.001556,-0.002171,-0.007351,0.019129,-0.501999,0.026386,-0.330251,-264.070069,-0.979913,62.249371
6.806,0.005096,0.007597,0.026362,-0.0008,-0.001116,-0.00378,0.018612,-0.502383,0.025878,-0.255248,-264.07007,-0.979913,62.249371
6.826,0.005028,0.007615,0.026277,-2e-06,-3e-06,-1e-05,0.01857,-0.502293,0.026155,-0.255248,-264.07007,-0.979913,62.249371
6.8461,0.005419,0.007777,0.025615,0.0,0.0,0.0,0.01857,-0.502293,0.026155,-0.255248,-264.07007,-0.979913,62.249371
6.8661,0.005486,0.00798,0.026966,0.0,0.0,0.0,0.018481,-0.502056,0.025615,-0.180145,-264.07007,-0.979913,62.249371
6.8864,0.005318,0.008112,0.026894,0.0,0.0,0.0,0.018541,-0.502039,0.025722,-0.180145,-264.07007,-0.979913,62.249371
6.9062,0.005066,0.007711,0.027934,0.0,0.0,0.0,0.019033,-0.501704,0.026894,-0.180145,-264.07007,-0.979913,62.249371
6.9261,0.005373,0.007975,0.027421,0.0,0.0,0.0,0.019191,-0.501924,0.027486,-0.180145,-264.07007,-0.979913,62.249371
6.9464,0.005281,0.007713,0.025978,0.0,0.0,0.0,0.019191,-0.501924,0.027486,-0.180145,-264.07007,-0.979913,62.249371
6.9662,0.00517,0.007796,0.02659,0.0,0.0,0.0,0.018529,-0.502114,0.025978,-0.180145,-264.07007,-0.979913,62.249371
6.986,0.005463,0.007381,0.025201,0.0,0.0,0.0,0.018543,-0.502108,0.026023,-0.180145,-264.07007,-0.979913,62.249371
7.006,0.004953,0.007574,0.026535,0.0,0.0,0.0,0.018314,-0.502457,0.025201,-0.180145,-264.07007,-0.979913,62.249371
7.0262,0.004987,0.007572,0.02625,0.0,0.0,0.0,0.018412,-0.502336,0.025967,-0.180145,-264.07007,-0.979913,62.249371
7.0463,0.004843,0.007147,0.025204,0.0,0.0,0.0,0.018412,-0.502336,0.025967,-0.180145,-264.07007,-0.979913,62.249371
7.0667,0.005462,0.007319,0.02638,-5.8e-05,-8.1e-05,0.0,0.017696,-0.502691,0.025204,-0.180145,-264.07007,-0.979913,62.249371
7.087,0.005033,0.0078,0.026911,-5.8e-05,-8.1e-05,0.0,0.01778,-0.502678,0.025285,-0.180145,-264.07007,-0.979913,62.249371
7.1062,0.00541,0.007866,0.02602,-5.8e-05,-8.1e-05,0.0,0.018756,-0.502016,0.026911,-0.180145,-264.07007,-0.979913,62.249371
7.1262,0.005295,0.00765,0.025129,-5.8e-05,-8.1e-05,0.0,0.018712,-0.501985,0.026404,-0.180145,-264.07007,-0.979913,62.249371
7.1461,0.005714,0.007537,0.026207,-5.8e-05,-8.1e-05,0.0,0.018712,-0.501985,0.026404,-0.180145,-264.07007,-0.979913,62.249371
7.1662,0.005184,0.007806,0.026012,-5.8e-05,-8.1e-05,0.0,0.019078,-0.502288,0.026207,-0.10506,-264.07007,-0.904827,62.249371
7.1865,0.005497,0.007432,0.027016,-5.8e-05,-8.1e-05,0.0,0.019033,-0.502269,0.026193,-0.10506,-264.07007,-0.904827,62.249371
7.2065,0.005075,0.007376,0.025172,-5.8e-05,-8.1e-05,0.0,0.019274,-0.502382,0.027016,-0.030044,-264.07007,-0.829812,62.249371
7.2263,0.005557,0.007586,0.026223,-5.8e-05,-8.1e-05,0.0,0.018492,-0.502428,0.025958,-0.030044,-264.07007,-0.829812,62.249371
7.2462,0.005366,0.007717,0.025934,-5.8e-05,-8.1e-05,0.0,0.018492,-0.502428,0.025958,-0.030044,-264.07007,-0.829812,62.249371
7.2665,0.00517,0.007768,0.026817,-0.0,-0.0,-0.0,0.018592,-0.502111,0.025934,0.045025,-264.07007,-0.754743,62.249371
7.2862,0.005083,0.007622,0.02738,-0.000734,-0.001027,-0.003684,0.018609,-0.502107,0.025994,0.045025,-264.07007,-0.754743,62.249371
7.3062,0.005168,0.007578,0.026364,-0.001431,-0.002002,-0.007184,0.019045,-0.502187,0.02738,0.11985,-264.07007,-0.679917,62.249371
7.3261,0.005348,0.007753,0.028016,-0.002089,-0.002922,-0.010487,0.018798,-0.50222,0.026801,0.11985,-264.07007,-0.679917,62.249371
7.3461,0.005489,0.007704,0.027839,-0.002712,-0.003792,-0.01361,0.018798,-0.50222,0.026801,0.11985,-264.07007,-0.679917,62.249371
7.3665,0.005566,0.007742,0.026555,-0.003295,-0.004609,-0.01654,0.019685,-0.502099,0.027839,0.194877,-264.07007,-0.754943,62.249371
7.3861,0.004682,0.007396,0.026259,-0.003841,-0.005372,-0.019279,0.019643,-0.502097,0.027746,0.194877,-264.07007,-0.754943,62.249371
7.4067,0.005201,0.007668,0.027512,-0.004352,-0.006086,-0.021842,0.018072,-0.502428,0.026259,0.270015,-264.07007,-0.830082,62.249371
7.4263,0.00545,0.007528,0.0267,-0.004822,-0.006743,-0.024201,0.018728,-0.502264,0.026968,0.270015,-264.07007,-0.830082,62.249371
7.4463,0.005123,0.007365,0.026452,-0.005256,-0.007351,-0.026381,0.018728,-0.502264,0.026968,0.270015,-264.07007,-0.830082,62.249371
7.4662,0.005108,0.007715,0.026,-0.005651,-0.007902,-0.02836,0.018612,-0.502457,0.026452,0.344871,-264.070071,-0.904938,62.249371
7.4866,0.005205,0.007563,0.027306,-0.006007,-0.0084,-0.030148,0.018595,-0.502434,0.026422,0.344871,-264.070071,-0.904938,62.249371
7.5064,0.005089,0.007474,0.026068,-0.006337,-0.008863,-0.031807,0.019129,-0.502247,0.027305,0.419855,-264.070071,-0.979921,62.249371
7.5262,0.005276,0.00752,0.026591,-0.006611,-0.009245,-0.03318,0.018702,-0.502308,0.026597,0.419855,-264.070071,-0.979921,62.249371
7.5462,0.005467,0.007761,0.026405,-0.006854,-0.009586,-0.034402,0.018702,-0.502308,0.026597,0.419855,-264.070071,-0.979921,62.249371
7.5662,0.005526,0.007736,0.028351,-0.007062,-0.009875,-0.035442,0.018932,-0.502062,0.026405,0.494986,-264.070073,-1.030418,62.24937
7.5872,0.005451,0.007819,0.028007,-0.007231,-0.010113,-0.036293,0.019001,-0.502061,0.026532,0.494986,-264.070073,-1.030418,62.24937
7.606,0.004963,0.007387,0.026982,-0.007364,-0.010298,-0.036958,0.019732,-0.501981,0.028007,0.569853,-264.070074,-1.030418,62.24937
7.6261,0.005377,0.007419,0.026341,-0.007457,-0.010429,-0.037428,0.019156,-0.502236,0.027422,0.569853,-264.070074,-1.030418,62.24937
7.6461,0.005051,0.007699,0.026081,-0.007514,-0.010508,-0.037711,0.019156,-0.502236,0.027422,0.569853,-264.070074,-1.030418,62.24937
7.6661,0.005189,0.007618,0.026436,-0.007533,-0.010534,-0.037806,0.018351,-0.502128,0.026081,0.644959,-264.070075,-1.030418,62.249369
7.6863,0.005424,0.007591,0.025378,-0.007514,-0.010508,-0.037711,0.018374,-0.502133,0.026106,0.644959,-264.070075,-1.030418,62.249369
7.706,0.005318,0.007432,0.027463,-0.007457,-0.010429,-0.037427,0.018365,-0.502245,0.025378,0.719895,-264.070079,-1.030418,62.249367
7.7261,0.005116,0.007596,0.025174,-0.007363,-0.010297,-0.036956,0.018913,-0.50232,0.026571,0.719895,-264.070079,-1.030418,62.249367
7.7463,0.005275,0.007897,0.026089,-0.007232,-0.010113,-0.036294,0.018913,-0.50232,0.026571,0.719895,-264.070079,-1.030418,62.249367
7.7661,0.005219,0.007613,0.02575,-0.007062,-0.009876,-0.035444,0.018577,-0.50193,0.026087,0.794958,-264.070095,-1.030418,62.249361
7.7869,0.005448,0.007596,0.026944,-0.006855,-0.009586,-0.034404,0.018562,-0.50195,0.026064,0.794958,-264.070095,-1.030418,62.249361
7.806,0.005735,0.00804,0.026334,-0.00661,-0.009244,-0.033175,0.019184,-0.502221,0.026937,0.869855,-264.070168,-1.030418,62.249329
7.8262,0.005743,0.007481,0.026309,-0.006328,-0.008849,-0.031758,0.019172,-0.501971,0.026592,0.869855,-264.070168,-1.030418,62.249329
7.8464,0.005159,0.007547,0.026291,-0.006008,-0.008402,-0.030152,0.019172,-0.501971,0.026592,0.869855,-264.070168,-1.030418,62.249329
7.8662,0.005372,0.007584,0.025338,-0.00565,-0.007901,-0.028356,0.018553,-0.502284,0.02626,0.944941,-264.070437,-1.030418,62.249215
7.8865,0.00557,0.007388,0.026319,-0.005253,-0.007347,-0.026366,0.018534,-0.502282,0.026194,0.944941,-264.070437,-1.030418,62.249215
7.9062,0.005164,0.007952,0.026446,-0.004821,-0.006742,-0.024195,0.018965,-0.502453,0.026247,1.019883,-264.071172,-1.030418,62.248903
7.926,0.005191,0.007574,0.026101,-0.00435,-0.006083,-0.02183,0.018785,-0.502128,0.026351,1.019883,-264.071172,-1.030418,62.248903
7.9462,0.005164,0.00762,0.027984,-0.003842,-0.005373,-0.019283,0.018785,-0.502128,0.026351,1.019883,-264.071172,-1.030418,62.248903
7.966,0.005366,0.007188,0.026044,-0.003295,-0.004609,-0.016539,0.019369,-0.502234,0.027782,1.094969,-264.072794,-1.030418,62.248214
7.9865,0.005336,0.007594,0.025628,-0.002712,-0.003793,-0.013611,0.019313,-0.502266,0.027645,1.094969,-264.072794,-1.030418,62.248214
8.006,0.005571,0.007677,0.025731,-0.00209,-0.002922,-0.010487,0.018335,-0.502306,0.025381,1.170114,-264.075232,-1.030418,62.247178
8.0264,0.005704,0.007152,0.024601,-0.001432,-0.002003,-0.007187,0.018529,-0.502228,0.025548,1.170114,-264.075232,-1.030418,62.247178
8.0466,0.005568,0.007341,0.027084,-0.000735,-0.001028,-0.003688,0.018529,-0.502228,0.025548,1.170114,-264.075232,-1.030418,62.247178
8.0662,0.005319,0.007827,0.025288,0.0,0.0,0.0,0.019285,-0.502579,0.026699,1.244855,-264.078173,-1.030418,62.245928
8.086,0.005794,0.007258,0.025014,0.0,0.0,0.0,0.01922,-0.502548,0.026607,1.244855,-264.078173,-1.030418,62.245928
8.1066,0.005939,0.007402,0.025801,0.0,0.0,0.0,0.018525,-0.502616,0.024895,1.319859,-264.079299,-1.030418,62.24545
8.126,0.005534,0.007422,0.024307,0.0,0.0,0.0,0.018849,-0.502512,0.025399,1.319859,-264.079299,-1.030418,62.24545
8.1463,0.00545,0.007409,0.023361,0.0,0.0,0.0,0.018849,-0.502512,0.025399,1.319859,-264.079299,-1.030418,62.24545
8.1664,0.005376,0.007446,0.026115,0.0,0.0,0.0,0.017363,-0.502451,0.023361,1.319859,-264.079299,-1.030418,62.24545
8.1868,0.005819,0.007521,0.024668,0.0,0.0,0.0,0.017455,-0.502447,0.023551,1.319859,-264.079299,-1.030418,62.24545
8.206,0.005077,0.007017,0.027036,0.0,0.0,0.0,0.018398,-0.502324,0.024668,1.319859,-264.079299,-1.030418,62.24545
8.2266,0.005628,0.007299,0.024728,0.0,0.0,0.0,0.018663,-0.502593,0.026017,1.319859,-264.079299,-1.030418,62.24545
8.2461,0.005789,0.007434,0.027247,0.0,0.0,0.0,0.018663,-0.502593,0.026017,1.319859,-264.079299,-1.030418,62.24545
8.2663,0.00566,0.007247,0.026937,0.0,0.0,0.0,0.019683,-0.502377,0.027247,1.319859,-264.079299,-1.030418,62.24545
8.2861,0.005394,0.007614,0.025078,-6.4e-05,-7.7e-05,0.0,0.019661,-0.502392,0.027223,1.319859,-264.079299,-1.030418,62.24545
8.3063,0.005284,0.007426,0.02442,-6.4e-05,-7.7e-05,0.0,0.018183,-0.502226,0.025078,1.319859,-264.079299,-1.030418,62.24545
8.3263,0.005972,0.007306,0.025612,-6.4e-05,-7.7e-05,0.0,0.017927,-0.502338,0.0247,1.319859,-264.079299,-1.030418,62.24545
8.3463,0.005505,0.007147,0.025992,-6.4e-05,-7.7e-05,0.0,0.017927,-0.502338,0.0247,1.319859,-264.079299,-1.030418,62.24545
8.3665,0.00545,0.00721,0.024066,-6.4e-05,-7.7e-05,0.0,0.01876,-0.502681,0.025992,1.245099,-264.079299,-0.955658,62.24545
8.3871,0.005113,0.006991,0.02698,-6.4e-05,-7.7e-05,0.0,0.018689,-0.502678,0.025861,1.245099,-264.079299,-0.955658,62.24545
8.4064,0.005787,0.007326,0.026831,-6.4e-05,-7.7e-05,0.0,0.018871,-0.502823,0.02698,1.170135,-264.079299,-0.880694,62.24545
8.4267,0.005561,0.007598,0.026319,-6.4e-05,-7.7e-05,0.0,0.019211,-0.502635,0.026895,1.170135,-264.079299,-0.880694,62.24545
8.4464,0.005293,0.007317,0.025036,-6.4e-05,-7.7e-05,0.0,0.019211,-0.502635,0.026895,1.170135,-264.079299,-0.880694,62.24545
8.4664,0.005798,0.007209,0.025162,-6.4e-05,-7.7e-05,0.0,0.01806,-0.502523,0.025036,1.095125,-264.079299,-0.805684,62.24545
8.4866,0.005747,0.007401,0.025599,-0.0,-1e-06,-2e-06,0.018097,-0.50253,0.025044,1.095125,-264.079299,-0.805684,62.24545
8.5063,0.005515,0.007385,0.025589,-0.000856,-0.001037,-0.003939,0.018801,-0.502432,0.025599,1.020223,-264.079299,-0.730782,62.24545
8.5265,0.005517,0.007041,0.024754,-0.001667,-0.00202,-0.007673,0.018666,-0.502441,0.025593,1.020223,-264.079299,-0.730782,62.24545
8.5466,0.005595,0.007313,0.025572,-0.002437,-0.002953,-0.011215,0.018666,-0.502441,0.025593,1.020223,-264.079299,-0.730782,62.24545
8.5663,0.005414,0.007343,0.025753,-0.003162,-0.003832,-0.014554,0.018635,-0.50252,0.025572,1.09521,-264.079299,-0.805769,62.24545
8.5867,0.005533,0.0071,0.025165,-0.003842,-0.004655,-0.01768,0.01863,-0.502518,0.025584,1.09521,-264.079299,-0.805769,62.24545
8.6066,0.005162,0.007467,0.024991,-0.004477,-0.005425,-0.020604,0.018339,-0.502763,0.025079,1.170226,-264.080153,-0.880785,62.245061
8.6263,0.005329,0.007456,0.025317,-0.00507,-0.006143,-0.023332,0.018091,-0.502547,0.025018,1.170226,-264.080153,-0.880785,62.245061
8.6464,0.005326,0.006973,0.026616,-0.005619,-0.006809,-0.02586,0.018091,-0.502547,0.025018,1.170226,-264.080153,-0.880785,62.245061
8.6667,0.005921,0.006993,0.023961,-0.006121,-0.007418,-0.028173,0.018786,-0.502964,0.026188,1.245231,-264.083405,-0.95579,62.243581
8.6865,0.005748,0.007127,0.024287,-0.006584,-0.007978,-0.0303,0.018742,-0.50296,0.026035,1.245231,-264.083405,-0.95579,62.243581
8.7063,0.005715,0.006583,0.023767,-0.007002,-0.008484,-0.032224,0.017974,-0.502848,0.023603,1.320188,-264.089158,-1.011949,62.239961
8.7269,0.006284,0.006766,0.024403,-0.007374,-0.008935,-0.033937,0.017875,-0.503105,0.023609,1.320188,-264.089158,-1.011949,62.239961
8.7469,0.006256,0.006975,0.025151,-0.007702,-0.009333,-0.035449,0.017875,-0.503105,0.023609,1.320188,-264.089158,-1.011949,62.239961
8.7661,0.006367,0.00686,0.022794,-0.007989,-0.009681,-0.03677,0.018806,-0.503103,0.023933,1.327139,-264.09741,-1.011949,62.234999
8.7864,0.006426,0.006679,0.023381,-0.008229,-0.009972,-0.037874,0.018748,-0.503102,0.023832,1.327139,-264.09741,-1.011949,62.234999
8.806,0.006886,0.006373,0.020642,-0.008427,-0.010212,-0.038786,0.018081,-0.503454,0.022165,1.327139,-264.108179,-1.011949,62.229179
8.8261,0.006422,0.006339,0.02126,-0.008581,-0.010398,-0.039493,0.017665,-0.503525,0.02114,1.327139,-264.108179,-1.011949,62.229179
8.8462,0.006755,0.00653,0.019781,-0.008691,-0.010532,-0.040001,0.017665,-0.503525,0.02114,1.327139,-264.108179,-1.011949,62.229179
8.8661,0.00714,0.006036,0.018652,-0.008757,-0.010611,-0.040303,0.016457,-0.50384,0.017976,1.327139,-264.121415,-1.011949,62.22298
8.8865,0.007192,0.005888,0.018621,-0.008779,-0.010638,-0.040405,0.01646,-0.503854,0.017974,1.327139,-264.121415,-1.011949,62.22298
8.906,0.008018,0.005406,0.016756,-0.008757,-0.010612,-0.040304,0.01636,-0.504436,0.017076,1.327139,-264.13585,-1.011949,62.216412
8.9262,0.00789,0.005397,0.016019,-0.008691,-0.010531,-0.039999,0.016435,-0.504538,0.016697,1.327139,-264.13585,-1.011949,62.216412
8.9463,0.00773,0.005548,0.016619,-0.008581,-0.010398,-0.039491,0.016435,-0.504538,0.016697,1.327139,-264.13585,-1.011949,62.216412
8.9664,0.008275,0.004884,0.016517,-0.008429,-0.010214,-0.038792,0.015787,-0.504904,0.014659,1.327139,-264.150382,-1.011949,62.209799
8.9861,0.008206,0.004783,0.015202,-0.008232,-0.009975,-0.037885,0.01584,-0.504928,0.014737,1.327139,-264.150382,-1.011949,62.209799
9.006,0.008916,0.004656,0.013037,-0.007987,-0.009679,-0.03676,0.015633,-0.505565,0.013675,1.327139,-264.164629,-1.011949,62.203317
9.0267,0.00936,0.004509,0.014149,-0.007705,-0.009336,-0.03546,0.015553,-0.505465,0.013117,1.327139,-264.164629,-1.011949,62.203317
9.0463,0.009296,0.004386,0.012475,-0.007375,-0.008937,-0.033944,0.015553,-0.505465,0.013117,1.327139,-264.164629,-1.011949,62.203317
9.0663,0.009532,0.00373,0.009922,-0.007003,-0.008486,-0.03223,0.015264,-0.506063,0.010633,1.327139,-264.178258,-1.011949,62.197116
9.0863,0.009644,0.003999,0.011596,-0.006586,-0.007981,-0.030312,0.01521,-0.506088,0.010541,1.327139,-264.178258,-1.011949,62.197116
9.1062,0.010381,0.003727,0.009223,-0.006125,-0.007421,-0.028187,0.015276,-0.506315,0.010284,1.327139,-264.190487,-1.011949,62.191551
9.1267,0.010161,0.003579,0.008104,-0.005616,-0.006805,-0.025846,0.015132,-0.506323,0.009514,1.327139,-264.190487,-1.011949,62.191551
9.1462,0.010288,0.003473,0.010023,-0.005071,-0.006145,-0.023339,0.015132,-0.506323,0.009514,1.327139,-264.190487,-1.011949,62.191551
9.1665,0.010517,0.003132,0.006462,-0.00448,-0.005429,-0.020619,0.015084,-0.506892,0.00855,1.327139,-264.201424,-1.011949,62.186574
9.1863,0.010517,0.00342,0.007518,-0.003844,-0.004657,-0.01769,0.014981,-0.5069,0.008354,1.327139,-264.201424,-1.011949,62.186574
9.2066,0.011026,0.002999,0.007428,-0.003163,-0.003833,-0.014557,0.014157,-0.506804,0.006618,1.327139,-264.20983,-1.011949,62.18275
9.2267,0.010878,0.002549,0.007817,-0.00244,-0.002956,-0.011228,0.014502,-0.506938,0.006958,1.327139,-264.20983,-1.011949,62.18275
9.2465,0.011073,0.002928,0.00924,-0.001672,-0.002026,-0.007694,0.014502,-0.506938,0.006958,1.327139,-264.20983,-1.011949,62.18275
9.2665,0.011142,0.002584,0.005428,-0.000858,-0.001039,-0.003947,0.015601,-0.507279,0.008378,1.327139,-264.216201,-1.011949,62.179851
9.2866,0.011289,0.002726,0.005995,-3e-06,-4e-06,-1.6e-05,0.015488,-0.507293,0.008169,1.327139,-264.216201,-1.011949,62.179851
9.3062,0.011302,0.002524,0.005423,0.0,0.0,0.0,0.014282,-0.507343,0.005698,1.327139,-264.21897,-1.011949,62.178591
9.3269,0.011308,0.002503,0.005046,0.0,0.0,0.0,0.014153,-0.507424,0.005504,1.327139,-264.21897,-1.011949,62.178591
9.3463,0.01145,0.002844,0.005213,0.0,0.0,0.0,0.014153,-0.507424,0.005504,1.327139,-264.21897,-1.011949,62.178591
9.3664,0.011403,0.002778,0.005985,0.0,0.0,0.0,0.014108,-0.50715,0.005213,1.327139,-264.218976,-1.011949,62.178588
9.3867,0.011225,0.00275,0.005915,0.0,0.0,0.0,0.01413,-0.507154,0.005261,1.327139,-264.218976,-1.011949,62.178588
9.4066,0.011253,0.002474,0.006399,0.0,0.0,0.0,0.014242,-0.507241,0.005915,1.327139,-264.218976,-1.011949,62.178588
9.4268,0.011549,0.002702,0.005483,0.0,0.0,0.0,0.014397,-0.507396,0.006188,1.327139,-264.218976,-1.011949,62.178588
9.4466,0.011228,0.001977,0.004696,0.0,0.0,0.0,0.014397,-0.507396,0.006188,1.327139,-264.218976,-1.011949,62.178588
9.4661,0.011374,0.002411,0.005601,0.0,0.0,0.0,0.013623,-0.508017,0.004696,1.327139,-264.218976,-1.011949,62.178588
9.4865,0.011124,0.002094,0.007017,0.0,0.0,0.0,0.01365,-0.507998,0.004736,1.327139,-264.218976,-1.011949,62.178588
9.5061,0.010892,0.002773,0.005287,0.0,0.0,0.0,0.014703,-0.507893,0.007017,1.327139,-264.218976,-1.011949,62.178588
9.5266,0.011417,0.002161,0.006088,-9.7e-05,-2.4e-05,0.0,0.014056,-0.507502,0.006013,1.327139,-264.218976,-1.011949,62.178588
9.5464,0.011052,0.002651,0.006613,-9.7e-05,-2.4e-05,0.0,0.014056,-0.507502,0.006013,1.327139,-264.218976,-1.011949,62.178588
9.5668,0.011131,0.002619,0.005574,-9.7e-05,-2.4e-05,0.0,0.014425,-0.507338,0.006613,1.327139,-264.218976,-1.011949,62.178588
9.5863,0.011392,0.002627,0.006345,-9.7e-05,-2.4e-05,0.0,0.014394,-0.50734,0.006542,1.327139,-264.218976,-1.011949,62.178588
9.6063,0.01111,0.002397,0.008686,-9.7e-05,-2.4e-05,0.0,0.014628,-0.507363,0.006345,1.252513,-264.218976,-0.937323,62.178588
9.6264,0.011339,0.002344,0.005014,-9.7e-05,-2.4e-05,0.0,0.015147,-0.507489,0.007677,1.252513,-264.218976,-0.937323,62.178588
9.6462,0.011355,0.002615,0.006777,-9.7e-05,-2.4e-05,0.0,0.015147,-0.507489,0.007677,1.252513,-264.218976,-0.937323,62.178588
9.6663,0.01106,0.002693,0.006677,-9.7e-05,-2.4e-05,0.0,0.014811,-0.507374,0.006777,1.177516,-264.218976,-0.862326,62.178588
9.6863,0.011125,0.0023,0.005432,-9.7e-05,-2.4e-05,0.0,0.014789,-0.507369,0.006771,1.177516,-264.218976,-0.862326,62.178588
9.7065,0.011229,0.002418,0.005485,-9.7e-05,-2.4e-05,0.0,0.013895,-0.507692,0.005432,1.102517,-264.218976,-0.787327,62.178588
9.7264,0.011124,0.00236,0.005948,-0.0,-0.0,-0.0,0.013969,-0.507625,0.005462,1.102517,-264.218976,-0.787327,62.178588
9.7459,0.011169,0.00247,0.004955,-0.001589,-0.000396,-0.00077,0.013969,-0.507625,0.005462,1.102517,-264.218976,-0.787327,62.178588
9.7663,0.011425,0.002644,0.005353,-0.003111,-0.000774,-0.001508,0.013696,-0.507523,0.004955,1.027518,-264.218976,-0.712328,62.178588
9.7864,0.011496,0.00258,0.005529,-0.004534,-0.001129,-0.002198,0.013735,-0.507509,0.004989,1.027518,-264.218976,-0.712328,62.178588
9.8065,0.011482,0.002495,0.005216,-0.005885,-0.001465,-0.002853,0.014316,-0.507412,0.005529,0.952093,-264.218976,-0.636903,62.178588
9.8262,0.011205,0.002179,0.004669,-0.007155,-0.001781,-0.003468,0.014217,-0.507461,0.005351,0.952093,-264.218976,-0.636903,62.178588
9.8462,0.011292,0.002919,0.007103,-0.008339,-0.002076,-0.004042,0.014217,-0.507461,0.005351,0.952093,-264.218976,-0.636903,62.178588
9.8661,0.011408,0.002361,0.006316,-0.009445,-0.002351,-0.004578,0.014915,-0.507068,0.007103,0.877387,-264.218976,-0.562197,62.178588
9.8864,0.011702,0.002369,0.00462,-0.010467,-0.002606,-0.005074,0.014895,-0.507107,0.007048,0.877387,-264.218976,-0.562197,62.178588
9.9061,0.011454,0.00252,0.005282,-0.011409,-0.00284,-0.00553,0.014058,-0.507626,0.00462,0.802521,-264.21898,-0.487331,62.178584
9.9261,0.011268,0.002968,0.005744,-0.012269,-0.003054,-0.005947,0.014109,-0.50754,0.004993,0.802521,-264.21898,-0.487331,62.178584
9.9462,0.01151,0.002529,0.004952,-0.013046,-0.003248,-0.006323,0.014109,-0.50754,0.004993,0.802521,-264.21898,-0.487331,62.178584
9.9661,0.011542,0.002391,0.005202,-0.013745,-0.003422,-0.006662,0.014031,-0.507465,0.004948,0.727381,-264.219024,-0.412191,62.178546
9.9863,0.011202,0.0025,0.00519,-0.014354,-0.003573,-0.006957,0.014042,-0.507475,0.004965,0.727381,-264.219024,-0.412191,62.178546
10.0062,0.01127,0.002373,0.004678,-0.014886,-0.003706,-0.007215,0.013826,-0.507498,0.005169,0.652525,-264.219313,-0.337335,62.178292
10.0264,0.011307,0.002353,0.005821,-0.015338,-0.003819,-0.007435,0.013725,-0.507569,0.004884,0.652525,-264.219313,-0.337335,62.178292
10.0463,0.011643,0.002634,0.004996,-0.015705,-0.00391,-0.007612,0.013725,-0.507569,0.004884,0.652525,-264.219313,-0.337335,62.178292
10.0661,0.011232,0.002514,0.005756,-0.015995,-0.003982,-0.007753,0.014074,-0.507382,0.004908,0.577355,-264.22045,-0.262165,62.177292
10.0868,0.011307,0.002422,0.006662,-0.016196,-0.004032,-0.00785,0.014077,-0.507389,0.004961,0.577355,-264.22045,-0.262165,62.177292
10.1062,0.011363,0.002431,0.004561,-0.016319,-0.004063,-0.00791,0.014447,-0.507615,0.006505,0.502517,-264.223528,-0.187327,62.174587
10.1262,0.010808,0.002323,0.005679,-0.01636,-0.004073,-0.00793,0.01398,-0.507592,0.005372,0.502517,-264.223528,-0.187327,62.174587
10.1462,0.010884,0.002114,0.005291,-0.01632,-0.004063,-0.00791,0.01398,-0.507592,0.005372,0.502517,-264.223528,-0.187327,62.174587
10.1664,0.010697,0.002258,0.005432,-0.016198,-0.004032,-0.007851,0.013012,-0.508006,0.004983,0.498984,-264.228908,-0.112218,62.169857
10.1868,0.010208,0.001711,0.005352,-0.015993,-0.003982,-0.007752,0.01303,-0.50799,0.005007,0.498984,-264.228908,-0.112218,62.169857
10.2066,0.009567,0.002016,0.004662,-0.015707,-0.00391,-0.007613,0.012351,-0.508431,0.005068,0.498984,-264.235852,-0.047039,62.163753
10.2262,0.009685,0.002204,0.004631,-0.01534,-0.003819,-0.007435,0.012043,-0.50819,0.004799,0.498984,-264.235852,-0.047039,62.163753
10.2461,0.010003,0.002156,0.004365,-0.014889,-0.003707,-0.007217,0.012043,-0.50819,0.004799,0.498984,-264.235852,-0.047039,62.163753
10.2666,0.009167,0.001779,0.004831,-0.014357,-0.003574,-0.006959,0.011454,-0.508035,0.003989,0.498984,-264.243136,-0.047039,62.157351
10.286,0.009331,0.001973,0.003089,-0.013746,-0.003422,-0.006662,0.011445,-0.508054,0.00404,0.498984,-264.243136,-0.047039,62.157351
10.3061,0.008944,0.001793,0.003413,-0.01305,-0.003249,-0.006325,0.010332,-0.508169,0.002811,0.498984,-264.24992,-0.047039,62.151387
10.3261,0.008547,0.001636,0.00392,-0.012274,-0.003056,-0.005949,0.010462,-0.508208,0.003121,0.498984,-264.24992,-0.047039,62.151387
10.3463,0.008792,0.001509,0.002684,-0.011413,-0.002841,-0.005532,0.010462,-0.508208,0.003121,0.498984,-264.24992,-0.047039,62.151387
10.3663,0.008286,0.001707,0.004165,-0.010474,-0.002607,-0.005077,0.009494,-0.508657,0.002361,0.498984,-264.256173,-0.047039,62.14589
10.386,0.008183,0.001742,0.003546,-0.009453,-0.002353,-0.004582,0.009538,-0.508636,0.002474,0.498984,-264.256173,-0.047039,62.14589
10.4062,0.007801,0.001186,0.003142,-0.008324,-0.002072,-0.004035,0.009551,-0.508366,0.003333,0.498984,-264.261381,-0.047039,62.141312
10.4265,0.007949,0.001544,0.00317,-0.007163,-0.001783,-0.003472,0.009411,-0.508636,0.003196,0.498984,-264.261381,-0.047039,62.141312
10.4464,0.007798,0.001404,0.003222,-0.005895,-0.001468,-0.002857,0.009411,-0.508636,0.003196,0.498984,-264.261381,-0.047039,62.141312
10.4662,0.007598,0.001118,0.001974,-0.004541,-0.001131,-0.002201,0.008984,-0.508709,0.003,0.498984,-264.265679,-0.047039,62.137534
10.4864,0.007625,0.00102,0.005016,-0.003115,-0.000775,-0.00151,0.008945,-0.508724,0.002923,0.498984,-264.265679,-0.047039,62.137534
10.5061,0.007532,0.000828,0.002272,-0.001601,-0.000399,-0.000776,0.009956,-0.509031,0.004905,0.498984,-264.268369,-0.047039,62.135169
10.5263,0.007801,0.001118,0.001002,-5e-06,-1e-06,-2e-06,0.009201,-0.509118,0.003381,0.498984,-264.268369,-0.047039,62.135169
10.5462,0.007284,0.001208,0.00206,0.0,0.0,0.0,0.009201,-0.509118,0.003381,0.498984,-264.268369,-0.047039,62.135169
10.5661,0.007057,0.001069,0.003059,0.0,0.0,0.0,0.008184,-0.508828,0.001986,0.498984,-264.269786,-0.047039,62.133924
10.5865,0.007297,0.001458,0.001726,0.0,0.0,0.0,0.008209,-0.508836,0.002056,0.498984,-264.269786,-0.047039,62.133924
10.606,0.007172,0.001239,0.00414,0.0,0.0,0.0,0.008178,-0.508541,0.001726,0.498984,-264.269786,-0.047039,62.133924
10.626,0.007044,0.001011,0.002701,0.0,0.0,0.0,0.008811,-0.508665,0.003109,0.498984,-264.269786,-0.047039,62.133924
10.6463,0.007155,0.001353,0.002565,0.0,0.0,0.0,0.008811,-0.508665,0.003109,0.498984,-264.269786,-0.047039,62.133924
10.6667,0.007177,0.001075,0.003533,0.0,0.0,0.0,0.008463,-0.508645,0.002565,0.498984,-264.269786,-0.047039,62.133924
10.6863,0.007019,0.001146,0.002374,0.0,0.0,0.0,0.008499,-0.508664,0.002631,0.498984,-264.269786,-0.047039,62.133924
10.7064,0.007275,0.001156,0.0029,0.0,0.0,0.0,0.00823,-0.508853,0.002374,0.498984,-264.269786,-0.047039,62.133924
10.7263,0.007161,0.001211,0.001184,0.0,0.0,0.0,0.008529,-0.508846,0.002673,0.498984,-264.269786,-0.047039,62.133924
10.7463,0.006898,0.000838,0.002788,0.0,0.0,0.0,0.008529,-0.508846,0.002673,0.498984,-264.269786,-0.047039,62.133924
10.766,0.007502,0.000731,0.002278,-9.9e-05,-1.2e-05,0.0,0.008319,-0.50916,0.002788,0.498984,-264.269786,-0.047039,62.133924
10.786,0.007463,0.001385,0.001766,-9.9e-05,-1.2e-05,0.0,0.00835,-0.50917,0.002742,0.498984,-264.269786,-0.047039,62.133924
10.806,0.007104,0.000727,0.001844,-9.9e-05,-1.2e-05,0.0,0.008364,-0.508615,0.001766,0.498984,-264.269786,-0.047039,62.133924
10.8259,0.007472,0.001223,0.001036,-9.9e-05,-1.2e-05,0.0,0.008181,-0.50899,0.001811,0.498984,-264.269786,-0.047039,62.133924
10.846,0.007204,0.001138,0.002786,-9.9e-05,-1.2e-05,0.0,0.008181,-0.50899,0.001811,0.498984,-264.269786,-0.047039,62.133924
10.8662,0.007119,0.001571,0.002172,-9.9e-05,-1.2e-05,0.0,0.008624,-0.50886,0.002786,0.424469,-264.269789,0.027476,62.133922
10.8863,0.007555,0.001241,0.003709,-9.9e-05,-1.2e-05,0.0,0.008597,-0.50883,0.002744,0.424469,-264.269789,0.027476,62.133922
10.9065,0.007065,0.001388,0.004164,-9.9e-05,-1.2e-05,0.0,0.009446,-0.508756,0.003709,0.349553,-264.269796,0.102392,62.133914
10.9262,0.00751,0.001122,0.001901,-9.9e-05,-1.2e-05,0.0,0.009299,-0.50867,0.00397,0.349553,-264.269796,0.102392,62.133914
10.9464,0.00744,0.001183,0.004516,-9.9e-05,-1.2e-05,0.0,0.009299,-0.50867,0.00397,0.349553,-264.269796,0.102392,62.133914
10.9661,0.00739,0.000881,0.00338,-9.9e-05,-1.2e-05,0.0,0.009741,-0.508813,0.004516,0.27439,-264.269813,0.118073,62.133897
10.986,0.007032,0.000873,0.002113,-0.001009,-0.00012,-0.000408,0.0097,-0.508832,0.004442,0.27439,-264.269813,0.118073,62.133897
11.0061,0.007229,0.00101,0.002627,-0.001967,-0.000233,-0.000795,0.008107,-0.509126,0.002113,0.199556,-264.26984,0.118073,62.13387
11.0261,0.007287,0.00101,0.003211,-0.002876,-0.000341,-0.001162,0.008371,-0.509047,0.002407,0.199556,-264.26984,0.118073,62.13387
11.0461,0.006906,0.001195,0.002744,-0.003726,-0.000442,-0.001505,0.008371,-0.509047,0.002407,0.199556,-264.26984,0.118073,62.13387
11.0661,0.007327,0.001256,0.002526,-0.004528,-0.000537,-0.001829,0.008293,-0.508805,0.002742,0.274664,-264.269952,0.042965,62.133764
11.0864,0.007339,0.001054,0.002748,-0.005278,-0.000626,-0.002133,0.008315,-0.508801,0.002727,0.274664,-264.269952,0.042965,62.133764
11.1061,0.007038,0.001025,0.003534,-0.005995,-0.000711,-0.002422,0.008658,-0.508958,0.002722,0.349557,-264.270861,-0.031928,62.132903
11.1265,0.007136,0.000787,0.001696,-0.006627,-0.000786,-0.002677,0.008752,-0.508968,0.003184,0.349557,-264.270861,-0.031928,62.132903
11.1463,0.007281,0.001085,0.004343,-0.007219,-0.000856,-0.002917,0.008752,-0.508968,0.003184,0.349557,-264.270861,-0.031928,62.132903
11.1662,0.006719,0.000641,0.004189,-0.007763,-0.000921,-0.003137,0.009275,-0.508939,0.004257,0.350311,-264.2728,-0.107043,62.131067
11.1871,0.00705,0.001212,0.001753,-0.008254,-0.000979,-0.003335,0.009242,-0.508967,0.004251,0.350311,-264.2728,-0.107043,62.131067
11.2063,0.00674,0.001124,0.002144,-0.008694,-0.001031,-0.003513,0.007667,-0.508821,0.001641,0.350311,-264.275859,-0.127437,62.128171
11.2261,0.006623,0.00116,0.002101,-0.009083,-0.001077,-0.00367,0.007727,-0.508856,0.001915,0.350311,-264.275859,-0.127437,62.128171
11.2462,0.006529,0.001157,0.000627,-0.00942,-0.001117,-0.003806,0.007727,-0.508856,0.001915,0.350311,-264.275859,-0.127437,62.128171
11.2664,0.006117,0.00099,0.001167,-0.009704,-0.001151,-0.003921,0.006448,-0.50889,0.000465,0.350311,-264.279369,-0.127437,62.124847
11.2862,0.006208,0.001051,0.00215,-0.009936,-0.001179,-0.004014,0.006455,-0.5089,0.000508,0.350311,-264.279369,-0.127437,62.124847
11.3061,0.006076,0.001024,0.001441,-0.010117,-0.0012,-0.004088,0.006941,-0.508992,0.002003,0.350311,-264.283386,-0.127437,62.121043
11.3261,0.005553,0.000796,0.001316,-0.010246,-0.001215,-0.00414,0.00682,-0.508988,0.001663,0.350311,-264.283386,-0.127437,62.121043
11.346,0.005888,0.001147,0.001455,-0.010324,-0.001225,-0.004171,0.00682,-0.508988,0.001663,0.350311,-264.283386,-0.127437,62.121043
11.366,0.00534,0.00093,0.002427,-0.01035,-0.001228,-0.004182,0.006149,-0.50891,0.001261,0.350311,-264.287617,-0.127437,62.117036
11.386,0.005537,0.000744,0.001035,-0.010324,-0.001225,-0.004171,0.006167,-0.508923,0.00134,0.350311,-264.287617,-0.127437,62.117036
11.406,0.004969,0.000676,0.003121,-0.010246,-0.001215,-0.00414,0.005666,-0.509303,0.000874,0.350311,-264.292013,-0.127437,62.112873
11.4263,0.004931,0.000346,0.001481,-0.010117,-0.0012,-0.004088,0.006127,-0.50932,0.002139,0.350311,-264.292013,-0.127437,62.112873
11.4464,0.00516,0.000582,0.002739,-0.009935,-0.001178,-0.004014,0.006127,-0.50932,0.002139,0.350311,-264.292013,-0.127437,62.112873
11.4665,0.004297,0.000852,0.002177,-0.009702,-0.001151,-0.00392,0.006055,-0.509477,0.002536,0.350311,-264.296411,-0.127437,62.108709
11.4863,0.004537,0.000742,0.000962,-0.009419,-0.001117,-0.003805,0.005997,-0.509456,0.002506,0.350311,-264.296411,-0.127437,62.108709
11.5063,0.004444,0.000813,0.000384,-0.009082,-0.001077,-0.003669,0.004645,-0.509304,0.000807,0.350311,-264.300636,-0.127437,62.104708
11.5261,0.004403,0.000787,0.002755,-0.008687,-0.001031,-0.00351,0.004593,-0.509244,0.000547,0.350311,-264.300636,-0.127437,62.104708
11.5463,0.004261,0.000922,1.2e-05,-0.008254,-0.000979,-0.003335,0.004593,-0.509244,0.000547,0.350311,-264.300636,-0.127437,62.104708
11.5661,0.003872,0.000606,0.001847,-0.007761,-0.000921,-0.003135,0.003809,-0.509132,-0.000173,0.350311,-264.304674,-0.127437,62.100884
11.5864,0.003822,0.000578,0.001277,-0.007217,-0.000856,-0.002916,0.003881,-0.509156,-6e-06,0.350311,-264.304674,-0.127437,62.100884
11.6062,0.003766,0.000531,-0.000483,-0.006624,-0.000786,-0.002676,0.004158,-0.509459,0.001149,0.350311,-264.308172,-0.127437,62.097572
11.6261,0.00349,0.000549,0.001119,-0.005971,-0.000708,-0.002412,0.003754,-0.50947,0.000205,0.350311,-264.308172,-0.127437,62.097572
11.6464,0.003575,0.000364,0.001506,-0.005278,-0.000626,-0.002132,0.003754,-0.50947,0.000205,0.350311,-264.308172,-0.127437,62.097572
11.6664,0.003348,0.000695,0.001631,-0.004528,-0.000537,-0.001829,0.003992,-0.509678,0.001364,0.350311,-264.311239,-0.127437,62.094667
11.6869,0.003211,0.0005,0.000448,-0.003726,-0.000442,-0.001505,0.003995,-0.509655,0.001378,0.350311,-264.311239,-0.127437,62.094667
11.7062,0.003594,0.000516,0.000351,-0.00287,-0.00034,-0.00116,0.003235,-0.509524,0.000365,0.350311,-264.313487,-0.127437,62.092539
11.7262,0.003025,0.000792,-0.000335,-0.001963,-0.000233,-0.000793,0.003515,-0.509504,0.000347,0.350311,-264.313487,-0.127437,62.092539
11.7462,0.003303,0.000864,0.000148,-0.001009,-0.00012,-0.000408,0.003515,-0.509504,0.000347,0.350311,-264.313487,-0.127437,62.092539
11.7661,0.002627,0.000454,0.00141,0.0,0.0,0.0,0.003197,-0.509158,7.5e-05,0.350311,-264.315074,-0.127437,62.091036
11.7867,0.002995,0.000637,-0.000805,0.0,0.0,0.0,0.003203,-0.509186,0.000166,0.350311,-264.315074,-0.127437,62.091036
11.8062,0.002809,0.000126,0.000848,0.0,0.0,0.0,0.002545,-0.509367,-0.000821,0.350311,-264.315504,-0.127437,62.090629
11.8262,0.003185,0.00038,0.000311,0.0,0.0,0.0,0.002939,-0.509658,0.000134,0.350311,-264.315504,-0.127437,62.090629
11.8461,0.00274,0.000781,5.1e-05,0.0,0.0,0.0,0.002939,-0.509658,0.000134,0.350311,-264.315504,-0.127437,62.090629
