mach0312/omni-docking-bench/src/icros_test_setup/results/kinematic_sample/timeseries/trial_023.csv
t,x,y,yaw,vx,vy,wz,bl_x,bl_y,bl_yaw,front_steering_joint,front_wheel_joint,rear_steering_joint,rear_wheel_joint
0.0,-0.02926,0.028724,0.051613,0.006101,0.001175,0.0021,-0.004446,-0.481205,0.050956,0.383003,-264.374546,-0.017607,63.080794
0.0004,-0.029848,0.02854,0.050906,0.0,0.0,0.0,-0.004446,-0.481205,0.050956,0.383003,-264.371245,-0.017607,63.083856
0.0008,-0.029559,0.028621,0.050598,0.0,0.0,0.0,-0.004144,-0.480765,0.050279,0.383003,-264.368614,-0.017607,63.086297
0.0011,-0.029387,0.028614,0.050675,0.0,0.0,0.0,-0.003962,-0.480793,0.05066,0.383003,-264.367182,-0.017607,63.087625
0.0014,-0.02983,0.028749,0.051152,0.0,0.0,0.0,-0.003962,-0.480793,0.05066,0.383003,-264.366678,-0.017607,63.088093
0.0017,-0.02953,0.02841,0.051519,0.0,0.0,0.0,-0.003962,-0.480793,0.05066,0.383003,-264.366678,-0.017607,63.088093
0.002,-0.028962,0.028721,0.051176,0.0,0.0,0.0,-0.003962,-0.480793,0.05066,0.383003,-264.366678,-0.017607,63.088093
0.0023,-0.029454,0.028687,0.053055,0.0,0.0,0.0,-0.003233,-0.480996,0.051814,0.383003,-264.366678,-0.017607,63.088093
0.0025,-0.029483,0.028505,0.051368,0.0,0.0,0.0,-0.003191,-0.480965,0.051879,0.383003,-264.366678,-0.017607,63.088093
0.0028,-0.029516,0.028806,0.052404,0.0,0.0,0.0,-0.003191,-0.480965,0.051879,0.383003,-264.366678,-0.017607,63.088093
0.018,-0.029509,0.028593,0.051779,0.016,-0.016,-0.03,-0.002802,-0.480494,0.052404,0.383003,-264.366678,-0.017607,63.088093
0.0381,-0.029396,0.028824,0.050125,0.027989,-0.030082,-0.05,-0.00298,-0.480625,0.052047,0.383003,-264.366678,-0.017607,63.088093
0.0582,-0.029576,0.028265,0.050093,0.027915,-0.030261,-0.05,-0.00298,-0.480625,0.052047,0.383003,-264.366678,-0.017607,63.088093
0.0784,-0.029352,0.02848,0.051565,0.028124,-0.02971,-0.05,-0.00404,-0.481096,0.050093,0.383003,-264.366678,-0.017607,63.088093
0.0987,-0.029397,0.02844,0.049877,0.027845,-0.029955,-0.05,-0.003976,-0.481079,0.050189,0.383003,-264.366678,-0.017607,63.088093
0.1183,-0.029618,0.028733,0.051471,0.027943,-0.02987,-0.049877,-0.003971,-0.480926,0.049877,0.307968,-264.366676,0.009911,63.088094
0.1387,-0.029629,0.028712,0.050733,0.028101,-0.030219,-0.05,-0.003632,-0.480734,0.05079,0.307968,-264.366676,0.009911,63.088094
0.1581,-0.029558,0.028463,0.050334,0.028135,-0.030178,-0.05,-0.003632,-0.480734,0.05079,0.307968,-264.366676,0.009911,63.088094
0.1781,-0.028882,0.028512,0.051436,0.028088,-0.029914,-0.05,-0.003898,-0.480891,0.050334,0.232991,-264.366673,0.020906,63.088095
0.1984,-0.029259,0.028576,0.051087,0.027378,-0.029959,-0.05,-0.003807,-0.480886,0.050415,0.232991,-264.366673,0.020906,63.088095
0.2184,-0.029762,0.028522,0.050733,0.027762,-0.030033,-0.05,-0.003216,-0.480759,0.051087,0.157977,-264.36667,0.01278,63.088096
0.2381,-0.029439,0.028482,0.0517,0.028278,-0.029995,-0.05,-0.003608,-0.480795,0.050884,0.157977,-264.36667,0.01278,63.088096
0.2584,-0.029097,0.028478,0.052492,0.027928,-0.029965,-0.05,-0.003608,-0.480795,0.050884,0.157977,-264.36667,0.01278,63.088096
0.2783,-0.029644,0.028528,0.051288,0.027563,-0.029965,-0.05,-0.002338,-0.48082,0.052492,0.08294,-264.366668,0.021135,63.088097
0.2986,-0.029494,0.028358,0.050519,0.028142,-0.03001,-0.05,-0.002432,-0.480818,0.052395,0.08294,-264.366668,0.021135,63.088097
0.3186,-0.029321,0.028333,0.051295,0.028024,-0.029811,-0.05,-0.00374,-0.480992,0.050519,0.007629,-264.366665,0.020481,63.088098
0.338,-0.029484,0.02883,0.05139,0.02783,-0.029799,-0.05,-0.003418,-0.480994,0.050959,0.007629,-264.366665,0.020481,63.088098
0.3582,-0.029204,0.028438,0.051021,0.027965,-0.030307,-0.05,-0.003418,-0.480994,0.050959,0.007629,-264.366665,0.020481,63.088098
0.3781,-0.029301,0.02837,0.050987,0.027716,-0.02989,-0.05,-0.003195,-0.480898,0.051021,-0.06704,-264.366662,0.018752,63.088099
0.398,-0.030003,0.028884,0.051443,0.027818,-0.029826,-0.05,-0.003203,-0.480904,0.051019,-0.06704,-264.366662,0.018752,63.088099
0.418,-0.029439,0.028738,0.050211,0.028478,-0.030388,-0.05,-0.003778,-0.480442,0.051443,-0.142108,-264.36666,0.00825,63.0881
0.438,-0.029211,0.028643,0.052892,0.02796,-0.030179,-0.05,-0.003815,-0.480543,0.050737,-0.142108,-264.36666,0.00825,63.0881
0.458,-0.02926,0.028463,0.051913,0.027656,-0.030148,-0.05,-0.003815,-0.480543,0.050737,-0.142108,-264.36666,0.00825,63.0881
0.4781,-0.029646,0.028367,0.05218,0.027744,-0.029943,-0.05,-0.002797,-0.48085,0.051913,-0.217012,-264.366657,0.025559,63.088101
0.4983,-0.029279,0.028898,0.052315,0.028126,-0.029875,-0.05,-0.002814,-0.480857,0.051932,-0.217012,-264.366657,0.025559,63.088101
0.5182,-0.029705,0.028831,0.050801,0.027728,-0.03039,-0.05,-0.002611,-0.480404,0.052315,-0.292006,-264.366654,0.014093,63.088103
0.5383,-0.029577,0.028579,0.051754,0.028203,-0.030302,-0.05,-0.003297,-0.480466,0.051447,-0.292006,-264.366654,0.014093,63.088103
0.5581,-0.029821,0.028857,0.051447,0.028059,-0.03007,-0.05,-0.003297,-0.480466,0.051447,-0.292006,-264.366654,0.014093,63.088103
0.5782,-0.029099,0.028704,0.051819,0.028297,-0.030353,-0.05,-0.003594,-0.480468,0.051447,-0.367049,-264.366652,0.023565,63.088104
0.5981,-0.029535,0.028326,0.051635,0.027573,-0.030172,-0.05,-0.00353,-0.480478,0.051473,-0.367049,-264.366652,0.023565,63.088104
0.6183,-0.029163,0.02841,0.050703,0.028033,-0.029812,-0.05,-0.003212,-0.480995,0.051635,-0.441905,-264.366648,0.016649,63.088105
0.6386,-0.02948,0.028459,0.052027,0.027686,-0.029851,-0.05,-0.003271,-0.480961,0.051104,-0.441905,-264.366648,0.016649,63.088105
0.6583,-0.029353,0.028803,0.052146,0.02796,-0.029953,-0.05,-0.003271,-0.480961,0.051104,-0.441905,-264.366648,0.016649,63.088105
0.6783,-0.029465,0.028294,0.050871,0.027812,-0.030293,-0.05,-0.00277,-0.480504,0.052146,-0.516943,-264.366641,0.013247,63.088108
0.6982,-0.029707,0.028745,0.05093,0.027989,-0.029756,-0.05,-0.002823,-0.480542,0.052058,-0.516943,-264.366641,0.013247,63.088108
0.7181,-0.029231,0.028567,0.051817,0.028205,-0.03022,-0.05,-0.003741,-0.480594,0.050928,-0.592035,-264.366603,0.020892,63.088124
0.7382,-0.029252,0.02892,0.051275,0.027712,-0.030042,-0.05,-0.003215,-0.480682,0.051434,-0.592035,-264.366603,0.020892,63.088124
0.7585,-0.029489,0.028399,0.050865,0.027731,-0.030382,-0.05,-0.003215,-0.480682,0.051434,-0.592035,-264.366603,0.020892,63.088124
0.7783,-0.029111,0.028409,0.050728,0.028007,-0.029861,-0.05,-0.003545,-0.480948,0.050854,-0.666949,-264.36642,0.027912,63.088201
0.798,-0.02932,0.028421,0.051843,0.027633,-0.029848,-0.05,-0.003524,-0.480947,0.050845,-0.666949,-264.36642,0.027912,63.088201
0.818,-0.029283,0.02844,0.052308,0.027808,-0.029903,-0.05,-0.002858,-0.480911,0.051811,-0.741924,-264.365814,0.00562,63.088452
0.838,-0.029515,0.028356,0.052661,0.027756,-0.029932,-0.05,-0.002717,-0.480886,0.05209,-0.741924,-264.365814,0.00562,63.088452
0.8582,-0.028972,0.028439,0.051495,0.027982,-0.02987,-0.05,-0.002717,-0.480886,0.05209,-0.741924,-264.365814,0.00562,63.088452
0.8782,-0.029021,0.028373,0.051045,0.027469,-0.029893,-0.05,-0.002589,-0.480962,0.051355,-0.816912,-264.363906,0.024933,63.089247
0.8984,-0.029156,0.028479,0.049954,0.027536,-0.029817,-0.05,-0.002614,-0.480964,0.05133,-0.816912,-264.363906,0.024933,63.089247
0.918,-0.028483,0.028225,0.049384,0.027697,-0.0299,-0.049954,-0.003446,-0.481036,0.049679,-0.891923,-264.359492,0.023836,63.09136
0.9382,-0.02891,0.028391,0.050866,0.027055,-0.029597,-0.049384,-0.003336,-0.481122,0.049475,-0.891923,-264.359492,0.023836,63.09136
0.9582,-0.028599,0.028228,0.049556,0.027429,-0.029824,-0.05,-0.003336,-0.481122,0.049475,-0.891923,-264.359492,0.023836,63.09136
0.9782,-0.027867,0.028079,0.050668,0.027166,-0.02961,-0.049556,-0.00284,-0.481461,0.04898,-0.967011,-264.35258,0.026177,63.095341
0.9988,-0.028075,0.02815,0.048962,0.026409,-0.029455,-0.05,-0.00277,-0.481456,0.049083,-0.967011,-264.35258,0.026177,63.095341
1.0181,-0.026903,0.027637,0.048115,0.026663,-0.02949,-0.048962,-0.002555,-0.481595,0.048307,-1.042005,-264.343165,0.026014,63.101824
1.038,-0.026452,0.027543,0.048047,0.025543,-0.028899,-0.048115,-0.002381,-0.481742,0.048114,-1.042005,-264.343165,0.026014,63.101824
1.058,-0.026493,0.027673,0.050298,0.025099,-0.028782,-0.048047,-0.002381,-0.481742,0.048114,-1.042005,-264.343165,0.026014,63.101824
1.0785,-0.02516,0.026857,0.047804,0.025068,-0.02897,-0.05,1.3e-05,-0.482268,0.0492,-1.117037,-264.331256,0.04098,63.110371
1.0986,-0.025158,0.026911,0.047672,0.023848,-0.028028,-0.047804,-2.1e-05,-0.482306,0.049067,-1.117037,-264.331256,0.04098,63.110371
1.1183,-0.023475,0.026171,0.045494,0.023847,-0.02808,-0.047672,-8.4e-05,-0.483102,0.046609,-1.163177,-264.316864,0.022426,63.12001
1.1382,-0.023455,0.026096,0.049029,0.022261,-0.027212,-0.045494,-9.9e-05,-0.48329,0.045841,-1.163177,-264.316864,0.022426,63.12001
1.1583,-0.023334,0.026185,0.047333,0.022148,-0.027214,-0.049029,-9.9e-05,-0.48329,0.045841,-1.163177,-264.316864,0.022426,63.12001
1.1782,-0.021489,0.025094,0.04664,0.022069,-0.027259,-0.047333,0.001805,-0.484119,0.045734,-1.175941,-264.299956,0.048954,63.129429
1.1987,-0.021449,0.025388,0.044867,0.020295,-0.026069,-0.04664,0.001866,-0.484158,0.045755,-1.175941,-264.299956,0.048954,63.129429
1.2181,-0.019772,0.023972,0.044393,0.020289,-0.026325,-0.044867,0.002197,-0.484901,0.04334,-1.20112,-264.280548,0.122659,63.137529
1.2384,-0.019467,0.024443,0.042231,0.018689,-0.024826,-0.044393,0.002663,-0.485349,0.04374,-1.20112,-264.280548,0.122659,63.137529
1.2582,-0.019852,0.02442,0.042369,0.018417,-0.025243,-0.042231,0.002663,-0.485349,0.04374,-1.20112,-264.280548,0.122659,63.137529
1.2785,-0.017201,0.023018,0.040454,0.0188,-0.025239,-0.042369,0.002755,-0.486272,0.040227,-1.214638,-264.258639,0.118515,63.145678
1.2985,-0.017289,0.023238,0.041927,0.016256,-0.023695,-0.040454,0.002824,-0.486321,0.040188,-1.214638,-264.258639,0.118515,63.145678
1.3186,-0.015645,0.022384,0.037267,0.0163,-0.023942,-0.041927,0.004747,-0.487141,0.040485,-1.224468,-264.239537,0.043513,63.152165
1.3385,-0.016075,0.022326,0.038861,0.0148,-0.022951,-0.037267,0.004042,-0.487316,0.038475,-1.224468,-264.239537,0.043513,63.152165
1.3582,-0.015529,0.022268,0.038623,0.015196,-0.022934,-0.038861,0.004042,-0.487316,0.038475,-1.224468,-264.239537,0.043513,63.152165
1.378,-0.013934,0.020944,0.036072,0.014658,-0.022851,-0.038623,0.004986,-0.488459,0.036682,-1.246774,-264.219388,0.062216,63.158593
1.3986,-0.013743,0.021508,0.036788,0.01317,-0.021433,-0.036072,0.004971,-0.488506,0.036589,-1.246774,-264.219388,0.062216,63.158593
1.4183,-0.011739,0.019985,0.036866,0.012943,-0.021999,-0.036788,0.005631,-0.489008,0.035291,-1.256013,-264.199812,0.052643,63.164662
1.4384,-0.011789,0.02013,0.034952,0.010995,-0.020404,-0.036866,0.006521,-0.489493,0.035997,-1.256013,-264.199812,0.052643,63.164662
1.4582,-0.011915,0.019548,0.0357,0.011078,-0.02053,-0.034952,0.006521,-0.489493,0.035997,-1.256013,-264.199812,0.052643,63.164662
1.4782,-0.010339,0.018882,0.03387,0.011209,-0.019961,-0.0357,0.00696,-0.491139,0.033958,-1.276587,-264.181783,0.045355,63.169896
1.4986,-0.010586,0.019063,0.031357,0.009693,-0.019221,-0.03387,0.006975,-0.491144,0.033907,-1.276587,-264.181783,0.045355,63.169896
1.5185,-0.008841,0.017838,0.031754,0.009983,-0.019385,-0.031357,0.00584,-0.491441,0.03005,-1.31217,-264.165018,0.073631,63.174195
1.5382,-0.008966,0.018076,0.031529,0.00827,-0.01811,-0.031754,0.006758,-0.491801,0.030857,-1.31217,-264.165018,0.073631,63.174195
1.5583,-0.009027,0.017653,0.031414,0.008392,-0.01835,-0.031529,0.006758,-0.491801,0.030857,-1.31217,-264.165018,0.073631,63.174195
1.5781,-0.008043,0.017361,0.029514,0.008468,-0.017928,-0.031414,0.007444,-0.492928,0.029923,-1.332518,-264.150158,0.148679,63.177742
1.5982,-0.007724,0.017264,0.028254,0.007527,-0.017591,-0.029514,0.007427,-0.492916,0.029859,-1.332518,-264.150158,0.148679,63.177742
1.618,-0.006631,0.01653,0.028609,0.007233,-0.017475,-0.028254,0.007017,-0.493212,0.027072,-1.35125,-264.135239,0.10765,63.18101
1.638,-0.006539,0.016632,0.029759,0.006156,-0.016713,-0.028609,0.007593,-0.493325,0.027795,-1.35125,-264.135239,0.10765,63.18101
1.6581,-0.006123,0.016142,0.028908,0.006042,-0.016819,-0.029759,0.007593,-0.493325,0.027795,-1.35125,-264.135239,0.10765,63.18101
1.6781,-0.005322,0.015274,0.027618,0.005654,-0.016312,-0.028908,0.008992,-0.494454,0.027532,-1.362535,-264.121258,0.057745,63.183906
1.6981,-0.005493,0.015469,0.025496,0.004898,-0.015415,-0.027618,0.008985,-0.494483,0.0275,-1.362535,-264.121258,0.057745,63.183906
1.7184,-0.004482,0.014683,0.026451,0.005097,-0.015604,-0.025496,0.007668,-0.494782,0.024775,-1.399841,-264.112212,0.132837,63.185483
1.7385,-0.004375,0.014864,0.027821,0.004092,-0.014796,-0.026451,0.00845,-0.495038,0.025637,-1.399841,-264.112212,0.132837,63.185483
1.7582,-0.004694,0.015282,0.025243,0.00396,-0.01498,-0.027821,0.00845,-0.495038,0.025637,-1.399841,-264.112212,0.132837,63.185483
1.7782,-0.003882,0.014351,0.022874,0.004306,-0.015396,-0.025243,0.008353,-0.495062,0.024349,-1.42022,-264.103413,0.207748,63.18686
1.7982,-0.003921,0.014069,0.023405,0.003552,-0.014436,-0.022874,0.008318,-0.495108,0.024221,-1.42022,-264.103413,0.207748,63.18686
1.8182,-0.003972,0.014589,0.023609,0.003591,-0.014157,-0.023405,0.00807,-0.495982,0.023065,-1.447565,-264.099232,0.282744,63.187436
1.8383,-0.003841,0.014084,0.025192,0.003627,-0.014679,-0.023609,0.008076,-0.495601,0.023331,-1.447565,-264.099232,0.282744,63.187436
1.858,-0.003958,0.013944,0.025458,0.003485,-0.014176,-0.025192,0.008076,-0.495601,0.023331,-1.447565,-264.099232,0.282744,63.187436
1.8781,-0.003879,0.014127,0.024534,0.003602,-0.01404,-0.025458,0.009035,-0.495931,0.025388,-1.44639,-264.098545,0.207747,63.187522
1.8984,-0.003705,0.013964,0.025361,0.003531,-0.014218,-0.024534,0.009008,-0.495918,0.025328,-1.44639,-264.098545,0.207747,63.187522
1.9184,-0.003493,0.014272,0.023304,0.003349,-0.014053,-0.025361,0.009302,-0.496008,0.025085,-1.453446,-264.095356,0.282759,63.188664
1.9384,-0.003701,0.014008,0.025122,0.00316,-0.01435,-0.023304,0.008792,-0.495786,0.024035,-1.453446,-264.095356,0.282759,63.188664
1.9586,-0.003378,0.013871,0.024713,0.003348,-0.014097,-0.025122,0.008792,-0.495786,0.024035,-1.453446,-264.095356,0.282759,63.188664
1.9782,-0.003032,0.013722,0.024678,0.003034,-0.013951,-0.024713,0.009353,-0.496296,0.024122,-1.450448,-264.089667,0.213609,63.190002
1.9987,-0.003012,0.013531,0.022752,0.002692,-0.013793,-0.024678,0.009369,-0.496293,0.024143,-1.450448,-264.089667,0.213609,63.190002
2.0187,-0.002431,0.013233,0.022029,0.002704,-0.013596,-0.022752,0.008692,-0.496718,0.022078,-1.457568,-264.08148,0.288546,63.191031
2.0382,-0.002398,0.013241,0.022532,0.002139,-0.013283,-0.022029,0.008767,-0.496723,0.021968,-1.457568,-264.08148,0.288546,63.191031
2.0582,-0.002373,0.013379,0.023712,0.002099,-0.013291,-0.022532,0.008767,-0.496723,0.021968,-1.457568,-264.08148,0.288546,63.191031
2.0782,-0.00222,0.012555,0.021051,0.002055,-0.013431,-0.023712,0.009819,-0.496933,0.022907,-1.477792,-264.073653,0.36355,63.191836
2.0986,-0.001932,0.012581,0.023792,0.001956,-0.012599,-0.021051,0.009735,-0.496971,0.022763,-1.477792,-264.073653,0.36355,63.191836
2.1182,-0.001492,0.011951,0.021568,0.001632,-0.012623,-0.023792,0.010267,-0.497639,0.023165,-1.493361,-264.065876,0.288552,63.192452
2.1382,-0.001284,0.012355,0.021557,0.001234,-0.01198,-0.021568,0.009842,-0.497852,0.022176,-1.493361,-264.065876,0.288552,63.192452
2.1582,-0.001524,0.01235,0.021964,0.001018,-0.01238,-0.021557,0.009842,-0.497852,0.022176,-1.493361,-264.065876,0.288552,63.192452
2.1782,-0.00095,0.012086,0.022333,0.001252,-0.012381,-0.021964,0.009749,-0.497934,0.021273,-1.494121,-264.059025,0.213557,63.192981
2.1983,-0.001105,0.012061,0.020492,0.00068,-0.012104,-0.022333,0.009799,-0.497934,0.021329,-1.494121,-264.059025,0.213557,63.192981
2.2181,-0.000737,0.011913,0.020136,0.000858,-0.012081,-0.020492,0.009347,-0.49785,0.020461,-1.530976,-264.058643,0.288558,63.193001
2.2381,-0.000726,0.012092,0.021649,0.000497,-0.011926,-0.020136,0.009452,-0.497928,0.020273,-1.530976,-264.058643,0.288558,63.193001
2.2582,-0.000943,0.01184,0.019077,0.000464,-0.012105,-0.021649,0.009452,-0.497928,0.020273,-1.530976,-264.058643,0.288558,63.193001
2.2787,-0.000806,0.011831,0.02089,0.000717,-0.011856,-0.019077,0.008786,-0.498067,0.019077,-1.544401,-264.058642,0.363576,63.193001
2.2982,-0.000875,0.011794,0.020376,0.000558,-0.011845,-0.02089,0.008855,-0.498066,0.019195,-1.544401,-264.058642,0.363576,63.193001
2.3186,-0.000627,0.012073,0.02005,0.000634,-0.01181,-0.020376,0.009516,-0.4981,0.020376,-1.552491,-264.058641,0.438581,63.193001
2.3387,-0.000938,0.011815,0.020346,0.000385,-0.012083,-0.02005,0.009562,-0.497944,0.020191,-1.552491,-264.058641,0.438581,63.193001
2.3585,-0.001168,0.012099,0.021535,0.000698,-0.011831,-0.020346,0.009562,-0.497944,0.020191,-1.552491,-264.058641,0.438581,63.193001
2.3787,-0.001043,0.01195,0.019832,0.000908,-0.012122,-0.021535,0.009813,-0.497784,0.021531,-1.548106,-264.05861,0.513583,63.193002
2.3984,-0.000996,0.01189,0.018923,0.000806,-0.011969,-0.019832,0.009765,-0.497795,0.02142,-1.548106,-264.05861,0.513583,63.193002
2.4186,-0.000863,0.011771,0.021778,0.000771,-0.011906,-0.018923,0.008668,-0.498136,0.018714,-1.542048,-264.056079,0.588579,63.193203
2.438,-0.000656,0.011667,0.020069,0.000607,-0.011787,-0.021778,0.009559,-0.498135,0.020417,-1.542048,-264.056079,0.588579,63.193203
2.4584,-0.000925,0.011383,0.019943,0.000421,-0.011678,-0.020069,0.009559,-0.498135,0.020417,-1.542048,-264.056079,0.588579,63.193203
2.478,-0.000864,0.011751,0.021033,0.000698,-0.0114,-0.019943,0.009248,-0.49855,0.019884,-1.537356,-264.055495,0.513574,63.193223
2.4981,-0.001001,0.011858,0.020272,0.000616,-0.011767,-0.021033,0.00929,-0.498523,0.01996,-1.537356,-264.055495,0.513574,63.193223
2.5181,-0.000751,0.012099,0.02051,0.000761,-0.011876,-0.020272,0.009338,-0.498059,0.020234,-1.553189,-264.055031,0.588557,63.193237
2.5383,-0.000419,0.011541,0.019039,0.000502,-0.012112,-0.02051,0.00955,-0.49791,0.020388,-1.553189,-264.055031,0.588557,63.193237
2.5583,-0.000885,0.011624,0.02074,0.0002,-0.011546,-0.019039,0.00955,-0.49791,0.020388,-1.553189,-264.055031,0.588557,63.193237
2.5782,-0.001287,0.011837,0.021851,0.000644,-0.01164,-0.02074,0.009693,-0.498283,0.020712,-1.545755,-264.054751,0.663659,63.193251
2.5987,-0.000549,0.011385,0.019053,0.001028,-0.011862,-0.021851,0.009705,-0.498266,0.020791,-1.545755,-264.054751,0.663659,63.193251
2.6183,-0.000441,0.011415,0.022884,0.000332,-0.011393,-0.019053,0.009172,-0.498651,0.01884,-1.562187,-264.052076,0.588642,63.193276
2.6382,-0.000691,0.011188,0.019501,0.00018,-0.011422,-0.022884,0.010336,-0.498555,0.021101,-1.562187,-264.052076,0.588642,63.193276
2.6584,-0.000756,0.011566,0.018723,0.000473,-0.011199,-0.019501,0.010336,-0.498555,0.021101,-1.562187,-264.052076,0.588642,63.193276
2.6781,-0.000314,0.011285,0.019712,0.000539,-0.011578,-0.018723,0.008799,-0.498401,0.018621,-1.530038,-264.0511,0.66352,63.193346
2.6982,-0.000606,0.011751,0.020782,9.2e-05,-0.011289,-0.019712,0.008862,-0.498417,0.018692,-1.530038,-264.0511,0.66352,63.193346
2.718,-0.000555,0.011265,0.020833,0.000362,-0.011761,-0.020782,0.009997,-0.49822,0.020643,-1.550349,-264.04938,0.738531,63.193409
2.7383,-0.000957,0.011316,0.019609,0.00032,-0.011274,-0.020833,0.010039,-0.498462,0.020734,-1.550349,-264.04938,0.738531,63.193409
2.7583,-0.000428,0.011276,0.019642,0.000735,-0.011332,-0.019609,0.010039,-0.498462,0.020734,-1.550349,-264.04938,0.738531,63.193409
2.7784,-0.000429,0.01116,0.020388,0.000207,-0.011282,-0.019642,0.009589,-0.498626,0.019642,-1.566861,-264.049378,0.813636,63.19341
2.7988,-0.000512,0.011338,0.019701,0.000202,-0.011166,-0.020388,0.009615,-0.498633,0.019693,-1.566861,-264.049378,0.813636,63.19341
2.8184,-0.000339,0.011307,0.019864,0.000289,-0.011346,-0.019701,0.009553,-0.498674,0.019483,-1.539269,-264.046875,0.738716,63.193745
2.8388,-3e-05,0.011167,0.017883,0.000114,-0.011312,-0.019864,0.009689,-0.498642,0.01967,-1.539269,-264.046875,0.738716,63.193745
2.8587,-6.2e-05,0.011067,0.019404,-0.00017,-0.011166,-0.017883,0.009689,-0.498642,0.01967,-1.539269,-264.046875,0.738716,63.193745
2.8785,-0.000253,0.010974,0.019202,-0.000153,-0.011066,-0.019404,0.009833,-0.498838,0.019403,-1.562259,-264.046871,0.813792,63.193745
2.8988,6.5e-05,0.011014,0.018547,4.2e-05,-0.010977,-0.019202,0.00981,-0.498845,0.019387,-1.562259,-264.046871,0.813792,63.193745
2.918,-0.000213,0.011131,0.019592,-0.000269,-0.011011,-0.018547,0.009522,-0.499022,0.018355,-1.578482,-264.044364,0.889127,63.193663
2.9385,-0.000643,0.011037,0.018479,-5e-06,-0.011133,-0.019592,0.009669,-0.498894,0.01904,-1.578482,-264.044364,0.889127,63.193663
2.9583,-0.000234,0.011103,0.018074,0.000439,-0.011047,-0.018479,0.009669,-0.498894,0.01904,-1.578482,-264.044364,0.889127,63.193663
2.9784,0.000244,0.011074,0.019508,3.3e-05,-0.011105,-0.018074,0.008984,-0.498815,0.018073,-1.568933,-264.044353,0.963823,63.193663
2.9987,-8e-05,0.011141,0.018782,-0.00046,-0.011067,-0.019508,0.009062,-0.498816,0.018167,-1.568933,-264.044353,0.963823,63.193663
3.0181,-0.000199,0.011085,0.017207,-0.000129,-0.01114,-0.018782,0.009499,-0.498781,0.018762,-1.551123,-264.044113,0.888976,63.193668
3.038,-5.1e-05,0.010901,0.018353,9e-06,-0.011087,-0.017207,0.008976,-0.498815,0.017879,-1.551123,-264.044113,0.888976,63.193668
3.0581,-0.000526,0.011227,0.019405,-0.000149,-0.0109,-0.018353,0.008976,-0.498815,0.017879,-1.551123,-264.044113,0.888976,63.193668
3.0782,-0.000216,0.011087,0.019292,0.000308,-0.011235,-0.019405,0.00937,-0.498677,0.019405,-1.590804,-264.044112,0.813828,63.193668
3.0987,2.6e-05,0.011063,0.019341,2e-06,-0.011089,-0.019292,0.009388,-0.498687,0.019397,-1.590804,-264.044112,0.813828,63.193668
3.1181,0.000164,0.010856,0.020919,-0.00024,-0.01106,-0.019341,0.00989,-0.498842,0.019341,-1.577526,-264.044111,0.73887,63.193668
3.1384,-9.7e-05,0.011127,0.018716,-0.000391,-0.01085,-0.020919,0.01043,-0.498951,0.020246,-1.577526,-264.044111,0.73887,63.193668
3.1585,-8.7e-05,0.01104,0.020066,-0.000112,-0.011127,-0.018716,0.01043,-0.498951,0.020246,-1.577526,-264.044111,0.73887,63.193668
3.1781,-0.000386,0.011311,0.019492,-0.000135,-0.011039,-0.020066,0.010146,-0.498857,0.020066,-1.570713,-264.04411,0.813933,63.193668
3.198,-0.00031,0.011405,0.020182,0.000166,-0.011316,-0.019492,0.010105,-0.498839,0.020026,-1.570713,-264.04411,0.813933,63.193668
3.218,-0.000247,0.010883,0.017561,7.9e-05,-0.011409,-0.020182,0.009983,-0.498491,0.020182,-1.575742,-264.044109,0.738998,63.193668
3.238,-0.000342,0.011171,0.018844,5.6e-05,-0.010886,-0.017561,0.009258,-0.498802,0.018691,-1.575742,-264.044109,0.738998,63.193668
3.2583,0.000133,0.011057,0.01985,0.000132,-0.011176,-0.018844,0.009258,-0.498802,0.018691,-1.575742,-264.044109,0.738998,63.193668
3.2783,-0.000129,0.010977,0.019181,-0.000352,-0.011052,-0.01985,0.010256,-0.498846,0.019845,-1.563656,-264.044059,0.813906,63.19367
3.2982,4e-05,0.011163,0.018848,-8.2e-05,-0.010977,-0.019181,0.010214,-0.498851,0.019799,-1.563656,-264.044059,0.813906,63.19367
3.3183,-0.000249,0.010781,0.018797,-0.000251,-0.01116,-0.018848,0.009654,-0.498787,0.018781,-1.564999,-264.04322,0.888908,63.193683
3.3382,-0.000161,0.010925,0.018415,4.6e-05,-0.010784,-0.018797,0.009472,-0.498989,0.018782,-1.564999,-264.04322,0.888908,63.193683
3.3583,1.4e-05,0.011013,0.020011,-4e-05,-0.010926,-0.018415,0.009472,-0.498989,0.018782,-1.564999,-264.04322,0.888908,63.193683
3.378,-0.000131,0.010851,0.01897,-0.000234,-0.011011,-0.020011,0.010219,-0.498885,0.020011,-1.574402,-264.043219,0.964072,63.193683
3.398,3.1e-05,0.010858,0.020615,-7.5e-05,-0.010852,-0.01897,0.010172,-0.498897,0.01994,-1.574402,-264.043219,0.964072,63.193683
3.4181,-0.000282,0.011516,0.019455,-0.000254,-0.010855,-0.020615,0.010543,-0.499034,0.020614,-1.572593,-264.043217,1.038892,63.193683
3.438,0.000275,0.010823,0.018378,5.8e-05,-0.011519,-0.019455,0.010025,-0.498664,0.01995,-1.572593,-264.043217,1.038892,63.193683
3.4585,-0.000101,0.011149,0.018053,-0.000474,-0.010816,-0.018378,0.010025,-0.498664,0.01995,-1.572593,-264.043217,1.038892,63.193683
3.4781,-3.5e-05,0.011002,0.020438,-0.0001,-0.011149,-0.018053,0.009105,-0.498769,0.018052,-1.574124,-264.043207,1.114007,63.193683
3.4981,-4.3e-05,0.011006,0.019366,-0.00019,-0.011,-0.020438,0.009191,-0.498777,0.018212,-1.574124,-264.043207,1.114007,63.193683
3.5183,3.4e-05,0.011026,0.018989,-0.00017,-0.011005,-0.019366,0.009833,-0.498899,0.019366,-1.592289,-264.043206,1.039068,63.193683
3.5387,0.000406,0.01118,0.020557,-0.000243,-0.011024,-0.018989,0.009767,-0.498889,0.01915,-1.592289,-264.043206,1.039068,63.193683
3.5582,0.000217,0.010931,0.01774,-0.000636,-0.011169,-0.020557,0.009767,-0.498889,0.01915,-1.592289,-264.043206,1.039068,63.193683
3.5781,-0.000266,0.010734,0.018259,-0.000411,-0.010926,-0.01774,0.009264,-0.498989,0.017739,-1.578886,-264.0432,1.114203,63.193684
3.598,7.2e-05,0.010906,0.018039,7e-05,-0.010737,-0.018259,0.009249,-0.499002,0.017775,-1.578886,-264.0432,1.114203,63.193684
3.6182,-4.3e-05,0.011072,0.018017,-0.000269,-0.010903,-0.018039,0.009271,-0.499011,0.018039,-1.5976,-264.043199,1.039386,63.193684
3.6382,0.000204,0.01085,0.016723,-0.000156,-0.011071,-0.018017,0.009199,-0.498916,0.018026,-1.5976,-264.043199,1.039386,63.193684
3.6582,-0.000368,0.011138,0.020354,-0.000385,-0.010845,-0.016723,0.009199,-0.498916,0.018026,-1.5976,-264.043199,1.039386,63.193684
3.6785,2e-06,0.011141,0.019988,0.000141,-0.011143,-0.020354,0.010014,-0.498814,0.020256,-1.567618,-264.042228,1.114533,63.193702
3.6984,-0.000136,0.010784,0.019887,-0.000225,-0.011139,-0.019988,0.010026,-0.498812,0.020235,-1.567618,-264.042228,1.114533,63.193702
3.7185,0.000173,0.010672,0.01985,-7.8e-05,-0.010784,-0.019887,0.01,-0.499294,0.01963,-1.58909,-264.038753,1.039681,63.193445
3.7383,8.6e-05,0.010457,0.01717,-0.000385,-0.010666,-0.01985,0.010169,-0.499279,0.019723,-1.58909,-264.038753,1.039681,63.193445
3.7582,0.000317,0.010292,0.020006,-0.000265,-0.010454,-0.01717,0.010169,-0.499279,0.019723,-1.58909,-264.038753,1.039681,63.193445
3.779,0.00012,0.010703,0.017433,-0.000522,-0.010284,-0.020006,0.010519,-0.499606,0.020005,-1.580414,-264.038752,0.964513,63.193445
3.7983,0.000386,0.01103,0.017381,-0.000307,-0.010699,-0.017433,0.010415,-0.499579,0.019828,-1.580414,-264.038752,0.964513,63.193445
3.8181,5e-05,0.010628,0.017655,-0.000578,-0.011022,-0.017381,0.00925,-0.498893,0.017381,-1.583462,-264.038751,0.889676,63.193445
3.8381,-0.000182,0.010614,0.018698,-0.000237,-0.010626,-0.017655,0.009137,-0.499122,0.017538,-1.583462,-264.038751,0.889676,63.193445
3.8582,-4.5e-05,0.010647,0.018671,-1.6e-05,-0.010616,-0.018698,0.009137,-0.499122,0.017538,-1.583462,-264.038751,0.889676,63.193445
3.8783,0.000482,0.010838,0.018517,-0.000154,-0.010646,-0.018671,0.009476,-0.499265,0.01867,-1.585158,-264.03875,0.81454,63.193445
3.8983,-0.000106,0.010873,0.019671,-0.000683,-0.010827,-0.018517,0.009508,-0.499251,0.01866,-1.585158,-264.03875,0.81454,63.193445
3.9182,0.000114,0.010871,0.018083,-0.000108,-0.010873,-0.019671,0.009926,-0.499028,0.019671,-1.571527,-264.038749,0.889423,63.193445
3.9385,7e-05,0.01078,0.016993,-0.00031,-0.010867,-0.018083,0.009587,-0.499038,0.018758,-1.571527,-264.038749,0.889423,63.193445
3.9586,6.5e-05,0.010269,0.018855,-0.000254,-0.010778,-0.016993,0.009587,-0.499038,0.018758,-1.571527,-264.038749,0.889423,63.193445
3.9784,4.2e-05,0.010763,0.018658,-0.000258,-0.010266,-0.018855,0.00968,-0.49964,0.018855,-1.601629,-264.038748,0.814284,63.193445
3.9986,0.000266,0.010455,0.018453,-0.000243,-0.01076,-0.018658,0.009672,-0.499606,0.018841,-1.601629,-264.038748,0.814284,63.193445
4.018,0.000187,0.010244,0.01826,-0.000459,-0.010448,-0.018453,0.009674,-0.499583,0.018262,-1.582784,-264.036248,0.889147,63.19334
4.0382,0.000273,0.010307,0.019432,-0.000374,-0.010239,-0.01826,0.009574,-0.499649,0.018237,-1.582784,-264.036248,0.889147,63.19334
4.0583,0.000229,0.010349,0.018038,-0.000474,-0.0103,-0.019432,0.009574,-0.499649,0.018237,-1.582784,-264.036248,0.889147,63.19334
4.0783,0.000194,0.010743,0.017204,-0.000415,-0.010344,-0.018038,0.009428,-0.499568,0.018038,-1.581762,-264.036247,0.814059,63.19334
4.0981,0.000323,0.010305,0.017142,-0.000379,-0.010738,-0.017204,0.009397,-0.499542,0.017982,-1.581762,-264.036247,0.814059,63.19334
4.118,0.000241,0.010601,0.017562,-0.0005,-0.010298,-0.017142,0.009066,-0.49962,0.017142,-1.592156,-264.036246,0.739171,63.19334
4.1382,0.000179,0.010416,0.017085,-0.000428,-0.010595,-0.017562,0.009141,-0.499448,0.017382,-1.592156,-264.036246,0.739171,63.19334
4.1582,0.000106,0.010822,0.019326,-0.000357,-0.010411,-0.017085,0.009141,-0.499448,0.017382,-1.592156,-264.036246,0.739171,63.19334
4.1787,0.00016,0.01054,0.017361,-0.000315,-0.010818,-0.019326,0.009958,-0.499239,0.019084,-1.588637,-264.033722,0.664048,63.193242
4.1985,0.000424,0.010461,0.018954,-0.000343,-0.010536,-0.017361,0.009871,-0.499258,0.018917,-1.588637,-264.033722,0.664048,63.193242
4.2186,0.000174,0.01033,0.016014,-0.000622,-0.010451,-0.018954,0.01009,-0.499448,0.018954,-1.587921,-264.033721,0.588486,63.193242
4.2384,0.000211,0.010366,0.018754,-0.000339,-0.010326,-0.016014,0.009087,-0.499537,0.017268,-1.587921,-264.033721,0.588486,63.193242
4.2583,0.000332,0.010356,0.017193,-0.000405,-0.01036,-0.018754,0.009087,-0.499537,0.017268,-1.587921,-264.033721,0.588486,63.193242
4.2787,0.000654,0.010624,0.01911,-0.00051,-0.010349,-0.017193,0.0091,-0.499569,0.017193,-1.58702,-264.03372,0.513967,63.193242
4.2983,0.000108,0.010192,0.019025,-0.000857,-0.01061,-0.01911,0.00919,-0.499549,0.017326,-1.58702,-264.03372,0.513967,63.193242
4.3183,0.000448,0.010479,0.018973,-0.000302,-0.010188,-0.019025,0.00981,-0.499715,0.019025,-1.589364,-264.033719,0.439006,63.193242
4.3381,0.000237,0.010515,0.019027,-0.000646,-0.010469,-0.018973,0.009989,-0.499552,0.018996,-1.589364,-264.033719,0.439006,63.193242
4.3582,0.000231,0.010014,0.016485,-0.000437,-0.010509,-0.019027,0.009989,-0.499552,0.018996,-1.589364,-264.033719,0.439006,63.193242
4.3782,0.000428,0.010369,0.017714,-0.000396,-0.010008,-0.016485,0.008638,-0.499917,0.016484,-1.609244,-264.033718,0.364072,63.193242
4.3987,0.000375,0.010338,0.016019,-0.000612,-0.01036,-0.017714,0.008695,-0.499892,0.01657,-1.609244,-264.033718,0.364072,63.193242
4.4182,0.000396,0.010401,0.01838,-0.00054,-0.01033,-0.016019,0.008544,-0.499597,0.016019,-1.59052,-264.033717,0.289153,63.193241
4.4388,0.000177,0.010383,0.01903,-0.000587,-0.010392,-0.01838,0.009242,-0.499549,0.017363,-1.59052,-264.033717,0.289153,63.193241
4.4588,0.000224,0.010358,0.017748,-0.000374,-0.010378,-0.01903,0.009242,-0.499549,0.017363,-1.59052,-264.033717,0.289153,63.193241
4.4781,0.000349,0.010335,0.018549,-0.000408,-0.010352,-0.017748,0.009275,-0.499562,0.017748,-1.599662,-264.033716,0.21415,63.193241
4.4981,0.00025,0.01032,0.018341,-0.00054,-0.010327,-0.018549,0.009312,-0.499563,0.017804,-1.599662,-264.033716,0.21415,63.193241
4.5181,0.000318,0.010374,0.017772,-0.000439,-0.010313,-0.018341,0.009604,-0.499595,0.018341,-1.587816,-264.033715,0.139077,63.193241
4.5381,0.000634,0.01055,0.018232,-0.000502,-0.010366,-0.017772,0.009477,-0.499567,0.018016,-1.587816,-264.033715,0.139077,63.193241
4.5581,-2e-06,0.010752,0.017589,-0.000826,-0.010537,-0.018232,0.009477,-0.499567,0.018016,-1.587816,-264.033715,0.139077,63.193241
4.5783,0.000111,0.010483,0.017017,-0.000187,-0.01075,-0.017589,0.008968,-0.499169,0.017589,-1.595734,-264.033715,0.064039,63.193241
4.5981,-3e-06,0.010158,0.019206,-0.000289,-0.01048,-0.017017,0.008955,-0.499189,0.017548,-1.595734,-264.033715,0.064039,63.193241
4.6182,0.000188,0.010756,0.018356,-0.000192,-0.010156,-0.019206,0.009792,-0.499748,0.019206,-1.608907,-264.033712,-0.010928,63.193241
4.6381,0.000183,0.010107,0.01945,-0.000386,-0.010751,-0.018356,0.009653,-0.49941,0.01872,-1.608907,-264.033712,-0.010928,63.193241
4.6585,7.8e-05,0.010191,0.017837,-0.00038,-0.010102,-0.01945,0.009653,-0.49941,0.01872,-1.608907,-264.033712,-0.010928,63.193241
4.6785,0.000401,0.0103,0.018661,-0.00026,-0.010188,-0.017837,0.009173,-0.499842,0.017652,-1.58466,-264.031848,0.064096,63.193214
4.6986,0.000546,0.010289,0.017584,-0.000593,-0.010291,-0.018661,0.009224,-0.499829,0.017716,-1.58466,-264.031848,0.064096,63.193214
4.7185,0.000619,0.010208,0.018221,-0.000726,-0.010278,-0.017584,0.009513,-0.499632,0.017584,-1.588071,-264.031847,-0.010791,63.193214
4.7383,0.000773,0.009972,0.01581,-0.000805,-0.010195,-0.018221,0.009742,-0.499675,0.017949,-1.588071,-264.031847,-0.010791,63.193214
4.7587,0.000301,0.010373,0.015974,-0.000931,-0.009958,-0.01581,0.009742,-0.499675,0.017949,-1.588071,-264.031847,-0.010791,63.193214
4.7783,0.000653,0.010716,0.016494,-0.000466,-0.010366,-0.015974,0.008447,-0.499562,0.015973,-1.598151,-264.031846,-0.085911,63.193214
4.7987,0.000389,0.010196,0.018229,-0.00083,-0.010704,-0.016494,0.008488,-0.499539,0.016008,-1.598151,-264.031846,-0.085911,63.193214
4.8183,0.000549,0.010298,0.018013,-0.000575,-0.010187,-0.018229,0.009683,-0.499746,0.018185,-1.618206,-264.031282,-0.010992,63.193186
4.8382,0.000184,0.010122,0.01726,-0.000734,-0.010286,-0.018013,0.009713,-0.499678,0.018082,-1.618206,-264.031282,-0.010992,63.193186
4.8582,0.000153,0.009833,0.018287,-0.000359,-0.010117,-0.01726,0.009713,-0.499678,0.018082,-1.618206,-264.031282,-0.010992,63.193186
4.8786,0.000594,0.009856,0.017626,-0.000359,-0.010117,-0.01726,0.009479,-0.500082,0.018287,-1.610701,-264.031277,0.063967,63.193186
4.8986,0.00052,0.010344,0.01836,-8e-06,-0.0001,0.0,0.009487,-0.500081,0.018241,-1.610701,-264.031277,0.063967,63.193186
4.9185,0.000983,0.00999,0.019162,-8e-06,-0.0001,0.0,0.009883,-0.49957,0.01836,-1.588167,-264.031276,-0.01103,63.193186
4.9383,0.000413,0.009988,0.018918,-8e-06,-0.0001,0.0,0.010376,-0.499766,0.018813,-1.588167,-264.031276,-0.01103,63.193186
4.9584,0.000496,0.010135,0.017048,-8e-06,-0.0001,0.0,0.010376,-0.499766,0.018813,-1.588167,-264.031276,-0.01103,63.193186
4.9782,0.00041,0.010248,0.018596,-8e-06,-0.0001,0.0,0.00919,-0.499791,0.017048,-1.648613,-264.031276,0.063971,63.193186
4.9987,0.000601,0.010367,0.017403,-8e-06,-0.0001,0.0,0.00924,-0.499782,0.017157,-1.648613,-264.031276,0.063971,63.193186
5.0183,0.000692,0.010606,0.017541,-8e-06,-0.0001,0.0,0.009477,-0.499556,0.017403,-1.648613,-264.031276,0.138973,63.193186
5.0382,0.000475,0.010401,0.017742,-8e-06,-0.0001,0.0,0.00957,-0.499417,0.017483,-1.648613,-264.031276,0.138973,63.193186
5.0581,0.000518,0.010192,0.018266,-8e-06,-0.0001,0.0,0.00957,-0.499417,0.017483,-1.648613,-264.031276,0.138973,63.193186
5.0781,0.000627,0.010103,0.018911,-8e-06,-0.0001,0.0,0.009833,-0.499723,0.018266,-1.648613,-264.031276,0.214301,63.193186
5.0984,0.000719,0.010196,0.018075,-8e-06,-0.0001,0.0,0.009864,-0.499729,0.018312,-1.648613,-264.031276,0.214301,63.193186
5.1185,0.000391,0.01043,0.016585,-0.000112,-0.001434,-0.002568,0.009937,-0.499721,0.018075,-1.648613,-264.031276,0.289037,63.193186
5.1387,0.000578,0.009938,0.018781,-0.00022,-0.002823,-0.005054,0.009321,-0.499596,0.017231,-1.648613,-264.031276,0.289037,63.193186
5.1588,0.000622,0.010116,0.016663,-0.00032,-0.004098,-0.007338,0.009321,-0.499596,0.017231,-1.648613,-264.031276,0.289037,63.193186
5.179,0.00052,0.010301,0.019816,-0.000416,-0.005329,-0.009543,0.00912,-0.499814,0.016663,-1.648613,-264.031276,0.363981,63.193186
5.1985,0.000648,0.010142,0.018282,-0.000503,-0.006457,-0.011562,0.009216,-0.4998,0.016865,-1.648613,-264.031276,0.363981,63.193186
5.2184,0.000736,0.010449,0.017546,-0.000587,-0.007525,-0.013474,0.009971,-0.499773,0.018281,-1.608023,-264.031275,0.288969,63.193186
5.2385,0.000498,0.010007,0.017027,-0.000664,-0.00852,-0.015255,0.009808,-0.499602,0.017864,-1.608023,-264.031275,0.288969,63.193186
5.2584,0.000774,0.010104,0.016137,-0.000737,-0.009447,-0.016915,0.009808,-0.499602,0.017864,-1.608023,-264.031275,0.288969,63.193186
5.2782,0.000246,0.010469,0.016935,-0.000803,-0.010297,-0.018437,0.009003,-0.49983,0.016137,-1.608023,-264.031275,0.213983,63.193186
5.2981,0.00047,0.010299,0.019633,-0.000863,-0.011071,-0.019823,0.008995,-0.499805,0.016191,-1.608023,-264.031275,0.213983,63.193186
5.3181,0.000736,0.010062,0.017731,-0.000918,-0.011773,-0.02108,0.010482,-0.499603,0.019633,-1.608023,-264.031274,0.13898,63.193186
5.338,0.000495,0.010137,0.017846,-0.000967,-0.012399,-0.022201,0.010082,-0.499748,0.01855,-1.608023,-264.031274,0.13898,63.193186
5.3581,0.000567,0.010742,0.018745,-0.00101,-0.012953,-0.023194,0.010082,-0.499748,0.01855,-1.608023,-264.031274,0.13898,63.193186
5.3782,0.000767,0.010339,0.016513,-0.001047,-0.013434,-0.024054,0.010127,-0.499169,0.018745,-1.608023,-264.031273,0.063931,63.193186
5.3981,0.000485,0.010033,0.016891,-0.001079,-0.01384,-0.024782,0.010065,-0.499196,0.018599,-1.608023,-264.031273,0.063931,63.193186
5.4182,0.000863,0.010247,0.017223,-0.001106,-0.014181,-0.025391,0.009099,-0.499894,0.01689,-1.608023,-264.031272,-0.011005,63.193185
5.4381,0.00042,0.0101,0.018484,-0.001125,-0.014433,-0.025843,0.009412,-0.49977,0.017081,-1.608023,-264.031272,-0.011005,63.193185
5.458,0.000604,0.010084,0.017808,-0.00114,-0.014617,-0.026173,0.009412,-0.49977,0.017081,-1.608023,-264.031272,-0.011005,63.193185
5.4787,0.001102,0.010164,0.016502,-0.001148,-0.014729,-0.026373,0.009685,-0.499835,0.017807,-1.608023,-264.031271,-0.086147,63.193185
5.4993,0.000569,0.010284,0.017896,-0.001151,-0.014766,-0.026439,0.009672,-0.49983,0.017703,-1.608023,-264.031271,-0.086147,63.193185
5.5181,0.000101,0.01039,0.017909,-0.001148,-0.014728,-0.026371,0.009696,-0.499635,0.017896,-1.608023,-264.031269,-0.161374,63.193185
5.5384,0.000577,0.01013,0.017545,-0.00114,-0.014618,-0.026175,0.009434,-0.499574,0.017904,-1.608023,-264.031269,-0.161374,63.193185
5.5582,0.000256,0.010167,0.016842,-0.001126,-0.014435,-0.025847,0.009434,-0.499574,0.017904,-1.608023,-264.031269,-0.161374,63.193185
5.5782,0.000579,0.01008,0.016957,-0.001105,-0.014177,-0.025385,0.008845,-0.49976,0.016842,-1.608023,-264.031267,-0.236081,63.193185
5.5984,0.000363,0.010339,0.017526,-0.00108,-0.013845,-0.024791,0.008872,-0.499766,0.01685,-1.608023,-264.031267,-0.236081,63.193185
5.6189,0.000643,0.010214,0.019029,-0.001048,-0.013438,-0.024061,0.0093,-0.499583,0.017525,-1.608023,-264.031255,-0.311013,63.193185
5.6382,0.000565,0.010551,0.018046,-0.001011,-0.01296,-0.023206,0.009896,-0.499646,0.018381,-1.608023,-264.031255,-0.311013,63.193185
5.6582,0.000922,0.010348,0.01803,-0.000967,-0.012408,-0.022217,0.009896,-0.499646,0.018381,-1.608023,-264.031255,-0.311013,63.193185
5.6782,0.000472,0.010319,0.018008,-0.000919,-0.01178,-0.021093,0.010117,-0.499572,0.018024,-1.608023,-264.031202,-0.386043,63.193181
5.6984,0.000911,0.010401,0.017941,-0.000864,-0.01108,-0.019839,0.010084,-0.499574,0.018023,-1.608023,-264.031202,-0.386043,63.193181
5.7184,0.000783,0.010228,0.018079,-0.000802,-0.01028,-0.018408,0.01006,-0.499525,0.017925,-1.608023,-264.031013,-0.46101,63.19317
5.7383,0.000474,0.010191,0.018225,-0.000737,-0.009454,-0.016927,0.010027,-0.49962,0.018011,-1.608023,-264.031013,-0.46101,63.19317
5.7582,0.000419,0.010025,0.017556,-0.000665,-0.008534,-0.01528,0.010027,-0.49962,0.018011,-1.608023,-264.031013,-0.46101,63.19317
5.7782,0.00038,0.010178,0.017014,-0.000588,-0.007537,-0.013495,0.00937,-0.499928,0.0175,-1.608023,-264.030471,-0.53606,63.193139
5.7987,0.000713,0.010183,0.019268,-0.000504,-0.006467,-0.011579,0.009349,-0.499917,0.017467,-1.608023,-264.030471,-0.53606,63.193139
5.8184,0.000676,0.010236,0.018062,-0.000415,-0.005321,-0.009528,0.010535,-0.499773,0.019179,-1.608023,-264.029388,-0.611014,63.193076
5.8387,0.000609,0.009973,0.016375,-0.00032,-0.004105,-0.007351,0.010169,-0.499728,0.018537,-1.608023,-264.029388,-0.611014,63.193076
5.8582,0.000878,0.010011,0.016801,-0.000219,-0.002814,-0.005039,0.010169,-0.499728,0.018537,-1.608023,-264.029388,-0.611014,63.193076
5.8784,0.000503,0.010136,0.016412,-0.000113,-0.001444,-0.002586,0.009439,-0.500019,0.016622,-1.608023,-264.027653,-0.686012,63.192975
5.8985,0.000456,0.010123,0.018734,-1e-06,-9e-06,-1.6e-05,0.0094,-0.500006,0.016603,-1.608023,-264.027653,-0.686012,63.192975
5.9182,0.000908,0.009881,0.017615,0.0,0.0,0.0,0.010006,-0.499848,0.018626,-1.608023,-264.026336,-0.76102,63.192898
5.9385,0.000506,0.01002,0.015922,0.0,0.0,0.0,0.00994,-0.499965,0.018039,-1.608023,-264.026336,-0.76102,63.192898
5.9582,0.000614,0.009967,0.016778,0.0,0.0,0.0,0.00994,-0.499965,0.018039,-1.608023,-264.026336,-0.76102,63.192898
5.9784,0.000679,0.010024,0.017569,0.0,0.0,0.0,0.009171,-0.499962,0.016777,-1.608023,-264.02633,-0.836018,63.192898
5.9982,0.000577,0.009902,0.018487,0.0,0.0,0.0,0.009201,-0.499958,0.016829,-1.608023,-264.02633,-0.836018,63.192898
6.0186,0.000829,0.01041,0.018118,0.0,0.0,0.0,0.010005,-0.500011,0.018487,-1.608023,-264.02633,-0.836018,63.192898
6.0382,0.000467,0.009964,0.018011,0.0,0.0,0.0,0.010042,-0.499721,0.018275,-1.608023,-264.02633,-0.836018,63.192898
6.0583,0.000678,0.010024,0.017111,0.0,0.0,0.0,0.010042,-0.499721,0.018275,-1.608023,-264.02633,-0.836018,63.192898
6.0782,0.000646,0.009994,0.016619,0.0,0.0,0.0,0.009404,-0.499901,0.017111,-1.608023,-264.02633,-0.836018,63.192898
6.0981,0.000769,0.010224,0.016862,0.0,0.0,0.0,0.009382,-0.499904,0.017073,-1.608023,-264.02633,-0.836018,63.192898
6.1183,0.000852,0.010003,0.017242,0.0,0.0,0.0,0.009368,-0.499703,0.016862,-1.608023,-264.02633,-0.836018,63.192898
6.1388,0.000877,0.010135,0.018142,-1e-05,-9.9e-05,0.0,0.009526,-0.499827,0.017079,-1.608023,-264.02633,-0.836018,63.192898
6.1589,0.000568,0.009659,0.01762,-1e-05,-9.9e-05,0.0,0.009526,-0.499827,0.017079,-1.608023,-264.02633,-0.836018,63.192898
6.1785,0.000813,0.009986,0.017587,-1e-05,-9.9e-05,0.0,0.009553,-0.500262,0.01762,-1.608023,-264.02633,-0.836018,63.192898
6.1987,0.000937,0.009866,0.018392,-1e-05,-9.9e-05,0.0,0.009569,-0.500239,0.017618,-1.608023,-264.02633,-0.836018,63.192898
6.2181,0.00073,0.010369,0.017755,-1e-05,-9.9e-05,0.0,0.010317,-0.500048,0.018392,-1.672964,-264.02633,-0.911009,63.192898
6.2388,0.000496,0.009997,0.016312,-1e-05,-9.9e-05,0.0,0.010012,-0.499763,0.018027,-1.672964,-264.02633,-0.911009,63.192898
6.2586,0.000918,0.010063,0.017379,-1e-05,-9.9e-05,0.0,0.010012,-0.499763,0.018027,-1.672964,-264.02633,-0.911009,63.192898
6.2784,0.000388,0.009625,0.017974,-1e-05,-9.9e-05,0.0,0.009781,-0.49986,0.017379,-1.672964,-264.02633,-0.986193,63.192898
6.2992,0.000748,0.009872,0.016679,-1e-05,-9.9e-05,0.0,0.009765,-0.49989,0.01742,-1.672964,-264.02633,-0.986193,63.192898
6.3181,0.000861,0.009969,0.018268,-1e-05,-9.9e-05,0.0,0.009254,-0.500057,0.016679,-1.672964,-264.02633,-1.061019,63.192898
6.3382,0.000632,0.010039,0.017031,-0.0,-5e-06,-8e-06,0.009773,-0.499994,0.017572,-1.672964,-264.02633,-1.061019,63.192898
6.3584,0.000795,0.010033,0.016701,-0.00015,-0.001461,-0.002523,0.009773,-0.499994,0.017572,-1.672964,-264.02633,-1.061019,63.192898
6.3781,0.000857,0.010115,0.01828,-0.000292,-0.002847,-0.004915,0.009312,-0.499896,0.016701,-1.672964,-264.02633,-1.136114,63.192898
6.3986,0.000821,0.010037,0.016005,-0.000426,-0.004158,-0.007179,0.009369,-0.49989,0.016805,-1.672964,-264.02633,-1.136114,63.192898
6.418,0.00084,0.01028,0.017251,-0.000553,-0.005394,-0.009313,0.008984,-0.499898,0.016005,-1.620659,-264.026329,-1.06121,63.192898
6.4385,0.000841,0.009851,0.016705,-0.000672,-0.006553,-0.011314,0.009358,-0.499752,0.016718,-1.620659,-264.026329,-1.06121,63.192898
6.4581,0.000746,0.009857,0.018499,-0.000783,-0.00764,-0.01319,0.009358,-0.499752,0.016718,-1.620659,-264.026329,-1.06121,63.192898
6.4783,0.001083,0.009778,0.017539,-0.000887,-0.008652,-0.014937,0.01018,-0.500056,0.018497,-1.620659,-264.026315,-0.986112,63.192897
6.4981,0.00059,0.009788,0.017619,-0.000983,-0.009588,-0.016553,0.010169,-0.500062,0.018427,-1.620659,-264.026315,-0.986112,63.192897
6.5183,0.000543,0.009443,0.01692,-0.001071,-0.010451,-0.018042,0.009575,-0.500138,0.017611,-1.620659,-264.026215,-0.911105,63.192892
6.5382,0.000956,0.010023,0.017993,-0.001152,-0.011238,-0.019402,0.009344,-0.500337,0.017214,-1.620659,-264.026215,-0.911105,63.192892
6.5589,0.00052,0.010206,0.017527,-0.001225,-0.011948,-0.020627,0.009344,-0.500337,0.017214,-1.620659,-264.026215,-0.911105,63.192892
6.5781,0.000859,0.009508,0.016648,-0.00129,-0.012585,-0.021727,0.009457,-0.499739,0.017484,-1.620659,-264.025804,-0.836073,63.192869
6.5985,0.000555,0.009962,0.017616,-0.001348,-0.013147,-0.022697,0.009451,-0.499779,0.017436,-1.620659,-264.025804,-0.836073,63.192869
6.6183,0.000742,0.009831,0.01721,-0.001398,-0.013634,-0.023538,0.009534,-0.500022,0.017504,-1.620659,-264.024446,-0.761209,63.192792
6.6382,0.000937,0.009402,0.017559,-0.00144,-0.014045,-0.024248,0.009524,-0.500071,0.017323,-1.620659,-264.024446,-0.761209,63.192792
6.6582,0.000759,0.009981,0.016802,-0.001475,-0.014382,-0.02483,0.009524,-0.500071,0.017323,-1.620659,-264.024446,-0.761209,63.192792
6.6784,0.000696,0.009409,0.016776,-0.001501,-0.014644,-0.025282,0.009313,-0.500136,0.01647,-1.620659,-264.021219,-0.686211,63.19261
6.6985,0.000924,0.009357,0.017684,-0.001521,-0.014832,-0.025606,0.009308,-0.500167,0.016482,-1.620659,-264.021219,-0.686211,63.19261
6.7184,0.001581,0.00939,0.014638,-0.001532,-0.014943,-0.025799,0.009919,-0.50083,0.017216,-1.620659,-264.015486,-0.611202,63.192255
6.7384,0.001276,0.009393,0.016287,-0.001536,-0.014981,-0.025864,0.009416,-0.500706,0.015679,-1.620659,-264.015486,-0.611202,63.192255
6.7588,0.001608,0.009162,0.015872,-0.001532,-0.014943,-0.025799,0.009416,-0.500706,0.015679,-1.620659,-264.015486,-0.611202,63.192255
6.7782,0.001474,0.008883,0.016638,-0.00152,-0.01483,-0.025603,0.009656,-0.501256,0.015027,-1.620659,-264.007249,-0.5361,63.191715
6.7988,0.001816,0.008664,0.014986,-0.001501,-0.014643,-0.025281,0.009678,-0.501254,0.015123,-1.620659,-264.007249,-0.5361,63.191715
6.8185,0.00233,0.008232,0.013993,-0.001474,-0.014381,-0.024828,0.009412,-0.501781,0.014115,-1.620659,-263.996535,-0.488022,63.191047
6.8383,0.002392,0.008265,0.014655,-0.00144,-0.014044,-0.024247,0.009437,-0.50181,0.013935,-1.620659,-263.996535,-0.488022,63.191047
6.8584,0.001806,0.008247,0.013927,-0.001398,-0.013632,-0.023535,0.009437,-0.50181,0.013935,-1.620659,-263.996535,-0.488022,63.191047
6.8782,0.003013,0.007615,0.013398,-0.001348,-0.013144,-0.022692,0.008845,-0.502417,0.012698,-1.620659,-263.984471,-0.488022,63.190366
6.8988,0.003242,0.007827,0.012106,-0.00129,-0.012583,-0.021723,0.008916,-0.502431,0.012715,-1.620659,-263.984471,-0.488022,63.190366
6.9187,0.003455,0.007047,0.013498,-0.001225,-0.011946,-0.020624,0.009368,-0.502662,0.011199,-1.620659,-263.97327,-0.488022,63.189734
6.9383,0.003399,0.006966,0.012455,-0.001151,-0.011229,-0.019385,0.00991,-0.502868,0.012381,-1.620659,-263.97327,-0.488022,63.189734
6.959,0.003187,0.006501,0.013003,-0.001071,-0.010448,-0.018038,0.00991,-0.502868,0.012381,-1.620659,-263.97327,-0.488022,63.189734
6.9784,0.003677,0.00628,0.010344,-0.000983,-0.009584,-0.016546,0.009763,-0.504069,0.011947,-1.620659,-263.962919,-0.488022,63.18915
6.9987,0.004025,0.005966,0.010822,-0.000887,-0.008651,-0.014936,0.009706,-0.504059,0.011809,-1.620659,-263.962919,-0.488022,63.18915
7.0185,0.00415,0.005874,0.009427,-0.000783,-0.007639,-0.013189,0.009507,-0.504408,0.010125,-1.620659,-263.954309,-0.488022,63.188664
7.0382,0.00426,0.005788,0.010132,-0.000671,-0.00655,-0.011308,0.009188,-0.504285,0.009637,-1.620659,-263.954309,-0.488022,63.188664
7.0588,0.0042,0.005561,0.009386,-0.000553,-0.005393,-0.00931,0.009188,-0.504285,0.009637,-1.620659,-263.954309,-0.488022,63.188664
7.0783,0.004434,0.005224,0.008059,-0.000426,-0.004156,-0.007175,0.008948,-0.504837,0.008661,-1.620659,-263.947172,-0.488022,63.188262
7.0985,0.004257,0.004899,0.009509,-0.000292,-0.002846,-0.004913,0.008914,-0.504843,0.008591,-1.620659,-263.947172,-0.488022,63.188262
7.1181,0.004843,0.00491,0.007483,-0.00015,-0.001458,-0.002518,0.009087,-0.505285,0.009151,-1.620659,-263.942747,-0.488022,63.188012
7.1384,0.004775,0.004676,0.006278,0.0,0.0,0.0,0.00884,-0.505192,0.008151,-1.620659,-263.942747,-0.488022,63.188012
7.1585,0.004989,0.005,0.009451,0.0,0.0,0.0,0.00884,-0.505192,0.008151,-1.620659,-263.942747,-0.488022,63.188012
7.1785,0.004919,0.004886,0.008345,0.0,0.0,0.0,0.009796,-0.505116,0.009211,-1.620659,-263.940409,-0.488022,63.18788
7.1985,0.004737,0.004848,0.00821,0.0,0.0,0.0,0.009758,-0.505118,0.009153,-1.620659,-263.940409,-0.488022,63.18788
7.2186,0.005327,0.00474,0.007869,0.0,0.0,0.0,0.008924,-0.505135,0.00821,-1.620659,-263.940409,-0.488022,63.18788
7.2382,0.004788,0.004846,0.00883,0.0,0.0,0.0,0.009161,-0.505197,0.008016,-1.620659,-263.940409,-0.488022,63.18788
7.2583,0.00509,0.005143,0.007695,0.0,0.0,0.0,0.009161,-0.505197,0.008016,-1.620659,-263.940409,-0.488022,63.18788
7.2787,0.004836,0.004685,0.006483,0.0,0.0,0.0,0.009014,-0.504842,0.007695,-1.620659,-263.940409,-0.488022,63.18788
7.2983,0.005218,0.00444,0.008473,0.0,0.0,0.0,0.00896,-0.504871,0.007619,-1.620659,-263.940409,-0.488022,63.18788
7.3186,0.004474,0.005095,0.00828,0.0,0.0,0.0,0.00954,-0.505541,0.008473,-1.620659,-263.940409,-0.488022,63.18788
7.3385,0.004699,0.005199,0.009245,0.0,0.0,0.0,0.009062,-0.505171,0.008364,-1.620659,-263.940409,-0.488022,63.18788
7.3581,0.004857,0.004808,0.009193,0.0,0.0,0.0,0.009062,-0.505171,0.008364,-1.620659,-263.940409,-0.488022,63.18788
7.3784,0.0052,0.00464,0.007307,-7.2e-05,-7e-05,0.0,0.009545,-0.505171,0.009193,-1.620659,-263.940409,-0.488022,63.18788
7.3984,0.004682,0.004955,0.007384,-7.2e-05,-7e-05,0.0,0.009499,-0.505184,0.009054,-1.620659,-263.940409,-0.488022,63.18788
7.4181,0.00551,0.004497,0.007968,-7.2e-05,-7e-05,0.0,0.008448,-0.505031,0.007384,-1.620659,-263.940409,-0.488022,63.18788
7.4381,0.00449,0.004753,0.008799,-7.2e-05,-7e-05,0.0,0.009086,-0.505289,0.007715,-1.620659,-263.940409,-0.488022,63.18788
7.458,0.004947,0.004735,0.009958,-7.2e-05,-7e-05,0.0,0.009086,-0.505289,0.007715,-1.620659,-263.940409,-0.488022,63.18788
7.4782,0.004966,0.004659,0.008417,-7.2e-05,-7e-05,0.0,0.010026,-0.50524,0.009958,-1.545801,-263.940409,-0.413163,63.18788
7.4996,0.004827,0.004617,0.009414,-7.2e-05,-7e-05,0.0,0.009972,-0.505245,0.009851,-1.545801,-263.940409,-0.413163,63.18788
7.5183,0.004644,0.004542,0.00919,-7.2e-05,-7e-05,0.0,0.009628,-0.50536,0.009414,-1.470793,-263.940409,-0.338155,63.18788
7.5382,0.004479,0.004734,0.008443,-7.2e-05,-7e-05,0.0,0.009463,-0.505402,0.00929,-1.470793,-263.940409,-0.338155,63.18788
7.5584,0.004941,0.004817,0.00756,-7.2e-05,-7e-05,0.0,0.009463,-0.505402,0.00929,-1.470793,-263.940409,-0.338155,63.18788
7.5782,0.005044,0.004764,0.007734,-0.0,-0.0,-1e-06,0.008797,-0.505169,0.00756,-1.395787,-263.940409,-0.263149,63.18788
7.5988,0.004581,0.00496,0.009886,-0.000717,-0.000697,-0.001346,0.008809,-0.505172,0.007571,-1.395787,-263.940409,-0.263149,63.18788
7.6182,0.004716,0.004991,0.008449,-0.001407,-0.001368,-0.002639,0.009623,-0.505016,0.009886,-1.320796,-263.940409,-0.188159,63.18788
7.6381,0.00509,0.004682,0.008578,-0.002042,-0.001985,-0.003831,0.009286,-0.505002,0.009077,-1.320796,-263.940409,-0.188159,63.18788
7.6581,0.004887,0.004858,0.007848,-0.002648,-0.002574,-0.004967,0.009286,-0.505002,0.009077,-1.320796,-263.940409,-0.188159,63.18788
7.6783,0.004932,0.004485,0.007592,-0.003216,-0.003126,-0.006033,0.008889,-0.505126,0.007848,-1.24578,-263.940409,-0.172072,63.18788
7.6982,0.004972,0.004957,0.009839,-0.00375,-0.003644,-0.007034,0.008884,-0.505151,0.007831,-1.24578,-263.940409,-0.172072,63.18788
7.7181,0.004752,0.004816,0.008062,-0.004246,-0.004127,-0.007965,0.009989,-0.505018,0.009839,-1.170804,-263.940409,-0.172072,63.18788
7.7382,0.005144,0.004573,0.008245,-0.004704,-0.004572,-0.008825,0.009344,-0.505104,0.00882,-1.170804,-263.940409,-0.172072,63.18788
7.7581,0.004715,0.005106,0.007317,-0.005127,-0.004983,-0.009618,0.009344,-0.505104,0.00882,-1.170804,-263.940409,-0.172072,63.18788
7.7781,0.004884,0.004755,0.008647,-0.005515,-0.00536,-0.010346,0.008446,-0.50488,0.007317,-1.09562,-263.94041,-0.172072,63.18788
7.7988,0.00487,0.005075,0.008729,-0.005863,-0.005699,-0.010999,0.008505,-0.504904,0.007409,-1.09562,-263.94041,-0.172072,63.18788
7.8185,0.004912,0.004922,0.009082,-0.006176,-0.006003,-0.011586,0.009322,-0.504906,0.008729,-1.020805,-263.94041,-0.172072,63.187879
7.8389,0.004791,0.00454,0.008353,-0.00645,-0.006269,-0.0121,0.009448,-0.504991,0.008929,-1.020805,-263.94041,-0.172072,63.187879
7.8589,0.00511,0.004903,0.008466,-0.006689,-0.006502,-0.012549,0.009448,-0.504991,0.008929,-1.020805,-263.94041,-0.172072,63.187879
7.8782,0.004826,0.00481,0.008716,-0.006892,-0.006698,-0.012928,0.009427,-0.505078,0.008466,-0.945789,-263.940411,-0.172072,63.187879
7.8986,0.005147,0.004683,0.007244,-0.007057,-0.006859,-0.013238,0.009416,-0.505085,0.008483,-0.945789,-263.940411,-0.172072,63.187879
7.9183,0.004815,0.004844,0.008332,-0.007186,-0.006984,-0.013481,0.008842,-0.505304,0.007244,-0.870632,-263.940411,-0.172072,63.187879
7.9391,0.004807,0.004897,0.007436,-0.007277,-0.007073,-0.013652,0.008969,-0.505209,0.007867,-0.870632,-263.940411,-0.172072,63.187879
7.9589,0.005126,0.00487,0.010582,-0.007333,-0.007127,-0.013755,0.008969,-0.505209,0.007867,-0.870632,-263.940411,-0.172072,63.187879
7.9787,0.004847,0.004783,0.008168,-0.007351,-0.007145,-0.01379,0.010523,-0.505101,0.010582,-0.795693,-263.940412,-0.172072,63.187879
7.999,0.004884,0.004597,0.008738,-0.007333,-0.007127,-0.013755,0.010408,-0.505108,0.010399,-0.795693,-263.940412,-0.172072,63.187879
8.0183,0.005158,0.004608,0.007598,-0.007277,-0.007073,-0.013652,0.00934,-0.505383,0.008738,-0.720445,-263.940413,-0.172072,63.187878
8.0384,0.005044,0.004707,0.008606,-0.007185,-0.006983,-0.013478,0.009168,-0.50538,0.008099,-0.720445,-263.940413,-0.172072,63.187878
8.0582,0.004793,0.004625,0.008331,-0.007057,-0.006859,-0.013238,0.009168,-0.50538,0.008099,-0.720445,-263.940413,-0.172072,63.187878
8.0782,0.004879,0.004733,0.009644,-0.006891,-0.006698,-0.012928,0.009042,-0.505357,0.008331,-0.645796,-263.940413,-0.172072,63.187878
8.0982,0.004851,0.005014,0.007906,-0.006689,-0.006502,-0.012549,0.009093,-0.505349,0.008421,-0.645796,-263.940413,-0.172072,63.187878
8.1181,0.004922,0.004489,0.006557,-0.006451,-0.006269,-0.012101,0.008883,-0.50497,0.007906,-0.570701,-263.940414,-0.172072,63.187878
8.1388,0.004763,0.004792,0.009364,-0.006175,-0.006002,-0.011584,0.008531,-0.505273,0.007135,-0.570701,-263.940414,-0.172072,63.187878
8.1583,0.004492,0.004674,0.006615,-0.005861,-0.005697,-0.010995,0.008531,-0.505273,0.007135,-0.570701,-263.940414,-0.172072,63.187878
8.1785,0.004646,0.004792,0.008973,-0.005513,-0.005358,-0.010342,0.007866,-0.505315,0.006615,-0.495681,-263.940415,-0.172072,63.187877
8.1987,0.004687,0.00497,0.008711,-0.005127,-0.004983,-0.009618,0.007952,-0.505307,0.006765,-0.495681,-263.940415,-0.172072,63.187877
8.2191,0.004801,0.004499,0.00945,-0.004704,-0.004572,-0.008824,0.009129,-0.505011,0.008711,-0.420803,-263.940415,-0.172072,63.187877
8.2383,0.005006,0.00475,0.008732,-0.004245,-0.004126,-0.007963,0.009407,-0.505275,0.009128,-0.420803,-263.940415,-0.172072,63.187877
8.2583,0.004846,0.004837,0.008602,-0.003747,-0.003642,-0.00703,0.009407,-0.505275,0.009128,-0.420803,-263.940415,-0.172072,63.187877
8.2785,0.005048,0.004662,0.009966,-0.003216,-0.003125,-0.006032,0.009233,-0.505144,0.008602,-0.345604,-263.940416,-0.172072,63.187877
8.2986,0.004895,0.004949,0.007338,-0.002646,-0.002572,-0.004964,0.009297,-0.505156,0.008699,-0.345604,-263.940416,-0.172072,63.187877
8.3181,0.004613,0.004943,0.007004,-0.00204,-0.001982,-0.003826,0.008638,-0.505037,0.007338,-0.27067,-263.940416,-0.172072,63.187877
8.3383,0.004902,0.004813,0.007134,-0.001398,-0.001358,-0.002622,0.00838,-0.505042,0.007147,-0.27067,-263.940416,-0.172072,63.187877
8.3581,0.004862,0.004937,0.009432,-0.000714,-0.000694,-0.001339,0.00838,-0.505042,0.007147,-0.27067,-263.940416,-0.172072,63.187877
8.3785,0.004828,0.004738,0.007621,-0.0,-0.0,-0.0,0.009672,-0.505041,0.009432,-0.195794,-263.940416,-0.172072,63.187877
8.3987,0.005134,0.004628,0.008158,0.0,0.0,0.0,0.009606,-0.505055,0.009306,-0.195794,-263.940416,-0.172072,63.187877
8.4187,0.004661,0.004691,0.008611,0.0,0.0,0.0,0.009294,-0.505355,0.008158,-0.120795,-263.940416,-0.172072,63.187877
8.4381,0.004868,0.004814,0.007874,0.0,0.0,0.0,0.009157,-0.505318,0.008415,-0.120795,-263.940416,-0.172072,63.187877
8.4581,0.004815,0.004471,0.007065,0.0,0.0,0.0,0.009157,-0.505318,0.008415,-0.120795,-263.940416,-0.172072,63.187877
8.4783,0.004661,0.004696,0.008028,0.0,0.0,0.0,0.008419,-0.505516,0.007065,-0.120795,-263.940416,-0.172072,63.187877
8.4987,0.004676,0.004791,0.008295,0.0,0.0,0.0,0.008442,-0.5055,0.007133,-0.120795,-263.940416,-0.172072,63.187877
8.5181,0.004795,0.004636,0.009083,0.0,0.0,0.0,0.008907,-0.505191,0.008295,-0.120795,-263.940416,-0.172072,63.187877
8.5382,0.005163,0.004581,0.007926,0.0,0.0,0.0,0.009206,-0.505279,0.008749,-0.120795,-263.940416,-0.172072,63.187877
8.558,0.004793,0.004647,0.007721,0.0,0.0,0.0,0.009206,-0.505279,0.008749,-0.120795,-263.940416,-0.172072,63.187877
8.5783,0.004643,0.004435,0.007413,0.0,0.0,0.0,0.008731,-0.505338,0.007721,-0.120795,-263.940416,-0.172072,63.187877
8.5984,0.005049,0.004669,0.008868,-7.3e-05,-6.9e-05,0.0,0.008711,-0.505352,0.007701,-0.120795,-263.940416,-0.172072,63.187877
8.6182,0.004921,0.004532,0.007965,-7.3e-05,-6.9e-05,0.0,0.009571,-0.505311,0.008868,-0.120795,-263.940416,-0.172072,63.187877
8.6382,0.004517,0.004767,0.006109,-7.3e-05,-6.9e-05,0.0,0.009237,-0.505391,0.008354,-0.120795,-263.940416,-0.172072,63.187877
8.6581,0.004594,0.004805,0.007335,-7.3e-05,-6.9e-05,0.0,0.009237,-0.505391,0.008354,-0.120795,-263.940416,-0.172072,63.187877
8.6782,0.004941,0.004685,0.008834,-7.3e-05,-6.9e-05,0.0,0.008335,-0.505181,0.007335,-0.04578,-263.940416,-0.097057,63.187877
8.6984,0.004888,0.005122,0.008468,-7.3e-05,-6.9e-05,0.0,0.008412,-0.505189,0.007439,-0.04578,-263.940416,-0.097057,63.187877
8.7187,0.004716,0.004649,0.009527,-7.3e-05,-6.9e-05,0.0,0.009207,-0.504859,0.008468,0.02922,-263.940416,-0.022057,63.187877
8.7383,0.005266,0.004666,0.006855,-7.3e-05,-6.9e-05,0.0,0.009417,-0.505127,0.009074,0.02922,-263.940416,-0.022057,63.187877
8.7582,0.005058,0.00466,0.008318,-7.3e-05,-6.9e-05,0.0,0.009417,-0.505127,0.009074,0.02922,-263.940416,-0.022057,63.187877
8.7787,0.004687,0.004597,0.009571,-7.3e-05,-6.9e-05,0.0,0.0093,-0.505322,0.008318,0.104334,-263.940416,0.053058,63.187877
8.799,0.00473,0.004797,0.008942,-2e-06,-2e-06,-4e-06,0.009319,-0.505326,0.008405,0.104334,-263.940416,0.053058,63.187877
8.8181,0.005089,0.005143,0.007396,-0.000696,-0.000655,-0.001103,0.00929,-0.505183,0.008942,0.179209,-263.940416,0.127932,63.187877
8.8383,0.004933,0.0045,0.007191,-0.001336,-0.001257,-0.002118,0.00905,-0.504993,0.008078,0.179209,-263.940416,0.127932,63.187877
8.8584,0.004934,0.004912,0.008169,-0.001946,-0.001831,-0.003085,0.00905,-0.504993,0.008078,0.179209,-263.940416,0.127932,63.187877
8.8783,0.005025,0.004722,0.00736,-0.002528,-0.002379,-0.004008,0.0091,-0.505071,0.008169,0.254235,-263.940416,0.052906,63.187877
8.8983,0.004912,0.005187,0.007991,-0.003069,-0.002888,-0.004864,0.00908,-0.505084,0.008117,0.254235,-263.940416,0.052906,63.187877
8.9182,0.004612,0.004827,0.006739,-0.003578,-0.003367,-0.005671,0.008987,-0.504797,0.007991,0.329228,-263.940416,-0.022087,63.187877
8.9387,0.004929,0.004864,0.009082,-0.004052,-0.003813,-0.006424,0.008449,-0.505006,0.007273,0.329228,-263.940416,-0.022087,63.187877
8.9586,0.00487,0.004517,0.008791,-0.004489,-0.004224,-0.007116,0.008449,-0.505006,0.007273,0.329228,-263.940416,-0.022087,63.187877
8.9781,0.004645,0.004924,0.008734,-0.004892,-0.004604,-0.007755,0.009354,-0.505463,0.008791,0.404349,-263.940417,-0.027178,63.187877
8.9984,0.004958,0.004911,0.009941,-0.00526,-0.00495,-0.008339,0.009334,-0.505431,0.008786,0.404349,-263.940417,-0.027178,63.187877
9.0181,0.004708,0.004742,0.008709,-0.005599,-0.005268,-0.008875,0.010028,-0.505063,0.009941,0.479578,-263.940418,-0.027178,63.187876
9.0382,0.004871,0.004717,0.007526,-0.005892,-0.005545,-0.009341,0.009525,-0.505164,0.009236,0.479578,-263.940418,-0.027178,63.187876
9.0581,0.004683,0.004483,0.009109,-0.006155,-0.005792,-0.009757,0.009525,-0.505164,0.009236,0.479578,-263.940418,-0.027178,63.187876
9.0783,0.004806,0.004717,0.009406,-0.006384,-0.006007,-0.010119,0.009328,-0.505497,0.009109,0.554305,-263.940427,-0.027178,63.187872
9.0982,0.00477,0.004892,0.008243,-0.006576,-0.006187,-0.010424,0.009347,-0.50548,0.009129,0.554305,-263.940427,-0.027178,63.187872
9.118,0.004634,0.004861,0.008443,-0.006734,-0.006336,-0.010674,0.008971,-0.505092,0.008241,0.629224,-263.940471,-0.027178,63.187851
9.1381,0.004825,0.004944,0.00881,-0.006856,-0.006451,-0.010868,0.008953,-0.505109,0.008356,0.629224,-263.940471,-0.027178,63.187851
9.1585,0.005118,0.004408,0.008105,-0.006944,-0.006534,-0.011007,0.008953,-0.505109,0.008356,0.629224,-263.940471,-0.027178,63.187851
9.1781,0.004976,0.004754,0.007185,-0.006997,-0.006584,-0.011091,0.009239,-0.505582,0.008094,0.704312,-263.940643,-0.027178,63.187772
9.1985,0.004863,0.004756,0.009303,-0.007014,-0.0066,-0.011119,0.0092,-0.50556,0.008035,0.704312,-263.940643,-0.027178,63.187772
9.218,0.004809,0.004446,0.007585,-0.006997,-0.006584,-0.011091,0.009578,-0.50524,0.009273,0.779205,-263.941176,-0.027178,63.187524
9.2382,0.004599,0.004752,0.009004,-0.006944,-0.006534,-0.011008,0.009059,-0.505414,0.008303,0.779205,-263.941176,-0.027178,63.187524
9.2581,0.004991,0.00478,0.009104,-0.006856,-0.006452,-0.010869,0.009059,-0.505414,0.008303,0.779205,-263.941176,-0.027178,63.187524
9.2783,0.004764,0.004481,0.008443,-0.006734,-0.006336,-0.010674,0.009547,-0.505257,0.009006,0.854324,-263.942452,-0.027178,63.186932
9.2988,0.004648,0.004728,0.008627,-0.006575,-0.006187,-0.010423,0.009512,-0.505275,0.008965,0.854324,-263.942452,-0.027178,63.186932
9.3181,0.004713,0.005069,0.007609,-0.006383,-0.006006,-0.010118,0.008922,-0.505347,0.008469,0.929225,-263.944894,-0.027178,63.185799
9.338,0.004507,0.004717,0.007519,-0.006153,-0.00579,-0.009753,0.008722,-0.505117,0.007966,0.929225,-263.944894,-0.027178,63.185799
9.3581,0.004816,0.004756,0.00791,-0.005892,-0.005544,-0.00934,0.008722,-0.505117,0.007966,0.929225,-263.944894,-0.027178,63.185799
9.3782,0.004892,0.004225,0.008125,-0.005594,-0.005264,-0.008867,0.008623,-0.50542,0.007589,1.004216,-263.948668,-0.027178,63.184047
9.3987,0.004937,0.00408,0.007018,-0.005261,-0.00495,-0.008339,0.008645,-0.505449,0.007617,1.004216,-263.948668,-0.027178,63.184047
9.4183,0.005023,0.004222,0.006627,-0.00489,-0.004601,-0.007752,0.008313,-0.5061,0.006697,1.079217,-263.953204,-0.027178,63.181941
9.4382,0.00419,0.004109,0.008295,-0.004488,-0.004223,-0.007114,0.008339,-0.505935,0.006617,1.079217,-263.953204,-0.027178,63.181941
9.4583,0.005229,0.003916,0.006156,-0.004051,-0.003812,-0.006421,0.008339,-0.505935,0.006617,1.079217,-263.953204,-0.027178,63.181941
9.478,0.004836,0.00374,0.004794,-0.003578,-0.003366,-0.005671,0.008115,-0.506316,0.005751,1.088292,-263.957739,-0.027178,63.179836
9.4984,0.004326,0.004035,0.006289,-0.003069,-0.002888,-0.004866,0.008051,-0.506318,0.005674,1.088292,-263.957739,-0.027178,63.179836
9.5186,0.004522,0.00408,0.005626,-0.002523,-0.002374,-0.004,0.007378,-0.506103,0.006041,1.088292,-263.961226,-0.027178,63.178217
9.5383,0.004923,0.003627,0.00452,-0.001946,-0.001832,-0.003085,0.007366,-0.506014,0.005774,1.088292,-263.961226,-0.027178,63.178217
9.5586,0.004662,0.003751,0.005343,-0.001331,-0.001253,-0.00211,0.007366,-0.506014,0.005774,1.088292,-263.961226,-0.027178,63.178217
9.5787,0.004506,0.003583,0.006061,-0.000684,-0.000644,-0.001084,0.007237,-0.506384,0.005105,1.088292,-263.963872,-0.027178,63.176989
9.5981,0.004377,0.003545,0.005741,0.0,0.0,0.0,0.007254,-0.506388,0.005152,1.088292,-263.963872,-0.027178,63.176989
9.6186,0.004665,0.003576,0.007668,0.0,0.0,0.0,0.007253,-0.506495,0.005659,1.088292,-263.96502,-0.027178,63.176457
9.6384,0.004755,0.003697,0.006101,0.0,0.0,0.0,0.007998,-0.506453,0.00679,1.088292,-263.96502,-0.027178,63.176457
9.6582,0.004319,0.003398,0.006017,0.0,0.0,0.0,0.007998,-0.506453,0.00679,1.088292,-263.96502,-0.027178,63.176457
9.6781,0.004828,0.003019,0.004116,0.0,0.0,0.0,0.007388,-0.506593,0.006017,1.088292,-263.96502,-0.027178,63.176457
9.6985,0.004565,0.003413,0.007339,0.0,0.0,0.0,0.007356,-0.506619,0.005885,1.088292,-263.96502,-0.027178,63.176457
9.7185,0.004392,0.003453,0.006452,0.0,0.0,0.0,0.008308,-0.506573,0.007339,1.088292,-263.96502,-0.027178,63.176457
9.7382,0.004518,0.003116,0.004098,0.0,0.0,0.0,0.007956,-0.506553,0.00684,1.088292,-263.96502,-0.027178,63.176457
9.7581,0.004227,0.003448,0.004888,0.0,0.0,0.0,0.007956,-0.506553,0.00684,1.088292,-263.96502,-0.027178,63.176457
9.7781,0.004598,0.003362,0.005183,0.0,0.0,0.0,0.00672,-0.506546,0.004888,1.088292,-263.96502,-0.027178,63.176457
9.7981,0.004399,0.003238,0.005196,0.0,0.0,0.0,0.006756,-0.506552,0.004908,1.088292,-263.96502,-0.027178,63.176457
9.8181,0.004436,0.003626,0.005108,0.0,0.0,0.0,0.00705,-0.506755,0.005196,1.088292,-263.96502,-0.027178,63.176457
9.8384,0.004306,0.003392,0.005064,-7.8e-05,-6.3e-05,0.0,0.007045,-0.506535,0.005146,1.088292,-263.96502,-0.027178,63.176457
9.8581,0.004352,0.003747,0.005463,-7.8e-05,-6.3e-05,0.0,0.007045,-0.506535,0.005146,1.088292,-263.96502,-0.027178,63.176457
9.8782,0.004624,0.003027,0.006539,-7.8e-05,-6.3e-05,0.0,0.007138,-0.506246,0.005463,1.088292,-263.96502,-0.027178,63.176457
9.8983,0.004724,0.003604,0.006514,-7.8e-05,-6.3e-05,0.0,0.007193,-0.506294,0.005535,1.088292,-263.96502,-0.027178,63.176457
9.9187,0.00429,0.003769,0.0041,-7.8e-05,-6.3e-05,0.0,0.008046,-0.506385,0.006514,1.013285,-263.96502,0.047829,63.176457
9.938,0.00415,0.003314,0.005931,-7.8e-05,-6.3e-05,0.0,0.007099,-0.506295,0.00514,1.013285,-263.96502,0.047829,63.176457
9.9582,0.004526,0.003675,0.005538,-7.8e-05,-6.3e-05,0.0,0.007099,-0.506295,0.00514,1.013285,-263.96502,0.047829,63.176457
9.9782,0.004529,0.00339,0.005824,-7.8e-05,-6.3e-05,0.0,0.00735,-0.506317,0.005538,0.938289,-263.96502,0.122826,63.176457
9.9988,0.004434,0.003333,0.006778,-7.8e-05,-6.3e-05,0.0,0.00736,-0.506336,0.005557,0.938289,-263.96502,0.122826,63.176457
10.0182,0.004431,0.003781,0.006782,-7.8e-05,-6.3e-05,0.0,0.007891,-0.506655,0.006778,0.86329,-263.96502,0.197824,63.176456
10.0383,0.004673,0.003177,0.006593,-3e-06,-2e-06,-3e-06,0.007891,-0.506405,0.006781,0.86329,-263.96502,0.197824,63.176456
10.0582,0.00462,0.003462,0.006513,-0.000651,-0.000527,-0.000747,0.007891,-0.506405,0.006781,0.86329,-263.96502,0.197824,63.176456
10.0781,0.004562,0.003442,0.007704,-0.00127,-0.001027,-0.001456,0.007941,-0.506527,0.006513,0.788285,-263.96502,0.272829,63.176456
10.0987,0.004735,0.003441,0.004904,-0.001854,-0.0015,-0.002126,0.007976,-0.506528,0.006588,0.788285,-263.96502,0.272829,63.176456
10.1182,0.004563,0.003684,0.006027,-0.002406,-0.001947,-0.00276,0.007226,-0.50656,0.004896,0.86328,-263.965183,0.197835,63.176366
10.1382,0.004141,0.003462,0.005934,-0.002922,-0.002364,-0.003351,0.007458,-0.506416,0.005538,0.86328,-263.965183,0.197835,63.176366
10.158,0.005015,0.0036,0.007005,-0.003407,-0.002756,-0.003908,0.007458,-0.506416,0.005538,0.86328,-263.965183,0.197835,63.176366
10.1782,0.004583,0.003265,0.005698,-0.003859,-0.003121,-0.004425,0.008523,-0.506437,0.006937,0.938279,-263.966111,0.122835,63.17585
10.1986,0.004595,0.003143,0.006071,-0.004276,-0.003459,-0.004904,0.00845,-0.506459,0.006849,0.938279,-263.966111,0.122835,63.17585
10.2183,0.004275,0.003386,0.006687,-0.004661,-0.00377,-0.005345,0.007565,-0.506951,0.005925,0.985666,-263.968483,0.108046,63.174532
10.2383,0.004384,0.003289,0.006162,-0.005012,-0.004055,-0.005749,0.007618,-0.506766,0.00634,0.985666,-263.968483,0.108046,63.174532
10.2583,0.004673,0.003475,0.006311,-0.005328,-0.00431,-0.006111,0.007618,-0.506766,0.00634,0.985666,-263.968483,0.108046,63.174532
10.2783,0.004474,0.003587,0.005599,-0.005612,-0.00454,-0.006437,0.007685,-0.506684,0.006072,0.985666,-263.97158,0.108046,63.172812
10.2987,0.00393,0.003381,0.005585,-0.005863,-0.004743,-0.006724,0.007655,-0.506669,0.006033,0.985666,-263.97158,0.108046,63.172812
10.318,0.004021,0.002658,0.005796,-0.00608,-0.004918,-0.006973,0.006573,-0.506778,0.005349,0.985666,-263.975446,0.108046,63.170664
10.3382,0.004316,0.002842,0.004236,-0.006263,-0.005067,-0.007183,0.006779,-0.507118,0.005576,0.985666,-263.975446,0.108046,63.170664
10.3582,0.004402,0.002861,0.004774,-0.006414,-0.005189,-0.007357,0.006779,-0.507118,0.005576,0.985666,-263.975446,0.108046,63.170664
10.3781,0.003815,0.002712,0.003621,-0.006531,-0.005283,-0.00749,0.006554,-0.507365,0.004448,0.985666,-263.979692,0.108046,63.168305
10.399,0.003722,0.002857,0.00424,-0.006614,-0.005351,-0.007586,0.006479,-0.507365,0.004377,0.985666,-263.979692,0.108046,63.168305
10.4181,0.004199,0.002465,0.004649,-0.006665,-0.005391,-0.007643,0.005635,-0.507342,0.003954,0.985666,-263.984339,0.108046,63.165723
10.4383,0.003902,0.002461,0.006069,-0.006681,-0.005405,-0.007663,0.006134,-0.507473,0.004312,0.985666,-263.984339,0.108046,63.165723
10.4582,0.004035,0.002585,0.002781,-0.006665,-0.005391,-0.007643,0.006134,-0.507473,0.004312,0.985666,-263.984339,0.108046,63.165723
10.4781,0.003702,0.001983,0.004443,-0.006614,-0.00535,-0.007586,0.005133,-0.507673,0.002413,0.985666,-263.989119,0.108046,63.163068
10.4986,0.003679,0.001932,0.004376,-0.006531,-0.005283,-0.00749,0.005183,-0.507703,0.002545,0.985666,-263.989119,0.108046,63.163068
10.5181,0.003907,0.001892,0.003202,-0.006414,-0.005188,-0.007356,0.005654,-0.508272,0.00408,0.985666,-263.993954,0.108046,63.160382
10.538,0.003468,0.00192,0.003176,-0.006263,-0.005067,-0.007183,0.005556,-0.508203,0.00354,0.985666,-263.993954,0.108046,63.160382
10.5581,0.003633,0.001878,0.005051,-0.00608,-0.004918,-0.006973,0.005556,-0.508203,0.00354,0.985666,-263.993954,0.108046,63.160382
10.5783,0.003359,0.001771,0.005042,-0.005863,-0.004742,-0.006724,0.005894,-0.508373,0.004688,0.985666,-263.998682,0.108046,63.157755
10.5981,0.003777,0.001679,0.00423,-0.005612,-0.00454,-0.006436,0.005888,-0.508369,0.004704,0.985666,-263.998682,0.108046,63.157755
10.6183,0.003231,0.001397,0.003337,-0.005328,-0.00431,-0.006111,0.0057,-0.508507,0.003961,0.985666,-264.003079,0.108046,63.155312
10.6382,0.00314,0.001176,0.002221,-0.005009,-0.004052,-0.005744,0.005235,-0.508584,0.003573,0.985666,-264.003079,0.108046,63.155312
10.6582,0.003594,0.00134,0.003807,-0.00466,-0.00377,-0.005345,0.005235,-0.508584,0.003573,0.985666,-264.003079,0.108046,63.155312
10.6784,0.003511,0.001211,0.003239,-0.004276,-0.003459,-0.004904,0.005263,-0.508878,0.003494,0.985666,-264.007144,0.108046,63.153054
10.6987,0.003055,0.001152,0.001951,-0.003859,-0.003121,-0.004425,0.00525,-0.508878,0.003469,0.985666,-264.007144,0.108046,63.153054
10.7186,0.003352,0.000888,0.002527,-0.003406,-0.002755,-0.003906,0.00387,-0.508993,0.001744,0.985666,-264.010519,0.108046,63.151179
10.7381,0.003383,0.000975,0.002502,-0.002921,-0.002362,-0.003349,0.004286,-0.509078,0.002164,0.985666,-264.010519,0.108046,63.151179
10.7581,0.003392,0.000681,0.00226,-0.002405,-0.001945,-0.002758,0.004286,-0.509078,0.002164,0.985666,-264.010519,0.108046,63.151179
10.7781,0.003096,0.000505,0.00208,-0.001848,-0.001495,-0.00212,0.004357,-0.509469,0.002044,0.985666,-264.013314,0.108046,63.149627
10.7982,0.003208,0.000738,0.001624,-0.00127,-0.001027,-0.001456,0.004338,-0.509475,0.002041,0.985666,-264.013314,0.108046,63.149627
10.8186,0.003089,0.000729,0.001716,-0.000648,-0.000524,-0.000743,0.003944,-0.509336,0.001517,0.985666,-264.015055,0.108046,63.148659
10.8384,0.003049,0.000846,0.001943,0.0,0.0,0.0,0.003943,-0.509309,0.001616,0.985666,-264.015055,0.108046,63.148659
10.8583,0.003304,0.000677,0.000699,0.0,0.0,0.0,0.003943,-0.509309,0.001616,0.985666,-264.015055,0.108046,63.148659
10.8781,0.003426,0.000907,0.00198,0.0,0.0,0.0,0.003599,-0.509373,0.000628,0.985666,-264.015975,0.108046,63.148148
10.8981,0.00282,0.000688,0.001914,0.0,0.0,0.0,0.003653,-0.509356,0.000715,0.985666,-264.015975,0.108046,63.148148
