mach0312/omni-docking-bench/src/icros_test_setup/results/kinematic_sample/timeseries/trial_035.csv
t,x,y,yaw,vx,vy,wz,bl_x,bl_y,bl_yaw,front_steering_joint,front_wheel_joint,rear_steering_joint,rear_wheel_joint
0.0,0.03432,0.017207,-0.082776,-0.0001,8e-06,0.0,-0.007461,-0.490909,-0.082329,0.310412,-264.268087,-0.634027,63.031369
0.0005,0.034188,0.017066,-0.082842,-0.006033,0.000456,-0.001616,-0.007778,-0.490744,-0.083149,0.235539,-264.268087,-0.559154,63.031369
0.0008,0.034366,0.017432,-0.082507,-0.007317,0.000554,-0.00196,-0.007778,-0.490744,-0.083149,0.160594,-264.268088,-0.484209,63.031368
0.0011,0.034197,0.01714,-0.084281,-0.008532,0.000646,-0.002286,-0.007778,-0.490744,-0.083149,0.087728,-264.268516,-0.409126,63.03093
0.0014,0.034555,0.017634,-0.08267,-0.009661,0.000731,-0.002588,-0.007886,-0.490972,-0.082847,0.087728,-264.270321,-0.334219,63.02908
0.0018,0.034016,0.01773,-0.082974,-0.010706,0.00081,-0.002868,-0.007886,-0.490972,-0.082847,0.087728,-264.273627,-0.259078,63.025694
0.0021,0.034203,0.017426,-0.081514,-0.01167,0.000883,-0.003126,-0.007859,-0.490956,-0.082841,0.087728,-264.278626,-0.234856,63.020574
0.0023,0.033906,0.017336,-0.083108,-0.012548,0.000949,-0.003361,-0.007859,-0.490956,-0.082841,0.087728,-264.278626,-0.234856,63.020574
0.0026,0.033797,0.017443,-0.083458,-0.013344,0.00101,-0.003575,-0.007859,-0.490956,-0.082841,0.087728,-264.278626,-0.234856,63.020574
0.0029,0.033963,0.017498,-0.083061,-0.014052,0.001063,-0.003764,-0.007233,-0.49071,-0.082174,0.087728,-264.278626,-0.234856,63.020574
0.006,0.033037,0.018001,-0.08298,-0.014681,0.001111,-0.003933,-0.008825,-0.490667,-0.083189,0.087728,-264.278626,-0.234856,63.020574
0.0262,0.033328,0.017298,-0.085482,-0.030681,-0.014889,0.026067,-0.00912,-0.490415,-0.083085,0.087728,-264.278626,-0.234856,63.020574
0.046,0.033235,0.017813,-0.082933,-0.03173,-0.02008,0.05,-0.00912,-0.490415,-0.083085,0.087728,-264.278626,-0.234856,63.020574
0.0658,0.032599,0.017772,-0.083644,-0.031645,-0.020505,0.05,-0.009689,-0.490326,-0.083116,0.087728,-264.28426,-0.234856,63.014803
0.0861,0.032909,0.017779,-0.085507,-0.031,-0.020433,0.05,-0.009726,-0.490331,-0.083154,0.087728,-264.28426,-0.234856,63.014803
0.1057,0.032486,0.017548,-0.082627,-0.03127,-0.020525,0.05,-0.010647,-0.490358,-0.085507,0.012852,-264.284261,-0.159979,63.014803
0.1259,0.032871,0.017429,-0.084251,-0.030927,-0.02017,0.05,-0.010051,-0.49056,-0.083859,0.012852,-264.284261,-0.159979,63.014803
0.1459,0.032807,0.01782,-0.083572,-0.031288,-0.020134,0.05,-0.010051,-0.49056,-0.083859,0.012852,-264.284261,-0.159979,63.014803
0.166,0.032896,0.018087,-0.082827,-0.031205,-0.020496,0.05,-0.009766,-0.4904,-0.083572,-0.062263,-264.284261,-0.084865,63.014802
0.186,0.03286,0.017768,-0.084221,-0.031287,-0.020747,0.05,-0.009733,-0.490384,-0.083521,-0.062263,-264.284261,-0.084865,63.014802
0.2058,0.03278,0.017707,-0.083392,-0.031249,-0.020469,0.05,-0.010042,-0.490425,-0.084221,-0.137262,-264.284261,-0.009865,63.014802
0.2258,0.032792,0.017862,-0.084464,-0.031192,-0.020376,0.05,-0.009848,-0.490479,-0.083749,-0.137262,-264.284261,-0.009865,63.014802
0.246,0.032579,0.017672,-0.083565,-0.031168,-0.020565,0.05,-0.009848,-0.490479,-0.083749,-0.137262,-264.284261,-0.009865,63.014802
0.2659,0.032663,0.017927,-0.08423,-0.03099,-0.020329,0.05,-0.00999,-0.490549,-0.083565,-0.212305,-264.284262,0.065178,63.0148
0.2858,0.032698,0.01765,-0.085245,-0.031039,-0.020611,0.05,-0.010007,-0.490529,-0.08361,-0.212305,-264.284262,0.065178,63.0148
0.3059,0.032721,0.017487,-0.085167,-0.031076,-0.020369,0.05,-0.010725,-0.490499,-0.085245,-0.28715,-264.284263,0.140023,63.014798
0.3263,0.032875,0.017447,-0.08463,-0.031115,-0.020207,0.05,-0.010689,-0.490593,-0.0852,-0.28715,-264.284263,0.140023,63.014798
0.3459,0.033106,0.017624,-0.083923,-0.031282,-0.020164,0.05,-0.010689,-0.490593,-0.0852,-0.28715,-264.284263,0.140023,63.014798
0.3661,0.03287,0.017558,-0.084472,-0.031512,-0.020337,0.05,-0.009645,-0.490581,-0.083923,-0.30952,-264.284264,0.21516,63.014796
0.386,0.032899,0.018238,-0.084786,-0.031272,-0.020269,0.05,-0.009679,-0.490584,-0.08396,-0.30952,-264.284264,0.21516,63.014796
0.4059,0.033034,0.018106,-0.08304,-0.031237,-0.020958,0.05,-0.01029,-0.48993,-0.084785,-0.320212,-264.284266,0.290033,63.014793
0.4259,0.032795,0.017416,-0.083264,-0.031419,-0.020783,0.05,-0.009709,-0.490048,-0.083794,-0.320212,-264.284266,0.290033,63.014793
0.4467,0.032847,0.017565,-0.083172,-0.031233,-0.020083,0.05,-0.009709,-0.490048,-0.083794,-0.320212,-264.284266,0.290033,63.014793
0.4659,0.03281,0.017548,-0.083143,-0.031274,-0.020233,0.05,-0.009522,-0.490672,-0.083171,-0.317268,-264.284268,0.365114,63.014789
0.4863,0.032705,0.017692,-0.083964,-0.03124,-0.020212,0.05,-0.009524,-0.490673,-0.083169,-0.317268,-264.284268,0.365114,63.014789
0.5062,0.032654,0.017956,-0.083601,-0.031106,-0.020373,0.05,-0.010068,-0.490511,-0.083963,-0.323007,-264.284278,0.440279,63.014771
0.526,0.032349,0.017776,-0.083979,-0.03104,-0.02062,0.05,-0.009991,-0.49037,-0.083757,-0.323007,-264.284278,0.440279,63.014771
0.5464,0.032921,0.01746,-0.084199,-0.030744,-0.020427,0.05,-0.009991,-0.49037,-0.083757,-0.323007,-264.284278,0.440279,63.014771
0.5659,0.032693,0.017659,-0.085235,-0.031336,-0.020166,0.05,-0.009977,-0.490735,-0.084194,-0.319213,-264.284324,0.515213,63.014689
0.5857,0.033071,0.017732,-0.083127,-0.031071,-0.020378,0.05,-0.010029,-0.490718,-0.084265,-0.319213,-264.284324,0.515213,63.014689
0.6061,0.032642,0.017349,-0.084007,-0.031484,-0.020417,0.05,-0.009295,-0.490511,-0.08311,-0.317715,-264.284483,0.590031,63.014396
0.6259,0.032634,0.017859,-0.084187,-0.031072,-0.020027,0.05,-0.009789,-0.490708,-0.083624,-0.317715,-264.284483,0.590031,63.014396
0.6459,0.032864,0.017531,-0.083143,-0.031017,-0.02054,0.05,-0.009789,-0.490708,-0.083624,-0.317715,-264.284483,0.590031,63.014396
0.6658,0.032544,0.017991,-0.083378,-0.031294,-0.0202,0.05,-0.009578,-0.490729,-0.083058,-0.316026,-264.285073,0.665176,63.013318
0.686,0.03252,0.017813,-0.084887,-0.030933,-0.020638,0.05,-0.009604,-0.490696,-0.083078,-0.316026,-264.285073,0.665176,63.013318
0.7059,0.032139,0.017402,-0.084614,-0.030893,-0.020506,0.05,-0.0109,-0.490406,-0.084696,-0.311807,-264.286641,0.74002,63.010443
0.7259,0.032175,0.017749,-0.082344,-0.030554,-0.020056,0.05,-0.010959,-0.490624,-0.084625,-0.311807,-264.286641,0.74002,63.010443
0.7459,0.032029,0.017585,-0.082791,-0.030606,-0.020335,0.05,-0.010959,-0.490624,-0.084625,-0.311807,-264.286641,0.74002,63.010443
0.7657,0.031434,0.017446,-0.082151,-0.030465,-0.020173,0.05,-0.010579,-0.490808,-0.082299,-0.309724,-264.29005,0.815162,63.005067
0.7861,0.031731,0.01757,-0.084577,-0.029897,-0.019967,0.05,-0.010579,-0.490813,-0.082274,-0.309724,-264.29005,0.815162,63.005067
0.8059,0.030535,0.017441,-0.081902,-0.030134,-0.020188,0.05,-0.011877,-0.490769,-0.083946,-0.321755,-264.295962,0.890157,62.997187
0.826,0.030466,0.017664,-0.082061,-0.029006,-0.019881,0.05,-0.011549,-0.490835,-0.082696,-0.321755,-264.295962,0.890157,62.997187
0.8459,0.030298,0.017746,-0.081264,-0.028916,-0.020102,0.05,-0.011549,-0.490835,-0.082696,-0.321755,-264.295962,0.890157,62.997187
0.8663,0.029242,0.017132,-0.079503,-0.028758,-0.020147,0.05,-0.011967,-0.49085,-0.080136,-0.339856,-264.304356,0.965201,62.986832
0.8857,0.028804,0.017018,-0.080571,-0.027789,-0.0194,0.05,-0.011944,-0.490882,-0.080069,-0.339856,-264.304356,0.965201,62.986832
0.9062,0.027328,0.016564,-0.079823,-0.027341,-0.019281,0.05,-0.013077,-0.491619,-0.079401,-0.346355,-264.315247,1.040018,62.973961
0.9263,0.026863,0.016772,-0.080189,-0.02592,-0.01869,0.05,-0.013332,-0.491766,-0.079493,-0.346355,-264.315247,1.040018,62.973961
0.9463,0.027217,0.016799,-0.080475,-0.025434,-0.01887,0.05,-0.013332,-0.491766,-0.079493,-0.346355,-264.315247,1.040018,62.973961
0.9657,0.025169,0.01622,-0.077941,-0.025778,-0.018932,0.05,-0.014936,-0.492015,-0.078703,-0.381177,-264.326894,1.063,62.958588
0.9863,0.02499,0.016209,-0.075536,-0.02383,-0.01813,0.05,-0.014939,-0.49204,-0.078612,-0.381177,-264.326894,1.063,62.958588
1.0058,0.022838,0.01575,-0.075106,-0.023695,-0.018048,0.05,-0.014395,-0.492825,-0.073931,-0.430095,-264.337499,1.095403,62.940695
1.0258,0.022831,0.015825,-0.074019,-0.021592,-0.017419,0.05,-0.015102,-0.49288,-0.074401,-0.430095,-264.337499,1.095403,62.940695
1.0461,0.022764,0.015919,-0.076178,-0.021598,-0.01747,0.05,-0.015102,-0.49288,-0.074401,-0.430095,-264.337499,1.095403,62.940695
1.0661,0.020203,0.015297,-0.072391,-0.021486,-0.017605,0.05,-0.017205,-0.493342,-0.073886,-0.480041,-264.347765,1.115464,62.920309
1.0859,0.020571,0.015412,-0.072879,-0.019043,-0.016718,0.05,-0.0172,-0.493364,-0.073717,-0.480041,-264.347765,1.115464,62.920309
1.1058,0.018131,0.014294,-0.071455,-0.019394,-0.016869,0.05,-0.017373,-0.493797,-0.071106,-0.544108,-264.357043,1.148028,62.900961
1.1267,0.018074,0.014754,-0.071088,-0.017064,-0.015552,0.05,-0.017992,-0.494215,-0.071079,-0.544108,-264.357043,1.148028,62.900961
1.1459,0.017924,0.014363,-0.070939,-0.01698,-0.016,0.05,-0.017992,-0.494215,-0.071079,-0.544108,-264.357043,1.148028,62.900961
1.166,0.016313,0.014108,-0.067533,-0.016861,-0.015597,0.05,-0.019081,-0.495008,-0.068827,-0.618962,-264.365247,1.187721,62.883197
1.1864,0.016178,0.014007,-0.06835,-0.015324,-0.015176,0.05,-0.019036,-0.495006,-0.06868,-0.618962,-264.365247,1.187721,62.883197
1.206,0.01423,0.013195,-0.067194,-0.015183,-0.015079,0.05,-0.019261,-0.495302,-0.066683,-0.693966,-264.372983,1.22094,62.866052
1.2261,0.014312,0.013518,-0.067071,-0.013312,-0.01412,0.05,-0.019764,-0.495565,-0.066761,-0.693966,-264.372983,1.22094,62.866052
1.2462,0.014283,0.013636,-0.067088,-0.013374,-0.014446,0.05,-0.019764,-0.495565,-0.066761,-0.693966,-264.372983,1.22094,62.866052
1.2659,0.01258,0.012544,-0.064865,-0.013337,-0.014562,0.05,-0.020596,-0.495815,-0.065,-0.769011,-264.380462,1.247359,62.849434
1.2858,0.012784,0.012819,-0.064742,-0.011741,-0.013333,0.05,-0.020605,-0.495867,-0.064939,-0.769011,-264.380462,1.247359,62.849434
1.3058,0.01082,0.012346,-0.062498,-0.011928,-0.01362,0.05,-0.020667,-0.496545,-0.063185,-0.843979,-264.387272,1.281822,62.834157
1.3259,0.011058,0.012135,-0.062121,-0.010028,-0.012998,0.05,-0.020934,-0.496664,-0.062594,-0.843979,-264.387272,1.281822,62.834157
1.3459,0.010493,0.012311,-0.063142,-0.010283,-0.012798,0.05,-0.020934,-0.496664,-0.062594,-0.843979,-264.387272,1.281822,62.834157
1.3659,0.009626,0.012012,-0.06064,-0.009696,-0.012948,0.05,-0.022168,-0.497148,-0.061316,-0.91906,-264.393625,1.309303,62.820307
1.3862,0.009334,0.012126,-0.062152,-0.008881,-0.012574,0.05,-0.022112,-0.497155,-0.061207,-0.91906,-264.393625,1.309303,62.820307
1.4059,0.007725,0.011275,-0.058274,-0.008563,-0.012682,0.05,-0.02268,-0.497252,-0.0607,-0.994347,-264.399866,1.337814,62.80675
1.4258,0.007778,0.011664,-0.058996,-0.007055,-0.011706,0.05,-0.022321,-0.497646,-0.059126,-0.994347,-264.399866,1.337814,62.80675
1.4466,0.008425,0.011958,-0.057984,-0.007076,-0.012103,0.05,-0.022321,-0.497646,-0.059126,-0.994347,-264.399866,1.337814,62.80675
1.466,0.006343,0.010992,-0.056623,-0.007718,-0.012426,0.05,-0.021515,-0.497656,-0.056068,-1.069058,-264.406194,1.367647,62.79285
1.4863,0.006255,0.01116,-0.055866,-0.005711,-0.011333,0.05,-0.021582,-0.497698,-0.056057,-1.069058,-264.406194,1.367647,62.79285
1.5061,0.005663,0.01067,-0.055626,-0.005622,-0.011492,0.05,-0.022455,-0.498379,-0.054469,-1.143975,-264.411944,1.40634,62.780264
1.5259,0.005575,0.010461,-0.051541,-0.005061,-0.010968,0.05,-0.022619,-0.498513,-0.054946,-1.143975,-264.411944,1.40634,62.780264
1.546,0.005326,0.010639,-0.054074,-0.005028,-0.010734,0.05,-0.022619,-0.498513,-0.054946,-1.143975,-264.411944,1.40634,62.780264
1.566,0.004287,0.010082,-0.052182,-0.004743,-0.010911,0.05,-0.022483,-0.499011,-0.052318,-1.218973,-264.417814,1.435239,62.767884
1.5866,0.00429,0.010072,-0.054263,-0.003756,-0.010292,0.05,-0.022476,-0.499042,-0.052249,-1.218973,-264.417814,1.435239,62.767884
1.6061,0.002637,0.009822,-0.051147,-0.003737,-0.01029,0.05,-0.02356,-0.499516,-0.052653,-1.29448,-264.424646,1.449561,62.753981
1.6259,0.002987,0.00986,-0.049822,-0.002131,-0.009944,0.05,-0.023514,-0.499556,-0.051589,-1.29448,-264.424646,1.449561,62.753981
1.6458,0.002844,0.009781,-0.050627,-0.002492,-0.009997,0.049822,-0.023514,-0.499556,-0.051589,-1.29448,-264.424646,1.449561,62.753981
1.6658,0.00143,0.009861,-0.049083,-0.002346,-0.009912,0.05,-0.023149,-0.499988,-0.048546,-1.369089,-264.431707,1.479071,62.73992
1.686,0.001664,0.009371,-0.048117,-0.002346,-0.009912,0.05,-0.023185,-0.499967,-0.048528,-1.369089,-264.431707,1.479071,62.73992
1.7059,0.000611,0.009104,-0.046723,-1.3e-05,-9.9e-05,0.0,-0.02297,-0.500378,-0.046405,-1.443959,-264.439024,1.509233,62.725522
1.726,0.000329,0.009515,-0.046518,-1.3e-05,-9.9e-05,0.0,-0.023119,-0.500399,-0.046369,-1.443959,-264.439024,1.509233,62.725522
1.7463,0.000394,0.009282,-0.044987,-1.3e-05,-9.9e-05,0.0,-0.023119,-0.500399,-0.046369,-1.443959,-264.439024,1.509233,62.725522
1.7661,-0.000927,0.008766,-0.045553,-1.3e-05,-9.9e-05,0.0,-0.022677,-0.500678,-0.042557,-1.457546,-264.447333,1.512866,62.709304
1.786,-0.001013,0.00896,-0.042571,-1.3e-05,-9.9e-05,0.0,-0.022787,-0.500693,-0.042707,-1.457546,-264.447333,1.512866,62.709304
1.806,-0.001082,0.008217,-0.043202,-1.3e-05,-9.9e-05,0.0,-0.022767,-0.500869,-0.042094,-1.532838,-264.447319,1.443169,62.703211
1.826,-0.001749,0.008058,-0.043698,-1.3e-05,-9.9e-05,0.0,-0.022967,-0.501155,-0.042662,-1.532838,-264.447319,1.443169,62.703211
1.8461,-0.0015,0.008288,-0.042516,-1.3e-05,-9.9e-05,0.0,-0.022967,-0.501155,-0.042662,-1.532838,-264.447319,1.443169,62.703211
1.8657,-0.001315,0.008604,-0.043507,-1.3e-05,-9.9e-05,0.0,-0.023177,-0.501254,-0.042516,-1.60755,-264.447293,1.443169,62.703185
1.8863,-0.0017,0.0084,-0.044014,-1.3e-05,-9.9e-05,0.0,-0.0232,-0.501229,-0.042588,-1.60755,-264.447293,1.443169,62.703185
1.9062,-0.000866,0.008235,-0.042684,-1e-06,-4e-06,2.1e-05,-0.02414,-0.501109,-0.044014,-1.682653,-264.447258,1.443169,62.70315
1.9259,-0.001674,0.007724,-0.043467,-0.000175,-0.001361,0.006935,-0.023275,-0.501219,-0.043253,-1.682653,-264.447258,1.443169,62.70315
1.9459,-0.001325,0.008424,-0.043619,-0.000342,-0.002669,0.013604,-0.023275,-0.501219,-0.043253,-1.682653,-264.447258,1.443169,62.70315
1.9658,-0.001237,0.008673,-0.04386,-0.000502,-0.003911,0.019934,-0.023564,-0.501096,-0.043619,-1.698424,-264.447218,1.443169,62.70311
1.9861,-0.001202,0.008567,-0.042664,-0.000652,-0.00508,0.025892,-0.023567,-0.501078,-0.043636,-1.698424,-264.447218,1.443169,62.70311
2.0062,-0.001418,0.00815,-0.044928,-0.000793,-0.006179,0.031494,-0.022959,-0.501019,-0.042408,-1.623517,-264.44832,1.518075,62.700968
2.026,-0.001691,0.008537,-0.043559,-0.000925,-0.00721,0.036751,-0.02374,-0.501206,-0.043816,-1.623517,-264.44832,1.518075,62.700968
2.046,-0.001413,0.008103,-0.043692,-0.001047,-0.008162,0.041604,-0.02374,-0.501206,-0.043816,-1.623517,-264.44832,1.518075,62.700968
2.0661,-0.002136,0.00818,-0.04307,-0.001162,-0.009054,0.046149,-0.023705,-0.50148,-0.042885,-1.548395,-264.451794,1.539607,62.696326
2.0864,-0.00219,0.008216,-0.042492,-0.001266,-0.009867,0.050293,-0.023733,-0.501473,-0.042877,-1.548395,-264.451794,1.539607,62.696326
2.1064,-0.002772,0.008082,-0.040503,-0.001362,-0.01061,0.054082,-0.023885,-0.501379,-0.041457,-1.510141,-264.457767,1.539607,62.689184
2.1264,-0.002549,0.007893,-0.040028,-0.001448,-0.011284,0.057515,-0.023626,-0.501455,-0.040782,-1.510141,-264.457767,1.539607,62.689184
2.1463,-0.002351,0.008487,-0.039901,-0.001525,-0.011885,0.06058,-0.023626,-0.501455,-0.040782,-1.510141,-264.457767,1.539607,62.689184
2.1662,-0.003512,0.008092,-0.037834,-0.001594,-0.012418,0.063295,-0.022748,-0.501184,-0.038116,-1.510141,-264.466156,1.539607,62.679504
2.1866,-0.003851,0.008084,-0.040144,-0.001653,-0.012879,0.065646,-0.022754,-0.501217,-0.038035,-1.510141,-264.466156,1.539607,62.679504
2.2059,-0.005048,0.008273,-0.038212,-0.001703,-0.01327,0.067638,-0.024371,-0.501605,-0.03838,-1.510141,-264.476182,1.539607,62.667396
2.2262,-0.004905,0.00799,-0.036412,-0.001744,-0.013589,0.069266,-0.024467,-0.501477,-0.038067,-1.510141,-264.476182,1.539607,62.667396
2.246,-0.004534,0.008017,-0.037106,-0.001776,-0.013838,0.070534,-0.024467,-0.501477,-0.038067,-1.510141,-264.476182,1.539607,62.667396
2.2659,-0.006532,0.007806,-0.03507,-0.001799,-0.014017,0.071443,-0.023529,-0.501857,-0.034569,-1.510141,-264.487071,1.539607,62.652776
2.2862,-0.006186,0.007888,-0.032839,-0.001812,-0.014124,0.07199,-0.023592,-0.501865,-0.034537,-1.510141,-264.487071,1.539607,62.652776
2.3058,-0.008106,0.007647,-0.031606,-0.001817,-0.01416,0.072176,-0.022999,-0.502097,-0.03056,-1.510141,-264.498804,1.539607,62.635613
2.3262,-0.007944,0.007471,-0.031213,-0.001813,-0.014125,0.071999,-0.023708,-0.502131,-0.03087,-1.510141,-264.498804,1.539607,62.635613
2.3457,-0.008211,0.007528,-0.031533,-0.001799,-0.014021,0.071466,-0.023708,-0.502131,-0.03087,-1.510141,-264.498804,1.539607,62.635613
2.3658,-0.009756,0.007467,-0.029734,-0.001777,-0.013845,0.070569,-0.024385,-0.502682,-0.028398,-1.510141,-264.510747,1.539607,62.615999
2.386,-0.009905,0.007248,-0.027022,-0.001745,-0.013597,0.069307,-0.024425,-0.502669,-0.028407,-1.510141,-264.510747,1.539607,62.615999
2.4059,-0.011617,0.006202,-0.024573,-0.001704,-0.013281,0.067692,-0.023765,-0.50306,-0.024337,-1.510141,-264.522636,1.539607,62.593829
2.4259,-0.011263,0.006769,-0.024821,-0.001654,-0.012893,0.065717,-0.023995,-0.503458,-0.024132,-1.510141,-264.522636,1.539607,62.593829
2.446,-0.011439,0.007137,-0.025168,-0.001596,-0.012434,0.063375,-0.023995,-0.503458,-0.024132,-1.510141,-264.522636,1.539607,62.593829
2.4657,-0.013317,0.005848,-0.021082,-0.001528,-0.011904,0.060675,-0.024374,-0.503359,-0.021804,-1.510141,-264.534134,1.539607,62.571479
2.4862,-0.013803,0.005929,-0.020143,-0.001451,-0.011303,0.057614,-0.024355,-0.503424,-0.021664,-1.510141,-264.534134,1.539607,62.571479
2.5058,-0.015319,0.005149,-0.018972,-0.001364,-0.010631,0.054185,-0.024146,-0.504446,-0.017696,-1.510141,-264.544662,1.539607,62.551013
2.5261,-0.015337,0.005426,-0.017909,-0.001268,-0.009883,0.050373,-0.024638,-0.504686,-0.018112,-1.510141,-264.544662,1.539607,62.551013
2.5464,-0.014992,0.005362,-0.018447,-0.001164,-0.009074,0.046249,-0.024638,-0.504686,-0.018112,-1.510141,-264.544662,1.539607,62.551013
2.5661,-0.017021,0.004778,-0.015428,-0.001051,-0.008191,0.041751,-0.024479,-0.505101,-0.015642,-1.510141,-264.554299,1.539607,62.53228
2.5858,-0.016913,0.005142,-0.015721,-0.000929,-0.007237,0.03689,-0.024516,-0.505123,-0.015536,-1.510141,-264.554299,1.539607,62.53228
2.6061,-0.017917,0.00434,-0.01357,-0.000797,-0.00621,0.031652,-0.02498,-0.505141,-0.01395,-1.510141,-264.56193,1.539607,62.517447
2.6259,-0.018238,0.004139,-0.013563,-0.000656,-0.005114,0.026067,-0.024905,-0.505454,-0.013507,-1.510141,-264.56193,1.539607,62.517447
2.6458,-0.018042,0.004286,-0.011323,-0.000506,-0.003945,0.020107,-0.024905,-0.505454,-0.013507,-1.510141,-264.56193,1.539607,62.517447
2.6659,-0.018823,0.003998,-0.011281,-0.000348,-0.00271,0.013815,-0.023865,-0.506032,-0.00953,-1.510141,-264.568059,1.539607,62.505533
2.6864,-0.018827,0.004159,-0.010724,-0.00018,-0.001401,0.007143,-0.023916,-0.506037,-0.009603,-1.510141,-264.568059,1.539607,62.505533
2.7061,-0.019718,0.003804,-0.008967,-3e-06,-2.1e-05,0.000109,-0.024317,-0.505963,-0.009947,-1.510141,-264.571399,1.539607,62.49904
2.7263,-0.019196,0.003941,-0.010389,0.0,0.0,0.0,-0.024305,-0.506103,-0.009291,-1.510141,-264.571399,1.539607,62.49904
2.7461,-0.019512,0.003782,-0.009844,0.0,0.0,0.0,-0.024305,-0.506103,-0.009291,-1.510141,-264.571399,1.539607,62.49904
2.7659,-0.019571,0.003611,-0.010249,0.0,0.0,0.0,-0.024542,-0.506261,-0.009497,-1.510141,-264.572586,1.539607,62.496734
2.7862,-0.019581,0.00357,-0.009335,0.0,0.0,0.0,-0.02456,-0.50627,-0.00954,-1.510141,-264.572586,1.539607,62.496734
2.8058,-0.019689,0.003702,-0.010682,0.0,0.0,0.0,-0.024342,-0.506408,-0.009335,-1.510141,-264.572586,1.539607,62.496734
2.8258,-0.019661,0.003821,-0.008646,0.0,0.0,0.0,-0.024796,-0.506328,-0.010105,-1.510141,-264.572586,1.539607,62.496734
2.8463,-0.019954,0.00374,-0.009197,0.0,0.0,0.0,-0.024796,-0.506328,-0.010105,-1.510141,-264.572586,1.539607,62.496734
2.8658,-0.019714,0.003868,-0.00937,0.0,0.0,0.0,-0.024644,-0.506239,-0.009197,-1.510141,-264.572586,1.539607,62.496734
2.8861,-0.019396,0.003937,-0.007449,0.0,0.0,0.0,-0.024633,-0.506229,-0.009209,-1.510141,-264.572586,1.539607,62.496734
2.9058,-0.019669,0.003565,-0.008529,0.0,0.0,0.0,-0.023195,-0.506048,-0.007449,-1.510141,-264.572586,1.539607,62.496734
2.9259,-0.019849,0.0037,-0.009384,0.0,0.0,0.0,-0.023659,-0.506256,-0.008057,-1.510141,-264.572586,1.539607,62.496734
2.9457,-0.019805,0.003545,-0.009009,9.8e-05,-1.7e-05,0.0,-0.023659,-0.506256,-0.008057,-1.510141,-264.572586,1.539607,62.496734
2.9659,-0.019724,0.003756,-0.00888,9.8e-05,-1.7e-05,0.0,-0.024399,-0.506434,-0.009009,-1.510141,-264.572586,1.539607,62.496734
2.9864,-0.019879,0.003742,-0.009875,9.8e-05,-1.7e-05,0.0,-0.024389,-0.506419,-0.009,-1.510141,-264.572586,1.539607,62.496734
3.0059,-0.019831,0.004067,-0.008706,9.8e-05,-1.7e-05,0.0,-0.024916,-0.506233,-0.009875,-1.43514,-264.572586,1.464606,62.496734
3.0258,-0.019598,0.003927,-0.00986,9.8e-05,-1.7e-05,0.0,-0.024552,-0.506053,-0.009215,-1.43514,-264.572586,1.464606,62.496734
3.0458,-0.019697,0.003807,-0.008938,9.8e-05,-1.7e-05,0.0,-0.024552,-0.506053,-0.009215,-1.43514,-264.572586,1.464606,62.496734
3.0658,-0.019671,0.003546,-0.008887,9.8e-05,-1.7e-05,0.0,-0.024256,-0.506173,-0.008938,-1.360145,-264.572586,1.389611,62.496734
3.0863,-0.019688,0.004011,-0.011281,9.8e-05,-1.7e-05,0.0,-0.024252,-0.506191,-0.008935,-1.360145,-264.572586,1.389611,62.496734
3.1061,-0.019888,0.003939,-0.010388,9.8e-05,-1.7e-05,0.0,-0.025441,-0.505957,-0.011281,-1.285149,-264.572586,1.314615,62.496734
3.1265,-0.020103,0.003919,-0.010698,9.8e-05,-1.7e-05,0.0,-0.025295,-0.506,-0.010771,-1.285149,-264.572586,1.314615,62.496734
3.1461,-0.019608,0.003768,-0.009453,9.8e-05,-1.7e-05,0.0,-0.025295,-0.506,-0.010771,-1.285149,-264.572586,1.314615,62.496734
3.1661,-0.019513,0.003519,-0.009504,0.00291,-0.000514,0.001373,-0.024429,-0.50621,-0.009453,-1.210141,-264.572586,1.239607,62.496734
3.186,-0.019814,0.003866,-0.008502,0.005666,-0.001001,0.002674,-0.024423,-0.50623,-0.009457,-1.210141,-264.572586,1.239607,62.496734
3.2058,-0.019598,0.004005,-0.008879,0.008346,-0.001475,0.003939,-0.02415,-0.506115,-0.008502,-1.134857,-264.572586,1.164323,62.496734
3.2259,-0.019569,0.004128,-0.011655,0.010739,-0.001898,0.005068,-0.024137,-0.506035,-0.008718,-1.134857,-264.572586,1.164323,62.496734
3.2458,-0.019815,0.003842,-0.008854,0.013049,-0.002306,0.006159,-0.024137,-0.506035,-0.008718,-1.134857,-264.572586,1.164323,62.496734
3.2658,-0.019647,0.003842,-0.011017,0.015216,-0.002689,0.007181,-0.024331,-0.506138,-0.008854,-1.06011,-264.572586,1.089576,62.496734
3.2859,-0.019724,0.003757,-0.009522,0.017224,-0.003044,0.008129,-0.024396,-0.506138,-0.009005,-1.06011,-264.572586,1.089576,62.496734
3.306,-0.019762,0.00367,-0.009883,0.01909,-0.003373,0.00901,-0.02458,-0.50622,-0.009522,-0.98523,-264.572586,1.014696,62.496734
3.3264,-0.019463,0.00379,-0.009171,0.020802,-0.003676,0.009818,-0.024706,-0.506268,-0.009726,-0.98523,-264.572586,1.014696,62.496734
3.3463,-0.019716,0.00353,-0.009084,0.02238,-0.003955,0.010562,-0.024706,-0.506268,-0.009726,-0.98523,-264.572586,1.014696,62.496734
3.3657,-0.019295,0.003747,-0.007459,0.023786,-0.004203,0.011226,-0.024349,-0.506449,-0.009084,-0.910258,-264.572586,0.939724,62.496734
3.3864,-0.019821,0.003739,-0.008806,0.025052,-0.004427,0.011824,-0.024271,-0.506436,-0.008983,-0.910258,-264.572586,0.939724,62.496734
3.4057,-0.019602,0.003896,-0.008765,0.026173,-0.004625,0.012353,-0.024312,-0.506241,-0.008806,-0.835234,-264.572586,0.8647,62.496734
3.4257,-0.019893,0.003782,-0.010713,0.02714,-0.004796,0.012809,-0.024175,-0.506152,-0.008783,-0.835234,-264.572586,0.8647,62.496734
3.4457,-0.019509,0.003343,-0.008353,0.02796,-0.004941,0.013196,-0.024175,-0.506152,-0.008783,-0.835234,-264.572586,0.8647,62.496734
3.4659,-0.019251,0.003529,-0.009433,0.028632,-0.005059,0.013513,-0.023769,-0.506639,-0.008353,-0.760241,-264.572586,0.789707,62.496734
3.4865,-0.019554,0.004192,-0.009657,0.029156,-0.005152,0.01376,-0.023788,-0.506627,-0.008424,-0.760241,-264.572586,0.789707,62.496734
3.5058,-0.020083,0.003783,-0.007762,0.029528,-0.005218,0.013936,-0.024479,-0.505785,-0.009657,-0.685247,-264.572586,0.714713,62.496734
3.5259,-0.019967,0.004291,-0.009634,0.029751,-0.005257,0.014041,-0.024232,-0.50602,-0.008585,-0.685247,-264.572586,0.714713,62.496734
3.5461,-0.019827,0.003245,-0.009647,0.029825,-0.00527,0.014076,-0.024232,-0.50602,-0.008585,-0.685247,-264.572586,0.714713,62.496734
3.5658,-0.019578,0.003693,-0.00961,0.02975,-0.005257,0.014041,-0.024747,-0.506731,-0.009647,-0.610226,-264.572586,0.639692,62.496734
3.5862,-0.019799,0.003554,-0.009756,0.029526,-0.005217,0.013935,-0.024729,-0.5067,-0.009644,-0.610226,-264.572586,0.639692,62.496734
3.6061,-0.019676,0.003754,-0.008212,0.029153,-0.005151,0.013759,-0.024775,-0.506422,-0.009756,-0.535227,-264.572586,0.564693,62.496734
3.6259,-0.020159,0.003758,-0.009418,0.028632,-0.005059,0.013513,-0.024253,-0.506311,-0.008872,-0.535227,-264.572586,0.564693,62.496734
3.6459,-0.019712,0.003482,-0.01059,0.02796,-0.004941,0.013196,-0.024253,-0.506311,-0.008872,-0.535227,-264.572586,0.564693,62.496734
3.666,-0.019531,0.003826,-0.008615,0.02714,-0.004796,0.012809,-0.025113,-0.506489,-0.01059,-0.46014,-264.572586,0.489607,62.496734
3.6862,-0.019767,0.003694,-0.010188,0.02617,-0.004624,0.012351,-0.025014,-0.506461,-0.010425,-0.46014,-264.572586,0.489607,62.496734
3.7057,-0.019389,0.003768,-0.008693,0.025045,-0.004425,0.01182,-0.024963,-0.50628,-0.010188,-0.384713,-264.572586,0.414179,62.496734
3.7257,-0.020086,0.004049,-0.010773,0.023773,-0.004201,0.01122,-0.024314,-0.506242,-0.009337,-0.384713,-264.572586,0.414179,62.496734
3.7458,-0.019266,0.003792,-0.009501,0.022369,-0.003953,0.010557,-0.024314,-0.506242,-0.009337,-0.384713,-264.572586,0.414179,62.496734
3.7662,-0.019597,0.003933,-0.009119,0.020802,-0.003676,0.009818,-0.024111,-0.506185,-0.009501,-0.310235,-264.572586,0.339701,62.496734
3.7862,-0.019903,0.003872,-0.009932,0.019087,-0.003373,0.009008,-0.024121,-0.506175,-0.009475,-0.310235,-264.572586,0.339701,62.496734
3.8062,-0.019707,0.003829,-0.010004,0.017221,-0.003043,0.008127,-0.024968,-0.506102,-0.009932,-0.235241,-264.572586,0.264707,62.496734
3.8257,-0.019354,0.004095,-0.00891,0.015211,-0.002688,0.007179,-0.024878,-0.506127,-0.009973,-0.235241,-264.572586,0.264707,62.496734
3.8457,-0.019451,0.004236,-0.008944,0.013048,-0.002306,0.006158,-0.024878,-0.506127,-0.009973,-0.235241,-264.572586,0.264707,62.496734
3.8662,-0.019925,0.00395,-0.008399,0.010736,-0.001897,0.005067,-0.024012,-0.505744,-0.008944,-0.16019,-264.572585,0.189656,62.496734
3.8863,-0.019691,0.003818,-0.010485,0.008275,-0.001462,0.003906,-0.024025,-0.505763,-0.008908,-0.16019,-264.572585,0.189656,62.496734
3.906,-0.019848,0.003806,-0.009345,0.005659,-0.001,0.002671,-0.025038,-0.506154,-0.010485,-0.085235,-264.572583,0.114701,62.496736
3.926,-0.019752,0.00379,-0.00878,0.002903,-0.000513,0.00137,-0.024795,-0.506164,-0.009833,-0.085235,-264.572583,0.114701,62.496736
3.946,-0.019548,0.003533,-0.009715,0.0,0.0,0.0,-0.024795,-0.506164,-0.009833,-0.085235,-264.572583,0.114701,62.496736
3.9658,-0.019483,0.00371,-0.011039,0.0,0.0,0.0,-0.024501,-0.506443,-0.009715,-0.010141,-264.572572,0.039607,62.496748
3.9863,-0.020008,0.003518,-0.00918,0.0,0.0,0.0,-0.024551,-0.506428,-0.009823,-0.010141,-264.572572,0.039607,62.496748
4.006,-0.019491,0.003864,-0.008744,0.0,0.0,0.0,-0.02469,-0.506461,-0.00918,-0.010141,-264.572572,0.039607,62.496748
4.0258,-0.019768,0.003546,-0.011508,0.0,0.0,0.0,-0.024269,-0.506265,-0.008932,-0.010141,-264.572572,0.039607,62.496748
4.0458,-0.019824,0.003832,-0.010712,0.0,0.0,0.0,-0.024269,-0.506265,-0.008932,-0.010141,-264.572572,0.039607,62.496748
4.0658,-0.019835,0.003543,-0.010024,0.0,0.0,0.0,-0.025287,-0.506139,-0.010712,-0.010141,-264.572572,0.039607,62.496748
4.0861,-0.019896,0.003806,-0.009068,0.0,0.0,0.0,-0.025263,-0.506159,-0.010664,-0.010141,-264.572572,0.039607,62.496748
4.1057,-0.019778,0.003806,-0.009348,0.0,0.0,0.0,-0.02452,-0.506173,-0.009068,-0.010141,-264.572572,0.039607,62.496748
4.1258,-0.019737,0.003985,-0.010343,0.0,0.0,0.0,-0.024534,-0.506172,-0.009227,-0.010141,-264.572572,0.039607,62.496748
4.1458,-0.019206,0.003693,-0.008535,0.0,0.0,0.0,-0.024534,-0.506172,-0.009227,-0.010141,-264.572572,0.039607,62.496748
4.1666,-0.019612,0.003416,-0.009664,0.0,0.0,0.0,-0.023558,-0.506289,-0.008535,-0.010141,-264.572572,0.039607,62.496748
4.1865,-0.019342,0.004032,-0.009863,9.9e-05,-1.6e-05,0.0,-0.023626,-0.506307,-0.008613,-0.010141,-264.572572,0.039607,62.496748
4.2059,-0.019917,0.004071,-0.009305,9.9e-05,-1.6e-05,0.0,-0.024372,-0.505943,-0.009863,-0.010141,-264.572572,0.039607,62.496748
4.2262,-0.019955,0.003658,-0.009501,9.9e-05,-1.6e-05,0.0,-0.024539,-0.505923,-0.009542,-0.010141,-264.572572,0.039607,62.496748
4.2458,-0.019624,0.003596,-0.011854,9.9e-05,-1.6e-05,0.0,-0.024539,-0.505923,-0.009542,-0.010141,-264.572572,0.039607,62.496748
4.2659,-0.019972,0.00371,-0.010052,9.9e-05,-1.6e-05,0.0,-0.025668,-0.506368,-0.011854,-0.085434,-264.572558,-0.035685,62.496763
4.2862,-0.01945,0.003869,-0.010028,9.9e-05,-1.6e-05,0.0,-0.025628,-0.506361,-0.011727,-0.085434,-264.572558,-0.035685,62.496763
4.3058,-0.019537,0.0037,-0.009231,9.9e-05,-1.6e-05,0.0,-0.024562,-0.506105,-0.010028,-0.160147,-264.57253,-0.110398,62.496791
4.3258,-0.019422,0.003573,-0.008955,9.9e-05,-1.6e-05,0.0,-0.024382,-0.506203,-0.009579,-0.160147,-264.57253,-0.110398,62.496791
4.3458,-0.019779,0.003708,-0.009454,9.9e-05,-1.6e-05,0.0,-0.024382,-0.506203,-0.009579,-0.160147,-264.57253,-0.110398,62.496791
4.366,-0.019909,0.004013,-0.009655,9.9e-05,-1.6e-05,0.0,-0.024596,-0.50627,-0.009454,-0.162806,-264.572492,-0.162806,62.496829
4.3866,-0.019857,0.003812,-0.007263,1.4e-05,-2e-06,7e-06,-0.024612,-0.506248,-0.009469,-0.162806,-264.572492,-0.162806,62.496829
4.4059,-0.019517,0.003983,-0.011057,0.002875,-0.000472,0.001414,-0.023558,-0.506176,-0.007263,-0.162806,-264.572452,-0.162806,62.496869
4.4257,-0.019524,0.003946,-0.008339,0.005611,-0.000922,0.00276,-0.024457,-0.506069,-0.009398,-0.162806,-264.572452,-0.162806,62.496869
4.4457,-0.019793,0.003948,-0.009452,0.008177,-0.001343,0.004023,-0.024457,-0.506069,-0.009398,-0.162806,-264.572452,-0.162806,62.496869
4.4658,-0.019738,0.003654,-0.010627,0.010612,-0.001743,0.005221,-0.024614,-0.50603,-0.009452,-0.087711,-264.572451,-0.237901,62.496869
4.4863,-0.019901,0.003966,-0.007978,0.012892,-0.002118,0.006342,-0.024652,-0.50605,-0.009533,-0.087711,-264.572451,-0.237901,62.496869
4.5062,-0.020014,0.003469,-0.00965,0.015032,-0.002469,0.007395,-0.023892,-0.506032,-0.007958,-0.012812,-264.571661,-0.312801,62.497732
4.526,-0.019581,0.00375,-0.009537,0.017018,-0.002795,0.008372,-0.024474,-0.506303,-0.008915,-0.012812,-264.571661,-0.312801,62.497732
4.5462,-0.019502,0.003405,-0.008749,0.018861,-0.003098,0.009279,-0.024474,-0.506303,-0.008915,-0.012812,-264.571661,-0.312801,62.497732
4.5663,-0.019195,0.003785,-0.008326,0.020568,-0.003378,0.010118,-0.023612,-0.50664,-0.008612,0.062128,-264.568782,-0.38774,62.500878
4.5865,-0.019389,0.003688,-0.009996,0.022111,-0.003632,0.010877,-0.023593,-0.506613,-0.008591,0.062128,-264.568782,-0.38774,62.500878
4.6063,-0.018763,0.00375,-0.008893,0.023504,-0.003861,0.011563,-0.02398,-0.506372,-0.009749,0.135359,-264.56338,-0.43502,62.506548
4.6263,-0.019043,0.003409,-0.009009,0.024754,-0.004066,0.012178,-0.023527,-0.506301,-0.009228,0.135359,-264.56338,-0.43502,62.506548
4.6462,-0.018712,0.003977,-0.010865,0.025858,-0.004248,0.012721,-0.023527,-0.506301,-0.009228,0.135359,-264.56338,-0.43502,62.506548
4.6662,-0.01824,0.003514,-0.009651,0.026819,-0.004405,0.013193,-0.023332,-0.506146,-0.010418,0.135359,-264.555484,-0.43502,62.51471
4.686,-0.017947,0.003643,-0.009167,0.027631,-0.004539,0.013593,-0.023293,-0.506174,-0.010348,0.135359,-264.555484,-0.43502,62.51471
4.7064,-0.017554,0.002894,-0.009362,0.028291,-0.004647,0.013917,-0.021662,-0.506493,-0.008703,0.135359,-264.545137,-0.43502,62.525323
4.726,-0.017315,0.003117,-0.00924,0.028806,-0.004732,0.014171,-0.021917,-0.506847,-0.009016,0.135359,-264.545137,-0.43502,62.525323
4.7464,-0.017189,0.00335,-0.009602,0.029173,-0.004792,0.014351,-0.021917,-0.506847,-0.009016,0.135359,-264.545137,-0.43502,62.525323
4.7663,-0.016125,0.003157,-0.007724,0.029393,-0.004828,0.014459,-0.020743,-0.50686,-0.00894,0.135359,-264.533983,-0.43502,62.53751
4.7861,-0.016253,0.003373,-0.007475,0.029466,-0.00484,0.014495,-0.020665,-0.506864,-0.008844,0.135359,-264.533983,-0.43502,62.53751
4.8061,-0.015027,0.002691,-0.007107,0.029392,-0.004828,0.014459,-0.018939,-0.506806,-0.006921,0.135359,-264.522214,-0.43502,62.550369
4.8263,-0.01464,0.002358,-0.007056,0.029171,-0.004792,0.01435,-0.018633,-0.507107,-0.006955,0.135359,-264.522214,-0.43502,62.550369
4.8457,-0.014924,0.0024,-0.006237,0.028802,-0.004731,0.014169,-0.018633,-0.507107,-0.006955,0.135359,-264.522214,-0.43502,62.550369
4.8657,-0.013929,0.002328,-0.00476,0.028285,-0.004646,0.013915,-0.016673,-0.507834,-0.005532,0.135359,-264.510253,-0.43502,62.563438
4.8857,-0.013839,0.002152,-0.006332,0.027624,-0.004538,0.013589,-0.016603,-0.507828,-0.005448,0.135359,-264.510253,-0.43502,62.563438
4.9057,-0.012703,0.002351,-0.005368,0.026808,-0.004404,0.013188,-0.015965,-0.508026,-0.005789,0.135359,-264.49867,-0.43502,62.576094
4.9257,-0.01284,0.002382,-0.005443,0.025851,-0.004246,0.012717,-0.015523,-0.507829,-0.005478,0.135359,-264.49867,-0.43502,62.576094
4.9458,-0.01263,0.002613,-0.006719,0.024752,-0.004066,0.012176,-0.015523,-0.507829,-0.005478,0.135359,-264.49867,-0.43502,62.576094
4.9659,-0.011855,0.002066,-0.004967,0.023498,-0.00386,0.01156,-0.014717,-0.507604,-0.00606,0.135359,-264.487516,-0.43502,62.588281
4.9866,-0.011927,0.001924,-0.004492,0.0221,-0.00363,0.010872,-0.014656,-0.507634,-0.005961,0.135359,-264.487516,-0.43502,62.588281
5.0061,-0.010935,0.001487,-0.003542,0.020549,-0.003375,0.010109,-0.013254,-0.508233,-0.004018,0.135359,-264.477521,-0.43502,62.599202
5.0262,-0.010663,0.001868,-0.004388,0.018856,-0.003097,0.009276,-0.012845,-0.50841,-0.00369,0.135359,-264.477521,-0.43502,62.599202
5.0461,-0.010907,0.002118,-0.004904,0.017012,-0.002794,0.008369,-0.012845,-0.50841,-0.00369,0.135359,-264.477521,-0.43502,62.599202
5.066,-0.010311,0.001678,-0.003976,0.015027,-0.002468,0.007392,-0.012335,-0.508057,-0.004375,0.135359,-264.468601,-0.43502,62.608947
5.0863,-0.010048,0.001401,-0.002686,0.01289,-0.002117,0.006341,-0.012307,-0.50808,-0.004333,0.135359,-264.468601,-0.43502,62.608947
5.1064,-0.009396,0.001177,-0.002848,0.010604,-0.001742,0.005217,-0.010763,-0.508706,-0.002364,0.135359,-264.461735,-0.43502,62.61645
5.1262,-0.009452,0.001479,-0.002672,0.008161,-0.001341,0.004015,-0.010729,-0.508786,-0.0026,0.135359,-264.461735,-0.43502,62.61645
5.146,-0.009541,0.001425,-0.00362,0.005594,-0.000919,0.002752,-0.010729,-0.508786,-0.0026,0.135359,-264.461735,-0.43502,62.61645
5.166,-0.008594,0.001556,-0.00198,0.002873,-0.000472,0.001413,-0.010762,-0.508677,-0.003312,0.135359,-264.45653,-0.43502,62.622137
5.1862,-0.008723,0.001344,-0.003916,0.0,0.0,0.0,-0.01066,-0.508663,-0.003207,0.135359,-264.45653,-0.43502,62.622137
5.2057,-0.008624,0.001628,-0.002723,0.0,0.0,0.0,-0.010504,-0.508689,-0.003809,0.135359,-264.454271,-0.43502,62.624604
5.2259,-0.008755,0.001348,-0.001763,0.0,0.0,0.0,-0.010195,-0.508511,-0.003173,0.135359,-264.454271,-0.43502,62.624604
5.2459,-0.00891,0.001305,-0.002437,0.0,0.0,0.0,-0.010195,-0.508511,-0.003173,0.135359,-264.454271,-0.43502,62.624604
5.2659,-0.008912,0.001366,-0.003515,0.0,0.0,0.0,-0.010152,-0.508694,-0.002437,0.135359,-264.454271,-0.43502,62.624604
5.2858,-0.008634,0.000863,-0.000646,0.0,0.0,0.0,-0.010191,-0.508689,-0.002512,0.135359,-264.454271,-0.43502,62.624604
5.3059,-0.008597,0.001035,-0.002977,0.0,0.0,0.0,-0.008963,-0.509137,-0.000646,0.135359,-264.454271,-0.43502,62.624604
5.3259,-0.008856,0.001503,-0.001731,0.0,0.0,0.0,-0.009622,-0.509037,-0.001978,0.135359,-264.454271,-0.43502,62.624604
5.3462,-0.008464,0.001225,-0.001702,0.0,0.0,0.0,-0.009622,-0.509037,-0.001978,0.135359,-264.454271,-0.43502,62.624604
5.366,-0.00842,0.001062,-0.001291,0.0,0.0,0.0,-0.009332,-0.508774,-0.001702,0.135359,-264.454271,-0.43502,62.624604
5.3864,-0.009263,0.001155,-0.002287,0.0,0.0,0.0,-0.009309,-0.508789,-0.001665,0.135359,-264.454271,-0.43502,62.624604
5.406,-0.008645,0.001124,-0.004106,0.0,0.0,0.0,-0.01043,-0.508843,-0.002287,0.135359,-264.454271,-0.43502,62.624604
5.4259,-0.008581,0.001546,-0.003763,9.9e-05,-1.2e-05,0.0,-0.010607,-0.50886,-0.00333,0.135359,-264.454271,-0.43502,62.624604
5.4458,-0.008927,0.001417,-0.003621,9.9e-05,-1.2e-05,0.0,-0.010607,-0.50886,-0.00333,0.135359,-264.454271,-0.43502,62.624604
5.4663,-0.008624,0.00123,-0.002041,9.9e-05,-1.2e-05,0.0,-0.010774,-0.50858,-0.003621,0.135359,-264.454271,-0.43502,62.624604
5.4859,-0.008692,0.001116,-0.003647,9.9e-05,-1.2e-05,0.0,-0.010691,-0.508594,-0.003503,0.135359,-264.454271,-0.43502,62.624604
5.5061,-0.008316,0.001147,-0.002536,9.9e-05,-1.2e-05,0.0,-0.010552,-0.508881,-0.003647,0.060365,-264.454269,-0.360027,62.624607
5.5259,-0.008692,0.000914,-0.002177,9.9e-05,-1.2e-05,0.0,-0.01002,-0.508864,-0.00302,0.060365,-264.454269,-0.360027,62.624607
5.5462,-0.008401,0.001254,-0.002719,9.9e-05,-1.2e-05,0.0,-0.01002,-0.508864,-0.00302,0.060365,-264.454269,-0.360027,62.624607
5.5662,-0.008414,0.001405,-0.002833,9.9e-05,-1.2e-05,0.0,-0.009786,-0.508745,-0.002719,-0.014507,-264.454259,-0.285154,62.624617
5.5861,-0.008698,0.001487,-0.002964,9.9e-05,-1.2e-05,0.0,-0.009794,-0.50873,-0.00273,-0.014507,-264.454259,-0.285154,62.624617
5.606,-0.008773,0.001487,-0.00387,9.9e-05,-1.2e-05,0.0,-0.010207,-0.508511,-0.002964,-0.090462,-264.454238,-0.2092,62.624638
5.6262,-0.008522,0.001347,-0.002962,8e-06,-1e-06,4e-06,-0.010517,-0.50851,-0.003485,-0.090462,-264.454238,-0.2092,62.624638
5.6458,-0.008502,0.00159,-0.002878,0.001267,-0.000159,0.000601,-0.010517,-0.50851,-0.003485,-0.090462,-264.454238,-0.2092,62.624638
5.6659,-0.008622,0.001465,-0.002158,0.002488,-0.000313,0.001181,-0.009965,-0.508408,-0.002878,-0.125169,-264.454203,-0.135003,62.624673
5.6857,-0.008881,0.001463,-0.002578,0.003602,-0.000453,0.00171,-0.009947,-0.508418,-0.002823,-0.125169,-264.454203,-0.135003,62.624673
5.7058,-0.008807,0.001107,-0.003029,0.004672,-0.000588,0.002218,-0.010191,-0.508536,-0.002577,-0.050114,-264.454157,-0.210058,62.624722
5.7258,-0.008713,0.00133,-0.002927,0.005681,-0.000715,0.002697,-0.010283,-0.508739,-0.002836,-0.050114,-264.454157,-0.210058,62.624722
5.7462,-0.008465,0.001248,-0.003631,0.00662,-0.000833,0.003143,-0.010283,-0.508739,-0.002836,-0.050114,-264.454157,-0.210058,62.624722
5.7662,-0.008941,0.001291,-0.00111,0.007494,-0.000943,0.003557,-0.010266,-0.508755,-0.003618,0.02481,-264.45375,-0.284982,62.625157
5.7859,-0.008767,0.001387,-0.002968,0.008305,-0.001045,0.003942,-0.010213,-0.508752,-0.003445,0.02481,-264.45375,-0.284982,62.625157
5.8059,-0.008683,0.001292,-0.003266,0.009052,-0.001139,0.004297,-0.010123,-0.508633,-0.002906,0.099666,-264.452115,-0.359838,62.626904
5.826,-0.008253,0.001752,-0.001818,0.009733,-0.001225,0.00462,-0.010231,-0.508677,-0.003102,0.099666,-264.452115,-0.359838,62.626904
5.846,-0.008493,0.001369,-0.00324,0.010348,-0.001302,0.004912,-0.010231,-0.508677,-0.003102,0.099666,-264.452115,-0.359838,62.626904
5.8658,-0.008154,0.001456,-0.001672,0.010899,-0.001371,0.005174,-0.009773,-0.508677,-0.003064,0.162639,-264.449011,-0.394004,62.630222
5.8865,-0.008141,0.001096,-0.001643,0.011385,-0.001433,0.005405,-0.00971,-0.508669,-0.002963,0.162639,-264.449011,-0.394004,62.630222
5.906,-0.007631,0.001242,-0.001706,0.011807,-0.001486,0.005605,-0.008577,-0.508954,-0.001452,0.162639,-264.444816,-0.394004,62.634704
5.9259,-0.007628,0.001043,-0.002198,0.012163,-0.00153,0.005774,-0.008484,-0.50885,-0.001572,0.162639,-264.444816,-0.394004,62.634704
5.9457,-0.007743,0.001197,-0.001169,0.012456,-0.001567,0.005913,-0.008484,-0.50885,-0.001572,0.162639,-264.444816,-0.394004,62.634704
5.9658,-0.007305,0.000985,-0.003681,0.012683,-0.001596,0.006021,-0.007786,-0.508873,-0.000907,0.162639,-264.440207,-0.394004,62.63963
5.9861,-0.00733,0.001636,-0.001008,0.012845,-0.001616,0.006097,-0.007866,-0.508884,-0.001088,0.162639,-264.440207,-0.394004,62.63963
6.0058,-0.006967,0.001014,-0.000749,0.012942,-0.001628,0.006143,-0.007363,-0.508425,-0.00078,0.162639,-264.435151,-0.394004,62.645034
6.0258,-0.007091,0.000838,-0.002192,0.012974,-0.001633,0.006159,-0.007294,-0.508754,-0.000733,0.162639,-264.435151,-0.394004,62.645034
6.0458,-0.006516,0.001015,-0.001378,0.012942,-0.001628,0.006143,-0.007294,-0.508754,-0.000733,0.162639,-264.435151,-0.394004,62.645034
6.0664,-0.005954,0.001196,-0.001125,0.012845,-0.001616,0.006097,-0.006595,-0.509064,-0.001082,0.162639,-264.429945,-0.394004,62.650597
6.0862,-0.005883,0.001389,0.00067,0.012682,-0.001596,0.00602,-0.006574,-0.509047,-0.001077,0.162639,-264.429945,-0.394004,62.650597
6.1058,-0.005994,0.001066,-0.000594,0.012455,-0.001567,0.005912,-0.005041,-0.508674,0.000907,0.162639,-264.424698,-0.394004,62.656205
6.126,-0.006406,0.000798,-0.000551,0.012163,-0.00153,0.005774,-0.005696,-0.50883,7.8e-05,0.162639,-264.424698,-0.394004,62.656205
6.146,-0.005885,0.001181,-0.001786,0.011807,-0.001486,0.005604,-0.005696,-0.50883,7.8e-05,0.162639,-264.424698,-0.394004,62.656205
6.1662,-0.005495,0.000802,-0.001258,0.011385,-0.001433,0.005404,-0.00618,-0.508897,-0.001494,0.162639,-264.419557,-0.394004,62.661698
6.1863,-0.005575,0.000894,-0.00061,0.010898,-0.001371,0.005173,-0.00616,-0.50892,-0.00147,0.162639,-264.419557,-0.394004,62.661698
6.2057,-0.005599,0.00072,-0.001192,0.010343,-0.001301,0.00491,-0.005431,-0.509163,-0.000394,0.162639,-264.414772,-0.394004,62.666812
6.2258,-0.004898,0.000627,0.000317,0.00973,-0.001224,0.004619,-0.005818,-0.509237,-0.000824,0.162639,-264.414772,-0.394004,62.666812
6.2458,-0.005056,0.000585,0.000843,0.009049,-0.001139,0.004296,-0.005818,-0.509237,-0.000824,0.162639,-264.414772,-0.394004,62.666812
6.2659,-0.004876,0.00093,0.000563,0.008302,-0.001045,0.003941,-0.004097,-0.509481,0.001094,0.162639,-264.410361,-0.394004,62.671527
6.2861,-0.004485,0.000745,-0.000742,0.007492,-0.000943,0.003556,-0.004117,-0.509454,0.001064,0.162639,-264.410361,-0.394004,62.671527
6.3059,-0.003953,0.00042,-0.000992,0.006592,-0.000829,0.003129,-0.004514,-0.509299,-0.000576,0.162639,-264.406688,-0.394004,62.675452
6.3259,-0.003969,0.000303,-0.000628,0.005675,-0.000714,0.002694,-0.004439,-0.509466,-0.000793,0.162639,-264.406688,-0.394004,62.675452
6.346,-0.004223,0.000643,-9e-05,0.004667,-0.000587,0.002215,-0.004439,-0.509466,-0.000793,0.162639,-264.406688,-0.394004,62.675452
6.366,-0.003831,0.000694,2.5e-05,0.003595,-0.000452,0.001707,-0.003905,-0.509403,8.2e-05,0.162639,-264.403654,-0.394004,62.678694
6.3869,-0.003654,0.000739,0.000309,0.002462,-0.00031,0.001169,-0.00389,-0.509397,8.3e-05,0.162639,-264.403654,-0.394004,62.678694
6.4058,-0.003744,0.000623,0.002015,0.001262,-0.000159,0.000599,-0.003316,-0.509284,0.000395,0.162639,-264.401759,-0.394004,62.680719
6.4261,-0.003607,0.000439,0.001471,0.0,0.0,0.0,-0.002948,-0.509339,0.001339,0.162639,-264.401759,-0.394004,62.680719
6.446,-0.004327,0.000214,0.000441,0.0,0.0,0.0,-0.002948,-0.509339,0.001339,0.162639,-264.401759,-0.394004,62.680719
6.4657,-0.003905,0.000146,-0.001173,0.0,0.0,0.0,-0.003982,-0.509801,0.000498,0.162639,-264.400763,-0.394004,62.681783
6.4861,-0.003533,0.000388,0.001613,0.0,0.0,0.0,-0.004013,-0.509804,0.000391,0.162639,-264.400763,-0.394004,62.681783
6.5059,-0.003706,0.000722,0.000807,0.0,0.0,0.0,-0.00271,-0.509611,0.001613,0.162639,-264.400763,-0.394004,62.681783
6.526,-0.003957,0.000277,0.000818,0.0,0.0,0.0,-0.003044,-0.509421,0.001153,0.162639,-264.400763,-0.394004,62.681783
6.5458,-0.003701,0.00052,0.001425,0.0,0.0,0.0,-0.003044,-0.509421,0.001153,0.162639,-264.400763,-0.394004,62.681783
6.5663,-0.003416,0.000388,0.000348,0.0,0.0,0.0,-0.002974,-0.50948,0.001425,0.162639,-264.400763,-0.394004,62.681783
6.5858,-0.003829,0.000428,0.00016,0.0,0.0,0.0,-0.002992,-0.509489,0.00135,0.162639,-264.400763,-0.394004,62.681783
6.6057,-0.003723,0.000711,0.001669,0.0,0.0,0.0,-0.003748,-0.509572,0.00016,0.162639,-264.400763,-0.394004,62.681783
6.6256,-0.003636,0.00048,0.001326,0.0,0.0,0.0,-0.00325,-0.509411,0.001017,0.162639,-264.400763,-0.394004,62.681783
6.6458,-0.004016,0.000761,0.000729,9.9e-05,-1.3e-05,0.0,-0.00325,-0.509411,0.001017,0.162639,-264.400763,-0.394004,62.681783
6.666,-0.003944,0.000414,0.000195,9.9e-05,-1.3e-05,0.0,-0.003644,-0.509239,0.000729,0.162639,-264.400763,-0.394004,62.681783
6.6861,-0.003675,0.000463,0.000551,9.9e-05,-1.3e-05,0.0,-0.003659,-0.509264,0.00069,0.162639,-264.400763,-0.394004,62.681783
6.7058,-0.003489,0.000326,7e-05,9.9e-05,-1.3e-05,0.0,-0.003394,-0.509537,0.000551,0.087555,-264.40076,-0.318919,62.681787
6.7258,-0.00385,0.000652,0.001661,9.9e-05,-1.3e-05,0.0,-0.003427,-0.509614,0.000281,0.087555,-264.40076,-0.318919,62.681787
6.7458,-0.003487,0.000738,4.8e-05,9.9e-05,-1.3e-05,0.0,-0.003427,-0.509614,0.000281,0.087555,-264.40076,-0.318919,62.681787
6.7658,-0.003446,0.000506,0.000909,9.9e-05,-1.3e-05,0.0,-0.003461,-0.509263,4.8e-05,0.012522,-264.400749,-0.243886,62.681797
6.7857,-0.003852,0.000426,-0.000889,9.9e-05,-1.3e-05,0.0,-0.00343,-0.509278,0.000104,0.012522,-264.400749,-0.243886,62.681797
6.8063,-0.003648,0.000424,2e-05,9.9e-05,-1.3e-05,0.0,-0.004303,-0.509574,-0.000889,-0.062357,-264.400726,-0.169007,62.68182
6.8257,-0.003657,-8.8e-05,0.001651,9.9e-05,-1.3e-05,0.0,-0.003925,-0.509575,-0.000372,-0.062357,-264.400726,-0.169007,62.68182
6.846,-0.003978,0.000423,0.002387,9.9e-05,-1.3e-05,0.0,-0.003925,-0.509575,-0.000372,-0.062357,-264.400726,-0.169007,62.68182
6.8657,-0.003682,0.000599,0.00292,0.00053,-7.1e-05,-0.000194,-0.002756,-0.509576,0.002387,-0.132531,-264.40069,-0.132531,62.681857
6.8859,-0.003656,0.000513,0.000939,0.001035,-0.000138,-0.000378,-0.00272,-0.509565,0.002421,-0.132531,-264.40069,-0.132531,62.681857
6.9058,-0.003818,0.000525,0.000318,0.001512,-0.000202,-0.000552,-0.003174,-0.509487,0.000939,-0.132531,-264.40065,-0.132531,62.681897
6.9258,-0.003703,0.000485,-0.000324,0.001962,-0.000262,-0.000716,-0.003448,-0.50948,0.000585,-0.132531,-264.40065,-0.132531,62.681897
6.9458,-0.00358,0.00044,0.000112,0.002385,-0.000318,-0.00087,-0.003448,-0.50948,0.000585,-0.132531,-264.40065,-0.132531,62.681897
6.9658,-0.003932,0.000755,0.001039,0.00278,-0.000371,-0.001014,-0.003512,-0.509561,0.000111,-0.207523,-264.400552,-0.057538,62.681989
6.9859,-0.003695,0.00069,0.00017,0.003148,-0.00042,-0.001149,-0.003504,-0.509539,0.000176,-0.207523,-264.400552,-0.057538,62.681989
7.0062,-0.00351,0.000341,-0.001011,0.003489,-0.000465,-0.001273,-0.003559,-0.509317,0.000158,-0.28253,-264.400017,0.017469,62.682496
7.026,-0.003694,0.000772,-4e-06,0.003804,-0.000507,-0.001388,-0.003819,-0.509513,-0.000512,-0.28253,-264.400017,0.017469,62.682496
7.0458,-0.003538,0.000333,0.000202,0.004089,-0.000545,-0.001492,-0.003819,-0.509513,-0.000512,-0.28253,-264.400017,0.017469,62.682496
7.0659,-0.0033,0.0004,0.001727,0.004349,-0.00058,-0.001587,-0.003302,-0.509685,0.000153,-0.342139,-264.398852,0.089283,62.683597
7.0857,-0.003523,0.000201,-0.000504,0.00458,-0.000611,-0.001671,-0.003234,-0.509679,0.000267,-0.342139,-264.398852,0.089283,62.683597
7.1061,-0.003178,0.000441,2e-05,0.004785,-0.000638,-0.001746,-0.003622,-0.50982,-0.000562,-0.342139,-264.397119,0.089283,62.685236
7.1259,-0.003352,0.000729,0.000637,0.004962,-0.000661,-0.00181,-0.003343,-0.509674,-0.000238,-0.342139,-264.397119,0.089283,62.685236
7.146,-0.003004,0.000294,0.001941,0.005112,-0.000681,-0.001865,-0.003343,-0.509674,-0.000238,-0.342139,-264.397119,0.089283,62.685236
7.1661,-0.00313,0.000612,0.001994,0.005235,-0.000698,-0.00191,-0.001791,-0.509734,0.00186,-0.342139,-264.395174,0.089283,62.687076
7.1858,-0.002698,0.000141,2.1e-05,0.00533,-0.000711,-0.001945,-0.001807,-0.509711,0.001867,-0.342139,-264.395174,0.089283,62.687076
