mach0312/omni-docking-bench/src/icros_test_setup/results/kinematic_sample/timeseries/trial_057.csv
t,x,y,yaw,vx,vy,wz,bl_x,bl_y,bl_yaw,front_steering_joint,front_wheel_joint,rear_steering_joint,rear_wheel_joint
0.0,-0.021441,-0.029482,0.031082,0.007438,-0.002234,0.004911,-0.005645,-0.539062,0.032822,0.10259,-264.722494,-0.613181,61.956704
0.0005,-0.021159,-0.029529,0.032994,0.006543,-0.001965,0.004321,-0.005645,-0.539062,0.032822,0.10259,-264.71949,-0.613181,61.960358
0.0008,-0.021461,-0.029592,0.032213,0.006261,-0.001881,0.004135,-0.005908,-0.538979,0.030924,0.10259,-264.716526,-0.613181,61.963963
0.0012,-0.021092,-0.029459,0.033729,0.005945,-0.001786,0.003926,-0.005908,-0.538979,0.030924,0.10259,-264.713659,-0.613181,61.96745
0.0015,-0.021302,-0.029629,0.034029,0.005593,-0.00168,0.003693,-0.005838,-0.538969,0.031081,0.10259,-264.711028,-0.613181,61.97065
0.0018,-0.021302,-0.029509,0.033997,0.005201,-0.001562,0.003435,-0.005838,-0.538969,0.031081,0.10259,-264.708638,-0.613181,61.973558
0.002,-0.020823,-0.029386,0.034486,0.004772,-0.001433,0.003151,-0.004924,-0.539244,0.033356,0.10259,-264.706716,-0.613181,61.975895
0.0023,-0.021024,-0.029547,0.03252,0.004306,-0.001293,0.002844,-0.005111,-0.539379,0.032996,0.10259,-264.706716,-0.613181,61.975895
0.0025,-0.020731,-0.029681,0.033921,0.003803,-0.001142,0.002511,-0.005111,-0.539379,0.032996,0.10259,-264.706716,-0.613181,61.975895
0.0028,-0.020956,-0.029948,0.034011,0.00326,-0.000979,0.002153,-0.005111,-0.539379,0.032996,0.10259,-264.706716,-0.613181,61.975895
0.0185,-0.021195,-0.029911,0.035132,0.018682,0.015194,-0.028229,-0.003764,-0.539368,0.033387,0.10259,-264.706716,-0.613181,61.975895
0.0384,-0.02069,-0.029997,0.03266,0.022233,0.029148,-0.035132,-0.003095,-0.539646,0.035254,0.10259,-264.705187,-0.613181,61.977755
0.0587,-0.020639,-0.029916,0.034767,0.021658,0.029305,-0.03266,-0.003155,-0.539652,0.035077,0.10259,-264.705187,-0.613181,61.977755
0.0783,-0.020717,-0.029978,0.034623,0.021666,0.02918,-0.034767,-0.002911,-0.539608,0.034767,0.027592,-264.705187,-0.538183,61.977755
0.0986,-0.02058,-0.030064,0.032436,0.021743,0.029243,-0.034623,-0.002998,-0.539645,0.034685,0.027592,-264.705187,-0.538183,61.977755
0.1187,-0.02076,-0.029879,0.032476,0.021544,0.029381,-0.032436,-0.002998,-0.539645,0.034685,0.027592,-264.705187,-0.538183,61.977755
0.1385,-0.020728,-0.030027,0.033635,0.021719,0.02919,-0.032476,-0.0042,-0.53961,0.032476,0.102601,-264.705187,-0.463174,61.977756
0.1588,-0.020984,-0.030167,0.033468,0.021726,0.029313,-0.033635,-0.004158,-0.539619,0.032554,0.102601,-264.705187,-0.463174,61.977756
0.1788,-0.020593,-0.029985,0.032703,0.021982,0.029448,-0.033468,-0.003919,-0.539882,0.033468,0.177575,-264.705186,-0.3882,61.977756
0.1985,-0.020737,-0.030161,0.034233,0.021563,0.029296,-0.032703,-0.003918,-0.539786,0.033035,0.177575,-264.705186,-0.3882,61.977756
0.2186,-0.020968,-0.029947,0.034837,0.021757,0.029434,-0.034233,-0.003918,-0.539786,0.033035,0.177575,-264.705186,-0.3882,61.977756
0.2383,-0.020874,-0.029774,0.034023,0.021999,0.029199,-0.034837,-0.003205,-0.539638,0.034837,0.252506,-264.705186,-0.313269,61.977757
0.2592,-0.020864,-0.029451,0.034926,0.021875,0.029047,-0.034023,-0.003226,-0.539627,0.034782,0.252506,-264.705186,-0.313269,61.977757
0.2786,-0.020749,-0.029999,0.034069,0.021879,0.028705,-0.034926,-0.003055,-0.53914,0.034926,0.327499,-264.705185,-0.238275,61.977759
0.2984,-0.020758,-0.029732,0.032713,0.021759,0.029275,-0.034069,-0.003238,-0.539461,0.034438,0.327499,-264.705185,-0.238275,61.977759
0.3185,-0.020951,-0.029828,0.034428,0.021719,0.029037,-0.032713,-0.003238,-0.539461,0.034438,0.327499,-264.705185,-0.238275,61.977759
0.3385,-0.020416,-0.029675,0.033282,0.021966,0.029089,-0.034428,-0.003396,-0.539526,0.034428,0.361357,-264.705184,-0.163229,61.977761
0.3586,-0.021036,-0.029536,0.035167,0.021392,0.028979,-0.033282,-0.0034,-0.539516,0.034345,0.361357,-264.705184,-0.163229,61.977761
0.3783,-0.020897,-0.02996,0.034218,0.022061,0.028778,-0.035167,-0.003104,-0.539221,0.035167,0.395115,-264.705183,-0.088044,61.977763
0.3989,-0.020815,-0.029698,0.034024,0.02191,0.029227,-0.034218,-0.003302,-0.539473,0.034623,0.395115,-264.705183,-0.088044,61.977763
0.4184,-0.02073,-0.029978,0.034163,0.021813,0.028973,-0.034024,-0.003302,-0.539473,0.034623,0.395115,-264.705183,-0.088044,61.977763
0.4388,-0.02079,-0.029804,0.03368,0.021742,0.029252,-0.034163,-0.00331,-0.53968,0.034163,0.384354,-264.705182,-0.013187,61.977765
0.4587,-0.020657,-0.03007,0.032987,0.021782,0.029087,-0.03368,-0.003334,-0.539667,0.034126,0.384354,-264.705182,-0.013187,61.977765
0.4785,-0.020903,-0.029669,0.034574,0.021638,0.029372,-0.032987,-0.003837,-0.539793,0.032987,0.359291,-264.705182,0.062006,61.977767
0.4983,-0.020822,-0.029598,0.035254,0.021916,0.028928,-0.034574,-0.003514,-0.539547,0.033896,0.359291,-264.705182,0.062006,61.977767
0.5186,-0.020638,-0.029943,0.034981,0.021852,0.028846,-0.035254,-0.003514,-0.539547,0.033896,0.359291,-264.705182,0.062006,61.977767
0.5383,-0.020652,-0.030047,0.035741,0.021672,0.029203,-0.034981,-0.002801,-0.539631,0.034981,0.372736,-264.705181,0.136834,61.97777
0.5588,-0.020531,-0.029898,0.033256,0.021712,0.02929,-0.035741,-0.002776,-0.539637,0.035031,0.372736,-264.705181,0.136834,61.97777
0.5789,-0.020711,-0.029829,0.035574,0.021514,0.029199,-0.033256,-0.003574,-0.539616,0.033256,0.323017,-264.70518,0.211741,61.977772
0.5984,-0.020492,-0.029719,0.03227,0.021759,0.029074,-0.035574,-0.002991,-0.539552,0.034604,0.323017,-264.70518,0.211741,61.977772
0.6184,-0.020727,-0.029832,0.03205,0.021441,0.029042,-0.03227,-0.002991,-0.539552,0.034604,0.323017,-264.70518,0.211741,61.977772
0.6383,-0.020738,-0.029907,0.033719,0.021672,0.029153,-0.03205,-0.004384,-0.53957,0.03205,0.330998,-264.705179,0.287153,61.977774
0.6585,-0.02095,-0.029917,0.034228,0.021734,0.02919,-0.033719,-0.004323,-0.539573,0.032172,0.330998,-264.705179,0.287153,61.977774
0.6785,-0.020697,-0.029843,0.03522,0.021961,0.029182,-0.034228,-0.003497,-0.539618,0.034228,0.405728,-264.705178,0.361884,61.977776
0.6985,-0.02063,-0.029624,0.034851,0.021735,0.029095,-0.03522,-0.003069,-0.539566,0.034788,0.405728,-264.705178,0.361884,61.977776
0.7188,-0.020724,-0.029836,0.032932,0.02165,0.028887,-0.034851,-0.003069,-0.539566,0.034788,0.405728,-264.705178,0.361884,61.977776
0.7389,-0.020875,-0.029871,0.033442,0.021696,0.029137,-0.032932,-0.003932,-0.539559,0.032931,0.376646,-264.705177,0.436744,61.977778
0.7583,-0.020952,-0.030014,0.035052,0.021862,0.029156,-0.033442,-0.003925,-0.539561,0.032965,0.376646,-264.705177,0.436744,61.977778
0.7788,-0.020654,-0.029994,0.033114,0.021991,0.029261,-0.035052,-0.003078,-0.5397,0.035052,0.337682,-264.705175,0.511749,61.977782
0.7988,-0.02062,-0.029794,0.034239,0.021635,0.029294,-0.033114,-0.003471,-0.539708,0.03395,0.337682,-264.705175,0.511749,61.977782
0.8186,-0.020726,-0.02982,0.0343,0.021627,0.02907,-0.034239,-0.003471,-0.539708,0.03395,0.337682,-264.705175,0.511749,61.977782
0.8387,-0.021035,-0.03003,0.031846,0.021737,0.029092,-0.0343,-0.003236,-0.539519,0.034299,0.379972,-264.705167,0.586756,61.977801
0.8588,-0.020437,-0.029715,0.034785,0.021981,0.029345,-0.031846,-0.003339,-0.539536,0.034137,0.379972,-264.705167,0.586756,61.977801
0.8782,-0.020419,-0.029971,0.0339,0.021458,0.028986,-0.034785,-0.002696,-0.539403,0.034782,0.360737,-264.705133,0.661733,61.977881
0.8986,-0.020852,-0.030144,0.035113,0.021423,0.029262,-0.0339,-0.002942,-0.539558,0.034285,0.360737,-264.705133,0.661733,61.977881
0.9183,-0.020623,-0.029515,0.034199,0.021898,0.029393,-0.035113,-0.002942,-0.539558,0.034285,0.360737,-264.705133,0.661733,61.977881
0.9387,-0.020551,-0.029753,0.033928,0.02162,0.028793,-0.034199,-0.003158,-0.539195,0.03418,0.422988,-264.704956,0.736885,61.978275
0.9589,-0.020695,-0.029766,0.033428,0.021549,0.029038,-0.033928,-0.003163,-0.539213,0.034162,0.422988,-264.704956,0.736885,61.978275
0.9784,-0.020495,-0.029961,0.033397,0.021678,0.029058,-0.033428,-0.003599,-0.539438,0.033382,0.348178,-264.704536,0.811727,61.979271
0.999,-0.020746,-0.02973,0.033889,0.021484,0.02926,-0.033397,-0.003516,-0.539569,0.033385,0.348178,-264.704536,0.811727,61.979271
1.0184,-0.020332,-0.029921,0.034141,0.021742,0.02901,-0.033889,-0.003516,-0.539569,0.033385,0.348178,-264.704536,0.811727,61.979271
1.0385,-0.020431,-0.029656,0.032961,0.021342,0.029209,-0.034141,-0.002748,-0.539454,0.033963,0.368348,-264.703303,0.88686,61.982166
1.0591,-0.020408,-0.029455,0.033267,0.021397,0.028967,-0.032961,-0.002806,-0.539444,0.033886,0.368348,-264.703303,0.88686,61.982166
1.0791,-0.020101,-0.029219,0.033621,0.021377,0.02876,-0.033267,-0.003178,-0.538902,0.032997,0.36518,-264.700484,0.961759,61.987566
1.0984,-0.01969,-0.029364,0.033955,0.021072,0.028526,-0.033621,-0.003019,-0.538884,0.033318,0.36518,-264.700484,0.961759,61.987566
1.1184,-0.01987,-0.029391,0.033244,0.020675,0.028678,-0.033955,-0.003019,-0.538884,0.033318,0.36518,-264.700484,0.961759,61.987566
1.1387,-0.019075,-0.028902,0.033837,0.020836,0.028714,-0.033244,-0.00242,-0.538567,0.032753,0.391637,-264.695618,1.036845,61.995462
1.1588,-0.018734,-0.028697,0.032529,0.020042,0.02824,-0.033837,-0.002362,-0.538555,0.032819,0.391637,-264.695618,1.036845,61.995462
1.1785,-0.01799,-0.027976,0.032402,0.019658,0.028072,-0.032529,-0.001653,-0.53785,0.031977,0.366665,-264.689159,1.111834,62.005843
1.1987,-0.018264,-0.028527,0.031901,0.018886,0.027378,-0.032402,-0.001485,-0.537696,0.032148,0.366665,-264.689159,1.111834,62.005843
1.2188,-0.018071,-0.028037,0.033802,0.019164,0.02793,-0.031901,-0.001485,-0.537696,0.032148,0.366665,-264.689159,1.111834,62.005843
1.2384,-0.016557,-0.026934,0.030148,0.019008,0.02741,-0.033802,-0.000118,-0.536825,0.032893,0.361328,-264.681229,1.181861,62.018754
1.2589,-0.016922,-0.026699,0.031391,0.017362,0.026423,-0.030148,-0.000173,-0.536792,0.032675,0.361328,-264.681229,1.181861,62.018754
1.2782,-0.015615,-0.025912,0.029182,0.017752,0.026155,-0.031391,-0.00031,-0.535584,0.030518,0.415129,-264.673234,1.186681,62.03415
1.2984,-0.01534,-0.025918,0.029638,0.016364,0.025445,-0.029182,-0.000476,-0.535538,0.029644,0.415129,-264.673234,1.186681,62.03415
1.3185,-0.015283,-0.025763,0.030541,0.016101,0.025452,-0.029638,-0.000476,-0.535538,0.029644,0.415129,-264.673234,1.186681,62.03415
1.3382,-0.014253,-0.02452,0.028402,0.016063,0.025285,-0.030541,0.001064,-0.534297,0.0292,0.43224,-264.665656,1.201345,62.052028
1.3582,-0.014074,-0.024657,0.027861,0.014944,0.024105,-0.028402,0.001026,-0.534265,0.029107,0.43224,-264.665656,1.201345,62.052028
1.3782,-0.012435,-0.023075,0.025767,0.014756,0.024255,-0.027861,0.000725,-0.533464,0.026721,0.42828,-264.658596,1.216686,62.070548
1.3988,-0.01218,-0.023124,0.027704,0.013026,0.022747,-0.025767,0.000788,-0.533018,0.02603,0.42828,-264.658596,1.216686,62.070548
1.4182,-0.012462,-0.023563,0.026347,0.012816,0.022778,-0.027704,0.000788,-0.533018,0.02603,0.42828,-264.658596,1.216686,62.070548
1.4386,-0.010848,-0.021883,0.025496,0.013078,0.023227,-0.026347,0.001668,-0.5322,0.02497,0.424744,-264.652053,1.224789,62.088127
1.4588,-0.010744,-0.02202,0.025839,0.011403,0.021599,-0.025496,0.00172,-0.532135,0.02497,0.424744,-264.652053,1.224789,62.088127
1.4787,-0.009556,-0.020921,0.023518,0.01131,0.021735,-0.025839,0.002902,-0.530963,0.024775,0.428684,-264.64652,1.258517,62.104508
1.4984,-0.009588,-0.020681,0.023008,0.010045,0.02069,-0.023518,0.0027,-0.530752,0.023942,0.428684,-264.64652,1.258517,62.104508
1.5188,-0.009255,-0.020578,0.023749,0.010062,0.020455,-0.023008,0.0027,-0.530752,0.023942,0.428684,-264.64652,1.258517,62.104508
1.5385,-0.008904,-0.019841,0.022745,0.009741,0.020353,-0.023749,0.00336,-0.529423,0.022569,0.48626,-264.641644,1.273148,62.119206
1.5582,-0.008375,-0.019928,0.022877,0.009353,0.019634,-0.022745,0.003335,-0.529418,0.022555,0.48626,-264.641644,1.273148,62.119206
1.5783,-0.007686,-0.018858,0.02273,0.008828,0.019732,-0.022877,0.003625,-0.529079,0.022078,0.561263,-264.637357,1.287077,62.132128
1.5986,-0.007438,-0.018802,0.02048,0.008112,0.018678,-0.02273,0.003827,-0.528787,0.022347,0.561263,-264.637357,1.287077,62.132128
1.6185,-0.00756,-0.018567,0.021082,0.007822,0.018646,-0.02048,0.003827,-0.528787,0.022347,0.561263,-264.637357,1.287077,62.132128
1.6383,-0.00624,-0.017836,0.020729,0.00795,0.018404,-0.021082,0.003625,-0.527494,0.019981,0.55062,-264.632984,1.298733,62.145995
1.6585,-0.006554,-0.017692,0.020737,0.006609,0.017703,-0.020729,0.003685,-0.527485,0.020003,0.55062,-264.632984,1.298733,62.145995
1.6785,-0.005532,-0.017314,0.019527,0.006919,0.017553,-0.020737,0.004255,-0.527006,0.020096,0.625634,-264.629799,1.324814,62.156284
1.6986,-0.006313,-0.017096,0.01956,0.005869,0.017203,-0.019527,0.004382,-0.527052,0.019691,0.625634,-264.629799,1.324814,62.156284
1.7193,-0.00558,-0.017188,0.020778,0.006646,0.01697,-0.01956,0.004382,-0.527052,0.019691,0.625634,-264.629799,1.324814,62.156284
1.7388,-0.005027,-0.016052,0.01799,0.005935,0.017068,-0.020778,0.005313,-0.526233,0.019796,0.65183,-264.626563,1.356487,62.168382
1.7586,-0.005174,-0.016097,0.019376,0.005315,0.015959,-0.01799,0.005244,-0.526194,0.019652,0.65183,-264.626563,1.356487,62.168382
1.7788,-0.00396,-0.015557,0.017675,0.005485,0.015994,-0.019376,0.004951,-0.525343,0.018623,0.647194,-264.623238,1.344867,62.180221
1.7984,-0.004371,-0.015296,0.019575,0.004235,0.015484,-0.017675,0.00504,-0.525336,0.017988,0.647194,-264.623238,1.344867,62.180221
1.8186,-0.004115,-0.015352,0.017575,0.004669,0.015207,-0.019575,0.00504,-0.525336,0.017988,0.647194,-264.623238,1.344867,62.180221
1.8382,-0.003738,-0.015309,0.018046,0.004384,0.015277,-0.017575,0.005053,-0.524631,0.016847,0.722169,-264.620835,1.376044,62.18929
1.8583,-0.003907,-0.014555,0.017529,0.004014,0.015239,-0.018046,0.005085,-0.524654,0.016907,0.722169,-264.620835,1.376044,62.18929
1.8788,-0.003093,-0.014095,0.017638,0.004162,0.014484,-0.017529,0.005167,-0.523998,0.016925,0.64716,-264.619004,1.400557,62.19816
1.8988,-0.003304,-0.013951,0.01529,0.003341,0.014038,-0.017638,0.005601,-0.523948,0.017253,0.64716,-264.619004,1.400557,62.19816
1.9191,-0.00305,-0.014248,0.016542,0.003517,0.013899,-0.01529,0.005601,-0.523948,0.017253,0.64716,-264.619004,1.400557,62.19816
1.9383,-0.00277,-0.01352,0.01683,0.003285,0.014195,-0.016542,0.005511,-0.523701,0.015963,0.722157,-264.617493,1.419121,62.205055
1.9583,-0.002575,-0.013353,0.015439,0.002997,0.013471,-0.01683,0.005535,-0.523671,0.016008,0.722157,-264.617493,1.419121,62.205055
1.9783,-0.001979,-0.01297,0.015659,0.002781,0.013311,-0.015439,0.005375,-0.522998,0.015105,0.797154,-264.616219,1.420594,62.210255
1.9984,-0.002219,-0.013737,0.014701,0.002181,0.012937,-0.015659,0.005744,-0.522909,0.015378,0.797154,-264.616219,1.420594,62.210255
2.0183,-0.002292,-0.013056,0.015502,0.002421,0.013703,-0.014701,0.005744,-0.522909,0.015378,0.797154,-264.616219,1.420594,62.210255
2.0384,-0.001756,-0.012715,0.014563,0.002494,0.013019,-0.015502,0.005735,-0.522452,0.014867,0.816879,-264.614495,1.445257,62.217955
2.0582,-0.001625,-0.012464,0.01533,0.001941,0.012688,-0.014563,0.005734,-0.522452,0.014829,0.816879,-264.614495,1.445257,62.217955
2.0788,-0.001803,-0.012582,0.01458,0.001816,0.012437,-0.01533,0.006221,-0.522259,0.015167,0.891875,-264.613905,1.464465,62.22049
2.0984,-0.001664,-0.012779,0.015147,0.001986,0.012554,-0.01458,0.00589,-0.522394,0.014812,0.891875,-264.613905,1.464465,62.22049
2.1183,-0.001722,-0.012475,0.015695,0.001857,0.012752,-0.015147,0.00589,-0.522394,0.014812,0.891875,-264.613905,1.464465,62.22049
2.1382,-0.001469,-0.011937,0.01394,0.001917,0.012446,-0.015695,0.006331,-0.522105,0.015334,0.966873,-264.613049,1.481091,62.224844
2.1582,-0.001775,-0.01239,0.013847,0.001635,0.011916,-0.01394,0.006284,-0.522082,0.015226,0.966873,-264.613049,1.481091,62.224844
2.1783,-0.001228,-0.011489,0.012934,0.001946,0.012365,-0.013847,0.00534,-0.521958,0.013394,1.041872,-264.611772,1.486582,62.231699
2.1984,-0.001177,-0.011504,0.013432,0.001377,0.011472,-0.012934,0.005363,-0.521617,0.013074,1.041872,-264.611772,1.486582,62.231699
2.2185,-0.000833,-0.011501,0.013891,0.001331,0.011487,-0.013432,0.005363,-0.521617,0.013074,1.041872,-264.611772,1.486582,62.231699
2.2385,-0.000532,-0.011133,0.014112,0.000993,0.011489,-0.013891,0.006316,-0.52093,0.013281,1.116929,-264.610405,1.490923,62.23912
2.2582,-0.000754,-0.010876,0.011684,0.00069,0.011124,-0.014112,0.006347,-0.520926,0.013332,1.116929,-264.610405,1.490923,62.23912
2.2787,-0.000365,-0.010732,0.014042,0.000881,0.010867,-0.011684,0.005247,-0.520434,0.011207,1.185635,-264.609102,1.503286,62.246381
2.2982,-0.000213,-0.010371,0.011898,0.000516,0.010725,-0.014042,0.006134,-0.520523,0.01276,1.185635,-264.609102,1.503286,62.246381
2.3183,-0.000437,-0.010299,0.013401,0.000337,0.010368,-0.011898,0.006134,-0.520523,0.01276,1.185635,-264.609102,1.503286,62.246381
2.3384,0.000169,-0.00998,0.012032,0.000575,0.010292,-0.013401,0.00642,-0.519826,0.012858,1.260208,-264.60828,1.535887,62.252628
2.3586,0.00019,-0.010157,0.011579,0.000575,0.010292,-0.013401,0.006413,-0.519823,0.012785,1.260208,-264.60828,1.535887,62.252628
2.3784,0.000448,-0.009624,0.011624,-1e-06,0.0001,0.0,0.006104,-0.519918,0.011342,1.335204,-264.607638,1.55171,62.256257
2.3982,0.000179,-0.009951,0.012277,-1e-06,0.0001,0.0,0.00626,-0.519705,0.011472,1.335204,-264.607638,1.55171,62.256257
2.4183,0.000154,-0.009881,0.010935,-1e-06,0.0001,0.0,0.00626,-0.519705,0.011472,1.335204,-264.607638,1.55171,62.256257
2.4382,0.000412,-0.009841,0.010126,-1e-06,0.0001,0.0,0.005752,-0.519428,0.010408,1.304541,-264.60678,1.539697,62.262386
2.4587,0.000581,-0.009606,0.011526,-1e-06,0.0001,0.0,0.00574,-0.519444,0.010374,1.304541,-264.60678,1.539697,62.262386
2.4783,0.000505,-0.009426,0.011356,-1e-06,0.0001,0.0,0.006459,-0.519571,0.011526,1.379537,-264.606768,1.577969,62.262398
2.4985,0.000472,-0.009189,0.011206,-1e-06,0.0001,0.0,0.006366,-0.519469,0.011429,1.379537,-264.606768,1.577969,62.262398
2.5185,0.000112,-0.009263,0.011381,-1e-06,0.0001,0.0,0.006366,-0.519469,0.011429,1.379537,-264.606768,1.577969,62.262398
2.5385,0.000468,-0.009519,0.012227,-1e-06,0.0001,0.0,0.005917,-0.519227,0.011381,1.454647,-264.606747,1.577969,62.262419
2.5588,0.000414,-0.00931,0.010468,-1e-06,0.0001,0.0,0.005978,-0.519247,0.011447,1.454647,-264.606747,1.577969,62.262419
2.5784,0.000299,-0.009411,0.010041,-0.0,2e-06,-2e-06,0.005753,-0.519279,0.010468,1.529907,-264.606715,1.577969,62.26245
2.5985,0.000304,-0.00952,0.010625,-1.1e-05,0.001515,-0.001727,0.005566,-0.519338,0.010228,1.529907,-264.606715,1.577969,62.26245
2.6187,0.000148,-0.009257,0.011753,-2.1e-05,0.002896,-0.003301,0.005566,-0.519338,0.010228,1.529907,-264.606715,1.577969,62.26245
2.6388,0.000266,-0.009625,0.01196,-3.1e-05,0.004262,-0.004858,0.006142,-0.519217,0.011753,1.577969,-264.606677,1.577969,62.262489
2.6584,0.000519,-0.008923,0.010855,-3.9e-05,0.005492,-0.00626,0.006157,-0.519242,0.011767,1.577969,-264.606677,1.577969,62.262489
2.6783,0.000682,-0.00943,0.012057,-4.8e-05,0.006668,-0.0076,0.006053,-0.518781,0.010728,1.594396,-264.606326,1.575025,62.264445
2.6985,0.000353,-0.009261,0.011603,-5.6e-05,0.007778,-0.008865,0.006495,-0.519115,0.011467,1.594396,-264.606326,1.575025,62.264445
2.7188,0.000787,-0.009295,0.011204,-6.3e-05,0.008801,-0.010031,0.006495,-0.519115,0.011467,1.594396,-264.606326,1.575025,62.264445
2.739,0.000499,-0.00905,0.009899,-7e-05,0.009758,-0.011122,0.006496,-0.518996,0.0109,1.594396,-264.605658,1.575025,62.268172
2.7588,0.000506,-0.008799,0.010704,-7.6e-05,0.010629,-0.012115,0.006433,-0.518991,0.010825,1.594396,-264.605658,1.575025,62.268172
2.7789,0.000984,-0.008494,0.010085,-8.2e-05,0.01143,-0.013028,0.005959,-0.51843,0.010316,1.594396,-264.604589,1.575025,62.274143
2.7984,0.000618,-0.008721,0.012731,-8.7e-05,0.012152,-0.013851,0.006054,-0.518409,0.010136,1.594396,-264.604589,1.575025,62.274143
2.8187,0.00071,-0.008777,0.010321,-9.2e-05,0.0128,-0.014589,0.006054,-0.518409,0.010136,1.594396,-264.604589,1.575025,62.274143
2.8386,0.001246,-0.007838,0.008346,-9.6e-05,0.013372,-0.015241,0.005965,-0.518233,0.009732,1.594396,-264.603297,1.575025,62.281352
2.8588,0.001101,-0.008214,0.010775,-9.9e-05,0.013867,-0.015806,0.005934,-0.518192,0.009624,1.594396,-264.603297,1.575025,62.281352
2.8784,0.00168,-0.007466,0.007781,-0.000102,0.014286,-0.016284,0.006587,-0.517686,0.010207,1.594396,-264.601741,1.575025,62.290036
2.8986,0.001386,-0.007611,0.009594,-0.000105,0.01463,-0.016675,0.006059,-0.517492,0.008774,1.594396,-264.601741,1.575025,62.290036
2.9185,0.001805,-0.007201,0.009175,-0.000107,0.014896,-0.016979,0.006059,-0.517492,0.008774,1.594396,-264.601741,1.575025,62.290036
2.9389,0.002293,-0.006817,0.007156,-0.000108,0.015087,-0.017196,0.006474,-0.516503,0.008404,1.594396,-264.600054,1.575025,62.299445
2.959,0.001542,-0.007196,0.005631,-0.000109,0.015201,-0.017326,0.00644,-0.516506,0.008306,1.594396,-264.600054,1.575025,62.299445
2.9785,0.002441,-0.005641,0.006516,-0.000109,0.015238,-0.017369,0.004407,-0.516612,0.004974,1.594396,-264.598243,1.575025,62.309552
2.9984,0.0025,-0.00636,0.007487,-0.000109,0.015199,-0.017324,0.005175,-0.515982,0.005765,1.594396,-264.598243,1.575025,62.309552
3.019,0.002413,-0.006121,0.004669,-0.000108,0.015086,-0.017195,0.005175,-0.515982,0.005765,1.594396,-264.598243,1.575025,62.309552
3.0388,0.002751,-0.00525,0.005736,-0.000107,0.014894,-0.016976,0.004786,-0.515373,0.003823,1.594396,-264.596382,1.575025,62.319942
3.0589,0.002656,-0.004929,0.007283,-0.000105,0.014627,-0.016672,0.004856,-0.515341,0.00395,1.594396,-264.596382,1.575025,62.319942
3.0783,0.003117,-0.004223,0.004198,-0.000102,0.014284,-0.016281,0.006363,-0.514338,0.006625,1.594396,-264.594561,1.575025,62.330102
3.0982,0.003349,-0.004274,0.004634,-9.9e-05,0.013866,-0.015805,0.005735,-0.514196,0.005163,1.594396,-264.594561,1.575025,62.330102
3.1186,0.00345,-0.004157,0.005399,-9.6e-05,0.013372,-0.015241,0.005735,-0.514196,0.005163,1.594396,-264.594561,1.575025,62.330102
3.1388,0.004151,-0.003617,0.005711,-9.2e-05,0.012797,-0.014586,0.006195,-0.513437,0.004587,1.594396,-264.592783,1.575025,62.340024
3.1592,0.004081,-0.003528,0.005751,-8.7e-05,0.012152,-0.013851,0.00625,-0.513431,0.004639,1.594396,-264.592783,1.575025,62.340024
3.1784,0.004106,-0.003198,0.003552,-8.2e-05,0.011423,-0.01302,0.007008,-0.512998,0.005156,1.594396,-264.591157,1.575025,62.349097
3.1986,0.004292,-0.003043,0.002669,-7.6e-05,0.010624,-0.012109,0.006397,-0.513044,0.004185,1.594396,-264.591157,1.575025,62.349097
3.2188,0.003837,-0.003205,0.002222,-7e-05,0.009747,-0.01111,0.006397,-0.513044,0.004185,1.594396,-264.591157,1.575025,62.349097
3.2383,0.004344,-0.002194,0.003562,-6.3e-05,0.0088,-0.01003,0.004965,-0.512612,0.001548,1.594396,-264.58968,1.575025,62.357341
3.2583,0.004524,-0.002302,0.002625,-5.6e-05,0.00777,-0.008857,0.005042,-0.51257,0.001662,1.594396,-264.58968,1.575025,62.357341
3.2788,0.004292,-0.00228,0.002236,-4.8e-05,0.006665,-0.007597,0.005859,-0.511924,0.002195,1.594396,-264.588494,1.575025,62.36396
3.2985,0.004836,-0.001897,0.002478,-3.9e-05,0.005487,-0.006254,0.005615,-0.512079,0.002164,1.594396,-264.588494,1.575025,62.36396
3.3184,0.004689,-0.002272,0.002871,-3e-05,0.004229,-0.00482,0.005615,-0.512079,0.002164,1.594396,-264.588494,1.575025,62.36396
3.3385,0.004927,-0.001543,0.003544,-2.1e-05,0.002891,-0.003295,0.006149,-0.511893,0.00244,1.594396,-264.587545,1.575025,62.369254
3.3582,0.005083,-0.001652,0.00182,-1.1e-05,0.001486,-0.001694,0.006195,-0.511853,0.002515,1.594396,-264.587545,1.575025,62.369254
3.3782,0.005246,-0.001261,0.003467,0.0,0.0,0.0,0.00601,-0.511489,0.001635,1.594396,-264.587033,1.575025,62.372111
3.3981,0.004986,-0.001354,0.001513,0.0,0.0,0.0,0.006586,-0.511336,0.002662,1.594396,-264.587033,1.575025,62.372111
3.4185,0.004859,-0.001234,0.001781,0.0,0.0,0.0,0.006586,-0.511336,0.002662,1.594396,-264.587033,1.575025,62.372111
3.4382,0.004784,-0.001463,0.002674,0.0,0.0,0.0,0.005766,-0.511161,0.001699,1.594396,-264.586852,1.575025,62.373121
3.4583,0.005205,-0.001212,0.001276,0.0,0.0,0.0,0.005795,-0.511182,0.001771,1.594396,-264.586852,1.575025,62.373121
3.4784,0.00485,-0.001397,0.003126,0.0,0.0,0.0,0.005855,-0.511212,0.001276,1.594396,-264.586852,1.575025,62.373121
3.4983,0.005299,-0.001494,0.00198,0.0,0.0,0.0,0.006192,-0.511317,0.002333,1.594396,-264.586852,1.575025,62.373121
3.5184,0.004978,-0.001223,0.001384,0.0,0.0,0.0,0.006192,-0.511317,0.002333,1.594396,-264.586852,1.575025,62.373121
3.5382,0.005068,-0.001266,0.002233,0.0,0.0,0.0,0.005684,-0.511222,0.001384,1.594396,-264.586852,1.575025,62.373121
3.5586,0.005059,-0.000815,0.000964,0.0,0.0,0.0,0.005721,-0.511225,0.001443,1.594396,-264.586852,1.575025,62.373121
3.5787,0.005385,-0.001151,0.001802,0.0,0.0,0.0,0.005551,-0.510815,0.000964,1.594396,-264.586852,1.575025,62.373121
3.5989,0.005424,-0.001017,0.001218,-9.8e-05,2.1e-05,0.0,0.005983,-0.511007,0.001444,1.594396,-264.586852,1.575025,62.373121
3.6184,0.005501,-0.000829,0.002304,-9.8e-05,2.1e-05,0.0,0.005983,-0.511007,0.001444,1.594396,-264.586852,1.575025,62.373121
3.6384,0.00485,-0.001037,0.002118,-9.8e-05,2.1e-05,0.0,0.006675,-0.510827,0.002304,1.594396,-264.586852,1.575025,62.373121
3.6589,0.004951,-0.001094,0.003132,-9.8e-05,2.1e-05,0.0,0.006624,-0.510842,0.002291,1.594396,-264.586852,1.575025,62.373121
3.6785,0.005218,-0.001158,0.001846,-9.8e-05,2.1e-05,0.0,0.006548,-0.511091,0.003132,1.519511,-264.586852,1.50014,62.373121
3.6983,0.004713,-0.001256,-7.7e-05,-9.8e-05,2.1e-05,0.0,0.006325,-0.511129,0.002395,1.519511,-264.586852,1.50014,62.373121
3.7183,0.005333,-0.001197,0.002869,-9.8e-05,2.1e-05,0.0,0.006325,-0.511129,0.002395,1.519511,-264.586852,1.50014,62.373121
3.7383,0.005363,-0.001213,0.001293,-9.8e-05,2.1e-05,0.0,0.006796,-0.511195,0.002869,1.444371,-264.586852,1.424999,62.373121
3.7582,0.005361,-0.001413,0.000811,-9.8e-05,2.1e-05,0.0,0.006743,-0.511196,0.002761,1.444371,-264.586852,1.424999,62.373121
3.7785,0.005291,-0.001538,0.002463,-9.8e-05,2.1e-05,0.0,0.005775,-0.511413,0.000811,1.369505,-264.586852,1.350134,62.373121
3.7986,0.00497,-0.001108,0.001643,-2e-06,1e-06,-1e-06,0.006216,-0.511484,0.001755,1.369505,-264.586852,1.350134,62.373121
3.8188,0.004855,-0.001154,0.001604,-0.000789,0.00017,-0.000264,0.006216,-0.511484,0.001755,1.369505,-264.586852,1.350134,62.373121
3.8388,0.004797,-0.001092,0.001128,-0.001538,0.000332,-0.000515,0.005673,-0.511153,0.001604,1.294454,-264.586852,1.275083,62.373121
3.8587,0.004961,-0.001175,0.000644,-0.002243,0.000484,-0.000751,0.005653,-0.511149,0.001573,1.294454,-264.586852,1.275083,62.373121
3.8784,0.005171,-0.001209,0.001985,-0.002909,0.000627,-0.000974,0.00529,-0.511175,0.000644,1.219491,-264.586852,1.20012,62.373121
3.8984,0.005052,-0.000966,0.001723,-0.003537,0.000763,-0.001184,0.005799,-0.511194,0.001409,1.219491,-264.586852,1.20012,62.373121
3.9184,0.00497,-0.001069,0.000205,-0.004122,0.000889,-0.00138,0.005799,-0.511194,0.001409,1.219491,-264.586852,1.20012,62.373121
3.9382,0.005286,-0.001379,0.0012,-0.004664,0.001006,-0.001561,0.005075,-0.511069,0.000205,1.1445,-264.586852,1.125129,62.373121
3.9583,0.005017,-0.001626,0.002833,-0.005169,0.001115,-0.00173,0.005126,-0.511088,0.000267,1.1445,-264.586852,1.125129,62.373121
3.9788,0.005032,-0.001335,0.0021,-0.005645,0.001218,-0.00189,0.006462,-0.511624,0.002833,1.069507,-264.586852,1.050135,62.373121
3.9981,0.005142,-0.001376,0.002905,-0.006059,0.001307,-0.002028,0.006256,-0.511457,0.002412,1.069507,-264.586852,1.050135,62.373121
4.0182,0.005145,-0.001428,0.002468,-0.00644,0.001389,-0.002156,0.006256,-0.511457,0.002412,1.069507,-264.586852,1.050135,62.373121
4.0385,0.00507,-0.001301,0.000638,-0.006783,0.001463,-0.002271,0.006404,-0.511426,0.002468,0.994401,-264.586852,0.97503,62.373121
4.0583,0.005024,-0.001009,0.000916,-0.007086,0.001528,-0.002372,0.006333,-0.511417,0.00234,0.994401,-264.586852,0.97503,62.373121
4.0787,0.004609,-0.001278,0.000803,-0.007349,0.001585,-0.00246,0.005491,-0.511009,0.000916,0.919517,-264.586852,0.900146,62.373121
4.0992,0.004957,-0.001781,0.003132,-0.007571,0.001633,-0.002534,0.00522,-0.511163,0.000851,0.919517,-264.586852,0.900146,62.373121
4.1186,0.004818,-0.00138,0.002327,-0.007752,0.001672,-0.002595,0.00522,-0.511163,0.000851,0.919517,-264.586852,0.900146,62.373121
4.1383,0.005116,-0.001135,0.001078,-0.007894,0.001703,-0.002642,0.006005,-0.511379,0.002327,0.844391,-264.586852,0.82502,62.373121
4.1586,0.00507,-0.001308,0.001592,-0.007994,0.001724,-0.002676,0.005981,-0.511362,0.00224,0.844391,-264.586852,0.82502,62.373121
4.1783,0.005521,-0.000856,0.001789,-0.008055,0.001737,-0.002696,0.005881,-0.511307,0.001592,0.769515,-264.586852,0.750144,62.373121
4.1983,0.005016,-0.001061,0.001712,-0.008075,0.001742,-0.002703,0.006198,-0.511048,0.001705,0.769515,-264.586852,0.750144,62.373121
4.2183,0.004732,-0.001123,0.002364,-0.008055,0.001737,-0.002696,0.006198,-0.511048,0.001705,0.769515,-264.586852,0.750144,62.373121
4.2384,0.004677,-0.001275,0.00168,-0.007994,0.001724,-0.002676,0.005938,-0.511122,0.002364,0.694412,-264.586852,0.67504,62.373121
4.2583,0.005006,-0.001039,0.002283,-0.007893,0.001703,-0.002642,0.00591,-0.511132,0.002317,0.694412,-264.586852,0.67504,62.373121
4.2785,0.005236,-0.001241,0.002026,-0.007748,0.001671,-0.002594,0.00617,-0.511038,0.002283,0.619525,-264.586852,0.600154,62.373121
4.299,0.005061,-0.001279,0.003344,-0.00757,0.001633,-0.002534,0.006227,-0.511154,0.002135,0.619525,-264.586852,0.600154,62.373121
4.3184,0.005417,-0.000946,0.001552,-0.007348,0.001585,-0.00246,0.006227,-0.511154,0.002135,0.619525,-264.586852,0.600154,62.373121
4.3383,0.004654,-0.001152,0.000807,-0.007085,0.001528,-0.002372,0.006208,-0.510945,0.001552,0.544334,-264.586852,0.524963,62.373121
4.3583,0.004997,-0.001083,0.001342,-0.006783,0.001463,-0.00227,0.006128,-0.510959,0.0015,0.544334,-264.586852,0.524963,62.373121
4.3786,0.004392,-0.001297,0.002232,-0.006439,0.001389,-0.002155,0.005681,-0.511083,0.001342,0.46951,-264.586852,0.450139,62.373121
4.3987,0.004774,-0.001363,0.00284,-0.006056,0.001306,-0.002027,0.005594,-0.511205,0.001853,0.46951,-264.586852,0.450139,62.373121
4.4184,0.005059,-0.001025,0.00099,-0.005632,0.001215,-0.001885,0.005594,-0.511205,0.001853,0.46951,-264.586852,0.450139,62.373121
4.4383,0.0051,-0.001064,0.002631,-0.005167,0.001114,-0.001729,0.005564,-0.511024,0.00099,0.394375,-264.586852,0.375004,62.373121
4.4585,0.004867,-0.000986,0.001575,-0.004661,0.001005,-0.00156,0.005625,-0.511027,0.001105,0.394375,-264.586852,0.375004,62.373121
4.4786,0.004929,-0.001237,0.003089,-0.004114,0.000887,-0.001377,0.00567,-0.510986,0.001575,0.319508,-264.586852,0.300137,62.373121
4.4987,0.005436,-0.001518,7.3e-05,-0.003527,0.000761,-0.00118,0.006139,-0.511126,0.002426,0.319508,-264.586852,0.300137,62.373121
4.5189,0.005226,-0.000891,0.002377,-0.0029,0.000626,-0.000971,0.006139,-0.511126,0.002426,0.319508,-264.586852,0.300137,62.373121
4.5384,0.005322,-0.001277,0.001999,-0.002237,0.000483,-0.000749,0.006438,-0.51089,0.002377,0.244483,-264.586852,0.225112,62.373121
4.5587,0.004851,-0.001523,0.000885,-0.001526,0.000329,-0.000511,0.006431,-0.51092,0.002347,0.244483,-264.586852,0.225112,62.373121
4.5787,0.005039,-0.001388,0.003425,-0.000783,0.000169,-0.000262,0.005303,-0.511523,0.000885,0.16914,-264.586853,0.149769,62.37312
4.5986,0.005204,-0.001309,0.002844,0.0,0.0,0.0,0.006153,-0.511444,0.002341,0.16914,-264.586853,0.149769,62.37312
4.6184,0.004988,-0.001379,0.001446,0.0,0.0,0.0,0.006153,-0.511444,0.002341,0.16914,-264.586853,0.149769,62.37312
4.6384,0.004689,-0.001287,0.002559,0.0,0.0,0.0,0.005726,-0.511378,0.001446,0.094361,-264.586855,0.07499,62.373118
4.6585,0.005035,-0.001128,0.002776,0.0,0.0,0.0,0.005743,-0.511372,0.001519,0.094361,-264.586855,0.07499,62.373118
4.6786,0.005125,-0.001443,0.003797,0.0,0.0,0.0,0.00645,-0.511126,0.002776,0.094361,-264.586855,0.07499,62.373118
4.6984,0.004938,-0.001248,0.001605,0.0,0.0,0.0,0.00681,-0.511311,0.003377,0.094361,-264.586855,0.07499,62.373118
4.7184,0.005148,-0.001455,0.003307,0.0,0.0,0.0,0.00681,-0.511311,0.003377,0.094361,-264.586855,0.07499,62.373118
4.7388,0.005354,-0.000761,0.00372,0.0,0.0,0.0,0.006834,-0.511452,0.003307,0.094361,-264.586855,0.07499,62.373118
4.7589,0.004993,-0.001156,0.002748,0.0,0.0,0.0,0.006865,-0.511401,0.003337,0.094361,-264.586855,0.07499,62.373118
4.7787,0.005003,-0.000887,0.00329,0.0,0.0,0.0,0.006395,-0.511155,0.002748,0.094361,-264.586855,0.07499,62.373118
4.7983,0.004876,-0.001331,-0.001424,0.0,0.0,0.0,0.006559,-0.511,0.003058,0.094361,-264.586855,0.07499,62.373118
4.8187,0.005222,-0.00082,0.001825,-9.7e-05,2.6e-05,0.0,0.006559,-0.511,0.003058,0.094361,-264.586855,0.07499,62.373118
4.8386,0.004786,-0.000932,0.000854,-9.7e-05,2.6e-05,0.0,0.006153,-0.51082,0.001825,0.094361,-264.586855,0.07499,62.373118
4.8586,0.004575,-0.001469,0.003182,-9.7e-05,2.6e-05,0.0,0.006095,-0.510827,0.001764,0.094361,-264.586855,0.07499,62.373118
4.8789,0.005437,-0.001485,0.003972,-9.7e-05,2.6e-05,0.0,0.006198,-0.511466,0.003182,0.019516,-264.586856,0.000145,62.373117
4.8987,0.005403,-0.000935,0.001191,-9.7e-05,2.6e-05,0.0,0.006911,-0.511475,0.003628,0.019516,-264.586856,0.000145,62.373117
4.919,0.004935,-0.001192,0.000563,-9.7e-05,2.6e-05,0.0,0.006911,-0.511475,0.003628,0.019516,-264.586856,0.000145,62.373117
4.9386,0.005164,-0.001014,0.001513,-9.7e-05,2.6e-05,0.0,0.005222,-0.511191,0.000563,-0.0555,-264.586859,-0.074871,62.373113
4.9584,0.004913,-0.001332,0.001856,-9.7e-05,2.6e-05,0.0,0.005269,-0.51118,0.000626,-0.0555,-264.586859,-0.074871,62.373113
4.9789,0.00534,-0.001323,0.001182,-9.7e-05,2.6e-05,0.0,0.005859,-0.511331,0.001856,-0.130504,-264.58687,-0.149875,62.373102
4.9988,0.005072,-0.000931,0.001205,-9.7e-05,2.6e-05,0.0,0.005906,-0.511326,0.001472,-0.130504,-264.58687,-0.149875,62.373102
5.0189,0.00504,-0.001191,0.000625,-9.7e-05,2.6e-05,0.0,0.005906,-0.511326,0.001472,-0.130504,-264.58687,-0.149875,62.373102
5.0387,0.004839,-0.001348,0.000918,-0.000713,0.000194,0.000208,0.005356,-0.51119,0.000625,-0.205503,-264.586894,-0.224874,62.373078
5.0584,0.005067,-0.001327,0.000971,-0.001393,0.000378,0.000407,0.005353,-0.511201,0.000645,-0.205503,-264.586894,-0.224874,62.373078
5.0786,0.005042,-0.00108,0.002755,-0.00205,0.000556,0.000599,0.005558,-0.511326,0.000971,-0.265076,-264.586931,-0.265076,62.373041
5.0987,0.004652,-0.001475,0.001972,-0.002638,0.000716,0.00077,0.00606,-0.511186,0.00198,-0.265076,-264.586931,-0.265076,62.373041
5.1184,0.004855,-0.001062,0.001815,-0.003202,0.000869,0.000935,0.00606,-0.511186,0.00198,-0.265076,-264.586931,-0.265076,62.373041
5.1386,0.005229,-0.00118,0.001152,-0.003733,0.001013,0.00109,0.005752,-0.511053,0.001819,-0.340101,-264.587186,-0.190051,62.372808
5.1587,0.004864,-0.000999,0.001563,-0.004225,0.001147,0.001234,0.005755,-0.511061,0.001776,-0.340101,-264.587186,-0.190051,62.372808
5.1786,0.004909,-0.001206,0.001452,-0.004683,0.001271,0.001368,0.005566,-0.510972,0.001589,-0.415088,-264.588267,-0.115063,62.371818
5.1986,0.004776,-0.001398,0.001595,-0.005105,0.001386,0.001491,0.005601,-0.511101,0.001514,-0.415088,-264.588267,-0.115063,62.371818
5.2187,0.004633,-0.001176,0.00114,-0.005487,0.001489,0.001602,0.005601,-0.511101,0.001514,-0.415088,-264.588267,-0.115063,62.371818
5.2386,0.004442,-0.000847,0.001885,-0.005835,0.001584,0.001704,0.00501,-0.51112,0.0012,-0.422699,-264.590105,-0.092847,62.370134
5.2584,0.004625,-0.001141,0.002123,-0.006146,0.001668,0.001795,0.005031,-0.511101,0.001247,-0.422699,-264.590105,-0.092847,62.370134
5.2788,0.004066,-0.00075,0.002976,-0.006421,0.001743,0.001875,0.005495,-0.511083,0.002185,-0.422699,-264.592511,-0.092847,62.367931
5.2984,0.004779,-0.000918,0.001935,-0.006659,0.001808,0.001945,0.005518,-0.510886,0.00264,-0.422699,-264.592511,-0.092847,62.367931
5.3186,0.004257,-0.000894,0.001403,-0.006859,0.001862,0.002003,0.005518,-0.510886,0.00264,-0.422699,-264.592511,-0.092847,62.367931
5.3384,0.004029,-0.000806,0.002276,-0.007024,0.001907,0.002051,0.004673,-0.510813,0.00149,-0.422699,-264.595206,-0.092847,62.365462
5.3588,0.003563,-0.000661,0.004045,-0.007152,0.001942,0.002089,0.0047,-0.51081,0.001545,-0.422699,-264.595206,-0.092847,62.365462
5.3788,0.003608,-0.000402,0.000378,-0.007244,0.001966,0.002115,0.00536,-0.510586,0.004122,-0.422699,-264.598215,-0.092847,62.362707
5.3983,0.003977,-0.000666,0.001786,-0.007298,0.001981,0.002131,0.004442,-0.510472,0.00201,-0.422699,-264.598215,-0.092847,62.362707
5.4186,0.003489,-0.001023,0.001482,-0.007317,0.001986,0.002137,0.004442,-0.510472,0.00201,-0.422699,-264.598215,-0.092847,62.362707
5.4388,0.003152,-0.000895,0.003024,-0.007299,0.001981,0.002131,0.003896,-0.510928,0.001584,-0.422699,-264.601351,-0.092847,62.359833
5.4587,0.0032,-0.000838,0.001859,-0.007244,0.001966,0.002115,0.003937,-0.510924,0.001675,-0.422699,-264.601351,-0.092847,62.359833
5.4788,0.003128,-0.000458,0.002086,-0.007152,0.001942,0.002089,0.003865,-0.510761,0.001942,-0.422699,-264.604561,-0.092847,62.356894
5.4989,0.003229,-0.000614,0.00137,-0.007025,0.001907,0.002051,0.004015,-0.510579,0.002034,-0.422699,-264.604561,-0.092847,62.356894
5.5189,0.002925,-0.000593,0.003007,-0.00686,0.001862,0.002003,0.004015,-0.510579,0.002034,-0.422699,-264.604561,-0.092847,62.356894
