mach0312/omni-docking-bench/src/icros_test_setup/results/kinematic_sample/timeseries/trial_086.csv
t,x,y,yaw,vx,vy,wz,bl_x,bl_y,bl_yaw,front_steering_joint,front_wheel_joint,rear_steering_joint,rear_wheel_joint
0.0,-0.008522,0.019664,0.049911,0.008955,0.001498,0.00286,0.01605,-0.489494,0.050468,0.347575,-263.790628,-0.027812,62.19931
0.0005,-0.008335,0.019795,0.050679,0.006998,0.00117,0.002235,0.01605,-0.489494,0.050468,0.347575,-263.786698,-0.027812,62.203006
0.0008,-0.008449,0.020033,0.051166,0.006509,0.001088,0.002079,0.016157,-0.489766,0.050831,0.347575,-263.782977,-0.027812,62.206506
0.0011,-0.007938,0.02024,0.051296,0.005972,0.000999,0.001907,0.016187,-0.489733,0.050777,0.347575,-263.779484,-0.027812,62.209791
0.0014,-0.008343,0.019796,0.051048,0.005371,0.000898,0.001715,0.016187,-0.489733,0.050777,0.347575,-263.776515,-0.027812,62.212584
0.0017,-0.008244,0.020081,0.050607,0.004761,0.000796,0.00152,0.016187,-0.489733,0.050777,0.347575,-263.773975,-0.027812,62.214972
0.002,-0.007973,0.020368,0.051533,0.004084,0.000683,0.001304,0.017821,-0.489296,0.052353,0.347575,-263.772237,-0.027812,62.216607
0.0023,-0.007764,0.020172,0.052356,0.003363,0.000562,0.001074,0.017502,-0.489364,0.051215,0.347575,-263.772237,-0.027812,62.216607
0.0025,-0.007692,0.020142,0.051637,0.002594,0.000434,0.000829,0.017502,-0.489364,0.051215,0.347575,-263.772237,-0.027812,62.216607
0.0027,-0.007918,0.020205,0.052054,0.001778,0.000297,0.000568,0.017502,-0.489364,0.051215,0.347575,-263.772237,-0.027812,62.216607
0.0186,-0.008086,0.0203,0.050484,0.006856,-0.015847,-0.029708,0.018843,-0.489138,0.051971,0.347575,-263.772237,-0.027812,62.216607
0.0386,-0.007885,0.020395,0.051594,0.007051,-0.020682,-0.05,0.017776,-0.489023,0.050525,0.347575,-263.771135,-0.027812,62.217644
0.0588,-0.007505,0.020098,0.051558,0.006823,-0.020775,-0.05,0.017811,-0.489018,0.05058,0.347575,-263.771135,-0.027812,62.217644
0.0785,-0.007587,0.02033,0.051417,0.006459,-0.020458,-0.05,0.018778,-0.489224,0.051558,0.27273,-263.771135,0.047034,62.217644
0.099,-0.007709,0.020176,0.052524,0.006532,-0.020693,-0.05,0.018691,-0.489096,0.051479,0.27273,-263.771135,0.047034,62.217644
0.1189,-0.007752,0.019871,0.051169,0.006639,-0.020553,-0.05,0.018691,-0.489096,0.051479,0.27273,-263.771135,0.047034,62.217644
0.1387,-0.007841,0.019807,0.050955,0.006726,-0.020242,-0.05,0.018333,-0.489461,0.051169,0.347849,-263.771135,0.122153,62.217644
0.1591,-0.007517,0.0202,0.052205,0.006822,-0.020181,-0.05,0.018317,-0.489467,0.051152,0.347849,-263.771135,0.122153,62.217644
0.1783,-0.007959,0.020009,0.052766,0.006453,-0.020565,-0.05,0.019096,-0.489105,0.052205,0.423187,-263.771135,0.197491,62.217644
0.1982,-0.007754,0.02038,0.050146,0.006892,-0.020401,-0.05,0.019007,-0.489205,0.052524,0.423187,-263.771135,0.197491,62.217644
0.2183,-0.007851,0.02018,0.051033,0.006722,-0.020743,-0.05,0.019007,-0.489205,0.052524,0.423187,-263.771135,0.197491,62.217644
0.2387,-0.007591,0.020616,0.050099,0.006811,-0.020554,-0.05,0.018164,-0.489156,0.051033,0.497874,-263.771135,0.272178,62.217644
0.2587,-0.007536,0.02035,0.051859,0.006549,-0.02097,-0.05,0.018148,-0.489124,0.05096,0.497874,-263.771135,0.272178,62.217644
0.2786,-0.00757,0.020248,0.051428,0.006471,-0.020713,-0.05,0.0189,-0.488964,0.051859,0.572975,-263.771135,0.347278,62.217644
0.2983,-0.00755,0.020012,0.049573,0.006519,-0.02061,-0.05,0.018755,-0.48903,0.051611,0.572975,-263.771135,0.347278,62.217644
0.3183,-0.008032,0.019683,0.049609,0.00655,-0.020362,-0.049573,0.018755,-0.48903,0.051611,0.572975,-263.771135,0.347278,62.217644
0.3383,-0.007898,0.020332,0.053133,0.007046,-0.020057,-0.049609,0.017258,-0.48969,0.049609,0.647912,-263.771135,0.422216,62.217644
0.3585,-0.007892,0.020183,0.052778,0.006807,-0.020722,-0.05,0.017401,-0.489635,0.049869,0.647912,-263.771135,0.422216,62.217644
0.3786,-0.007235,0.02024,0.05158,0.006816,-0.020571,-0.05,0.019013,-0.489107,0.052778,0.722851,-263.771135,0.497155,62.217644
0.399,-0.007428,0.020342,0.05144,0.006182,-0.020586,-0.05,0.01904,-0.489092,0.05209,0.722851,-263.771135,0.497155,62.217644
0.4185,-0.007425,0.020494,0.053399,0.006372,-0.020697,-0.05,0.01904,-0.489092,0.05209,0.722851,-263.771135,0.497155,62.217644
0.4384,-0.007879,0.020355,0.051218,0.006321,-0.020861,-0.05,0.019795,-0.488779,0.053399,0.797908,-263.771135,0.572212,62.217644
0.4587,-0.007836,0.020085,0.05102,0.006826,-0.020732,-0.05,0.019681,-0.488793,0.05324,0.797908,-263.771135,0.572212,62.217644
0.4786,-0.007795,0.020275,0.051878,0.006802,-0.020458,-0.05,0.018172,-0.489252,0.05102,0.872858,-263.771135,0.647162,62.217644
0.4983,-0.00809,0.020304,0.050677,0.006733,-0.020652,-0.05,0.018444,-0.489131,0.051507,0.872858,-263.771135,0.647162,62.217644
0.5189,-0.007475,0.020125,0.050162,0.007051,-0.020688,-0.05,0.018444,-0.489131,0.051507,0.872858,-263.771135,0.647162,62.217644
0.5385,-0.00763,0.019944,0.051378,0.006456,-0.020475,-0.05,0.018097,-0.489233,0.050162,0.947719,-263.771136,0.722022,62.217644
0.5583,-0.007527,0.020059,0.051353,0.006596,-0.02031,-0.05,0.01813,-0.489244,0.050249,0.947719,-263.771136,0.722022,62.217644
0.5783,-0.007878,0.020281,0.050458,0.006488,-0.020419,-0.05,0.018651,-0.489269,0.051353,1.022872,-263.771137,0.797176,62.217644
0.5983,-0.007732,0.020047,0.05194,0.006845,-0.020653,-0.05,0.018188,-0.489155,0.050839,1.022872,-263.771137,0.797176,62.217644
0.6183,-0.007469,0.020396,0.052507,0.006681,-0.020421,-0.05,0.018188,-0.489155,0.050839,1.022872,-263.771137,0.797176,62.217644
0.6386,-0.007801,0.020308,0.051221,0.006388,-0.02076,-0.05,0.019298,-0.488902,0.052507,1.097875,-263.771142,0.872179,62.217645
0.6589,-0.007645,0.020534,0.050982,0.006751,-0.020681,-0.05,0.019212,-0.488912,0.052395,1.097875,-263.771142,0.872179,62.217645
0.6785,-0.007498,0.020227,0.049899,0.006589,-0.020897,-0.05,0.018344,-0.488805,0.050979,1.173318,-263.771176,0.947621,62.217653
0.6984,-0.00739,0.020201,0.051309,0.00648,-0.020575,-0.049899,0.018113,-0.488996,0.050361,1.173318,-263.771176,0.947621,62.217653
0.7184,-0.00752,0.020136,0.050247,0.006344,-0.020554,-0.05,0.018113,-0.488996,0.050361,1.173318,-263.771176,0.947621,62.217653
0.7383,-0.007503,0.019909,0.052086,0.006499,-0.020488,-0.05,0.018093,-0.489229,0.050226,1.247922,-263.771365,0.970219,62.217697
0.7587,-0.007653,0.020634,0.051991,0.006457,-0.020273,-0.05,0.018158,-0.489241,0.050351,1.247922,-263.771365,0.970219,62.217697
0.7785,-0.007594,0.02022,0.050361,0.006571,-0.021003,-0.05,0.018847,-0.488705,0.051922,1.322892,-263.772111,1.004713,62.217868
0.7983,-0.007804,0.019867,0.051149,0.006567,-0.020577,-0.05,0.01841,-0.488952,0.051025,1.322892,-263.772111,1.004713,62.217868
0.8183,-0.00747,0.020326,0.052069,0.006778,-0.02024,-0.05,0.01841,-0.488952,0.051025,1.322892,-263.772111,1.004713,62.217868
0.8388,-0.007543,0.019779,0.050219,0.006402,-0.020687,-0.05,0.019072,-0.489081,0.051826,1.397897,-263.774171,1.009304,62.218356
0.8587,-0.007687,0.019954,0.051112,0.00654,-0.020133,-0.05,0.018998,-0.48912,0.051702,1.397897,-263.774171,1.009304,62.218356
0.8786,-0.007411,0.019689,0.049051,0.006657,-0.020321,-0.05,0.018385,-0.48955,0.050691,1.472845,-263.778632,0.988687,62.21943
0.8985,-0.00706,0.020108,0.050433,0.006436,-0.020029,-0.049051,0.017933,-0.489656,0.049695,1.472845,-263.778632,0.988687,62.21943
0.9185,-0.007406,0.01998,0.050376,0.006037,-0.020439,-0.05,0.017933,-0.489656,0.049695,1.472845,-263.778632,0.988687,62.21943
0.9387,-0.006572,0.019587,0.049102,0.00639,-0.020327,-0.05,0.01835,-0.489682,0.049506,1.547914,-263.785606,1.009602,62.221569
0.9588,-0.006896,0.019696,0.050666,0.005603,-0.019886,-0.049102,0.018361,-0.489701,0.049447,1.547914,-263.785606,1.009602,62.221569
0.9786,-0.005938,0.019485,0.049459,0.005889,-0.02002,-0.05,0.019056,-0.489958,0.049693,1.623066,-263.795035,1.03197,62.224952
0.9989,-0.005607,0.019115,0.049678,0.004967,-0.019755,-0.049459,0.019196,-0.48996,0.049436,1.623066,-263.795035,1.03197,62.224952
1.0184,-0.005504,0.019265,0.048574,0.004651,-0.01937,-0.049678,0.019196,-0.48996,0.049436,1.623066,-263.795035,1.03197,62.224952
1.0385,-0.004684,0.019274,0.047484,0.004562,-0.019509,-0.048574,0.019491,-0.490618,0.047015,1.68267,-263.80705,1.06445,62.229266
1.0592,-0.004865,0.018721,0.047791,0.003764,-0.019475,-0.047484,0.0195,-0.490596,0.047006,1.68267,-263.80705,1.06445,62.229266
1.0786,-0.003968,0.018347,0.045294,0.003965,-0.018932,-0.047791,0.019669,-0.491212,0.046362,1.66408,-263.821444,1.139837,62.233212
1.0985,-0.003762,0.018215,0.044285,0.003133,-0.018508,-0.045294,0.019386,-0.491231,0.045587,1.66408,-263.821444,1.139837,62.233212
1.1183,-0.003848,0.018259,0.044956,0.002952,-0.018364,-0.044285,0.019386,-0.491231,0.045587,1.66408,-263.821444,1.139837,62.233212
1.1383,-0.002385,0.017293,0.043194,0.003024,-0.018413,-0.044956,0.019273,-0.492025,0.042914,1.648294,-263.838398,1.19447,62.237102
1.159,-0.002409,0.017192,0.043155,0.001636,-0.01738,-0.043194,0.019304,-0.492061,0.04288,1.648294,-263.838398,1.19447,62.237102
1.1784,-0.000965,0.016379,0.040412,0.001665,-0.017279,-0.043155,0.019732,-0.493011,0.041509,1.635708,-263.855911,1.243104,62.240631
1.1988,-0.00085,0.016613,0.04044,0.000303,-0.016405,-0.040412,0.019696,-0.493207,0.040674,1.635708,-263.855911,1.243104,62.240631
1.2186,-0.001051,0.016354,0.041535,0.000178,-0.016633,-0.04044,0.019696,-0.493207,0.040674,1.635708,-263.855911,1.243104,62.240631
1.2384,-0.00029,0.016057,0.040567,0.000371,-0.016383,-0.041535,0.020216,-0.493793,0.040079,1.608165,-263.86811,1.318267,62.24318
1.2585,-7.3e-05,0.016007,0.038699,-0.000361,-0.016056,-0.040567,0.020231,-0.493789,0.040074,1.608165,-263.86811,1.318267,62.24318
1.2788,6.6e-05,0.015529,0.038212,-0.000546,-0.015998,-0.038699,0.019681,-0.493877,0.038053,1.575091,-263.874986,1.393406,62.244522
1.2988,0.000338,0.015388,0.038987,-0.000659,-0.015515,-0.038212,0.019608,-0.494039,0.038063,1.575091,-263.874986,1.393406,62.244522
1.3185,0.000609,0.01575,0.038327,-0.000938,-0.015363,-0.038987,0.019608,-0.494039,0.038063,1.575091,-263.874986,1.393406,62.244522
1.3384,0.000433,0.015626,0.037147,-0.001212,-0.015715,-0.038327,0.020171,-0.494234,0.037421,1.561949,-263.882495,1.468277,62.246127
1.3589,0.000588,0.015414,0.036076,-0.001013,-0.015599,-0.037147,0.020117,-0.494229,0.037378,1.561949,-263.882495,1.468277,62.246127
1.3786,0.001492,0.015089,0.038315,-0.001143,-0.015383,-0.036076,0.018986,-0.494538,0.035354,1.54686,-263.890004,1.543117,62.247756
1.3988,0.000882,0.014571,0.037815,-0.002069,-0.015021,-0.038315,0.020147,-0.494573,0.036945,1.54686,-263.890004,1.543117,62.247756
1.4186,0.00113,0.014756,0.036336,-0.001432,-0.014527,-0.037815,0.020147,-0.494573,0.036945,1.54686,-263.890004,1.543117,62.247756
1.4385,0.001594,0.014459,0.037604,-0.001665,-0.014705,-0.036336,0.019654,-0.495385,0.035196,1.544349,-263.899667,1.618127,62.249563
1.4584,0.001734,0.014532,0.034585,-0.002137,-0.014389,-0.037604,0.019732,-0.495384,0.035334,1.544349,-263.899667,1.618127,62.249563
1.4786,0.002562,0.013924,0.033416,-0.002236,-0.014464,-0.034585,0.019346,-0.495609,0.033422,1.532747,-263.911653,1.69328,62.252328
1.4984,0.002545,0.014247,0.035251,-0.003025,-0.01383,-0.033416,0.019488,-0.49577,0.033271,1.532747,-263.911653,1.69328,62.252328
1.5184,0.002278,0.013912,0.033357,-0.003045,-0.014148,-0.035251,0.019488,-0.49577,0.033271,1.532747,-263.911653,1.69328,62.252328
1.5387,0.002402,0.013471,0.033352,-0.00274,-0.013829,-0.033357,0.019284,-0.495927,0.033156,1.513662,-263.913676,1.618406,62.252328
1.5589,0.00254,0.014082,0.033692,-0.00285,-0.013384,-0.033352,0.019292,-0.495952,0.033164,1.513662,-263.913676,1.618406,62.252328
1.5792,0.002492,0.013981,0.033514,-0.003013,-0.013988,-0.033692,0.01972,-0.495629,0.033692,1.485642,-263.913677,1.543447,62.252328
1.5992,0.00271,0.013809,0.036095,-0.002959,-0.013889,-0.033514,0.019641,-0.495688,0.033591,1.485642,-263.913677,1.543447,62.252328
1.6187,0.00254,0.013485,0.03311,-0.003207,-0.013702,-0.036095,0.019641,-0.495688,0.033591,1.485642,-263.913677,1.543447,62.252328
1.6384,0.002758,0.013745,0.034678,-0.002985,-0.013393,-0.03311,0.019423,-0.496236,0.03311,1.48656,-263.913678,1.468326,62.252328
1.6584,0.002991,0.013673,0.034813,-0.003233,-0.013642,-0.034678,0.019486,-0.496218,0.033208,1.48656,-263.913678,1.468326,62.252328
1.6788,0.002654,0.013593,0.035398,-0.003465,-0.01356,-0.034813,0.020742,-0.496018,0.034813,1.481332,-263.91368,1.39344,62.252327
1.6987,0.002708,0.013713,0.033499,-0.003134,-0.01349,-0.035398,0.02072,-0.496058,0.035149,1.481332,-263.91368,1.39344,62.252327
1.7185,0.002421,0.013696,0.033597,-0.003166,-0.013615,-0.033499,0.02072,-0.496058,0.035149,1.481332,-263.91368,1.39344,62.252327
1.7386,0.002937,0.013885,0.034344,-0.00288,-0.013606,-0.033597,0.019552,-0.496017,0.033597,1.478227,-263.913681,1.318184,62.252327
1.7586,0.002578,0.01363,0.033973,-0.003412,-0.013776,-0.034344,0.019618,-0.496002,0.033652,1.478227,-263.913681,1.318184,62.252327
1.7787,0.002913,0.013911,0.033683,-0.00304,-0.013535,-0.033973,0.019901,-0.496076,0.033972,1.478143,-263.913683,1.243323,62.252327
1.799,0.002442,0.013545,0.033716,-0.00338,-0.013805,-0.033683,0.020008,-0.495917,0.033806,1.478143,-263.913683,1.243323,62.252327
1.8184,0.002567,0.013731,0.033968,-0.002897,-0.013455,-0.033716,0.020008,-0.495917,0.033806,1.478143,-263.913683,1.243323,62.252327
1.8384,0.002616,0.014085,0.034852,-0.003032,-0.013636,-0.033968,0.019887,-0.495975,0.033968,1.472925,-263.913684,1.168292,62.252326
1.859,0.002531,0.013662,0.033579,-0.003106,-0.013985,-0.034852,0.019923,-0.495948,0.034032,1.472925,-263.913684,1.168292,62.252326
1.8784,0.002987,0.013826,0.033859,-0.002988,-0.013569,-0.033579,0.019653,-0.496051,0.033579,1.485915,-263.913685,1.093325,62.252326
1.8985,0.002365,0.013935,0.03272,-0.003454,-0.013717,-0.033859,0.019997,-0.495953,0.03374,1.485915,-263.913685,1.093325,62.252326
1.9188,0.002401,0.013786,0.03263,-0.00282,-0.013851,-0.03272,0.019997,-0.495953,0.03374,1.485915,-263.913685,1.093325,62.252326
1.9389,0.002362,0.01357,0.03324,-0.002849,-0.013701,-0.03263,0.019039,-0.495942,0.03263,1.482971,-263.913687,1.018273,62.252326
1.959,0.002772,0.013787,0.033181,-0.002812,-0.013484,-0.03324,0.019057,-0.495956,0.03267,1.482971,-263.913687,1.018273,62.252326
1.9791,0.002575,0.013668,0.032618,-0.003228,-0.013687,-0.033181,0.019692,-0.495933,0.033181,1.487646,-263.913688,0.943288,62.252325
1.9985,0.002934,0.014034,0.03263,-0.00302,-0.013577,-0.032618,0.019414,-0.496006,0.032858,1.487646,-263.913688,0.943288,62.252325
2.0185,0.002546,0.013746,0.031472,-0.003391,-0.013931,-0.03263,0.019414,-0.496006,0.032858,1.487646,-263.913688,0.943288,62.252325
2.0386,0.002782,0.013567,0.034186,-0.002978,-0.013659,-0.031472,0.018595,-0.496001,0.031472,1.487768,-263.91369,0.86825,62.252325
2.0586,0.002527,0.013898,0.033052,-0.003244,-0.013464,-0.034186,0.018705,-0.49601,0.031658,1.487768,-263.91369,0.86825,62.252325
2.0787,0.002262,0.013564,0.033682,-0.002985,-0.013807,-0.033052,0.01938,-0.495823,0.033052,1.470989,-263.913691,0.79345,62.252325
2.0985,0.00245,0.013814,0.034724,-0.002718,-0.01348,-0.033682,0.019413,-0.496009,0.033414,1.470989,-263.913691,0.79345,62.252325
2.1186,0.00247,0.013545,0.033193,-0.002928,-0.013721,-0.034724,0.019413,-0.496009,0.033414,1.470989,-263.913691,0.79345,62.252325
2.1384,0.002594,0.01373,0.034502,-0.002918,-0.013456,-0.033193,0.019395,-0.496174,0.033192,1.476626,-263.913692,0.718292,62.252324
2.1587,0.002444,0.013567,0.035129,-0.003066,-0.013632,-0.034502,0.019446,-0.496161,0.033276,1.476626,-263.913692,0.718292,62.252324
2.1787,0.002962,0.013468,0.032408,-0.002919,-0.013472,-0.035129,0.020356,-0.496119,0.035129,1.487169,-263.913694,0.643453,62.252324
2.1983,0.003107,0.013803,0.034363,-0.003397,-0.013365,-0.032408,0.019861,-0.496201,0.033579,1.487169,-263.913694,0.643453,62.252324
2.2183,0.002533,0.013565,0.032922,-0.003579,-0.013688,-0.034363,0.019861,-0.496201,0.033579,1.487169,-263.913694,0.643453,62.252324
2.2385,0.003083,0.013493,0.034162,-0.002978,-0.013475,-0.032922,0.01932,-0.496158,0.032922,1.482675,-263.913695,0.568448,62.252324
2.2583,0.002563,0.013551,0.032347,-0.003542,-0.01338,-0.034162,0.019398,-0.496162,0.033004,1.482675,-263.913695,0.568448,62.252324
2.2786,0.002456,0.013672,0.033506,-0.003,-0.013461,-0.032347,0.019057,-0.496183,0.032347,1.467946,-263.913696,0.49344,62.252323
2.2985,0.002917,0.013516,0.032448,-0.002912,-0.013582,-0.033506,0.019332,-0.496103,0.033007,1.467946,-263.913696,0.49344,62.252323
2.3184,0.002518,0.014081,0.034312,-0.003354,-0.013414,-0.032448,0.019332,-0.496103,0.033007,1.467946,-263.913696,0.49344,62.252323
2.3391,0.002635,0.013852,0.032143,-0.002999,-0.013986,-0.034312,0.020013,-0.495619,0.034312,1.46772,-263.913698,0.418393,62.252323
2.3588,0.002986,0.013377,0.032485,-0.003078,-0.01376,-0.032143,0.019942,-0.495638,0.034156,1.46772,-263.913698,0.418393,62.252323
2.3784,0.002868,0.013713,0.034882,-0.003419,-0.013273,-0.032485,0.019551,-0.496354,0.032484,1.470202,-263.913699,0.343394,62.252323
2.3982,0.002563,0.013884,0.03297,-0.003344,-0.013605,-0.034882,0.020179,-0.496139,0.03385,1.470202,-263.913699,0.343394,62.252323
2.4186,0.002365,0.013534,0.032492,-0.003019,-0.013792,-0.03297,0.020179,-0.496139,0.03385,1.470202,-263.913699,0.343394,62.252323
2.4386,0.003074,0.013795,0.034413,-0.002803,-0.01345,-0.032492,0.018933,-0.496197,0.032492,1.478863,-263.913701,0.26844,62.252323
2.4583,0.002604,0.013745,0.033774,-0.003547,-0.013681,-0.034413,0.019053,-0.496176,0.032629,1.478863,-263.913701,0.26844,62.252323
2.4787,0.002446,0.01381,0.032764,-0.003067,-0.013649,-0.033774,0.019826,-0.495965,0.033774,1.482034,-263.913702,0.193296,62.252322
2.4991,0.003043,0.013413,0.033811,-0.002897,-0.013722,-0.032764,0.019443,-0.495937,0.0332,1.482034,-263.913702,0.193296,62.252322
2.5189,0.002623,0.013518,0.034292,-0.003494,-0.013302,-0.033811,0.019443,-0.495937,0.0332,1.482034,-263.913702,0.193296,62.252322
2.5387,0.002844,0.013983,0.033136,-0.003084,-0.01342,-0.034292,0.020108,-0.496182,0.034292,1.468935,-263.913703,0.118395,62.252322
2.5589,0.002514,0.014003,0.033775,-0.003305,-0.013881,-0.033136,0.020083,-0.496152,0.034215,1.468935,-263.913703,0.118395,62.252322
2.5789,0.002647,0.013764,0.033314,-0.002986,-0.01391,-0.033775,0.019736,-0.495707,0.033775,1.468241,-263.913705,0.043428,62.252322
2.5994,0.002715,0.013852,0.033501,-0.003104,-0.013668,-0.033314,0.019678,-0.495847,0.033513,1.468241,-263.913705,0.043428,62.252322
2.6184,0.002359,0.013619,0.034164,-0.003177,-0.013753,-0.033501,0.019678,-0.495847,0.033513,1.468241,-263.913705,0.043428,62.252322
2.6388,0.002573,0.013635,0.035561,-0.002822,-0.013531,-0.034164,0.019779,-0.496083,0.034164,1.474217,-263.913706,-0.031553,62.252321
2.6589,0.002615,0.013344,0.033899,-0.003056,-0.013535,-0.035561,0.019843,-0.49608,0.03426,1.474217,-263.913706,-0.031553,62.252321
2.6789,0.002446,0.013788,0.033057,-0.003065,-0.013248,-0.033899,0.0199,-0.496363,0.033899,1.478198,-263.913707,-0.106566,62.252321
2.6987,0.003019,0.01359,0.03433,-0.002901,-0.0137,-0.033057,0.019562,-0.49612,0.033422,1.478198,-263.913707,-0.106566,62.252321
2.7186,0.002602,0.013307,0.03492,-0.003484,-0.013478,-0.03433,0.019562,-0.49612,0.033422,1.478198,-263.913707,-0.106566,62.252321
2.7386,0.002889,0.013574,0.034082,-0.003065,-0.013208,-0.03492,0.020408,-0.496382,0.03492,1.484321,-263.913709,-0.181683,62.252321
2.7584,0.002759,0.013676,0.03411,-0.00335,-0.013468,-0.034082,0.020398,-0.496364,0.034862,1.484321,-263.913709,-0.181683,62.252321
2.7784,0.002828,0.013429,0.033467,-0.003224,-0.013574,-0.03411,0.020151,-0.496028,0.034109,1.469995,-263.91371,-0.256558,62.25232
2.7985,0.002526,0.013897,0.034428,-0.003275,-0.013327,-0.033467,0.020004,-0.496174,0.033744,1.469995,-263.91371,-0.256558,62.25232
2.8185,0.002536,0.014179,0.033545,-0.003003,-0.013802,-0.034428,0.020004,-0.496174,0.033744,1.469995,-263.91371,-0.256558,62.25232
2.8388,0.002991,0.013328,0.03535,-0.00301,-0.014086,-0.033545,0.019641,-0.495534,0.033545,1.473401,-263.913712,-0.33156,62.25232
2.8585,0.002534,0.014181,0.033786,-0.00346,-0.013214,-0.03535,0.019735,-0.495591,0.033669,1.473401,-263.913712,-0.33156,62.25232
2.8786,0.002757,0.01384,0.033606,-0.003012,-0.014088,-0.033786,0.019761,-0.495528,0.033785,1.484794,-263.913713,-0.406571,62.25232
2.8985,0.002627,0.01357,0.034507,-0.00322,-0.01374,-0.033606,0.019836,-0.495723,0.033684,1.484794,-263.913713,-0.406571,62.25232
2.9186,0.002723,0.013574,0.032906,-0.003093,-0.013471,-0.034507,0.019836,-0.495723,0.033684,1.484794,-263.913713,-0.406571,62.25232
2.9384,0.002832,0.013919,0.03328,-0.003168,-0.013477,-0.032906,0.019502,-0.49615,0.032906,1.471697,-263.913715,-0.481571,62.252319
2.9588,0.002825,0.013648,0.032756,-0.003294,-0.013817,-0.03328,0.019522,-0.496127,0.03293,1.471697,-263.913715,-0.481571,62.252319
2.9784,0.002689,0.013951,0.033238,-0.003271,-0.013549,-0.032756,0.019528,-0.496078,0.032756,1.481496,-263.913718,-0.556565,62.252318
2.999,0.002604,0.01339,0.033302,-0.003151,-0.013854,-0.033238,0.01959,-0.4959,0.033031,1.481496,-263.913718,-0.556565,62.252318
3.0185,0.002528,0.014047,0.033934,-0.003048,-0.013295,-0.033302,0.01959,-0.4959,0.033031,1.481496,-263.913718,-0.556565,62.252318
3.0385,0.002583,0.013576,0.033976,-0.003004,-0.013954,-0.033934,0.01983,-0.495664,0.033924,1.474617,-263.91381,-0.631635,62.252299
3.0588,0.002823,0.013702,0.033864,-0.003043,-0.01348,-0.033976,0.019835,-0.495695,0.033927,1.474617,-263.91381,-0.631635,62.252299
3.0786,0.002301,0.013593,0.034868,-0.003286,-0.013599,-0.033864,0.020089,-0.49601,0.033853,1.48042,-263.913929,-0.706572,62.252272
3.0986,0.002457,0.013363,0.033791,-0.002774,-0.013504,-0.034868,0.020084,-0.49606,0.034428,1.48042,-263.913929,-0.706572,62.252272
3.1187,0.002741,0.013788,0.032459,-0.002907,-0.013272,-0.033791,0.020084,-0.49606,0.034428,1.48042,-263.913929,-0.706572,62.252272
3.1386,0.002499,0.013622,0.03341,-0.003187,-0.013692,-0.032459,0.019288,-0.495962,0.032417,1.482147,-263.914291,-0.781559,62.252189
3.1589,0.002475,0.013832,0.033183,-0.002953,-0.013531,-0.03341,0.019304,-0.495971,0.032483,1.482147,-263.914291,-0.781559,62.252189
3.1788,0.002372,0.013696,0.033237,-0.002932,-0.013742,-0.033183,0.019387,-0.49592,0.033107,1.485276,-263.915109,-0.856566,62.251999
3.1991,0.002371,0.013616,0.034269,-0.002826,-0.013609,-0.033237,0.019347,-0.495983,0.033172,1.485276,-263.915109,-0.856566,62.251999
3.2191,0.002228,0.013332,0.032739,-0.002836,-0.013527,-0.034269,0.019347,-0.495983,0.033172,1.485276,-263.915109,-0.856566,62.251999
3.2389,0.002553,0.013174,0.03208,-0.002663,-0.013252,-0.032739,0.018889,-0.49654,0.032402,1.484011,-263.918002,-0.931753,62.251363
3.259,0.002811,0.013659,0.033436,-0.002974,-0.013085,-0.03208,0.018889,-0.496545,0.03237,1.484011,-263.918002,-0.931753,62.251363
3.2784,0.003263,0.01299,0.03432,-0.003266,-0.013558,-0.033436,0.019824,-0.496217,0.033046,1.488678,-263.922126,-1.006661,62.250418
3.2986,0.003419,0.013518,0.033237,-0.003707,-0.01287,-0.03432,0.020353,-0.496517,0.033721,1.488678,-263.922126,-1.006661,62.250418
3.3182,0.002923,0.013333,0.031621,-0.003867,-0.013396,-0.033237,0.020353,-0.496517,0.033721,1.488678,-263.922126,-1.006661,62.250418
3.3383,0.003185,0.012675,0.032967,-0.003343,-0.013234,-0.031621,0.018959,-0.496701,0.030779,1.480034,-263.928738,-1.081682,62.248292
3.3588,0.003538,0.012866,0.03187,-0.003601,-0.012563,-0.032967,0.019029,-0.496733,0.03091,1.480034,-263.928738,-1.081682,62.248292
3.3783,0.003978,0.012834,0.031275,-0.003947,-0.012746,-0.03187,0.019675,-0.497185,0.030939,1.456542,-263.937875,-1.060199,62.245172
3.3984,0.00375,0.012346,0.030981,-0.004378,-0.012704,-0.031275,0.019804,-0.497071,0.031013,1.456542,-263.937875,-1.060199,62.245172
3.4189,0.003511,0.012787,0.032414,-0.00413,-0.012224,-0.030981,0.019804,-0.497071,0.031013,1.456542,-263.937875,-1.060199,62.245172
3.4384,0.004752,0.01222,0.028606,-0.003924,-0.012667,-0.032414,0.019898,-0.497479,0.030987,1.461101,-263.949496,-1.126818,62.24205
3.4584,0.004409,0.012237,0.028394,-0.0051,-0.012079,-0.028606,0.019852,-0.497501,0.03077,1.461101,-263.949496,-1.126818,62.24205
3.4785,0.005167,0.011561,0.02829,-0.004755,-0.012107,-0.028394,0.018772,-0.497946,0.02741,1.438955,-263.959813,-1.051828,62.239466
3.4982,0.005151,0.011792,0.027126,-0.005492,-0.01141,-0.02829,0.019226,-0.49816,0.027787,1.438955,-263.959813,-1.051828,62.239466
3.5185,0.005189,0.011859,0.028309,-0.005469,-0.011648,-0.027126,0.019226,-0.49816,0.027787,1.438955,-263.959813,-1.051828,62.239466
3.5384,0.00533,0.011406,0.02734,-0.005523,-0.011708,-0.028309,0.019544,-0.49816,0.027758,1.399898,-263.964478,-0.976842,62.238312
3.5583,0.005182,0.011424,0.027905,-0.00564,-0.011256,-0.02734,0.019522,-0.498184,0.027712,1.399898,-263.964478,-0.976842,62.238312
3.5784,0.005323,0.011171,0.026241,-0.005499,-0.011275,-0.027905,0.019344,-0.498543,0.027499,1.379337,-263.968828,-0.901863,62.237198
3.5986,0.005411,0.011136,0.026741,-0.005614,-0.011027,-0.026241,0.01897,-0.498627,0.026729,1.379337,-263.968828,-0.901863,62.237198
3.6185,0.005336,0.011224,0.02796,-0.005707,-0.010988,-0.026741,0.01897,-0.498627,0.026729,1.379337,-263.968828,-0.901863,62.237198
3.6383,0.005818,0.01101,0.027752,-0.005647,-0.01107,-0.02796,0.019423,-0.498885,0.027121,1.371711,-263.975669,-0.826874,62.234857
3.6583,0.005597,0.011021,0.026,-0.006122,-0.010845,-0.027752,0.019457,-0.498887,0.027143,1.371711,-263.975669,-0.826874,62.234857
3.6786,0.00602,0.010405,0.026116,-0.005882,-0.010871,-0.026,0.018671,-0.499159,0.025122,1.364861,-263.985016,-0.752605,62.231996
3.6985,0.005763,0.010465,0.023804,-0.006289,-0.010244,-0.026116,0.019026,-0.499353,0.025575,1.364861,-263.985016,-0.752605,62.231996
3.7186,0.006116,0.010793,0.025063,-0.006011,-0.010325,-0.023804,0.019026,-0.499353,0.025575,1.364861,-263.985016,-0.752605,62.231996
3.7383,0.00597,0.009801,0.023324,-0.006385,-0.010636,-0.025063,0.018617,-0.499572,0.023737,1.35401,-263.996201,-0.784015,62.228598
3.7585,0.006128,0.009971,0.022667,-0.006197,-0.009659,-0.023324,0.018558,-0.499619,0.023674,1.35401,-263.996201,-0.784015,62.228598
3.7784,0.006464,0.009851,0.023896,-0.006353,-0.00983,-0.022667,0.017555,-0.500139,0.02209,1.333601,-264.002496,-0.709011,62.226792
3.7986,0.006196,0.009711,0.022355,-0.006698,-0.009693,-0.023896,0.018162,-0.500093,0.023046,1.333601,-264.002496,-0.709011,62.226792
3.8187,0.006653,0.009815,0.022942,-0.006412,-0.00957,-0.022355,0.018162,-0.500093,0.023046,1.333601,-264.002496,-0.709011,62.226792
3.8389,0.006924,0.00923,0.019662,-0.006877,-0.00966,-0.022942,0.01809,-0.500473,0.021925,1.317125,-264.011291,-0.637105,62.223965
3.8591,0.007028,0.009374,0.021767,-0.007105,-0.009092,-0.019662,0.01801,-0.500496,0.021756,1.317125,-264.011291,-0.637105,62.223965
3.8792,0.006918,0.008794,0.01996,-0.00723,-0.009219,-0.021767,0.017905,-0.500853,0.020964,1.301418,-264.020166,-0.56711,62.221165
3.8992,0.00669,0.008761,0.01977,-0.007092,-0.008654,-0.01996,0.017423,-0.501038,0.020301,1.301418,-264.020166,-0.56711,62.221165
3.9189,0.006754,0.009112,0.020575,-0.006862,-0.008627,-0.01977,0.017423,-0.501038,0.020301,1.301418,-264.020166,-0.56711,62.221165
3.939,0.007355,0.008417,0.020764,-0.006941,-0.008971,-0.020575,0.017058,-0.501028,0.020009,1.246021,-264.025272,-0.492105,62.219404
3.9583,0.00742,0.008545,0.0196,-0.007528,-0.008263,-0.020764,0.01711,-0.501062,0.020044,1.246021,-264.025272,-0.492105,62.219404
3.9787,0.007277,0.008223,0.018011,-0.007586,-0.008398,-0.0196,0.017174,-0.501644,0.018922,1.25072,-264.032877,-0.465503,62.216368
3.9988,0.007386,0.008114,0.019897,-0.007424,-0.008091,-0.018011,0.01674,-0.501709,0.018319,1.25072,-264.032877,-0.465503,62.216368
4.0187,0.007589,0.007878,0.020489,-0.007546,-0.007966,-0.019897,0.01674,-0.501709,0.018319,1.25072,-264.032877,-0.465503,62.216368
4.0388,0.007353,0.007897,0.018468,-0.007749,-0.007721,-0.020489,0.017707,-0.502393,0.019555,1.225741,-264.041111,-0.530819,62.213139
4.0594,0.007198,0.007597,0.018059,-0.007497,-0.007759,-0.018468,0.017633,-0.502377,0.019455,1.225741,-264.041111,-0.530819,62.213139
4.0795,0.00785,0.007216,0.017143,-0.007334,-0.007466,-0.018059,0.016125,-0.502629,0.0173,1.211944,-264.049599,-0.506518,62.20973
4.0991,0.007591,0.007428,0.017446,-0.007972,-0.007081,-0.017143,0.016354,-0.502713,0.017114,1.211944,-264.049599,-0.506518,62.20973
4.1193,0.007581,0.007344,0.017013,-0.00772,-0.007295,-0.017446,0.016354,-0.502713,0.017114,1.211944,-264.049599,-0.506518,62.20973
4.1383,0.007894,0.007302,0.016093,-0.007705,-0.007214,-0.017013,0.015926,-0.502937,0.016181,1.195653,-264.057174,-0.438925,62.206664
4.1588,0.007679,0.006858,0.017081,-0.00801,-0.007174,-0.016093,0.015929,-0.502926,0.016154,1.195653,-264.057174,-0.438925,62.206664
4.1785,0.007989,0.006759,0.016676,-0.007795,-0.006726,-0.017081,0.016104,-0.503346,0.016426,1.164637,-264.064772,-0.410588,62.20339
4.1992,0.007554,0.006671,0.016374,-0.0081,-0.006625,-0.016676,0.01629,-0.503281,0.016485,1.164637,-264.064772,-0.410588,62.20339
4.2184,0.007534,0.006543,0.016171,-0.007662,-0.006546,-0.016374,0.01629,-0.503281,0.016485,1.164637,-264.064772,-0.410588,62.20339
4.2387,0.007663,0.006161,0.015217,-0.007662,-0.006546,-0.016374,0.015451,-0.503693,0.015493,1.130523,-264.071241,-0.335593,62.200485
4.2588,0.007826,0.006503,0.014935,-7.9e-05,-6.1e-05,0.0,0.01544,-0.503707,0.015456,1.130523,-264.071241,-0.335593,62.200485
4.2784,0.007678,0.006281,0.013748,-7.9e-05,-6.1e-05,0.0,0.015183,-0.503669,0.014379,1.137127,-264.077685,-0.410571,62.197515
4.2986,0.007635,0.0061,0.014285,-7.9e-05,-6.1e-05,0.0,0.014869,-0.503699,0.013949,1.137127,-264.077685,-0.410571,62.197515
4.3189,0.00771,0.006192,0.01566,-7.9e-05,-6.1e-05,0.0,0.014869,-0.503699,0.013949,1.137127,-264.077685,-0.410571,62.197515
4.3386,0.007897,0.005896,0.0124,-7.9e-05,-6.1e-05,0.0,0.015696,-0.503746,0.01566,1.062066,-264.077685,-0.33551,62.197515
4.3589,0.007922,0.005966,0.015002,-7.9e-05,-6.1e-05,0.0,0.015607,-0.503765,0.015463,1.062066,-264.077685,-0.33551,62.197515
4.3787,0.007735,0.006159,0.016203,-7.9e-05,-6.1e-05,0.0,0.015573,-0.503977,0.015002,0.987088,-264.077685,-0.260531,62.197515
4.3984,0.008115,0.006243,0.013507,-7.9e-05,-6.1e-05,0.0,0.015815,-0.503862,0.015684,0.987088,-264.077685,-0.260531,62.197515
4.4191,0.008035,0.006152,0.015213,-7.9e-05,-6.1e-05,0.0,0.015815,-0.503862,0.015684,0.987088,-264.077685,-0.260531,62.197515
4.4385,0.007747,0.006206,0.01256,-7.9e-05,-6.1e-05,0.0,0.015794,-0.503789,0.015213,0.912098,-264.077685,-0.185541,62.197515
4.4587,0.007849,0.00601,0.01385,-0.0,-0.0,-1e-06,0.015706,-0.503787,0.015071,0.912098,-264.077685,-0.185541,62.197515
4.4791,0.007645,0.006272,0.014046,-0.001137,-0.000886,-0.00223,0.014912,-0.503941,0.01385,0.837097,-264.077685,-0.110541,62.197515
4.4985,0.007701,0.006185,0.014256,-0.002211,-0.001723,-0.004337,0.014854,-0.503793,0.013961,0.837097,-264.077685,-0.110541,62.197515
4.5182,0.007819,0.005927,0.014091,-0.003227,-0.002515,-0.006332,0.014854,-0.503793,0.013961,0.837097,-264.077685,-0.110541,62.197515
4.5385,0.007791,0.005871,0.013617,-0.004188,-0.003263,-0.008217,0.015005,-0.504023,0.014091,0.912077,-264.077685,-0.18552,62.197515
4.5587,0.007643,0.006112,0.013308,-0.00509,-0.003966,-0.009987,0.014986,-0.504027,0.014058,0.912077,-264.077685,-0.18552,62.197515
4.5789,0.007826,0.00639,0.014753,-0.005932,-0.004622,-0.011639,0.014392,-0.50387,0.013249,0.987088,-264.078462,-0.260532,62.197135
4.5991,0.007656,0.00609,0.0147,-0.006716,-0.005234,-0.013179,0.014933,-0.503693,0.014099,0.987088,-264.078462,-0.260532,62.197135
4.6192,0.007538,0.006,0.01508,-0.007445,-0.005801,-0.014607,0.014933,-0.503693,0.014099,0.987088,-264.078462,-0.260532,62.197135
4.6384,0.007586,0.005532,0.013835,-0.008114,-0.006323,-0.015922,0.015074,-0.504062,0.014801,1.06221,-264.081163,-0.335654,62.195813
4.659,0.007826,0.006184,0.014467,-0.008725,-0.006799,-0.01712,0.015041,-0.504089,0.014729,1.06221,-264.081163,-0.335654,62.195813
4.6786,0.007261,0.005747,0.011849,-0.009279,-0.00723,-0.018207,0.014961,-0.503935,0.01401,1.102628,-264.086357,-0.396906,62.192855
4.6985,0.007808,0.005464,0.012013,-0.009773,-0.007615,-0.019175,0.013992,-0.504117,0.012729,1.102628,-264.086357,-0.396906,62.192855
4.7184,0.00757,0.00587,0.014233,-0.010208,-0.007955,-0.02003,0.013992,-0.504117,0.012729,1.102628,-264.086357,-0.396906,62.192855
4.7384,0.007649,0.005585,0.01332,-0.010586,-0.008249,-0.020771,0.014409,-0.504412,0.013403,1.102628,-264.094055,-0.396906,62.189071
4.7587,0.007904,0.005213,0.010642,-0.010906,-0.008498,-0.021399,0.0144,-0.504418,0.013376,1.102628,-264.094055,-0.396906,62.189071
4.7784,0.0075,0.005061,0.011809,-0.011168,-0.008702,-0.021913,0.01294,-0.505069,0.009869,1.102628,-264.103104,-0.396906,62.184644
4.7983,0.007428,0.005175,0.010604,-0.011371,-0.008861,-0.022312,0.013222,-0.505014,0.010875,1.102628,-264.103104,-0.396906,62.184644
4.8189,0.007628,0.004831,0.009213,-0.011517,-0.008974,-0.022598,0.013222,-0.505014,0.010875,1.102628,-264.103104,-0.396906,62.184644
4.8384,0.007632,0.004543,0.00963,-0.011604,-0.009042,-0.022769,0.0118,-0.505565,0.008172,1.102628,-264.112771,-0.396906,62.179914
4.8589,0.007645,0.004729,0.009853,-0.011633,-0.009065,-0.022826,0.011837,-0.505567,0.008244,1.102628,-264.112771,-0.396906,62.179914
4.8785,0.007512,0.003853,0.008701,-0.011604,-0.009042,-0.022769,0.012228,-0.505597,0.00898,1.102628,-264.122978,-0.396906,62.17492
4.8984,0.007543,0.004142,0.010616,-0.011517,-0.008974,-0.022598,0.012014,-0.505943,0.008711,1.102628,-264.122978,-0.396906,62.17492
4.919,0.007499,0.004094,0.009213,-0.011371,-0.008861,-0.022312,0.012014,-0.505943,0.008711,1.102628,-264.122978,-0.396906,62.17492
4.9384,0.007504,0.0036,0.007989,-0.011168,-0.008702,-0.021913,0.011634,-0.506332,0.008099,1.102628,-264.133292,-0.396906,62.169873
4.9588,0.007385,0.003906,0.00991,-0.010906,-0.008498,-0.021399,0.011617,-0.506345,0.008066,1.102628,-264.133292,-0.396906,62.169873
4.9787,0.008047,0.003341,0.007829,-0.010586,-0.008249,-0.020771,0.012002,-0.506416,0.009047,1.102628,-264.143372,-0.396906,62.164941
4.9985,0.007379,0.003234,0.006863,-0.010209,-0.007955,-0.020032,0.011969,-0.506589,0.008247,1.102628,-264.143372,-0.396906,62.164941
5.0188,0.007903,0.002848,0.007062,-0.009771,-0.007614,-0.019172,0.011969,-0.506589,0.008247,1.102628,-264.143372,-0.396906,62.164941
5.0383,0.007642,0.002808,0.005935,-0.009278,-0.007229,-0.018204,0.010977,-0.507556,0.00602,1.102628,-264.153072,-0.396906,62.160195
5.0589,0.007859,0.003318,0.006923,-0.008725,-0.006799,-0.017119,0.010938,-0.50754,0.005984,1.102628,-264.153072,-0.396906,62.160195
5.0785,0.007919,0.00218,0.004824,-0.008114,-0.006323,-0.015921,0.011014,-0.506966,0.006184,1.102628,-264.161704,-0.396906,62.155971
5.0986,0.00789,0.002558,0.004777,-0.007447,-0.005803,-0.014611,0.010608,-0.507483,0.005322,1.102628,-264.161704,-0.396906,62.155971
5.1186,0.007916,0.002447,0.00454,-0.006719,-0.005236,-0.013184,0.010608,-0.507483,0.005322,1.102628,-264.161704,-0.396906,62.155971
5.1386,0.007445,0.002178,0.003865,-0.005935,-0.004625,-0.011645,0.009809,-0.50788,0.003708,1.102628,-264.169448,-0.396906,62.152182
5.159,0.008202,0.002598,0.004064,-0.005084,-0.003962,-0.009976,0.009769,-0.507885,0.003696,1.102628,-264.169448,-0.396906,62.152182
5.1785,0.007826,0.001761,0.002578,-0.004189,-0.003264,-0.00822,0.010016,-0.507601,0.003555,1.102628,-264.175405,-0.396906,62.149268
5.1983,0.007708,0.002086,0.003173,-0.003227,-0.002514,-0.006332,0.009483,-0.507991,0.002932,1.102628,-264.175405,-0.396906,62.149268
5.2183,0.007662,0.001932,0.005664,-0.002212,-0.001723,-0.00434,0.009483,-0.507991,0.002932,1.102628,-264.175405,-0.396906,62.149268
5.2384,0.007786,0.00161,0.003283,-0.001135,-0.000885,-0.002228,0.010304,-0.508254,0.005179,1.102628,-264.179906,-0.396906,62.147065
5.2588,0.007904,0.001396,0.002592,-2e-06,-1e-06,-3e-06,0.01024,-0.508268,0.005036,1.102628,-264.179906,-0.396906,62.147065
5.2784,0.007996,0.001703,0.003739,0.0,0.0,0.0,0.009141,-0.508669,0.002425,1.102628,-264.181869,-0.396906,62.146105
5.2985,0.007883,0.001161,0.00116,0.0,0.0,0.0,0.009568,-0.508461,0.003158,1.102628,-264.181869,-0.396906,62.146105
5.3185,0.007817,0.00116,0.001819,0.0,0.0,0.0,0.009568,-0.508461,0.003158,1.102628,-264.181869,-0.396906,62.146105
5.3387,0.007829,0.001529,0.003782,0.0,0.0,0.0,0.008744,-0.50884,0.001818,1.102628,-264.18187,-0.396906,62.146104
5.3587,0.008147,0.001975,0.001755,0.0,0.0,0.0,0.00881,-0.508815,0.001946,1.102628,-264.18187,-0.396906,62.146104
5.3784,0.007648,0.00161,0.003598,0.0,0.0,0.0,0.009042,-0.508024,0.001755,1.102628,-264.18187,-0.396906,62.146104
5.3986,0.007818,0.001513,0.001767,0.0,0.0,0.0,0.009298,-0.508234,0.002822,1.102628,-264.18187,-0.396906,62.146104
5.4188,0.007864,0.001115,0.001947,0.0,0.0,0.0,0.009298,-0.508234,0.002822,1.102628,-264.18187,-0.396906,62.146104
5.4385,0.007946,0.001498,0.002137,0.0,0.0,0.0,0.008857,-0.508884,0.001947,1.102628,-264.18187,-0.396906,62.146104
5.4591,0.007576,0.001644,0.001984,0.0,0.0,0.0,0.00887,-0.508856,0.001961,1.102628,-264.18187,-0.396906,62.146104
5.4785,0.007999,0.001993,0.002952,-9.8e-05,-2.1e-05,0.0,0.008588,-0.508355,0.001984,1.102628,-264.18187,-0.396906,62.146104
5.4983,0.008095,0.001401,0.001608,-9.8e-05,-2.1e-05,0.0,0.009113,-0.508155,0.002538,1.102628,-264.18187,-0.396906,62.146104
5.5187,0.007857,0.001214,0.001718,-9.8e-05,-2.1e-05,0.0,0.009113,-0.508155,0.002538,1.102628,-264.18187,-0.396906,62.146104
5.5384,0.007913,0.001658,0.002983,-9.8e-05,-2.1e-05,0.0,0.008733,-0.508785,0.001718,1.102628,-264.18187,-0.396906,62.146104
5.5583,0.007842,0.001667,0.003805,-9.8e-05,-2.1e-05,0.0,0.00878,-0.508755,0.001802,1.102628,-264.18187,-0.396906,62.146104
5.5783,0.007647,0.001881,0.003725,-9.8e-05,-2.1e-05,0.0,0.009782,-0.50833,0.003805,1.027651,-264.18187,-0.321929,62.146104
5.5988,0.007801,0.001111,0.001971,-9.8e-05,-2.1e-05,0.0,0.009647,-0.508207,0.003759,1.027651,-264.18187,-0.321929,62.146104
5.6184,0.008173,0.001354,0.003279,-9.8e-05,-2.1e-05,0.0,0.009647,-0.508207,0.003759,1.027651,-264.18187,-0.321929,62.146104
5.6384,0.007531,0.001581,0.003779,-9.8e-05,-2.1e-05,0.0,0.009845,-0.508643,0.003279,0.952593,-264.18187,-0.246871,62.146104
5.6584,0.007654,0.00162,0.002143,-9.8e-05,-2.1e-05,0.0,0.009817,-0.508626,0.003316,0.952593,-264.18187,-0.246871,62.146104
5.6791,0.007909,0.001459,0.003402,-9.8e-05,-2.1e-05,0.0,0.008747,-0.508379,0.002143,0.877633,-264.18187,-0.171911,62.146104
5.6984,0.007436,0.001433,0.001864,-0.001113,-0.000239,-0.000291,0.009261,-0.50847,0.002865,0.877633,-264.18187,-0.171911,62.146104
5.7184,0.008051,0.001177,0.001557,-0.002159,-0.000464,-0.000565,0.009261,-0.50847,0.002865,0.877633,-264.18187,-0.171911,62.146104
5.7384,0.007879,0.00134,0.002856,-0.003155,-0.000678,-0.000826,0.008845,-0.508823,0.001557,0.802605,-264.18187,-0.096883,62.146104
5.7589,0.00806,0.001371,0.00151,-0.004091,-0.000879,-0.001071,0.008878,-0.508812,0.001644,0.802605,-264.18187,-0.096883,62.146104
5.7783,0.008303,0.001622,0.003675,-0.004974,-0.001069,-0.001302,0.008828,-0.50863,0.001508,0.727743,-264.181895,-0.022021,62.146081
5.7985,0.007982,0.001533,0.002764,-0.005798,-0.001246,-0.001518,0.009598,-0.508484,0.002746,0.727743,-264.181895,-0.022021,62.146081
5.819,0.007965,0.001614,0.002701,-0.006566,-0.001411,-0.001719,0.009598,-0.508484,0.002746,0.727743,-264.181895,-0.022021,62.146081
5.8385,0.007573,0.001675,0.002642,-0.007279,-0.001564,-0.001906,0.009325,-0.508391,0.002692,0.652601,-264.182065,0.053122,62.145922
5.8586,0.007954,0.001527,0.002693,-0.007931,-0.001705,-0.002077,0.009302,-0.508387,0.002689,0.652601,-264.182065,0.053122,62.145922
5.8795,0.007959,0.001543,0.00174,-0.008531,-0.001833,-0.002234,0.009268,-0.508491,0.002666,0.57773,-264.182754,0.05495,62.145275
5.8988,0.007768,0.001742,0.001934,-0.009067,-0.001949,-0.002374,0.009022,-0.508474,0.002139,0.57773,-264.182754,0.05495,62.145275
5.9188,0.007513,0.001552,0.002909,-0.009553,-0.002053,-0.002501,0.009022,-0.508474,0.002139,0.57773,-264.182754,0.05495,62.145275
5.9388,0.00785,0.001216,0.003354,-0.009978,-0.002144,-0.002612,0.008825,-0.508497,0.002843,0.502723,-264.184315,0.05495,62.143811
5.9589,0.007528,0.001449,0.002177,-0.010347,-0.002224,-0.002709,0.008869,-0.508517,0.002875,0.502723,-264.184315,0.05495,62.143811
5.9786,0.007314,0.001418,0.002555,-0.010659,-0.002291,-0.002791,0.008377,-0.508617,0.002093,0.427726,-264.187239,0.05495,62.14107
5.999,0.007654,0.001475,0.001202,-0.010915,-0.002346,-0.002858,0.00848,-0.508605,0.002343,0.427726,-264.187239,0.05495,62.14107
6.0184,0.007181,0.001764,0.001211,-0.011115,-0.002389,-0.00291,0.00848,-0.508605,0.002343,0.427726,-264.187239,0.05495,62.14107
6.0385,0.007039,0.00107,0.003048,-0.011256,-0.002419,-0.002947,0.007332,-0.508336,0.001089,0.358602,-264.191333,0.05495,62.137231
6.0588,0.006889,0.001217,0.001148,-0.011341,-0.002437,-0.002969,0.007403,-0.508377,0.001213,0.358602,-264.191333,0.05495,62.137231
6.0784,0.006421,0.001202,0.002146,-0.011369,-0.002443,-0.002977,0.007044,-0.508875,0.001036,0.358602,-264.196082,0.05495,62.132777
6.0989,0.006579,0.00156,0.002351,-0.011341,-0.002437,-0.002969,0.007258,-0.508843,0.001652,0.358602,-264.196082,0.05495,62.132777
6.1184,0.006443,0.001283,0.001886,-0.011256,-0.002419,-0.002947,0.007258,-0.508843,0.001652,0.358602,-264.196082,0.05495,62.132777
6.1383,0.006015,0.00101,0.00228,-0.011113,-0.002388,-0.002909,0.006853,-0.508835,0.001741,0.358602,-264.200926,0.05495,62.128234
6.1585,0.00607,0.000972,0.003339,-0.010912,-0.002345,-0.002857,0.00686,-0.508848,0.001773,0.358602,-264.200926,0.05495,62.128234
6.1786,0.005219,0.00078,0.001372,-0.010659,-0.002291,-0.002791,0.007338,-0.50912,0.003225,0.358602,-264.205734,0.05495,62.123725
6.1989,0.005489,0.000972,0.002878,-0.010347,-0.002224,-0.002709,0.006477,-0.509188,0.002159,0.358602,-264.205734,0.05495,62.123725
6.2189,0.005408,0.000685,0.002166,-0.009977,-0.002144,-0.002612,0.006477,-0.509188,0.002159,0.358602,-264.205734,0.05495,62.123725
6.2384,0.004882,0.000883,-0.00081,-0.009551,-0.002053,-0.0025,0.005983,-0.509428,0.002027,0.358602,-264.210411,0.05495,62.119339
6.2586,0.005172,0.000477,0.001462,-0.009068,-0.001949,-0.002374,0.00585,-0.509408,0.001803,0.358602,-264.210411,0.05495,62.119339
6.2786,0.004585,0.000735,0.000432,-0.008524,-0.001832,-0.002232,0.005534,-0.509606,0.001361,0.358602,-264.214664,0.05495,62.11535
6.2988,0.00431,0.000899,0.000579,-0.007928,-0.001704,-0.002076,0.005069,-0.509422,0.000818,0.358602,-264.214664,0.05495,62.11535
6.3191,0.004579,0.000448,0.0017,-0.007278,-0.001564,-0.001905,0.005069,-0.509422,0.000818,0.358602,-264.214664,0.05495,62.11535
6.3384,0.004392,0.000695,0.000974,-0.006567,-0.001411,-0.001719,0.005006,-0.509646,0.001585,0.358602,-264.218537,0.05495,62.111718
6.3592,0.003855,0.000665,0.001427,-0.005799,-0.001246,-0.001518,0.004986,-0.509625,0.00154,0.358602,-264.218537,0.05495,62.111718
6.3784,0.003643,0.000784,0.00052,-0.004972,-0.001068,-0.001302,0.004302,-0.509395,0.001353,0.358602,-264.221647,0.05495,62.108801
6.3984,0.003886,0.000174,0.001763,-0.004094,-0.00088,-0.001072,0.004041,-0.5093,0.000866,0.358602,-264.221647,0.05495,62.108801
6.4186,0.004009,0.000235,0.000614,-0.003156,-0.000678,-0.000826,0.004041,-0.5093,0.000866,0.358602,-264.221647,0.05495,62.108801
6.4386,0.003242,0.000408,0.001273,-0.002162,-0.000465,-0.000566,0.004041,-0.509825,0.00054,0.358602,-264.224124,0.05495,62.106479
6.4583,0.003652,0.000557,0.002192,-0.001106,-0.000238,-0.000289,0.004022,-0.50981,0.000591,0.358602,-264.224124,0.05495,62.106479
6.4794,0.003479,0.000433,0.000471,0.0,0.0,0.0,0.004648,-0.509468,0.00216,0.358602,-264.225471,0.05495,62.105216
6.4987,0.003265,0.000376,0.00147,0.0,0.0,0.0,0.004105,-0.509528,0.001196,0.358602,-264.225471,0.05495,62.105216
6.5192,0.003266,0.000464,0.00086,0.0,0.0,0.0,0.004105,-0.509528,0.001196,0.358602,-264.225471,0.05495,62.105216
6.5388,0.00322,0.000507,0.002365,0.0,0.0,0.0,0.00365,-0.509548,0.000846,0.358602,-264.225944,0.05495,62.104772
6.5592,0.003469,0.000492,0.001094,0.0,0.0,0.0,0.003703,-0.509544,0.000952,0.358602,-264.225944,0.05495,62.104772
6.5788,0.003306,0.000406,0.000569,0.0,0.0,0.0,0.004027,-0.509508,0.001094,0.358602,-264.225944,0.05495,62.104772
6.5989,0.003145,0.000373,0.001616,0.0,0.0,0.0,0.003782,-0.509557,0.000795,0.358602,-264.225944,0.05495,62.104772
6.6187,0.003429,0.000261,0.000531,0.0,0.0,0.0,0.003782,-0.509557,0.000795,0.358602,-264.225944,0.05495,62.104772
6.6388,0.003415,0.000222,0.002825,0.0,0.0,0.0,0.003699,-0.509739,0.000531,0.358602,-264.225944,0.05495,62.104772
6.6592,0.003222,0.000565,0.00093,0.0,0.0,0.0,0.003773,-0.509741,0.000678,0.358602,-264.225944,0.05495,62.104772
6.6784,0.003596,0.000247,0.001214,0.0,0.0,0.0,0.003696,-0.509435,0.00093,0.358602,-264.225944,0.05495,62.104772
6.6987,0.003451,6.3e-05,0.000137,-0.0001,-7e-06,0.0,0.003991,-0.509615,0.001091,0.358602,-264.225944,0.05495,62.104772
6.7185,0.003187,0.000392,0.002481,-0.0001,-7e-06,0.0,0.003991,-0.509615,0.001091,0.358602,-264.225944,0.05495,62.104772
6.7387,0.003481,0.00042,0.003427,-0.0001,-7e-06,0.0,0.004452,-0.509606,0.002481,0.358602,-264.225944,0.05495,62.104772
6.7584,0.003448,0.000206,0.00095,-0.0001,-7e-06,0.0,0.004503,-0.509605,0.002543,0.358602,-264.225944,0.05495,62.104772
6.7787,0.003434,0.000386,-0.000493,-0.0001,-7e-06,0.0,0.003932,-0.509794,0.00095,0.283596,-264.225954,0.067426,62.104762
6.7984,0.00327,0.000258,0.00184,-0.0001,-7e-06,0.0,0.003509,-0.509692,0.000136,0.283596,-264.225954,0.067426,62.104762
6.8187,0.003329,0.000349,0.001126,-0.0001,-7e-06,0.0,0.003509,-0.509692,0.000136,0.283596,-264.225954,0.067426,62.104762
6.8389,0.003702,0.000699,0.002636,-0.0001,-7e-06,0.0,0.003901,-0.509651,0.001126,0.208606,-264.225973,0.067426,62.104743
6.8587,0.003741,5.8e-05,0.001311,-0.0001,-7e-06,0.0,0.00398,-0.509627,0.00123,0.208606,-264.225973,0.067426,62.104743
6.8788,0.003471,0.000355,0.002007,-0.0001,-7e-06,0.0,0.004407,-0.509942,0.001311,0.133604,-264.226002,0.067426,62.104714
6.8987,0.003264,0.000596,0.001436,-0.0001,-7e-06,0.0,0.004457,-0.509772,0.001709,0.133604,-264.226002,0.067426,62.104714
6.9188,0.003552,0.000241,0.002001,-0.000524,-3.5e-05,-0.000177,0.004457,-0.509772,0.001709,0.133604,-264.226002,0.067426,62.104714
6.9387,0.003418,0.000355,0.001611,-0.001023,-6.9e-05,-0.000345,0.004568,-0.509758,0.002001,0.067426,-264.226039,0.067426,62.104677
6.959,0.003205,0.000296,0.001284,-0.001494,-0.000101,-0.000504,0.004545,-0.50975,0.001974,0.067426,-264.226039,0.067426,62.104677
6.9785,0.00322,0.000455,0.001298,-0.001944,-0.000131,-0.000656,0.003855,-0.509704,0.001283,0.142557,-264.226097,-0.007706,62.10462
6.9985,0.003658,0.000408,0.002709,-0.00236,-0.000159,-0.000796,0.003869,-0.509614,0.001291,0.142557,-264.226097,-0.007706,62.10462
7.0189,0.003315,-1.1e-05,0.001159,-0.00275,-0.000186,-0.000928,0.003869,-0.509614,0.001291,0.142557,-264.226097,-0.007706,62.10462
7.0388,0.003334,0.000325,0.003776,-0.003115,-0.00021,-0.001051,0.003862,-0.510014,0.001148,0.217349,-264.226465,-0.082498,62.104262
7.0589,0.003411,0.000177,0.000661,-0.003451,-0.000233,-0.001165,0.003953,-0.509991,0.001322,0.217349,-264.226465,-0.082498,62.104262
7.0784,0.003162,0.00017,-0.000158,-0.003761,-0.000254,-0.00127,0.003651,-0.50983,0.000628,0.267126,-264.227509,-0.137733,62.103245
7.0982,0.003283,0.000431,0.002091,-0.004045,-0.000273,-0.001365,0.003315,-0.509831,0.000178,0.267126,-264.227509,-0.137733,62.103245
7.1183,0.00338,0.000385,0.000536,-0.004301,-0.00029,-0.001452,0.003315,-0.509831,0.000178,0.267126,-264.227509,-0.137733,62.103245
7.1384,0.003129,0.000293,-2.4e-05,-0.004532,-0.000306,-0.001529,0.003485,-0.509626,0.00048,0.267126,-264.22894,-0.137733,62.101852
7.1588,0.003046,0.000451,0.001358,-0.004733,-0.00032,-0.001597,0.003456,-0.509632,0.000445,0.267126,-264.22894,-0.137733,62.101852
7.1783,0.002673,0.000338,0.000466,-0.004909,-0.000331,-0.001657,0.003572,-0.50956,0.001302,0.267126,-264.230724,-0.137733,62.100115
7.1984,0.002925,0.000251,0.001195,-0.005057,-0.000341,-0.001707,0.003176,-0.509619,0.000821,0.267126,-264.230724,-0.137733,62.100115
