mach0312/omni-docking-bench/src/icros_test_setup/results/kinematic_sample/timeseries/trial_105.csv
t,x,y,yaw,vx,vy,wz,bl_x,bl_y,bl_yaw,front_steering_joint,front_wheel_joint,rear_steering_joint,rear_wheel_joint
0.0,0.017744,0.019637,-0.067765,-0.008465,0.000475,-0.004095,-0.015477,-0.489533,-0.066704,0.234915,-264.574807,-0.338137,62.369751
0.0005,0.017956,0.019235,-0.068603,-0.007184,0.000403,-0.003476,-0.016412,-0.489355,-0.068243,0.234915,-264.578333,-0.338137,62.366117
0.0009,0.017186,0.019738,-0.06747,-0.00682,0.000383,-0.0033,-0.016412,-0.489355,-0.068243,0.234915,-264.581687,-0.338137,62.362659
0.0012,0.017359,0.019809,-0.068348,-0.00641,0.00036,-0.003101,-0.016412,-0.489355,-0.068243,0.234915,-264.584887,-0.338137,62.35936
0.0016,0.016982,0.019791,-0.067224,-0.005966,0.000335,-0.002886,-0.016755,-0.488995,-0.068183,0.234915,-264.587697,-0.338137,62.356463
0.002,0.016809,0.019312,-0.067985,-0.005473,0.000307,-0.002648,-0.016755,-0.488995,-0.068183,0.234915,-264.59015,-0.338137,62.353935
0.0023,0.017176,0.019506,-0.069483,-0.004938,0.000277,-0.002389,-0.016833,-0.489009,-0.068224,0.234915,-264.591942,-0.338137,62.352087
0.0026,0.017164,0.01985,-0.069297,-0.004363,0.000245,-0.002111,-0.016833,-0.489009,-0.068224,0.234915,-264.591942,-0.338137,62.352087
0.0029,0.016719,0.019575,-0.069082,-0.003743,0.00021,-0.001811,-0.017481,-0.489512,-0.068253,0.234915,-264.591942,-0.338137,62.352087
0.0031,0.016702,0.019591,-0.068817,-0.00308,0.000173,-0.00149,-0.017127,-0.489325,-0.067995,0.234915,-264.591942,-0.338137,62.352087
0.0054,0.016628,0.019747,-0.068517,-0.002373,0.000133,-0.001148,-0.018448,-0.48891,-0.069417,0.234915,-264.591942,-0.338137,62.352087
0.0255,0.016468,0.019617,-0.069056,-0.015237,-0.015867,0.028852,-0.018418,-0.489108,-0.068695,0.234915,-264.591942,-0.338137,62.352087
0.0457,0.01637,0.019841,-0.068936,-0.015075,-0.020707,0.05,-0.018418,-0.489108,-0.068695,0.234915,-264.591942,-0.338137,62.352087
0.0656,0.016428,0.019543,-0.069508,-0.014965,-0.020922,0.05,-0.018908,-0.488929,-0.069009,0.234915,-264.593209,-0.338137,62.350781
0.0855,0.016828,0.019792,-0.06923,-0.015031,-0.020637,0.05,-0.018917,-0.488947,-0.069043,0.234915,-264.593209,-0.338137,62.350781
0.1051,0.016561,0.019714,-0.070471,-0.015419,-0.020909,0.05,-0.018451,-0.488986,-0.06923,0.159907,-264.593209,-0.263129,62.350781
0.1255,0.016578,0.019524,-0.070414,-0.015132,-0.020831,0.05,-0.018971,-0.489006,-0.069947,0.159907,-264.593209,-0.263129,62.350781
0.1451,0.01636,0.019413,-0.068697,-0.015164,-0.020642,0.05,-0.018971,-0.489006,-0.069947,0.159907,-264.593209,-0.263129,62.350781
0.1655,0.016906,0.019564,-0.068963,-0.014989,-0.02049,0.05,-0.018648,-0.489384,-0.068697,0.08462,-264.593209,-0.187842,62.350781
0.1851,0.016727,0.019629,-0.069317,-0.015518,-0.020683,0.05,-0.018614,-0.489371,-0.068718,0.08462,-264.593209,-0.187842,62.350781
0.2054,0.016687,0.019593,-0.070514,-0.015327,-0.02074,0.05,-0.018597,-0.489147,-0.069317,0.009494,-264.593209,-0.112716,62.350781
0.2256,0.016891,0.019531,-0.06849,-0.015265,-0.02072,0.05,-0.018965,-0.489142,-0.069998,0.009494,-264.593209,-0.112716,62.350781
0.2455,0.016463,0.019783,-0.069986,-0.015515,-0.020641,0.05,-0.018965,-0.489142,-0.069998,0.009494,-264.593209,-0.112716,62.350781
0.2653,0.016742,0.019397,-0.069311,-0.01504,-0.020886,0.05,-0.0192,-0.488968,-0.069986,-0.065074,-264.593209,-0.038148,62.350781
0.2855,0.017186,0.019412,-0.06989,-0.015358,-0.02051,0.05,-0.019155,-0.488998,-0.069937,-0.065074,-264.593209,-0.038148,62.350781
0.3052,0.016706,0.019797,-0.070305,-0.015789,-0.020565,0.05,-0.018429,-0.489343,-0.06989,-0.140172,-264.593209,0.03695,62.350781
0.3252,0.016591,0.019838,-0.068495,-0.015274,-0.020922,0.05,-0.018825,-0.489114,-0.070127,-0.140172,-264.593209,0.03695,62.350781
0.3452,0.016715,0.019618,-0.069926,-0.015195,-0.020927,0.05,-0.018825,-0.489114,-0.070127,-0.140172,-264.593209,0.03695,62.350781
0.3652,0.016341,0.02007,-0.069123,-0.015304,-0.020738,0.05,-0.018918,-0.489136,-0.069926,-0.215212,-264.593209,0.11199,62.350781
0.3851,0.016804,0.019609,-0.067869,-0.014915,-0.021151,0.05,-0.018916,-0.489107,-0.069871,-0.215212,-264.593209,0.11199,62.350781
0.4051,0.01618,0.019671,-0.068562,-0.015436,-0.020703,0.05,-0.017782,-0.489217,-0.067869,-0.290079,-264.593209,0.186857,62.350781
0.4252,0.016687,0.019296,-0.068287,-0.014794,-0.020733,0.05,-0.018338,-0.489168,-0.068263,-0.290079,-264.593209,0.186857,62.350781
0.4453,0.016421,0.019747,-0.067966,-0.015332,-0.02039,0.05,-0.018338,-0.489168,-0.068263,-0.290079,-264.593209,0.186857,62.350781
0.4651,0.01676,0.019531,-0.067497,-0.015042,-0.020816,0.05,-0.018215,-0.489076,-0.067966,-0.36508,-264.593209,0.261858,62.35078
0.486,0.016863,0.019764,-0.069191,-0.015405,-0.020617,0.05,-0.018175,-0.489092,-0.067934,-0.36508,-264.593209,0.261858,62.35078
0.5055,0.016564,0.019299,-0.069561,-0.015456,-0.020883,0.05,-0.018396,-0.489015,-0.069191,-0.440081,-264.59321,0.336859,62.350779
0.5253,0.017029,0.019579,-0.068008,-0.015183,-0.020404,0.05,-0.018673,-0.489272,-0.069401,-0.440081,-264.59321,0.336859,62.350779
0.5452,0.016811,0.019698,-0.069278,-0.015659,-0.020691,0.05,-0.018673,-0.489272,-0.069401,-0.440081,-264.59321,0.336859,62.350779
0.5654,0.01677,0.019333,-0.067704,-0.015408,-0.020814,0.05,-0.018492,-0.489079,-0.069278,-0.515094,-264.59321,0.411872,62.350777
0.5854,0.016686,0.019806,-0.068912,-0.015424,-0.020423,0.05,-0.018441,-0.489107,-0.069171,-0.515094,-264.59321,0.411872,62.350777
0.6053,0.016223,0.01992,-0.069233,-0.015283,-0.020908,0.05,-0.018431,-0.488983,-0.068912,-0.56134,-264.593211,0.486865,62.350775
0.6253,0.0165,0.019384,-0.068001,-0.014806,-0.020994,0.05,-0.018791,-0.488912,-0.069096,-0.56134,-264.593211,0.486865,62.350775
0.6455,0.01667,0.019779,-0.069612,-0.015144,-0.020461,0.05,-0.018791,-0.488912,-0.069096,-0.56134,-264.593211,0.486865,62.350775
0.6653,0.016376,0.019582,-0.068438,-0.015254,-0.02089,0.05,-0.018803,-0.488986,-0.069612,-0.580399,-264.593212,0.562211,62.350773
0.6851,0.016318,0.019531,-0.069035,-0.014998,-0.020656,0.05,-0.018781,-0.489004,-0.069525,-0.580399,-264.593212,0.562211,62.350773
0.7051,0.016671,0.019715,-0.0694,-0.014932,-0.020611,0.05,-0.018862,-0.489254,-0.069035,-0.587116,-264.593213,0.63716,62.350769
0.7254,0.016505,0.019915,-0.068387,-0.015264,-0.020824,0.05,-0.018767,-0.489142,-0.069242,-0.587116,-264.593213,0.63716,62.350769
0.7451,0.016478,0.019522,-0.069641,-0.015106,-0.020997,0.05,-0.018767,-0.489142,-0.069242,-0.587116,-264.593213,0.63716,62.350769
0.7655,0.016116,0.01962,-0.06977,-0.01508,-0.020622,0.05,-0.019011,-0.489242,-0.06964,-0.582563,-264.593219,0.711867,62.350751
0.7856,0.016748,0.019753,-0.068988,-0.01471,-0.020695,0.05,-0.019045,-0.489234,-0.06965,-0.582563,-264.593219,0.711867,62.350751
0.8054,0.016972,0.019573,-0.068305,-0.015347,-0.020861,0.05,-0.018411,-0.489036,-0.068982,-0.563326,-264.593246,0.787311,62.35067
0.8252,0.016438,0.019937,-0.067809,-0.015596,-0.020685,0.05,-0.018082,-0.489152,-0.068593,-0.563326,-264.593246,0.787311,62.35067
0.8451,0.016408,0.019586,-0.068587,-0.01505,-0.021005,0.05,-0.018082,-0.489152,-0.068593,-0.563326,-264.593246,0.787311,62.35067
0.8662,0.016678,0.019794,-0.068919,-0.015027,-0.020664,0.05,-0.018562,-0.489224,-0.068559,-0.589685,-264.593347,0.861999,62.350367
0.8859,0.016638,0.019658,-0.067989,-0.015275,-0.020896,0.05,-0.018554,-0.489207,-0.068585,-0.589685,-264.593347,0.861999,62.350367
0.905,0.016662,0.01962,-0.06857,-0.015264,-0.020743,0.05,-0.018057,-0.489193,-0.067905,-0.564631,-264.593707,0.937011,62.349282
0.925,0.016265,0.019535,-0.068202,-0.015279,-0.020716,0.05,-0.018193,-0.48919,-0.068279,-0.564631,-264.593707,0.937011,62.349282
0.9453,0.016402,0.019587,-0.069006,-0.014895,-0.020598,0.05,-0.018193,-0.48919,-0.068279,-0.564631,-264.593707,0.937011,62.349282
0.9658,0.016005,0.019248,-0.068491,-0.015013,-0.020671,0.05,-0.018922,-0.489313,-0.068693,-0.563055,-264.594737,1.012119,62.346223
0.9863,0.015905,0.01912,-0.068593,-0.01465,-0.020298,0.05,-0.018925,-0.489332,-0.068671,-0.563055,-264.594737,1.012119,62.346223
1.0058,0.015606,0.019312,-0.068542,-0.014557,-0.020165,0.05,-0.019273,-0.48985,-0.068108,-0.588447,-264.596813,1.086865,62.340662
1.0253,0.016022,0.019228,-0.067433,-0.014247,-0.020335,0.05,-0.019329,-0.48967,-0.068291,-0.588447,-264.596813,1.086865,62.340662
1.0454,0.015502,0.019114,-0.066848,-0.01469,-0.020264,0.05,-0.019329,-0.48967,-0.068291,-0.588447,-264.596813,1.086865,62.340662
1.0655,0.014325,0.019202,-0.06706,-0.01419,-0.020106,0.05,-0.018963,-0.490044,-0.065904,-0.609997,-264.600471,1.161863,62.332571
1.0851,0.014674,0.018621,-0.066487,-0.013006,-0.020119,0.05,-0.019043,-0.490023,-0.065965,-0.609997,-264.600471,1.161863,62.332571
1.1056,0.013621,0.018485,-0.067692,-0.013404,-0.019554,0.05,-0.019614,-0.490554,-0.065453,-0.61031,-264.605989,1.237154,62.322013
1.1254,0.01365,0.018752,-0.065053,-0.012339,-0.019364,0.05,-0.020392,-0.490473,-0.06661,-0.61031,-264.605989,1.237154,62.322013
1.1453,0.013452,0.018696,-0.06499,-0.012402,-0.0196,0.05,-0.020392,-0.490473,-0.06661,-0.61031,-264.605989,1.237154,62.322013
1.1655,0.011908,0.018503,-0.063151,-0.01221,-0.01953,0.05,-0.02017,-0.49075,-0.063391,-0.6754,-264.611562,1.312082,62.308981
1.1858,0.012399,0.01846,-0.062887,-0.010716,-0.019217,0.05,-0.020191,-0.490745,-0.063331,-0.6754,-264.611562,1.312082,62.308981
1.2055,0.010916,0.017684,-0.061557,-0.011214,-0.019203,0.05,-0.0201,-0.491038,-0.061342,-0.72272,-264.617926,1.328294,62.293397
1.2252,0.010187,0.017491,-0.062355,-0.009807,-0.018322,0.05,-0.020357,-0.491276,-0.061273,-0.72272,-264.617926,1.328294,62.293397
1.2452,0.010303,0.017519,-0.060716,-0.009077,-0.018091,0.05,-0.020357,-0.491276,-0.061273,-0.72272,-264.617926,1.328294,62.293397
1.2651,0.0088,0.017134,-0.060786,-0.009221,-0.018112,0.05,-0.021144,-0.492323,-0.058622,-0.79786,-264.623313,1.358652,62.27581
1.2855,0.00866,0.016726,-0.059256,-0.007743,-0.017637,0.05,-0.021229,-0.492316,-0.058716,-0.79786,-264.623313,1.358652,62.27581
1.3052,0.007381,0.01671,-0.057819,-0.007654,-0.017209,0.05,-0.021835,-0.492871,-0.057891,-0.87272,-264.627708,1.386253,62.261697
1.3252,0.007648,0.016257,-0.058487,-0.006403,-0.017109,0.05,-0.022017,-0.492685,-0.057679,-0.87272,-264.627708,1.386253,62.261697
1.3451,0.007879,0.015942,-0.057243,-0.006685,-0.016676,0.05,-0.022017,-0.492685,-0.057679,-0.87272,-264.627708,1.386253,62.261697
1.365,0.006168,0.016043,-0.055848,-0.006954,-0.016367,0.05,-0.021598,-0.493786,-0.055649,-0.947887,-264.631699,1.411433,62.248752
1.3854,0.006451,0.016027,-0.056677,-0.005263,-0.016363,0.05,-0.021654,-0.493758,-0.055621,-0.947887,-264.631699,1.411433,62.248752
1.4055,0.005248,0.015346,-0.054968,-0.005532,-0.016366,0.05,-0.022635,-0.493547,-0.055508,-1.022719,-264.635475,1.43015,62.237053
1.4256,0.005419,0.015261,-0.053895,-0.004397,-0.015611,0.05,-0.022738,-0.49379,-0.055051,-1.022719,-264.635475,1.43015,62.237053
1.4456,0.005528,0.01547,-0.054092,-0.004589,-0.01553,0.05,-0.022738,-0.49379,-0.055051,-1.022719,-264.635475,1.43015,62.237053
1.466,0.004572,0.014689,-0.054186,-0.004683,-0.015746,0.05,-0.022229,-0.494216,-0.052789,-1.097862,-264.638755,1.459043,62.226816
1.4856,0.00441,0.015076,-0.053623,-0.00377,-0.014915,0.05,-0.02229,-0.494251,-0.05285,-1.097862,-264.638755,1.459043,62.226816
1.505,0.003844,0.014301,-0.050961,-0.003596,-0.01529,0.05,-0.023068,-0.494554,-0.052463,-1.17273,-264.64256,1.471504,62.21559
1.5253,0.003414,0.014535,-0.051574,-0.00311,-0.014478,0.05,-0.022553,-0.494876,-0.051457,-1.17273,-264.64256,1.471504,62.21559
1.5451,0.003563,0.014475,-0.052319,-0.00266,-0.014692,0.05,-0.022553,-0.494876,-0.051457,-1.17273,-264.64256,1.471504,62.21559
1.5653,0.002615,0.014193,-0.051852,-0.002801,-0.014642,0.05,-0.023273,-0.4953,-0.050738,-1.247834,-264.646768,1.488052,62.203649
1.5855,0.002716,0.013884,-0.050552,-0.001876,-0.014309,0.05,-0.023315,-0.4953,-0.050774,-1.247834,-264.646768,1.488052,62.203649
1.6057,0.001744,0.01385,-0.04966,-0.00201,-0.014004,0.05,-0.023159,-0.495842,-0.049267,-1.322728,-264.651061,1.512043,62.191541
1.6256,0.001734,0.013564,-0.050343,-0.001055,-0.01392,0.04966,-0.023407,-0.495708,-0.049327,-1.322728,-264.651061,1.512043,62.191541
1.6458,0.001332,0.012908,-0.050074,-0.00105,-0.013635,0.05,-0.023407,-0.495708,-0.049327,-1.322728,-264.651061,1.512043,62.191541
1.6651,0.000248,0.012721,-0.046254,-0.000684,-0.012959,0.05,-0.024306,-0.496973,-0.048251,-1.397753,-264.655978,1.528985,62.178032
1.6856,0.000445,0.012846,-0.046066,0.00034,-0.012719,0.046254,-0.024238,-0.49697,-0.048054,-1.397753,-264.655978,1.528985,62.178032
1.7054,-0.000781,0.012138,-0.045016,0.000147,-0.012853,0.046066,-0.023102,-0.497039,-0.044497,-1.473073,-264.661497,1.547037,62.163634
1.7253,-0.000878,0.012733,-0.04413,0.001327,-0.012091,0.045016,-0.023471,-0.497269,-0.044597,-1.473073,-264.661497,1.547037,62.163634
1.7454,-0.000816,0.012787,-0.044416,0.001439,-0.012682,0.04413,-0.023471,-0.497269,-0.044597,-1.473073,-264.661497,1.547037,62.163634
1.7657,-0.001596,0.012018,-0.044411,0.001383,-0.012739,0.044416,-0.023482,-0.497191,-0.042663,-1.547906,-264.666346,1.579097,62.150845
1.7857,-0.00146,0.012089,-0.04437,0.002128,-0.011935,0.044411,-0.023535,-0.497224,-0.042737,-1.547906,-264.666346,1.579097,62.150845
1.8053,-0.002205,0.011635,-0.040707,0.001995,-0.012013,0.04437,-0.024065,-0.497789,-0.043047,-1.622722,-264.670791,1.607089,62.138552
1.8252,-0.002352,0.012041,-0.041251,0.002677,-0.011535,0.040707,-0.023432,-0.497925,-0.041545,-1.622722,-264.670791,1.607089,62.138552
1.8456,-0.002266,0.011537,-0.041781,0.002846,-0.011934,0.041251,-0.023432,-0.497925,-0.041545,-1.622722,-264.670791,1.607089,62.138552
1.8651,-0.003033,0.011017,-0.038474,0.002746,-0.011432,0.041781,-0.023502,-0.498532,-0.039876,-1.697901,-264.67621,1.625215,62.124733
1.8851,-0.003439,0.011042,-0.039676,0.003455,-0.010892,0.038474,-0.023437,-0.498552,-0.03972,-1.697901,-264.67621,1.625215,62.124733
1.9052,-0.003726,0.010828,-0.039248,0.003875,-0.010897,0.039676,-0.023662,-0.498736,-0.039382,-1.622674,-264.676209,1.647312,62.121005
1.9253,-0.003307,0.010666,-0.038582,0.004148,-0.010674,0.039248,-0.023704,-0.498783,-0.039269,-1.622674,-264.676209,1.647312,62.121005
1.9455,-0.003613,0.010739,-0.039731,0.003716,-0.01053,0.038582,-0.023704,-0.498783,-0.039269,-1.622674,-264.676209,1.647312,62.121005
1.9651,-0.003779,0.01085,-0.038655,0.004037,-0.010587,0.039731,-0.023871,-0.498858,-0.039731,-1.548087,-264.676209,1.670919,62.121003
1.9851,-0.003274,0.010834,-0.039431,0.004195,-0.010696,0.038655,-0.023848,-0.498853,-0.039666,-1.548087,-264.676209,1.670919,62.121003
2.0057,-0.003413,0.010844,-0.039502,0.003698,-0.010697,0.039431,-0.023378,-0.498769,-0.039431,-1.473067,-264.676208,1.679356,62.121002
2.0253,-0.003596,0.011061,-0.039642,0.003838,-0.0107,0.039502,-0.023479,-0.498763,-0.039472,-1.473067,-264.676208,1.679356,62.121002
2.0453,-0.003439,0.010661,-0.038877,0.004032,-0.01091,0.039642,-0.023479,-0.498763,-0.039472,-1.473067,-264.676208,1.679356,62.121002
2.0654,-0.00319,0.011372,-0.041041,0.00385,-0.010519,0.038877,-0.023261,-0.498954,-0.038877,-1.39793,-264.676208,1.69248,62.121001
2.0857,-0.00327,0.011029,-0.039131,0.003654,-0.011232,0.041041,-0.023315,-0.498906,-0.039013,-1.39793,-264.676208,1.69248,62.121001
2.1055,-0.003359,0.010667,-0.03878,0.003699,-0.010893,0.039131,-0.023221,-0.498581,-0.039131,-1.32307,-264.676207,1.685098,62.120999
2.1255,-0.003896,0.0108,-0.038859,0.00377,-0.010529,0.03878,-0.02317,-0.498789,-0.038932,-1.32307,-264.676207,1.685098,62.120999
2.1454,-0.003551,0.011035,-0.039979,0.004312,-0.01064,0.038859,-0.02317,-0.498789,-0.038932,-1.32307,-264.676207,1.685098,62.120999
2.1653,-0.003939,0.010984,-0.040066,0.003989,-0.010885,0.039979,-0.023935,-0.498557,-0.039979,-1.248078,-264.676207,1.671132,62.120998
2.1854,-0.003207,0.010804,-0.038674,0.004376,-0.010818,0.040066,-0.023984,-0.498563,-0.039989,-1.248078,-264.676207,1.671132,62.120998
2.2051,-0.003499,0.011012,-0.038706,0.003622,-0.010672,0.038674,-0.022926,-0.498814,-0.038674,-1.171645,-264.676206,1.695605,62.120996
2.2251,-0.003349,0.010768,-0.038564,0.003922,-0.010868,0.038706,-0.023101,-0.498696,-0.038692,-1.171645,-264.676206,1.695605,62.120996
2.245,-0.003328,0.011098,-0.03869,0.003761,-0.01063,0.038564,-0.023101,-0.498696,-0.038692,-1.171645,-264.676206,1.695605,62.120996
2.265,-0.003524,0.010866,-0.039087,0.003755,-0.010961,0.03869,-0.023055,-0.49852,-0.03869,-1.098083,-264.676206,1.694166,62.120995
2.2851,-0.003333,0.010833,-0.038636,0.003946,-0.01072,0.039087,-0.023086,-0.498538,-0.038721,-1.098083,-264.676206,1.694166,62.120995
2.3052,-0.003892,0.010565,-0.040894,0.003749,-0.010696,0.038636,-0.023032,-0.498787,-0.038636,-1.022823,-264.676205,1.680391,62.120994
2.3251,-0.003227,0.011053,-0.037789,0.004321,-0.010397,0.040894,-0.024008,-0.498913,-0.039924,-1.022823,-264.676205,1.680391,62.120994
2.3452,-0.003169,0.010502,-0.038464,0.003642,-0.010923,0.037789,-0.024008,-0.498913,-0.039924,-1.022823,-264.676205,1.680391,62.120994
2.365,-0.003625,0.011151,-0.03876,0.00357,-0.010372,0.038464,-0.022781,-0.499121,-0.038464,-0.948027,-264.676204,1.684388,62.120992
2.3855,-0.003841,0.010995,-0.039031,0.004054,-0.011003,0.03876,-0.022823,-0.499075,-0.038485,-0.948027,-264.676204,1.684388,62.120992
2.4053,-0.003462,0.010968,-0.038855,0.004267,-0.010836,0.039031,-0.023741,-0.498617,-0.03903,-0.873085,-264.676204,1.677493,62.120991
2.4254,-0.003164,0.011041,-0.039979,0.003885,-0.010825,0.038855,-0.023473,-0.498634,-0.03893,-0.873085,-264.676204,1.677493,62.120991
2.4455,-0.003447,0.010959,-0.039667,0.003603,-0.010906,0.039979,-0.023473,-0.498634,-0.03893,-0.873085,-264.676204,1.677493,62.120991
2.4651,-0.003443,0.010665,-0.039628,0.003879,-0.010813,0.039667,-0.023672,-0.49864,-0.039667,-0.797974,-264.676203,1.687183,62.120989
2.4851,-0.003553,0.011389,-0.0388,0.003863,-0.01052,0.039628,-0.02367,-0.498661,-0.039664,-0.797974,-264.676203,1.687183,62.120989
2.5053,-0.003389,0.010803,-0.040457,0.003992,-0.011242,0.0388,-0.023336,-0.498228,-0.0388,-0.723069,-264.676203,1.672441,62.120988
2.5252,-0.003336,0.010742,-0.038834,0.003823,-0.010657,0.040457,-0.023723,-0.498542,-0.039743,-0.723069,-264.676203,1.672441,62.120988
2.5452,-0.003449,0.01096,-0.037907,0.00375,-0.010604,0.038834,-0.023723,-0.498542,-0.039743,-0.723069,-264.676203,1.672441,62.120988
2.5651,-0.003383,0.011173,-0.039476,0.003862,-0.010821,0.037907,-0.022777,-0.498674,-0.037907,-0.648073,-264.676202,1.681591,62.120987
2.585,-0.00357,0.010469,-0.038586,0.003821,-0.011031,0.039476,-0.022826,-0.498658,-0.038013,-0.648073,-264.676202,1.681591,62.120987
2.6054,-0.003287,0.011077,-0.041097,0.003971,-0.010323,0.038586,-0.023243,-0.499152,-0.038586,-0.573078,-264.676202,1.679634,62.120985
2.6251,-0.003753,0.011006,-0.03927,0.00374,-0.010932,0.041097,-0.023812,-0.498776,-0.040017,-0.573078,-264.676202,1.679634,62.120985
2.6451,-0.003302,0.011062,-0.03936,0.004183,-0.010851,0.03927,-0.023812,-0.498776,-0.040017,-0.573078,-264.676202,1.679634,62.120985
2.6654,-0.003578,0.011168,-0.040272,0.003734,-0.010923,0.03936,-0.02337,-0.498543,-0.03936,-0.498082,-264.676201,1.679118,62.120984
2.6854,-0.003568,0.01104,-0.038512,0.004024,-0.011015,0.040272,-0.023422,-0.498534,-0.039424,-0.498082,-264.676201,1.679118,62.120984
2.7054,-0.003589,0.010997,-0.037512,0.003991,-0.010895,0.038512,-0.023204,-0.498582,-0.038512,-0.42308,-264.676201,1.690294,62.120982
2.7253,-0.003552,0.010689,-0.040522,0.003999,-0.010855,0.037512,-0.022926,-0.498617,-0.037942,-0.42308,-264.676201,1.690294,62.120982
2.7458,-0.003262,0.010745,-0.039095,0.003982,-0.010536,0.040522,-0.022926,-0.498617,-0.037942,-0.42308,-264.676201,1.690294,62.120982
2.7658,-0.003699,0.01096,-0.040786,0.00368,-0.01061,0.039095,-0.023196,-0.498865,-0.039095,-0.348072,-264.6762,1.683329,62.120981
2.7861,-0.003439,0.010717,-0.039434,0.004142,-0.0108,0.040786,-0.023284,-0.498848,-0.03921,-0.348072,-264.6762,1.683329,62.120981
2.8054,-0.003339,0.011187,-0.0375,0.003859,-0.010573,0.039434,-0.023545,-0.498886,-0.039434,-0.273064,-264.676199,1.683169,62.12098
2.8252,-0.003356,0.010783,-0.039473,0.003756,-0.011054,0.0375,-0.022926,-0.49864,-0.038331,-0.273064,-264.676199,1.683169,62.12098
2.8452,-0.003766,0.010984,-0.039687,0.003779,-0.010642,0.039473,-0.022926,-0.49864,-0.038331,-0.273064,-264.676199,1.683169,62.12098
2.8652,-0.003848,0.010576,-0.038224,0.004199,-0.010826,0.039687,-0.024001,-0.498614,-0.039687,-0.198074,-264.676199,1.686283,62.120978
2.8854,-0.003642,0.011059,-0.038247,0.00425,-0.010421,0.038224,-0.023957,-0.498644,-0.039589,-0.198074,-264.676199,1.686283,62.120978
2.9052,-0.00366,0.010664,-0.03975,0.004062,-0.010912,0.038247,-0.023143,-0.498568,-0.038247,-0.123073,-264.676198,1.679125,62.120977
2.925,-0.003605,0.010988,-0.040304,0.004081,-0.01051,0.03975,-0.023592,-0.498777,-0.039107,-0.123073,-264.676198,1.679125,62.120977
2.9451,-0.003765,0.010986,-0.038476,0.004045,-0.010834,0.040304,-0.023592,-0.498777,-0.039107,-0.123073,-264.676198,1.679125,62.120977
2.965,-0.003088,0.010538,-0.039554,0.004185,-0.010834,0.038476,-0.023383,-0.498636,-0.038476,-0.04802,-264.676198,1.695994,62.120975
2.9856,-0.003563,0.010643,-0.038128,0.003502,-0.010408,0.039554,-0.023374,-0.498666,-0.038552,-0.04802,-264.676198,1.695994,62.120975
3.0056,-0.00357,0.010986,-0.037411,0.003966,-0.010499,0.038128,-0.023004,-0.498987,-0.038128,0.026916,-264.676197,1.684418,62.120974
3.0255,-0.00356,0.010698,-0.036471,0.003979,-0.010844,0.037411,-0.022802,-0.498802,-0.037725,0.026916,-264.676197,1.684418,62.120974
3.0452,-0.003406,0.010935,-0.038135,0.003948,-0.010561,0.036471,-0.022802,-0.498802,-0.037725,0.026916,-264.676197,1.684418,62.120974
3.0652,-0.003854,0.011119,-0.037573,0.00382,-0.010797,0.038135,-0.02285,-0.498695,-0.038135,0.101917,-264.676197,1.671769,62.120973
3.0857,-0.003367,0.011231,-0.039914,0.004269,-0.010966,0.037573,-0.02286,-0.498683,-0.038098,0.101917,-264.676197,1.671769,62.120973
3.1053,-0.003706,0.01093,-0.040018,0.003813,-0.011088,0.039914,-0.023718,-0.498363,-0.039914,0.176926,-264.676196,1.690447,62.120971
3.1251,-0.003646,0.010867,-0.038054,0.00414,-0.010773,0.040018,-0.023941,-0.498533,-0.039973,0.176926,-264.676196,1.690447,62.120971
3.1452,-0.00362,0.01104,-0.038359,0.004057,-0.01072,0.038054,-0.023941,-0.498533,-0.039973,0.176926,-264.676196,1.690447,62.120971
3.165,-0.003481,0.011489,-0.038506,0.00404,-0.010893,0.038359,-0.023178,-0.498585,-0.038358,0.251921,-264.676196,1.696026,62.12097
3.1854,-0.003521,0.010992,-0.039433,0.003921,-0.011346,0.038506,-0.023173,-0.498554,-0.038369,0.251921,-264.676196,1.696026,62.12097
3.2051,-0.003241,0.011049,-0.037944,0.003951,-0.010845,0.039433,-0.023626,-0.498611,-0.039433,0.326921,-264.676195,1.689694,62.120969
3.2251,-0.003491,0.011051,-0.040225,0.003658,-0.010918,0.037944,-0.02303,-0.498595,-0.038578,0.326921,-264.676195,1.689694,62.120969
3.2452,-0.003237,0.011279,-0.037599,0.003933,-0.010901,0.040225,-0.02303,-0.498595,-0.038578,0.326921,-264.676195,1.689694,62.120969
3.2654,-0.003661,0.010844,-0.03816,0.003658,-0.011149,0.037599,-0.022408,-0.498361,-0.037599,0.402058,-264.676195,1.682796,62.120967
3.2861,-0.003588,0.011141,-0.039312,0.004072,-0.010696,0.03816,-0.022457,-0.498391,-0.037638,0.402058,-264.676195,1.682796,62.120967
3.3053,-0.003429,0.011211,-0.039629,0.004023,-0.010991,0.039312,-0.023632,-0.498465,-0.039312,0.476957,-264.676194,1.681222,62.120966
3.3252,-0.00317,0.011245,-0.038177,0.003871,-0.011066,0.039629,-0.023634,-0.498422,-0.039492,0.476957,-264.676194,1.681222,62.120966
3.3453,-0.003686,0.010613,-0.038921,0.003597,-0.011116,0.038177,-0.023634,-0.498422,-0.039492,0.476957,-264.676194,1.681222,62.120966
3.3651,-0.003495,0.010578,-0.038024,0.004096,-0.010461,0.038921,-0.02353,-0.499001,-0.038921,0.551929,-264.676193,1.68999,62.120964
3.3857,-0.003092,0.011012,-0.038248,0.003894,-0.010438,0.038024,-0.023485,-0.499005,-0.038859,0.551929,-264.676193,1.68999,62.120964
3.4056,-0.003237,0.010638,-0.039037,0.003511,-0.010886,0.038248,-0.022594,-0.498615,-0.038247,0.626949,-264.676193,1.674894,62.120962
3.4254,-0.003928,0.010701,-0.040953,0.003649,-0.010504,0.039037,-0.022904,-0.498819,-0.038696,0.626949,-264.676193,1.674894,62.120962
3.4452,-0.003391,0.011142,-0.03992,0.004363,-0.010531,0.040953,-0.022904,-0.498819,-0.038696,0.626949,-264.676193,1.674894,62.120962
3.4652,-0.003769,0.010959,-0.038656,0.003833,-0.010998,0.03992,-0.023744,-0.498452,-0.039919,0.701929,-264.676188,1.685973,62.120951
3.4857,-0.003646,0.011092,-0.038769,0.00419,-0.010805,0.038656,-0.023725,-0.498468,-0.039826,0.701929,-264.676188,1.685973,62.120951
3.5053,-0.003363,0.011261,-0.039526,0.004073,-0.010943,0.038769,-0.023413,-0.498526,-0.038764,0.777073,-264.676166,1.692944,62.120898
3.5252,-0.003469,0.011062,-0.038272,0.003806,-0.011119,0.039526,-0.023471,-0.498422,-0.039193,0.777073,-264.676166,1.692944,62.120898
3.5452,-0.00338,0.010883,-0.038759,0.003889,-0.010921,0.038272,-0.023471,-0.498422,-0.039193,0.777073,-264.676166,1.692944,62.120898
3.5653,-0.003336,0.011099,-0.038229,0.0038,-0.010744,0.038759,-0.023136,-0.498748,-0.038719,0.85193,-264.676045,1.691941,62.120586
3.5856,-0.003661,0.010784,-0.039159,0.003758,-0.010963,0.038229,-0.023115,-0.498733,-0.038685,0.85193,-264.676045,1.691941,62.120586
3.6051,-0.003347,0.010913,-0.038712,0.004081,-0.010633,0.039159,-0.023615,-0.498852,-0.039078,0.926929,-264.675745,1.683718,62.119792
3.6252,-0.003344,0.010955,-0.041188,0.003767,-0.010776,0.038712,-0.023312,-0.498771,-0.038859,0.926929,-264.675745,1.683718,62.119792
3.6453,-0.003072,0.010891,-0.037818,0.003793,-0.010808,0.041188,-0.023312,-0.498771,-0.038859,0.926929,-264.675745,1.683718,62.119792
3.6651,-0.003619,0.010905,-0.037486,0.003481,-0.010767,0.037818,-0.022322,-0.498823,-0.037573,1.001926,-264.675039,1.679885,62.117909
3.6855,-0.003785,0.010879,-0.038914,0.004025,-0.010762,0.037486,-0.02235,-0.498819,-0.03756,1.001926,-264.675039,1.679885,62.117909
3.7056,-0.003937,0.01074,-0.039447,0.004205,-0.010723,0.038914,-0.023586,-0.498829,-0.038591,1.077018,-264.673803,1.675864,62.114897
3.7252,-0.004012,0.010957,-0.037002,0.004357,-0.010576,0.039447,-0.023845,-0.49886,-0.039038,1.077018,-264.673803,1.675864,62.114897
3.7454,-0.004108,0.010944,-0.039074,0.004414,-0.010801,0.037002,-0.023845,-0.49886,-0.039038,1.077018,-264.673803,1.675864,62.114897
3.7654,-0.004296,0.010274,-0.03819,0.004532,-0.010776,0.039074,-0.023919,-0.498829,-0.038242,1.151971,-264.670662,1.689823,62.109385
3.7857,-0.003985,0.01077,-0.036629,0.004686,-0.010103,0.03819,-0.023907,-0.498867,-0.038219,1.151971,-264.670662,1.689823,62.109385
3.8052,-0.004561,0.010137,-0.034777,0.004376,-0.010616,0.036629,-0.022537,-0.499062,-0.03565,1.212765,-264.665924,1.702205,62.101373
3.8252,-0.004718,0.010047,-0.035979,0.00491,-0.009972,0.034777,-0.022382,-0.499365,-0.035029,1.212765,-264.665924,1.702205,62.101373
3.8451,-0.004296,0.010019,-0.036289,0.005076,-0.00987,0.035979,-0.022382,-0.499365,-0.035029,1.212765,-264.665924,1.702205,62.101373
3.8652,-0.004933,0.010126,-0.033208,0.004657,-0.009857,0.036289,-0.022609,-0.499965,-0.034731,1.230217,-264.660346,1.710063,62.090861
3.8855,-0.005348,0.01021,-0.034427,0.005267,-0.009957,0.033208,-0.022552,-0.499948,-0.034583,1.230217,-264.660346,1.710063,62.090861
3.9054,-0.005664,0.009555,-0.032736,0.005696,-0.01002,0.034427,-0.022729,-0.499854,-0.033114,1.173685,-264.655378,1.728871,62.078655
3.9251,-0.0059,0.009776,-0.033476,0.005974,-0.009365,0.032736,-0.022494,-0.500082,-0.032731,1.173685,-264.655378,1.728871,62.078655
3.9455,-0.005895,0.00983,-0.031975,0.006224,-0.009573,0.033476,-0.022494,-0.500082,-0.032731,1.173685,-264.655378,1.728871,62.078655
3.9653,-0.006576,0.00885,-0.031808,0.006206,-0.009637,0.031975,-0.02198,-0.500357,-0.030505,1.09912,-264.651127,1.743234,62.067398
3.9854,-0.006702,0.009378,-0.031497,0.006854,-0.008637,0.031808,-0.022044,-0.500418,-0.03057,1.09912,-264.651127,1.743234,62.067398
4.0051,-0.006391,0.009203,-0.031558,0.006994,-0.009162,0.031497,-0.02276,-0.500424,-0.031408,1.050873,-264.651126,1.667801,62.066269
4.025,-0.006462,0.008867,-0.031871,0.006678,-0.008997,0.031558,-0.022602,-0.500498,-0.031482,1.050873,-264.651126,1.667801,62.066269
4.0453,-0.006337,0.009211,-0.030872,0.006742,-0.008656,0.031871,-0.022602,-0.500498,-0.031482,1.050873,-264.651126,1.667801,62.066269
4.0655,-0.00663,0.009189,-0.029878,0.006618,-0.009011,0.030872,-0.022079,-0.500546,-0.030872,1.004885,-264.651126,1.593351,62.06627
4.0854,-0.006343,0.009122,-0.032841,0.006902,-0.008987,0.029878,-0.022064,-0.500548,-0.030804,1.004885,-264.651126,1.593351,62.06627
4.1053,-0.006146,0.008853,-0.03059,0.006639,-0.008909,0.032841,-0.023089,-0.500603,-0.032841,1.013111,-264.651125,1.518342,62.066272
4.1254,-0.006611,0.008822,-0.030915,0.006414,-0.00866,0.03059,-0.022325,-0.500777,-0.031562,1.013111,-264.651125,1.518342,62.066272
4.1452,-0.006309,0.008953,-0.030875,0.00688,-0.008614,0.030915,-0.022325,-0.500777,-0.031562,1.013111,-264.651125,1.518342,62.066272
4.1653,-0.006313,0.009438,-0.029996,0.006582,-0.008754,0.030875,-0.022053,-0.500803,-0.030875,0.938112,-264.651125,1.443343,62.066273
4.1852,-0.006687,0.009178,-0.03097,0.006594,-0.009244,0.029996,-0.022022,-0.500771,-0.030814,0.938112,-264.651125,1.443343,62.066273
4.2051,-0.006333,0.008912,-0.031406,0.006968,-0.008967,0.03097,-0.022479,-0.500577,-0.03097,0.980422,-264.651124,1.368349,62.066274
4.225,-0.006005,0.009092,-0.030429,0.00661,-0.008709,0.031406,-0.022404,-0.500725,-0.031219,0.980422,-264.651124,1.368349,62.066274
4.2452,-0.006559,0.009207,-0.030644,0.006279,-0.008905,0.030429,-0.022404,-0.500725,-0.031219,0.980422,-264.651124,1.368349,62.066274
4.2656,-0.006187,0.008928,-0.032359,0.006838,-0.009002,0.030644,-0.022185,-0.500554,-0.030644,0.942527,-264.651124,1.293236,62.066275
4.2858,-0.006267,0.008934,-0.029727,0.006472,-0.008723,0.032359,-0.02222,-0.500571,-0.030763,0.942527,-264.651124,1.293236,62.066275
4.3052,-0.006468,0.008918,-0.031984,0.00653,-0.008743,0.029727,-0.021426,-0.500841,-0.029727,0.995368,-264.651124,1.218337,62.066276
4.3251,-0.006421,0.009377,-0.030743,0.00675,-0.008706,0.031984,-0.022199,-0.50083,-0.031019,0.995368,-264.651124,1.218337,62.066276
4.3452,-0.006879,0.009209,-0.031968,0.006706,-0.009175,0.030743,-0.022199,-0.50083,-0.031019,0.995368,-264.651124,1.218337,62.066276
4.3652,-0.006219,0.009178,-0.029753,0.00717,-0.008984,0.031968,-0.02318,-0.500531,-0.031968,1.040528,-264.651123,1.143206,62.066277
4.3856,-0.006402,0.009204,-0.032044,0.006489,-0.008989,0.029753,-0.023053,-0.500535,-0.031812,1.040528,-264.651123,1.143206,62.066277
4.4055,-0.00635,0.00908,-0.030755,0.006694,-0.008994,0.032044,-0.022742,-0.500534,-0.032044,0.965579,-264.651123,1.068257,62.066278
4.4252,-0.006326,0.008968,-0.031915,0.006626,-0.008881,0.030755,-0.022337,-0.500617,-0.031308,0.965579,-264.651123,1.068257,62.066278
4.4453,-0.006471,0.009084,-0.030638,0.006609,-0.008762,0.031915,-0.022337,-0.500617,-0.031308,0.965579,-264.651123,1.068257,62.066278
4.4652,-0.006513,0.009097,-0.031656,0.006746,-0.008882,0.030638,-0.022094,-0.500676,-0.030638,0.955605,-264.651122,0.99324,62.066279
4.4859,-0.006203,0.009082,-0.031108,0.006797,-0.008887,0.031656,-0.022131,-0.500674,-0.030706,0.955605,-264.651122,0.99324,62.066279
4.5054,-0.006681,0.009256,-0.030879,0.006482,-0.008885,0.031108,-0.022065,-0.500671,-0.031108,1.018709,-264.651122,0.918348,62.06628
4.5255,-0.006542,0.008388,-0.02934,0.006964,-0.009045,0.030879,-0.022268,-0.500576,-0.030979,1.018709,-264.651122,0.918348,62.06628
4.5451,-0.006159,0.009045,-0.02939,0.006785,-0.008193,0.02934,-0.022268,-0.500576,-0.030979,1.018709,-264.651122,0.918348,62.06628
4.5655,-0.006892,0.009093,-0.031339,0.006422,-0.00886,0.02939,-0.021145,-0.500735,-0.02939,0.993973,-264.651121,0.843354,62.066281
4.5851,-0.006622,0.008725,-0.02885,0.007173,-0.008873,0.031339,-0.021265,-0.500729,-0.029525,0.993973,-264.651121,0.843354,62.066281
4.6054,-0.006248,0.00903,-0.031807,0.006871,-0.00853,0.02885,-0.021333,-0.501063,-0.02885,0.961711,-264.651121,0.768347,62.066283
4.6255,-0.00627,0.009111,-0.030329,0.006532,-0.008827,0.031807,-0.02198,-0.500863,-0.030536,0.961711,-264.651121,0.768347,62.066283
4.6453,-0.006237,0.008863,-0.030834,0.006543,-0.008917,0.030329,-0.02198,-0.500863,-0.030536,0.961711,-264.651121,0.768347,62.066283
4.6651,-0.006157,0.009313,-0.030566,0.006507,-0.008666,0.030834,-0.02196,-0.500895,-0.030834,0.960984,-264.65112,0.693293,62.066284
4.6858,-0.006186,0.00915,-0.030929,0.006439,-0.00912,0.030566,-0.021944,-0.500862,-0.030814,0.960984,-264.65112,0.693293,62.066284
4.705,-0.00667,0.009144,-0.030967,0.006466,-0.008955,0.030929,-0.021957,-0.500606,-0.030929,0.972871,-264.65112,0.618259,62.066285
4.7254,-0.00626,0.009079,-0.029958,0.00695,-0.008933,0.030967,-0.02224,-0.500609,-0.03095,0.972871,-264.65112,0.618259,62.066285
4.7454,-0.006596,0.009046,-0.030345,0.006529,-0.008888,0.029958,-0.02224,-0.500609,-0.03095,0.972871,-264.65112,0.618259,62.066285
4.7654,-0.006191,0.009165,-0.030347,0.006867,-0.008842,0.030345,-0.022069,-0.500719,-0.030345,0.977461,-264.651119,0.543252,62.066286
4.7854,-0.006442,0.009131,-0.031311,0.006466,-0.008973,0.030347,-0.022041,-0.500711,-0.030345,0.977461,-264.651119,0.543252,62.066286
4.8053,-0.006298,0.009175,-0.030857,0.006725,-0.008925,0.031311,-0.022408,-0.500619,-0.031311,0.964196,-264.651119,0.468363,62.066287
4.8253,-0.006414,0.008804,-0.032059,0.006578,-0.008976,0.030857,-0.022192,-0.500598,-0.03105,0.964196,-264.651119,0.468363,62.066287
4.8452,-0.006331,0.009147,-0.03016,0.006693,-0.008594,0.032059,-0.022192,-0.500598,-0.03105,0.964196,-264.651119,0.468363,62.066287
4.8652,-0.006433,0.009227,-0.030962,0.006604,-0.008952,0.03016,-0.02171,-0.500621,-0.03016,0.976197,-264.651118,0.39319,62.066288
4.8856,-0.006354,0.009003,-0.031835,0.006716,-0.009023,0.030962,-0.021748,-0.500614,-0.030219,0.976197,-264.651118,0.39319,62.066288
4.9054,-0.006819,0.009229,-0.030325,0.006637,-0.008797,0.031835,-0.022586,-0.500738,-0.031835,1.023592,-264.651118,0.31812,62.066289
4.9252,-0.006101,0.008961,-0.031722,0.007095,-0.009018,0.030325,-0.022412,-0.500622,-0.030968,1.023592,-264.651118,0.31812,62.066289
4.9454,-0.006172,0.009513,-0.031561,0.006382,-0.008763,0.031722,-0.022412,-0.500622,-0.030968,1.023592,-264.651118,0.31812,62.066289
4.9653,-0.006458,0.009004,-0.03106,0.00647,-0.009314,0.031561,-0.022266,-0.500233,-0.031561,0.974117,-264.651117,0.243195,62.06629
4.9853,-0.00659,0.00949,-0.029817,0.006734,-0.008799,0.03106,-0.022268,-0.500266,-0.031529,0.974117,-264.651117,0.243195,62.06629
5.0052,-0.006598,0.009045,-0.032217,0.00687,-0.009289,0.029817,-0.021794,-0.500284,-0.029817,1.029288,-264.651117,0.168369,62.066292
5.0253,-0.006398,0.009035,-0.031326,0.006886,-0.008828,0.032217,-0.02251,-0.50052,-0.031211,1.029288,-264.651117,0.168369,62.066292
5.0454,-0.006621,0.009109,-0.030834,0.006678,-0.00883,0.031326,-0.02251,-0.50052,-0.031211,1.029288,-264.651117,0.168369,62.066292
5.0657,-0.006674,0.009034,-0.030345,0.006898,-0.008901,0.030834,-0.022343,-0.500649,-0.030834,0.985955,-264.651117,0.09291,62.066293
5.0857,-0.006505,0.009226,-0.032598,0.006945,-0.008827,0.030345,-0.022327,-0.500655,-0.030793,0.985955,-264.651117,0.09291,62.066293
5.1057,-0.00615,0.009222,-0.030413,0.006802,-0.00901,0.032598,-0.023126,-0.500503,-0.032598,0.995699,-264.651116,0.017845,62.066294
5.1256,-0.006478,0.009047,-0.031922,0.006427,-0.00903,0.030413,-0.022294,-0.500525,-0.031359,0.995699,-264.651116,0.017845,62.066294
5.1455,-0.006223,0.009085,-0.031059,0.006763,-0.008836,0.031922,-0.022294,-0.500525,-0.031359,0.995699,-264.651116,0.017845,62.066294
5.1658,-0.006439,0.009269,-0.032691,0.006502,-0.008888,0.031059,-0.02206,-0.500669,-0.031059,0.9497,-264.651116,-0.056659,62.066295
5.1858,-0.006478,0.009322,-0.032016,0.006739,-0.009053,0.032691,-0.022126,-0.500656,-0.031162,0.9497,-264.651116,-0.056659,62.066295
5.2057,-0.006591,0.008951,-0.031039,0.006773,-0.00911,0.032016,-0.022803,-0.500417,-0.032016,1.005448,-264.651115,-0.131668,62.066296
5.2262,-0.006377,0.009509,-0.032295,0.006865,-0.008742,0.031039,-0.02259,-0.500631,-0.031476,1.005448,-264.651115,-0.131668,62.066296
5.2456,-0.006925,0.009433,-0.031211,0.006681,-0.009298,0.032295,-0.02259,-0.500631,-0.031476,1.005448,-264.651115,-0.131668,62.066296
5.2657,-0.006358,0.009449,-0.030126,0.007216,-0.009212,0.031211,-0.02284,-0.500319,-0.031211,1.017606,-264.651115,-0.206661,62.066297
5.2855,-0.006936,0.009058,-0.031576,0.00664,-0.009253,0.030126,-0.022766,-0.500319,-0.031139,1.017606,-264.651115,-0.206661,62.066297
5.3053,-0.006292,0.008817,-0.031831,0.007219,-0.008835,0.031576,-0.023037,-0.500688,-0.031576,1.000926,-264.651114,-0.281649,62.066298
5.3257,-0.006879,0.008802,-0.030362,0.00657,-0.008612,0.031831,-0.022744,-0.500823,-0.031721,1.000926,-264.651114,-0.281649,62.066298
5.3455,-0.00636,0.009136,-0.030125,0.007143,-0.008589,0.030362,-0.022744,-0.500823,-0.031721,1.000926,-264.651114,-0.281649,62.066298
5.3656,-0.006362,0.00929,-0.03149,0.006632,-0.008941,0.030125,-0.021721,-0.500632,-0.030124,0.942825,-264.651114,-0.35671,62.066299
5.3856,-0.006464,0.008843,-0.028221,0.006651,-0.009085,0.03149,-0.021769,-0.50062,-0.030218,0.942825,-264.651114,-0.35671,62.066299
5.4051,-0.006728,0.009068,-0.031002,0.006711,-0.008657,0.028221,-0.020855,-0.500954,-0.028221,0.948387,-264.651113,-0.431656,62.066301
5.426,-0.006537,0.009249,-0.031974,0.007006,-0.008855,0.031002,-0.021801,-0.500804,-0.029785,0.948387,-264.651113,-0.431656,62.066301
5.4454,-0.006395,0.009064,-0.031451,0.00683,-0.009035,0.031974,-0.021801,-0.500804,-0.029785,0.948387,-264.651113,-0.431656,62.066301
5.4655,-0.00628,0.008987,-0.030617,0.006677,-0.008858,0.031451,-0.022433,-0.500684,-0.031451,0.990611,-264.651113,-0.506658,62.066302
5.4854,-0.007027,0.009348,-0.029915,0.006552,-0.008791,0.030617,-0.022399,-0.500689,-0.031399,0.990611,-264.651113,-0.506658,62.066302
5.5053,-0.006425,0.009103,-0.030478,0.007304,-0.009134,0.029915,-0.022282,-0.500423,-0.029915,0.993786,-264.651112,-0.581667,62.066303
5.5256,-0.007042,0.009597,-0.030158,0.0067,-0.008903,0.030478,-0.022104,-0.500557,-0.030233,0.993786,-264.651112,-0.581667,62.066303
5.5451,-0.006809,0.00875,-0.030257,0.007328,-0.009381,0.030158,-0.022104,-0.500557,-0.030233,0.993786,-264.651112,-0.581667,62.066303
5.5652,-0.006021,0.00898,-0.031335,0.007071,-0.00854,0.030257,-0.022238,-0.501017,-0.030257,0.986557,-264.651112,-0.656669,62.066304
5.5856,-0.00639,0.009402,-0.029852,0.006299,-0.008787,0.031335,-0.022221,-0.501,-0.030332,0.986557,-264.651112,-0.656669,62.066304
5.6055,-0.006509,0.008969,-0.031243,0.006668,-0.009207,0.029852,-0.021612,-0.50037,-0.029851,0.911564,-264.651109,-0.731662,62.066311
5.6253,-0.006394,0.009121,-0.031979,0.006786,-0.008761,0.031243,-0.022081,-0.500604,-0.03064,0.911564,-264.651109,-0.731662,62.066311
5.6453,-0.006503,0.009022,-0.030761,0.006682,-0.008912,0.031979,-0.022081,-0.500604,-0.03064,0.911564,-264.651109,-0.731662,62.066311
5.666,-0.006427,0.009225,-0.031762,0.006778,-0.008818,0.030761,-0.022188,-0.500737,-0.03076,0.986523,-264.651103,-0.806621,62.066326
5.6857,-0.006672,0.008925,-0.031263,0.006716,-0.009016,0.031762,-0.022217,-0.500723,-0.030826,0.986523,-264.651103,-0.806621,62.066326
5.7053,-0.006569,0.009513,-0.029643,0.006948,-0.008712,0.031263,-0.022609,-0.500828,-0.031254,1.009189,-264.651061,-0.88166,62.066423
5.7256,-0.006381,0.009063,-0.031904,0.006848,-0.009314,0.029643,-0.022084,-0.500507,-0.030337,1.009189,-264.651061,-0.88166,62.066423
5.7456,-0.006761,0.009221,-0.030045,0.006667,-0.008855,0.031904,-0.022084,-0.500507,-0.030337,1.009189,-264.651061,-0.88166,62.066423
5.7654,-0.006327,0.008959,-0.030142,0.007035,-0.009014,0.030045,-0.022064,-0.50056,-0.030002,0.99659,-264.650906,-0.956656,62.066788
5.7852,-0.00673,0.00913,-0.030653,0.006594,-0.008764,0.030142,-0.022042,-0.500575,-0.030009,0.99659,-264.650906,-0.956656,62.066788
5.8053,-0.006396,0.008911,-0.03196,0.007007,-0.00892,0.030653,-0.022324,-0.500656,-0.030551,1.010649,-264.650453,-1.031584,62.067839
5.8252,-0.006325,0.009012,-0.02892,0.006678,-0.008703,0.03196,-0.022534,-0.50076,-0.031359,1.010649,-264.650453,-1.031584,62.067839
5.8452,-0.006662,0.009044,-0.029599,0.006583,-0.008825,0.02892,-0.022534,-0.50076,-0.031359,1.010649,-264.650453,-1.031584,62.067839
5.8657,-0.006854,0.009054,-0.030468,0.006926,-0.008843,0.029599,-0.021654,-0.500819,-0.029292,0.971125,-264.649415,-1.107098,62.070323
5.8857,-0.006445,0.008939,-0.028996,0.007127,-0.008841,0.030468,-0.0217,-0.500814,-0.029362,0.971125,-264.649415,-1.107098,62.070323
5.9053,-0.007175,0.008793,-0.029287,0.006701,-0.008748,0.028996,-0.021089,-0.500992,-0.028515,0.930572,-264.647451,-1.181671,62.075189
5.9252,-0.00666,0.008887,-0.029404,0.00743,-0.008579,0.029287,-0.021652,-0.501009,-0.028894,0.930572,-264.647451,-1.181671,62.075189
5.9451,-0.00677,0.008716,-0.030206,0.006919,-0.008687,0.029404,-0.021652,-0.501009,-0.028894,0.930572,-264.647451,-1.181671,62.075189
5.9654,-0.006878,0.008386,-0.028996,0.00703,-0.008508,0.030206,-0.021912,-0.501308,-0.029219,0.940434,-264.643829,-1.256654,62.082593
5.9852,-0.006983,0.008566,-0.02969,0.007118,-0.008183,0.028996,-0.021884,-0.501323,-0.02917,0.940434,-264.643829,-1.256654,62.082593
6.0051,-0.007274,0.008094,-0.028387,0.007234,-0.008355,0.02969,-0.021887,-0.501508,-0.028663,0.929696,-264.639493,-1.316745,62.09242
6.0252,-0.007026,0.008521,-0.026322,0.0075,-0.007885,0.028387,-0.021779,-0.501655,-0.028376,0.929696,-264.639493,-1.316745,62.09242
6.0457,-0.007427,0.007669,-0.02691,0.007248,-0.008333,0.026322,-0.021779,-0.501655,-0.028376,0.929696,-264.639493,-1.316745,62.09242
6.0653,-0.007923,0.007789,-0.025929,0.007631,-0.007467,0.02691,-0.020815,-0.502552,-0.025504,0.929072,-264.634752,-1.302521,62.103126
6.0852,-0.007753,0.007528,-0.026603,0.008122,-0.007581,0.025929,-0.020829,-0.502527,-0.025496,0.929072,-264.634752,-1.302521,62.103126
6.1051,-0.008181,0.007373,-0.025146,0.00795,-0.007319,0.026603,-0.021101,-0.502556,-0.025765,0.854076,-264.63129,-1.282163,62.111439
6.1252,-0.008085,0.007215,-0.024901,0.008364,-0.007165,0.025146,-0.021019,-0.502538,-0.025307,0.854076,-264.63129,-1.282163,62.111439
6.1452,-0.008075,0.007734,-0.025564,0.008262,-0.007011,0.024901,-0.021019,-0.502538,-0.025307,0.854076,-264.63129,-1.282163,62.111439
6.1657,-0.008209,0.007419,-0.023357,0.00827,-0.007525,0.025564,-0.020759,-0.502445,-0.024412,0.793486,-264.627062,-1.236942,62.120487
6.1853,-0.008321,0.007015,-0.022952,0.00838,-0.007225,0.023357,-0.020707,-0.502454,-0.024313,0.793486,-264.627062,-1.236942,62.120487
6.2054,-0.00859,0.006719,-0.023019,0.00848,-0.006822,0.022952,-0.019715,-0.503127,-0.021997,0.78146,-264.622454,-1.214814,62.129873
6.2254,-0.008785,0.007213,-0.023895,0.008742,-0.006519,0.023019,-0.020022,-0.503173,-0.022454,0.78146,-264.622454,-1.214814,62.129873
6.2454,-0.008457,0.006537,-0.022639,0.008955,-0.007001,0.023895,-0.020022,-0.503173,-0.022454,0.78146,-264.622454,-1.214814,62.129873
6.2655,-0.008508,0.006614,-0.022137,0.008603,-0.006344,0.022639,-0.019646,-0.503652,-0.021622,0.706444,-264.618547,-1.198975,62.138109
6.2855,-0.008428,0.00637,-0.020845,0.008652,-0.006424,0.022137,-0.019647,-0.503634,-0.021631,0.706444,-264.618547,-1.198975,62.138109
6.3055,-0.008686,0.006158,-0.020464,0.008559,-0.006193,0.020845,-0.01872,-0.503794,-0.019928,0.703263,-264.613878,-1.17769,62.147404
6.3257,-0.008623,0.006178,-0.019618,0.00881,-0.005979,0.020464,-0.018907,-0.503795,-0.020119,0.703263,-264.613878,-1.17769,62.147404
6.3455,-0.008704,0.006211,-0.020195,0.008743,-0.006008,0.019618,-0.018907,-0.503795,-0.020119,0.703263,-264.613878,-1.17769,62.147404
6.3653,-0.009028,0.005522,-0.01926,0.008827,-0.006034,0.020195,-0.018592,-0.504003,-0.019129,0.686897,-264.609429,-1.16149,62.156048
6.3856,-0.009065,0.005687,-0.018738,0.009133,-0.005347,0.01926,-0.0186,-0.504042,-0.019108,0.686897,-264.609429,-1.16149,62.156048
6.4054,-0.009036,0.005224,-0.019979,0.00917,-0.005516,0.018738,-0.018337,-0.504425,-0.018087,0.611739,-264.605803,-1.11843,62.162898
6.4255,-0.008713,0.005684,-0.019054,0.009139,-0.005043,0.019979,-0.018809,-0.504593,-0.019087,0.611739,-264.605803,-1.11843,62.162898
6.4453,-0.00878,0.005606,-0.017292,0.00882,-0.005517,0.019054,-0.018809,-0.504593,-0.019087,0.611739,-264.605803,-1.11843,62.162898
6.4651,-0.00935,0.005489,-0.017086,0.008875,-0.005454,0.017292,-0.017169,-0.504579,-0.016378,0.61247,-264.601443,-1.080511,62.170473
6.4856,-0.008847,0.005192,-0.017086,0.009443,-0.005329,0.017086,-0.017219,-0.504576,-0.016402,0.61247,-264.601443,-1.080511,62.170473
6.5054,-0.009035,0.005206,-0.016394,0.008934,-0.00504,0.017086,-0.017224,-0.504952,-0.016352,0.606648,-264.597168,-1.095867,62.178155
6.5252,-0.009113,0.0049,-0.015461,0.009119,-0.005057,0.016394,-0.017279,-0.504851,-0.016283,0.606648,-264.597168,-1.095867,62.178155
6.5452,-0.008709,0.004795,-0.016487,0.009188,-0.004759,0.015461,-0.017279,-0.504851,-0.016283,0.606648,-264.597168,-1.095867,62.178155
6.5652,-0.008824,0.005137,-0.015973,0.009188,-0.004759,0.015461,-0.016772,-0.505334,-0.015839,0.531647,-264.593873,-1.031106,62.183796
6.5855,-0.009097,0.004832,-0.014472,8.7e-05,-4.9e-05,0.0,-0.016776,-0.505303,-0.015831,0.531647,-264.593873,-1.031106,62.183796
6.6053,-0.009137,0.004632,-0.015744,8.7e-05,-4.9e-05,0.0,-0.016152,-0.505289,-0.013919,0.471432,-264.590053,-0.99656,62.19006
6.6253,-0.008775,0.004406,-0.015772,8.7e-05,-4.9e-05,0.0,-0.016688,-0.50532,-0.014889,0.471432,-264.590053,-0.99656,62.19006
6.6452,-0.008876,0.00456,-0.016075,8.7e-05,-4.9e-05,0.0,-0.016688,-0.50532,-0.014889,0.471432,-264.590053,-0.99656,62.19006
6.6652,-0.008912,0.004557,-0.015542,8.7e-05,-4.9e-05,0.0,-0.017074,-0.505374,-0.016075,0.396399,-264.590053,-0.921528,62.19006
6.6851,-0.009035,0.004732,-0.016009,8.7e-05,-4.9e-05,0.0,-0.017057,-0.505375,-0.016036,0.396399,-264.590053,-0.921528,62.19006
6.7051,-0.009073,0.004355,-0.016104,8.7e-05,-4.9e-05,0.0,-0.017199,-0.505203,-0.016009,0.321306,-264.590053,-0.846435,62.19006
6.7251,-0.00896,0.004675,-0.016627,8.7e-05,-4.9e-05,0.0,-0.017249,-0.50542,-0.016064,0.321306,-264.590053,-0.846435,62.19006
6.7455,-0.009256,0.004846,-0.015948,8.7e-05,-4.9e-05,0.0,-0.017249,-0.50542,-0.016064,0.321306,-264.590053,-0.846435,62.19006
6.7651,-0.008681,0.004572,-0.016236,8.7e-05,-4.9e-05,0.0,-0.017389,-0.505089,-0.015948,0.246175,-264.590053,-0.771303,62.19006
6.7851,-0.009089,0.004793,-0.014618,2e-06,-1e-06,4e-06,-0.017356,-0.50511,-0.01597,0.246175,-264.590053,-0.771303,62.19006
6.805,-0.009121,0.00482,-0.013703,0.001302,-0.00073,0.002336,-0.016544,-0.505152,-0.014618,0.171117,-264.590053,-0.696246,62.19006
6.8252,-0.00916,0.005097,-0.014072,0.002545,-0.001428,0.004565,-0.016294,-0.50514,-0.014093,0.171117,-264.590053,-0.696246,62.19006
6.8452,-0.009168,0.004425,-0.014953,0.003705,-0.002079,0.006646,-0.016294,-0.50514,-0.014093,0.171117,-264.590053,-0.696246,62.19006
6.8651,-0.009246,0.004413,-0.014529,0.004808,-0.002697,0.008625,-0.016794,-0.505518,-0.014953,0.245949,-264.590053,-0.771077,62.19006
6.8856,-0.009039,0.004994,-0.013969,0.005843,-0.003278,0.010482,-0.016784,-0.505519,-0.014924,0.245949,-264.590053,-0.771077,62.19006
6.9052,-0.008833,0.004482,-0.01605,0.006813,-0.003822,0.012221,-0.016141,-0.504967,-0.013941,0.320791,-264.589833,-0.84592,62.190435
6.9252,-0.008792,0.004251,-0.015736,0.007717,-0.004329,0.013842,-0.016642,-0.505247,-0.015147,0.320791,-264.589833,-0.84592,62.190435
6.9456,-0.009187,0.004763,-0.015525,0.008549,-0.004796,0.015335,-0.016642,-0.505247,-0.015147,0.320791,-264.589833,-0.84592,62.190435
6.9652,-0.008916,0.0046,-0.016228,0.009321,-0.005229,0.01672,-0.016989,-0.505235,-0.015355,0.395938,-264.588853,-0.921067,62.192109
6.9859,-0.008895,0.004709,-0.014836,0.01002,-0.005621,0.017973,-0.017002,-0.505245,-0.01542,0.395938,-264.588853,-0.921067,62.192109
7.0055,-0.008737,0.00406,-0.013482,0.010653,-0.005976,0.019109,-0.016232,-0.505347,-0.014457,0.471172,-264.586069,-0.9963,62.196266
7.0255,-0.008846,0.004472,-0.014058,0.01122,-0.006294,0.020126,-0.015856,-0.505667,-0.013863,0.471172,-264.586069,-0.9963,62.196266
7.0457,-0.0088,0.004228,-0.015168,0.011721,-0.006575,0.021024,-0.015856,-0.505667,-0.013863,0.471172,-264.586069,-0.9963,62.196266
7.0651,-0.008881,0.004269,-0.013185,0.012155,-0.006819,0.021803,-0.01609,-0.50594,-0.014389,0.49091,-264.581624,-1.027675,62.20293
7.0857,-0.008931,0.003831,-0.013215,0.012522,-0.007025,0.022462,-0.016051,-0.50593,-0.0143,0.49091,-264.581624,-1.027675,62.20293
7.1053,-0.008683,0.004102,-0.01244,0.012823,-0.007193,0.023001,-0.015217,-0.506387,-0.012395,0.49091,-264.5763,-1.027675,62.212014
7.1254,-0.008997,0.003904,-0.013459,0.013056,-0.007324,0.02342,-0.015054,-0.506121,-0.012319,0.49091,-264.5763,-1.027675,62.212014
7.1453,-0.008566,0.003817,-0.01352,0.013223,-0.007418,0.023719,-0.015054,-0.506121,-0.012319,0.49091,-264.5763,-1.027675,62.212014
7.1653,-0.008995,0.00328,-0.011686,0.013324,-0.007474,0.023899,-0.014857,-0.506486,-0.012428,0.49091,-264.570617,-1.027675,62.221712
7.1854,-0.008376,0.003704,-0.010351,0.013357,-0.007493,0.023959,-0.014847,-0.506509,-0.012345,0.49091,-264.570617,-1.027675,62.221712
7.2052,-0.008337,0.003164,-0.009705,0.013323,-0.007474,0.023899,-0.013148,-0.506559,-0.009437,0.49091,-264.564622,-1.027675,62.231943
7.2252,-0.008197,0.003248,-0.010077,0.013224,-0.007418,0.02372,-0.013163,-0.506741,-0.009474,0.49091,-264.564622,-1.027675,62.231943
7.2453,-0.00868,0.003066,-0.009924,0.013057,-0.007324,0.02342,-0.013163,-0.506741,-0.009474,0.49091,-264.564622,-1.027675,62.231943
7.2651,-0.009115,0.002885,-0.008131,0.012823,-0.007193,0.023001,-0.013097,-0.507278,-0.008761,0.49091,-264.558573,-1.027675,62.242266
7.2852,-0.008792,0.002501,-0.007687,0.012522,-0.007024,0.022461,-0.013091,-0.507276,-0.008687,0.49091,-264.558573,-1.027675,62.242266
7.3051,-0.008553,0.002533,-0.00895,0.012155,-0.006818,0.021802,-0.012209,-0.507772,-0.00678,0.49091,-264.552643,-1.027675,62.252383
7.3253,-0.008719,0.002099,-0.007543,0.011718,-0.006574,0.02102,-0.012663,-0.507623,-0.007903,0.49091,-264.552643,-1.027675,62.252383
7.3457,-0.008442,0.001894,-0.008393,0.011221,-0.006294,0.020127,-0.012663,-0.507623,-0.007903,0.49091,-264.552643,-1.027675,62.252383
7.3652,-0.008644,0.002085,-0.0056,0.010652,-0.005976,0.019108,-0.012118,-0.508434,-0.007303,0.49091,-264.546956,-1.027675,62.262089
7.3855,-0.008843,0.001772,-0.007974,0.010018,-0.00562,0.01797,-0.012053,-0.508404,-0.007141,0.49091,-264.546956,-1.027675,62.262089
7.4057,-0.008855,0.001677,-0.005415,0.009312,-0.005224,0.016703,-0.012479,-0.508458,-0.007198,0.49091,-264.54188,-1.027675,62.27075
7.4258,-0.008573,0.001687,-0.005451,0.008543,-0.004792,0.015324,-0.011937,-0.508409,-0.006093,0.49091,-264.54188,-1.027675,62.27075
7.4456,-0.008413,0.001692,-0.007849,0.007713,-0.004327,0.013836,-0.011937,-0.508409,-0.006093,0.49091,-264.54188,-1.027675,62.27075
7.4655,-0.008266,0.001266,-0.004219,0.006811,-0.003821,0.012218,-0.01193,-0.508569,-0.006974,0.49091,-264.537337,-1.027675,62.278503
7.4855,-0.008349,0.00152,-0.005182,0.005844,-0.003279,0.010483,-0.011818,-0.508587,-0.006771,0.49091,-264.537337,-1.027675,62.278503
7.5051,-0.008299,0.001093,-0.004683,0.004809,-0.002698,0.008626,-0.010694,-0.508642,-0.004647,0.49091,-264.533832,-1.027675,62.284483
7.5252,-0.008348,0.000774,-0.00441,0.003707,-0.00208,0.00665,-0.010653,-0.508812,-0.0046,0.49091,-264.533832,-1.027675,62.284483
7.5454,-0.008209,0.001093,-0.003748,0.002537,-0.001423,0.004551,-0.010653,-0.508812,-0.0046,0.49091,-264.533832,-1.027675,62.284483
7.5653,-0.008047,0.001133,-0.002985,0.0013,-0.000729,0.002332,-0.009837,-0.509064,-0.003239,0.49091,-264.531169,-1.027675,62.289027
7.5855,-0.008269,0.001291,-0.004339,0.0,0.0,0.0,-0.009806,-0.509052,-0.003202,0.49091,-264.531169,-1.027675,62.289027
7.6055,-0.008324,0.001198,-0.005057,0.0,0.0,0.0,-0.010384,-0.508759,-0.004164,0.49091,-264.530026,-1.027675,62.290979
7.6256,-0.008818,0.00066,-0.002448,0.0,0.0,0.0,-0.010666,-0.508787,-0.004649,0.49091,-264.530026,-1.027675,62.290979
7.6453,-0.00852,0.000792,-0.002047,0.0,0.0,0.0,-0.010666,-0.508787,-0.004649,0.49091,-264.530026,-1.027675,62.290979
7.6652,-0.008168,0.000709,-0.005804,0.0,0.0,0.0,-0.009564,-0.509207,-0.002047,0.49091,-264.530026,-1.027675,62.290979
7.6861,-0.008183,0.000663,-0.002877,0.0,0.0,0.0,-0.009673,-0.509212,-0.002308,0.49091,-264.530026,-1.027675,62.290979
7.7052,-0.008099,0.000875,-0.0047,0.0,0.0,0.0,-0.00965,-0.509335,-0.002877,0.49091,-264.530026,-1.027675,62.290979
7.7254,-0.008475,0.000547,-0.001944,0.0,0.0,0.0,-0.010131,-0.509212,-0.003914,0.49091,-264.530026,-1.027675,62.290979
7.7453,-0.008571,0.001071,-0.004808,0.0,0.0,0.0,-0.010131,-0.509212,-0.003914,0.49091,-264.530026,-1.027675,62.290979
7.7654,-0.00865,0.000658,-0.003923,0.0,0.0,0.0,-0.011023,-0.508923,-0.004808,0.49091,-264.530026,-1.027675,62.290979
7.7854,-0.008587,0.000739,-0.002637,0.0,0.0,0.0,-0.010998,-0.508951,-0.004748,0.49091,-264.530026,-1.027675,62.290979
7.8058,-0.008543,0.000833,-0.004574,0.0,0.0,0.0,-0.009932,-0.509259,-0.002637,0.49091,-264.530026,-1.027675,62.290979
7.8254,-0.008687,0.001006,-0.00309,0.0001,-9e-06,0.0,-0.010463,-0.509205,-0.003726,0.49091,-264.530026,-1.027675,62.290979
7.8456,-0.008149,0.001166,-0.003468,0.0001,-9e-06,0.0,-0.010463,-0.509205,-0.003726,0.49091,-264.530026,-1.027675,62.290979
7.8651,-0.008228,0.00112,-0.00344,0.0001,-9e-06,0.0,-0.009918,-0.508831,-0.003468,0.49091,-264.530026,-1.027675,62.290979
7.8857,-0.00846,0.000694,-0.003342,0.0001,-9e-06,0.0,-0.009922,-0.508834,-0.003466,0.49091,-264.530026,-1.027675,62.290979
7.9051,-0.008241,0.001149,-0.001801,0.0001,-9e-06,0.0,-0.010164,-0.509304,-0.003342,0.415908,-264.530026,-0.952672,62.290979
7.9251,-0.008332,0.001276,-0.003218,0.0001,-9e-06,0.0,-0.009594,-0.509046,-0.002467,0.415908,-264.530026,-0.952672,62.290979
7.9452,-0.008374,0.001137,-0.005344,0.0001,-9e-06,0.0,-0.009594,-0.509046,-0.002467,0.415908,-264.530026,-0.952672,62.290979
7.9651,-0.008611,0.000993,-0.003323,0.0001,-9e-06,0.0,-0.0111,-0.508856,-0.005344,0.340915,-264.530026,-0.877679,62.290979
7.9854,-0.00843,0.000683,-0.003878,0.0001,-9e-06,0.0,-0.011044,-0.508866,-0.005203,0.340915,-264.530026,-0.877679,62.290979
8.0056,-0.00834,0.001341,-0.00262,0.0001,-9e-06,0.0,-0.010408,-0.509313,-0.003878,0.265913,-264.530026,-0.802677,62.290979
8.0253,-0.008641,0.001156,-0.004836,0.0001,-9e-06,0.0,-0.00999,-0.508938,-0.003159,0.265913,-264.530026,-0.802677,62.290979
8.0453,-0.00812,0.001049,-0.002515,0.001244,-0.000115,0.000666,-0.00999,-0.508938,-0.003159,0.265913,-264.530026,-0.802677,62.290979
8.0657,-0.00821,0.000889,-0.002657,0.002432,-0.000226,0.001301,-0.009403,-0.50895,-0.002515,0.190814,-264.530026,-0.727578,62.290979
8.0855,-0.007945,0.001016,-0.004078,0.003553,-0.00033,0.001902,-0.009413,-0.508959,-0.002523,0.190814,-264.530026,-0.727578,62.290979
8.1056,-0.008419,0.000791,-0.002472,0.004615,-0.000428,0.00247,-0.010018,-0.508981,-0.004072,0.229881,-264.529941,-0.65267,62.291068
8.1261,-0.007959,0.001122,-0.002985,0.005607,-0.000521,0.003001,-0.009826,-0.509109,-0.003168,0.229881,-264.529941,-0.65267,62.291068
8.1455,-0.008399,0.000923,-0.003451,0.006536,-0.000607,0.003498,-0.009826,-0.509109,-0.003168,0.229881,-264.529941,-0.65267,62.291068
8.1653,-0.008191,0.000468,-0.004874,0.007405,-0.000687,0.003963,-0.010101,-0.509085,-0.00341,0.229881,-264.529433,-0.577655,62.291605
8.1857,-0.008501,0.000771,-0.003507,0.008202,-0.000761,0.004389,-0.010136,-0.509114,-0.003502,0.229881,-264.529433,-0.577655,62.291605
8.2056,-0.0083,0.001099,-0.002734,0.008946,-0.00083,0.004787,-0.010143,-0.509248,-0.003414,0.229881,-264.527842,-0.502665,62.293285
8.2252,-0.007915,0.001383,-0.003287,0.009615,-0.000893,0.005145,-0.009873,-0.509055,-0.00302,0.229881,-264.527842,-0.502665,62.293285
8.2454,-0.007916,0.001015,-0.003099,0.010222,-0.000949,0.005471,-0.009873,-0.509055,-0.00302,0.229881,-264.527842,-0.502665,62.293285
8.2652,-0.007855,0.000773,-0.003643,0.010769,-0.001,0.005763,-0.009165,-0.509019,-0.002913,0.229881,-264.525021,-0.427655,62.296263
8.2857,-0.007609,0.000858,-0.004198,0.011248,-0.001044,0.00602,-0.009194,-0.509034,-0.002958,0.229881,-264.525021,-0.427655,62.296263
8.305,-0.007693,0.000973,-0.003101,0.011665,-0.001083,0.006243,-0.00936,-0.509175,-0.00399,0.229881,-264.520883,-0.397367,62.300634
8.325,-0.007385,0.001089,-0.001891,0.012019,-0.001116,0.006432,-0.009263,-0.509094,-0.003457,0.229881,-264.520883,-0.397367,62.300634
8.3452,-0.007664,0.000969,-0.001879,0.012306,-0.001142,0.006586,-0.009263,-0.509094,-0.003457,0.229881,-264.520883,-0.397367,62.300634
8.3652,-0.007057,0.000736,-0.002012,0.012532,-0.001163,0.006707,-0.008075,-0.509082,-0.001587,0.229881,-264.516262,-0.397367,62.305513
8.3862,-0.00729,0.000803,-0.002695,0.012692,-0.001178,0.006792,-0.008062,-0.509095,-0.001607,0.229881,-264.516262,-0.397367,62.305513
8.4052,-0.00689,0.000862,-0.002981,0.012788,-0.001187,0.006844,-0.008185,-0.509241,-0.002438,0.229881,-264.511207,-0.397367,62.310851
8.4253,-0.007138,0.000543,-0.004233,0.01282,-0.00119,0.006861,-0.008252,-0.509188,-0.002711,0.229881,-264.511207,-0.397367,62.310851
8.4453,-0.00698,0.000376,-0.00196,0.012788,-0.001187,0.006844,-0.008252,-0.509188,-0.002711,0.229881,-264.511207,-0.397367,62.310851
8.4651,-0.006479,0.000581,-0.001608,0.012692,-0.001178,0.006792,-0.007363,-0.509681,-0.00163,0.229881,-264.505993,-0.397367,62.316356
8.4851,-0.006409,0.000525,-0.000761,0.012531,-0.001163,0.006706,-0.007342,-0.509665,-0.001619,0.229881,-264.505993,-0.397367,62.316356
8.505,-0.00604,0.000374,-0.001692,0.012308,-0.001143,0.006587,-0.006303,-0.509521,-0.000496,0.229881,-264.50074,-0.397367,62.321904
8.5253,-0.005445,0.000394,-0.002057,0.012019,-0.001116,0.006432,-0.006582,-0.509586,-0.001143,0.229881,-264.50074,-0.397367,62.321904
8.5453,-0.005378,0.000619,-0.000775,0.011668,-0.001083,0.006244,-0.006582,-0.509586,-0.001143,0.229881,-264.50074,-0.397367,62.321904
8.5654,-0.005331,0.000731,-0.001661,0.011252,-0.001045,0.006022,-0.005163,-0.509438,-0.000449,0.229881,-264.495592,-0.397367,62.32734
8.5853,-0.005431,0.000501,-0.001058,0.010771,-0.001,0.005764,-0.005215,-0.509428,-0.000521,0.229881,-264.495592,-0.397367,62.32734
8.6053,-0.005,0.00059,-0.002146,0.010226,-0.000949,0.005473,-0.00552,-0.509541,-0.000817,0.229881,-264.490792,-0.397367,62.332408
8.6251,-0.004722,0.000462,-0.000528,0.009617,-0.000893,0.005147,-0.005792,-0.509471,-0.001547,0.229881,-264.490792,-0.397367,62.332408
8.6455,-0.005086,0.000685,-0.001091,0.008945,-0.00083,0.004787,-0.005792,-0.509471,-0.001547,0.229881,-264.490792,-0.397367,62.332408
8.6652,-0.004504,0.000387,-7.4e-05,0.008206,-0.000762,0.004391,-0.005119,-0.509364,-0.000811,0.229881,-264.486373,-0.397367,62.337075
8.6855,-0.004606,0.000167,0.000148,0.007407,-0.000688,0.003964,-0.005065,-0.509383,-0.000752,0.229881,-264.486373,-0.397367,62.337075
8.7055,-0.004401,0.000449,-0.000241,0.006541,-0.000607,0.003501,-0.004186,-0.509865,0.000332,0.229881,-264.482698,-0.397367,62.340955
8.7254,-0.003987,0.000425,3.5e-05,0.005609,-0.000521,0.003002,-0.004334,-0.509691,2.9e-05,0.229881,-264.482698,-0.397367,62.340955
8.7457,-0.004208,0.000757,0.000534,0.004617,-0.000429,0.002471,-0.004334,-0.509691,2.9e-05,0.229881,-264.482698,-0.397367,62.340955
8.7652,-0.003996,0.000369,-0.00058,0.003557,-0.00033,0.001903,-0.003575,-0.509277,0.000727,0.229881,-264.479656,-0.397367,62.344168
8.7855,-0.003643,0.000247,-0.000581,0.00244,-0.000227,0.001306,-0.003613,-0.509301,0.000646,0.229881,-264.479656,-0.397367,62.344168
8.8053,-0.003783,0.000595,-0.000559,0.001251,-0.000116,0.00067,-0.003761,-0.50977,-0.000486,0.229881,-264.477759,-0.397367,62.346171
8.8254,-0.004093,0.000585,-0.000502,6e-06,-1e-06,3e-06,-0.003913,-0.509565,-0.000515,0.229881,-264.477759,-0.397367,62.346171
8.846,-0.003717,0.000525,-0.001654,0.0,0.0,0.0,-0.003913,-0.509565,-0.000515,0.229881,-264.477759,-0.397367,62.346171
8.8655,-0.004172,0.000333,9.7e-05,0.0,0.0,0.0,-0.004442,-0.509485,-0.001591,0.229881,-264.476756,-0.397367,62.34723
8.8858,-0.003644,0.000486,-1.4e-05,0.0,0.0,0.0,-0.004418,-0.509497,-0.001479,0.229881,-264.476756,-0.397367,62.34723
8.9057,-0.003791,0.00014,0.000223,0.0,0.0,0.0,-0.003651,-0.509514,-1.4e-05,0.229881,-264.476756,-0.397367,62.34723
8.9251,-0.004098,0.000596,0.000183,0.0,0.0,0.0,-0.003666,-0.509709,0.00012,0.229881,-264.476756,-0.397367,62.34723
8.9453,-0.003804,8.7e-05,0.000428,0.0,0.0,0.0,-0.003666,-0.509709,0.00012,0.229881,-264.476756,-0.397367,62.34723
8.9653,-0.003966,0.000143,-1.1e-05,0.0,0.0,0.0,-0.003586,-0.509913,0.000428,0.229881,-264.476756,-0.397367,62.34723
8.9854,-0.003637,0.000325,0.000844,0.0,0.0,0.0,-0.003611,-0.509909,0.000399,0.229881,-264.476756,-0.397367,62.34723
9.0051,-0.003887,0.000205,0.001247,0.0,0.0,0.0,-0.003207,-0.509675,0.000844,0.229881,-264.476756,-0.397367,62.34723
9.0252,-0.00385,0.00017,0.000614,0.0,0.0,0.0,-0.003233,-0.509745,0.001079,0.229881,-264.476756,-0.397367,62.34723
9.0451,-0.003488,0.000385,0.000243,0.0,0.0,0.0,-0.003233,-0.509745,0.001079,0.229881,-264.476756,-0.397367,62.34723
9.0652,-0.003769,0.00012,-0.001213,9.9e-05,-1.1e-05,0.0,-0.003364,-0.509615,0.000243,0.229881,-264.476756,-0.397367,62.34723
9.0855,-0.003801,5.2e-05,0.000548,9.9e-05,-1.1e-05,0.0,-0.003435,-0.509633,0.000141,0.229881,-264.476756,-0.397367,62.34723
9.105,-0.003806,0.000461,0.000831,9.9e-05,-1.1e-05,0.0,-0.003521,-0.509948,0.000548,0.229881,-264.476756,-0.397367,62.34723
9.125,-0.003649,1.6e-05,-0.000269,9.9e-05,-1.1e-05,0.0,-0.003442,-0.509713,0.00071,0.229881,-264.476756,-0.397367,62.34723
9.1453,-0.003607,0.000523,-0.000376,9.9e-05,-1.1e-05,0.0,-0.003442,-0.509713,0.00071,0.229881,-264.476756,-0.397367,62.34723
9.1655,-0.003531,0.000436,0.001278,9.9e-05,-1.1e-05,0.0,-0.003799,-0.509477,-0.000376,0.154743,-264.476755,-0.322229,62.347231
9.1859,-0.004013,0.000442,-0.000621,9.9e-05,-1.1e-05,0.0,-0.003739,-0.509482,-0.000267,0.154743,-264.476755,-0.322229,62.347231
9.2051,-0.003556,-3.6e-05,0.000704,9.9e-05,-1.1e-05,0.0,-0.004329,-0.509558,-0.000621,0.079898,-264.476749,-0.247384,62.347238
9.225,-0.003565,0.000603,-0.000805,9.9e-05,-1.1e-05,0.0,-0.003681,-0.509831,0.000137,0.079898,-264.476749,-0.247384,62.347238
9.2452,-0.003738,0.000284,-0.000985,9.9e-05,-1.1e-05,0.0,-0.003681,-0.509831,0.000137,0.079898,-264.476749,-0.247384,62.347238
9.2653,-0.003527,5e-06,0.000261,9.9e-05,-1.1e-05,0.0,-0.004238,-0.509716,-0.000984,0.004773,-264.476732,-0.172259,62.347254
9.2858,-0.004079,0.000409,1.1e-05,0.00051,-5.6e-05,-3.5e-05,-0.004183,-0.509734,-0.000903,0.004773,-264.476732,-0.172259,62.347254
9.3051,-0.003425,0.000305,0.000148,0.000994,-0.00011,-6.9e-05,-0.00407,-0.509591,1.1e-05,-0.070109,-264.476702,-0.110227,62.347284
9.3251,-0.00332,1.3e-05,-2.1e-05,0.001452,-0.000161,-0.000101,-0.003663,-0.50965,8.8e-05,-0.070109,-264.476702,-0.110227,62.347284
9.3452,-0.003357,0.000944,-0.000726,0.001884,-0.000209,-0.000131,-0.003663,-0.50965,8.8e-05,-0.070109,-264.476702,-0.110227,62.347284
9.3656,-0.003747,0.000211,-0.001136,0.00229,-0.000253,-0.000159,-0.003706,-0.509058,-0.000728,-0.145217,-264.476521,-0.068048,62.347464
9.3854,-0.003735,0.000252,0.000946,0.002668,-0.000295,-0.000186,-0.003755,-0.509117,-0.000761,-0.145217,-264.476521,-0.068048,62.347464
9.4057,-0.003452,0.000252,8e-06,0.003022,-0.000334,-0.00021,-0.00318,-0.509756,0.000941,-0.152015,-264.475762,-0.068048,62.348216
9.4256,-0.004181,0.000275,0.00177,0.003349,-0.000371,-0.000233,-0.003322,-0.509752,0.000412,-0.152015,-264.475762,-0.068048,62.348216
9.4458,-0.003584,0.000659,0.000283,0.00365,-0.000404,-0.000254,-0.003322,-0.509752,0.000412,-0.152015,-264.475762,-0.068048,62.348216
9.4656,-0.003748,3e-06,0.000185,0.003925,-0.000434,-0.000273,-0.00331,-0.509355,0.000274,-0.152015,-264.474683,-0.068048,62.349284
9.4852,-0.003184,0.000461,0.001699,0.004174,-0.000462,-0.000291,-0.003329,-0.509397,0.000268,-0.152015,-264.474683,-0.068048,62.349284
9.5058,-0.003484,0.000236,-0.000693,0.004396,-0.000487,-0.000306,-0.002177,-0.509554,0.001689,-0.152015,-264.473203,-0.068048,62.350751
9.5259,-0.003387,-0.000216,-0.000951,0.004592,-0.000508,-0.00032,-0.003109,-0.509676,0.000324,-0.152015,-264.473203,-0.068048,62.350751
9.5455,-0.003134,0.00023,0.000298,0.004762,-0.000527,-0.000332,-0.003109,-0.509676,0.000324,-0.152015,-264.473203,-0.068048,62.350751
9.5657,-0.002758,7.7e-05,0.00129,0.004905,-0.000543,-0.000342,-0.002779,-0.509792,0.000284,-0.152015,-264.471518,-0.068048,62.35242
9.5857,-0.003054,0.000359,2.8e-05,0.005023,-0.000556,-0.00035,-0.002729,-0.509801,0.00035,-0.152015,-264.471518,-0.068048,62.35242
9.6052,-0.002602,0.000335,-0.000695,0.005115,-0.000566,-0.000356,-0.002855,-0.509661,1.6e-05,-0.152015,-264.469591,-0.068048,62.35433
9.6253,-0.002712,0.000433,-0.000545,0.00518,-0.000573,-0.000361,-0.002889,-0.509666,-0.000388,-0.152015,-264.469591,-0.068048,62.35433
