mach0312/omni-docking-bench/src/icros_test_setup/results/kinematic_sample/timeseries/trial_031.csv
t,x,y,yaw,vx,vy,wz,bl_x,bl_y,bl_yaw,front_steering_joint,front_wheel_joint,rear_steering_joint,rear_wheel_joint
0.0,0.009349,0.020491,-0.051284,-0.008754,0.00078,-0.004559,-0.016673,-0.489119,-0.051807,0.225096,-264.241098,-0.386692,62.372861
0.0004,0.008686,0.020385,-0.052547,-0.006157,0.000549,-0.003207,-0.016673,-0.489119,-0.051807,0.225096,-264.244892,-0.386692,62.368868
0.0008,0.008615,0.020392,-0.051615,-0.005556,0.000495,-0.002893,-0.016539,-0.489108,-0.050897,0.225096,-264.24836,-0.386692,62.365217
0.0011,0.00843,0.020541,-0.053748,-0.004909,0.000437,-0.002557,-0.016539,-0.489108,-0.050897,0.225096,-264.251516,-0.386692,62.361896
0.0015,0.008696,0.020333,-0.05249,-0.004211,0.000375,-0.002193,-0.016591,-0.489083,-0.05101,0.225096,-264.254032,-0.386692,62.359248
0.0018,0.008452,0.020662,-0.052654,-0.003465,0.000309,-0.001805,-0.016591,-0.489083,-0.05101,0.225096,-264.256046,-0.386692,62.357128
0.0021,0.008402,0.020455,-0.050164,-0.002669,0.000238,-0.00139,-0.017368,-0.488806,-0.051486,0.225096,-264.257143,-0.386692,62.355974
0.0024,0.008242,0.02038,-0.053059,-0.001817,0.000162,-0.000946,-0.017368,-0.488806,-0.051486,0.225096,-264.257143,-0.386692,62.355974
0.0026,0.008313,0.020382,-0.053084,-0.000941,8.4e-05,-0.00049,-0.017567,-0.488729,-0.052299,0.225096,-264.257143,-0.386692,62.355974
0.0029,0.008469,0.020451,-0.052481,-0.0,0.0,-0.0,-0.017567,-0.488729,-0.052299,0.225096,-264.257143,-0.386692,62.355974
0.0184,0.008382,0.020669,-0.051123,-0.007384,-0.016,0.03,-0.018829,-0.488893,-0.053103,0.225096,-264.257143,-0.386692,62.355974
0.0384,0.00829,0.020543,-0.051022,-0.007315,-0.021071,0.05,-0.017725,-0.488658,-0.051147,0.225096,-264.257529,-0.386692,62.355567
0.0586,0.007835,0.020529,-0.05206,-0.007232,-0.02094,0.05,-0.017725,-0.488668,-0.051138,0.225096,-264.257529,-0.386692,62.355567
0.0782,0.008101,0.020615,-0.053512,-0.006756,-0.020909,0.05,-0.018703,-0.48878,-0.05206,0.150033,-264.257529,-0.311628,62.355567
0.0985,0.008154,0.02028,-0.052273,-0.006986,-0.021019,0.05,-0.018975,-0.488708,-0.052892,0.150033,-264.257529,-0.311628,62.355567
0.1183,0.008184,0.020698,-0.051614,-0.007083,-0.020678,0.05,-0.018975,-0.488708,-0.052892,0.150033,-264.257529,-0.311628,62.355567
0.1382,0.008162,0.020651,-0.051467,-0.007105,-0.021092,0.05,-0.018127,-0.488623,-0.051614,0.075104,-264.257529,-0.386557,62.355567
0.1582,0.008198,0.02066,-0.05239,-0.007089,-0.021043,0.05,-0.018123,-0.488627,-0.051603,0.075104,-264.257529,-0.386557,62.355567
0.1784,0.00848,0.020388,-0.052214,-0.007104,-0.021061,0.05,-0.018509,-0.48864,-0.05239,-0.000111,-264.257529,-0.461771,62.355567
0.1987,0.008345,0.020392,-0.052655,-0.007405,-0.020803,0.05,-0.018297,-0.488798,-0.05229,-0.000111,-264.257529,-0.461771,62.355567
0.2187,0.00831,0.020365,-0.052966,-0.00726,-0.020803,0.05,-0.018297,-0.488798,-0.05229,-0.000111,-264.257529,-0.461771,62.355567
0.2383,0.008232,0.020757,-0.052765,-0.00722,-0.020776,0.05,-0.01869,-0.48892,-0.052966,-0.07493,-264.257529,-0.53659,62.355567
0.2587,0.008018,0.02038,-0.052063,-0.007126,-0.021162,0.05,-0.018688,-0.488887,-0.052948,-0.07493,-264.257529,-0.53659,62.355567
0.2788,0.008165,0.020458,-0.052918,-0.006947,-0.02077,0.05,-0.018521,-0.488929,-0.052063,-0.150308,-264.257529,-0.611968,62.355567
0.2987,0.008145,0.020545,-0.053032,-0.007072,-0.020861,0.05,-0.018686,-0.488872,-0.052548,-0.150308,-264.257529,-0.611968,62.355567
0.3186,0.008066,0.020422,-0.053161,-0.007045,-0.020948,0.05,-0.018686,-0.488872,-0.052548,-0.150308,-264.257529,-0.611968,62.355567
0.3383,0.00804,0.020315,-0.051732,-0.00697,-0.020821,0.05,-0.019033,-0.488858,-0.053161,-0.224872,-264.257529,-0.686532,62.355567
0.3585,0.008595,0.020727,-0.052095,-0.006979,-0.020704,0.05,-0.018977,-0.488869,-0.053047,-0.224872,-264.257529,-0.686532,62.355567
0.3783,0.008451,0.020458,-0.051372,-0.007504,-0.021147,0.05,-0.017962,-0.488581,-0.052095,-0.300118,-264.257529,-0.761779,62.355567
0.3983,0.008621,0.020473,-0.0525,-0.00739,-0.020865,0.05,-0.017833,-0.488746,-0.05168,-0.300118,-264.257529,-0.761779,62.355567
0.4186,0.008593,0.020431,-0.051683,-0.007535,-0.020897,0.05,-0.017833,-0.488746,-0.05168,-0.300118,-264.257529,-0.761779,62.355567
0.4381,0.008455,0.02039,-0.051811,-0.007526,-0.020847,0.05,-0.017753,-0.488888,-0.051683,-0.375019,-264.257529,-0.83668,62.355567
0.4582,0.00842,0.020512,-0.052221,-0.007388,-0.0208,0.05,-0.017764,-0.48889,-0.05169,-0.375019,-264.257529,-0.83668,62.355567
0.4784,0.008432,0.020402,-0.052291,-0.007338,-0.020924,0.05,-0.0182,-0.488792,-0.052221,-0.449804,-264.257529,-0.911465,62.355567
0.4992,0.008119,0.020469,-0.05147,-0.007354,-0.020815,0.05,-0.018214,-0.488855,-0.052262,-0.449804,-264.257529,-0.911465,62.355567
0.5184,0.008214,0.020158,-0.052406,-0.007055,-0.02086,0.05,-0.018214,-0.488855,-0.052262,-0.449804,-264.257529,-0.911465,62.355567
0.5384,0.007981,0.020555,-0.052738,-0.007146,-0.020561,0.05,-0.018501,-0.489142,-0.052406,-0.525089,-264.257529,-0.986749,62.355567
0.5582,0.008057,0.020195,-0.052447,-0.006886,-0.020947,0.05,-0.018535,-0.489108,-0.052434,-0.525089,-264.257529,-0.986749,62.355567
0.5785,0.008283,0.020497,-0.052529,-0.006987,-0.02059,0.05,-0.018679,-0.489104,-0.052447,-0.6002,-264.25753,-1.06186,62.355567
0.5984,0.008478,0.0206,-0.05102,-0.007195,-0.020904,0.05,-0.018574,-0.48893,-0.052494,-0.6002,-264.25753,-1.06186,62.355567
0.6184,0.008541,0.020248,-0.051454,-0.007416,-0.021005,0.05,-0.018574,-0.48893,-0.052494,-0.6002,-264.25753,-1.06186,62.355567
0.6383,0.008494,0.02077,-0.052068,-0.007488,-0.02066,0.05,-0.017689,-0.489078,-0.051454,-0.674805,-264.25753,-1.136465,62.35557
0.6588,0.008266,0.02052,-0.052223,-0.007401,-0.021184,0.05,-0.01772,-0.489032,-0.051506,-0.674805,-264.25753,-1.136465,62.35557
0.6782,0.008674,0.020653,-0.051625,-0.007184,-0.020923,0.05,-0.018356,-0.488786,-0.052221,-0.750341,-264.257537,-1.212002,62.3556
0.6984,0.008323,0.020709,-0.053239,-0.007597,-0.021073,0.05,-0.017946,-0.488718,-0.051878,-0.750341,-264.257537,-1.212002,62.3556
0.7183,0.008242,0.020422,-0.05244,-0.00721,-0.021123,0.05,-0.017946,-0.488718,-0.051878,-0.750341,-264.257537,-1.212002,62.3556
0.7382,0.00861,0.020356,-0.05156,-0.007161,-0.020826,0.05,-0.018488,-0.488888,-0.052415,-0.824931,-264.257587,-1.286592,62.35582
0.7583,0.008024,0.020682,-0.052816,-0.007549,-0.020773,0.05,-0.01843,-0.488894,-0.052353,-0.824931,-264.257587,-1.286592,62.35582
0.7789,0.008118,0.020294,-0.050534,-0.006921,-0.021077,0.05,-0.018899,-0.488643,-0.052729,-0.899954,-264.257804,-1.361614,62.356772
0.7982,0.008203,0.020469,-0.050311,-0.007082,-0.020678,0.05,-0.018182,-0.488883,-0.051464,-0.899954,-264.257804,-1.361614,62.356772
0.8186,0.008075,0.020452,-0.052464,-0.007163,-0.020855,0.05,-0.018182,-0.488883,-0.051464,-0.899954,-264.257804,-1.361614,62.356772
0.8383,0.007876,0.020191,-0.051504,-0.006992,-0.020847,0.05,-0.018677,-0.488974,-0.052156,-0.912683,-264.258428,-1.436609,62.359395
0.8586,0.0081,0.020236,-0.052238,-0.006826,-0.02057,0.05,-0.018657,-0.488988,-0.052104,-0.912683,-264.258428,-1.436609,62.359395
0.8786,0.00778,0.020089,-0.050853,-0.007032,-0.020631,0.05,-0.018566,-0.489258,-0.051743,-0.933834,-264.259861,-1.511483,62.364518
0.8985,0.007597,0.020315,-0.050956,-0.006749,-0.020458,0.05,-0.01833,-0.489279,-0.051174,-0.933834,-264.259861,-1.511483,62.364518
0.9188,0.007778,0.019956,-0.049978,-0.006552,-0.020676,0.05,-0.01833,-0.489279,-0.051174,-0.933834,-264.259861,-1.511483,62.364518
0.9382,0.007395,0.019688,-0.050221,-0.006771,-0.02032,0.049978,-0.017814,-0.489735,-0.049001,-0.970329,-264.262486,-1.586455,62.372179
0.9585,0.006926,0.019552,-0.049738,-0.006397,-0.020034,0.05,-0.017846,-0.489739,-0.049064,-0.970329,-264.262486,-1.586455,62.372179
0.9784,0.006098,0.019515,-0.050489,-0.005946,-0.019872,0.049738,-0.018592,-0.49014,-0.048693,-0.98433,-264.266332,-1.66184,62.382262
0.9983,0.006227,0.019403,-0.048032,-0.005105,-0.019798,0.05,-0.01921,-0.490007,-0.049582,-0.98433,-264.266332,-1.66184,62.382262
1.0186,0.006139,0.01966,-0.049038,-0.005288,-0.01968,0.048032,-0.01921,-0.490007,-0.049582,-0.98433,-264.266332,-1.66184,62.382262
1.0388,0.004665,0.019178,-0.047362,-0.005168,-0.019937,0.049038,-0.019131,-0.490233,-0.047388,-1.023757,-264.271038,-1.696624,62.394883
1.0585,0.004745,0.018701,-0.044974,-0.003751,-0.019378,0.047362,-0.01916,-0.490246,-0.047346,-1.023757,-264.271038,-1.696624,62.394883
1.0786,0.003449,0.018569,-0.04659,-0.0039,-0.018896,0.044974,-0.018384,-0.491321,-0.043492,-1.069771,-264.275272,-1.678261,62.410006
1.0985,0.003807,0.018778,-0.047018,-0.002581,-0.018709,0.04659,-0.019502,-0.491137,-0.045068,-1.069771,-264.275272,-1.678261,62.410006
1.1184,0.003574,0.017925,-0.044482,-0.00292,-0.018936,0.047018,-0.019502,-0.491137,-0.045068,-1.069771,-264.275272,-1.678261,62.410006
1.1383,0.002664,0.017789,-0.044105,-0.002774,-0.018067,0.044482,-0.019283,-0.492286,-0.042731,-1.144782,-264.278399,-1.648301,62.424772
1.1586,0.002474,0.017308,-0.043729,-0.001877,-0.017889,0.044105,-0.019323,-0.492266,-0.042777,-1.144782,-264.278399,-1.648301,62.424772
1.1783,0.002003,0.016971,-0.041701,-0.001715,-0.017399,0.043729,-0.019936,-0.492745,-0.042389,-1.219776,-264.281429,-1.632004,62.438947
1.1984,0.001815,0.017009,-0.042062,-0.001294,-0.017039,0.041701,-0.019561,-0.492722,-0.041824,-1.219776,-264.281429,-1.632004,62.438947
1.2183,0.001128,0.016999,-0.042394,-0.001099,-0.01707,0.042062,-0.019561,-0.492722,-0.041824,-1.219776,-264.281429,-1.632004,62.438947
1.2383,0.000824,0.016396,-0.039828,-0.000406,-0.017032,0.042394,-0.020587,-0.493154,-0.040889,-1.294965,-264.284032,-1.612649,62.451585
1.2589,0.000624,0.016261,-0.040637,-0.00017,-0.016416,0.039828,-0.020511,-0.493174,-0.040772,-1.294965,-264.284032,-1.612649,62.451585
1.2788,-0.000221,0.01604,-0.037411,3.7e-05,-0.016273,0.040637,-0.020151,-0.493778,-0.039506,-1.369961,-264.286452,-1.596481,62.463496
1.2986,-0.000164,0.01606,-0.038655,0.000821,-0.016021,0.037411,-0.019673,-0.493737,-0.038174,-1.369961,-264.286452,-1.596481,62.463496
1.3185,-0.000366,0.015872,-0.038615,0.000785,-0.016042,0.038655,-0.019673,-0.493737,-0.038174,-1.369961,-264.286452,-1.596481,62.463496
1.3381,-0.000644,0.015517,-0.035373,0.000978,-0.015846,0.038615,-0.020089,-0.494219,-0.037473,-1.44489,-264.288322,-1.574977,62.473125
1.3586,-0.000501,0.015013,-0.035945,0.001192,-0.015484,0.035373,-0.019991,-0.494228,-0.037295,-1.44489,-264.288322,-1.574977,62.473125
1.3783,-0.00105,0.015164,-0.036702,0.00104,-0.014986,0.035945,-0.018834,-0.49492,-0.035311,-1.519781,-264.289612,-1.551001,62.479853
1.3984,-0.001012,0.014808,-0.036152,0.001606,-0.015116,0.036702,-0.019363,-0.494711,-0.03602,-1.519781,-264.289612,-1.551001,62.479853
1.4184,-0.001236,0.014688,-0.037369,0.001547,-0.014762,0.036152,-0.019363,-0.494711,-0.03602,-1.519781,-264.289612,-1.551001,62.479853
1.4386,-0.001241,0.015161,-0.036466,0.001784,-0.014631,0.037369,-0.02029,-0.494956,-0.037369,-1.444719,-264.289612,-1.53866,62.479854
1.4583,-0.00107,0.014622,-0.037581,0.001793,-0.015106,0.036466,-0.020252,-0.494918,-0.037293,-1.444719,-264.289612,-1.53866,62.479854
1.4784,-0.001479,0.015018,-0.037363,0.001618,-0.014572,0.037581,-0.020231,-0.495018,-0.03758,-1.369338,-264.289612,-1.528843,62.479856
1.4983,-0.001265,0.014943,-0.035812,0.002039,-0.014952,0.037363,-0.020402,-0.494794,-0.037456,-1.369338,-264.289612,-1.528843,62.479856
1.5186,-0.001373,0.014615,-0.03594,0.0018,-0.014888,0.035812,-0.020402,-0.494794,-0.037456,-1.369338,-264.289612,-1.528843,62.479856
1.5383,-0.001161,0.015088,-0.035557,0.001897,-0.014556,0.03594,-0.019698,-0.495056,-0.03594,-1.294655,-264.289611,-1.522874,62.479857
1.5588,-0.00104,0.014657,-0.037398,0.001697,-0.015037,0.035557,-0.019666,-0.495019,-0.035909,-1.294655,-264.289611,-1.522874,62.479857
1.5785,-0.001079,0.014726,-0.037773,0.001587,-0.014608,0.037398,-0.020108,-0.494986,-0.037398,-1.219409,-264.289611,-1.521879,62.479859
1.5986,-0.001302,0.015268,-0.035743,0.001635,-0.014675,0.037773,-0.020239,-0.494943,-0.037611,-1.219409,-264.289611,-1.521879,62.479859
1.6185,-0.001003,0.014935,-0.036932,0.001847,-0.015212,0.035743,-0.020239,-0.494943,-0.037611,-1.219409,-264.289611,-1.521879,62.479859
1.6382,-0.000743,0.014827,-0.035898,0.001554,-0.014888,0.036932,-0.019834,-0.494717,-0.036932,-1.144784,-264.289611,-1.524661,62.47986
1.6586,-0.000994,0.014886,-0.037218,0.001275,-0.014791,0.035898,-0.01977,-0.494728,-0.036847,-1.144784,-264.289611,-1.524661,62.47986
1.6785,-0.001195,0.014975,-0.035888,0.001547,-0.014839,0.037218,-0.019971,-0.494761,-0.037218,-1.069426,-264.28961,-1.520969,62.479862
1.6991,-0.001612,0.015037,-0.035718,0.001731,-0.014922,0.035888,-0.019699,-0.494725,-0.036461,-1.069426,-264.28961,-1.520969,62.479862
1.7184,-0.001032,0.014759,-0.035716,0.002148,-0.01497,0.035718,-0.019699,-0.494725,-0.036461,-1.069426,-264.28961,-1.520969,62.479862
1.7384,-0.001259,0.015115,-0.036826,0.001558,-0.014713,0.035716,-0.019243,-0.494915,-0.035716,-0.994732,-264.28961,-1.536093,62.479863
1.7584,-0.001269,0.015043,-0.036389,0.001815,-0.015058,0.036826,-0.019298,-0.494889,-0.035793,-0.994732,-264.28961,-1.536093,62.479863
1.7787,-0.001337,0.015045,-0.035221,0.001815,-0.014987,0.036389,-0.019823,-0.494619,-0.036389,-0.919787,-264.28961,-1.51248,62.479864
1.799,-0.000827,0.014374,-0.037277,0.001866,-0.014989,0.035221,-0.019522,-0.49463,-0.035721,-0.919787,-264.28961,-1.51248,62.479864
1.8183,-0.001087,0.014752,-0.037076,0.001362,-0.014333,0.037277,-0.019522,-0.49463,-0.035721,-0.919787,-264.28961,-1.51248,62.479864
1.8384,-0.001127,0.014892,-0.037523,0.001633,-0.014701,0.037076,-0.019991,-0.494898,-0.037076,-0.844695,-264.28961,-1.52251,62.479866
1.8588,-0.001136,0.014826,-0.038022,0.001685,-0.014839,0.037523,-0.02001,-0.494888,-0.037106,-0.844695,-264.28961,-1.52251,62.479866
1.8785,-0.000986,0.014795,-0.036417,0.001698,-0.014772,0.038022,-0.020522,-0.494806,-0.038021,-0.919612,-264.28961,-1.534099,62.479867
1.8988,-0.001185,0.015054,-0.03621,0.001524,-0.014749,0.036417,-0.019969,-0.494841,-0.037103,-0.919612,-264.28961,-1.534099,62.479867
1.9188,-0.001415,0.015307,-0.035511,0.00173,-0.015002,0.03621,-0.019969,-0.494841,-0.037103,-0.919612,-264.28961,-1.534099,62.479867
1.9383,-0.000892,0.014925,-0.036447,0.001958,-0.015247,0.035511,-0.019522,-0.494372,-0.035511,-0.844525,-264.28961,-1.526192,62.479869
1.9593,-0.001079,0.014777,-0.035551,0.001435,-0.014882,0.036447,-0.019519,-0.494394,-0.035568,-0.844525,-264.28961,-1.526192,62.479869
1.9783,-0.001084,0.01543,-0.036626,0.001604,-0.01473,0.035551,-0.019207,-0.494901,-0.035551,-0.769609,-264.289609,-1.524229,62.47987
1.9983,-0.001283,0.014913,-0.035394,0.001648,-0.01538,0.036626,-0.019518,-0.494522,-0.036157,-0.769609,-264.289609,-1.524229,62.47987
2.0185,-0.000859,0.015123,-0.03606,0.00181,-0.014858,0.035394,-0.019518,-0.494522,-0.036157,-0.769609,-264.289609,-1.524229,62.47987
2.0383,-0.001288,0.015111,-0.035433,0.001403,-0.015082,0.03606,-0.019245,-0.494546,-0.03606,-0.694458,-264.289609,-1.53217,62.479872
2.0582,-0.001306,0.015011,-0.035986,0.001823,-0.015056,0.035433,-0.019253,-0.494547,-0.036017,-0.694458,-264.289609,-1.53217,62.479872
2.0785,-0.001164,0.015307,-0.035228,0.001845,-0.014954,0.035986,-0.019655,-0.494659,-0.035986,-0.619608,-264.289609,-1.521223,62.479873
2.0989,-0.000992,0.015153,-0.036042,0.001702,-0.015257,0.035228,-0.019352,-0.494497,-0.035551,-0.619608,-264.289609,-1.521223,62.479873
2.1183,-0.001296,0.014725,-0.037021,0.001537,-0.015108,0.036042,-0.019352,-0.494497,-0.035551,-0.619608,-264.289609,-1.521223,62.479873
2.1385,-0.0014,0.015264,-0.036358,0.00184,-0.014667,0.037021,-0.020172,-0.494925,-0.037021,-0.544496,-264.289608,-1.52116,62.479875
2.1593,-0.00087,0.01524,-0.036634,0.001954,-0.015203,0.036358,-0.020157,-0.49489,-0.036977,-0.544496,-264.289608,-1.52116,62.479875
2.1783,-0.001043,0.015263,-0.037468,0.001427,-0.015198,0.036634,-0.019549,-0.494417,-0.036634,-0.469609,-264.289608,-1.529404,62.479876
2.1983,-0.001118,0.01481,-0.036107,0.001614,-0.015213,0.037468,-0.019891,-0.494396,-0.037111,-0.469609,-264.289608,-1.529404,62.479876
2.2185,-0.000947,0.014914,-0.03712,0.001652,-0.01476,0.036107,-0.019891,-0.494396,-0.037111,-0.469609,-264.289608,-1.529404,62.479876
2.2383,-0.001036,0.015032,-0.035517,0.001499,-0.014868,0.03712,-0.019873,-0.494735,-0.03712,-0.394437,-264.289608,-1.518601,62.479878
2.2586,-0.001239,0.015094,-0.036675,0.001569,-0.014985,0.035517,-0.019826,-0.494729,-0.037015,-0.394437,-264.289608,-1.518601,62.479878
2.2783,-0.001234,0.015119,-0.037055,0.001792,-0.015039,0.036675,-0.019939,-0.494563,-0.036674,-0.319623,-264.289608,-1.525961,62.479879
2.2983,-0.001135,0.014889,-0.036188,0.001794,-0.015063,0.037055,-0.020047,-0.494545,-0.036891,-0.319623,-264.289608,-1.525961,62.479879
2.3185,-0.001218,0.014789,-0.036559,0.001673,-0.014839,0.036188,-0.020047,-0.494545,-0.036891,-0.319623,-264.289608,-1.525961,62.479879
2.3383,-0.000529,0.015007,-0.037749,0.001757,-0.014734,0.036559,-0.019858,-0.49487,-0.036559,-0.244611,-264.289607,-1.528041,62.479881
2.3586,-0.001379,0.014843,-0.036365,0.001095,-0.014977,0.037749,-0.019853,-0.494854,-0.036642,-0.244611,-264.289607,-1.528041,62.479881
2.3782,-0.000916,0.015205,-0.037246,0.001918,-0.014783,0.036365,-0.019921,-0.49482,-0.036365,-0.169621,-264.289607,-1.525545,62.479882
2.3981,-0.001062,0.014987,-0.035166,0.001481,-0.015161,0.037246,-0.019913,-0.494605,-0.036864,-0.169621,-264.289607,-1.525545,62.479882
2.4181,-0.000962,0.015187,-0.036062,0.001588,-0.01494,0.035166,-0.019913,-0.494605,-0.036864,-0.169621,-264.289607,-1.525545,62.479882
2.4386,-0.001268,0.014725,-0.037831,0.001509,-0.015142,0.036062,-0.01935,-0.494481,-0.036062,-0.24462,-264.289607,-1.542019,62.479884
2.4588,-0.001266,0.014985,-0.035599,0.001824,-0.014667,0.037831,-0.019436,-0.494512,-0.036188,-0.24462,-264.289607,-1.542019,62.479884
2.4783,-0.00089,0.015277,-0.037397,0.001799,-0.014931,0.035599,-0.019418,-0.494691,-0.035599,-0.16957,-264.289607,-1.52722,62.479885
2.4984,-0.000913,0.015106,-0.036272,0.00146,-0.015233,0.037397,-0.019725,-0.494506,-0.036622,-0.16957,-264.289607,-1.52722,62.479885
2.5182,-0.000775,0.015413,-0.036404,0.00146,-0.015063,0.036272,-0.019725,-0.494506,-0.036622,-0.16957,-264.289607,-1.52722,62.479885
2.5382,-0.001387,0.01525,-0.036204,0.001336,-0.015375,0.036404,-0.019337,-0.494249,-0.036404,-0.09461,-264.289607,-1.522544,62.479887
2.5588,-0.001154,0.015081,-0.035819,0.001938,-0.01519,0.036204,-0.019373,-0.494261,-0.03639,-0.09461,-264.289607,-1.522544,62.479887
2.5782,-0.001175,0.014974,-0.035714,0.001693,-0.01503,0.035819,-0.019418,-0.494592,-0.035819,-0.019623,-264.289606,-1.53159,62.479888
2.5982,-0.001308,0.014955,-0.037733,0.001709,-0.014922,0.035714,-0.019399,-0.494654,-0.035759,-0.019623,-264.289606,-1.53159,62.479888
2.6185,-0.001192,0.015242,-0.035617,0.001871,-0.014895,0.037733,-0.019399,-0.494654,-0.035759,-0.019623,-264.289606,-1.53159,62.479888
2.6386,-0.001374,0.014859,-0.036901,0.001734,-0.01519,0.035617,-0.019353,-0.494435,-0.035617,0.055373,-264.289606,-1.518888,62.47989
2.6588,-0.001102,0.014752,-0.036229,0.001921,-0.014798,0.036901,-0.019413,-0.494461,-0.03571,0.055373,-264.289606,-1.518888,62.47989
2.6789,-0.001834,0.015122,-0.035612,0.001636,-0.014702,0.036229,-0.019575,-0.494913,-0.036229,0.130468,-264.289606,-1.521515,62.479891
2.6984,-0.00065,0.014751,-0.036986,0.002371,-0.015047,0.035612,-0.019814,-0.494708,-0.035875,0.130468,-264.289606,-1.521515,62.479891
2.7185,-0.000972,0.014623,-0.037015,0.001195,-0.014717,0.036986,-0.019814,-0.494708,-0.035875,0.130468,-264.289606,-1.521515,62.479891
2.7391,-0.001064,0.014849,-0.036079,0.001513,-0.014577,0.037015,-0.019846,-0.495028,-0.037015,0.205553,-264.289605,-1.519393,62.479893
2.7582,-0.001257,0.015055,-0.038079,0.001599,-0.014801,0.036079,-0.019814,-0.495011,-0.036939,0.205553,-264.289605,-1.519393,62.479893
2.7786,-0.001452,0.014824,-0.036358,0.00183,-0.014997,0.038079,-0.020673,-0.494575,-0.038079,0.280725,-264.289605,-1.538763,62.479894
2.7985,-0.001271,0.015046,-0.035996,0.00199,-0.014761,0.036358,-0.020285,-0.494725,-0.037101,0.280725,-264.289605,-1.538763,62.479894
2.8186,-0.00118,0.014903,-0.037653,0.001812,-0.014991,0.035996,-0.020285,-0.494725,-0.037101,0.280725,-264.289605,-1.538763,62.479894
2.8387,-0.001196,0.015269,-0.03626,0.00174,-0.014848,0.037653,-0.020378,-0.494736,-0.037652,0.355382,-264.289605,-1.527413,62.479896
2.8582,-0.001029,0.014907,-0.036046,0.001748,-0.015215,0.03626,-0.020329,-0.494712,-0.037554,0.355382,-264.289605,-1.527413,62.479896
2.8783,-0.001002,0.014964,-0.036894,0.001565,-0.01486,0.036046,-0.019408,-0.494762,-0.036046,0.430966,-264.289605,-1.521827,62.479897
2.8984,-0.001316,0.015028,-0.037231,0.001554,-0.014917,0.036894,-0.019638,-0.494721,-0.036525,0.430966,-264.289605,-1.521827,62.479897
2.9182,-0.001079,0.015227,-0.038064,0.001874,-0.014968,0.037231,-0.019638,-0.494721,-0.036525,0.430966,-264.289605,-1.521827,62.479897
2.9383,-0.001606,0.015169,-0.037279,0.001658,-0.015175,0.038064,-0.020487,-0.494404,-0.038064,0.505389,-264.289604,-1.524032,62.479899
2.9583,-0.001104,0.014741,-0.035709,0.00217,-0.015098,0.037279,-0.020496,-0.494409,-0.038011,0.505389,-264.289604,-1.524032,62.479899
2.9786,-0.001281,0.015062,-0.036564,0.00163,-0.014692,0.035709,-0.019312,-0.494934,-0.035709,0.580385,-264.289604,-1.521127,62.4799
2.9984,-0.001313,0.014907,-0.036798,0.001831,-0.015006,0.036564,-0.01966,-0.494743,-0.036194,0.580385,-264.289604,-1.521127,62.4799
3.0186,-0.001274,0.014808,-0.036506,0.00186,-0.014849,0.036798,-0.01966,-0.494743,-0.036194,0.580385,-264.289604,-1.521127,62.4799
3.0381,-0.001323,0.014706,-0.037532,0.001813,-0.014752,0.036506,-0.019888,-0.494852,-0.036506,0.655392,-264.289603,-1.51354,62.479904
3.0587,-0.000923,0.015258,-0.03579,0.001873,-0.014646,0.037532,-0.01993,-0.494858,-0.036581,0.655392,-264.289603,-1.51354,62.479904
3.0784,-0.000946,0.015044,-0.036899,0.001468,-0.015216,0.03579,-0.019172,-0.494415,-0.03579,0.730471,-264.289602,-1.520991,62.47991
3.0982,-0.001012,0.01494,-0.036691,0.001501,-0.014999,0.036899,-0.019502,-0.494524,-0.036412,0.730471,-264.289602,-1.520991,62.47991
3.1183,-0.001495,0.014965,-0.03676,0.001559,-0.014893,0.036691,-0.019502,-0.494524,-0.036412,0.730471,-264.289602,-1.520991,62.47991
3.1383,-0.001306,0.015284,-0.037079,0.002044,-0.0149,0.03676,-0.020238,-0.494692,-0.036757,0.805385,-264.289597,-1.520969,62.479934
3.1582,-0.001048,0.014955,-0.036716,0.001872,-0.015225,0.037079,-0.020236,-0.494669,-0.03678,0.805385,-264.289597,-1.520969,62.479934
3.1782,-0.001361,0.014828,-0.035087,0.001596,-0.014906,0.036716,-0.019768,-0.494704,-0.036709,0.880363,-264.289581,-1.52902,62.480008
3.1981,-0.000977,0.014734,-0.036211,0.001881,-0.014771,0.035087,-0.019473,-0.494793,-0.035782,0.880363,-264.289581,-1.52902,62.480008
3.2182,-0.001329,0.015082,-0.036487,0.00151,-0.014689,0.036211,-0.019473,-0.494793,-0.035782,0.880363,-264.289581,-1.52902,62.480008
3.2384,-0.000893,0.014899,-0.035512,0.001879,-0.015023,0.036487,-0.019929,-0.494608,-0.036419,0.955488,-264.289463,-1.521419,62.480594
3.2585,-0.001166,0.014743,-0.036165,0.001422,-0.014858,0.035512,-0.019863,-0.494621,-0.036354,0.955488,-264.289463,-1.521419,62.480594
3.2784,-0.001119,0.015117,-0.036697,0.001698,-0.014691,0.036165,-0.019601,-0.494958,-0.036085,1.030515,-264.289286,-1.529797,62.481457
3.2989,-0.001535,0.015024,-0.036645,0.001673,-0.015066,0.036697,-0.01973,-0.494725,-0.036422,1.030515,-264.289286,-1.529797,62.481457
3.3186,-0.001131,0.015006,-0.037,0.002085,-0.014958,0.036645,-0.01973,-0.494725,-0.036422,1.030515,-264.289286,-1.529797,62.481457
3.3382,-0.000983,0.014751,-0.034179,0.001685,-0.014954,0.037,-0.019983,-0.494763,-0.036727,1.105395,-264.288837,-1.53191,62.48381
3.3586,-0.001465,0.014717,-0.035715,0.001487,-0.014709,0.034179,-0.019861,-0.494781,-0.036522,1.105395,-264.288837,-1.53191,62.48381
3.3788,-0.001799,0.014735,-0.035468,0.001989,-0.014655,0.035715,-0.019637,-0.495117,-0.03521,1.180704,-264.287141,-1.515022,62.488652
3.3983,-0.001062,0.014366,-0.035958,0.00232,-0.014662,0.035468,-0.019773,-0.495038,-0.035294,1.180704,-264.287141,-1.515022,62.488652
3.4186,-0.001868,0.014783,-0.036195,0.001578,-0.014319,0.035958,-0.019773,-0.495038,-0.035294,1.180704,-264.287141,-1.515022,62.488652
3.4384,-0.001588,0.014659,-0.034462,0.002402,-0.014705,0.036195,-0.020285,-0.49523,-0.035302,1.255514,-264.285412,-1.529044,62.495988
3.4582,-0.002338,0.014398,-0.035131,0.002092,-0.014595,0.034462,-0.020205,-0.495226,-0.03522,1.255514,-264.285412,-1.529044,62.495988
3.4784,-0.002861,0.01364,-0.034643,0.002842,-0.014307,0.035131,-0.020213,-0.495644,-0.034158,1.330382,-264.282857,-1.527341,62.505831
3.4983,-0.003028,0.013269,-0.033755,0.003331,-0.013532,0.034643,-0.020386,-0.495923,-0.034311,1.330382,-264.282857,-1.527341,62.505831
3.5183,-0.00244,0.013909,-0.032964,0.003475,-0.013159,0.033755,-0.020386,-0.495923,-0.034311,1.330382,-264.282857,-1.527341,62.505831
3.5384,-0.003553,0.013287,-0.031312,0.002897,-0.013821,0.032964,-0.019178,-0.496423,-0.031501,1.257227,-264.280376,-1.512161,62.518173
3.5585,-0.003042,0.013621,-0.031967,0.003968,-0.01317,0.031312,-0.019199,-0.496441,-0.031451,1.257227,-264.280376,-1.512161,62.518173
3.5784,-0.004212,0.012497,-0.029969,0.003476,-0.013517,0.031967,-0.019257,-0.496506,-0.03097,1.182241,-264.277855,-1.468284,62.528579
3.5982,-0.003741,0.012811,-0.030365,0.004585,-0.012365,0.029969,-0.019385,-0.497003,-0.03026,1.182241,-264.277855,-1.468284,62.528579
3.6185,-0.003846,0.01276,-0.031185,0.004128,-0.012691,0.030365,-0.019385,-0.497003,-0.03026,1.182241,-264.277855,-1.468284,62.528579
3.6385,-0.004271,0.012719,-0.029298,0.004242,-0.012633,0.031185,-0.019667,-0.497324,-0.030381,1.106812,-264.276363,-1.448549,62.535366
3.6588,-0.004518,0.012214,-0.030575,0.004642,-0.012588,0.029298,-0.019636,-0.497315,-0.030291,1.106812,-264.276363,-1.448549,62.535366
3.6781,-0.004664,0.012098,-0.030759,0.004889,-0.012071,0.030575,-0.020014,-0.49789,-0.029746,1.032245,-264.274369,-1.439391,62.544136
3.6982,-0.004855,0.011983,-0.028399,0.005034,-0.011949,0.030759,-0.020191,-0.497803,-0.030216,1.032245,-264.274369,-1.439391,62.544136
3.7183,-0.004697,0.012158,-0.028534,0.005193,-0.01184,0.028399,-0.020191,-0.497803,-0.030216,1.032245,-264.274369,-1.439391,62.544136
3.7384,-0.004762,0.012002,-0.027929,0.005042,-0.012019,0.028534,-0.019133,-0.497992,-0.027684,0.957121,-264.272708,-1.419665,62.5514
3.7587,-0.004844,0.011816,-0.027975,0.005095,-0.011864,0.027929,-0.019121,-0.497988,-0.027678,0.957121,-264.272708,-1.419665,62.5514
3.7784,-0.005418,0.010823,-0.027249,0.005172,-0.011676,0.027975,-0.01898,-0.498309,-0.027186,0.882133,-264.270546,-1.3947,62.559868
3.7984,-0.005374,0.011545,-0.026836,0.005711,-0.010672,0.027249,-0.019155,-0.498739,-0.027122,0.882133,-264.270546,-1.3947,62.559868
3.8184,-0.005616,0.011026,-0.026519,0.005682,-0.011396,0.026836,-0.019155,-0.498739,-0.027122,0.882133,-264.270546,-1.3947,62.559868
3.8383,-0.00584,0.011053,-0.026609,0.005906,-0.010874,0.026519,-0.018935,-0.499308,-0.025317,0.807104,-264.26797,-1.396409,62.570266
3.8587,-0.005501,0.010492,-0.0255,0.006132,-0.010893,0.026609,-0.018963,-0.499283,-0.025378,0.807104,-264.26797,-1.396409,62.570266
3.8787,-0.005887,0.010125,-0.024084,0.005767,-0.010348,0.0255,-0.018322,-0.499734,-0.024584,0.732132,-264.265315,-1.369081,62.580219
3.8985,-0.006458,0.010278,-0.025401,0.006129,-0.00998,0.024084,-0.018213,-0.49978,-0.024187,0.732132,-264.265315,-1.369081,62.580219
3.9184,-0.006352,0.010119,-0.024786,0.006717,-0.010111,0.025401,-0.018213,-0.49978,-0.024187,0.732132,-264.265315,-1.369081,62.580219
3.9382,-0.006689,0.009382,-0.023018,0.006601,-0.009958,0.024786,-0.018711,-0.500254,-0.023509,0.71815,-264.262093,-1.348629,62.59123
3.9588,-0.006515,0.009936,-0.023399,0.006903,-0.009225,0.023018,-0.018683,-0.500285,-0.023439,0.71815,-264.262093,-1.348629,62.59123
3.9788,-0.006822,0.009023,-0.022496,0.006745,-0.009781,0.023399,-0.018208,-0.500303,-0.022461,0.677428,-264.258795,-1.314452,62.601367
3.9989,-0.006872,0.009098,-0.021791,0.007023,-0.008867,0.022496,-0.018227,-0.500663,-0.022363,0.677428,-264.258795,-1.314452,62.601367
4.0183,-0.006937,0.009444,-0.021227,0.007069,-0.008946,0.021791,-0.018227,-0.500663,-0.022363,0.677428,-264.258795,-1.314452,62.601367
4.0388,-0.007144,0.008602,-0.021723,0.007136,-0.009295,0.021227,-0.017463,-0.500859,-0.020201,0.610819,-264.255709,-1.282567,62.610259
4.0585,-0.007212,0.008526,-0.020162,0.007329,-0.008445,0.021723,-0.017505,-0.500896,-0.020275,0.610819,-264.255709,-1.282567,62.610259
4.0784,-0.007315,0.008537,-0.019817,0.007383,-0.008379,0.020162,-0.017243,-0.501702,-0.019368,0.552935,-264.252575,-1.263245,62.619071
4.0984,-0.007178,0.007972,-0.019601,0.007483,-0.00839,0.019817,-0.017313,-0.50155,-0.019524,0.552935,-264.252575,-1.263245,62.619071
4.1183,-0.007477,0.008312,-0.02052,0.007333,-0.007829,0.019601,-0.017313,-0.50155,-0.019524,0.552935,-264.252575,-1.263245,62.619071
4.1386,-0.007636,0.008193,-0.01989,0.007646,-0.008157,0.02052,-0.017601,-0.50199,-0.019485,0.581962,-264.249135,-1.245242,62.628054
4.1589,-0.00718,0.007733,-0.019269,0.007797,-0.00804,0.01989,-0.017604,-0.501981,-0.019485,0.581962,-264.249135,-1.245242,62.628054
4.179,-0.007557,0.0081,-0.01804,0.007328,-0.007594,0.019269,-0.016752,-0.502454,-0.018574,0.514194,-264.246047,-1.216141,62.635796
4.1984,-0.00789,0.007546,-0.017139,0.007702,-0.007963,0.01804,-0.016723,-0.502129,-0.018183,0.514194,-264.246047,-1.216141,62.635796
4.2189,-0.007874,0.007797,-0.018206,0.008018,-0.00741,0.017139,-0.016723,-0.502129,-0.018183,0.514194,-264.246047,-1.216141,62.635796
4.2382,-0.007414,0.007265,-0.016766,0.008014,-0.007652,0.018206,-0.016792,-0.502509,-0.017256,0.484941,-264.242575,-1.202211,62.644322
4.2591,-0.007908,0.007247,-0.016094,0.007535,-0.007139,0.016766,-0.016721,-0.502532,-0.017192,0.484941,-264.242575,-1.202211,62.644322
4.2788,-0.007808,0.007466,-0.015032,0.008024,-0.007119,0.016094,-0.015887,-0.502902,-0.015585,0.409832,-264.239977,-1.149202,62.650254
4.2984,-0.007626,0.006834,-0.017584,0.00792,-0.007348,0.015032,-0.015622,-0.502685,-0.015203,0.409832,-264.239977,-1.149202,62.650254
4.3184,-0.007533,0.006929,-0.017404,0.007745,-0.006699,0.017584,-0.015622,-0.502685,-0.015203,0.409832,-264.239977,-1.149202,62.650254
4.3383,-0.007838,0.0067,-0.016632,0.007653,-0.006796,0.017404,-0.016052,-0.503344,-0.016596,0.390329,-264.236735,-1.161688,62.657792
4.3589,-0.008026,0.006829,-0.015904,0.007948,-0.006568,0.016632,-0.016062,-0.503346,-0.016575,0.390329,-264.236735,-1.161688,62.657792
4.3785,-0.007877,0.006368,-0.014353,0.008133,-0.0067,0.015904,-0.015876,-0.50334,-0.01531,0.465564,-264.233684,-1.152862,62.664457
4.3988,-0.007809,0.006471,-0.015235,0.007967,-0.006254,0.014353,-0.015459,-0.503505,-0.014695,0.465564,-264.233684,-1.152862,62.664457
4.4183,-0.007826,0.006097,-0.014202,0.007907,-0.006352,0.015235,-0.015459,-0.503505,-0.014695,0.465564,-264.233684,-1.152862,62.664457
4.4382,-0.008094,0.006088,-0.012961,0.007907,-0.006352,0.015235,-0.014702,-0.504163,-0.013426,0.424257,-264.230327,-1.127211,62.671584
4.4588,-0.007787,0.005635,-0.012653,8.1e-05,-5.9e-05,0.0,-0.014692,-0.50415,-0.01337,0.424257,-264.230327,-1.127211,62.671584
4.4785,-0.008057,0.005646,-0.012315,8.1e-05,-5.9e-05,0.0,-0.013961,-0.504553,-0.012111,0.357442,-264.22721,-1.103139,62.678062
4.4983,-0.007574,0.006138,-0.013494,8.1e-05,-5.9e-05,0.0,-0.014142,-0.504446,-0.012159,0.357442,-264.22721,-1.103139,62.678062
4.5182,-0.007812,0.005484,-0.013146,8.1e-05,-5.9e-05,0.0,-0.014142,-0.504446,-0.012159,0.357442,-264.22721,-1.103139,62.678062
4.5381,-0.007687,0.005464,-0.012537,8.1e-05,-5.9e-05,0.0,-0.014517,-0.504472,-0.013146,0.282334,-264.22721,-1.028031,62.678062
4.5582,-0.008028,0.005383,-0.012849,8.1e-05,-5.9e-05,0.0,-0.014486,-0.504474,-0.013103,0.282334,-264.22721,-1.028031,62.678062
4.5783,-0.007882,0.005416,-0.013023,8.1e-05,-5.9e-05,0.0,-0.014581,-0.504575,-0.012849,0.207546,-264.22721,-0.953243,62.678062
4.5984,-0.0081,0.005791,-0.014004,8.1e-05,-5.9e-05,0.0,-0.014548,-0.504555,-0.012949,0.207546,-264.22721,-0.953243,62.678062
4.6185,-0.008218,0.005461,-0.011946,8.1e-05,-5.9e-05,0.0,-0.014548,-0.504555,-0.012949,0.207546,-264.22721,-0.953243,62.678062
4.6386,-0.007629,0.005397,-0.012692,8.1e-05,-5.9e-05,0.0,-0.01431,-0.504503,-0.011946,0.132412,-264.22721,-0.878109,62.678062
4.6584,-0.008155,0.005574,-0.013457,8.1e-05,-5.9e-05,0.0,-0.014296,-0.504507,-0.011995,0.132412,-264.22721,-0.878109,62.678062
4.6783,-0.007781,0.005399,-0.014899,0.001194,-0.000874,0.001894,-0.015018,-0.50438,-0.013457,0.057531,-264.22721,-0.803228,62.678062
4.6986,-0.008014,0.005852,-0.01425,0.002326,-0.001703,0.003689,-0.015225,-0.504474,-0.014282,0.057531,-264.22721,-0.803228,62.678062
4.7182,-0.00792,0.005725,-0.013316,0.003401,-0.00249,0.005394,-0.015225,-0.504474,-0.014282,0.057531,-264.22721,-0.803228,62.678062
4.7383,-0.007647,0.005432,-0.013274,0.004412,-0.00323,0.006998,-0.014711,-0.50423,-0.013316,-0.017549,-264.22721,-0.728147,62.678062
4.7585,-0.007758,0.005363,-0.012344,0.005362,-0.003925,0.008504,-0.01469,-0.50425,-0.013313,-0.017549,-264.22721,-0.728147,62.678062
4.7782,-0.008361,0.005738,-0.013389,0.006251,-0.004576,0.009914,-0.014042,-0.504605,-0.012332,0.057355,-264.227104,-0.803051,62.678266
4.7984,-0.007856,0.005596,-0.012169,0.007077,-0.005181,0.011224,-0.014711,-0.504379,-0.012948,0.057355,-264.227104,-0.803051,62.678266
4.8183,-0.007682,0.006049,-0.013421,0.007846,-0.005743,0.012443,-0.014711,-0.504379,-0.012948,0.057355,-264.227104,-0.803051,62.678266
4.8383,-0.008017,0.005448,-0.0136,0.00855,-0.006259,0.01356,-0.014453,-0.503951,-0.013333,0.132829,-264.226559,-0.878526,62.679311
4.8585,-0.007745,0.005568,-0.013035,0.009193,-0.00673,0.01458,-0.014485,-0.50399,-0.013349,0.132829,-264.226559,-0.878526,62.679311
4.8783,-0.007922,0.005223,-0.012372,0.009777,-0.007157,0.015505,-0.014211,-0.50451,-0.012781,0.207449,-264.224742,-0.953146,62.682801
4.8984,-0.007638,0.005582,-0.012993,0.010298,-0.007538,0.016332,-0.0142,-0.504657,-0.012514,0.207449,-264.224742,-0.953146,62.682801
4.9183,-0.007945,0.00564,-0.011263,0.010756,-0.007873,0.017058,-0.0142,-0.504657,-0.012514,0.207449,-264.224742,-0.953146,62.682801
4.9386,-0.007694,0.005068,-0.012991,0.011155,-0.008166,0.017691,-0.013308,-0.504597,-0.010677,0.232308,-264.22142,-1.028192,62.688789
4.9582,-0.007728,0.005311,-0.012547,0.011492,-0.008413,0.018226,-0.01337,-0.504625,-0.010828,0.232308,-264.22142,-1.028192,62.688789
4.9784,-0.007571,0.005049,-0.010494,0.011768,-0.008614,0.018663,-0.013717,-0.504957,-0.01189,0.232308,-264.217005,-1.039228,62.697266
4.9984,-0.007726,0.004793,-0.012286,0.011983,-0.008772,0.019004,-0.01321,-0.504976,-0.011008,0.232308,-264.217005,-1.039228,62.697266
5.0185,-0.007217,0.00478,-0.011628,0.012136,-0.008884,0.019247,-0.01321,-0.504976,-0.011008,0.232308,-264.217005,-1.039228,62.697266
5.0381,-0.007468,0.004107,-0.010364,0.012228,-0.008951,0.019393,-0.012594,-0.5056,-0.010743,0.232308,-264.212262,-1.039228,62.706371
5.0582,-0.007207,0.004606,-0.009949,0.012259,-0.008973,0.019441,-0.01259,-0.505636,-0.010684,0.232308,-264.212262,-1.039228,62.706371
5.0782,-0.007531,0.003593,-0.009022,0.012228,-0.008951,0.019393,-0.011819,-0.505714,-0.009212,0.232308,-264.207277,-1.039228,62.715941
5.0982,-0.007645,0.003911,-0.009233,0.012136,-0.008884,0.019246,-0.011943,-0.506149,-0.009008,0.232308,-264.207277,-1.039228,62.715941
5.1182,-0.007221,0.003765,-0.00975,0.011983,-0.008772,0.019004,-0.011943,-0.506149,-0.009008,0.232308,-264.207277,-1.039228,62.715941
5.1383,-0.007421,0.003492,-0.008246,0.011768,-0.008614,0.018663,-0.011605,-0.50665,-0.00881,0.232308,-264.202264,-1.039228,62.725564
5.1583,-0.007282,0.003131,-0.008498,0.011493,-0.008413,0.018227,-0.01159,-0.506651,-0.008745,0.232308,-264.202264,-1.039228,62.725564
5.1786,-0.0076,0.003223,-0.007052,0.011155,-0.008166,0.017691,-0.011156,-0.507193,-0.007764,0.232308,-264.197327,-1.039228,62.735043
5.1983,-0.007542,0.003395,-0.007778,0.010756,-0.007873,0.017057,-0.011121,-0.50699,-0.007262,0.232308,-264.197327,-1.039228,62.735043
5.2182,-0.00705,0.003479,-0.008314,0.010298,-0.007538,0.016332,-0.011121,-0.50699,-0.007262,0.232308,-264.197327,-1.039228,62.735043
5.2383,-0.006969,0.002466,-0.006556,0.009777,-0.007157,0.015505,-0.010735,-0.506916,-0.007429,0.232308,-264.192615,-1.039228,62.74409
5.2585,-0.007165,0.002645,-0.00585,0.009195,-0.006731,0.014582,-0.010693,-0.506967,-0.007348,0.232308,-264.192615,-1.039228,62.74409
5.2785,-0.007114,0.00213,-0.005509,0.00855,-0.006259,0.013559,-0.009752,-0.50764,-0.005219,0.232308,-264.188376,-1.039228,62.752227
5.2983,-0.006994,0.002495,-0.005346,0.007847,-0.005744,0.012444,-0.0098,-0.507804,-0.005305,0.232308,-264.188376,-1.039228,62.752227
5.3185,-0.006756,0.001996,-0.006893,0.007077,-0.005181,0.011224,-0.0098,-0.507804,-0.005305,0.232308,-264.188376,-1.039228,62.752227
5.3388,-0.006967,0.001517,-0.004137,0.006246,-0.004572,0.009905,-0.009825,-0.508323,-0.006183,0.232308,-264.18458,-1.039228,62.759515
5.3587,-0.006496,0.001968,-0.004247,0.005359,-0.003923,0.008499,-0.009754,-0.508345,-0.006003,0.232308,-264.18458,-1.039228,62.759515
5.3788,-0.006826,0.001986,-0.006037,0.004414,-0.003231,0.007,-0.008391,-0.508227,-0.003816,0.232308,-264.181683,-1.039228,62.765078
5.3986,-0.00661,0.001934,-0.004187,0.003403,-0.002491,0.005397,-0.009222,-0.508125,-0.005031,0.232308,-264.181683,-1.039228,62.765078
5.4186,-0.006955,0.001439,-0.004564,0.002331,-0.001706,0.003697,-0.009222,-0.508125,-0.005031,0.232308,-264.181683,-1.039228,62.765078
5.4383,-0.00672,0.001321,-0.004233,0.001195,-0.000875,0.001895,-0.009024,-0.508747,-0.004152,0.232308,-264.179484,-1.039228,62.769299
5.4587,-0.006751,0.00165,-0.004289,0.0,0.0,0.0,-0.009007,-0.508747,-0.004147,0.232308,-264.179484,-1.039228,62.769299
5.4783,-0.006937,0.001083,-0.004465,0.0,0.0,0.0,-0.008849,-0.508412,-0.004146,0.232308,-264.178526,-1.039228,62.771139
5.4986,-0.007221,0.001311,-0.004484,0.0,0.0,0.0,-0.009046,-0.508705,-0.00431,0.232308,-264.178526,-1.039228,62.771139
5.5184,-0.006803,0.001424,-0.004202,0.0,0.0,0.0,-0.009046,-0.508705,-0.00431,0.232308,-264.178526,-1.039228,62.771139
5.5384,-0.006788,0.001648,-0.002995,0.0,0.0,0.0,-0.008946,-0.508571,-0.004202,0.232308,-264.178526,-1.039228,62.771139
5.5587,-0.006789,0.001254,-0.003375,0.0,0.0,0.0,-0.008901,-0.508556,-0.004117,0.232308,-264.178526,-1.039228,62.771139
5.5791,-0.006818,0.001312,-0.005116,0.0,0.0,0.0,-0.00851,-0.508743,-0.003375,0.232308,-264.178526,-1.039228,62.771139
5.5984,-0.006854,0.002002,-0.003055,0.0,0.0,0.0,-0.009032,-0.508708,-0.004365,0.232308,-264.178526,-1.039228,62.771139
5.6185,-0.007048,0.001629,-0.002653,0.0,0.0,0.0,-0.009032,-0.508708,-0.004365,0.232308,-264.178526,-1.039228,62.771139
5.6385,-0.006785,0.001309,-0.004776,0.0,0.0,0.0,-0.008401,-0.508369,-0.002653,0.232308,-264.178526,-1.039228,62.771139
5.6582,-0.006712,0.001195,-0.00374,0.0,0.0,0.0,-0.008454,-0.508389,-0.00279,0.232308,-264.178526,-1.039228,62.771139
5.6783,-0.00674,0.001751,-0.004076,0.0,0.0,0.0,-0.00862,-0.508801,-0.00374,0.232308,-264.178526,-1.039228,62.771139
5.6984,-0.006743,0.001049,-0.004018,9.7e-05,-2.5e-05,0.0,-0.008734,-0.508482,-0.003933,0.232308,-264.178526,-1.039228,62.771139
5.7183,-0.006786,0.001421,-0.003706,9.7e-05,-2.5e-05,0.0,-0.008734,-0.508482,-0.003933,0.232308,-264.178526,-1.039228,62.771139
5.7385,-0.006904,0.001594,-0.003099,9.7e-05,-2.5e-05,0.0,-0.008676,-0.508575,-0.003706,0.232308,-264.178526,-1.039228,62.771139
5.7588,-0.006876,0.001553,-0.00533,9.7e-05,-2.5e-05,0.0,-0.008663,-0.508563,-0.003664,0.232308,-264.178526,-1.039228,62.771139
5.7782,-0.00696,0.001356,-0.00262,9.7e-05,-2.5e-05,0.0,-0.009594,-0.50844,-0.00533,0.157479,-264.178526,-0.964399,62.771139
5.7982,-0.006814,0.00157,-0.004417,9.7e-05,-2.5e-05,0.0,-0.008853,-0.508555,-0.003782,0.157479,-264.178526,-0.964399,62.771139
5.8183,-0.006954,0.001197,-0.004008,9.7e-05,-2.5e-05,0.0,-0.008853,-0.508555,-0.003782,0.157479,-264.178526,-0.964399,62.771139
5.8382,-0.006689,0.001042,-0.003471,9.7e-05,-2.5e-05,0.0,-0.008998,-0.508799,-0.004008,0.082376,-264.178526,-0.889296,62.771139
5.8586,-0.00662,0.001696,-0.004577,9.7e-05,-2.5e-05,0.0,-0.008954,-0.508811,-0.003965,0.082376,-264.178526,-0.889296,62.771139
5.8783,-0.006698,0.001173,-0.004151,9.7e-05,-2.5e-05,0.0,-0.008954,-0.508298,-0.004577,0.007136,-264.178526,-0.814056,62.771139
5.8982,-0.006798,0.001669,-0.003916,9.7e-05,-2.5e-05,0.0,-0.008874,-0.508598,-0.004333,0.007136,-264.178526,-0.814056,62.771139
5.9189,-0.006589,0.001363,-0.002721,0.000999,-0.000255,0.000603,-0.008874,-0.508598,-0.004333,0.007136,-264.178526,-0.814056,62.771139
5.9383,-0.006548,0.001013,-0.005516,0.001925,-0.000492,0.001163,-0.007977,-0.508635,-0.002721,-0.06762,-264.178525,-0.7393,62.771139
5.9585,-0.006879,0.001316,-0.004369,0.002807,-0.000717,0.001696,-0.008081,-0.508661,-0.002931,-0.06762,-264.178525,-0.7393,62.771139
5.9789,-0.006835,0.001519,-0.002547,0.003663,-0.000936,0.002213,-0.009094,-0.508684,-0.004361,0.007456,-264.178385,-0.664224,62.771303
5.9989,-0.00658,0.001507,-0.005324,0.004425,-0.00113,0.002673,-0.008543,-0.508568,-0.003323,0.007456,-264.178385,-0.664224,62.771303
6.0183,-0.006719,0.001469,-0.002433,0.00516,-0.001318,0.003117,-0.008543,-0.508568,-0.003323,0.007456,-264.178385,-0.664224,62.771303
6.0383,-0.006587,0.001175,-0.004398,0.005843,-0.001493,0.00353,-0.007865,-0.508557,-0.002375,0.082378,-264.177597,-0.589302,62.772226
6.0588,-0.006442,0.001537,-0.003132,0.006476,-0.001654,0.003912,-0.007926,-0.508575,-0.002507,0.082378,-264.177597,-0.589302,62.772226
6.0783,-0.006384,0.00143,-0.003567,0.007059,-0.001803,0.004264,-0.007844,-0.508511,-0.003014,0.113,-264.175583,-0.558157,62.774586
6.0984,-0.006168,0.001239,-0.003382,0.007589,-0.001939,0.004584,-0.008021,-0.508548,-0.00331,0.113,-264.175583,-0.558157,62.774586
6.1183,-0.006279,0.001253,-0.002642,0.00807,-0.002062,0.004875,-0.008021,-0.508548,-0.00331,0.113,-264.175583,-0.558157,62.774586
6.1385,-0.006257,0.001457,-0.001922,0.0085,-0.002171,0.005135,-0.007312,-0.508827,-0.002452,0.113,-264.17297,-0.558157,62.777646
6.1588,-0.006551,0.001296,-0.001991,0.00888,-0.002268,0.005364,-0.007298,-0.508808,-0.002408,0.113,-264.17297,-0.558157,62.777646
6.1784,-0.006015,0.00098,-0.004076,0.00921,-0.002353,0.005564,-0.007255,-0.508783,-0.001802,0.113,-264.169728,-0.558157,62.781445
6.1984,-0.006076,0.001141,-0.003958,0.009488,-0.002424,0.005731,-0.007691,-0.508925,-0.003069,0.113,-264.169728,-0.558157,62.781445
6.2182,-0.006042,0.000801,-0.002805,0.009715,-0.002482,0.005869,-0.007691,-0.508925,-0.003069,0.113,-264.169728,-0.558157,62.781445
6.2383,-0.005693,0.000852,-0.002302,0.009895,-0.002528,0.005977,-0.007041,-0.509308,-0.002544,0.113,-264.166153,-0.558157,62.785632
6.2587,-0.005612,0.001459,-0.003603,0.010019,-0.002559,0.006052,-0.007017,-0.5093,-0.00252,0.113,-264.166153,-0.558157,62.785632
6.2786,-0.005354,0.00052,-0.003069,0.010095,-0.002579,0.006098,-0.007075,-0.508635,-0.003376,0.113,-264.162242,-0.558157,62.790214
6.2984,-0.005535,0.000955,-0.002159,0.01012,-0.002585,0.006113,-0.006939,-0.509124,-0.003173,0.113,-264.162242,-0.558157,62.790214
6.3182,-0.005505,0.000535,-0.003423,0.010095,-0.002579,0.006098,-0.006939,-0.509124,-0.003173,0.113,-264.162242,-0.558157,62.790214
6.3382,-0.004905,0.000679,-0.001082,0.010019,-0.002559,0.006052,-0.006764,-0.509588,-0.003128,0.113,-264.158209,-0.558157,62.794938
6.3583,-0.004823,0.00088,-0.002961,0.009893,-0.002527,0.005976,-0.006666,-0.509574,-0.002987,0.113,-264.158209,-0.558157,62.794938
6.3782,-0.004594,0.000501,-0.001599,0.009716,-0.002482,0.005869,-0.005944,-0.509218,-0.002726,0.113,-264.154145,-0.558157,62.799698
6.3983,-0.005038,0.000505,-0.001147,0.009488,-0.002424,0.005731,-0.00559,-0.50939,-0.002054,0.113,-264.154145,-0.558157,62.799698
6.4184,-0.004693,0.000536,-0.001432,0.00921,-0.002353,0.005563,-0.00559,-0.50939,-0.002054,0.113,-264.154145,-0.558157,62.799698
6.4384,-0.004532,0.000658,-0.000395,0.008878,-0.002268,0.005363,-0.004942,-0.509587,-0.001141,0.113,-264.150157,-0.558157,62.804369
6.4585,-0.004514,0.000264,5e-06,0.008502,-0.002172,0.005136,-0.004914,-0.509573,-0.00108,0.113,-264.150157,-0.558157,62.804369
6.4783,-0.004185,0.000316,4.3e-05,0.008071,-0.002062,0.004876,-0.004156,-0.509826,0.00022,0.113,-264.146454,-0.558157,62.808707
6.4989,-0.003995,9.7e-05,-0.000603,0.007591,-0.001939,0.004586,-0.004115,-0.509757,0.000146,0.113,-264.146454,-0.558157,62.808707
6.5184,-0.003767,0.000333,-0.001344,0.007059,-0.001803,0.004264,-0.004115,-0.509757,0.000146,0.113,-264.146454,-0.558157,62.808707
6.5383,-0.003819,0.000658,-0.000926,0.006476,-0.001654,0.003912,-0.004039,-0.509773,-0.001094,0.113,-264.143016,-0.558157,62.812735
6.5581,-0.003653,0.000316,-0.001287,0.005846,-0.001493,0.003531,-0.004046,-0.509743,-0.001074,0.113,-264.143016,-0.558157,62.812735
6.5783,-0.003392,6e-05,0.000228,0.005161,-0.001318,0.003118,-0.004038,-0.509753,-0.001124,0.113,-264.140188,-0.558157,62.816048
6.5983,-0.003315,5.6e-05,-0.001617,0.00443,-0.001132,0.002676,-0.00357,-0.509868,-0.000333,0.113,-264.140188,-0.558157,62.816048
6.6184,-0.003623,0.000193,-0.000284,0.003646,-0.000931,0.002202,-0.00357,-0.509868,-0.000333,0.113,-264.140188,-0.558157,62.816048
6.6385,-0.002803,-0.000195,-0.000824,0.002808,-0.000717,0.001696,-0.003483,-0.50988,-0.000112,0.113,-264.137834,-0.558157,62.818805
6.6587,-0.00334,0.000178,-0.002475,0.001923,-0.000491,0.001161,-0.003459,-0.509902,-0.000155,0.113,-264.137834,-0.558157,62.818805
6.6782,-0.002857,0.000134,-0.002014,0.000985,-0.000252,0.000595,-0.004462,-0.509857,-0.00239,0.113,-264.136367,-0.558157,62.820524
6.6983,-0.003248,0.000173,-0.000392,3e-06,-1e-06,2e-06,-0.004115,-0.509866,-0.002165,0.113,-264.136367,-0.558157,62.820524
6.7183,-0.003088,-0.000131,-0.001402,0.0,0.0,0.0,-0.004115,-0.509866,-0.002165,0.113,-264.136367,-0.558157,62.820524
6.7381,-0.00313,0.000291,4.3e-05,0.0,0.0,0.0,-0.00371,-0.510154,-0.001345,0.113,-264.135593,-0.558157,62.821431
6.7582,-0.00292,-1.3e-05,-0.001173,0.0,0.0,0.0,-0.003664,-0.510123,-0.001244,0.113,-264.135593,-0.558157,62.821431
