mach0312/omni-docking-bench/src/icros_test_setup/results/kinematic_sample/timeseries/trial_058.csv
t,x,y,yaw,vx,vy,wz,bl_x,bl_y,bl_yaw,front_steering_joint,front_wheel_joint,rear_steering_joint,rear_wheel_joint
0.0,0.029728,-0.029398,-0.04977,-0.005585,-0.001725,-0.002123,0.00486,-0.539397,-0.049927,0.495842,-264.173874,0.076514,62.375718
0.0004,0.029596,-0.030052,-0.050611,0.0,0.0,0.0,0.00486,-0.539397,-0.049927,0.495842,-264.17706,0.076514,62.372907
0.0007,0.030307,-0.029882,-0.051066,0.0,0.0,0.0,0.004417,-0.539186,-0.050452,0.495842,-264.179242,0.076514,62.370982
0.001,0.029335,-0.030097,-0.050065,0.0,0.0,0.0,0.004417,-0.539186,-0.050452,0.495842,-264.180621,0.076514,62.369766
0.0013,0.029613,-0.030441,-0.051154,0.0,0.0,0.0,0.004423,-0.539172,-0.050416,0.495842,-264.180621,0.076514,62.369766
0.0016,0.029766,-0.030202,-0.050214,0.0,0.0,0.0,0.004423,-0.539172,-0.050416,0.495842,-264.180621,0.076514,62.369766
0.0019,0.029529,-0.030089,-0.051055,0.0,0.0,0.0,0.004685,-0.53944,-0.049711,0.495842,-264.180621,0.076514,62.369766
0.0022,0.029525,-0.030043,-0.049166,0.0,0.0,0.0,0.004685,-0.53944,-0.049711,0.495842,-264.180621,0.076514,62.369766
0.0024,0.029644,-0.030265,-0.050253,0.0,0.0,0.0,0.004884,-0.539524,-0.048978,0.495842,-264.180621,0.076514,62.369766
0.0027,0.029777,-0.029875,-0.0514,0.0,0.0,0.0,0.004884,-0.539524,-0.048978,0.495842,-264.180621,0.076514,62.369766
0.0183,0.029661,-0.030309,-0.051071,-0.016,0.016,0.03,0.004213,-0.539537,-0.049785,0.495842,-264.180621,0.076514,62.369766
0.0385,0.029739,-0.0303,-0.050044,-0.03117,0.028755,0.05,0.003626,-0.539644,-0.051071,0.495842,-264.180621,0.076514,62.369766
0.0588,0.029926,-0.030219,-0.050995,-0.031217,0.028774,0.05,0.003668,-0.539645,-0.051,0.495842,-264.180621,0.076514,62.369766
0.079,0.029934,-0.030201,-0.049156,-0.031428,0.028654,0.05,0.00393,-0.539556,-0.050995,0.420845,-264.180622,0.144149,62.369765
0.0984,0.029637,-0.030318,-0.049948,-0.031382,0.028694,0.049156,0.004465,-0.539572,-0.049954,0.420845,-264.180622,0.144149,62.369765
0.1185,0.029961,-0.030161,-0.050896,-0.031114,0.028801,0.049948,0.004465,-0.539572,-0.049954,0.420845,-264.180622,0.144149,62.369765
0.1391,0.03001,-0.029897,-0.050824,-0.031456,0.028598,0.05,0.004015,-0.539501,-0.050896,0.345846,-264.180625,0.069151,62.369764
0.1588,0.029775,-0.030208,-0.052446,-0.03149,0.028334,0.05,0.004022,-0.539479,-0.05089,0.345846,-264.180625,0.069151,62.369764
0.1787,0.029966,-0.029939,-0.049291,-0.031318,0.028605,0.05,0.003039,-0.539506,-0.052446,0.270315,-264.180627,0.054749,62.369763
0.1986,0.029506,-0.030384,-0.050091,-0.031405,0.028426,0.049291,0.004055,-0.539401,-0.050665,0.270315,-264.180627,0.054749,62.369763
0.2186,0.030143,-0.029866,-0.050443,-0.030991,0.028868,0.05,0.004055,-0.539401,-0.050665,0.270315,-264.180627,0.054749,62.369763
0.2385,0.029603,-0.029995,-0.050492,-0.03161,0.028308,0.05,0.004428,-0.539218,-0.050443,0.195809,-264.18063,0.069858,62.369762
0.2584,0.029822,-0.030139,-0.048276,-0.031079,0.028462,0.05,0.004388,-0.539227,-0.050446,0.195809,-264.18063,0.069858,62.369762
0.2784,0.029491,-0.03032,-0.050248,-0.031242,0.028665,0.048276,0.005211,-0.539545,-0.048276,0.120683,-264.180633,0.053805,62.36976
0.299,0.029981,-0.030199,-0.050942,-0.030976,0.0288,0.05,0.00445,-0.539619,-0.049398,0.120683,-264.180633,0.053805,62.36976
0.3185,0.030009,-0.030125,-0.050271,-0.031479,0.028633,0.05,0.00445,-0.539619,-0.049398,0.120683,-264.180633,0.053805,62.36976
0.3386,0.029681,-0.03032,-0.049638,-0.031485,0.028579,0.05,0.004382,-0.539481,-0.050271,0.045842,-264.180635,0.066672,62.369759
0.3588,0.029211,-0.030054,-0.049391,-0.031149,0.02881,0.049638,0.004381,-0.539496,-0.050227,0.045842,-264.180635,0.066672,62.369759
0.3785,0.029788,-0.030019,-0.050282,-0.030659,0.028575,0.049391,0.004032,-0.539432,-0.049391,-0.029255,-264.180638,0.06042,62.369758
0.3987,0.029505,-0.030046,-0.051867,-0.031259,0.028484,0.05,0.004102,-0.539399,-0.049898,-0.029255,-264.180638,0.06042,62.369758
0.4189,0.029874,-0.030087,-0.050813,-0.031023,0.028476,0.05,0.004102,-0.539399,-0.049898,-0.029255,-264.180638,0.06042,62.369758
0.4386,0.029453,-0.03012,-0.049171,-0.031364,0.028531,0.05,0.003971,-0.539429,-0.050813,-0.104285,-264.180641,0.048324,62.369757
0.4594,0.029748,-0.030002,-0.049764,-0.030898,0.028636,0.049171,0.003999,-0.539434,-0.050701,-0.104285,-264.180641,0.048324,62.369757
0.4788,0.029637,-0.030058,-0.050686,-0.031203,0.028485,0.049764,0.004379,-0.53937,-0.049764,-0.179165,-264.180643,0.066347,62.369755
0.4987,0.029465,-0.0299,-0.050003,-0.031121,0.028518,0.05,0.004049,-0.539389,-0.050288,-0.179165,-264.180643,0.066347,62.369755
0.5193,0.029659,-0.029964,-0.049673,-0.030923,0.02839,0.05,0.004049,-0.539389,-0.050288,-0.179165,-264.180643,0.066347,62.369755
0.5385,0.029523,-0.029978,-0.05041,-0.03111,0.028454,0.049673,0.004336,-0.539335,-0.049673,-0.254158,-264.180646,0.045144,62.369754
0.559,0.029976,-0.030145,-0.049278,-0.030996,0.028452,0.05,0.004301,-0.539335,-0.049723,-0.254158,-264.180646,0.045144,62.369754
0.5784,0.029586,-0.030147,-0.050995,-0.031425,0.028632,0.049278,0.004854,-0.539526,-0.049278,-0.329158,-264.180649,0.069349,62.369753
0.5986,0.029865,-0.02996,-0.048829,-0.031084,0.028599,0.05,0.004131,-0.539502,-0.050259,-0.329158,-264.180649,0.069349,62.369753
0.6186,0.029666,-0.030224,-0.051316,-0.031292,0.028466,0.048829,0.004131,-0.539502,-0.050259,-0.329158,-264.180649,0.069349,62.369753
0.6385,0.029454,-0.030319,-0.048943,-0.031177,0.028662,0.05,0.003506,-0.539552,-0.051316,-0.404278,-264.180652,0.067172,62.369751
0.6594,0.029668,-0.030118,-0.050404,-0.030902,0.028841,0.048943,0.003578,-0.539563,-0.051145,-0.404278,-264.180652,0.067172,62.369751
0.6787,0.029781,-0.029794,-0.050404,-0.031148,0.028585,0.05,0.003972,-0.53947,-0.050404,-0.479246,-264.180665,0.043298,62.369745
0.6986,0.029826,-0.030151,-0.050778,-0.031244,0.028256,0.05,0.004037,-0.539286,-0.050403,-0.479246,-264.180665,0.043298,62.369745
0.7187,0.029902,-0.030365,-0.049651,-0.031317,0.028598,0.05,0.004037,-0.539286,-0.050403,-0.479246,-264.180665,0.043298,62.369745
0.7386,0.02971,-0.03013,-0.050913,-0.031373,0.028844,0.049651,0.004587,-0.539735,-0.049648,-0.554151,-264.180716,0.033984,62.369722
0.7586,0.029716,-0.03021,-0.050159,-0.031205,0.028579,0.05,0.004532,-0.539717,-0.049731,-0.554151,-264.180716,0.033984,62.369722
0.7786,0.0295,-0.030021,-0.049261,-0.031193,0.028682,0.05,0.004131,-0.539561,-0.050147,-0.629111,-264.180955,0.061851,62.369609
0.7988,0.029507,-0.029572,-0.049831,-0.030942,0.028532,0.049261,0.004275,-0.53947,-0.049642,-0.629111,-264.180955,0.061851,62.369609
0.8185,0.029516,-0.030201,-0.049152,-0.030943,0.028065,0.049831,0.004275,-0.53947,-0.049642,-0.629111,-264.180955,0.061851,62.369609
0.8384,0.029686,-0.029964,-0.049445,-0.030965,0.028715,0.049152,0.004397,-0.53955,-0.049094,-0.704169,-264.181805,0.062671,62.369212
0.8587,0.029512,-0.029836,-0.050094,-0.031131,0.02846,0.049445,0.004401,-0.539536,-0.049116,-0.704169,-264.181805,0.062671,62.369212
0.8788,0.02924,-0.02972,-0.049784,-0.030969,0.028321,0.05,0.003838,-0.53911,-0.04995,-0.779161,-264.184276,0.076413,62.368053
0.8984,0.029226,-0.029973,-0.050089,-0.030683,0.028228,0.049784,0.003834,-0.539087,-0.049837,-0.779161,-264.184276,0.076413,62.368053
0.9186,0.029415,-0.029821,-0.049839,-0.03069,0.028472,0.05,0.003834,-0.539087,-0.049837,-0.779161,-264.184276,0.076413,62.368053
0.9386,0.028714,-0.02964,-0.047995,-0.030864,0.028319,0.049839,0.003652,-0.538951,-0.049451,-0.854242,-264.189241,0.055791,62.365291
0.9583,0.02868,-0.029571,-0.048675,-0.030103,0.028229,0.047995,0.003682,-0.538952,-0.049346,-0.854242,-264.189241,0.055791,62.365291
0.9786,0.028121,-0.029135,-0.048844,-0.030085,0.02814,0.048675,0.003425,-0.538673,-0.048176,-0.929164,-264.196722,0.067203,62.360327
0.9986,0.027591,-0.029393,-0.049537,-0.02951,0.027727,0.048844,0.003252,-0.538551,-0.048496,-0.929164,-264.196722,0.067203,62.360327
1.0184,0.028047,-0.029511,-0.04935,-0.029013,0.02799,0.049537,0.003252,-0.538551,-0.048496,-0.929164,-264.196722,0.067203,62.360327
1.0385,0.026369,-0.028468,-0.048782,-0.029469,0.028091,0.04935,0.002137,-0.538359,-0.048488,-1.004291,-264.206689,0.03601,62.352871
1.0592,0.026876,-0.028532,-0.046997,-0.027726,0.027149,0.048782,0.00207,-0.538308,-0.048485,-1.004291,-264.206689,0.03601,62.352871
1.0784,0.024935,-0.027916,-0.046282,-0.028187,0.027238,0.046997,0.002193,-0.537436,-0.046061,-1.079251,-264.219165,0.077892,62.343363
1.0985,0.024824,-0.028109,-0.046336,-0.0262,0.026733,0.046282,0.001621,-0.537332,-0.04607,-1.079251,-264.219165,0.077892,62.343363
1.1187,0.024782,-0.027907,-0.046851,-0.0261,0.026929,0.046336,0.001621,-0.537332,-0.04607,-1.079251,-264.219165,0.077892,62.343363
1.1386,0.023459,-0.027091,-0.045696,-0.026062,0.026716,0.046851,-0.000122,-0.536543,-0.045409,-1.117674,-264.234113,0.095116,62.332551
1.1588,0.023114,-0.027029,-0.046524,-0.024672,0.025991,0.045696,-0.000129,-0.536525,-0.045392,-1.117674,-264.234113,0.095116,62.332551
1.1785,0.02141,-0.026107,-0.042313,-0.024346,0.025925,0.046524,-0.001421,-0.535701,-0.045231,-1.129334,-264.251581,0.052465,62.322419
1.1984,0.021146,-0.026332,-0.042945,-0.022495,0.025178,0.042313,-0.00081,-0.535574,-0.043411,-1.129334,-264.251581,0.052465,62.322419
1.2184,0.021508,-0.026181,-0.043181,-0.022257,0.0254,0.042945,-0.00081,-0.535574,-0.043411,-1.129334,-264.251581,0.052465,62.322419
1.2385,0.019243,-0.024872,-0.041783,-0.022619,0.025229,0.043181,-0.001558,-0.534604,-0.0413,-1.141531,-264.271548,0.077556,62.312643
1.259,0.019139,-0.024675,-0.040493,-0.020265,0.024046,0.041783,-0.001622,-0.534562,-0.041283,-1.141531,-264.271548,0.077556,62.312643
1.2789,0.017534,-0.023485,-0.03924,-0.020122,0.02388,0.040493,-0.0023,-0.533277,-0.038889,-1.163768,-264.293286,0.037195,62.304032
1.2985,0.017149,-0.0238,-0.038896,-0.018442,0.022779,0.03924,-0.0025,-0.533047,-0.038885,-1.163768,-264.293286,0.037195,62.304032
1.3185,0.01753,-0.023524,-0.038275,-0.018062,0.023115,0.038896,-0.0025,-0.533047,-0.038885,-1.163768,-264.293286,0.037195,62.304032
1.3392,0.015276,-0.022438,-0.037512,-0.018417,0.022836,0.038275,-0.002902,-0.531977,-0.036296,-1.182681,-264.314162,0.072536,62.296111
1.3587,0.015161,-0.022136,-0.038482,-0.016106,0.02185,0.037512,-0.002993,-0.531952,-0.036328,-1.182681,-264.314162,0.072536,62.296111
1.379,0.013613,-0.020864,-0.036556,-0.016002,0.021536,0.038482,-0.005104,-0.530866,-0.037022,-1.202981,-264.333713,0.03547,62.289076
1.3984,0.013357,-0.02101,-0.03444,-0.014366,0.020353,0.036556,-0.005143,-0.530557,-0.03657,-1.202981,-264.333713,0.03547,62.289076
1.4185,0.013188,-0.020937,-0.035279,-0.014072,0.020538,0.03444,-0.005143,-0.530557,-0.03657,-1.202981,-264.333713,0.03547,62.289076
1.4386,0.011731,-0.020028,-0.03246,-0.013918,0.020459,0.035279,-0.005529,-0.529557,-0.033498,-1.225385,-264.35229,0.065774,62.282772
1.4587,0.012173,-0.019909,-0.033902,-0.012375,0.019637,0.03246,-0.0055,-0.529543,-0.033379,-1.225385,-264.35229,0.065774,62.282772
1.4789,0.010196,-0.018893,-0.031229,-0.01284,0.019485,0.033902,-0.00562,-0.528821,-0.032599,-1.244403,-264.369508,0.035276,62.277248
1.4991,0.01029,-0.018669,-0.032603,-0.010781,0.018565,0.031229,-0.005747,-0.528619,-0.031652,-1.244403,-264.369508,0.035276,62.277248
1.5188,0.010296,-0.018807,-0.031176,-0.010893,0.018323,0.032603,-0.005747,-0.528619,-0.031652,-1.244403,-264.369508,0.035276,62.277248
1.539,0.008828,-0.01779,-0.029395,-0.010877,0.018477,0.031176,-0.006166,-0.527601,-0.029621,-1.266915,-264.38579,0.015201,62.272376
1.5589,0.008964,-0.017949,-0.030957,-0.009347,0.017523,0.029395,-0.00618,-0.527574,-0.029566,-1.266915,-264.38579,0.015201,62.272376
1.5786,0.00791,-0.017341,-0.029354,-0.009515,0.017663,0.030957,-0.007124,-0.527152,-0.030021,-1.293248,-264.397799,0.090112,62.269051
1.5988,0.007658,-0.017056,-0.027775,-0.008416,0.017101,0.029354,-0.007125,-0.527064,-0.029523,-1.293248,-264.397799,0.090112,62.269051
1.6185,0.007533,-0.01736,-0.029737,-0.008129,0.016836,0.027775,-0.007125,-0.527064,-0.029523,-1.293248,-264.397799,0.090112,62.269051
1.6384,0.006761,-0.016169,-0.026145,-0.008045,0.017129,0.029737,-0.008045,-0.526302,-0.02836,-1.313173,-264.411934,0.046018,62.265446
1.6583,0.00682,-0.016339,-0.02808,-0.007181,0.015986,0.026145,-0.007954,-0.526259,-0.028171,-1.313173,-264.411934,0.046018,62.265446
1.6785,0.005875,-0.015398,-0.026602,-0.007276,0.016141,0.02808,-0.007789,-0.525494,-0.02703,-1.334786,-264.425543,0.015675,62.262263
1.6985,0.00574,-0.015811,-0.027327,-0.006283,0.015237,0.026602,-0.007769,-0.525255,-0.026653,-1.334786,-264.425543,0.015675,62.262263
1.7186,0.005594,-0.015609,-0.02612,-0.00617,0.015648,0.027327,-0.007769,-0.525255,-0.026653,-1.334786,-264.425543,0.015675,62.262263
1.7391,0.004848,-0.014632,-0.02466,-0.005999,0.015458,0.02612,-0.008053,-0.524655,-0.024858,-1.349736,-264.438519,-0.002535,62.259418
1.7587,0.004534,-0.014504,-0.026147,-0.005207,0.014508,0.02466,-0.00804,-0.524624,-0.024814,-1.349736,-264.438519,-0.002535,62.259418
1.7788,0.004168,-0.013993,-0.023006,-0.004912,0.01438,0.026147,-0.008938,-0.523945,-0.025505,-1.382277,-264.44666,0.072429,62.25787
1.7987,0.004377,-0.014069,-0.023981,-0.004489,0.013894,0.023006,-0.008175,-0.523847,-0.024005,-1.382277,-264.44666,0.072429,62.25787
1.8187,0.003779,-0.014264,-0.024625,-0.004713,0.01396,0.023981,-0.008175,-0.523847,-0.024005,-1.382277,-264.44666,0.072429,62.25787
1.8387,0.002984,-0.013311,-0.024219,-0.004129,0.014167,0.024625,-0.008999,-0.52348,-0.02356,-1.396483,-264.457303,0.10579,62.255819
1.859,0.003323,-0.01371,-0.023123,-0.003306,0.013234,0.024219,-0.009029,-0.523443,-0.023576,-1.396483,-264.457303,0.10579,62.255819
1.8787,0.002343,-0.013107,-0.022734,-0.003639,0.013629,0.023123,-0.008634,-0.523043,-0.022218,-1.407513,-264.468623,0.144715,62.25396
1.8987,0.002135,-0.012759,-0.024797,-0.002641,0.013051,0.022734,-0.009007,-0.522938,-0.022399,-1.407513,-264.468623,0.144715,62.25396
1.9184,0.002379,-0.012691,-0.023217,-0.002451,0.012703,0.024797,-0.009007,-0.522938,-0.022399,-1.407513,-264.468623,0.144715,62.25396
1.9384,0.002135,-0.012393,-0.020977,-0.002673,0.012632,0.023217,-0.009496,-0.522398,-0.022949,-1.453391,-264.471263,0.219875,62.253618
1.9586,0.002117,-0.012344,-0.021263,-0.002395,0.012345,0.020977,-0.009429,-0.522385,-0.0228,-1.453391,-264.471263,0.219875,62.253618
1.9787,0.0022,-0.012712,-0.022055,-0.002379,0.012296,0.021263,-0.008726,-0.522226,-0.021259,-1.483022,-264.471314,0.294812,62.253612
1.9988,0.002317,-0.012221,-0.022502,-0.002479,0.012661,0.022055,-0.008909,-0.522432,-0.021711,-1.483022,-264.471314,0.294812,62.253612
2.0188,0.002095,-0.01251,-0.021394,-0.002592,0.012165,0.022502,-0.008909,-0.522432,-0.021711,-1.483022,-264.471314,0.294812,62.253612
2.0385,0.00178,-0.012609,-0.021518,-0.002362,0.012463,0.021394,-0.008876,-0.522249,-0.021123,-1.475898,-264.473862,0.219919,62.252788
2.0586,0.001862,-0.01255,-0.020958,-0.00205,0.012567,0.021518,-0.008898,-0.522261,-0.021142,-1.475898,-264.473862,0.219919,62.252788
2.0784,0.002136,-0.012311,-0.022275,-0.002124,0.012508,0.020958,-0.008843,-0.522353,-0.02081,-1.471094,-264.47569,0.294915,62.252575
2.0982,0.001966,-0.012108,-0.02124,-0.00241,0.012261,0.022275,-0.009062,-0.522246,-0.021628,-1.471094,-264.47569,0.294915,62.252575
2.1186,0.001796,-0.012569,-0.019479,-0.002222,0.012064,0.02124,-0.009062,-0.522246,-0.021628,-1.471094,-264.47569,0.294915,62.252575
2.1386,0.001951,-0.011772,-0.01998,-0.002041,0.012531,0.019479,-0.008203,-0.522221,-0.019025,-1.491209,-264.480012,0.273213,62.251736
2.1589,0.001562,-0.012244,-0.019494,-0.002186,0.011731,0.01998,-0.008206,-0.522186,-0.019067,-1.491209,-264.480012,0.273213,62.251736
2.1785,0.001024,-0.011657,-0.019576,-0.001801,0.012212,0.019494,-0.008438,-0.52183,-0.018934,-1.482261,-264.486863,0.348086,62.250957
2.1985,0.001128,-0.012044,-0.019784,-0.001252,0.011635,0.019576,-0.008746,-0.521634,-0.019235,-1.482261,-264.486863,0.348086,62.250957
2.2185,0.00096,-0.011704,-0.020099,-0.001366,0.012019,0.019784,-0.008746,-0.521634,-0.019235,-1.482261,-264.486863,0.348086,62.250957
2.2386,0.000721,-0.01137,-0.019299,-0.001195,0.011683,0.020099,-0.00936,-0.521178,-0.019374,-1.479708,-264.493997,0.272805,62.250293
2.2588,0.000927,-0.010892,-0.020297,-0.00094,0.011354,0.019299,-0.009346,-0.521174,-0.019351,-1.479708,-264.493997,0.272805,62.250293
2.2785,0.000552,-0.011036,-0.019177,-0.001148,0.010871,0.020297,-0.009443,-0.520588,-0.019965,-1.514189,-264.498163,0.198111,62.250057
2.2984,0.000606,-0.011,-0.020268,-0.000764,0.011023,0.019177,-0.009322,-0.520766,-0.019471,-1.514189,-264.498163,0.198111,62.250057
2.3184,0.00048,-0.010823,-0.017879,-0.000829,0.010986,0.020268,-0.009322,-0.520766,-0.019471,-1.514189,-264.498163,0.198111,62.250057
2.339,0.000452,-0.01018,-0.01761,-0.000673,0.010812,0.017879,-0.008653,-0.520512,-0.017495,-1.530178,-264.501992,0.273224,62.249886
2.3586,0.00036,-0.01093,-0.019361,-0.000632,0.01017,0.01761,-0.008644,-0.520474,-0.017492,-1.530178,-264.501992,0.273224,62.249886
2.3786,0.000122,-0.011145,-0.018237,-0.000572,0.010921,0.019361,-0.009513,-0.520834,-0.019361,-1.535323,-264.501994,0.348305,62.249886
2.3986,-0.000332,-0.010795,-0.016922,-0.000325,0.011141,0.018237,-0.009321,-0.520964,-0.018715,-1.535323,-264.501994,0.348305,62.249886
2.4186,0.000257,-0.011156,-0.019699,0.000149,0.010799,0.016922,-0.009321,-0.520964,-0.018715,-1.535323,-264.501994,0.348305,62.249886
2.4385,-0.000141,-0.010573,-0.019308,-0.000477,0.011149,0.019699,-0.00979,-0.521021,-0.019637,-1.540625,-264.502609,0.423301,62.24986
2.4587,-5.3e-05,-0.010768,-0.016187,-6.3e-05,0.010574,0.019308,-0.009807,-0.520974,-0.019607,-1.540625,-264.502609,0.423301,62.24986
2.4789,3.3e-05,-0.010417,-0.018741,-0.000122,0.010767,0.016187,-0.008308,-0.520701,-0.016187,-1.577856,-264.50261,0.49857,62.24986
2.4986,0.000118,-0.010924,-0.018785,-0.000228,0.010414,0.018741,-0.009,-0.520488,-0.01764,-1.577856,-264.50261,0.49857,62.24986
2.5188,0.000345,-0.011091,-0.019576,-0.000323,0.01092,0.018785,-0.009,-0.520488,-0.01764,-1.577856,-264.50261,0.49857,62.24986
2.5383,0.000287,-0.010897,-0.019062,-0.000562,0.011082,0.019576,-0.009638,-0.520993,-0.019576,-1.567969,-264.502611,0.573135,62.24986
2.5589,0.000279,-0.010743,-0.018465,-0.000495,0.01089,0.019062,-0.009621,-0.520977,-0.019533,-1.567969,-264.502611,0.573135,62.24986
2.5786,0.000299,-0.010461,-0.018171,-0.000477,0.010736,0.018465,-0.009138,-0.520645,-0.018447,-1.55637,-264.502843,0.648591,62.249854
2.5988,0.000243,-0.010532,-0.020187,-0.000489,0.010453,0.018171,-0.009041,-0.52049,-0.018287,-1.55637,-264.502843,0.648591,62.249854
2.6185,0.000399,-0.010859,-0.016907,-0.000456,0.010525,0.020187,-0.009041,-0.52049,-0.018287,-1.55637,-264.502843,0.648591,62.249854
2.6384,0.000339,-0.010686,-0.017878,-0.000582,0.010851,0.016907,-0.008227,-0.520706,-0.01677,-1.548851,-264.504194,0.723251,62.2498
2.6591,-0.000187,-0.010355,-0.01944,-0.00053,0.010678,0.017878,-0.008267,-0.520696,-0.016847,-1.548851,-264.504194,0.723251,62.2498
2.6784,-0.000423,-0.010481,-0.018161,-1.4e-05,0.010356,0.01944,-0.010101,-0.520258,-0.019439,-1.550853,-264.504215,0.798223,62.249798
2.6985,0.000103,-0.010321,-0.017111,0.000232,0.010487,0.018161,-0.009863,-0.520337,-0.018707,-1.550853,-264.504215,0.798223,62.249798
2.7183,0.000313,-0.010405,-0.018733,-0.000279,0.010318,0.017111,-0.009863,-0.520337,-0.018707,-1.550853,-264.504215,0.798223,62.249798
2.7387,7.2e-05,-0.010849,-0.018155,-0.000508,0.010398,0.018733,-0.009241,-0.520262,-0.018642,-1.546277,-264.505113,0.723218,62.249774
2.7586,-0.000252,-0.010281,-0.018644,-0.000269,0.010846,0.018155,-0.009237,-0.520297,-0.018604,-1.546277,-264.505113,0.723218,62.249774
2.779,2.1e-05,-0.010572,-0.01855,6e-05,0.010284,0.018644,-0.00976,-0.520081,-0.018457,-1.557359,-264.507451,0.648231,62.249739
2.7986,-0.000271,-0.010439,-0.018693,-0.000217,0.01057,0.01855,-0.009578,-0.520296,-0.018486,-1.557359,-264.507451,0.648231,62.249739
2.8186,-6.6e-05,-0.01046,-0.018563,7.6e-05,0.010442,0.018693,-0.009578,-0.520296,-0.018486,-1.557359,-264.507451,0.648231,62.249739
2.8384,-0.000293,-0.009981,-0.016107,-0.000128,0.010459,0.018563,-0.009536,-0.520083,-0.018073,-1.558555,-264.512296,0.723187,62.24961
2.8588,-0.000286,-0.009838,-0.017057,-0.000128,0.010459,0.018563,-0.009463,-0.520063,-0.017919,-1.558555,-264.512296,0.723187,62.24961
2.8789,-0.000273,-0.009885,-0.018041,1e-06,0.0001,0.0,-0.008985,-0.519764,-0.017057,-1.574254,-264.512297,0.798275,62.24961
2.8986,-0.000248,-0.01029,-0.018643,1e-06,0.0001,0.0,-0.009265,-0.519786,-0.017621,-1.574254,-264.512297,0.798275,62.24961
2.9185,-0.00021,-0.009833,-0.018323,1e-06,0.0001,0.0,-0.009265,-0.519786,-0.017621,-1.574254,-264.512297,0.798275,62.24961
2.9384,-0.000447,-0.010218,-0.017652,1e-06,0.0001,0.0,-0.009555,-0.519747,-0.018322,-1.564902,-264.512308,0.87326,62.24961
2.9583,-0.000219,-0.009931,-0.018327,1e-06,0.0001,0.0,-0.009548,-0.519773,-0.018277,-1.564902,-264.512308,0.87326,62.24961
2.9784,0.0,-0.009958,-0.016658,1e-06,0.0001,0.0,-0.009565,-0.519845,-0.018327,-1.582788,-264.512308,0.948134,62.24961
2.9983,-0.000704,-0.009801,-0.017711,1e-06,0.0001,0.0,-0.008949,-0.51987,-0.017366,-1.582788,-264.512308,0.948134,62.24961
3.0184,-0.000564,-0.009668,-0.016502,1e-06,0.0001,0.0,-0.008949,-0.51987,-0.017366,-1.582788,-264.512308,0.948134,62.24961
3.0384,-0.000287,-0.010491,-0.018438,1e-06,0.0001,0.0,-0.00898,-0.519599,-0.016502,-1.582788,-264.512308,1.023335,62.24961
3.0589,-7.1e-05,-0.009977,-0.017965,1e-06,0.0001,0.0,-0.00903,-0.519656,-0.016638,-1.582788,-264.512308,1.023335,62.24961
3.0784,-0.000386,-0.010178,-0.016848,0.0,0.0,0.0,-0.009233,-0.519895,-0.017965,-1.582788,-264.512309,1.098224,62.24961
3.0984,-0.000209,-0.009963,-0.01754,1.7e-05,0.001443,0.002501,-0.009088,-0.520015,-0.01733,-1.582788,-264.512309,1.098224,62.24961
3.1184,-0.000697,-0.01021,-0.016821,3.4e-05,0.002804,0.004859,-0.009088,-0.520015,-0.01733,-1.582788,-264.512309,1.098224,62.24961
3.1386,-0.000452,-0.010171,-0.017235,4.9e-05,0.004096,0.007099,-0.009276,-0.520138,-0.016821,-1.582788,-264.51231,1.173291,62.249612
3.1595,0.000107,-0.010054,-0.017766,6.4e-05,0.005314,0.00921,-0.009273,-0.520135,-0.016854,-1.582788,-264.51231,1.173291,62.249612
3.1787,-0.000337,-0.010201,-0.017784,7.8e-05,0.006494,0.011255,-0.008953,-0.519973,-0.017766,-1.576622,-264.51231,1.098137,62.249612
3.1984,-0.000605,-0.010062,-0.017375,9e-05,0.007534,0.013057,-0.009209,-0.520056,-0.017776,-1.576622,-264.51231,1.098137,62.249612
3.2184,-3.3e-05,-0.010051,-0.016168,0.000102,0.008524,0.014774,-0.009209,-0.520056,-0.017776,-1.576622,-264.51231,1.098137,62.249612
3.2385,-4e-05,-0.009693,-0.018227,0.000113,0.009448,0.016375,-0.008278,-0.519984,-0.016168,-1.576622,-264.51231,1.023313,62.249612
3.2588,-0.000472,-0.010232,-0.016726,0.000124,0.010299,0.017849,-0.008364,-0.519954,-0.016335,-1.576622,-264.51231,1.023313,62.249612
3.2784,-0.000386,-0.010101,-0.017315,0.000133,0.011073,0.019191,-0.009001,-0.520161,-0.016726,-1.576622,-264.512311,0.948107,62.249612
3.2985,-0.000142,-0.009889,-0.016107,0.000141,0.011773,0.020404,-0.009124,-0.520083,-0.017062,-1.576622,-264.512311,0.948107,62.249612
3.3184,-0.000269,-0.010114,-0.016307,0.000149,0.0124,0.021491,-0.009124,-0.520083,-0.017062,-1.576622,-264.512311,0.948107,62.249612
3.3385,-0.000295,-0.010474,-0.016115,0.000155,0.012954,0.022451,-0.008585,-0.520046,-0.016307,-1.576622,-264.512312,0.873416,62.249612
3.3588,-0.000409,-0.009795,-0.017401,0.000161,0.013434,0.023283,-0.008579,-0.520075,-0.016292,-1.576622,-264.512312,0.873416,62.249612
3.3785,-0.000292,-0.009887,-0.017382,0.000166,0.013848,0.024,-0.009283,-0.519718,-0.017401,-1.576622,-264.512313,0.798166,62.249612
3.3986,-0.000542,-0.010504,-0.017636,0.00017,0.014172,0.024562,-0.009211,-0.51977,-0.01739,-1.576622,-264.512313,0.798166,62.249612
3.4185,-8.1e-05,-0.010162,-0.017616,0.000173,0.01443,0.02501,-0.009211,-0.51977,-0.01739,-1.576622,-264.512313,0.798166,62.249612
3.4386,-0.000268,-0.010079,-0.017612,0.000175,0.014615,0.025331,-0.009065,-0.520082,-0.017616,-1.576622,-264.512314,0.723328,62.249612
3.4587,-0.000314,-0.009754,-0.01789,0.000177,0.014726,0.025523,-0.009077,-0.520077,-0.017616,-1.576622,-264.512314,0.723328,62.249612
3.4785,-0.000296,-0.0103,-0.01722,0.000177,0.014763,0.025586,-0.009437,-0.519672,-0.01789,-1.576622,-264.512315,0.648434,62.249612
3.4985,-0.000357,-0.010299,-0.018774,0.000177,0.014725,0.025522,-0.009233,-0.519985,-0.01751,-1.576622,-264.512315,0.648434,62.249612
3.519,-0.000275,-0.010097,-0.01783,0.000175,0.014614,0.025329,-0.009233,-0.519985,-0.01751,-1.576622,-264.512315,0.648434,62.249612
3.5388,-0.000413,-0.009884,-0.016424,0.000173,0.01443,0.02501,-0.009367,-0.520016,-0.01783,-1.576622,-264.512316,0.57334,62.249612
3.559,-0.000231,-0.009747,-0.016921,0.00017,0.014172,0.024562,-0.00933,-0.520003,-0.017738,-1.576622,-264.512316,0.57334,62.249612
3.5786,-0.000267,-0.010276,-0.016294,0.000166,0.013839,0.023985,-0.008861,-0.519674,-0.016921,-1.576622,-264.512318,0.498423,62.249612
3.5984,-0.000144,-0.01033,-0.018782,0.000161,0.013435,0.023284,-0.008699,-0.519977,-0.016565,-1.576622,-264.512318,0.498423,62.249612
3.6185,-0.000254,-0.009905,-0.015559,0.000155,0.012954,0.022452,-0.008699,-0.519977,-0.016565,-1.576622,-264.512318,0.498423,62.249612
3.6385,-0.00028,-0.010171,-0.019,0.000149,0.012401,0.021492,-0.008189,-0.519843,-0.015559,-1.576622,-264.512319,0.423434,62.249612
3.6588,-0.00019,-0.010151,-0.018441,0.000141,0.011773,0.020405,-0.008311,-0.519859,-0.015794,-1.576622,-264.512319,0.423434,62.249612
3.6785,-0.000175,-0.010639,-0.01862,0.000133,0.011072,0.01919,-0.009594,-0.520064,-0.018441,-1.576622,-264.51232,0.348443,62.249612
3.6984,-0.000207,-0.010097,-0.016705,0.000123,0.010297,0.017847,-0.009638,-0.520341,-0.018543,-1.576622,-264.51232,0.348443,62.249612
3.7183,-0.000219,-0.010023,-0.018341,0.000113,0.009445,0.01637,-0.009638,-0.520341,-0.018543,-1.576622,-264.51232,0.348443,62.249612
3.7386,-0.000313,-0.010109,-0.018603,0.000102,0.008525,0.014776,-0.009572,-0.519937,-0.018341,-1.576622,-264.512321,0.273438,62.249612
3.759,-0.000168,-0.010205,-0.015942,9e-05,0.00753,0.01305,-0.009588,-0.519943,-0.018359,-1.576622,-264.512321,0.273438,62.249612
3.7789,9.2e-05,-0.009764,-0.01676,7.7e-05,0.006453,0.011185,-0.008298,-0.520141,-0.015942,-1.576622,-264.512322,0.198434,62.249612
3.7991,-0.000446,-0.009562,-0.016643,6.4e-05,0.005316,0.009213,-0.008388,-0.519884,-0.01641,-1.576622,-264.512322,0.198434,62.249612
3.8188,-0.000358,-0.010188,-0.01906,4.9e-05,0.004098,0.007103,-0.008388,-0.519884,-0.01641,-1.576622,-264.512322,0.198434,62.249612
3.8384,-0.00014,-0.009892,-0.018225,3.4e-05,0.002798,0.004849,-0.010078,-0.520095,-0.01906,-1.576622,-264.512322,0.12335,62.249612
3.8588,-0.000481,-0.01031,-0.017587,1.7e-05,0.00144,0.002496,-0.010036,-0.520076,-0.019005,-1.576622,-264.512322,0.12335,62.249612
3.8789,-0.000668,-0.009867,-0.017571,0.0,0.0,0.0,-0.00945,-0.520231,-0.017587,-1.576622,-264.512323,0.048448,62.249612
3.8991,-0.000372,-0.010191,-0.018514,0.0,0.0,0.0,-0.009551,-0.519982,-0.017578,-1.576622,-264.512323,0.048448,62.249612
3.9191,-0.000249,-0.010155,-0.017742,0.0,0.0,0.0,-0.009551,-0.519982,-0.017578,-1.576622,-264.512323,0.048448,62.249612
3.9385,-0.000331,-0.009929,-0.017321,0.0,0.0,0.0,-0.009297,-0.520074,-0.017742,-1.576622,-264.512323,-0.026688,62.249612
3.959,-0.000386,-0.009982,-0.018761,0.0,0.0,0.0,-0.009286,-0.520057,-0.017708,-1.576622,-264.512323,-0.026688,62.249612
3.9789,1.3e-05,-0.010269,-0.018758,0.0,0.0,0.0,-0.009953,-0.519892,-0.018761,-1.576622,-264.512323,-0.026688,62.249612
3.9984,-0.000231,-0.009933,-0.015903,0.0,0.0,0.0,-0.009724,-0.520056,-0.018759,-1.576622,-264.512323,-0.026688,62.249612
4.0187,-0.000322,-0.010039,-0.01839,0.0,0.0,0.0,-0.009724,-0.520056,-0.018759,-1.576622,-264.512323,-0.026688,62.249612
4.0384,-0.000349,-0.009887,-0.016771,0.0,0.0,0.0,-0.0097,-0.519953,-0.01839,-1.576622,-264.512323,-0.026688,62.249612
4.0589,-0.000146,-0.010361,-0.018303,0.0,0.0,0.0,-0.009644,-0.519943,-0.018276,-1.576622,-264.512323,-0.026688,62.249612
4.0784,-0.000472,-0.010138,-0.017905,0.0,0.0,0.0,-0.00948,-0.520275,-0.018303,-1.576622,-264.512323,-0.026688,62.249612
4.0985,-0.000186,-0.010231,-0.017228,3e-06,0.0001,0.0,-0.00955,-0.52015,-0.018075,-1.576622,-264.512323,-0.026688,62.249612
4.1187,-0.000397,-0.010205,-0.017351,3e-06,0.0001,0.0,-0.00955,-0.52015,-0.018075,-1.576622,-264.512323,-0.026688,62.249612
4.1384,-0.000569,-0.010288,-0.017524,3e-06,0.0001,0.0,-0.009246,-0.520128,-0.017351,-1.576622,-264.512323,-0.026688,62.249612
4.1584,-0.0004,-0.010579,-0.018473,3e-06,0.0001,0.0,-0.009264,-0.520134,-0.017363,-1.576622,-264.512323,-0.026688,62.249612
4.1784,-0.000386,-0.010378,-0.016876,3e-06,0.0001,0.0,-0.009821,-0.520492,-0.018473,-1.599379,-264.512323,0.048247,62.249612
4.1985,-0.000522,-0.010187,-0.01846,3e-06,0.0001,0.0,-0.00935,-0.520386,-0.017565,-1.599379,-264.512323,0.048247,62.249612
4.2184,-0.000315,-0.009933,-0.016933,3e-06,0.0001,0.0,-0.00935,-0.520386,-0.017565,-1.599379,-264.512323,0.048247,62.249612
4.2386,-0.000651,-0.009828,-0.017395,3e-06,0.0001,0.0,-0.008951,-0.51986,-0.016933,-1.599379,-264.512323,0.123246,62.249612
4.2593,-0.000661,-0.010383,-0.01834,3e-06,0.0001,0.0,-0.008993,-0.519852,-0.016967,-1.599379,-264.512323,0.123246,62.249612
4.2786,0.000121,-0.010237,-0.016475,3e-06,0.0001,0.0,-0.010014,-0.520297,-0.01834,-1.599379,-264.512323,0.198362,62.249612
4.2984,-0.000431,-0.010047,-0.016333,0.0,1e-05,1.8e-05,-0.009027,-0.520224,-0.017278,-1.599379,-264.512323,0.198362,62.249612
4.3185,-0.000359,-0.010247,-0.018194,4.2e-05,0.001484,0.00262,-0.009027,-0.520224,-0.017278,-1.599379,-264.512323,0.198362,62.249612
4.3385,-0.000307,-0.009974,-0.017562,8.3e-05,0.002893,0.005106,-0.009637,-0.520162,-0.018194,-1.599379,-264.512323,0.273253,62.249612
4.3587,-8.7e-05,-0.009674,-0.017364,0.000121,0.004224,0.007455,-0.009611,-0.520144,-0.01815,-1.599379,-264.512323,0.273253,62.249612
4.3789,-0.000465,-0.010269,-0.017711,0.000157,0.005484,0.009679,-0.008942,-0.519597,-0.017364,-1.584554,-264.512323,0.198252,62.249612
4.3984,-0.000424,-0.009759,-0.018102,0.00019,0.006657,0.011749,-0.009259,-0.519935,-0.017562,-1.584554,-264.512323,0.198252,62.249612
4.4184,-0.000538,-0.010309,-0.0189,0.000222,0.007761,0.013698,-0.009259,-0.519935,-0.017562,-1.584554,-264.512323,0.198252,62.249612
4.4385,-0.000567,-0.009714,-0.016989,0.000251,0.00879,0.015513,-0.010176,-0.520218,-0.0189,-1.584554,-264.512323,0.123137,62.249612
4.4583,-0.000527,-0.010331,-0.01714,0.000278,0.00974,0.017191,-0.01011,-0.520178,-0.018767,-1.584554,-264.512323,0.123137,62.249612
4.4784,-7e-05,-0.01016,-0.016669,0.000303,0.010615,0.018735,-0.009267,-0.520256,-0.01714,-1.584554,-264.512324,0.048253,62.249612
4.4984,-0.000182,-0.009897,-0.016253,0.000326,0.011417,0.020151,-0.008872,-0.520161,-0.016873,-1.584554,-264.512324,0.048253,62.249612
4.519,-0.000714,-0.010288,-0.018548,0.000347,0.012136,0.02142,-0.008872,-0.520161,-0.016873,-1.584554,-264.512324,0.048253,62.249612
4.5387,-0.000408,-0.010286,-0.01627,0.000365,0.012783,0.022561,-0.010173,-0.5202,-0.018548,-1.584554,-264.512325,-0.026737,62.249612
4.5593,-0.000298,-0.010157,-0.017585,0.000382,0.013353,0.023568,-0.010061,-0.520202,-0.018374,-1.584554,-264.512325,-0.026737,62.249612
4.5785,-0.000148,-0.009993,-0.017143,0.000396,0.013848,0.024441,-0.009266,-0.520078,-0.017585,-1.584554,-264.512326,-0.102008,62.249612
4.5985,-0.000332,-0.010311,-0.017704,0.000408,0.014265,0.025178,-0.009055,-0.519988,-0.017337,-1.584554,-264.512326,-0.102008,62.249612
4.6184,-0.000262,-0.010111,-0.017298,0.000418,0.014608,0.025783,-0.009055,-0.519988,-0.017337,-1.584554,-264.512326,-0.102008,62.249612
4.6395,0.000134,-0.010542,-0.019177,0.000425,0.014875,0.026253,-0.009084,-0.520035,-0.017298,-1.584554,-264.512327,-0.176835,62.249612
4.6589,-0.000199,-0.009794,-0.016583,0.000431,0.015065,0.026589,-0.009122,-0.520063,-0.017425,-1.584554,-264.512327,-0.176835,62.249612
4.6784,-0.000505,-0.009894,-0.01798,0.000434,0.015179,0.02679,-0.008656,-0.519724,-0.016583,-1.584554,-264.512328,-0.251737,62.249612
4.6984,-0.000341,-0.01027,-0.017592,0.000435,0.015217,0.026857,-0.009236,-0.519774,-0.017378,-1.584554,-264.512328,-0.251737,62.249612
4.7183,-0.000442,-0.010126,-0.016662,0.000434,0.015178,0.026789,-0.009236,-0.519774,-0.017378,-1.584554,-264.512328,-0.251737,62.249612
4.7385,-0.000399,-0.010375,-0.016782,0.000431,0.015063,0.026586,-0.00894,-0.520055,-0.016662,-1.584554,-264.512329,-0.326738,62.249612
4.7587,-0.000519,-0.010124,-0.018114,0.000425,0.014873,0.02625,-0.008941,-0.520072,-0.01667,-1.584554,-264.512329,-0.326738,62.249612
4.7785,-3.3e-05,-0.010171,-0.016891,0.000417,0.014598,0.025765,-0.009757,-0.52004,-0.018114,-1.584554,-264.512331,-0.401754,62.249612
4.7988,-0.000668,-0.010147,-0.017899,0.000408,0.014265,0.025177,-0.009114,-0.520074,-0.017406,-1.584554,-264.512331,-0.401754,62.249612
4.8185,-0.000403,-0.009899,-0.017835,0.000396,0.013844,0.024435,-0.009114,-0.520074,-0.017406,-1.584554,-264.512331,-0.401754,62.249612
4.8384,-0.000289,-0.010237,-0.018095,0.000382,0.013351,0.023564,-0.009498,-0.519818,-0.017835,-1.584554,-264.512332,-0.477109,62.249612
4.859,-0.000488,-0.010375,-0.017337,0.000365,0.012781,0.022558,-0.009499,-0.519841,-0.017852,-1.584554,-264.512332,-0.477109,62.249612
4.879,-0.000139,-0.009954,-0.017305,0.000347,0.012132,0.021413,-0.009329,-0.520298,-0.017336,-1.584554,-264.512334,-0.551752,62.249612
4.8985,-0.00053,-0.010365,-0.01833,0.000326,0.011412,0.020142,-0.009122,-0.520059,-0.017318,-1.584554,-264.512334,-0.551752,62.249612
4.9184,-0.000324,-0.010163,-0.017727,0.000303,0.010611,0.018728,-0.009122,-0.520059,-0.017318,-1.584554,-264.512334,-0.551752,62.249612
4.9387,-0.000403,-0.01028,-0.018044,0.000278,0.009737,0.017185,-0.009365,-0.520083,-0.017726,-1.584554,-264.512339,-0.626746,62.249613
4.9587,1e-06,-0.009666,-0.016372,0.000251,0.008786,0.015507,-0.009381,-0.520091,-0.017748,-1.584554,-264.512339,-0.626746,62.249613
4.9788,-0.000567,-0.010547,-0.018371,0.000222,0.007757,0.013691,-0.008348,-0.519596,-0.01637,-1.584554,-264.512362,-0.701745,62.249614
4.9988,-0.000347,-0.010108,-0.01874,0.00019,0.006657,0.011749,-0.00925,-0.520087,-0.017507,-1.584554,-264.512362,-0.701745,62.249614
5.0192,-0.000235,-0.010144,-0.017987,0.000156,0.005472,0.009659,-0.00925,-0.520087,-0.017507,-1.584554,-264.512362,-0.701745,62.249614
5.0384,6e-05,-0.010405,-0.016134,0.000121,0.004216,0.007441,-0.009408,-0.520056,-0.017979,-1.584554,-264.512445,-0.776752,62.249617
5.0586,-3.4e-05,-0.01021,-0.016823,8.3e-05,0.002889,0.005099,-0.009327,-0.520074,-0.017858,-1.584554,-264.512445,-0.776752,62.249617
5.0785,-6.6e-05,-0.010089,-0.017082,4.2e-05,0.001481,0.002613,-0.008612,-0.520129,-0.016808,-1.584554,-264.512623,-0.851743,62.249624
5.0989,0.00021,-0.010318,-0.017982,0.0,0.0,0.0,-0.008706,-0.520063,-0.016962,-1.584554,-264.512623,-0.851743,62.249624
5.1184,-0.00042,-0.009963,-0.016861,0.0,0.0,0.0,-0.008706,-0.520063,-0.016962,-1.584554,-264.512623,-0.851743,62.249624
5.1384,-0.000746,-0.0099,-0.019362,0.0,0.0,0.0,-0.009018,-0.519875,-0.016834,-1.584554,-264.512886,-0.926747,62.249634
5.1588,-0.000284,-0.009889,-0.016027,0.0,0.0,0.0,-0.009124,-0.51987,-0.017001,-1.584554,-264.512886,-0.926747,62.249634
5.1783,-0.000721,-0.010046,-0.017539,0.0,0.0,0.0,-0.008457,-0.519824,-0.016027,-1.584554,-264.512886,-0.926747,62.249634
5.1987,-0.000487,-0.009902,-0.017364,0.0,0.0,0.0,-0.009147,-0.519906,-0.01689,-1.584554,-264.512886,-0.926747,62.249634
5.2186,-0.000346,-0.010038,-0.016998,0.0,0.0,0.0,-0.009147,-0.519906,-0.01689,-1.584554,-264.512886,-0.926747,62.249634
5.2386,-0.000158,-0.010086,-0.017215,0.0,0.0,0.0,-0.009014,-0.519964,-0.016998,-1.584554,-264.512886,-0.926747,62.249634
5.2589,6.5e-05,-0.010062,-0.016306,0.0,0.0,0.0,-0.009009,-0.519967,-0.017012,-1.584554,-264.512886,-0.926747,62.249634
5.2786,-0.000379,-0.009827,-0.017816,0.0,0.0,0.0,-0.008251,-0.519995,-0.016306,-1.584554,-264.512886,-0.926747,62.249634
5.2983,-0.000263,-0.010036,-0.01828,0.0,0.0,0.0,-0.008941,-0.519853,-0.017165,-1.584554,-264.512886,-0.926747,62.249634
5.3184,-0.00052,-0.010299,-0.018251,1e-06,0.0001,0.0,-0.008941,-0.519853,-0.017165,-1.584554,-264.512886,-0.926747,62.249634
5.3383,-0.000541,-0.010311,-0.016969,1e-06,0.0001,0.0,-0.009828,-0.520214,-0.018251,-1.584554,-264.512886,-0.926747,62.249634
5.3587,-0.000464,-0.009983,-0.016116,1e-06,0.0001,0.0,-0.009784,-0.520216,-0.018162,-1.584554,-264.512886,-0.926747,62.249634
5.3789,-0.000428,-0.010008,-0.016188,1e-06,0.0001,0.0,-0.008683,-0.519917,-0.016116,-1.578673,-264.512886,-1.00175,62.249634
5.3987,-0.000292,-0.009928,-0.016656,1e-06,0.0001,0.0,-0.008683,-0.519931,-0.016157,-1.578673,-264.512886,-1.00175,62.249634
5.4185,-0.000171,-0.010156,-0.016922,1e-06,0.0001,0.0,-0.008683,-0.519931,-0.016157,-1.578673,-264.512886,-1.00175,62.249634
5.4385,-0.000303,-0.010093,-0.01846,1e-06,0.0001,0.0,-0.008801,-0.520083,-0.016922,-1.578673,-264.512886,-1.076754,62.249634
5.4584,-0.000392,-0.010205,-0.017306,1e-06,0.0001,0.0,-0.008864,-0.520078,-0.017028,-1.578673,-264.512886,-1.076754,62.249634
5.4788,-0.000767,-0.010046,-0.017644,1e-06,0.0001,0.0,-0.009218,-0.520128,-0.017306,-1.578673,-264.512886,-1.151752,62.249634
5.4987,-0.00058,-0.010151,-0.017523,1e-06,0.0001,0.0,-0.009529,-0.520036,-0.017499,-1.578673,-264.512886,-1.151752,62.249634
5.5184,-0.000518,-0.010075,-0.017337,0.0,0.0,1e-06,-0.009529,-0.520036,-0.017499,-1.578673,-264.512886,-1.151752,62.249634
5.5389,-0.000724,-0.010069,-0.017095,1.2e-05,0.001486,0.002706,-0.009359,-0.519999,-0.017337,-1.578673,-264.512888,-1.226749,62.249632
5.5589,-0.00013,-0.010486,-0.016359,2.3e-05,0.002874,0.005232,-0.009365,-0.519998,-0.01732,-1.578673,-264.512888,-1.226749,62.249632
5.5786,-0.000294,-0.010155,-0.016647,3.3e-05,0.004184,0.007618,-0.008472,-0.520418,-0.016359,-1.574526,-264.512888,-1.301765,62.249632
5.5985,-0.000186,-0.010212,-0.015909,4.3e-05,0.00542,0.009869,-0.00865,-0.520227,-0.016524,-1.574526,-264.512888,-1.301765,62.249632
5.6184,-0.000277,-0.009831,-0.017968,5.2e-05,0.006594,0.012006,-0.00865,-0.520227,-0.016524,-1.574526,-264.512888,-1.301765,62.249632
5.6385,-0.000482,-0.010008,-0.016764,6e-05,0.00768,0.013985,-0.009437,-0.519675,-0.017834,-1.574526,-264.51417,-1.376885,62.2497
5.6589,-0.0003,-0.010279,-0.018178,6.8e-05,0.008696,0.015835,-0.009409,-0.519691,-0.017756,-1.574526,-264.51417,-1.376885,62.2497
5.6789,-0.000323,-0.009403,-0.016057,7.6e-05,0.009638,0.01755,-0.009565,-0.520023,-0.017861,-1.574526,-264.517948,-1.451745,62.249932
5.6987,-0.000905,-0.009974,-0.015559,8.3e-05,0.010504,0.019127,-0.008968,-0.519613,-0.016798,-1.574526,-264.517948,-1.451745,62.249932
5.7186,-0.000561,-0.009599,-0.016807,8.9e-05,0.011294,0.020566,-0.008968,-0.519613,-0.016798,-1.574526,-264.517948,-1.451745,62.249932
5.7383,-0.000414,-0.009412,-0.016493,9.5e-05,0.012012,0.021873,-0.009123,-0.519167,-0.016143,-1.574526,-264.524227,-1.500663,62.250308
5.7583,-0.000827,-0.009335,-0.016957,0.0001,0.012649,0.023033,-0.009104,-0.51917,-0.01615,-1.574526,-264.524227,-1.500663,62.250308
5.7785,-0.001483,-0.00866,-0.014762,0.000104,0.01323,0.024091,-0.009465,-0.518863,-0.016223,-1.574526,-264.533008,-1.500663,62.250816
5.7986,-0.001172,-0.008696,-0.014779,0.000108,0.013703,0.024952,-0.009205,-0.518665,-0.015297,-1.574526,-264.533008,-1.500663,62.250816
5.8184,-0.00154,-0.008778,-0.014622,0.000111,0.014117,0.025706,-0.009205,-0.518665,-0.015297,-1.574526,-264.533008,-1.500663,62.250816
5.8385,-0.002237,-0.008206,-0.012867,0.000114,0.014457,0.026325,-0.008984,-0.518109,-0.013504,-1.574526,-264.543692,-1.500663,62.251384
5.8589,-0.001942,-0.008211,-0.015247,0.000116,0.014719,0.026803,-0.008971,-0.518096,-0.013429,-1.574526,-264.543692,-1.500663,62.251384
5.8786,-0.002543,-0.007761,-0.012855,0.000117,0.014909,0.027147,-0.009705,-0.517606,-0.014255,-1.574526,-264.555619,-1.500663,62.252019
5.8985,-0.002615,-0.007353,-0.012359,0.000118,0.015021,0.027352,-0.009359,-0.517601,-0.013332,-1.574526,-264.555619,-1.500663,62.252019
5.9186,-0.002741,-0.007316,-0.013465,0.000119,0.015058,0.02742,-0.009359,-0.517601,-0.013332,-1.574526,-264.555619,-1.500663,62.252019
5.9385,-0.003284,-0.006758,-0.010873,0.000118,0.015021,0.027352,-0.009593,-0.516553,-0.01216,-1.574526,-264.568055,-1.500663,62.252681
5.9586,-0.003548,-0.007039,-0.011928,0.000117,0.014908,0.027146,-0.009543,-0.516546,-0.012043,-1.574526,-264.568055,-1.500663,62.252681
5.9784,-0.003748,-0.006045,-0.008429,0.000116,0.014718,0.026801,-0.009621,-0.516421,-0.010869,-1.574526,-264.580777,-1.500663,62.253358
5.9984,-0.004108,-0.006132,-0.011281,0.000114,0.014455,0.026321,-0.008723,-0.516123,-0.009345,-1.574526,-264.580777,-1.500663,62.253358
6.0186,-0.004209,-0.005775,-0.010782,0.000111,0.014117,0.025707,-0.008723,-0.516123,-0.009345,-1.574526,-264.580777,-1.500663,62.253358
6.0384,-0.004898,-0.005017,-0.008689,0.000108,0.013703,0.024953,-0.009695,-0.515021,-0.009463,-1.574526,-264.593372,-1.500663,62.254028
6.0592,-0.004583,-0.005287,-0.007707,0.000104,0.013214,0.024061,-0.009669,-0.515,-0.009374,-1.574526,-264.593372,-1.500663,62.254028
6.0785,-0.005545,-0.004494,-0.007053,0.0001,0.012647,0.023029,-0.008505,-0.514727,-0.006714,-1.574526,-264.605299,-1.500663,62.254663
6.0983,-0.005621,-0.004458,-0.006446,9.5e-05,0.012005,0.02186,-0.008867,-0.514518,-0.006781,-1.574526,-264.605299,-1.500663,62.254663
6.1188,-0.00537,-0.004498,-0.006983,8.9e-05,0.011294,0.020566,-0.008867,-0.514518,-0.006781,-1.574526,-264.605299,-1.500663,62.254663
6.1384,-0.005578,-0.004131,-0.00527,8.3e-05,0.010503,0.019126,-0.008922,-0.513844,-0.005813,-1.574526,-264.616516,-1.500663,62.25526
6.1586,-0.005927,-0.003926,-0.005091,7.6e-05,0.009638,0.01755,-0.008868,-0.513847,-0.005733,-1.574526,-264.616516,-1.500663,62.25526
6.1784,-0.006699,-0.003223,-0.004621,6.8e-05,0.008696,0.015834,-0.008518,-0.513486,-0.004302,-1.574526,-264.626029,-1.500663,62.255766
6.1986,-0.006446,-0.002979,-0.003696,6e-05,0.007676,0.013977,-0.008826,-0.513277,-0.004385,-1.574526,-264.626029,-1.500663,62.255766
6.2185,-0.006179,-0.003332,-0.005848,5.2e-05,0.006584,0.011989,-0.008826,-0.513277,-0.004385,-1.574526,-264.626029,-1.500663,62.255766
6.2384,-0.006973,-0.003059,-0.003126,4.3e-05,0.005421,0.009871,-0.009155,-0.512856,-0.004996,-1.574526,-264.634202,-1.500663,62.256201
6.259,-0.006579,-0.002849,-0.003721,3.3e-05,0.004178,0.007607,-0.009106,-0.512858,-0.004815,-1.574526,-264.634202,-1.500663,62.256201
6.2788,-0.007324,-0.002935,-0.00414,2.3e-05,0.002859,0.005206,-0.008473,-0.512593,-0.003261,-1.574526,-264.639742,-1.500663,62.256496
6.2984,-0.007104,-0.00259,-0.004875,1.2e-05,0.001468,0.002672,-0.009023,-0.512753,-0.003704,-1.574526,-264.639742,-1.500663,62.256496
6.3186,-0.00705,-0.002382,-0.003384,0.0,0.0,0.0,-0.009023,-0.512753,-0.003704,-1.574526,-264.639742,-1.500663,62.256496
6.3386,-0.007415,-0.002193,-0.002095,0.0,0.0,0.0,-0.008774,-0.512177,-0.003015,-1.574526,-264.643267,-1.500663,62.256683
6.3588,-0.0072,-0.002531,-0.00395,0.0,0.0,0.0,-0.008753,-0.512172,-0.002941,-1.574526,-264.643267,-1.500663,62.256683
6.379,-0.00718,-0.002021,-0.002371,0.0,0.0,0.0,-0.009214,-0.512527,-0.00395,-1.574526,-264.643267,-1.500663,62.256683
6.3985,-0.007222,-0.002174,-0.003433,0.0,0.0,0.0,-0.008744,-0.512238,-0.003051,-1.574526,-264.643267,-1.500663,62.256683
6.4195,-0.007441,-0.002445,-0.003142,0.0,0.0,0.0,-0.008744,-0.512238,-0.003051,-1.574526,-264.643267,-1.500663,62.256683
6.4386,-0.007203,-0.002394,-0.002348,0.0,0.0,0.0,-0.009043,-0.512443,-0.003142,-1.574526,-264.643267,-1.500663,62.256683
6.4584,-0.007393,-0.002363,-0.003622,0.0,0.0,0.0,-0.009004,-0.51244,-0.003094,-1.574526,-264.643267,-1.500663,62.256683
6.4786,-0.007411,-0.00246,-0.003849,0.0,0.0,0.0,-0.00924,-0.51236,-0.003622,-1.574526,-264.643267,-1.500663,62.256683
6.4983,-0.007386,-0.002447,-0.00321,0.0,0.0,0.0,-0.009317,-0.512415,-0.003752,-1.574526,-264.643267,-1.500663,62.256683
6.5184,-0.007289,-0.002064,-0.003406,0.0,0.0,0.0,-0.009317,-0.512415,-0.003752,-1.574526,-264.643267,-1.500663,62.256683
6.5385,-0.007578,-0.001903,-0.002877,9.6e-05,2.8e-05,0.0,-0.009026,-0.512061,-0.003406,-1.574526,-264.643267,-1.500663,62.256683
6.5588,-0.007345,-0.002006,-0.003581,9.6e-05,2.8e-05,0.0,-0.009028,-0.512049,-0.003366,-1.574526,-264.643267,-1.500663,62.256683
6.5786,-0.007335,-0.002274,-0.002658,9.6e-05,2.8e-05,0.0,-0.009171,-0.512003,-0.003581,-1.574526,-264.643267,-1.500663,62.256683
6.5986,-0.007468,-0.00217,-0.004119,9.6e-05,2.8e-05,0.0,-0.008898,-0.512156,-0.003056,-1.574526,-264.643267,-1.500663,62.256683
6.6189,-0.007163,-0.00279,-0.002666,9.6e-05,2.8e-05,0.0,-0.008898,-0.512156,-0.003056,-1.574526,-264.643267,-1.500663,62.256683
6.6384,-0.007226,-0.002361,-0.001622,9.6e-05,2.8e-05,0.0,-0.008523,-0.512789,-0.002666,-1.49965,-264.643267,-1.425787,62.256683
6.6584,-0.00738,-0.002177,-0.00173,9.6e-05,2.8e-05,0.0,-0.008492,-0.512761,-0.002599,-1.49965,-264.643267,-1.425787,62.256683
6.6787,-0.007122,-0.00242,-0.004166,9.6e-05,2.8e-05,0.0,-0.008262,-0.512176,-0.00173,-1.424668,-264.643267,-1.350805,62.256683
6.6989,-0.006831,-0.002466,-0.003393,9.6e-05,2.8e-05,0.0,-0.008822,-0.512312,-0.003116,-1.424668,-264.643267,-1.350805,62.256683
6.7184,-0.007668,-0.002292,-0.003556,9.6e-05,2.8e-05,0.0,-0.008822,-0.512312,-0.003116,-1.424668,-264.643267,-1.350805,62.256683
6.7385,-0.007426,-0.002354,-0.003871,9.6e-05,2.8e-05,0.0,-0.009482,-0.512289,-0.003556,-1.34966,-264.643267,-1.275798,62.256683
6.7584,-0.007237,-0.002555,-0.001913,0.00106,0.000304,0.000496,-0.009475,-0.512294,-0.003581,-1.34966,-264.643267,-1.275798,62.256683
6.7789,-0.007397,-0.0023,-0.004457,0.002071,0.000594,0.000969,-0.008213,-0.512554,-0.001913,-1.274291,-264.643267,-1.200429,62.256683
6.7987,-0.0075,-0.002158,-0.004751,0.003031,0.000869,0.001417,-0.009047,-0.512406,-0.003368,-1.274291,-264.643267,-1.200429,62.256683
6.8184,-0.007401,-0.002395,-0.001639,0.003936,0.001129,0.001841,-0.009047,-0.512406,-0.003368,-1.274291,-264.643267,-1.200429,62.256683
6.8386,-0.007221,-0.002399,-0.00335,0.00478,0.001371,0.002235,-0.008237,-0.512394,-0.001639,-1.199519,-264.643267,-1.125657,62.256683
6.8593,-0.007265,-0.00225,-0.00344,0.005568,0.001597,0.002604,-0.008286,-0.512394,-0.001759,-1.199519,-264.643267,-1.125657,62.256683
6.8784,-0.007409,-0.002137,-0.003079,0.006306,0.001809,0.002949,-0.00902,-0.512247,-0.00344,-1.12465,-264.643267,-1.050787,62.256683
6.8987,-0.006809,-0.002502,-0.004383,0.006988,0.002005,0.003268,-0.008997,-0.512184,-0.003237,-1.12465,-264.643267,-1.050787,62.256683
6.9186,-0.007045,-0.0024,-0.003424,0.007616,0.002185,0.003562,-0.008997,-0.512184,-0.003237,-1.12465,-264.643267,-1.050787,62.256683
6.9392,-0.007455,-0.002567,-0.003378,0.00819,0.00235,0.00383,-0.008791,-0.512397,-0.003424,-1.049538,-264.643267,-0.975676,62.256683
6.9584,-0.007369,-0.002522,-0.004183,0.008709,0.002498,0.004073,-0.008819,-0.512409,-0.003421,-1.049538,-264.643267,-0.975676,62.256683
6.9787,-0.007673,-0.002399,-0.002121,0.009173,0.002632,0.00429,-0.009502,-0.512517,-0.004183,-0.974563,-264.643267,-0.900701,62.256683
6.9988,-0.007458,-0.001969,-0.004099,0.009583,0.002749,0.004482,-0.009076,-0.512449,-0.003006,-0.974563,-264.643267,-0.900701,62.256683
7.0186,-0.007134,-0.002376,-0.00322,0.009939,0.002851,0.004648,-0.009076,-0.512449,-0.003006,-0.974563,-264.643267,-0.900701,62.256683
7.0384,-0.007256,-0.002495,-0.005693,0.010241,0.002938,0.004789,-0.008776,-0.512374,-0.00322,-0.89961,-264.643267,-0.825747,62.256683
7.0589,-0.007583,-0.002068,-0.004475,0.010486,0.003008,0.004904,-0.00887,-0.512381,-0.003389,-0.89961,-264.643267,-0.825747,62.256683
7.0786,-0.007498,-0.002272,-0.0028,0.010677,0.003063,0.004993,-0.009865,-0.512063,-0.004475,-0.824662,-264.643267,-0.7508,62.256683
7.0985,-0.00721,-0.002189,-0.004547,0.010814,0.003102,0.005057,-0.009326,-0.512182,-0.003514,-0.824662,-264.643267,-0.7508,62.256683
7.1185,-0.007323,-0.002384,-0.000742,0.010896,0.003126,0.005096,-0.009326,-0.512182,-0.003514,-0.824662,-264.643267,-0.7508,62.256683
7.1384,-0.007246,-0.002427,-0.002787,0.010924,0.003134,0.005109,-0.007702,-0.512384,-0.000742,-0.749521,-264.643267,-0.675658,62.256683
7.159,-0.007606,-0.002153,-0.003095,0.010897,0.003126,0.005096,-0.007773,-0.512387,-0.000892,-0.749521,-264.643267,-0.675658,62.256683
7.1784,-0.0073,-0.002407,-0.002762,0.010815,0.003103,0.005058,-0.009184,-0.51215,-0.003095,-0.674549,-264.643267,-0.600686,62.256683
7.1991,-0.007447,-0.002187,-0.004856,0.010677,0.003063,0.004993,-0.008916,-0.512294,-0.002907,-0.674549,-264.643267,-0.600686,62.256683
7.2185,-0.00768,-0.002413,-0.002614,0.010488,0.003009,0.004905,-0.008916,-0.512294,-0.002907,-0.674549,-264.643267,-0.600686,62.256683
7.2385,-0.00711,-0.002143,-0.004524,0.010242,0.002938,0.00479,-0.009014,-0.512412,-0.002614,-0.59956,-264.643267,-0.525698,62.256683
7.2589,-0.007779,-0.002223,-0.003498,0.009942,0.002852,0.004649,-0.009042,-0.512392,-0.002749,-0.59956,-264.643267,-0.525698,62.256683
7.2786,-0.00755,-0.002644,-0.003938,0.009576,0.002747,0.004479,-0.009563,-0.51222,-0.003498,-0.524536,-264.643267,-0.450674,62.256683
7.2988,-0.007057,-0.001858,-0.003342,0.009178,0.002633,0.004292,-0.009561,-0.512459,-0.003749,-0.524536,-264.643267,-0.450674,62.256683
7.3184,-0.007408,-0.002146,-0.002723,0.008714,0.0025,0.004075,-0.009561,-0.512459,-0.003749,-0.524536,-264.643267,-0.450674,62.256683
7.3388,-0.007252,-0.002462,-0.004263,0.008196,0.002351,0.003833,-0.008797,-0.512145,-0.002723,-0.44952,-264.643267,-0.375657,62.256683
7.3587,-0.007218,-0.002286,-0.00395,0.007622,0.002187,0.003565,-0.008839,-0.512166,-0.002828,-0.44952,-264.643267,-0.375657,62.256683
7.3786,-0.007301,-0.002375,-0.004839,0.006991,0.002006,0.00327,-0.009233,-0.512282,-0.00395,-0.374653,-264.643267,-0.300791,62.256684
7.3986,-0.007094,-0.002088,-0.003369,0.006312,0.001811,0.002952,-0.009539,-0.512331,-0.004458,-0.374653,-264.643267,-0.300791,62.256684
7.4186,-0.007185,-0.002395,-0.003535,0.005575,0.001599,0.002607,-0.009539,-0.512331,-0.004458,-0.374653,-264.643267,-0.300791,62.256684
7.4387,-0.007136,-0.002673,-0.003497,0.004776,0.00137,0.002234,-0.008988,-0.512392,-0.003535,-0.29949,-264.643267,-0.225627,62.256684
7.4588,-0.007284,-0.002147,-0.00323,0.003937,0.00113,0.001841,-0.008983,-0.512411,-0.003533,-0.29949,-264.643267,-0.225627,62.256684
7.4784,-0.007528,-0.002386,-0.004247,0.003012,0.000864,0.001409,-0.008931,-0.512144,-0.00323,-0.224654,-264.643267,-0.150792,62.256684
7.4985,-0.007276,-0.002456,-0.004503,0.002063,0.000592,0.000965,-0.009368,-0.51228,-0.003813,-0.224654,-264.643267,-0.150792,62.256684
7.5186,-0.007184,-0.002355,-0.003331,0.001071,0.000307,0.000501,-0.009368,-0.51228,-0.003813,-0.224654,-264.643267,-0.150792,62.256684
7.5385,-0.007425,-0.00209,-0.002915,3e-06,1e-06,2e-06,-0.008883,-0.512352,-0.003331,-0.149524,-264.643266,-0.075662,62.256684
7.559,-0.00708,-0.002506,-0.001408,0.0,0.0,0.0,-0.008885,-0.512333,-0.003303,-0.149524,-264.643266,-0.075662,62.256684
7.5789,-0.007021,-0.002288,-0.003367,0.0,0.0,0.0,-0.007798,-0.512505,-0.001408,-0.074644,-264.643266,-0.000782,62.256684
7.5989,-0.007612,-0.002384,-0.003306,0.0,0.0,0.0,-0.008327,-0.512381,-0.002511,-0.074644,-264.643266,-0.000782,62.256684
7.6183,-0.007376,-0.002792,-0.003299,0.0,0.0,0.0,-0.008327,-0.512381,-0.002511,-0.074644,-264.643266,-0.000782,62.256684
7.6386,-0.007086,-0.002393,-0.004038,0.0,0.0,0.0,-0.009058,-0.512789,-0.003299,-0.074644,-264.643266,-0.000782,62.256684
7.6589,-0.007123,-0.002154,-0.003287,0.0,0.0,0.0,-0.009064,-0.512762,-0.003349,-0.074644,-264.643266,-0.000782,62.256684
7.6784,-0.007417,-0.002101,-0.003096,0.0,0.0,0.0,-0.008799,-0.512152,-0.003287,-0.074644,-264.643266,-0.000782,62.256684
7.6987,-0.007411,-0.002005,-0.004737,0.0,0.0,0.0,-0.008912,-0.512121,-0.003178,-0.074644,-264.643266,-0.000782,62.256684
7.7186,-0.007224,-0.002283,-0.00353,0.0,0.0,0.0,-0.008912,-0.512121,-0.003178,-0.074644,-264.643266,-0.000782,62.256684
7.7388,-0.007693,-0.002703,-0.001631,0.0,0.0,0.0,-0.009024,-0.51228,-0.00353,-0.074644,-264.643266,-0.000782,62.256684
7.7587,-0.007528,-0.002247,-0.003308,0.0,0.0,0.0,-0.00899,-0.512309,-0.003401,-0.074644,-264.643266,-0.000782,62.256684
7.7785,-0.007117,-0.002237,-0.003844,9.6e-05,2.9e-05,0.0,-0.009215,-0.512245,-0.003308,-0.074644,-264.643266,-0.000782,62.256684
7.7985,-0.007663,-0.00243,-0.002082,9.6e-05,2.9e-05,0.0,-0.009137,-0.512238,-0.00361,-0.074644,-264.643266,-0.000782,62.256684
7.8186,-0.007446,-0.002668,-0.003776,9.6e-05,2.9e-05,0.0,-0.009137,-0.512238,-0.00361,-0.074644,-264.643266,-0.000782,62.256684
7.8388,-0.007493,-0.00242,-0.002816,9.6e-05,2.9e-05,0.0,-0.009372,-0.512665,-0.003776,-0.074644,-264.643266,-0.000782,62.256684
7.8588,-0.007585,-0.002211,-0.003583,9.6e-05,2.9e-05,0.0,-0.009344,-0.512649,-0.003715,-0.074644,-264.643266,-0.000782,62.256684
7.8785,-0.007374,-0.00211,-0.002426,9.6e-05,2.9e-05,0.0,-0.009412,-0.512208,-0.003583,0.000379,-264.643265,0.074241,62.256685
7.8986,-0.007538,-0.00234,-0.003761,9.6e-05,2.9e-05,0.0,-0.008959,-0.512151,-0.002929,0.000379,-264.643265,0.074241,62.256685
7.9188,-0.007257,-0.002106,-0.003372,9.6e-05,2.9e-05,0.0,-0.008959,-0.512151,-0.002929,0.000379,-264.643265,0.074241,62.256685
7.9385,-0.007373,-0.002253,-0.003604,9.6e-05,2.9e-05,0.0,-0.008976,-0.512103,-0.003372,0.075376,-264.643261,0.149238,62.25669
7.9585,-0.007055,-0.00238,-0.003748,9.6e-05,2.9e-05,0.0,-0.008991,-0.512112,-0.003386,0.075376,-264.643261,0.149238,62.25669
7.9789,-0.007221,-0.002481,-0.002848,9e-06,3e-06,4e-06,-0.008966,-0.512376,-0.003748,0.150375,-264.643247,0.224237,62.256703
7.9988,-0.00725,-0.002089,-0.002127,0.001101,0.000333,0.000484,-0.0088,-0.512434,-0.003238,0.150375,-264.643247,0.224237,62.256703
8.0189,-0.007539,-0.002148,-0.003337,0.002147,0.000649,0.000944,-0.0088,-0.512434,-0.003238,0.150375,-264.643247,0.224237,62.256703
8.0389,-0.007363,-0.002105,-0.00309,0.003132,0.000946,0.001377,-0.009237,-0.512144,-0.003337,0.225404,-264.643221,0.293397,62.25673
8.0586,-0.007422,-0.002096,-0.002997,0.004061,0.001227,0.001786,-0.00922,-0.512142,-0.003322,0.225404,-264.643221,0.293397,62.25673
8.0783,-0.007531,-0.002261,-0.004022,0.004936,0.001491,0.002171,-0.008943,-0.512091,-0.002996,0.300378,-264.643139,0.218423,62.256801
8.0986,-0.007475,-0.002267,-0.004389,0.005754,0.001738,0.002531,-0.009308,-0.512186,-0.003584,0.300378,-264.643139,0.218423,62.256801
8.1184,-0.007696,-0.002445,-0.005639,0.006515,0.001968,0.002865,-0.009308,-0.512186,-0.003584,0.300378,-264.643139,0.218423,62.256801
8.1386,-0.00751,-0.00208,-0.001948,0.007222,0.002182,0.003176,-0.010518,-0.512422,-0.005627,0.375469,-264.642638,0.143332,62.257236
8.1587,-0.007302,-0.002289,-0.003762,0.007868,0.002377,0.00346,-0.01037,-0.512397,-0.00536,0.375469,-264.642638,0.143332,62.257236
8.1784,-0.007144,-0.002439,-0.003251,0.008461,0.002556,0.003721,-0.009069,-0.512243,-0.003709,0.450438,-264.640859,0.068363,62.258782
8.1985,-0.007064,-0.002276,-0.001873,0.008996,0.002718,0.003956,-0.008897,-0.512348,-0.003441,0.450438,-264.640859,0.068363,62.258782
8.2186,-0.007201,-0.002444,-0.002486,0.009476,0.002863,0.004167,-0.008897,-0.512348,-0.003441,0.450438,-264.640859,0.068363,62.258782
8.2384,-0.007176,-0.002655,-0.002045,0.009899,0.002991,0.004354,-0.008121,-0.512339,-0.002333,0.518609,-264.637562,0.033503,62.261647
8.259,-0.007037,-0.002356,-0.002678,0.010266,0.003102,0.004515,-0.008118,-0.512358,-0.002309,0.518609,-264.637562,0.033503,62.261647
8.2789,-0.00619,-0.001749,-0.002532,0.010577,0.003195,0.004651,-0.008037,-0.512245,-0.002517,0.518609,-264.633195,0.033503,62.265442
8.2986,-0.006014,-0.002092,-0.003701,0.01083,0.003272,0.004763,-0.007673,-0.511946,-0.002505,0.518609,-264.633195,0.033503,62.265442
8.3189,-0.006636,-0.002127,-0.003139,0.011028,0.003332,0.00485,-0.007673,-0.511946,-0.002505,0.518609,-264.633195,0.033503,62.265442
8.3388,-0.005812,-0.001878,-0.001774,0.011169,0.003374,0.004912,-0.007736,-0.511975,-0.002919,0.518609,-264.628471,0.033503,62.269547
8.3586,-0.006207,-0.001528,-0.002473,0.011253,0.0034,0.004949,-0.007664,-0.511966,-0.002847,0.518609,-264.628471,0.033503,62.269547
8.3787,-0.005875,-0.00203,-0.002326,0.011281,0.003408,0.004961,-0.007042,-0.511399,-0.002286,0.518609,-264.623387,0.033503,62.273965
8.3989,-0.00588,-0.001591,-0.002733,0.011253,0.0034,0.004949,-0.006999,-0.511743,-0.002285,0.518609,-264.623387,0.033503,62.273965
8.4187,-0.005723,-0.001669,-0.001805,0.011169,0.003374,0.004912,-0.006999,-0.511743,-0.002285,0.518609,-264.623387,0.033503,62.273965
8.4386,-0.005272,-0.001122,-0.002326,0.011027,0.003332,0.00485,-0.006097,-0.511504,-0.001564,0.518609,-264.61821,0.033503,62.278464
8.4589,-0.005213,-0.001577,-0.002009,0.01083,0.003272,0.004763,-0.006108,-0.511473,-0.001611,0.518609,-264.61821,0.033503,62.278464
8.4784,-0.005,-0.001276,-0.00141,0.010576,0.003195,0.004651,-0.005806,-0.511447,-0.00182,0.518609,-264.613059,0.033503,62.28294
8.4986,-0.004953,-0.001443,-0.001496,0.010265,0.003101,0.004514,-0.005701,-0.511332,-0.001561,0.518609,-264.613059,0.033503,62.28294
8.5184,-0.004684,-0.001197,-0.001736,0.0099,0.002991,0.004354,-0.005701,-0.511332,-0.001561,0.518609,-264.613059,0.033503,62.28294
8.5386,-0.004497,-0.001398,-0.0022,0.009476,0.002863,0.004167,-0.005043,-0.511038,-0.001505,0.518609,-264.608079,0.033503,62.287268
8.5584,-0.004805,-0.001115,-0.00246,0.008997,0.002718,0.003957,-0.005068,-0.511058,-0.001545,0.518609,-264.608079,0.033503,62.287268
8.5783,-0.003844,-0.000972,-0.000478,0.00846,0.002556,0.003721,-0.005677,-0.510999,-0.002292,0.518609,-264.603519,0.033503,62.29123
8.5986,-0.003682,-0.001339,-0.002104,0.007866,0.002376,0.003459,-0.004723,-0.510969,-0.001237,0.518609,-264.603519,0.033503,62.29123
8.6186,-0.003771,-0.000967,-0.002575,0.00722,0.002181,0.003175,-0.004723,-0.510969,-0.001237,0.518609,-264.603519,0.033503,62.29123
8.6383,-0.003749,-0.000773,0.000537,0.006515,0.001968,0.002865,-0.004644,-0.510833,-0.002382,0.518609,-264.599375,0.033503,62.294831
8.6583,-0.003505,-0.000785,-0.001512,0.005754,0.001738,0.002531,-0.004567,-0.510827,-0.002209,0.518609,-264.599375,0.033503,62.294831
8.6792,-0.003247,-0.000744,-0.001386,0.004934,0.001491,0.00217,-0.003997,-0.5107,-0.001389,0.518609,-264.596044,0.033503,62.297726
8.6984,-0.003463,-0.000687,-0.00136,0.004063,0.001227,0.001787,-0.003937,-0.510715,-0.001372,0.518609,-264.596044,0.033503,62.297726
8.7186,-0.003362,-0.001016,-0.000671,0.003131,0.000946,0.001377,-0.003937,-0.510715,-0.001372,0.518609,-264.596044,0.033503,62.297726
8.7385,-0.003336,-0.000664,-0.002531,0.002144,0.000648,0.000943,-0.003425,-0.510932,-0.000548,0.518609,-264.593393,0.033503,62.30003
8.7584,-0.002882,-0.000371,-0.002571,0.0011,0.000332,0.000484,-0.003503,-0.51091,-0.000687,0.518609,-264.593393,0.033503,62.30003
