mach0312/omni-docking-bench/src/icros_test_setup/results/kinematic_sample/timeseries/trial_107.csv
t,x,y,yaw,vx,vy,wz,bl_x,bl_y,bl_yaw,front_steering_joint,front_wheel_joint,rear_steering_joint,rear_wheel_joint
0.0,0.02572,0.019084,-0.087463,-0.008503,0.000424,-0.001436,-0.017181,-0.489272,-0.08665,0.053285,-264.381127,-0.151796,62.628081
0.0004,0.025704,0.018988,-0.088042,-0.005164,0.000257,-0.000872,-0.01826,-0.488756,-0.088012,0.053285,-264.384923,-0.151796,62.624246
0.0008,0.025048,0.018834,-0.086841,-0.00443,0.000221,-0.000748,-0.018265,-0.488774,-0.087972,0.053285,-264.388335,-0.151796,62.620799
0.0011,0.025192,0.019112,-0.085754,-0.003645,0.000182,-0.000616,-0.018265,-0.488774,-0.087972,0.053285,-264.391371,-0.151796,62.617732
0.0014,0.025443,0.018915,-0.087414,-0.00281,0.00014,-0.000475,-0.018555,-0.489005,-0.087749,0.053285,-264.393714,-0.151796,62.615366
0.0018,0.025348,0.018922,-0.086099,-0.001926,9.6e-05,-0.000325,-0.018555,-0.489005,-0.087749,0.053285,-264.395488,-0.151796,62.613574
0.0021,0.025543,0.019021,-0.087534,-0.000988,4.9e-05,-0.000167,-0.01826,-0.489071,-0.086954,0.053285,-264.396259,-0.151796,62.612794
0.0024,0.02545,0.018935,-0.086851,-3e-06,0.0,-0.0,-0.01826,-0.489071,-0.086954,0.053285,-264.39626,-0.151796,62.612793
0.0026,0.025402,0.018466,-0.086812,0.0,0.0,0.0,-0.01826,-0.489071,-0.086954,0.053285,-264.39626,-0.151796,62.612793
0.0029,0.025576,0.018732,-0.087486,0.0,0.0,0.0,-0.017946,-0.489123,-0.086248,0.053285,-264.39626,-0.151796,62.612793
0.0177,0.025273,0.019321,-0.087933,-0.016,-0.016,0.03,-0.018985,-0.489318,-0.087486,0.053285,-264.39626,-0.151796,62.612793
0.038,0.024988,0.019151,-0.087441,-0.023478,-0.021466,0.05,-0.019024,-0.489273,-0.087519,0.053285,-264.39626,-0.151796,62.612793
0.0577,0.025419,0.019391,-0.087421,-0.02322,-0.02126,0.05,-0.01955,-0.4889,-0.087441,0.053285,-264.39626,-0.151796,62.612793
0.0779,0.025472,0.018833,-0.086656,-0.023629,-0.021536,0.05,-0.019297,-0.488763,-0.08743,0.053285,-264.39626,-0.151796,62.612793
0.0982,0.025147,0.018811,-0.089115,-0.023747,-0.020967,0.05,-0.019297,-0.488763,-0.08743,0.053285,-264.39626,-0.151796,62.612793
0.118,0.025339,0.018901,-0.086691,-0.023373,-0.020974,0.05,-0.020242,-0.489165,-0.089115,-0.02168,-264.39626,-0.076831,62.612793
0.1381,0.02549,0.019176,-0.087868,-0.023607,-0.021024,0.05,-0.020142,-0.489167,-0.088945,-0.02168,-264.39626,-0.076831,62.612793
0.1578,0.02531,0.018857,-0.086567,-0.023709,-0.021339,0.05,-0.019265,-0.488857,-0.087868,-0.096582,-264.396261,-0.001929,62.612793
0.1777,0.025571,0.019192,-0.087498,-0.023585,-0.020974,0.05,-0.018991,-0.489071,-0.087127,-0.096582,-264.396261,-0.001929,62.612793
0.1978,0.025251,0.018852,-0.087044,-0.023796,-0.021354,0.05,-0.018991,-0.489071,-0.087127,-0.096582,-264.396261,-0.001929,62.612793
0.218,0.025185,0.018792,-0.088852,-0.023517,-0.020975,0.05,-0.019086,-0.489218,-0.087044,-0.171573,-264.396261,0.073062,62.612792
0.2384,0.02533,0.018509,-0.085771,-0.023418,-0.020953,0.05,-0.019153,-0.489216,-0.087169,-0.171573,-264.396261,0.073062,62.612792
0.2583,0.025464,0.019189,-0.085875,-0.023651,-0.020611,0.05,-0.01836,-0.489616,-0.085771,-0.24657,-264.396261,0.148059,62.612791
0.2781,0.024908,0.01916,-0.08812,-0.023725,-0.021303,0.05,-0.018313,-0.489228,-0.08583,-0.24657,-264.396261,0.148059,62.612791
0.2982,0.025229,0.018804,-0.08747,-0.023125,-0.021278,0.05,-0.018313,-0.489228,-0.08583,-0.24657,-264.396261,0.148059,62.612791
0.3179,0.025449,0.01877,-0.087759,-0.02349,-0.020936,0.05,-0.019324,-0.489246,-0.08747,-0.321586,-264.396262,0.223075,62.612789
0.3377,0.025496,0.019081,-0.088017,-0.023706,-0.020928,0.05,-0.019319,-0.489247,-0.087489,-0.321586,-264.396262,0.223075,62.612789
0.3583,0.025186,0.018714,-0.089021,-0.02372,-0.021248,0.05,-0.019335,-0.488945,-0.088017,-0.380863,-264.396263,0.298064,62.612787
0.3788,0.025334,0.01884,-0.088581,-0.023422,-0.020879,0.05,-0.019799,-0.489127,-0.088585,-0.380863,-264.396263,0.298064,62.612787
0.3983,0.025017,0.019583,-0.08742,-0.023568,-0.021007,0.05,-0.019799,-0.489127,-0.088585,-0.380863,-264.396263,0.298064,62.612787
0.4183,0.025005,0.01878,-0.086191,-0.023212,-0.021693,0.05,-0.01951,-0.488469,-0.08742,-0.385108,-264.396264,0.373062,62.612785
0.4381,0.025132,0.019062,-0.087014,-0.023295,-0.020862,0.05,-0.01947,-0.488526,-0.087338,-0.385108,-264.396264,0.373062,62.612785
0.458,0.025721,0.01906,-0.087637,-0.023381,-0.021174,0.05,-0.019189,-0.489009,-0.087014,-0.384285,-264.396265,0.448071,62.612782
0.4786,0.02537,0.018984,-0.085549,-0.023954,-0.021238,0.05,-0.019034,-0.488994,-0.087368,-0.384285,-264.396265,0.448071,62.612782
0.4983,0.02523,0.019226,-0.087537,-0.023655,-0.021082,0.05,-0.019034,-0.488994,-0.087368,-0.384285,-264.396265,0.448071,62.612782
0.5179,0.02554,0.018912,-0.087249,-0.023452,-0.021358,0.05,-0.019358,-0.488821,-0.087536,-0.393647,-264.396268,0.523063,62.612775
0.5377,0.025178,0.01928,-0.088078,-0.023795,-0.021065,0.05,-0.019333,-0.488839,-0.087521,-0.393647,-264.396268,0.523063,62.612775
0.5583,0.025112,0.018896,-0.085844,-0.023385,-0.02142,0.05,-0.019685,-0.488743,-0.088076,-0.380247,-264.396284,0.598056,62.612741
0.578,0.025042,0.019166,-0.085886,-0.0234,-0.020979,0.05,-0.019076,-0.489018,-0.086805,-0.380247,-264.396284,0.598056,62.612741
0.5979,0.025298,0.019478,-0.088827,-0.023305,-0.021243,0.05,-0.019076,-0.489018,-0.086805,-0.380247,-264.396284,0.598056,62.612741
0.6181,0.025304,0.019552,-0.085836,-0.02347,-0.021645,0.05,-0.019957,-0.488515,-0.088814,-0.378845,-264.396359,0.673055,62.612574
0.6379,0.02562,0.018955,-0.087219,-0.023534,-0.021649,0.05,-0.019852,-0.488519,-0.088609,-0.378845,-264.396359,0.673055,62.612574
0.6577,0.0245,0.019236,-0.08737,-0.023871,-0.021115,0.05,-0.018836,-0.489117,-0.087184,-0.379472,-264.396595,0.748065,62.61204
0.6778,0.025382,0.018926,-0.087356,-0.022728,-0.0213,0.05,-0.0195,-0.488949,-0.087285,-0.379472,-264.396595,0.748065,62.61204
0.6979,0.025199,0.019237,-0.0879,-0.023634,-0.021069,0.05,-0.0195,-0.488949,-0.087285,-0.379472,-264.396595,0.748065,62.61204
0.7179,0.024994,0.018934,-0.087836,-0.023413,-0.021374,0.05,-0.019688,-0.488843,-0.087753,-0.361123,-264.397325,0.822996,62.610378
0.7378,0.024833,0.018885,-0.086669,-0.023237,-0.021054,0.05,-0.019695,-0.488862,-0.087755,-0.361123,-264.397325,0.822996,62.610378
0.7577,0.024448,0.018633,-0.086619,-0.023105,-0.020963,0.05,-0.019535,-0.489305,-0.086354,-0.381063,-264.399269,0.898065,62.606216
0.7776,0.024658,0.019299,-0.087006,-0.022744,-0.020678,0.05,-0.019641,-0.489403,-0.086465,-0.381063,-264.399269,0.898065,62.606216
0.7977,0.02468,0.018917,-0.088298,-0.022888,-0.021368,0.05,-0.019641,-0.489403,-0.086465,-0.381063,-264.399269,0.898065,62.606216
0.8178,0.023422,0.018914,-0.086475,-0.022916,-0.02102,0.05,-0.020748,-0.489307,-0.087611,-0.387487,-264.402933,0.973059,62.599554
0.8384,0.023587,0.01875,-0.086317,-0.021701,-0.020867,0.05,-0.020751,-0.489304,-0.087517,-0.387487,-264.402933,0.973059,62.599554
0.8586,0.02242,0.018211,-0.084307,-0.021883,-0.020714,0.05,-0.020886,-0.489591,-0.085512,-0.381038,-264.408702,1.04806,62.59039
0.8779,0.02212,0.018125,-0.084751,-0.020807,-0.020034,0.05,-0.020746,-0.489838,-0.084734,-0.381038,-264.408702,1.04806,62.59039
0.8981,0.022461,0.018591,-0.086275,-0.020506,-0.019932,0.05,-0.020746,-0.489838,-0.084734,-0.381038,-264.408702,1.04806,62.59039
0.9185,0.020863,0.017803,-0.083894,-0.020776,-0.020458,0.05,-0.022232,-0.489909,-0.084934,-0.41922,-264.415976,1.123108,62.578728
0.9379,0.02097,0.01819,-0.083896,-0.019298,-0.019489,0.05,-0.022227,-0.489952,-0.08483,-0.41922,-264.415976,1.123108,62.578728
0.9577,0.019257,0.01807,-0.084306,-0.019372,-0.019883,0.05,-0.022412,-0.490415,-0.08256,-0.477299,-264.424207,1.184859,62.564566
0.9777,0.019239,0.017396,-0.082276,-0.017667,-0.019628,0.05,-0.023221,-0.490297,-0.083384,-0.477299,-264.424207,1.184859,62.564566
0.9979,0.019055,0.017673,-0.082525,-0.017745,-0.018918,0.05,-0.023221,-0.490297,-0.083384,-0.477299,-264.424207,1.184859,62.564566
1.0178,0.017259,0.017138,-0.080854,-0.017534,-0.019183,0.05,-0.023855,-0.491208,-0.080553,-0.519972,-264.432814,1.202631,62.547882
1.038,0.017,0.016832,-0.080029,-0.015818,-0.018476,0.05,-0.023885,-0.491224,-0.08052,-0.519972,-264.432814,1.202631,62.547882
1.058,0.015628,0.016114,-0.078081,-0.0156,-0.018137,0.05,-0.024453,-0.492144,-0.078261,-0.579759,-264.440744,1.226301,62.528741
1.0779,0.015356,0.01625,-0.079546,-0.014323,-0.017284,0.05,-0.02437,-0.492328,-0.077934,-0.579759,-264.440744,1.226301,62.528741
1.0979,0.015562,0.016268,-0.079223,-0.014016,-0.017419,0.05,-0.02437,-0.492328,-0.077934,-0.579759,-264.440744,1.226301,62.528741
1.1178,0.013719,0.015601,-0.075292,-0.014226,-0.017449,0.05,-0.025557,-0.492889,-0.077022,-0.651441,-264.447951,1.258614,62.510082
1.138,0.013279,0.015808,-0.074173,-0.012507,-0.016589,0.05,-0.025513,-0.492913,-0.076843,-0.651441,-264.447951,1.258614,62.510082
1.1579,0.011568,0.014858,-0.072946,-0.012071,-0.016748,0.05,-0.025015,-0.493325,-0.072563,-0.726439,-264.454392,1.286446,62.493318
1.1779,0.011773,0.014714,-0.072194,-0.010454,-0.015662,0.05,-0.025412,-0.493655,-0.072575,-0.726439,-264.454392,1.286446,62.493318
1.198,0.011554,0.014899,-0.074464,-0.010681,-0.015525,0.05,-0.025412,-0.493655,-0.072575,-0.726439,-264.454392,1.286446,62.493318
1.2179,0.009961,0.014236,-0.070245,-0.010413,-0.015717,0.05,-0.026935,-0.494309,-0.072522,-0.801431,-264.46043,1.311387,62.477606
1.2381,0.009692,0.014541,-0.069211,-0.008938,-0.0149,0.05,-0.026872,-0.494339,-0.072311,-0.801431,-264.46043,1.311387,62.477606
1.2578,0.008832,0.01392,-0.070242,-0.008663,-0.015177,0.05,-0.025902,-0.494637,-0.06791,-0.876435,-264.465458,1.342945,62.4647
1.278,0.008967,0.014078,-0.069505,-0.007833,-0.014506,0.05,-0.026546,-0.494793,-0.069072,-0.876435,-264.465458,1.342945,62.4647
1.298,0.008826,0.014071,-0.069403,-0.007967,-0.014667,0.05,-0.026546,-0.494793,-0.069072,-0.876435,-264.465458,1.342945,62.4647
1.3178,0.007365,0.013456,-0.066633,-0.007829,-0.014649,0.05,-0.026854,-0.495129,-0.067969,-0.951446,-264.469779,1.376576,62.453592
1.3388,0.007649,0.013509,-0.067289,-0.006453,-0.013916,0.05,-0.026844,-0.49516,-0.067837,-0.951446,-264.469779,1.376576,62.453592
1.3584,0.006498,0.01326,-0.066315,-0.006723,-0.013993,0.05,-0.026893,-0.495715,-0.065992,-1.026458,-264.474598,1.396339,62.441136
1.3777,0.006559,0.013338,-0.066834,-0.005605,-0.013662,0.05,-0.027154,-0.495709,-0.06601,-1.026458,-264.474598,1.396339,62.441136
1.398,0.006428,0.012998,-0.064407,-0.005654,-0.013747,0.05,-0.027154,-0.495709,-0.06601,-1.026458,-264.474598,1.396339,62.441136
1.418,0.005328,0.013108,-0.064922,-0.005578,-0.013385,0.05,-0.026637,-0.496351,-0.062948,-1.101438,-264.478915,1.42664,62.430258
1.4385,0.005901,0.013085,-0.066278,-0.004467,-0.013426,0.05,-0.026713,-0.496328,-0.063037,-1.101438,-264.478915,1.42664,62.430258
1.4579,0.004196,0.012139,-0.062981,-0.005022,-0.013447,0.05,-0.028074,-0.496172,-0.064896,-1.176443,-264.483958,1.443815,62.417551
1.478,0.004391,0.012488,-0.062032,-0.003424,-0.012379,0.05,-0.028003,-0.496598,-0.063655,-1.176443,-264.483958,1.443815,62.417551
1.4982,0.004482,0.012626,-0.063206,-0.003608,-0.012736,0.05,-0.028003,-0.496598,-0.063655,-1.176443,-264.483958,1.443815,62.417551
1.5177,0.003209,0.0123,-0.061442,-0.003675,-0.012884,0.05,-0.027938,-0.496823,-0.06145,-1.251487,-264.48909,1.46954,62.404729
1.5381,0.003218,0.011906,-0.06205,-0.002448,-0.012474,0.05,-0.027955,-0.49683,-0.061405,-1.251487,-264.48909,1.46954,62.404729
1.558,0.002215,0.011612,-0.058106,-0.002474,-0.012083,0.05,-0.028553,-0.497496,-0.060526,-1.326448,-264.494841,1.487603,62.390979
1.578,0.002072,0.01169,-0.058455,-0.001537,-0.011721,0.05,-0.027917,-0.497563,-0.058956,-1.326448,-264.494841,1.487603,62.390979
1.5978,0.002298,0.011642,-0.059118,-0.001385,-0.011791,0.05,-0.027917,-0.497563,-0.058956,-1.326448,-264.494841,1.487603,62.390979
1.6177,0.000853,0.010848,-0.056341,-0.001606,-0.011757,0.05,-0.027973,-0.497956,-0.05714,-1.40144,-264.500787,1.513952,62.376926
1.6383,0.000955,0.011105,-0.056394,-0.000241,-0.010879,0.05,-0.027969,-0.497996,-0.05703,-1.40144,-264.500787,1.513952,62.376926
1.6578,-0.000466,0.010723,-0.055386,-0.000328,-0.011141,0.05,-0.027864,-0.498471,-0.054742,-1.476446,-264.507221,1.538083,62.362431
1.678,-0.00057,0.010282,-0.05519,0.001059,-0.010681,0.05,-0.028347,-0.498534,-0.054898,-1.476446,-264.507221,1.538083,62.362431
1.6978,-0.000262,0.010702,-0.054439,0.001136,-0.010235,0.05,-0.028347,-0.498534,-0.054898,-1.476446,-264.507221,1.538083,62.362431
1.7181,-0.001333,0.010344,-0.052726,0.000844,-0.010672,0.05,-0.028051,-0.49901,-0.052282,-1.551431,-264.514199,1.564973,62.34773
1.7382,-0.001132,0.010405,-0.05301,0.001876,-0.010259,0.05,-0.028063,-0.499018,-0.052256,-1.551431,-264.514199,1.564973,62.34773
1.758,-0.002624,0.01,-0.05068,0.001681,-0.010331,0.05,-0.028133,-0.499235,-0.051275,-1.626439,-264.521506,1.598653,62.333073
1.7784,-0.002892,0.009922,-0.050346,0.003127,-0.009855,0.05,-0.028317,-0.499343,-0.050716,-1.626439,-264.521506,1.598653,62.333073
1.7982,-0.00299,0.009769,-0.050623,0.003388,-0.009764,0.05,-0.028317,-0.499343,-0.050716,-1.626439,-264.521506,1.598653,62.333073
1.8179,-0.00341,0.009313,-0.05001,0.00348,-0.009605,0.05,-0.028732,-0.500066,-0.04826,-1.663057,-264.529458,1.616754,62.317126
1.8381,-0.003736,0.009502,-0.04662,0.00348,-0.009605,0.05,-0.028744,-0.50008,-0.048329,-1.663057,-264.529458,1.616754,62.317126
1.8577,-0.004602,0.008908,-0.045609,4.1e-05,-9.1e-05,0.0,-0.027402,-0.500288,-0.044884,-1.732462,-264.537043,1.654664,62.302551
1.8779,-0.004835,0.00907,-0.045399,4.1e-05,-9.1e-05,0.0,-0.027648,-0.500488,-0.045077,-1.732462,-264.537043,1.654664,62.302551
1.8978,-0.004697,0.008742,-0.0462,4.1e-05,-9.1e-05,0.0,-0.027648,-0.500488,-0.045077,-1.732462,-264.537043,1.654664,62.302551
1.9177,-0.006106,0.008472,-0.04199,4.1e-05,-9.1e-05,0.0,-0.028102,-0.501187,-0.043772,-1.735545,-264.545527,1.657273,62.286442
1.9383,-0.006065,0.008694,-0.045781,4.1e-05,-9.1e-05,0.0,-0.028058,-0.501192,-0.043584,-1.735545,-264.545527,1.657273,62.286442
1.9579,-0.006198,0.008329,-0.044128,4.1e-05,-9.1e-05,0.0,-0.029415,-0.501068,-0.045295,-1.660613,-264.545527,1.582341,62.280312
1.9778,-0.006058,0.008663,-0.043572,4.1e-05,-9.1e-05,0.0,-0.029006,-0.501166,-0.044569,-1.660613,-264.545527,1.582341,62.280312
1.9979,-0.006644,0.008186,-0.042564,4.1e-05,-9.1e-05,0.0,-0.029006,-0.501166,-0.044569,-1.660613,-264.545527,1.582341,62.280312
2.0182,-0.00653,0.008058,-0.042843,4.1e-05,-9.1e-05,0.0,-0.028345,-0.501352,-0.042564,-1.585507,-264.545527,1.507235,62.280312
2.0382,-0.006282,0.008327,-0.041444,4.1e-05,-9.1e-05,0.0,-0.028347,-0.501361,-0.042584,-1.585507,-264.545527,1.507235,62.280312
2.0578,-0.006503,0.008486,-0.041618,4.1e-05,-9.1e-05,0.0,-0.027413,-0.501235,-0.041444,-1.510598,-264.545527,1.432326,62.280312
2.0779,-0.006096,0.008013,-0.042363,0.000612,-0.001366,0.006835,-0.027589,-0.501142,-0.041543,-1.510598,-264.545527,1.432326,62.280312
2.0981,-0.006417,0.008261,-0.042668,0.00119,-0.002656,0.013288,-0.027589,-0.501142,-0.041543,-1.510598,-264.545527,1.432326,62.280312
2.1178,-0.006287,0.008072,-0.041619,0.001738,-0.003879,0.019406,-0.028171,-0.501275,-0.042668,-1.435602,-264.545527,1.357331,62.280312
2.1381,-0.00619,0.008054,-0.042627,0.002254,-0.00503,0.025167,-0.028125,-0.50129,-0.042596,-1.435602,-264.545527,1.357331,62.280312
2.1585,-0.006405,0.008497,-0.042018,0.002742,-0.00612,0.030618,-0.027923,-0.501482,-0.042627,-1.3606,-264.545527,1.432333,62.280312
2.178,-0.006104,0.008223,-0.04302,0.003194,-0.007129,0.03567,-0.02787,-0.501243,-0.042288,-1.3606,-264.545527,1.432333,62.280312
2.1979,-0.006433,0.008172,-0.042566,0.003616,-0.008071,0.04038,-0.02787,-0.501243,-0.042288,-1.3606,-264.545527,1.432333,62.280312
2.2179,-0.006317,0.008185,-0.044049,0.004008,-0.008945,0.044754,-0.028135,-0.501366,-0.042566,-1.285595,-264.545527,1.507338,62.280311
2.2383,-0.006331,0.008618,-0.044072,0.00437,-0.009753,0.048796,-0.028189,-0.501362,-0.042692,-1.285595,-264.545527,1.507338,62.280311
2.2581,-0.006629,0.008105,-0.042628,0.004698,-0.010486,0.052463,-0.028801,-0.500887,-0.044072,-1.21013,-264.545526,1.582804,62.280311
2.2779,-0.006103,0.008312,-0.043209,0.004996,-0.011149,0.055784,-0.028557,-0.50119,-0.043268,-1.21013,-264.545526,1.582804,62.280311
2.2984,-0.006368,0.008292,-0.043396,0.005262,-0.011745,0.058762,-0.028557,-0.50119,-0.043268,-1.21013,-264.545526,1.582804,62.280311
2.3187,-0.006134,0.008122,-0.041613,0.005497,-0.012268,0.06138,-0.028493,-0.501228,-0.043396,-1.135539,-264.545525,1.657394,62.280309
2.3385,-0.00644,0.00835,-0.043236,0.0057,-0.012722,0.06365,-0.028429,-0.501239,-0.043296,-1.135539,-264.545525,1.657394,62.280309
2.3578,-0.006194,0.007633,-0.042599,0.005871,-0.013104,0.065563,-0.028483,-0.501174,-0.043236,-1.060571,-264.545524,1.680826,62.280307
2.3777,-0.006154,0.008686,-0.043164,0.006013,-0.013419,0.067138,-0.028162,-0.501586,-0.042876,-1.060571,-264.545524,1.680826,62.280307
2.3984,-0.006019,0.008012,-0.043447,0.006122,-0.013663,0.068359,-0.028162,-0.501586,-0.042876,-1.060571,-264.545524,1.680826,62.280307
2.4183,-0.006071,0.008363,-0.04299,0.0062,-0.013838,0.069233,-0.02817,-0.501507,-0.043447,-0.985592,-264.545523,1.680826,62.280305
2.4381,-0.006207,0.008378,-0.042445,0.006247,-0.013942,0.069756,-0.028159,-0.501486,-0.043418,-0.985592,-264.545523,1.680826,62.280305
2.458,-0.006611,0.008436,-0.041723,0.006263,-0.013977,0.06993,-0.027848,-0.501163,-0.042445,-0.910585,-264.545522,1.680826,62.280303
2.4778,-0.006146,0.008073,-0.042727,0.006246,-0.013941,0.069749,-0.027868,-0.501139,-0.042039,-0.910585,-264.545522,1.680826,62.280303
2.498,-0.006114,0.008375,-0.042994,0.0062,-0.013837,0.069231,-0.027868,-0.501139,-0.042039,-0.910585,-264.545522,1.680826,62.280303
2.5178,-0.006317,0.008484,-0.043157,0.006121,-0.013662,0.068355,-0.028034,-0.501154,-0.042994,-0.835594,-264.545521,1.680826,62.280301
2.5377,-0.006318,0.008493,-0.044124,0.006012,-0.013418,0.067135,-0.028054,-0.501146,-0.043005,-0.835594,-264.545521,1.680826,62.280301
2.5579,-0.006104,0.008273,-0.042643,0.005871,-0.013103,0.065559,-0.028814,-0.50101,-0.044123,-0.760599,-264.54552,1.680826,62.280298
2.5781,-0.006175,0.008379,-0.040838,0.005699,-0.01272,0.063641,-0.028261,-0.501155,-0.043279,-0.760599,-264.54552,1.680826,62.280298
2.5979,-0.006294,0.00819,-0.041748,0.005496,-0.012265,0.061367,-0.028261,-0.501155,-0.043279,-0.760599,-264.54552,1.680826,62.280298
2.6178,-0.006163,0.008102,-0.043963,0.005261,-0.011741,0.058743,-0.02758,-0.501365,-0.041748,-0.685512,-264.545519,1.680826,62.280296
2.6377,-0.006371,0.008,-0.043038,0.004995,-0.011147,0.055773,-0.027653,-0.501368,-0.04191,-0.685512,-264.545519,1.680826,62.280296
2.6581,-0.006083,0.008077,-0.043553,0.004697,-0.010483,0.052447,-0.028314,-0.501528,-0.043038,-0.610507,-264.545518,1.680826,62.280294
2.6778,-0.005896,0.008324,-0.042966,0.004368,-0.00975,0.04878,-0.028299,-0.501477,-0.043331,-0.610507,-264.545518,1.680826,62.280294
2.6978,-0.006162,0.008365,-0.042168,0.004008,-0.008945,0.044755,-0.028299,-0.501477,-0.043331,-0.610507,-264.545518,1.680826,62.280294
2.7179,-0.006184,0.00816,-0.043456,0.003616,-0.008071,0.040381,-0.027662,-0.501182,-0.042168,-0.535611,-264.545517,1.680826,62.280292
2.738,-0.006009,0.008241,-0.04298,0.003194,-0.007128,0.035665,-0.027706,-0.501193,-0.042253,-0.535611,-264.545517,1.680826,62.280292
2.7578,-0.00616,0.008504,-0.043253,0.00274,-0.006115,0.030593,-0.027922,-0.501288,-0.04298,-0.4606,-264.545516,1.680826,62.280291
2.7778,-0.006007,0.008278,-0.042888,0.002256,-0.005034,0.025186,-0.028089,-0.501134,-0.043136,-0.4606,-264.545516,1.680826,62.280291
2.7981,-0.006274,0.008396,-0.041592,0.001738,-0.00388,0.019411,-0.028089,-0.501134,-0.043136,-0.4606,-264.545516,1.680826,62.280291
2.8178,-0.006116,0.008485,-0.043925,0.00119,-0.002656,0.013288,-0.02748,-0.501163,-0.041592,-0.385484,-264.545515,1.680826,62.28029
2.8381,-0.006314,0.00844,-0.042899,0.000611,-0.001364,0.006823,-0.027553,-0.501153,-0.041756,-0.385484,-264.545515,1.680826,62.28029
2.8578,-0.006164,0.008555,-0.043566,0.0,0.0,0.0,-0.028186,-0.501091,-0.042899,-0.310501,-264.545515,1.680826,62.280289
2.8779,-0.006245,0.008248,-0.043245,0.0,0.0,0.0,-0.028294,-0.501017,-0.043278,-0.310501,-264.545515,1.680826,62.280289
2.898,-0.005823,0.008265,-0.043779,0.0,0.0,0.0,-0.028294,-0.501017,-0.043278,-0.310501,-264.545515,1.680826,62.280289
2.9181,-0.00571,0.008166,-0.042626,0.0,0.0,0.0,-0.028143,-0.501246,-0.043779,-0.235474,-264.545515,1.680826,62.280289
2.9377,-0.006208,0.008221,-0.041039,0.0,0.0,0.0,-0.028092,-0.501255,-0.043695,-0.235474,-264.545515,1.680826,62.280289
2.9583,-0.006306,0.008027,-0.042833,0.0,0.0,0.0,-0.027132,-0.50135,-0.041039,-0.235474,-264.545515,1.680826,62.280289
2.978,-0.006166,0.008432,-0.043474,0.0,0.0,0.0,-0.027708,-0.501438,-0.04206,-0.235474,-264.545515,1.680826,62.280289
2.9979,-0.005931,0.008225,-0.042394,0.0,0.0,0.0,-0.027708,-0.501438,-0.04206,-0.235474,-264.545515,1.680826,62.280289
3.0185,-0.006286,0.008762,-0.041894,0.0,0.0,0.0,-0.027545,-0.501317,-0.042394,-0.235474,-264.545515,1.680826,62.280289
3.0384,-0.005882,0.00805,-0.044179,0.0,0.0,0.0,-0.027553,-0.501278,-0.042358,-0.235474,-264.545515,1.680826,62.280289
3.058,-0.006404,0.008344,-0.044243,0.0,0.0,0.0,-0.028406,-0.501453,-0.044179,-0.235474,-264.545515,1.680826,62.280289
3.0781,-0.006605,0.008076,-0.043153,0.0,0.0,0.0,-0.028722,-0.501284,-0.044216,-0.235474,-264.545515,1.680826,62.280289
3.0983,-0.00598,0.008056,-0.042626,6.7e-05,-7.5e-05,0.0,-0.028722,-0.501284,-0.044216,-0.235474,-264.545515,1.680826,62.280289
3.1185,-0.006144,0.008003,-0.041789,6.7e-05,-7.5e-05,0.0,-0.027713,-0.501481,-0.042626,-0.235474,-264.545515,1.680826,62.280289
3.139,-0.006149,0.008072,-0.043241,6.7e-05,-7.5e-05,0.0,-0.027695,-0.501486,-0.04257,-0.235474,-264.545515,1.680826,62.280289
3.1579,-0.006299,0.008333,-0.041407,6.7e-05,-7.5e-05,0.0,-0.028195,-0.501451,-0.043241,-0.310421,-264.545515,1.605879,62.280289
3.1777,-0.006444,0.008355,-0.042361,6.7e-05,-7.5e-05,0.0,-0.027755,-0.501327,-0.042212,-0.310421,-264.545515,1.605879,62.280289
3.1976,-0.006205,0.008485,-0.042235,6.7e-05,-7.5e-05,0.0,-0.027755,-0.501327,-0.042212,-0.310421,-264.545515,1.605879,62.280289
3.2182,-0.005955,0.008204,-0.04362,6.7e-05,-7.5e-05,0.0,-0.027739,-0.50106,-0.042235,-0.385418,-264.545515,1.530882,62.280289
3.2378,-0.006398,0.008216,-0.0434,6.7e-05,-7.5e-05,0.0,-0.02777,-0.501078,-0.042331,-0.385418,-264.545515,1.530882,62.280289
3.258,-0.006395,0.00816,-0.043041,6.7e-05,-7.5e-05,0.0,-0.028525,-0.501304,-0.0434,-0.460426,-264.545515,1.455875,62.280289
3.2779,-0.006501,0.00816,-0.042489,6.7e-05,-7.5e-05,0.0,-0.028419,-0.50134,-0.043196,-0.460426,-264.545515,1.455875,62.280289
3.2981,-0.006373,0.007896,-0.04304,2e-06,-2e-06,1.2e-05,-0.028419,-0.50134,-0.043196,-0.460426,-264.545515,1.455875,62.280289
3.3179,-0.006401,0.008154,-0.044603,0.001017,-0.00114,0.006318,-0.028317,-0.501632,-0.04304,-0.53543,-264.545515,1.38087,62.280289
3.3386,-0.00611,0.008164,-0.04237,0.001981,-0.00222,0.012307,-0.028374,-0.501611,-0.043148,-0.53543,-264.545515,1.38087,62.280289
3.3583,-0.006045,0.008355,-0.043526,0.002894,-0.003242,0.017976,-0.027712,-0.501378,-0.04237,-0.46043,-264.545515,1.305869,62.280289
3.378,-0.006054,0.008548,-0.04235,0.003757,-0.004209,0.023332,-0.028006,-0.501257,-0.043018,-0.46043,-264.545515,1.305869,62.280289
3.3984,-0.006397,0.007949,-0.043865,0.00456,-0.005109,0.028325,-0.028006,-0.501257,-0.043018,-0.46043,-264.545515,1.305869,62.280289
3.4177,-0.006395,0.007961,-0.042829,0.005316,-0.005956,0.033021,-0.028761,-0.50156,-0.043865,-0.385429,-264.545515,1.230869,62.280289
3.4383,-0.006028,0.008231,-0.043342,0.00602,-0.006744,0.037388,-0.028733,-0.501561,-0.043811,-0.385429,-264.545515,1.230869,62.280289
3.4583,-0.006638,0.00839,-0.041793,0.006671,-0.007473,0.041433,-0.028125,-0.50129,-0.043342,-0.310425,-264.545515,1.155865,62.280289
3.478,-0.006371,0.008638,-0.043199,0.007269,-0.008144,0.04515,-0.028023,-0.501219,-0.042457,-0.310425,-264.545515,1.155865,62.280289
3.4981,-0.006155,0.008474,-0.042717,0.007818,-0.008759,0.048557,-0.028023,-0.501219,-0.042457,-0.310425,-264.545515,1.155865,62.280289
3.518,-0.006147,0.008204,-0.041133,0.008312,-0.009312,0.051625,-0.027934,-0.501061,-0.042717,-0.2353,-264.545515,1.08074,62.280289
3.538,-0.006548,0.008456,-0.041891,0.008754,-0.009808,0.054373,-0.027878,-0.501082,-0.042607,-0.2353,-264.545515,1.08074,62.280289
3.5586,-0.00597,0.008338,-0.042653,0.009145,-0.010246,0.056804,-0.027907,-0.501097,-0.041891,-0.160439,-264.545515,1.005878,62.280289
3.5785,-0.006095,0.008292,-0.041577,0.009484,-0.010625,0.058905,-0.027799,-0.501154,-0.042321,-0.160439,-264.545515,1.005878,62.280289
3.5978,-0.00628,0.008162,-0.041942,0.009771,-0.010947,0.060687,-0.027799,-0.501154,-0.042321,-0.160439,-264.545515,1.005878,62.280289
3.6178,-0.006197,0.008066,-0.043783,0.010005,-0.011209,0.062142,-0.027664,-0.50139,-0.041942,-0.085436,-264.545515,0.930875,62.280289
3.6383,-0.006294,0.008384,-0.043293,0.010187,-0.011413,0.063274,-0.027723,-0.501394,-0.042069,-0.085436,-264.545515,0.930875,62.280289
3.6583,-0.006487,0.008092,-0.042434,0.01032,-0.011562,0.064099,-0.028367,-0.501138,-0.043293,-0.010429,-264.545515,0.855868,62.280289
3.6783,-0.006238,0.008387,-0.044088,0.010395,-0.011646,0.064568,-0.028228,-0.501314,-0.042807,-0.010429,-264.545515,0.855868,62.280289
3.6982,-0.006171,0.007838,-0.042517,0.010421,-0.011676,0.064729,-0.028228,-0.501314,-0.042807,-0.010429,-264.545515,0.855868,62.280289
3.7179,-0.006064,0.008174,-0.0424,0.010395,-0.011646,0.064567,-0.027848,-0.501701,-0.042517,0.064572,-264.545515,0.780868,62.280289
3.7384,-0.006207,0.00843,-0.04359,0.010317,-0.011559,0.064082,-0.027837,-0.501679,-0.042509,0.064572,-264.545515,0.780868,62.280289
3.7578,-0.006087,0.00823,-0.044534,0.010187,-0.011413,0.063271,-0.028431,-0.501085,-0.04359,0.139573,-264.545515,0.705867,62.280289
3.7777,-0.006041,0.008731,-0.042691,0.010003,-0.011207,0.062133,-0.028637,-0.501187,-0.044128,0.139573,-264.545515,0.705867,62.280289
3.7977,-0.006285,0.007777,-0.041871,0.00977,-0.010946,0.060684,-0.028637,-0.501187,-0.044128,0.139573,-264.545515,0.705867,62.280289
3.8178,-0.006472,0.008405,-0.0424,0.009483,-0.010624,0.058902,-0.027633,-0.501776,-0.041871,0.214561,-264.545515,0.630878,62.280289
3.8377,-0.006038,0.008233,-0.043298,0.009145,-0.010245,0.0568,-0.027664,-0.501731,-0.041908,0.214561,-264.545515,0.630878,62.280289
3.8584,-0.006275,0.008364,-0.042668,0.008752,-0.009805,0.054358,-0.028113,-0.501289,-0.043298,0.289562,-264.545515,0.555877,62.280289
3.8779,-0.006341,0.008441,-0.04278,0.008308,-0.009308,0.051601,-0.028065,-0.501222,-0.042937,0.289562,-264.545515,0.555877,62.280289
3.8978,-0.006277,0.008356,-0.044001,0.007813,-0.008753,0.048528,-0.028065,-0.501222,-0.042937,0.289562,-264.545515,0.555877,62.280289
3.9178,-0.006331,0.008139,-0.042306,0.007268,-0.008142,0.045141,-0.02871,-0.501151,-0.044001,0.364726,-264.545515,0.480713,62.280289
3.9382,-0.006214,0.008542,-0.043135,0.006669,-0.007472,0.041424,-0.028654,-0.501168,-0.043884,0.364726,-264.545515,0.480713,62.280289
3.9578,-0.006482,0.008539,-0.041109,0.006017,-0.006741,0.037373,-0.028205,-0.500984,-0.043135,0.439578,-264.545515,0.405861,62.280289
3.9778,-0.006247,0.008209,-0.043115,0.005308,-0.005947,0.032968,-0.027768,-0.50101,-0.041974,0.439578,-264.545515,0.405861,62.280289
3.998,-0.00632,0.00816,-0.042672,0.004549,-0.005097,0.028256,-0.027768,-0.50101,-0.041974,0.439578,-264.545515,0.405861,62.280289
4.0178,-0.006228,0.00814,-0.042391,0.003746,-0.004197,0.023268,-0.028076,-0.501375,-0.042672,0.514699,-264.545515,0.330741,62.280289
4.0379,-0.00608,0.00811,-0.041814,0.002892,-0.00324,0.017961,-0.028057,-0.501378,-0.04265,0.514699,-264.545515,0.330741,62.280289
4.0578,-0.006073,0.008511,-0.042855,0.001978,-0.002216,0.012287,-0.027399,-0.501444,-0.041814,0.590036,-264.545515,0.255403,62.280289
4.0779,-0.005934,0.008301,-0.042158,0.001016,-0.001138,0.00631,-0.0277,-0.501201,-0.042411,0.590036,-264.545515,0.255403,62.280289
4.0978,-0.006686,0.008208,-0.042491,0.0,0.0,0.0,-0.0277,-0.501201,-0.042411,0.590036,-264.545515,0.255403,62.280289
4.1179,-0.006055,0.00842,-0.042943,0.0,0.0,0.0,-0.02835,-0.501331,-0.042491,0.664708,-264.545515,0.180732,62.280289
4.1377,-0.005903,0.007898,-0.042257,0.0,0.0,0.0,-0.02832,-0.501315,-0.042526,0.664708,-264.545515,0.180732,62.280289
4.1584,-0.006353,0.00816,-0.043474,0.0,0.0,0.0,-0.027448,-0.501647,-0.042257,0.664708,-264.545515,0.180732,62.280289
4.1781,-0.006373,0.008358,-0.04293,0.0,0.0,0.0,-0.028058,-0.501482,-0.042951,0.664708,-264.545515,0.180732,62.280289
4.1978,-0.006299,0.007931,-0.042134,0.0,0.0,0.0,-0.028058,-0.501482,-0.042951,0.664708,-264.545515,0.180732,62.280289
4.2183,-0.00624,0.008066,-0.042914,0.0,0.0,0.0,-0.027781,-0.501616,-0.042134,0.664708,-264.545515,0.180732,62.280289
4.2378,-0.006042,0.008432,-0.043181,0.0,0.0,0.0,-0.027803,-0.501607,-0.042184,0.664708,-264.545515,0.180732,62.280289
4.2577,-0.006128,0.008142,-0.041751,0.0,0.0,0.0,-0.028058,-0.501092,-0.043181,0.664708,-264.545515,0.180732,62.280289
4.2782,-0.005928,0.007943,-0.042249,0.0,0.0,0.0,-0.027687,-0.501277,-0.042358,0.664708,-264.545515,0.180732,62.280289
4.2985,-0.006419,0.008134,-0.044591,0.0,0.0,0.0,-0.027687,-0.501277,-0.042358,0.664708,-264.545515,0.180732,62.280289
4.3179,-0.006159,0.008295,-0.042495,6.5e-05,-7.6e-05,0.0,-0.029153,-0.501359,-0.044591,0.664708,-264.545515,0.180732,62.280289
4.3382,-0.00637,0.008172,-0.042397,6.5e-05,-7.6e-05,0.0,-0.029068,-0.501352,-0.044457,0.664708,-264.545515,0.180732,62.280289
4.3578,-0.006059,0.007689,-0.041593,6.5e-05,-7.6e-05,0.0,-0.027985,-0.501369,-0.042397,0.664708,-264.545515,0.180732,62.280289
4.3782,-0.006047,0.008459,-0.04308,6.5e-05,-7.6e-05,0.0,-0.027576,-0.501654,-0.04194,0.664708,-264.545515,0.180732,62.280289
4.3991,-0.006249,0.008354,-0.04236,6.5e-05,-7.6e-05,0.0,-0.027576,-0.501654,-0.04194,0.664708,-264.545515,0.180732,62.280289
4.4179,-0.005651,0.008019,-0.042042,6.5e-05,-7.6e-05,0.0,-0.027846,-0.501189,-0.04236,0.589733,-264.545515,0.105758,62.280289
4.4378,-0.006234,0.008586,-0.042947,6.5e-05,-7.6e-05,0.0,-0.027794,-0.501212,-0.042338,0.589733,-264.545515,0.105758,62.280289
4.458,-0.005743,0.008326,-0.042639,6.5e-05,-7.6e-05,0.0,-0.02813,-0.500943,-0.042947,0.514719,-264.545515,0.030743,62.280289
4.4778,-0.006056,0.008197,-0.042588,6.5e-05,-7.6e-05,0.0,-0.027761,-0.501095,-0.042772,0.514719,-264.545515,0.030743,62.280289
4.4978,-0.006114,0.008244,-0.043966,6.5e-05,-7.6e-05,0.0,-0.027761,-0.501095,-0.042772,0.514719,-264.545515,0.030743,62.280289
4.5183,-0.006301,0.008243,-0.043395,6.5e-05,-7.6e-05,0.0,-0.028529,-0.501263,-0.043966,0.439721,-264.545515,-0.044255,62.280289
4.5383,-0.006111,0.008052,-0.041998,0.00099,-0.001145,0.006514,-0.028522,-0.501264,-0.043927,0.439721,-264.545515,-0.044255,62.280289
4.5578,-0.006571,0.008201,-0.041548,0.001925,-0.002228,0.012671,-0.027524,-0.501498,-0.041998,0.364719,-264.545515,-0.119257,62.280289
4.5778,-0.006244,0.008133,-0.042883,0.002818,-0.00326,0.018545,-0.027655,-0.501419,-0.041742,0.364719,-264.545515,-0.119257,62.280289
4.5978,-0.006304,0.008713,-0.042473,0.003653,-0.004227,0.024043,-0.027655,-0.501419,-0.041742,0.364719,-264.545515,-0.119257,62.280289
4.6181,-0.006201,0.008294,-0.043338,0.004441,-0.005139,0.029231,-0.027959,-0.500828,-0.042473,0.439714,-264.545515,-0.194252,62.280289
4.6382,-0.00635,0.008384,-0.043048,0.005178,-0.005992,0.034079,-0.027981,-0.500854,-0.04253,0.439714,-264.545515,-0.194252,62.280289
4.6582,-0.005619,0.008538,-0.041849,0.005865,-0.006786,0.038598,-0.028297,-0.501143,-0.043048,0.514708,-264.545515,-0.269247,62.280289
4.6779,-0.006419,0.008177,-0.043606,0.006501,-0.007522,0.042784,-0.027529,-0.50107,-0.042362,0.514708,-264.545515,-0.269247,62.280289
4.6978,-0.005835,0.008173,-0.043132,0.007085,-0.008198,0.046629,-0.027529,-0.50107,-0.042362,0.514708,-264.545515,-0.269247,62.280289
4.7177,-0.006331,0.008217,-0.043371,0.007619,-0.008816,0.050144,-0.027826,-0.501352,-0.043132,0.589795,-264.545515,-0.344333,62.280289
4.7377,-0.006421,0.007827,-0.042959,0.008101,-0.009374,0.053319,-0.027867,-0.501349,-0.043148,0.589795,-264.545515,-0.344333,62.280289
4.7577,-0.005745,0.008137,-0.043072,0.008534,-0.009875,0.056167,-0.028323,-0.501703,-0.042959,0.66471,-264.545515,-0.419248,62.280289
4.7778,-0.006289,0.008339,-0.043476,0.008915,-0.010316,0.058677,-0.027972,-0.501525,-0.043024,0.66471,-264.545515,-0.419248,62.280289
4.7978,-0.006178,0.008639,-0.043444,0.009247,-0.010699,0.060856,-0.027972,-0.501525,-0.043024,0.66471,-264.545515,-0.419248,62.280289
4.818,-0.006141,0.008226,-0.042584,0.009526,-0.011023,0.062695,-0.028328,-0.50088,-0.043444,0.739709,-264.545515,-0.494247,62.280289
4.8378,-0.005972,0.008188,-0.042728,0.009755,-0.011288,0.064202,-0.028295,-0.50091,-0.043384,0.739709,-264.545515,-0.494247,62.280289
4.8577,-0.006096,0.008188,-0.042979,0.009933,-0.011494,0.065374,-0.027757,-0.501347,-0.042728,0.814713,-264.545515,-0.569251,62.280289
4.8782,-0.006155,0.007897,-0.042717,0.010061,-0.011642,0.066216,-0.0279,-0.501343,-0.042871,0.814713,-264.545515,-0.569251,62.280289
4.8981,-0.006434,0.00828,-0.042626,0.010137,-0.01173,0.066717,-0.0279,-0.501343,-0.042871,0.814713,-264.545515,-0.569251,62.280289
4.9178,-0.005975,0.008084,-0.042881,0.010163,-0.01176,0.066886,-0.028167,-0.501257,-0.042626,0.889707,-264.545515,-0.644245,62.280289
4.9385,-0.00626,0.008327,-0.042756,0.010138,-0.011731,0.066721,-0.028144,-0.50127,-0.042644,0.889707,-264.545515,-0.644245,62.280289
4.9578,-0.0065,0.008374,-0.043642,0.010061,-0.011642,0.066217,-0.028059,-0.501207,-0.042756,0.964841,-264.545515,-0.719379,62.28029
4.9781,-0.006324,0.008362,-0.041903,0.009935,-0.011496,0.065384,-0.02845,-0.501169,-0.043257,0.964841,-264.545515,-0.719379,62.28029
4.998,-0.006075,0.008296,-0.044047,0.009757,-0.01129,0.064216,-0.02845,-0.501169,-0.043257,0.964841,-264.545515,-0.719379,62.28029
5.0182,-0.006179,0.008188,-0.043407,0.009529,-0.011026,0.062712,-0.028532,-0.50121,-0.044047,1.039733,-264.545512,-0.794271,62.280294
5.0385,-0.006125,0.008043,-0.043096,0.00925,-0.010703,0.060876,-0.028517,-0.501218,-0.044004,1.039733,-264.545512,-0.794271,62.280294
5.0581,-0.006122,0.008272,-0.044243,0.00892,-0.010321,0.058704,-0.028096,-0.501484,-0.043093,1.114725,-264.545493,-0.869263,62.280327
5.0783,-0.006541,0.007895,-0.044158,0.008538,-0.00988,0.056193,-0.028426,-0.501339,-0.043744,1.114725,-264.545493,-0.869263,62.280327
5.0979,-0.006364,0.008073,-0.041288,0.008106,-0.009379,0.053347,-0.028426,-0.501339,-0.043744,1.114725,-264.545493,-0.869263,62.280327
5.1182,-0.00624,0.008145,-0.045549,0.007624,-0.008822,0.050176,-0.027405,-0.501496,-0.041261,1.189726,-264.545379,-0.944264,62.280525
5.138,-0.006054,0.008497,-0.042484,0.007092,-0.008206,0.046673,-0.027545,-0.501484,-0.041553,1.189726,-264.545379,-0.944264,62.280525
5.1586,-0.006395,0.008434,-0.043579,0.006504,-0.007526,0.042804,-0.02769,-0.501054,-0.042405,1.234707,-264.544962,-1.019304,62.281251
5.1784,-0.006301,0.007906,-0.042507,0.005872,-0.006795,0.038649,-0.02823,-0.501072,-0.043086,1.234707,-264.544962,-1.019304,62.281251
5.1982,-0.006073,0.008146,-0.0416,0.005186,-0.006,0.034129,-0.02823,-0.501072,-0.043086,1.234707,-264.544962,-1.019304,62.281251
5.2182,-0.006007,0.008171,-0.043745,0.004451,-0.00515,0.029295,-0.027215,-0.501453,-0.041349,1.234707,-264.543951,-1.095253,62.283008
5.2383,-0.006353,0.008174,-0.042363,0.003656,-0.004231,0.024065,-0.027274,-0.501448,-0.041475,1.234707,-264.543951,-1.095253,62.283008
5.2578,-0.006587,0.008382,-0.042005,0.002823,-0.003267,0.018581,-0.027871,-0.501426,-0.042023,1.234707,-264.542263,-1.169257,62.285944
5.278,-0.006527,0.008175,-0.041612,0.001929,-0.002232,0.012694,-0.027937,-0.501286,-0.04197,1.234707,-264.542263,-1.169257,62.285944
5.2979,-0.006443,0.008153,-0.041262,0.000997,-0.001153,0.006559,-0.027937,-0.501286,-0.04197,1.234707,-264.542263,-1.169257,62.285944
5.3179,-0.00677,0.008231,-0.042274,4e-06,-4e-06,2.5e-05,-0.027368,-0.50151,-0.040703,1.234707,-264.540084,-1.244319,62.289733
5.3383,-0.006502,0.007905,-0.042079,0.0,0.0,0.0,-0.02744,-0.501497,-0.040811,1.234707,-264.540084,-1.244319,62.289733
5.3587,-0.006673,0.007689,-0.040504,0.0,0.0,0.0,-0.027924,-0.501677,-0.041893,1.234707,-264.53919,-1.319688,62.291288
5.378,-0.00705,0.007799,-0.04092,0.0,0.0,0.0,-0.02758,-0.501804,-0.04108,1.234707,-264.53919,-1.319688,62.291288
5.398,-0.006838,0.007774,-0.040514,0.0,0.0,0.0,-0.02758,-0.501804,-0.04108,1.234707,-264.53919,-1.319688,62.291288
5.4183,-0.006935,0.008107,-0.041411,0.0,0.0,0.0,-0.027495,-0.501807,-0.040514,1.234707,-264.53919,-1.319688,62.291288
5.438,-0.006946,0.008485,-0.039991,0.0,0.0,0.0,-0.027542,-0.501777,-0.04059,1.234707,-264.53919,-1.319688,62.291288
5.4584,-0.00676,0.008247,-0.041859,0.0,0.0,0.0,-0.027336,-0.501107,-0.039991,1.234707,-264.53919,-1.319688,62.291288
5.4787,-0.006616,0.00795,-0.039825,0.0,0.0,0.0,-0.027768,-0.501219,-0.041044,1.234707,-264.53919,-1.319688,62.291288
5.4983,-0.00677,0.007747,-0.040237,0.0,0.0,0.0,-0.027768,-0.501219,-0.041044,1.234707,-264.53919,-1.319688,62.291288
5.518,-0.006778,0.00796,-0.04068,0.0,0.0,0.0,-0.027285,-0.501841,-0.040237,1.234707,-264.53919,-1.319688,62.291288
5.5383,-0.006703,0.007639,-0.040318,6.8e-05,-7.3e-05,0.0,-0.0273,-0.501827,-0.040265,1.234707,-264.53919,-1.319688,62.291288
5.5579,-0.006851,0.008369,-0.040743,6.8e-05,-7.3e-05,0.0,-0.02726,-0.501947,-0.040318,1.234707,-264.53919,-1.319688,62.291288
5.5781,-0.006895,0.007884,-0.041998,6.8e-05,-7.3e-05,0.0,-0.027464,-0.501532,-0.040556,1.234707,-264.53919,-1.319688,62.291288
5.5981,-0.006547,0.008411,-0.042045,6.8e-05,-7.3e-05,0.0,-0.027464,-0.501532,-0.040556,1.234707,-264.53919,-1.319688,62.291288
5.6182,-0.006911,0.00829,-0.041633,6.8e-05,-7.3e-05,0.0,-0.027983,-0.501138,-0.042045,1.159685,-264.53919,-1.244667,62.291288
5.6383,-0.00652,0.007758,-0.041318,6.8e-05,-7.3e-05,0.0,-0.027994,-0.501147,-0.042017,1.159685,-264.53919,-1.244667,62.291288
5.6582,-0.006769,0.007851,-0.04053,6.8e-05,-7.3e-05,0.0,-0.027587,-0.501807,-0.041318,1.084587,-264.53919,-1.169569,62.291288
5.6781,-0.006567,0.007854,-0.040435,6.8e-05,-7.3e-05,0.0,-0.0275,-0.501763,-0.040872,1.084587,-264.53919,-1.169569,62.291288
5.6984,-0.006514,0.008077,-0.040011,6.8e-05,-7.3e-05,0.0,-0.0275,-0.501763,-0.040872,1.084587,-264.53919,-1.169569,62.291288
5.7183,-0.006846,0.007824,-0.042238,6.8e-05,-7.3e-05,0.0,-0.026914,-0.501515,-0.040011,1.009714,-264.53919,-1.094696,62.291288
5.7383,-0.006644,0.007977,-0.041913,9e-06,-1e-05,5.3e-05,-0.027007,-0.501528,-0.040151,1.009714,-264.53919,-1.094696,62.291288
5.7583,-0.006403,0.007684,-0.040823,0.001039,-0.001125,0.005958,-0.028014,-0.501575,-0.041913,0.934709,-264.53919,-1.019691,62.291288
5.7777,-0.006602,0.007871,-0.041757,0.002023,-0.002189,0.011601,-0.027562,-0.501754,-0.041295,0.934709,-264.53919,-1.019691,62.291288
5.7982,-0.006555,0.007932,-0.041248,0.002959,-0.003202,0.016965,-0.027562,-0.501754,-0.041295,0.934709,-264.53919,-1.019691,62.291288
5.8181,-0.006689,0.008029,-0.042206,0.003835,-0.00415,0.021986,-0.027586,-0.501635,-0.041248,1.009714,-264.539189,-1.094696,62.291289
5.8384,-0.006503,0.007794,-0.042941,0.004658,-0.00504,0.026704,-0.027619,-0.501628,-0.0413,1.009714,-264.539189,-1.094696,62.291289
5.8583,-0.006613,0.007861,-0.042789,0.005433,-0.005879,0.031148,-0.028361,-0.501762,-0.042811,1.084706,-264.538541,-1.169687,62.292449
5.8781,-0.00686,0.007879,-0.040207,0.006151,-0.006655,0.035263,-0.028395,-0.501714,-0.042782,1.084706,-264.538541,-1.169687,62.292449
5.8978,-0.007001,0.007833,-0.040437,0.006816,-0.007375,0.039078,-0.028395,-0.501714,-0.042782,1.084706,-264.538541,-1.169687,62.292449
5.9183,-0.006824,0.008007,-0.041244,0.007425,-0.008034,0.042566,-0.027491,-0.501831,-0.039871,1.159713,-264.536122,-1.244694,62.29611
5.9383,-0.006977,0.00845,-0.039877,0.007984,-0.008639,0.045771,-0.027513,-0.501815,-0.039949,1.159713,-264.536122,-1.244694,62.29611
5.9581,-0.007337,0.008024,-0.038535,0.008491,-0.009187,0.048677,-0.027146,-0.50122,-0.039044,1.17886,-264.531202,-1.319686,62.30227
5.978,-0.006983,0.007818,-0.041499,0.008941,-0.009675,0.051259,-0.027034,-0.501443,-0.03865,1.17886,-264.531202,-1.319686,62.30227
5.9988,-0.007406,0.00754,-0.040413,0.00934,-0.010107,0.05355,-0.027034,-0.501443,-0.03865,1.17886,-264.531202,-1.319686,62.30227
6.0182,-0.007403,0.007925,-0.038884,0.009686,-0.010481,0.05553,-0.027728,-0.502153,-0.038871,1.17886,-264.523781,-1.35599,62.310931
6.039,-0.007887,0.007495,-0.039164,0.009978,-0.010797,0.057206,-0.027703,-0.502136,-0.038847,1.17886,-264.523781,-1.35599,62.310931
6.0583,-0.008356,0.007788,-0.03742,0.010218,-0.011056,0.058579,-0.027559,-0.502216,-0.037563,1.17886,-264.514001,-1.35599,62.322091
6.078,-0.008175,0.007731,-0.036831,0.010405,-0.011259,0.059653,-0.027454,-0.502028,-0.037288,1.17886,-264.514001,-1.35599,62.322091
6.0983,-0.007997,0.00814,-0.035739,0.010537,-0.011402,0.06041,-0.027454,-0.502028,-0.037288,1.17886,-264.514001,-1.35599,62.322091
6.1183,-0.009055,0.007441,-0.031424,0.010617,-0.011489,0.060871,-0.025809,-0.501773,-0.033449,1.17886,-264.503551,-1.35599,62.335753
6.138,-0.0091,0.007324,-0.034018,0.010643,-0.011517,0.06102,-0.025748,-0.501816,-0.033253,1.17886,-264.503551,-1.35599,62.335753
6.1581,-0.010215,0.006922,-0.030286,0.010616,-0.011487,0.06086,-0.026085,-0.502663,-0.031962,1.17886,-264.492518,-1.35599,62.351912
6.1779,-0.009933,0.00734,-0.030509,0.010536,-0.011401,0.060407,-0.025798,-0.502802,-0.030752,1.17886,-264.492518,-1.35599,62.351912
6.1984,-0.010269,0.007289,-0.032011,0.010404,-0.011257,0.059645,-0.025798,-0.502802,-0.030752,1.17886,-264.492518,-1.35599,62.351912
6.2183,-0.010894,0.005879,-0.027349,0.010217,-0.011056,0.058578,-0.026104,-0.502949,-0.029161,1.17886,-264.481372,-1.35599,62.370572
6.2378,-0.010946,0.006861,-0.028717,0.009978,-0.010796,0.057203,-0.026018,-0.503018,-0.028988,1.17886,-264.481372,-1.35599,62.370572
6.2579,-0.012254,0.0066,-0.027819,0.00968,-0.010474,0.055494,-0.025199,-0.503375,-0.02641,1.17886,-264.470318,-1.35599,62.390382
6.2789,-0.012237,0.006149,-0.024953,0.00934,-0.010106,0.053545,-0.025897,-0.503327,-0.02697,1.17886,-264.470318,-1.35599,62.390382
6.298,-0.011799,0.005973,-0.024602,0.00893,-0.009663,0.051199,-0.025897,-0.503327,-0.02697,1.17886,-264.470318,-1.35599,62.390382
6.3177,-0.012996,0.005272,-0.022486,0.008487,-0.009184,0.048658,-0.023877,-0.504403,-0.021849,1.17886,-264.460021,-1.35599,62.408833
6.3377,-0.013005,0.005495,-0.021244,0.007982,-0.008637,0.045763,-0.0239,-0.504426,-0.021824,1.17886,-264.460021,-1.35599,62.408833
6.3577,-0.014395,0.005429,-0.01865,0.007423,-0.008032,0.042556,-0.023501,-0.50477,-0.019267,1.17886,-264.45064,-1.35599,62.425645
6.3778,-0.014161,0.004642,-0.02165,0.006808,-0.007367,0.039032,-0.023693,-0.504652,-0.018661,1.17886,-264.45064,-1.35599,62.425645
6.398,-0.014164,0.004905,-0.02012,0.006148,-0.006652,0.035244,-0.023693,-0.504652,-0.018661,1.17886,-264.45064,-1.35599,62.425645
6.4178,-0.01447,0.004441,-0.016447,0.005429,-0.005874,0.031125,-0.024046,-0.505417,-0.017902,1.17886,-264.442295,-1.35599,62.440599
6.4379,-0.014379,0.004667,-0.017652,0.004656,-0.005038,0.026691,-0.023949,-0.505434,-0.017735,1.17886,-264.442295,-1.35599,62.440599
6.458,-0.015235,0.004061,-0.014717,0.003831,-0.004145,0.021962,-0.023148,-0.505514,-0.016291,1.17886,-264.435808,-1.35599,62.452223
6.478,-0.015728,0.004222,-0.01569,0.002954,-0.003197,0.016938,-0.022878,-0.505765,-0.015192,1.17886,-264.435808,-1.35599,62.452223
6.4979,-0.015426,0.00401,-0.014099,0.002023,-0.002189,0.0116,-0.022878,-0.505765,-0.015192,1.17886,-264.435808,-1.35599,62.452223
6.5179,-0.015759,0.004093,-0.013726,0.001035,-0.00112,0.005932,-0.022396,-0.506185,-0.012814,1.17886,-264.430973,-1.35599,62.460888
6.5378,-0.015502,0.003877,-0.013467,1e-06,-1e-06,7e-06,-0.022415,-0.506168,-0.012843,1.17886,-264.430973,-1.35599,62.460888
6.5579,-0.016033,0.003933,-0.01404,0.0,0.0,0.0,-0.022293,-0.506162,-0.013019,1.17886,-264.428853,-1.35599,62.464687
6.5779,-0.016197,0.004565,-0.013634,0.0,0.0,0.0,-0.022798,-0.50609,-0.013546,1.17886,-264.428853,-1.35599,62.464687
6.5985,-0.015809,0.004179,-0.011925,0.0,0.0,0.0,-0.022798,-0.50609,-0.013546,1.17886,-264.428853,-1.35599,62.464687
6.6189,-0.015824,0.003902,-0.013547,0.0,0.0,0.0,-0.021891,-0.505785,-0.011925,1.17886,-264.428852,-1.35599,62.464689
6.6385,-0.015729,0.003787,-0.014445,0.0,0.0,0.0,-0.021948,-0.505803,-0.012035,1.17886,-264.428852,-1.35599,62.464689
6.6577,-0.01599,0.003934,-0.013161,0.0,0.0,0.0,-0.023096,-0.50616,-0.014445,1.17886,-264.428852,-1.35599,62.464689
6.6778,-0.015999,0.003715,-0.012846,0.0,0.0,0.0,-0.022874,-0.506082,-0.013721,1.17886,-264.428852,-1.35599,62.464689
6.6978,-0.015701,0.003529,-0.011935,0.0,0.0,0.0,-0.022874,-0.506082,-0.013721,1.17886,-264.428852,-1.35599,62.464689
6.7179,-0.015712,0.003981,-0.01372,0.0,0.0,0.0,-0.021788,-0.506435,-0.011935,1.17886,-264.428852,-1.35599,62.464689
6.7383,-0.015892,0.004046,-0.012657,0.0,0.0,0.0,-0.021855,-0.506401,-0.012066,1.17886,-264.428852,-1.35599,62.464689
6.758,-0.015653,0.004258,-0.014628,0.0,0.0,0.0,-0.022346,-0.505913,-0.012657,1.17886,-264.428852,-1.35599,62.464689
6.7779,-0.015595,0.00414,-0.01271,9.7e-05,-2.5e-05,0.0,-0.022783,-0.505784,-0.01378,1.17886,-264.428852,-1.35599,62.464689
6.7979,-0.015943,0.004178,-0.012682,9.7e-05,-2.5e-05,0.0,-0.022783,-0.505784,-0.01378,1.17886,-264.428852,-1.35599,62.464689
6.8178,-0.015778,0.00422,-0.012253,9.7e-05,-2.5e-05,0.0,-0.02241,-0.505781,-0.012682,1.17886,-264.428852,-1.35599,62.464689
6.8383,-0.015712,0.004393,-0.014864,9.7e-05,-2.5e-05,0.0,-0.022381,-0.505778,-0.01265,1.17886,-264.428852,-1.35599,62.464689
6.8578,-0.015883,0.004014,-0.013276,9.7e-05,-2.5e-05,0.0,-0.023292,-0.50555,-0.014864,1.103698,-264.428852,-1.280828,62.464689
6.8776,-0.015719,0.004224,-0.013104,9.7e-05,-2.5e-05,0.0,-0.022929,-0.505772,-0.013961,1.103698,-264.428852,-1.280828,62.464689
6.8979,-0.01591,0.004171,-0.014721,9.7e-05,-2.5e-05,0.0,-0.022929,-0.505772,-0.013961,1.103698,-264.428852,-1.280828,62.464689
6.9187,-0.016169,0.004144,-0.012154,9.7e-05,-2.5e-05,0.0,-0.023418,-0.505774,-0.014721,1.02877,-264.428852,-1.2059,62.464689
6.9386,-0.016395,0.004261,-0.014781,9.7e-05,-2.5e-05,0.0,-0.023308,-0.505778,-0.014453,1.02877,-264.428852,-1.2059,62.464689
6.9579,-0.015638,0.003871,-0.011498,9.7e-05,-2.5e-05,0.0,-0.023933,-0.505684,-0.014781,0.952775,-264.428852,-1.129905,62.464689
6.9785,-0.015815,0.004013,-0.013962,9.7e-05,-2.5e-05,0.0,-0.022547,-0.505918,-0.012909,0.952775,-264.428852,-1.129905,62.464689
6.9979,-0.015492,0.003992,-0.014865,0.002286,-0.000586,0.002128,-0.022547,-0.505918,-0.012909,0.952775,-264.428852,-1.129905,62.464689
7.0178,-0.01569,0.003992,-0.013415,0.004481,-0.001149,0.004171,-0.023073,-0.505951,-0.014865,0.878769,-264.428852,-1.055898,62.464689
7.0382,-0.015556,0.003953,-0.014289,0.00653,-0.001674,0.00608,-0.023037,-0.505952,-0.014768,0.878769,-264.428852,-1.055898,62.464689
7.0577,-0.015768,0.004116,-0.012435,0.008482,-0.002175,0.007897,-0.022843,-0.505995,-0.014289,0.803762,-264.428852,-0.980891,62.464689
7.0777,-0.016113,0.004078,-0.012904,0.010313,-0.002644,0.009601,-0.022424,-0.505909,-0.013229,0.803762,-264.428852,-0.980891,62.464689
7.0977,-0.015891,0.004134,-0.014273,0.012015,-0.003081,0.011185,-0.022424,-0.505909,-0.013229,0.803762,-264.428852,-0.980891,62.464689
7.118,-0.015879,0.004185,-0.012558,0.013604,-0.003488,0.012665,-0.023169,-0.505815,-0.014272,0.728765,-264.428841,-0.905895,62.464702
7.138,-0.015837,0.004081,-0.014416,0.015079,-0.003866,0.014038,-0.023107,-0.505812,-0.014152,0.728765,-264.428841,-0.905895,62.464702
7.1578,-0.015838,0.003776,-0.014124,0.016431,-0.004213,0.015296,-0.02318,-0.505868,-0.014402,0.653862,-264.428723,-0.830992,62.464849
7.1784,-0.015722,0.003582,-0.013755,0.017673,-0.004531,0.016453,-0.0231,-0.506041,-0.014242,0.653862,-264.428723,-0.830992,62.464849
7.1981,-0.016011,0.003995,-0.013728,0.018791,-0.004818,0.017494,-0.0231,-0.506041,-0.014242,0.653862,-264.428723,-0.830992,62.464849
7.2185,-0.015739,0.004301,-0.012811,0.019797,-0.005076,0.01843,-0.022947,-0.505969,-0.013643,0.578863,-264.428112,-0.755993,62.465604
7.238,-0.015637,0.004162,-0.011443,0.02068,-0.005302,0.019252,-0.022906,-0.505951,-0.013591,0.578863,-264.428112,-0.755993,62.465604
7.2579,-0.015689,0.004149,-0.012641,0.021446,-0.005499,0.019965,-0.021284,-0.505838,-0.011229,0.503867,-264.42598,-0.689796,62.468243
7.2777,-0.015656,0.003894,-0.012703,0.022094,-0.005665,0.020568,-0.021747,-0.505826,-0.012009,0.503867,-264.42598,-0.689796,62.468243
7.2978,-0.015783,0.003782,-0.011637,0.022624,-0.005801,0.021063,-0.021747,-0.505826,-0.012009,0.503867,-264.42598,-0.689796,62.468243
7.3178,-0.015626,0.003955,-0.012136,0.023038,-0.005907,0.021447,-0.021229,-0.506274,-0.011126,0.428761,-264.421467,-0.689796,62.473384
7.3378,-0.015402,0.003641,-0.012583,0.023333,-0.005983,0.021722,-0.021259,-0.506257,-0.011187,0.428761,-264.421467,-0.689796,62.473384
7.3582,-0.015461,0.003335,-0.011211,0.02351,-0.006028,0.021887,-0.02122,-0.506443,-0.012008,0.353727,-264.414467,-0.689796,62.481011
7.3782,-0.014938,0.003642,-0.012031,0.02357,-0.006043,0.021943,-0.02112,-0.506567,-0.011481,0.353727,-264.414467,-0.689796,62.481011
7.398,-0.015414,0.003623,-0.012492,0.02351,-0.006028,0.021887,-0.02112,-0.506567,-0.011481,0.353727,-264.414467,-0.689796,62.481011
7.4177,-0.014739,0.003495,-0.011053,0.023334,-0.005983,0.021723,-0.020765,-0.506572,-0.01157,0.302592,-264.40509,-0.689796,62.491146
7.4381,-0.014325,0.003214,-0.010401,0.023041,-0.005908,0.02145,-0.020716,-0.506572,-0.011515,0.302592,-264.40509,-0.689796,62.491146
7.458,-0.013715,0.003264,-0.011807,0.022629,-0.005802,0.021067,-0.018722,-0.507001,-0.009554,0.302592,-264.395224,-0.689796,62.503356
7.4781,-0.014091,0.003312,-0.009901,0.0221,-0.005667,0.020574,-0.019188,-0.50686,-0.010736,0.302592,-264.395224,-0.689796,62.503356
7.498,-0.014166,0.003163,-0.01055,0.021451,-0.0055,0.01997,-0.019188,-0.50686,-0.010736,0.302592,-264.395224,-0.689796,62.503356
7.5177,-0.013423,0.003053,-0.008253,0.020686,-0.005304,0.019258,-0.01843,-0.507107,-0.009508,0.302592,-264.385514,-0.689796,62.515372
7.5382,-0.013489,0.002486,-0.008933,0.019803,-0.005078,0.018436,-0.018327,-0.507101,-0.009368,0.302592,-264.385514,-0.689796,62.515372
7.5578,-0.01277,0.002614,-0.00762,0.0188,-0.004821,0.017503,-0.017226,-0.507711,-0.008169,0.302592,-264.376579,-0.689796,62.526429
7.5779,-0.012819,0.002832,-0.008876,0.017685,-0.004535,0.016464,-0.016796,-0.507545,-0.007757,0.302592,-264.376579,-0.689796,62.526429
7.5978,-0.012818,0.002354,-0.008614,0.016446,-0.004217,0.01531,-0.016796,-0.507545,-0.007757,0.302592,-264.376579,-0.689796,62.526429
7.6179,-0.01228,0.002366,-0.005539,0.015092,-0.00387,0.01405,-0.016252,-0.507882,-0.00772,0.302592,-264.368276,-0.689796,62.536704
7.6379,-0.012414,0.002527,-0.005617,0.01362,-0.003492,0.01268,-0.016139,-0.50787,-0.007532,0.302592,-264.368276,-0.689796,62.536704
7.6582,-0.012279,0.001655,-0.00708,0.01203,-0.003085,0.011199,-0.014645,-0.507631,-0.005027,0.302592,-264.361385,-0.689796,62.545232
7.6782,-0.012141,0.001968,-0.006141,0.010321,-0.002646,0.009609,-0.01528,-0.508055,-0.006133,0.302592,-264.361385,-0.689796,62.545232
7.6983,-0.01234,0.00183,-0.006556,0.008495,-0.002178,0.007908,-0.01528,-0.508055,-0.006133,0.302592,-264.361385,-0.689796,62.545232
7.718,-0.011512,0.001674,-0.005687,0.006548,-0.001679,0.006096,-0.015024,-0.508332,-0.00594,0.302592,-264.355687,-0.689796,62.552282
7.738,-0.011166,0.001933,-0.005027,0.004488,-0.001151,0.004178,-0.014964,-0.508336,-0.005907,0.302592,-264.355687,-0.689796,62.552282
7.7578,-0.011375,0.001881,-0.004962,0.002308,-0.000592,0.002149,-0.013402,-0.508146,-0.004721,0.302592,-264.352123,-0.689796,62.556693
7.778,-0.01134,0.001687,-0.005664,1.4e-05,-4e-06,1.3e-05,-0.013649,-0.508138,-0.00482,0.302592,-264.352123,-0.689796,62.556693
7.7979,-0.011406,0.002111,-0.004698,0.0,0.0,0.0,-0.013649,-0.508138,-0.00482,0.302592,-264.352123,-0.689796,62.556693
7.8178,-0.011029,0.001638,-0.004991,0.0,0.0,0.0,-0.013584,-0.50794,-0.004495,0.302592,-264.350245,-0.689796,62.559017
7.8382,-0.011234,0.002143,-0.004595,0.0,0.0,0.0,-0.013578,-0.507969,-0.004523,0.302592,-264.350245,-0.689796,62.559017
7.8585,-0.011001,0.001525,-0.00586,0.0,0.0,0.0,-0.013577,-0.507851,-0.004595,0.302592,-264.350245,-0.689796,62.559017
7.878,-0.011481,0.001898,-0.006063,0.0,0.0,0.0,-0.013813,-0.508203,-0.005317,0.302592,-264.350245,-0.689796,62.559017
7.8987,-0.011423,0.001835,-0.006216,0.0,0.0,0.0,-0.013813,-0.508203,-0.005317,0.302592,-264.350245,-0.689796,62.559017
7.9182,-0.010994,0.001976,-0.004625,0.0,0.0,0.0,-0.014594,-0.508155,-0.006216,0.302592,-264.350245,-0.689796,62.559017
7.9383,-0.010869,0.001915,-0.004018,0.0,0.0,0.0,-0.014511,-0.508146,-0.00611,0.302592,-264.350245,-0.689796,62.559017
7.9584,-0.011247,0.001656,-0.004576,0.0,0.0,0.0,-0.012919,-0.508081,-0.004018,0.302592,-264.350245,-0.689796,62.559017
7.9782,-0.01135,0.001729,-0.004805,0.0,0.0,0.0,-0.013293,-0.508227,-0.004334,0.302592,-264.350245,-0.689796,62.559017
7.9983,-0.011176,0.001672,-0.00542,0.0,0.0,0.0,-0.013293,-0.508227,-0.004334,0.302592,-264.350245,-0.689796,62.559017
8.0182,-0.011167,0.001767,-0.004943,9.9e-05,-1.4e-05,0.0,-0.013941,-0.50832,-0.00542,0.302592,-264.350245,-0.689796,62.559017
8.0381,-0.011396,0.001836,-0.004929,9.9e-05,-1.4e-05,0.0,-0.013925,-0.508314,-0.005391,0.302592,-264.350245,-0.689796,62.559017
8.0583,-0.010764,0.001612,-0.005655,9.9e-05,-1.4e-05,0.0,-0.01391,-0.508158,-0.004929,0.302592,-264.350245,-0.689796,62.559017
8.078,-0.011282,0.001753,-0.003881,9.9e-05,-1.4e-05,0.0,-0.01376,-0.508285,-0.005344,0.302592,-264.350245,-0.689796,62.559017
8.0979,-0.011251,0.00171,-0.003614,9.9e-05,-1.4e-05,0.0,-0.01376,-0.508285,-0.005344,0.302592,-264.350245,-0.689796,62.559017
8.1179,-0.011141,0.001988,-0.004153,9.9e-05,-1.4e-05,0.0,-0.013094,-0.508287,-0.003614,0.227492,-264.350245,-0.614695,62.559017
8.1379,-0.01123,0.001696,-0.004261,9.9e-05,-1.4e-05,0.0,-0.013107,-0.508266,-0.003654,0.227492,-264.350245,-0.614695,62.559017
8.1581,-0.011217,0.002034,-0.005268,9.9e-05,-1.4e-05,0.0,-0.013403,-0.5083,-0.004261,0.152086,-264.350245,-0.53929,62.559018
8.178,-0.011138,0.001964,-0.003264,9.9e-05,-1.4e-05,0.0,-0.013688,-0.508106,-0.004834,0.152086,-264.350245,-0.53929,62.559018
8.198,-0.011038,0.00183,-0.004833,9.9e-05,-1.4e-05,0.0,-0.013688,-0.508106,-0.004834,0.152086,-264.350245,-0.53929,62.559018
8.218,-0.010964,0.001964,-0.00645,9.9e-05,-1.4e-05,0.0,-0.013503,-0.508164,-0.004833,0.077485,-264.350244,-0.464688,62.559018
8.2385,-0.011694,0.001425,-0.003302,0.001634,-0.000236,0.000792,-0.013558,-0.508154,-0.004952,0.077485,-264.350244,-0.464688,62.559018
8.2579,-0.011102,0.001834,-0.00534,0.003187,-0.000459,0.001544,-0.013378,-0.508573,-0.003302,0.002446,-264.35024,-0.38965,62.559022
8.278,-0.011449,0.001471,-0.00465,0.004656,-0.000671,0.002256,-0.013635,-0.508335,-0.004471,0.002446,-264.35024,-0.38965,62.559022
8.2981,-0.01134,0.001628,-0.004646,0.006037,-0.00087,0.002926,-0.013635,-0.508335,-0.004471,0.002446,-264.35024,-0.38965,62.559022
8.3179,-0.010928,0.001864,-0.004246,0.007343,-0.001058,0.003559,-0.013654,-0.508377,-0.004622,0.077492,-264.349782,-0.414562,62.559517
8.3383,-0.010945,0.001604,-0.003864,0.008558,-0.001233,0.004147,-0.013618,-0.508362,-0.004599,0.077492,-264.349782,-0.414562,62.559517
8.3578,-0.011005,0.002061,-0.004931,0.00969,-0.001396,0.004696,-0.012701,-0.508424,-0.00376,0.150715,-264.34754,-0.414562,62.561939
8.3778,-0.010949,0.001898,-0.005248,0.010736,-0.001547,0.005202,-0.01314,-0.508149,-0.004413,0.150715,-264.34754,-0.414562,62.561939
8.3977,-0.010902,0.002089,-0.006228,0.011702,-0.001686,0.005671,-0.01314,-0.508149,-0.004413,0.150715,-264.34754,-0.414562,62.561939
8.4181,-0.010586,0.001772,-0.003886,0.012587,-0.001814,0.006099,-0.013663,-0.507964,-0.006026,0.150715,-264.344077,-0.414562,62.565679
8.438,-0.01061,0.001462,-0.005486,0.01338,-0.001928,0.006484,-0.013575,-0.507984,-0.005871,0.150715,-264.344077,-0.414562,62.565679
8.4581,-0.010028,0.00166,-0.002824,0.014096,-0.002031,0.006831,-0.012956,-0.508598,-0.005267,0.150715,-264.339337,-0.414562,62.570799
8.4782,-0.010386,0.001675,-0.003607,0.014724,-0.002122,0.007135,-0.012048,-0.508458,-0.003842,0.150715,-264.339337,-0.414562,62.570799
8.4982,-0.01019,0.001842,-0.005605,0.015268,-0.0022,0.007399,-0.012048,-0.508458,-0.003842,0.150715,-264.339337,-0.414562,62.570799
8.5178,-0.009837,0.001396,-0.003787,0.015729,-0.002267,0.007622,-0.0124,-0.508247,-0.00529,0.150715,-264.333931,-0.414562,62.576639
8.5382,-0.00954,0.001668,-0.003726,0.016106,-0.002321,0.007805,-0.012339,-0.508274,-0.005179,0.150715,-264.333931,-0.414562,62.576639
8.5578,-0.008951,0.000798,-0.005695,0.0164,-0.002363,0.007947,-0.010851,-0.508416,-0.00344,0.150715,-264.327743,-0.414562,62.583322
8.5778,-0.009066,0.001133,-0.003887,0.01661,-0.002394,0.008049,-0.011353,-0.508873,-0.004698,0.150715,-264.327743,-0.414562,62.583322
8.5979,-0.009226,0.001566,-0.002557,0.016736,-0.002412,0.00811,-0.011353,-0.508873,-0.004698,0.150715,-264.327743,-0.414562,62.583322
8.6176,-0.008622,0.001305,-0.00358,0.016778,-0.002418,0.008131,-0.009749,-0.508546,-0.002178,0.150715,-264.3212,-0.414562,62.59039
8.6377,-0.008544,0.001288,-0.003348,0.016736,-0.002412,0.00811,-0.009784,-0.508563,-0.002285,0.150715,-264.3212,-0.414562,62.59039
8.6576,-0.007776,0.001204,-0.002842,0.01661,-0.002394,0.008049,-0.009611,-0.508804,-0.003037,0.150715,-264.314458,-0.414562,62.597673
8.6776,-0.00783,0.00107,-0.001934,0.016401,-0.002363,0.007948,-0.009308,-0.50881,-0.002885,0.150715,-264.314458,-0.414562,62.597673
8.698,-0.008006,0.001097,-0.001864,0.016108,-0.002321,0.007806,-0.009308,-0.50881,-0.002885,0.150715,-264.314458,-0.414562,62.597673
8.718,-0.007172,0.001414,-0.002091,0.01573,-0.002267,0.007622,-0.008144,-0.509021,-0.00147,0.150715,-264.307652,-0.414562,62.605024
8.7382,-0.007345,0.001027,-0.002828,0.015269,-0.0022,0.007399,-0.008126,-0.508988,-0.00151,0.150715,-264.307652,-0.414562,62.605024
8.758,-0.006751,0.001178,-0.002194,0.014721,-0.002121,0.007134,-0.00817,-0.509062,-0.002529,0.150715,-264.301151,-0.414562,62.612047
8.7782,-0.006577,0.001186,-0.003594,0.014089,-0.00203,0.006828,-0.007918,-0.508934,-0.002297,0.150715,-264.301151,-0.414562,62.612047
8.7978,-0.006915,0.00049,-0.002915,0.013381,-0.001928,0.006484,-0.007918,-0.508934,-0.002297,0.150715,-264.301151,-0.414562,62.612047
8.8179,-0.005628,0.000704,-0.001002,0.012583,-0.001813,0.006098,-0.007663,-0.509616,-0.002557,0.150715,-264.294999,-0.414562,62.618691
8.8378,-0.006098,0.000357,-0.000679,0.011703,-0.001686,0.005671,-0.007537,-0.509597,-0.002439,0.150715,-264.294999,-0.414562,62.618691
8.8582,-0.005611,0.000431,-0.000737,0.010738,-0.001547,0.005204,-0.005927,-0.509718,-0.000428,0.150715,-264.289575,-0.414562,62.62455
8.8779,-0.005739,0.000862,0.000416,0.009683,-0.001395,0.004692,-0.005896,-0.509642,-0.000574,0.150715,-264.289575,-0.414562,62.62455
8.8978,-0.005571,0.000917,-0.002143,0.008559,-0.001233,0.004148,-0.005896,-0.509642,-0.000574,0.150715,-264.289575,-0.414562,62.62455
8.9178,-0.004834,0.000528,-0.000263,0.007343,-0.001058,0.003558,-0.006096,-0.509165,-0.001867,0.150715,-264.284841,-0.414562,62.629663
8.9378,-0.005497,0.00051,4e-05,0.006043,-0.000871,0.002928,-0.006001,-0.509189,-0.001746,0.150715,-264.284841,-0.414562,62.629663
8.9579,-0.005198,0.00069,-0.001508,0.004654,-0.000671,0.002255,-0.005146,-0.509537,0.0002,0.150715,-264.28138,-0.414562,62.633401
8.978,-0.004395,0.00055,-0.001187,0.003186,-0.000459,0.001544,-0.005572,-0.509414,-0.000752,0.150715,-264.28138,-0.414562,62.633401
8.9979,-0.005072,0.000437,-0.002041,0.001627,-0.000234,0.000788,-0.005572,-0.509414,-0.000752,0.150715,-264.28138,-0.414562,62.633401
9.018,-0.00443,4e-05,-0.001218,2e-06,-0.0,1e-06,-0.00582,-0.509605,-0.001899,0.150715,-264.278938,-0.414562,62.63604
9.0377,-0.004623,0.000445,-0.000469,0.0,0.0,0.0,-0.005757,-0.509631,-0.001847,0.150715,-264.278938,-0.414562,62.63604
9.0577,-0.004716,0.0006,0.000879,0.0,0.0,0.0,-0.004799,-0.509564,-0.000439,0.150715,-264.278279,-0.414562,62.636752
9.0778,-0.004828,0.000635,0.000379,0.0,0.0,0.0,-0.004486,-0.509471,0.000321,0.150715,-264.278279,-0.414562,62.636752
9.0977,-0.004414,0.000427,-0.00033,0.0,0.0,0.0,-0.004486,-0.509471,0.000321,0.150715,-264.278279,-0.414562,62.636752
9.118,-0.004521,0.000728,-0.000844,0.0,0.0,0.0,-0.004583,-0.509572,-0.00033,0.150715,-264.278279,-0.414562,62.636752
9.1382,-0.004668,0.000479,-0.000558,0.0,0.0,0.0,-0.004614,-0.509547,-0.000373,0.150715,-264.278279,-0.414562,62.636752
9.1578,-0.0043,0.000191,-0.001,0.0,0.0,0.0,-0.004952,-0.509521,-0.000558,0.150715,-264.278279,-0.414562,62.636752
9.1782,-0.004596,0.000381,4.9e-05,0.0,0.0,0.0,-0.004871,-0.509686,-0.000811,0.150715,-264.278279,-0.414562,62.636752
9.1978,-0.00424,0.000684,-0.001768,0.0,0.0,0.0,-0.004871,-0.509686,-0.000811,0.150715,-264.278279,-0.414562,62.636752
9.2182,-0.004205,0.000664,-9.5e-05,0.0,0.0,0.0,-0.005142,-0.509315,-0.001768,0.150715,-264.278279,-0.414562,62.636752
9.2378,-0.004445,0.000752,0.00034,9.9e-05,-1.6e-05,0.0,-0.00508,-0.509317,-0.001651,0.150715,-264.278279,-0.414562,62.636752
9.2577,-0.004622,0.000418,-0.000206,9.9e-05,-1.6e-05,0.0,-0.004272,-0.509248,0.00034,0.150715,-264.278279,-0.414562,62.636752
9.2777,-0.004824,0.000451,-0.000482,9.9e-05,-1.6e-05,0.0,-0.004531,-0.509438,2.9e-05,0.150715,-264.278279,-0.414562,62.636752
9.298,-0.00435,0.000469,-0.000161,9.9e-05,-1.6e-05,0.0,-0.004531,-0.509438,2.9e-05,0.150715,-264.278279,-0.414562,62.636752
9.3182,-0.004332,0.000553,0.000963,9.9e-05,-1.6e-05,0.0,-0.004432,-0.509531,-0.000161,0.075718,-264.278276,-0.339566,62.636755
9.3387,-0.004654,0.000608,-0.00189,9.9e-05,-1.6e-05,0.0,-0.004383,-0.509524,-6.8e-05,0.075718,-264.278276,-0.339566,62.636755
9.3582,-0.004416,0.000212,-0.000192,9.9e-05,-1.6e-05,0.0,-0.005617,-0.509391,-0.00189,0.000284,-264.278266,-0.264131,62.636764
9.3782,-0.004353,0.000397,-0.000571,9.9e-05,-1.6e-05,0.0,-0.004987,-0.509617,-0.00092,0.000284,-264.278266,-0.264131,62.636764
9.3981,-0.004404,0.000317,-0.000195,9.9e-05,-1.6e-05,0.0,-0.004987,-0.509617,-0.00092,0.000284,-264.278266,-0.264131,62.636764
9.4184,-0.004593,0.0005,-0.000391,9.9e-05,-1.6e-05,0.0,-0.004501,-0.509683,-0.000195,-0.074392,-264.278244,-0.189455,62.636787
9.4385,-0.004507,0.000839,-0.00118,3e-06,-1e-06,0.0,-0.004519,-0.509671,-0.000207,-0.074392,-264.278244,-0.189455,62.636787
9.4581,-0.004353,0.000511,-0.000363,0.000617,-9.7e-05,1.4e-05,-0.005105,-0.509161,-0.00118,-0.149279,-264.278209,-0.156598,62.636822
9.478,-0.004198,0.000314,-0.001142,0.0012,-0.000189,2.7e-05,-0.004782,-0.509348,-0.000715,-0.149279,-264.278209,-0.156598,62.636822
9.4981,-0.004477,0.000134,-0.00169,0.001752,-0.000277,4e-05,-0.004782,-0.509348,-0.000715,-0.149279,-264.278209,-0.156598,62.636822
9.5183,-0.004045,0.000474,-0.001532,0.002272,-0.000359,5.1e-05,-0.005338,-0.509866,-0.00169,-0.143101,-264.278207,-0.170038,62.636823
9.5388,-0.004892,0.00045,-0.001187,0.002762,-0.000436,6.2e-05,-0.005305,-0.509843,-0.00168,-0.143101,-264.278207,-0.170038,62.636823
9.5585,-0.004465,0.000484,-0.001627,0.003216,-0.000508,7.3e-05,-0.005429,-0.50956,-0.001186,-0.143101,-264.277499,-0.170038,62.637534
9.5778,-0.004197,0.000546,-9.5e-05,0.003641,-0.000575,8.2e-05,-0.005347,-0.509537,-0.001428,-0.143101,-264.277499,-0.170038,62.637534
9.598,-0.004216,0.000623,-0.000249,0.004036,-0.000637,9.1e-05,-0.005347,-0.509537,-0.001428,-0.143101,-264.277499,-0.170038,62.637534
9.6181,-0.00419,0.000391,-8.5e-05,0.004405,-0.000696,0.0001,-0.004209,-0.509398,-0.000246,-0.143101,-264.276383,-0.170038,62.638655
9.6382,-0.004533,0.000351,-0.000612,0.004731,-0.000747,0.000107,-0.004207,-0.509413,-0.000235,-0.143101,-264.276383,-0.170038,62.638655
9.6578,-0.004355,0.000237,-0.000166,0.005031,-0.000794,0.000114,-0.00469,-0.509673,-0.000609,-0.143101,-264.27475,-0.170038,62.640296
9.6777,-0.004049,0.000567,-0.00062,0.005298,-0.000836,0.00012,-0.004527,-0.509728,-0.000354,-0.143101,-264.27475,-0.170038,62.640296
9.698,-0.004069,0.000304,-0.000801,0.005534,-0.000874,0.000125,-0.004527,-0.509728,-0.000354,-0.143101,-264.27475,-0.170038,62.640296
9.7179,-0.003649,0.000243,-0.000581,0.005741,-0.000906,0.00013,-0.004248,-0.509732,-0.000796,-0.143101,-264.272841,-0.170038,62.642213
9.7384,-0.003769,0.000142,-0.001044,0.005913,-0.000934,0.000134,-0.004222,-0.509735,-0.000782,-0.143101,-264.272841,-0.170038,62.642213
9.7578,-0.003332,0.000462,-0.001713,0.006055,-0.000956,0.000137,-0.004087,-0.509892,-0.001039,-0.143101,-264.270604,-0.170038,62.644459
9.7779,-0.003969,0.000171,-0.000312,0.006165,-0.000973,0.000139,-0.004128,-0.509695,-0.00142,-0.143101,-264.270604,-0.170038,62.644459
9.7981,-0.003694,0.000168,-0.000529,0.006244,-0.000986,0.000141,-0.004128,-0.509695,-0.00142,-0.143101,-264.270604,-0.170038,62.644459
9.818,-0.003306,0.000459,0.000564,0.006291,-0.000993,0.000142,-0.003677,-0.509878,-0.000523,-0.143101,-264.268215,-0.170038,62.646859
9.8384,-0.003471,0.000367,0.001015,0.006307,-0.000996,0.000143,-0.003623,-0.509856,-0.000447,-0.143101,-264.268215,-0.170038,62.646859
9.858,-0.003029,0.000107,-0.000167,0.006291,-0.000993,0.000142,-0.002708,-0.509671,0.00102,-0.143101,-264.265691,-0.170038,62.649393
9.878,-0.002876,0.000387,-0.001426,0.006244,-0.000986,0.000141,-0.0029,-0.509798,0.000371,-0.143101,-264.265691,-0.170038,62.649393
9.8977,-0.003117,-1.8e-05,-0.000403,0.006165,-0.000973,0.000139,-0.0029,-0.509798,0.000371,-0.143101,-264.265691,-0.170038,62.649393
9.9177,-0.002536,0.000439,-0.000104,0.006055,-0.000956,0.000137,-0.003016,-0.510066,-0.000396,-0.143101,-264.263126,-0.170038,62.651969
9.9383,-0.002678,-0.000184,-0.000932,0.005913,-0.000934,0.000134,-0.002971,-0.510025,-0.000371,-0.143101,-264.263126,-0.170038,62.651969
