mach0312/omni-docking-bench/src/icros_test_setup/results/kinematic_sample/timeseries/trial_135.csv
t,x,y,yaw,vx,vy,wz,bl_x,bl_y,bl_yaw,front_steering_joint,front_wheel_joint,rear_steering_joint,rear_wheel_joint
0.0,-0.052703,-0.031232,0.083459,9.9e-05,-1.6e-05,0.0,-0.009368,-0.539187,0.085222,0.314762,-264.82632,-0.851053,61.792338
0.0004,-0.0524,-0.03106,0.083238,0.003506,-0.000574,0.002271,-0.009417,-0.539196,0.085054,0.239601,-264.82632,-0.775892,61.792338
0.0007,-0.052808,-0.031169,0.082881,0.004548,-0.000745,0.002947,-0.009417,-0.539196,0.085054,0.164683,-264.82632,-0.700974,61.792338
0.0011,-0.052778,-0.031308,0.083739,0.005529,-0.000906,0.003582,-0.009542,-0.539181,0.084605,0.227856,-264.826058,-0.625358,61.792631
0.0014,-0.052502,-0.031079,0.082758,0.006441,-0.001055,0.004174,-0.010184,-0.539286,0.08372,0.227856,-264.824893,-0.551145,61.793932
0.0017,-0.052367,-0.031331,0.082481,0.007297,-0.001196,0.004728,-0.010184,-0.539286,0.08372,0.227856,-264.822312,-0.510165,61.796813
0.002,-0.052731,-0.031127,0.082476,0.008083,-0.001324,0.005238,-0.010184,-0.539286,0.08372,0.227856,-264.819004,-0.510165,61.800505
0.0023,-0.052313,-0.031201,0.082933,0.008817,-0.001445,0.005713,-0.010747,-0.539655,0.083035,0.227856,-264.819004,-0.510165,61.800505
0.0026,-0.052445,-0.031397,0.083781,0.009473,-0.001552,0.006138,-0.010747,-0.539655,0.083035,0.227856,-264.819004,-0.510165,61.800505
0.0028,-0.052175,-0.031378,0.084471,0.010072,-0.00165,0.006526,-0.010696,-0.539637,0.083074,0.227856,-264.819004,-0.510165,61.800505
0.0051,-0.052063,-0.03146,0.085215,0.010609,-0.001738,0.006874,-0.010206,-0.539436,0.082826,0.227856,-264.819004,-0.510165,61.800505
0.0258,-0.052112,-0.031163,0.083998,0.026609,0.014262,-0.023126,-0.008733,-0.539592,0.084764,0.227856,-264.819004,-0.510165,61.800505
0.0454,-0.051885,-0.031391,0.082867,0.042609,0.026681,-0.05,-0.008927,-0.539396,0.084252,0.227856,-264.814868,-0.510165,61.805122
0.065,-0.051921,-0.031435,0.082705,0.054305,0.026989,-0.05,-0.009294,-0.539537,0.083509,0.227856,-264.814868,-0.510165,61.805122
0.085,-0.051845,-0.031226,0.084391,0.054341,0.027039,-0.05,-0.009294,-0.539537,0.083509,0.227856,-264.814868,-0.510165,61.805122
0.105,-0.051985,-0.031426,0.084135,0.054293,0.026745,-0.05,-0.008857,-0.539412,0.084391,0.152846,-264.814868,-0.435155,61.805123
0.1253,-0.051652,-0.030991,0.084542,0.054442,0.026947,-0.05,-0.008876,-0.539426,0.084373,0.152846,-264.814868,-0.435155,61.805123
0.1454,-0.051397,-0.031319,0.084452,0.054084,0.026519,-0.05,-0.008587,-0.539169,0.084542,0.077847,-264.814867,-0.360156,61.805124
0.1652,-0.051096,-0.031446,0.08456,0.053856,0.026872,-0.05,-0.008468,-0.539359,0.08449,0.077847,-264.814867,-0.360156,61.805124
0.1853,-0.051757,-0.031285,0.083346,0.053569,0.027018,-0.05,-0.008468,-0.539359,0.08449,0.077847,-264.814867,-0.360156,61.805124
0.2055,-0.051735,-0.031298,0.084031,0.054181,0.026867,-0.05,-0.009299,-0.539514,0.083346,0.002781,-264.814865,-0.28509,61.805127
0.2257,-0.052097,-0.031128,0.084267,0.05418,0.026846,-0.05,-0.009271,-0.539513,0.083398,0.002781,-264.814865,-0.28509,61.805127
0.2454,-0.051686,-0.031167,0.084508,0.054532,0.026632,-0.05,-0.009172,-0.539318,0.084267,-0.065611,-264.814863,-0.209869,61.805129
0.2653,-0.051514,-0.031165,0.083289,0.054132,0.026693,-0.05,-0.00887,-0.539334,0.084403,-0.065611,-264.814863,-0.209869,61.805129
0.2857,-0.051984,-0.031694,0.083474,0.053928,0.026772,-0.05,-0.00887,-0.539334,0.084403,-0.065611,-264.814863,-0.209869,61.805129
0.3054,-0.051941,-0.031451,0.083828,0.054446,0.02725,-0.05,-0.009462,-0.539919,0.083474,-0.068034,-264.814861,-0.13515,61.805133
0.3258,-0.051899,-0.031245,0.083447,0.054392,0.026992,-0.05,-0.009448,-0.539903,0.083495,-0.068034,-264.814861,-0.13515,61.805133
0.3451,-0.051756,-0.031589,0.085416,0.054323,0.026811,-0.05,-0.009391,-0.53947,0.083447,-0.06972,-264.814859,-0.060142,61.805136
0.3656,-0.051662,-0.031,0.083914,0.054263,0.027058,-0.05,-0.008755,-0.539615,0.084542,-0.06972,-264.814859,-0.060142,61.805136
0.3852,-0.051383,-0.031519,0.084358,0.054079,0.026561,-0.05,-0.008755,-0.539615,0.084542,-0.06972,-264.814859,-0.060142,61.805136
0.4055,-0.051549,-0.031328,0.084126,0.053856,0.027077,-0.05,-0.00841,-0.539705,0.084358,-0.0651,-264.814857,0.014856,61.805139
0.4256,-0.051566,-0.031598,0.083744,0.053999,0.026886,-0.05,-0.008432,-0.539691,0.084341,-0.0651,-264.814857,0.014856,61.805139
0.445,-0.051828,-0.031293,0.083867,0.054028,0.027174,-0.05,-0.008906,-0.539811,0.083744,-0.073403,-264.814854,0.090129,61.805142
0.4652,-0.052101,-0.031435,0.085611,0.054267,0.026841,-0.05,-0.009019,-0.539635,0.083814,-0.073403,-264.814854,0.090129,61.805142
0.4855,-0.051555,-0.031416,0.08461,0.054598,0.026865,-0.05,-0.009019,-0.539635,0.083814,-0.073403,-264.814854,0.090129,61.805142
0.5051,-0.051662,-0.031259,0.083935,0.054025,0.026947,-0.05,-0.008455,-0.539592,0.084609,-0.067516,-264.81485,0.16485,61.805148
0.525,-0.051645,-0.031248,0.084945,0.054101,0.026817,-0.05,-0.008479,-0.539585,0.084573,-0.067516,-264.81485,0.16485,61.805148
0.545,-0.051561,-0.031547,0.084926,0.05411,0.026753,-0.05,-0.008373,-0.539409,0.084944,-0.067166,-264.814831,0.23986,61.805175
0.5653,-0.051995,-0.031691,0.084206,0.054051,0.02706,-0.05,-0.008331,-0.539579,0.084934,-0.067166,-264.814831,0.23986,61.805175
0.5851,-0.051617,-0.031015,0.083658,0.054476,0.027206,-0.05,-0.008331,-0.539579,0.084934,-0.067166,-264.814831,0.23986,61.805175
0.6051,-0.052114,-0.03158,0.083217,0.054028,0.026594,-0.05,-0.008989,-0.539229,0.083654,-0.068653,-264.81475,0.314848,61.805294
0.6252,-0.051971,-0.031182,0.082947,0.054559,0.027139,-0.05,-0.009038,-0.539268,0.083625,-0.068653,-264.81475,0.314848,61.805294
0.6449,-0.051397,-0.031588,0.083991,0.054376,0.026769,-0.05,-0.009679,-0.539417,0.082931,-0.061082,-264.814412,0.389838,61.805785
0.6654,-0.051631,-0.031299,0.082933,0.053866,0.027164,-0.05,-0.009065,-0.539629,0.083535,-0.061082,-264.814412,0.389838,61.805785
0.6851,-0.051942,-0.03132,0.085176,0.054046,0.026915,-0.05,-0.009065,-0.539629,0.083535,-0.061082,-264.814412,0.389838,61.805785
0.7052,-0.051109,-0.031055,0.083829,0.054418,0.026788,-0.05,-0.0084,-0.539417,0.085095,-0.062202,-264.813276,0.464901,61.807435
0.7252,-0.0515,-0.031264,0.084151,0.053529,0.026666,-0.05,-0.008397,-0.539406,0.08501,-0.062202,-264.813276,0.464901,61.807435
0.7455,-0.050526,-0.031075,0.083467,0.053946,0.026824,-0.05,-0.008331,-0.539339,0.083967,-0.066933,-264.810384,0.539837,61.811586
0.7653,-0.050988,-0.031158,0.084021,0.052941,0.026755,-0.05,-0.008109,-0.539302,0.08366,-0.066933,-264.810384,0.539837,61.811586
0.7851,-0.051137,-0.031218,0.083668,0.053423,0.026769,-0.05,-0.008109,-0.539302,0.08366,-0.066933,-264.810384,0.539837,61.811586
0.805,-0.04976,-0.030835,0.083914,0.053567,0.026835,-0.05,-0.007879,-0.53917,0.083248,-0.072192,-264.804988,0.614881,61.818241
0.8254,-0.049969,-0.030799,0.083575,0.052169,0.026555,-0.05,-0.0078,-0.539154,0.083284,-0.072192,-264.804988,0.614881,61.818241
0.8457,-0.048716,-0.030411,0.082373,0.052365,0.02652,-0.05,-0.006698,-0.538705,0.083071,-0.070428,-264.797103,0.689926,61.827382
0.8654,-0.048629,-0.030381,0.082353,0.051053,0.026299,-0.05,-0.006639,-0.538652,0.082614,-0.070428,-264.797103,0.689926,61.827382
0.8851,-0.048841,-0.030243,0.082797,0.050963,0.026278,-0.05,-0.006639,-0.538652,0.082614,-0.070428,-264.797103,0.689926,61.827382
0.9056,-0.04701,-0.029391,0.082545,0.051175,0.0261,-0.05,-0.005561,-0.537961,0.081914,-0.076182,-264.786712,0.764865,61.83903
0.9255,-0.047079,-0.029787,0.082128,0.049273,0.025415,-0.05,-0.005495,-0.537928,0.081933,-0.076182,-264.786712,0.764865,61.83903
0.9455,-0.045695,-0.029054,0.080986,0.049363,0.025824,-0.05,-0.004203,-0.537524,0.081209,-0.083381,-264.773818,0.839644,61.853181
0.9656,-0.045504,-0.028955,0.080412,0.047895,0.025262,-0.05,-0.004205,-0.537375,0.080966,-0.083381,-264.773818,0.839644,61.853181
0.9858,-0.0452,-0.029084,0.08013,0.047682,0.025206,-0.05,-0.004205,-0.537375,0.080966,-0.083381,-264.773818,0.839644,61.853181
1.0051,-0.043237,-0.027806,0.078666,0.047383,0.025373,-0.05,-0.002828,-0.536657,0.078721,-0.103584,-264.758318,0.848791,61.869948
1.025,-0.0428,-0.028031,0.079008,0.045288,0.024322,-0.05,-0.002809,-0.536602,0.078678,-0.103584,-264.758318,0.848791,61.869948
1.0454,-0.04024,-0.027092,0.077036,0.044878,0.024566,-0.05,-0.001151,-0.535728,0.077712,-0.111344,-264.740537,0.863186,61.888977
1.0654,-0.040353,-0.027354,0.07649,0.042206,0.023915,-0.05,-0.000881,-0.535552,0.077161,-0.111344,-264.740537,0.863186,61.888977
1.0856,-0.040075,-0.027206,0.078284,0.042325,0.02419,-0.05,-0.000881,-0.535552,0.077161,-0.111344,-264.740537,0.863186,61.888977
1.105,-0.037348,-0.02602,0.074359,0.042079,0.023989,-0.05,0.001659,-0.534633,0.076379,-0.136396,-264.722499,0.880678,61.910656
1.1253,-0.037658,-0.025572,0.074353,0.039178,0.023174,-0.05,0.001629,-0.534603,0.07618,-0.136396,-264.722499,0.880678,61.910656
1.145,-0.034606,-0.02472,0.073023,0.039453,0.022704,-0.05,0.001693,-0.533244,0.072631,-0.148851,-264.705696,0.912506,61.934808
1.1653,-0.034314,-0.024634,0.07184,0.036318,0.022129,-0.05,0.002387,-0.533196,0.072639,-0.148851,-264.705696,0.912506,61.934808
1.1855,-0.034321,-0.024354,0.073636,0.035994,0.022107,-0.05,0.002387,-0.533196,0.072639,-0.148851,-264.705696,0.912506,61.934808
1.205,-0.031374,-0.023571,0.070993,0.03602,0.021763,-0.05,0.004953,-0.531755,0.071292,-0.185789,-264.690313,0.940599,61.960463
1.225,-0.031737,-0.02347,0.070665,0.032967,0.021286,-0.05,0.004989,-0.53176,0.071209,-0.185789,-264.690313,0.940599,61.960463
1.2451,-0.028471,-0.022411,0.068806,0.033314,0.021171,-0.05,0.005541,-0.531292,0.06882,-0.230074,-264.676195,0.971085,61.984819
1.2654,-0.028716,-0.022048,0.070115,0.029944,0.0204,-0.05,0.006299,-0.531127,0.068578,-0.230074,-264.676195,0.971085,61.984819
1.2852,-0.028453,-0.022328,0.067478,0.03019,0.019982,-0.05,0.006299,-0.531127,0.068578,-0.230074,-264.676195,0.971085,61.984819
1.3056,-0.025763,-0.020613,0.066581,0.029894,0.020358,-0.05,0.007396,-0.53008,0.065157,-0.273595,-264.663139,1.004228,62.008238
1.3259,-0.025869,-0.020715,0.066274,0.027077,0.018854,-0.05,0.007483,-0.530014,0.065192,-0.273595,-264.663139,1.004228,62.008238
1.3454,-0.023657,-0.019738,0.064895,0.027184,0.018957,-0.05,0.008951,-0.528802,0.064461,-0.336341,-264.651234,1.032151,62.030146
1.3651,-0.023053,-0.019677,0.062204,0.024888,0.018162,-0.05,0.009343,-0.528627,0.064485,-0.336341,-264.651234,1.032151,62.030146
1.385,-0.023379,-0.019986,0.063513,0.024232,0.018205,-0.05,0.009343,-0.528627,0.064485,-0.336341,-264.651234,1.032151,62.030146
1.4053,-0.021114,-0.019284,0.061033,0.0246,0.018462,-0.05,0.01012,-0.528062,0.061329,-0.40736,-264.640617,1.069319,62.050424
1.4253,-0.020854,-0.019286,0.061369,0.022251,0.017961,-0.05,0.010143,-0.528057,0.061246,-0.40736,-264.640617,1.069319,62.050424
1.445,-0.018814,-0.017519,0.058378,0.021998,0.017971,-0.05,0.011237,-0.527634,0.059608,-0.470761,-264.630692,1.109446,62.070295
1.465,-0.019056,-0.018017,0.059565,0.019804,0.016392,-0.05,0.011173,-0.526986,0.058683,-0.470761,-264.630692,1.109446,62.070295
1.4852,-0.018662,-0.017667,0.059152,0.020094,0.016851,-0.05,0.011173,-0.526986,0.058683,-0.470761,-264.630692,1.109446,62.070295
1.5054,-0.016613,-0.016878,0.057293,0.019674,0.016533,-0.05,0.01247,-0.525884,0.056832,-0.514461,-264.620929,1.140645,62.090677
1.525,-0.016673,-0.016908,0.056727,0.017552,0.015899,-0.05,0.012505,-0.525871,0.056802,-0.514461,-264.620929,1.140645,62.090677
1.5451,-0.014817,-0.016001,0.055231,0.017605,0.015936,-0.05,0.012897,-0.525473,0.055026,-0.589467,-264.612336,1.169743,62.108868
1.5651,-0.014421,-0.016118,0.053733,0.015678,0.015159,-0.05,0.013231,-0.525252,0.054928,-0.589467,-264.612336,1.169743,62.108868
1.5852,-0.014296,-0.016259,0.05272,0.015265,0.01532,-0.05,0.013231,-0.525252,0.054928,-0.589467,-264.612336,1.169743,62.108868
1.6052,-0.012589,-0.015764,0.052802,0.015133,0.015483,-0.05,0.013248,-0.524875,0.050758,-0.664577,-264.604893,1.209406,62.125034
1.6253,-0.013126,-0.015541,0.05118,0.013404,0.015078,-0.05,0.01334,-0.52487,0.050847,-0.664577,-264.604893,1.209406,62.125034
1.6452,-0.011474,-0.014787,0.048588,0.013904,0.014849,-0.05,0.013408,-0.524381,0.049698,-0.739469,-264.598193,1.249448,62.140057
1.6652,-0.01157,-0.014516,0.049093,0.012179,0.014213,-0.048588,0.0134,-0.524207,0.048876,-0.739469,-264.598193,1.249448,62.140057
1.6852,-0.011496,-0.014863,0.051953,0.012268,0.013931,-0.049093,0.0134,-0.524207,0.048876,-0.739469,-264.598193,1.249448,62.140057
1.7053,-0.009931,-0.013891,0.048706,0.012252,0.014245,-0.05,0.015482,-0.523561,0.050061,-0.814587,-264.591765,1.284996,62.154994
1.7253,-0.009418,-0.013919,0.048957,0.010596,0.013391,-0.048706,0.015456,-0.523527,0.04992,-0.814587,-264.591765,1.284996,62.154994
1.7452,-0.00854,-0.013246,0.046988,0.010088,0.013441,-0.048957,0.015926,-0.522827,0.047362,-0.889471,-264.58495,1.298375,62.170374
1.7657,-0.008459,-0.013431,0.047287,0.009153,0.012831,-0.046988,0.01568,-0.522685,0.04695,-0.889471,-264.58495,1.298375,62.170374
1.7854,-0.007925,-0.012893,0.047447,0.009084,0.013016,-0.047287,0.01568,-0.522685,0.04695,-0.889471,-264.58495,1.298375,62.170374
1.8051,-0.006766,-0.012573,0.044302,0.008528,0.012503,-0.047447,0.01667,-0.52176,0.04552,-0.964824,-264.578584,1.329937,62.184885
1.8254,-0.006913,-0.012508,0.045212,0.007316,0.012261,-0.044302,0.016626,-0.521766,0.045395,-0.964824,-264.578584,1.329937,62.184885
1.8451,-0.005426,-0.012171,0.042612,0.007472,0.012183,-0.045212,0.016429,-0.52153,0.043609,-1.039479,-264.572167,1.357272,62.199931
1.8651,-0.005283,-0.012329,0.041539,0.005939,0.011929,-0.042612,0.016393,-0.521573,0.042842,-1.039479,-264.572167,1.357272,62.199931
1.8851,-0.005236,-0.011986,0.0438,0.00579,0.012099,-0.041539,0.016393,-0.521573,0.042842,-1.039479,-264.572167,1.357272,62.199931
1.9052,-0.004227,-0.011251,0.042607,0.005756,0.011745,-0.0438,0.017394,-0.520942,0.041845,-1.111576,-264.566174,1.386823,62.214452
1.9256,-0.003869,-0.01121,0.040078,0.004702,0.011061,-0.042607,0.017409,-0.520917,0.041846,-1.111576,-264.566174,1.386823,62.214452
1.9451,-0.002713,-0.010326,0.037233,0.004316,0.011046,-0.040078,0.01676,-0.520349,0.038554,-1.159379,-264.560668,1.417469,62.228871
1.965,-0.002717,-0.010553,0.038008,0.003095,0.010218,-0.037233,0.016505,-0.520076,0.037605,-1.159379,-264.560668,1.417469,62.228871
1.985,-0.002693,-0.010893,0.038801,0.003116,0.010442,-0.038008,0.016505,-0.520076,0.037605,-1.159379,-264.560668,1.417469,62.228871
2.0053,-0.0021,-0.009851,0.038256,0.003114,0.010781,-0.038801,0.01727,-0.520057,0.037105,-1.234456,-264.555513,1.444675,62.241158
2.0255,-0.001831,-0.01022,0.036972,0.002476,0.009764,-0.038256,0.017285,-0.520005,0.037139,-1.234456,-264.555513,1.444675,62.241158
2.0452,-0.000654,-0.010039,0.035038,0.002207,0.010145,-0.036972,0.017116,-0.519521,0.035718,-1.309374,-264.551068,1.478463,62.252585
2.0655,-0.000758,-0.009824,0.034856,0.001005,0.01001,-0.035038,0.017181,-0.519592,0.035184,-1.309374,-264.551068,1.478463,62.252585
2.0853,-0.000806,-0.009491,0.036382,0.001005,0.01001,-0.035038,0.017181,-0.519592,0.035184,-1.309374,-264.551068,1.478463,62.252585
2.1055,0.000129,-0.009418,0.034649,1.2e-05,9.9e-05,0.0,0.017839,-0.518725,0.03472,-1.384448,-264.546119,1.496206,62.264478
2.1256,0.000426,-0.009395,0.032442,1.2e-05,9.9e-05,0.0,0.017839,-0.518741,0.034669,-1.384448,-264.546119,1.496206,62.264478
2.1451,0.000882,-0.00879,0.032092,1.2e-05,9.9e-05,0.0,0.016995,-0.518801,0.031307,-1.459461,-264.542307,1.538813,62.274955
2.1652,0.001063,-0.008737,0.031245,1.2e-05,9.9e-05,0.0,0.017141,-0.518605,0.031615,-1.459461,-264.542307,1.538813,62.274955
2.1852,0.000927,-0.008968,0.032469,1.2e-05,9.9e-05,0.0,0.017141,-0.518605,0.031615,-1.459461,-264.542307,1.538813,62.274955
2.2051,0.000831,-0.009275,0.032654,1.2e-05,9.9e-05,0.0,0.017486,-0.518672,0.032428,-1.53464,-264.542322,1.463635,62.275388
2.2252,0.001171,-0.008898,0.031541,1.2e-05,9.9e-05,0.0,0.017485,-0.518697,0.032445,-1.53464,-264.542322,1.463635,62.275388
2.2455,0.000929,-0.008831,0.03244,1.2e-05,9.9e-05,0.0,0.017254,-0.518641,0.031541,-1.609717,-264.542348,1.449726,62.275414
2.2652,0.000933,-0.009025,0.032439,1.2e-05,9.9e-05,0.0,0.017377,-0.518596,0.032052,-1.609717,-264.542348,1.449726,62.275414
2.285,0.001375,-0.00911,0.033191,1.2e-05,9.9e-05,0.0,0.017377,-0.518596,0.032052,-1.609717,-264.542348,1.449726,62.275414
2.305,0.001,-0.00889,0.03139,1.2e-05,9.9e-05,0.0,0.0183,-0.518825,0.033191,-1.684378,-264.542384,1.449726,62.27545
2.3255,0.000806,-0.008914,0.031541,0.000168,0.001381,-0.005312,0.01821,-0.518812,0.033066,-1.684378,-264.542384,1.449726,62.27545
2.345,0.000893,-0.009238,0.031553,0.000328,0.002694,-0.010365,0.01689,-0.518656,0.031541,-1.691866,-264.542424,1.449726,62.27549
2.3655,0.001317,-0.008791,0.03287,0.000479,0.003935,-0.015142,0.016943,-0.518843,0.031548,-1.691866,-264.542424,1.449726,62.27549
2.3851,0.00123,-0.009112,0.032765,0.000621,0.005101,-0.019626,0.016943,-0.518843,0.031548,-1.691866,-264.542424,1.449726,62.27549
2.4054,0.001037,-0.009005,0.031614,0.000755,0.006202,-0.023861,0.017937,-0.518809,0.032653,-1.616844,-264.542099,1.524749,62.276296
2.425,0.0012,-0.00867,0.03314,0.000881,0.00724,-0.027857,0.017884,-0.518804,0.032579,-1.616844,-264.542099,1.524749,62.276296
2.445,0.001289,-0.00873,0.030775,0.000999,0.00821,-0.031591,0.018105,-0.518329,0.032717,-1.541823,-264.540047,1.534494,62.2796
2.4651,0.001689,-0.008566,0.030251,0.001104,0.009076,-0.034923,0.017465,-0.518413,0.031555,-1.541823,-264.540047,1.534494,62.2796
2.485,0.001061,-0.009087,0.032287,0.001203,0.009891,-0.038058,0.017465,-0.518413,0.031555,-1.541823,-264.540047,1.534494,62.2796
2.5049,0.001819,-0.008636,0.028591,0.001295,0.010647,-0.040965,0.017554,-0.518692,0.031344,-1.480915,-264.536353,1.534494,62.285396
2.5254,0.001767,-0.008754,0.0296,0.001376,0.011309,-0.043512,0.017477,-0.518671,0.031136,-1.480915,-264.536353,1.534494,62.285396
2.5453,0.002758,-0.008382,0.028754,0.001449,0.011912,-0.045833,0.016894,-0.518386,0.028511,-1.480915,-264.530983,1.534494,62.293709
2.5654,0.0028,-0.008851,0.030791,0.001515,0.01245,-0.047902,0.017196,-0.518247,0.028514,-1.480915,-264.530983,1.534494,62.293709
2.5852,0.002798,-0.00818,0.028256,0.00157,0.012908,-0.049665,0.017196,-0.518247,0.028514,-1.480915,-264.530983,1.534494,62.293709
2.6052,0.003488,-0.008382,0.028396,0.001618,0.013296,-0.051159,0.017256,-0.51769,0.026571,-1.480915,-264.52486,1.534494,62.304499
2.6255,0.003867,-0.008263,0.027038,0.001656,0.013615,-0.052385,0.017301,-0.517713,0.026644,-1.480915,-264.52486,1.534494,62.304499
2.6452,0.004468,-0.007836,0.025184,0.001687,0.013863,-0.053341,0.0177,-0.51777,0.025436,-1.480915,-264.517851,1.534494,62.31782
2.6655,0.004633,-0.007643,0.026052,0.001708,0.014041,-0.054025,0.017483,-0.517676,0.025089,-1.480915,-264.517851,1.534494,62.31782
2.6854,0.004563,-0.007606,0.024392,0.001721,0.014147,-0.054435,0.017483,-0.517676,0.025089,-1.480915,-264.517851,1.534494,62.31782
2.7055,0.005934,-0.007117,0.021767,0.001726,0.014183,-0.054572,0.017065,-0.516939,0.022087,-1.480915,-264.510473,1.534494,62.333618
2.7251,0.00589,-0.007136,0.02197,0.001721,0.014148,-0.054436,0.017065,-0.51693,0.022007,-1.480915,-264.510473,1.534494,62.333618
2.7453,0.007133,-0.006184,0.021696,0.001708,0.014041,-0.054025,0.017148,-0.516497,0.019918,-1.480915,-264.502797,1.534494,62.351933
2.7653,0.007433,-0.006138,0.020036,0.001687,0.013865,-0.053347,0.017753,-0.516185,0.020672,-1.480915,-264.502797,1.534494,62.351933
2.7854,0.007823,-0.006236,0.018374,0.001657,0.013616,-0.052391,0.017753,-0.516185,0.020672,-1.480915,-264.502797,1.534494,62.351933
2.805,0.008954,-0.005194,0.017379,0.001618,0.013299,-0.051168,0.017266,-0.515461,0.01573,-1.480915,-264.49514,1.534494,62.37087
2.8249,0.009011,-0.005561,0.017732,0.001571,0.012909,-0.049669,0.017304,-0.515421,0.015771,-1.480915,-264.49514,1.534494,62.37087
2.8452,0.009877,-0.004786,0.014931,0.001514,0.012445,-0.047885,0.018109,-0.514954,0.015709,-1.480915,-264.487732,1.534494,62.389192
2.8652,0.010435,-0.004659,0.014615,0.00145,0.011915,-0.045845,0.017762,-0.514758,0.015004,-1.480915,-264.487732,1.534494,62.389192
2.8854,0.010357,-0.004719,0.015476,0.001376,0.011313,-0.043527,0.017762,-0.514758,0.015004,-1.480915,-264.487732,1.534494,62.389192
2.9054,0.01123,-0.004274,0.013185,0.001295,0.01064,-0.040939,0.018316,-0.51403,0.013064,-1.480915,-264.480758,1.534494,62.40644
2.9254,0.011479,-0.004232,0.01271,0.001204,0.009896,-0.038075,0.018295,-0.514028,0.013013,-1.480915,-264.480758,1.534494,62.40644
2.9449,0.013025,-0.00379,0.009984,0.001105,0.00908,-0.034937,0.01801,-0.513753,0.011026,-1.480915,-264.474617,1.534494,62.421626
2.9656,0.012788,-0.003394,0.010297,0.000997,0.008193,-0.031526,0.018077,-0.513704,0.010219,-1.480915,-264.474617,1.534494,62.421626
2.985,0.013265,-0.004069,0.011294,0.000881,0.007237,-0.027847,0.018077,-0.513704,0.010219,-1.480915,-264.474617,1.534494,62.421626
3.0049,0.013632,-0.003637,0.006725,0.000755,0.006203,-0.023866,0.019078,-0.513555,0.009441,-1.480915,-264.46924,1.534494,62.434926
3.025,0.013486,-0.003361,0.008465,0.000622,0.00511,-0.01966,0.018932,-0.513547,0.009191,-1.480915,-264.46924,1.534494,62.434926
3.0453,0.014614,-0.003002,0.004756,0.000479,0.00394,-0.015161,0.017835,-0.513064,0.007395,-1.480915,-264.465305,1.534494,62.444657
3.0653,0.014587,-0.002633,0.008439,0.000328,0.002694,-0.010364,0.017376,-0.512989,0.005722,-1.480915,-264.465305,1.534494,62.444657
3.0852,0.014423,-0.002814,0.007201,0.000169,0.001386,-0.005331,0.017376,-0.512989,0.005722,-1.480915,-264.465305,1.534494,62.444657
3.1051,0.014531,-0.002627,0.006467,1e-06,6e-06,-2.1e-05,0.018124,-0.512553,0.00625,-1.480915,-264.462552,1.534494,62.451465
3.125,0.015081,-0.002509,0.005109,0.0,0.0,0.0,0.018106,-0.512551,0.00624,-1.480915,-264.462552,1.534494,62.451465
3.1449,0.015469,-0.002568,0.007266,0.0,0.0,0.0,0.017693,-0.512448,0.004903,-1.480915,-264.461801,1.534494,62.453324
3.1651,0.014977,-0.002509,0.00573,0.0,0.0,0.0,0.01854,-0.512502,0.006227,-1.480915,-264.461801,1.534494,62.453324
3.1851,0.015044,-0.002109,0.004405,0.0,0.0,0.0,0.01854,-0.512502,0.006227,-1.480915,-264.461801,1.534494,62.453324
3.2051,0.014867,-0.002412,0.005102,0.0,0.0,0.0,0.01729,-0.512105,0.004405,-1.480915,-264.461801,1.534494,62.453324
3.225,0.015187,-0.002451,0.006059,0.0,0.0,0.0,0.017302,-0.512124,0.004451,-1.480915,-264.461801,1.534494,62.453324
3.2453,0.015473,-0.002481,0.006184,0.0,0.0,0.0,0.018277,-0.512442,0.006059,-1.480915,-264.461801,1.534494,62.453324
3.2652,0.015026,-0.002524,0.006391,0.0,0.0,0.0,0.018477,-0.512459,0.006131,-1.480915,-264.461801,1.534494,62.453324
3.2851,0.015071,-0.002588,0.007551,0.0,0.0,0.0,0.018477,-0.512459,0.006131,-1.480915,-264.461801,1.534494,62.453324
3.3052,0.015234,-0.002517,0.005755,0.0,0.0,0.0,0.018922,-0.512573,0.007551,-1.480915,-264.461801,1.534494,62.453324
3.3251,0.015392,-0.002516,0.007317,-9.9e-05,1.7e-05,0.0,0.018857,-0.512568,0.007397,-1.480915,-264.461801,1.534494,62.453324
3.3456,0.015297,-0.002484,0.00506,-9.9e-05,1.7e-05,0.0,0.019124,-0.512502,0.007317,-1.480915,-264.461801,1.534494,62.453324
3.3652,0.015576,-0.002543,0.006308,-9.9e-05,1.7e-05,0.0,0.018418,-0.512488,0.006039,-1.480915,-264.461801,1.534494,62.453324
3.3852,0.015098,-0.002674,0.005182,-9.9e-05,1.7e-05,0.0,0.018418,-0.512488,0.006039,-1.480915,-264.461801,1.534494,62.453324
3.4051,0.015329,-0.002563,0.002895,-9.9e-05,1.7e-05,0.0,0.01774,-0.512667,0.005182,-1.406458,-264.461801,1.460037,62.453324
3.4254,0.015299,-0.002759,0.005649,-9.9e-05,1.7e-05,0.0,0.017676,-0.51266,0.005025,-1.406458,-264.461801,1.460037,62.453324
3.4452,0.014839,-0.00305,0.005872,-9.9e-05,1.7e-05,0.0,0.01818,-0.512751,0.005649,-1.331325,-264.461801,1.384904,62.453324
3.4653,0.015257,-0.002479,0.006137,-9.9e-05,1.7e-05,0.0,0.017982,-0.512917,0.005777,-1.331325,-264.461801,1.384904,62.453324
3.486,0.015323,-0.00279,0.005497,-9.9e-05,1.7e-05,0.0,0.017982,-0.512917,0.005777,-1.331325,-264.461801,1.384904,62.453324
3.5056,0.015315,-0.002722,0.00607,-9.9e-05,1.7e-05,0.0,0.018126,-0.512783,0.005497,-1.256332,-264.461801,1.309912,62.453324
3.5259,0.015028,-0.00246,0.006894,-9.9e-05,1.7e-05,0.0,0.018144,-0.512778,0.005533,-1.256332,-264.461801,1.309912,62.453324
3.545,0.015044,-0.002455,0.004689,-0.002227,0.000381,-0.000842,0.018544,-0.512448,0.006894,-1.181458,-264.461801,1.235037,62.453324
3.565,0.015121,-0.002468,0.005695,-0.00434,0.000743,-0.001641,0.017916,-0.512449,0.005645,-1.181458,-264.461801,1.235037,62.453324
3.5849,0.01506,-0.002912,0.006025,-0.006332,0.001084,-0.002394,0.017916,-0.512449,0.005645,-1.181458,-264.461801,1.235037,62.453324
3.605,0.015156,-0.002232,0.006024,-0.008217,0.001406,-0.003107,0.018132,-0.512903,0.006025,-1.10646,-264.461801,1.16004,62.453324
3.6251,0.01508,-0.002765,0.004261,-0.009986,0.001709,-0.003776,0.018139,-0.512856,0.006025,-1.10646,-264.461801,1.16004,62.453324
3.6449,0.015254,-0.002345,0.005609,-0.011643,0.001993,-0.004403,0.017253,-0.512761,0.004261,-1.031465,-264.461801,1.085044,62.453324
3.665,0.015342,-0.002415,0.006451,-0.01318,0.002256,-0.004984,0.017747,-0.512518,0.005034,-1.031465,-264.461801,1.085044,62.453324
3.6854,0.015338,-0.002261,0.005782,-0.014609,0.0025,-0.005525,0.017747,-0.512518,0.005034,-1.031465,-264.461801,1.085044,62.453324
3.7053,0.015004,-0.002394,0.006804,-0.015922,0.002725,-0.006021,0.018287,-0.512252,0.005782,-0.956335,-264.461801,1.009915,62.453324
3.7256,0.015087,-0.00267,0.004749,-0.017125,0.002931,-0.006476,0.0183,-0.512261,0.005852,-0.956335,-264.461801,1.009915,62.453324
3.745,0.015463,-0.002213,0.004002,-0.018205,0.003116,-0.006885,0.017509,-0.512664,0.004749,-0.881354,-264.461801,0.934934,62.453324
3.7656,0.015313,-0.002553,0.005991,-0.019179,0.003282,-0.007253,0.017506,-0.512403,0.004321,-0.881354,-264.461801,0.934934,62.453324
3.785,0.015247,-0.002603,0.005387,-0.020031,0.003428,-0.007575,0.017506,-0.512403,0.004321,-0.881354,-264.461801,0.934934,62.453324
3.8052,0.015683,-0.002347,0.004048,-0.020778,0.003556,-0.007857,0.017995,-0.512596,0.005387,-0.806324,-264.461801,0.859904,62.453324
3.8251,0.015197,-0.002794,0.004454,-0.021404,0.003663,-0.008094,0.017978,-0.512578,0.005294,-0.806324,-264.461801,0.859904,62.453324
3.8451,0.015428,-0.002583,0.005491,-0.021916,0.003751,-0.008288,0.017469,-0.512789,0.004454,-0.731453,-264.461801,0.785032,62.453324
3.8651,0.014851,-0.002728,0.006075,-0.022316,0.003819,-0.008439,0.0179,-0.512668,0.005042,-0.731453,-264.461801,0.785032,62.453324
3.8852,0.015306,-0.002404,0.004928,-0.0226,0.003868,-0.008546,0.0179,-0.512668,0.005042,-0.731453,-264.461801,0.785032,62.453324
3.9051,0.015426,-0.002403,0.006128,-0.022772,0.003897,-0.008611,0.017819,-0.512398,0.004928,-0.656464,-264.461801,0.710044,62.453324
3.9253,0.015309,-0.002009,0.004267,-0.022829,0.003907,-0.008633,0.017872,-0.512398,0.005014,-0.656464,-264.461801,0.710044,62.453324
3.9453,0.015367,-0.002451,0.00623,-0.022771,0.003897,-0.008611,0.017485,-0.512004,0.004267,-0.581316,-264.461801,0.634895,62.453324
3.9654,0.014931,-0.002272,0.005173,-0.022601,0.003868,-0.008547,0.018084,-0.512251,0.005378,-0.581316,-264.461801,0.634895,62.453324
3.9853,0.015005,-0.002468,0.00491,-0.022316,0.003819,-0.008439,0.018084,-0.512251,0.005378,-0.581316,-264.461801,0.634895,62.453324
4.0055,0.014938,-0.002577,0.007361,-0.021912,0.00375,-0.008286,0.017509,-0.512462,0.00491,-0.506459,-264.461801,0.560039,62.453324
4.0254,0.015541,-0.002469,0.00583,-0.021402,0.003663,-0.008093,0.017581,-0.512468,0.005058,-0.506459,-264.461801,0.560039,62.453324
4.0451,0.014972,-0.002841,0.00621,-0.020771,0.003555,-0.007855,0.018514,-0.51246,0.00583,-0.431467,-264.461801,0.485046,62.453324
4.0651,0.014883,-0.002653,0.004995,-0.020033,0.003429,-0.007576,0.018301,-0.512671,0.006046,-0.431467,-264.461801,0.485046,62.453324
4.085,0.015177,-0.002547,0.004531,-0.019178,0.003282,-0.007252,0.018301,-0.512671,0.006046,-0.431467,-264.461801,0.485046,62.453324
4.1054,0.015047,-0.002601,0.005378,-0.018202,0.003115,-0.006883,0.017488,-0.512542,0.004531,-0.356477,-264.461801,0.410056,62.453324
4.1253,0.015229,-0.002523,0.006538,-0.01712,0.00293,-0.006474,0.017511,-0.512546,0.004594,-0.356477,-264.461801,0.410056,62.453324
4.1453,0.015177,-0.002474,0.006676,-0.015919,0.002725,-0.00602,0.018563,-0.512512,0.006538,-0.281347,-264.461801,0.334926,62.453324
4.1651,0.015062,-0.002712,0.005908,-0.014604,0.002499,-0.005523,0.018573,-0.512484,0.006616,-0.281347,-264.461801,0.334926,62.453324
4.1852,0.015477,-0.002575,0.007349,-0.01317,0.002254,-0.00498,0.018573,-0.512484,0.006616,-0.281347,-264.461801,0.334926,62.453324
4.2052,0.014935,-0.002727,0.007043,-0.011635,0.001991,-0.0044,0.019224,-0.512561,0.007349,-0.206469,-264.461801,0.260048,62.453324
4.2257,0.015186,-0.002706,0.005583,-0.009977,0.001708,-0.003773,0.019166,-0.512574,0.007323,-0.206469,-264.461801,0.260048,62.453324
4.2455,0.015103,-0.002509,0.005403,-0.008215,0.001406,-0.003106,0.018032,-0.512698,0.005583,-0.130956,-264.461802,0.184535,62.453322
4.2651,0.015283,-0.002715,0.005965,-0.006336,0.001084,-0.002396,0.017934,-0.512586,0.005481,-0.130956,-264.461802,0.184535,62.453322
4.2854,0.015164,-0.00192,0.005017,-0.004338,0.000742,-0.00164,0.017934,-0.512586,0.005481,-0.130956,-264.461802,0.184535,62.453322
4.3055,0.015237,-0.002379,0.006391,-0.002225,0.000381,-0.000842,0.017721,-0.511914,0.005017,-0.056453,-264.461812,0.110033,62.453311
4.3254,0.015253,-0.002514,0.00548,-3e-06,0.0,-1e-06,0.017771,-0.511943,0.005105,-0.056453,-264.461812,0.110033,62.453311
4.3451,0.015309,-0.002421,0.007223,0.0,0.0,0.0,0.018046,-0.512506,0.00548,0.018544,-264.461837,0.035035,62.453285
4.3653,0.015207,-0.002504,0.006179,0.0,0.0,0.0,0.018583,-0.51245,0.00647,0.018544,-264.461837,0.035035,62.453285
4.3851,0.014967,-0.00251,0.004932,0.0,0.0,0.0,0.018583,-0.51245,0.00647,0.018544,-264.461837,0.035035,62.453285
4.4052,0.015051,-0.00265,0.004151,0.0,0.0,0.0,0.017483,-0.512504,0.004932,0.059743,-264.461837,-0.040042,62.453285
4.425,0.015147,-0.002754,0.006648,0.0,0.0,0.0,0.017461,-0.512514,0.004878,0.059743,-264.461837,-0.040042,62.453285
4.4451,0.015057,-0.002364,0.00671,0.0,0.0,0.0,0.018537,-0.512742,0.006648,0.059743,-264.461837,-0.040042,62.453285
4.4651,0.015027,-0.00271,0.005816,0.0,0.0,0.0,0.018504,-0.51252,0.006683,0.059743,-264.461837,-0.040042,62.453285
4.4852,0.01547,-0.002151,0.005282,0.0,0.0,0.0,0.018504,-0.51252,0.006683,0.059743,-264.461837,-0.040042,62.453285
4.5052,0.015049,-0.002524,0.003996,0.0,0.0,0.0,0.018164,-0.512144,0.005282,0.059743,-264.461837,-0.040042,62.453285
4.5258,0.015241,-0.002548,0.004509,0.0,0.0,0.0,0.018091,-0.51217,0.005194,0.059743,-264.461837,-0.040042,62.453285
4.5453,0.015393,-0.002336,0.006099,-9.9e-05,1.7e-05,0.0,0.01754,-0.512543,0.004509,0.059743,-264.461837,-0.040042,62.453285
4.565,0.015111,-0.002453,0.00619,-9.9e-05,1.7e-05,0.0,0.01808,-0.512422,0.0054,0.059743,-264.461837,-0.040042,62.453285
4.5854,0.015162,-0.002734,0.004928,-9.9e-05,1.7e-05,0.0,0.01808,-0.512422,0.0054,0.059743,-264.461837,-0.040042,62.453285
4.6049,0.015051,-0.002756,0.005586,-9.9e-05,1.7e-05,0.0,0.017676,-0.512727,0.004928,0.059743,-264.461837,-0.040042,62.453285
4.6253,0.015101,-0.002677,0.005999,-9.9e-05,1.7e-05,0.0,0.01769,-0.512729,0.004971,0.059743,-264.461837,-0.040042,62.453285
4.6454,0.015071,-0.002331,0.005736,-9.9e-05,1.7e-05,0.0,0.01816,-0.512667,0.005999,-0.015207,-264.46185,-0.114992,62.453272
4.6651,0.015054,-0.002599,0.004051,-9.9e-05,1.7e-05,0.0,0.018067,-0.512471,0.005849,-0.015207,-264.46185,-0.114992,62.453272
4.6853,0.015627,-0.002444,0.005587,-9.9e-05,1.7e-05,0.0,0.018067,-0.512471,0.005849,-0.015207,-264.46185,-0.114992,62.453272
4.7051,0.015191,-0.002674,0.005031,-9.9e-05,1.7e-05,0.0,0.018473,-0.512436,0.005587,-0.090202,-264.461876,-0.170172,62.453246
4.725,0.015153,-0.002436,0.005105,-9.9e-05,1.7e-05,0.0,0.018424,-0.512451,0.005549,-0.090202,-264.461876,-0.170172,62.453246
4.7451,0.015042,-0.002387,0.00554,-9.9e-05,1.7e-05,0.0,0.017753,-0.512429,0.005105,-0.165201,-264.461912,-0.170172,62.45321
4.7653,0.014911,-0.002717,0.004697,-0.002232,0.000383,-0.000661,0.017818,-0.512401,0.005353,-0.165201,-264.461912,-0.170172,62.45321
4.7853,0.01531,-0.002634,0.005222,-0.004338,0.000745,-0.001284,0.017818,-0.512401,0.005353,-0.165201,-264.461912,-0.170172,62.45321
4.8052,0.01539,-0.00238,0.006398,-0.006338,0.001089,-0.001876,0.017968,-0.512626,0.005222,-0.170172,-264.461952,-0.170172,62.45317
4.825,0.015429,-0.002469,0.006287,-0.008222,0.001413,-0.002434,0.018012,-0.51261,0.005297,-0.170172,-264.461952,-0.170172,62.45317
4.8451,0.01496,-0.002289,0.005751,-0.009995,0.001718,-0.002959,0.018571,-0.512449,0.006279,-0.095176,-264.462606,-0.245167,62.452476
4.8657,0.015055,-0.002695,0.006329,-0.011649,0.002002,-0.003449,0.018177,-0.512352,0.005977,-0.095176,-264.462606,-0.245167,62.452476
4.8852,0.015203,-0.002504,0.006129,-0.013191,0.002267,-0.003905,0.018177,-0.512352,0.005977,-0.095176,-264.462606,-0.245167,62.452476
4.9055,0.015006,-0.002546,0.005386,-0.01462,0.002512,-0.004328,0.018037,-0.512445,0.006054,-0.020125,-264.465006,-0.320219,62.449932
4.9251,0.014421,-0.002149,0.007132,-0.015933,0.002738,-0.004717,0.018009,-0.51245,0.006006,-0.020125,-264.465006,-0.320219,62.449932
4.9449,0.014568,-0.002581,0.004685,-0.017133,0.002944,-0.005072,0.017591,-0.512061,0.006996,0.008978,-264.46991,-0.33903,62.444882
4.965,0.0143,-0.00235,0.004172,-0.018219,0.003131,-0.005394,0.017169,-0.512346,0.005655,0.008978,-264.46991,-0.33903,62.444882
4.9852,0.01395,-0.002527,0.005009,-0.019192,0.003298,-0.005682,0.017169,-0.512346,0.005655,0.008978,-264.46991,-0.33903,62.444882
5.0056,0.013968,-0.002021,0.004037,-0.020045,0.003444,-0.005934,0.01573,-0.512391,0.00478,0.008978,-264.476276,-0.33903,62.438133
5.0254,0.013663,-0.002219,0.005606,-0.020787,0.003572,-0.006154,0.01573,-0.512362,0.004723,0.008978,-264.476276,-0.33903,62.438133
5.0454,0.012839,-0.002206,0.005963,-0.021416,0.00368,-0.00634,0.01578,-0.512088,0.005386,0.008978,-264.483965,-0.33903,62.42998
5.065,0.013075,-0.001912,0.005214,-0.02193,0.003768,-0.006492,0.015743,-0.512135,0.005688,0.008978,-264.483965,-0.33903,62.42998
5.0852,0.012678,-0.001615,0.004047,-0.02233,0.003837,-0.006611,0.015743,-0.512135,0.005688,0.008978,-264.483965,-0.33903,62.42998
5.1051,0.011785,-0.001718,0.006807,-0.022616,0.003886,-0.006696,0.013732,-0.511442,0.003748,0.008978,-264.492277,-0.33903,62.421166
5.1256,0.012143,-0.002086,0.004965,-0.022787,0.003916,-0.006746,0.013814,-0.511456,0.00396,0.008978,-264.492277,-0.33903,62.421166
5.145,0.01116,-0.0015,0.004087,-0.022844,0.003925,-0.006763,0.013811,-0.511936,0.004709,0.008978,-264.50121,-0.33903,62.411695
5.165,0.011112,-0.001674,0.003798,-0.022787,0.003916,-0.006746,0.013378,-0.511666,0.004321,0.008978,-264.50121,-0.33903,62.411695
5.1852,0.011287,-0.001573,0.003417,-0.022616,0.003886,-0.006695,0.013378,-0.511666,0.004321,0.008978,-264.50121,-0.33903,62.411695
5.205,0.009732,-0.001507,0.00317,-0.022329,0.003837,-0.00661,0.011921,-0.511383,0.003089,0.008978,-264.510324,-0.33903,62.402031
5.2255,0.010021,-0.001504,0.003852,-0.021931,0.003768,-0.006493,0.011852,-0.511387,0.003086,0.008978,-264.510324,-0.33903,62.402031
5.2451,0.009355,-0.001483,0.003988,-0.021412,0.003679,-0.006339,0.011112,-0.511354,0.003594,0.008978,-264.519374,-0.33903,62.392435
5.2651,0.008781,-0.001518,0.003094,-0.020789,0.003572,-0.006154,0.01116,-0.511407,0.003787,0.008978,-264.519374,-0.33903,62.392435
5.2851,0.008964,-0.001493,0.004174,-0.020046,0.003445,-0.005935,0.01116,-0.511407,0.003787,0.008978,-264.519374,-0.33903,62.392435
5.305,0.008247,-0.001032,0.004697,-0.01919,0.003298,-0.005681,0.010028,-0.51131,0.003859,0.008978,-264.528151,-0.33903,62.383128
5.3254,0.008352,-0.001182,0.003398,-0.018217,0.00313,-0.005393,0.010043,-0.511283,0.003912,0.008978,-264.528151,-0.33903,62.383128
5.3453,0.00735,-0.001164,0.002816,-0.017117,0.002941,-0.005067,0.009312,-0.511048,0.003169,0.008978,-264.536168,-0.33903,62.374628
5.3651,0.006921,-0.00089,0.002817,-0.015933,0.002738,-0.004717,0.008914,-0.511096,0.002939,0.008978,-264.536168,-0.33903,62.374628
5.385,0.007272,-0.000928,0.004121,-0.014622,0.002512,-0.004329,0.008914,-0.511096,0.002939,0.008978,-264.536168,-0.33903,62.374628
5.4052,0.006338,-0.000485,0.001842,-0.013194,0.002267,-0.003906,0.008489,-0.510775,0.003859,0.008978,-264.543442,-0.33903,62.366916
5.4253,0.006667,-0.000679,0.003175,-0.01165,0.002002,-0.003449,0.008382,-0.510751,0.003713,0.008978,-264.543442,-0.33903,62.366916
5.4456,0.00578,-0.000572,0.004285,-0.009992,0.001717,-0.002958,0.007721,-0.510581,0.003007,0.008978,-264.549292,-0.33903,62.360713
5.4652,0.006002,-0.000812,0.002512,-0.008225,0.001413,-0.002435,0.007789,-0.510561,0.003714,0.008978,-264.549292,-0.33903,62.360713
5.485,0.006048,-0.000717,0.00238,-0.00634,0.001089,-0.001877,0.007789,-0.510561,0.003714,0.008978,-264.549292,-0.33903,62.360713
5.5052,0.005395,-0.000835,0.002726,-0.004341,0.000746,-0.001285,0.006695,-0.51062,0.002213,0.008978,-264.553949,-0.33903,62.355775
5.5254,0.005177,-0.000438,0.003603,-0.002227,0.000383,-0.000659,0.006687,-0.510632,0.002243,0.008978,-264.553949,-0.33903,62.355775
5.5452,0.005078,-0.000801,0.003108,0.0,0.0,0.0,0.006769,-0.510394,0.00353,0.008978,-264.556491,-0.33903,62.35308
5.5654,0.005011,-0.000761,0.002551,0.0,0.0,0.0,0.006678,-0.510621,0.003279,0.008978,-264.556491,-0.33903,62.35308
5.585,0.005147,-0.000338,0.002698,0.0,0.0,0.0,0.006678,-0.510621,0.003279,0.008978,-264.556491,-0.33903,62.35308
5.605,0.005092,-0.000391,0.001485,0.0,0.0,0.0,0.006415,-0.510318,0.002666,0.008978,-264.55738,-0.33903,62.352137
5.6255,0.004535,-0.000177,0.00182,0.0,0.0,0.0,0.006371,-0.510323,0.00258,0.008978,-264.55738,-0.33903,62.352137
5.6451,0.005148,-0.000562,0.001851,0.0,0.0,0.0,0.005463,-0.510176,0.00182,0.008978,-264.55738,-0.33903,62.352137
5.665,0.005067,-0.000532,0.002558,0.0,0.0,0.0,0.005822,-0.510396,0.001837,0.008978,-264.55738,-0.33903,62.352137
5.6851,0.005423,-0.000369,0.001092,0.0,0.0,0.0,0.005822,-0.510396,0.001837,0.008978,-264.55738,-0.33903,62.352137
5.7052,0.005206,-0.0006,0.002026,0.0,0.0,0.0,0.00598,-0.510369,0.001092,0.008978,-264.55738,-0.33903,62.352137
5.7254,0.004805,-0.00077,0.001333,0.0,0.0,0.0,0.005998,-0.510385,0.001157,0.008978,-264.55738,-0.33903,62.352137
5.7451,0.005148,-0.000608,0.001784,0.0,0.0,0.0,0.005485,-0.510769,0.001333,0.008978,-264.55738,-0.33903,62.352137
5.7655,0.004932,-0.000336,0.001743,-9.9e-05,1.2e-05,0.0,0.005811,-0.510677,0.00159,0.008978,-264.55738,-0.33903,62.352137
5.785,0.004833,-0.000526,0.00335,-9.9e-05,1.2e-05,0.0,0.005811,-0.510677,0.00159,0.008978,-264.55738,-0.33903,62.352137
5.8052,0.005026,-0.000792,0.003128,-9.9e-05,1.2e-05,0.0,0.006542,-0.510523,0.00335,0.008978,-264.55738,-0.33903,62.352137
5.8263,0.005157,-0.001028,0.001863,-9.9e-05,1.2e-05,0.0,0.006547,-0.510542,0.003334,0.008978,-264.55738,-0.33903,62.352137
5.8451,0.00509,-0.000661,0.001916,-9.9e-05,1.2e-05,0.0,0.006106,-0.511027,0.001863,-0.065996,-264.557394,-0.264056,62.352123
5.8654,0.005465,-0.000306,0.002071,-9.9e-05,1.2e-05,0.0,0.006084,-0.510824,0.001892,-0.065996,-264.557394,-0.264056,62.352123
5.8855,0.004906,-0.000547,0.003703,-9.9e-05,1.2e-05,0.0,0.006084,-0.510824,0.001892,-0.065996,-264.557394,-0.264056,62.352123
5.9052,0.005032,-0.000719,0.002102,-9.9e-05,1.2e-05,0.0,0.006791,-0.510543,0.003703,-0.119297,-264.557421,-0.189042,62.352095
5.9253,0.005004,-0.000965,0.002167,-9.9e-05,1.2e-05,0.0,0.006749,-0.510554,0.003606,-0.119297,-264.557421,-0.189042,62.352095
5.9452,0.00523,-0.000964,0.002179,-9.9e-05,1.2e-05,0.0,0.006106,-0.510963,0.002167,-0.119297,-264.557458,-0.119297,62.352058
5.9652,0.005075,-0.000708,0.00313,-0.0,0.0,-0.0,0.006237,-0.510963,0.002174,-0.119297,-264.557458,-0.119297,62.352058
5.985,0.005554,-0.000455,0.002191,-0.000751,9e-05,-0.000261,0.006237,-0.510963,0.002174,-0.119297,-264.557458,-0.119297,62.352058
6.0051,0.005241,-0.00051,0.002876,-0.001464,0.000175,-0.000507,0.006667,-0.510454,0.002191,-0.119297,-264.557498,-0.119297,62.352018
6.0255,0.005234,-0.000729,0.001809,-0.002139,0.000256,-0.000742,0.00667,-0.510457,0.002239,-0.119297,-264.557498,-0.119297,62.352018
6.0451,0.004858,-0.00066,0.001768,-0.002777,0.000333,-0.000963,0.006149,-0.510728,0.001808,-0.044273,-264.557575,-0.194322,62.351938
6.0657,0.005077,-0.00035,0.00164,-0.003375,0.000405,-0.00117,0.005926,-0.510688,0.001785,-0.044273,-264.557575,-0.194322,62.351938
6.085,0.004968,-0.000208,0.000659,-0.003935,0.000472,-0.001364,0.005926,-0.510688,0.001785,-0.044273,-264.557575,-0.194322,62.351938
6.105,0.005141,-0.000695,0.001298,-0.004456,0.000534,-0.001545,0.005244,-0.510201,0.000644,0.030849,-264.55807,-0.269444,62.351419
6.1252,0.004675,-0.000519,0.00291,-0.004942,0.000592,-0.001713,0.005281,-0.510235,0.000689,0.030849,-264.55807,-0.269444,62.351419
6.145,0.005204,-0.000462,0.001133,-0.005384,0.000645,-0.001866,0.006022,-0.510501,0.002863,0.091623,-264.559503,-0.320201,62.349915
6.1651,0.005042,-0.000551,0.002095,-0.00579,0.000694,-0.002007,0.005866,-0.510476,0.001863,0.091623,-264.559503,-0.320201,62.349915
6.1852,0.005121,-0.000549,0.002426,-0.006155,0.000738,-0.002134,0.005866,-0.510476,0.001863,0.091623,-264.559503,-0.320201,62.349915
6.2052,0.004914,-0.000478,0.001777,-0.006485,0.000777,-0.002248,0.006118,-0.510519,0.002343,0.091623,-264.561483,-0.320201,62.347838
6.2253,0.004796,-0.000279,0.001227,-0.006774,0.000812,-0.002349,0.006093,-0.510515,0.002305,0.091623,-264.561483,-0.320201,62.347838
6.2456,0.004636,-0.000426,-6.7e-05,-0.007024,0.000842,-0.002435,0.005183,-0.51025,0.001144,0.091623,-264.563956,-0.320201,62.345244
6.2652,0.004405,-0.000242,0.000922,-0.007238,0.000868,-0.002509,0.004825,-0.510346,0.000452,0.091623,-264.563956,-0.320201,62.345244
6.2853,0.004776,-0.000618,0.001811,-0.007412,0.000888,-0.00257,0.004825,-0.510346,0.000452,0.091623,-264.563956,-0.320201,62.345244
6.3053,0.003952,-0.000394,0.000888,-0.007546,0.000905,-0.002616,0.00537,-0.510578,0.001697,0.091623,-264.566682,-0.320201,62.342384
6.326,0.003514,-0.000439,0.000412,-0.007643,0.000916,-0.00265,0.005293,-0.510564,0.001637,0.091623,-264.566682,-0.320201,62.342384
6.345,0.003907,-0.000582,0.00123,-0.007701,0.000923,-0.00267,0.003436,-0.510404,0.000312,0.091623,-264.569659,-0.320201,62.33926
6.3654,0.003554,-0.00023,0.001806,-0.00772,0.000925,-0.002677,0.004019,-0.5105,0.000817,0.091623,-264.569659,-0.320201,62.33926
6.3852,0.003938,-0.000824,-0.000458,-0.007701,0.000923,-0.00267,0.004019,-0.5105,0.000817,0.091623,-264.569659,-0.320201,62.33926
6.4051,0.003497,-0.000509,0.001289,-0.007643,0.000916,-0.00265,0.003333,-0.510779,-0.000587,0.091623,-264.572726,-0.320201,62.336043
6.4258,0.00341,3.3e-05,0.00247,-0.007547,0.000905,-0.002617,0.003383,-0.510758,-0.000454,0.091623,-264.572726,-0.320201,62.336043
6.4452,0.003433,-0.000428,0.00128,-0.007412,0.000888,-0.00257,0.004367,-0.50993,0.002365,0.091623,-264.575824,-0.320201,62.332793
6.4652,0.003268,-0.000103,0.002343,-0.007239,0.000868,-0.00251,0.004173,-0.510205,0.001744,0.091623,-264.575824,-0.320201,62.332793
6.4857,0.003189,-0.000193,-0.000212,-0.007026,0.000842,-0.002436,0.004173,-0.510205,0.001744,0.091623,-264.575824,-0.320201,62.332793
6.5052,0.003165,-0.000255,0.000316,-0.006776,0.000812,-0.002349,0.002714,-0.510149,-0.000339,0.091623,-264.578849,-0.320201,62.329619
6.5252,0.002745,-0.000198,0.000698,-0.006487,0.000778,-0.002249,0.002743,-0.510154,-0.000302,0.091623,-264.578849,-0.320201,62.329619
