mach0312/omni-docking-bench/src/icros_test_setup/results/kinematic_sample/timeseries/trial_084.csv
t,x,y,yaw,vx,vy,wz,bl_x,bl_y,bl_yaw,front_steering_joint,front_wheel_joint,rear_steering_joint,rear_wheel_joint
0.0,-0.000967,0.019454,0.030762,0.0,0.0,0.0,0.015269,-0.490478,0.031658,0.725252,-263.870351,-0.009493,62.167217
0.0004,-0.000716,0.019064,0.031216,0.0,0.0,0.0,0.015127,-0.489963,0.031326,0.725252,-263.87035,-0.009493,62.167218
0.0008,-0.000624,0.019296,0.030549,0.0,0.0,0.0,0.015127,-0.489963,0.031326,0.725252,-263.87035,-0.009493,62.167218
0.0011,-0.000489,0.019151,0.031843,0.0,0.0,0.0,0.015254,-0.490309,0.031091,0.725252,-263.87035,-0.009493,62.167218
0.0014,-0.000572,0.018961,0.029921,9.4e-05,3.4e-05,0.0,0.015254,-0.490309,0.031091,0.725252,-263.87035,-0.009493,62.167218
0.0017,-0.000582,0.019105,0.030293,9.4e-05,3.4e-05,0.0,0.015254,-0.490309,0.031091,0.725252,-263.87035,-0.009493,62.167218
0.002,-0.000623,0.019125,0.030184,9.4e-05,3.4e-05,0.0,0.015254,-0.490309,0.031091,0.650251,-263.87035,0.065508,62.167219
0.0023,-0.000691,0.019153,0.031688,9.4e-05,3.4e-05,0.0,0.015168,-0.490161,0.031234,0.650251,-263.87035,0.065508,62.167219
0.0025,-0.000518,0.019524,0.031452,9.4e-05,3.4e-05,0.0,0.015249,-0.490162,0.031362,0.650251,-263.87035,0.065508,62.167219
0.0028,-0.000761,0.019313,0.03165,9.4e-05,3.4e-05,0.0,0.015249,-0.490162,0.031362,0.650251,-263.87035,0.065508,62.167219
0.0189,-0.000756,0.019496,0.030614,0.00015,-0.015966,-0.03,0.015378,-0.490431,0.03165,0.575269,-263.870347,0.14049,62.167221
0.0384,-0.00086,0.019558,0.032711,0.000159,-0.01951,-0.030614,0.015078,-0.490336,0.031057,0.575269,-263.870347,0.14049,62.167221
0.0583,-0.000836,0.019398,0.031535,0.00022,-0.019576,-0.032711,0.015078,-0.490336,0.031057,0.575269,-263.870347,0.14049,62.167221
0.0784,-0.001013,0.019582,0.030548,0.000224,-0.019414,-0.031535,0.015245,-0.490348,0.031535,0.500145,-263.870338,0.215614,62.16723
0.0986,-0.000953,0.019267,0.032119,0.000414,-0.019604,-0.030548,0.015197,-0.490337,0.031466,0.500145,-263.870338,0.215614,62.16723
0.1185,-0.000943,0.019899,0.03282,0.000333,-0.019287,-0.032119,0.015425,-0.49047,0.032119,0.575027,-263.870338,0.290497,62.16723
0.1387,-0.000546,0.019475,0.0329,0.000289,-0.019919,-0.03282,0.015636,-0.4901,0.032522,0.575027,-263.870338,0.290497,62.16723
0.1586,-0.000653,0.019367,0.031704,-9.5e-05,-0.019482,-0.0329,0.015636,-0.4901,0.032522,0.575027,-263.870338,0.290497,62.16723
0.1784,-0.000577,0.01941,0.031971,3.9e-05,-0.019378,-0.031704,0.015513,-0.490377,0.031704,0.650191,-263.870338,0.215333,62.16723
0.1983,-0.000583,0.01912,0.032231,-4.3e-05,-0.019418,-0.031971,0.015527,-0.490374,0.031722,0.650191,-263.870338,0.215333,62.16723
0.2187,-0.000923,0.019292,0.031635,-3.4e-05,-0.019129,-0.032231,0.015852,-0.490615,0.032231,0.725025,-263.870338,0.290166,62.16723
0.2386,-0.000739,0.019355,0.029647,0.000312,-0.019312,-0.031635,0.015484,-0.490522,0.031891,0.725025,-263.870338,0.290166,62.16723
0.2585,-0.000979,0.019198,0.032193,0.000165,-0.019369,-0.029647,0.015484,-0.490522,0.031891,0.725025,-263.870338,0.290166,62.16723
0.2784,-0.000434,0.01937,0.031938,0.000361,-0.019219,-0.032193,0.015436,-0.490538,0.032193,0.800166,-263.870338,0.215025,62.16723
0.2987,-0.001061,0.019403,0.031741,-0.000184,-0.019374,-0.031938,0.015469,-0.490525,0.032173,0.800166,-263.870338,0.215025,62.16723
0.3182,-0.000217,0.01968,0.031882,0.000445,-0.019427,-0.031741,0.015124,-0.49034,0.031741,0.875351,-263.870338,0.290211,62.16723
0.3381,-0.000927,0.019523,0.032279,-0.000411,-0.019677,-0.031882,0.015652,-0.490179,0.031822,0.875351,-263.870338,0.290211,62.16723
0.3583,-0.000745,0.019314,0.031908,0.000296,-0.019543,-0.032279,0.015652,-0.490179,0.031822,0.875351,-263.870338,0.290211,62.16723
0.3785,-0.001021,0.019349,0.031966,0.000128,-0.019328,-0.031908,0.015526,-0.490427,0.031908,0.950305,-263.870338,0.215258,62.16723
0.3989,-0.000624,0.019274,0.032769,0.000402,-0.019371,-0.031966,0.015509,-0.490424,0.031912,0.950305,-263.870338,0.215258,62.16723
0.4185,-0.000855,0.019477,0.031069,-8e-06,-0.019285,-0.032769,0.016085,-0.490452,0.032769,1.025028,-263.870342,0.289981,62.16723
0.4383,-0.000613,0.019332,0.031234,0.000249,-0.019494,-0.031069,0.015464,-0.490353,0.031808,1.025028,-263.870342,0.289981,62.16723
0.4587,-0.000698,0.019378,0.030485,9e-06,-0.019341,-0.031234,0.015464,-0.490353,0.031808,1.025028,-263.870342,0.289981,62.16723
0.4783,-0.000837,0.019328,0.031397,0.000107,-0.019391,-0.030485,0.014845,-0.490389,0.030478,1.100156,-263.870421,0.361423,62.167231
0.4995,-0.000709,0.019512,0.031437,0.00023,-0.019345,-0.031397,0.014862,-0.490391,0.030528,1.100156,-263.870421,0.361423,62.167231
0.5182,-0.000789,0.01914,0.029927,9.6e-05,-0.019525,-0.031437,0.015321,-0.490236,0.031437,1.175022,-263.870421,0.43629,62.167231
0.5384,-0.001074,0.019261,0.030636,0.000216,-0.019155,-0.029927,0.014845,-0.490458,0.030591,1.175022,-263.870421,0.43629,62.167231
0.5583,-0.000646,0.01955,0.02996,0.000483,-0.019285,-0.030636,0.014845,-0.490458,0.030591,1.175022,-263.870421,0.43629,62.167231
0.5787,-0.000964,0.019302,0.032913,6e-05,-0.01956,-0.02996,0.014631,-0.490221,0.02996,1.250033,-263.870421,0.361279,62.167231
0.5986,-0.000942,0.019087,0.031539,0.000329,-0.019323,-0.032913,0.014718,-0.490236,0.030175,1.250033,-263.870421,0.361279,62.167231
0.6185,-0.000695,0.019615,0.03265,0.00034,-0.019107,-0.031539,0.01514,-0.49066,0.031539,1.325147,-263.870421,0.286165,62.167231
0.6383,-0.000588,0.019292,0.031255,5.4e-05,-0.019628,-0.03265,0.015607,-0.490346,0.032176,1.325147,-263.870421,0.286165,62.167231
0.6584,-0.000714,0.019224,0.031923,-1.5e-05,-0.019301,-0.031255,0.015607,-0.490346,0.032176,1.325147,-263.870421,0.286165,62.167231
0.6786,-0.000804,0.019378,0.031499,0.0001,-0.019237,-0.031923,0.015564,-0.490516,0.031923,1.400158,-263.870422,0.361176,62.167231
0.6987,-0.000533,0.019226,0.031028,0.000193,-0.019394,-0.031499,0.015542,-0.490506,0.031894,1.400158,-263.870422,0.361176,62.167231
0.7187,-0.001117,0.019489,0.030277,-6.4e-05,-0.019233,-0.031028,0.015289,-0.490529,0.031028,1.475124,-263.870422,0.436142,62.167231
0.7383,-0.000973,0.019339,0.031789,0.000527,-0.019513,-0.030277,0.014736,-0.490385,0.030599,1.475124,-263.870422,0.436142,62.167231
0.7583,-0.00055,0.019758,0.032526,0.000358,-0.01936,-0.031789,0.014736,-0.490385,0.030599,1.475124,-263.870422,0.436142,62.167231
0.7782,-0.000926,0.019157,0.031136,-9.3e-05,-0.019765,-0.032526,0.016035,-0.489973,0.032526,1.55014,-263.870424,0.361127,62.167231
0.7985,-0.000838,0.019513,0.031675,0.000329,-0.019177,-0.031136,0.015957,-0.490018,0.032425,1.55014,-263.870424,0.361127,62.167231
0.8184,-0.000794,0.018977,0.030495,0.00022,-0.01953,-0.031675,0.015321,-0.49035,0.031476,1.580016,-263.872925,0.286143,62.167301
0.8385,-0.000735,0.019133,0.030756,0.000215,-0.018993,-0.030495,0.014998,-0.490615,0.030888,1.580016,-263.872925,0.286143,62.167301
0.8583,-0.00072,0.019441,0.030979,0.000146,-0.019147,-0.030756,0.014998,-0.490615,0.030888,1.580016,-263.872925,0.286143,62.167301
0.8784,-0.000747,0.019182,0.029693,0.000118,-0.019454,-0.030979,0.015077,-0.490314,0.030979,1.579407,-263.872928,0.211108,62.167301
0.8986,-0.000185,0.018981,0.031573,0.000177,-0.019196,-0.029693,0.015031,-0.490333,0.030892,1.579407,-263.872928,0.211108,62.167301
0.9186,-0.000623,0.019441,0.030088,-0.000414,-0.018977,-0.031573,0.015914,-0.490765,0.031573,1.574651,-263.872929,0.136226,62.167301
0.9383,-0.000743,0.01909,0.030086,3.8e-05,-0.019451,-0.030088,0.015229,-0.490515,0.030722,1.574651,-263.872929,0.136226,62.167301
0.9583,-0.000543,0.018994,0.031129,0.000168,-0.019104,-0.030086,0.015229,-0.490515,0.030722,1.574651,-263.872929,0.136226,62.167301
0.9785,-0.000574,0.01908,0.029734,-4.8e-05,-0.019002,-0.031129,0.01533,-0.490759,0.031129,1.575532,-263.872931,0.061129,62.167301
0.9984,-0.000713,0.018809,0.031572,7e-06,-0.019089,-0.029734,0.015279,-0.490754,0.031033,1.575532,-263.872931,0.061129,62.167301
1.0186,-0.000626,0.019346,0.029744,0.000119,-0.018822,-0.031572,0.015386,-0.490937,0.031572,1.57529,-263.872932,-0.013762,62.167301
1.0385,-0.000379,0.01905,0.030875,5.1e-05,-0.019356,-0.029744,0.014912,-0.490652,0.030546,1.57529,-263.872932,-0.013762,62.167301
1.0592,-0.000243,0.019282,0.030455,-0.00021,-0.019052,-0.030875,0.014912,-0.490652,0.030546,1.57529,-263.872932,-0.013762,62.167301
1.0788,-0.000393,0.01886,0.03048,-0.000344,-0.019281,-0.030455,0.015287,-0.490481,0.030455,1.570971,-263.872934,-0.088777,62.167301
1.0986,-0.000518,0.019326,0.032987,-0.000182,-0.018863,-0.03048,0.015278,-0.490509,0.030456,1.570971,-263.872934,-0.088777,62.167301
1.1184,-0.000685,0.019113,0.030957,-0.000119,-0.019333,-0.032987,0.016302,-0.490396,0.032987,1.565267,-263.872935,-0.013773,62.167301
1.1383,-0.000619,0.019058,0.031351,9.3e-05,-0.019125,-0.030957,0.015621,-0.490536,0.031836,1.565267,-263.872935,-0.013773,62.167301
1.1583,-0.000583,0.019431,0.030951,2.1e-05,-0.019068,-0.031351,0.015621,-0.490536,0.031836,1.565267,-263.872935,-0.013773,62.167301
1.1786,-0.000566,0.0193,0.031079,-1.9e-05,-0.019439,-0.030951,0.0152,-0.490325,0.030951,1.565951,-263.872937,0.061214,62.167301
1.1987,-0.000568,0.01907,0.032273,-3.4e-05,-0.019309,-0.031079,0.015205,-0.490334,0.030959,1.565951,-263.872937,0.061214,62.167301
1.2185,-0.00053,0.019378,0.030493,-4.8e-05,-0.019078,-0.032273,0.015889,-0.490665,0.032273,1.57135,-263.872938,0.136219,62.167301
1.2386,-0.000614,0.019392,0.03049,-6.1e-05,-0.019385,-0.030493,0.015393,-0.490505,0.031257,1.57135,-263.872938,0.136219,62.167301
1.2586,-0.00081,0.018799,0.0281,2.2e-05,-0.019402,-0.03049,0.015393,-0.490505,0.031257,1.57135,-263.872938,0.136219,62.167301
1.2782,-0.000866,0.018743,0.031389,0.000281,-0.018814,-0.0281,0.01352,-0.491,0.0281,1.569918,-263.87294,0.211261,62.167301
1.2982,-0.000733,0.019255,0.03197,0.000277,-0.018761,-0.031389,0.013618,-0.491001,0.0283,1.569918,-263.87294,0.211261,62.167301
1.3183,-0.000317,0.019402,0.029977,0.000117,-0.019268,-0.03197,0.015569,-0.490485,0.03197,1.571382,-263.872941,0.286199,62.167301
1.3387,-0.000702,0.019484,0.031375,-0.000265,-0.019403,-0.029977,0.015227,-0.490418,0.030832,1.571382,-263.872941,0.286199,62.167301
1.3587,-0.000566,0.019412,0.031076,9.1e-05,-0.019497,-0.031375,0.015227,-0.490418,0.030832,1.571382,-263.872941,0.286199,62.167301
1.3785,-0.000744,0.0193,0.031532,-3.8e-05,-0.01942,-0.031076,0.015281,-0.490342,0.031076,1.578108,-263.872947,0.361277,62.167301
1.3989,-0.000648,0.019003,0.031675,0.000135,-0.019314,-0.031532,0.015284,-0.490349,0.031106,1.578108,-263.872947,0.361277,62.167301
1.4185,-0.001002,0.01905,0.031829,4.6e-05,-0.019014,-0.031675,0.015503,-0.490741,0.031675,1.573147,-263.872948,0.286338,62.167301
1.4386,-0.000614,0.019056,0.030992,0.000395,-0.019072,-0.031829,0.015347,-0.490713,0.031762,1.573147,-263.872948,0.286338,62.167301
1.4586,-0.000943,0.019173,0.030992,2.4e-05,-0.019066,-0.030992,0.015347,-0.490713,0.031762,1.573147,-263.872948,0.286338,62.167301
1.479,-0.00031,0.019087,0.030884,0.000349,-0.019193,-0.030992,0.01486,-0.490582,0.030992,1.574306,-263.872955,0.211338,62.167301
1.4989,-0.00078,0.019297,0.031595,-0.00028,-0.019088,-0.030884,0.014899,-0.490588,0.030985,1.574306,-263.872955,0.211338,62.167301
1.5187,-0.001083,0.019364,0.033051,0.00017,-0.019312,-0.031595,0.015331,-0.490449,0.031595,1.571415,-263.872957,0.286344,62.167301
1.5385,-0.000629,0.019521,0.031864,0.000442,-0.019389,-0.033051,0.01558,-0.490397,0.03242,1.571415,-263.872957,0.286344,62.167301
1.5584,-0.000847,0.019347,0.031159,7e-06,-0.019531,-0.031864,0.01558,-0.490397,0.03242,1.571415,-263.872957,0.286344,62.167301
1.5784,-0.000598,0.019021,0.031801,0.000244,-0.019364,-0.031159,0.015043,-0.490479,0.031038,1.563432,-263.874176,0.361336,62.167289
1.5987,-0.000567,0.0193,0.030876,-7e-06,-0.019031,-0.031801,0.015088,-0.490501,0.031095,1.563432,-263.874176,0.361336,62.167289
1.6183,-0.000683,0.018865,0.031102,-2.9e-05,-0.019309,-0.030876,0.015177,-0.490457,0.030876,1.570972,-263.874177,0.436643,62.167289
1.6384,-0.00079,0.019102,0.029654,9.6e-05,-0.018877,-0.031102,0.015177,-0.490703,0.031005,1.570972,-263.874177,0.436643,62.167289
1.6583,-0.000571,0.019256,0.030344,0.000224,-0.019117,-0.029654,0.015177,-0.490703,0.031005,1.570972,-263.874177,0.436643,62.167289
1.6783,-0.000462,0.019035,0.030362,-1.4e-05,-0.019264,-0.030344,0.014902,-0.490509,0.030344,1.570604,-263.874179,0.511419,62.167289
1.6982,-0.000738,0.019275,0.029707,-0.000116,-0.01904,-0.030362,0.014911,-0.490525,0.030345,1.570604,-263.874179,0.511419,62.167289
1.7185,-0.000706,0.019244,0.032297,0.000166,-0.019288,-0.029707,0.01441,-0.4905,0.029707,1.576806,-263.87418,0.436398,62.16729
1.7383,-0.000885,0.020015,0.03135,8.4e-05,-0.019257,-0.032297,0.015186,-0.490494,0.031192,1.576806,-263.87418,0.436398,62.16729
1.7584,-0.000596,0.019385,0.031594,0.000258,-0.020032,-0.03135,0.015186,-0.490494,0.031192,1.576806,-263.87418,0.436398,62.16729
1.7783,-0.000605,0.019127,0.029991,-1.7e-05,-0.019394,-0.031594,0.015515,-0.490361,0.031594,1.5677,-263.874182,0.511428,62.16729
1.7988,-0.000478,0.019177,0.031502,3.1e-05,-0.019137,-0.029991,0.015458,-0.49038,0.031483,1.5677,-263.874182,0.511428,62.16729
1.8183,-0.000521,0.019014,0.032422,-0.000126,-0.019182,-0.031502,0.015585,-0.49057,0.031502,1.57737,-263.874183,0.436475,62.16729
1.8384,-0.000738,0.019055,0.030975,-9.6e-05,-0.019021,-0.032422,0.015829,-0.490655,0.032029,1.57737,-263.874183,0.436475,62.16729
1.8582,-0.00055,0.019026,0.03145,0.000148,-0.019068,-0.030975,0.015829,-0.490655,0.032029,1.57737,-263.874183,0.436475,62.16729
1.8783,-0.000582,0.019147,0.031711,-4.8e-05,-0.019034,-0.03145,0.015487,-0.490722,0.03145,1.571634,-263.874185,0.51148,62.16729
1.8987,-0.000372,0.019177,0.030138,-2.5e-05,-0.019156,-0.031711,0.015494,-0.490713,0.031468,1.571634,-263.874185,0.51148,62.16729
1.9183,-0.000222,0.01901,0.031068,-0.000206,-0.019179,-0.030138,0.014996,-0.490592,0.030138,1.574686,-263.874186,0.436546,62.16729
1.9385,-0.000681,0.019124,0.031,-0.000368,-0.019008,-0.031068,0.015351,-0.490678,0.030667,1.574686,-263.874186,0.436546,62.16729
1.9585,-0.000665,0.019183,0.031669,8.8e-05,-0.019136,-0.031,0.015351,-0.490678,0.030667,1.574686,-263.874186,0.436546,62.16729
1.9783,-0.000593,0.019347,0.033073,5.8e-05,-0.019195,-0.031669,0.015483,-0.490561,0.031668,1.570146,-263.874188,0.511917,62.16729
1.9985,-0.000848,0.019072,0.032111,-4.7e-05,-0.019356,-0.033073,0.015535,-0.490549,0.031761,1.570146,-263.874188,0.511917,62.16729
2.0182,-0.000513,0.01939,0.032746,0.000235,-0.01909,-0.032111,0.015526,-0.490665,0.032111,1.573116,-263.874189,0.437312,62.16729
2.0381,-0.00094,0.018896,0.030249,-0.000122,-0.019396,-0.032746,0.015901,-0.490478,0.032473,1.573116,-263.874189,0.437312,62.16729
2.0583,-0.000449,0.019253,0.030906,0.000368,-0.018916,-0.030249,0.015901,-0.490478,0.032473,1.573116,-263.874189,0.437312,62.16729
2.0783,-0.000281,0.01916,0.030918,-0.000146,-0.019258,-0.030906,0.015311,-0.490503,0.030906,1.569617,-263.874191,0.512294,62.16729
2.0988,-0.000616,0.019153,0.031174,-0.000312,-0.01916,-0.030918,0.015323,-0.49051,0.030907,1.569617,-263.874191,0.512294,62.16729
2.1187,-0.000553,0.019079,0.033102,1.8e-05,-0.019163,-0.031174,0.01528,-0.490599,0.031174,1.580633,-263.874192,0.437282,62.16729
2.1383,-0.000711,0.018959,0.031159,-7.9e-05,-0.019087,-0.033102,0.015875,-0.490623,0.03227,1.580633,-263.874192,0.437282,62.16729
2.1583,-0.000527,0.019121,0.031411,0.00012,-0.018972,-0.031159,0.015875,-0.490623,0.03227,1.580633,-263.874192,0.437282,62.16729
2.1783,-0.000469,0.018934,0.033481,-7.4e-05,-0.019128,-0.031411,0.015491,-0.490781,0.031164,1.562605,-263.876694,0.512272,62.167247
2.1991,-0.0004,0.019142,0.031047,-0.000165,-0.018939,-0.033481,0.015568,-0.490785,0.031317,1.562605,-263.876694,0.512272,62.167247
2.2182,-0.000311,0.018579,0.030502,-0.000194,-0.019145,-0.031047,0.015441,-0.490856,0.030644,1.573947,-263.881696,0.456687,62.167298
2.2381,5.4e-05,0.018827,0.029407,-0.000256,-0.01858,-0.030502,0.015331,-0.491069,0.030515,1.573947,-263.881696,0.456687,62.167298
2.2583,-0.000105,0.018451,0.029494,-0.000608,-0.018817,-0.029407,0.015331,-0.491069,0.030515,1.573947,-263.881696,0.456687,62.167298
2.2784,0.000183,0.01828,0.030313,-0.000439,-0.018447,-0.029494,0.014935,-0.491327,0.029494,1.566613,-263.881698,0.531733,62.167298
2.2984,-0.000143,0.018575,0.030572,-0.000737,-0.018266,-0.030313,0.014983,-0.491338,0.02955,1.566613,-263.881698,0.531733,62.167298
2.3183,-0.000126,0.018647,0.028715,-0.000425,-0.018571,-0.030572,0.015446,-0.491225,0.030512,1.554276,-263.882472,0.606687,62.167275
2.3384,-0.000228,0.018853,0.03063,-0.00041,-0.018643,-0.028715,0.01492,-0.491183,0.029487,1.554276,-263.882472,0.606687,62.167275
2.3585,-0.00023,0.018763,0.029488,-0.000349,-0.018851,-0.03063,0.01492,-0.491183,0.029487,1.554276,-263.882472,0.606687,62.167275
2.3785,-0.000541,0.01851,0.030891,-0.000323,-0.018762,-0.029488,0.014806,-0.491015,0.029487,1.550749,-263.882473,0.531675,62.167275
2.3988,0.000322,0.018979,0.029792,-3.1e-05,-0.018518,-0.030891,0.014834,-0.491031,0.029583,1.550749,-263.882473,0.531675,62.167275
2.4183,9.1e-05,0.018455,0.029932,-0.000888,-0.018961,-0.029792,0.015512,-0.490918,0.029598,1.5615,-263.884975,0.456686,62.167166
2.4383,-0.000179,0.018159,0.031157,-0.000643,-0.018444,-0.029932,0.015421,-0.49116,0.029764,1.5615,-263.884975,0.456686,62.167166
2.4583,0.000189,0.018462,0.029522,-0.000387,-0.018156,-0.031157,0.015421,-0.49116,0.029764,1.5615,-263.884975,0.456686,62.167166
2.4784,-0.000155,0.018399,0.0305,-0.000734,-0.018448,-0.029522,0.015243,-0.491316,0.029522,1.569967,-263.884976,0.531725,62.167166
2.4992,0.000234,0.018561,0.027903,-0.000406,-0.018395,-0.0305,0.015253,-0.491319,0.029589,1.569967,-263.884976,0.531725,62.167166
2.5186,-2.3e-05,0.018133,0.029933,-0.000752,-0.018547,-0.027903,0.014463,-0.49124,0.027903,1.560386,-263.884978,0.456775,62.167166
2.5382,-6e-06,0.01832,0.029287,-0.00052,-0.018126,-0.029933,0.014905,-0.491467,0.029057,1.560386,-263.884978,0.456775,62.167166
2.5588,0.000309,0.018609,0.029607,-0.000531,-0.018312,-0.029287,0.014905,-0.491467,0.029057,1.560386,-263.884978,0.456775,62.167166
2.5786,-0.00036,0.018212,0.030073,-0.00086,-0.018592,-0.029607,0.015406,-0.491167,0.029607,1.559835,-263.884979,0.381758,62.167166
2.5985,3.6e-05,0.018649,0.031094,-0.000188,-0.018214,-0.030073,0.015378,-0.491193,0.029637,1.559835,-263.884979,0.381758,62.167166
2.6188,-8.8e-05,0.018428,0.028629,-0.000616,-0.018639,-0.031094,0.015891,-0.491227,0.030899,1.556133,-263.887493,0.457017,62.167099
2.6386,6.8e-05,0.018213,0.029791,-0.000439,-0.018423,-0.028629,0.015093,-0.491321,0.029562,1.556133,-263.887493,0.457017,62.167099
2.6586,0.00043,0.018462,0.028043,-0.000611,-0.018203,-0.029791,0.015093,-0.491321,0.029562,1.556133,-263.887493,0.457017,62.167099
2.6784,7.5e-05,0.018282,0.031741,-0.000947,-0.018443,-0.028043,0.014729,-0.491337,0.028042,1.565657,-263.887494,0.381917,62.167099
2.6985,0.000232,0.018545,0.029469,-0.000655,-0.01827,-0.031741,0.014829,-0.491345,0.028282,1.565657,-263.887494,0.381917,62.167099
2.7182,0.000249,0.018174,0.029316,-0.000778,-0.01853,-0.029469,0.015259,-0.49131,0.029345,1.554016,-263.889073,0.307292,62.167073
2.7383,0.000123,0.018174,0.029029,-0.000782,-0.018159,-0.029316,0.015224,-0.491488,0.029313,1.554016,-263.889073,0.307292,62.167073
2.7581,0.00033,0.017879,0.030421,-0.00065,-0.018163,-0.029029,0.015224,-0.491488,0.029313,1.554016,-263.889073,0.307292,62.167073
2.7784,0.000347,0.018326,0.02861,-0.000873,-0.017861,-0.030421,0.015842,-0.491885,0.030421,1.553392,-263.889075,0.232289,62.167073
2.7989,0.00012,0.018647,0.030532,-0.000871,-0.018309,-0.02861,0.01578,-0.491856,0.030296,1.553392,-263.889075,0.232289,62.167073
2.8187,0.000341,0.018175,0.029851,-0.000689,-0.018635,-0.030532,0.015688,-0.491204,0.030388,1.552687,-263.890898,0.307292,62.167033
2.8384,0.000423,0.018208,0.029337,-0.000884,-0.018157,-0.029851,0.015617,-0.491438,0.030066,1.552687,-263.890898,0.307292,62.167033
2.8587,0.000483,0.018123,0.029773,-0.000957,-0.018188,-0.029337,0.015617,-0.491438,0.030066,1.552687,-263.890898,0.307292,62.167033
2.8784,1.3e-05,0.018057,0.029105,-0.001022,-0.018101,-0.029773,0.015664,-0.491679,0.029729,1.546446,-263.891347,0.382288,62.167018
2.8983,8.3e-05,0.018516,0.029918,-0.000538,-0.018049,-0.029105,0.015609,-0.491683,0.029685,1.546446,-263.891347,0.382288,62.167018
2.9186,0.000366,0.017983,0.027183,-0.000637,-0.018505,-0.029918,0.015324,-0.491404,0.029693,1.544299,-263.894296,0.307274,62.166687
2.9384,-5.7e-05,0.017654,0.029986,-0.000855,-0.017966,-0.027183,0.0147,-0.491664,0.028239,1.544299,-263.894296,0.307274,62.166687
2.9584,0.000376,0.017955,0.029555,-0.000473,-0.017647,-0.029986,0.0147,-0.491664,0.028239,1.544299,-263.894296,0.307274,62.166687
2.9783,0.001213,0.017623,0.028495,-0.000906,-0.017936,-0.029555,0.015443,-0.492157,0.029019,1.55577,-263.89974,0.382262,62.166529
2.9992,0.000486,0.017718,0.02719,-0.001715,-0.017581,-0.028495,0.015462,-0.492167,0.028971,1.55577,-263.89974,0.382262,62.166529
3.0185,0.000878,0.017262,0.027897,-0.000967,-0.017699,-0.02719,0.014351,-0.492093,0.02719,1.557652,-263.899741,0.307328,62.166528
3.0383,0.000883,0.017391,0.027475,-0.001359,-0.01723,-0.027897,0.014778,-0.492347,0.027592,1.557652,-263.899741,0.307328,62.166528
3.0582,0.000902,0.017452,0.029335,-0.00136,-0.01736,-0.027475,0.014778,-0.492347,0.027592,1.557652,-263.899741,0.307328,62.166528
3.0787,0.001028,0.017522,0.0277,-0.001414,-0.017418,-0.029335,0.015838,-0.492486,0.029094,1.521819,-263.902245,0.232263,62.166184
3.0986,0.001008,0.017662,0.028769,-0.001513,-0.017487,-0.0277,0.015789,-0.492476,0.02899,1.521819,-263.902245,0.232263,62.166184
3.1185,0.000979,0.017234,0.027471,-0.001515,-0.017626,-0.028769,0.015658,-0.492375,0.028382,1.530975,-263.907248,0.307269,62.165813
3.1385,0.001024,0.017237,0.028095,-0.001452,-0.017201,-0.027471,0.015276,-0.492519,0.027818,1.530975,-263.907248,0.307269,62.165813
3.1585,0.001116,0.016771,0.028094,-0.001508,-0.017202,-0.028095,0.015276,-0.492519,0.027818,1.530975,-263.907248,0.307269,62.165813
3.1783,0.001146,0.016686,0.026219,-0.001587,-0.016733,-0.028094,0.0154,-0.493499,0.027368,1.526838,-263.914752,0.359663,62.165195
3.1987,0.001666,0.016556,0.027976,-0.001583,-0.01665,-0.026219,0.015343,-0.493488,0.027277,1.526838,-263.914752,0.359663,62.165195
3.2185,0.001237,0.016742,0.025467,-0.002128,-0.016503,-0.027976,0.015925,-0.493356,0.027796,1.52693,-263.917045,0.284657,62.165094
3.2385,0.001402,0.016407,0.026551,-0.001663,-0.016705,-0.025467,0.014954,-0.49322,0.026445,1.52693,-263.917045,0.284657,62.165094
3.2587,0.001606,0.016674,0.025956,-0.001837,-0.016364,-0.026551,0.014954,-0.49322,0.026445,1.52693,-263.917045,0.284657,62.165094
3.2783,0.001868,0.016608,0.025438,-0.002038,-0.016627,-0.025956,0.014802,-0.493459,0.0255,1.522368,-263.921838,0.359716,62.164509
3.2989,0.001807,0.016024,0.026022,-0.00229,-0.016555,-0.025438,0.014804,-0.493451,0.025484,1.522368,-263.921838,0.359716,62.164509
3.3185,0.00188,0.015742,0.025179,-0.002224,-0.015972,-0.026022,0.015062,-0.493985,0.025735,1.514457,-263.925509,0.284785,62.164301
3.3386,0.001869,0.016154,0.02679,-0.002275,-0.01569,-0.025179,0.014868,-0.49407,0.025388,1.514457,-263.925509,0.284785,62.164301
3.3584,0.001858,0.016003,0.025369,-0.002301,-0.016098,-0.02679,0.014868,-0.49407,0.025388,1.514457,-263.925509,0.284785,62.164301
3.3785,0.002251,0.01542,0.025445,-0.002263,-0.015951,-0.025369,0.014735,-0.494225,0.024783,1.499558,-263.931679,0.359787,62.163552
3.3989,0.002294,0.015363,0.025297,-0.002642,-0.015357,-0.025445,0.014767,-0.494248,0.024813,1.499558,-263.931679,0.359787,62.163552
3.4183,0.002354,0.015542,0.02577,-0.002682,-0.0153,-0.025297,0.015193,-0.494489,0.025273,1.500024,-263.93199,0.284784,62.16353
3.4388,0.001982,0.015188,0.026083,-0.002754,-0.015476,-0.02577,0.015364,-0.494378,0.025552,1.500024,-263.93199,0.284784,62.16353
3.4586,0.002047,0.015871,0.024047,-0.002377,-0.015131,-0.026083,0.015364,-0.494378,0.025552,1.500024,-263.93199,0.284784,62.16353
3.4785,0.002045,0.015637,0.024103,-0.002428,-0.015818,-0.024047,0.014296,-0.49408,0.023892,1.48548,-263.933585,0.209782,62.163394
3.4988,0.002092,0.015561,0.023616,-0.002422,-0.015583,-0.024103,0.014298,-0.494091,0.023901,1.48548,-263.933585,0.209782,62.163394
3.5183,0.00226,0.015358,0.024886,-0.002459,-0.015508,-0.023616,0.014135,-0.494301,0.023608,1.494417,-263.933689,0.134778,62.163385
3.5383,0.002285,0.015443,0.026227,-0.002641,-0.015297,-0.024886,0.014597,-0.494406,0.024332,1.494417,-263.933689,0.134778,62.163385
3.5583,0.002476,0.015649,0.023944,-0.002689,-0.015377,-0.026227,0.014597,-0.494406,0.024332,1.494417,-263.933689,0.134778,62.163385
3.5784,0.00266,0.015244,0.024763,-0.00285,-0.015586,-0.023944,0.014647,-0.49437,0.023696,1.491055,-263.936293,0.209779,62.162872
3.5985,0.002394,0.015143,0.02618,-0.003037,-0.015174,-0.024763,0.01469,-0.49439,0.023764,1.491055,-263.936293,0.209779,62.162872
3.6181,0.002341,0.015338,0.024745,-0.00279,-0.015076,-0.02618,0.015741,-0.494705,0.026143,1.485365,-263.936778,0.134782,62.162829
3.6381,0.002134,0.01536,0.023119,-0.002719,-0.015275,-0.024745,0.015295,-0.494595,0.025342,1.485365,-263.936778,0.134782,62.162829
3.6582,0.0022,0.015384,0.023884,-0.002488,-0.015307,-0.023119,0.015295,-0.494595,0.025342,1.485365,-263.936778,0.134782,62.162829
3.6783,0.002054,0.015041,0.024116,-0.002567,-0.015327,-0.023884,0.014307,-0.494657,0.023593,1.470897,-263.939763,0.059788,62.161862
3.6986,0.002317,0.015096,0.023911,-0.002416,-0.014987,-0.024116,0.014308,-0.494671,0.02362,1.470897,-263.939763,0.059788,62.161862
3.7184,0.002531,0.01481,0.025021,-0.002677,-0.015036,-0.023911,0.014503,-0.494809,0.023831,1.486432,-263.940791,0.134784,62.161766
3.7383,0.002625,0.015351,0.024772,-0.0029,-0.014742,-0.025021,0.01495,-0.494941,0.024498,1.486432,-263.940791,0.134784,62.161766
3.7582,0.002695,0.014836,0.0252,-0.003004,-0.015281,-0.024772,0.01495,-0.494941,0.024498,1.486432,-263.940791,0.134784,62.161766
3.7786,0.00264,0.014956,0.024159,-0.003068,-0.014764,-0.0252,0.015476,-0.495224,0.024861,1.489659,-263.94432,0.106594,62.160806
3.7985,0.002571,0.014617,0.023581,-0.003,-0.014888,-0.024159,0.015438,-0.495206,0.024802,1.489659,-263.94432,0.106594,62.160806
3.8189,0.002678,0.014702,0.024073,-0.002915,-0.014552,-0.023581,0.01452,-0.495535,0.023112,1.47232,-263.95035,0.050446,62.159668
3.8384,0.002988,0.014301,0.025936,-0.003031,-0.014633,-0.024073,0.014758,-0.495353,0.0236,1.47232,-263.95035,0.050446,62.159668
3.8584,0.002843,0.014402,0.022912,-0.003357,-0.014219,-0.025936,0.014758,-0.495353,0.0236,1.47232,-263.95035,0.050446,62.159668
3.8786,0.002855,0.01377,0.020879,-0.003173,-0.014333,-0.022912,0.014414,-0.495985,0.022073,1.469923,-263.958876,0.044153,62.158468
3.8987,0.003045,0.013811,0.024128,-0.003142,-0.013708,-0.020879,0.014347,-0.496008,0.021967,1.469923,-263.958876,0.044153,62.158468
3.9188,0.003076,0.013877,0.020723,-0.003377,-0.013734,-0.024128,0.015346,-0.49605,0.024111,1.459563,-263.959082,-0.030828,62.158442
3.9388,0.003118,0.013872,0.022802,-0.003363,-0.013811,-0.020723,0.014382,-0.49603,0.022189,1.459563,-263.959082,-0.030828,62.158442
3.9583,0.003281,0.013864,0.021689,-0.003434,-0.013797,-0.022802,0.014382,-0.49603,0.022189,1.459563,-263.959082,-0.030828,62.158442
3.9782,0.003189,0.013652,0.022614,-0.003581,-0.013789,-0.021689,0.014317,-0.496131,0.021504,1.452605,-263.960965,0.044177,62.15821
3.9982,0.00312,0.013884,0.021513,-0.003497,-0.013576,-0.022614,0.014343,-0.49614,0.021571,1.452605,-263.960965,0.044177,62.15821
4.0183,0.003394,0.013214,0.021763,-0.003418,-0.013813,-0.021513,0.01401,-0.496208,0.021167,1.447569,-263.965348,-0.030836,62.156976
4.0383,0.003643,0.013529,0.022371,-0.003681,-0.013137,-0.021763,0.014276,-0.496496,0.021464,1.447569,-263.965348,-0.030836,62.156976
4.0583,0.003328,0.013427,0.021053,-0.003945,-0.013444,-0.022371,0.014276,-0.496496,0.021464,1.447569,-263.965348,-0.030836,62.156976
4.0783,0.003814,0.013364,0.018722,-0.00361,-0.013354,-0.021053,0.013936,-0.496872,0.020365,1.443796,-263.972231,-0.067235,62.155604
4.0988,0.003629,0.01327,0.019143,-0.004064,-0.01329,-0.018722,0.013893,-0.49686,0.020233,1.443796,-263.972231,-0.067235,62.155604
4.1195,0.003873,0.012399,0.01932,-0.003882,-0.013198,-0.019143,0.013259,-0.497083,0.018402,1.42629,-263.981614,-0.055529,62.154035
4.1387,0.003473,0.012265,0.018412,-0.004112,-0.012322,-0.01932,0.013502,-0.497377,0.018818,1.42629,-263.981614,-0.055529,62.154035
4.1589,0.00378,0.012522,0.020865,-0.003699,-0.012199,-0.018412,0.013502,-0.497377,0.018818,1.42629,-263.981614,-0.055529,62.154035
4.1785,0.003726,0.012545,0.019379,-0.004041,-0.01244,-0.020865,0.014417,-0.49738,0.020845,1.40789,-263.981816,0.019468,62.153999
4.1984,0.003715,0.012135,0.019168,-0.003968,-0.01247,-0.019379,0.014367,-0.497379,0.020754,1.40789,-263.981816,0.019468,62.153999
4.2182,0.003385,0.012177,0.01998,-0.003947,-0.012061,-0.019168,0.013442,-0.497904,0.018961,1.414324,-263.984519,0.094466,62.153363
4.2381,0.003814,0.0124,0.019432,-0.003628,-0.012107,-0.01998,0.013511,-0.497817,0.019515,1.414324,-263.984519,0.094466,62.153363
4.2582,0.004002,0.011997,0.020118,-0.004055,-0.012324,-0.019432,0.013511,-0.497817,0.019515,1.414324,-263.984519,0.094466,62.153363
4.2781,0.003954,0.011694,0.019295,-0.004242,-0.011914,-0.020118,0.014126,-0.49823,0.01963,1.408971,-263.989721,0.158434,62.151859
4.2982,0.004146,0.012073,0.0198,-0.004179,-0.011615,-0.019295,0.014101,-0.498237,0.019596,1.408971,-263.989721,0.158434,62.151859
4.3184,0.004138,0.010824,0.018911,-0.004384,-0.011989,-0.0198,0.014114,-0.498205,0.019213,1.404734,-263.997423,0.111808,62.150283
4.3385,0.004428,0.011509,0.018168,-0.004342,-0.010744,-0.018911,0.013909,-0.498752,0.018967,1.404734,-263.997423,0.111808,62.150283
4.3582,0.004487,0.011669,0.019013,-0.004636,-0.011426,-0.018168,0.013909,-0.498752,0.018967,1.404734,-263.997423,0.111808,62.150283
4.3793,0.004412,0.011105,0.018422,-0.004708,-0.011581,-0.019013,0.014051,-0.498635,0.018377,1.394071,-264.00396,0.036797,62.149133
4.3989,0.004265,0.011208,0.017544,-0.004616,-0.011022,-0.018422,0.014031,-0.498657,0.018363,1.394071,-264.00396,0.036797,62.149133
4.4183,0.004313,0.010487,0.017543,-0.004461,-0.011131,-0.017544,0.013046,-0.499145,0.016863,1.367792,-264.012901,0.071077,62.147326
4.4382,0.004879,0.010519,0.017389,-0.004496,-0.01041,-0.017543,0.013147,-0.499365,0.017166,1.367792,-264.012901,0.071077,62.147326
4.4584,0.00488,0.010584,0.017588,-0.005061,-0.010432,-0.017389,0.013147,-0.499365,0.017166,1.367792,-264.012901,0.071077,62.147326
4.4783,0.004509,0.009839,0.015639,-0.005065,-0.010497,-0.017588,0.013679,-0.499768,0.016886,1.366443,-264.02009,-0.004033,62.145865
4.4988,0.005009,0.009948,0.016281,-0.004663,-0.009767,-0.015639,0.013597,-0.4998,0.016787,1.366443,-264.02009,-0.004033,62.145865
4.5184,0.005511,0.009751,0.014296,-0.00517,-0.009865,-0.016281,0.013129,-0.500377,0.015631,1.334882,-264.028465,-0.037183,62.143906
4.5384,0.004884,0.009221,0.015266,-0.005649,-0.009671,-0.014296,0.012919,-0.500325,0.014789,1.334882,-264.028465,-0.037183,62.143906
4.5583,0.00486,0.009405,0.015819,-0.005024,-0.009145,-0.015266,0.012919,-0.500325,0.014789,1.334882,-264.028465,-0.037183,62.143906
4.5786,0.005398,0.009286,0.014296,-0.005008,-0.009327,-0.015819,0.012731,-0.500958,0.015138,1.333975,-264.035617,0.037822,62.142226
4.5982,0.005556,0.009398,0.014388,-0.00553,-0.009208,-0.014296,0.012721,-0.500946,0.015045,1.333975,-264.035617,0.037822,62.142226
4.6186,0.005304,0.008554,0.015253,-0.005691,-0.009318,-0.014388,0.012724,-0.500868,0.013858,1.305203,-264.042508,-0.035567,62.140416
4.6382,0.005248,0.00867,0.013497,-0.005434,-0.008472,-0.015253,0.012906,-0.501204,0.014583,1.305203,-264.042508,-0.035567,62.140416
4.6587,0.005345,0.008761,0.014304,-0.005365,-0.008598,-0.013497,0.012906,-0.501204,0.014583,1.305203,-264.042508,-0.035567,62.140416
4.6783,0.005439,0.008207,0.012636,-0.005469,-0.008683,-0.014304,0.012436,-0.501532,0.013757,1.271766,-264.048327,0.039,62.138696
4.6982,0.005401,0.00822,0.013653,-0.005469,-0.008683,-0.014304,0.012392,-0.501556,0.013666,1.271766,-264.048327,0.039,62.138696
4.7182,0.005677,0.008168,0.012,-5.6e-05,-8.3e-05,0.0,0.012164,-0.502063,0.013138,1.262406,-264.055314,0.065993,62.13657
4.7383,0.005411,0.007935,0.014534,-5.6e-05,-8.3e-05,0.0,0.011929,-0.501952,0.012422,1.262406,-264.055314,0.065993,62.13657
4.7583,0.005232,0.008005,0.012251,-5.6e-05,-8.3e-05,0.0,0.011929,-0.501952,0.012422,1.262406,-264.055314,0.065993,62.13657
4.7787,0.005706,0.007058,0.01316,-5.6e-05,-8.3e-05,0.0,0.011242,-0.502345,0.011617,1.266569,-264.062004,-0.009092,62.134567
4.7987,0.005424,0.007442,0.012915,-5.6e-05,-8.3e-05,0.0,0.011329,-0.502401,0.011722,1.266569,-264.062004,-0.009092,62.134567
4.819,0.005379,0.007659,0.013142,-5.6e-05,-8.3e-05,0.0,0.012011,-0.502515,0.012915,1.191245,-264.062004,0.066232,62.134567
4.8382,0.005702,0.007312,0.013506,-5.6e-05,-8.3e-05,0.0,0.012051,-0.502391,0.013044,1.191245,-264.062004,0.066232,62.134567
4.8582,0.00572,0.007344,0.012485,-5.6e-05,-8.3e-05,0.0,0.012051,-0.502391,0.013044,1.191245,-264.062004,0.066232,62.134567
4.8784,0.005789,0.007342,0.011261,-5.6e-05,-8.3e-05,0.0,0.012087,-0.502616,0.012485,1.116667,-264.062004,0.14081,62.134567
4.8985,0.005749,0.007569,0.013448,-5.6e-05,-8.3e-05,0.0,0.012047,-0.502617,0.012395,1.116667,-264.062004,0.14081,62.134567
4.9183,0.00539,0.007301,0.011922,-5.6e-05,-8.3e-05,0.0,0.012607,-0.502385,0.013448,1.041578,-264.062004,0.2159,62.134567
4.9383,0.005627,0.007516,0.013037,-0.000805,-0.00119,-0.001994,0.01196,-0.502543,0.012579,1.041578,-264.062004,0.2159,62.134567
4.9581,0.005716,0.00707,0.0114,-0.00157,-0.00232,-0.003888,0.01196,-0.502543,0.012579,1.041578,-264.062004,0.2159,62.134567
4.9783,0.005734,0.007511,0.011607,-0.002298,-0.003395,-0.00569,0.01153,-0.502897,0.0114,0.97577,-264.062004,0.290807,62.134567
4.9991,0.005851,0.007746,0.013371,-0.002978,-0.004399,-0.007374,0.011538,-0.502866,0.011414,0.97577,-264.062004,0.290807,62.134567
5.0184,0.005696,0.007129,0.012481,-0.003618,-0.005345,-0.008959,0.012666,-0.502214,0.013364,1.050772,-264.062109,0.215806,62.134533
5.0385,0.005419,0.007651,0.012475,-0.00422,-0.006235,-0.010451,0.012319,-0.502568,0.012857,1.050772,-264.062109,0.215806,62.134533
5.0583,0.005813,0.007583,0.014364,-0.004775,-0.007055,-0.011825,0.012319,-0.502568,0.012857,1.050772,-264.062109,0.215806,62.134533
5.0786,0.005875,0.007507,0.010601,-0.005293,-0.00782,-0.013107,0.013106,-0.502407,0.014302,1.125901,-264.062833,0.140677,62.134303
5.0987,0.00551,0.007665,0.011775,-0.005768,-0.008521,-0.014283,0.012982,-0.502412,0.01405,1.125901,-264.062833,0.140677,62.134303
5.1186,0.005554,0.007292,0.010879,-0.006213,-0.009178,-0.015385,0.011422,-0.502433,0.011567,1.200778,-264.065718,0.0658,62.133388
5.1383,0.005882,0.007399,0.01068,-0.006595,-0.009744,-0.016332,0.011228,-0.502589,0.011149,1.200778,-264.065718,0.0658,62.133388
5.1585,0.005356,0.007562,0.012388,-0.006946,-0.010262,-0.017202,0.011228,-0.502589,0.011149,1.200778,-264.065718,0.0658,62.133388
5.1789,0.005883,0.006863,0.010677,-0.007257,-0.010721,-0.01797,0.011458,-0.502711,0.011878,1.24803,-264.071102,-0.009203,62.131495
5.1988,0.005759,0.007291,0.012354,-0.007526,-0.01112,-0.018639,0.011444,-0.502746,0.011784,1.24803,-264.071102,-0.009203,62.131495
5.2186,0.005383,0.00625,0.010573,-0.007753,-0.011455,-0.0192,0.011809,-0.50303,0.011754,1.24803,-264.078986,-0.035034,62.128745
5.2383,0.005401,0.006873,0.010158,-0.007939,-0.01173,-0.019661,0.011191,-0.503468,0.011009,1.24803,-264.078986,-0.035034,62.128745
5.2587,0.005513,0.006807,0.011877,-0.008084,-0.011944,-0.02002,0.011191,-0.503468,0.011009,1.24803,-264.078986,-0.035034,62.128745
5.2782,0.006043,0.006066,0.009748,-0.008187,-0.012096,-0.020274,0.011211,-0.503702,0.010971,1.24803,-264.088478,-0.035034,62.125732
5.2985,0.005554,0.006087,0.008962,-0.008249,-0.012187,-0.020428,0.011188,-0.50373,0.010865,1.24803,-264.088478,-0.035034,62.125732
5.3183,0.006247,0.005796,0.006693,-0.00827,-0.012218,-0.020479,0.009816,-0.504357,0.008188,1.24803,-264.098673,-0.035034,62.122497
5.3387,0.005743,0.005251,0.009378,-0.008249,-0.012187,-0.020428,0.009689,-0.504323,0.007243,1.24803,-264.098673,-0.035034,62.122497
5.3586,0.005649,0.005418,0.00867,-0.008187,-0.012096,-0.020275,0.009689,-0.504323,0.007243,1.24803,-264.098673,-0.035034,62.122497
5.3783,0.006254,0.005006,0.007452,-0.008084,-0.011943,-0.020019,0.009673,-0.50516,0.007675,1.24803,-264.109075,-0.035034,62.119195
5.3987,0.006084,0.004789,0.007696,-0.007939,-0.011729,-0.01966,0.009688,-0.505163,0.007636,1.24803,-264.109075,-0.035034,62.119195
5.4184,0.006093,0.004047,0.007204,-0.007753,-0.011455,-0.0192,0.009696,-0.505665,0.006913,1.24803,-264.1194,-0.035034,62.115918
5.4385,0.006207,0.004244,0.006643,-0.007526,-0.011119,-0.018638,0.009697,-0.505881,0.006979,1.24803,-264.1194,-0.035034,62.115918
5.4584,0.00568,0.004346,0.008714,-0.007257,-0.010722,-0.017972,0.009697,-0.505881,0.006979,1.24803,-264.1194,-0.035034,62.115918
5.4784,0.006168,0.003664,0.004615,-0.006947,-0.010263,-0.017203,0.009743,-0.506209,0.007757,1.24803,-264.129411,-0.035034,62.112741
5.4988,0.006533,0.003827,0.005736,-0.006595,-0.009744,-0.016333,0.009652,-0.506231,0.007525,1.24803,-264.129411,-0.035034,62.112741
5.5186,0.006235,0.003154,0.003469,-0.006203,-0.009164,-0.01536,0.009181,-0.50658,0.005042,1.24803,-264.138564,-0.035034,62.109836
5.5382,0.00686,0.0033,0.004413,-0.005769,-0.008523,-0.014287,0.008478,-0.506782,0.004061,1.24803,-264.138564,-0.035034,62.109836
5.5585,0.006422,0.003077,0.003169,-0.005293,-0.00782,-0.013108,0.008478,-0.506782,0.004061,1.24803,-264.138564,-0.035034,62.109836
5.5787,0.006326,0.002451,0.002435,-0.004775,-0.007055,-0.011825,0.007718,-0.507396,0.002372,1.24803,-264.146881,-0.035034,62.107196
5.5986,0.006562,0.002786,0.00407,-0.004218,-0.006231,-0.010445,0.007701,-0.507417,0.002357,1.24803,-264.146881,-0.035034,62.107196
5.6194,0.006824,0.002131,0.002701,-0.003618,-0.005345,-0.008958,0.008434,-0.507514,0.003563,1.24803,-264.153556,-0.035034,62.105078
5.6384,0.006478,0.002132,0.00309,-0.002977,-0.004399,-0.007373,0.008277,-0.507752,0.003011,1.24803,-264.153556,-0.035034,62.105078
5.6584,0.006636,0.002147,0.002065,-0.002296,-0.003391,-0.005685,0.008277,-0.507752,0.003011,1.24803,-264.153556,-0.035034,62.105078
5.6788,0.006411,0.001871,0.002787,-0.001569,-0.002318,-0.003886,0.007484,-0.508156,0.001556,1.24803,-264.158883,-0.035034,62.103387
5.6988,0.006444,0.001774,0.002309,-0.000807,-0.001192,-0.001999,0.007502,-0.508162,0.001627,1.24803,-264.158883,-0.035034,62.103387
5.7187,0.006524,0.001866,0.002987,-0.0,-1e-06,-1e-06,0.007533,-0.508356,0.00209,1.24803,-264.161778,-0.035034,62.102468
5.7384,0.006711,0.001606,0.001454,0.0,0.0,0.0,0.007815,-0.508245,0.002574,1.24803,-264.161778,-0.035034,62.102468
5.7586,0.006522,0.001607,0.00138,0.0,0.0,0.0,0.007815,-0.508245,0.002574,1.24803,-264.161778,-0.035034,62.102468
5.7784,0.006636,0.001066,0.001206,0.0,0.0,0.0,0.007187,-0.50845,0.001283,1.24803,-264.162796,-0.035034,62.102145
5.7986,0.006523,0.001973,0.000996,0.0,0.0,0.0,0.007191,-0.508486,0.001275,1.24803,-264.162796,-0.035034,62.102145
5.8185,0.006923,0.001519,0.001703,0.0,0.0,0.0,0.00703,-0.508027,0.000996,1.24803,-264.162796,-0.035034,62.102145
5.8385,0.0064,0.001859,0.002443,0.0,0.0,0.0,0.007459,-0.508282,0.001394,1.24803,-264.162796,-0.035034,62.102145
5.8586,0.006454,0.002128,0.003425,0.0,0.0,0.0,0.007459,-0.508282,0.001394,1.24803,-264.162796,-0.035034,62.102145
5.8784,0.00656,0.00173,0.002162,0.0,0.0,0.0,0.008201,-0.507869,0.003425,1.24803,-264.162796,-0.035034,62.102145
5.899,0.006581,0.001718,0.001788,0.0,0.0,0.0,0.008167,-0.507894,0.003345,1.24803,-264.162796,-0.035034,62.102145
5.9182,0.006675,0.001525,0.003332,0.0,0.0,0.0,0.007493,-0.508282,0.001788,1.24803,-264.162796,-0.035034,62.102145
5.9381,0.006349,0.001658,0.00292,0.0,0.0,0.0,0.007995,-0.50839,0.002667,1.24803,-264.162796,-0.035034,62.102145
5.9585,0.006034,0.00179,0.00249,-9.7e-05,-2.5e-05,0.0,0.007995,-0.50839,0.002667,1.24803,-264.162796,-0.035034,62.102145
5.9788,0.006863,0.001604,0.003063,-9.7e-05,-2.5e-05,0.0,0.007304,-0.508208,0.00249,1.24803,-264.162796,-0.035034,62.102145
5.9991,0.006543,0.001404,0.001565,-9.7e-05,-2.5e-05,0.0,0.0074,-0.508224,0.00254,1.24803,-264.162796,-0.035034,62.102145
6.0182,0.00618,0.001865,0.002636,-9.7e-05,-2.5e-05,0.0,0.007341,-0.508595,0.001565,1.17256,-264.162796,0.040436,62.102145
6.0387,0.006774,0.001797,0.003142,-9.7e-05,-2.5e-05,0.0,0.007445,-0.508332,0.002174,1.17256,-264.162796,0.040436,62.102145
6.0586,0.00659,0.001806,0.002576,-9.7e-05,-2.5e-05,0.0,0.007445,-0.508332,0.002174,1.17256,-264.162796,0.040436,62.102145
6.0783,0.006734,0.001814,0.000769,-9.7e-05,-2.5e-05,0.0,0.007903,-0.508192,0.002576,1.098099,-264.162796,0.114897,62.102145
6.0986,0.006734,0.001488,0.000914,-9.7e-05,-2.5e-05,0.0,0.007851,-0.508192,0.002454,1.098099,-264.162796,0.114897,62.102145
6.1182,0.006542,0.001628,0.001964,-9.7e-05,-2.5e-05,0.0,0.0072,-0.508512,0.000914,1.023136,-264.162796,0.18986,62.102145
6.1383,0.006411,0.001579,0.002257,-9.7e-05,-2.5e-05,0.0,0.007397,-0.508431,0.001514,1.023136,-264.162796,0.18986,62.102145
6.1584,0.006425,0.001489,0.001301,-2e-06,-1e-06,-1e-06,0.007397,-0.508431,0.001514,1.023136,-264.162796,0.18986,62.102145
6.1785,0.006985,0.001507,0.003874,-0.000931,-0.00024,-0.000428,0.007089,-0.50851,0.001301,0.947998,-264.162796,0.252462,62.102145
6.1988,0.006704,0.001717,0.001105,-0.001819,-0.000469,-0.000836,0.007219,-0.508509,0.001481,0.947998,-264.162796,0.252462,62.102145
6.2186,0.006495,0.001817,0.002556,-0.002657,-0.000685,-0.001221,0.007268,-0.508282,0.001105,0.873127,-264.162796,0.177591,62.102145
6.2383,0.006804,0.001862,0.003202,-0.00343,-0.000885,-0.001576,0.007566,-0.508226,0.001919,0.873127,-264.162796,0.177591,62.102145
6.2582,0.006423,0.00198,0.002994,-0.00417,-0.001076,-0.001916,0.007566,-0.508226,0.001919,0.873127,-264.162796,0.177591,62.102145
6.2783,0.006987,0.001686,0.002368,-0.004861,-0.001254,-0.002233,0.007946,-0.50802,0.002992,0.79799,-264.162837,0.102454,62.102109
6.2983,0.006801,0.001644,0.00279,-0.005504,-0.00142,-0.002529,0.007963,-0.50804,0.002948,0.79799,-264.162837,0.102454,62.102109
6.3185,0.006393,0.00174,0.00168,-0.006099,-0.001573,-0.002802,0.008198,-0.508365,0.002773,0.723111,-264.163166,0.027575,62.101819
6.3393,0.006634,0.001741,0.002376,-0.006648,-0.001715,-0.003055,0.007647,-0.508305,0.00214,0.723111,-264.163166,0.027575,62.101819
6.3585,0.006854,0.001273,0.002753,-0.007149,-0.001844,-0.003285,0.007647,-0.508305,0.00214,0.723111,-264.163166,0.027575,62.101819
6.3788,0.006476,0.001654,0.001947,-0.007601,-0.001961,-0.003493,0.008153,-0.508762,0.00269,0.647887,-264.164192,-0.022658,62.100915
6.3993,0.006374,0.001327,0.001926,-0.008006,-0.002065,-0.003679,0.008104,-0.508735,0.002637,0.647887,-264.164192,-0.022658,62.100915
6.4182,0.006499,0.001384,0.00231,-0.008364,-0.002158,-0.003843,0.00717,-0.508729,0.001826,0.573109,-264.166415,-0.022658,62.098958
6.4387,0.006465,0.001678,0.001032,-0.008674,-0.002238,-0.003986,0.007433,-0.508671,0.002086,0.573109,-264.166415,-0.022658,62.098958
6.4586,0.006753,0.00183,0.002703,-0.008936,-0.002305,-0.004106,0.007433,-0.508671,0.002086,0.573109,-264.166415,-0.022658,62.098958
6.4784,0.006023,0.001676,0.000791,-0.00915,-0.00236,-0.004204,0.007779,-0.508261,0.00254,0.498015,-264.169702,-0.022658,62.096063
6.4982,0.006187,0.001504,0.000975,-0.009317,-0.002403,-0.004281,0.00769,-0.508267,0.002432,0.498015,-264.169702,-0.022658,62.096063
6.5183,0.005935,0.001466,0.002211,-0.009438,-0.002435,-0.004337,0.006339,-0.508585,0.000816,0.494044,-264.173766,-0.022658,62.092485
6.5385,0.005357,0.001443,0.001224,-0.009507,-0.002453,-0.004368,0.00671,-0.508567,0.001595,0.494044,-264.173766,-0.022658,62.092485
6.5586,0.005395,0.001342,0.001424,-0.009531,-0.002459,-0.004379,0.00671,-0.508567,0.001595,0.494044,-264.173766,-0.022658,62.092485
6.5784,0.005665,0.001108,0.002814,-0.009507,-0.002453,-0.004368,0.005669,-0.508775,0.001216,0.494044,-264.177998,-0.022658,62.088757
6.5988,0.005546,0.001104,-0.000301,-0.009436,-0.002434,-0.004336,0.005755,-0.508786,0.00132,0.494044,-264.177998,-0.022658,62.088757
6.6182,0.005005,0.000773,0.001851,-0.009317,-0.002403,-0.004281,0.005025,-0.508991,-0.00047,0.494044,-264.182328,-0.022658,62.084944
6.6384,0.004871,0.000859,0.002164,-0.00915,-0.00236,-0.004204,0.005507,-0.509138,0.000837,0.494044,-264.182328,-0.022658,62.084944
6.6582,0.00495,0.000861,0.001254,-0.008935,-0.002305,-0.004105,0.005507,-0.509138,0.000837,0.494044,-264.182328,-0.022658,62.084944
6.6783,0.004349,0.000683,0.001292,-0.008673,-0.002237,-0.003985,0.005132,-0.509257,0.001044,0.494044,-264.186617,-0.022658,62.081167
6.6982,0.004689,0.001002,-0.000986,-0.008364,-0.002158,-0.003843,0.00511,-0.509265,0.001056,0.494044,-264.186617,-0.022658,62.081167
6.7182,0.004308,0.000696,0.000789,-0.008006,-0.002065,-0.003679,0.003842,-0.509086,-0.001144,0.494044,-264.190676,-0.022658,62.077592
6.7383,0.004374,0.000648,0.001417,-0.007602,-0.001961,-0.003493,0.004296,-0.509222,-5.6e-05,0.494044,-264.190676,-0.022658,62.077592
6.7583,0.00442,0.000541,0.000108,-0.007149,-0.001844,-0.003285,0.004296,-0.509222,-5.6e-05,0.494044,-264.190676,-0.022658,62.077592
6.7783,0.003954,0.000156,0.001153,-0.006649,-0.001715,-0.003055,0.004069,-0.509564,-7.8e-05,0.494044,-264.194487,-0.022658,62.074236
6.7986,0.004088,0.000846,0.00345,-0.0061,-0.001574,-0.002803,0.004095,-0.50959,1.4e-05,0.494044,-264.194487,-0.022658,62.074236
6.8186,0.003617,0.000746,0.001063,-0.005501,-0.001419,-0.002527,0.005573,-0.509222,0.003324,0.494044,-264.197724,-0.022658,62.071386
6.8389,0.003806,0.000631,0.000977,-0.004862,-0.001254,-0.002234,0.004733,-0.50925,0.00202,0.494044,-264.197724,-0.022658,62.071386
6.8586,0.003541,0.000948,-5.5e-05,-0.004171,-0.001076,-0.001917,0.004733,-0.50925,0.00202,0.494044,-264.197724,-0.022658,62.071386
6.8785,0.00322,0.000678,-0.000822,-0.003431,-0.000885,-0.001577,0.003216,-0.509128,-0.000192,0.494044,-264.200496,-0.022658,62.068944
6.8985,0.00359,0.000785,0.001829,-0.002646,-0.000683,-0.001216,0.003181,-0.509143,-0.000236,0.494044,-264.200496,-0.022658,62.068944
6.9185,0.003656,0.000467,0.000909,-0.001811,-0.000467,-0.000832,0.004363,-0.509256,0.001755,0.494044,-264.202392,-0.022658,62.067275
6.9385,0.003244,0.000549,-0.000223,-0.000927,-0.000239,-0.000426,0.004203,-0.50942,0.001261,0.494044,-264.202392,-0.022658,62.067275
6.9583,0.003602,0.000657,0.001201,0.0,0.0,0.0,0.004203,-0.50942,0.001261,0.494044,-264.202392,-0.022658,62.067275
6.9782,0.003285,0.000307,-0.001693,0.0,0.0,0.0,0.004086,-0.509375,0.001142,0.494044,-264.203592,-0.022658,62.066218
6.9986,0.003246,0.000251,0.000438,0.0,0.0,0.0,0.003972,-0.509397,0.000951,0.494044,-264.203592,-0.022658,62.066218
7.0186,0.002985,0.000714,-0.00034,0.0,0.0,0.0,0.003469,-0.509749,0.000438,0.494044,-264.203592,-0.022658,62.066218
7.0384,0.00333,0.000514,-0.002081,0.0,0.0,0.0,0.003095,-0.509486,-4e-06,0.494044,-264.203592,-0.022658,62.066218
7.0583,0.003176,0.000305,0.001608,0.0,0.0,0.0,0.003095,-0.509486,-4e-06,0.494044,-264.203592,-0.022658,62.066218
7.0788,0.003205,0.000443,-0.002271,0.0,0.0,0.0,0.003996,-0.509695,0.001608,0.494044,-264.203592,-0.022658,62.066218
7.0987,0.003006,0.000728,0.000285,0.0,0.0,0.0,0.00386,-0.509685,0.001337,0.494044,-264.203592,-0.022658,62.066218
7.1184,0.0032,0.000348,-0.000218,0.0,0.0,0.0,0.003151,-0.509272,0.000285,0.494044,-264.203592,-0.022658,62.066218
7.1384,0.003169,0.000242,0.001561,0.0,0.0,0.0,0.003115,-0.509491,-6e-06,0.494044,-264.203592,-0.022658,62.066218
7.1584,0.003381,0.000822,0.000373,0.0,0.0,0.0,0.003115,-0.509491,-6e-06,0.494044,-264.203592,-0.022658,62.066218
7.1782,0.003362,0.000304,-0.000193,-9.7e-05,-2.4e-05,0.0,0.003571,-0.509178,0.000373,0.494044,-264.203592,-0.022658,62.066218
7.1985,0.003334,0.000454,-0.000572,-9.7e-05,-2.4e-05,0.0,0.003548,-0.509217,0.000331,0.494044,-264.203592,-0.022658,62.066218
7.2183,0.003404,0.00037,-0.000193,-9.7e-05,-2.4e-05,0.0,0.003042,-0.509546,-0.000572,0.494044,-264.203592,-0.022658,62.066218
7.2385,0.003259,0.00053,0.001217,-9.7e-05,-2.4e-05,0.0,0.003192,-0.509594,-0.000356,0.494044,-264.203592,-0.022658,62.066218
7.2581,0.003508,0.000474,-0.000808,-9.7e-05,-2.4e-05,0.0,0.003192,-0.509594,-0.000356,0.494044,-264.203592,-0.022658,62.066218
7.2785,0.00352,0.000101,0.001372,-9.7e-05,-2.4e-05,0.0,0.003095,-0.509526,-0.000808,0.419029,-264.203597,0.052356,62.066213
7.2985,0.003391,7.5e-05,-0.001186,-9.7e-05,-2.4e-05,0.0,0.003177,-0.509553,-0.000649,0.419029,-264.203597,0.052356,62.066213
7.3183,0.003249,0.000535,-0.000232,-9.7e-05,-2.4e-05,0.0,0.002785,-0.509925,-0.001186,0.344066,-264.20361,0.127319,62.0662
7.3388,0.003123,0.000647,-0.000509,-9.7e-05,-2.4e-05,0.0,0.002982,-0.509663,-0.000642,0.344066,-264.20361,0.127319,62.0662
7.3589,0.003162,0.000725,0.000489,-9.7e-05,-2.4e-05,0.0,0.002982,-0.509663,-0.000642,0.344066,-264.20361,0.127319,62.0662
7.3782,0.003015,0.000499,0.001938,-9.7e-05,-2.4e-05,0.0,0.003408,-0.509276,0.000489,0.269112,-264.203638,0.202274,62.066172
7.3982,0.002979,0.000808,0.000453,-0.000494,-0.00012,-5.5e-05,0.003449,-0.509291,0.000587,0.269112,-264.203638,0.202274,62.066172
7.4183,0.00298,0.000992,-0.000174,-0.000966,-0.000234,-0.000107,0.003207,-0.509192,0.000453,0.238054,-264.203676,0.238054,62.066134
7.4384,0.002937,0.000326,0.000662,-0.001408,-0.000342,-0.000155,0.003027,-0.509088,9.6e-05,0.238054,-264.203676,0.238054,62.066134
7.4584,0.003212,0.000341,0.000287,-0.001826,-0.000443,-0.000201,0.003027,-0.509088,9.6e-05,0.238054,-264.203676,0.238054,62.066134
7.4784,0.00336,0.000458,0.00019,-0.002219,-0.000538,-0.000245,0.003337,-0.509664,0.000284,0.300618,-264.203858,0.173535,62.065957
7.4985,0.003029,0.000557,0.000105,-0.002586,-0.000628,-0.000285,0.003344,-0.509656,0.000278,0.300618,-264.203858,0.173535,62.065957
7.5182,0.002955,0.0004,-0.000129,-0.002929,-0.000711,-0.000323,0.003012,-0.50946,9.8e-05,0.300618,-264.204623,0.173535,62.065216
7.5383,0.003214,0.000572,0.001825,-0.003245,-0.000788,-0.000358,0.002933,-0.509542,-3.3e-05,0.300618,-264.204623,0.173535,62.065216
7.5584,0.002796,0.000503,-0.000774,-0.003537,-0.000858,-0.00039,0.002933,-0.509542,-3.3e-05,0.300618,-264.204623,0.173535,62.065216
