mach0312/omni-docking-bench/src/icros_test_setup/results/kinematic_sample/timeseries/trial_068.csv
t,x,y,yaw,vx,vy,wz,bl_x,bl_y,bl_yaw,front_steering_joint,front_wheel_joint,rear_steering_joint,rear_wheel_joint
0.0,-0.008168,-0.02194,0.050426,0.007766,-0.001673,0.001714,0.017648,-0.530923,0.051813,-0.080486,-264.180809,-0.336856,62.299978
0.0004,-0.007766,-0.021701,0.052348,0.004717,-0.001016,0.001041,0.017648,-0.530923,0.051813,-0.080486,-264.17743,-0.336856,62.303546
0.0006,-0.008137,-0.021938,0.050382,0.004046,-0.000872,0.000893,0.017633,-0.531311,0.050989,-0.080486,-264.174474,-0.336856,62.306668
0.0009,-0.007836,-0.022275,0.051411,0.003326,-0.000716,0.000734,0.017633,-0.531311,0.050989,-0.080486,-264.171879,-0.336856,62.309409
0.0011,-0.007742,-0.022144,0.051212,0.002566,-0.000553,0.000566,0.017617,-0.531297,0.050944,-0.080486,-264.169989,-0.336856,62.311405
0.0014,-0.007818,-0.021807,0.051732,0.001758,-0.000379,0.000388,0.017617,-0.531297,0.050944,-0.080486,-264.168644,-0.336856,62.312826
0.0016,-0.007734,-0.021796,0.050358,0.0009,-0.000194,0.000199,0.017728,-0.531713,0.050724,-0.080486,-264.168285,-0.336856,62.313204
0.0018,-0.007497,-0.022056,0.050737,0.0,0.0,0.0,0.017883,-0.531399,0.051029,-0.080486,-264.168285,-0.336856,62.313204
0.002,-0.007685,-0.022186,0.050327,0.0,0.0,0.0,0.017883,-0.531399,0.051029,-0.080486,-264.168285,-0.336856,62.313204
0.0022,-0.007894,-0.021942,0.051496,0.0,0.0,0.0,0.017883,-0.531399,0.051029,-0.080486,-264.168285,-0.336856,62.313204
0.0184,-0.007562,-0.021845,0.052936,0.009013,0.016,-0.03,0.01816,-0.531483,0.050507,-0.080486,-264.168285,-0.336856,62.313204
0.0382,-0.007404,-0.022115,0.051858,0.008707,0.021415,-0.05,0.019423,-0.531131,0.052936,-0.080486,-264.168285,-0.336856,62.313204
0.0586,-0.007683,-0.021735,0.051336,0.008541,0.021702,-0.05,0.019397,-0.531151,0.052863,-0.080486,-264.168285,-0.336856,62.313204
0.0786,-0.007794,-0.021936,0.052482,0.008788,0.021313,-0.05,0.018487,-0.531064,0.051336,-0.155395,-264.168285,-0.261947,62.313205
0.0987,-0.007604,-0.021868,0.050517,0.008934,0.021497,-0.05,0.01876,-0.531162,0.051999,-0.155395,-264.168285,-0.261947,62.313205
0.1183,-0.007551,-0.021649,0.051268,0.008699,0.021456,-0.05,0.01876,-0.531162,0.051999,-0.155395,-264.168285,-0.261947,62.313205
0.1386,-0.007753,-0.022188,0.05024,0.00865,0.021234,-0.05,0.018584,-0.530979,0.051268,-0.230676,-264.168285,-0.337228,62.313205
0.1583,-0.00738,-0.022249,0.052005,0.008857,0.021771,-0.05,0.018522,-0.531027,0.051179,-0.230676,-264.168285,-0.337228,62.313205
0.1784,-0.007178,-0.02222,0.05188,0.008527,0.021836,-0.05,0.019131,-0.53156,0.052005,-0.305934,-264.168285,-0.412486,62.313205
0.1984,-0.007171,-0.022343,0.051238,0.008321,0.021818,-0.05,0.01921,-0.531545,0.051933,-0.305934,-264.168285,-0.412486,62.313205
0.2184,-0.007771,-0.021967,0.052574,0.008306,0.021947,-0.05,0.01921,-0.531545,0.051933,-0.305934,-264.168285,-0.412486,62.313205
0.2384,-0.007397,-0.021877,0.051592,0.008914,0.021528,-0.05,0.01903,-0.531262,0.052574,-0.380508,-264.168285,-0.48706,62.313205
0.2589,-0.007786,-0.021919,0.049751,0.008515,0.021466,-0.05,0.019021,-0.531258,0.052506,-0.380508,-264.168285,-0.48706,62.313205
0.2788,-0.007823,-0.021873,0.052631,0.008867,0.021504,-0.049751,0.017576,-0.531288,0.049751,-0.455384,-264.168285,-0.561936,62.313205
0.2983,-0.007484,-0.022102,0.052893,0.008963,0.021431,-0.05,0.01839,-0.531219,0.05139,-0.455384,-264.168285,-0.561936,62.313205
0.3185,-0.007797,-0.021909,0.051716,0.008642,0.021676,-0.05,0.01839,-0.531219,0.05139,-0.455384,-264.168285,-0.561936,62.313205
0.3383,-0.007684,-0.021874,0.050696,0.008919,0.021477,-0.05,0.018566,-0.531228,0.051716,-0.530421,-264.168285,-0.636973,62.313205
0.3589,-0.007413,-0.022346,0.050592,0.008782,0.021456,-0.05,0.018539,-0.531227,0.051648,-0.530421,-264.168285,-0.636973,62.313205
0.3782,-0.007517,-0.022494,0.052892,0.008534,0.021943,-0.05,0.018378,-0.531694,0.050592,-0.605386,-264.168285,-0.711938,62.313204
0.3985,-0.007546,-0.021933,0.051078,0.008696,0.022065,-0.05,0.018984,-0.531743,0.051899,-0.605386,-264.168285,-0.711938,62.313204
0.4183,-0.007645,-0.021853,0.051371,0.008656,0.021519,-0.05,0.018984,-0.531743,0.051899,-0.605386,-264.168285,-0.711938,62.313204
0.4383,-0.007292,-0.02227,0.052314,0.008757,0.021431,-0.05,0.018543,-0.53118,0.05137,-0.680394,-264.168285,-0.786946,62.313203
0.4583,-0.007187,-0.021771,0.050311,0.008447,0.021858,-0.05,0.018605,-0.531209,0.05144,-0.680394,-264.168285,-0.786946,62.313203
0.4782,-0.007413,-0.021881,0.051022,0.008272,0.021382,-0.05,0.018461,-0.531125,0.050311,-0.755524,-264.168284,-0.862076,62.313201
0.4982,-0.007598,-0.021879,0.052567,0.00852,0.021475,-0.05,0.018538,-0.531178,0.050717,-0.755524,-264.168284,-0.862076,62.313201
0.5183,-0.007648,-0.02225,0.050595,0.008737,0.021449,-0.05,0.018538,-0.531178,0.050717,-0.755524,-264.168284,-0.862076,62.313201
0.5383,-0.007992,-0.022091,0.05369,0.008764,0.021835,-0.05,0.018144,-0.531598,0.050595,-0.799008,-264.168284,-0.937053,62.313199
0.5584,-0.007257,-0.022079,0.053054,0.009166,0.02163,-0.05,0.018234,-0.53158,0.05082,-0.799008,-264.168284,-0.937053,62.313199
0.5788,-0.007676,-0.021852,0.051409,0.008417,0.021663,-0.05,0.019788,-0.531361,0.053054,-0.805128,-264.168283,-1.012038,62.313197
0.5987,-0.007399,-0.021882,0.051754,0.008789,0.021429,-0.05,0.019065,-0.531256,0.052108,-0.805128,-264.168283,-1.012038,62.313197
0.6187,-0.007209,-0.021985,0.051667,0.008521,0.02147,-0.05,0.019065,-0.531256,0.052108,-0.805128,-264.168283,-1.012038,62.313197
0.6383,-0.007688,-0.021994,0.051415,0.008335,0.021584,-0.05,0.01913,-0.531305,0.051667,-0.771056,-264.168282,-1.087115,62.313193
0.6584,-0.007175,-0.021826,0.049692,0.008808,0.02157,-0.05,0.019088,-0.531306,0.05165,-0.771056,-264.168282,-1.087115,62.313193
0.6787,-0.007914,-0.021989,0.051711,0.00825,0.021443,-0.049692,0.018157,-0.531196,0.04969,-0.816415,-264.168278,-1.161932,62.313176
0.6984,-0.007651,-0.021734,0.05294,0.00904,0.021551,-0.05,0.018323,-0.53126,0.050848,-0.816415,-264.168278,-1.161932,62.313176
0.7186,-0.007247,-0.022047,0.050927,0.008791,0.021299,-0.05,0.018323,-0.53126,0.050848,-0.816415,-264.168278,-1.161932,62.313176
0.7385,-0.007366,-0.021954,0.053499,0.00836,0.021649,-0.05,0.018714,-0.531382,0.050919,-0.794367,-264.16826,-1.237077,62.3131
0.7587,-0.007486,-0.022175,0.050727,0.00853,0.021528,-0.05,0.018793,-0.531371,0.05109,-0.794367,-264.16826,-1.237077,62.3131
0.7785,-0.007494,-0.022027,0.053362,0.008601,0.021766,-0.05,0.018372,-0.531507,0.050699,-0.810248,-264.168184,-1.311937,62.312787
0.7991,-0.007346,-0.022212,0.050892,0.008659,0.021595,-0.05,0.019135,-0.531387,0.052218,-0.810248,-264.168184,-1.311937,62.312787
0.8188,-0.007514,-0.022281,0.049728,0.008466,0.021809,-0.05,0.019135,-0.531387,0.052218,-0.810248,-264.168184,-1.311937,62.312787
0.8383,-0.007309,-0.021867,0.052223,0.008612,0.02188,-0.049728,0.017833,-0.531595,0.049598,-0.812729,-264.167919,-1.38709,62.311658
0.8586,-0.007575,-0.021622,0.051622,0.00844,0.021456,-0.05,0.017929,-0.531566,0.049766,-0.812729,-264.167919,-1.38709,62.311658
0.8782,-0.00726,-0.021665,0.049817,0.008681,0.021202,-0.05,0.018742,-0.530819,0.051341,-0.800648,-264.167217,-1.461945,62.308597
0.8982,-0.007486,-0.022089,0.051357,0.00833,0.021277,-0.049817,0.018399,-0.530925,0.050442,-0.800648,-264.167217,-1.461945,62.308597
0.9183,-0.007187,-0.021776,0.052623,0.00861,0.021675,-0.05,0.018399,-0.530925,0.050442,-0.800648,-264.167217,-1.461945,62.308597
0.9386,-0.007008,-0.021712,0.052503,0.008323,0.021367,-0.05,0.019675,-0.530797,0.051959,-0.821989,-264.1657,-1.536927,62.303025
0.9586,-0.007106,-0.02139,0.049684,0.008138,0.021315,-0.05,0.019682,-0.530804,0.05198,-0.821989,-264.1657,-1.536927,62.303025
0.9783,-0.006524,-0.0211,0.049954,0.008159,0.021011,-0.049684,0.018312,-0.530458,0.0489,-0.799825,-264.16308,-1.612037,62.294955
0.9983,-0.006154,-0.021174,0.049746,0.00757,0.020748,-0.049954,0.018685,-0.530423,0.049405,-0.799825,-264.16308,-1.612037,62.294955
1.0191,-0.006294,-0.021138,0.049355,0.007199,0.020841,-0.049746,0.018685,-0.530423,0.049405,-0.799825,-264.16308,-1.612037,62.294955
1.0383,-0.005531,-0.020824,0.046227,0.007329,0.020801,-0.049355,0.019074,-0.53004,0.048017,-0.847822,-264.159243,-1.68709,62.284407
1.0588,-0.005744,-0.020392,0.047873,0.006487,0.020547,-0.046227,0.019025,-0.530043,0.047899,-0.847822,-264.159243,-1.68709,62.284407
1.0784,-0.004485,-0.020465,0.045617,0.006713,0.020094,-0.047873,0.018854,-0.529339,0.046575,-0.922675,-264.154924,-1.71043,62.271329
1.0986,-0.004566,-0.019813,0.045643,0.005413,0.020239,-0.045617,0.018831,-0.529619,0.045865,-0.922675,-264.154924,-1.71043,62.271329
1.1185,-0.004297,-0.020012,0.046592,0.005465,0.019584,-0.045643,0.018831,-0.529619,0.045865,-0.922675,-264.154924,-1.71043,62.271329
1.1388,-0.003454,-0.019277,0.045214,0.005225,0.01979,-0.046592,0.019696,-0.528688,0.044765,-0.869806,-264.151084,-1.703014,62.255779
1.1586,-0.003076,-0.019113,0.043423,0.004322,0.019102,-0.045214,0.019696,-0.528672,0.044748,-0.869806,-264.151084,-1.703014,62.255779
1.1788,-0.001693,-0.017893,0.042418,0.003902,0.018962,-0.043423,0.019211,-0.52802,0.042027,-0.944717,-264.147922,-1.685442,62.240568
1.1987,-0.002242,-0.01809,0.042826,0.00245,0.017805,-0.042418,0.019643,-0.527608,0.042074,-0.944717,-264.147922,-1.685442,62.240568
1.2184,-0.001787,-0.018366,0.043242,0.003014,0.017977,-0.042826,0.019643,-0.527608,0.042074,-0.944717,-264.147922,-1.685442,62.240568
1.2383,-0.000968,-0.01758,0.041681,0.00258,0.018271,-0.043242,0.020384,-0.527254,0.041778,-1.019801,-264.145343,-1.663051,62.227897
1.2587,-0.000813,-0.017465,0.039872,0.0017,0.017524,-0.041681,0.02038,-0.527223,0.041722,-1.019801,-264.145343,-1.663051,62.227897
1.2782,-0.000633,-0.017113,0.040075,0.001508,0.017419,-0.039872,0.019573,-0.526691,0.039017,-1.095392,-264.143522,-1.638991,62.218653
1.2983,-0.000355,-0.017061,0.038002,0.001318,0.017074,-0.040075,0.019709,-0.526651,0.039511,-1.095392,-264.143522,-1.638991,62.218653
1.3183,-0.000666,-0.016753,0.039632,0.001003,0.017035,-0.038002,0.019709,-0.526651,0.039511,-1.095392,-264.143522,-1.638991,62.218653
1.339,0.00017,-0.017053,0.039763,0.00133,0.016713,-0.039632,0.019568,-0.526076,0.038993,-1.169728,-264.142489,-1.610322,62.213177
1.3587,0.000142,-0.016503,0.041396,0.000508,0.017046,-0.039763,0.019629,-0.526109,0.03903,-1.169728,-264.142489,-1.610322,62.213177
1.3784,0.000398,-0.016538,0.038528,0.000541,0.016495,-0.041396,0.021261,-0.525805,0.040822,-1.244697,-264.141505,-1.595707,62.206841
1.3985,0.000251,-0.016358,0.038216,0.000239,0.016541,-0.038528,0.020565,-0.525974,0.039437,-1.244697,-264.141505,-1.595707,62.206841
1.4185,0.0007,-0.016145,0.038955,0.000374,0.016356,-0.038216,0.020565,-0.525974,0.039437,-1.244697,-264.141505,-1.595707,62.206841
1.4386,0.000612,-0.015862,0.037134,-7.1e-05,0.01616,-0.038955,0.020571,-0.52547,0.03829,-1.319895,-264.140503,-1.583093,62.201134
1.4589,0.000373,-0.016238,0.038334,-2.2e-05,0.015874,-0.037134,0.0205,-0.525465,0.038193,-1.319895,-264.140503,-1.583093,62.201134
1.4785,0.001372,-0.01576,0.037514,0.00025,0.016241,-0.038334,0.019922,-0.525535,0.037563,-1.394844,-264.139009,-1.580224,62.192926
1.4983,0.001543,-0.015744,0.03746,-0.00078,0.0158,-0.037514,0.020249,-0.525419,0.03744,-1.394844,-264.139009,-1.580224,62.192926
1.5191,0.00103,-0.015794,0.037819,-0.000952,0.015791,-0.03746,0.020249,-0.525419,0.03744,-1.394844,-264.139009,-1.580224,62.192926
1.5385,0.002144,-0.014948,0.037337,-0.000432,0.015822,-0.037819,0.020305,-0.52497,0.036746,-1.469831,-264.137388,-1.570219,62.183744
1.5584,0.001956,-0.015275,0.034177,-0.001584,0.015018,-0.037337,0.020368,-0.52493,0.036759,-1.469831,-264.137388,-1.570219,62.183744
1.5785,0.001738,-0.014849,0.035292,-0.001432,0.015333,-0.034177,0.019368,-0.52473,0.033588,-1.544806,-264.136222,-1.54618,62.177437
1.5984,0.002086,-0.01482,0.034926,-0.001213,0.014901,-0.035292,0.019576,-0.524585,0.034491,-1.544806,-264.136222,-1.54618,62.177437
1.6184,0.002465,-0.014863,0.035097,-0.001567,0.014883,-0.034926,0.019576,-0.524585,0.034491,-1.544806,-264.136222,-1.54618,62.177437
1.6382,0.001963,-0.014682,0.034107,-0.001942,0.01494,-0.035097,0.020361,-0.524549,0.035097,-1.469784,-264.136223,-1.528931,62.177436
1.6582,0.002178,-0.014803,0.034846,-0.001461,0.014741,-0.034107,0.020291,-0.524537,0.035028,-1.469784,-264.136223,-1.528931,62.177436
1.6785,0.001901,-0.014566,0.035497,-0.001661,0.01487,-0.034846,0.019946,-0.524493,0.034846,-1.394815,-264.136223,-1.527558,62.177434
1.6984,0.002084,-0.014897,0.033817,-0.001383,0.014625,-0.035497,0.019977,-0.524351,0.03522,-1.394815,-264.136223,-1.527558,62.177434
1.7183,0.002153,-0.014715,0.036238,-0.001579,0.014959,-0.033817,0.019977,-0.524351,0.03522,-1.394815,-264.136223,-1.527558,62.177434
1.7383,0.002013,-0.014423,0.036259,-0.001619,0.014783,-0.036238,0.020631,-0.52438,0.036238,-1.319773,-264.136223,-1.529744,62.177433
1.7586,0.002199,-0.014971,0.035172,-0.001489,0.014486,-0.036259,0.020622,-0.524359,0.03624,-1.319773,-264.136223,-1.529744,62.177433
1.7793,0.002269,-0.014751,0.036254,-0.001671,0.015039,-0.035172,0.020133,-0.524655,0.035172,-1.244914,-264.136223,-1.526488,62.177432
1.7984,0.001948,-0.015401,0.036045,-0.001733,0.014823,-0.036254,0.020485,-0.524519,0.035786,-1.244914,-264.136223,-1.526488,62.177432
1.8184,0.002336,-0.014652,0.034,-0.001392,0.015462,-0.036045,0.020485,-0.524519,0.035786,-1.244914,-264.136223,-1.526488,62.177432
1.8383,0.002495,-0.014796,0.034663,-0.001836,0.014723,-0.034,0.019672,-0.524357,0.034,-1.169896,-264.136224,-1.530171,62.17743
1.8582,0.002056,-0.014926,0.034562,-0.001981,0.014873,-0.034663,0.019705,-0.524366,0.034043,-1.169896,-264.136224,-1.530171,62.17743
1.8788,0.002009,-0.014662,0.036499,-0.001539,0.014988,-0.034562,0.01968,-0.524621,0.034562,-1.094914,-264.136224,-1.53367,62.177429
1.8987,0.001873,-0.014681,0.035584,-0.001472,0.014726,-0.036499,0.020214,-0.524451,0.035664,-1.094914,-264.136224,-1.53367,62.177429
1.9185,0.002421,-0.014763,0.036199,-0.001349,0.014739,-0.035584,0.020214,-0.524451,0.035664,-1.094914,-264.136224,-1.53367,62.177429
1.9387,0.002484,-0.014836,0.034816,-0.001885,0.014841,-0.036199,0.020878,-0.524429,0.036199,-1.019897,-264.136224,-1.51589,62.177427
1.9585,0.001965,-0.014587,0.036308,-0.001966,0.014914,-0.034816,0.020836,-0.524435,0.036108,-1.019897,-264.136224,-1.51589,62.177427
1.9783,0.001901,-0.014904,0.035922,-0.001434,0.014648,-0.036308,0.020478,-0.52425,0.036308,-0.9449,-264.136225,-1.533818,62.177426
1.9983,0.002306,-0.014729,0.035323,-0.001364,0.014962,-0.035922,0.02033,-0.524434,0.036089,-0.9449,-264.136225,-1.533818,62.177426
2.0184,0.002078,-0.014872,0.033472,-0.001784,0.014801,-0.035323,0.02033,-0.524434,0.036089,-0.9449,-264.136225,-1.533818,62.177426
2.0384,0.002377,-0.015012,0.034744,-0.001579,0.014933,-0.033472,0.019145,-0.524586,0.033472,-0.869889,-264.136225,-1.516515,62.177424
2.0588,0.002267,-0.014819,0.034766,-0.001854,0.015085,-0.034744,0.019213,-0.524594,0.033562,-0.869889,-264.136225,-1.516515,62.177424
2.0783,0.002087,-0.015026,0.034847,-0.001751,0.014889,-0.034766,0.019995,-0.524511,0.034766,-0.794814,-264.136225,-1.521779,62.177423
2.0986,0.002224,-0.014955,0.032331,-0.001562,0.015089,-0.034847,0.019915,-0.524628,0.034813,-0.794814,-264.136225,-1.521779,62.177423
2.1189,0.002292,-0.014808,0.03618,-0.001739,0.01502,-0.032331,0.019915,-0.524628,0.034813,-0.794814,-264.136225,-1.521779,62.177423
2.1391,0.002234,-0.01473,0.035909,-0.001755,0.014881,-0.03618,0.020739,-0.524474,0.03618,-0.719815,-264.136225,-1.519765,62.177421
2.1585,0.002512,-0.015372,0.035395,-0.001704,0.0148,-0.035909,0.020726,-0.524469,0.036161,-0.719815,-264.136225,-1.519765,62.177421
2.1785,0.002179,-0.014687,0.034525,-0.001967,0.015451,-0.035395,0.02056,-0.525053,0.035395,-0.644905,-264.136226,-1.520803,62.17742
2.1983,0.002272,-0.015056,0.036483,-0.001671,0.014754,-0.034525,0.020114,-0.524668,0.034896,-0.644905,-264.136226,-1.520803,62.17742
2.2183,0.002175,-0.014866,0.034763,-0.001721,0.015129,-0.036483,0.020114,-0.524668,0.034896,-0.644905,-264.136226,-1.520803,62.17742
2.2384,0.002179,-0.014808,0.035817,-0.001657,0.014933,-0.034763,0.019901,-0.524558,0.034763,-0.569769,-264.136226,-1.52445,62.177419
2.2583,0.00188,-0.015368,0.035653,-0.001647,0.014876,-0.035817,0.019939,-0.524553,0.034837,-0.569769,-264.136226,-1.52445,62.177419
2.2785,0.001973,-0.014862,0.035375,-0.001331,0.015426,-0.035653,0.020059,-0.525044,0.035653,-0.494913,-264.136226,-1.52482,62.177417
2.2984,0.00207,-0.014529,0.036055,-0.001447,0.014922,-0.035375,0.020032,-0.524759,0.035495,-0.494913,-264.136226,-1.52482,62.177417
2.3183,0.002199,-0.014995,0.034529,-0.001545,0.014594,-0.036055,0.020032,-0.524759,0.035495,-0.494913,-264.136226,-1.52482,62.177417
2.3384,0.002281,-0.015088,0.035408,-0.00168,0.015062,-0.034529,0.019805,-0.524691,0.034529,-0.419871,-264.136226,-1.526002,62.177416
2.3584,0.001749,-0.014896,0.035754,-0.001746,0.015159,-0.035408,0.019842,-0.524697,0.03459,-0.419871,-264.136226,-1.526002,62.177416
2.3786,0.002133,-0.014948,0.03698,-0.001215,0.014949,-0.035754,0.01998,-0.52457,0.035754,-0.3449,-264.136227,-1.528621,62.177414
2.3987,0.002227,-0.014724,0.035575,-0.001579,0.015016,-0.03698,0.020555,-0.524586,0.036453,-0.3449,-264.136227,-1.528621,62.177414
2.4191,0.002357,-0.014897,0.033838,-0.001702,0.014794,-0.035575,0.020555,-0.524586,0.036453,-0.3449,-264.136227,-1.528621,62.177414
2.4386,0.002003,-0.014362,0.035297,-0.001852,0.014968,-0.033838,0.019611,-0.524605,0.033838,-0.269853,-264.136227,-1.523368,62.177413
2.4583,0.002259,-0.01481,0.0357,-0.001495,0.014423,-0.035297,0.019641,-0.524563,0.033948,-0.269853,-264.136227,-1.523368,62.177413
2.4784,0.00192,-0.014741,0.035157,-0.001729,0.014882,-0.0357,0.020462,-0.524485,0.0357,-0.19465,-264.136227,-1.524227,62.177411
2.4982,0.002403,-0.015075,0.034093,-0.0014,0.014799,-0.035157,0.020111,-0.524451,0.035391,-0.19465,-264.136227,-1.524227,62.177411
2.5184,0.002077,-0.014814,0.034641,-0.001888,0.015148,-0.034093,0.020111,-0.524451,0.035391,-0.19465,-264.136227,-1.524227,62.177411
2.5383,0.001641,-0.014919,0.033555,-0.001562,0.014877,-0.034641,0.01974,-0.524508,0.034641,-0.119901,-264.136228,-1.529266,62.17741
2.5588,0.001871,-0.014877,0.035609,-0.001139,0.014966,-0.033555,0.019671,-0.524517,0.034565,-0.119901,-264.136228,-1.529266,62.17741
2.5783,0.002025,-0.014319,0.034809,-0.001341,0.014934,-0.035609,0.020028,-0.524553,0.035609,-0.04482,-264.136228,-1.518363,62.177408
2.5989,0.002297,-0.014908,0.033232,-0.001525,0.014381,-0.034809,0.019882,-0.524242,0.03515,-0.04482,-264.136228,-1.518363,62.177408
2.6186,0.002377,-0.014762,0.036216,-0.001801,0.014976,-0.033232,0.019882,-0.524242,0.03515,-0.04482,-264.136228,-1.518363,62.177408
2.6383,0.0022,-0.014837,0.03582,-0.001841,0.014839,-0.036216,0.020843,-0.524428,0.036216,0.030217,-264.136228,-1.53868,62.177407
2.6583,0.00254,-0.014692,0.035177,-0.001667,0.014906,-0.03582,0.020817,-0.524433,0.036188,0.030217,-264.136228,-1.53868,62.177407
2.6788,0.002253,-0.014765,0.034594,-0.002022,0.014772,-0.035177,0.020476,-0.524376,0.035176,0.105086,-264.136228,-1.519793,62.177406
2.699,0.001984,-0.014784,0.035588,-0.001741,0.014835,-0.034594,0.020145,-0.524424,0.034846,0.105086,-264.136228,-1.519793,62.177406
2.7183,0.002017,-0.014927,0.034771,-0.001456,0.014845,-0.035588,0.020145,-0.524424,0.034846,0.105086,-264.136228,-1.519793,62.177406
2.7382,0.002252,-0.014578,0.035015,-0.001497,0.014988,-0.034771,0.019747,-0.524618,0.034771,0.180071,-264.136229,-1.525503,62.177404
2.7583,0.002302,-0.014731,0.035697,-0.00174,0.014648,-0.035015,0.019772,-0.524594,0.034788,0.180071,-264.136229,-1.525503,62.177404
2.7782,0.002226,-0.014505,0.033827,-0.001774,0.014804,-0.035697,0.020503,-0.524406,0.035696,0.255097,-264.136229,-1.531003,62.177403
2.7982,0.002255,-0.015068,0.036093,-0.001734,0.014572,-0.033827,0.019913,-0.524296,0.034625,0.255097,-264.136229,-1.531003,62.177403
2.8188,0.002062,-0.014834,0.034894,-0.00171,0.015139,-0.036093,0.019913,-0.524296,0.034625,0.255097,-264.136229,-1.531003,62.177403
2.8384,0.002443,-0.014374,0.033377,-0.001544,0.014897,-0.034894,0.019855,-0.524524,0.034894,0.33023,-264.136229,-1.522536,62.177401
2.8582,0.001962,-0.01458,0.035789,-0.001962,0.014448,-0.033377,0.019821,-0.524486,0.034763,0.33023,-264.136229,-1.522536,62.177401
2.8786,0.002288,-0.014886,0.034381,-0.001439,0.014641,-0.035789,0.02021,-0.524254,0.035789,0.405597,-264.136229,-1.52484,62.1774
2.8983,0.002326,-0.014606,0.035521,-0.001775,0.014955,-0.034381,0.019987,-0.524442,0.034987,0.405597,-264.136229,-1.52484,62.1774
2.9183,0.002014,-0.014771,0.035708,-0.001806,0.014679,-0.035521,0.019987,-0.524442,0.034987,0.405597,-264.136229,-1.52484,62.1774
2.9394,0.001915,-0.014519,0.035711,-0.001485,0.014834,-0.035708,0.020221,-0.524446,0.035708,0.480098,-264.13623,-1.514522,62.177398
2.9591,0.00204,-0.014564,0.035714,-0.001396,0.014578,-0.035711,0.020215,-0.524429,0.035708,0.480098,-264.13623,-1.514522,62.177398
2.9783,0.002003,-0.014894,0.035193,-0.001518,0.014628,-0.035714,0.02025,-0.524239,0.035714,0.555098,-264.13623,-1.521185,62.177397
2.9982,0.002196,-0.014784,0.03692,-0.001478,0.014955,-0.035193,0.020077,-0.524433,0.035415,0.555098,-264.13623,-1.521185,62.177397
3.0184,0.002053,-0.014485,0.03505,-0.001648,0.014855,-0.03692,0.020077,-0.524433,0.035415,0.555098,-264.13623,-1.521185,62.177397
3.0384,0.00228,-0.014611,0.035587,-0.001544,0.014548,-0.03505,0.019924,-0.524172,0.035049,0.63024,-264.13623,-1.532465,62.177395
3.0586,0.002175,-0.01467,0.033723,-0.001759,0.014683,-0.035587,0.019957,-0.52418,0.035085,0.63024,-264.13623,-1.532465,62.177395
3.0785,0.001986,-0.015054,0.034731,-0.001679,0.014735,-0.033723,0.019371,-0.52438,0.033722,0.705094,-264.136231,-1.526755,62.177392
3.0983,0.002524,-0.014712,0.031813,-0.001462,0.015114,-0.034731,0.019555,-0.524589,0.034296,0.705094,-264.136231,-1.526755,62.177392
3.1185,0.002047,-0.014725,0.036196,-0.002055,0.014785,-0.031813,0.019555,-0.524589,0.034296,0.705094,-264.136231,-1.526755,62.177392
3.139,0.002372,-0.014672,0.0346,-0.001513,0.01479,-0.036196,0.020503,-0.52439,0.036194,0.780096,-264.136235,-1.522531,62.177372
3.1587,0.002396,-0.014607,0.036307,-0.001863,0.014746,-0.0346,0.020472,-0.524389,0.036092,0.780096,-264.136235,-1.522531,62.177372
3.1785,0.002444,-0.014769,0.034353,-0.001865,0.014684,-0.036307,0.020896,-0.524212,0.036186,0.855098,-264.13644,-1.510801,62.175989
3.1985,0.002174,-0.01456,0.034256,-0.001935,0.014845,-0.034353,0.020358,-0.524352,0.03512,0.855098,-264.13644,-1.510801,62.175989
3.2185,0.002154,-0.014695,0.034429,-0.001674,0.014625,-0.034256,0.020358,-0.524352,0.03512,0.855098,-264.13644,-1.510801,62.175989
3.2383,0.002317,-0.014934,0.03478,-0.001647,0.014761,-0.034429,0.019702,-0.524359,0.034354,0.930235,-264.136562,-1.518914,62.175331
3.2588,0.001901,-0.014669,0.036655,-0.001796,0.015006,-0.03478,0.019725,-0.524376,0.03438,0.930235,-264.136562,-1.518914,62.175331
3.2784,0.00252,-0.014641,0.035873,-0.001362,0.014728,-0.036655,0.020579,-0.524273,0.036535,1.00509,-264.136803,-1.523743,62.174011
3.2984,0.002476,-0.014577,0.03483,-0.001993,0.014722,-0.035873,0.02071,-0.524289,0.036142,1.00509,-264.136803,-1.523743,62.174011
3.3184,0.002484,-0.014511,0.033656,-0.001967,0.014654,-0.03483,0.02071,-0.524289,0.036142,1.00509,-264.136803,-1.523743,62.174011
3.3387,0.002578,-0.014388,0.035107,-0.001995,0.014586,-0.033656,0.019608,-0.524029,0.033216,1.080094,-264.137499,-1.521285,62.170178
3.3593,0.00266,-0.014405,0.034035,-0.002072,0.014469,-0.035107,0.019675,-0.524026,0.033352,1.080094,-264.137499,-1.521285,62.170178
3.3789,0.003098,-0.013937,0.033571,-0.002168,0.014487,-0.034035,0.019962,-0.523871,0.033435,1.155356,-264.138925,-1.516109,62.163872
3.3989,0.003007,-0.014105,0.03343,-0.002629,0.014033,-0.033571,0.0201,-0.523714,0.033436,1.155356,-264.138925,-1.516109,62.163872
3.4186,0.003263,-0.013781,0.033776,-0.002534,0.014198,-0.03343,0.0201,-0.523714,0.033436,1.155356,-264.138925,-1.516109,62.163872
3.4386,0.003607,-0.013365,0.033431,-0.002796,0.013884,-0.033776,0.020396,-0.523087,0.032688,1.230089,-264.141175,-1.513168,62.155051
3.4586,0.003575,-0.013755,0.032455,-0.003158,0.013478,-0.033431,0.020411,-0.523076,0.032711,1.230089,-264.141175,-1.513168,62.155051
3.4785,0.003985,-0.013085,0.02945,-0.003127,0.013864,-0.032455,0.020023,-0.52306,0.031373,1.183986,-264.143761,-1.497734,62.143731
3.4983,0.003961,-0.012983,0.031373,-0.003598,0.013196,-0.02945,0.019431,-0.522894,0.030144,1.183986,-264.143761,-1.497734,62.143731
3.5183,0.004156,-0.013013,0.033004,-0.003552,0.013101,-0.031373,0.019431,-0.522894,0.030144,1.183986,-264.143761,-1.497734,62.143731
3.5384,0.004314,-0.0127,0.027468,-0.003724,0.013143,-0.033004,0.020816,-0.522106,0.031431,1.143696,-264.146718,-1.477886,62.13053
3.5588,0.004825,-0.012704,0.027884,-0.003964,0.012813,-0.027468,0.020628,-0.522118,0.031096,1.143696,-264.146718,-1.477886,62.13053
3.5782,0.005221,-0.011906,0.028023,-0.004469,0.012834,-0.027884,0.01892,-0.522086,0.026865,1.068597,-264.149079,-1.461152,62.119621
3.5985,0.005476,-0.012081,0.027116,-0.004886,0.012048,-0.028023,0.019243,-0.521815,0.0274,1.068597,-264.149079,-1.461152,62.119621
3.6184,0.005517,-0.012052,0.027556,-0.005146,0.012225,-0.027116,0.019243,-0.521815,0.0274,1.068597,-264.149079,-1.461152,62.119621
3.6384,0.005228,-0.011765,0.026832,-0.005183,0.012199,-0.027556,0.019518,-0.521697,0.027188,0.993562,-264.149682,-1.437628,62.11641
3.6594,0.005203,-0.011452,0.02754,-0.00491,0.011901,-0.026832,0.019477,-0.521685,0.027155,0.993562,-264.149682,-1.437628,62.11641
3.6783,0.005544,-0.01179,0.026828,-0.004885,0.011591,-0.02754,0.0192,-0.521151,0.027281,0.918695,-264.150328,-1.393898,62.1136
3.6986,0.005496,-0.011295,0.02851,-0.005226,0.011935,-0.026828,0.019209,-0.521399,0.026989,0.918695,-264.150328,-1.393898,62.1136
3.7187,0.005425,-0.011741,0.027951,-0.005172,0.011447,-0.02851,0.019209,-0.521399,0.026989,0.918695,-264.150328,-1.393898,62.1136
3.7389,0.005841,-0.010924,0.025732,-0.005094,0.011888,-0.027951,0.019552,-0.5213,0.027313,0.843554,-264.151919,-1.398931,62.108299
3.7587,0.00552,-0.010957,0.026676,-0.005558,0.011071,-0.025732,0.019509,-0.521257,0.027189,0.843554,-264.151919,-1.398931,62.108299
3.7783,0.00594,-0.010904,0.025226,-0.005225,0.011101,-0.026676,0.01895,-0.520524,0.025881,0.856568,-264.155068,-1.393482,62.100493
3.7984,0.005588,-0.010701,0.025045,-0.005663,0.011051,-0.025226,0.018845,-0.520617,0.025406,0.856568,-264.155068,-1.393482,62.100493
3.8188,0.00569,-0.011099,0.026337,-0.005319,0.010838,-0.025045,0.018845,-0.520617,0.025406,0.856568,-264.155068,-1.393482,62.100493
3.8385,0.006286,-0.010587,0.024623,-0.005396,0.011245,-0.026337,0.018942,-0.520582,0.025508,0.781544,-264.156962,-1.366187,62.093341
3.8583,0.006156,-0.011029,0.024804,-0.006023,0.010738,-0.024623,0.01893,-0.520563,0.025424,0.781544,-264.156962,-1.366187,62.093341
3.8783,0.00625,-0.010083,0.025636,-0.005881,0.011179,-0.024804,0.018613,-0.520504,0.023938,0.706512,-264.15944,-1.370026,62.083818
3.8982,0.006173,-0.010115,0.023447,-0.00599,0.01024,-0.025636,0.018992,-0.520123,0.024793,0.706512,-264.15944,-1.370026,62.083818
3.9183,0.00637,-0.01003,0.023957,-0.005934,0.010257,-0.023447,0.018992,-0.520123,0.024793,0.706512,-264.15944,-1.370026,62.083818
3.9385,0.006484,-0.009554,0.022125,-0.006128,0.01018,-0.023957,0.018321,-0.519434,0.022906,0.631563,-264.162034,-1.341241,62.074538
3.9587,0.006601,-0.009165,0.023234,-0.006271,0.009696,-0.022125,0.018275,-0.519421,0.022823,0.631563,-264.162034,-1.341241,62.074538
3.9784,0.007121,-0.008989,0.021246,-0.006386,0.009316,-0.023234,0.018215,-0.518643,0.022344,0.600334,-264.164869,-1.333881,62.064572
3.9985,0.006963,-0.009073,0.02141,-0.006929,0.009138,-0.021246,0.018036,-0.518728,0.021599,0.600334,-264.164869,-1.333881,62.064572
4.0182,0.006767,-0.00925,0.019813,-0.006767,0.00922,-0.02141,0.018036,-0.518728,0.021599,0.600334,-264.164869,-1.333881,62.064572
4.0385,0.007239,-0.008886,0.020193,-0.006582,0.009382,-0.019813,0.016575,-0.518712,0.0188,0.546836,-264.167633,-1.306906,62.055521
4.0588,0.00731,-0.008783,0.020061,-0.007058,0.009031,-0.020193,0.016633,-0.518705,0.018869,0.546836,-264.167633,-1.306906,62.055521
4.0786,0.007409,-0.008109,0.017811,-0.007132,0.008927,-0.020061,0.01728,-0.518339,0.019257,0.517927,-264.170666,-1.276114,62.046448
4.0983,0.007453,-0.008161,0.019348,-0.007263,0.008239,-0.017811,0.016795,-0.518117,0.018326,0.517927,-264.170666,-1.276114,62.046448
4.1185,0.007703,-0.008377,0.019481,-0.007294,0.008304,-0.019348,0.016795,-0.518117,0.018326,0.517927,-264.170666,-1.276114,62.046448
4.1385,0.00765,-0.007861,0.018419,-0.007538,0.008525,-0.019481,0.017324,-0.517894,0.018603,0.442796,-264.173457,-1.251712,62.038388
4.1591,0.007637,-0.007907,0.018813,-0.007504,0.008,-0.018419,0.017293,-0.517874,0.018563,0.442796,-264.173457,-1.251712,62.038388
4.1786,0.007642,-0.007514,0.017396,-0.007487,0.008049,-0.018813,0.016946,-0.517504,0.018073,0.448876,-264.176642,-1.223038,62.02997
4.1988,0.007411,-0.006873,0.016816,-0.00751,0.007646,-0.017396,0.016667,-0.517427,0.017599,0.448876,-264.176642,-1.223038,62.02997
4.2187,0.007397,-0.008003,0.017877,-0.007294,0.006997,-0.016816,0.016667,-0.517427,0.017599,0.448876,-264.176642,-1.223038,62.02997
4.2385,0.007845,-0.007254,0.016223,-0.007253,0.008134,-0.017877,0.016155,-0.517552,0.017013,0.40863,-264.179799,-1.199102,62.021992
4.2587,0.007962,-0.00681,0.016635,-0.007726,0.007381,-0.016223,0.016144,-0.517518,0.016937,0.40863,-264.179799,-1.199102,62.021992
4.2783,0.008149,-0.006603,0.016219,-0.007848,0.006942,-0.016635,0.016161,-0.516475,0.015988,0.421846,-264.182949,-1.171095,62.014608
4.2983,0.00797,-0.006615,0.017152,-0.00804,0.006735,-0.016219,0.016271,-0.516477,0.016038,0.421846,-264.182949,-1.171095,62.014608
4.3184,0.007571,-0.006601,0.015424,-0.007855,0.006751,-0.017152,0.016271,-0.516477,0.016038,0.421846,-264.182949,-1.171095,62.014608
4.3383,0.007626,-0.006223,0.016629,-0.007468,0.006717,-0.015424,0.015122,-0.516252,0.014762,0.346831,-264.185649,-1.150542,62.008317
4.3588,0.008136,-0.006417,0.013497,-0.007468,0.006717,-0.015424,0.015186,-0.516237,0.014881,0.346831,-264.185649,-1.150542,62.008317
4.3789,0.007659,-0.005674,0.014566,-7.8e-05,6.3e-05,0.0,0.014754,-0.516147,0.012931,0.421837,-264.188647,-1.142963,62.001788
4.3983,0.007664,-0.005937,0.014837,-7.8e-05,6.3e-05,0.0,0.014911,-0.515817,0.013795,0.421837,-264.188647,-1.142963,62.001788
4.4183,0.00746,-0.005749,0.014455,-7.8e-05,6.3e-05,0.0,0.014911,-0.515817,0.013795,0.421837,-264.188647,-1.142963,62.001788
4.4385,0.00757,-0.005758,0.013945,-7.8e-05,6.3e-05,0.0,0.014495,-0.515403,0.01377,0.34732,-264.191552,-1.137367,61.995284
4.4588,0.007697,-0.005814,0.014544,-7.8e-05,6.3e-05,0.0,0.0145,-0.515417,0.013763,0.34732,-264.191552,-1.137367,61.995284
4.4783,0.007833,-0.005796,0.012677,-7.8e-05,6.3e-05,0.0,0.015115,-0.51576,0.014544,0.272316,-264.191552,-1.062363,61.995284
4.4986,0.007949,-0.005709,0.014966,-7.8e-05,6.3e-05,0.0,0.014655,-0.515757,0.013492,0.272316,-264.191552,-1.062363,61.995284
4.5191,0.007724,-0.005487,0.013561,-7.8e-05,6.3e-05,0.0,0.014655,-0.515757,0.013492,0.272316,-264.191552,-1.062363,61.995284
4.5384,0.007905,-0.005563,0.013767,-7.8e-05,6.3e-05,0.0,0.01464,-0.515441,0.013561,0.197328,-264.191552,-0.987375,61.995284
4.5588,0.008057,-0.005957,0.01396,-7.8e-05,6.3e-05,0.0,0.01466,-0.515446,0.013576,0.197328,-264.191552,-0.987375,61.995284
4.5784,0.00808,-0.005571,0.013665,-1e-06,0.0,-1e-06,0.015176,-0.515907,0.01396,0.122425,-264.191552,-0.912471,61.995284
4.5985,0.007944,-0.00557,0.014839,-0.001175,0.000952,-0.00197,0.015103,-0.515687,0.013791,0.122425,-264.191552,-0.912471,61.995284
4.6184,0.008485,-0.005781,0.01402,-0.002292,0.001858,-0.003843,0.015103,-0.515687,0.013791,0.122425,-264.191552,-0.912471,61.995284
4.6383,0.00776,-0.005782,0.013531,-0.00335,0.002716,-0.005617,0.015635,-0.515731,0.01402,0.047336,-264.191552,-0.837383,61.995284
4.6584,0.007974,-0.005749,0.014825,-0.004346,0.003524,-0.007287,0.015572,-0.515731,0.013988,0.047336,-264.191552,-0.837383,61.995284
4.6783,0.00764,-0.005603,0.013273,-0.005282,0.004283,-0.008858,0.015506,-0.515675,0.01479,0.122245,-264.191804,-0.912291,61.994769
4.6984,0.00785,-0.005527,0.013395,-0.006157,0.004992,-0.010324,0.014875,-0.515606,0.013917,0.122245,-264.191804,-0.912291,61.994769
4.7188,0.007664,-0.005876,0.013917,-0.006971,0.005653,-0.01169,0.014875,-0.515606,0.013917,0.122245,-264.191804,-0.912291,61.994769
4.7384,0.007677,-0.00547,0.012851,-0.007728,0.006266,-0.012959,0.014627,-0.515733,0.01372,0.197347,-264.192847,-0.987393,61.992637
4.7582,0.007974,-0.005635,0.01315,-0.00842,0.006828,-0.01412,0.014596,-0.515709,0.013653,0.197347,-264.192847,-0.987393,61.992637
4.7784,0.007746,-0.005399,0.014008,-0.009055,0.007343,-0.015185,0.01445,-0.515424,0.012789,0.21018,-264.19538,-1.062419,61.988012
4.7988,0.007634,-0.005032,0.012314,-0.009629,0.007808,-0.016147,0.014671,-0.51536,0.013437,0.21018,-264.19538,-1.062419,61.988012
4.8184,0.00805,-0.005023,0.011903,-0.010141,0.008223,-0.017005,0.014671,-0.51536,0.013437,0.21018,-264.19538,-1.062419,61.988012
4.8384,0.00771,-0.004836,0.013714,-0.010597,0.008593,-0.017771,0.013708,-0.514661,0.011218,0.21018,-264.198819,-1.071842,61.980983
4.8583,0.007635,-0.005095,0.01323,-0.010986,0.008908,-0.018423,0.013766,-0.514661,0.011374,0.21018,-264.198819,-1.071842,61.980983
4.8789,0.00779,-0.00442,0.010304,-0.011319,0.009178,-0.018981,0.013987,-0.514737,0.012573,0.21018,-264.202967,-1.071842,61.972504
4.8984,0.007387,-0.004584,0.012102,-0.01159,0.009398,-0.019436,0.013401,-0.514502,0.011201,0.21018,-264.202967,-1.071842,61.972504
4.9186,0.007258,-0.004641,0.0124,-0.011802,0.00957,-0.019791,0.013401,-0.514502,0.011201,0.21018,-264.202967,-1.071842,61.972504
4.9383,0.00757,-0.003879,0.011494,-0.011952,0.009692,-0.020043,0.013041,-0.514175,0.011503,0.21018,-264.20746,-1.071842,61.963323
4.9589,0.007443,-0.004147,0.010019,-0.012043,0.009765,-0.020195,0.013053,-0.514142,0.01148,0.21018,-264.20746,-1.071842,61.963323
4.9783,0.007577,-0.003577,0.00817,-0.012073,0.00979,-0.020246,0.012093,-0.513756,0.009254,0.21018,-264.212286,-1.071842,61.953457
4.9983,0.007623,-0.003821,0.010474,-0.012043,0.009765,-0.020195,0.011836,-0.513598,0.00854,0.21018,-264.212286,-1.071842,61.953457
5.0186,0.007626,-0.003803,0.008232,-0.011952,0.009691,-0.020043,0.011836,-0.513598,0.00854,0.21018,-264.212286,-1.071842,61.953457
5.0383,0.007671,-0.003176,0.007363,-0.011801,0.009569,-0.01979,0.011235,-0.513316,0.00725,0.21018,-264.217212,-1.071842,61.94339
5.0586,0.007446,-0.003185,0.008224,-0.01159,0.009398,-0.019436,0.011232,-0.513293,0.007232,0.21018,-264.217212,-1.071842,61.94339
5.0784,0.007244,-0.002394,0.009019,-0.011319,0.009178,-0.01898,0.011176,-0.512797,0.007451,0.21018,-264.222107,-1.071842,61.933386
5.0984,0.00711,-0.003073,0.007035,-0.010986,0.008908,-0.018422,0.0115,-0.512507,0.008252,0.21018,-264.222107,-1.071842,61.933386
5.1183,0.007449,-0.002628,0.008277,-0.010594,0.008591,-0.017766,0.0115,-0.512507,0.008252,0.21018,-264.222107,-1.071842,61.933386
5.139,0.007061,-0.002041,0.007554,-0.010141,0.008223,-0.017005,0.011104,-0.512159,0.007333,0.21018,-264.226861,-1.071842,61.92367
5.1589,0.006895,-0.002249,0.007681,-0.009628,0.007807,-0.016146,0.011072,-0.512135,0.007322,0.21018,-264.226861,-1.071842,61.92367
5.1789,0.006871,-0.002051,0.007467,-0.009054,0.007341,-0.015183,0.010403,-0.511906,0.006998,0.21018,-264.231182,-1.071842,61.914839
5.1985,0.007237,-0.001996,0.005126,-0.008422,0.006829,-0.014124,0.010509,-0.511939,0.007179,0.21018,-264.231182,-1.071842,61.914839
5.2185,0.006958,-0.001826,0.005369,-0.007728,0.006266,-0.012959,0.010509,-0.511939,0.007179,0.21018,-264.231182,-1.071842,61.914839
5.2383,0.00678,-0.001419,0.00552,-0.006972,0.005653,-0.011691,0.009226,-0.511441,0.004584,0.21018,-264.235125,-1.071842,61.906779
5.2588,0.00696,-0.001637,0.004715,-0.006157,0.004993,-0.010325,0.00924,-0.511428,0.004631,0.21018,-264.235125,-1.071842,61.906779
5.2782,0.006915,-0.000817,0.002919,-0.00528,0.004282,-0.008855,0.009066,-0.511391,0.004215,0.21018,-264.238282,-1.071842,61.900327
5.2987,0.007166,-0.001432,0.004915,-0.004346,0.003524,-0.007288,0.00865,-0.511032,0.003412,0.21018,-264.238282,-1.071842,61.900327
5.3184,0.007019,-0.000939,0.003991,-0.003352,0.002718,-0.00562,0.00865,-0.511032,0.003412,0.21018,-264.238282,-1.071842,61.900327
5.3388,0.006617,-0.000956,0.002136,-0.002293,0.001859,-0.003846,0.008755,-0.510694,0.00349,0.21018,-264.240808,-1.071842,61.895165
5.3587,0.006908,-0.000852,0.00301,-0.001176,0.000954,-0.001972,0.008664,-0.510707,0.003368,0.21018,-264.240808,-1.071842,61.895165
5.3783,0.007328,-0.000783,0.002166,0.0,0.0,0.0,0.008314,-0.510745,0.002794,0.21018,-264.242173,-1.071842,61.892375
5.3986,0.007165,-0.000841,0.002804,0.0,0.0,0.0,0.008365,-0.510753,0.002409,0.21018,-264.242173,-1.071842,61.892375
5.4187,0.006866,-0.001089,0.002598,0.0,0.0,0.0,0.008365,-0.510753,0.002409,0.21018,-264.242173,-1.071842,61.892375
5.4388,0.006624,-0.000758,0.004125,0.0,0.0,0.0,0.008133,-0.511041,0.002502,0.21018,-264.242653,-1.071842,61.891392
5.4588,0.006709,-0.000856,0.004827,0.0,0.0,0.0,0.008171,-0.511021,0.002607,0.21018,-264.242653,-1.071842,61.891392
5.4783,0.006454,-0.000557,0.004199,0.0,0.0,0.0,0.009171,-0.51085,0.004827,0.21018,-264.242653,-1.071842,61.891392
5.4983,0.006699,-0.000759,0.0015,0.0,0.0,0.0,0.008836,-0.510677,0.004461,0.21018,-264.242653,-1.071842,61.891392
5.5183,0.007233,-0.000318,0.004267,0.0,0.0,0.0,0.008836,-0.510677,0.004461,0.21018,-264.242653,-1.071842,61.891392
5.5384,0.00668,-0.000674,0.003452,0.0,0.0,0.0,0.009409,-0.510313,0.004267,0.21018,-264.242653,-1.071842,61.891392
5.5587,0.006968,-0.000585,0.003544,0.0,0.0,0.0,0.009341,-0.510338,0.00421,0.21018,-264.242653,-1.071842,61.891392
5.5785,0.007076,-0.000559,0.003536,0.0,0.0,0.0,0.008775,-0.510581,0.003544,0.21018,-264.242653,-1.071842,61.891392
5.5983,0.006668,-0.00072,0.004482,-0.0001,8e-06,0.0,0.008835,-0.510567,0.00354,0.21018,-264.242653,-1.071842,61.891392
5.6187,0.006826,-0.000444,0.002291,-0.0001,8e-06,0.0,0.008835,-0.510567,0.00354,0.21018,-264.242653,-1.071842,61.891392
5.639,0.006706,-0.000627,0.00261,-0.0001,8e-06,0.0,0.007994,-0.510443,0.002291,0.21018,-264.242653,-1.071842,61.891392
5.6588,0.006769,-0.000596,0.002353,-0.0001,8e-06,0.0,0.007997,-0.510456,0.002314,0.21018,-264.242653,-1.071842,61.891392
5.6782,0.006732,-0.000646,0.002844,-0.0001,8e-06,0.0,0.007969,-0.510595,0.002353,0.135208,-264.242653,-0.996871,61.891392
5.6982,0.006879,-0.001053,0.002305,-0.0001,8e-06,0.0,0.008092,-0.510623,0.002636,0.135208,-264.242653,-0.996871,61.891392
5.7184,0.006989,-0.000582,0.002939,-0.0001,8e-06,0.0,0.008092,-0.510623,0.002636,0.135208,-264.242653,-0.996871,61.891392
5.7388,0.006648,-0.000733,0.003657,-0.0001,8e-06,0.0,0.008488,-0.510579,0.002939,0.060099,-264.242653,-0.921762,61.891392
5.7587,0.007003,-0.000677,0.003593,-0.0001,8e-06,0.0,0.008489,-0.51059,0.002991,0.060099,-264.242653,-0.921762,61.891392
5.7783,0.006668,-0.000322,0.00404,-0.0001,8e-06,0.0,0.008836,-0.510674,0.003593,-0.014781,-264.242653,-0.846881,61.891392
5.7983,0.006795,-0.000685,0.003285,-0.0,0.0,-0.0,0.008775,-0.510472,0.003846,-0.014781,-264.242653,-0.846881,61.891392
5.8185,0.006924,-0.000488,0.003742,-0.001028,8.5e-05,-0.000514,0.008775,-0.510472,0.003846,-0.014781,-264.242653,-0.846881,61.891392
5.8383,0.006687,-0.000623,0.002697,-0.002028,0.000167,-0.001014,0.008832,-0.510484,0.003742,-0.082356,-264.242653,-0.771962,61.891392
5.8583,0.006942,-0.000549,0.002355,-0.00294,0.000243,-0.00147,0.008781,-0.510494,0.003672,-0.082356,-264.242653,-0.771962,61.891392
5.8788,0.007025,-0.001021,0.002599,-0.003816,0.000315,-0.001908,0.008142,-0.510548,0.002354,-0.007364,-264.24266,-0.69697,61.891385
5.8991,0.00691,-0.001044,0.00348,-0.004637,0.000383,-0.002318,0.00826,-0.510815,0.002493,-0.007364,-264.24266,-0.69697,61.891385
5.9188,0.006852,-0.000805,0.001865,-0.005407,0.000446,-0.002703,0.00826,-0.510815,0.002493,-0.007364,-264.24266,-0.69697,61.891385
5.9387,0.00701,-0.00074,0.003012,-0.006125,0.000506,-0.003062,0.007793,-0.510801,0.001859,0.067638,-264.242752,-0.621968,61.891289
5.9589,0.006918,-0.000753,0.003376,-0.006789,0.00056,-0.003394,0.007842,-0.510797,0.001935,0.067638,-264.242752,-0.621968,61.891289
5.9792,0.006942,-0.0006,0.003008,-0.007399,0.000611,-0.003699,0.00859,-0.51074,0.003346,0.142648,-264.243302,-0.546958,61.890713
5.9986,0.006949,-0.000476,0.003793,-0.007957,0.000657,-0.003978,0.008519,-0.510657,0.003149,0.142648,-264.243302,-0.546958,61.890713
6.0186,0.006801,-0.000463,0.003496,-0.008461,0.000698,-0.00423,0.008519,-0.510657,0.003149,0.142648,-264.243302,-0.546958,61.890713
6.0385,0.006376,-0.000269,0.001607,-0.008911,0.000736,-0.004455,0.008407,-0.510436,0.003391,0.21779,-264.24483,-0.471816,61.889114
6.0587,0.006543,-0.000783,0.003799,-0.009309,0.000768,-0.004654,0.00832,-0.510424,0.003267,0.21779,-264.24483,-0.471816,61.889114
6.0785,0.006777,-0.000172,0.003188,-0.009655,0.000797,-0.004826,0.008205,-0.510753,0.003654,0.219202,-264.247772,-0.396961,61.886034
6.0985,0.006645,-0.001063,0.002277,-0.009948,0.000821,-0.004973,0.008284,-0.510415,0.003368,0.219202,-264.247772,-0.396961,61.886034
6.1187,0.006444,-0.000679,0.001976,-0.010185,0.000841,-0.005092,0.008284,-0.510415,0.003368,0.219202,-264.247772,-0.396961,61.886034
6.1386,0.006103,-0.000674,0.002684,-0.010372,0.000856,-0.005185,0.007004,-0.510642,0.001752,0.219202,-264.251535,-0.370003,61.882094
6.1589,0.006371,-0.000574,0.003732,-0.010504,0.000867,-0.005251,0.007022,-0.510643,0.001805,0.219202,-264.251535,-0.370003,61.882094
6.1785,0.005744,-0.000513,0.002298,-0.010584,0.000874,-0.005291,0.00788,-0.510539,0.003535,0.219202,-264.255715,-0.370003,61.877718
6.1986,0.005799,-0.000611,0.002332,-0.010611,0.000876,-0.005305,0.007277,-0.51052,0.0028,0.219202,-264.255715,-0.370003,61.877718
6.2186,0.005975,-0.000338,0.001867,-0.010585,0.000874,-0.005291,0.007277,-0.51052,0.0028,0.219202,-264.255715,-0.370003,61.877718
6.2383,0.005322,-0.000472,0.003286,-0.010505,0.000867,-0.005252,0.006416,-0.510296,0.001612,0.219202,-264.260021,-0.370003,61.87321
6.2583,0.005614,-0.000226,0.002557,-0.010373,0.000856,-0.005186,0.006443,-0.510306,0.001721,0.219202,-264.260021,-0.370003,61.87321
6.2782,0.004756,-0.000385,0.0028,-0.010188,0.000841,-0.005093,0.00651,-0.510192,0.002353,0.219202,-264.264351,-0.370003,61.868676
6.2985,0.004856,-0.000343,0.002209,-0.009949,0.000821,-0.004974,0.006272,-0.510297,0.002581,0.219202,-264.264351,-0.370003,61.868676
6.3184,0.004876,-0.000752,0.000771,-0.009658,0.000797,-0.004828,0.006272,-0.510297,0.002581,0.219202,-264.264351,-0.370003,61.868676
6.3383,0.004604,-0.000624,0.002469,-0.009313,0.000769,-0.004656,0.004765,-0.51071,0.000519,0.219202,-264.268602,-0.370003,61.864226
6.3585,0.004597,-0.000203,0.001526,-0.008914,0.000736,-0.004456,0.004828,-0.510703,0.000648,0.219202,-264.268602,-0.370003,61.864226
6.3782,0.004022,-0.000352,0.001876,-0.008464,0.000699,-0.004232,0.005002,-0.510172,0.001339,0.219202,-264.272566,-0.370003,61.860077
6.3984,0.004156,-0.000505,0.001264,-0.007959,0.000657,-0.003979,0.004942,-0.510271,0.001624,0.219202,-264.272566,-0.370003,61.860077
6.4184,0.004527,-2.2e-05,0.001066,-0.007405,0.000611,-0.003702,0.004942,-0.510271,0.001624,0.219202,-264.272566,-0.370003,61.860077
6.4384,0.00385,-0.000152,7.5e-05,-0.006795,0.000561,-0.003397,0.004638,-0.509986,0.000849,0.219202,-264.276213,-0.370003,61.856258
6.4585,0.003584,-0.000377,0.001773,-0.006132,0.000506,-0.003065,0.004578,-0.509996,0.000793,0.219202,-264.276213,-0.370003,61.856258
6.4783,0.003371,-0.000133,0.00089,-0.005416,0.000447,-0.002707,0.004202,-0.510353,0.00163,0.219202,-264.279259,-0.370003,61.853069
6.4984,0.003725,-0.000188,0.001202,-0.004647,0.000384,-0.002323,0.003947,-0.510222,0.001183,0.219202,-264.279259,-0.370003,61.853069
6.5182,0.003663,-0.000377,0.000856,-0.003823,0.000316,-0.001911,0.003947,-0.510222,0.001183,0.219202,-264.279259,-0.370003,61.853069
6.5383,0.003351,-0.000323,0.000523,-0.002945,0.000243,-0.001472,0.003802,-0.510352,0.000708,0.219202,-264.281765,-0.370003,61.850446
6.5585,0.003326,-0.000185,0.000853,-0.002022,0.000167,-0.001011,0.003781,-0.51035,0.000691,0.219202,-264.281765,-0.370003,61.850446
6.5783,0.003411,-0.000624,-0.000183,-0.001039,8.6e-05,-0.000519,0.003614,-0.510173,0.000779,0.219202,-264.28333,-0.370003,61.848807
6.5983,0.003683,-6e-05,0.000413,-7e-06,1e-06,-4e-06,0.003427,-0.510428,0.000222,0.219202,-264.28333,-0.370003,61.848807
6.6184,0.003171,-0.000329,-0.000489,0.0,0.0,0.0,0.003427,-0.510428,0.000222,0.219202,-264.28333,-0.370003,61.848807
6.6386,0.003291,-0.000196,-0.000277,0.0,0.0,0.0,0.002824,-0.510321,-0.000538,0.219202,-264.284159,-0.370003,61.847939
6.6586,0.003399,2.4e-05,0.001013,0.0,0.0,0.0,0.002844,-0.510312,-0.000521,0.219202,-264.284159,-0.370003,61.847939
6.6784,0.002773,-0.000458,0.001897,0.0,0.0,0.0,0.003916,-0.509976,0.001013,0.219202,-264.284159,-0.370003,61.847939
6.6984,0.002904,-0.00043,0.000392,0.0,0.0,0.0,0.003815,-0.510251,0.001519,0.219202,-264.284159,-0.370003,61.847939
