mach0312/omni-docking-bench/src/icros_test_setup/results/kinematic_sample/timeseries/trial_140.csv
t,x,y,yaw,vx,vy,wz,bl_x,bl_y,bl_yaw,front_steering_joint,front_wheel_joint,rear_steering_joint,rear_wheel_joint
0.0,-0.008847,-0.021553,0.051913,0.007957,-0.00144,0.004355,0.017412,-0.530971,0.052704,0.152113,-264.367816,-0.475817,62.398946
0.0004,-0.009244,-0.021668,0.05268,0.007241,-0.001311,0.003963,0.017308,-0.530962,0.052515,0.152113,-264.364592,-0.475817,62.402531
0.0007,-0.008674,-0.021517,0.052623,0.006982,-0.001264,0.003822,0.017308,-0.530962,0.052515,0.152113,-264.361408,-0.475817,62.406071
0.0009,-0.00858,-0.021599,0.052003,0.006683,-0.00121,0.003658,0.017175,-0.531204,0.051704,0.152113,-264.35839,-0.475817,62.409427
0.0012,-0.008548,-0.021495,0.051305,0.006346,-0.001149,0.003474,0.017175,-0.531204,0.051704,0.152113,-264.35556,-0.475817,62.412574
0.0015,-0.008535,-0.021785,0.053086,0.005968,-0.00108,0.003267,0.016642,-0.531106,0.051101,0.152113,-264.353148,-0.475817,62.415256
0.0018,-0.008167,-0.02182,0.051915,0.005549,-0.001004,0.003037,0.016642,-0.531106,0.051101,0.152113,-264.351087,-0.475817,62.417548
0.002,-0.008144,-0.021854,0.052794,0.005085,-0.00092,0.002784,0.016642,-0.531106,0.051101,0.152113,-264.351087,-0.475817,62.417548
0.0022,-0.008368,-0.021699,0.052098,0.004594,-0.000831,0.002514,0.016958,-0.531163,0.050879,0.152113,-264.351087,-0.475817,62.417548
0.0024,-0.007737,-0.021683,0.050829,0.004058,-0.000734,0.002221,0.017011,-0.531145,0.050952,0.152113,-264.351087,-0.475817,62.417548
0.0168,-0.007948,-0.021499,0.051556,0.008828,0.01537,-0.028095,0.018425,-0.531057,0.050965,0.152113,-264.351087,-0.475817,62.417548
0.0371,-0.007814,-0.021678,0.051341,0.009045,0.021061,-0.05,0.018425,-0.531042,0.051007,0.152113,-264.351087,-0.475817,62.417548
0.057,-0.008081,-0.021925,0.051253,0.008916,0.021249,-0.05,0.018494,-0.531024,0.051414,0.152113,-264.34968,-0.475817,62.419112
0.0767,-0.007432,-0.02149,0.052961,0.009194,0.021482,-0.05,0.018257,-0.531157,0.051332,0.152113,-264.34968,-0.475817,62.419112
0.0966,-0.008069,-0.021397,0.053296,0.00856,0.021066,-0.05,0.018257,-0.531157,0.051332,0.152113,-264.34968,-0.475817,62.419112
0.1172,-0.007663,-0.02113,0.051518,0.009197,0.020936,-0.05,0.019099,-0.530673,0.053296,0.077229,-264.34968,-0.550701,62.419112
0.1374,-0.007793,-0.021757,0.052943,0.008741,0.020707,-0.05,0.019063,-0.530657,0.053167,0.077229,-264.34968,-0.550701,62.419112
0.1573,-0.007845,-0.021579,0.052869,0.008934,0.021314,-0.05,0.019195,-0.531042,0.052943,0.00211,-264.34968,-0.62582,62.419112
0.1766,-0.007746,-0.021854,0.053392,0.008974,0.021135,-0.05,0.019144,-0.530943,0.052901,0.00211,-264.34968,-0.62582,62.419112
0.197,-0.007916,-0.021808,0.051126,0.008901,0.02141,-0.05,0.019144,-0.530943,0.052901,0.00211,-264.34968,-0.62582,62.419112
0.2166,-0.007923,-0.021798,0.051145,0.00902,0.021375,-0.05,0.018147,-0.531141,0.051126,-0.072831,-264.34968,-0.700761,62.419112
0.2369,-0.007486,-0.021646,0.052865,0.009027,0.021364,-0.05,0.018147,-0.531141,0.051127,-0.072831,-264.34968,-0.700761,62.419112
0.2565,-0.008101,-0.021955,0.05359,0.008619,0.02122,-0.05,0.019463,-0.530934,0.052865,-0.14777,-264.34968,-0.775701,62.419112
0.2767,-0.007949,-0.021611,0.052553,0.009266,0.021489,-0.05,0.019323,-0.531098,0.053278,-0.14777,-264.34968,-0.775701,62.419112
0.2966,-0.007836,-0.021827,0.052051,0.009073,0.021163,-0.05,0.019323,-0.531098,0.053278,-0.14777,-264.34968,-0.775701,62.419112
0.3169,-0.007872,-0.022254,0.052314,0.008961,0.02139,-0.05,0.018699,-0.531137,0.052051,-0.222766,-264.34968,-0.850696,62.419112
0.3368,-0.007541,-0.021538,0.052014,0.009025,0.021812,-0.05,0.018705,-0.531166,0.05207,-0.222766,-264.34968,-0.850696,62.419112
0.3565,-0.007701,-0.021802,0.051664,0.008651,0.021117,-0.05,0.018974,-0.530849,0.052014,-0.297768,-264.34968,-0.925698,62.419112
0.3764,-0.007874,-0.021878,0.052355,0.008817,0.021375,-0.05,0.018782,-0.531004,0.051815,-0.297768,-264.34968,-0.925698,62.419112
0.3969,-0.007909,-0.021739,0.052573,0.009008,0.021436,-0.05,0.018782,-0.531004,0.051815,-0.297768,-264.34968,-0.925698,62.419112
0.4166,-0.008196,-0.021489,0.053148,0.00904,0.021293,-0.05,0.018891,-0.531034,0.052573,-0.372781,-264.34968,-1.000712,62.419112
0.4371,-0.00811,-0.021821,0.05237,0.009326,0.021023,-0.05,0.018891,-0.531016,0.052613,-0.372781,-264.34968,-1.000712,62.419112
0.4567,-0.008069,-0.021594,0.051795,0.009241,0.021367,-0.05,0.018586,-0.531122,0.05237,-0.447772,-264.34968,-1.075702,62.419112
0.4768,-0.007769,-0.021532,0.052823,0.009176,0.021147,-0.05,0.018443,-0.531001,0.052042,-0.447772,-264.34968,-1.075702,62.419112
0.4967,-0.007819,-0.021644,0.050427,0.008895,0.021091,-0.05,0.018443,-0.531001,0.052042,-0.447772,-264.34968,-1.075702,62.419112
0.517,-0.008057,-0.021744,0.051299,0.0089,0.021222,-0.05,0.017888,-0.530995,0.050427,-0.522794,-264.34968,-1.00068,62.419112
0.537,-0.007578,-0.021528,0.052514,0.009161,0.021302,-0.05,0.017903,-0.531001,0.050491,-0.522794,-264.34968,-1.00068,62.419112
0.5569,-0.007907,-0.021698,0.053113,0.008697,0.0211,-0.05,0.019192,-0.530825,0.052514,-0.597854,-264.34968,-1.07574,62.419111
0.5768,-0.007544,-0.021507,0.051701,0.009048,0.021247,-0.05,0.019178,-0.530912,0.052852,-0.597854,-264.34968,-1.07574,62.419111
0.5965,-0.00778,-0.021515,0.052635,0.008646,0.021089,-0.05,0.019178,-0.530912,0.052852,-0.597854,-264.34968,-1.07574,62.419111
0.6166,-0.007763,-0.021958,0.052,0.008901,0.021076,-0.05,0.019051,-0.530809,0.052635,-0.672756,-264.34968,-1.000838,62.419112
0.6369,-0.007809,-0.021741,0.051806,0.008894,0.021525,-0.05,0.01903,-0.530841,0.05259,-0.672756,-264.34968,-1.000838,62.419112
0.657,-0.007822,-0.022304,0.052145,0.008924,0.021307,-0.05,0.0186,-0.531057,0.051806,-0.747754,-264.349679,-1.075835,62.41911
0.6766,-0.007697,-0.021671,0.05187,0.008974,0.021866,-0.05,0.018691,-0.531372,0.051999,-0.747754,-264.349679,-1.075835,62.41911
0.6966,-0.007771,-0.02202,0.0531,0.008811,0.021243,-0.05,0.018691,-0.531372,0.051999,-0.747754,-264.349679,-1.075835,62.41911
0.7167,-0.007946,-0.02176,0.054001,0.008929,0.021576,-0.05,0.019297,-0.5313,0.053099,-0.792021,-264.349676,-1.150845,62.419098
0.7371,-0.008055,-0.021588,0.052772,0.009109,0.0213,-0.05,0.019317,-0.531281,0.053162,-0.792021,-264.349676,-1.150845,62.419098
0.7566,-0.007774,-0.021592,0.052883,0.009182,0.021133,-0.05,0.018846,-0.530876,0.052767,-0.81212,-264.349662,-1.225849,62.419039
0.7765,-0.007858,-0.021862,0.052868,0.008905,0.021151,-0.05,0.019038,-0.530878,0.052832,-0.81212,-264.349662,-1.225849,62.419039
0.7966,-0.008202,-0.021919,0.050492,0.009002,0.021416,-0.05,0.019038,-0.530878,0.052832,-0.81212,-264.349662,-1.225849,62.419039
0.8168,-0.007473,-0.021786,0.051924,0.009298,0.021477,-0.05,0.017536,-0.531258,0.050466,-0.792446,-264.349605,-1.300844,62.418808
0.8368,-0.00792,-0.022015,0.051834,0.008594,0.021369,-0.05,0.017631,-0.531247,0.050561,-0.792446,-264.349605,-1.300844,62.418808
0.8565,-0.007784,-0.021584,0.052875,0.00905,0.021575,-0.05,0.0185,-0.531298,0.051758,-0.791981,-264.349401,-1.375845,62.41797
0.8765,-0.007834,-0.021572,0.053629,0.008914,0.021142,-0.05,0.018881,-0.531051,0.052384,-0.791981,-264.349401,-1.375845,62.41797
0.8967,-0.007781,-0.021917,0.052185,0.008979,0.021121,-0.05,0.018881,-0.531051,0.052384,-0.791981,-264.349401,-1.375845,62.41797
0.9171,-0.00799,-0.021251,0.052555,0.008914,0.021481,-0.05,0.018821,-0.531097,0.051892,-0.817752,-264.348797,-1.450848,62.415442
0.9369,-0.008003,-0.021411,0.052151,0.009095,0.020802,-0.05,0.01882,-0.531056,0.051929,-0.817752,-264.348797,-1.450848,62.415442
0.9565,-0.007288,-0.021153,0.0509,0.009108,0.020965,-0.05,0.018604,-0.530519,0.051679,-0.809155,-264.347496,-1.525849,62.410415
0.9765,-0.007288,-0.020873,0.05212,0.008355,0.020754,-0.05,0.018638,-0.530479,0.051176,-0.809155,-264.347496,-1.525849,62.410415
0.9967,-0.007038,-0.021442,0.053234,0.008365,0.020465,-0.05,0.018638,-0.530479,0.051176,-0.809155,-264.347496,-1.525849,62.410415
1.0165,-0.007568,-0.021329,0.050994,0.008169,0.021037,-0.05,0.020099,-0.53072,0.053235,-0.819413,-264.347496,-1.450844,62.410417
1.0371,-0.007457,-0.021067,0.051752,0.008646,0.020916,-0.05,0.019989,-0.530716,0.053087,-0.819413,-264.347496,-1.450844,62.410417
1.0568,-0.007105,-0.021207,0.050616,0.008536,0.020653,-0.05,0.018958,-0.530312,0.051471,-0.877745,-264.346135,-1.525825,62.407916
1.0769,-0.006789,-0.021056,0.05183,0.008169,0.02082,-0.05,0.018815,-0.53044,0.05095,-0.877745,-264.346135,-1.525825,62.407916
1.0968,-0.007087,-0.021115,0.050435,0.007871,0.020676,-0.05,0.018815,-0.53044,0.05095,-0.877745,-264.346135,-1.525825,62.407916
1.1168,-0.006917,-0.020915,0.051701,0.008142,0.020731,-0.05,0.018724,-0.530268,0.049756,-0.838767,-264.343683,-1.600953,62.402921
1.137,-0.006766,-0.021162,0.049258,0.007989,0.02053,-0.05,0.018773,-0.530261,0.049866,-0.838767,-264.343683,-1.600953,62.402921
1.157,-0.005633,-0.020707,0.050223,0.0078,0.020803,-0.049258,0.018486,-0.530318,0.048435,-0.897175,-264.339918,-1.675854,62.395411
1.1766,-0.00568,-0.020982,0.050862,0.006665,0.020398,-0.05,0.019352,-0.530144,0.049353,-0.897175,-264.339918,-1.675854,62.395411
1.1968,-0.005789,-0.020706,0.050822,0.006739,0.020666,-0.05,0.019352,-0.530144,0.049353,-0.897175,-264.339918,-1.675854,62.395411
1.2167,-0.00471,-0.020207,0.046803,0.006833,0.020385,-0.05,0.020381,-0.529667,0.049458,-0.897135,-264.334984,-1.725971,62.385379
1.237,-0.005192,-0.019957,0.04719,0.005651,0.019965,-0.046803,0.020292,-0.529655,0.049208,-0.897135,-264.334984,-1.725971,62.385379
1.2572,-0.00373,-0.019589,0.045918,0.006128,0.01969,-0.04719,0.019042,-0.528956,0.045931,-0.971763,-264.330666,-1.701664,62.37291
1.2766,-0.003633,-0.019311,0.043991,0.004625,0.019398,-0.045918,0.019429,-0.528956,0.045764,-0.971763,-264.330666,-1.701664,62.37291
1.2968,-0.00419,-0.019283,0.046259,0.004479,0.019132,-0.043991,0.019429,-0.528956,0.045764,-0.971763,-264.330666,-1.701664,62.37291
1.3172,-0.002959,-0.019344,0.045809,0.005077,0.019069,-0.046259,0.019604,-0.528029,0.044435,-0.990569,-264.326586,-1.686665,62.357927
1.3371,-0.002859,-0.018797,0.04404,0.003841,0.019188,-0.045809,0.019659,-0.528061,0.044478,-0.990569,-264.326586,-1.686665,62.357927
1.3566,-0.001782,-0.017743,0.041818,0.003683,0.018653,-0.04404,0.019729,-0.527594,0.042425,-1.045966,-264.323201,-1.66785,62.340424
1.3774,-0.001366,-0.018032,0.042772,0.002522,0.017653,-0.041818,0.019638,-0.527336,0.041878,-1.045966,-264.323201,-1.66785,62.340424
1.397,-0.001627,-0.017619,0.043187,0.002135,0.017957,-0.042772,0.019638,-0.527336,0.041878,-1.045966,-264.323201,-1.66785,62.340424
1.4166,-0.000381,-0.017022,0.039823,0.002386,0.017533,-0.043187,0.020517,-0.526378,0.041385,-1.121023,-264.320086,-1.652062,62.325056
1.4372,-0.000569,-0.017066,0.039579,0.001059,0.016994,-0.039823,0.020479,-0.526374,0.041228,-1.121023,-264.320086,-1.652062,62.325056
1.4573,0.000164,-0.016458,0.03952,0.001244,0.01703,-0.039579,0.019651,-0.526289,0.038698,-1.195961,-264.318262,-1.619202,62.315523
1.4772,0.000105,-0.016568,0.039735,0.000486,0.016451,-0.03952,0.02004,-0.526108,0.039063,-1.195961,-264.318262,-1.619202,62.315523
1.4967,0.00092,-0.016205,0.04035,0.000553,0.016559,-0.039735,0.02004,-0.526108,0.039063,-1.195961,-264.318262,-1.619202,62.315523
1.517,0.001119,-0.015987,0.038241,-0.000265,0.016229,-0.04035,0.021512,-0.525443,0.039551,-1.271551,-264.317032,-1.596419,62.308656
1.537,0.000715,-0.015947,0.037734,-0.000507,0.016018,-0.038241,0.02145,-0.525446,0.039438,-1.271551,-264.317032,-1.596419,62.308656
1.5566,0.000934,-0.015842,0.036935,-0.000113,0.015962,-0.037734,0.019963,-0.525306,0.037074,-1.346069,-264.315691,-1.584349,62.301569
1.5767,0.001131,-0.016015,0.038288,-0.000349,0.015866,-0.036935,0.01985,-0.52538,0.03691,-1.346069,-264.315691,-1.584349,62.301569
1.5966,0.001168,-0.015758,0.037132,-0.000517,0.016046,-0.038288,0.01985,-0.52538,0.03691,-1.346069,-264.315691,-1.584349,62.301569
1.617,0.001117,-0.015313,0.036356,-0.000582,0.015791,-0.037132,0.020097,-0.525217,0.036682,-1.421361,-264.314976,-1.557916,62.297741
1.6374,0.001172,-0.015583,0.036309,-0.00056,0.015344,-0.036356,0.020065,-0.525194,0.036645,-1.421361,-264.314976,-1.557916,62.297741
1.6566,0.00224,-0.015546,0.037388,-0.000606,0.015615,-0.036309,0.019678,-0.525008,0.035705,-1.496225,-264.313628,-1.557683,62.291419
1.6767,0.001712,-0.015346,0.034401,-0.001658,0.015619,-0.037388,0.020609,-0.525082,0.036593,-1.496225,-264.313628,-1.557683,62.291419
1.6967,0.001538,-0.015183,0.037288,-0.001183,0.015395,-0.034401,0.020609,-0.525082,0.036593,-1.496225,-264.313628,-1.557683,62.291419
1.7172,0.002056,-0.014726,0.035223,-0.000971,0.01523,-0.037288,0.020527,-0.524407,0.036226,-1.5711,-264.311767,-1.555885,62.282595
1.737,0.002669,-0.014487,0.034568,-0.001536,0.014789,-0.035223,0.020489,-0.524395,0.036124,-1.5711,-264.311767,-1.555885,62.282595
1.7572,0.002419,-0.014874,0.033924,-0.002167,0.01457,-0.034568,0.020296,-0.524182,0.034568,-1.496141,-264.311767,-1.538306,62.282593
1.7768,0.002336,-0.014909,0.036142,-0.001913,0.014948,-0.033924,0.019967,-0.524408,0.034202,-1.496141,-264.311767,-1.538306,62.282593
1.7966,0.002252,-0.014941,0.036832,-0.001796,0.014983,-0.036142,0.019967,-0.524408,0.034202,-1.496141,-264.311767,-1.538306,62.282593
1.8172,0.002248,-0.01476,0.036057,-0.0017,0.015014,-0.036832,0.021032,-0.524595,0.036832,-1.421222,-264.311767,-1.528513,62.282592
1.8373,0.002691,-0.014909,0.034061,-0.001715,0.014831,-0.036057,0.021003,-0.524583,0.036775,-1.421222,-264.311767,-1.528513,62.282592
1.8571,0.00222,-0.01445,0.033821,-0.002182,0.014992,-0.034061,0.020059,-0.524614,0.034061,-1.346144,-264.311768,-1.522375,62.28259
1.8768,0.002143,-0.014572,0.036054,-0.00173,0.014517,-0.033821,0.019719,-0.524352,0.033923,-1.346144,-264.311768,-1.522375,62.28259
1.8969,0.002653,-0.014146,0.036241,-0.001617,0.01464,-0.036054,0.019719,-0.524352,0.033923,-1.346144,-264.311768,-1.522375,62.28259
1.9167,0.00251,-0.014783,0.036228,-0.002139,0.014233,-0.036241,0.021132,-0.523811,0.036241,-1.271121,-264.311768,-1.524299,62.282589
1.9372,0.002379,-0.014633,0.035061,-0.001973,0.014864,-0.036228,0.021122,-0.523854,0.03624,-1.271121,-264.311768,-1.524299,62.282589
1.9566,0.002224,-0.014575,0.034765,-0.001864,0.014708,-0.035061,0.020256,-0.52432,0.035061,-1.196256,-264.311768,-1.526725,62.282587
1.9765,0.002117,-0.014919,0.034993,-0.001716,0.014643,-0.034765,0.020079,-0.524289,0.03489,-1.196256,-264.311768,-1.526725,62.282587
1.9966,0.002116,-0.014457,0.036462,-0.001594,0.014984,-0.034993,0.020079,-0.524289,0.03489,-1.196256,-264.311768,-1.526725,62.282587
2.0167,0.002138,-0.014684,0.03591,-0.001588,0.014524,-0.036462,0.020708,-0.524118,0.036462,-1.120932,-264.311769,-1.517522,62.282586
2.0366,0.002189,-0.014735,0.03523,-0.001609,0.014751,-0.03591,0.02069,-0.524134,0.036425,-1.120932,-264.311769,-1.517522,62.282586
2.0566,0.002197,-0.014971,0.036283,-0.001669,0.014803,-0.03523,0.020152,-0.524419,0.03523,-1.04626,-264.311769,-1.526979,62.282584
2.0768,0.002286,-0.015193,0.035564,-0.001652,0.015041,-0.036283,0.020464,-0.524542,0.035832,-1.04626,-264.311769,-1.526979,62.282584
2.0967,0.002591,-0.014841,0.033615,-0.001744,0.015265,-0.035564,0.020464,-0.524542,0.035832,-1.04626,-264.311769,-1.526979,62.282584
2.1167,0.002783,-0.015017,0.036259,-0.002091,0.01492,-0.033615,0.019731,-0.524553,0.033615,-0.971136,-264.311769,-1.526956,62.282583
2.1367,0.002189,-0.014789,0.035043,-0.002237,0.015108,-0.036259,0.019859,-0.524564,0.033835,-0.971136,-264.311769,-1.526956,62.282583
2.1571,0.002432,-0.014701,0.035239,-0.001669,0.014857,-0.035043,0.020057,-0.524476,0.035043,-0.895806,-264.31177,-1.523671,62.282581
2.1767,0.002525,-0.014545,0.035479,-0.001913,0.014777,-0.035239,0.020254,-0.524423,0.035155,-0.895806,-264.31177,-1.523671,62.282581
2.1967,0.002379,-0.014975,0.036075,-0.002007,0.014626,-0.035479,0.020254,-0.524423,0.035155,-0.895806,-264.31177,-1.523671,62.282581
2.2167,0.002124,-0.014787,0.036292,-0.001838,0.015051,-0.036075,0.020774,-0.524643,0.036075,-0.821076,-264.31177,-1.510827,62.28258
2.2365,0.002427,-0.014746,0.034831,-0.001586,0.014854,-0.036292,0.020764,-0.524629,0.03609,-0.821076,-264.31177,-1.510827,62.28258
2.2565,0.002334,-0.01501,0.036066,-0.001912,0.014821,-0.034831,0.020187,-0.524436,0.034831,-0.746258,-264.31177,-1.51555,62.282579
2.2766,0.002285,-0.014857,0.034665,-0.001791,0.015084,-0.036066,0.020492,-0.524574,0.035534,-0.746258,-264.31177,-1.51555,62.282579
2.2966,0.002224,-0.014671,0.036858,-0.001769,0.014927,-0.034665,0.020492,-0.524574,0.035534,-0.746258,-264.31177,-1.51555,62.282579
2.3167,0.002114,-0.014875,0.034548,-0.001682,0.014743,-0.036858,0.021017,-0.524324,0.036858,-0.671254,-264.31177,-1.52798,62.282577
2.3372,0.002368,-0.014816,0.03668,-0.001599,0.01494,-0.034548,0.020919,-0.524343,0.036682,-0.671254,-264.31177,-1.52798,62.282577
2.357,0.002272,-0.014977,0.035168,-0.001823,0.014892,-0.03668,0.02107,-0.524473,0.03668,-0.596063,-264.311771,-1.521831,62.282576
2.377,0.002493,-0.014889,0.034641,-0.001744,0.015047,-0.035168,0.020569,-0.524582,0.035805,-0.596063,-264.311771,-1.521831,62.282576
2.3969,0.002247,-0.014829,0.034209,-0.001976,0.014967,-0.034641,0.020569,-0.524582,0.035805,-0.596063,-264.311771,-1.521831,62.282576
2.4167,0.002349,-0.014697,0.035546,-0.001739,0.014897,-0.034209,0.01969,-0.52453,0.034209,-0.520896,-264.311771,-1.526469,62.282574
2.437,0.002278,-0.015105,0.035958,-0.001825,0.014771,-0.035546,0.01974,-0.52452,0.034294,-0.520896,-264.311771,-1.526469,62.282574
2.4566,0.002594,-0.014952,0.034212,-0.001734,0.015177,-0.035958,0.020613,-0.524776,0.035958,-0.446236,-264.311771,-1.516143,62.282573
2.4767,0.002182,-0.014806,0.034468,-0.002081,0.015032,-0.034212,0.020283,-0.524705,0.034955,-0.446236,-264.311771,-1.516143,62.282573
2.4967,0.002139,-0.015185,0.034702,-0.00167,0.014872,-0.034468,0.020283,-0.524705,0.034955,-0.446236,-264.311771,-1.516143,62.282573
2.5167,0.002154,-0.014856,0.03564,-0.001611,0.01525,-0.034702,0.019833,-0.524878,0.034702,-0.371117,-264.311771,-1.520801,62.282571
2.5374,0.002343,-0.014779,0.035308,-0.001623,0.014923,-0.03564,0.019875,-0.524848,0.034781,-0.371117,-264.311771,-1.520801,62.282571
2.5566,0.002336,-0.014597,0.036688,-0.00182,0.014853,-0.035308,0.020347,-0.524461,0.035308,-0.29585,-264.311772,-1.524333,62.28257
2.5766,0.002273,-0.014788,0.035108,-0.001799,0.014672,-0.036688,0.020747,-0.524342,0.036101,-0.29585,-264.311772,-1.524333,62.28257
2.5969,0.002512,-0.014719,0.036277,-0.001753,0.014859,-0.035108,0.020747,-0.524342,0.036101,-0.29585,-264.311772,-1.524333,62.28257
2.6166,0.002532,-0.015106,0.034477,-0.001977,0.0148,-0.036277,0.021009,-0.524383,0.036277,-0.22111,-264.311772,-1.526585,62.282568
2.6371,0.002032,-0.014897,0.03619,-0.00201,0.015185,-0.034477,0.020952,-0.52441,0.036161,-0.22111,-264.311772,-1.526585,62.282568
2.6565,0.002475,-0.014426,0.035789,-0.001492,0.01496,-0.03619,0.020485,-0.524563,0.03619,-0.14625,-264.311772,-1.522544,62.282567
2.6768,0.002263,-0.014902,0.036957,-0.001958,0.014506,-0.035789,0.020621,-0.5243,0.035962,-0.14625,-264.311772,-1.522544,62.282567
2.6967,0.002674,-0.014249,0.034752,-0.001711,0.014976,-0.036957,0.020621,-0.5243,0.035962,-0.14625,-264.311772,-1.522544,62.282567
2.7167,0.002307,-0.015003,0.035941,-0.002178,0.014334,-0.034752,0.020394,-0.523941,0.034752,-0.071111,-264.311773,-1.515387,62.282565
2.7373,0.002185,-0.014847,0.034647,-0.001766,0.015076,-0.035941,0.020411,-0.523994,0.034837,-0.071111,-264.311773,-1.515387,62.282565
2.7566,0.002225,-0.014871,0.034559,-0.001669,0.014914,-0.034647,0.019851,-0.524541,0.034647,0.003856,-264.311773,-1.52527,62.282564
2.7768,0.002218,-0.014802,0.033933,-0.00171,0.014939,-0.034559,0.019849,-0.524555,0.034598,0.003856,-264.311773,-1.52527,62.282564
2.7967,0.002043,-0.014861,0.035749,-0.001714,0.014869,-0.033933,0.019849,-0.524555,0.034598,0.003856,-264.311773,-1.52527,62.282564
2.8166,0.002572,-0.014819,0.033674,-0.001511,0.014925,-0.035749,0.020271,-0.524535,0.035749,0.07876,-264.311773,-1.523138,62.282562
2.8369,0.002502,-0.014869,0.035173,-0.002072,0.014898,-0.033674,0.020236,-0.524535,0.035611,0.07876,-264.311773,-1.523138,62.282562
2.8573,0.002318,-0.014983,0.036165,-0.001977,0.014948,-0.035173,0.020436,-0.524553,0.035173,0.153755,-264.311773,-1.522675,62.282561
2.8766,0.002144,-0.014645,0.035709,-0.001775,0.015057,-0.036165,0.020619,-0.524608,0.035737,0.153755,-264.311773,-1.522675,62.282561
2.8968,0.00252,-0.014803,0.034168,-0.00162,0.014713,-0.035709,0.020619,-0.524608,0.035737,0.153755,-264.311773,-1.522675,62.282561
2.9169,0.002239,-0.014431,0.034949,-0.002013,0.014881,-0.034168,0.019942,-0.524506,0.034168,0.228747,-264.311774,-1.512439,62.28256
2.937,0.002256,-0.014339,0.035261,-0.001733,0.0145,-0.034949,0.01995,-0.52448,0.03422,0.228747,-264.311774,-1.512439,62.28256
2.9567,0.002262,-0.01474,0.034622,-0.001749,0.014409,-0.035261,0.020236,-0.524022,0.035261,0.303757,-264.311774,-1.526482,62.282558
2.9768,0.001872,-0.014396,0.033906,-0.00175,0.014809,-0.034622,0.020053,-0.524257,0.034896,0.303757,-264.311774,-1.526482,62.282558
2.9968,0.002459,-0.014754,0.034817,-0.001383,0.014452,-0.033906,0.020053,-0.524257,0.034896,0.303757,-264.311774,-1.526482,62.282558
3.017,0.002164,-0.014878,0.034784,-0.001944,0.01483,-0.034817,0.020212,-0.524445,0.034817,0.378804,-264.311774,-1.522485,62.282557
3.0369,0.002283,-0.014684,0.036224,-0.001645,0.014944,-0.034784,0.020191,-0.524453,0.034814,0.378804,-264.311774,-1.522485,62.282557
3.057,0.002266,-0.015097,0.034128,-0.00175,0.014757,-0.036224,0.020754,-0.524349,0.036224,0.453747,-264.311774,-1.531473,62.282555
3.0766,0.001954,-0.015116,0.03554,-0.00175,0.015166,-0.034128,0.020142,-0.524603,0.035043,0.453747,-264.311774,-1.531473,62.282555
3.0966,0.00215,-0.015015,0.035315,-0.001415,0.015176,-0.03554,0.020142,-0.524603,0.035043,0.453747,-264.311774,-1.531473,62.282555
3.1174,0.001955,-0.014625,0.034227,-0.001618,0.015081,-0.035315,0.020157,-0.524697,0.035315,0.528748,-264.311775,-1.525365,62.282554
3.1365,0.002526,-0.014148,0.03714,-0.001453,0.014683,-0.034227,0.020107,-0.524672,0.035244,0.528748,-264.311775,-1.525365,62.282554
3.1566,0.00248,-0.014812,0.034362,-0.001999,0.014232,-0.03714,0.021463,-0.523796,0.03714,0.603762,-264.311775,-1.53244,62.282552
3.1767,0.002618,-0.014787,0.034392,-0.001969,0.014888,-0.034362,0.020627,-0.524205,0.035552,0.603762,-264.311775,-1.53244,62.282552
3.1967,0.002412,-0.014817,0.034082,-0.002108,0.014868,-0.034392,0.020627,-0.524205,0.035552,0.603762,-264.311775,-1.53244,62.282552
3.2169,0.002453,-0.015057,0.034629,-0.001906,0.01489,-0.034082,0.019791,-0.524521,0.034081,0.678816,-264.311775,-1.529977,62.28255
3.2372,0.002552,-0.014601,0.03593,-0.00193,0.015133,-0.034629,0.019816,-0.524539,0.034125,0.678816,-264.311775,-1.529977,62.28255
3.2566,0.002137,-0.015188,0.034479,-0.002026,0.014683,-0.03593,0.020872,-0.524268,0.035924,0.754012,-264.311788,-1.5121,62.282479
3.2766,0.002196,-0.014832,0.036059,-0.001612,0.015252,-0.034479,0.020225,-0.524614,0.035113,0.754012,-264.311788,-1.5121,62.282479
3.2966,0.00243,-0.01498,0.033458,-0.00166,0.014902,-0.036059,0.020225,-0.524614,0.035113,0.754012,-264.311788,-1.5121,62.282479
3.3171,0.002107,-0.014673,0.037053,-0.001927,0.015053,-0.033458,0.019488,-0.524684,0.033436,0.828739,-264.311823,-1.517651,62.28228
3.3372,0.002418,-0.014912,0.036435,-0.001562,0.014741,-0.037053,0.019593,-0.524658,0.033686,0.828739,-264.311823,-1.517651,62.28228
3.3566,0.002253,-0.014964,0.035372,-0.001873,0.01499,-0.036435,0.020993,-0.524566,0.036418,0.903754,-264.311859,-1.525864,62.282099
3.3766,0.002264,-0.01492,0.034627,-0.001723,0.015034,-0.035372,0.020591,-0.52461,0.035818,0.903754,-264.311859,-1.525864,62.282099
3.3966,0.002669,-0.014652,0.034943,-0.001746,0.01499,-0.034627,0.020591,-0.52461,0.035818,0.903754,-264.311859,-1.525864,62.282099
3.4166,0.002503,-0.014799,0.035439,-0.002155,0.014736,-0.034943,0.020482,-0.524322,0.0349,0.978901,-264.311938,-1.529025,62.281728
3.4369,0.002578,-0.015071,0.03516,-0.001978,0.014878,-0.035439,0.020489,-0.524333,0.034938,0.978901,-264.311938,-1.529025,62.281728
3.4568,0.002122,-0.014532,0.034655,-0.002046,0.015153,-0.03516,0.020483,-0.524639,0.034897,1.05385,-264.312444,-1.522515,62.278869
3.4766,0.002081,-0.014741,0.035092,-0.001617,0.014597,-0.034655,0.020091,-0.524392,0.034728,1.05385,-264.312444,-1.522515,62.278869
3.4965,0.002477,-0.014945,0.034778,-0.001563,0.014805,-0.035092,0.020091,-0.524392,0.034728,1.05385,-264.312444,-1.522515,62.278869
3.5165,0.002781,-0.014098,0.035181,-0.001956,0.015022,-0.034778,0.020153,-0.524378,0.034141,1.128892,-264.313618,-1.516703,62.273519
3.5365,0.003036,-0.014029,0.033928,-0.002283,0.014187,-0.035181,0.020191,-0.52433,0.034196,1.128892,-264.313618,-1.516703,62.273519
3.5565,0.003736,-0.013967,0.032933,-0.002559,0.014124,-0.033928,0.020289,-0.523454,0.033269,1.203748,-264.314953,-1.527692,62.266411
3.577,0.003045,-0.01361,0.033949,-0.003275,0.014082,-0.032933,0.020421,-0.523554,0.032993,1.203748,-264.314953,-1.527692,62.266411
3.5968,0.00318,-0.014021,0.034392,-0.002581,0.013706,-0.033949,0.020421,-0.523554,0.032993,1.203748,-264.314953,-1.527692,62.266411
3.6167,0.003675,-0.013507,0.031507,-0.002696,0.014122,-0.034392,0.020614,-0.523306,0.033169,1.267668,-264.317799,-1.506889,62.256808
3.6371,0.003945,-0.013591,0.032452,-0.003248,0.013616,-0.031507,0.020551,-0.523291,0.033021,1.267668,-264.317799,-1.506889,62.256808
3.6571,0.004186,-0.012562,0.029495,-0.003502,0.013712,-0.032452,0.020387,-0.522874,0.031287,1.218821,-264.320671,-1.495986,62.244726
3.6772,0.004453,-0.012972,0.028458,-0.003813,0.01268,-0.029495,0.019716,-0.522514,0.030123,1.218821,-264.320671,-1.495986,62.244726
3.6967,0.004503,-0.012697,0.029625,-0.004082,0.013093,-0.028458,0.019716,-0.522514,0.030123,1.218821,-264.320671,-1.495986,62.244726
3.7167,0.004567,-0.012453,0.0297,-0.004125,0.012825,-0.029625,0.019509,-0.522072,0.028673,1.143937,-264.322279,-1.472265,62.236558
3.7369,0.005166,-0.012762,0.029379,-0.004195,0.012583,-0.0297,0.019521,-0.522072,0.028723,1.143937,-264.322279,-1.472265,62.236558
3.7568,0.005044,-0.012513,0.029474,-0.004789,0.012908,-0.029379,0.020124,-0.522465,0.0292,1.068762,-264.322655,-1.437628,62.234604
3.7769,0.004575,-0.012505,0.030199,-0.004673,0.012656,-0.029474,0.020092,-0.522356,0.029334,1.068762,-264.322655,-1.437628,62.234604
3.7969,0.004902,-0.012289,0.029095,-0.004196,0.012638,-0.030199,0.020092,-0.522356,0.029334,1.068762,-264.322655,-1.437628,62.234604
3.8169,0.005135,-0.012039,0.028927,-0.004542,0.012427,-0.029095,0.019631,-0.52191,0.028489,0.993827,-264.324642,-1.435084,62.230157
3.8369,0.004795,-0.012261,0.029,-0.004785,0.012182,-0.028927,0.019645,-0.5219,0.028503,0.993827,-264.324642,-1.435084,62.230157
3.8566,0.0052,-0.01222,0.026826,-0.004438,0.012395,-0.029,0.019454,-0.521825,0.028278,0.945034,-264.327404,-1.436619,62.223196
3.8766,0.005282,-0.011967,0.025903,-0.004871,0.012355,-0.026826,0.019109,-0.521918,0.027356,0.945034,-264.327404,-1.436619,62.223196
3.8967,0.005266,-0.012089,0.028184,-0.00497,0.0121,-0.025903,0.019109,-0.521918,0.027356,0.945034,-264.327404,-1.436619,62.223196
3.9168,0.005386,-0.011669,0.025521,-0.004923,0.012233,-0.028184,0.019436,-0.521442,0.027065,0.869911,-264.329921,-1.411847,62.213758
3.937,0.005716,-0.011574,0.024409,-0.005087,0.011803,-0.025521,0.019359,-0.521435,0.026929,0.869911,-264.329921,-1.411847,62.213758
3.9571,0.005586,-0.010922,0.026026,-0.005432,0.01171,-0.024409,0.018081,-0.521227,0.023967,0.795031,-264.330998,-1.394621,62.208836
3.9768,0.005678,-0.011193,0.026089,-0.0053,0.011064,-0.026026,0.018517,-0.520928,0.025095,0.795031,-264.330998,-1.394621,62.208836
3.9969,0.005807,-0.011136,0.026626,-0.005384,0.011338,-0.026089,0.018517,-0.520928,0.025095,0.795031,-264.330998,-1.394621,62.208836
4.0165,0.005893,-0.010587,0.025792,-0.005508,0.011287,-0.026626,0.019214,-0.520587,0.025792,0.719706,-264.332713,-1.387171,62.20144
4.037,0.006223,-0.010745,0.025234,-0.005618,0.010736,-0.025792,0.019197,-0.520564,0.025768,0.719706,-264.332713,-1.387171,62.20144
4.0571,0.006362,-0.010396,0.023357,-0.005949,0.010899,-0.025234,0.018885,-0.520207,0.024322,0.706599,-264.33553,-1.37588,62.191536
4.0769,0.006207,-0.010298,0.023487,-0.006117,0.010542,-0.023357,0.018511,-0.520188,0.023658,0.706599,-264.33553,-1.37588,62.191536
4.0967,0.006428,-0.01045,0.023272,-0.005963,0.010441,-0.023487,0.018511,-0.520188,0.023658,0.706599,-264.33553,-1.37588,62.191536
4.1166,0.006815,-0.009627,0.022462,-0.006183,0.010597,-0.023272,0.018014,-0.519803,0.022034,0.728942,-264.338508,-1.3618,62.180829
4.1369,0.00691,-0.010245,0.023376,-0.006597,0.009778,-0.022462,0.018025,-0.519767,0.022031,0.728942,-264.338508,-1.3618,62.180829
4.1569,0.006938,-0.0092,0.021982,-0.006669,0.010404,-0.023376,0.01867,-0.519837,0.022741,0.653954,-264.340478,-1.334704,62.173783
4.1767,0.007215,-0.009452,0.022167,-0.006734,0.009351,-0.021982,0.01835,-0.519367,0.022225,0.653954,-264.340478,-1.334704,62.173783
4.1966,0.006419,-0.009349,0.021455,-0.007004,0.00961,-0.022167,0.01835,-0.519367,0.022225,0.653954,-264.340478,-1.334704,62.173783
4.2167,0.00715,-0.009018,0.02309,-0.006217,0.009485,-0.021455,0.017103,-0.518868,0.020586,0.578919,-264.342901,-1.297086,62.166089
4.2372,0.007156,-0.008897,0.020757,-0.006939,0.009181,-0.02309,0.017223,-0.518859,0.020737,0.578919,-264.342901,-1.297086,62.166089
4.2566,0.007409,-0.008328,0.019031,-0.00697,0.009044,-0.020757,0.017484,-0.51845,0.019966,0.511216,-264.34587,-1.276989,62.157147
4.277,0.007287,-0.008672,0.018269,-0.007249,0.008467,-0.019031,0.01724,-0.518284,0.019331,0.511216,-264.34587,-1.276989,62.157147
4.2967,0.007206,-0.008565,0.019035,-0.007127,0.008804,-0.018269,0.01724,-0.518284,0.019331,0.511216,-264.34587,-1.276989,62.157147
4.317,0.007348,-0.008266,0.019077,-0.007042,0.008701,-0.019035,0.016622,-0.518101,0.018105,0.586339,-264.348711,-1.281128,62.149034
4.3367,0.007843,-0.007865,0.018994,-0.007189,0.008405,-0.019077,0.016646,-0.518096,0.018148,0.586339,-264.348711,-1.281128,62.149034
4.3565,0.00783,-0.008127,0.018265,-0.007692,0.008012,-0.018994,0.017448,-0.51768,0.01877,0.511453,-264.349612,-1.22787,62.14649
4.3771,0.007373,-0.008158,0.018749,-0.00768,0.008268,-0.018265,0.017265,-0.517874,0.018455,0.511453,-264.349612,-1.22787,62.14649
4.3967,0.007482,-0.00791,0.01993,-0.007219,0.008295,-0.018749,0.017265,-0.517874,0.018455,0.511453,-264.349612,-1.22787,62.14649
4.4165,0.007762,-0.007813,0.017239,-0.007323,0.008057,-0.01993,0.017383,-0.517596,0.019338,0.436425,-264.352403,-1.226622,62.141446
4.4367,0.007869,-0.007658,0.01781,-0.007626,0.007945,-0.017239,0.017327,-0.5176,0.019198,0.436425,-264.352403,-1.226622,62.141446
4.4569,0.007477,-0.007193,0.018554,-0.007732,0.007797,-0.01781,0.016683,-0.517299,0.017149,0.412135,-264.355534,-1.220312,62.133876
4.4768,0.007862,-0.007692,0.016267,-0.007342,0.00733,-0.018554,0.016797,-0.517152,0.017875,0.412135,-264.355534,-1.220312,62.133876
4.4966,0.007447,-0.00731,0.016451,-0.007735,0.007819,-0.016267,0.016797,-0.517152,0.017875,0.412135,-264.355534,-1.220312,62.133876
4.5169,0.007815,-0.007049,0.015736,-0.007325,0.007432,-0.016451,0.015511,-0.516915,0.015725,0.336877,-264.358333,-1.179292,62.126928
4.5374,0.007814,-0.006921,0.016906,-0.007703,0.007171,-0.015736,0.015529,-0.51691,0.015702,0.336877,-264.358333,-1.179292,62.126928
4.5573,0.007946,-0.006387,0.015922,-0.007696,0.007052,-0.016906,0.016153,-0.516572,0.016322,0.266983,-264.361264,-1.1599,62.11985
4.5771,0.007743,-0.006904,0.017057,-0.007844,0.006512,-0.015922,0.016071,-0.5164,0.016029,0.266983,-264.361264,-1.1599,62.11985
4.5967,0.007752,-0.006888,0.015649,-0.007624,0.007035,-0.017057,0.016071,-0.5164,0.016029,0.266983,-264.361264,-1.1599,62.11985
4.617,0.007798,-0.006178,0.01523,-0.007643,0.007009,-0.015649,0.015364,-0.516493,0.014907,0.306705,-264.364392,-1.140468,62.112701
4.6372,0.008082,-0.006814,0.015596,-0.007643,0.007009,-0.015649,0.015368,-0.516461,0.01491,0.306705,-264.364392,-1.140468,62.112701
4.6571,0.007588,-0.006102,0.013711,-7.5e-05,6.6e-05,0.0,0.015789,-0.516529,0.015064,0.381574,-264.367121,-1.158936,62.10647
4.6768,0.00775,-0.005903,0.014171,-7.5e-05,6.6e-05,0.0,0.015074,-0.516232,0.014231,0.381574,-264.367121,-1.158936,62.10647
4.6967,0.007888,-0.00627,0.014925,-7.5e-05,6.6e-05,0.0,0.015074,-0.516232,0.014231,0.381574,-264.367121,-1.158936,62.10647
4.7167,0.007617,-0.005967,0.013859,-7.5e-05,6.6e-05,0.0,0.015147,-0.515898,0.014211,0.321895,-264.37014,-1.138534,62.099633
4.7371,0.008,-0.005762,0.014863,-7.5e-05,6.6e-05,0.0,0.015107,-0.515892,0.01417,0.321895,-264.37014,-1.138534,62.099633
4.7567,0.008195,-0.006134,0.013352,-7.5e-05,6.6e-05,0.0,0.01558,-0.515706,0.014863,0.247023,-264.37014,-1.063661,62.099633
4.7767,0.007944,-0.005657,0.012587,-7.5e-05,6.6e-05,0.0,0.015256,-0.515921,0.014012,0.247023,-264.37014,-1.063661,62.099633
4.7966,0.00828,-0.005795,0.013838,-7.5e-05,6.6e-05,0.0,0.015256,-0.515921,0.014012,0.247023,-264.37014,-1.063661,62.099633
4.8165,0.008211,-0.005546,0.01559,-7.5e-05,6.6e-05,0.0,0.015337,-0.515747,0.013838,0.171996,-264.37014,-0.988635,62.099633
4.8373,0.007947,-0.005812,0.014901,-7.5e-05,6.6e-05,0.0,0.015399,-0.515727,0.013968,0.171996,-264.37014,-0.988635,62.099633
4.8566,0.007903,-0.005783,0.013183,-7.5e-05,6.6e-05,0.0,0.015546,-0.515755,0.014901,0.09687,-264.37014,-0.913508,62.099633
4.8766,0.007934,-0.005527,0.015124,-0.001167,0.001015,-0.002282,0.015029,-0.515746,0.013935,0.09687,-264.37014,-0.913508,62.099633
4.8967,0.008264,-0.005325,0.013966,-0.002271,0.001976,-0.004441,0.015029,-0.515746,0.013935,0.09687,-264.37014,-0.913508,62.099633
4.9169,0.007901,-0.005446,0.012265,-0.003321,0.00289,-0.006495,0.015387,-0.515275,0.013966,0.021895,-264.37014,-0.838533,62.099633
4.9369,0.0074,-0.005583,0.013519,-0.004307,0.003748,-0.008424,0.015292,-0.515285,0.013836,0.021895,-264.37014,-0.838533,62.099633
4.9566,0.007591,-0.00559,0.012774,-0.005234,0.004555,-0.010236,0.014286,-0.515531,0.013509,0.097012,-264.370207,-0.913651,62.099488
4.9766,0.007851,-0.005764,0.012189,-0.006101,0.005309,-0.011932,0.014182,-0.51554,0.013088,0.097012,-264.370207,-0.913651,62.099488
4.9969,0.008099,-0.00536,0.014668,-0.006909,0.006012,-0.013511,0.014182,-0.51554,0.013088,0.097012,-264.370207,-0.913651,62.099488
5.0168,0.007842,-0.00585,0.012962,-0.007655,0.006661,-0.014971,0.015522,-0.515262,0.014583,0.171888,-264.370635,-0.988526,62.098554
5.0366,0.007585,-0.005586,0.012669,-0.008343,0.00726,-0.016317,0.015449,-0.515297,0.014474,0.171888,-264.370635,-0.988526,62.098554
5.0569,0.007857,-0.00524,0.01381,-0.008976,0.007811,-0.017554,0.013889,-0.515421,0.012401,0.246754,-264.372231,-1.063393,62.095123
5.0766,0.007622,-0.005853,0.012531,-0.009541,0.008303,-0.018659,0.014441,-0.515275,0.013164,0.246754,-264.372231,-1.063393,62.095123
5.0966,0.007785,-0.005792,0.014472,-0.010048,0.008744,-0.019651,0.014441,-0.515275,0.013164,0.246754,-264.372231,-1.063393,62.095123
5.1171,0.007546,-0.005246,0.011143,-0.010498,0.009135,-0.020531,0.014825,-0.515478,0.013846,0.313541,-264.375345,-1.119762,62.089173
5.1373,0.007606,-0.005377,0.014077,-0.010885,0.009473,-0.021289,0.014691,-0.51545,0.013618,0.313541,-264.375345,-1.119762,62.089173
5.1569,0.007702,-0.005,0.012319,-0.011214,0.009759,-0.021932,0.014411,-0.515029,0.013376,0.313541,-264.379563,-1.119762,62.080748
5.1768,0.007926,-0.004715,0.012696,-0.011483,0.009993,-0.022457,0.01412,-0.514952,0.012683,0.313541,-264.379563,-1.119762,62.080748
5.197,0.007603,-0.004769,0.010703,-0.011692,0.010175,-0.022867,0.01412,-0.514952,0.012683,0.313541,-264.379563,-1.119762,62.080748
5.2168,0.007816,-0.004087,0.00988,-0.011842,0.010305,-0.02316,0.012527,-0.514284,0.009667,0.313541,-264.384133,-1.119762,62.070774
5.2369,0.007952,-0.004396,0.010623,-0.011932,0.010383,-0.023335,0.012535,-0.514259,0.009656,0.313541,-264.384133,-1.119762,62.070774
5.2567,0.00811,-0.003818,0.009687,-0.011962,0.010409,-0.023394,0.012914,-0.513979,0.00974,0.313541,-264.38905,-1.119762,62.060045
5.2768,0.00754,-0.003838,0.009566,-0.011932,0.010383,-0.023336,0.012934,-0.513825,0.009598,0.313541,-264.38905,-1.119762,62.060045
5.2968,0.007763,-0.0038,0.009973,-0.011842,0.010306,-0.02316,0.012934,-0.513825,0.009598,0.313541,-264.38905,-1.119762,62.060045
5.3166,0.00799,-0.00318,0.008526,-0.011692,0.010175,-0.022867,0.012264,-0.513275,0.008839,0.313541,-264.394067,-1.119762,62.049096
5.337,0.007572,-0.003379,0.009143,-0.011483,0.009993,-0.022458,0.012254,-0.513254,0.008787,0.313541,-264.394067,-1.119762,62.049096
5.3565,0.007653,-0.003127,0.006978,-0.011214,0.009759,-0.021931,0.011774,-0.512963,0.008248,0.313541,-264.399056,-1.119762,62.03821
5.3769,0.007713,-0.002569,0.006754,-0.010886,0.009473,-0.021289,0.011394,-0.513,0.007407,0.313541,-264.399056,-1.119762,62.03821
5.3967,0.007778,-0.003188,0.005301,-0.010497,0.009135,-0.020529,0.011394,-0.513,0.007407,0.313541,-264.399056,-1.119762,62.03821
5.4167,0.007706,-0.00222,0.005406,-0.010047,0.008744,-0.01965,0.009922,-0.512698,0.00421,0.313541,-264.40388,-1.119762,62.027682
5.4369,0.00771,-0.002184,0.006561,-0.009541,0.008303,-0.018659,0.009944,-0.512652,0.004264,0.313541,-264.40388,-1.119762,62.027682
5.4566,0.007691,-0.001539,0.005703,-0.008971,0.007807,-0.017545,0.010649,-0.511823,0.005769,0.313541,-264.408298,-1.119762,62.018039
5.4766,0.008166,-0.001999,0.005748,-0.008343,0.007261,-0.016318,0.010569,-0.511611,0.005631,0.313541,-264.408298,-1.119762,62.018039
5.4966,0.007995,-0.001707,0.005025,-0.007656,0.006662,-0.014973,0.010569,-0.511611,0.005631,0.313541,-264.408298,-1.119762,62.018039
5.5175,0.007655,-0.00145,0.003255,-0.006906,0.00601,-0.013507,0.010094,-0.5113,0.00412,0.313541,-264.412309,-1.119762,62.009288
5.5371,0.00771,-0.001881,0.004576,-0.006101,0.005309,-0.011931,0.010023,-0.5113,0.004031,0.313541,-264.412309,-1.119762,62.009288
5.5572,0.007764,-0.00087,0.002714,-0.005233,0.004554,-0.010234,0.009747,-0.51162,0.003998,0.313541,-264.415529,-1.119762,62.00226
5.5766,0.007897,-0.001299,0.004153,-0.004308,0.003749,-0.008425,0.009368,-0.511159,0.003192,0.313541,-264.415529,-1.119762,62.00226
5.5966,0.007581,-0.001113,0.004221,-0.00332,0.00289,-0.006494,0.009368,-0.511159,0.003192,0.313541,-264.415529,-1.119762,62.00226
5.6166,0.007966,-0.000598,0.003263,-0.002274,0.001979,-0.004447,0.009437,-0.510852,0.003642,0.313541,-264.41809,-1.119762,61.996672
5.6368,0.008149,-0.000982,0.00312,-0.001167,0.001016,-0.002283,0.009442,-0.510827,0.0036,0.313541,-264.41809,-1.119762,61.996672
5.6566,0.008099,-0.000886,0.003624,0.0,0.0,0.0,0.009612,-0.510868,0.002869,0.313541,-264.419486,-1.119762,61.993624
5.6771,0.007795,-0.000847,0.001338,0.0,0.0,0.0,0.009786,-0.510862,0.003267,0.313541,-264.419486,-1.119762,61.993624
5.6969,0.007401,-0.00073,0.002563,0.0,0.0,0.0,0.009786,-0.510862,0.003267,0.313541,-264.419486,-1.119762,61.993624
5.7167,0.007586,-0.00064,0.002073,0.0,0.0,0.0,0.008651,-0.510679,0.002452,0.313541,-264.419977,-1.119762,61.992553
5.7371,0.007827,-0.000354,0.002486,0.0,0.0,0.0,0.008649,-0.510675,0.002424,0.313541,-264.419977,-1.119762,61.992553
5.7565,0.007712,-0.000805,0.003505,0.0,0.0,0.0,0.009095,-0.510352,0.002486,0.313541,-264.419977,-1.119762,61.992553
5.7766,0.007676,-0.000646,0.002691,0.0,0.0,0.0,0.009326,-0.510609,0.003069,0.313541,-264.419977,-1.119762,61.992553
5.7966,0.008211,-0.000538,0.002885,0.0,0.0,0.0,0.009326,-0.510609,0.003069,0.313541,-264.419977,-1.119762,61.992553
5.8165,0.007712,-0.000536,0.002382,0.0,0.0,0.0,0.009682,-0.510535,0.002885,0.313541,-264.419977,-1.119762,61.992553
5.8365,0.008252,-0.000811,0.004284,0.0,0.0,0.0,0.009633,-0.510535,0.002852,0.313541,-264.419977,-1.119762,61.992553
5.8568,0.00765,-0.000837,0.001966,0.0,0.0,0.0,0.010437,-0.510806,0.004284,0.313541,-264.419977,-1.119762,61.992553
5.8768,0.007682,-0.001223,0.002799,-9.9e-05,1.1e-05,0.0,0.009423,-0.510823,0.002967,0.313541,-264.419977,-1.119762,61.992553
5.8966,0.008249,-0.000356,0.003719,-9.9e-05,1.1e-05,0.0,0.009423,-0.510823,0.002967,0.313541,-264.419977,-1.119762,61.992553
5.9166,0.007861,-0.000724,0.002542,-9.9e-05,1.1e-05,0.0,0.010145,-0.510353,0.003719,0.313541,-264.419977,-1.119762,61.992553
5.9369,0.007997,-0.000696,0.001066,-9.9e-05,1.1e-05,0.0,0.010077,-0.510378,0.003638,0.313541,-264.419977,-1.119762,61.992553
5.9568,0.007831,-0.000903,0.003262,-9.9e-05,1.1e-05,0.0,0.00854,-0.510695,0.001066,0.238603,-264.419977,-1.044825,61.992553
5.977,0.007807,-0.000707,0.001583,-9.9e-05,1.1e-05,0.0,0.009075,-0.51081,0.002297,0.238603,-264.419977,-1.044825,61.992553
5.9965,0.007873,-0.000544,0.00174,-9.9e-05,1.1e-05,0.0,0.009075,-0.51081,0.002297,0.238603,-264.419977,-1.044825,61.992553
6.0166,0.007462,-0.000543,0.001464,-9.9e-05,1.1e-05,0.0,0.008761,-0.510543,0.00174,0.163605,-264.419977,-0.969827,61.992553
6.0371,0.00788,-0.000666,0.001287,-9.9e-05,1.1e-05,0.0,0.008723,-0.510543,0.001721,0.163605,-264.419977,-0.969827,61.992553
6.057,0.007771,-0.000684,-6.5e-05,-9.9e-05,1.1e-05,0.0,0.008536,-0.510665,0.001287,0.088606,-264.419977,-0.894828,61.992553
6.0771,0.007943,-0.000504,0.001584,-9.9e-05,1.1e-05,0.0,0.008083,-0.510676,0.00052,0.088606,-264.419977,-0.894828,61.992553
6.0967,0.007778,-0.000351,0.001979,-0.001114,0.000124,-0.000286,0.008083,-0.510676,0.00052,0.088606,-264.419977,-0.894828,61.992553
6.1168,0.007427,-0.000828,0.001156,-0.002177,0.000242,-0.000559,0.008787,-0.51035,0.001979,0.013605,-264.419977,-0.819827,61.992553
6.1372,0.00813,-0.000512,0.002287,-0.00318,0.000354,-0.000817,0.008726,-0.510387,0.001914,0.013605,-264.419977,-0.819827,61.992553
6.1566,0.007969,-0.000731,0.001071,-0.004129,0.00046,-0.001061,0.009296,-0.510511,0.002287,0.045553,-264.41998,-0.74448,61.992551
6.1765,0.007688,-0.000901,0.001325,-0.005017,0.000559,-0.001289,0.008853,-0.510635,0.001597,0.045553,-264.41998,-0.74448,61.992551
6.1968,0.007795,-0.000638,0.001267,-0.005847,0.000651,-0.001503,0.008853,-0.510635,0.001597,0.045553,-264.41998,-0.74448,61.992551
6.2166,0.007488,-0.000561,0.002393,-0.006628,0.000738,-0.001703,0.008438,-0.510636,0.001265,0.045553,-264.420006,-0.669768,61.992523
6.237,0.007977,-0.000539,0.00162,-0.007339,0.000817,-0.001886,0.008457,-0.510631,0.001343,0.045553,-264.420006,-0.669768,61.992523
6.2566,0.007904,-0.000764,0.001272,-0.008,0.000891,-0.002056,0.008789,-0.510534,0.001612,0.045553,-264.420158,-0.594826,61.992366
6.2765,0.007781,-0.000787,0.002372,-0.008605,0.000958,-0.002211,0.008653,-0.510664,0.001418,0.045553,-264.420158,-0.594826,61.992366
6.2965,0.007734,-0.000806,0.001991,-0.009147,0.001019,-0.002351,0.008653,-0.510664,0.001418,0.045553,-264.420158,-0.594826,61.992366
6.3166,0.007636,-0.000837,0.00241,-0.009636,0.001073,-0.002477,0.008694,-0.510791,0.001964,0.045553,-264.420641,-0.519823,61.991866
6.3368,0.007696,-0.00042,0.002702,-0.010068,0.001121,-0.002587,0.008704,-0.510794,0.001995,0.045553,-264.420641,-0.519823,61.991866
6.357,0.007761,-0.000693,0.001457,-0.010439,0.001163,-0.002683,0.008956,-0.510394,0.002653,0.045553,-264.421892,-0.444833,61.990572
6.3766,0.007479,-0.000572,0.001293,-0.010754,0.001198,-0.002764,0.008687,-0.51056,0.001973,0.045553,-264.421892,-0.444833,61.990572
6.3972,0.007437,-0.000646,0.002834,-0.011013,0.001227,-0.00283,0.008687,-0.51056,0.001973,0.045553,-264.421892,-0.444833,61.990572
6.4169,0.007355,-0.000342,0.002336,-0.011214,0.001249,-0.002882,0.008601,-0.510598,0.002736,0.045553,-264.424248,-0.369826,61.988135
6.4366,0.007304,-0.000685,0.001853,-0.011357,0.001265,-0.002919,0.00859,-0.51058,0.002707,0.045553,-264.424248,-0.369826,61.988135
6.4568,0.007071,-8.9e-05,0.00051,-0.011443,0.001275,-0.002941,0.007897,-0.51064,0.001753,0.045553,-264.427915,-0.294816,61.984343
6.4767,0.007222,-0.000672,0.004247,-0.011472,0.001278,-0.002948,0.00753,-0.51032,0.001032,0.045553,-264.427915,-0.294816,61.984343
6.4969,0.006882,-0.000624,0.002621,-0.011444,0.001275,-0.002941,0.00753,-0.51032,0.001032,0.045553,-264.427915,-0.294816,61.984343
6.5166,0.006282,-0.000467,0.001518,-0.011358,0.001265,-0.002919,0.007675,-0.510563,0.002481,0.045553,-264.432388,-0.262171,61.979716
6.5372,0.006526,-0.000339,0.000555,-0.011215,0.001249,-0.002882,0.007617,-0.510555,0.00241,0.045553,-264.432388,-0.262171,61.979716
6.5566,0.006186,-1.5e-05,0.001421,-0.011014,0.001227,-0.002831,0.006368,-0.51029,0.000442,0.045553,-264.436969,-0.262171,61.974978
6.5765,0.006055,-0.000491,0.002243,-0.010756,0.001198,-0.002764,0.006624,-0.510126,0.000989,0.045553,-264.436969,-0.262171,61.974978
6.5965,0.005787,-2.6e-05,0.001787,-0.010442,0.001163,-0.002684,0.006624,-0.510126,0.000989,0.045553,-264.436969,-0.262171,61.974978
6.6171,0.005485,-0.000279,0.00276,-0.010068,0.001121,-0.002588,0.006154,-0.509965,0.001647,0.045553,-264.441452,-0.262171,61.970341
6.637,0.005781,1.9e-05,0.001277,-0.009639,0.001074,-0.002477,0.00619,-0.509985,0.001718,0.045553,-264.441452,-0.262171,61.970341
6.6568,0.005022,-0.000184,0.000399,-0.00915,0.001019,-0.002352,0.006028,-0.509936,0.001173,0.045553,-264.445633,-0.262171,61.966017
6.6766,0.005065,-0.000633,0.001103,-0.008602,0.000958,-0.002211,0.005523,-0.510071,0.000722,0.045553,-264.445633,-0.262171,61.966017
6.6966,0.005064,-0.000503,0.002843,-0.007995,0.00089,-0.002055,0.005523,-0.510071,0.000722,0.045553,-264.445633,-0.262171,61.966017
6.7168,0.004914,-0.000523,0.002292,-0.007344,0.000818,-0.001887,0.006045,-0.51045,0.002723,0.045553,-264.449494,-0.262171,61.962023
6.7366,0.004784,-0.000292,0.002551,-0.006628,0.000738,-0.001703,0.006035,-0.510453,0.002691,0.045553,-264.449494,-0.262171,61.962023
6.7566,0.004196,-0.000155,0.001047,-0.005853,0.000652,-0.001504,0.005776,-0.510257,0.002471,0.045553,-264.452699,-0.262171,61.958708
6.7769,0.004035,8e-05,0.00056,-0.005021,0.000559,-0.00129,0.005136,-0.510194,0.001643,0.045553,-264.452699,-0.262171,61.958708
6.7966,0.004253,-0.00014,0.001867,-0.004134,0.00046,-0.001062,0.005136,-0.510194,0.001643,0.045553,-264.452699,-0.262171,61.958708
6.8169,0.004172,-0.000156,0.002775,-0.003189,0.000355,-0.00082,0.004884,-0.510104,0.001785,0.045553,-264.455349,-0.262171,61.955967
6.8368,0.004309,-0.000485,0.00226,-0.002184,0.000243,-0.000561,0.004924,-0.510107,0.001851,0.045553,-264.455349,-0.262171,61.955967
6.8571,0.003836,-5.3e-05,0.001177,-0.001122,0.000125,-0.000288,0.005303,-0.510467,0.002219,0.045553,-264.457004,-0.262171,61.954256
6.8771,0.003928,-0.000118,0.00136,-6e-06,1e-06,-2e-06,0.00479,-0.510229,0.001621,0.045553,-264.457004,-0.262171,61.954256
6.8969,0.004303,4e-05,0.000884,0.0,0.0,0.0,0.00479,-0.510229,0.001621,0.045553,-264.457004,-0.262171,61.954256
6.917,0.003733,-4.2e-05,0.000341,0.0,0.0,0.0,0.004648,-0.509949,0.000857,0.045553,-264.45788,-0.262171,61.95335
6.9367,0.003423,-3.7e-05,0.000975,0.0,0.0,0.0,0.004591,-0.509955,0.000819,0.045553,-264.45788,-0.262171,61.95335
6.9567,0.003776,-0.000184,6.6e-05,0.0,0.0,0.0,0.00392,-0.510037,0.000975,0.045553,-264.45788,-0.262171,61.95335
6.9766,0.00366,-0.000242,0.002331,0.0,0.0,0.0,0.003857,-0.510121,0.000453,0.045553,-264.45788,-0.262171,61.95335
6.9968,0.003773,0.000222,0.001575,0.0,0.0,0.0,0.003857,-0.510121,0.000453,0.045553,-264.45788,-0.262171,61.95335
7.0175,0.003937,-0.000144,-6.3e-05,0.0,0.0,0.0,0.004577,-0.509777,0.001575,0.045553,-264.45788,-0.262171,61.95335
7.0367,0.004033,-0.000173,0.000723,0.0,0.0,0.0,0.004528,-0.509804,0.001455,0.045553,-264.45788,-0.262171,61.95335
7.0566,0.003743,5.6e-05,0.000663,0.0,0.0,0.0,0.004401,-0.510173,0.000723,0.045553,-264.45788,-0.262171,61.95335
7.0769,0.003676,5e-06,0.00087,0.0,0.0,0.0,0.004218,-0.510042,0.000689,0.045553,-264.45788,-0.262171,61.95335
7.097,0.003394,-0.000275,0.000265,0.0,0.0,0.0,0.004218,-0.510042,0.000689,0.045553,-264.45788,-0.262171,61.95335
7.1168,0.003772,-0.000317,0.001966,-0.0001,8e-06,0.0,0.003529,-0.510275,0.000265,0.045553,-264.45788,-0.262171,61.95335
7.137,0.003544,-0.000265,2.3e-05,-0.0001,8e-06,0.0,0.003614,-0.510278,0.000381,0.045553,-264.45788,-0.262171,61.95335
7.1572,0.003624,-3.4e-05,0.000583,-0.0001,8e-06,0.0,0.003556,-0.510265,2.3e-05,0.045553,-264.45788,-0.262171,61.95335
7.1768,0.003916,-0.00024,0.001483,-0.0001,8e-06,0.0,0.003764,-0.510134,0.000342,0.045553,-264.45788,-0.262171,61.95335
7.1967,0.003612,-8.9e-05,0.000959,-0.0001,8e-06,0.0,0.003764,-0.510134,0.000342,0.045553,-264.45788,-0.262171,61.95335
7.2167,0.003476,-0.000424,0.000944,-0.0001,8e-06,0.0,0.004099,-0.510088,0.000959,-0.029473,-264.457898,-0.187145,61.953332
7.2372,0.003865,-0.000395,0.001524,-0.0001,8e-06,0.0,0.004088,-0.510113,0.000958,-0.029473,-264.457898,-0.187145,61.953332
7.2567,0.00402,-0.000261,0.000549,-0.0001,8e-06,0.0,0.004639,-0.510394,0.001523,-0.081023,-264.45793,-0.11218,61.9533
7.2766,0.003792,-3e-06,0.000852,-0.0001,8e-06,0.0,0.004445,-0.510318,0.000967,-0.081023,-264.45793,-0.11218,61.9533
7.2968,0.003438,-0.000103,0.001056,-0.0001,8e-06,0.0,0.004445,-0.510318,0.000967,-0.081023,-264.45793,-0.11218,61.9533
7.3169,0.003996,-0.000192,0.000691,-6e-06,0.0,-0.0,0.003972,-0.510102,0.001056,-0.081023,-264.457969,-0.081023,61.953261
7.3373,0.003367,6.8e-05,-0.000773,-0.000497,4e-05,-3.9e-05,0.003997,-0.510108,0.00103,-0.081023,-264.457969,-0.081023,61.953261
7.3572,0.003961,-0.000245,0.001606,-0.000967,7.9e-05,-7.5e-05,0.002969,-0.509931,-0.000773,-0.081023,-264.458009,-0.081023,61.953221
7.3773,0.003725,-0.000271,0.001633,-0.001413,0.000115,-0.00011,0.003991,-0.510108,0.00057,-0.081023,-264.458009,-0.081023,61.953221
7.3968,0.00397,-0.000176,0.001274,-0.001833,0.000149,-0.000143,0.003991,-0.510108,0.00057,-0.081023,-264.458009,-0.081023,61.953221
7.417,0.003842,-0.000123,0.000111,-0.002227,0.000181,-0.000174,0.004597,-0.510174,0.001272,-0.033581,-264.458195,-0.128104,61.953034
7.4371,0.003659,8.3e-05,0.000748,-0.002596,0.000211,-0.000202,0.004549,-0.51017,0.001192,-0.033581,-264.458195,-0.128104,61.953034
7.4567,0.003776,8e-06,0.001715,-0.00294,0.000239,-0.000229,0.00397,-0.509912,0.000743,-0.033581,-264.458929,-0.128104,61.952294
7.4768,0.003705,-1e-06,0.000199,-0.003258,0.000265,-0.000254,0.004352,-0.509957,0.0013,-0.033581,-264.458929,-0.128104,61.952294
7.4967,0.003701,-0.000332,0.001209,-0.003551,0.000288,-0.000277,0.004352,-0.509957,0.0013,-0.033581,-264.458929,-0.128104,61.952294
7.5167,0.003267,-2.4e-05,0.000283,-0.00382,0.00031,-0.000298,0.004191,-0.510322,0.001199,-0.033581,-264.459967,-0.128104,61.951248
7.5372,0.003248,-0.000349,0.001616,-0.004061,0.00033,-0.000317,0.004131,-0.5103,0.001131,-0.033581,-264.459967,-0.128104,61.951248
7.5567,0.003253,0.000225,0.000446,-0.004278,0.000347,-0.000333,0.003935,-0.510338,0.001606,-0.033581,-264.461388,-0.128104,61.949816
7.5769,0.003493,-0.000139,0.000746,-0.004468,0.000363,-0.000348,0.003658,-0.510014,0.000941,-0.033581,-264.461388,-0.128104,61.949816
7.5969,0.003113,-0.00036,0.000944,-0.004633,0.000376,-0.000361,0.003658,-0.510014,0.000941,-0.033581,-264.461388,-0.128104,61.949816
7.6165,0.003086,-0.000204,0.000381,-0.004773,0.000388,-0.000372,0.003397,-0.510344,0.000929,-0.033581,-264.463014,-0.128104,61.948177
7.6369,0.003022,-4.7e-05,3.3e-05,-0.004888,0.000397,-0.000381,0.003384,-0.510334,0.000891,-0.033581,-264.463014,-0.128104,61.948177
7.6566,0.002652,9.4e-05,0.002224,-0.004977,0.000404,-0.000388,0.002861,-0.510032,2e-05,-0.033581,-264.464869,-0.128104,61.946308
7.6765,0.002962,0.000322,0.001024,-0.005041,0.000409,-0.000393,0.00337,-0.509957,0.001284,-0.033581,-264.464869,-0.128104,61.946308
