mach0312/omni-docking-bench/src/icros_test_setup/results/kinematic_sample/timeseries/trial_016.csv
t,x,y,yaw,vx,vy,wz,bl_x,bl_y,bl_yaw,front_steering_joint,front_wheel_joint,rear_steering_joint,rear_wheel_joint
0.0,-0.017412,0.019723,0.069732,0.008384,-4.2e-05,0.002398,0.016517,-0.488943,0.067916,0.168045,-263.735743,-0.177841,63.392216
0.0004,-0.017614,0.019487,0.069456,0.006237,-3.1e-05,0.001784,0.01656,-0.488988,0.06798,0.168045,-263.732347,-0.177841,63.395618
0.0006,-0.017109,0.019816,0.068804,0.005724,-2.9e-05,0.001637,0.01656,-0.488988,0.06798,0.168045,-263.729163,-0.177841,63.398807
0.0009,-0.01695,0.019882,0.070144,0.005165,-2.6e-05,0.001477,0.01636,-0.489464,0.067607,0.168045,-263.726442,-0.177841,63.401533
0.0012,-0.017174,0.019929,0.068312,0.00456,-2.3e-05,0.001304,0.017145,-0.489304,0.068611,0.168045,-263.724119,-0.177841,63.403859
0.0014,-0.017195,0.019744,0.070395,0.003914,-2e-05,0.00112,0.017145,-0.489304,0.068611,0.168045,-263.722532,-0.177841,63.40545
0.0016,-0.016809,0.019714,0.067851,0.00322,-1.6e-05,0.000921,0.017145,-0.489304,0.068611,0.168045,-263.721524,-0.177841,63.406459
0.0018,-0.016715,0.019726,0.06885,0.002483,-1.3e-05,0.00071,0.018127,-0.488745,0.069232,0.168045,-263.721524,-0.177841,63.406459
0.0021,-0.01664,0.01977,0.07011,0.001699,-9e-06,0.000486,0.018127,-0.488745,0.069232,0.168045,-263.721524,-0.177841,63.406459
0.0023,-0.016567,0.019346,0.068585,0.000875,-4e-06,0.00025,0.018137,-0.488764,0.069269,0.168045,-263.721524,-0.177841,63.406459
0.0176,-0.016284,0.01944,0.068754,0.015202,-0.016,-0.03,0.018504,-0.489447,0.068619,0.168045,-263.721524,-0.177841,63.406459
0.0363,-0.01689,0.019756,0.069216,0.01491,-0.020513,-0.05,0.018525,-0.48944,0.068629,0.168045,-263.721524,-0.177841,63.406459
0.0565,-0.016506,0.019407,0.068121,0.015483,-0.020877,-0.05,0.018382,-0.489023,0.069216,0.168045,-263.721524,-0.177841,63.40646
0.0768,-0.016972,0.01992,0.069558,0.015146,-0.020486,-0.05,0.018283,-0.489245,0.068588,0.168045,-263.721524,-0.177841,63.40646
0.0967,-0.016412,0.019802,0.068337,0.015547,-0.021051,-0.05,0.018283,-0.489245,0.068588,0.168045,-263.721524,-0.177841,63.40646
0.1163,-0.016697,0.019613,0.069044,0.015022,-0.020876,-0.05,0.018412,-0.489008,0.068337,0.092911,-263.721524,-0.102708,63.40646
0.1369,-0.016924,0.019758,0.070532,0.015304,-0.020718,-0.05,0.018418,-0.489019,0.068386,0.092911,-263.721524,-0.102708,63.40646
0.1564,-0.016843,0.019466,0.067989,0.015489,-0.020902,-0.05,0.019017,-0.488974,0.070532,0.018046,-263.721524,-0.027842,63.40646
0.1766,-0.016844,0.019291,0.068662,0.015482,-0.020566,-0.05,0.01833,-0.48919,0.069091,0.018046,-263.721524,-0.027842,63.40646
0.1964,-0.016344,0.019629,0.069893,0.015481,-0.020402,-0.05,0.01833,-0.48919,0.069091,0.018046,-263.721524,-0.027842,63.40646
0.2163,-0.016644,0.019531,0.07051,0.014934,-0.020722,-0.05,0.019272,-0.489126,0.069893,-0.056951,-263.721524,0.047155,63.40646
0.2363,-0.016879,0.019793,0.069541,0.015227,-0.020655,-0.05,0.019273,-0.489132,0.069937,-0.056951,-263.721524,0.047155,63.40646
0.2563,-0.016696,0.019169,0.068494,0.015462,-0.020918,-0.05,0.018559,-0.488974,0.069541,-0.131951,-263.721524,0.122155,63.40646
0.2767,-0.016683,0.019752,0.06992,0.015345,-0.020267,-0.05,0.018359,-0.489351,0.068944,-0.131951,-263.721524,0.122155,63.40646
0.2967,-0.016945,0.019513,0.069241,0.015262,-0.020869,-0.05,0.018359,-0.489351,0.068944,-0.131951,-263.721524,0.122155,63.40646
0.3166,-0.016951,0.019604,0.069255,0.015555,-0.020639,-0.05,0.018339,-0.489265,0.069241,-0.206956,-263.721524,0.19716,63.40646
0.3371,-0.016524,0.019763,0.069543,0.015554,-0.02073,-0.05,0.018339,-0.489258,0.069242,-0.206956,-263.721524,0.19716,63.40646
0.3571,-0.016478,0.019476,0.069697,0.015111,-0.020864,-0.05,0.018915,-0.489004,0.069543,-0.281949,-263.721523,0.272152,63.40646
0.3765,-0.016899,0.019376,0.068734,0.015081,-0.020576,-0.05,0.018985,-0.489163,0.06963,-0.281949,-263.721523,0.272152,63.40646
0.3965,-0.016522,0.019606,0.069223,0.015528,-0.020491,-0.05,0.018985,-0.489163,0.06963,-0.281949,-263.721523,0.272152,63.40646
0.4166,-0.016784,0.020055,0.069568,0.015126,-0.020701,-0.05,0.018754,-0.489173,0.069223,-0.356949,-263.721523,0.347153,63.40646
0.4367,-0.016549,0.019622,0.068777,0.015349,-0.021173,-0.05,0.018748,-0.489143,0.069245,-0.356949,-263.721523,0.347153,63.40646
0.4567,-0.016843,0.01962,0.070846,0.015161,-0.020713,-0.05,0.0185,-0.489172,0.068777,-0.431951,-263.721522,0.422154,63.40646
0.4765,-0.016781,0.01948,0.070871,0.015412,-0.020763,-0.05,0.018934,-0.489131,0.069962,-0.431951,-263.721522,0.422154,63.40646
0.4965,-0.016778,0.019581,0.070223,0.01536,-0.020619,-0.05,0.018934,-0.489131,0.069962,-0.431951,-263.721522,0.422154,63.40646
0.5167,-0.016958,0.019858,0.068842,0.015363,-0.02071,-0.05,0.019006,-0.489162,0.070223,-0.507049,-263.72152,0.497253,63.406461
0.5366,-0.016906,0.019827,0.068741,0.015552,-0.020977,-0.05,0.018948,-0.489147,0.070131,-0.507049,-263.72152,0.497253,63.406461
0.5571,-0.016623,0.019865,0.069024,0.015505,-0.020942,-0.05,0.018124,-0.488968,0.068741,-0.581965,-263.721518,0.572169,63.406462
0.5768,-0.016059,0.019755,0.07095,0.015214,-0.020964,-0.05,0.018364,-0.488941,0.0689,-0.581965,-263.721518,0.572169,63.406462
0.5966,-0.01676,0.019771,0.068485,0.014618,-0.020844,-0.05,0.018364,-0.488941,0.0689,-0.581965,-263.721518,0.572169,63.406462
0.6167,-0.016763,0.019575,0.06979,0.015368,-0.020872,-0.05,0.018141,-0.489033,0.068485,-0.65697,-263.721511,0.551181,63.406464
0.6364,-0.016584,0.019752,0.068686,0.015357,-0.020696,-0.05,0.018184,-0.489043,0.068571,-0.65697,-263.721511,0.551181,63.406464
0.6567,-0.016575,0.019635,0.069164,0.015189,-0.020844,-0.05,0.01842,-0.489046,0.068685,-0.73196,-263.72149,0.585561,63.406471
0.6769,-0.016954,0.019516,0.070918,0.015179,-0.020733,-0.05,0.018562,-0.489103,0.068956,-0.73196,-263.72149,0.585561,63.406471
0.6967,-0.016916,0.019975,0.068962,0.015528,-0.020669,-0.05,0.018562,-0.489103,0.068956,-0.73196,-263.72149,0.585561,63.406471
0.7163,-0.016557,0.019836,0.067867,0.0155,-0.021093,-0.05,0.018235,-0.488817,0.068949,-0.806961,-263.721352,0.569898,63.406518
0.7364,-0.016892,0.01986,0.069168,0.015174,-0.020913,-0.05,0.018221,-0.488829,0.068873,-0.806961,-263.721352,0.569898,63.406518
0.757,-0.016784,0.019866,0.069729,0.015479,-0.02098,-0.05,0.018381,-0.488934,0.069127,-0.882097,-263.720803,0.566135,63.406707
0.7765,-0.017001,0.019456,0.069341,0.015359,-0.020987,-0.05,0.018592,-0.488914,0.069462,-0.882097,-263.720803,0.566135,63.406707
0.7967,-0.016963,0.019561,0.069987,0.015612,-0.020587,-0.05,0.018592,-0.488914,0.069462,-0.882097,-263.720803,0.566135,63.406707
0.8165,-0.016609,0.019387,0.069265,0.015553,-0.020699,-0.05,0.018784,-0.489244,0.069837,-0.956964,-263.719291,0.565235,63.407213
0.8368,-0.016464,0.019815,0.068489,0.015228,-0.02049,-0.05,0.018779,-0.489256,0.069789,-0.956964,-263.719291,0.565235,63.407213
0.8569,-0.016011,0.019546,0.069199,0.01507,-0.020895,-0.05,0.018603,-0.489107,0.068157,-1.032329,-263.715288,0.567437,63.408644
0.8767,-0.015931,0.019421,0.068375,0.014621,-0.020606,-0.05,0.018995,-0.489194,0.068709,-1.032329,-263.715288,0.567437,63.408644
0.8965,-0.015996,0.019067,0.066647,0.014567,-0.020465,-0.05,0.018995,-0.489194,0.068709,-1.032329,-263.715288,0.567437,63.408644
0.9165,-0.015051,0.01897,0.067438,0.014691,-0.02009,-0.05,0.018298,-0.490044,0.065921,-1.107078,-263.708762,0.583255,63.411329
0.9364,-0.015235,0.018941,0.068152,0.013738,-0.019941,-0.05,0.018384,-0.490038,0.066014,-1.107078,-263.708762,0.583255,63.411329
0.9569,-0.014598,0.018716,0.067174,0.01391,-0.019935,-0.05,0.019839,-0.490144,0.067313,-1.182256,-263.699783,0.604992,63.415353
0.977,-0.014101,0.018621,0.067461,0.013309,-0.019654,-0.05,0.019767,-0.490172,0.067128,-1.182256,-263.699783,0.604992,63.415353
0.9967,-0.014199,0.018919,0.066358,0.012814,-0.019529,-0.05,0.019767,-0.490172,0.067128,-1.182256,-263.699783,0.604992,63.415353
1.0164,-0.012895,0.018439,0.065011,0.012913,-0.019819,-0.05,0.020116,-0.490399,0.06495,-1.256967,-263.688278,0.657014,63.42057
1.0364,-0.013305,0.018309,0.064753,0.01167,-0.019238,-0.05,0.020136,-0.490415,0.064919,-1.256967,-263.688278,0.657014,63.42057
1.0564,-0.011471,0.017871,0.06386,0.012092,-0.019131,-0.05,0.020115,-0.491062,0.063366,-1.320234,-263.674169,0.709765,63.426677
1.0769,-0.011879,0.01817,0.062653,0.010307,-0.018567,-0.05,0.02073,-0.491133,0.063481,-1.320234,-263.674169,0.709765,63.426677
1.0968,-0.011247,0.017895,0.064867,0.010718,-0.018879,-0.05,0.02073,-0.491133,0.063481,-1.320234,-263.674169,0.709765,63.426677
1.1168,-0.009882,0.017528,0.060115,0.010063,-0.018586,-0.05,0.022349,-0.491715,0.062857,-1.340512,-263.657768,0.769295,63.432731
1.1369,-0.009672,0.017368,0.06024,0.008811,-0.01809,-0.05,0.022257,-0.491721,0.062622,-1.340512,-263.657768,0.769295,63.432731
1.1565,-0.008067,0.016507,0.059027,0.008609,-0.017918,-0.05,0.021466,-0.492375,0.058403,-1.357214,-263.638763,0.827429,63.438705
1.1766,-0.008279,0.01637,0.057296,0.007079,-0.016954,-0.05,0.021828,-0.492586,0.058524,-1.357214,-263.638763,0.827429,63.438705
1.1968,-0.008481,0.016531,0.058815,0.007328,-0.016817,-0.05,0.021828,-0.492586,0.058524,-1.357214,-263.638763,0.827429,63.438705
1.2165,-0.006518,0.015993,0.057529,0.007495,-0.017001,-0.05,0.021871,-0.493241,0.056989,-1.391544,-263.623812,0.902428,63.443319
1.2364,-0.006866,0.015797,0.057761,0.005588,-0.016341,-0.05,0.021944,-0.493252,0.056978,-1.391544,-263.623812,0.902428,63.443319
1.2564,-0.006092,0.015608,0.054766,0.005943,-0.016167,-0.05,0.022782,-0.493738,0.056627,-1.417261,-263.612409,0.977424,63.44702
1.2766,-0.005379,0.015392,0.055966,0.005228,-0.015918,-0.05,0.022265,-0.493724,0.055427,-1.417261,-263.612409,0.977424,63.44702
1.2965,-0.005984,0.015552,0.056619,0.004509,-0.015668,-0.05,0.022265,-0.493724,0.055427,-1.417261,-263.612409,0.977424,63.44702
1.317,-0.005465,0.014873,0.05503,0.005095,-0.015866,-0.05,0.023042,-0.493994,0.05553,-1.452163,-263.603831,1.052422,63.449792
1.3365,-0.005547,0.015058,0.054703,0.004639,-0.015151,-0.05,0.023017,-0.494026,0.05547,-1.452163,-263.603831,1.052422,63.449792
1.3564,-0.004312,0.014683,0.053169,0.004715,-0.015339,-0.05,0.022448,-0.494449,0.053859,-1.473509,-263.595624,1.127424,63.452539
1.3766,-0.004412,0.014831,0.051895,0.003525,-0.014891,-0.05,0.022657,-0.494567,0.053362,-1.473509,-263.595624,1.127424,63.452539
1.3968,-0.004655,0.014959,0.053976,0.003637,-0.01504,-0.05,0.022657,-0.494567,0.053362,-1.473509,-263.595624,1.127424,63.452539
1.4165,-0.003552,0.014512,0.051987,0.003841,-0.015188,-0.05,0.023044,-0.494683,0.052502,-1.469612,-263.584917,1.202422,63.457004
1.4364,-0.003108,0.014363,0.051657,0.002793,-0.014677,-0.05,0.023042,-0.494702,0.052427,-1.469612,-263.584917,1.202422,63.457004
1.4569,-0.002452,0.014443,0.049519,0.002362,-0.014505,-0.05,0.023362,-0.495371,0.050262,-1.49117,-263.571707,1.277424,63.461663
1.4764,-0.002725,0.013812,0.050537,0.001735,-0.014547,-0.049519,0.023055,-0.495173,0.049662,-1.49117,-263.571707,1.277424,63.461663
1.4965,-0.002589,0.014176,0.049359,0.002024,-0.013932,-0.05,0.023055,-0.495173,0.049662,-1.49117,-263.571707,1.277424,63.461663
1.5166,-0.001226,0.013598,0.047274,0.001886,-0.014287,-0.049359,0.022722,-0.495764,0.047437,-1.509101,-263.557294,1.352497,63.466787
1.5372,-0.001369,0.013383,0.048421,0.000582,-0.01364,-0.047274,0.022738,-0.495786,0.047368,-1.509101,-263.557294,1.352497,63.466787
1.557,-2.9e-05,0.012529,0.046484,0.000719,-0.013434,-0.048421,0.023411,-0.496475,0.046773,-1.525308,-263.542102,1.427719,63.472496
1.5769,-1.4e-05,0.013148,0.045967,-0.000553,-0.012516,-0.046484,0.02357,-0.496786,0.0464,-1.525308,-263.542102,1.427719,63.472496
1.5968,3e-05,0.012865,0.046884,-0.000591,-0.013135,-0.045967,0.02357,-0.496786,0.0464,-1.525308,-263.542102,1.427719,63.472496
1.6171,0.000812,0.01235,0.044418,-0.000633,-0.01285,-0.046884,0.02399,-0.49712,0.044988,-1.557105,-263.528077,1.502451,63.477524
1.6365,0.001031,0.012525,0.043942,-0.001359,-0.012302,-0.044418,0.023956,-0.497136,0.044901,-1.557105,-263.528077,1.502451,63.477524
1.6564,0.001793,0.012128,0.042169,-0.00158,-0.012468,-0.043942,0.023441,-0.497399,0.042484,-1.585127,-263.514565,1.577423,63.482426
1.6763,0.001766,0.011935,0.041882,-0.002303,-0.012042,-0.042169,0.023358,-0.497463,0.042121,-1.585127,-263.514565,1.577423,63.482426
1.6969,0.002025,0.01177,0.041199,-0.002265,-0.01185,-0.041882,0.023358,-0.497463,0.042121,-1.585127,-263.514565,1.577423,63.482426
1.7166,0.00274,0.011392,0.038845,-0.002508,-0.011677,-0.041199,0.022997,-0.498328,0.039286,-1.605258,-263.500595,1.65244,63.487698
1.7364,0.003077,0.011579,0.03924,-0.003181,-0.011277,-0.038845,0.022966,-0.498335,0.039207,-1.605258,-263.500595,1.65244,63.487698
1.7564,0.003341,0.011023,0.03831,-0.003528,-0.011449,-0.03924,0.023023,-0.498438,0.037802,-1.631226,-263.487261,1.727424,63.492646
1.7769,0.00379,0.011122,0.038789,-0.003761,-0.010887,-0.03831,0.022931,-0.498584,0.037909,-1.631226,-263.487261,1.727424,63.492646
1.7965,0.004017,0.01085,0.039815,-0.004218,-0.010967,-0.038789,0.022931,-0.498584,0.037909,-1.631226,-263.487261,1.727424,63.492646
1.817,0.004201,0.010795,0.038744,-0.004446,-0.010681,-0.039815,0.024307,-0.498947,0.039486,-1.661423,-263.483947,1.652328,63.492645
1.8368,0.004143,0.010763,0.037903,-0.004616,-0.010624,-0.038744,0.024285,-0.498944,0.039431,-1.661423,-263.483947,1.652328,63.492645
1.8565,0.004112,0.010773,0.037847,-0.004548,-0.010598,-0.037903,0.023469,-0.498871,0.037903,-1.691908,-263.483946,1.577424,63.492645
1.8768,0.004109,0.010747,0.038489,-0.004517,-0.01061,-0.037847,0.023435,-0.498865,0.037871,-1.691908,-263.483946,1.577424,63.492645
1.8965,0.003986,0.010872,0.038002,-0.004519,-0.010581,-0.038489,0.023435,-0.498865,0.037871,-1.691908,-263.483946,1.577424,63.492645
1.9168,0.004063,0.010695,0.03686,-0.004396,-0.010712,-0.038002,0.023363,-0.49876,0.038002,-1.704616,-263.483944,1.502425,63.492644
1.9367,0.004172,0.010769,0.037492,-0.004455,-0.010538,-0.03686,0.023327,-0.498774,0.037922,-1.704616,-263.483944,1.502425,63.492644
1.9564,0.003684,0.010543,0.035338,-0.004573,-0.010605,-0.037492,0.023289,-0.498873,0.037492,-1.702605,-263.483943,1.427329,63.492644
1.9769,0.004107,0.01094,0.038323,-0.004054,-0.010406,-0.035338,0.022383,-0.499025,0.036262,-1.702605,-263.483943,1.427329,63.492644
1.9971,0.004418,0.010785,0.037176,-0.004523,-0.010775,-0.038323,0.022383,-0.499025,0.036262,-1.702605,-263.483943,1.427329,63.492644
2.0165,0.003911,0.010765,0.038286,-0.004815,-0.010613,-0.037176,0.023373,-0.498863,0.037176,-1.704776,-263.483942,1.352277,63.492643
2.0373,0.003336,0.010699,0.038847,-0.00432,-0.010607,-0.038286,0.023376,-0.498863,0.03723,-1.704776,-263.483942,1.352277,63.492643
2.0572,0.004499,0.01055,0.038653,-0.003749,-0.010562,-0.038847,0.023143,-0.498916,0.038847,-1.70236,-263.48394,1.277421,63.492642
2.0769,0.003981,0.010721,0.037386,-0.004903,-0.010369,-0.038653,0.023734,-0.499001,0.038739,-1.70236,-263.48394,1.277421,63.492642
2.0972,0.004088,0.01034,0.039503,-0.004379,-0.010565,-0.037386,0.023734,-0.499001,0.038739,-1.70236,-263.48394,1.277421,63.492642
2.1167,0.004491,0.010621,0.037157,-0.004493,-0.010171,-0.039503,0.024229,-0.499262,0.039502,-1.697216,-263.483939,1.202332,63.492642
2.1374,0.004158,0.010919,0.038227,-0.004883,-0.010447,-0.037157,0.024175,-0.499246,0.039344,-1.697216,-263.483939,1.202332,63.492642
2.1568,0.003961,0.011016,0.03744,-0.004572,-0.010752,-0.038227,0.023649,-0.498708,0.038227,-1.70116,-263.483937,1.127425,63.492641
2.1765,0.003857,0.010655,0.038189,-0.004371,-0.01086,-0.03744,0.023323,-0.498664,0.037798,-1.70116,-263.483937,1.127425,63.492641
2.1968,0.0037,0.010792,0.037739,-0.004261,-0.0105,-0.038189,0.023323,-0.498664,0.037798,-1.70116,-263.483937,1.127425,63.492641
2.2174,0.004027,0.010572,0.036496,-0.004104,-0.010645,-0.037739,0.022942,-0.498845,0.037738,-1.717071,-263.483936,1.052431,63.492641
2.2368,0.004466,0.010714,0.038409,-0.00441,-0.010418,-0.036496,0.022923,-0.49886,0.037661,-1.717071,-263.483936,1.052431,63.492641
2.2567,0.003671,0.010741,0.037403,-0.004874,-0.010535,-0.038409,0.02405,-0.49891,0.038409,-1.69611,-263.483935,0.977402,63.49264
2.2765,0.003915,0.010646,0.037463,-0.00407,-0.010596,-0.037403,0.02331,-0.498906,0.03784,-1.69611,-263.483935,0.977402,63.49264
2.2966,0.004195,0.010597,0.037203,-0.004311,-0.010492,-0.037463,0.02331,-0.498906,0.03784,-1.69611,-263.483935,0.977402,63.49264
2.3165,0.003794,0.010598,0.039013,-0.004586,-0.010433,-0.037203,0.023164,-0.49905,0.037203,-1.704815,-263.483933,0.902292,63.49264
2.3366,0.00398,0.010631,0.039035,-0.004204,-0.010442,-0.039013,0.023199,-0.499048,0.037324,-1.704815,-263.483933,0.902292,63.49264
2.3565,0.003864,0.010945,0.037443,-0.004392,-0.010468,-0.039035,0.023882,-0.49898,0.039034,-1.699275,-263.483932,0.827424,63.492639
2.377,0.003969,0.010913,0.038192,-0.004271,-0.010793,-0.037443,0.023356,-0.49882,0.03813,-1.699275,-263.483932,0.827424,63.492639
2.3965,0.004379,0.01051,0.03681,-0.004382,-0.010753,-0.038192,0.023356,-0.49882,0.03813,-1.699275,-263.483932,0.827424,63.492639
2.4166,0.0039,0.010811,0.037279,-0.004762,-0.010341,-0.03681,0.023148,-0.499145,0.03681,-1.692864,-263.483931,0.752303,63.492639
2.4365,0.004234,0.010482,0.037655,-0.0043,-0.010658,-0.037279,0.023132,-0.499124,0.036841,-1.692864,-263.483931,0.752303,63.492639
2.4563,0.00379,0.01059,0.039264,-0.004625,-0.010315,-0.037655,0.023433,-0.499157,0.037655,-1.698692,-263.483929,0.677431,63.492638
2.4766,0.004188,0.010511,0.03903,-0.004203,-0.010433,-0.039264,0.023649,-0.499077,0.038577,-1.698692,-263.483929,0.677431,63.492638
2.4964,0.004077,0.010697,0.037103,-0.004595,-0.010339,-0.03903,0.023649,-0.499077,0.038577,-1.698692,-263.483929,0.677431,63.492638
2.5165,0.00402,0.010673,0.038583,-0.004471,-0.010538,-0.037103,0.022995,-0.498952,0.037103,-1.698736,-263.483928,0.60232,63.492638
2.5363,0.004134,0.010926,0.036373,-0.004429,-0.01051,-0.038583,0.023044,-0.498952,0.037206,-1.698736,-263.483928,0.60232,63.492638
2.5568,0.004236,0.010838,0.03677,-0.004528,-0.010768,-0.036373,0.022679,-0.498737,0.036372,-1.704454,-263.483927,0.527415,63.492637
2.5773,0.003459,0.010414,0.039592,-0.004632,-0.010675,-0.03677,0.022853,-0.498783,0.036598,-1.704454,-263.483927,0.527415,63.492637
2.5969,0.003842,0.010628,0.036293,-0.003869,-0.010269,-0.039592,0.022853,-0.498783,0.036598,-1.704454,-263.483927,0.527415,63.492637
2.6167,0.003785,0.010902,0.03665,-0.004225,-0.010482,-0.036293,0.022347,-0.499036,0.036293,-1.700056,-263.483925,0.452433,63.492637
2.6367,0.004128,0.010453,0.03731,-0.004182,-0.010756,-0.03665,0.022355,-0.499018,0.036316,-1.700056,-263.483925,0.452433,63.492637
2.6565,0.004196,0.010741,0.038893,-0.004515,-0.010292,-0.03731,0.023152,-0.499192,0.03731,-1.682627,-263.483924,0.377422,63.492636
2.6763,0.003758,0.010542,0.03827,-0.004611,-0.01057,-0.038893,0.023651,-0.49901,0.038214,-1.682627,-263.483924,0.377422,63.492636
2.6964,0.003936,0.010804,0.036859,-0.004159,-0.01039,-0.03827,0.023651,-0.49901,0.038214,-1.682627,-263.483924,0.377422,63.492636
2.7171,0.003761,0.010692,0.03783,-0.004332,-0.010652,-0.036859,0.02273,-0.498849,0.036859,-1.696326,-263.483923,0.302324,63.492636
2.7363,0.003894,0.010996,0.038949,-0.004163,-0.010542,-0.03783,0.022753,-0.498856,0.036927,-1.696326,-263.483923,0.302324,63.492636
2.7563,0.003899,0.010591,0.03741,-0.004319,-0.010836,-0.038949,0.023752,-0.498618,0.038949,-1.693349,-263.483921,0.227439,63.492635
2.7763,0.003897,0.010725,0.037291,-0.004293,-0.010437,-0.03741,0.023308,-0.498866,0.038069,-1.693349,-263.483921,0.227439,63.492635
2.7967,0.004177,0.011041,0.03774,-0.004294,-0.010572,-0.037291,0.023308,-0.498866,0.038069,-1.693349,-263.483921,0.227439,63.492635
2.8165,0.004316,0.010449,0.038201,-0.004591,-0.010875,-0.03774,0.02342,-0.498596,0.03774,-1.693888,-263.48392,0.152381,63.492634
2.8366,0.00413,0.010707,0.038543,-0.004712,-0.010277,-0.038201,0.023444,-0.498633,0.03777,-1.693888,-263.48392,0.152381,63.492634
2.8565,0.003872,0.010604,0.037279,-0.004539,-0.01054,-0.038543,0.023782,-0.498914,0.038542,-1.698863,-263.483918,0.077434,63.492634
2.8765,0.004416,0.010523,0.036323,-0.004265,-0.010452,-0.037279,0.023267,-0.498987,0.037821,-1.698863,-263.483918,0.077434,63.492634
2.8968,0.003899,0.010646,0.038985,-0.004795,-0.010355,-0.036323,0.023267,-0.498987,0.037821,-1.698863,-263.483918,0.077434,63.492634
2.9165,0.00415,0.010675,0.037495,-0.004311,-0.010486,-0.038985,0.023776,-0.498967,0.038984,-1.710092,-263.483917,0.002391,63.492633
2.9366,0.00424,0.01025,0.038755,-0.004548,-0.010512,-0.037495,0.023742,-0.498967,0.038884,-1.710092,-263.483917,0.002391,63.492633
2.9563,0.003982,0.01062,0.037468,-0.004634,-0.010079,-0.038755,0.024,-0.499367,0.038755,-1.717115,-263.483916,-0.072564,63.492633
2.9765,0.004114,0.011035,0.038996,-0.004377,-0.010463,-0.037468,0.02348,-0.499171,0.038023,-1.717115,-263.483916,-0.072564,63.492633
2.9965,0.003813,0.010803,0.037501,-0.004541,-0.010866,-0.038996,0.02348,-0.499171,0.038023,-1.717115,-263.483916,-0.072564,63.492633
3.0163,0.004017,0.010785,0.036892,-0.004216,-0.010653,-0.037501,0.022934,-0.498838,0.037501,-1.706071,-263.483914,-0.147558,63.492632
3.0367,0.004196,0.010856,0.037595,-0.004412,-0.01063,-0.036892,0.022927,-0.49884,0.037459,-1.706071,-263.483914,-0.147558,63.492632
3.0567,0.004226,0.010916,0.037936,-0.004601,-0.010691,-0.037595,0.023365,-0.498783,0.037595,-1.700996,-263.483913,-0.222562,63.492632
3.0765,0.003909,0.010848,0.038007,-0.004637,-0.010748,-0.037936,0.023481,-0.498745,0.037789,-1.700996,-263.483913,-0.222562,63.492632
3.0963,0.004198,0.010612,0.037723,-0.004319,-0.010692,-0.038007,0.023481,-0.498745,0.037789,-1.700996,-263.483913,-0.222562,63.492632
3.1163,0.00415,0.011087,0.035654,-0.004595,-0.010446,-0.037723,0.023432,-0.499025,0.037723,-1.703057,-263.483912,-0.297558,63.492631
3.1363,0.00405,0.010582,0.038217,-0.004543,-0.010932,-0.035654,0.023355,-0.498994,0.037577,-1.703057,-263.483912,-0.297558,63.492631
3.1563,0.004143,0.010689,0.038729,-0.004451,-0.01042,-0.038217,0.023536,-0.499045,0.038217,-1.697495,-263.48391,-0.372563,63.492631
3.1767,0.003747,0.011076,0.036373,-0.004554,-0.010521,-0.038729,0.023737,-0.498979,0.038509,-1.697495,-263.48391,-0.372563,63.492631
3.1964,0.004161,0.010799,0.038334,-0.004147,-0.010932,-0.036373,0.023737,-0.498979,0.038509,-1.697495,-263.48391,-0.372563,63.492631
3.2164,0.004205,0.010749,0.038669,-0.004572,-0.010632,-0.038334,0.023707,-0.498826,0.038334,-1.708811,-263.483909,-0.447635,63.49263
3.2374,0.004165,0.010749,0.037513,-0.004617,-0.010579,-0.038669,0.023722,-0.498829,0.038357,-1.708811,-263.483909,-0.447635,63.49263
3.2565,0.003913,0.01079,0.038716,-0.004565,-0.010585,-0.037513,0.023292,-0.498892,0.037513,-1.695269,-263.483907,-0.522574,63.49263
3.2767,0.004023,0.010694,0.038816,-0.004328,-0.01063,-0.038716,0.023497,-0.498856,0.038197,-1.695269,-263.483907,-0.522574,63.49263
3.2968,0.003721,0.010701,0.037349,-0.004435,-0.01053,-0.038816,0.023497,-0.498856,0.038197,-1.695269,-263.483907,-0.522574,63.49263
3.3166,0.004268,0.010908,0.038471,-0.004118,-0.010554,-0.037349,0.022764,-0.498944,0.037348,-1.705003,-263.483904,-0.59756,63.492628
3.3368,0.003984,0.010575,0.037236,-0.004684,-0.010735,-0.038471,0.02284,-0.498929,0.037424,-1.705003,-263.483904,-0.59756,63.492628
3.3566,0.004023,0.010806,0.038022,-0.004375,-0.010419,-0.037236,0.022969,-0.499072,0.037235,-1.699628,-263.483893,-0.672556,63.492624
3.3767,0.003898,0.010345,0.038114,-0.004431,-0.010645,-0.038022,0.023219,-0.498932,0.037681,-1.699628,-263.483893,-0.672556,63.492624
3.3963,0.0043,0.010822,0.038768,-0.004289,-0.010189,-0.038114,0.023219,-0.498932,0.037681,-1.699628,-263.483893,-0.672556,63.492624
3.4168,0.003825,0.010892,0.037273,-0.004716,-0.010647,-0.038768,0.024065,-0.498799,0.038757,-1.706795,-263.483802,-0.747569,63.492588
3.4368,0.003895,0.010897,0.038204,-0.004228,-0.010742,-0.037273,0.023977,-0.498796,0.038652,-1.706795,-263.483802,-0.747569,63.492588
3.4566,0.003877,0.010716,0.03784,-0.004308,-0.01074,-0.038204,0.02337,-0.498737,0.038185,-1.698256,-263.483617,-0.82261,63.492513
3.4764,0.004184,0.01042,0.039609,-0.00428,-0.010562,-0.03784,0.023257,-0.498841,0.037987,-1.698256,-263.483617,-0.82261,63.492513
3.4967,0.004096,0.010699,0.038689,-0.004593,-0.010246,-0.039609,0.023257,-0.498841,0.037987,-1.698256,-263.483617,-0.82261,63.492513
3.5169,0.004162,0.010755,0.038172,-0.004507,-0.010533,-0.038689,0.023805,-0.498956,0.03858,-1.696313,-263.48277,-0.897555,63.492193
3.5366,0.003913,0.010563,0.037034,-0.004569,-0.010589,-0.038172,0.023793,-0.498951,0.03855,-1.696313,-263.48277,-0.897555,63.492193
3.5568,0.004336,0.010429,0.0387,-0.004302,-0.010411,-0.037034,0.022767,-0.499143,0.036846,-1.703397,-263.481002,-0.972576,63.491446
3.5765,0.004269,0.01072,0.037156,-0.004736,-0.010253,-0.0387,0.023499,-0.499176,0.037871,-1.703397,-263.481002,-0.972576,63.491446
3.5964,0.003917,0.010213,0.038967,-0.004665,-0.010554,-0.037156,0.023499,-0.499176,0.037871,-1.703397,-263.481002,-0.972576,63.491446
3.6164,0.00415,0.010635,0.036423,-0.004312,-0.010053,-0.038967,0.023699,-0.499559,0.038381,-1.704767,-263.476728,-1.047573,63.489531
3.6364,0.004974,0.010308,0.036327,-0.004535,-0.010477,-0.036423,0.023626,-0.499525,0.038225,-1.704767,-263.476728,-1.047573,63.489531
3.6564,0.004564,0.010124,0.035022,-0.005345,-0.010121,-0.036327,0.023384,-0.49953,0.035547,-1.710193,-263.469966,-1.122662,63.486025
3.6762,0.004718,0.010093,0.036226,-0.004916,-0.009958,-0.035022,0.022823,-0.499571,0.03515,-1.710193,-263.469966,-1.122662,63.486025
3.6965,0.004767,0.010224,0.03629,-0.005081,-0.009916,-0.036226,0.022823,-0.499571,0.03515,-1.710193,-263.469966,-1.122662,63.486025
3.7169,0.005274,0.010158,0.033944,-0.005135,-0.010045,-0.03629,0.023103,-0.499747,0.034954,-1.708504,-263.460683,-1.197559,63.481469
3.7369,0.005538,0.010404,0.033336,-0.005615,-0.009973,-0.033944,0.023061,-0.499741,0.034845,-1.708504,-263.460683,-1.197559,63.481469
3.7569,0.006002,0.009448,0.032543,-0.005882,-0.010214,-0.033336,0.022362,-0.499647,0.032038,-1.728065,-263.448915,-1.176438,63.476251
3.7771,0.005345,0.009198,0.033797,-0.006307,-0.009247,-0.032543,0.022473,-0.500052,0.032161,-1.728065,-263.448915,-1.176438,63.476251
3.7966,0.005639,0.009933,0.033495,-0.005653,-0.009012,-0.033797,0.022473,-0.500052,0.032161,-1.728065,-263.448915,-1.176438,63.476251
3.8164,0.005976,0.009264,0.033196,-0.005969,-0.009739,-0.033495,0.022713,-0.499888,0.033319,-1.653086,-263.447143,-1.101459,63.47625
3.8366,0.006181,0.009593,0.032983,-0.00628,-0.009061,-0.033196,0.022726,-0.49993,0.033306,-1.653086,-263.447143,-1.101459,63.47625
3.8564,0.006026,0.009512,0.032219,-0.006494,-0.009384,-0.032983,0.022999,-0.500129,0.032983,-1.578184,-263.447145,-1.118346,63.47625
3.8766,0.005886,0.009678,0.032827,-0.006329,-0.009312,-0.032219,0.022688,-0.500183,0.032547,-1.578184,-263.447145,-1.118346,63.47625
3.8964,0.006026,0.0095,0.033057,-0.006201,-0.00948,-0.032827,0.022688,-0.500183,0.032547,-1.578184,-263.447145,-1.118346,63.47625
3.9164,0.005778,0.009388,0.034318,-0.006337,-0.009296,-0.033057,0.022882,-0.500221,0.033057,-1.503083,-263.447146,-1.060279,63.476249
3.9364,0.005963,0.009185,0.032314,-0.006096,-0.009185,-0.034318,0.022909,-0.500227,0.033144,-1.503083,-263.447146,-1.060279,63.476249
3.9564,0.00615,0.009588,0.033659,-0.006256,-0.008988,-0.032314,0.02244,-0.500548,0.032314,-1.42819,-263.447147,-1.040237,63.476249
3.9765,0.005806,0.009791,0.032635,-0.006469,-0.009375,-0.033659,0.022935,-0.500307,0.033077,-1.42819,-263.447147,-1.040237,63.476249
3.9968,0.006038,0.009604,0.033472,-0.006122,-0.009597,-0.032635,0.022935,-0.500307,0.033077,-1.42819,-263.447147,-1.040237,63.476249
4.0165,0.006064,0.009317,0.033216,-0.006356,-0.009396,-0.033472,0.023105,-0.500111,0.033472,-1.353176,-263.447148,-1.093069,63.476248
4.0364,0.005702,0.0095,0.032451,-0.00637,-0.00911,-0.033216,0.023098,-0.50013,0.033455,-1.353176,-263.447148,-1.093069,63.476248
4.0563,0.006087,0.00963,0.031656,-0.006007,-0.00931,-0.032451,0.022249,-0.500231,0.032452,-1.278172,-263.447149,-1.035971,63.476248
4.0764,0.006065,0.009505,0.033134,-0.006388,-0.009432,-0.031656,0.022237,-0.500165,0.031999,-1.278172,-263.447149,-1.035971,63.476248
4.0964,0.005735,0.009592,0.032332,-0.006377,-0.009299,-0.033134,0.022237,-0.500165,0.031999,-1.278172,-263.447149,-1.035971,63.476248
4.1168,0.006055,0.009324,0.032881,-0.006042,-0.009401,-0.032332,0.022221,-0.500142,0.032332,-1.203175,-263.44715,-1.052785,63.476247
4.1367,0.006413,0.009866,0.033059,-0.006358,-0.00912,-0.032881,0.022262,-0.500159,0.03237,-1.203175,-263.44715,-1.052785,63.476247
4.1566,0.005938,0.009513,0.032539,-0.006736,-0.009649,-0.033059,0.02327,-0.499855,0.033059,-1.12818,-263.447152,-1.042984,63.476247
4.1764,0.005554,0.009226,0.033734,-0.006245,-0.009314,-0.032539,0.02285,-0.500061,0.032764,-1.12818,-263.447152,-1.042984,63.476247
4.1964,0.005574,0.009556,0.033266,-0.005862,-0.009033,-0.033734,0.02285,-0.500061,0.032764,-1.12818,-263.447152,-1.042984,63.476247
4.2165,0.00608,0.009417,0.031481,-0.005889,-0.009365,-0.033266,0.022536,-0.500162,0.033266,-1.053183,-263.447153,-1.04522,63.476246
4.2364,0.00573,0.009384,0.033241,-0.006373,-0.009221,-0.031481,0.022508,-0.500174,0.033139,-1.053183,-263.447153,-1.04522,63.476246
4.257,0.005733,0.009373,0.032103,-0.006039,-0.009188,-0.033241,0.02268,-0.500335,0.033241,-0.978088,-263.447154,-1.101797,63.476246
4.2768,0.005723,0.009944,0.03373,-0.006031,-0.009184,-0.032103,0.022353,-0.500351,0.032597,-0.978088,-263.447154,-1.101797,63.476246
4.2966,0.005801,0.009026,0.033473,-0.006055,-0.009746,-0.03373,0.022353,-0.500351,0.032597,-0.978088,-263.447154,-1.101797,63.476246
4.3163,0.005912,0.009225,0.031872,-0.0061,-0.008827,-0.033473,0.02287,-0.500688,0.033474,-0.903173,-263.447155,-1.026882,63.476245
4.3371,0.005739,0.009448,0.032276,-0.006203,-0.009032,-0.031872,0.022822,-0.500676,0.033365,-0.903173,-263.447155,-1.026882,63.476245
4.3564,0.005943,0.009395,0.033045,-0.006041,-0.009257,-0.032276,0.022197,-0.500287,0.032276,-0.828181,-263.447156,-1.061998,63.476245
4.3763,0.006051,0.009751,0.032572,-0.00625,-0.009194,-0.033045,0.022538,-0.500309,0.032716,-0.828181,-263.447156,-1.061998,63.476245
4.3965,0.005954,0.009686,0.033733,-0.006366,-0.009549,-0.032572,0.022538,-0.500309,0.032716,-0.828181,-263.447156,-1.061998,63.476245
4.4167,0.006183,0.009371,0.033153,-0.006278,-0.009479,-0.033733,0.023154,-0.500024,0.033733,-0.753089,-263.447157,-1.034408,63.476244
4.4368,0.006327,0.009525,0.033926,-0.00649,-0.009161,-0.033153,0.02315,-0.500047,0.033692,-0.753089,-263.447157,-1.034408,63.476244
4.4563,0.005754,0.009577,0.03299,-0.006647,-0.009305,-0.033926,0.023626,-0.500181,0.033926,-0.678188,-263.447159,-1.019152,63.476244
4.4766,0.005967,0.009391,0.033905,-0.006067,-0.009382,-0.03299,0.023024,-0.500161,0.033389,-0.678188,-263.447159,-1.019152,63.476244
4.4965,0.00592,0.009184,0.03135,-0.006282,-0.009183,-0.033905,0.023024,-0.500161,0.033389,-0.678188,-263.447159,-1.019152,63.476244
4.5167,0.005804,0.009847,0.031791,-0.006205,-0.008994,-0.03135,0.021905,-0.500565,0.03135,-0.603074,-263.44716,-1.041218,63.476243
4.5369,0.006042,0.009645,0.032818,-0.006114,-0.009657,-0.031791,0.021913,-0.500516,0.031382,-0.603074,-263.44716,-1.041218,63.476243
4.5568,0.005998,0.009831,0.034101,-0.006355,-0.009442,-0.032818,0.022776,-0.50008,0.032818,-0.528049,-263.447161,-1.07173,63.476243
4.5765,0.005894,0.009566,0.032772,-0.00633,-0.00962,-0.034101,0.023123,-0.499962,0.033547,-0.528049,-263.447161,-1.07173,63.476243
4.5967,0.005839,0.009534,0.031828,-0.006204,-0.009368,-0.032772,0.023123,-0.499962,0.033547,-0.528049,-263.447161,-1.07173,63.476243
4.6167,0.005809,0.009602,0.032933,-0.00614,-0.009343,-0.031828,0.022069,-0.500208,0.031828,-0.45316,-263.447162,-1.011109,63.476242
4.6369,0.005951,0.009407,0.032403,-0.006122,-0.009406,-0.032933,0.022102,-0.500203,0.031897,-0.45316,-263.447162,-1.011109,63.476242
4.6567,0.006023,0.009321,0.03278,-0.006253,-0.009209,-0.032403,0.022473,-0.500326,0.032403,-0.378175,-263.447163,-1.043205,63.476242
4.677,0.005955,0.009597,0.033823,-0.006326,-0.009119,-0.03278,0.022624,-0.500371,0.032617,-0.378175,-263.447163,-1.043205,63.476242
4.697,0.005609,0.009685,0.033942,-0.006276,-0.00939,-0.033823,0.022624,-0.500371,0.032617,-0.378175,-263.447163,-1.043205,63.476242
4.7165,0.006014,0.009444,0.033172,-0.005935,-0.009489,-0.033942,0.022916,-0.500021,0.033942,-0.303161,-263.447164,-1.051452,63.476241
4.7363,0.00638,0.009579,0.032782,-0.006324,-0.009239,-0.033172,0.022917,-0.500037,0.033895,-0.303161,-263.447164,-1.051452,63.476241
4.7568,0.005631,0.009493,0.032132,-0.006691,-0.009364,-0.032782,0.023096,-0.500147,0.032782,-0.228161,-263.447166,-1.062596,63.476241
4.7764,0.005883,0.009201,0.032972,-0.005933,-0.009307,-0.032132,0.022482,-0.500202,0.032413,-0.228161,-263.447166,-1.062596,63.476241
4.7966,0.006084,0.009665,0.033887,-0.006183,-0.009002,-0.032972,0.022482,-0.500202,0.032413,-0.228161,-263.447166,-1.062596,63.476241
4.8168,0.005873,0.009709,0.032212,-0.006408,-0.009453,-0.033887,0.023363,-0.500042,0.033887,-0.15316,-263.447167,-1.049824,63.47624
4.8364,0.00577,0.009444,0.032295,-0.006183,-0.009515,-0.032212,0.02329,-0.500041,0.033772,-0.15316,-263.447167,-1.049824,63.47624
4.8565,0.006238,0.009031,0.032516,-0.006072,-0.009253,-0.032295,0.022237,-0.50029,0.032295,-0.078184,-263.447168,-1.06394,63.47624
4.8767,0.006061,0.009338,0.032257,-0.006529,-0.008824,-0.032516,0.022567,-0.500523,0.03242,-0.078184,-263.447168,-1.06394,63.47624
4.8969,0.006488,0.009351,0.034865,-0.006359,-0.009138,-0.032257,0.022567,-0.500523,0.03242,-0.078184,-263.447168,-1.06394,63.47624
4.9164,0.006261,0.009627,0.032821,-0.00681,-0.009119,-0.034865,0.024265,-0.500339,0.034865,-0.003157,-263.447169,-1.024059,63.476239
4.9369,0.005862,0.009478,0.032668,-0.006573,-0.009416,-0.032821,0.024179,-0.500323,0.034727,-0.003157,-263.447169,-1.024059,63.476239
4.957,0.005945,0.009589,0.032596,-0.006168,-0.009282,-0.032668,0.022519,-0.500249,0.032668,0.07182,-263.44717,-1.028905,63.476239
4.9763,0.006037,0.009874,0.032826,-0.006255,-0.00939,-0.032596,0.022546,-0.500187,0.032627,0.07182,-263.44717,-1.028905,63.476239
4.9963,0.006081,0.009077,0.031491,-0.006358,-0.00967,-0.032826,0.022546,-0.500187,0.032627,0.07182,-263.44717,-1.028905,63.476239
5.0168,0.005886,0.00977,0.032972,-0.006364,-0.008881,-0.031491,0.022139,-0.50067,0.031491,0.146975,-263.447172,-1.01694,63.476238
5.0371,0.00606,0.009267,0.03444,-0.006205,-0.009571,-0.032972,0.022181,-0.500616,0.031602,0.146975,-263.447172,-1.01694,63.476238
5.0567,0.006089,0.009028,0.033614,-0.006376,-0.009053,-0.03444,0.023621,-0.500431,0.03444,0.22204,-263.447173,-1.021168,63.476238
5.0766,0.005863,0.009578,0.03191,-0.006389,-0.008818,-0.033614,0.023403,-0.500572,0.03398,0.22204,-263.447173,-1.021168,63.476238
5.0965,0.006227,0.00941,0.033219,-0.006166,-0.009386,-0.03191,0.023403,-0.500572,0.03398,0.22204,-263.447173,-1.021168,63.476238
5.1163,0.00586,0.009719,0.0324,-0.006536,-0.009198,-0.033219,0.023165,-0.500309,0.033219,0.296814,-263.447174,-1.039804,63.476237
5.1363,0.005777,0.009315,0.032129,-0.006172,-0.009524,-0.0324,0.023112,-0.500288,0.033163,0.296814,-263.447174,-1.039804,63.476237
5.1564,0.005992,0.009432,0.032456,-0.006073,-0.009125,-0.032129,0.02216,-0.500422,0.032129,0.371818,-263.447175,-1.022871,63.476237
5.1766,0.006097,0.009231,0.032494,-0.006295,-0.009233,-0.032456,0.022376,-0.500352,0.032314,0.371818,-263.447175,-1.022871,63.476237
5.1966,0.005704,0.009724,0.031131,-0.006394,-0.009028,-0.032494,0.022376,-0.500352,0.032314,0.371818,-263.447175,-1.022871,63.476237
5.2167,0.006037,0.009212,0.032711,-0.006004,-0.009542,-0.031131,0.021579,-0.500029,0.031131,0.446818,-263.447176,-1.029383,63.476236
5.2364,0.005917,0.009513,0.032004,-0.006335,-0.009009,-0.032711,0.021649,-0.500059,0.031228,0.446818,-263.447176,-1.029383,63.476236
5.2567,0.005743,0.00974,0.033637,-0.006219,-0.009319,-0.032004,0.022237,-0.500226,0.032004,0.521824,-263.447178,-1.036989,63.476236
5.2767,0.005949,0.009814,0.033092,-0.006068,-0.009542,-0.033637,0.022609,-0.500082,0.032929,0.521824,-263.447178,-1.036989,63.476236
5.2965,0.00584,0.009542,0.033281,-0.006271,-0.009612,-0.033092,0.022609,-0.500082,0.032929,0.521824,-263.447178,-1.036989,63.476236
5.3165,0.005922,0.009349,0.035305,-0.006154,-0.009342,-0.033281,0.02281,-0.500176,0.033281,0.596872,-263.447179,-1.047049,63.476235
5.3367,0.005819,0.009752,0.032576,-0.006248,-0.009134,-0.035305,0.022886,-0.500187,0.033419,0.596872,-263.447179,-1.047049,63.476235
5.3563,0.005917,0.009627,0.032885,-0.006133,-0.009557,-0.032576,0.022429,-0.499978,0.032576,0.671824,-263.44718,-1.036579,63.476235
5.3765,0.005854,0.009664,0.032099,-0.006231,-0.009427,-0.032885,0.022575,-0.500046,0.032752,0.671824,-263.44718,-1.036579,63.476235
5.3965,0.005959,0.009331,0.033175,-0.006162,-0.009471,-0.032099,0.022575,-0.500046,0.032752,0.671824,-263.44718,-1.036579,63.476235
5.4164,0.00599,0.009669,0.033627,-0.006266,-0.009128,-0.033175,0.022875,-0.500388,0.033174,0.746822,-263.447184,-1.104998,63.476233
5.4372,0.006011,0.009403,0.033273,-0.006311,-0.009462,-0.033627,0.022893,-0.500365,0.033205,0.746822,-263.447184,-1.104998,63.476233
5.4564,0.006014,0.009743,0.031974,-0.00632,-0.009198,-0.033273,0.022976,-0.500315,0.033272,0.82182,-263.447201,-1.029999,63.476226
5.4763,0.005794,0.009798,0.032472,-0.006322,-0.009545,-0.031974,0.022609,-0.500138,0.032547,0.82182,-263.447201,-1.029999,63.476226
5.4963,0.006374,0.00946,0.031716,-0.006109,-0.009605,-0.032472,0.022609,-0.500138,0.032547,0.82182,-263.447201,-1.029999,63.476226
5.5165,0.00612,0.009423,0.032301,-0.00667,-0.009254,-0.031716,0.022542,-0.500285,0.031706,0.897109,-263.447289,-1.052847,63.47619
5.5368,0.00603,0.009558,0.032452,-0.006421,-0.009221,-0.032301,0.022545,-0.500287,0.031745,0.897109,-263.447289,-1.052847,63.47619
5.5565,0.006133,0.009431,0.032423,-0.006337,-0.009357,-0.032452,0.022566,-0.500181,0.032423,0.971823,-263.447597,-1.032347,63.476068
5.577,0.00617,0.009205,0.033513,-0.006436,-0.009227,-0.032423,0.022621,-0.50025,0.032419,0.971823,-263.447597,-1.032347,63.476068
5.5964,0.006013,0.009464,0.031961,-0.006475,-0.008993,-0.033513,0.022621,-0.50025,0.032419,0.971823,-263.447597,-1.032347,63.476068
5.6165,0.006051,0.009503,0.034305,-0.006312,-0.009267,-0.031961,0.022263,-0.500311,0.031827,1.046829,-263.448696,-1.022275,63.475611
5.6364,0.006232,0.009686,0.033164,-0.006373,-0.00929,-0.034305,0.022343,-0.500305,0.031982,1.046829,-263.448696,-1.022275,63.475611
5.6564,0.005938,0.009183,0.033112,-0.006549,-0.009474,-0.033164,0.023065,-0.5001,0.032906,1.121828,-263.451235,-1.057083,63.474502
5.6767,0.006133,0.009346,0.031253,-0.006239,-0.008981,-0.033112,0.022918,-0.500356,0.03299,1.121828,-263.451235,-1.057083,63.474502
5.6966,0.005702,0.009449,0.031085,-0.006422,-0.00915,-0.031253,0.022918,-0.500356,0.03299,1.121828,-263.451235,-1.057083,63.474502
5.7171,0.006295,0.009013,0.031221,-0.005993,-0.009267,-0.031085,0.02139,-0.500472,0.030458,1.196819,-263.456046,-1.070656,63.472434
5.7368,0.006346,0.008865,0.031406,-0.006574,-0.008812,-0.031221,0.021442,-0.500494,0.030493,1.196819,-263.456046,-1.070656,63.472434
5.7565,0.006212,0.008793,0.029884,-0.006621,-0.008661,-0.031406,0.022182,-0.501107,0.030644,1.271822,-263.463357,-0.997094,63.469415
5.7765,0.00691,0.008846,0.030558,-0.006472,-0.008604,-0.029884,0.021752,-0.501063,0.030126,1.271822,-263.463357,-0.997094,63.469415
5.7971,0.006728,0.008973,0.029599,-0.007177,-0.008631,-0.030558,0.021752,-0.501063,0.030126,1.271822,-263.463357,-0.997094,63.469415
5.8172,0.006802,0.008727,0.030304,-0.006991,-0.00877,-0.029599,0.021546,-0.501161,0.028268,1.339242,-263.473168,-1.000838,63.464885
5.8365,0.00694,0.008511,0.028019,-0.007063,-0.008517,-0.030304,0.021586,-0.501162,0.028369,1.339242,-263.473168,-1.000838,63.464885
5.8566,0.007278,0.008342,0.028554,-0.007176,-0.008313,-0.028019,0.020973,-0.501613,0.026897,1.313659,-263.483881,-0.949784,63.460203
5.8766,0.007437,0.008447,0.026914,-0.007513,-0.008131,-0.028554,0.021432,-0.501561,0.027696,1.313659,-263.483881,-0.949784,63.460203
5.8964,0.007249,0.008321,0.027175,-0.007662,-0.008244,-0.026914,0.021432,-0.501561,0.027696,1.313659,-263.483881,-0.949784,63.460203
5.9164,0.007647,0.007733,0.023623,-0.007472,-0.008121,-0.027175,0.020774,-0.501913,0.025703,1.315155,-263.495108,-0.955423,63.455285
5.937,0.007529,0.007611,0.027491,-0.007827,-0.00755,-0.023623,0.020674,-0.501944,0.025484,1.315155,-263.495108,-0.955423,63.455285
5.9572,0.008105,0.00725,0.02536,-0.007736,-0.007401,-0.027491,0.02135,-0.502422,0.026739,1.269807,-263.502507,-0.880026,63.452073
5.9767,0.007908,0.007211,0.025811,-0.008286,-0.007042,-0.02536,0.021146,-0.502545,0.025855,1.269807,-263.502507,-0.880026,63.452073
5.9969,0.007998,0.007522,0.024619,-0.008091,-0.007004,-0.025811,0.021146,-0.502545,0.025855,1.269807,-263.502507,-0.880026,63.452073
6.0168,0.008065,0.007321,0.024218,-0.008181,-0.007323,-0.024619,0.020321,-0.502556,0.02386,1.228654,-263.508549,-0.805196,63.449375
6.0367,0.008046,0.007373,0.025176,-0.00824,-0.007124,-0.024218,0.020322,-0.502561,0.023865,1.228654,-263.508549,-0.805196,63.449375
6.057,0.008205,0.006984,0.021641,-0.008229,-0.007168,-0.025176,0.020598,-0.502693,0.024266,1.229344,-263.517075,-0.82507,63.444645
6.0765,0.008306,0.006855,0.022347,-0.008354,-0.006805,-0.021641,0.019788,-0.502838,0.022654,1.229344,-263.517075,-0.82507,63.444645
6.0966,0.008185,0.006849,0.022011,-0.008457,-0.006668,-0.022347,0.019788,-0.502838,0.022654,1.229344,-263.517075,-0.82507,63.444645
6.1164,0.008488,0.006628,0.022242,-0.008334,-0.006667,-0.022011,0.019054,-0.50335,0.020943,1.211139,-263.525572,-0.750177,63.44056
6.1369,0.008612,0.006705,0.021971,-0.008633,-0.006438,-0.022242,0.019098,-0.503351,0.021004,1.211139,-263.525572,-0.750177,63.44056
6.1567,0.008789,0.006102,0.021109,-0.008757,-0.006515,-0.021971,0.019518,-0.503417,0.02117,1.176354,-263.53372,-0.690049,63.4365
6.1768,0.008722,0.006381,0.021178,-0.008916,-0.005916,-0.021109,0.019501,-0.503656,0.021034,1.176354,-263.53372,-0.690049,63.4365
6.1968,0.008337,0.006583,0.022009,-0.008856,-0.006194,-0.021178,0.019501,-0.503656,0.021034,1.176354,-263.53372,-0.690049,63.4365
6.217,0.009084,0.00635,0.019303,-0.00848,-0.006398,-0.022009,0.019149,-0.503615,0.02093,1.163692,-263.542419,-0.691428,63.432029
6.2364,0.009009,0.005588,0.020167,-0.009205,-0.006174,-0.019303,0.019124,-0.503619,0.020794,1.163692,-263.542419,-0.691428,63.432029
6.2566,0.009112,0.005839,0.018675,-0.00912,-0.005405,-0.020167,0.018969,-0.504546,0.019378,1.137228,-263.550537,-0.650547,63.427743
6.2768,0.00852,0.005531,0.018021,-0.009219,-0.005668,-0.018675,0.018738,-0.504306,0.018879,1.137228,-263.550537,-0.650547,63.427743
6.2965,0.008921,0.005955,0.020291,-0.008619,-0.005377,-0.018021,0.018738,-0.504306,0.018879,1.137228,-263.550537,-0.650547,63.427743
6.3169,0.00904,0.005288,0.016758,-0.00904,-0.005773,-0.020291,0.018908,-0.504189,0.01951,1.097242,-263.557181,-0.575528,63.424194
6.3368,0.008813,0.005283,0.017628,-0.009127,-0.005136,-0.016758,0.01881,-0.504226,0.019303,1.097242,-263.557181,-0.575528,63.424194
6.3565,0.008941,0.005077,0.018295,-0.008905,-0.005127,-0.017628,0.017474,-0.504851,0.016933,1.086506,-263.56457,-0.578632,63.420084
6.3767,0.008702,0.005083,0.016799,-0.009033,-0.004913,-0.018295,0.017884,-0.50487,0.017616,1.086506,-263.56457,-0.578632,63.420084
6.3965,0.008977,0.005509,0.016365,-0.008786,-0.004936,-0.016799,0.017884,-0.50487,0.017616,1.086506,-263.56457,-0.578632,63.420084
6.4164,0.00843,0.005022,0.016175,-0.009065,-0.005362,-0.016365,0.016931,-0.504651,0.015641,1.034952,-263.570917,-0.509478,63.416372
6.4365,0.009065,0.004852,0.016241,-0.009065,-0.005362,-0.016365,0.016905,-0.504673,0.015657,1.034952,-263.570917,-0.509478,63.416372
6.4567,0.009002,0.004788,0.016034,-8.9e-05,-4.6e-05,0.0,0.017018,-0.505272,0.015605,1.046566,-263.577785,-0.544794,63.412353
6.4764,0.009056,0.004888,0.014811,-8.9e-05,-4.6e-05,0.0,0.017066,-0.505226,0.015764,1.046566,-263.577785,-0.544794,63.412353
6.4971,0.00875,0.004449,0.015443,-8.9e-05,-4.6e-05,0.0,0.017066,-0.505226,0.015764,1.046566,-263.577785,-0.544794,63.412353
6.5167,0.008915,0.004855,0.017132,-8.9e-05,-4.6e-05,0.0,0.016223,-0.505737,0.014709,1.037515,-263.584337,-0.472459,63.408612
6.5369,0.009169,0.004437,0.015069,-8.9e-05,-4.6e-05,0.0,0.016301,-0.505702,0.01484,1.037515,-263.584337,-0.472459,63.408612
6.5566,0.008859,0.004642,0.014494,-8.9e-05,-4.6e-05,0.0,0.016854,-0.505505,0.015069,0.962506,-263.584337,-0.397449,63.408612
6.5765,0.008959,0.00451,0.015366,-8.9e-05,-4.6e-05,0.0,0.016511,-0.505391,0.014742,0.962506,-263.584337,-0.397449,63.408612
6.5964,0.009293,0.004235,0.015288,-8.9e-05,-4.6e-05,0.0,0.016511,-0.505391,0.014742,0.962506,-263.584337,-0.397449,63.408612
6.6168,0.008561,0.004483,0.015057,-8.9e-05,-4.6e-05,0.0,0.017089,-0.505706,0.015288,0.887534,-263.584337,-0.322477,63.408612
6.6369,0.009112,0.004918,0.015277,-8.9e-05,-4.6e-05,0.0,0.017027,-0.505688,0.015271,0.887534,-263.584337,-0.322477,63.408612
6.6565,0.00872,0.004396,0.014353,-8.9e-05,-4.6e-05,0.0,0.016903,-0.505023,0.015277,0.812411,-263.584337,-0.247354,63.408612
6.6762,0.008984,0.004548,0.015625,-0.001341,-0.00069,-0.002383,0.016413,-0.505323,0.014753,0.812411,-263.584337,-0.247354,63.408612
6.6964,0.009013,0.00444,0.016553,-0.002601,-0.001339,-0.004621,0.016413,-0.505323,0.014753,0.812411,-263.584337,-0.247354,63.408612
6.7164,0.009037,0.004497,0.014812,-0.003802,-0.001957,-0.006755,0.017455,-0.50549,0.016553,0.737404,-263.584337,-0.172347,63.408612
6.7369,0.00871,0.004651,0.01526,-0.004937,-0.00254,-0.00877,0.017396,-0.505487,0.016434,0.737404,-263.584337,-0.172347,63.408612
6.7568,0.009004,0.004644,0.014514,-0.005998,-0.003087,-0.010655,0.016487,-0.505292,0.015255,0.812273,-263.584418,-0.247217,63.408562
6.7764,0.008958,0.004332,0.014274,-0.006995,-0.0036,-0.012427,0.01644,-0.505298,0.01483,0.812273,-263.584418,-0.247217,63.408562
6.7968,0.008696,0.004698,0.01383,-0.007918,-0.004075,-0.014066,0.01644,-0.505298,0.01483,0.812273,-263.584418,-0.247217,63.408562
6.8166,0.008754,0.004415,0.01393,-0.008782,-0.004519,-0.015601,0.015705,-0.505274,0.013772,0.887381,-263.585012,-0.322324,63.4082
6.8367,0.008896,0.004646,0.013754,-0.009564,-0.004922,-0.016991,0.015714,-0.505292,0.013781,0.887381,-263.585012,-0.322324,63.4082
6.8567,0.008806,0.004142,0.016895,-0.010285,-0.005293,-0.018271,0.015774,-0.505378,0.013544,0.962274,-263.587519,-0.397217,63.40667
6.8767,0.009207,0.004616,0.014511,-0.01094,-0.00563,-0.019434,0.01669,-0.505618,0.015416,0.962274,-263.587519,-0.397217,63.40667
6.8969,0.008972,0.0045,0.013434,-0.011518,-0.005927,-0.020461,0.01669,-0.505618,0.015416,0.962274,-263.587519,-0.397217,63.40667
6.9165,0.008758,0.004346,0.013561,-0.012032,-0.006192,-0.021376,0.015483,-0.505624,0.01286,1.012088,-263.592526,-0.472229,63.403326
6.9368,0.008775,0.004131,0.012217,-0.01248,-0.006422,-0.022171,0.015487,-0.505627,0.012893,1.012088,-263.592526,-0.472229,63.403326
6.9564,0.008754,0.003996,0.014822,-0.012857,-0.006616,-0.02284,0.0146,-0.50602,0.011512,1.012088,-263.600033,-0.518372,63.3982
6.977,0.009018,0.003937,0.013247,-0.01317,-0.006777,-0.023397,0.015522,-0.506003,0.013304,1.012088,-263.600033,-0.518372,63.3982
6.9967,0.008287,0.004167,0.013493,-0.013405,-0.006898,-0.023814,0.015522,-0.506003,0.013304,1.012088,-263.600033,-0.518372,63.3982
7.0164,0.008639,0.003502,0.012323,-0.013576,-0.006986,-0.024118,0.014565,-0.506107,0.012415,1.012088,-263.60945,-0.518372,63.392453
7.0366,0.008543,0.003536,0.011729,-0.013679,-0.007039,-0.024301,0.014574,-0.506139,0.01238,1.012088,-263.60945,-0.518372,63.392453
7.0564,0.008703,0.003681,0.011102,-0.013713,-0.007057,-0.024362,0.014011,-0.506701,0.01081,1.012088,-263.619571,-0.518372,63.386276
7.0766,0.008675,0.003277,0.011209,-0.013679,-0.007039,-0.024301,0.014147,-0.5065,0.01086,1.012088,-263.619571,-0.518372,63.386276
7.0965,0.008399,0.003461,0.0108,-0.013576,-0.006986,-0.024119,0.014147,-0.5065,0.01086,1.012088,-263.619571,-0.518372,63.386276
7.1169,0.008388,0.002844,0.010211,-0.013405,-0.006898,-0.023814,0.013246,-0.506858,0.009619,1.012088,-263.629887,-0.518372,63.379981
7.1366,0.008954,0.002827,0.009532,-0.013165,-0.006775,-0.023388,0.013252,-0.506885,0.009628,1.012088,-263.629887,-0.518372,63.379981
7.1572,0.008639,0.002624,0.008905,-0.012856,-0.006616,-0.02284,0.013293,-0.507425,0.008599,1.012088,-263.640131,-0.518372,63.373729
7.1767,0.008498,0.002942,0.008732,-0.01248,-0.006422,-0.022171,0.013163,-0.50742,0.008654,1.012088,-263.640131,-0.518372,63.373729
7.1965,0.008595,0.002405,0.007838,-0.012035,-0.006193,-0.02138,0.013163,-0.50742,0.008654,1.012088,-263.640131,-0.518372,63.373729
7.2169,0.008551,0.00269,0.005492,-0.011508,-0.005922,-0.020445,0.011955,-0.507914,0.006701,1.012088,-263.650064,-0.518372,63.367667
7.237,0.008617,0.002575,0.006944,-0.010936,-0.005628,-0.019429,0.011898,-0.507881,0.00659,1.012088,-263.650064,-0.518372,63.367667
7.2568,0.008095,0.002215,0.007472,-0.010284,-0.005292,-0.018269,0.011694,-0.507655,0.006117,1.012088,-263.659147,-0.518372,63.362124
7.2764,0.008481,0.002009,0.006495,-0.009567,-0.004923,-0.016996,0.011756,-0.507751,0.006782,1.012088,-263.659147,-0.518372,63.362124
7.2965,0.008596,0.001847,0.003811,-0.008775,-0.004516,-0.015588,0.011756,-0.507751,0.006782,1.012088,-263.659147,-0.518372,63.362124
7.3164,0.008338,0.001516,0.005055,-0.007919,-0.004075,-0.014068,0.010008,-0.508425,0.002865,1.012088,-263.667399,-0.518372,63.357088
7.3369,0.008509,0.001593,0.004841,-0.006994,-0.003599,-0.012425,0.010054,-0.508435,0.002985,1.012088,-263.667399,-0.518372,63.357088
7.3569,0.008507,0.001396,0.005949,-0.005995,-0.003085,-0.01065,0.010639,-0.508577,0.004237,1.012088,-263.674021,-0.518372,63.353048
7.377,0.008391,0.001365,0.004144,-0.004936,-0.00254,-0.008769,0.011105,-0.50861,0.005127,1.012088,-263.674021,-0.518372,63.353048
7.3966,0.008315,0.001368,0.005232,-0.003805,-0.001958,-0.006759,0.011105,-0.50861,0.005127,1.012088,-263.674021,-0.518372,63.353048
7.4171,0.008247,0.001041,0.002811,-0.002605,-0.001341,-0.004628,0.010643,-0.508802,0.004626,1.012088,-263.679301,-0.518372,63.349825
7.4365,0.007984,0.001612,0.003435,-0.001333,-0.000686,-0.002369,0.010574,-0.508816,0.004497,1.012088,-263.679301,-0.518372,63.349825
7.457,0.00809,0.001024,0.00393,0.0,0.0,0.0,0.009589,-0.508461,0.003173,1.012088,-263.68217,-0.518372,63.348074
7.4767,0.007879,0.000944,0.001857,0.0,0.0,0.0,0.009857,-0.50876,0.003569,1.012088,-263.68217,-0.518372,63.348074
7.4968,0.008011,0.001126,0.002964,0.0,0.0,0.0,0.009857,-0.50876,0.003569,1.012088,-263.68217,-0.518372,63.348074
7.5165,0.008176,0.00083,0.003854,0.0,0.0,0.0,0.009458,-0.508906,0.002849,1.012088,-263.683176,-0.518372,63.34746
7.5365,0.008286,0.001113,0.003089,0.0,0.0,0.0,0.009498,-0.508922,0.002908,1.012088,-263.683176,-0.518372,63.34746
7.5564,0.008381,0.00097,0.002003,0.0,0.0,0.0,0.009861,-0.508884,0.003089,1.012088,-263.683176,-0.518372,63.34746
7.577,0.008356,0.001116,0.003007,0.0,0.0,0.0,0.009601,-0.508967,0.002472,1.012088,-263.683176,-0.518372,63.34746
7.5963,0.008673,0.000977,0.004649,0.0,0.0,0.0,0.009601,-0.508967,0.002472,1.012088,-263.683176,-0.518372,63.34746
7.6166,0.008266,0.001368,0.005095,0.0,0.0,0.0,0.011044,-0.509017,0.004649,1.012088,-263.683176,-0.518372,63.34746
7.6368,0.008308,0.001034,0.002909,0.0,0.0,0.0,0.011032,-0.508991,0.00468,1.012088,-263.683176,-0.518372,63.34746
7.6569,0.008412,0.001155,0.004095,0.0,0.0,0.0,0.009791,-0.508963,0.002909,1.012088,-263.683176,-0.518372,63.34746
7.6769,0.008279,0.001157,0.003874,-9.9e-05,-1.3e-05,0.0,0.010193,-0.508894,0.00358,1.012088,-263.683176,-0.518372,63.34746
7.6965,0.008188,0.000974,0.003938,-9.9e-05,-1.3e-05,0.0,0.010193,-0.508894,0.00358,1.012088,-263.683176,-0.518372,63.34746
7.7171,0.008696,0.001355,0.003015,-9.9e-05,-1.3e-05,0.0,0.010197,-0.509022,0.003938,1.012088,-263.683176,-0.518372,63.34746
7.7372,0.007959,0.001151,0.004078,-9.9e-05,-1.3e-05,0.0,0.010199,-0.508996,0.003875,1.012088,-263.683176,-0.518372,63.34746
7.7563,0.00806,0.00137,0.00399,-9.9e-05,-1.3e-05,0.0,0.010039,-0.508844,0.004078,0.937131,-263.683176,-0.443416,63.34746
7.7766,0.008446,0.001267,0.001852,-9.9e-05,-1.3e-05,0.0,0.010071,-0.50872,0.004028,0.937131,-263.683176,-0.443416,63.34746
7.7963,0.008563,0.001107,0.00505,-9.9e-05,-1.3e-05,0.0,0.010071,-0.50872,0.004028,0.937131,-263.683176,-0.443416,63.34746
7.8164,0.007994,0.001048,0.002987,-9.9e-05,-1.3e-05,0.0,0.011139,-0.508887,0.00505,0.862094,-263.683176,-0.368379,63.34746
7.8364,0.008031,0.001195,0.002991,-9.9e-05,-1.3e-05,0.0,0.011014,-0.508891,0.004891,0.862094,-263.683176,-0.368379,63.34746
7.8564,0.008358,0.000952,0.004694,-9.9e-05,-1.3e-05,0.0,0.009557,-0.508803,0.002991,0.786867,-263.683176,-0.293152,63.34746
7.8764,0.00869,0.001294,0.003792,-0.0,-0.0,-0.0,0.010236,-0.508939,0.003959,0.786867,-263.683176,-0.293152,63.34746
7.8964,0.008246,0.001312,0.002534,-0.001233,-0.000164,-0.0006,0.010236,-0.508939,0.003959,0.786867,-263.683176,-0.293152,63.34746
7.9165,0.008662,0.001024,0.004789,-0.002401,-0.00032,-0.001168,0.009538,-0.508686,0.002534,0.712111,-263.683176,-0.218395,63.34746
7.9364,0.008414,0.000643,0.00264,-0.003506,-0.000467,-0.001706,0.009653,-0.508707,0.0027,0.712111,-263.683176,-0.218395,63.34746
7.9567,0.00814,0.001041,0.002261,-0.004547,-0.000605,-0.002212,0.009752,-0.509358,0.002634,0.63684,-263.683288,-0.162522,63.347356
7.9766,0.008353,0.001624,0.004417,-0.005526,-0.000736,-0.002688,0.00949,-0.50913,0.002421,0.63684,-263.683288,-0.162522,63.347356
7.9965,0.008701,0.001239,0.003685,-0.006448,-0.000859,-0.003137,0.00949,-0.50913,0.002421,0.63684,-263.683288,-0.162522,63.347356
8.0168,0.008561,0.001106,0.003397,-0.007297,-0.000972,-0.00355,0.010511,-0.508773,0.003641,0.561945,-263.683945,-0.162522,63.346745
8.0368,0.008298,0.000999,0.004411,-0.008096,-0.001078,-0.003938,0.010485,-0.508786,0.003613,0.561945,-263.683945,-0.162522,63.346745
8.0569,0.007702,0.000838,0.000945,-0.008809,-0.001173,-0.004285,0.010385,-0.509026,0.00432,0.48583,-263.685818,-0.162522,63.345001
8.0769,0.008206,0.001141,0.003363,-0.009474,-0.001262,-0.004609,0.00911,-0.509107,0.002385,0.48583,-263.685818,-0.162522,63.345001
8.097,0.00829,0.00116,0.003842,-0.010073,-0.001341,-0.0049,0.00911,-0.509107,0.002385,0.48583,-263.685818,-0.162522,63.345001
8.117,0.007459,0.000977,0.001752,-0.010608,-0.001412,-0.00516,0.009895,-0.508886,0.003668,0.411955,-263.689023,-0.162522,63.342018
8.1369,0.007901,0.001441,0.003725,-0.011081,-0.001475,-0.005391,0.009753,-0.508899,0.0035,0.411955,-263.689023,-0.162522,63.342018
8.1572,0.007775,0.000701,0.00389,-0.01149,-0.00153,-0.00559,0.009416,-0.508608,0.003538,0.406331,-263.693374,-0.162522,63.337968
8.1768,0.007684,0.000902,0.004135,-0.011836,-0.001576,-0.005758,0.009558,-0.509,0.003711,0.406331,-263.693374,-0.162522,63.337968
8.1969,0.007205,0.001124,0.003573,-0.01212,-0.001614,-0.005896,0.009558,-0.509,0.003711,0.406331,-263.693374,-0.162522,63.337968
8.2165,0.006843,0.000573,0.001884,-0.012343,-0.001644,-0.006005,0.008489,-0.508946,0.003311,0.406331,-263.698199,-0.162522,63.333476
8.2364,0.006816,0.000527,0.003326,-0.012499,-0.001664,-0.006081,0.008429,-0.508981,0.003208,0.406331,-263.698199,-0.162522,63.333476
8.2567,0.006222,0.000865,0.004076,-0.012593,-0.001677,-0.006127,0.008044,-0.509534,0.003098,0.406331,-263.703484,-0.162522,63.328557
8.2763,0.00662,0.000736,0.002824,-0.012625,-0.001681,-0.006142,0.008132,-0.509312,0.003628,0.406331,-263.703484,-0.162522,63.328557
8.2963,0.00658,0.000976,0.002728,-0.012593,-0.001677,-0.006127,0.008132,-0.509312,0.003628,0.406331,-263.703484,-0.162522,63.328557
8.3165,0.006157,0.000584,0.001181,-0.012499,-0.001664,-0.00608,0.007365,-0.509104,0.002432,0.406331,-263.708952,-0.162522,63.323467
8.3369,0.005986,0.000592,0.000981,-0.012341,-0.001643,-0.006004,0.007295,-0.509133,0.002318,0.406331,-263.708952,-0.162522,63.323467
8.3564,0.005992,0.0006,0.001397,-0.012115,-0.001613,-0.005894,0.005998,-0.509473,0.000744,0.406331,-263.714404,-0.162522,63.318392
8.3766,0.005692,0.000776,0.003942,-0.011833,-0.001576,-0.005757,0.006334,-0.50944,0.00108,0.406331,-263.714404,-0.162522,63.318392
8.3967,0.00558,0.000712,0.002679,-0.011489,-0.00153,-0.005589,0.006334,-0.50944,0.00108,0.406331,-263.714404,-0.162522,63.318392
8.4169,0.005255,0.000788,0.000907,-0.011079,-0.001475,-0.00539,0.006346,-0.509367,0.002387,0.406331,-263.719777,-0.162522,63.313391
8.4363,0.005007,0.000213,0.001513,-0.010605,-0.001412,-0.005159,0.00629,-0.509359,0.002284,0.406331,-263.719777,-0.162522,63.313391
8.4569,0.00458,0.000624,0.001823,-0.010069,-0.001341,-0.004898,0.005335,-0.509846,0.001297,0.406331,-263.724786,-0.162522,63.308728
8.4766,0.004759,0.000151,-0.000487,-0.009469,-0.001261,-0.004606,0.005376,-0.509589,0.001565,0.406331,-263.724786,-0.162522,63.308728
8.4968,0.004916,0.000294,0.000271,-0.008807,-0.001173,-0.004285,0.005376,-0.509589,0.001565,0.406331,-263.724786,-0.162522,63.308728
8.5169,0.004055,0.000546,0.000366,-0.008077,-0.001075,-0.003929,0.004538,-0.509775,1.9e-05,0.406331,-263.729404,-0.162522,63.304429
8.537,0.004206,0.000366,0.000932,-0.007291,-0.000971,-0.003547,0.004505,-0.509756,3.6e-05,0.406331,-263.729404,-0.162522,63.304429
8.5563,0.004382,0.000441,0.001318,-0.006438,-0.000857,-0.003132,0.00434,-0.509679,0.000766,0.406331,-263.73324,-0.162522,63.300859
8.5762,0.004388,0.000509,0.00231,-0.005518,-0.000735,-0.002684,0.004702,-0.509617,0.001058,0.406331,-263.73324,-0.162522,63.300859
8.5967,0.004139,0.000458,-0.000338,-0.004539,-0.000604,-0.002208,0.004702,-0.509617,0.001058,0.406331,-263.73324,-0.162522,63.300859
8.6168,0.003683,0.000128,0.000409,-0.003502,-0.000466,-0.001704,0.003611,-0.509589,-0.000511,0.406331,-263.736411,-0.162522,63.297907
8.6369,0.004035,0.000246,0.001183,-0.002382,-0.000317,-0.001159,0.00362,-0.509607,-0.00046,0.406331,-263.736411,-0.162522,63.297907
8.6567,0.003611,0.000175,-6.9e-05,-0.001231,-0.000164,-0.000599,0.004463,-0.509777,0.001098,0.406331,-263.738387,-0.162522,63.296067
8.6767,0.003732,0.0003,-0.000891,-1e-06,-0.0,-0.0,0.003939,-0.509807,0.000428,0.406331,-263.738387,-0.162522,63.296067
8.6967,0.003552,-6.8e-05,-0.000502,0.0,0.0,0.0,0.003939,-0.509807,0.000428,0.406331,-263.738387,-0.162522,63.296067
8.7169,0.003546,8.6e-05,-0.000795,0.0,0.0,0.0,0.00318,-0.510083,-0.000559,0.406331,-263.739425,-0.162522,63.295102
8.7368,0.003338,0.000335,0.002394,0.0,0.0,0.0,0.003174,-0.510073,-0.000575,0.406331,-263.739425,-0.162522,63.295102
8.7566,0.003541,-5.7e-05,9.4e-05,0.0,0.0,0.0,0.004559,-0.509664,0.002394,0.406331,-263.739425,-0.162522,63.295102
8.7766,0.003265,0.000254,0.000547,0.0,0.0,0.0,0.004018,-0.509883,0.001111,0.406331,-263.739425,-0.162522,63.295102
8.7964,0.003783,0.000153,0.000249,0.0,0.0,0.0,0.004018,-0.509883,0.001111,0.406331,-263.739425,-0.162522,63.295102
8.8167,0.003733,-7.3e-05,-0.00132,0.0,0.0,0.0,0.003909,-0.509847,0.000249,0.406331,-263.739425,-0.162522,63.295102
8.8366,0.003951,-0.000348,-0.000851,0.0,0.0,0.0,0.003853,-0.509862,0.000145,0.406331,-263.739425,-0.162522,63.295102
8.8565,0.003297,0.000144,0.002146,0.0,0.0,0.0,0.003517,-0.510348,-0.000851,0.406331,-263.739425,-0.162522,63.295102
8.8774,0.00381,0.000235,-0.000198,0.0,0.0,0.0,0.004012,-0.510069,0.000844,0.406331,-263.739425,-0.162522,63.295102
8.8966,0.003546,-1.4e-05,0.000382,-0.0001,-6e-06,0.0,0.004012,-0.510069,0.000844,0.406331,-263.739425,-0.162522,63.295102
8.9167,0.003386,0.00039,-0.001011,-0.0001,-6e-06,0.0,0.003741,-0.510014,0.000382,0.406331,-263.739425,-0.162522,63.295102
8.9367,0.003472,0.000407,-0.000618,-0.0001,-6e-06,0.0,0.003682,-0.509987,0.000287,0.406331,-263.739425,-0.162522,63.295102
8.9563,0.003538,0.000125,0.001344,-0.0001,-6e-06,0.0,0.003157,-0.509593,-0.000618,0.331292,-263.739427,-0.087483,63.295099
8.9766,0.003489,8e-05,-0.000207,-0.0001,-6e-06,0.0,0.003768,-0.509755,0.000507,0.331292,-263.739427,-0.087483,63.295099
8.9969,0.003677,-0.000195,-0.000434,-0.0001,-6e-06,0.0,0.003768,-0.509755,0.000507,0.331292,-263.739427,-0.087483,63.295099
9.0169,0.003605,0.000411,0.001501,-0.0001,-6e-06,0.0,0.003455,-0.510195,-0.000434,0.256188,-263.739436,-0.012379,63.295091
9.037,0.003636,0.0004,0.000784,-0.0001,-6e-06,0.0,0.003507,-0.51016,-0.000323,0.256188,-263.739436,-0.012379,63.295091
9.0568,0.003842,0.000361,-3.5e-05,-0.0001,-6e-06,0.0,0.004034,-0.5096,0.000783,0.18134,-263.739456,0.061882,63.295071
9.0769,0.003826,8.9e-05,0.001084,-0.0001,-6e-06,0.0,0.003915,-0.509622,0.000319,0.18134,-263.739456,0.061882,63.295071
9.0968,0.002826,0.000246,0.000529,-0.0001,-6e-06,0.0,0.003915,-0.509622,0.000319,0.18134,-263.739456,0.061882,63.295071
