mach0312/omni-docking-bench/src/icros_test_setup/results/kinematic_sample/timeseries/trial_059.csv
t,x,y,yaw,vx,vy,wz,bl_x,bl_y,bl_yaw,front_steering_joint,front_wheel_joint,rear_steering_joint,rear_wheel_joint
0.0,-0.030356,-0.030366,0.050416,0.00676,-0.001873,0.002393,-0.005332,-0.53939,0.049438,-0.060768,-264.61135,-0.45815,61.858795
0.0004,-0.029769,-0.029963,0.050728,0.002007,-0.000556,0.00071,-0.005081,-0.539458,0.049667,-0.060768,-264.608169,-0.45815,61.862335
0.0008,-0.029905,-0.030167,0.050886,0.001031,-0.000286,0.000365,-0.005081,-0.539458,0.049667,-0.060768,-264.605465,-0.45815,61.865345
0.0011,-0.029579,-0.029723,0.051811,0.0,-0.0,0.0,-0.004952,-0.53954,0.049959,-0.060768,-264.603613,-0.45815,61.867406
0.0014,-0.029572,-0.030272,0.051012,0.0,0.0,0.0,-0.004952,-0.53954,0.049959,-0.060768,-264.602437,-0.45815,61.868715
0.0017,-0.029989,-0.030055,0.050452,0.0,0.0,0.0,-0.004952,-0.53954,0.049959,-0.060768,-264.602437,-0.45815,61.868715
0.002,-0.02944,-0.030251,0.051001,0.0,0.0,0.0,-0.004096,-0.53928,0.051342,-0.060768,-264.602437,-0.45815,61.868715
0.0023,-0.029757,-0.029965,0.05149,0.0,0.0,0.0,-0.004107,-0.539288,0.051276,-0.060768,-264.602437,-0.45815,61.868715
0.0025,-0.029782,-0.030063,0.051228,0.0,0.0,0.0,-0.004107,-0.539288,0.051276,-0.060768,-264.602437,-0.45815,61.868715
0.0027,-0.02956,-0.030412,0.050137,0.0,0.0,0.0,-0.004113,-0.539762,0.051058,-0.060768,-264.602437,-0.45815,61.868715
0.0183,-0.02972,-0.03015,0.050816,0.016,0.016,-0.03,-0.004001,-0.539771,0.050137,-0.060768,-264.602437,-0.45815,61.868715
0.0379,-0.029606,-0.03019,0.051589,0.031213,0.028601,-0.05,-0.003895,-0.539611,0.050525,-0.060768,-264.602437,-0.45815,61.868715
0.0579,-0.029825,-0.030038,0.051163,0.031123,0.028624,-0.05,-0.003895,-0.539611,0.050525,-0.060768,-264.602437,-0.45815,61.868715
0.0778,-0.029757,-0.030203,0.050591,0.031322,0.028473,-0.05,-0.003743,-0.53937,0.051163,-0.060768,-264.602437,-0.45815,61.868715
0.0981,-0.029744,-0.030531,0.049188,0.031246,0.02866,-0.05,-0.003758,-0.539383,0.051124,-0.060768,-264.602437,-0.45815,61.868715
0.1179,-0.02963,-0.030246,0.050404,0.031209,0.029032,-0.049188,-0.004668,-0.539914,0.049188,-0.06142,-264.602436,-0.383253,61.868717
0.1379,-0.029797,-0.030478,0.051523,0.031116,0.028715,-0.05,-0.00425,-0.539734,0.049881,-0.06142,-264.602436,-0.383253,61.868717
0.158,-0.030216,-0.029991,0.051064,0.031327,0.028903,-0.05,-0.00425,-0.539734,0.049881,-0.06142,-264.602436,-0.383253,61.868717
0.1778,-0.029592,-0.030249,0.050133,0.031708,0.02841,-0.05,-0.004185,-0.539326,0.051064,-0.060015,-264.602435,-0.308163,61.86872
0.1981,-0.029932,-0.030428,0.049975,0.031071,0.028729,-0.05,-0.004174,-0.539346,0.050999,-0.060015,-264.602435,-0.308163,61.86872
0.2179,-0.030004,-0.03062,0.051194,0.031414,0.028894,-0.049975,-0.004455,-0.539791,0.049975,-0.052127,-264.602434,-0.233258,61.868723
0.2379,-0.02977,-0.030303,0.051371,0.031531,0.029044,-0.05,-0.004142,-0.539883,0.05067,-0.052127,-264.602434,-0.233258,61.868723
0.2581,-0.029801,-0.030252,0.051409,0.031287,0.028734,-0.05,-0.004142,-0.539883,0.05067,-0.052127,-264.602434,-0.233258,61.868723
0.2782,-0.029797,-0.030384,0.050837,0.031316,0.02868,-0.05,-0.003594,-0.539578,0.051409,-0.058156,-264.602432,-0.158262,61.868725
0.2985,-0.029826,-0.029998,0.0513,0.031303,0.028831,-0.05,-0.003617,-0.53959,0.051364,-0.058156,-264.602432,-0.158262,61.868725
0.3178,-0.029643,-0.030202,0.050445,0.031325,0.028429,-0.05,-0.003674,-0.539327,0.0513,-0.057575,-264.602431,-0.082765,61.868728
0.338,-0.029764,-0.030245,0.050853,0.031129,0.028669,-0.05,-0.003817,-0.539454,0.050819,-0.057575,-264.602431,-0.082765,61.868728
0.3579,-0.02973,-0.03035,0.051078,0.031263,0.028693,-0.05,-0.003817,-0.539454,0.050819,-0.057575,-264.602431,-0.082765,61.868728
0.3777,-0.029637,-0.030357,0.051616,0.031241,0.028792,-0.05,-0.003691,-0.539685,0.051078,-0.054461,-264.60243,-0.008248,61.868731
0.3983,-0.029915,-0.029966,0.050238,0.031163,0.028788,-0.05,-0.003666,-0.539684,0.051115,-0.054461,-264.60243,-0.008248,61.868731
0.4181,-0.02985,-0.030328,0.050497,0.031382,0.028426,-0.05,-0.004304,-0.539323,0.050238,-0.05892,-264.602429,0.066799,61.868733
0.4378,-0.029531,-0.030102,0.050323,0.031342,0.028783,-0.05,-0.004192,-0.539525,0.050385,-0.05892,-264.602429,0.066799,61.868733
0.4578,-0.029868,-0.030081,0.050613,0.031008,0.028578,-0.05,-0.004192,-0.539525,0.050385,-0.05892,-264.602429,0.066799,61.868733
0.4778,-0.029634,-0.030272,0.050509,0.031352,0.028531,-0.05,-0.004067,-0.539428,0.050612,-0.056088,-264.602427,0.141887,61.868736
0.4982,-0.029757,-0.030248,0.050729,0.031125,0.028737,-0.05,-0.004054,-0.539442,0.050605,-0.056088,-264.602427,0.141887,61.868736
0.5178,-0.029762,-0.030086,0.051637,0.031253,0.0287,-0.05,-0.003896,-0.539591,0.050729,-0.063107,-264.602426,0.216745,61.868739
0.5378,-0.029699,-0.030212,0.050532,0.031276,0.02851,-0.05,-0.003634,-0.539485,0.05125,-0.063107,-264.602426,0.216745,61.868739
0.5578,-0.029334,-0.030201,0.05104,0.031187,0.028673,-0.05,-0.003634,-0.539485,0.05125,-0.063107,-264.602426,0.216745,61.868739
0.5778,-0.030048,-0.030259,0.050065,0.030836,0.028665,-0.05,-0.003314,-0.539537,0.05104,-0.05777,-264.602425,0.291877,61.868741
0.5984,-0.029743,-0.030096,0.05097,0.031525,0.028718,-0.05,-0.003399,-0.539543,0.050972,-0.05777,-264.602425,0.291877,61.868741
0.6178,-0.029758,-0.030386,0.050205,0.031238,0.028542,-0.05,-0.003759,-0.539434,0.05097,-0.059701,-264.602424,0.366739,61.868744
0.6379,-0.029742,-0.030184,0.04971,0.031245,0.028855,-0.05,-0.00399,-0.53961,0.050534,-0.059701,-264.602424,0.366739,61.868744
0.6578,-0.030039,-0.030109,0.05092,0.031205,0.028669,-0.04971,-0.00399,-0.53961,0.050534,-0.059701,-264.602424,0.366739,61.868744
0.6779,-0.029709,-0.030155,0.049796,0.031533,0.028541,-0.05,-0.004081,-0.539447,0.05092,-0.057667,-264.602421,0.441744,61.86875
0.6981,-0.029627,-0.030408,0.052461,0.031173,0.028639,-0.049796,-0.004099,-0.539453,0.050836,-0.057667,-264.602421,0.441744,61.86875
0.7179,-0.029392,-0.03,0.049603,0.03118,0.028812,-0.05,-0.002883,-0.539706,0.05246,-0.054136,-264.602409,0.5169,61.868775
0.7378,-0.029428,-0.029972,0.05053,0.030843,0.028506,-0.049603,-0.003583,-0.539515,0.050821,-0.054136,-264.602409,0.5169,61.868775
0.7582,-0.029523,-0.030353,0.050745,0.030904,0.028448,-0.05,-0.003583,-0.539515,0.050821,-0.054136,-264.602409,0.5169,61.868775
0.7784,-0.029982,-0.030116,0.05073,0.031024,0.028816,-0.05,-0.003645,-0.539692,0.050738,-0.056867,-264.602356,0.591878,61.868889
0.7981,-0.029334,-0.030271,0.051466,0.03147,0.028556,-0.05,-0.003672,-0.539679,0.050738,-0.056867,-264.602356,0.591878,61.868889
0.8182,-0.029754,-0.030328,0.051738,0.030852,0.028722,-0.05,-0.003072,-0.539582,0.051443,-0.067522,-264.602152,0.666763,61.869327
0.8382,-0.029605,-0.03021,0.049904,0.031282,0.028749,-0.05,-0.003248,-0.539617,0.051613,-0.067522,-264.602152,0.666763,61.869327
0.8577,-0.029446,-0.030396,0.051886,0.031075,0.028695,-0.049904,-0.003248,-0.539617,0.051613,-0.067522,-264.602152,0.666763,61.869327
0.8782,-0.029646,-0.029847,0.050643,0.030983,0.028828,-0.05,-0.002885,-0.539642,0.051776,-0.062867,-264.601415,0.742172,61.870893
0.8982,-0.029579,-0.03007,0.049362,0.031119,0.028308,-0.05,-0.002948,-0.539609,0.051693,-0.062867,-264.601415,0.742172,61.870893
0.9177,-0.028969,-0.0295,0.050832,0.031026,0.028574,-0.049362,-0.004209,-0.539309,0.049134,-0.057327,-264.599634,0.81675,61.874716
0.938,-0.029221,-0.029859,0.050615,0.03043,0.02799,-0.05,-0.003524,-0.539024,0.050074,-0.057327,-264.599634,0.81675,61.874716
0.9585,-0.029176,-0.029676,0.050295,0.030694,0.028342,-0.05,-0.003524,-0.539024,0.050074,-0.057327,-264.599634,0.81675,61.874716
0.9784,-0.028502,-0.029553,0.050402,0.030631,0.028172,-0.05,-0.003074,-0.538726,0.049778,-0.071524,-264.595736,0.89179,61.881039
0.9984,-0.028489,-0.029584,0.050713,0.029955,0.028079,-0.05,-0.003043,-0.53873,0.049807,-0.071524,-264.595736,0.89179,61.881039
1.0181,-0.027233,-0.029138,0.049578,0.029952,0.028101,-0.05,-0.002102,-0.538571,0.050101,-0.071395,-264.589338,0.96674,61.889861
1.0381,-0.027182,-0.029491,0.04831,0.028643,0.027753,-0.049578,-0.001953,-0.538492,0.049728,-0.071395,-264.589338,0.96674,61.889861
1.0581,-0.027374,-0.029285,0.048363,0.028575,0.028144,-0.04831,-0.001953,-0.538492,0.049728,-0.071395,-264.589338,0.96674,61.889861
1.0778,-0.025516,-0.028671,0.048028,0.028757,0.027927,-0.048363,-0.001859,-0.538097,0.047317,-0.081888,-264.58044,1.041757,61.901184
1.0979,-0.025785,-0.028352,0.048459,0.026863,0.027413,-0.048028,-0.001781,-0.538081,0.047337,-0.081888,-264.58044,1.041757,61.901184
1.1182,-0.024342,-0.027682,0.046191,0.027128,0.02707,-0.048459,-0.000311,-0.537143,0.047442,-0.047628,-264.570014,1.11062,61.91503
1.1381,-0.023999,-0.027615,0.045444,0.025594,0.026529,-0.046191,-0.000489,-0.537062,0.046597,-0.047628,-264.570014,1.11062,61.91503
1.1582,-0.024305,-0.02795,0.045848,0.025229,0.026496,-0.045444,-0.000489,-0.537062,0.046597,-0.047628,-264.570014,1.11062,61.91503
1.1782,-0.022144,-0.026736,0.045946,0.02556,0.026807,-0.045848,9.7e-05,-0.536518,0.044307,-0.071355,-264.559412,1.128663,61.931328
1.1978,-0.022091,-0.026441,0.044594,0.023348,0.025691,-0.045946,0.000205,-0.536472,0.044379,-0.071355,-264.559412,1.128663,61.931328
1.2184,-0.020601,-0.024968,0.043063,0.023248,0.02543,-0.044594,0.001477,-0.535095,0.043202,-0.049877,-264.549389,1.135507,61.950152
1.2383,-0.020496,-0.025385,0.04369,0.021657,0.024058,-0.043063,0.001513,-0.53465,0.042947,-0.049877,-264.549389,1.135507,61.950152
1.2579,-0.02021,-0.025375,0.04365,0.021585,0.024466,-0.04369,0.001513,-0.53465,0.042947,-0.049877,-264.549389,1.135507,61.950152
1.278,-0.018448,-0.024313,0.042558,0.021298,0.024469,-0.04365,0.003052,-0.53371,0.04161,-0.101205,-264.540472,1.161015,61.971499
1.2982,-0.018524,-0.024449,0.042251,0.019466,0.023506,-0.042558,0.003091,-0.533689,0.041622,-0.101205,-264.540472,1.161015,61.971499
1.3178,-0.016064,-0.02346,0.039128,0.01954,0.023644,-0.042251,0.003809,-0.533018,0.040569,-0.102376,-264.531808,1.171462,61.993666
1.3379,-0.015932,-0.023386,0.038829,0.016969,0.022813,-0.039128,0.003954,-0.532924,0.039531,-0.102376,-264.531808,1.171462,61.993666
1.3578,-0.016153,-0.022755,0.039365,0.016828,0.02275,-0.038829,0.003954,-0.532924,0.039531,-0.102376,-264.531808,1.171462,61.993666
1.378,-0.01384,-0.021858,0.037411,0.017036,0.022101,-0.039365,0.0048,-0.531206,0.037339,-0.127064,-264.524119,1.196117,62.014506
1.3981,-0.014153,-0.021893,0.038072,0.014648,0.021325,-0.037411,0.004855,-0.531196,0.03729,-0.127064,-264.524119,1.196117,62.014506
1.4178,-0.01257,-0.020492,0.035047,0.014976,0.021339,-0.038072,0.005823,-0.5307,0.036702,-0.057254,-264.517957,1.223325,62.032572
1.4378,-0.012197,-0.021122,0.035724,0.01328,0.020039,-0.035047,0.005597,-0.530298,0.035586,-0.057254,-264.517957,1.223325,62.032572
1.4579,-0.012182,-0.020599,0.03618,0.012944,0.020673,-0.035724,0.005597,-0.530298,0.035586,-0.057254,-264.517957,1.223325,62.032572
1.4778,-0.010905,-0.019929,0.032683,0.012919,0.020145,-0.03618,0.00691,-0.529253,0.034444,-0.103666,-264.512333,1.250606,62.050344
1.4977,-0.010776,-0.019495,0.03276,0.011551,0.019562,-0.032683,0.006847,-0.529254,0.034275,-0.103666,-264.512333,1.250606,62.050344
1.5178,-0.009371,-0.01875,0.031073,0.011409,0.019132,-0.03276,0.006396,-0.528419,0.031398,-0.088271,-264.507205,1.275104,62.067875
1.538,-0.009488,-0.018676,0.031947,0.009949,0.01845,-0.031073,0.0065,-0.528365,0.031041,-0.088271,-264.507205,1.275104,62.067875
1.5578,-0.009403,-0.018427,0.031417,0.01008,0.018364,-0.031947,0.0065,-0.528365,0.031041,-0.088271,-264.507205,1.275104,62.067875
1.5778,-0.00793,-0.017462,0.029896,0.009977,0.018123,-0.031417,0.007124,-0.527254,0.029903,-0.034576,-264.5028,1.286468,62.08357
1.5978,-0.008274,-0.017215,0.030572,0.008449,0.017217,-0.029896,0.007151,-0.527228,0.029863,-0.034576,-264.5028,1.286468,62.08357
1.6179,-0.006681,-0.016901,0.029155,0.008796,0.016954,-0.030572,0.007646,-0.526329,0.029466,-0.109574,-264.499154,1.310692,62.097656
1.6379,-0.007044,-0.016826,0.029298,0.00717,0.016699,-0.029155,0.007998,-0.526451,0.029148,-0.109574,-264.499154,1.310692,62.097656
1.6578,-0.00683,-0.016703,0.028873,0.007534,0.016612,-0.029298,0.007998,-0.526451,0.029148,-0.109574,-264.499154,1.310692,62.097656
1.6777,-0.00545,-0.01593,0.028153,0.007309,0.016499,-0.028873,0.008274,-0.525656,0.027442,-0.122732,-264.495802,1.337002,62.112016
1.6983,-0.005787,-0.015827,0.02736,0.005897,0.01577,-0.028153,0.008328,-0.525638,0.027454,-0.122732,-264.495802,1.337002,62.112016
1.7182,-0.00429,-0.015345,0.024725,0.006217,0.015663,-0.02736,0.008429,-0.525012,0.026272,-0.168473,-264.492862,1.355819,62.125602
1.7377,-0.004918,-0.015251,0.025942,0.004668,0.015235,-0.024725,0.008399,-0.525034,0.025252,-0.168473,-264.492862,1.355819,62.125602
1.7577,-0.004501,-0.015042,0.024937,0.005312,0.015119,-0.025942,0.008399,-0.525034,0.025252,-0.168473,-264.492862,1.355819,62.125602
1.7779,-0.003881,-0.013938,0.02439,0.004874,0.014925,-0.024937,0.008459,-0.524183,0.023697,-0.236953,-264.49066,1.393793,62.137759
1.7983,-0.003808,-0.014612,0.025571,0.00422,0.013839,-0.02439,0.008472,-0.524135,0.023713,-0.236953,-264.49066,1.393793,62.137759
1.8181,-0.002854,-0.013808,0.021635,0.00418,0.01451,-0.025571,0.009392,-0.523949,0.024719,-0.161903,-264.488841,1.400904,62.148414
1.8378,-0.003289,-0.013856,0.022658,0.003152,0.013743,-0.021635,0.008719,-0.523737,0.022847,-0.161903,-264.488841,1.400904,62.148414
1.8579,-0.003283,-0.013383,0.023343,0.003602,0.013778,-0.022658,0.008719,-0.523737,0.022847,-0.161903,-264.488841,1.400904,62.148414
1.8779,-0.002161,-0.012746,0.020105,0.003594,0.013303,-0.023343,0.00879,-0.522643,0.022293,-0.236902,-264.487302,1.424995,62.158692
1.8984,-0.002182,-0.012645,0.021728,0.002417,0.0127,-0.020105,0.008749,-0.522628,0.022125,-0.236902,-264.487302,1.424995,62.158692
1.9178,-0.001995,-0.012705,0.021936,0.002456,0.012595,-0.021728,0.008956,-0.522286,0.021321,-0.161994,-264.486646,1.441103,62.163764
1.9378,-0.002116,-0.012774,0.021981,0.002273,0.012658,-0.021936,0.009098,-0.522424,0.02162,-0.161994,-264.486646,1.441103,62.163764
1.9581,-0.00188,-0.012926,0.022482,0.002396,0.012725,-0.021981,0.009098,-0.522424,0.02162,-0.161994,-264.486646,1.441103,62.163764
1.9779,-0.001747,-0.012833,0.021809,0.002171,0.012881,-0.022482,0.009601,-0.522701,0.022322,-0.086948,-264.48649,1.474337,62.165358
1.998,-0.002022,-0.012628,0.021743,0.002027,0.012792,-0.021809,0.009586,-0.5227,0.022283,-0.086948,-264.48649,1.474337,62.165358
2.0184,-0.001898,-0.012649,0.021525,0.002296,0.012581,-0.021743,0.009106,-0.522313,0.021411,-0.161894,-264.485956,1.479423,62.169458
2.0382,-0.001573,-0.012587,0.0221,0.002169,0.012605,-0.021525,0.009096,-0.522412,0.021434,-0.161894,-264.485956,1.479423,62.169458
2.0583,-0.001557,-0.012479,0.020645,0.001851,0.012549,-0.0221,0.009096,-0.522412,0.021434,-0.161894,-264.485956,1.479423,62.169458
2.0781,-0.001406,-0.011985,0.020412,0.001814,0.012444,-0.020645,0.009037,-0.52198,0.019973,-0.237047,-264.485228,1.493339,62.176066
2.0978,-0.001314,-0.011947,0.02123,0.00165,0.011953,-0.020412,0.009037,-0.521962,0.019986,-0.237047,-264.485228,1.493339,62.176066
2.1178,-0.000623,-0.011708,0.020416,0.001567,0.011917,-0.02123,0.009539,-0.521634,0.020891,-0.312143,-264.484892,1.499848,62.180285
2.1381,-0.001308,-0.011952,0.019199,0.000862,0.011693,-0.020416,0.009685,-0.52159,0.020576,-0.312143,-264.484892,1.499848,62.180285
2.1585,-0.000873,-0.011461,0.019255,0.001538,0.011924,-0.019199,0.009685,-0.52159,0.020576,-0.312143,-264.484892,1.499848,62.180285
2.1781,-0.000895,-0.011267,0.020829,0.001094,0.011442,-0.019255,0.009006,-0.520969,0.018566,-0.301455,-264.484202,1.503311,62.186998
2.1981,-0.00054,-0.011249,0.017607,0.001129,0.011246,-0.020829,0.009052,-0.520971,0.018689,-0.301455,-264.484202,1.503311,62.186998
2.2183,-0.000836,-0.01126,0.019432,0.000738,0.011238,-0.017607,0.008441,-0.521149,0.017571,-0.226579,-264.484173,1.505877,62.187448
2.2383,-0.000434,-0.011158,0.018588,0.001055,0.011242,-0.019432,0.008805,-0.521155,0.018634,-0.226579,-264.484173,1.505877,62.187448
2.2579,-0.000526,-0.011175,0.018557,0.000641,0.011148,-0.018588,0.008805,-0.521155,0.018634,-0.226579,-264.484173,1.505877,62.187448
2.2779,-0.000607,-0.011065,0.019222,0.000733,0.011164,-0.018557,0.008938,-0.521087,0.018557,-0.301725,-264.484173,1.523722,62.187451
2.2984,-0.000414,-0.01132,0.019912,0.00082,0.011051,-0.019222,0.008955,-0.521079,0.018602,-0.301725,-264.484173,1.523722,62.187451
2.3182,-0.000397,-0.011152,0.019569,0.00064,0.01131,-0.019912,0.009753,-0.521102,0.019708,-0.308465,-264.483905,1.542306,62.189954
2.3379,-8.9e-05,-0.01087,0.020509,0.000615,0.011142,-0.019569,0.009657,-0.52106,0.019603,-0.308465,-264.483905,1.542306,62.189954
2.3586,-0.00011,-0.011205,0.017904,0.000312,0.010866,-0.020509,0.009657,-0.52106,0.019603,-0.308465,-264.483905,1.542306,62.189954
2.3777,-0.000102,-0.010671,0.018984,0.00031,0.011202,-0.017904,0.009024,-0.521079,0.017829,-0.383577,-264.48387,1.534847,62.190704
2.3978,-0.000682,-0.011031,0.018935,0.000305,0.010667,-0.018984,0.009071,-0.521035,0.017925,-0.383577,-264.48387,1.534847,62.190704
2.4177,-0.000117,-0.011228,0.019566,0.000891,0.011016,-0.018935,0.008974,-0.520939,0.018935,-0.458991,-264.48387,1.557466,62.190705
2.4381,-0.000295,-0.011069,0.019188,0.000337,0.011224,-0.019566,0.009478,-0.521048,0.019294,-0.458991,-264.48387,1.557466,62.190705
2.458,-0.000576,-0.010794,0.018288,0.000507,0.011061,-0.019188,0.009478,-0.521048,0.019294,-0.458991,-264.48387,1.557466,62.190705
2.4777,0.000153,-0.011038,0.020136,0.000774,0.010781,-0.018288,0.00875,-0.520708,0.018288,-0.533427,-264.48387,1.557098,62.190706
2.4983,-0.0004,-0.010937,0.020022,7e-05,0.011039,-0.020136,0.008866,-0.520724,0.018416,-0.533427,-264.48387,1.557098,62.190706
2.5177,-0.000434,-0.010924,0.017325,0.000619,0.010927,-0.020022,0.009812,-0.520795,0.019953,-0.608432,-264.483839,1.548544,62.191551
2.5377,-0.000456,-0.011275,0.018865,0.000624,0.010915,-0.017325,0.009026,-0.520819,0.01848,-0.608432,-264.483839,1.548544,62.191551
2.5578,-0.000354,-0.011,0.017569,0.000669,0.011265,-0.018865,0.009026,-0.520819,0.01848,-0.608432,-264.483839,1.548544,62.191551
2.578,-0.000507,-0.011254,0.017406,0.000547,0.010993,-0.017569,0.008606,-0.520922,0.017569,-0.683424,-264.483839,1.567818,62.191552
2.598,-0.000538,-0.010726,0.018323,0.000703,0.011244,-0.017406,0.008589,-0.52094,0.017557,-0.683424,-264.483839,1.567818,62.191552
2.6181,-0.000172,-0.010733,0.017965,0.000734,0.010714,-0.018323,0.00881,-0.520556,0.018181,-0.608416,-264.483783,1.541457,62.193321
2.6394,-0.000188,-0.010872,0.01843,0.000365,0.010728,-0.017965,0.008912,-0.520599,0.01804,-0.608416,-264.483783,1.541457,62.193321
2.6582,-0.000133,-0.010719,0.018641,0.000388,0.010866,-0.01843,0.008912,-0.520599,0.01804,-0.608416,-264.483783,1.541457,62.193321
2.678,-0.000369,-0.010727,0.0184,0.000333,0.010714,-0.018641,0.009374,-0.52063,0.018641,-0.533395,-264.483783,1.538658,62.193322
2.6984,0.000106,-0.010583,0.017557,0.000566,0.010719,-0.0184,0.009349,-0.520631,0.018625,-0.533395,-264.483783,1.538658,62.193322
2.7179,4.8e-05,-0.01091,0.017951,8e-05,0.010584,-0.017557,0.009063,-0.520386,0.017356,-0.60839,-264.483706,1.553241,62.195826
2.7383,-5.9e-05,-0.010599,0.016995,0.000148,0.010909,-0.017951,0.009143,-0.520624,0.017671,-0.60839,-264.483706,1.553241,62.195826
2.7583,2e-05,-0.010718,0.015714,0.000239,0.010597,-0.016995,0.009143,-0.520624,0.017671,-0.60839,-264.483706,1.553241,62.195826
2.7781,0.000189,-0.010545,0.016923,0.000149,0.010717,-0.015714,0.008048,-0.520359,0.015202,-0.683484,-264.483475,1.545024,62.200849
2.7984,0.000171,-0.010322,0.018515,-1.1e-05,0.010547,-0.016923,0.008109,-0.520359,0.015323,-0.683484,-264.483475,1.545024,62.200849
2.8183,0.000394,-0.009958,0.017338,2e-05,0.010323,-0.018515,0.009613,-0.520235,0.018515,-0.608187,-264.483475,1.55938,62.20085
2.8385,0.000126,-0.010389,0.017234,2e-05,0.010323,-0.018515,0.009401,-0.520035,0.017852,-0.608187,-264.483475,1.55938,62.20085
2.8585,0.000658,-0.010392,0.019005,1e-06,0.0001,0.0,0.009401,-0.520035,0.017852,-0.608187,-264.483475,1.55938,62.20085
2.8782,0.000434,-0.010652,0.018097,1e-06,0.0001,0.0,0.010349,-0.5203,0.019005,-0.6828,-264.483475,1.571316,62.200851
2.8987,0.000269,-0.010418,0.016795,1e-06,0.0001,0.0,0.010292,-0.520323,0.018929,-0.6828,-264.483475,1.571316,62.200851
2.9181,0.000366,-0.010214,0.01631,1e-06,0.0001,0.0,0.008835,-0.520346,0.016795,-0.758386,-264.483475,1.565648,62.200851
2.9378,0.000409,-0.010234,0.018683,1e-06,0.0001,0.0,0.008749,-0.520232,0.016519,-0.758386,-264.483475,1.565648,62.200851
2.9579,0.000353,-0.01013,0.019359,1e-06,0.0001,0.0,0.008749,-0.520232,0.016519,-0.758386,-264.483475,1.565648,62.200851
2.978,0.000555,-0.010435,0.019255,1e-06,0.0001,0.0,0.010226,-0.520034,0.019359,-0.832841,-264.483475,1.565648,62.200851
2.9984,0.000201,-0.010402,0.019929,1e-06,0.0001,0.0,0.010237,-0.520058,0.019351,-0.832841,-264.483475,1.565648,62.200851
3.019,7.3e-05,-0.010135,0.01715,1e-06,0.0001,0.0,0.010363,-0.5203,0.019929,-0.908276,-264.483475,1.565648,62.200851
3.0381,0.000175,-0.010125,0.01758,1e-06,0.0001,0.0,0.009498,-0.520166,0.018371,-0.908276,-264.483475,1.565648,62.200851
3.0585,0.000237,-0.010169,0.017171,1e-06,0.0001,0.0,0.009498,-0.520166,0.018371,-0.908276,-264.483475,1.565648,62.200851
3.0779,8e-06,-0.010094,0.017866,8e-06,0.001525,-0.002529,0.008994,-0.520093,0.017171,-0.982807,-264.483475,1.565648,62.200851
3.0979,0.000356,-0.010039,0.017418,1.5e-05,0.002958,-0.004907,0.009004,-0.520087,0.01723,-0.982807,-264.483475,1.565648,62.200851
3.1178,0.000472,-0.010225,0.01783,2.2e-05,0.004324,-0.007173,0.009239,-0.519961,0.017418,-1.058235,-264.483475,1.565648,62.200851
3.138,0.000399,-0.010263,0.017234,2.9e-05,0.005611,-0.009307,0.009425,-0.520066,0.017653,-1.058235,-264.483475,1.565648,62.200851
3.158,0.000436,-0.010138,0.01784,3.5e-05,0.006815,-0.011304,0.009425,-0.520066,0.017653,-1.058235,-264.483475,1.565648,62.200851
3.1779,0.000464,-0.010387,0.017721,4.1e-05,0.00795,-0.013187,0.009532,-0.519951,0.017665,-1.132888,-264.483463,1.568239,62.202607
3.1981,0.000361,-0.010257,0.017613,4.6e-05,0.009005,-0.014937,0.00953,-0.519973,0.017664,-1.132888,-264.483463,1.568239,62.202607
3.2186,0.000328,-0.010178,0.016042,5.1e-05,0.009976,-0.016548,0.009341,-0.519973,0.017274,-1.195938,-264.483427,1.568239,62.206859
3.2378,0.000759,-0.009807,0.015609,5.6e-05,0.010868,-0.018028,0.008886,-0.520022,0.016556,-1.195938,-264.483427,1.568239,62.206859
3.2583,0.000594,-0.010253,0.018082,6e-05,0.011688,-0.019388,0.008886,-0.520022,0.016556,-1.195938,-264.483427,1.568239,62.206859
3.2782,0.001148,-0.009429,0.016858,6.4e-05,0.012429,-0.020617,0.009811,-0.519761,0.017403,-1.195938,-264.483376,1.568239,62.213612
3.2983,0.00114,-0.009606,0.016471,6.7e-05,0.013092,-0.021716,0.009806,-0.519726,0.017353,-1.195938,-264.483376,1.568239,62.213612
3.3178,0.001135,-0.009142,0.015615,7e-05,0.013676,-0.022684,0.009535,-0.519092,0.015733,-1.195938,-264.48331,1.568239,62.222865
3.3382,0.001626,-0.00919,0.01541,7.3e-05,0.014181,-0.023523,0.009288,-0.519029,0.015573,-1.195938,-264.48331,1.568239,62.222865
3.3582,0.0012,-0.008804,0.0163,7.5e-05,0.01461,-0.024235,0.009288,-0.519029,0.015573,-1.195938,-264.48331,1.568239,62.222865
3.3782,0.002482,-0.008301,0.013992,7.7e-05,0.014961,-0.024817,0.009505,-0.518099,0.015244,-1.195938,-264.483236,1.568239,62.233427
3.3984,0.001848,-0.008424,0.015502,7.8e-05,0.015234,-0.02527,0.009513,-0.518093,0.015125,-1.195938,-264.483236,1.568239,62.233427
3.4181,0.002843,-0.00756,0.014261,7.9e-05,0.015434,-0.025602,0.009748,-0.517799,0.014567,-1.195938,-264.483154,1.568239,62.24517
3.4381,0.002581,-0.007855,0.013341,8e-05,0.015546,-0.025787,0.009956,-0.517563,0.014275,-1.195938,-264.483154,1.568239,62.24517
3.458,0.002691,-0.007718,0.012762,8e-05,0.015585,-0.025852,0.009956,-0.517563,0.014275,-1.195938,-264.483154,1.568239,62.24517
3.4781,0.003155,-0.007134,0.013094,8e-05,0.015546,-0.025787,0.009194,-0.516935,0.011533,-1.195938,-264.483069,1.568239,62.257437
3.498,0.003028,-0.007129,0.011351,7.9e-05,0.015429,-0.025592,0.009237,-0.516927,0.011607,-1.195938,-264.483069,1.568239,62.257437
3.5178,0.003793,-0.00581,0.011284,7.8e-05,0.015231,-0.025265,0.008813,-0.516492,0.010348,-1.195938,-264.482981,1.568239,62.270008
3.5383,0.003871,-0.006291,0.01222,7.7e-05,0.014962,-0.024819,0.00923,-0.51601,0.010755,-1.195938,-264.482981,1.568239,62.270008
3.5579,0.004083,-0.006162,0.009444,7.5e-05,0.014612,-0.024238,0.00923,-0.51601,0.010755,-1.195938,-264.482981,1.568239,62.270008
3.5779,0.004476,-0.005422,0.00874,7.3e-05,0.014183,-0.023527,0.008897,-0.515389,0.008199,-1.195938,-264.482894,1.568239,62.28241
3.5986,0.00475,-0.005532,0.008577,7e-05,0.013675,-0.022683,0.008899,-0.515371,0.008204,-1.195938,-264.482894,1.568239,62.28241
3.6184,0.005221,-0.004562,0.008761,6.7e-05,0.013089,-0.021712,0.009123,-0.514946,0.007637,-1.195938,-264.482812,1.568239,62.294177
3.6381,0.004773,-0.004804,0.008135,6.4e-05,0.012432,-0.020621,0.009442,-0.514647,0.008152,-1.195938,-264.482812,1.568239,62.294177
3.6582,0.005325,-0.004418,0.00875,6e-05,0.011691,-0.019392,0.009442,-0.514647,0.008152,-1.195938,-264.482812,1.568239,62.294177
3.6782,0.005767,-0.003853,0.007776,5.6e-05,0.01087,-0.018031,0.009785,-0.513733,0.007646,-1.195938,-264.482735,1.568239,62.305207
3.6979,0.005592,-0.004054,0.008096,5.1e-05,0.009974,-0.016544,0.009781,-0.513722,0.007624,-1.195938,-264.482735,1.568239,62.305207
3.7184,0.006065,-0.003399,0.006657,4.6e-05,0.009001,-0.01493,0.00972,-0.513587,0.00735,-1.195938,-264.482669,1.568239,62.314605
3.7389,0.006115,-0.002933,0.006834,4.1e-05,0.007952,-0.013191,0.009573,-0.513417,0.006864,-1.195938,-264.482669,1.568239,62.314605
3.7586,0.006383,-0.003447,0.006864,3.5e-05,0.006823,-0.011317,0.009573,-0.513417,0.006864,-1.195938,-264.482669,1.568239,62.314605
3.7784,0.006427,-0.002912,0.005929,2.9e-05,0.005612,-0.009309,0.009884,-0.512947,0.006055,-1.195938,-264.482613,1.568239,62.322636
3.7985,0.006617,-0.002437,0.006283,2.2e-05,0.004325,-0.007175,0.00986,-0.512934,0.006031,-1.195938,-264.482613,1.568239,62.322636
3.8179,0.00702,-0.002233,0.005512,1.5e-05,0.00296,-0.00491,0.009821,-0.512163,0.005844,-1.195938,-264.482575,1.568239,62.328131
3.8378,0.006709,-0.002598,0.005647,8e-06,0.00152,-0.002522,0.009827,-0.512165,0.005601,-1.195938,-264.482575,1.568239,62.328131
3.8583,0.006968,-0.002404,0.005076,0.0,3e-06,-5e-06,0.009827,-0.512165,0.005601,-1.195938,-264.482575,1.568239,62.328131
3.8781,0.006791,-0.002555,0.004324,0.0,0.0,0.0,0.009557,-0.512187,0.004727,-1.195938,-264.482551,1.568239,62.331613
3.8981,0.007124,-0.002585,0.004798,0.0,0.0,0.0,0.009519,-0.512206,0.004691,-1.195938,-264.482551,1.568239,62.331613
3.9182,0.007105,-0.002156,0.005317,0.0,0.0,0.0,0.009571,-0.512579,0.004798,-1.195938,-264.482551,1.568239,62.331616
3.9379,0.007265,-0.002009,0.006349,0.0,0.0,0.0,0.00971,-0.512334,0.005093,-1.195938,-264.482551,1.568239,62.331616
3.9585,0.007137,-0.002209,0.00507,0.0,0.0,0.0,0.00971,-0.512334,0.005093,-1.195938,-264.482551,1.568239,62.331616
3.9779,0.007002,-0.002216,0.004557,0.0,0.0,0.0,0.009723,-0.512203,0.00507,-1.195938,-264.482551,1.568239,62.331616
3.9985,0.007144,-0.00227,0.004473,0.0,0.0,0.0,0.009697,-0.512203,0.005036,-1.195938,-264.482551,1.568239,62.331616
4.0179,0.007242,-0.00247,0.003951,0.0,0.0,0.0,0.009426,-0.512264,0.004473,-1.195938,-264.482551,1.568239,62.331616
4.0381,0.006993,-0.002544,0.005364,0.0,0.0,0.0,0.00933,-0.512378,0.004178,-1.195938,-264.482551,1.568239,62.331616
4.0578,0.007234,-0.002196,0.004149,0.0,0.0,0.0,0.00933,-0.512378,0.004178,-1.195938,-264.482551,1.568239,62.331616
4.0781,0.007186,-0.002432,0.005235,-9.6e-05,2.9e-05,0.0,0.00935,-0.512192,0.004149,-1.195938,-264.482551,1.568239,62.331616
4.0984,0.007079,-0.002198,0.004091,-9.6e-05,2.9e-05,0.0,0.009387,-0.512209,0.004229,-1.195938,-264.482551,1.568239,62.331616
4.1183,0.00711,-0.002035,0.005383,-9.6e-05,2.9e-05,0.0,0.009166,-0.512193,0.004091,-1.195938,-264.482551,1.568239,62.331616
4.1383,0.007052,-0.002105,0.002851,-9.6e-05,2.9e-05,0.0,0.009554,-0.5121,0.004818,-1.195938,-264.482551,1.568239,62.331616
4.1579,0.007437,-0.001921,0.003496,-9.6e-05,2.9e-05,0.0,0.009554,-0.5121,0.004818,-1.195938,-264.482551,1.568239,62.331616
4.1782,0.006744,-0.002252,0.003738,-9.6e-05,2.9e-05,0.0,0.00922,-0.511918,0.003496,-1.12107,-264.482551,1.493371,62.331616
4.1982,0.007208,-0.001929,0.004682,-9.6e-05,2.9e-05,0.0,0.009178,-0.511942,0.003514,-1.12107,-264.482551,1.493371,62.331616
4.2183,0.007181,-0.002302,0.004936,-9.6e-05,2.9e-05,0.0,0.009596,-0.511923,0.004682,-1.045977,-264.482551,1.418277,62.331616
4.2377,0.007276,-0.001991,0.00411,-9.6e-05,2.9e-05,0.0,0.009653,-0.512133,0.004825,-1.045977,-264.482551,1.418277,62.331616
4.2581,0.007122,-0.002357,0.004711,-9.6e-05,2.9e-05,0.0,0.009653,-0.512133,0.004825,-1.045977,-264.482551,1.418277,62.331616
4.2781,0.007032,-0.00227,0.005674,-9.6e-05,2.9e-05,0.0,0.009524,-0.512351,0.004711,-0.970975,-264.482551,1.343276,62.331616
4.2979,0.007148,-0.002137,0.006455,-0.001058,0.000326,-0.000608,0.00955,-0.512346,0.004772,-0.970975,-264.482551,1.343276,62.331616
4.318,0.007287,-0.002076,0.00445,-0.00206,0.000635,-0.001183,0.01044,-0.512126,0.006455,-0.896071,-264.482551,1.268372,62.331616
4.338,0.007334,-0.002304,0.004044,-0.00301,0.000927,-0.001728,0.009939,-0.512095,0.005318,-0.896071,-264.482551,1.268372,62.331616
4.3581,0.006927,-0.002095,0.003544,-0.003899,0.001201,-0.002239,0.009939,-0.512095,0.005318,-0.896071,-264.482551,1.268372,62.331616
4.3783,0.007033,-0.001888,0.005242,-0.004739,0.00146,-0.002721,0.008734,-0.512092,0.003544,-0.821059,-264.482551,1.19336,62.331616
4.3981,0.007072,-0.002257,0.004387,-0.005524,0.001702,-0.003172,0.0088,-0.512077,0.003659,-0.821059,-264.482551,1.19336,62.331616
4.418,0.007004,-0.002214,0.004175,-0.006277,0.001934,-0.003604,0.009309,-0.512252,0.004387,-0.746089,-264.482551,1.11839,62.331616
4.4381,0.007109,-0.001892,0.005149,-0.006935,0.002137,-0.003982,0.009209,-0.512228,0.004266,-0.746089,-264.482551,1.11839,62.331616
4.458,0.007097,-0.001818,0.004164,-0.007557,0.002328,-0.004339,0.009209,-0.512228,0.004266,-0.746089,-264.482551,1.11839,62.331616
4.478,0.007033,-0.002442,0.0034,-0.008127,0.002504,-0.004667,0.009221,-0.511814,0.004164,-0.670974,-264.482551,1.043275,62.331616
4.4983,0.00722,-0.001834,0.004288,-0.008641,0.002662,-0.004962,0.009189,-0.511857,0.004111,-0.670974,-264.482551,1.043275,62.331616
4.5185,0.007265,-0.002078,0.005172,-0.009103,0.002804,-0.005227,0.009407,-0.511829,0.004288,-0.596078,-264.482551,0.968379,62.331616
4.5384,0.007298,-0.002187,0.004554,-0.00951,0.00293,-0.005461,0.009691,-0.511968,0.004795,-0.596078,-264.482551,0.968379,62.331616
4.5586,0.0071,-0.0021,0.002465,-0.009861,0.003038,-0.005663,0.009691,-0.511968,0.004795,-0.596078,-264.482551,0.968379,62.331616
4.5782,0.007378,-0.002219,0.006314,-0.01016,0.00313,-0.005834,0.008357,-0.512099,0.002465,-0.520933,-264.482551,0.893234,62.331616
4.5978,0.007151,-0.00231,0.004749,-0.010405,0.003206,-0.005975,0.008503,-0.512106,0.002716,-0.520933,-264.482551,0.893234,62.331616
4.619,0.00704,-0.001546,0.003167,-0.010599,0.003265,-0.006086,0.009573,-0.512304,0.004749,-0.446083,-264.482551,0.818384,62.331616
4.6383,0.007307,-0.00207,0.005697,-0.01073,0.003306,-0.006162,0.009053,-0.511873,0.003853,-0.446083,-264.482551,0.818384,62.331616
4.6581,0.006946,-0.002038,0.004134,-0.010811,0.003331,-0.006208,0.009053,-0.511873,0.003853,-0.446083,-264.482551,0.818384,62.331616
4.6777,0.007364,-0.00218,0.004354,-0.010838,0.003339,-0.006223,0.009054,-0.512034,0.004134,-0.371044,-264.482551,0.743344,62.331616
4.6984,0.007134,-0.002184,0.004579,-0.010811,0.003331,-0.006208,0.009097,-0.512045,0.004152,-0.371044,-264.482551,0.743344,62.331616
4.7182,0.006875,-0.002406,0.004839,-0.01073,0.003306,-0.006161,0.009469,-0.512179,0.004579,-0.295545,-264.482551,0.667846,62.331616
4.7378,0.006868,-0.002297,0.005864,-0.010594,0.003264,-0.006084,0.009398,-0.512303,0.004725,-0.295545,-264.482551,0.667846,62.331616
4.758,0.007394,-0.001993,0.00435,-0.010405,0.003206,-0.005975,0.009398,-0.512303,0.004725,-0.295545,-264.482551,0.667846,62.331616
4.7778,0.007589,-0.001787,0.003387,-0.010161,0.003131,-0.005835,0.009613,-0.511988,0.00435,-0.220934,-264.482551,0.593235,62.331616
4.7977,0.006795,-0.002351,0.002327,-0.009864,0.003039,-0.005664,0.009592,-0.511973,0.004281,-0.220934,-264.482551,0.593235,62.331616
4.8178,0.007076,-0.001984,0.00329,-0.009511,0.00293,-0.005462,0.007982,-0.51235,0.002327,-0.145933,-264.482551,0.518234,62.331616
4.8383,0.007011,-0.002141,0.004801,-0.009103,0.002805,-0.005227,0.008424,-0.512139,0.002878,-0.145933,-264.482551,0.518234,62.331616
4.8578,0.00722,-0.002169,0.004218,-0.008645,0.002663,-0.004964,0.008424,-0.512139,0.002878,-0.145933,-264.482551,0.518234,62.331616
4.8785,0.007068,-0.001966,0.004312,-0.008126,0.002504,-0.004666,0.009371,-0.512164,0.004218,-0.070979,-264.482551,0.44328,62.331615
4.8985,0.006951,-0.002203,0.003847,-0.007561,0.002329,-0.004342,0.009364,-0.512151,0.004224,-0.070979,-264.482551,0.44328,62.331615
4.9177,0.007147,-0.002199,0.004336,-0.006938,0.002138,-0.003984,0.008913,-0.512199,0.003847,0.003921,-264.482551,0.368379,62.331615
4.938,0.007188,-0.002245,0.003806,-0.00626,0.001928,-0.003594,0.009164,-0.512197,0.004123,0.003921,-264.482551,0.368379,62.331615
4.958,0.007343,-0.00194,0.005507,-0.00553,0.001704,-0.003175,0.009164,-0.512197,0.004123,0.003921,-264.482551,0.368379,62.331615
4.9782,0.00725,-0.001952,0.00439,-0.004744,0.001462,-0.002724,0.010152,-0.511933,0.005507,0.042598,-264.482552,0.293229,62.331615
4.9986,0.007421,-0.002059,0.004506,-0.003905,0.001203,-0.002242,0.010109,-0.511934,0.005434,0.042598,-264.482552,0.293229,62.331615
5.0179,0.007467,-0.00161,0.004802,-0.00301,0.000927,-0.001729,0.009719,-0.512053,0.004506,0.042598,-264.482552,0.218381,62.331614
5.0379,0.00691,-0.002209,0.00479,-0.002059,0.000634,-0.001182,0.00983,-0.511801,0.004672,0.042598,-264.482552,0.218381,62.331614
5.0584,0.007236,-0.002358,0.003531,-0.001057,0.000326,-0.000607,0.00983,-0.511801,0.004672,0.042598,-264.482552,0.218381,62.331614
5.0783,0.00722,-0.002197,0.004955,0.0,0.0,0.0,0.009037,-0.512354,0.003531,0.042598,-264.482552,0.143297,62.331614
5.0982,0.00719,-0.002314,0.004185,0.0,0.0,0.0,0.009078,-0.512345,0.003613,0.042598,-264.482552,0.143297,62.331614
5.1177,0.006871,-0.002224,0.005728,0.0,0.0,0.0,0.009324,-0.51231,0.004185,0.042598,-264.482552,0.068363,62.331614
5.1381,0.007345,-0.002339,0.003607,0.0,0.0,0.0,0.00959,-0.512257,0.005062,0.042598,-264.482552,0.068363,62.331614
5.158,0.007016,-0.002036,0.00352,0.0,0.0,0.0,0.00959,-0.512257,0.005062,0.042598,-264.482552,0.068363,62.331614
5.1777,0.007129,-0.00216,0.005362,0.0,0.0,0.0,0.008812,-0.512033,0.00352,0.042598,-264.482552,0.068363,62.331614
5.1978,0.006975,-0.002455,0.005156,0.0,0.0,0.0,0.008885,-0.512041,0.003649,0.042598,-264.482552,0.068363,62.331614
5.2182,0.006849,-0.002338,0.005161,0.0,0.0,0.0,0.009605,-0.512448,0.005156,0.042598,-264.482552,0.068363,62.331614
5.2386,0.00727,-0.002114,0.003706,0.0,0.0,0.0,0.009534,-0.512381,0.005159,0.042598,-264.482552,0.068363,62.331614
5.2582,0.007446,-0.002171,0.004637,0.0,0.0,0.0,0.009534,-0.512381,0.005159,0.042598,-264.482552,0.068363,62.331614
5.2779,0.007367,-0.002201,0.005291,0.0,0.0,0.0,0.009811,-0.512165,0.004637,0.042598,-264.482552,0.068363,62.331614
5.2982,0.007198,-0.002503,0.00616,0.0,0.0,0.0,0.009829,-0.512167,0.004684,0.042598,-264.482552,0.068363,62.331614
5.3186,0.007224,-0.002222,0.003884,-9.4e-05,3.3e-05,0.0,0.01034,-0.512494,0.00616,0.042598,-264.482552,0.068363,62.331614
5.3382,0.006948,-0.002237,0.003379,-9.4e-05,3.3e-05,0.0,0.009687,-0.512335,0.004851,0.042598,-264.482552,0.068363,62.331614
5.3582,0.007165,-0.001688,0.004685,-9.4e-05,3.3e-05,0.0,0.009687,-0.512335,0.004851,0.042598,-264.482552,0.068363,62.331614
5.3779,0.007282,-0.002058,0.004366,-9.4e-05,3.3e-05,0.0,0.009554,-0.511682,0.004685,0.042598,-264.482552,0.068363,62.331614
5.3978,0.007488,-0.002284,0.003656,-9.4e-05,3.3e-05,0.0,0.009551,-0.511708,0.004663,0.042598,-264.482552,0.068363,62.331614
5.418,0.006758,-0.002238,0.004008,-9.4e-05,3.3e-05,0.0,0.009352,-0.51228,0.003656,-0.032247,-264.482552,-0.006482,62.331614
5.4377,0.007447,-0.001843,0.003559,-9.4e-05,3.3e-05,0.0,0.009037,-0.512254,0.003857,-0.032247,-264.482552,-0.006482,62.331614
5.4579,0.007313,-0.002212,0.003455,-9.4e-05,3.3e-05,0.0,0.009037,-0.512254,0.003857,-0.032247,-264.482552,-0.006482,62.331614
5.4777,0.007459,-0.002397,0.004712,-9.4e-05,3.3e-05,0.0,0.009075,-0.512209,0.003455,-0.107327,-264.482554,-0.081562,62.331612
5.4977,0.006992,-0.002189,0.004108,-9.4e-05,3.3e-05,0.0,0.009134,-0.512222,0.003549,-0.107327,-264.482554,-0.081562,62.331612
5.5178,0.006952,-0.001958,0.005111,-2.8e-05,1e-05,-2.4e-05,0.009087,-0.512185,0.004108,-0.182393,-264.482559,-0.156628,62.331607
5.5377,0.006973,-0.002706,0.005196,-0.001047,0.000371,-0.000898,0.009357,-0.512051,0.004683,-0.182393,-264.482559,-0.156628,62.331607
5.5578,0.007084,-0.002415,0.003569,-0.002041,0.000724,-0.00175,0.009357,-0.512051,0.004683,-0.182393,-264.482559,-0.156628,62.331607
5.5778,0.007196,-0.002449,0.004714,-0.002986,0.001059,-0.002561,0.008902,-0.512411,0.003569,-0.257346,-264.482575,-0.231581,62.331591
5.5979,0.006944,-0.002442,0.002699,-0.003874,0.001374,-0.003322,0.008949,-0.512413,0.003646,-0.257346,-264.482575,-0.231581,62.331591
5.6184,0.007009,-0.002217,0.00529,-0.004711,0.001671,-0.00404,0.008321,-0.51244,0.002699,-0.182417,-264.482575,-0.30651,62.33159
5.638,0.007051,-0.00238,0.003325,-0.005495,0.001949,-0.004712,0.009108,-0.512309,0.00417,-0.182417,-264.482575,-0.30651,62.33159
5.6586,0.006609,-0.002226,0.004504,-0.006218,0.002205,-0.005332,0.009108,-0.512309,0.00417,-0.182417,-264.482575,-0.30651,62.33159
5.6778,0.006979,-0.002252,0.005327,-0.006894,0.002445,-0.005912,0.008904,-0.512221,0.004503,-0.107442,-264.482588,-0.381485,62.331574
5.6982,0.007146,-0.002156,0.004834,-0.007511,0.002664,-0.006442,0.00896,-0.512222,0.004561,-0.107442,-264.482588,-0.381485,62.331574
5.7183,0.00753,-0.001868,0.004529,-0.008078,0.002865,-0.006928,0.0096,-0.512147,0.004829,-0.032466,-264.482701,-0.456461,62.331425
5.7377,0.007339,-0.002217,0.003203,-0.00859,0.003047,-0.007367,0.009734,-0.511985,0.004658,-0.032466,-264.482701,-0.456461,62.331425
5.758,0.007231,-0.0022,0.002532,-0.009048,0.003209,-0.007759,0.009734,-0.511985,0.004658,-0.032466,-264.482701,-0.456461,62.331425
5.778,0.007358,-0.002083,0.004845,-0.009452,0.003353,-0.008106,0.008456,-0.512179,0.002496,0.042639,-264.483217,-0.531566,62.330749
5.7981,0.007332,-0.002173,0.005577,-0.009803,0.003477,-0.008407,0.00855,-0.512171,0.002658,0.042639,-264.483217,-0.531566,62.330749
5.818,0.006754,-0.002317,0.003234,-0.0101,0.003582,-0.008661,0.010015,-0.512117,0.005467,0.117541,-264.484822,-0.606468,62.328641
5.8382,0.006733,-0.001883,0.005028,-0.010343,0.003669,-0.00887,0.009078,-0.512223,0.004183,0.117541,-264.484822,-0.606468,62.328641
5.8578,0.007011,-0.002006,0.00433,-0.010531,0.003735,-0.009031,0.009078,-0.512223,0.004183,0.117541,-264.484822,-0.606468,62.328641
5.8779,0.006635,-0.002122,0.006367,-0.010666,0.003783,-0.009147,0.008841,-0.511879,0.004024,0.167484,-264.487921,-0.681464,62.324575
5.8983,0.006702,-0.001736,0.004994,-0.010747,0.003812,-0.009216,0.008904,-0.511892,0.00418,0.167484,-264.487921,-0.681464,62.324575
5.9178,0.005957,-0.00207,0.004589,-0.010774,0.003821,-0.009239,0.008851,-0.511591,0.004653,0.167484,-264.492088,-0.720791,62.319106
5.9378,0.006404,-0.001692,0.003582,-0.010747,0.003812,-0.009217,0.008486,-0.511843,0.004573,0.167484,-264.492088,-0.720791,62.319106
5.958,0.006613,-0.001484,0.0024,-0.010667,0.003783,-0.009148,0.008486,-0.511843,0.004573,0.167484,-264.492088,-0.720791,62.319106
5.978,0.006083,-0.001467,0.002083,-0.010532,0.003736,-0.009032,0.007315,-0.511298,0.001952,0.167484,-264.496448,-0.720791,62.313384
5.9984,0.005828,-0.001414,0.00329,-0.010344,0.003669,-0.008871,0.007289,-0.511305,0.001949,0.167484,-264.496448,-0.720791,62.313384
6.0182,0.005612,-0.001447,0.002894,-0.0101,0.003583,-0.008662,0.007094,-0.511266,0.002936,0.167484,-264.50078,-0.720791,62.307698
6.0383,0.005943,-0.001305,0.00203,-0.009806,0.003478,-0.008409,0.007038,-0.51135,0.002867,0.167484,-264.50078,-0.720791,62.307698
6.0579,0.005732,-0.001646,0.002138,-0.009456,0.003354,-0.008109,0.007038,-0.51135,0.002867,0.167484,-264.50078,-0.720791,62.307698
6.0778,0.005688,-0.001346,0.001314,-0.009052,0.003211,-0.007763,0.00632,-0.511467,0.001708,0.167484,-264.504977,-0.720791,62.30219
6.0983,0.005919,-0.001434,0.000928,-0.008595,0.003049,-0.007371,0.006309,-0.511453,0.001667,0.167484,-264.504977,-0.720791,62.30219
6.118,0.005615,-0.00122,0.004224,-0.008083,0.002867,-0.006932,0.006028,-0.511305,0.000615,0.167484,-264.508823,-0.720791,62.297142
6.1387,0.005298,-0.000896,0.000736,-0.007519,0.002667,-0.006448,0.006986,-0.511237,0.002657,0.167484,-264.508823,-0.720791,62.297142
6.1581,0.005037,-0.000836,0.001918,-0.006899,0.002447,-0.005917,0.006986,-0.511237,0.002657,0.167484,-264.508823,-0.720791,62.297142
6.1778,0.004228,-0.000776,0.001122,-0.006226,0.002208,-0.005339,0.005598,-0.510688,0.001561,0.167484,-264.512301,-0.720791,62.292578
6.1982,0.004876,-0.001029,0.001337,-0.005499,0.00195,-0.004716,0.005532,-0.51069,0.001521,0.167484,-264.512301,-0.720791,62.292578
6.2182,0.004648,-0.001267,0.001902,-0.004717,0.001673,-0.004046,0.005292,-0.510934,0.001109,0.167484,-264.515096,-0.720791,62.28891
6.238,0.005037,-0.000767,0.001136,-0.003885,0.001378,-0.003331,0.005444,-0.511111,0.001532,0.167484,-264.515096,-0.720791,62.28891
6.2581,0.004943,-0.001104,0.001815,-0.002994,0.001062,-0.002567,0.005444,-0.511111,0.001532,0.167484,-264.515096,-0.720791,62.28891
6.2781,0.004723,-0.000807,0.000627,-0.002052,0.000728,-0.001759,0.005601,-0.511009,0.001586,0.167484,-264.517327,-0.720791,62.285982
6.2983,0.004608,-0.000526,-0.000419,-0.001056,0.000375,-0.000906,0.005555,-0.510992,0.001513,0.167484,-264.517327,-0.720791,62.285982
6.3179,0.004625,-0.000435,0.000355,0.0,0.0,0.0,0.004279,-0.510485,-0.000518,0.167484,-264.518541,-0.720791,62.284388
6.3379,0.004404,-0.00128,-0.000527,0.0,0.0,0.0,0.004563,-0.510452,-3.5e-05,0.167484,-264.518541,-0.720791,62.284388
6.358,0.004554,-0.000824,0.001186,0.0,0.0,0.0,0.004563,-0.510452,-3.5e-05,0.167484,-264.518541,-0.720791,62.284388
6.3782,0.004369,-0.000475,0.002081,0.0,0.0,0.0,0.005107,-0.510806,0.001141,0.167484,-264.51897,-0.720791,62.283825
6.3978,0.00439,-0.000402,0.001377,0.0,0.0,0.0,0.005128,-0.510783,0.001205,0.167484,-264.51897,-0.720791,62.283825
6.418,0.004392,-0.000448,0.000789,0.0,0.0,0.0,0.005092,-0.510402,0.001377,0.167484,-264.51897,-0.720791,62.283825
6.438,0.004354,-0.000498,0.001263,0.0,0.0,0.0,0.00492,-0.510429,0.001037,0.167484,-264.51897,-0.720791,62.283825
6.4587,0.004611,-0.000588,-6.5e-05,0.0,0.0,0.0,0.00492,-0.510429,0.001037,0.167484,-264.51897,-0.720791,62.283825
6.4778,0.004636,-0.00028,-0.000192,0.0,0.0,0.0,0.004578,-0.510588,-6.5e-05,0.167484,-264.51897,-0.720791,62.283825
6.4984,0.004442,-0.000591,0.000378,0.0,0.0,0.0,0.004575,-0.510567,-7.4e-05,0.167484,-264.51897,-0.720791,62.283825
6.5183,0.004496,-0.000579,-0.000391,0.0,0.0,0.0,0.004635,-0.510591,0.000378,0.167484,-264.51897,-0.720791,62.283825
6.5378,0.004693,-0.001039,0.001421,0.0,0.0,0.0,0.004442,-0.510584,-6.2e-05,0.167484,-264.51897,-0.720791,62.283825
6.5579,0.004542,-0.000616,0.001328,-9.8e-05,2.2e-05,0.0,0.004442,-0.510584,-6.2e-05,0.167484,-264.51897,-0.720791,62.283825
6.5778,0.004769,-0.000603,9.2e-05,-9.8e-05,2.2e-05,0.0,0.005219,-0.510615,0.001328,0.167484,-264.51897,-0.720791,62.283825
6.5983,0.004699,-0.000385,0.001362,-9.8e-05,2.2e-05,0.0,0.005193,-0.510615,0.001248,0.167484,-264.51897,-0.720791,62.283825
6.6179,0.00475,-0.000687,0.001898,-9.8e-05,2.2e-05,0.0,0.005394,-0.510385,0.001362,0.092608,-264.51897,-0.645915,62.283825
6.6378,0.004366,-0.000542,-5.7e-05,-9.8e-05,2.2e-05,0.0,0.005579,-0.510556,0.001668,0.092608,-264.51897,-0.645915,62.283825
6.6579,0.004434,-0.000266,0.000272,-9.8e-05,2.2e-05,0.0,0.005579,-0.510556,0.001668,0.092608,-264.51897,-0.645915,62.283825
6.6778,0.00454,-0.000393,0.000413,-9.8e-05,2.2e-05,0.0,0.004573,-0.510266,0.000272,0.017616,-264.51897,-0.570923,62.283825
6.698,0.0048,-0.000518,-0.001517,-9.8e-05,2.2e-05,0.0,0.004585,-0.510275,0.000282,0.017616,-264.51897,-0.570923,62.283825
6.7186,0.004675,-0.00082,0.000567,-9.8e-05,2.2e-05,0.0,0.004026,-0.510517,-0.001517,-0.057565,-264.518972,-0.495742,62.283823
6.738,0.004556,-0.000462,0.001197,-9.8e-05,2.2e-05,0.0,0.00456,-0.51069,-0.000331,-0.057565,-264.518972,-0.495742,62.283823
6.7585,0.004604,-0.000766,0.000259,-0.0,0.0,-0.0,0.00456,-0.51069,-0.000331,-0.057565,-264.518972,-0.495742,62.283823
6.7783,0.004296,-0.000917,0.001487,-0.000689,0.000154,-0.000209,0.004735,-0.510766,0.000259,-0.132387,-264.51898,-0.42092,62.283815
6.7982,0.004427,-0.00083,0.000916,-0.001338,0.000298,-0.000405,0.004757,-0.510776,0.000344,-0.132387,-264.51898,-0.42092,62.283815
6.8177,0.004367,-0.000605,0.000896,-0.001956,0.000436,-0.000592,0.004895,-0.51083,0.000916,-0.05739,-264.51898,-0.387212,62.283815
6.8377,0.004634,-0.000794,0.000364,-0.002537,0.000566,-0.000768,0.004854,-0.510701,0.000905,-0.05739,-264.51898,-0.387212,62.283815
6.858,0.00485,-0.000714,0.000703,-0.00308,0.000686,-0.000932,0.004854,-0.510701,0.000905,-0.05739,-264.51898,-0.387212,62.283815
6.8784,0.004285,-0.001133,0.000418,-0.00359,0.0008,-0.001087,0.005145,-0.5107,0.000684,-0.037965,-264.519512,-0.387212,62.283241
6.898,0.004623,-0.000337,7e-05,-0.004065,0.000906,-0.001231,0.005098,-0.51073,0.000665,-0.037965,-264.519512,-0.387212,62.283241
6.9179,0.004427,-0.00048,-0.000361,-0.004505,0.001004,-0.001364,0.00454,-0.510311,3.4e-05,-0.037965,-264.520745,-0.387212,62.281911
6.9379,0.004312,-0.000979,0.00091,-0.004914,0.001095,-0.001488,0.004356,-0.510404,-0.000195,-0.037965,-264.520745,-0.387212,62.281911
6.958,0.004456,-0.000252,0.000341,-0.005279,0.001177,-0.001598,0.004356,-0.510404,-0.000195,-0.037965,-264.520745,-0.387212,62.281911
6.9777,0.004094,-0.000971,0.001082,-0.005614,0.001251,-0.0017,0.004432,-0.510208,0.000281,-0.037965,-264.522372,-0.387212,62.280155
6.9983,0.004092,-0.000802,-0.000104,-0.005912,0.001318,-0.00179,0.004441,-0.51026,0.000335,-0.037965,-264.522372,-0.387212,62.280155
7.0181,0.003826,-0.000508,0.001178,-0.006176,0.001377,-0.00187,0.003835,-0.510757,-0.000165,-0.037965,-264.524485,-0.387212,62.277874
7.0385,0.004097,-8.9e-05,-0.000103,-0.006405,0.001428,-0.001939,0.004146,-0.510609,0.000592,-0.037965,-264.524485,-0.387212,62.277874
7.0582,0.004262,-0.000501,0.000103,-0.006599,0.001471,-0.001998,0.004146,-0.510609,0.000592,-0.037965,-264.524485,-0.387212,62.277874
7.0779,0.003971,-0.000548,-0.000224,-0.006757,0.001506,-0.002046,0.004027,-0.510437,1.6e-05,-0.037965,-264.526859,-0.387212,62.275313
7.0979,0.003816,-0.00062,9e-05,-0.00688,0.001533,-0.002083,0.004006,-0.510443,-4e-06,-0.037965,-264.526859,-0.387212,62.275313
7.1182,0.003754,-0.000434,0.00044,-0.006968,0.001553,-0.00211,0.003608,-0.510563,1.3e-05,-0.037965,-264.529507,-0.387212,62.272455
7.1382,0.003449,-0.000508,-0.000746,-0.007021,0.001565,-0.002126,0.00379,-0.510481,0.000251,-0.037965,-264.529507,-0.387212,62.272455
7.1582,0.003775,-0.000555,-0.000124,-0.007038,0.001569,-0.002131,0.00379,-0.510481,0.000251,-0.037965,-264.529507,-0.387212,62.272455
7.1782,0.003343,-0.000205,0.000671,-0.00702,0.001565,-0.002125,0.003379,-0.510481,-0.000225,-0.037965,-264.532245,-0.387212,62.2695
7.1982,0.002968,-0.000202,0.000362,-0.006967,0.001553,-0.002109,0.00339,-0.510461,-0.000169,-0.037965,-264.532245,-0.387212,62.2695
