mach0312/omni-docking-bench/src/icros_test_setup/results/kinematic_sample/timeseries/trial_087.csv
t,x,y,yaw,vx,vy,wz,bl_x,bl_y,bl_yaw,front_steering_joint,front_wheel_joint,rear_steering_joint,rear_wheel_joint
0.0,0.061337,0.019045,-0.066007,0.0,0.0,0.0,0.027336,-0.489679,-0.066652,0.081054,-263.976426,-0.401412,62.561669
0.0004,0.061305,0.019035,-0.066079,0.0,0.0,0.0,0.027041,-0.489791,-0.067106,0.081054,-263.976426,-0.401412,62.561669
0.0008,0.061218,0.019217,-0.068419,0.0,0.0,0.0,0.027041,-0.489791,-0.067106,0.081054,-263.976426,-0.401412,62.561669
0.0011,0.06152,0.018955,-0.068021,0.0,0.0,0.0,0.027041,-0.489791,-0.067106,0.081054,-263.976426,-0.401412,62.561669
0.0015,0.061297,0.01882,-0.067541,-9.9e-05,1.4e-05,0.0,0.027095,-0.48987,-0.067183,0.081054,-263.976426,-0.401412,62.561669
0.0018,0.061087,0.019116,-0.066955,-9.9e-05,1.4e-05,0.0,0.027084,-0.489873,-0.067163,0.006045,-263.976432,-0.326403,62.561663
0.002,0.061211,0.018988,-0.067107,-9.9e-05,1.4e-05,0.0,0.027084,-0.489873,-0.067163,-0.068948,-263.976448,-0.251409,62.561647
0.0023,0.061609,0.018961,-0.067403,-9.9e-05,1.4e-05,0.0,0.027304,-0.4899,-0.067091,-0.068948,-263.976448,-0.251409,62.561647
0.0026,0.061384,0.018861,-0.066835,-9.9e-05,1.4e-05,0.0,0.027304,-0.4899,-0.067091,-0.068948,-263.976448,-0.251409,62.561647
0.0028,0.061137,0.019203,-0.065873,-9.9e-05,1.4e-05,0.0,0.027527,-0.489869,-0.066475,-0.068948,-263.976448,-0.251409,62.561647
0.0063,0.061147,0.01925,-0.068282,-9.9e-05,1.4e-05,0.0,0.027565,-0.48969,-0.065873,-0.068948,-263.976448,-0.251409,62.561647
0.026,0.061103,0.019119,-0.0678,-0.016099,-0.015986,0.03,0.026875,-0.489617,-0.067241,-0.068948,-263.976448,-0.251409,62.561647
0.046,0.060927,0.01871,-0.065845,-0.032099,-0.023215,0.05,0.026875,-0.489617,-0.067241,-0.068948,-263.976448,-0.251409,62.561647
0.0661,0.0616,0.019083,-0.067418,-0.048099,-0.022678,0.05,0.027367,-0.490184,-0.065845,-0.143412,-263.976479,-0.176408,62.561616
0.0859,0.061441,0.018976,-0.068428,-0.060174,-0.02319,0.05,0.027358,-0.490155,-0.065954,-0.143412,-263.976479,-0.176408,62.561616
0.1066,0.06113,0.019189,-0.066345,-0.059999,-0.023133,0.05,0.026569,-0.48983,-0.068428,-0.218407,-263.97648,-0.101413,62.561614
0.1264,0.061472,0.019119,-0.068286,-0.059723,-0.0232,0.05,0.026992,-0.48975,-0.067252,-0.218407,-263.97648,-0.101413,62.561614
0.1465,0.061181,0.019081,-0.065821,-0.060024,-0.023269,0.05,0.026992,-0.48975,-0.067252,-0.218407,-263.97648,-0.101413,62.561614
0.1667,0.061168,0.01929,-0.065532,-0.059793,-0.023063,0.05,0.027636,-0.489815,-0.065821,-0.143407,-263.976482,-0.026412,62.561611
0.1866,0.061405,0.019095,-0.067563,-0.059773,-0.023254,0.05,0.027645,-0.489802,-0.065802,-0.143407,-263.976482,-0.026412,62.561611
0.2061,0.060886,0.018891,-0.066651,-0.059976,-0.023197,0.05,0.026974,-0.489742,-0.067563,-0.120512,-263.976485,0.048601,62.561607
0.2266,0.061192,0.019003,-0.067326,-0.059493,-0.022904,0.05,0.026943,-0.489874,-0.067049,-0.120512,-263.976485,0.048601,62.561607
0.2464,0.060925,0.018853,-0.065518,-0.059774,-0.023077,0.05,0.026943,-0.489874,-0.067049,-0.120512,-263.976485,0.048601,62.561607
0.2664,0.061487,0.019152,-0.067965,-0.05956,-0.022802,0.05,0.027533,-0.490052,-0.065518,-0.121253,-263.976495,0.123608,62.561594
0.2865,0.061272,0.019255,-0.067427,-0.060044,-0.023284,0.05,0.027478,-0.490022,-0.065714,-0.121253,-263.976495,0.123608,62.561594
0.3062,0.06121,0.018697,-0.066993,-0.059836,-0.023339,0.05,0.026905,-0.489586,-0.067426,-0.124168,-263.97654,0.199221,62.561533
0.326,0.060981,0.019027,-0.067612,-0.059821,-0.022752,0.05,0.026997,-0.489909,-0.067182,-0.124168,-263.97654,0.199221,62.561533
0.346,0.060927,0.018888,-0.066904,-0.059556,-0.023104,0.05,0.026997,-0.489909,-0.067182,-0.124168,-263.97654,0.199221,62.561533
0.3664,0.061294,0.019001,-0.067187,-0.059527,-0.022919,0.05,0.026802,-0.489972,-0.066894,-0.120226,-263.976752,0.273631,62.561251
0.3866,0.061038,0.019021,-0.067747,-0.05988,-0.023073,0.05,0.026818,-0.489964,-0.066914,-0.120226,-263.976752,0.273631,62.561251
0.4061,0.061265,0.019083,-0.066256,-0.05961,-0.023109,0.05,0.026433,-0.489815,-0.067714,-0.124176,-263.977472,0.348886,62.56029
0.4261,0.061057,0.019203,-0.067428,-0.059868,-0.023097,0.05,0.027022,-0.489807,-0.066891,-0.124176,-263.977472,0.348886,62.56029
0.4463,0.061001,0.019124,-0.066298,-0.059624,-0.023273,0.05,0.027022,-0.489807,-0.066891,-0.124176,-263.977472,0.348886,62.56029
0.4661,0.060309,0.018797,-0.068128,-0.0596,-0.023124,0.05,0.026913,-0.489793,-0.06615,-0.124012,-263.97969,0.423702,62.557335
0.4864,0.060751,0.019588,-0.066449,-0.05889,-0.022858,0.05,0.026815,-0.489809,-0.066281,-0.124012,-263.97969,0.423702,62.557335
0.5059,0.060138,0.019209,-0.06786,-0.059316,-0.023579,0.05,0.026424,-0.489354,-0.066198,-0.121242,-263.984408,0.498588,62.55188
0.5263,0.059538,0.018902,-0.066875,-0.058697,-0.023243,0.05,0.025871,-0.489513,-0.067113,-0.121242,-263.984408,0.498588,62.55188
0.5461,0.059748,0.018825,-0.065621,-0.058141,-0.022838,0.05,0.025871,-0.489513,-0.067113,-0.121242,-263.984408,0.498588,62.55188
0.566,0.058803,0.018808,-0.066452,-0.058385,-0.022702,0.05,0.02545,-0.490228,-0.065097,-0.129665,-263.991637,0.573595,62.543912
0.5862,0.058767,0.018789,-0.064702,-0.057424,-0.022671,0.05,0.025395,-0.490221,-0.065173,-0.129665,-263.991637,0.573595,62.543912
0.6061,0.057206,0.018694,-0.065616,-0.057429,-0.022549,0.05,0.024913,-0.490331,-0.064102,-0.131661,-264.001346,0.648724,62.533467
0.6263,0.057109,0.018776,-0.065451,-0.055858,-0.022404,0.05,0.024153,-0.490286,-0.064878,-0.131661,-264.001346,0.648724,62.533467
0.6461,0.056836,0.018532,-0.065132,-0.055758,-0.022471,0.05,0.024153,-0.490286,-0.064878,-0.131661,-264.001346,0.648724,62.533467
0.6662,0.055181,0.018313,-0.064147,-0.05551,-0.022192,0.05,0.022291,-0.490721,-0.064112,-0.136134,-264.013562,0.723613,62.520514
0.6859,0.054932,0.018129,-0.064803,-0.053893,-0.021812,0.05,0.02227,-0.490724,-0.064089,-0.136134,-264.013562,0.723613,62.520514
0.7058,0.05287,0.017891,-0.062377,-0.053643,-0.021648,0.05,0.020639,-0.491133,-0.063795,-0.143668,-264.028303,0.760123,62.505034
0.7259,0.05255,0.017616,-0.06205,-0.051652,-0.021152,0.05,0.020731,-0.491166,-0.062853,-0.143668,-264.028303,0.760123,62.505034
0.746,0.053401,0.017975,-0.061758,-0.051357,-0.020841,0.05,0.020731,-0.491166,-0.062853,-0.143668,-264.028303,0.760123,62.505034
0.7659,0.050258,0.017147,-0.062367,-0.05219,-0.021236,0.05,0.020079,-0.491533,-0.060242,-0.160509,-264.045497,0.77087,62.487104
0.7861,0.050201,0.01759,-0.061503,-0.049091,-0.020246,0.05,0.019917,-0.491569,-0.06035,-0.160509,-264.045497,0.77087,62.487104
0.8058,0.047123,0.01687,-0.060193,-0.049025,-0.020643,0.05,0.017192,-0.491867,-0.06007,-0.186609,-264.065258,0.785608,62.466604
0.8268,0.047209,0.016959,-0.058886,-0.046023,-0.019675,0.05,0.016551,-0.492115,-0.05996,-0.186609,-264.065258,0.785608,62.466604
0.8463,0.04708,0.017083,-0.060107,-0.046129,-0.019708,0.05,0.016551,-0.492115,-0.05996,-0.186609,-264.065258,0.785608,62.466604
0.8658,0.043433,0.016323,-0.056309,-0.045968,-0.01988,0.05,0.014256,-0.492623,-0.058063,-0.206648,-264.085059,0.802341,62.443695
0.8859,0.044044,0.016667,-0.05734,-0.042445,-0.018742,0.05,0.014231,-0.492656,-0.057891,-0.206648,-264.085059,0.802341,62.443695
0.9063,0.040208,0.015555,-0.055229,-0.043016,-0.019163,0.05,0.013075,-0.493099,-0.055523,-0.230581,-264.103665,0.828085,62.418208
0.9259,0.040358,0.015795,-0.054932,-0.039288,-0.017751,0.05,0.012272,-0.4935,-0.055124,-0.230581,-264.103665,0.828085,62.418208
0.9465,0.040363,0.015568,-0.055725,-0.03943,-0.017987,0.05,0.012272,-0.4935,-0.055124,-0.230581,-264.103665,0.828085,62.418208
0.9659,0.03714,0.015189,-0.051566,-0.039433,-0.017792,0.05,0.009936,-0.494404,-0.053396,-0.271063,-264.120536,0.85977,62.393301
0.9863,0.036867,0.014791,-0.051776,-0.036308,-0.017083,0.05,0.009946,-0.494405,-0.053212,-0.271063,-264.120536,0.85977,62.393301
1.006,0.033966,0.014476,-0.049875,-0.036052,-0.016679,0.05,0.008971,-0.495121,-0.049912,-0.308153,-264.136538,0.888434,62.369121
1.026,0.03411,0.014032,-0.049883,-0.033203,-0.016152,0.049875,0.008534,-0.495064,-0.049655,-0.308153,-264.136538,0.888434,62.369121
1.0464,0.034063,0.014111,-0.051647,-0.033368,-0.015715,0.049883,0.008534,-0.495064,-0.049655,-0.308153,-264.136538,0.888434,62.369121
1.066,0.031068,0.013326,-0.046766,-0.03329,-0.015851,0.05,0.006021,-0.495912,-0.049338,-0.354879,-264.151247,0.91938,62.346372
1.0864,0.030733,0.013469,-0.047334,-0.030411,-0.014764,0.046766,0.006059,-0.495945,-0.049099,-0.354879,-264.151247,0.91938,62.346372
1.1061,0.028157,0.012812,-0.045099,-0.030061,-0.014908,0.047334,0.005378,-0.496469,-0.04554,-0.416243,-264.164859,0.945104,62.325115
1.1261,0.028204,0.013135,-0.045249,-0.027551,-0.014068,0.045099,0.0051,-0.496649,-0.04506,-0.416243,-264.164859,0.945104,62.325115
1.1466,0.028274,0.01268,-0.044362,-0.027581,-0.014397,0.045249,0.0051,-0.496649,-0.04506,-0.416243,-264.164859,0.945104,62.325115
1.1663,0.025682,0.012248,-0.040201,-0.027684,-0.013922,0.044362,0.004152,-0.49747,-0.042093,-0.425938,-264.178139,0.958788,62.304065
1.1858,0.025524,0.012194,-0.043489,-0.025169,-0.01327,0.040201,0.00418,-0.497477,-0.041926,-0.425938,-264.178139,0.958788,62.304065
1.2063,0.023105,0.011509,-0.041185,-0.02497,-0.013292,0.043489,0.002289,-0.497823,-0.041781,-0.447513,-264.190116,0.990101,62.284383
1.2259,0.023175,0.011529,-0.040869,-0.022611,-0.01245,0.041185,0.00205,-0.498021,-0.041223,-0.447513,-264.190116,0.990101,62.284383
1.2459,0.023061,0.011762,-0.041198,-0.022684,-0.012467,0.040869,0.00205,-0.498021,-0.041223,-0.447513,-264.190116,0.990101,62.284383
1.266,0.02034,0.011028,-0.039324,-0.022557,-0.012702,0.041198,0.000823,-0.498393,-0.039267,-0.421418,-264.201019,0.983644,62.266425
1.2858,0.02036,0.011282,-0.038588,-0.019891,-0.011819,0.039324,0.000753,-0.498422,-0.03922,-0.421418,-264.201019,0.983644,62.266425
1.3063,0.018545,0.010623,-0.037203,-0.01991,-0.012059,0.038588,-9.4e-05,-0.498732,-0.037217,-0.496376,-264.210057,1.025907,62.25115
1.326,0.018877,0.010474,-0.036671,-0.018137,-0.011305,0.037203,-0.000382,-0.498949,-0.037035,-0.496376,-264.210057,1.025907,62.25115
1.3462,0.018574,0.010604,-0.038697,-0.01848,-0.011159,0.036671,-0.000382,-0.498949,-0.037035,-0.496376,-264.210057,1.025907,62.25115
1.3663,0.016988,0.010142,-0.035347,-0.01815,-0.011314,0.038697,-0.002078,-0.499516,-0.036914,-0.550115,-264.218766,1.064077,62.235853
1.3862,0.017024,0.010087,-0.033878,-0.016619,-0.010736,0.035347,-0.002029,-0.499531,-0.036755,-0.550115,-264.218766,1.064077,62.235853
1.4058,0.015066,0.009424,-0.033043,-0.016673,-0.010658,0.033878,-0.000975,-0.500026,-0.032465,-0.546336,-264.227412,1.067399,62.22054
1.426,0.014648,0.00983,-0.033667,-0.014746,-0.009917,0.033043,-0.001531,-0.500234,-0.032618,-0.546336,-264.227412,1.067399,62.22054
1.4459,0.014673,0.009241,-0.03339,-0.014309,-0.010317,0.033667,-0.001531,-0.500234,-0.032618,-0.546336,-264.227412,1.067399,62.22054
1.4659,0.013575,0.009387,-0.031352,-0.014357,-0.009726,0.03339,-0.003151,-0.500954,-0.031726,-0.578454,-264.235108,1.09591,62.206446
1.4865,0.012963,0.009157,-0.031932,-0.013274,-0.009808,0.031352,-0.003121,-0.500926,-0.031655,-0.578454,-264.235108,1.09591,62.206446
1.5063,0.011896,0.008947,-0.031158,-0.012664,-0.009566,0.031932,-0.003854,-0.500944,-0.0307,-0.621359,-264.241762,1.13686,62.193577
1.5263,0.01179,0.008813,-0.031889,-0.011611,-0.009314,0.031158,-0.004,-0.500911,-0.030804,-0.621359,-264.241762,1.13686,62.193577
1.5465,0.011655,0.008706,-0.030971,-0.011503,-0.009184,0.031889,-0.004,-0.500911,-0.030804,-0.621359,-264.241762,1.13686,62.193577
1.5662,0.0099,0.008122,-0.029876,-0.01138,-0.009063,0.030971,-0.004796,-0.501506,-0.02945,-0.613167,-264.248247,1.140961,62.180852
1.5866,0.010345,0.008462,-0.028878,-0.009653,-0.008415,0.029876,-0.004851,-0.501528,-0.029439,-0.613167,-264.248247,1.140961,62.180852
1.6059,0.009271,0.007909,-0.026482,-0.010096,-0.008757,0.028878,-0.004741,-0.501598,-0.027933,-0.688174,-264.253037,1.189122,62.171266
1.6263,0.009177,0.007932,-0.026846,-0.009058,-0.008151,0.026482,-0.004495,-0.501812,-0.026984,-0.688174,-264.253037,1.189122,62.171266
1.6465,0.009672,0.00782,-0.027776,-0.008961,-0.008175,0.026846,-0.004495,-0.501812,-0.026984,-0.688174,-264.253037,1.189122,62.171266
1.6659,0.008035,0.008109,-0.025411,-0.009451,-0.008085,0.027776,-0.00489,-0.502313,-0.026599,-0.763344,-264.257568,1.223412,62.161944
1.6866,0.008169,0.007656,-0.026528,-0.007826,-0.00831,0.025411,-0.004905,-0.502275,-0.026464,-0.763344,-264.257568,1.223412,62.161944
1.7066,0.006817,0.00733,-0.024964,-0.007963,-0.00787,0.026528,-0.005709,-0.502467,-0.025505,-0.742345,-264.262367,1.221092,62.151622
1.7262,0.007306,0.007431,-0.026901,-0.006632,-0.007497,0.024964,-0.005869,-0.502531,-0.025068,-0.742345,-264.262367,1.221092,62.151622
1.7461,0.00704,0.007135,-0.025136,-0.007103,-0.007625,0.026901,-0.005869,-0.502531,-0.025068,-0.742345,-264.262367,1.221092,62.151622
1.7665,0.00604,0.007039,-0.023316,-0.006858,-0.007309,0.025136,-0.006162,-0.503092,-0.02392,-0.744425,-264.266552,1.253481,62.141757
1.7864,0.006157,0.006518,-0.023711,-0.006858,-0.007309,0.025136,-0.006151,-0.503084,-0.023849,-0.744425,-264.266552,1.253481,62.141757
1.8059,0.005285,0.006859,-0.021881,-6.7e-05,-7.4e-05,0.0,-0.006139,-0.503546,-0.023,-0.819423,-264.269696,1.283659,62.134787
1.826,0.005322,0.006701,-0.023016,-6.7e-05,-7.4e-05,0.0,-0.006014,-0.503274,-0.022276,-0.819423,-264.269696,1.283659,62.134787
1.846,0.005236,0.006596,-0.02302,-6.7e-05,-7.4e-05,0.0,-0.006014,-0.503274,-0.022276,-0.819423,-264.269696,1.283659,62.134787
1.866,0.004346,0.00632,-0.021047,-6.7e-05,-7.4e-05,0.0,-0.006834,-0.503605,-0.021837,-0.864701,-264.273806,1.276919,62.12558
1.8859,0.004324,0.006533,-0.022925,-6.7e-05,-7.4e-05,0.0,-0.006807,-0.503613,-0.021736,-0.864701,-264.273806,1.276919,62.12558
1.906,0.004661,0.006509,-0.021117,-6.7e-05,-7.4e-05,0.0,-0.007367,-0.503333,-0.022925,-0.789271,-264.273806,1.201489,62.12558
1.926,0.004476,0.006522,-0.021121,-6.7e-05,-7.4e-05,0.0,-0.006651,-0.503358,-0.021897,-0.789271,-264.273806,1.201489,62.12558
1.9459,0.004075,0.006397,-0.021026,-6.7e-05,-7.4e-05,0.0,-0.006651,-0.503358,-0.021897,-0.789271,-264.273806,1.201489,62.12558
1.9666,0.004581,0.006458,-0.022066,-6.7e-05,-7.4e-05,0.0,-0.006647,-0.50349,-0.021026,-0.714637,-264.273806,1.126856,62.12558
1.9864,0.004563,0.006126,-0.020235,-6.7e-05,-7.4e-05,0.0,-0.006649,-0.503484,-0.021107,-0.714637,-264.273806,1.126856,62.12558
2.0064,0.003948,0.00633,-0.021112,-1e-06,-1e-06,2e-06,-0.005756,-0.503769,-0.020235,-0.639362,-264.273806,1.051581,62.12558
2.0265,0.004166,0.006468,-0.021297,-0.000875,-0.000972,0.003458,-0.006359,-0.503649,-0.020733,-0.639362,-264.273806,1.051581,62.12558
2.0467,0.004358,0.00665,-0.022174,-0.001715,-0.001904,0.006778,-0.006359,-0.503649,-0.020733,-0.639362,-264.273806,1.051581,62.12558
2.0666,0.004529,0.006507,-0.021036,-0.002501,-0.002777,0.009884,-0.00695,-0.503225,-0.022174,-0.564699,-264.273806,0.976917,62.12558
2.0864,0.004092,0.00597,-0.020397,-0.003242,-0.0036,0.012813,-0.00692,-0.503231,-0.022129,-0.564699,-264.273806,0.976917,62.12558
2.1063,0.004375,0.006302,-0.020682,-0.003939,-0.004373,0.015565,-0.006312,-0.503926,-0.020391,-0.639771,-264.273835,1.051989,62.125515
2.1262,0.004357,0.006355,-0.020348,-0.004595,-0.005101,0.018157,-0.006233,-0.503735,-0.020555,-0.639771,-264.273835,1.051989,62.125515
2.1465,0.004323,0.006424,-0.02066,-0.005196,-0.005769,0.020533,-0.006233,-0.503735,-0.020555,-0.639771,-264.273835,1.051989,62.125515
2.1661,0.004728,0.006131,-0.021074,-0.005761,-0.006396,0.022766,-0.006239,-0.503487,-0.020597,-0.714702,-264.274074,1.12692,62.124982
2.1864,0.004327,0.006241,-0.022474,-0.006277,-0.006968,0.024802,-0.006224,-0.503505,-0.020627,-0.714702,-264.274074,1.12692,62.124982
2.2065,0.004203,0.006047,-0.01914,-0.00675,-0.007494,0.026673,-0.007218,-0.503703,-0.022224,-0.789717,-264.275207,1.201935,62.122455
2.2265,0.003953,0.006209,-0.022216,-0.007179,-0.00797,0.028366,-0.006279,-0.503802,-0.020427,-0.789717,-264.275207,1.201935,62.122455
2.2461,0.003986,0.006402,-0.021255,-0.007561,-0.008395,0.029879,-0.006279,-0.503802,-0.020427,-0.789717,-264.275207,1.201935,62.122455
2.2662,0.003239,0.005936,-0.021961,-0.007898,-0.008768,0.031207,-0.007055,-0.503643,-0.020565,-0.864907,-264.277995,1.277126,62.117418
2.2862,0.003263,0.006281,-0.021307,-0.00819,-0.009093,0.032363,-0.007128,-0.50367,-0.02065,-0.864907,-264.277995,1.277126,62.117418
2.3066,0.002671,0.006106,-0.018962,-0.008439,-0.009369,0.033347,-0.007843,-0.503766,-0.020441,-0.916279,-264.282734,1.294263,62.109887
2.3265,0.002342,0.005868,-0.017447,-0.008641,-0.009593,0.034144,-0.007386,-0.503807,-0.019478,-0.916279,-264.282734,1.294263,62.109887
2.3465,0.002337,0.006049,-0.018998,-0.008799,-0.009768,0.034767,-0.007386,-0.503807,-0.019478,-0.916279,-264.282734,1.294263,62.109887
2.3664,0.001307,0.005315,-0.017608,-0.008912,-0.009894,0.035217,-0.007722,-0.504178,-0.017618,-0.916279,-264.288123,1.294263,62.099842
2.3865,0.001464,0.005394,-0.018364,-0.008978,-0.009968,0.035477,-0.007729,-0.504223,-0.017574,-0.916279,-264.288123,1.294263,62.099842
2.4061,-0.000127,0.005246,-0.016365,-0.009001,-0.009993,0.035567,-0.00824,-0.504873,-0.017055,-0.916279,-264.293872,1.294263,62.087376
2.4274,0.000142,0.004876,-0.016468,-0.008979,-0.009968,0.035479,-0.008415,-0.504812,-0.016498,-0.916279,-264.293872,1.294263,62.087376
2.4465,-4.5e-05,0.005466,-0.016253,-0.008911,-0.009893,0.035212,-0.008415,-0.504812,-0.016498,-0.916279,-264.293872,1.294263,62.087376
2.4662,-0.001411,0.004759,-0.014554,-0.008799,-0.009768,0.034768,-0.008777,-0.504944,-0.014527,-0.916279,-264.299779,1.294263,62.074203
2.4863,-0.00083,0.004443,-0.014728,-0.008642,-0.009594,0.034147,-0.008794,-0.504975,-0.014482,-0.916279,-264.299779,1.294263,62.074203
2.506,-0.002689,0.004423,-0.013051,-0.008439,-0.009368,0.033345,-0.008691,-0.505879,-0.013369,-0.916279,-264.305625,1.294263,62.061168
2.5263,-0.002509,0.004375,-0.012464,-0.008191,-0.009094,0.032368,-0.009106,-0.505731,-0.013016,-0.916279,-264.305625,1.294263,62.061168
2.5459,-0.002562,0.004296,-0.013218,-0.007895,-0.008765,0.031199,-0.009106,-0.505731,-0.013016,-0.916279,-264.305625,1.294263,62.061168
2.566,-0.003636,0.004025,-0.012206,-0.007558,-0.00839,0.029864,-0.009728,-0.506121,-0.011557,-0.916279,-264.311326,1.294263,62.048456
2.5862,-0.003602,0.003305,-0.010984,-0.007179,-0.00797,0.028369,-0.009751,-0.50612,-0.011559,-0.916279,-264.311326,1.294263,62.048456
2.6059,-0.005408,0.002962,-0.008076,-0.006751,-0.007495,0.026677,-0.009512,-0.506999,-0.009782,-0.916279,-264.316503,1.294263,62.036914
2.6259,-0.005573,0.003241,-0.008234,-0.006279,-0.006971,0.02481,-0.009559,-0.507054,-0.008656,-0.916279,-264.316503,1.294263,62.036914
2.6459,-0.005227,0.00351,-0.009657,-0.005762,-0.006397,0.022767,-0.009559,-0.507054,-0.008656,-0.916279,-264.316503,1.294263,62.036914
2.6664,-0.006527,0.002879,-0.008511,-0.005199,-0.005772,0.020545,-0.010503,-0.50685,-0.008279,-0.916279,-264.321211,1.294263,62.026416
2.6861,-0.006265,0.003217,-0.008159,-0.004589,-0.005094,0.018132,-0.010537,-0.506877,-0.00826,-0.916279,-264.321211,1.294263,62.026416
2.7064,-0.006958,0.002327,-0.005966,-0.003939,-0.004373,0.015564,-0.010651,-0.507012,-0.007279,-0.916279,-264.325003,1.294263,62.01796
2.7261,-0.007021,0.002786,-0.00751,-0.00324,-0.003597,0.012803,-0.010308,-0.507416,-0.006417,-0.916279,-264.325003,1.294263,62.01796
2.7463,-0.006999,0.002771,-0.006043,-0.002499,-0.002774,0.009875,-0.010308,-0.507416,-0.006417,-0.916279,-264.325003,1.294263,62.01796
2.7661,-0.007521,0.002414,-0.006599,-0.001709,-0.001898,0.006754,-0.010305,-0.507466,-0.005162,-0.916279,-264.328013,1.294263,62.011249
2.786,-0.007837,0.002365,-0.005492,-0.000879,-0.000976,0.003475,-0.010349,-0.50748,-0.005234,-0.916279,-264.328013,1.294263,62.011249
2.8059,-0.008491,0.002384,-0.004033,-0.0,-0.0,1e-06,-0.010735,-0.507734,-0.00511,-0.916279,-264.329656,1.294263,62.007586
2.826,-0.008072,0.002148,-0.005235,0.0,0.0,0.0,-0.010641,-0.507678,-0.00445,-0.916279,-264.329656,1.294263,62.007586
2.8462,-0.008045,0.002029,-0.005034,0.0,0.0,0.0,-0.010641,-0.507678,-0.00445,-0.916279,-264.329656,1.294263,62.007586
2.8662,-0.007987,0.002194,-0.006095,0.0,0.0,0.0,-0.010655,-0.508012,-0.004865,-0.916279,-264.330233,1.294263,62.006298
2.886,-0.00795,0.002253,-0.004917,0.0,0.0,0.0,-0.010685,-0.507999,-0.004941,-0.916279,-264.330233,1.294263,62.006298
2.9063,-0.008374,0.002209,-0.004641,0.0,0.0,0.0,-0.010458,-0.507741,-0.004917,-0.916279,-264.330233,1.294263,62.006298
2.9262,-0.008244,0.002101,-0.003452,0.0,0.0,0.0,-0.010618,-0.507766,-0.004761,-0.916279,-264.330233,1.294263,62.006298
2.9463,-0.008396,0.002371,-0.004421,0.0,0.0,0.0,-0.010618,-0.507766,-0.004761,-0.916279,-264.330233,1.294263,62.006298
2.9662,-0.008237,0.002264,-0.005239,0.0,0.0,0.0,-0.010651,-0.507624,-0.004421,-0.916279,-264.330233,1.294263,62.006298
2.9861,-0.008175,0.002139,-0.005,0.0,0.0,0.0,-0.010668,-0.507631,-0.004476,-0.916279,-264.330233,1.294263,62.006298
3.0059,-0.008817,0.002348,-0.004773,0.0,0.0,0.0,-0.010725,-0.507855,-0.005,-0.916279,-264.330233,1.294263,62.006298
3.0261,-0.008459,0.00213,-0.005074,9.7e-05,-2.5e-05,0.0,-0.011026,-0.507736,-0.00487,-0.916279,-264.330233,1.294263,62.006298
3.0462,-0.008444,0.00162,-0.005981,9.7e-05,-2.5e-05,0.0,-0.011026,-0.507736,-0.00487,-0.916279,-264.330233,1.294263,62.006298
3.0664,-0.008346,0.002402,-0.00555,9.7e-05,-2.5e-05,0.0,-0.011494,-0.508371,-0.005981,-0.916279,-264.330233,1.294263,62.006298
3.0861,-0.008323,0.002199,-0.005355,9.7e-05,-2.5e-05,0.0,-0.011467,-0.508304,-0.005944,-0.916279,-264.330233,1.294263,62.006298
3.106,-0.008526,0.001986,-0.00498,9.7e-05,-2.5e-05,0.0,-0.011055,-0.507794,-0.005355,-0.840837,-264.330233,1.218821,62.006298
3.1262,-0.008226,0.0021,-0.006118,9.7e-05,-2.5e-05,0.0,-0.011061,-0.507915,-0.005143,-0.840837,-264.330233,1.218821,62.006298
3.1465,-0.008116,0.002113,-0.003586,9.7e-05,-2.5e-05,0.0,-0.011061,-0.507915,-0.005143,-0.840837,-264.330233,1.218821,62.006298
3.1661,-0.008117,0.001861,-0.004452,9.7e-05,-2.5e-05,0.0,-0.009945,-0.507884,-0.003586,-0.766431,-264.330233,1.144415,62.006298
3.1862,-0.008393,0.002108,-0.003549,9.7e-05,-2.5e-05,0.0,-0.009973,-0.5079,-0.003642,-0.766431,-264.330233,1.144415,62.006298
3.2064,-0.008524,0.002283,-0.005145,9.7e-05,-2.5e-05,0.0,-0.010203,-0.507888,-0.003549,-0.691427,-264.330233,1.069411,62.006298
3.2264,-0.00832,0.002015,-0.00448,2e-06,-0.0,1e-06,-0.010739,-0.507787,-0.004453,-0.691427,-264.330233,1.069411,62.006298
3.2461,-0.008326,0.002311,-0.005419,0.001288,-0.000336,0.000697,-0.010739,-0.507787,-0.004453,-0.691427,-264.330233,1.069411,62.006298
3.2659,-0.008335,0.002045,-0.004701,0.002519,-0.000658,0.001362,-0.01109,-0.507682,-0.005419,-0.616425,-264.330233,0.994409,62.006298
3.2862,-0.008222,0.002342,-0.005411,0.003672,-0.000959,0.001985,-0.011061,-0.507703,-0.005361,-0.616425,-264.330233,0.994409,62.006298
3.3059,-0.007971,0.002264,-0.004496,0.004773,-0.001247,0.002581,-0.010982,-0.507651,-0.005411,-0.540749,-264.330233,0.918733,62.006298
3.3265,-0.008336,0.002126,-0.004862,0.005796,-0.001514,0.003134,-0.01057,-0.507697,-0.004885,-0.540749,-264.330233,0.918733,62.006298
3.3462,-0.008318,0.001973,-0.005262,0.006753,-0.001764,0.003651,-0.01057,-0.507697,-0.004885,-0.540749,-264.330233,0.918733,62.006298
3.3665,-0.008015,0.002547,-0.006246,0.00765,-0.001998,0.004136,-0.011002,-0.50802,-0.005262,-0.466304,-264.330233,0.844288,62.006298
3.3864,-0.008219,0.002176,-0.005179,0.008472,-0.002213,0.004581,-0.011014,-0.507985,-0.005321,-0.466304,-264.330233,0.844288,62.006298
3.4059,-0.008163,0.002247,-0.006286,0.009255,-0.002417,0.005004,-0.01086,-0.507817,-0.005179,-0.391423,-264.330233,0.769407,62.006298
3.4258,-0.008056,0.00179,-0.00712,0.009929,-0.002593,0.005368,-0.011151,-0.507775,-0.005812,-0.391423,-264.330233,0.769407,62.006298
3.4462,-0.008524,0.002025,-0.007629,0.01056,-0.002758,0.005709,-0.011151,-0.507775,-0.005812,-0.391423,-264.330233,0.769407,62.006298
3.4661,-0.008342,0.001977,-0.004368,0.011125,-0.002905,0.006015,-0.012415,-0.50796,-0.007629,-0.316309,-264.330233,0.694293,62.006298
3.4867,-0.007912,0.002416,-0.006166,0.011622,-0.003035,0.006284,-0.012289,-0.507964,-0.007407,-0.316309,-264.330233,0.694293,62.006298
3.5063,-0.008362,0.00184,-0.005823,0.01206,-0.00315,0.006521,-0.011057,-0.507574,-0.006166,-0.241431,-264.330233,0.619415,62.006298
3.5261,-0.008256,0.002449,-0.004382,0.012414,-0.003242,0.006711,-0.011211,-0.507897,-0.005974,-0.241431,-264.330233,0.619415,62.006298
3.5459,-0.0083,0.001881,-0.006146,0.012712,-0.00332,0.006873,-0.011211,-0.507897,-0.005974,-0.241431,-264.330233,0.619415,62.006298
3.5659,-0.008052,0.002039,-0.005863,0.012945,-0.003381,0.006999,-0.011435,-0.508109,-0.006146,-0.166437,-264.330233,0.544421,62.006298
3.5865,-0.008408,0.001847,-0.006379,0.013111,-0.003424,0.007088,-0.011408,-0.508098,-0.006127,-0.166437,-264.330233,0.544421,62.006298
3.6063,-0.008255,0.002434,-0.003973,0.013209,-0.00345,0.007141,-0.011661,-0.508142,-0.006379,-0.091444,-264.330233,0.469428,62.006298
3.6269,-0.008221,0.002332,-0.00519,0.013242,-0.003458,0.007159,-0.010872,-0.507811,-0.005003,-0.091444,-264.330233,0.469428,62.006298
3.6469,-0.008407,0.00201,-0.007021,0.013209,-0.00345,0.007142,-0.010872,-0.507811,-0.005003,-0.091444,-264.330233,0.469428,62.006298
3.6659,-0.007926,0.002135,-0.005013,0.013109,-0.003424,0.007088,-0.011988,-0.507977,-0.007021,-0.016309,-264.330233,0.394293,62.006299
3.6861,-0.007828,0.002254,-0.00614,0.012944,-0.00338,0.006998,-0.011876,-0.507969,-0.006872,-0.016309,-264.330233,0.394293,62.006299
3.7062,-0.008369,0.00226,-0.004956,0.012711,-0.00332,0.006872,-0.010959,-0.507736,-0.00614,0.058862,-264.330232,0.319122,62.006299
3.7262,-0.008286,0.002535,-0.005107,0.012413,-0.003242,0.006711,-0.010924,-0.507735,-0.005472,0.058862,-264.330232,0.319122,62.006299
3.7462,-0.008489,0.001908,-0.004217,0.012049,-0.003147,0.006514,-0.010924,-0.507735,-0.005472,0.058862,-264.330232,0.319122,62.006299
3.766,-0.008424,0.002035,-0.005722,0.011619,-0.003034,0.006282,-0.01064,-0.508087,-0.004217,0.068941,-264.330232,0.244411,62.0063
3.7863,-0.008044,0.002015,-0.006295,0.011122,-0.002905,0.006013,-0.010687,-0.508078,-0.004318,0.068941,-264.330232,0.244411,62.0063
3.8059,-0.008366,0.002236,-0.004998,0.010561,-0.002758,0.00571,-0.011254,-0.507975,-0.006295,0.068941,-264.330231,0.169414,62.006301
3.8258,-0.00821,0.002208,-0.006257,0.00993,-0.002593,0.005368,-0.011061,-0.507851,-0.005556,0.068941,-264.330231,0.169414,62.006301
3.846,-0.008741,0.002457,-0.004456,0.009238,-0.002412,0.004994,-0.011061,-0.507851,-0.005556,0.068941,-264.330231,0.169414,62.006301
3.8661,-0.008284,0.001974,-0.004652,0.008477,-0.002214,0.004583,-0.011013,-0.507538,-0.004456,0.068941,-264.33023,0.094355,62.006302
3.8859,-0.008155,0.001945,-0.005222,0.00765,-0.001998,0.004136,-0.010989,-0.507571,-0.004469,0.068941,-264.33023,0.094355,62.006302
3.9063,-0.008178,0.002128,-0.006324,0.006755,-0.001764,0.003652,-0.010818,-0.508048,-0.005222,0.068941,-264.330225,0.019458,62.006307
3.9268,-0.008022,0.002161,-0.004873,0.005797,-0.001514,0.003134,-0.011151,-0.507942,-0.005848,0.068941,-264.330225,0.019458,62.006307
3.9461,-0.008499,0.002291,-0.005167,0.004763,-0.001244,0.002575,-0.011151,-0.507942,-0.005848,0.068941,-264.330225,0.019458,62.006307
3.9664,-0.008151,0.002414,-0.005176,0.003674,-0.000959,0.001986,-0.011132,-0.507703,-0.005167,0.068941,-264.330208,-0.055568,62.006328
3.986,-0.008159,0.002124,-0.005532,0.002517,-0.000657,0.001361,-0.011109,-0.507694,-0.005167,0.068941,-264.330208,-0.055568,62.006328
4.0059,-0.008146,0.002235,-0.006632,0.001292,-0.000337,0.000699,-0.010975,-0.507868,-0.005531,0.068941,-264.330165,-0.130583,62.006377
4.0259,-0.007994,0.002047,-0.005951,0.0,0.0,0.0,-0.011291,-0.507803,-0.006161,0.068941,-264.330165,-0.130583,62.006377
4.0461,-0.008277,0.002084,-0.005309,0.0,0.0,0.0,-0.011291,-0.507803,-0.006161,0.068941,-264.330165,-0.130583,62.006377
4.0662,-0.008386,0.002392,-0.006599,0.0,0.0,0.0,-0.010975,-0.507909,-0.005307,0.068941,-264.330096,-0.205688,62.006458
4.086,-0.008097,0.002031,-0.00501,0.0,0.0,0.0,-0.011067,-0.507872,-0.00546,0.068941,-264.330096,-0.205688,62.006458
4.1059,-0.008152,0.002132,-0.005625,0.0,0.0,0.0,-0.010652,-0.507963,-0.00501,0.068941,-264.330096,-0.205688,62.006458
4.1259,-0.008564,0.001959,-0.005764,0.0,0.0,0.0,-0.010862,-0.507904,-0.00536,0.068941,-264.330096,-0.205688,62.006458
4.1462,-0.008121,0.002072,-0.006005,0.0,0.0,0.0,-0.010862,-0.507904,-0.00536,0.068941,-264.330096,-0.205688,62.006458
4.1659,-0.008278,0.002199,-0.006207,0.0,0.0,0.0,-0.011183,-0.507919,-0.006005,0.068941,-264.330096,-0.205688,62.006458
4.186,-0.007792,0.00193,-0.004328,0.0,0.0,0.0,-0.011201,-0.50791,-0.006019,0.068941,-264.330096,-0.205688,62.006458
4.2063,-0.008183,0.002142,-0.004696,0.0,0.0,0.0,-0.01,-0.508065,-0.004328,0.068941,-264.330096,-0.205688,62.006458
4.226,-0.007933,0.001959,-0.008606,0.0,0.0,0.0,-0.010329,-0.507944,-0.004538,0.068941,-264.330096,-0.205688,62.006458
4.2462,-0.008163,0.001991,-0.005785,0.0,0.0,0.0,-0.010329,-0.507944,-0.004538,0.068941,-264.330096,-0.205688,62.006458
4.2659,-0.008406,0.00217,-0.003973,9.7e-05,-2.3e-05,0.0,-0.011114,-0.508,-0.005785,0.068941,-264.330096,-0.205688,62.006458
4.2867,-0.008052,0.002077,-0.005063,9.7e-05,-2.3e-05,0.0,-0.011069,-0.507989,-0.005665,0.068941,-264.330096,-0.205688,62.006458
4.3059,-0.008238,0.002464,-0.004142,9.7e-05,-2.3e-05,0.0,-0.010634,-0.507916,-0.005063,0.068941,-264.330096,-0.205688,62.006458
4.3259,-0.008009,0.00208,-0.004891,9.7e-05,-2.3e-05,0.0,-0.010473,-0.507697,-0.004538,0.068941,-264.330096,-0.205688,62.006458
4.3459,-0.008394,0.001934,-0.004834,9.7e-05,-2.3e-05,0.0,-0.010473,-0.507697,-0.004538,0.068941,-264.330096,-0.205688,62.006458
4.3659,-0.008127,0.002551,-0.005835,9.7e-05,-2.3e-05,0.0,-0.010859,-0.50806,-0.004834,-0.006104,-264.330087,-0.233477,62.006466
4.3864,-0.0083,0.002229,-0.005494,9.7e-05,-2.3e-05,0.0,-0.010876,-0.508017,-0.004903,-0.006104,-264.330087,-0.233477,62.006466
4.4063,-0.008105,0.002153,-0.00561,9.7e-05,-2.3e-05,0.0,-0.0111,-0.507764,-0.005494,-0.081049,-264.330069,-0.233477,62.006484
4.4261,-0.00847,0.002312,-0.005822,9.7e-05,-2.3e-05,0.0,-0.011023,-0.507807,-0.005561,-0.081049,-264.330069,-0.233477,62.006484
4.4463,-0.008171,0.002419,-0.005,9.7e-05,-2.3e-05,0.0,-0.011023,-0.507807,-0.005561,-0.081049,-264.330069,-0.233477,62.006484
4.4662,-0.008683,0.002199,-0.005486,9.7e-05,-2.3e-05,0.0,-0.010718,-0.507576,-0.005,-0.156263,-264.330042,-0.233477,62.006511
4.4868,-0.008298,0.002595,-0.005822,0.00119,-0.000283,0.000842,-0.010774,-0.507592,-0.005035,-0.156263,-264.330042,-0.233477,62.006511
4.5061,-0.008686,0.0022,-0.004362,0.002327,-0.000553,0.001647,-0.011264,-0.507398,-0.005822,-0.231161,-264.330005,-0.233477,62.006548
4.5263,-0.008218,0.002368,-0.007761,0.003399,-0.000808,0.002405,-0.011062,-0.507624,-0.004991,-0.231161,-264.330005,-0.233477,62.006548
4.5459,-0.008492,0.002193,-0.003485,0.004416,-0.00105,0.003125,-0.011062,-0.507624,-0.004991,-0.231161,-264.330005,-0.233477,62.006548
4.566,-0.008292,0.001845,-0.004947,0.005362,-0.001275,0.003795,-0.010268,-0.507804,-0.003485,-0.155857,-264.330002,-0.30878,62.006552
4.5858,-0.008412,0.00254,-0.005342,0.006252,-0.001487,0.004425,-0.010306,-0.507827,-0.003585,-0.155857,-264.330002,-0.30878,62.006552
4.6059,-0.007932,0.002169,-0.006415,0.007078,-0.001683,0.00501,-0.01113,-0.507455,-0.00534,-0.081305,-264.329933,-0.383333,62.006633
4.6259,-0.008225,0.00241,-0.004177,0.007846,-0.001866,0.005552,-0.011171,-0.507664,-0.005955,-0.081305,-264.329933,-0.383333,62.006633
4.6464,-0.00781,0.002284,-0.004176,0.008551,-0.002034,0.006052,-0.011171,-0.507664,-0.005955,-0.081305,-264.329933,-0.383333,62.006633
4.6659,-0.008276,0.002137,-0.006101,0.009194,-0.002186,0.006507,-0.009892,-0.507724,-0.004156,-0.006136,-264.329553,-0.458501,62.007082
4.6865,-0.00792,0.00202,-0.005322,0.009776,-0.002325,0.006919,-0.009993,-0.507734,-0.004289,-0.006136,-264.329553,-0.458501,62.007082
4.7059,-0.008085,0.002032,-0.005181,0.010301,-0.00245,0.00729,-0.010498,-0.50801,-0.005248,0.068732,-264.328151,-0.53337,62.008739
4.726,-0.008174,0.001902,-0.005424,0.010758,-0.002558,0.007614,-0.010612,-0.507987,-0.005201,0.068732,-264.328151,-0.53337,62.008739
4.7458,-0.007845,0.001885,-0.005005,0.011157,-0.002653,0.007896,-0.010612,-0.507987,-0.005201,0.068732,-264.328151,-0.53337,62.008739
4.766,-0.007464,0.002138,-0.006653,0.011497,-0.002734,0.008136,-0.010043,-0.508203,-0.004769,0.143845,-264.325192,-0.590341,62.012235
4.7858,-0.007887,0.001713,-0.005084,0.011771,-0.002799,0.00833,-0.01009,-0.508181,-0.004894,0.143845,-264.325192,-0.590341,62.012235
4.8063,-0.007257,0.001521,-0.00444,0.011985,-0.00285,0.008482,-0.010065,-0.508382,-0.00479,0.192025,-264.320804,-0.590341,62.01742
4.826,-0.007328,0.001896,-0.005013,0.012141,-0.002887,0.008592,-0.009701,-0.508447,-0.004552,0.192025,-264.320804,-0.590341,62.01742
4.8459,-0.007217,0.001574,-0.004013,0.012231,-0.002909,0.008656,-0.009701,-0.508447,-0.004552,0.192025,-264.320804,-0.590341,62.01742
4.8663,-0.007241,0.001722,-0.003272,0.012262,-0.002916,0.008678,-0.008693,-0.50856,-0.003608,0.192025,-264.316016,-0.590341,62.023077
4.8864,-0.007336,0.001657,-0.005334,0.012232,-0.002909,0.008657,-0.008692,-0.508545,-0.003575,0.192025,-264.316016,-0.590341,62.023077
4.9061,-0.006868,0.001521,-0.002217,0.01214,-0.002887,0.008592,-0.009585,-0.50845,-0.004999,0.192025,-264.311023,-0.590341,62.028977
4.926,-0.006579,0.001563,-0.002886,0.011987,-0.002851,0.008483,-0.008617,-0.508481,-0.003363,0.192025,-264.311023,-0.590341,62.028977
4.946,-0.0066,0.001421,-0.004858,0.011772,-0.0028,0.008331,-0.008617,-0.508481,-0.003363,0.192025,-264.311023,-0.590341,62.028977
4.9661,-0.006549,0.000875,-0.003959,0.011497,-0.002734,0.008137,-0.008484,-0.508717,-0.004438,0.192025,-264.306048,-0.590341,62.034856
4.9862,-0.006132,0.001305,-0.003104,0.011159,-0.002654,0.007897,-0.008475,-0.508748,-0.004395,0.192025,-264.306048,-0.590341,62.034856
5.0059,-0.006291,0.000971,-0.0027,0.010761,-0.002559,0.007616,-0.00726,-0.508802,-0.002782,0.192025,-264.301243,-0.590341,62.040534
5.0269,-0.005844,0.000824,-0.001075,0.010301,-0.00245,0.00729,-0.007436,-0.508945,-0.002695,0.192025,-264.301243,-0.590341,62.040534
5.046,-0.006043,0.000972,-0.002451,0.009782,-0.002326,0.006923,-0.007436,-0.508945,-0.002695,0.192025,-264.301243,-0.590341,62.040534
5.0661,-0.005293,0.00153,-0.002111,0.0092,-0.002188,0.006511,-0.006752,-0.509156,-0.002068,0.192025,-264.296703,-0.590341,62.045898
5.0861,-0.005963,0.000803,-0.001036,0.008553,-0.002034,0.006053,-0.00671,-0.509111,-0.002061,0.192025,-264.296703,-0.590341,62.045898
5.106,-0.005144,0.001193,-0.002407,0.007833,-0.001863,0.005544,-0.006114,-0.509287,-0.000769,0.192025,-264.292717,-0.590341,62.050607
5.1259,-0.005141,0.000889,-0.002018,0.007082,-0.001684,0.005012,-0.006212,-0.509025,-0.001667,0.192025,-264.292717,-0.590341,62.050607
5.146,-0.005018,0.00112,-0.003651,0.006257,-0.001488,0.004428,-0.006212,-0.509025,-0.001667,0.192025,-264.292717,-0.590341,62.050607
5.1665,-0.00485,0.001227,-0.001935,0.005366,-0.001276,0.003798,-0.006464,-0.508977,-0.003356,0.192025,-264.289232,-0.590341,62.054726
5.1865,-0.005145,0.000873,-0.001663,0.004419,-0.001051,0.003127,-0.006412,-0.508966,-0.003254,0.192025,-264.289232,-0.590341,62.054726
5.2064,-0.004796,0.001078,-0.001518,0.003407,-0.00081,0.002411,-0.005751,-0.509184,-0.001492,0.192025,-264.286682,-0.590341,62.057739
5.226,-0.004618,0.001211,-0.002111,0.002333,-0.000555,0.001651,-0.005618,-0.509042,-0.001485,0.192025,-264.286682,-0.590341,62.057739
5.2464,-0.005031,0.000987,-0.00371,0.00119,-0.000283,0.000842,-0.005618,-0.509042,-0.001485,0.192025,-264.286682,-0.590341,62.057739
5.266,-0.004653,0.001128,-0.0018,2e-06,-1e-06,2e-06,-0.006709,-0.509061,-0.003558,0.192025,-264.284882,-0.590341,62.059866
5.2866,-0.004309,0.000873,-0.0002,0.0,0.0,0.0,-0.006624,-0.50905,-0.003432,0.192025,-264.284882,-0.590341,62.059866
5.3063,-0.004769,0.000578,-0.00058,0.0,0.0,0.0,-0.004364,-0.509138,-0.000167,0.192025,-264.284397,-0.590341,62.060439
5.3266,-0.004554,0.000554,-0.001126,0.0,0.0,0.0,-0.004753,-0.509299,-0.000395,0.192025,-264.284397,-0.590341,62.060439
5.346,-0.004928,0.000617,-0.001792,0.0,0.0,0.0,-0.004753,-0.509299,-0.000395,0.192025,-264.284397,-0.590341,62.060439
5.3663,-0.004728,0.000749,-0.000959,0.0,0.0,0.0,-0.005842,-0.509382,-0.001792,0.192025,-264.284397,-0.590341,62.060439
5.3865,-0.004272,0.000753,-0.000631,0.0,0.0,0.0,-0.0058,-0.509373,-0.001736,0.192025,-264.284397,-0.590341,62.060439
5.4065,-0.004714,0.001022,-0.001139,0.0,0.0,0.0,-0.004594,-0.509247,-0.000631,0.192025,-264.284397,-0.590341,62.060439
5.4261,-0.004499,0.001122,-0.001738,0.0,0.0,0.0,-0.004995,-0.509093,-0.000922,0.192025,-264.284397,-0.590341,62.060439
5.446,-0.00469,0.000828,-0.002953,0.0,0.0,0.0,-0.004995,-0.509093,-0.000922,0.192025,-264.284397,-0.590341,62.060439
5.4662,-0.004581,0.000765,-0.000476,0.0,0.0,0.0,-0.006196,-0.50917,-0.002953,0.192025,-264.284397,-0.590341,62.060439
5.4864,-0.004755,0.000752,-0.000249,0.0,0.0,0.0,-0.006108,-0.509174,-0.002793,0.192025,-264.284397,-0.590341,62.060439
5.506,-0.004792,0.00081,-0.001129,9.9e-05,-1.6e-05,0.0,-0.004882,-0.509248,-0.000249,0.192025,-264.284397,-0.590341,62.060439
5.526,-0.004502,0.000923,-0.001439,9.9e-05,-1.6e-05,0.0,-0.005161,-0.509215,-0.000754,0.192025,-264.284397,-0.590341,62.060439
5.546,-0.004414,0.000437,-0.001831,9.9e-05,-1.6e-05,0.0,-0.005161,-0.509215,-0.000754,0.192025,-264.284397,-0.590341,62.060439
5.566,-0.004475,0.000755,-0.00259,9.9e-05,-1.6e-05,0.0,-0.005348,-0.509562,-0.001831,0.192025,-264.284397,-0.590341,62.060439
5.5864,-0.004677,0.00049,-0.002029,9.9e-05,-1.6e-05,0.0,-0.005379,-0.50954,-0.001884,0.192025,-264.284397,-0.590341,62.060439
5.6062,-0.004279,0.000883,-0.001993,9.9e-05,-1.6e-05,0.0,-0.005711,-0.509509,-0.002029,0.117186,-264.284396,-0.515501,62.06044
5.6261,-0.004618,0.000945,-0.000782,9.9e-05,-1.6e-05,0.0,-0.005475,-0.509286,-0.002009,0.117186,-264.284396,-0.515501,62.06044
5.6463,-0.004749,0.000471,-0.002827,9.9e-05,-1.6e-05,0.0,-0.005475,-0.509286,-0.002009,0.117186,-264.284396,-0.515501,62.06044
5.6659,-0.004979,0.001044,-0.001595,9.9e-05,-1.6e-05,0.0,-0.006191,-0.509527,-0.002827,0.042038,-264.284395,-0.440354,62.060441
5.686,-0.004457,0.000797,-0.002013,9.9e-05,-1.6e-05,0.0,-0.006164,-0.509488,-0.002742,0.042038,-264.284395,-0.440354,62.060441
5.706,-0.004539,0.000626,-0.001784,0.0,-0.0,0.0,-0.005483,-0.509202,-0.002013,-0.032844,-264.284389,-0.365471,62.060447
5.726,-0.004646,0.000631,-0.000976,0.000699,-0.00011,3.7e-05,-0.005463,-0.5093,-0.001882,-0.032844,-264.284389,-0.365471,62.060447
5.7459,-0.004564,0.000611,-5e-05,0.001355,-0.000214,7.1e-05,-0.005463,-0.5093,-0.001882,-0.032844,-264.284389,-0.365471,62.060447
5.7658,-0.004889,0.000993,-0.001593,0.001985,-0.000314,0.000104,-0.004588,-0.50939,-5e-05,-0.107943,-264.284374,-0.290372,62.060462
5.7861,-0.004815,0.000962,-0.001087,0.002568,-0.000406,0.000135,-0.004661,-0.509364,-0.000152,-0.107943,-264.284374,-0.290372,62.060462
5.8063,-0.004711,0.00077,-0.002847,0.003121,-0.000493,0.000164,-0.005325,-0.509045,-0.001083,-0.125281,-264.283915,-0.215502,62.060926
5.826,-0.004454,0.000943,-0.000392,0.003638,-0.000575,0.000191,-0.005796,-0.50915,-0.002086,-0.125281,-264.283915,-0.215502,62.060926
5.8461,-0.004513,0.000673,-0.000464,0.00412,-0.000651,0.000216,-0.005796,-0.50915,-0.002086,-0.125281,-264.283915,-0.215502,62.060926
5.8662,-0.004549,0.00073,-0.001857,0.004566,-0.000721,0.00024,-0.004627,-0.509347,-0.000458,-0.125281,-264.282892,-0.187775,62.061959
5.886,-0.004347,0.000879,-0.001298,0.004975,-0.000786,0.000261,-0.004682,-0.509342,-0.000552,-0.125281,-264.282892,-0.187775,62.061959
5.9061,-0.004315,0.000527,-0.002175,0.00535,-0.000845,0.000281,-0.00485,-0.509146,-0.00129,-0.125281,-264.281228,-0.187775,62.063639
5.9259,-0.00419,0.000668,0.000173,0.005688,-0.000899,0.000298,-0.00516,-0.509336,-0.001797,-0.125281,-264.281228,-0.187775,62.063639
5.9463,-0.004564,0.000601,-0.002975,0.005992,-0.000947,0.000314,-0.00516,-0.509336,-0.001797,-0.125281,-264.281228,-0.187775,62.063639
5.9662,-0.00398,0.00024,-0.0014,0.00626,-0.000989,0.000328,-0.00584,-0.509436,-0.002962,-0.125281,-264.279223,-0.187775,62.065664
5.9862,-0.003872,0.000738,-0.00147,0.006492,-0.001026,0.000341,-0.005751,-0.50946,-0.00285,-0.125281,-264.279223,-0.187775,62.065664
6.0062,-0.003663,0.000695,-0.000714,0.006688,-0.001057,0.000351,-0.004391,-0.509298,-0.001458,-0.125281,-264.276811,-0.187775,62.0681
6.0261,-0.003812,0.000615,-0.00043,0.006848,-0.001082,0.000359,-0.004155,-0.509306,-0.001034,-0.125281,-264.276811,-0.187775,62.0681
6.046,-0.003759,0.000793,-0.000512,0.006973,-0.001102,0.000366,-0.004155,-0.509306,-0.001034,-0.125281,-264.276811,-0.187775,62.0681
6.0661,-0.003257,0.000859,-0.001667,0.007062,-0.001116,0.00037,-0.003705,-0.509257,-0.000496,-0.125281,-264.274193,-0.187775,62.070743
6.0859,-0.003591,0.000396,-0.00066,0.007115,-0.001124,0.000373,-0.003725,-0.50925,-0.000577,-0.125281,-264.274193,-0.187775,62.070743
6.106,-0.003022,0.000238,-0.000773,0.007133,-0.001127,0.000374,-0.003658,-0.509646,-0.000646,-0.125281,-264.271377,-0.187775,62.073588
6.126,-0.003375,0.000955,-0.00074,0.007115,-0.001124,0.000373,-0.003485,-0.509718,-0.000717,-0.125281,-264.271377,-0.187775,62.073588
6.1459,-0.003302,0.000894,-0.001161,0.007062,-0.001116,0.00037,-0.003485,-0.509718,-0.000717,-0.125281,-264.271377,-0.187775,62.073588
6.1659,-0.002855,0.000346,-0.000832,0.006973,-0.001102,0.000366,-0.003549,-0.50916,-0.001143,-0.125281,-264.268494,-0.187775,62.0765
6.186,-0.002917,0.000372,-0.001007,0.006848,-0.001082,0.000359,-0.003514,-0.509204,-0.001116,-0.125281,-264.268494,-0.187775,62.0765
