mach0312/omni-docking-bench/src/icros_test_setup/results/kinematic_sample/timeseries/trial_024.csv
t,x,y,yaw,vx,vy,wz,bl_x,bl_y,bl_yaw,front_steering_joint,front_wheel_joint,rear_steering_joint,rear_wheel_joint
0.0,0.039077,0.028394,-0.068357,-0.007653,0.000964,-0.002578,0.00483,-0.480944,-0.068124,0.079567,-263.996181,-0.32029,63.345129
0.0005,0.039089,0.02787,-0.067754,-0.007653,0.000964,-0.002578,0.005104,-0.481124,-0.067306,0.079567,-263.999132,-0.32029,63.34203
0.0009,0.038778,0.028433,-0.068184,-0.007516,0.000947,-0.002532,0.005104,-0.481124,-0.067306,0.079567,-264.002191,-0.32029,63.338818
0.0013,0.038242,0.028416,-0.070177,-0.00734,0.000925,-0.002472,0.005207,-0.480736,-0.067404,0.079567,-264.005333,-0.32029,63.335518
0.0017,0.038791,0.028284,-0.068986,-0.007124,0.000898,-0.0024,0.005207,-0.480736,-0.067404,0.079567,-264.008443,-0.32029,63.332252
0.002,0.038149,0.02843,-0.069482,-0.00687,0.000865,-0.002314,0.005207,-0.480736,-0.067404,0.079567,-264.011408,-0.32029,63.329137
0.0023,0.038274,0.028304,-0.068853,-0.006576,0.000829,-0.002215,0.004432,-0.481011,-0.068636,0.079567,-264.014152,-0.32029,63.326256
0.0026,0.03821,0.028509,-0.06903,-0.006243,0.000787,-0.002103,0.004406,-0.480996,-0.068629,0.079567,-264.014152,-0.32029,63.326256
0.0029,0.037874,0.028181,-0.069459,-0.00587,0.00074,-0.001977,0.004406,-0.480996,-0.068629,0.079567,-264.014152,-0.32029,63.326256
0.0032,0.038185,0.02868,-0.068518,-0.00546,0.000688,-0.001839,0.003996,-0.480638,-0.068155,0.079567,-264.014152,-0.32029,63.326256
0.0178,0.037923,0.028687,-0.068801,-0.02101,-0.015369,0.028312,0.003044,-0.480079,-0.068594,0.079567,-264.016503,-0.32029,63.323787
0.0378,0.037848,0.028202,-0.069688,-0.035861,-0.031226,0.05,0.002913,-0.480089,-0.068721,0.079567,-264.016503,-0.32029,63.323787
0.0578,0.037969,0.028647,-0.067788,-0.035792,-0.030769,0.05,0.002913,-0.480089,-0.068721,0.079567,-264.016503,-0.32029,63.323787
0.0777,0.037854,0.028649,-0.071056,-0.035942,-0.031153,0.05,0.003182,-0.480135,-0.067871,0.079567,-264.018515,-0.32029,63.321673
0.0979,0.038107,0.028225,-0.06738,-0.035724,-0.031264,0.05,0.003071,-0.480128,-0.068092,0.079567,-264.018515,-0.32029,63.321673
0.1177,0.037431,0.028585,-0.068796,-0.03612,-0.030726,0.05,0.003769,-0.480618,-0.06738,0.006459,-264.018517,-0.245255,63.32167
0.1377,0.037258,0.028758,-0.070523,-0.035378,-0.03109,0.05,0.002977,-0.480386,-0.068183,0.006459,-264.018517,-0.245255,63.32167
0.1579,0.037814,0.028402,-0.068284,-0.035139,-0.031311,0.05,0.002977,-0.480386,-0.068183,0.006459,-264.018517,-0.245255,63.32167
0.1779,0.037748,0.028638,-0.069112,-0.035788,-0.030916,0.05,0.003016,-0.48041,-0.068284,0.020337,-264.018518,-0.170412,63.321668
0.198,0.037858,0.028537,-0.068215,-0.035681,-0.031177,0.05,0.002984,-0.480392,-0.06834,0.020337,-264.018518,-0.170412,63.321668
0.2177,0.037847,0.028313,-0.067932,-0.035825,-0.031051,0.05,0.003095,-0.480277,-0.068215,0.022023,-264.018519,-0.095352,63.321665
0.2377,0.037514,0.028644,-0.069385,-0.035838,-0.030817,0.05,0.003171,-0.480411,-0.068054,0.022023,-264.018519,-0.095352,63.321665
0.2577,0.03753,0.02829,-0.069295,-0.035438,-0.031176,0.05,0.003171,-0.480411,-0.068054,0.022023,-264.018519,-0.095352,63.321665
0.2779,0.037689,0.028245,-0.069987,-0.035481,-0.03082,0.05,0.002218,-0.480486,-0.069295,0.017912,-264.018521,-0.020305,63.321662
0.2982,0.037585,0.028755,-0.068564,-0.035622,-0.030811,0.05,0.002204,-0.480488,-0.069343,0.017912,-264.018521,-0.020305,63.321662
0.3182,0.037341,0.02839,-0.069337,-0.035526,-0.031263,0.05,0.002644,-0.480047,-0.068564,0.018006,-264.018522,0.05463,63.321659
0.338,0.037755,0.02854,-0.069556,-0.035284,-0.030909,0.05,0.002288,-0.480235,-0.068996,0.018006,-264.018522,0.05463,63.321659
0.3577,0.037605,0.028506,-0.068788,-0.035681,-0.031095,0.05,0.002288,-0.480235,-0.068996,0.018006,-264.018522,0.05463,63.321659
0.3777,0.037542,0.028493,-0.06899,-0.035557,-0.031023,0.05,0.002551,-0.480288,-0.068788,0.007683,-264.018524,0.129642,63.321656
0.398,0.037373,0.028802,-0.070068,-0.035489,-0.031013,0.05,0.00254,-0.480289,-0.068802,0.007683,-264.018524,0.129642,63.321656
0.4181,0.03768,0.028297,-0.069503,-0.035265,-0.031347,0.05,0.001668,-0.479947,-0.070068,0.015613,-264.018525,0.204642,63.321653
0.438,0.037715,0.028587,-0.070525,-0.035624,-0.030846,0.05,0.002008,-0.480248,-0.069744,0.015613,-264.018525,0.204642,63.321653
0.4577,0.037657,0.028781,-0.069844,-0.035607,-0.031173,0.05,0.002008,-0.480248,-0.069744,0.015613,-264.018525,0.204642,63.321653
0.4777,0.037836,0.028504,-0.068589,-0.035557,-0.031339,0.05,0.002065,-0.479975,-0.069844,0.013396,-264.018527,0.279765,63.32165
0.4981,0.037688,0.028741,-0.068886,-0.035793,-0.031031,0.05,0.00212,-0.479997,-0.069761,0.013396,-264.018527,0.279765,63.32165
0.5182,0.037449,0.028525,-0.067949,-0.03562,-0.031267,0.05,0.002584,-0.48005,-0.068886,0.017849,-264.018528,0.35463,63.321647
0.5378,0.037725,0.028877,-0.067865,-0.035426,-0.031002,0.05,0.002721,-0.480192,-0.068348,0.017849,-264.018528,0.35463,63.321647
0.5578,0.037587,0.028608,-0.069345,-0.03568,-0.031368,0.05,0.002721,-0.480192,-0.068348,0.017849,-264.018528,0.35463,63.321647
0.5777,0.038103,0.02878,-0.068821,-0.035515,-0.031143,0.05,0.002249,-0.480167,-0.069344,0.013774,-264.018533,0.429808,63.321637
0.5984,0.037394,0.028553,-0.069237,-0.036034,-0.031332,0.05,0.002304,-0.480156,-0.069308,0.013774,-264.018533,0.429808,63.321637
0.6177,0.037601,0.028541,-0.067193,-0.03533,-0.031071,0.05,0.002109,-0.480226,-0.069235,0.023282,-264.018555,0.50464,63.321593
0.6377,0.037713,0.028466,-0.069817,-0.0356,-0.031001,0.05,0.002826,-0.480273,-0.068063,0.023282,-264.018555,0.50464,63.321593
0.6577,0.037377,0.028565,-0.068158,-0.035636,-0.031027,0.05,0.002826,-0.480273,-0.068063,0.023282,-264.018555,0.50464,63.321593
0.6778,0.037518,0.028535,-0.069846,-0.035345,-0.031044,0.05,0.002626,-0.480257,-0.068146,0.022053,-264.018665,0.579773,63.321375
0.6976,0.037677,0.028228,-0.069192,-0.035436,-0.031084,0.05,0.002573,-0.480255,-0.068271,0.022053,-264.018665,0.579773,63.321375
0.718,0.037437,0.028508,-0.069113,-0.035635,-0.030765,0.05,0.002367,-0.480571,-0.069155,0.013745,-264.01905,0.654749,63.320607
0.7382,0.037459,0.028591,-0.068932,-0.035379,-0.031025,0.05,0.002275,-0.480404,-0.069127,0.013745,-264.01905,0.654749,63.320607
0.7579,0.037539,0.028298,-0.069982,-0.035401,-0.031104,0.05,0.002275,-0.480404,-0.069127,0.013745,-264.01905,0.654749,63.320607
0.7778,0.037007,0.028195,-0.068254,-0.035468,-0.030854,0.05,0.001704,-0.480532,-0.069838,0.015412,-264.020156,0.729782,63.318388
0.7981,0.037159,0.028171,-0.068798,-0.034998,-0.030653,0.05,0.001741,-0.480541,-0.069706,0.015412,-264.020156,0.729782,63.318388
0.818,0.036536,0.028213,-0.067982,-0.035135,-0.030658,0.05,0.001804,-0.480768,-0.068534,0.01599,-264.022828,0.805014,63.313683
0.8378,0.036771,0.028479,-0.070094,-0.034535,-0.03063,0.05,0.001817,-0.480696,-0.068184,0.01599,-264.022828,0.805014,63.313683
0.8577,0.03656,0.028254,-0.068795,-0.034686,-0.030984,0.05,0.001817,-0.480696,-0.068184,0.01599,-264.022828,0.805014,63.313683
0.8777,0.035407,0.027948,-0.068273,-0.034532,-0.0307,0.05,0.000888,-0.480836,-0.068244,0.003303,-264.028002,0.879756,63.306468
0.8979,0.035959,0.027853,-0.068909,-0.033417,-0.030299,0.05,0.000851,-0.480847,-0.068231,0.003303,-264.028002,0.879756,63.306468
0.9178,0.03464,0.027662,-0.067132,-0.033956,-0.030263,0.05,0.000178,-0.481278,-0.068292,0.012868,-264.035703,0.954763,63.296721
0.9377,0.034839,0.027591,-0.06744,-0.032707,-0.029924,0.05,0.00024,-0.481269,-0.067538,0.012868,-264.035703,0.954763,63.296721
0.9583,0.034392,0.026951,-0.068841,-0.0329,-0.029876,0.05,0.00024,-0.481269,-0.067538,0.012868,-264.035703,0.954763,63.296721
0.9777,0.032874,0.027273,-0.065413,-0.032456,-0.029253,0.05,-0.001726,-0.4824,-0.067797,-0.007151,-264.045832,1.030044,63.284563
0.9981,0.033125,0.026598,-0.066397,-0.031021,-0.029363,0.05,-0.001666,-0.482362,-0.067604,-0.007151,-264.045832,1.030044,63.284563
1.0179,0.030714,0.026465,-0.066048,-0.031287,-0.028737,0.05,-0.001703,-0.482826,-0.065355,-0.0201,-264.058517,1.072122,63.269836
1.0379,0.030868,0.026084,-0.064771,-0.0289,-0.028435,0.05,-0.002538,-0.482665,-0.065619,-0.0201,-264.058517,1.072122,63.269836
1.0579,0.031157,0.026436,-0.064727,-0.029115,-0.028027,0.05,-0.002538,-0.482665,-0.065619,-0.0201,-264.058517,1.072122,63.269836
1.0777,0.028655,0.025819,-0.062157,-0.029382,-0.028396,0.05,-0.003109,-0.483315,-0.063162,-0.037841,-264.070769,1.092958,63.252647
1.0981,0.02851,0.025196,-0.062562,-0.026996,-0.027549,0.05,-0.003138,-0.483328,-0.063051,-0.037841,-264.070769,1.092958,63.252647
1.1177,0.026417,0.024839,-0.061082,-0.026879,-0.026929,0.05,-0.004387,-0.484551,-0.061091,-0.085998,-264.082008,1.109437,63.232896
1.1379,0.026655,0.024702,-0.060108,-0.024851,-0.026405,0.05,-0.004704,-0.484449,-0.0609,-0.085998,-264.082008,1.109437,63.232896
1.1577,0.026377,0.024367,-0.061476,-0.025123,-0.026258,0.05,-0.004704,-0.484449,-0.0609,-0.085998,-264.082008,1.109437,63.232896
1.1778,0.023945,0.023824,-0.058517,-0.02483,-0.025942,0.05,-0.006232,-0.485744,-0.059361,-0.110261,-264.092629,1.135737,63.21073
1.198,0.023953,0.023782,-0.05891,-0.022511,-0.025184,0.05,-0.006242,-0.485742,-0.059245,-0.110261,-264.092629,1.135737,63.21073
1.2182,0.021547,0.022764,-0.057564,-0.022511,-0.025151,0.05,-0.007041,-0.486233,-0.057092,-0.168716,-264.102242,1.154332,63.187303
1.2379,0.021779,0.022885,-0.055736,-0.020201,-0.023966,0.05,-0.007596,-0.486438,-0.057133,-0.168716,-264.102242,1.154332,63.187303
1.2579,0.021675,0.022431,-0.056832,-0.02047,-0.024063,0.05,-0.007596,-0.486438,-0.057133,-0.168716,-264.102242,1.154332,63.187303
1.2782,0.019172,0.020875,-0.053671,-0.020366,-0.023626,0.05,-0.008359,-0.487811,-0.054602,-0.233486,-264.110777,1.186859,63.165135
1.298,0.018945,0.021629,-0.05553,-0.018024,-0.021874,0.05,-0.008378,-0.487891,-0.054458,-0.233486,-264.110777,1.186859,63.165135
1.3177,0.017117,0.020881,-0.053603,-0.017715,-0.022647,0.05,-0.01012,-0.488385,-0.053784,-0.306338,-264.118558,1.212102,63.144004
1.3378,0.017301,0.020049,-0.052179,-0.015973,-0.021768,0.05,-0.010267,-0.488488,-0.053458,-0.306338,-264.118558,1.212102,63.144004
1.3581,0.017285,0.020578,-0.050701,-0.016232,-0.020924,0.05,-0.010267,-0.488488,-0.053458,-0.306338,-264.118558,1.212102,63.144004
1.3777,0.015432,0.019765,-0.049816,-0.01622,-0.021428,0.05,-0.009236,-0.489516,-0.048995,-0.3811,-264.124275,1.239566,63.12816
1.3981,0.015578,0.019735,-0.049941,-0.014428,-0.020509,0.049816,-0.0093,-0.489541,-0.049006,-0.3811,-264.124275,1.239566,63.12816
1.4182,0.014269,0.019463,-0.048268,-0.014573,-0.020488,0.049941,-0.010342,-0.490172,-0.048661,-0.455989,-264.129394,1.265253,63.113517
1.4379,0.014423,0.019025,-0.049465,-0.013314,-0.020128,0.048268,-0.010398,-0.490109,-0.048274,-0.455989,-264.129394,1.265253,63.113517
1.4578,0.014172,0.018782,-0.049731,-0.013465,-0.019715,0.049465,-0.010398,-0.490109,-0.048274,-0.455989,-264.129394,1.265253,63.113517
1.478,0.012852,0.018675,-0.048203,-0.013221,-0.019464,0.049731,-0.011716,-0.491276,-0.048069,-0.53112,-264.134292,1.294753,63.098706
1.4982,0.012692,0.018374,-0.047404,-0.011937,-0.019273,0.048203,-0.011731,-0.491255,-0.048032,-0.53112,-264.134292,1.294753,63.098706
1.5179,0.011529,0.017521,-0.046702,-0.011807,-0.018955,0.047404,-0.011904,-0.491621,-0.045979,-0.606092,-264.139457,1.307373,63.083064
1.5379,0.011053,0.017582,-0.044906,-0.010699,-0.01804,0.046702,-0.012173,-0.491865,-0.046209,-0.606092,-264.139457,1.307373,63.083064
1.5577,0.011334,0.01786,-0.045433,-0.010252,-0.018061,0.044906,-0.012173,-0.491865,-0.046209,-0.606092,-264.139457,1.307373,63.083064
1.5776,0.009326,0.016922,-0.04262,-0.010512,-0.018356,0.045433,-0.01236,-0.49239,-0.043461,-0.680982,-264.144787,1.330474,63.066016
1.5976,0.009251,0.016912,-0.043376,-0.008597,-0.017304,0.04262,-0.012379,-0.492432,-0.043333,-0.680982,-264.144787,1.330474,63.066016
1.6177,0.008222,0.016608,-0.0404,-0.008509,-0.017297,0.043376,-0.013261,-0.493244,-0.041755,-0.740222,-264.149987,1.349114,63.048555
1.6378,0.007975,0.016406,-0.040971,-0.007544,-0.016926,0.0404,-0.012808,-0.493172,-0.040777,-0.740222,-264.149987,1.349114,63.048555
1.6577,0.008489,0.016186,-0.041746,-0.007296,-0.016719,0.040971,-0.012808,-0.493172,-0.040777,-0.740222,-264.149987,1.349114,63.048555
1.6778,0.006844,0.015167,-0.039776,-0.007807,-0.016526,0.041746,-0.013222,-0.494149,-0.039787,-0.792855,-264.154624,1.374955,63.031829
1.6976,0.006682,0.015436,-0.039776,-0.006235,-0.015427,0.039776,-0.013249,-0.49419,-0.039733,-0.792855,-264.154624,1.374955,63.031829
1.7177,0.005389,0.014624,-0.03813,-0.006063,-0.015689,0.039776,-0.013887,-0.494758,-0.038287,-0.849968,-264.158786,1.397758,63.015876
1.7377,0.005358,0.014411,-0.038225,-0.004827,-0.014819,0.03813,-0.014018,-0.494974,-0.038009,-0.849968,-264.158786,1.397758,63.015876
1.7578,0.005092,0.014447,-0.035769,-0.004804,-0.014606,0.038225,-0.014018,-0.494974,-0.038009,-0.849968,-264.158786,1.397758,63.015876
1.7777,0.004005,0.013967,-0.036322,-0.004572,-0.01462,0.035769,-0.013424,-0.49584,-0.03418,-0.92497,-264.162371,1.415089,63.002576
1.7977,0.004107,0.014032,-0.03644,-0.003495,-0.014103,0.036322,-0.013513,-0.495847,-0.034294,-0.92497,-264.162371,1.415089,63.002576
1.8176,0.003209,0.013525,-0.035303,-0.003593,-0.014173,0.03644,-0.014627,-0.496028,-0.035403,-1.000094,-264.165201,1.444889,62.991721
1.8378,0.003391,0.013367,-0.035407,-0.00273,-0.013629,0.035303,-0.014741,-0.496153,-0.035214,-1.000094,-264.165201,1.444889,62.991721
1.8578,0.003627,0.013728,-0.033619,-0.002916,-0.013479,0.035407,-0.014741,-0.496153,-0.035214,-1.000094,-264.165201,1.444889,62.991721
1.8781,0.002307,0.012872,-0.032469,-0.003163,-0.013842,0.033619,-0.013651,-0.496426,-0.032492,-1.075136,-264.167471,1.474773,62.982322
1.8977,0.002375,0.01345,-0.031796,-0.001888,-0.01294,0.032469,-0.013699,-0.496471,-0.032458,-1.075136,-264.167471,1.474773,62.982322
1.9177,0.002002,0.012827,-0.030413,-0.001946,-0.013519,0.031796,-0.013935,-0.49665,-0.030862,-1.150088,-264.169849,1.487927,62.972641
1.9378,0.00143,0.012883,-0.032047,-0.001611,-0.012882,0.030413,-0.013703,-0.496859,-0.030488,-1.150088,-264.169849,1.487927,62.972641
1.9578,0.001749,0.012547,-0.032208,-0.001017,-0.012922,0.032047,-0.013703,-0.496859,-0.030488,-1.150088,-264.169849,1.487927,62.972641
1.9782,0.00101,0.012158,-0.031396,-0.001344,-0.012597,0.032208,-0.014759,-0.497616,-0.03114,-1.224964,-264.171791,1.513247,62.963721
1.9982,0.001034,0.012192,-0.030254,-0.000628,-0.012184,0.031396,-0.014778,-0.497626,-0.03113,-1.224964,-264.171791,1.513247,62.963721
2.0182,0.000763,0.012245,-0.029451,-0.000665,-0.012218,0.030254,-0.014431,-0.497844,-0.029591,-1.300069,-264.173245,1.53952,62.956694
2.0378,0.000561,0.011559,-0.029374,-0.000402,-0.012262,0.029451,-0.014334,-0.497699,-0.029426,-1.300069,-264.173245,1.53952,62.956694
2.0579,0.000687,0.01207,-0.029122,-0.000221,-0.01157,0.029374,-0.014334,-0.497699,-0.029426,-1.300069,-264.173245,1.53952,62.956694
2.0783,0.000231,0.011916,-0.029568,-0.000335,-0.012085,0.029122,-0.014202,-0.498062,-0.028228,-1.375261,-264.174899,1.550765,62.949302
2.0976,0.000168,0.011592,-0.028746,0.000121,-0.011918,0.029568,-0.014253,-0.498057,-0.028307,-1.375261,-264.174899,1.550765,62.949302
2.1183,-0.000531,0.011305,-0.027013,0.000165,-0.011592,0.028746,-0.014511,-0.49849,-0.028005,-1.450336,-264.176569,1.563301,62.941568
2.1377,-0.000315,0.011242,-0.02587,0.000836,-0.011287,0.027013,-0.014397,-0.498538,-0.027344,-1.450336,-264.176569,1.563301,62.941568
2.1578,-0.000153,0.011413,-0.027792,0.000606,-0.01123,0.02587,-0.014397,-0.498538,-0.027344,-1.450336,-264.176569,1.563301,62.941568
2.1779,-0.000916,0.010857,-0.026618,0.00047,-0.011405,0.027792,-0.014339,-0.498811,-0.026746,-1.525011,-264.17836,1.574845,62.93283
2.1982,-0.001007,0.011244,-0.027357,0.001204,-0.010829,0.026618,-0.01435,-0.498833,-0.026708,-1.525011,-264.17836,1.574845,62.93283
2.2177,-0.001237,0.010298,-0.026381,0.001315,-0.011213,0.027357,-0.014956,-0.498824,-0.026757,-1.600091,-264.179463,1.593218,62.926357
2.2377,-0.001545,0.010635,-0.02492,0.001509,-0.010262,0.026381,-0.014804,-0.499256,-0.026467,-1.600091,-264.179463,1.593218,62.926357
2.2577,-0.001071,0.010447,-0.025986,0.00181,-0.010593,0.02492,-0.014804,-0.499256,-0.026467,-1.600091,-264.179463,1.593218,62.926357
2.2778,-0.001555,0.010563,-0.026028,0.001342,-0.010415,0.025986,-0.014323,-0.499381,-0.025986,-1.525091,-264.179463,1.615229,62.926356
2.2977,-0.001408,0.010567,-0.026605,0.00183,-0.010519,0.026028,-0.01436,-0.499373,-0.025989,-1.525091,-264.179463,1.615229,62.926356
2.3183,-0.001135,0.010441,-0.027484,0.001689,-0.010525,0.026605,-0.014975,-0.499253,-0.026605,-1.450069,-264.179463,1.640783,62.926355
2.3378,-0.001545,0.010759,-0.026514,0.001421,-0.010406,0.027484,-0.015074,-0.499317,-0.027105,-1.450069,-264.179463,1.640783,62.926355
2.3578,-0.001701,0.010393,-0.025651,0.00183,-0.010715,0.026514,-0.015074,-0.499317,-0.027105,-1.450069,-264.179463,1.640783,62.926355
2.3781,-0.001169,0.010597,-0.026526,0.001967,-0.010346,0.025651,-0.014782,-0.499439,-0.025651,-1.375213,-264.179463,1.639945,62.926354
2.3982,-0.001304,0.010354,-0.027018,0.00145,-0.010562,0.026526,-0.014776,-0.499423,-0.025715,-1.375213,-264.179463,1.639945,62.926354
2.4177,-0.001284,0.010165,-0.024873,0.001583,-0.010315,0.027018,-0.015082,-0.49946,-0.027018,-1.30004,-264.179463,1.638707,62.926353
2.4378,-0.001309,0.010299,-0.026393,0.001537,-0.01013,0.024873,-0.014449,-0.499584,-0.025799,-1.30004,-264.179463,1.638707,62.926353
2.4579,-0.001359,0.010629,-0.02721,0.00158,-0.010261,0.026393,-0.014449,-0.499584,-0.025799,-1.30004,-264.179463,1.638707,62.926353
2.4778,-0.001406,0.01027,-0.024187,0.001648,-0.010588,0.02721,-0.015235,-0.499183,-0.02721,-1.225214,-264.179462,1.624905,62.926352
2.4976,-0.001127,0.010513,-0.024633,0.001654,-0.010233,0.024187,-0.015131,-0.49921,-0.027001,-1.225214,-264.179462,1.624905,62.926352
2.5177,-0.001435,0.010607,-0.026217,0.001386,-0.010482,0.024633,-0.013689,-0.499332,-0.024632,-1.150214,-264.179462,1.630617,62.926351
2.5377,-0.001038,0.01081,-0.025274,0.001713,-0.010566,0.026217,-0.014323,-0.499267,-0.025534,-1.150214,-264.179462,1.630617,62.926351
2.5579,-0.001345,0.010811,-0.027469,0.001311,-0.01078,0.025274,-0.014323,-0.499267,-0.025534,-1.150214,-264.179462,1.630617,62.926351
2.5777,-0.001265,0.010373,-0.026533,0.001641,-0.01077,0.027469,-0.015352,-0.498996,-0.027469,-1.075216,-264.179462,1.63686,62.92635
2.5977,-0.001498,0.010733,-0.026588,0.00154,-0.010336,0.026533,-0.015314,-0.499027,-0.027404,-1.075216,-264.179462,1.63686,62.92635
2.6177,-0.001255,0.010702,-0.027383,0.001783,-0.010689,0.026588,-0.015056,-0.499087,-0.026588,-1.000208,-264.179462,1.620752,62.926349
2.6379,-0.001396,0.010431,-0.027105,0.001547,-0.010664,0.027383,-0.01515,-0.499098,-0.027045,-1.000208,-264.179462,1.620752,62.926349
2.6577,-0.001006,0.010652,-0.026255,0.001678,-0.010389,0.027105,-0.01515,-0.499098,-0.027045,-1.000208,-264.179462,1.620752,62.926349
2.6777,-0.001258,0.010418,-0.02619,0.001285,-0.010622,0.026255,-0.014395,-0.499172,-0.026255,-0.925032,-264.179461,1.628747,62.926348
2.6982,-0.001555,0.010563,-0.023983,0.001531,-0.010381,0.02619,-0.014411,-0.49919,-0.02625,-0.925032,-264.179461,1.628747,62.926348
2.7177,-0.001421,0.01015,-0.027109,0.001808,-0.010523,0.023983,-0.013785,-0.499291,-0.023983,-0.850076,-264.179461,1.632992,62.926347
2.738,-0.00113,0.010021,-0.025483,0.001696,-0.010108,0.027109,-0.014622,-0.499504,-0.025775,-0.850076,-264.179461,1.632992,62.926347
2.7579,-0.001668,0.010624,-0.025106,0.001385,-0.009989,0.025483,-0.014622,-0.499504,-0.025775,-0.850076,-264.179461,1.632992,62.926347
2.7778,-0.001311,0.010719,-0.026386,0.001934,-0.010579,0.025106,-0.014471,-0.499215,-0.025106,-0.775087,-264.179461,1.628766,62.926346
2.7981,-0.00105,0.010324,-0.025349,0.001593,-0.010681,0.026386,-0.014494,-0.499207,-0.025206,-0.775087,-264.179461,1.628766,62.926346
2.8178,-0.001302,0.010538,-0.024556,0.001312,-0.010294,0.025349,-0.013977,-0.499512,-0.025349,-0.699884,-264.179461,1.624927,62.926345
2.8377,-0.001088,0.010774,-0.024317,0.00156,-0.010503,0.024556,-0.01389,-0.499396,-0.024899,-0.699884,-264.179461,1.624927,62.926345
2.858,-0.001237,0.010563,-0.02426,0.001349,-0.010745,0.024317,-0.01389,-0.499396,-0.024899,-0.699884,-264.179461,1.624927,62.926345
2.8782,-0.001218,0.010395,-0.025748,0.001492,-0.01053,0.02426,-0.013608,-0.499287,-0.02426,-0.625075,-264.17946,1.630187,62.926344
2.8977,-0.001475,0.010573,-0.026327,0.001485,-0.010361,0.025748,-0.013661,-0.499298,-0.024367,-0.625075,-264.17946,1.630187,62.926344
2.9177,-0.000895,0.01049,-0.027008,0.001753,-0.01053,0.026327,-0.014901,-0.499251,-0.026327,-0.550117,-264.17946,1.623468,62.926343
2.9378,-0.001236,0.010368,-0.027722,0.001178,-0.010462,0.027008,-0.014767,-0.499292,-0.026716,-0.550117,-264.17946,1.623468,62.926343
2.9577,-0.001385,0.010423,-0.026675,0.001523,-0.01033,0.027722,-0.014767,-0.499292,-0.026716,-0.550117,-264.17946,1.623468,62.926343
2.9781,-0.001284,0.010158,-0.025532,0.001662,-0.010382,0.026675,-0.014987,-0.499395,-0.026675,-0.475105,-264.17946,1.627671,62.926342
2.998,-0.001311,0.01037,-0.026207,0.001543,-0.010122,0.025532,-0.014939,-0.499415,-0.026594,-0.475105,-264.17946,1.627671,62.926342
3.0178,-0.001498,0.010435,-0.025712,0.001582,-0.010332,0.026207,-0.014675,-0.499455,-0.026207,-0.400129,-264.17946,1.626606,62.92634
3.0378,-0.001681,0.010666,-0.024674,0.001766,-0.010393,0.025712,-0.014638,-0.499421,-0.025924,-0.400129,-264.17946,1.626606,62.92634
3.0577,-0.001513,0.010296,-0.026312,0.001944,-0.010621,0.024674,-0.014638,-0.499421,-0.025924,-0.400129,-264.17946,1.626606,62.92634
3.0779,-0.001407,0.010952,-0.025047,0.001783,-0.010253,0.026312,-0.014931,-0.499527,-0.026312,-0.325069,-264.17946,1.630718,62.926339
3.098,-0.001575,0.010403,-0.027127,0.001681,-0.010914,0.025047,-0.014879,-0.499483,-0.026224,-0.325069,-264.17946,1.630718,62.926339
3.118,-0.001486,0.010555,-0.026708,0.001856,-0.010356,0.027127,-0.015408,-0.49941,-0.027127,-0.250103,-264.179459,1.646313,62.926338
3.1379,-0.001076,0.010784,-0.026116,0.001768,-0.010512,0.026708,-0.015235,-0.499325,-0.026887,-0.250103,-264.179459,1.646313,62.926338
3.1579,-0.00154,0.01029,-0.025796,0.001357,-0.010753,0.026116,-0.015235,-0.499325,-0.026887,-0.250103,-264.179459,1.646313,62.926338
3.1777,-0.001395,0.010376,-0.025564,0.001805,-0.010246,0.025796,-0.014695,-0.499541,-0.025796,-0.175084,-264.179459,1.634826,62.926337
3.1985,-0.001381,0.010432,-0.02743,0.00166,-0.010337,0.025564,-0.014676,-0.499535,-0.025779,-0.175084,-264.179459,1.634826,62.926337
3.2176,-0.001598,0.010736,-0.023455,0.001666,-0.01039,0.02743,-0.015368,-0.499376,-0.02743,-0.100018,-264.179459,1.621576,62.926336
3.2377,-0.00129,0.010279,-0.026535,0.001849,-0.010695,0.023455,-0.014331,-0.499232,-0.025152,-0.100018,-264.179459,1.621576,62.926336
3.2576,-0.001419,0.010246,-0.02487,0.001562,-0.010241,0.026535,-0.014331,-0.499232,-0.025152,-0.100018,-264.179459,1.621576,62.926336
3.2778,-0.001096,0.010532,-0.026287,0.001673,-0.010208,0.02487,-0.014101,-0.499596,-0.02487,-0.025072,-264.179459,1.634671,62.926335
3.2976,-0.001366,0.010601,-0.025217,0.001373,-0.0105,0.026287,-0.014129,-0.499575,-0.024969,-0.025072,-264.179459,1.634671,62.926335
3.3177,-0.001498,0.01062,-0.025059,0.001632,-0.010563,0.025217,-0.014225,-0.499237,-0.025217,0.049779,-264.179459,1.629781,62.926334
3.3382,-0.001341,0.010691,-0.026059,0.001764,-0.010579,0.025059,-0.014255,-0.499227,-0.025126,0.049779,-264.179459,1.629781,62.926334
3.3576,-0.001444,0.010603,-0.025665,0.001619,-0.010652,0.026059,-0.014255,-0.499227,-0.025126,0.049779,-264.179459,1.629781,62.926334
3.3777,-0.001195,0.010425,-0.025248,0.001715,-0.010563,0.025665,-0.014531,-0.499229,-0.025665,0.124933,-264.179458,1.622453,62.926333
3.3982,-0.001656,0.010273,-0.02593,0.001457,-0.010391,0.025248,-0.0145,-0.499242,-0.025636,0.124933,-264.179458,1.622453,62.926333
3.4179,-0.001839,0.010524,-0.024844,0.001922,-0.010227,0.02593,-0.014879,-0.499555,-0.02593,0.199797,-264.179458,1.631648,62.926332
3.4377,-0.00132,0.010139,-0.026752,0.0021,-0.010475,0.024844,-0.014667,-0.49942,-0.025309,0.199797,-264.179458,1.631648,62.926332
3.4576,-0.00178,0.010305,-0.026811,0.001591,-0.010101,0.026752,-0.014667,-0.49942,-0.025309,0.199797,-264.179458,1.631648,62.926332
3.4777,-0.001829,0.010226,-0.025368,0.002056,-0.010254,0.026811,-0.015452,-0.499511,-0.026811,0.274885,-264.179458,1.627199,62.926331
3.4981,-0.001826,0.01002,-0.026433,0.002088,-0.010176,0.025368,-0.015404,-0.499518,-0.02671,0.274885,-264.179458,1.627199,62.926331
3.5181,-0.001371,0.010893,-0.024837,0.002091,-0.009968,0.026433,-0.015306,-0.499802,-0.026433,0.349784,-264.179458,1.630887,62.92633
3.5379,-0.00123,0.010518,-0.024954,0.001641,-0.010855,0.024837,-0.014595,-0.499325,-0.025539,0.349784,-264.179458,1.630887,62.92633
3.5581,-0.001561,0.010343,-0.026399,0.001492,-0.010484,0.024954,-0.014595,-0.499325,-0.025539,0.349784,-264.179458,1.630887,62.92633
3.5782,-0.001829,0.010535,-0.025101,0.001833,-0.010299,0.026399,-0.015023,-0.499479,-0.026399,0.424789,-264.179457,1.651962,62.926329
3.5977,-0.001206,0.010486,-0.025998,0.002093,-0.010486,0.025101,-0.014996,-0.499467,-0.02631,0.424789,-264.179457,1.651962,62.926329
3.6178,-0.001269,0.010413,-0.02412,0.001479,-0.010452,0.025998,-0.014464,-0.499341,-0.025998,0.499899,-264.179457,1.628741,62.926328
3.638,-0.001267,0.010617,-0.027051,0.00152,-0.01038,0.02412,-0.013954,-0.499397,-0.024928,0.499899,-264.179457,1.628741,62.926328
3.6586,-0.001405,0.010471,-0.026268,0.001554,-0.010579,0.027051,-0.013954,-0.499397,-0.024928,0.499899,-264.179457,1.628741,62.926328
3.6778,-0.001064,0.010661,-0.025875,0.001679,-0.01043,0.026268,-0.0148,-0.499353,-0.026268,0.574836,-264.179456,1.651677,62.926322
3.6982,-0.001392,0.010489,-0.026133,0.001339,-0.01063,0.025875,-0.014762,-0.499341,-0.02624,0.574836,-264.179456,1.651677,62.926322
3.7182,-0.001418,0.010773,-0.025545,0.001665,-0.01045,0.026133,-0.014718,-0.499336,-0.026133,0.649905,-264.179456,1.628066,62.92632
3.738,-0.001196,0.010428,-0.025314,0.001693,-0.010733,0.025545,-0.014563,-0.49918,-0.025799,0.649905,-264.179456,1.628066,62.92632
3.7576,-0.00137,0.010428,-0.026626,0.00146,-0.010394,0.025314,-0.014563,-0.49918,-0.025799,0.649905,-264.179456,1.628066,62.92632
3.7776,-0.001648,0.010484,-0.026773,0.001647,-0.010387,0.026626,-0.014948,-0.499392,-0.026626,0.724795,-264.179454,1.621418,62.926314
3.7983,-0.001224,0.010235,-0.026795,0.001928,-0.010436,0.026773,-0.014972,-0.499388,-0.026636,0.724795,-264.179454,1.621418,62.926314
3.8183,-0.001299,0.010707,-0.027498,0.001498,-0.010199,0.026795,-0.014888,-0.499584,-0.026791,0.799879,-264.179445,1.627195,62.926267
3.8376,-0.001242,0.010229,-0.024499,0.001593,-0.010667,0.027498,-0.01513,-0.499314,-0.027186,0.799879,-264.179445,1.627195,62.926267
3.8578,-0.001331,0.010688,-0.02666,0.001492,-0.010195,0.024499,-0.01513,-0.499314,-0.027186,0.799879,-264.179445,1.627195,62.926267
3.8779,-0.001391,0.010679,-0.027553,0.001615,-0.010649,0.02666,-0.014922,-0.499147,-0.02662,0.874914,-264.179366,1.642653,62.925927
3.8976,-0.001356,0.010235,-0.025846,0.001684,-0.010637,0.027553,-0.014958,-0.499147,-0.026684,0.874914,-264.179366,1.642653,62.925927
3.9178,-0.001416,0.010529,-0.024776,0.00162,-0.010197,0.025846,-0.01453,-0.499627,-0.025773,0.949787,-264.179207,1.630036,62.925127
3.9377,-0.001501,0.010677,-0.025517,0.001677,-0.01049,0.024776,-0.014257,-0.499453,-0.025196,0.949787,-264.179207,1.630036,62.925127
3.9577,-0.000985,0.010446,-0.027982,0.001773,-0.010635,0.025517,-0.014257,-0.499453,-0.025196,0.949787,-264.179207,1.630036,62.925127
3.9776,-0.001293,0.010143,-0.025292,0.001277,-0.010414,0.027982,-0.01524,-0.499423,-0.027816,1.02478,-264.178882,1.632047,62.92373
3.9981,-0.001236,0.010125,-0.025952,0.001549,-0.010107,0.025292,-0.015163,-0.499445,-0.027626,1.02478,-264.178882,1.632047,62.92373
4.0176,-0.002101,0.010507,-0.02443,0.001498,-0.01009,0.025952,-0.014437,-0.499845,-0.025569,1.099895,-264.17779,1.638321,62.91982
4.0383,-0.001396,0.010081,-0.025461,0.002357,-0.010453,0.02443,-0.014503,-0.499571,-0.024861,1.099895,-264.17779,1.638321,62.91982
4.0577,-0.001912,0.010335,-0.025126,0.001652,-0.010042,0.025461,-0.014503,-0.499571,-0.024861,1.099895,-264.17779,1.638321,62.91982
4.0777,-0.002092,0.010013,-0.02355,0.002171,-0.010284,0.025126,-0.014682,-0.499784,-0.02444,1.1751,-264.176538,1.631332,62.914057
4.0979,-0.001794,0.009861,-0.02502,0.002327,-0.009961,0.02355,-0.014638,-0.499796,-0.024356,1.1751,-264.176538,1.631332,62.914057
4.1182,-0.002345,0.009555,-0.024207,0.002041,-0.009813,0.02502,-0.014506,-0.50029,-0.024225,1.249988,-264.174612,1.635261,62.90581
4.1383,-0.002421,0.009449,-0.023364,0.002041,-0.009813,0.02502,-0.014603,-0.500333,-0.024113,1.249988,-264.174612,1.635261,62.90581
4.1579,-0.002536,0.00944,-0.023711,2.7e-05,-9.6e-05,0.0,-0.014603,-0.500333,-0.024113,1.249988,-264.174612,1.635261,62.90581
4.1777,-0.002774,0.0094,-0.02292,2.7e-05,-9.6e-05,0.0,-0.014568,-0.500725,-0.022973,1.175193,-264.173332,1.666113,62.899546
4.1983,-0.003103,0.009377,-0.023419,2.7e-05,-9.6e-05,0.0,-0.014559,-0.500715,-0.02295,1.175193,-264.173332,1.666113,62.899546
4.2179,-0.002577,0.009124,-0.022057,2.7e-05,-9.6e-05,0.0,-0.015046,-0.500483,-0.023419,1.100187,-264.173332,1.591108,62.899546
4.2378,-0.003046,0.009012,-0.021916,2.7e-05,-9.6e-05,0.0,-0.014361,-0.500634,-0.022656,1.100187,-264.173332,1.591108,62.899546
4.2579,-0.002647,0.009358,-0.023312,2.7e-05,-9.6e-05,0.0,-0.014361,-0.500634,-0.022656,1.100187,-264.173332,1.591108,62.899546
4.2776,-0.003064,0.009307,-0.022083,2.7e-05,-9.6e-05,0.0,-0.014535,-0.500504,-0.023312,1.025201,-264.173332,1.516122,62.899546
4.298,-0.002861,0.008987,-0.023732,2.7e-05,-9.6e-05,0.0,-0.014521,-0.500508,-0.023226,1.025201,-264.173332,1.516122,62.899546
4.3177,-0.002816,0.00915,-0.021355,2.7e-05,-9.6e-05,0.0,-0.014963,-0.500869,-0.023732,0.950203,-264.173332,1.441123,62.899546
4.3383,-0.002951,0.009182,-0.022763,2.7e-05,-9.6e-05,0.0,-0.014249,-0.500792,-0.022381,0.950203,-264.173332,1.441123,62.899546
4.3581,-0.002858,0.0093,-0.022027,2.7e-05,-9.6e-05,0.0,-0.014249,-0.500792,-0.022381,0.950203,-264.173332,1.441123,62.899546
4.3781,-0.002598,0.009351,-0.023663,0.000386,-0.001373,0.003416,-0.014091,-0.500576,-0.022027,0.875164,-264.173332,1.366084,62.899546
4.3982,-0.002879,0.009361,-0.022017,0.000753,-0.002678,0.006664,-0.014131,-0.500571,-0.022141,0.875164,-264.173332,1.366084,62.899546
4.4182,-0.002737,0.008981,-0.022007,0.001099,-0.003907,0.009723,-0.014106,-0.500516,-0.022017,0.800139,-264.173332,1.291059,62.899546
4.4378,-0.002485,0.009269,-0.022744,0.001426,-0.005069,0.012613,-0.014023,-0.500731,-0.022011,0.800139,-264.173332,1.291059,62.899546
4.4581,-0.00313,0.009456,-0.023368,0.001733,-0.006161,0.015331,-0.014023,-0.500731,-0.022011,0.800139,-264.173332,1.291059,62.899546
4.4783,-0.002691,0.009276,-0.023688,0.002021,-0.007186,0.01788,-0.015047,-0.500408,-0.023361,0.875104,-264.173316,1.366025,62.899481
4.4978,-0.002978,0.00918,-0.021444,0.002288,-0.008135,0.020243,-0.015029,-0.500419,-0.023382,0.875104,-264.173316,1.366025,62.899481
4.5177,-0.002941,0.009246,-0.021469,0.002535,-0.009014,0.022429,-0.013914,-0.500728,-0.021384,0.950106,-264.173164,1.441026,62.898829
4.5377,-0.002797,0.009749,-0.022556,0.002762,-0.009821,0.024438,-0.0139,-0.500677,-0.021426,0.950106,-264.173164,1.441026,62.898829
4.5577,-0.002804,0.009181,-0.022434,0.002972,-0.010565,0.026289,-0.0139,-0.500677,-0.021426,0.950106,-264.173164,1.441026,62.898829
4.5778,-0.003171,0.009038,-0.02308,0.003158,-0.011229,0.027942,-0.014236,-0.500812,-0.022136,1.025685,-264.172582,1.516605,62.896328
4.5979,-0.002962,0.008979,-0.02225,0.003328,-0.01183,0.029438,-0.014287,-0.500817,-0.022196,1.025685,-264.172582,1.516605,62.896328
4.6182,-0.003075,0.008833,-0.022167,0.003476,-0.012359,0.030753,-0.014272,-0.501072,-0.021747,1.074757,-264.171035,1.591138,62.891334
4.6383,-0.003371,0.008465,-0.021229,0.003605,-0.012816,0.031891,-0.014328,-0.501077,-0.021921,1.074757,-264.171035,1.591138,62.891334
4.6581,-0.003091,0.008917,-0.023067,0.003714,-0.013204,0.032855,-0.014328,-0.501077,-0.021921,1.074757,-264.171035,1.591138,62.891334
4.6776,-0.003739,0.008296,-0.021715,0.003803,-0.013521,0.033644,-0.014747,-0.501273,-0.022107,1.074757,-264.168586,1.666056,62.883838
4.6976,-0.003855,0.008519,-0.019625,0.003872,-0.013767,0.034256,-0.014749,-0.5013,-0.02206,1.074757,-264.168586,1.666056,62.883838
4.7184,-0.004145,0.007992,-0.018908,0.003922,-0.013944,0.034696,-0.013745,-0.501732,-0.018624,1.074757,-264.165477,1.681963,62.873841
4.7383,-0.004459,0.008392,-0.019899,0.003952,-0.014049,0.034958,-0.013754,-0.501882,-0.018659,1.074757,-264.165477,1.681963,62.873841
4.7578,-0.00424,0.007865,-0.018987,0.003962,-0.014084,0.035047,-0.013754,-0.501882,-0.018659,1.074757,-264.165477,1.681963,62.873841
4.7778,-0.004765,0.007685,-0.018535,0.003952,-0.014049,0.034958,-0.013754,-0.502629,-0.017464,1.074757,-264.162222,1.681963,62.861345
4.7977,-0.004918,0.007779,-0.017178,0.003922,-0.013944,0.034697,-0.01378,-0.502617,-0.017495,1.074757,-264.162222,1.681963,62.861345
4.8176,-0.005555,0.006762,-0.015019,0.003873,-0.013768,0.034259,-0.013535,-0.502693,-0.015824,1.074757,-264.158893,1.681963,62.847062
4.8378,-0.005352,0.006845,-0.016474,0.003803,-0.013522,0.033647,-0.013334,-0.503039,-0.015195,1.074757,-264.158893,1.681963,62.847062
4.8582,-0.005649,0.006891,-0.015782,0.003714,-0.013205,0.032859,-0.013334,-0.503039,-0.015195,1.074757,-264.158893,1.681963,62.847062
4.8776,-0.006244,0.006444,-0.013929,0.003605,-0.012818,0.031896,-0.013516,-0.503727,-0.014093,1.074757,-264.155597,1.681963,62.832921
4.8977,-0.006311,0.006236,-0.014837,0.003477,-0.012361,0.030759,-0.013501,-0.503729,-0.01404,1.074757,-264.155597,1.681963,62.832921
4.9176,-0.006633,0.005531,-0.011659,0.003328,-0.011833,0.029445,-0.013741,-0.50422,-0.013567,1.074757,-264.152472,1.681963,62.819511
4.9377,-0.007011,0.005497,-0.0127,0.00316,-0.011235,0.027956,-0.013058,-0.504408,-0.012314,1.074757,-264.152472,1.681963,62.819511
4.9578,-0.007068,0.005031,-0.01234,0.002972,-0.010566,0.026292,-0.013058,-0.504408,-0.012314,1.074757,-264.152472,1.681963,62.819511
4.9782,-0.007394,0.005062,-0.011229,0.002763,-0.009824,0.024445,-0.0132,-0.505533,-0.010847,1.074757,-264.149549,1.681963,62.806974
4.9977,-0.0077,0.004802,-0.010783,0.002536,-0.009017,0.022437,-0.01319,-0.505504,-0.010833,1.074757,-264.149549,1.681963,62.806974
5.0182,-0.008041,0.004799,-0.010889,0.002288,-0.008135,0.020242,-0.013089,-0.505577,-0.009769,1.074757,-264.147055,1.681963,62.796271
5.0383,-0.007887,0.004237,-0.008916,0.002022,-0.007188,0.017887,-0.013362,-0.505398,-0.010278,1.074757,-264.147055,1.681963,62.796271
5.0576,-0.008172,0.004196,-0.00922,0.001735,-0.006167,0.015345,-0.013362,-0.505398,-0.010278,1.074757,-264.147055,1.681963,62.796271
5.0779,-0.008477,0.003632,-0.008667,0.001426,-0.00507,0.012617,-0.012755,-0.506222,-0.00813,1.074757,-264.14492,1.681963,62.787116
5.0976,-0.008759,0.004046,-0.008168,0.001101,-0.003914,0.009738,-0.012762,-0.506243,-0.008139,1.074757,-264.14492,1.681963,62.787116
5.1179,-0.008889,0.003486,-0.007202,0.000753,-0.002679,0.006665,-0.012859,-0.506175,-0.007576,1.074757,-264.143465,1.681963,62.78087
5.1378,-0.008475,0.003626,-0.008117,0.000386,-0.001373,0.003417,-0.012682,-0.506391,-0.007288,1.074757,-264.143465,1.681963,62.78087
5.1576,-0.008481,0.003573,-0.007717,2e-06,-8e-06,2e-05,-0.012682,-0.506391,-0.007288,1.074757,-264.143465,1.681963,62.78087
5.1776,-0.008991,0.00348,-0.007015,0.0,0.0,0.0,-0.012365,-0.506602,-0.007244,1.074757,-264.142538,1.681963,62.776895
5.1977,-0.009289,0.003257,-0.007531,0.0,0.0,0.0,-0.012378,-0.5066,-0.007214,1.074757,-264.142538,1.681963,62.776895
5.2177,-0.00899,0.003619,-0.006876,0.0,0.0,0.0,-0.01313,-0.506728,-0.007531,1.074757,-264.142536,1.681963,62.776887
5.2379,-0.009283,0.003625,-0.007164,0.0,0.0,0.0,-0.012767,-0.506523,-0.007156,1.074757,-264.142536,1.681963,62.776887
5.258,-0.009024,0.003355,-0.007331,0.0,0.0,0.0,-0.012767,-0.506523,-0.007156,1.074757,-264.142536,1.681963,62.776887
5.2777,-0.009071,0.003452,-0.007188,0.0,0.0,0.0,-0.012763,-0.506632,-0.007331,1.074757,-264.142536,1.681963,62.776887
5.2985,-0.00901,0.003042,-0.005614,0.0,0.0,0.0,-0.012761,-0.506625,-0.007322,1.074757,-264.142536,1.681963,62.776887
5.3182,-0.00887,0.003068,-0.00631,0.0,0.0,0.0,-0.011873,-0.50695,-0.005614,1.074757,-264.142536,1.681963,62.776887
5.3383,-0.00903,0.003345,-0.006906,0.0,0.0,0.0,-0.011995,-0.506934,-0.006007,1.074757,-264.142536,1.681963,62.776887
5.3579,-0.009058,0.003526,-0.008821,0.0,0.0,0.0,-0.011995,-0.506934,-0.006007,1.074757,-264.142536,1.681963,62.776887
5.3783,-0.009043,0.003245,-0.008081,0.0,0.0,0.0,-0.013556,-0.506454,-0.008821,1.074757,-264.142536,1.681963,62.776887
5.3981,-0.009147,0.003452,-0.005833,9.4e-05,-3.3e-05,0.0,-0.013529,-0.506474,-0.00877,1.074757,-264.142536,1.681963,62.776887
5.418,-0.009321,0.003266,-0.008626,9.4e-05,-3.3e-05,0.0,-0.012122,-0.506539,-0.005833,1.074757,-264.142536,1.681963,62.776887
5.4376,-0.008952,0.003179,-0.006018,9.4e-05,-3.3e-05,0.0,-0.013031,-0.506639,-0.007422,1.074757,-264.142536,1.681963,62.776887
5.4578,-0.009067,0.003657,-0.008065,9.4e-05,-3.3e-05,0.0,-0.013031,-0.506639,-0.007422,1.074757,-264.142536,1.681963,62.776887
5.4777,-0.00888,0.003612,-0.008159,9.4e-05,-3.3e-05,0.0,-0.013181,-0.506326,-0.008065,0.999657,-264.142536,1.606862,62.776887
5.4977,-0.009255,0.003273,-0.00834,9.4e-05,-3.3e-05,0.0,-0.013171,-0.506329,-0.008072,0.999657,-264.142536,1.606862,62.776887
5.5183,-0.008948,0.003275,-0.007866,9.4e-05,-3.3e-05,0.0,-0.013509,-0.506709,-0.00834,0.924661,-264.142536,1.531867,62.776887
5.5379,-0.009085,0.003515,-0.007272,9.4e-05,-3.3e-05,0.0,-0.013196,-0.506709,-0.00807,0.924661,-264.142536,1.531867,62.776887
5.5582,-0.009134,0.003408,-0.008777,9.4e-05,-3.3e-05,0.0,-0.013196,-0.506709,-0.00807,0.924661,-264.142536,1.531867,62.776887
5.5777,-0.008779,0.003294,-0.005978,9.4e-05,-3.3e-05,0.0,-0.01361,-0.506573,-0.008777,0.849755,-264.142536,1.456961,62.776887
5.5977,-0.008879,0.003461,-0.007336,2e-06,-1e-06,1e-06,-0.013487,-0.506581,-0.008585,0.849755,-264.142536,1.456961,62.776887
5.6177,-0.008973,0.003377,-0.007505,0.001328,-0.000465,0.001184,-0.01262,-0.506525,-0.007336,0.774716,-264.142536,1.381922,62.776887
5.6378,-0.00915,0.003214,-0.008272,0.00259,-0.000906,0.002308,-0.012723,-0.506573,-0.007433,0.774716,-264.142536,1.381922,62.776887
5.6577,-0.008979,0.003392,-0.007999,0.003776,-0.001321,0.003364,-0.012723,-0.506573,-0.007433,0.774716,-264.142536,1.381922,62.776887
5.6777,-0.008905,0.003565,-0.006896,0.004901,-0.001714,0.004367,-0.013059,-0.506592,-0.007999,0.699656,-264.142536,1.306862,62.776887
5.6976,-0.008838,0.003261,-0.007054,0.005952,-0.002082,0.005304,-0.013012,-0.506579,-0.007919,0.699656,-264.142536,1.306862,62.776887
5.7176,-0.009018,0.003745,-0.006575,0.00695,-0.002431,0.006192,-0.012436,-0.506727,-0.007054,0.624659,-264.142536,1.231865,62.776887
5.7377,-0.008788,0.003284,-0.007789,0.007855,-0.002748,0.006999,-0.012399,-0.506449,-0.006779,0.624659,-264.142536,1.231865,62.776887
5.7579,-0.008855,0.003193,-0.008001,0.008707,-0.003045,0.007758,-0.012399,-0.506449,-0.006779,0.624659,-264.142536,1.231865,62.776887
5.7777,-0.008928,0.003251,-0.007678,0.009489,-0.003319,0.008455,-0.012935,-0.50679,-0.008001,0.549593,-264.142536,1.156798,62.776887
5.798,-0.009325,0.003368,-0.006937,0.010203,-0.003569,0.009091,-0.012929,-0.506787,-0.007981,0.549593,-264.142536,1.156798,62.776887
5.8181,-0.008995,0.003317,-0.008184,0.010851,-0.003795,0.009669,-0.012863,-0.50662,-0.006937,0.474753,-264.142536,1.081958,62.776887
5.8378,-0.009062,0.003644,-0.008472,0.011426,-0.003997,0.010181,-0.013038,-0.506646,-0.007653,0.474753,-264.142536,1.081958,62.776887
5.8577,-0.009202,0.003431,-0.007546,0.011937,-0.004175,0.010636,-0.013038,-0.506646,-0.007653,0.474753,-264.142536,1.081958,62.776887
5.8777,-0.008985,0.003666,-0.007417,0.012379,-0.00433,0.01103,-0.013051,-0.506554,-0.007546,0.399612,-264.142536,1.006818,62.776888
5.898,-0.008678,0.003146,-0.006891,0.012754,-0.004461,0.011364,-0.013031,-0.506538,-0.007537,0.399612,-264.142536,1.006818,62.776888
5.9178,-0.00853,0.003438,-0.006573,0.01306,-0.004568,0.011636,-0.012192,-0.506841,-0.006891,0.324764,-264.142536,0.93197,62.776888
5.9378,-0.008786,0.003487,-0.007226,0.013299,-0.004652,0.011849,-0.012017,-0.506677,-0.006712,0.324764,-264.142536,0.93197,62.776888
5.9578,-0.009019,0.003214,-0.007186,0.013467,-0.004711,0.012,-0.012017,-0.506677,-0.006712,0.324764,-264.142536,0.93197,62.776888
5.9782,-0.009018,0.003572,-0.00703,0.01357,-0.004746,0.012091,-0.012684,-0.506773,-0.007186,0.249562,-264.142536,0.856768,62.776888
5.9979,-0.009017,0.003301,-0.008707,0.013603,-0.004758,0.012121,-0.012678,-0.506747,-0.007174,0.249562,-264.142536,0.856768,62.776888
6.0176,-0.008708,0.003587,-0.008085,0.013569,-0.004746,0.01209,-0.013457,-0.50668,-0.008707,0.192019,-264.142535,0.781561,62.776889
6.0384,-0.008864,0.003688,-0.006561,0.013467,-0.00471,0.011999,-0.013097,-0.506517,-0.00835,0.192019,-264.142535,0.781561,62.776889
6.0582,-0.008834,0.003176,-0.007956,0.013296,-0.00465,0.011847,-0.013097,-0.506517,-0.00835,0.192019,-264.142535,0.781561,62.776889
6.0783,-0.009074,0.00297,-0.007352,0.013058,-0.004567,0.011635,-0.012891,-0.506808,-0.007956,0.192019,-264.142534,0.70676,62.77689
6.0976,-0.00902,0.003385,-0.007182,0.012753,-0.004461,0.011363,-0.012884,-0.506829,-0.007894,0.192019,-264.142534,0.70676,62.77689
6.1179,-0.008913,0.003591,-0.007335,0.012378,-0.00433,0.011029,-0.012683,-0.506602,-0.007182,0.192019,-264.142534,0.630815,62.77689
6.138,-0.008643,0.003309,-0.007646,0.011938,-0.004175,0.010636,-0.012666,-0.506484,-0.007269,0.192019,-264.142534,0.630815,62.77689
6.1584,-0.008909,0.003013,-0.009002,0.011425,-0.003996,0.01018,-0.012666,-0.506484,-0.007269,0.192019,-264.142534,0.630815,62.77689
6.1783,-0.008891,0.003254,-0.005837,0.010845,-0.003793,0.009663,-0.0135,-0.506967,-0.009002,0.192019,-264.142533,0.556823,62.776891
6.1983,-0.009214,0.003338,-0.007706,0.010203,-0.003569,0.009091,-0.013379,-0.50695,-0.008766,0.192019,-264.142533,0.556823,62.776891
6.218,-0.009264,0.003607,-0.006604,0.009488,-0.003318,0.008453,-0.013144,-0.506647,-0.007706,0.192019,-264.142533,0.481798,62.776892
6.2384,-0.008754,0.003377,-0.008551,0.008707,-0.003045,0.007758,-0.01285,-0.506495,-0.007074,0.192019,-264.142533,0.481798,62.776892
6.2585,-0.00915,0.003206,-0.007689,0.007856,-0.002748,0.007,-0.01285,-0.506495,-0.007074,0.192019,-264.142533,0.481798,62.776892
6.2777,-0.009124,0.003459,-0.007123,0.006937,-0.002426,0.006181,-0.013071,-0.506779,-0.007689,0.192019,-264.142533,0.406831,62.776892
6.2979,-0.008718,0.003271,-0.008058,0.00595,-0.002081,0.005302,-0.013049,-0.506761,-0.007648,0.192019,-264.142533,0.406831,62.776892
6.3178,-0.008652,0.003816,-0.006533,0.004894,-0.001712,0.004361,-0.012827,-0.506713,-0.008058,0.192019,-264.142532,0.331789,62.776893
6.3376,-0.008939,0.003109,-0.007668,0.003769,-0.001318,0.003358,-0.012351,-0.506408,-0.007197,0.192019,-264.142532,0.331789,62.776893
6.3581,-0.009115,0.003136,-0.007227,0.002583,-0.000903,0.002301,-0.012351,-0.506408,-0.007197,0.192019,-264.142532,0.331789,62.776893
6.3782,-0.008967,0.003432,-0.006876,0.001301,-0.000455,0.00116,-0.0128,-0.506851,-0.007227,0.192019,-264.142532,0.256964,62.776893
6.3984,-0.008898,0.003509,-0.006925,0.0,-0.0,0.0,-0.012776,-0.506829,-0.0072,0.192019,-264.142532,0.256964,62.776893
6.4178,-0.009204,0.003526,-0.006846,0.0,0.0,0.0,-0.012429,-0.506479,-0.006925,0.192019,-264.142532,0.181604,62.776893
6.4382,-0.009177,0.003493,-0.007752,0.0,0.0,0.0,-0.01258,-0.506469,-0.00688,0.192019,-264.142532,0.181604,62.776893
6.458,-0.008925,0.00357,-0.006746,0.0,0.0,0.0,-0.01258,-0.506469,-0.00688,0.192019,-264.142532,0.181604,62.776893
6.4777,-0.008722,0.003642,-0.007544,0.0,0.0,0.0,-0.012366,-0.506418,-0.006746,0.192019,-264.142532,0.106818,62.776893
6.4977,-0.009123,0.003614,-0.008156,0.0,0.0,0.0,-0.01238,-0.506413,-0.0068,0.192019,-264.142532,0.106818,62.776893
6.5179,-0.009276,0.003142,-0.008446,0.0,0.0,0.0,-0.013282,-0.506369,-0.008156,0.192019,-264.142532,0.106818,62.776893
6.5381,-0.009214,0.003385,-0.007109,0.0,0.0,0.0,-0.013454,-0.506638,-0.008322,0.192019,-264.142532,0.106818,62.776893
6.5583,-0.008775,0.003096,-0.007484,0.0,0.0,0.0,-0.013454,-0.506638,-0.008322,0.192019,-264.142532,0.106818,62.776893
6.5777,-0.008896,0.003659,-0.00775,0.0,0.0,0.0,-0.012592,-0.50689,-0.007484,0.192019,-264.142532,0.106818,62.776893
6.5977,-0.008826,0.003567,-0.008098,0.0,0.0,0.0,-0.012609,-0.506853,-0.007502,0.192019,-264.142532,0.106818,62.776893
6.618,-0.009277,0.003647,-0.008586,9.3e-05,-3.7e-05,0.0,-0.012956,-0.506417,-0.008098,0.192019,-264.142532,0.106818,62.776893
6.6376,-0.009179,0.003513,-0.007847,9.3e-05,-3.7e-05,0.0,-0.013357,-0.506369,-0.008378,0.192019,-264.142532,0.106818,62.776893
6.6578,-0.009036,0.003298,-0.006652,9.3e-05,-3.7e-05,0.0,-0.013357,-0.506369,-0.008378,0.192019,-264.142532,0.106818,62.776893
6.6778,-0.008927,0.003288,-0.008642,9.3e-05,-3.7e-05,0.0,-0.012428,-0.506691,-0.006652,0.192019,-264.142532,0.106818,62.776893
6.6979,-0.008713,0.003342,-0.006844,9.3e-05,-3.7e-05,0.0,-0.012492,-0.506691,-0.006791,0.192019,-264.142532,0.106818,62.776893
6.7177,-0.00876,0.003574,-0.008469,9.3e-05,-3.7e-05,0.0,-0.012203,-0.506646,-0.006844,0.117129,-264.142532,0.031928,62.776893
6.738,-0.008686,0.003072,-0.007119,9.3e-05,-3.7e-05,0.0,-0.012706,-0.506509,-0.007777,0.117129,-264.142532,0.031928,62.776893
6.7577,-0.009507,0.003462,-0.00714,9.3e-05,-3.7e-05,0.0,-0.012706,-0.506509,-0.007777,0.117129,-264.142532,0.031928,62.776893
6.7779,-0.008945,0.003504,-0.007452,9.3e-05,-3.7e-05,0.0,-0.013148,-0.506525,-0.00714,0.041953,-264.142532,-0.043248,62.776893
6.798,-0.008726,0.003452,-0.007114,9.3e-05,-3.7e-05,0.0,-0.01312,-0.506522,-0.007161,0.041953,-264.142532,-0.043248,62.776893
6.8181,-0.008914,0.003562,-0.008545,7e-06,-3e-06,6e-06,-0.012353,-0.506535,-0.007114,-0.032951,-264.142531,-0.118153,62.776894
6.8381,-0.008717,0.003333,-0.006502,0.001293,-0.00051,0.001182,-0.012874,-0.506469,-0.007925,-0.032951,-264.142531,-0.118153,62.776894
6.8577,-0.009039,0.003321,-0.008257,0.002528,-0.000998,0.002312,-0.012874,-0.506469,-0.007925,-0.032951,-264.142531,-0.118153,62.776894
6.8776,-0.008683,0.003129,-0.006463,0.003686,-0.001455,0.003371,-0.01325,-0.506661,-0.008257,-0.107873,-264.142529,-0.193074,62.776896
6.8976,-0.008731,0.003409,-0.009259,0.004781,-0.001887,0.004372,-0.013164,-0.506675,-0.008135,-0.107873,-264.142529,-0.193074,62.776896
6.9179,-0.009271,0.003212,-0.00693,0.005813,-0.002294,0.005316,-0.013453,-0.506569,-0.009259,-0.032879,-264.142528,-0.268069,62.776897
6.9378,-0.008626,0.00344,-0.007293,0.006772,-0.002673,0.006194,-0.013081,-0.506688,-0.007922,-0.032879,-264.142528,-0.268069,62.776897
6.9578,-0.00897,0.00331,-0.007309,0.007669,-0.003027,0.007014,-0.013081,-0.506688,-0.007922,-0.032879,-264.142528,-0.268069,62.776897
6.9784,-0.008947,0.003444,-0.006813,0.008499,-0.003355,0.007773,-0.012695,-0.506676,-0.007308,0.042257,-264.14251,-0.343205,62.776922
6.9981,-0.009123,0.003549,-0.007389,0.009263,-0.003656,0.008472,-0.012675,-0.506667,-0.007271,0.042257,-264.14251,-0.343205,62.776922
7.0181,-0.008835,0.003383,-0.007321,0.009962,-0.003932,0.009111,-0.012876,-0.506441,-0.007381,0.117268,-264.142372,-0.418216,62.77711
7.0378,-0.008796,0.003594,-0.00666,0.010591,-0.00418,0.009686,-0.012698,-0.506534,-0.007346,0.117268,-264.142372,-0.418216,62.77711
7.058,-0.008948,0.003355,-0.00688,0.011156,-0.004403,0.010203,-0.012698,-0.506534,-0.007346,0.117268,-264.142372,-0.418216,62.77711
7.0781,-0.008902,0.003567,-0.006882,0.011655,-0.0046,0.010659,-0.012386,-0.506649,-0.006838,0.162409,-264.141842,-0.493206,62.777832
7.0982,-0.008915,0.003241,-0.008395,0.012086,-0.00477,0.011053,-0.012386,-0.506634,-0.006839,0.162409,-264.141842,-0.493206,62.777832
7.118,-0.008608,0.003452,-0.008484,0.012451,-0.004915,0.011387,-0.013051,-0.506782,-0.008295,0.162409,-264.14043,-0.568069,62.779758
7.1381,-0.008827,0.003431,-0.007744,0.01275,-0.005033,0.011661,-0.012966,-0.506643,-0.00839,0.162409,-264.14043,-0.568069,62.779758
7.1583,-0.008537,0.003352,-0.007178,0.012983,-0.005124,0.011874,-0.012966,-0.506643,-0.00839,0.162409,-264.14043,-0.568069,62.779758
7.1777,-0.008722,0.003286,-0.006275,0.01315,-0.00519,0.012026,-0.01186,-0.506744,-0.006916,0.162409,-264.137755,-0.64326,62.783405
7.1983,-0.009009,0.003111,-0.005955,0.013248,-0.005229,0.012117,-0.011856,-0.506744,-0.006868,0.162409,-264.137755,-0.64326,62.783405
7.2179,-0.008269,0.00281,-0.006325,0.013282,-0.005243,0.012147,-0.011638,-0.507031,-0.005603,0.162409,-264.133544,-0.71807,62.789146
7.2378,-0.008371,0.003187,-0.007884,0.013248,-0.005229,0.012116,-0.011505,-0.507135,-0.005972,0.162409,-264.133544,-0.71807,62.789146
7.258,-0.008556,0.003084,-0.006174,0.013149,-0.00519,0.012026,-0.011505,-0.507135,-0.005972,0.162409,-264.133544,-0.71807,62.789146
7.2777,-0.007862,0.003015,-0.006222,0.012983,-0.005125,0.011874,-0.011081,-0.507156,-0.005602,0.162409,-264.12834,-0.761483,62.796241
7.298,-0.007816,0.002684,-0.005412,0.012751,-0.005033,0.011661,-0.011062,-0.507151,-0.005628,0.162409,-264.12834,-0.761483,62.796241
7.3183,-0.007747,0.002592,-0.005167,0.012452,-0.004915,0.011388,-0.010069,-0.507511,-0.004947,0.162409,-264.12301,-0.761483,62.803508
7.338,-0.008046,0.002493,-0.004076,0.012087,-0.004771,0.011054,-0.010181,-0.507475,-0.005012,0.162409,-264.12301,-0.761483,62.803508
7.3583,-0.007869,0.002609,-0.004414,0.011653,-0.0046,0.010657,-0.010181,-0.507475,-0.005012,0.162409,-264.12301,-0.761483,62.803508
7.3776,-0.007086,0.002668,-0.006004,0.011157,-0.004404,0.010204,-0.0095,-0.507633,-0.003846,0.162409,-264.117842,-0.761483,62.810555
7.3976,-0.00739,0.002156,-0.005305,0.010593,-0.004181,0.009688,-0.009527,-0.507619,-0.003973,0.162409,-264.117842,-0.761483,62.810555
7.4177,-0.006601,0.001976,-0.0054,0.009962,-0.003932,0.00911,-0.009647,-0.508017,-0.004893,0.162409,-264.113111,-0.761483,62.817005
7.4377,-0.007083,0.001873,-0.003648,0.009265,-0.003657,0.008474,-0.009422,-0.508039,-0.005132,0.162409,-264.113111,-0.761483,62.817005
7.4577,-0.006634,0.001938,-0.00355,0.008502,-0.003356,0.007775,-0.009422,-0.508039,-0.005132,0.162409,-264.113111,-0.761483,62.817005
7.4779,-0.00692,0.001518,-0.004096,0.007672,-0.003028,0.007016,-0.007932,-0.508264,-0.00308,0.162409,-264.108819,-0.761483,62.822857
7.4979,-0.006983,0.001831,-0.004646,0.006775,-0.002674,0.006196,-0.007996,-0.508285,-0.003142,0.162409,-264.108819,-0.761483,62.822857
7.5178,-0.006525,0.001681,-0.004215,0.005812,-0.002294,0.005316,-0.009026,-0.508294,-0.004346,0.162409,-264.105372,-0.761483,62.827556
7.5381,-0.006617,0.001692,-0.002223,0.004782,-0.001887,0.004373,-0.008783,-0.508323,-0.004233,0.162409,-264.105372,-0.761483,62.827556
7.5581,-0.006444,0.001961,-0.002482,0.003686,-0.001455,0.003371,-0.008783,-0.508323,-0.004233,0.162409,-264.105372,-0.761483,62.827556
7.5777,-0.006232,0.001342,-0.003031,0.002523,-0.000996,0.002308,-0.007381,-0.508168,-0.002181,0.162409,-264.102617,-0.761483,62.831311
7.598,-0.006405,0.001463,-0.003704,0.001296,-0.000512,0.001186,-0.007403,-0.508211,-0.00224,0.162409,-264.102617,-0.761483,62.831311
7.6179,-0.00618,0.00117,-0.002684,0.0,0.0,0.0,-0.008153,-0.50859,-0.003574,0.162409,-264.101128,-0.761483,62.833342
7.6381,-0.006664,0.00155,-0.003712,0.0,0.0,0.0,-0.00779,-0.508733,-0.00305,0.162409,-264.101128,-0.761483,62.833342
7.6577,-0.006511,0.001482,-0.003766,0.0,0.0,0.0,-0.00779,-0.508733,-0.00305,0.162409,-264.101128,-0.761483,62.833342
7.6778,-0.006307,0.001365,-0.002345,0.0,0.0,0.0,-0.008369,-0.50854,-0.003709,0.162409,-264.100602,-0.761483,62.834059
7.6979,-0.005874,0.001172,-0.002471,0.0,0.0,0.0,-0.008304,-0.508547,-0.003608,0.162409,-264.100602,-0.761483,62.834059
7.718,-0.006248,0.000839,-0.001974,0.0,0.0,0.0,-0.007134,-0.508826,-0.002471,0.162409,-264.100602,-0.761483,62.834059
7.7378,-0.00583,0.00149,-0.002057,0.0,0.0,0.0,-0.007203,-0.509018,-0.002186,0.162409,-264.100602,-0.761483,62.834059
7.7579,-0.006021,0.001465,-0.001566,0.0,0.0,0.0,-0.007203,-0.509018,-0.002186,0.162409,-264.100602,-0.761483,62.834059
7.778,-0.006271,0.001402,-0.002975,0.0,0.0,0.0,-0.006819,-0.508534,-0.001566,0.162409,-264.100602,-0.761483,62.834059
7.7982,-0.005811,0.001566,-0.003661,0.0,0.0,0.0,-0.006892,-0.508539,-0.001671,0.162409,-264.100602,-0.761483,62.834059
7.818,-0.005962,0.001426,-0.002177,0.0,0.0,0.0,-0.007677,-0.508431,-0.003661,0.162409,-264.100602,-0.761483,62.834059
7.8381,-0.006089,0.00132,-0.002459,0.0,0.0,0.0,-0.007333,-0.508512,-0.002817,0.162409,-264.100602,-0.761483,62.834059
7.858,-0.006089,0.001362,-0.00314,9.8e-05,-2.1e-05,0.0,-0.007333,-0.508512,-0.002817,0.162409,-264.100602,-0.761483,62.834059
7.8778,-0.006018,0.001539,-0.00282,9.8e-05,-2.1e-05,0.0,-0.00769,-0.508636,-0.00314,0.162409,-264.100602,-0.761483,62.834059
7.8982,-0.006057,0.001425,-0.002426,9.8e-05,-2.1e-05,0.0,-0.007674,-0.508623,-0.003118,0.162409,-264.100602,-0.761483,62.834059
7.9178,-0.006101,0.001257,-0.003462,9.8e-05,-2.1e-05,0.0,-0.007295,-0.508573,-0.002426,0.087301,-264.100602,-0.686375,62.834059
7.9377,-0.006142,0.001495,-0.001567,9.8e-05,-2.1e-05,0.0,-0.007622,-0.508669,-0.003019,0.087301,-264.100602,-0.686375,62.834059
7.9579,-0.006115,0.00153,-0.002108,9.8e-05,-2.1e-05,0.0,-0.007622,-0.508669,-0.003019,0.087301,-264.100602,-0.686375,62.834059
7.978,-0.00617,0.001243,-0.004641,9.8e-05,-2.1e-05,0.0,-0.00719,-0.508468,-0.002108,0.012292,-264.100602,-0.611366,62.834059
7.9986,-0.006013,0.001193,-0.001875,9.8e-05,-2.1e-05,0.0,-0.007288,-0.508489,-0.002292,0.012292,-264.100602,-0.611366,62.834059
8.0177,-0.006117,0.001405,-0.003087,9.8e-05,-2.1e-05,0.0,-0.006969,-0.508806,-0.001875,-0.062715,-264.100601,-0.536359,62.83406
8.038,-0.005528,0.001537,-0.003126,9.8e-05,-2.1e-05,0.0,-0.00738,-0.508685,-0.002564,-0.062715,-264.100601,-0.536359,62.83406
8.0577,-0.006214,0.001245,-0.003279,9.8e-05,-2.1e-05,0.0,-0.00738,-0.508685,-0.002564,-0.062715,-264.100601,-0.536359,62.83406
8.0782,-0.006435,0.001449,-0.002403,0.000896,-0.000192,0.000361,-0.007886,-0.508752,-0.003279,-0.137629,-264.100596,-0.461445,62.834065
8.0978,-0.00577,0.001598,-0.001122,0.001739,-0.000372,0.000702,-0.007871,-0.508738,-0.00322,-0.137629,-264.100596,-0.461445,62.834065
8.1181,-0.006191,0.001598,-0.002095,0.002539,-0.000544,0.001025,-0.006341,-0.508402,-0.001122,-0.210956,-264.100582,-0.386434,62.834079
8.1377,-0.006341,0.001765,-0.00397,0.003294,-0.000705,0.00133,-0.006863,-0.508401,-0.001675,-0.210956,-264.100582,-0.386434,62.834079
8.158,-0.00614,0.001408,-0.004409,0.003999,-0.000856,0.001614,-0.006863,-0.508401,-0.001675,-0.210956,-264.100582,-0.386434,62.834079
8.1777,-0.006026,0.001458,-0.001109,0.004663,-0.000999,0.001882,-0.008358,-0.508597,-0.0044,-0.135983,-264.100324,-0.431707,62.834363
8.1979,-0.006044,0.001253,-0.00241,0.005278,-0.00113,0.002131,-0.008237,-0.508593,-0.004177,-0.135983,-264.100324,-0.431707,62.834363
8.2177,-0.006024,0.001291,-0.002006,0.005866,-0.001256,0.002368,-0.007175,-0.508771,-0.002378,-0.060898,-264.099309,-0.431707,62.83548
8.2383,-0.006283,0.001263,-0.002941,0.006374,-0.001365,0.002573,-0.007089,-0.508738,-0.002161,-0.060898,-264.099309,-0.431707,62.83548
8.2581,-0.00599,0.001547,-0.004296,0.006854,-0.001468,0.002767,-0.007089,-0.508738,-0.002161,-0.060898,-264.099309,-0.431707,62.83548
8.2785,-0.006141,0.001031,-0.004006,0.007289,-0.001561,0.002942,-0.007958,-0.508499,-0.004209,0.014127,-264.097474,-0.431707,62.837499
8.2976,-0.005723,0.001462,-0.001689,0.007677,-0.001644,0.003099,-0.007966,-0.508529,-0.004194,0.014127,-264.097474,-0.431707,62.837499
8.3177,-0.005714,0.000941,-0.003,0.00802,-0.001717,0.003237,-0.006321,-0.508594,-0.001582,0.032394,-264.094746,-0.431707,62.840501
8.3378,-0.005381,0.001497,-0.002428,0.008317,-0.001781,0.003357,-0.006812,-0.508864,-0.002374,0.032394,-264.094746,-0.431707,62.840501
8.3579,-0.00538,0.00123,-0.004521,0.008571,-0.001835,0.00346,-0.006812,-0.508864,-0.002374,0.032394,-264.094746,-0.431707,62.840501
8.3776,-0.005239,0.000794,-0.00323,0.008774,-0.001879,0.003542,-0.007312,-0.508846,-0.00437,0.032394,-264.091673,-0.431707,62.843882
8.3981,-0.005761,0.001066,-0.002191,0.008933,-0.001913,0.003606,-0.007276,-0.508871,-0.004293,0.032394,-264.091673,-0.431707,62.843882
8.4176,-0.004745,0.000795,-0.003424,0.009048,-0.001937,0.003652,-0.006548,-0.509004,-0.002057,0.032394,-264.088243,-0.431707,62.847658
8.4376,-0.004699,0.001064,-0.004032,0.009116,-0.001952,0.00368,-0.006474,-0.509127,-0.002822,0.032394,-264.088243,-0.431707,62.847658
8.4584,-0.005232,0.000926,-0.002426,0.009139,-0.001957,0.003689,-0.006474,-0.509127,-0.002822,0.032394,-264.088243,-0.431707,62.847658
8.4783,-0.004539,0.001103,-0.002492,0.009116,-0.001952,0.00368,-0.006035,-0.509167,-0.002251,0.032394,-264.084642,-0.431707,62.851619
8.4982,-0.004694,0.000592,-0.00215,0.009047,-0.001937,0.003652,-0.006001,-0.509146,-0.002266,0.032394,-264.084642,-0.431707,62.851619
8.5178,-0.004426,0.000902,-0.00185,0.008933,-0.001913,0.003606,-0.005441,-0.509482,-0.002009,0.032394,-264.081007,-0.431707,62.855621
8.5377,-0.004317,0.000732,-0.0022,0.008772,-0.001878,0.003541,-0.005355,-0.509272,-0.0019,0.032394,-264.081007,-0.431707,62.855621
8.5579,-0.004112,0.000442,-0.001968,0.008568,-0.001835,0.003459,-0.005355,-0.509272,-0.0019,0.032394,-264.081007,-0.431707,62.855621
8.5779,-0.003754,0.001001,-0.000472,0.008315,-0.001781,0.003357,-0.004677,-0.509651,-0.001791,0.032394,-264.077373,-0.431707,62.859619
8.5976,-0.004127,0.001097,-0.002141,0.008019,-0.001717,0.003237,-0.004607,-0.509601,-0.001677,0.032394,-264.077373,-0.431707,62.859619
8.6179,-0.003337,0.000759,-0.00066,0.007676,-0.001644,0.003099,-0.00489,-0.508973,-0.002009,0.032394,-264.07396,-0.431707,62.863375
8.6376,-0.00353,0.000742,-0.001804,0.007289,-0.001561,0.002942,-0.004154,-0.509135,-0.001222,0.032394,-264.07396,-0.431707,62.863375
8.6582,-0.003406,0.000481,-0.002892,0.006854,-0.001468,0.002767,-0.004154,-0.509135,-0.001222,0.032394,-264.07396,-0.431707,62.863375
8.6777,-0.003363,0.000713,-0.001226,0.006373,-0.001365,0.002573,-0.004491,-0.509601,-0.002734,0.032394,-264.070751,-0.431707,62.866906
8.6982,-0.003231,0.00038,-0.002226,0.005849,-0.001252,0.002361,-0.004448,-0.509583,-0.00263,0.032394,-264.070751,-0.431707,62.866906
8.7177,-0.002968,0.00037,-0.003003,0.005276,-0.00113,0.00213,-0.004102,-0.509676,-0.002119,0.032394,-264.068004,-0.431707,62.869929
8.7378,-0.002917,0.000239,-0.001217,0.004659,-0.000998,0.001881,-0.004296,-0.509656,-0.002613,0.032394,-264.068004,-0.431707,62.869929
