mach0312/omni-docking-bench/src/icros_test_setup/results/kinematic_sample/timeseries/trial_032.csv
t,x,y,yaw,vx,vy,wz,bl_x,bl_y,bl_yaw,front_steering_joint,front_wheel_joint,rear_steering_joint,rear_wheel_joint
0.0,-0.051353,0.019158,0.048422,0.007349,0.004031,0.006985,-0.027503,-0.490466,0.047844,0.845878,-264.541292,-0.031974,62.607095
0.0004,-0.051365,0.019294,0.046519,0.00517,0.002836,0.004914,-0.027503,-0.490466,0.047844,0.845878,-264.53659,-0.031974,62.610215
0.0007,-0.051425,0.018976,0.049246,0.00466,0.002556,0.004429,-0.027503,-0.490466,0.047844,0.845878,-264.532307,-0.031974,62.613056
0.001,-0.051085,0.019372,0.049942,0.00412,0.00226,0.003916,-0.0268,-0.490151,0.049846,0.845878,-264.528433,-0.031974,62.615626
0.0013,-0.051285,0.019878,0.049135,0.003535,0.001939,0.00336,-0.026775,-0.490141,0.049797,0.845878,-264.525328,-0.031974,62.617686
0.0015,-0.051506,0.019383,0.049695,0.002907,0.001594,0.002763,-0.026775,-0.490141,0.049797,0.845878,-264.522832,-0.031974,62.619343
0.0018,-0.051213,0.019763,0.049532,0.002243,0.00123,0.002132,-0.027261,-0.490198,0.047875,0.845878,-264.521483,-0.031974,62.620238
0.0021,-0.051212,0.019599,0.049792,0.001539,0.000844,0.001462,-0.027261,-0.490198,0.047875,0.845878,-264.521483,-0.031974,62.620238
0.0023,-0.051326,0.020092,0.04898,0.000791,0.000434,0.000752,-0.02638,-0.4901,0.049503,0.845878,-264.521483,-0.031974,62.620238
0.0025,-0.051485,0.019916,0.050892,3e-06,2e-06,3e-06,-0.02638,-0.4901,0.049503,0.845878,-264.521483,-0.031974,62.620238
0.0183,-0.050956,0.020032,0.050227,0.016,-0.016,-0.03,-0.026083,-0.48947,0.049374,0.845878,-264.521483,-0.031974,62.620238
0.0382,-0.051217,0.020087,0.04972,0.032,-0.022565,-0.05,-0.025314,-0.489301,0.050263,0.845878,-264.521006,-0.031974,62.620554
0.0579,-0.050792,0.020012,0.050531,0.048,-0.022607,-0.04972,-0.02535,-0.4893,0.050227,0.845878,-264.521006,-0.031974,62.620554
0.0785,-0.051142,0.01981,0.048929,0.049716,-0.022552,-0.05,-0.025032,-0.489337,0.050531,0.770988,-264.521005,0.042916,62.620554
0.0985,-0.05108,0.020017,0.050072,0.050112,-0.022288,-0.048929,-0.025689,-0.489474,0.049628,0.770988,-264.521005,0.042916,62.620554
0.1178,-0.051328,0.020098,0.049668,0.050015,-0.022549,-0.05,-0.025689,-0.489474,0.049628,0.770988,-264.521005,0.042916,62.620554
0.1385,-0.051032,0.019965,0.050355,0.050267,-0.022622,-0.049668,-0.026008,-0.489272,0.049668,0.695986,-264.521003,0.117918,62.620556
0.1583,-0.05123,0.019944,0.049259,0.049962,-0.022508,-0.05,-0.025963,-0.48928,0.049716,0.695986,-264.521003,0.117918,62.620556
0.1782,-0.050939,0.019889,0.049869,0.050186,-0.022443,-0.049259,-0.026118,-0.489437,0.049259,0.620982,-264.521,0.158385,62.620558
0.1983,-0.051421,0.019759,0.047775,0.049884,-0.022404,-0.049869,-0.025773,-0.48946,0.049609,0.620982,-264.521,0.158385,62.620558
0.2181,-0.050725,0.019956,0.049336,0.050419,-0.022192,-0.047775,-0.025773,-0.48946,0.049609,0.620982,-264.521,0.158385,62.620558
0.2383,-0.051116,0.020042,0.050606,0.049679,-0.022434,-0.049336,-0.025573,-0.489423,0.049336,0.545887,-264.520997,0.159348,62.62056
0.2583,-0.05125,0.019726,0.049532,0.050037,-0.022602,-0.05,-0.025556,-0.489415,0.049422,0.545887,-264.520997,0.159348,62.62056
0.2785,-0.051324,0.019714,0.048372,0.050211,-0.022239,-0.049532,-0.025999,-0.489649,0.049532,0.470989,-264.520994,0.137692,62.620562
0.2984,-0.051173,0.019679,0.050021,0.050311,-0.022172,-0.048372,-0.026379,-0.489672,0.04887,0.470989,-264.520994,0.137692,62.620562
0.318,-0.051008,0.020048,0.048452,0.050125,-0.022213,-0.05,-0.026379,-0.489672,0.04887,0.470989,-264.520994,0.137692,62.620562
0.3384,-0.050829,0.019865,0.049755,0.049977,-0.022494,-0.048452,-0.026307,-0.489354,0.048452,0.395906,-264.520991,0.157287,62.620564
0.3584,-0.051356,0.020048,0.049836,0.049778,-0.022369,-0.049755,-0.026247,-0.489364,0.048545,0.395906,-264.520991,0.157287,62.620564
0.3784,-0.051317,0.019859,0.050291,0.050294,-0.022582,-0.049836,-0.02595,-0.489318,0.049836,0.320883,-264.520988,0.164572,62.620566
0.3982,-0.050984,0.020085,0.052097,0.050253,-0.022414,-0.05,-0.025797,-0.489419,0.050093,0.320883,-264.520988,0.164572,62.620566
0.4183,-0.051141,0.020087,0.050429,0.049869,-0.022713,-0.05,-0.025797,-0.489419,0.050093,0.320883,-264.520988,0.164572,62.620566
0.4384,-0.050903,0.020086,0.049665,0.050063,-0.022639,-0.05,-0.025433,-0.489265,0.050429,0.245981,-264.520985,0.159725,62.620568
0.4581,-0.050931,0.019835,0.049749,0.049843,-0.022588,-0.049665,-0.025443,-0.489266,0.050376,0.245981,-264.520985,0.159725,62.620568
0.4786,-0.050979,0.019769,0.049295,0.049882,-0.022343,-0.049749,-0.025569,-0.489534,0.049749,0.170981,-264.520982,0.155635,62.62057
0.4985,-0.051379,0.019928,0.048416,0.049943,-0.022257,-0.049295,-0.025727,-0.489578,0.049493,0.170981,-264.520982,0.155635,62.62057
0.5182,-0.051197,0.019836,0.048558,0.050354,-0.022392,-0.048416,-0.025727,-0.489578,0.049493,0.170981,-264.520982,0.155635,62.62057
0.5379,-0.051507,0.019788,0.05031,0.050174,-0.022298,-0.048558,-0.026442,-0.489563,0.048558,0.095983,-264.52098,0.154159,62.620572
0.5579,-0.051424,0.020123,0.049953,0.050446,-0.022353,-0.05,-0.026402,-0.489563,0.048679,0.095983,-264.52098,0.154159,62.620572
0.5783,-0.051608,0.019954,0.049774,0.050355,-0.022666,-0.049953,-0.025958,-0.489241,0.049953,0.020989,-264.520977,0.141605,62.620574
0.598,-0.050988,0.019394,0.049566,0.050552,-0.022497,-0.049774,-0.026115,-0.489339,0.049851,0.020989,-264.520977,0.141605,62.620574
0.6184,-0.051043,0.019673,0.050528,0.049965,-0.021896,-0.049566,-0.026115,-0.489339,0.049851,0.020989,-264.520977,0.141605,62.620574
0.6379,-0.051207,0.019855,0.051344,0.049984,-0.022226,-0.05,-0.025284,-0.489676,0.050528,-0.054079,-264.520974,0.160841,62.620576
0.6584,-0.050938,0.019565,0.04948,0.050121,-0.022456,-0.05,-0.02527,-0.489664,0.050576,-0.054079,-264.520974,0.160841,62.620576
0.6785,-0.051355,0.019879,0.04794,0.049908,-0.02206,-0.04948,-0.025713,-0.489811,0.04948,-0.129018,-264.52097,0.166107,62.620579
0.6984,-0.05093,0.020003,0.049156,0.050343,-0.022317,-0.04794,-0.026409,-0.489651,0.048588,-0.129018,-264.52097,0.166107,62.620579
0.718,-0.050984,0.020005,0.049034,0.049886,-0.022481,-0.049156,-0.026409,-0.489651,0.048588,-0.129018,-264.52097,0.166107,62.620579
0.7382,-0.051152,0.019828,0.049666,0.049942,-0.02248,-0.049034,-0.025985,-0.489382,0.049034,-0.204368,-264.520958,0.159858,62.620587
0.7583,-0.051196,0.020081,0.050768,0.050104,-0.022343,-0.049666,-0.025975,-0.489393,0.049077,-0.204368,-264.520958,0.159858,62.620587
0.7782,-0.0509,0.019835,0.049186,0.050111,-0.022653,-0.05,-0.025311,-0.489262,0.050766,-0.279015,-264.520902,0.150018,62.620626
0.7981,-0.051115,0.019898,0.050782,0.049863,-0.022314,-0.049186,-0.0256,-0.489423,0.049876,-0.279015,-264.520902,0.150018,62.620626
0.8182,-0.051133,0.019773,0.048545,0.05004,-0.022467,-0.05,-0.0256,-0.489423,0.049876,-0.279015,-264.520902,0.150018,62.620626
0.8379,-0.051203,0.020116,0.049016,0.050114,-0.022231,-0.048545,-0.02636,-0.489629,0.048533,-0.354017,-264.520648,0.158144,62.620803
0.8579,-0.051091,0.020028,0.050808,0.050156,-0.022601,-0.049016,-0.02635,-0.489605,0.048565,-0.354017,-264.520648,0.158144,62.620803
0.8784,-0.050861,0.019898,0.05089,0.050008,-0.022596,-0.05,-0.025123,-0.489324,0.050772,-0.429039,-264.519778,0.159912,62.621408
0.8984,-0.050961,0.019827,0.050752,0.049783,-0.02246,-0.05,-0.024998,-0.489392,0.050835,-0.429039,-264.519778,0.159912,62.621408
0.9182,-0.051142,0.020025,0.050809,0.04989,-0.022387,-0.05,-0.024998,-0.489392,0.050835,-0.429039,-264.519778,0.159912,62.621408
0.9381,-0.050748,0.019873,0.049904,0.050059,-0.022597,-0.05,-0.024977,-0.489367,0.05065,-0.50412,-264.517055,0.145221,62.623309
0.9582,-0.050855,0.019753,0.051,0.049693,-0.02238,-0.049904,-0.02499,-0.489375,0.050603,-0.50412,-264.517055,0.145221,62.623309
0.9784,-0.050098,0.020135,0.048714,0.049781,-0.02232,-0.05,-0.02444,-0.489668,0.05072,-0.579021,-264.511831,0.161948,62.627491
0.9985,-0.049719,0.019934,0.048538,0.049059,-0.022551,-0.048714,-0.024856,-0.489447,0.049545,-0.579021,-264.511831,0.161948,62.627491
1.0185,-0.049704,0.019348,0.048487,0.048693,-0.022323,-0.048538,-0.024856,-0.489447,0.049545,-0.579021,-264.511831,0.161948,62.627491
1.0388,-0.049091,0.019674,0.047801,0.048708,-0.021735,-0.048487,-0.024198,-0.490236,0.04791,-0.654023,-264.504105,0.161564,62.634177
1.0585,-0.04896,0.019415,0.048142,0.048095,-0.021997,-0.047801,-0.024211,-0.490211,0.04789,-0.654023,-264.504105,0.161564,62.634177
1.078,-0.047006,0.019775,0.047385,0.047969,-0.021748,-0.048142,-0.023597,-0.490219,0.047494,-0.729111,-264.493878,0.149245,62.643362
1.0979,-0.047527,0.019351,0.047521,0.046016,-0.02198,-0.047385,-0.02307,-0.489927,0.047351,-0.729111,-264.493878,0.149245,62.643362
1.1182,-0.047065,0.019299,0.046823,0.046554,-0.021587,-0.047521,-0.02307,-0.489927,0.047351,-0.729111,-264.493878,0.149245,62.643362
1.1381,-0.045501,0.01896,0.047397,0.04611,-0.021481,-0.046823,-0.021936,-0.490536,0.045739,-0.804072,-264.481159,0.148544,62.655041
1.1581,-0.045525,0.018994,0.044386,0.044551,-0.021094,-0.047397,-0.021863,-0.490542,0.045823,-0.804072,-264.481159,0.148544,62.655041
1.1784,-0.043443,0.018691,0.044894,0.044638,-0.020995,-0.044386,-0.021704,-0.490886,0.043322,-0.827125,-264.465931,0.15839,62.669228
1.1984,-0.043127,0.018338,0.046612,0.04256,-0.020621,-0.044894,-0.020898,-0.490883,0.044082,-0.827125,-264.465931,0.15839,62.669228
1.2185,-0.043267,0.018217,0.045306,0.042226,-0.020327,-0.046612,-0.020898,-0.490883,0.044082,-0.827125,-264.465931,0.15839,62.669228
1.2393,-0.040414,0.018327,0.043599,0.042398,-0.020158,-0.045306,-0.018427,-0.491811,0.0437,-0.843382,-264.448212,0.174488,62.685906
1.2583,-0.041079,0.017901,0.044432,0.039577,-0.020071,-0.043599,-0.018367,-0.491784,0.043652,-0.843382,-264.448212,0.174488,62.685906
1.2781,-0.037617,0.01746,0.041788,0.040243,-0.019708,-0.044432,-0.01695,-0.492115,0.042965,-0.857447,-264.42799,0.190459,62.702983
1.298,-0.037327,0.017235,0.041214,0.036855,-0.019016,-0.041788,-0.016402,-0.49217,0.042114,-0.857447,-264.42799,0.190459,62.702983
1.3182,-0.037429,0.017481,0.042534,0.036585,-0.018759,-0.041214,-0.016402,-0.49217,0.042114,-0.857447,-264.42799,0.190459,62.702983
1.3381,-0.03494,0.01644,0.039208,0.036652,-0.019057,-0.042534,-0.013863,-0.492878,0.040549,-0.867759,-264.405266,0.164188,62.718827
1.358,-0.034912,0.016254,0.03936,0.034268,-0.017797,-0.039208,-0.013887,-0.492918,0.040409,-0.867759,-264.405266,0.164188,62.718827
1.378,-0.031951,0.015526,0.036406,0.034246,-0.017615,-0.03936,-0.013405,-0.494021,0.037769,-0.876374,-264.382458,0.173529,62.733645
1.398,-0.032061,0.015711,0.036342,0.031365,-0.016678,-0.036406,-0.013213,-0.494171,0.036796,-0.876374,-264.382458,0.173529,62.733645
1.418,-0.031835,0.015661,0.039022,0.031469,-0.016866,-0.036342,-0.013213,-0.494171,0.036796,-0.876374,-264.382458,0.173529,62.733645
1.4382,-0.02926,0.015219,0.035311,0.0312,-0.016891,-0.039022,-0.010242,-0.494752,0.037116,-0.883423,-264.360878,0.177541,62.747557
1.458,-0.028973,0.014901,0.036072,0.028705,-0.016243,-0.035311,-0.010267,-0.494753,0.036944,-0.883423,-264.360878,0.177541,62.747557
1.4784,-0.026234,0.014714,0.034102,0.028417,-0.015936,-0.036072,-0.009346,-0.495374,0.034672,-0.892633,-264.340872,0.167774,62.760287
1.498,-0.026807,0.013986,0.034846,0.025717,-0.0156,-0.034102,-0.008905,-0.495233,0.034171,-0.892633,-264.340872,0.167774,62.760287
1.5179,-0.02703,0.014399,0.034119,0.026303,-0.014911,-0.034846,-0.008905,-0.495233,0.034171,-0.892633,-264.340872,0.167774,62.760287
1.5382,-0.024515,0.013508,0.03252,0.026523,-0.015313,-0.034119,-0.008235,-0.496035,0.032431,-0.92143,-264.322207,0.183386,62.771765
1.5589,-0.024215,0.013543,0.032875,0.024063,-0.014298,-0.03252,-0.008178,-0.496066,0.032393,-0.92143,-264.322207,0.183386,62.771765
1.5785,-0.021926,0.012381,0.031284,0.023757,-0.014332,-0.032875,-0.006471,-0.496697,0.031599,-0.942355,-264.305244,0.237644,62.782026
1.5979,-0.022202,0.012697,0.030668,0.021528,-0.013061,-0.031284,-0.006064,-0.497145,0.031258,-0.942355,-264.305244,0.237644,62.782026
1.6183,-0.021999,0.013287,0.030872,0.021802,-0.013372,-0.030668,-0.006064,-0.497145,0.031258,-0.942355,-264.305244,0.237644,62.782026
1.6384,-0.020159,0.011812,0.027142,0.021579,-0.01396,-0.030872,-0.005072,-0.497127,0.029297,-0.957102,-264.288626,0.227239,62.791849
1.6583,-0.020014,0.011893,0.028593,0.019831,-0.012355,-0.027142,-0.005123,-0.497199,0.029119,-0.957102,-264.288626,0.227239,62.791849
1.678,-0.018365,0.011669,0.025752,0.019666,-0.01246,-0.028593,-0.004583,-0.498389,0.027416,-0.974212,-264.273224,0.241003,62.80076
1.6983,-0.018205,0.011634,0.027041,0.018058,-0.012138,-0.025752,-0.004843,-0.498323,0.026324,-0.974212,-264.273224,0.241003,62.80076
1.7181,-0.01829,0.01167,0.027639,0.017884,-0.012122,-0.027041,-0.004843,-0.498323,0.026324,-0.974212,-264.273224,0.241003,62.80076
1.7382,-0.016621,0.011697,0.025217,0.017961,-0.012171,-0.027639,-0.00323,-0.498701,0.026339,-0.969909,-264.259416,0.209787,62.808741
1.7584,-0.016836,0.011083,0.02701,0.016321,-0.012112,-0.025217,-0.003241,-0.498679,0.026233,-0.969909,-264.259416,0.209787,62.808741
1.7791,-0.01483,0.010566,0.02461,0.01653,-0.011533,-0.02701,-0.002386,-0.499164,0.026006,-1.012565,-264.246499,0.240877,62.815786
1.7993,-0.014685,0.010684,0.024777,0.014566,-0.010928,-0.02461,-0.002242,-0.499283,0.025095,-1.012565,-264.246499,0.240877,62.815786
1.8183,-0.014818,0.010473,0.024681,0.014416,-0.011045,-0.024777,-0.002242,-0.499283,0.025095,-1.012565,-264.246499,0.240877,62.815786
1.8382,-0.013525,0.010062,0.023554,0.014555,-0.010835,-0.024681,-0.001452,-0.499922,0.023497,-1.035404,-264.234164,0.198838,62.822206
1.8586,-0.013619,0.009593,0.024852,0.013285,-0.010378,-0.023554,-0.001437,-0.499927,0.023471,-1.035404,-264.234164,0.198838,62.822206
1.8782,-0.012375,0.009184,0.023946,0.013377,-0.009929,-0.024852,-0.000439,-0.50062,0.023996,-1.067405,-264.223433,0.273836,62.827587
1.8984,-0.012586,0.009675,0.021994,0.012152,-0.009478,-0.023946,-0.000216,-0.500695,0.023859,-1.067405,-264.223433,0.273836,62.827587
1.918,-0.012241,0.009485,0.023006,0.01237,-0.009949,-0.021994,-0.000216,-0.500695,0.023859,-1.067405,-264.223433,0.273836,62.827587
1.938,-0.010786,0.00909,0.022489,0.01202,-0.009764,-0.023006,0.00014,-0.500864,0.021874,-1.078404,-264.212284,0.293029,62.833092
1.9584,-0.011058,0.008701,0.021752,0.010579,-0.00933,-0.022489,0.000201,-0.500872,0.021888,-1.078404,-264.212284,0.293029,62.833092
1.9787,-0.010096,0.008355,0.019148,0.010866,-0.00894,-0.021752,0.000516,-0.501548,0.020911,-1.084178,-264.201788,0.274516,62.838191
1.9981,-0.009661,0.008287,0.018376,0.009934,-0.008547,-0.019148,9.9e-05,-0.501598,0.019804,-1.084178,-264.201788,0.274516,62.838191
2.0182,-0.009717,0.008638,0.02077,0.009507,-0.008464,-0.018376,9.9e-05,-0.501598,0.019804,-1.084178,-264.201788,0.274516,62.838191
2.0382,-0.009084,0.007875,0.019594,0.009536,-0.008838,-0.02077,0.001272,-0.501595,0.019961,-1.140765,-264.194102,0.349359,62.841662
2.0581,-0.008782,0.008191,0.020417,0.008928,-0.008052,-0.019594,0.001255,-0.501641,0.019905,-1.140765,-264.194102,0.349359,62.841662
2.0781,-0.008082,0.007862,0.018754,0.008613,-0.008369,-0.020417,0.001974,-0.501997,0.019763,-1.120923,-264.186033,0.282533,62.845316
2.0984,-0.008291,0.007642,0.019901,0.007933,-0.008012,-0.018754,0.001734,-0.502064,0.0191,-1.120923,-264.186033,0.282533,62.845316
2.1181,-0.008313,0.007998,0.019009,0.008137,-0.007806,-0.019901,0.001734,-0.502064,0.0191,-1.120923,-264.186033,0.282533,62.845316
2.1383,-0.007398,0.007726,0.019722,0.00816,-0.008154,-0.019009,0.001714,-0.502205,0.018313,-1.151302,-264.179493,0.357337,62.848225
2.1583,-0.007578,0.007531,0.01882,0.007244,-0.007871,-0.019722,0.001786,-0.502211,0.01839,-1.151302,-264.179493,0.357337,62.848225
2.1783,-0.00705,0.007128,0.018109,0.007435,-0.007672,-0.01882,0.002262,-0.502606,0.018258,-1.183712,-264.173116,0.432036,62.850954
2.1981,-0.006939,0.006904,0.016595,0.00692,-0.007255,-0.018109,0.002249,-0.502737,0.018105,-1.183712,-264.173116,0.432036,62.850954
2.2179,-0.006762,0.006941,0.01891,0.00692,-0.007255,-0.018109,0.002249,-0.502737,0.018105,-1.183712,-264.173116,0.432036,62.850954
2.2382,-0.005848,0.006513,0.016484,6.8e-05,-7.3e-05,0.0,0.00319,-0.503291,0.018094,-1.221943,-264.165869,0.507134,62.853813
2.2583,-0.006308,0.006683,0.015219,6.8e-05,-7.3e-05,0.0,0.003154,-0.503309,0.017959,-1.221943,-264.165869,0.507134,62.853813
2.2788,-0.005192,0.00647,0.015058,6.8e-05,-7.3e-05,0.0,0.001724,-0.503533,0.01452,-1.209558,-264.158046,0.502821,62.856969
2.2983,-0.005341,0.006763,0.014738,6.8e-05,-7.3e-05,0.0,0.002187,-0.503535,0.014731,-1.209558,-264.158046,0.502821,62.856969
2.3188,-0.005148,0.006658,0.016568,6.8e-05,-7.3e-05,0.0,0.002187,-0.503535,0.014731,-1.209558,-264.158046,0.502821,62.856969
2.3383,-0.005564,0.006365,0.015972,6.8e-05,-7.3e-05,0.0,0.003301,-0.503272,0.016568,-1.134426,-264.158046,0.427688,62.856969
2.3583,-0.005296,0.006467,0.014003,6.8e-05,-7.3e-05,0.0,0.003252,-0.503293,0.016527,-1.134426,-264.158046,0.427688,62.856969
2.3782,-0.005137,0.006708,0.014997,6.8e-05,-7.3e-05,0.0,0.001846,-0.503483,0.014003,-1.059556,-264.158046,0.352818,62.856969
2.3982,-0.004978,0.006252,0.015762,6.8e-05,-7.3e-05,0.0,0.002223,-0.503342,0.014567,-1.059556,-264.158046,0.352818,62.856969
2.418,-0.005446,0.006564,0.014662,6.8e-05,-7.3e-05,0.0,0.002223,-0.503342,0.014567,-1.059556,-264.158046,0.352818,62.856969
2.438,-0.005555,0.006577,0.015115,1e-06,-1e-06,-3e-06,0.002032,-0.503381,0.014662,-0.984553,-264.158046,0.277816,62.856969
2.458,-0.005625,0.006733,0.015932,0.00097,-0.001034,-0.002767,0.00204,-0.50338,0.014693,-0.984553,-264.158046,0.277816,62.856969
2.4782,-0.005039,0.006598,0.015085,0.00189,-0.002015,-0.005392,0.0025,-0.503203,0.015932,-0.90955,-264.158046,0.202813,62.856969
2.4982,-0.004953,0.006358,0.015929,0.002764,-0.002947,-0.007885,0.002588,-0.503283,0.015451,-0.90955,-264.158046,0.202813,62.856969
2.5181,-0.005058,0.006948,0.014047,0.00358,-0.003817,-0.010212,0.002588,-0.503283,0.015451,-0.90955,-264.158046,0.202813,62.856969
2.5382,-0.005303,0.006261,0.016612,0.004368,-0.004656,-0.012458,0.002107,-0.503002,0.014046,-0.984538,-264.158028,0.277801,62.856976
2.5581,-0.005203,0.006508,0.015483,0.005073,-0.005408,-0.01447,0.002178,-0.503047,0.014218,-0.984538,-264.158028,0.277801,62.856976
2.5781,-0.005192,0.00641,0.015401,0.005747,-0.006127,-0.016393,0.002707,-0.503442,0.015458,-1.059542,-264.157709,0.352805,62.857105
2.5983,-0.005069,0.006371,0.0157,0.00637,-0.006791,-0.018169,0.002683,-0.503493,0.015422,-1.059542,-264.157709,0.352805,62.857105
2.6181,-0.005276,0.006294,0.014588,0.006938,-0.007397,-0.01979,0.002683,-0.503493,0.015422,-1.059542,-264.157709,0.352805,62.857105
2.6383,-0.005086,0.00614,0.015804,0.007458,-0.007951,-0.021274,0.002236,-0.503718,0.014429,-1.134641,-264.156225,0.427903,62.857706
2.6585,-0.004786,0.006431,0.014265,0.00793,-0.008455,-0.02262,0.002288,-0.503725,0.014519,-1.134641,-264.156225,0.427903,62.857706
2.6779,-0.005155,0.006275,0.014899,0.008356,-0.008908,-0.023833,0.002638,-0.503652,0.0139,-1.209544,-264.152234,0.502806,62.859571
2.6978,-0.004483,0.006001,0.015138,0.008726,-0.009303,-0.02489,0.002545,-0.503678,0.014427,-1.209544,-264.152234,0.502806,62.859571
2.7185,-0.004472,0.006084,0.015891,0.00905,-0.009648,-0.025813,0.002545,-0.503678,0.014427,-1.209544,-264.152234,0.502806,62.859571
2.7383,-0.003849,0.006239,0.013883,0.009324,-0.00994,-0.026595,0.003937,-0.504107,0.015103,-1.228696,-264.145759,0.577946,62.862892
2.7582,-0.003703,0.006191,0.013725,0.009547,-0.010178,-0.027231,0.003897,-0.504087,0.015,-1.228696,-264.145759,0.577946,62.862892
2.7784,-0.003094,0.0053,0.01293,0.009721,-0.010363,-0.027727,0.00362,-0.504047,0.012864,-1.228696,-264.136762,0.594414,62.867249
2.798,-0.003062,0.005789,0.011845,0.009845,-0.010496,-0.028081,0.003592,-0.504433,0.012793,-1.228696,-264.136762,0.594414,62.867249
2.8179,-0.002997,0.005614,0.012607,0.009919,-0.010575,-0.028294,0.003592,-0.504433,0.012793,-1.228696,-264.136762,0.594414,62.867249
2.838,-0.001573,0.005173,0.011646,0.009944,-0.010602,-0.028365,0.003901,-0.504834,0.011285,-1.228696,-264.125383,0.594414,62.871857
2.8583,-0.001686,0.00525,0.012486,0.009919,-0.010575,-0.028294,0.003948,-0.504845,0.011275,-1.228696,-264.125383,0.594414,62.871857
2.8779,-0.000403,0.004294,0.010931,0.009845,-0.010496,-0.028081,0.005069,-0.505114,0.011392,-1.228696,-264.113555,0.594414,62.876646
2.8982,-0.000476,0.004465,0.008636,0.00972,-0.010362,-0.027724,0.005177,-0.505484,0.010992,-1.228696,-264.113555,0.594414,62.876646
2.9182,-0.000577,0.004216,0.011449,0.009545,-0.010177,-0.027227,0.005177,-0.505484,0.010992,-1.228696,-264.113555,0.594414,62.876646
2.938,0.000701,0.003918,0.010003,0.009323,-0.009939,-0.026592,0.005749,-0.506259,0.010076,-1.228696,-264.101728,0.594414,62.881435
2.9585,0.00076,0.004054,0.009321,0.009048,-0.009646,-0.025808,0.005767,-0.506258,0.010032,-1.228696,-264.101728,0.594414,62.881435
2.978,0.002174,0.003529,0.007749,0.008718,-0.009294,-0.024866,0.005885,-0.506314,0.008271,-1.228696,-264.090341,0.594414,62.886046
2.9982,0.001991,0.003978,0.006934,0.008352,-0.008904,-0.023822,0.00607,-0.506444,0.007839,-1.228696,-264.090341,0.594414,62.886046
3.0183,0.001976,0.003867,0.00649,0.007931,-0.008455,-0.022622,0.00607,-0.506444,0.007839,-1.228696,-264.090341,0.594414,62.886046
3.0379,0.003395,0.00292,0.006016,0.007458,-0.007951,-0.021272,0.005729,-0.506589,0.005234,-1.228696,-264.079571,0.594414,62.890407
3.0579,0.002741,0.002908,0.004933,0.006936,-0.007395,-0.019785,0.005785,-0.50663,0.005253,-1.228696,-264.079571,0.594414,62.890407
3.0785,0.003863,0.002478,0.003561,0.006364,-0.006785,-0.018153,0.005565,-0.507411,0.00406,-1.228696,-264.070114,0.594414,62.894236
3.0982,0.003942,0.002626,0.005582,0.005741,-0.006121,-0.016377,0.005669,-0.507513,0.003666,-1.228696,-264.070114,0.594414,62.894236
3.1181,0.003607,0.002395,0.004495,0.005072,-0.005407,-0.014467,0.005669,-0.507513,0.003666,-1.228696,-264.070114,0.594414,62.894236
3.1381,0.004683,0.002284,0.005262,0.004349,-0.004637,-0.012406,0.006239,-0.507958,0.003533,-1.228696,-264.061842,0.594414,62.897585
3.1579,0.005031,0.001754,0.002463,0.003581,-0.003818,-0.010214,0.006325,-0.507951,0.003626,-1.228696,-264.061842,0.594414,62.897585
3.1779,0.005461,0.001747,0.002258,0.002759,-0.002941,-0.00787,0.006484,-0.508453,0.001904,-1.228696,-264.055795,0.594414,62.900034
3.1984,0.00537,0.001923,0.00256,0.001887,-0.002012,-0.005382,0.006582,-0.508365,0.002035,-1.228696,-264.055795,0.594414,62.900034
3.2181,0.005404,0.001745,0.002509,0.000968,-0.001032,-0.00276,0.006582,-0.508365,0.002035,-1.228696,-264.055795,0.594414,62.900034
3.2381,0.006092,0.002281,0.001678,0.0,0.0,0.0,0.006859,-0.508439,0.00201,-1.228696,-264.051525,0.594414,62.901763
3.2588,0.005924,0.001609,0.002734,0.0,0.0,0.0,0.006868,-0.508401,0.001979,-1.228696,-264.051525,0.594414,62.901763
3.2783,0.006146,0.001781,0.002347,0.0,0.0,0.0,0.007356,-0.508429,0.002627,-1.228696,-264.05037,0.594414,62.902231
3.2981,0.005727,0.001981,0.002715,0.0,0.0,0.0,0.007353,-0.508313,0.002454,-1.228696,-264.05037,0.594414,62.902231
3.3182,0.005875,0.001733,0.001871,0.0,0.0,0.0,0.007353,-0.508313,0.002454,-1.228696,-264.05037,0.594414,62.902231
3.3382,0.005709,0.001522,0.002144,0.0,0.0,0.0,0.006829,-0.508266,0.001871,-1.228696,-264.05037,0.594414,62.902231
3.3583,0.005697,0.001791,0.003686,0.0,0.0,0.0,0.006827,-0.50828,0.001889,-1.228696,-264.05037,0.594414,62.902231
3.3782,0.005826,0.001928,0.002833,0.0,0.0,0.0,0.007577,-0.508205,0.003686,-1.228696,-264.05037,0.594414,62.902231
3.3987,0.00601,0.001869,0.003589,0.0,0.0,0.0,0.007405,-0.508129,0.003205,-1.228696,-264.05037,0.594414,62.902231
3.418,0.005895,0.001813,0.00175,0.0,0.0,0.0,0.007405,-0.508129,0.003205,-1.228696,-264.05037,0.594414,62.902231
3.4383,0.005737,0.001989,0.001451,0.0,0.0,0.0,0.006788,-0.508186,0.00175,-1.228696,-264.05037,0.594414,62.902231
3.4586,0.005847,0.001694,0.003046,-9.5e-05,-3.3e-05,0.0,0.006767,-0.508174,0.00173,-1.228696,-264.05037,0.594414,62.902231
3.4779,0.00604,0.001954,0.00265,-9.5e-05,-3.3e-05,0.0,0.0074,-0.508303,0.003046,-1.228696,-264.05037,0.594414,62.902231
3.4979,0.006113,0.001745,0.000376,-9.5e-05,-3.3e-05,0.0,0.007395,-0.508156,0.002821,-1.228696,-264.05037,0.594414,62.902231
3.518,0.005971,0.001465,0.002697,-9.5e-05,-3.3e-05,0.0,0.007395,-0.508156,0.002821,-1.228696,-264.05037,0.594414,62.902231
3.5386,0.005515,0.001855,0.001263,-9.5e-05,-3.3e-05,0.0,0.007346,-0.508533,0.002697,-1.153702,-264.05037,0.519421,62.902231
3.558,0.005717,0.001694,0.002544,-9.5e-05,-3.3e-05,0.0,0.007251,-0.508501,0.002582,-1.153702,-264.05037,0.519421,62.902231
3.5783,0.006202,0.001999,0.002266,-9.5e-05,-3.3e-05,0.0,0.007014,-0.508304,0.002544,-1.078411,-264.05037,0.444129,62.902231
3.5979,0.006005,0.001584,0.00242,-9.5e-05,-3.3e-05,0.0,0.00721,-0.50813,0.002385,-1.078411,-264.05037,0.444129,62.902231
3.6179,0.006159,0.001924,0.003238,-9.5e-05,-3.3e-05,0.0,0.00721,-0.50813,0.002385,-1.078411,-264.05037,0.444129,62.902231
3.6383,0.006256,0.002019,0.003678,-9.5e-05,-3.3e-05,0.0,0.007811,-0.508074,0.003238,-1.003589,-264.05037,0.369308,62.902231
3.6585,0.005752,0.001812,0.003336,-9.5e-05,-3.3e-05,0.0,0.007834,-0.508067,0.00327,-1.003589,-264.05037,0.369308,62.902231
3.6788,0.006022,0.002028,0.001828,-0.000861,-0.000297,-0.000218,0.007453,-0.508185,0.003336,-0.928617,-264.05037,0.332262,62.902231
3.6982,0.006501,0.001605,0.003726,-0.001631,-0.000563,-0.000412,0.007175,-0.508065,0.002493,-0.928617,-264.05037,0.332262,62.902231
3.7183,0.005996,0.001601,0.001804,-0.00239,-0.000825,-0.000604,0.007175,-0.508065,0.002493,-0.928617,-264.05037,0.332262,62.902231
3.738,0.006327,0.001443,0.003732,-0.003097,-0.001069,-0.000783,0.006916,-0.508398,0.001804,-0.85366,-264.05037,0.332262,62.902231
3.7582,0.006618,0.001471,0.003272,-0.003764,-0.001299,-0.000951,0.007001,-0.508408,0.001929,-0.85366,-264.05037,0.332262,62.902231
3.7784,0.006105,0.002016,0.003769,-0.004388,-0.001514,-0.001109,0.008287,-0.508527,0.003272,-0.7787,-264.05037,0.257302,62.902231
3.798,0.006345,0.001953,0.003156,-0.004968,-0.001714,-0.001256,0.008138,-0.508213,0.003557,-0.7787,-264.05037,0.257302,62.902231
3.8178,0.005592,0.001742,0.001818,-0.005508,-0.001901,-0.001392,0.008138,-0.508213,0.003557,-0.7787,-264.05037,0.257302,62.902231
3.8381,0.006165,0.00149,0.002747,-0.006002,-0.002071,-0.001517,0.006519,-0.508257,0.001818,-0.703568,-264.05037,0.188431,62.902231
3.8579,0.005911,0.001813,0.001579,-0.006454,-0.002227,-0.001631,0.00659,-0.508274,0.001881,-0.703568,-264.05037,0.188431,62.902231
3.8781,0.005729,0.002145,0.002474,-0.006864,-0.002368,-0.001735,0.006716,-0.508186,0.001579,-0.628714,-264.05037,0.188431,62.90223
3.8981,0.005871,0.00192,-3.1e-05,-0.007229,-0.002495,-0.001827,0.006872,-0.507997,0.002088,-0.628714,-264.05037,0.188431,62.90223
3.9179,0.006011,0.001895,0.00233,-0.007554,-0.002606,-0.001909,0.006872,-0.507997,0.002088,-0.628714,-264.05037,0.188431,62.90223
3.9379,0.0058,0.002029,0.002494,-0.007833,-0.002703,-0.00198,0.0072,-0.508104,0.00233,-0.553691,-264.050371,0.188431,62.90223
3.9581,0.006091,0.002064,0.003019,-0.00807,-0.002785,-0.00204,0.00719,-0.508094,0.002342,-0.553691,-264.050371,0.188431,62.90223
3.9779,0.006035,0.001843,0.003172,-0.008265,-0.002852,-0.002089,0.007631,-0.507934,0.003019,-0.478605,-264.050371,0.188431,62.90223
3.9981,0.006146,0.00156,0.002025,-0.008415,-0.002904,-0.002127,0.007644,-0.508063,0.003108,-0.478605,-264.050371,0.188431,62.90223
4.0181,0.006078,0.002051,0.002376,-0.008523,-0.002941,-0.002154,0.007644,-0.508063,0.003108,-0.478605,-264.050371,0.188431,62.90223
4.0379,0.006225,0.001898,0.002505,-0.008588,-0.002963,-0.002171,0.007289,-0.507948,0.002376,-0.403237,-264.050371,0.188431,62.90223
4.0582,0.006267,0.001876,0.001642,-0.00861,-0.002971,-0.002176,0.007304,-0.507959,0.002385,-0.403237,-264.050371,0.188431,62.90223
4.0782,0.005783,0.001623,0.001735,-0.008589,-0.002964,-0.002171,0.007104,-0.508124,0.001642,-0.328607,-264.050372,0.188431,62.902229
4.0983,0.005571,0.00218,0.003937,-0.008524,-0.002941,-0.002154,0.006855,-0.508268,0.001695,-0.328607,-264.050372,0.188431,62.902229
4.1182,0.005827,0.002069,0.001734,-0.008417,-0.002904,-0.002127,0.006855,-0.508268,0.001695,-0.328607,-264.050372,0.188431,62.902229
4.1379,0.006207,0.001704,0.002679,-0.008267,-0.002852,-0.002089,0.006712,-0.50793,0.001734,-0.253603,-264.050372,0.188431,62.902229
4.1583,0.006118,0.002043,0.002959,-0.008073,-0.002786,-0.00204,0.006767,-0.507954,0.001795,-0.253603,-264.050372,0.188431,62.902229
4.1786,0.006026,0.001989,0.00164,-0.007835,-0.002703,-0.00198,0.007627,-0.507955,0.002959,-0.178716,-264.050373,0.188431,62.902228
4.1981,0.006082,0.001862,0.002141,-0.007557,-0.002608,-0.00191,0.007192,-0.507987,0.002208,-0.178716,-264.050373,0.188431,62.902228
4.2184,0.006071,0.001959,0.003064,-0.007235,-0.002496,-0.001829,0.007192,-0.507987,0.002208,-0.178716,-264.050373,0.188431,62.902228
4.238,0.006018,0.00188,0.002736,-0.006869,-0.00237,-0.001736,0.007633,-0.508039,0.003064,-0.103663,-264.050376,0.188431,62.902225
4.2578,0.005877,0.001963,0.002894,-0.006461,-0.002229,-0.001633,0.007619,-0.508044,0.003043,-0.103663,-264.050376,0.188431,62.902225
4.2782,0.005614,0.001623,0.003501,-0.006009,-0.002073,-0.001519,0.007352,-0.508035,0.002895,-0.028707,-264.05039,0.188431,62.902212
4.2983,0.005992,0.001744,0.003439,-0.005514,-0.001902,-0.001394,0.007379,-0.50823,0.003243,-0.028707,-264.05039,0.188431,62.902212
4.3184,0.005999,0.002335,0.003903,-0.004976,-0.001717,-0.001258,0.007379,-0.50823,0.003243,-0.028707,-264.05039,0.188431,62.902212
4.3381,0.006263,0.001936,0.003593,-0.004396,-0.001517,-0.001111,0.007984,-0.507662,0.003903,0.046439,-264.050442,0.188431,62.902166
4.3586,0.006035,0.001678,0.002455,-0.003772,-0.001302,-0.000953,0.007991,-0.507689,0.003882,0.046439,-264.050442,0.188431,62.902166
4.3779,0.006225,0.001704,0.002711,-0.003105,-0.001071,-0.000785,0.007276,-0.508323,0.002456,0.121293,-264.050569,0.188431,62.90205
4.3979,0.006124,0.001628,0.002432,-0.002392,-0.000825,-0.000605,0.00746,-0.508307,0.002599,0.121293,-264.050569,0.188431,62.90205
4.418,0.005971,0.001836,0.001828,-0.001642,-0.000567,-0.000415,0.00746,-0.508307,0.002599,0.121293,-264.050569,0.188431,62.90205
4.438,0.006053,0.00165,0.001224,-0.000846,-0.000292,-0.000214,0.006875,-0.508169,0.001827,0.196292,-264.050819,0.188431,62.901822
4.4586,0.00557,0.001789,0.001454,-6e-06,-2e-06,-2e-06,0.006861,-0.508181,0.001787,0.196292,-264.050819,0.188431,62.901822
4.4779,0.005528,0.001801,0.001243,0.0,0.0,0.0,0.00629,-0.508216,0.001452,0.271292,-264.051051,0.188431,62.901611
4.4978,0.005836,0.002113,0.00246,0.0,0.0,0.0,0.006214,-0.508207,0.001332,0.271292,-264.051051,0.188431,62.901611
4.5181,0.00581,0.001777,0.002044,0.0,0.0,0.0,0.006214,-0.508207,0.001332,0.271292,-264.051051,0.188431,62.901611
4.5378,0.005749,0.00218,0.003404,0.0,0.0,0.0,0.006852,-0.508222,0.002044,0.34644,-264.051052,0.188431,62.901609
4.5581,0.005527,0.001949,0.003096,0.0,0.0,0.0,0.006896,-0.508194,0.002139,0.34644,-264.051052,0.188431,62.901609
4.578,0.005642,0.001848,0.002135,0.0,0.0,0.0,0.007106,-0.508049,0.003096,0.34644,-264.051052,0.188431,62.901609
4.598,0.005966,0.001982,0.003239,0.0,0.0,0.0,0.006892,-0.508107,0.002549,0.34644,-264.051052,0.188431,62.901609
4.6183,0.005815,0.002139,0.003309,0.0,0.0,0.0,0.006892,-0.508107,0.002549,0.34644,-264.051052,0.188431,62.901609
4.6381,0.005935,0.002208,0.000701,0.0,0.0,0.0,0.007503,-0.507859,0.003309,0.34644,-264.051052,0.188431,62.901609
4.6582,0.005625,0.00184,0.00313,0.0,0.0,0.0,0.007419,-0.507854,0.003128,0.34644,-264.051052,0.188431,62.901609
4.678,0.005912,0.002145,0.003432,0.0,0.0,0.0,0.007221,-0.508157,0.00313,0.34644,-264.051052,0.188431,62.901609
4.6979,0.006048,0.001723,0.002406,-9.4e-05,-3.4e-05,0.0,0.007471,-0.507984,0.003301,0.34644,-264.051052,0.188431,62.901609
4.7179,0.005758,0.001798,0.00117,-9.4e-05,-3.4e-05,0.0,0.007471,-0.507984,0.003301,0.34644,-264.051052,0.188431,62.901609
4.7379,0.005913,0.001782,0.002981,-9.4e-05,-3.4e-05,0.0,0.006355,-0.508202,0.00117,0.34644,-264.051052,0.188431,62.901609
4.7582,0.006198,0.001738,0.003394,-9.4e-05,-3.4e-05,0.0,0.006433,-0.508203,0.001301,0.34644,-264.051052,0.188431,62.901609
4.7779,0.005644,0.001396,0.002462,-9.4e-05,-3.4e-05,0.0,0.007927,-0.50826,0.003394,0.344685,-264.051079,0.263555,62.901582
4.7982,0.006048,0.001696,0.002165,-9.4e-05,-3.4e-05,0.0,0.007339,-0.508456,0.002861,0.344685,-264.051079,0.263555,62.901582
4.818,0.005994,0.001886,0.002953,-9.4e-05,-3.4e-05,0.0,0.007339,-0.508456,0.002861,0.344685,-264.051079,0.263555,62.901582
4.8381,0.005873,0.001607,0.001954,-9.4e-05,-3.4e-05,0.0,0.007495,-0.508113,0.002953,0.344685,-264.051115,0.338541,62.901546
4.8584,0.005858,0.001512,0.001178,-9.4e-05,-3.4e-05,0.0,0.007451,-0.508133,0.002882,0.344685,-264.051115,0.338541,62.901546
4.8781,0.006082,0.001962,0.002556,-9.4e-05,-3.4e-05,0.0,0.006455,-0.508489,0.001178,0.344685,-264.051155,0.344685,62.901506
4.8982,0.005623,0.001374,0.003027,-2e-06,-1e-06,-1e-06,0.006982,-0.508232,0.001959,0.344685,-264.051155,0.344685,62.901506
4.9184,0.005899,0.001521,0.002292,-0.000864,-0.00031,-0.000501,0.006982,-0.508232,0.001959,0.344685,-264.051155,0.344685,62.901506
4.9379,0.005623,0.001982,0.003733,-0.001686,-0.000605,-0.000977,0.007064,-0.50848,0.002292,0.344685,-264.051195,0.344685,62.901466
4.9579,0.005995,0.001815,0.002348,-0.002463,-0.000884,-0.001428,0.007082,-0.508461,0.00235,0.344685,-264.051195,0.344685,62.901466
4.9784,0.005692,0.001532,0.003427,-0.003196,-0.001147,-0.001853,0.007191,-0.508184,0.002348,0.419695,-264.051214,0.269676,62.901451
4.9981,0.006266,0.001731,0.003286,-0.003883,-0.001394,-0.002251,0.007333,-0.508345,0.002965,0.419695,-264.051214,0.269676,62.901451
5.0179,0.005733,0.001705,0.003085,-0.004526,-0.001625,-0.002624,0.007333,-0.508345,0.002965,0.419695,-264.051214,0.269676,62.901451
5.0379,0.005892,0.001811,0.001517,-0.005126,-0.00184,-0.002972,0.007285,-0.508301,0.003078,0.494805,-264.051418,0.194566,62.901285
5.0583,0.006135,0.002204,0.002295,-0.005683,-0.00204,-0.003295,0.007244,-0.508293,0.002975,0.494805,-264.051418,0.194566,62.901285
5.0782,0.00626,0.001653,0.003276,-0.006194,-0.002224,-0.003591,0.007228,-0.507824,0.002261,0.569685,-264.052389,0.119686,62.900494
5.098,0.005899,0.001913,0.002628,-0.00666,-0.002391,-0.003861,0.007618,-0.508124,0.002834,0.569685,-264.052389,0.119686,62.900494
5.1181,0.005847,0.00153,0.003364,-0.007083,-0.002543,-0.004106,0.007618,-0.508124,0.002834,0.569685,-264.052389,0.119686,62.900494
5.1379,0.005495,0.001751,0.002228,-0.007457,-0.002677,-0.004324,0.007348,-0.50855,0.003246,0.619472,-264.054565,0.044691,62.898723
5.1583,0.005741,0.001696,0.001301,-0.007791,-0.002797,-0.004517,0.007292,-0.508531,0.003172,0.619472,-264.054565,0.044691,62.898723
5.178,0.005435,0.001605,0.001331,-0.00808,-0.002901,-0.004685,0.006139,-0.5084,0.001147,0.619472,-264.057957,0.004923,62.895961
5.1979,0.005128,0.001241,0.003386,-0.008323,-0.002988,-0.004826,0.006091,-0.508409,0.001233,0.619472,-264.057957,0.004923,62.895961
5.2179,0.005579,0.001455,0.002762,-0.008524,-0.00306,-0.004942,0.006091,-0.508409,0.001233,0.619472,-264.057957,0.004923,62.895961
5.2381,0.004955,0.001155,0.000928,-0.008679,-0.003116,-0.005032,0.00661,-0.508679,0.002543,0.619472,-264.061786,0.004923,62.892843
5.2584,0.00521,0.001216,0.002681,-0.00879,-0.003156,-0.005096,0.006512,-0.508695,0.002418,0.619472,-264.061786,0.004923,62.892843
5.2778,0.005004,0.001357,0.001407,-0.008856,-0.00318,-0.005135,0.006249,-0.508901,0.002491,0.619472,-264.065972,0.004923,62.889435
5.2978,0.004761,0.001362,0.002752,-0.008879,-0.003188,-0.005148,0.005905,-0.508768,0.001846,0.619472,-264.065972,0.004923,62.889435
5.3184,0.004549,0.001257,0.001406,-0.008856,-0.00318,-0.005135,0.005905,-0.508768,0.001846,0.619472,-264.065972,0.004923,62.889435
5.338,0.004125,0.000969,0.002072,-0.008789,-0.003156,-0.005096,0.004838,-0.508897,0.001158,0.619472,-264.070285,0.004923,62.885924
5.3583,0.004629,0.001031,0.000179,-0.008679,-0.003116,-0.005032,0.00485,-0.508909,0.001211,0.619472,-264.070285,0.004923,62.885924
5.3783,0.004018,0.00109,-0.000742,-0.008524,-0.00306,-0.004942,0.004377,-0.509092,-2e-05,0.619472,-264.074642,0.004923,62.882376
5.3979,0.003962,0.000922,0.000685,-0.008324,-0.002988,-0.004826,0.003913,-0.509004,-0.000457,0.619472,-264.074642,0.004923,62.882376
5.4179,0.00397,0.000947,0.001563,-0.00808,-0.002901,-0.004685,0.003913,-0.509004,-0.000457,0.619472,-264.074642,0.004923,62.882376
5.4378,0.004243,0.00045,0.000592,-0.007791,-0.002797,-0.004517,0.004346,-0.509204,0.001319,0.619472,-264.0789,0.004923,62.878909
5.4578,0.00396,0.001194,0.000579,-0.007459,-0.002678,-0.004324,0.004349,-0.509232,0.001262,0.619472,-264.0789,0.004923,62.878909
5.4778,0.003622,0.000381,0.001903,-0.007081,-0.002542,-0.004105,0.003944,-0.508918,0.000398,0.619472,-264.082885,0.004923,62.875665
5.4979,0.003848,0.000811,0.000786,-0.00666,-0.002391,-0.003861,0.00428,-0.509337,0.001246,0.619472,-264.082885,0.004923,62.875665
5.5183,0.00332,0.000855,0.000643,-0.006193,-0.002223,-0.003591,0.00428,-0.509337,0.001246,0.619472,-264.082885,0.004923,62.875665
5.5383,0.003431,0.000319,0.001889,-0.005679,-0.002039,-0.003292,0.003286,-0.509275,0.000433,0.619472,-264.086535,0.004923,62.872693
5.5584,0.003302,0.000424,-0.000704,-0.005129,-0.001841,-0.002973,0.003353,-0.509307,0.000528,0.619472,-264.086535,0.004923,62.872693
5.5782,0.002769,0.000543,0.000752,-0.004524,-0.001624,-0.002623,0.002704,-0.509662,-0.000843,0.619472,-264.089588,0.004923,62.870207
5.5986,0.0037,0.000507,6e-06,-0.003886,-0.001395,-0.002253,0.002931,-0.509555,5.4e-05,0.619472,-264.089588,0.004923,62.870207
5.6179,0.00284,0.000364,-8.8e-05,-0.003197,-0.001148,-0.001853,0.002931,-0.509555,5.4e-05,0.619472,-264.089588,0.004923,62.870207
