mach0312/omni-docking-bench/src/icros_test_setup/results/kinematic_sample/timeseries/trial_001.csv
t,x,y,yaw,vx,vy,wz,bl_x,bl_y,bl_yaw,front_steering_joint,front_wheel_joint,rear_steering_joint,rear_wheel_joint
0.0,0.261862,-0.260295,-2.420658,0.00175,-0.099985,0.05,-0.064833,0.111106,-2.427493,1.576521,-279.206866,1.573843,45.180956
0.0006,0.262089,-0.260523,-2.419636,0.001892,-0.099982,0.05,-0.064833,0.111106,-2.427493,1.581074,-279.234605,1.576265,45.128829
0.0009,0.259812,-0.255674,-2.418541,0.00203,-0.099979,0.05,-0.067832,0.114615,-2.425168,1.595994,-279.262301,1.584205,45.076788
0.0013,0.259785,-0.255751,-2.417354,0.00174,-0.099985,0.05,-0.067991,0.114689,-2.424971,1.579957,-279.289904,1.575671,45.024916
0.0016,0.259607,-0.255705,-2.417972,0.002704,-0.099963,0.05,-0.067991,0.114689,-2.424971,1.599309,-279.317513,1.58597,44.973041
0.002,0.257612,-0.2517,-2.416523,0.002292,-0.099974,0.05,-0.071341,0.117661,-2.422402,1.600022,-279.345268,1.586349,44.920889
0.0023,0.257089,-0.251378,-2.413777,0.002386,-0.099972,0.05,-0.071341,0.117661,-2.422402,1.603791,-279.373052,1.588355,44.868688
0.0026,0.254756,-0.246793,-2.413978,0.002959,-0.099956,0.05,-0.071407,0.118716,-2.422691,1.613394,-279.400944,1.593467,44.81629
0.0029,0.255013,-0.247018,-2.412931,0.002005,-0.09998,0.05,-0.071407,0.118716,-2.422691,1.613394,-279.400944,1.593467,44.81629
0.0032,0.254487,-0.246741,-2.41228,0.003189,-0.099949,0.05,-0.071407,0.118716,-2.422691,1.613394,-279.400944,1.593467,44.81629
0.018,0.252445,-0.242229,-2.411677,0.016108,-0.098694,0.05,-0.088707,0.137057,-2.409847,1.613394,-279.400944,1.593467,44.81629
0.0383,0.252057,-0.242547,-2.408865,0.0226,-0.097413,0.05,-0.088721,0.13722,-2.409918,1.613394,-279.400944,1.593467,44.81629
0.0578,0.249566,-0.238002,-2.406306,0.021631,-0.097632,0.05,-0.091732,0.139333,-2.406948,1.612907,-279.428609,1.593208,44.764318
0.0779,0.249958,-0.237893,-2.408429,0.021844,-0.097585,0.05,-0.092533,0.140201,-2.406337,1.612907,-279.428609,1.593208,44.764318
0.0984,0.249863,-0.238347,-2.405492,0.022745,-0.097379,0.05,-0.092533,0.140201,-2.406337,1.612907,-279.428609,1.593208,44.764318
0.1181,0.248319,-0.23461,-2.403954,0.021651,-0.097628,0.05,-0.094885,0.14243,-2.403062,1.53828,-279.446568,1.518581,44.721782
0.138,0.248466,-0.234308,-2.405174,0.022293,-0.097483,0.05,-0.094939,0.142548,-2.403061,1.53828,-279.446568,1.518581,44.721782
0.1578,0.247868,-0.231396,-2.402982,0.022912,-0.09734,0.05,-0.095175,0.145108,-2.403272,1.46278,-279.454291,1.443081,44.689807
0.1779,0.247833,-0.231441,-2.402802,0.023567,-0.097183,0.05,-0.095497,0.145642,-2.402866,1.46278,-279.454291,1.443081,44.689807
0.1981,0.247995,-0.231282,-2.403273,0.023503,-0.097199,0.05,-0.095497,0.145642,-2.402866,1.46278,-279.454291,1.443081,44.689807
0.2179,0.248159,-0.22936,-2.399984,0.023812,-0.097123,0.05,-0.096117,0.146962,-2.401059,1.388315,-279.45429,1.517546,44.667558
0.2385,0.248079,-0.229736,-2.401484,0.024076,-0.097059,0.05,-0.096152,0.146971,-2.400934,1.388315,-279.45429,1.517546,44.667558
0.2583,0.247735,-0.228595,-2.3986,0.024245,-0.097016,0.05,-0.096193,0.147337,-2.40051,1.313379,-279.45429,1.44261,44.65527
0.2778,0.247784,-0.228841,-2.398165,0.023886,-0.097105,0.05,-0.096845,0.147204,-2.399316,1.313379,-279.45429,1.44261,44.65527
0.2983,0.247809,-0.228819,-2.399197,0.023645,-0.097164,0.05,-0.096845,0.147204,-2.399316,1.313379,-279.45429,1.44261,44.65527
0.3178,0.247897,-0.228378,-2.398022,0.023941,-0.097092,0.05,-0.097049,0.147093,-2.398977,1.23826,-279.45429,1.367491,44.653013
0.3381,0.248122,-0.228432,-2.396757,0.023929,-0.097095,0.05,-0.097071,0.14709,-2.398905,1.23826,-279.45429,1.367491,44.653013
0.3578,0.2477,-0.228203,-2.399294,0.023689,-0.097154,0.05,-0.097582,0.14652,-2.396757,1.163309,-279.45429,1.29254,44.653013
0.3783,0.247789,-0.228414,-2.398559,0.024241,-0.097017,0.05,-0.097283,0.147143,-2.398187,1.163309,-279.45429,1.29254,44.653013
0.3985,0.247797,-0.228261,-2.399766,0.024007,-0.097076,0.05,-0.097283,0.147143,-2.398187,1.163309,-279.45429,1.29254,44.653013
0.418,0.248158,-0.228493,-2.398703,0.024411,-0.096975,0.05,-0.096777,0.147729,-2.399766,1.088309,-279.45429,1.21754,44.653013
0.4385,0.247822,-0.228077,-2.397633,0.024231,-0.09702,0.05,-0.096779,0.147696,-2.399707,1.088309,-279.45429,1.21754,44.653013
0.458,0.248006,-0.228141,-2.40021,0.023959,-0.097088,0.05,-0.097553,0.147177,-2.397633,1.013362,-279.45429,1.142594,44.653013
0.4786,0.247778,-0.22852,-2.399684,0.024718,-0.096897,0.05,-0.096897,0.147647,-2.3991,1.013362,-279.45429,1.142594,44.653013
0.4986,0.247742,-0.228418,-2.399773,0.024272,-0.09701,0.05,-0.096897,0.147647,-2.3991,1.013362,-279.45429,1.142594,44.653013
0.5179,0.247712,-0.228006,-2.39697,0.024308,-0.097001,0.05,-0.096829,0.147575,-2.399773,0.938245,-279.45429,1.067476,44.653013
0.538,0.248161,-0.228251,-2.398736,0.023756,-0.097137,0.05,-0.096911,0.147533,-2.399563,0.938245,-279.45429,1.067476,44.653013
0.5578,0.247833,-0.22783,-2.399042,0.02434,-0.096992,0.05,-0.096801,0.147384,-2.398736,0.863206,-279.45429,0.992437,44.653013
0.5778,0.24745,-0.228207,-2.399023,0.024488,-0.096955,0.05,-0.096922,0.147686,-2.398912,0.863206,-279.45429,0.992437,44.653013
0.598,0.247711,-0.228479,-2.399849,0.024056,-0.097063,0.05,-0.096922,0.147686,-2.398912,0.863206,-279.45429,0.992437,44.653013
0.618,0.247548,-0.228096,-2.398589,0.024265,-0.097011,0.05,-0.096832,0.147539,-2.399849,0.788264,-279.45429,0.917495,44.653013
0.6384,0.247693,-0.228494,-2.398191,0.024046,-0.097066,0.05,-0.096874,0.147536,-2.399767,0.788264,-279.45429,0.917495,44.653013
0.6585,0.247657,-0.228524,-2.398788,0.023796,-0.097128,0.05,-0.097473,0.146953,-2.398191,0.713373,-279.45429,0.842604,44.653013
0.6783,0.247593,-0.228388,-2.40004,0.023907,-0.0971,0.05,-0.097361,0.147057,-2.398546,0.713373,-279.45429,0.842604,44.653013
0.6982,0.247559,-0.228438,-2.399563,0.02429,-0.097005,0.05,-0.097361,0.147057,-2.398546,0.713373,-279.45429,0.842604,44.653013
0.7178,0.248052,-0.228448,-2.398605,0.024131,-0.097045,0.05,-0.097092,0.147482,-2.399563,0.637398,-279.45429,0.766629,44.653013
0.7378,0.247713,-0.228436,-2.400236,0.024152,-0.09704,0.05,-0.097083,0.14746,-2.399499,0.637398,-279.45429,0.766629,44.653013
0.7583,0.247632,-0.228624,-2.398897,0.0244,-0.096978,0.05,-0.096684,0.147716,-2.400236,0.563372,-279.45429,0.692603,44.653013
0.7781,0.247988,-0.228432,-2.398733,0.023898,-0.097102,0.05,-0.097015,0.147349,-2.399479,0.563372,-279.45429,0.692603,44.653013
0.7978,0.247816,-0.228073,-2.398541,0.024145,-0.097041,0.05,-0.097015,0.147349,-2.399479,0.563372,-279.45429,0.692603,44.653013
0.8179,0.247657,-0.228275,-2.398472,0.024199,-0.097028,0.05,-0.097219,0.147494,-2.398541,0.488367,-279.45429,0.617598,44.653013
0.8381,0.247821,-0.2282,-2.399146,0.023978,-0.097083,0.05,-0.097232,0.147479,-2.398536,0.488367,-279.45429,0.617598,44.653013
0.8578,0.247805,-0.228314,-2.398385,0.024289,-0.097005,0.05,-0.096986,0.147577,-2.399146,0.413385,-279.45429,0.542616,44.653013
0.8783,0.247924,-0.228272,-2.399825,0.024026,-0.097071,0.05,-0.097158,0.147362,-2.398713,0.413385,-279.45429,0.542616,44.653013
0.8985,0.247591,-0.22819,-2.399382,0.024497,-0.096953,0.05,-0.097158,0.147362,-2.398713,0.413385,-279.45429,0.542616,44.653013
0.9184,0.247866,-0.228134,-2.398122,0.024247,-0.097016,0.05,-0.097128,0.147667,-2.399382,0.338271,-279.45429,0.467502,44.653013
0.9383,0.247744,-0.228535,-2.399046,0.024087,-0.097056,0.05,-0.097141,0.147643,-2.399301,0.338271,-279.45429,0.467502,44.653013
0.9581,0.247851,-0.228305,-2.400274,0.024038,-0.097068,0.05,-0.097101,0.147207,-2.399046,0.263373,-279.45429,0.392604,44.653013
0.9778,0.248112,-0.228353,-2.399242,0.024558,-0.096938,0.05,-0.096777,0.147578,-2.399744,0.263373,-279.45429,0.392604,44.653013
0.9979,0.247881,-0.228549,-2.400251,0.024434,-0.096969,0.05,-0.096777,0.147578,-2.399744,0.263373,-279.45429,0.392604,44.653013
1.0183,0.24778,-0.228286,-2.399358,0.024457,-0.096963,0.05,-0.096511,0.147608,-2.400251,0.188293,-279.45429,0.317524,44.653013
1.038,0.248015,-0.228024,-2.398316,0.024299,-0.097003,0.05,-0.096547,0.147605,-2.400178,0.188293,-279.45429,0.317524,44.653013
1.0582,0.248141,-0.228261,-2.398499,0.024292,-0.097005,0.05,-0.097104,0.147466,-2.398316,0.11287,-279.45429,0.242101,44.653013
1.078,0.248037,-0.228314,-2.399312,0.024286,-0.097006,0.05,-0.096992,0.147366,-2.398421,0.11287,-279.45429,0.242101,44.653013
1.0984,0.24768,-0.228366,-2.398743,0.024416,-0.096974,0.05,-0.096992,0.147366,-2.398421,0.11287,-279.45429,0.242101,44.653013
1.118,0.248118,-0.22848,-2.398508,0.024026,-0.097071,0.05,-0.097279,0.147271,-2.398743,0.038068,-279.45429,0.167299,44.653013
1.1387,0.24782,-0.228175,-2.397717,0.024142,-0.097042,0.05,-0.097257,0.147259,-2.398728,0.038068,-279.45429,0.167299,44.653013
1.1582,0.248092,-0.228471,-2.399526,0.023922,-0.097096,0.05,-0.097524,0.147108,-2.397717,-0.036721,-279.45429,0.09251,44.653013
1.1779,0.247658,-0.227965,-2.398897,0.024402,-0.096977,0.05,-0.096979,0.147296,-2.398753,-0.036721,-279.45429,0.09251,44.653013
1.1979,0.247902,-0.228597,-2.399689,0.024274,-0.097009,0.05,-0.096979,0.147296,-2.398753,-0.036721,-279.45429,0.09251,44.653013
1.2184,0.248074,-0.228496,-2.397132,0.024283,-0.097007,0.05,-0.096701,0.147367,-2.399689,-0.111733,-279.45429,0.017498,44.653013
1.2379,0.247764,-0.22836,-2.399107,0.023745,-0.09714,0.05,-0.096754,0.147315,-2.399518,-0.111733,-279.45429,0.017498,44.653013
1.2583,0.247672,-0.228613,-2.398749,0.024145,-0.097041,0.05,-0.097058,0.147403,-2.399107,-0.186641,-279.45429,-0.05741,44.653013
1.2783,0.2476,-0.228519,-2.397756,0.023875,-0.097108,0.05,-0.097187,0.147188,-2.398903,-0.186641,-279.45429,-0.05741,44.653013
1.298,0.248036,-0.228031,-2.398484,0.023599,-0.097175,0.05,-0.097187,0.147188,-2.398903,-0.186641,-279.45429,-0.05741,44.653013
1.3181,0.247777,-0.228082,-2.398891,0.024311,-0.097,0.05,-0.09702,0.147517,-2.398484,-0.261676,-279.45429,-0.132445,44.653013
1.3379,0.248099,-0.228345,-2.398866,0.024275,-0.097009,0.05,-0.097027,0.147523,-2.39851,-0.261676,-279.45429,-0.132445,44.653013
1.358,0.247989,-0.228639,-2.398807,0.024314,-0.096999,0.05,-0.096813,0.147336,-2.398866,-0.336639,-279.45429,-0.207408,44.653013
1.3781,0.247937,-0.227807,-2.398351,0.024074,-0.097059,0.05,-0.096889,0.147157,-2.398832,-0.336639,-279.45429,-0.207408,44.653013
1.398,0.247921,-0.228568,-2.397387,0.024362,-0.096987,0.05,-0.096889,0.147157,-2.398832,-0.336639,-279.45429,-0.207408,44.653013
1.4179,0.247827,-0.228273,-2.399869,0.023688,-0.097154,0.05,-0.097547,0.146601,-2.397387,-0.411639,-279.45429,-0.282408,44.653013
1.4379,0.247679,-0.2283,-2.400042,0.024434,-0.096969,0.05,-0.097486,0.146685,-2.397567,-0.411639,-279.45429,-0.282408,44.653013
1.4584,0.248218,-0.228588,-2.398961,0.024416,-0.096974,0.05,-0.096791,0.147786,-2.400042,-0.486752,-279.45429,-0.357521,44.653013
1.478,0.247669,-0.228117,-2.399746,0.024285,-0.097006,0.05,-0.096716,0.14741,-2.399428,-0.486752,-279.45429,-0.357521,44.653013
1.4984,0.247371,-0.228419,-2.398731,0.024422,-0.096972,0.05,-0.096716,0.14741,-2.399428,-0.486752,-279.45429,-0.357521,44.653013
1.5185,0.247679,-0.228306,-2.400111,0.02381,-0.097124,0.05,-0.097592,0.147214,-2.398731,-0.561633,-279.45429,-0.432402,44.653013
1.5383,0.247852,-0.228233,-2.398786,0.024399,-0.096978,0.05,-0.097522,0.147264,-2.398847,-0.561633,-279.45429,-0.432402,44.653013
1.558,0.247682,-0.228078,-2.398572,0.024212,-0.097025,0.05,-0.097091,0.147419,-2.398786,-0.637214,-279.45429,-0.507982,44.653013
1.5779,0.247941,-0.228243,-2.398689,0.024129,-0.097045,0.05,-0.097234,0.147466,-2.398664,-0.637214,-279.45429,-0.507982,44.653013
1.598,0.247681,-0.228282,-2.399085,0.02422,-0.097023,0.05,-0.097234,0.147466,-2.398664,-0.637214,-279.45429,-0.507982,44.653013
1.6178,0.247771,-0.228298,-2.397531,0.024156,-0.097039,0.05,-0.09715,0.147473,-2.399085,-0.711748,-279.45429,-0.582517,44.653013
1.6381,0.247861,-0.228266,-2.399448,0.023775,-0.097133,0.05,-0.097183,0.147435,-2.398978,-0.711748,-279.45429,-0.582517,44.653013
1.6579,0.247464,-0.22841,-2.399333,0.024348,-0.096991,0.05,-0.096833,0.147614,-2.399448,-0.786711,-279.45429,-0.65748,44.653013
1.678,0.247828,-0.228434,-2.400954,0.024031,-0.09707,0.05,-0.097084,0.14751,-2.399382,-0.786711,-279.45429,-0.65748,44.653013
1.6979,0.248042,-0.228167,-2.397604,0.024658,-0.096912,0.05,-0.097084,0.14751,-2.399382,-0.786711,-279.45429,-0.65748,44.653013
1.7178,0.247577,-0.228032,-2.399513,0.024054,-0.097064,0.05,-0.097344,0.147078,-2.397604,-0.861721,-279.45429,-0.73249,44.653013
1.7383,0.247619,-0.228347,-2.400621,0.024338,-0.096993,0.05,-0.097327,0.147132,-2.397734,-0.861721,-279.45429,-0.73249,44.653013
1.7578,0.248068,-0.22832,-2.398135,0.024506,-0.096951,0.05,-0.096634,0.147938,-2.400621,-0.936615,-279.454287,-0.807384,44.653019
1.7777,0.247782,-0.228128,-2.399449,0.024122,-0.097047,0.05,-0.096911,0.147465,-2.399203,-0.936615,-279.454287,-0.807384,44.653019
1.798,0.247882,-0.228397,-2.397967,0.024394,-0.096979,0.05,-0.096911,0.147465,-2.399203,-0.936615,-279.454287,-0.807384,44.653019
1.8182,0.247862,-0.228278,-2.398579,0.023918,-0.097098,0.05,-0.097373,0.146973,-2.397965,-1.011684,-279.454258,-0.882453,44.653072
1.8384,0.247965,-0.228016,-2.398435,0.024114,-0.097049,0.05,-0.097358,0.146996,-2.398007,-1.011684,-279.454258,-0.882453,44.653072
1.8581,0.247828,-0.228158,-2.397786,0.024289,-0.097005,0.05,-0.097138,0.147523,-2.398424,-1.086624,-279.454037,-0.957393,44.653476
1.8777,0.248033,-0.228117,-2.397304,0.023962,-0.097087,0.05,-0.097339,0.147315,-2.398065,-1.086624,-279.454037,-0.957393,44.653476
1.8983,0.24743,-0.22858,-2.399033,0.02396,-0.097087,0.05,-0.097339,0.147315,-2.398065,-1.086624,-279.454037,-0.957393,44.653476
1.9184,0.247871,-0.228345,-2.399154,0.023816,-0.097122,0.05,-0.097589,0.147216,-2.398965,-1.161626,-279.452996,-1.032395,44.655387
1.9384,0.247662,-0.228102,-2.397058,0.024233,-0.097019,0.05,-0.097548,0.147233,-2.398976,-1.161626,-279.452996,-1.032395,44.655387
1.9582,0.247251,-0.227968,-2.399316,0.023693,-0.097153,0.05,-0.098277,0.147106,-2.397003,-1.225219,-279.449531,-1.107405,44.659797
1.9782,0.247043,-0.228317,-2.398322,0.024108,-0.09705,0.05,-0.097876,0.147558,-2.398308,-1.225219,-279.449531,-1.107405,44.659797
1.9981,0.246697,-0.22828,-2.397837,0.023543,-0.097189,0.05,-0.097876,0.147558,-2.398308,-1.225219,-279.449531,-1.107405,44.659797
2.0179,0.24631,-0.227309,-2.398308,0.023198,-0.097272,0.05,-0.099304,0.14739,-2.397758,-1.221254,-279.443565,-1.182401,44.666707
2.0378,0.246641,-0.227565,-2.398286,0.023612,-0.097172,0.05,-0.099288,0.147455,-2.397795,-1.221254,-279.443565,-1.182401,44.666707
2.0583,0.245455,-0.226641,-2.399113,0.023683,-0.097155,0.05,-0.099246,0.14833,-2.398209,-1.231247,-279.4351,-1.257399,44.676117
2.0779,0.245482,-0.22708,-2.399913,0.023708,-0.097149,0.05,-0.09941,0.148834,-2.398712,-1.231247,-279.4351,-1.257399,44.676117
2.0982,0.245657,-0.227134,-2.397962,0.023701,-0.097151,0.05,-0.09941,0.148834,-2.398712,-1.231247,-279.4351,-1.257399,44.676117
2.1185,0.244331,-0.226276,-2.399936,0.023247,-0.09726,0.05,-0.100786,0.148947,-2.397839,-1.230256,-279.424135,-1.332391,44.688027
2.1385,0.244474,-0.226273,-2.397746,0.023437,-0.097215,0.05,-0.100775,0.149024,-2.397983,-1.230256,-279.424135,-1.332391,44.688027
2.1578,0.242966,-0.225438,-2.397854,0.022943,-0.097333,0.05,-0.102003,0.14975,-2.397628,-1.22897,-279.410668,-1.387272,44.702438
2.1779,0.243086,-0.225251,-2.398844,0.022505,-0.097435,0.05,-0.102326,0.14992,-2.39774,-1.22897,-279.410668,-1.387272,44.702438
2.1979,0.24304,-0.2251,-2.397365,0.022927,-0.097336,0.05,-0.102326,0.14992,-2.39774,-1.22897,-279.410668,-1.387272,44.702438
2.2183,0.241531,-0.224224,-2.397784,0.022604,-0.097412,0.05,-0.104113,0.151135,-2.397209,-1.232785,-279.394703,-1.389357,44.719347
2.2385,0.24142,-0.224202,-2.39682,0.022281,-0.097486,0.05,-0.104135,0.15116,-2.397244,-1.232785,-279.394703,-1.389357,44.719347
2.2582,0.239356,-0.22236,-2.397479,0.021953,-0.09756,0.05,-0.105796,0.151764,-2.39669,-1.240164,-279.376236,-1.393384,44.738759
2.2778,0.239607,-0.222944,-2.398487,0.021895,-0.097574,0.05,-0.106149,0.152499,-2.397121,-1.240164,-279.376236,-1.393384,44.738759
2.2978,0.23951,-0.222782,-2.397081,0.021989,-0.097552,0.05,-0.106149,0.152499,-2.397121,-1.240164,-279.376236,-1.393384,44.738759
2.3183,0.237356,-0.221357,-2.397102,0.021649,-0.097628,0.05,-0.108247,0.153709,-2.396913,-1.24952,-279.355236,-1.398484,44.760705
2.3378,0.237328,-0.221045,-2.399122,0.021133,-0.097741,0.05,-0.108303,0.153748,-2.396922,-1.24952,-279.355236,-1.398484,44.760705
2.358,0.234798,-0.219323,-2.397391,0.021805,-0.097594,0.05,-0.109404,0.155996,-2.398983,-1.25374,-279.331708,-1.400783,44.785181
2.3781,0.234895,-0.219488,-2.397673,0.020802,-0.097813,0.05,-0.110377,0.156073,-2.398049,-1.25374,-279.331708,-1.400783,44.785181
2.3983,0.234819,-0.219403,-2.397484,0.020805,-0.097812,0.05,-0.110377,0.156073,-2.398049,-1.25374,-279.331708,-1.400783,44.785181
2.4179,0.232406,-0.217467,-2.395898,0.020756,-0.097822,0.05,-0.11326,0.157587,-2.397307,-1.266124,-279.305842,-1.407519,44.811987
2.4382,0.232329,-0.217806,-2.39825,0.019957,-0.097988,0.05,-0.113354,0.157607,-2.397207,-1.266124,-279.305842,-1.407519,44.811987
2.4581,0.229328,-0.215914,-2.396993,0.020309,-0.097916,0.05,-0.115114,0.15923,-2.39808,-1.270873,-279.277689,-1.410099,44.841397
2.4778,0.229117,-0.21536,-2.396735,0.019226,-0.098134,0.05,-0.116065,0.159366,-2.397447,-1.270873,-279.277689,-1.410099,44.841397
2.4978,0.229561,-0.215706,-2.395694,0.019307,-0.098119,0.05,-0.116065,0.159366,-2.397447,-1.270873,-279.277689,-1.410099,44.841397
2.5182,0.226511,-0.213537,-2.396919,0.019114,-0.098156,0.05,-0.119526,0.160955,-2.395232,-1.283123,-279.249637,-1.416747,44.873309
2.5383,0.226138,-0.213727,-2.39721,0.018787,-0.098219,0.05,-0.119578,0.161046,-2.395337,-1.283123,-279.249637,-1.416747,44.873309
2.5581,0.223922,-0.210778,-2.394803,0.018517,-0.098271,0.05,-0.121847,0.163127,-2.396653,-1.292527,-279.221466,-1.421843,44.907853
2.5786,0.223544,-0.210541,-2.396522,0.018201,-0.09833,0.05,-0.122542,0.163563,-2.395515,-1.292527,-279.221466,-1.421843,44.907853
2.598,0.223204,-0.210747,-2.395064,0.018533,-0.098268,0.05,-0.122542,0.163563,-2.395515,-1.292527,-279.221466,-1.421843,44.907853
2.6179,0.220656,-0.208479,-2.395173,0.017847,-0.098394,0.05,-0.12632,0.165916,-2.394123,-1.300039,-279.193474,-1.42591,44.944678
2.6378,0.220625,-0.20788,-2.394597,0.01758,-0.098443,0.05,-0.126359,0.165979,-2.394172,-1.300039,-279.193474,-1.42591,44.944678
2.6579,0.21756,-0.205346,-2.393693,0.017748,-0.098413,0.05,-0.128515,0.168234,-2.393656,-1.303699,-279.165381,-1.42789,44.984108
2.6779,0.217371,-0.204972,-2.393703,0.017087,-0.098529,0.05,-0.129293,0.168654,-2.393558,-1.303699,-279.165381,-1.42789,44.984108
2.6978,0.217756,-0.205243,-2.392574,0.017169,-0.098515,0.05,-0.129293,0.168654,-2.393558,-1.303699,-279.165381,-1.42789,44.984108
2.7178,0.214813,-0.202038,-2.392131,0.016972,-0.098549,0.05,-0.132909,0.17078,-2.391137,-1.317464,-279.13744,-1.435329,45.026013
2.7382,0.21441,-0.202216,-2.391709,0.01688,-0.098565,0.05,-0.132984,0.17089,-2.39117,-1.317464,-279.13744,-1.435329,45.026013
2.758,0.211847,-0.199006,-2.390638,0.016425,-0.098642,0.05,-0.135973,0.173077,-2.390379,-1.3234,-279.109407,-1.438533,45.07044
2.778,0.211586,-0.198974,-2.390611,0.016417,-0.098643,0.05,-0.136425,0.17377,-2.390359,-1.3234,-279.109407,-1.438533,45.07044
2.7979,0.211791,-0.198767,-2.390934,0.016268,-0.098668,0.05,-0.136425,0.17377,-2.390359,-1.3234,-279.109407,-1.438533,45.07044
2.8179,0.20857,-0.195455,-2.386634,0.016587,-0.098615,0.05,-0.139712,0.1769,-2.389016,-1.327572,-279.081399,-1.440784,45.117325
2.8384,0.208512,-0.194837,-2.388223,0.015484,-0.098794,0.05,-0.139899,0.176909,-2.38879,-1.327572,-279.081399,-1.440784,45.117325
2.858,0.20595,-0.191598,-2.385988,0.01616,-0.098686,0.05,-0.143342,0.17941,-2.3865,-1.336407,-279.053452,-1.445547,45.166691
2.8779,0.205596,-0.191327,-2.386342,0.01594,-0.098721,0.05,-0.143963,0.179811,-2.385989,-1.336407,-279.053452,-1.445547,45.166691
2.8979,0.206049,-0.191371,-2.384509,0.015958,-0.098718,0.05,-0.143963,0.179811,-2.385989,-1.336407,-279.053452,-1.445547,45.166691
2.9181,0.202547,-0.187526,-2.382493,0.015779,-0.098747,0.05,-0.148054,0.182274,-2.382093,-1.347716,-279.025539,-1.451637,45.218586
2.9386,0.202996,-0.187746,-2.382667,0.015388,-0.098809,0.05,-0.148184,0.182365,-2.382056,-1.347716,-279.025539,-1.451637,45.218586
2.9581,0.199877,-0.183625,-2.381827,0.015567,-0.098781,0.05,-0.151057,0.184656,-2.380719,-1.34088,-278.99752,-1.447957,45.270698
2.9779,0.199477,-0.183606,-2.381645,0.015861,-0.098734,0.05,-0.151627,0.185776,-2.381102,-1.34088,-278.99752,-1.447957,45.270698
2.998,0.19986,-0.183647,-2.381775,0.015593,-0.098777,0.05,-0.151627,0.185776,-2.381102,-1.34088,-278.99752,-1.447957,45.270698
3.0179,0.196631,-0.17954,-2.379737,0.015827,-0.09874,0.05,-0.155272,0.189042,-2.379348,-1.349106,-278.969426,-1.452385,45.322989
3.0389,0.196806,-0.17961,-2.3788,0.015787,-0.098746,0.05,-0.155402,0.189169,-2.379305,-1.349106,-278.969426,-1.452385,45.322989
3.0581,0.193857,-0.175731,-2.375945,0.015643,-0.098769,0.05,-0.158628,0.191396,-2.376882,-1.346144,-278.941605,-1.450791,45.374757
3.0778,0.193818,-0.175945,-2.376804,0.015474,-0.098795,0.05,-0.159555,0.192004,-2.376105,-1.346144,-278.941605,-1.450791,45.374757
3.0979,0.193507,-0.176168,-2.374662,0.015511,-0.09879,0.05,-0.159555,0.192004,-2.376105,-1.346144,-278.941605,-1.450791,45.374757
3.1178,0.1903,-0.171692,-2.374012,0.014722,-0.09891,0.05,-0.164284,0.193973,-2.372231,-1.343356,-278.913608,-1.44929,45.426842
3.1381,0.190458,-0.171619,-2.372346,0.015237,-0.098832,0.05,-0.164356,0.194141,-2.372289,-1.343356,-278.913608,-1.44929,45.426842
3.158,0.187329,-0.168014,-2.370873,0.015027,-0.098864,0.05,-0.167385,0.197105,-2.370413,-1.347336,-278.885619,-1.451433,45.478927
3.1779,0.187228,-0.16783,-2.370793,0.014931,-0.098879,0.05,-0.168105,0.197831,-2.37043,-1.347336,-278.885619,-1.451433,45.478927
3.1982,0.187443,-0.168149,-2.370819,0.014959,-0.098875,0.05,-0.168105,0.197831,-2.37043,-1.347336,-278.885619,-1.451433,45.478927
3.2181,0.184218,-0.16424,-2.368202,0.014908,-0.098883,0.05,-0.17176,0.200642,-2.368383,-1.351287,-278.85764,-1.453559,45.531014
3.2387,0.184788,-0.164288,-2.369,0.014709,-0.098912,0.05,-0.171872,0.200717,-2.368312,-1.351287,-278.85764,-1.453559,45.531014
3.2581,0.181013,-0.160188,-2.367839,0.015186,-0.09884,0.05,-0.17427,0.203252,-2.36707,-1.3553,-278.829659,-1.455717,45.58312
3.2779,0.181046,-0.159697,-2.365407,0.015093,-0.098854,0.05,-0.175299,0.204324,-2.367265,-1.3553,-278.829659,-1.455717,45.58312
3.2981,0.181159,-0.160019,-2.366779,0.014907,-0.098883,0.05,-0.175299,0.204324,-2.367265,-1.3553,-278.829659,-1.455717,45.58312
3.318,0.178184,-0.15618,-2.363767,0.015061,-0.098859,0.05,-0.179504,0.207332,-2.36435,-1.358899,-278.801697,-1.457652,45.635208
3.3391,0.178315,-0.156398,-2.363049,0.014936,-0.098878,0.05,-0.179618,0.207397,-2.364247,-1.358899,-278.801697,-1.457652,45.635208
3.3582,0.17482,-0.152956,-2.362131,0.014739,-0.098908,0.05,-0.182958,0.209026,-2.361097,-1.356039,-278.77372,-1.456115,45.687311
3.3783,0.175307,-0.152422,-2.362667,0.014497,-0.098944,0.05,-0.183735,0.209749,-2.361434,-1.356039,-278.77372,-1.456115,45.687311
3.3982,0.174929,-0.152735,-2.360014,0.015204,-0.098837,0.05,-0.183735,0.209749,-2.361434,-1.356039,-278.77372,-1.456115,45.687311
3.4181,0.171805,-0.148981,-2.358118,0.014289,-0.098974,0.05,-0.188226,0.212165,-2.357579,-1.355632,-278.745739,-1.455896,45.73942
3.4385,0.1722,-0.148692,-2.357773,0.014269,-0.098977,0.05,-0.188318,0.212249,-2.357554,-1.355632,-278.745739,-1.455896,45.73942
3.4584,0.168903,-0.144713,-2.356076,0.014611,-0.098927,0.05,-0.19098,0.214795,-2.355834,-1.351756,-278.717751,-1.453811,45.791526
3.478,0.16902,-0.144511,-2.356076,0.014699,-0.098914,0.05,-0.191818,0.215692,-2.355727,-1.351756,-278.717751,-1.453811,45.791526
3.4979,0.169046,-0.144587,-2.355682,0.014891,-0.098885,0.05,-0.191818,0.215692,-2.355727,-1.351756,-278.717751,-1.453811,45.791526
3.5181,0.165869,-0.140466,-2.354394,0.014791,-0.0989,0.05,-0.195648,0.218748,-2.35326,-1.365247,-278.689723,-1.461064,45.843764
3.5385,0.165902,-0.140848,-2.354053,0.015118,-0.098851,0.05,-0.195749,0.218901,-2.353277,-1.365247,-278.689723,-1.461064,45.843764
3.558,0.162654,-0.136587,-2.351329,0.014854,-0.098891,0.05,-0.198583,0.221267,-2.352138,-1.35628,-278.661859,-1.456244,45.895656
3.5779,0.162687,-0.136933,-2.352009,0.014976,-0.098872,0.05,-0.199631,0.222138,-2.351428,-1.35628,-278.661859,-1.456244,45.895656
3.5981,0.163012,-0.136722,-2.352092,0.014912,-0.098882,0.05,-0.199631,0.222138,-2.351428,-1.35628,-278.661859,-1.456244,45.895656
3.6181,0.159528,-0.132928,-2.348537,0.015244,-0.098831,0.05,-0.20301,0.225268,-2.349669,-1.352996,-278.633986,-1.454478,45.947553
3.6381,0.159425,-0.13306,-2.349344,0.014834,-0.098894,0.05,-0.203165,0.225318,-2.349532,-1.352996,-278.633986,-1.454478,45.947553
3.6579,0.156611,-0.129193,-2.345669,0.014826,-0.098895,0.05,-0.206816,0.227373,-2.347396,-1.35597,-278.605973,-1.456078,45.999724
3.6777,0.156297,-0.128987,-2.346546,0.014855,-0.09889,0.05,-0.207757,0.227794,-2.346178,-1.35597,-278.605973,-1.456078,45.999724
3.6984,0.156001,-0.128965,-2.345646,0.014944,-0.098877,0.05,-0.207757,0.227794,-2.346178,-1.35597,-278.605973,-1.456078,45.999724
3.718,0.153132,-0.125489,-2.343386,0.014631,-0.098924,0.05,-0.212353,0.23068,-2.343214,-1.357097,-278.577802,-1.456684,46.052192
3.7381,0.152964,-0.125392,-2.343864,0.014651,-0.098921,0.05,-0.212457,0.230755,-2.343151,-1.357097,-278.577802,-1.456684,46.052192
3.7584,0.150034,-0.121511,-2.341006,0.01469,-0.098915,0.05,-0.215185,0.232984,-2.341954,-1.355517,-278.550025,-1.455834,46.103921
3.7779,0.149757,-0.121597,-2.340369,0.014845,-0.098892,0.05,-0.216064,0.233618,-2.341169,-1.355517,-278.550025,-1.455834,46.103921
3.7979,0.14974,-0.12152,-2.341432,0.01453,-0.098939,0.05,-0.216064,0.233618,-2.341169,-1.355517,-278.550025,-1.455834,46.103921
3.8179,0.146914,-0.117643,-2.339374,0.014733,-0.098909,0.05,-0.220111,0.23657,-2.339006,-1.359734,-278.522089,-1.458102,46.155965
3.8383,0.146638,-0.118031,-2.339064,0.015096,-0.098854,0.05,-0.220189,0.236666,-2.338967,-1.359734,-278.522089,-1.458102,46.155965
3.8581,0.143471,-0.114028,-2.335578,0.014659,-0.09892,0.05,-0.223252,0.238612,-2.337132,-1.361484,-278.494046,-1.459042,46.208214
3.8784,0.143527,-0.113682,-2.335363,0.014685,-0.098916,0.05,-0.224375,0.239169,-2.335992,-1.361484,-278.494046,-1.459042,46.208214
3.8979,0.143438,-0.113985,-2.337028,0.014896,-0.098884,0.05,-0.224375,0.239169,-2.335992,-1.361484,-278.494046,-1.459042,46.208214
3.9181,0.140618,-0.110219,-2.334088,0.014919,-0.098881,0.05,-0.227989,0.242448,-2.334609,-1.353313,-278.466172,-1.454649,46.260112
3.9386,0.140409,-0.110114,-2.334265,0.015118,-0.098851,0.05,-0.228088,0.242515,-2.334508,-1.353313,-278.466172,-1.454649,46.260112
3.9578,0.137069,-0.106359,-2.330246,0.01509,-0.098855,0.05,-0.231206,0.244744,-2.332328,-1.356212,-278.438189,-1.456208,46.312227
3.9779,0.137666,-0.106206,-2.331567,0.014846,-0.098892,0.05,-0.232504,0.24505,-2.330903,-1.356212,-278.438189,-1.456208,46.312227
3.9982,0.136815,-0.106501,-2.329766,0.015471,-0.098796,0.05,-0.232504,0.24505,-2.330903,-1.356212,-278.438189,-1.456208,46.312227
4.018,0.133971,-0.102432,-2.329008,0.014549,-0.098936,0.05,-0.237209,0.247237,-2.327335,-1.353009,-278.410215,-1.454485,46.364312
4.0389,0.134039,-0.102802,-2.329238,0.015262,-0.098828,0.05,-0.237253,0.247377,-2.327385,-1.353009,-278.410215,-1.454485,46.364312
4.0578,0.130743,-0.098796,-2.327541,0.015121,-0.09885,0.05,-0.239357,0.250157,-2.327308,-1.347903,-278.382191,-1.451738,46.416467
4.0778,0.130894,-0.098852,-2.325877,0.015425,-0.098803,0.05,-0.240165,0.251116,-2.327197,-1.347903,-278.382191,-1.451738,46.416467
4.0978,0.130823,-0.09835,-2.326802,0.015256,-0.098829,0.05,-0.240165,0.251116,-2.327197,-1.347903,-278.382191,-1.451738,46.416467
4.1179,0.127516,-0.094903,-2.32252,0.015645,-0.098769,0.05,-0.244244,0.254266,-2.324376,-1.350922,-278.35425,-1.453362,46.468481
4.1382,0.127835,-0.094939,-2.324309,0.015286,-0.098825,0.05,-0.244407,0.254277,-2.324182,-1.350922,-278.35425,-1.453362,46.468481
4.158,0.124131,-0.091258,-2.322315,0.015678,-0.098763,0.05,-0.247302,0.25619,-2.322371,-1.351008,-278.32626,-1.453409,46.520585
4.1784,0.124284,-0.091227,-2.318896,0.015556,-0.098783,0.05,-0.248385,0.256892,-2.322095,-1.351008,-278.32626,-1.453409,46.520585
4.1978,0.124161,-0.091336,-2.321836,0.01522,-0.098835,0.05,-0.248385,0.256892,-2.322095,-1.351008,-278.32626,-1.453409,46.520585
4.2178,0.121264,-0.087639,-2.318217,0.015454,-0.098799,0.05,-0.252661,0.259417,-2.319406,-1.350572,-278.298232,-1.453174,46.57276
4.2383,0.121206,-0.087666,-2.319415,0.015617,-0.098773,0.05,-0.252783,0.259465,-2.319251,-1.350572,-278.298232,-1.453174,46.57276
4.2579,0.117838,-0.08383,-2.317276,0.01572,-0.098757,0.05,-0.255628,0.261613,-2.317487,-1.351532,-278.270241,-1.453691,46.624869
4.2779,0.117353,-0.084077,-2.317682,0.015899,-0.098728,0.05,-0.256559,0.26239,-2.317121,-1.351532,-278.270241,-1.453691,46.624869
4.2981,0.117751,-0.083492,-2.314665,0.015523,-0.098788,0.05,-0.256559,0.26239,-2.317121,-1.351532,-278.270241,-1.453691,46.624869
4.3178,0.114648,-0.079847,-2.31475,0.01574,-0.098753,0.05,-0.261591,0.264541,-2.312232,-1.345808,-278.24208,-1.45061,46.677269
4.3385,0.114584,-0.08021,-2.313771,0.016242,-0.098672,0.05,-0.261635,0.264704,-2.312363,-1.345808,-278.24208,-1.45061,46.677269
4.3581,0.110962,-0.076547,-2.313855,0.015879,-0.098731,0.05,-0.264195,0.266909,-2.31186,-1.347153,-278.214249,-1.451334,46.729061
4.378,0.111094,-0.076438,-2.31186,0.016088,-0.098697,0.05,-0.264837,0.268089,-2.312762,-1.347153,-278.214249,-1.451334,46.729061
4.3979,0.111037,-0.076578,-2.312325,0.016011,-0.09871,0.05,-0.264837,0.268089,-2.312762,-1.347153,-278.214249,-1.451334,46.729061
4.418,0.10787,-0.072366,-2.308821,0.015942,-0.098721,0.05,-0.269114,0.270525,-2.309904,-1.336782,-278.186348,-1.445749,46.780935
4.4387,0.107725,-0.072383,-2.308943,0.016374,-0.09865,0.05,-0.269241,0.270612,-2.309767,-1.336782,-278.186348,-1.445749,46.780935
4.458,0.104275,-0.069159,-2.305481,0.016305,-0.098662,0.05,-0.272768,0.272909,-2.307012,-1.34011,-278.158338,-1.447542,46.833027
4.4782,0.104431,-0.069373,-2.307209,0.015997,-0.098712,0.05,-0.273977,0.273068,-2.305894,-1.34011,-278.158338,-1.447542,46.833027
4.498,0.104399,-0.069011,-2.308428,0.016125,-0.098691,0.05,-0.273977,0.273068,-2.305894,-1.34011,-278.158338,-1.447542,46.833027
4.5178,0.101019,-0.065813,-2.301887,0.01646,-0.098636,0.05,-0.277117,0.276611,-2.306,-1.334877,-278.130293,-1.444723,46.885159
4.5378,0.100878,-0.065465,-2.303781,0.015894,-0.098729,0.05,-0.277343,0.276545,-2.305631,-1.334877,-278.130293,-1.444723,46.885159
4.5577,0.097738,-0.061678,-2.301847,0.016208,-0.098678,0.05,-0.281391,0.277852,-2.301853,-1.338476,-278.102224,-1.446662,46.937354
4.5779,0.097352,-0.062091,-2.302101,0.016732,-0.09859,0.05,-0.28212,0.278677,-2.301606,-1.338476,-278.102224,-1.446662,46.937354
4.5979,0.097703,-0.061833,-2.298349,0.016283,-0.098665,0.05,-0.28212,0.278677,-2.301606,-1.338476,-278.102224,-1.446662,46.937354
4.6181,0.094229,-0.057695,-2.298227,0.016259,-0.098669,0.05,-0.287255,0.279941,-2.295927,-1.341812,-278.074294,-1.448458,46.989305
4.6382,0.09449,-0.058196,-2.299375,0.017709,-0.098419,0.05,-0.287325,0.280116,-2.296024,-1.341812,-278.074294,-1.448458,46.989305
4.6578,0.091153,-0.05469,-2.295859,0.017563,-0.098446,0.05,-0.289289,0.283426,-2.297449,-1.336195,-278.046282,-1.445433,47.041383
4.678,0.090813,-0.054473,-2.295217,0.018361,-0.0983,0.05,-0.290431,0.283749,-2.296293,-1.336195,-278.046282,-1.445433,47.041383
4.6981,0.091042,-0.054952,-2.294772,0.018308,-0.09831,0.05,-0.290431,0.283749,-2.296293,-1.336195,-278.046282,-1.445433,47.041383
4.718,0.087705,-0.0511,-2.294428,0.017993,-0.098368,0.05,-0.295155,0.285349,-2.292365,-1.315605,-278.018512,-1.434325,47.092908
4.7378,0.08763,-0.051093,-2.294377,0.019482,-0.098084,0.05,-0.295217,0.285499,-2.292443,-1.315605,-278.018512,-1.434325,47.092908
4.7581,0.083793,-0.047528,-2.291831,0.019447,-0.098091,0.05,-0.297895,0.288541,-2.292449,-1.306957,-277.990473,-1.429652,47.144889
4.778,0.083895,-0.047694,-2.290124,0.019618,-0.094315,0.05,-0.299105,0.289142,-2.291852,-1.306957,-277.990473,-1.429652,47.144889
4.798,0.084042,-0.047843,-2.291478,0.019399,-0.094535,0.05,-0.299105,0.289142,-2.291852,-1.306957,-277.990473,-1.429652,47.144889
4.818,0.08038,-0.044023,-2.28817,0.019512,-0.094717,0.05,-0.303331,0.291117,-2.289064,-1.289988,-277.962354,-1.420469,47.196923
4.8384,0.080364,-0.044138,-2.288492,0.019669,-0.08951,0.05,-0.303516,0.291206,-2.28891,-1.289988,-277.962354,-1.420469,47.196923
4.8579,0.077138,-0.040686,-2.286202,0.019601,-0.089568,0.05,-0.30704,0.293076,-2.286582,-1.276479,-277.935802,-1.416921,47.247175
4.8779,0.077117,-0.040907,-2.286242,0.019885,-0.084913,0.05,-0.3079,0.293743,-2.28612,-1.276479,-277.935802,-1.416921,47.247175
4.8978,0.077455,-0.040537,-2.285708,0.019708,-0.085041,0.05,-0.3079,0.293743,-2.28612,-1.276479,-277.935802,-1.416921,47.247175
4.9179,0.073871,-0.037591,-2.284963,0.020164,-0.085064,0.05,-0.311531,0.295889,-2.283313,-1.248868,-277.911164,-1.408395,47.295388
4.9388,0.074271,-0.037473,-2.283631,0.019979,-0.080441,0.05,-0.311649,0.296001,-2.283374,-1.248868,-277.911164,-1.408395,47.295388
4.958,0.071076,-0.034536,-2.282454,0.020223,-0.080694,0.05,-0.31448,0.297597,-2.281734,-1.223825,-277.88833,-1.401901,47.341581
4.9779,0.070915,-0.03446,-2.281011,0.020265,-0.076379,0.05,-0.31523,0.298334,-2.281905,-1.223825,-277.88833,-1.401901,47.341581
4.9981,0.071232,-0.034871,-2.28256,0.020108,-0.076237,0.05,-0.31523,0.298334,-2.281905,-1.223825,-277.88833,-1.401901,47.341581
5.0182,0.068291,-0.031773,-2.279784,0.020122,-0.076714,0.05,-0.318471,0.300024,-2.280179,-1.189982,-277.867278,-1.392676,47.385742
5.0385,0.068237,-0.03191,-2.27799,0.020345,-0.072521,0.05,-0.318584,0.300086,-2.280091,-1.189982,-277.867278,-1.392676,47.385742
5.0582,0.065554,-0.029254,-2.276303,0.020076,-0.072605,0.05,-0.322152,0.300733,-2.276095,-1.15628,-277.847658,-1.384651,47.428439
5.0778,0.065725,-0.029404,-2.276541,0.020236,-0.068874,0.05,-0.322807,0.301302,-2.275975,-1.15628,-277.847658,-1.384651,47.428439
5.0979,0.065506,-0.029177,-2.276015,0.020249,-0.069097,0.05,-0.322807,0.301302,-2.275975,-1.15628,-277.847658,-1.384651,47.428439
5.1179,0.063359,-0.026459,-2.274487,0.020244,-0.068794,0.05,-0.326089,0.302895,-2.273644,-1.11954,-277.829417,-1.375888,47.469512
5.1387,0.063434,-0.027213,-2.273723,0.020821,-0.065429,0.05,-0.326136,0.302984,-2.27364,-1.11954,-277.829417,-1.375888,47.469512
5.158,0.060326,-0.024478,-2.270921,0.020245,-0.065989,0.05,-0.328204,0.303598,-2.2718,-1.087234,-277.812287,-1.370291,47.5095
5.1778,0.060711,-0.02447,-2.271984,0.020149,-0.061906,0.05,-0.329356,0.30403,-2.271071,-1.087234,-277.812287,-1.370291,47.5095
5.1979,0.06078,-0.024131,-2.271738,0.020469,-0.062174,0.05,-0.329356,0.30403,-2.271071,-1.087234,-277.812287,-1.370291,47.5095
5.2178,0.058583,-0.022205,-2.269983,0.020758,-0.062013,0.05,-0.331907,0.305996,-2.269432,-1.032765,-277.79683,-1.357141,47.546856
5.2378,0.058421,-0.021935,-2.269851,0.020709,-0.059128,0.05,-0.331979,0.306033,-2.269407,-1.032765,-277.79683,-1.357141,47.546856
5.2578,0.056358,-0.020219,-2.267319,0.020804,-0.058834,0.05,-0.334251,0.307162,-2.267966,-0.996518,-277.782081,-1.353496,47.584019
5.278,0.056517,-0.02004,-2.267803,0.020647,-0.056202,0.05,-0.334887,0.30717,-2.267355,-0.996518,-277.782081,-1.353496,47.584019
5.2978,0.056207,-0.019706,-2.265501,0.020914,-0.056199,0.05,-0.334887,0.30717,-2.267355,-0.996518,-277.782081,-1.353496,47.584019
5.3179,0.054355,-0.0179,-2.263312,0.020842,-0.055795,0.05,-0.338318,0.307789,-2.263183,-0.943935,-277.768613,-1.343822,47.619128
5.3378,0.054027,-0.018218,-2.263508,0.020927,-0.053263,0.05,-0.33838,0.307811,-2.263131,-0.943935,-277.768613,-1.343822,47.619128
5.3582,0.052067,-0.016339,-2.259768,0.020484,-0.053209,0.05,-0.3405,0.308204,-2.261678,-0.886991,-277.756024,-1.334196,47.653058
5.378,0.052138,-0.015847,-2.262568,0.020489,-0.050578,0.05,-0.341398,0.308114,-2.260345,-0.886991,-277.756024,-1.334196,47.653058
5.3983,0.052289,-0.01628,-2.261313,0.021055,-0.050261,0.05,-0.341398,0.308114,-2.260345,-0.886991,-277.756024,-1.334196,47.653058
5.418,0.050589,-0.014298,-2.261778,0.020754,-0.05068,0.05,-0.34337,0.309369,-2.259023,-0.826558,-277.744415,-1.326073,47.685517
5.4381,0.05029,-0.014115,-2.259157,0.021222,-0.048097,0.05,-0.343371,0.309473,-2.259139,-0.826558,-277.744415,-1.326073,47.685517
5.4579,0.048755,-0.012851,-2.258406,0.021047,-0.047805,0.05,-0.345424,0.310426,-2.257388,-0.752751,-277.733855,-1.315879,47.716078
5.478,0.049044,-0.012704,-2.255765,0.021013,-0.045832,0.05,-0.345619,0.310733,-2.257745,-0.752751,-277.733855,-1.315879,47.716078
5.498,0.048735,-0.013205,-2.257346,0.02119,-0.046019,0.05,-0.345619,0.310733,-2.257745,-0.752751,-277.733855,-1.315879,47.716078
5.5179,0.047492,-0.011151,-2.253659,0.020679,-0.046064,0.05,-0.348035,0.310711,-2.255059,-0.691227,-277.723499,-1.30719,47.746701
5.5378,0.046932,-0.011071,-2.255908,0.021318,-0.043879,0.05,-0.348101,0.310724,-2.25491,-0.691227,-277.723499,-1.30719,47.746701
5.5579,0.045896,-0.009802,-2.253716,0.021124,-0.043347,0.05,-0.349773,0.312097,-2.254087,-0.63097,-277.713601,-1.300772,47.776659
5.578,0.045391,-0.01007,-2.252093,0.021359,-0.041789,0.05,-0.349974,0.312122,-2.253645,-0.63097,-277.713601,-1.300772,47.776659
5.598,0.045524,-0.010039,-2.252746,0.020766,-0.0416,0.05,-0.349974,0.312122,-2.253645,-0.63097,-277.713601,-1.300772,47.776659
5.6178,0.044107,-0.008688,-2.250485,0.0209,-0.04167,0.05,-0.35254,0.311913,-2.250507,-0.559206,-277.704312,-1.291797,47.805254
5.6379,0.044162,-0.008124,-2.249709,0.020966,-0.039766,0.05,-0.352602,0.311924,-2.250441,-0.559206,-277.704312,-1.291797,47.805254
5.6578,0.043078,-0.007037,-2.247837,0.021408,-0.039471,0.05,-0.354365,0.312481,-2.247931,-0.489484,-277.69564,-1.290511,47.832919
5.6777,0.043079,-0.006611,-2.249072,0.021503,-0.037984,0.05,-0.354608,0.312521,-2.247651,-0.489484,-277.69564,-1.290511,47.832919
5.6978,0.043064,-0.006571,-2.247333,0.021882,-0.037692,0.05,-0.354608,0.312521,-2.247651,-0.489484,-277.69564,-1.290511,47.832919
5.7177,0.041848,-0.005326,-2.245694,0.021838,-0.037693,0.05,-0.356568,0.313116,-2.245111,-0.414779,-277.687278,-1.28097,47.8597
5.7383,0.041543,-0.00549,-2.245388,0.021989,-0.036002,0.05,-0.356602,0.313139,-2.245094,-0.414779,-277.687278,-1.28097,47.8597
5.7582,0.040257,-0.004644,-2.243869,0.02166,-0.035873,0.05,-0.358167,0.313263,-2.243761,-0.33981,-277.679454,-1.260447,47.88405
5.7778,0.040544,-0.004551,-2.244633,0.021465,-0.034373,0.05,-0.358546,0.313303,-2.243616,-0.33981,-277.679454,-1.260447,47.88405
5.7979,0.040258,-0.004654,-2.242402,0.021743,-0.034522,0.05,-0.358546,0.313303,-2.243616,-0.33981,-277.679454,-1.260447,47.88405
5.8178,0.039129,-0.003313,-2.241152,0.021407,-0.034411,0.05,-0.360742,0.312913,-2.240323,-0.264767,-277.671642,-1.251627,47.908214
5.838,0.039002,-0.003324,-2.24122,0.021713,-0.03272,0.05,-0.360772,0.312962,-2.240326,-0.264767,-277.671642,-1.251627,47.908214
5.8577,0.037857,-0.002213,-2.238595,0.021628,-0.032626,0.05,-0.362013,0.313701,-2.239502,-0.189703,-277.663747,-1.248264,47.932713
5.8779,0.038233,-0.002444,-2.239994,0.021706,-0.031095,0.05,-0.362518,0.313668,-2.238767,-0.189703,-277.663747,-1.248264,47.932713
5.898,0.038289,-0.002529,-2.239111,0.021801,-0.031503,0.05,-0.362518,0.313668,-2.238767,-0.189703,-277.663747,-1.248264,47.932713
5.9179,0.036921,-0.001141,-2.236243,0.021741,-0.031619,0.05,-0.363669,0.31364,-2.236988,-0.1148,-277.656079,-1.240147,47.956214
5.9379,0.036879,-0.001128,-2.238099,0.021897,-0.029748,0.05,-0.363756,0.313651,-2.236879,-0.1148,-277.656079,-1.240147,47.956214
5.9584,0.035985,-0.000322,-2.236007,0.021938,-0.029666,0.05,-0.365087,0.314579,-2.236315,-0.044266,-277.648025,-1.232873,47.980482
5.9779,0.036114,-2.3e-05,-2.233287,0.021958,-0.028511,0.05,-0.365368,0.314524,-2.235913,-0.044266,-277.648025,-1.232873,47.980482
5.998,0.036483,-0.000273,-2.233931,0.022195,-0.028489,0.05,-0.365368,0.314524,-2.235913,-0.044266,-277.648025,-1.232873,47.980482
6.0184,0.035479,0.000395,-2.232552,0.022243,-0.028919,0.05,-0.36705,0.313724,-2.231746,0.030748,-277.640135,-1.222386,48.003577
6.0381,0.035046,0.000368,-2.233231,0.022113,-0.027747,0.05,-0.36708,0.313729,-2.231744,0.030748,-277.640135,-1.222386,48.003577
6.0582,0.034085,0.001647,-2.231026,0.021845,-0.027408,0.05,-0.368396,0.314037,-2.231418,0.092042,-277.631756,-1.211138,48.027284
6.0786,0.034259,0.001773,-2.228482,0.022206,-0.025912,0.05,-0.368758,0.31426,-2.230964,0.092042,-277.631756,-1.211138,48.027284
6.0987,0.033899,0.001708,-2.230827,0.022345,-0.026029,0.05,-0.368758,0.31426,-2.230964,0.092042,-277.631756,-1.211138,48.027284
6.118,0.033125,0.002765,-2.227505,0.022134,-0.025732,0.05,-0.370691,0.314386,-2.228426,0.12552,-277.623001,-1.208172,48.051771
6.1382,0.033116,0.002434,-2.229208,0.022413,-0.024548,0.05,-0.370734,0.314371,-2.228323,0.12552,-277.623001,-1.208172,48.051771
6.1584,0.032095,0.00357,-2.226972,0.022187,-0.024704,0.05,-0.371487,0.31442,-2.227442,0.199094,-277.614653,-1.194585,48.074044
6.1784,0.032414,0.00336,-2.224555,0.022409,-0.023252,0.05,-0.37193,0.314581,-2.22695,0.199094,-277.614653,-1.194585,48.074044
6.1981,0.03234,0.003597,-2.226358,0.022381,-0.023687,0.05,-0.37193,0.314581,-2.22695,0.199094,-277.614653,-1.194585,48.074044
6.2179,0.031562,0.004145,-2.222275,0.022566,-0.023444,0.05,-0.37345,0.314365,-2.224078,0.261141,-277.605956,-1.184374,48.096339
6.2378,0.031348,0.004346,-2.221812,0.022434,-0.022584,0.05,-0.373525,0.314296,-2.223897,0.261141,-277.605956,-1.184374,48.096339
6.2584,0.030658,0.004845,-2.221993,0.022454,-0.022303,0.05,-0.375567,0.313271,-2.219921,0.297025,-277.596772,-1.179356,48.119356
6.2779,0.030382,0.005198,-2.220059,0.022436,-0.021447,0.05,-0.375385,0.313657,-2.220863,0.297025,-277.596772,-1.179356,48.119356
6.2979,0.030409,0.00512,-2.220928,0.022509,-0.021058,0.05,-0.375385,0.313657,-2.220863,0.297025,-277.596772,-1.179356,48.119356
6.3183,0.030072,0.005654,-2.219291,0.022482,-0.021107,0.05,-0.377036,0.31362,-2.218577,0.340704,-277.587563,-1.171205,48.141665
6.3383,0.030217,0.005689,-2.217701,0.022669,-0.020553,0.05,-0.377031,0.313619,-2.218564,0.340704,-277.587563,-1.171205,48.141665
6.3579,0.029259,0.006873,-2.216003,0.022752,-0.020682,0.05,-0.377849,0.312883,-2.215875,0.398614,-277.57831,-1.159426,48.162993
6.3777,0.028814,0.006214,-2.215785,0.023087,-0.019244,0.05,-0.378201,0.313251,-2.215717,0.398614,-277.57831,-1.159426,48.162993
6.3979,0.029355,0.006528,-2.217107,0.022288,-0.019289,0.05,-0.378201,0.313251,-2.215717,0.398614,-277.57831,-1.159426,48.162993
6.4182,0.028467,0.007514,-2.213425,0.02289,-0.019503,0.05,-0.379235,0.313395,-2.214691,0.414892,-277.568466,-1.153181,48.185205
6.4388,0.028207,0.007,-2.213498,0.023075,-0.018285,0.05,-0.379313,0.313371,-2.21454,0.414892,-277.568466,-1.153181,48.185205
6.4579,0.028088,0.007802,-2.212065,0.02251,-0.018383,0.05,-0.381113,0.312438,-2.211632,0.467382,-277.558917,-1.150173,48.206082
6.4779,0.027947,0.008405,-2.211522,0.023054,-0.017841,0.05,-0.380956,0.312662,-2.211643,0.467382,-277.558917,-1.150173,48.206082
6.498,0.027541,0.008062,-2.212716,0.023444,-0.01738,0.05,-0.380956,0.312662,-2.211643,0.467382,-277.558917,-1.150173,48.206082
6.5181,0.02728,0.008493,-2.20908,0.022947,-0.017232,0.05,-0.382307,0.313053,-2.210318,0.488116,-277.548605,-1.12928,48.227396
6.5389,0.027359,0.008533,-2.207909,0.023075,-0.016848,0.05,-0.382344,0.312995,-2.210168,0.488116,-277.548605,-1.12928,48.227396
6.5579,0.026467,0.009169,-2.207016,0.023134,-0.016915,0.05,-0.383663,0.311591,-2.205982,0.511422,-277.537962,-1.115784,48.248515
6.5779,0.026955,0.009265,-2.206961,0.023101,-0.015841,0.05,-0.383845,0.311889,-2.206326,0.511422,-277.537962,-1.115784,48.248515
6.5979,0.026648,0.00929,-2.207297,0.023467,-0.016177,0.05,-0.383845,0.311889,-2.206326,0.511422,-277.537962,-1.115784,48.248515
6.6182,0.025815,0.009754,-2.203414,0.02331,-0.015908,0.05,-0.384795,0.312014,-2.204892,0.535442,-277.527343,-1.117635,48.269375
6.6382,0.025842,0.00952,-2.204386,0.02313,-0.015052,0.05,-0.384878,0.311953,-2.204726,0.535442,-277.527343,-1.117635,48.269375
6.6579,0.025413,0.00999,-2.20196,0.022972,-0.01519,0.05,-0.386207,0.3111,-2.202461,0.54914,-277.516384,-1.105274,48.290199
6.6779,0.025355,0.010506,-2.20189,0.023061,-0.014622,0.05,-0.386409,0.31096,-2.201932,0.54914,-277.516384,-1.105274,48.290199
6.6981,0.025633,0.010465,-2.200552,0.023443,-0.014272,0.05,-0.386409,0.31096,-2.201932,0.54914,-277.516384,-1.105274,48.290199
6.7179,0.024814,0.010586,-2.198746,0.023554,-0.014553,0.05,-0.387753,0.310362,-2.198187,0.589961,-277.50556,-1.101286,48.310079
6.7379,0.024836,0.010667,-2.199182,0.023145,-0.013861,0.05,-0.387795,0.310339,-2.198164,0.589961,-277.50556,-1.101286,48.310079
6.7579,0.024307,0.01136,-2.196926,0.023229,-0.013821,0.05,-0.388714,0.310058,-2.197264,0.606569,-277.494225,-1.088789,48.330168
6.7778,0.024606,0.011409,-2.196485,0.02345,-0.013039,0.05,-0.38897,0.310102,-2.196828,0.606569,-277.494225,-1.088789,48.330168
6.7978,0.024075,0.011208,-2.198043,0.023658,-0.013263,0.05,-0.38897,0.310102,-2.196828,0.606569,-277.494225,-1.088789,48.330168
6.8182,0.023663,0.011625,-2.194173,0.023205,-0.012914,0.05,-0.390043,0.310022,-2.195626,0.624364,-277.482873,-1.090258,48.350093
6.8384,0.023462,0.0115,-2.193778,0.023252,-0.012425,0.05,-0.390101,0.309962,-2.19546,0.624364,-277.482873,-1.090258,48.350093
6.858,0.023298,0.012227,-2.192497,0.023029,-0.012345,0.05,-0.391678,0.30862,-2.19185,0.630692,-277.47116,-1.075563,48.369998
6.8781,0.023231,0.012087,-2.193358,0.023509,-0.011817,0.05,-0.391565,0.308934,-2.191981,0.630692,-277.47116,-1.075563,48.369998
6.8983,0.023328,0.012031,-2.190007,0.023366,-0.011825,0.05,-0.391565,0.308934,-2.191981,0.630692,-277.47116,-1.075563,48.369998
6.9181,0.023017,0.012706,-2.188809,0.023337,-0.012015,0.05,-0.39311,0.30747,-2.18762,0.661768,-277.459569,-1.074717,48.38921
6.9378,0.022955,0.012883,-2.189275,0.023692,-0.011398,0.05,-0.393108,0.307507,-2.18764,0.661768,-277.459569,-1.074717,48.38921
6.9583,0.02263,0.013254,-2.187465,0.023806,-0.011233,0.05,-0.393462,0.308111,-2.187357,0.675265,-277.447626,-1.066749,48.408511
6.9779,0.022408,0.013022,-2.187818,0.0239,-0.010797,0.05,-0.393558,0.308102,-2.187177,0.675265,-277.447626,-1.066749,48.408511
6.9978,0.022337,0.013064,-2.184943,0.023586,-0.010742,0.05,-0.393558,0.308102,-2.187177,0.675265,-277.447626,-1.066749,48.408511
7.0179,0.022192,0.013714,-2.184055,0.023549,-0.010727,0.05,-0.395579,0.306337,-2.182524,0.679504,-277.435509,-1.056536,48.427673
7.0384,0.022035,0.013403,-2.184451,0.023988,-0.010255,0.05,-0.39556,0.306382,-2.182565,0.679504,-277.435509,-1.056536,48.427673
7.0579,0.022104,0.013654,-2.180767,0.023647,-0.010297,0.05,-0.395773,0.306587,-2.182531,0.698248,-277.423251,-1.051689,48.446598
7.0779,0.021796,0.013745,-2.181617,0.023854,-0.010297,0.05,-0.395969,0.306075,-2.181279,0.698248,-277.423251,-1.051689,48.446598
7.0986,0.021626,0.014069,-2.180831,0.023761,-0.009971,0.05,-0.395969,0.306075,-2.181279,0.698248,-277.423251,-1.051689,48.446598
7.1177,0.021159,0.014791,-2.177794,0.023921,-0.009666,0.05,-0.397457,0.305576,-2.178407,0.701892,-277.41072,-1.039222,48.465477
7.1382,0.021311,0.014182,-2.178777,0.024218,-0.008942,0.05,-0.397505,0.305567,-2.1783,0.701892,-277.41072,-1.039222,48.465477
7.1582,0.020929,0.014784,-2.17537,0.023814,-0.009391,0.05,-0.398138,0.304966,-2.176846,0.713454,-277.398173,-1.040324,48.484227
7.1779,0.02098,0.014804,-2.176385,0.02406,-0.008815,0.05,-0.398547,0.304733,-2.175762,0.713454,-277.398173,-1.040324,48.484227
7.1979,0.021118,0.014921,-2.173995,0.024114,-0.008822,0.05,-0.398547,0.304733,-2.175762,0.713454,-277.398173,-1.040324,48.484227
7.2178,0.020601,0.015305,-2.172556,0.024268,-0.008927,0.05,-0.399893,0.303518,-2.171593,0.728217,-277.385323,-1.020569,48.50257
7.2384,0.020931,0.014628,-2.174072,0.024278,-0.008318,0.05,-0.399915,0.303534,-2.171596,0.728217,-277.385323,-1.020569,48.50257
7.2582,0.020572,0.014993,-2.172532,0.023921,-0.008937,0.05,-0.399851,0.3034,-2.172145,0.73312,-277.372348,-1.021119,48.521026
7.2782,0.020263,0.015112,-2.170516,0.024005,-0.008471,0.05,-0.399952,0.303494,-2.172122,0.73312,-277.372348,-1.021119,48.521026
7.2985,0.020191,0.015263,-2.171551,0.023912,-0.008197,0.05,-0.399952,0.303494,-2.172122,0.73312,-277.372348,-1.021119,48.521026
7.3179,0.019901,0.015108,-2.167461,0.024004,-0.008028,0.05,-0.401509,0.302804,-2.169128,0.741137,-277.35923,-1.012318,48.539288
7.3385,0.01996,0.015983,-2.16856,0.023679,-0.007973,0.05,-0.401568,0.302706,-2.168949,0.741137,-277.35923,-1.012318,48.539288
7.358,0.01973,0.015605,-2.166297,0.024445,-0.007503,0.05,-0.402389,0.30242,-2.16662,0.75143,-277.346163,-1.01774,48.557465
7.378,0.019905,0.015703,-2.166382,0.023986,-0.00758,0.05,-0.40254,0.301927,-2.166196,0.75143,-277.346163,-1.01774,48.557465
7.398,0.019737,0.01582,-2.166165,0.024166,-0.007669,0.05,-0.40254,0.301927,-2.166196,0.75143,-277.346163,-1.01774,48.557465
7.4182,0.019217,0.016366,-2.164628,0.024167,-0.007469,0.05,-0.403478,0.301098,-2.163736,0.761286,-277.333107,-1.019514,48.57551
7.4383,0.019844,0.016122,-2.164429,0.024317,-0.00677,0.05,-0.403502,0.301122,-2.163733,0.761286,-277.333107,-1.019514,48.57551
7.4578,0.019129,0.016256,-2.159829,0.024464,-0.007431,0.05,-0.40367,0.300794,-2.162498,0.757826,-277.319813,-1.006812,48.593574
7.4781,0.019289,0.016655,-2.162205,0.024143,-0.006874,0.05,-0.404484,0.30003,-2.160729,0.757826,-277.319813,-1.006812,48.593574
7.4983,0.018814,0.016023,-2.161337,0.02458,-0.006727,0.05,-0.404484,0.30003,-2.160729,0.757826,-277.319813,-1.006812,48.593574
7.5184,0.019046,0.016741,-2.159129,0.023785,-0.006706,0.05,-0.405739,0.299199,-2.158916,0.773968,-277.306329,-0.993154,48.611233
7.5383,0.018474,0.01637,-2.159089,0.024496,-0.006553,0.05,-0.405729,0.299215,-2.158875,0.773968,-277.306329,-0.993154,48.611233
7.558,0.018712,0.017013,-2.157032,0.02387,-0.006284,0.05,-0.406531,0.298744,-2.157159,0.769496,-277.292634,-0.987694,48.629098
7.5779,0.018584,0.016485,-2.155906,0.024525,-0.006175,0.05,-0.406397,0.2989,-2.156842,0.769496,-277.292634,-0.987694,48.629098
7.5982,0.018932,0.017036,-2.156054,0.024007,-0.006388,0.05,-0.406397,0.2989,-2.156842,0.769496,-277.292634,-0.987694,48.629098
7.6179,0.018175,0.01684,-2.154726,0.024659,-0.00637,0.05,-0.407109,0.297951,-2.153628,0.774832,-277.278947,-0.987116,48.646844
7.6378,0.018337,0.017055,-2.152592,0.02407,-0.00588,0.05,-0.407148,0.297933,-2.153639,0.774832,-277.278947,-0.987116,48.646844
7.6586,0.018203,0.017351,-2.152137,0.024326,-0.005948,0.05,-0.408469,0.296675,-2.150667,0.788373,-277.265378,-0.994317,48.664395
7.678,0.018191,0.017337,-2.151495,0.024497,-0.005684,0.05,-0.408303,0.297015,-2.151259,0.788373,-277.265378,-0.994317,48.664395
7.6979,0.018178,0.017249,-2.153069,0.024475,-0.005698,0.05,-0.408303,0.297015,-2.151259,0.788373,-277.265378,-0.994317,48.664395
7.7183,0.018232,0.017644,-2.150084,0.024403,-0.005697,0.05,-0.40866,0.29689,-2.150644,0.797458,-277.251603,-0.986756,48.681845
7.7383,0.018111,0.017271,-2.148508,0.024746,-0.005599,0.05,-0.408678,0.296863,-2.150535,0.797458,-277.251603,-0.986756,48.681845
7.7578,0.018119,0.017725,-2.146815,0.024359,-0.00574,0.05,-0.409825,0.295112,-2.14657,0.792795,-277.2377,-0.976746,48.699279
7.7782,0.017749,0.018231,-2.147396,0.024735,-0.005541,0.05,-0.409778,0.295256,-2.146467,0.792795,-277.2377,-0.976746,48.699279
7.7983,0.017599,0.017542,-2.146538,0.02496,-0.00494,0.05,-0.409778,0.295256,-2.146467,0.792795,-277.2377,-0.976746,48.699279
7.8182,0.017404,0.01804,-2.143803,0.024296,-0.005211,0.05,-0.411066,0.294353,-2.144107,0.789277,-277.223642,-0.970354,48.716804
7.8378,0.017761,0.018096,-2.143228,0.024594,-0.004844,0.05,-0.411094,0.294343,-2.144021,0.789277,-277.223642,-0.970354,48.716804
7.8578,0.017404,0.017753,-2.139731,0.024832,-0.005127,0.05,-0.411616,0.293648,-2.141308,0.798013,-277.209395,-0.957703,48.73409
7.878,0.017353,0.018229,-2.143226,0.024332,-0.005099,0.05,-0.41207,0.292905,-2.14016,0.798013,-277.209395,-0.957703,48.73409
7.8978,0.017599,0.018301,-2.139991,0.024723,-0.004712,0.05,-0.41207,0.292905,-2.14016,0.798013,-277.209395,-0.957703,48.73409
7.9181,0.017191,0.018661,-2.138548,0.024901,-0.004961,0.05,-0.412831,0.292289,-2.137567,0.807258,-277.195215,-0.963357,48.751269
7.9381,0.01695,0.018176,-2.138416,0.024978,-0.004459,0.05,-0.412851,0.292308,-2.137571,0.807258,-277.195215,-0.963357,48.751269
7.9579,0.016946,0.018261,-2.135324,0.024439,-0.00452,0.05,-0.413739,0.291657,-2.136485,0.807197,-277.180849,-0.959155,48.768569
7.9781,0.016928,0.018301,-2.137359,0.024493,-0.004547,0.05,-0.41393,0.291257,-2.135569,0.807197,-277.180849,-0.959155,48.768569
7.9983,0.016858,0.018668,-2.136576,0.024527,-0.00446,0.05,-0.41393,0.291257,-2.135569,0.807197,-277.180849,-0.959155,48.768569
8.0181,0.017266,0.018792,-2.134383,0.024796,-0.004224,0.05,-0.414497,0.291161,-2.134159,0.806956,-277.166489,-0.950919,48.785668
8.0378,0.017085,0.018507,-2.133973,0.02511,-0.004557,0.05,-0.414475,0.291143,-2.134111,0.806956,-277.166489,-0.950919,48.785668
8.0584,0.016376,0.018703,-2.130443,0.02477,-0.004566,0.05,-0.414801,0.290076,-2.132049,0.816029,-277.152188,-0.95951,48.80274
8.078,0.016724,0.018661,-2.131292,0.024543,-0.003949,0.05,-0.415461,0.289633,-2.130892,0.816029,-277.152188,-0.95951,48.80274
8.0983,0.016489,0.018983,-2.131051,0.024696,-0.004245,0.05,-0.415461,0.289633,-2.130892,0.816029,-277.152188,-0.95951,48.80274
8.1181,0.016245,0.01869,-2.128848,0.024843,-0.00388,0.05,-0.416374,0.289084,-2.128631,0.802438,-277.137817,-0.949745,48.819902
8.1384,0.016341,0.018958,-2.128889,0.024457,-0.003883,0.05,-0.416396,0.289039,-2.128584,0.802438,-277.137817,-0.949745,48.819902
8.1579,0.016279,0.018774,-2.127153,0.024735,-0.003821,0.05,-0.416917,0.288317,-2.126962,0.816702,-277.123417,-0.953373,48.836932
8.1781,0.016068,0.019093,-2.126512,0.024539,-0.00391,0.05,-0.416934,0.288103,-2.126828,0.816702,-277.123417,-0.953373,48.836932
8.198,0.016672,0.018615,-2.127268,0.024696,-0.003577,0.05,-0.416934,0.288103,-2.126828,0.816702,-277.123417,-0.953373,48.836932
8.2178,0.015864,0.019325,-2.124237,0.024613,-0.004324,0.05,-0.417166,0.287086,-2.124844,0.828367,-277.109002,-0.953036,48.853758
8.2382,0.016442,0.019159,-2.12491,0.024778,-0.003339,0.05,-0.417242,0.287083,-2.124742,0.828367,-277.109002,-0.953036,48.853758
8.2582,0.015774,0.019186,-2.122087,0.024944,-0.003901,0.05,-0.417862,0.286778,-2.122982,0.829196,-277.094396,-0.944194,48.870582
8.278,0.015878,0.019058,-2.122375,0.024606,-0.003388,0.05,-0.4184,0.286422,-2.122227,0.829196,-277.094396,-0.944194,48.870582
8.2978,0.016028,0.019563,-2.121251,0.024552,-0.003536,0.05,-0.4184,0.286422,-2.122227,0.829196,-277.094396,-0.944194,48.870582
8.3178,0.01606,0.019185,-2.119478,0.025057,-0.003428,0.05,-0.419405,0.285389,-2.118822,0.831938,-277.079668,-0.93928,48.887383
8.3381,0.015951,0.019217,-2.118354,0.024746,-0.003697,0.05,-0.419402,0.285348,-2.118802,0.831938,-277.079668,-0.93928,48.887383
8.3587,0.015766,0.019671,-2.11627,0.024711,-0.003615,0.05,-0.420094,0.283987,-2.116428,0.832881,-277.0651,-0.946411,48.904148
8.3782,0.016229,0.019026,-2.117368,0.024996,-0.003272,0.05,-0.420245,0.284054,-2.116093,0.832881,-277.0651,-0.946411,48.904148
8.3982,0.015951,0.019394,-2.116133,0.02469,-0.003976,0.05,-0.420245,0.284054,-2.116093,0.832881,-277.0651,-0.946411,48.904148
8.4179,0.015728,0.020319,-2.114857,0.024855,-0.003578,0.05,-0.420851,0.282998,-2.113703,0.825991,-277.050508,-0.944911,48.921031
8.4382,0.015862,0.019986,-2.114365,0.025527,-0.00294,0.05,-0.420856,0.283063,-2.113718,0.825991,-277.050508,-0.944911,48.921031
8.4583,0.015584,0.019608,-2.112915,0.025309,-0.003239,0.05,-0.421254,0.283018,-2.112435,0.821912,-277.036012,-0.949826,48.937993
8.4782,0.015532,0.019539,-2.110653,0.024837,-0.003233,0.05,-0.421354,0.282768,-2.112463,0.821912,-277.036012,-0.949826,48.937993
8.4986,0.015466,0.019584,-2.110549,0.024744,-0.00328,0.05,-0.421354,0.282768,-2.112463,0.821912,-277.036012,-0.949826,48.937993
8.5178,0.015545,0.019453,-2.11021,0.024748,-0.003203,0.05,-0.422781,0.280705,-2.108146,0.824358,-277.021198,-0.919335,48.954584
8.5379,0.015454,0.020259,-2.108144,0.024675,-0.003346,0.05,-0.422752,0.280725,-2.108218,0.824358,-277.021198,-0.919335,48.954584
8.558,0.015356,0.020085,-2.106417,0.025314,-0.002906,0.05,-0.423266,0.280554,-2.106223,0.833696,-277.006583,-0.939125,48.97122
8.578,0.015434,0.020099,-2.106513,0.02511,-0.002954,0.05,-0.423314,0.280358,-2.106091,0.833696,-277.006583,-0.939125,48.97122
8.5979,0.015123,0.019772,-2.106968,0.025162,-0.003011,0.05,-0.423314,0.280358,-2.106091,0.833696,-277.006583,-0.939125,48.97122
8.618,0.015318,0.020466,-2.104301,0.024723,-0.0029,0.05,-0.42406,0.279356,-2.104539,0.833863,-276.9919,-0.941369,48.987981
8.6387,0.015148,0.02022,-2.104703,0.025412,-0.002781,0.05,-0.424062,0.279364,-2.104458,0.833863,-276.9919,-0.941369,48.987981
8.6582,0.015061,0.020183,-2.101012,0.025115,-0.00275,0.05,-0.424465,0.278983,-2.102778,0.830243,-276.977033,-0.927296,49.004699
8.6784,0.015037,0.020281,-2.102176,0.025029,-0.002786,0.05,-0.424796,0.278383,-2.101529,0.830243,-276.977033,-0.927296,49.004699
8.6985,0.014585,0.020185,-2.100423,0.025104,-0.002687,0.05,-0.424796,0.278383,-2.101529,0.830243,-276.977033,-0.927296,49.004699
8.7178,0.015061,0.020258,-2.100266,0.024788,-0.002389,0.05,-0.426283,0.276843,-2.097991,0.829466,-276.961996,-0.91923,49.021443
8.7379,0.014736,0.020504,-2.099014,0.025091,-0.002767,0.05,-0.426225,0.276884,-2.098078,0.829466,-276.961996,-0.91923,49.021443
8.7582,0.015034,0.020229,-2.097227,0.025137,-0.002394,0.05,-0.426332,0.276755,-2.097082,0.837214,-276.946991,-0.923731,49.038108
8.778,0.014835,0.020246,-2.09478,0.025044,-0.002834,0.05,-0.426168,0.276498,-2.096919,0.837214,-276.946991,-0.923731,49.038108
8.798,0.014598,0.020328,-2.097036,0.024952,-0.002715,0.05,-0.426168,0.276498,-2.096919,0.837214,-276.946991,-0.923731,49.038108
8.8179,0.014835,0.020361,-2.093252,0.02491,-0.002412,0.05,-0.427127,0.275506,-2.094608,0.836032,-276.932017,-0.925133,49.05479
8.8383,0.014763,0.019974,-2.094924,0.025047,-0.002696,0.05,-0.427148,0.275432,-2.094443,0.836032,-276.932017,-0.925133,49.05479
8.858,0.014192,0.020842,-2.092725,0.024681,-0.002785,0.05,-0.427346,0.274427,-2.092998,0.839734,-276.917102,-0.927045,49.071382
8.878,0.014816,0.020494,-2.091819,0.025142,-0.001912,0.05,-0.427737,0.274713,-2.092598,0.839734,-276.917102,-0.927045,49.071382
8.8978,0.014615,0.02057,-2.092186,0.02515,-0.002649,0.05,-0.427737,0.274713,-2.092598,0.839734,-276.917102,-0.927045,49.071382
8.918,0.014697,0.02042,-2.089103,0.025116,-0.002428,0.05,-0.428339,0.273602,-2.089756,0.838186,-276.902124,-0.924943,49.088026
8.9381,0.014545,0.020673,-2.088391,0.025019,-0.002651,0.05,-0.428356,0.27354,-2.089646,0.838186,-276.902124,-0.924943,49.088026
8.9578,0.01412,0.020837,-2.087231,0.025162,-0.00241,0.05,-0.42922,0.272223,-2.08646,0.836992,-276.887104,-0.922304,49.10468
8.9779,0.014216,0.020622,-2.086132,0.025092,-0.00199,0.05,-0.429376,0.272374,-2.086653,0.836992,-276.887104,-0.922304,49.10468
8.9979,0.014877,0.020554,-2.086797,0.02495,-0.002207,0.05,-0.429376,0.272374,-2.086653,0.836992,-276.887104,-0.922304,49.10468
9.0179,0.014449,0.020521,-2.084996,0.025218,-0.002798,0.05,-0.429432,0.271196,-2.084367,0.839551,-276.872122,-0.924842,49.121301
9.0387,0.014113,0.020768,-2.083208,0.024974,-0.002488,0.05,-0.429462,0.271181,-2.084346,0.839551,-276.872122,-0.924842,49.121301
9.0582,0.01446,0.021076,-2.081473,0.02502,-0.002118,0.05,-0.43093,0.270013,-2.081279,0.848762,-276.857029,-0.919688,49.13776
9.0779,0.014216,0.020772,-2.080226,0.025454,-0.002314,0.05,-0.430737,0.270104,-2.081146,0.848762,-276.857029,-0.919688,49.13776
9.0979,0.014469,0.020829,-2.079974,0.025068,-0.002281,0.05,-0.430737,0.270104,-2.081146,0.848762,-276.857029,-0.919688,49.13776
9.1178,0.013952,0.021074,-2.079981,0.02524,-0.00248,0.05,-0.431531,0.268433,-2.077547,0.843332,-276.842036,-0.923324,49.154289
9.1381,0.013821,0.020612,-2.07866,0.025201,-0.001909,0.05,-0.431537,0.268493,-2.07765,0.843332,-276.842036,-0.923324,49.154289
9.158,0.014158,0.020686,-2.076189,0.024732,-0.002053,0.05,-0.432356,0.267827,-2.076729,0.84513,-276.826906,-0.918506,49.17083
9.1784,0.014208,0.021011,-2.07661,0.024954,-0.002373,0.05,-0.432269,0.267597,-2.076175,0.84513,-276.826906,-0.918506,49.17083
9.1984,0.01381,0.020784,-2.076924,0.025264,-0.002249,0.05,-0.432269,0.267597,-2.076175,0.84513,-276.826906,-0.918506,49.17083
9.2179,0.014172,0.021084,-2.075256,0.024873,-0.002002,0.05,-0.432923,0.267005,-2.0745,0.848977,-276.811696,-0.910421,49.187214
9.2384,0.014241,0.021014,-2.073647,0.025308,-0.002216,0.05,-0.432897,0.267018,-2.074488,0.848977,-276.811696,-0.910421,49.187214
9.2583,0.013851,0.021094,-2.070593,0.025276,-0.002351,0.05,-0.433177,0.265975,-2.0717,0.841811,-276.79654,-0.914264,49.203754
9.2784,0.013595,0.021347,-2.070275,0.025152,-0.002048,0.05,-0.433576,0.265612,-2.070837,0.841811,-276.79654,-0.914264,49.203754
9.2979,0.014326,0.020883,-2.071433,0.025251,-0.001709,0.05,-0.433576,0.265612,-2.070837,0.841811,-276.79654,-0.914264,49.203754
9.3179,0.014088,0.020795,-2.070638,0.025197,-0.002544,0.05,-0.433769,0.264647,-2.069003,0.841526,-276.781275,-0.912937,49.220389
9.3379,0.013774,0.021374,-2.068471,0.025003,-0.002398,0.05,-0.433769,0.264663,-2.069061,0.841526,-276.781275,-0.912937,49.220389
9.3583,0.01385,0.02115,-2.064712,0.025357,-0.001899,0.05,-0.434879,0.264021,-2.066556,0.851454,-276.766055,-0.906479,49.236655
9.3779,0.013883,0.0213,-2.066301,0.025188,-0.002167,0.05,-0.435125,0.263299,-2.065267,0.851454,-276.766055,-0.906479,49.236655
9.3981,0.013977,0.021087,-2.066672,0.025339,-0.002085,0.05,-0.435125,0.263299,-2.065267,0.851454,-276.766055,-0.906479,49.236655
9.4183,0.013144,0.021364,-2.065333,0.025198,-0.00226,0.05,-0.435272,0.262736,-2.064251,0.844354,-276.751063,-0.921468,49.253125
9.4383,0.013609,0.021659,-2.063822,0.025043,-0.00143,0.05,-0.435323,0.262757,-2.064262,0.844354,-276.751063,-0.921468,49.253125
9.4577,0.013385,0.021338,-2.062302,0.02552,-0.001737,0.05,-0.436185,0.262215,-2.061894,0.843207,-276.735836,-0.910409,49.269633
9.4778,0.013302,0.021273,-2.062529,0.025129,-0.00173,0.05,-0.436286,0.262008,-2.061883,0.843207,-276.735836,-0.910409,49.269633
9.4979,0.013627,0.021268,-2.061364,0.025033,-0.001682,0.05,-0.436286,0.262008,-2.061883,0.843207,-276.735836,-0.910409,49.269633
9.5182,0.013531,0.021315,-2.058174,0.02518,-0.002,0.05,-0.436857,0.260506,-2.058946,0.860324,-276.72057,-0.90626,49.285778
9.5383,0.013375,0.02118,-2.059604,0.02517,-0.001973,0.05,-0.436889,0.260456,-2.058832,0.860324,-276.72057,-0.90626,49.285778
9.5581,0.013436,0.021467,-2.056642,0.02498,-0.001863,0.05,-0.437412,0.259837,-2.05767,0.856208,-276.705299,-0.910259,49.302089
9.5784,0.013338,0.021096,-2.055908,0.025257,-0.001857,0.05,-0.437553,0.259607,-2.056843,0.856208,-276.705299,-0.910259,49.302089
9.598,0.013339,0.021508,-2.057138,0.024881,-0.001962,0.05,-0.437553,0.259607,-2.056843,0.856208,-276.705299,-0.910259,49.302089
9.618,0.013307,0.021392,-2.053989,0.025249,-0.00174,0.05,-0.438182,0.25884,-2.054703,0.848486,-276.690085,-0.911983,49.318519
9.6379,0.013152,0.021725,-2.053865,0.025125,-0.001845,0.05,-0.438206,0.258783,-2.054599,0.848486,-276.690085,-0.911983,49.318519
9.6579,0.013284,0.021595,-2.051151,0.025348,-0.001556,0.05,-0.439003,0.257803,-2.051935,0.854403,-276.674945,-0.917394,49.334874
9.6778,0.013146,0.021849,-2.052364,0.025289,-0.001802,0.05,-0.439066,0.257392,-2.051244,0.854403,-276.674945,-0.917394,49.334874
9.6984,0.013453,0.021697,-2.05042,0.025453,-0.001531,0.05,-0.439066,0.257392,-2.051244,0.854403,-276.674945,-0.917394,49.334874
9.7179,0.013705,0.02184,-2.0494,0.025457,-0.001923,0.05,-0.439645,0.255991,-2.04799,0.851587,-276.659702,-0.910923,49.351255
9.7381,0.013377,0.021903,-2.048872,0.025698,-0.002106,0.05,-0.439617,0.256014,-2.048023,0.851587,-276.659702,-0.910923,49.351255
9.7581,0.013142,0.021741,-2.046679,0.025602,-0.0018,0.05,-0.439946,0.255694,-2.046944,0.850564,-276.644296,-0.899914,49.3676
9.7779,0.012779,0.021682,-2.04517,0.025346,-0.001722,0.05,-0.440149,0.255411,-2.046549,0.850564,-276.644296,-0.899914,49.3676
9.7979,0.013198,0.021622,-2.045324,0.025125,-0.001463,0.05,-0.440149,0.255411,-2.046549,0.850564,-276.644296,-0.899914,49.3676
9.818,0.012935,0.021871,-2.045096,0.025263,-0.00186,0.05,-0.44111,0.253589,-2.042902,0.835849,-276.629023,-0.903895,49.384157
9.8378,0.013068,0.021565,-2.045295,0.025364,-0.001519,0.05,-0.441103,0.253644,-2.04299,0.835849,-276.629023,-0.903895,49.384157
9.8582,0.012567,0.022056,-2.043571,0.025154,-0.001772,0.05,-0.441076,0.25375,-2.04338,0.858125,-276.613774,-0.905181,49.400302
9.8784,0.012247,0.022139,-2.041995,0.025359,-0.001145,0.05,-0.441374,0.25395,-2.043245,0.858125,-276.613774,-0.905181,49.400302
9.8977,0.012907,0.021928,-2.041457,0.025286,-0.000862,0.05,-0.441374,0.25395,-2.043245,0.858125,-276.613774,-0.905181,49.400302
9.918,0.012808,0.021773,-2.039959,0.025397,-0.00156,0.05,-0.442263,0.252135,-2.039029,0.852493,-276.598369,-0.901412,49.416641
9.9378,0.012654,0.021867,-2.039228,0.025211,-0.00158,0.05,-0.442267,0.252123,-2.039029,0.852493,-276.598369,-0.901412,49.416641
9.9587,0.012747,0.022039,-2.037918,0.025225,-0.001418,0.05,-0.442876,0.251272,-2.037304,0.865089,-276.582828,-0.892827,49.432711
9.9782,0.012873,0.021717,-2.036987,0.025418,-0.001457,0.05,-0.442787,0.251409,-2.03741,0.865089,-276.582828,-0.892827,49.432711
9.999,0.012977,0.022373,-2.036121,0.025186,-0.001737,0.05,-0.442787,0.251409,-2.03741,0.865089,-276.582828,-0.892827,49.432711
10.018,0.012461,0.02184,-2.034959,0.025817,-0.001559,0.05,-0.443414,0.250157,-2.033695,0.854445,-276.56754,-0.905293,49.448969
10.0383,0.01268,0.021843,-2.034642,0.025108,-0.001365,0.05,-0.443439,0.250131,-2.033716,0.854445,-276.56754,-0.905293,49.448969
10.0577,0.012838,0.022214,-2.031956,0.025208,-0.001568,0.05,-0.443926,0.249173,-2.032712,0.85225,-276.552216,-0.908151,49.465366
10.0783,0.013094,0.021824,-2.032918,0.025606,-0.001612,0.05,-0.443966,0.249057,-2.032035,0.85225,-276.552216,-0.908151,49.465366
10.0977,0.012872,0.021961,-2.031344,0.025372,-0.001991,0.05,-0.443966,0.249057,-2.032035,0.85225,-276.552216,-0.908151,49.465366
10.1178,0.012728,0.021966,-2.029289,0.025394,-0.00177,0.05,-0.44459,0.247563,-2.02892,0.860137,-276.536863,-0.904021,49.481561
10.1381,0.01245,0.022277,-2.029934,0.025331,-0.001692,0.05,-0.444607,0.247544,-2.028881,0.860137,-276.536863,-0.904021,49.481561
10.1581,0.012769,0.021874,-2.026977,0.025487,-0.001288,0.05,-0.445231,0.247455,-2.028011,0.844203,-276.521652,-0.908359,49.49799
10.1784,0.012631,0.021852,-2.027256,0.025262,-0.001827,0.05,-0.445209,0.246829,-2.02718,0.844203,-276.521652,-0.908359,49.49799
10.1978,0.013015,0.022116,-2.02682,0.025182,-0.001706,0.05,-0.445209,0.246829,-2.02718,0.844203,-276.521652,-0.908359,49.49799
10.2182,0.012481,0.021591,-2.024649,0.025587,-0.001946,0.05,-0.445483,0.245641,-2.024391,0.850193,-276.506308,-0.904675,49.514374
10.2383,0.012986,0.022429,-2.024697,0.024878,-0.001752,0.05,-0.445527,0.245582,-2.024344,0.850193,-276.506308,-0.904675,49.514374
10.2578,0.01239,0.022112,-2.022977,0.025852,-0.001837,0.05,-0.445857,0.245206,-2.022767,0.852856,-276.490983,-0.907742,49.530753
10.2778,0.012591,0.021955,-2.023347,0.025303,-0.001483,0.05,-0.446203,0.24495,-2.022643,0.852856,-276.490983,-0.907742,49.530753
10.2978,0.012268,0.022148,-2.019377,0.025251,-0.001723,0.05,-0.446203,0.24495,-2.022643,0.852856,-276.490983,-0.907742,49.530753
10.3178,0.012673,0.022187,-2.019795,0.025277,-0.001449,0.05,-0.447873,0.242277,-2.016953,0.858102,-276.4758,-0.914326,49.54702
10.3378,0.012658,0.022293,-2.017955,0.025488,-0.001787,0.05,-0.447813,0.242338,-2.017084,0.858102,-276.4758,-0.914326,49.54702
10.3581,0.012074,0.022262,-2.016793,0.025575,-0.001774,0.05,-0.447678,0.24197,-2.016027,0.851216,-276.460476,-0.906689,49.563405
10.378,0.01211,0.02226,-2.016373,0.025292,-0.00129,0.05,-0.447945,0.242025,-2.01622,0.851216,-276.460476,-0.906689,49.563405
10.3982,0.012182,0.022147,-2.017564,0.025305,-0.001335,0.05,-0.447945,0.242025,-2.01622,0.851216,-276.460476,-0.906689,49.563405
10.4183,0.012209,0.022562,-2.013506,0.025236,-0.001418,0.05,-0.448372,0.241415,-2.015138,0.845476,-276.445142,-0.903088,49.579833
10.4391,0.012159,0.022559,-2.014704,0.025618,-0.001367,0.05,-0.448405,0.241361,-2.014963,0.845476,-276.445142,-0.903088,49.579833
10.4581,0.012027,0.022388,-2.012284,0.025595,-0.001292,0.05,-0.448881,0.240723,-2.012759,0.85678,-276.429706,-0.899742,49.596091
10.478,0.012185,0.022568,-2.012194,0.025381,-0.001308,0.05,-0.449047,0.240379,-2.01225,0.85678,-276.429706,-0.899742,49.596091
10.498,0.012197,0.022122,-2.010745,0.02561,-0.001376,0.05,-0.449047,0.240379,-2.01225,0.85678,-276.429706,-0.899742,49.596091
10.5178,0.012438,0.02249,-2.009327,0.02521,-0.001614,0.05,-0.449825,0.238231,-2.008321,0.850164,-276.414193,-0.894256,49.61244
10.5378,0.012068,0.022588,-2.009368,0.025643,-0.001712,0.05,-0.449804,0.238259,-2.008326,0.850164,-276.414193,-0.894256,49.61244
10.5582,0.011689,0.022168,-2.006243,0.025575,-0.001334,0.05,-0.450132,0.238285,-2.007439,0.850134,-276.398668,-0.89454,49.628808
10.5781,0.011759,0.022463,-2.006829,0.025029,-0.001247,0.05,-0.450526,0.237609,-2.006512,0.850134,-276.398668,-0.89454,49.628808
10.5979,0.011772,0.022454,-2.006862,0.025328,-0.001171,0.05,-0.450526,0.237609,-2.006512,0.850134,-276.398668,-0.89454,49.628808
10.618,0.011832,0.022767,-2.003945,0.025325,-0.001186,0.05,-0.451103,0.236771,-2.004432,0.843754,-276.383182,-0.899022,49.645347
10.6386,0.011886,0.022419,-2.004713,0.02563,-0.001183,0.05,-0.451119,0.236743,-2.00432,0.843754,-276.383182,-0.899022,49.645347
10.6583,0.011467,0.022493,-1.999495,0.025339,-0.001359,0.05,-0.451296,0.235978,-2.002803,0.859106,-276.367793,-0.896813,49.661451
10.6779,0.012044,0.022056,-2.002403,0.025225,-0.001079,0.05,-0.451976,0.235018,-2.000662,0.859106,-276.367793,-0.896813,49.661451
10.698,0.012157,0.022345,-2.001618,0.025071,-0.001713,0.05,-0.451976,0.235018,-2.000662,0.859106,-276.367793,-0.896813,49.661451
10.7186,0.011858,0.022519,-1.999472,0.02538,-0.001714,0.05,-0.451811,0.234223,-1.999191,0.853021,-276.352246,-0.891201,49.677721
10.7387,0.011968,0.022697,-2.000036,0.02541,-0.001425,0.05,-0.451838,0.234214,-1.999148,0.853021,-276.352246,-0.891201,49.677721
10.7583,0.011683,0.022312,-1.997028,0.025619,-0.001437,0.05,-0.452225,0.2341,-1.998115,0.854928,-276.337032,-0.909991,49.693989
10.778,0.011722,0.022321,-1.997392,0.025146,-0.001413,0.05,-0.452548,0.233459,-1.99725,0.854928,-276.337032,-0.909991,49.693989
10.7984,0.011965,0.022484,-1.995677,0.025171,-0.001436,0.05,-0.452548,0.233459,-1.99725,0.854928,-276.337032,-0.909991,49.693989
10.8183,0.012019,0.02254,-1.993527,0.025418,-0.001633,0.05,-0.453258,0.231619,-1.993255,0.853202,-276.321625,-0.899114,49.71027
10.8379,0.011686,0.022568,-1.994144,0.025487,-0.001714,0.05,-0.453262,0.2316,-1.993209,0.853202,-276.321625,-0.899114,49.71027
10.8579,0.011605,0.02294,-1.992174,0.025377,-0.001383,0.05,-0.45374,0.231219,-1.99221,0.857705,-276.30622,-0.903887,49.726562
10.8783,0.011839,0.022667,-1.991579,0.025681,-0.001207,0.05,-0.453821,0.231294,-1.991947,0.857705,-276.30622,-0.903887,49.726562
10.898,0.011825,0.022431,-1.991868,0.025525,-0.001547,0.05,-0.453821,0.231294,-1.991947,0.857705,-276.30622,-0.903887,49.726562
10.9182,0.011643,0.022817,-1.988411,0.025305,-0.001623,0.05,-0.454207,0.229794,-1.989445,0.846766,-276.290881,-0.902025,49.742949
10.9386,0.011671,0.023123,-1.990237,0.025579,-0.001388,0.05,-0.454244,0.229756,-1.98931,0.846766,-276.290881,-0.902025,49.742949
10.9582,0.01148,0.022469,-1.986011,0.025872,-0.001243,0.05,-0.454576,0.229941,-1.988301,0.848871,-276.275419,-0.898763,49.759361
10.9779,0.01183,0.022485,-1.986639,0.02519,-0.00144,0.05,-0.454981,0.228837,-1.986752,0.848871,-276.275419,-0.898763,49.759361
10.9978,0.011458,0.022877,-1.987318,0.025347,-0.001739,0.05,-0.454981,0.228837,-1.986752,0.848871,-276.275419,-0.898763,49.759361
11.0179,0.011547,0.022842,-1.984552,0.025557,-0.001223,0.05,-0.4555,0.228105,-1.984891,0.850558,-276.259928,-0.895325,49.775702
11.0379,0.011837,0.022612,-1.983114,0.025558,-0.001389,0.05,-0.455509,0.22806,-1.984803,0.850558,-276.259928,-0.895325,49.775702
11.0579,0.011488,0.023002,-1.983194,0.02546,-0.001784,0.05,-0.455875,0.226116,-1.981183,0.849043,-276.24459,-0.905073,49.79211
11.0779,0.010902,0.022819,-1.9825,0.025678,-0.001305,0.05,-0.455864,0.226747,-1.982088,0.849043,-276.24459,-0.905073,49.79211
11.098,0.011688,0.022699,-1.980458,0.025275,-0.000859,0.05,-0.455864,0.226747,-1.982088,0.849043,-276.24459,-0.905073,49.79211
11.1181,0.011433,0.022953,-1.978798,0.025476,-0.00168,0.05,-0.456667,0.224721,-1.978034,0.850943,-276.229095,-0.895744,49.808456
11.1383,0.011597,0.022747,-1.980729,0.025605,-0.001387,0.05,-0.456685,0.224733,-1.978022,0.850943,-276.229095,-0.895744,49.808456
11.1579,0.011507,0.023003,-1.97766,0.025484,-0.00157,0.05,-0.456564,0.225129,-1.97881,0.865358,-276.213564,-0.892998,49.824514
11.1781,0.01123,0.02272,-1.976834,0.025678,-0.001465,0.05,-0.456787,0.224844,-1.977908,0.865358,-276.213564,-0.892998,49.824514
11.1981,0.011024,0.022548,-1.976455,0.025308,-0.001343,0.05,-0.456787,0.224844,-1.977908,0.865358,-276.213564,-0.892998,49.824514
11.218,0.011162,0.023015,-1.973125,0.025068,-0.001232,0.05,-0.458134,0.222694,-1.974037,0.850051,-276.198123,-0.894803,49.8408
11.2385,0.010716,0.022551,-1.974647,0.025548,-0.001259,0.05,-0.458147,0.222666,-1.973909,0.850051,-276.198123,-0.894803,49.8408
11.258,0.0109,0.022964,-1.972242,0.024948,-0.000992,0.05,-0.458688,0.222081,-1.972713,0.856578,-276.182657,-0.899814,49.857095
11.278,0.010983,0.02266,-1.971703,0.025397,-0.00106,0.05,-0.458666,0.222063,-1.9722,0.856578,-276.182657,-0.899814,49.857095
11.298,0.010866,0.022675,-1.971979,0.02515,-0.001269,0.05,-0.458666,0.222063,-1.9722,0.856578,-276.182657,-0.899814,49.857095
11.3181,0.011565,0.022695,-1.969611,0.025118,-0.001149,0.05,-0.459178,0.220717,-1.969554,0.853335,-276.16712,-0.893944,49.873404
11.3384,0.010975,0.022787,-1.968892,0.025405,-0.001845,0.05,-0.459137,0.220687,-1.969491,0.853335,-276.16712,-0.893944,49.873404
11.3579,0.011002,0.022857,-1.966086,0.02526,-0.001284,0.05,-0.459562,0.219622,-1.966969,0.860949,-276.151745,-0.901743,49.889559
11.3785,0.011262,0.022948,-1.966088,0.025331,-0.001352,0.05,-0.459676,0.219297,-1.966222,0.860949,-276.151745,-0.901743,49.889559
11.3981,0.011219,0.022725,-1.96861,0.025515,-0.001557,0.05,-0.459676,0.219297,-1.966222,0.860949,-276.151745,-0.901743,49.889559
11.4179,0.010715,0.022803,-1.964156,0.025297,-0.001539,0.05,-0.459515,0.219198,-1.966182,0.846097,-276.136473,-0.905559,49.905961
11.4382,0.010881,0.02309,-1.964154,0.025168,-0.001156,0.05,-0.45958,0.219113,-1.965994,0.846097,-276.136473,-0.905559,49.905961
11.458,0.010907,0.022888,-1.961105,0.025498,-0.0012,0.05,-0.460601,0.217681,-1.962222,0.84891,-276.121042,-0.899118,49.922346
11.4783,0.010769,0.023079,-1.960533,0.025316,-0.001379,0.05,-0.460732,0.217142,-1.961344,0.84891,-276.121042,-0.899118,49.922346
11.4979,0.011394,0.022903,-1.962172,0.02544,-0.001193,0.05,-0.460732,0.217142,-1.961344,0.84891,-276.121042,-0.899118,49.922346
11.5179,0.011285,0.022998,-1.958213,0.025518,-0.001796,0.05,-0.460558,0.21634,-1.959747,0.86247,-276.105613,-0.899657,49.938487
11.5384,0.010937,0.023144,-1.959227,0.025557,-0.00176,0.05,-0.460596,0.216266,-1.95958,0.86247,-276.105613,-0.899657,49.938487
11.5584,0.010695,0.022828,-1.954935,0.025562,-0.001357,0.05,-0.461484,0.215406,-1.957293,0.856552,-276.09006,-0.894988,49.954774
11.5779,0.010629,0.022965,-1.956825,0.025172,-0.00136,0.05,-0.46191,0.214465,-1.955701,0.856552,-276.09006,-0.894988,49.954774
11.5981,0.010664,0.022645,-1.955158,0.025277,-0.0012,0.05,-0.46191,0.214465,-1.955701,0.856552,-276.09006,-0.894988,49.954774
11.618,0.01061,0.023056,-1.954926,0.024992,-0.001395,0.05,-0.462667,0.212762,-1.952736,0.844592,-276.074742,-0.901383,49.971166
11.6384,0.010845,0.023516,-1.955104,0.025352,-0.001197,0.05,-0.462651,0.212827,-1.952819,0.844592,-276.074742,-0.901383,49.971166
11.6581,0.011019,0.023192,-1.952217,0.025867,-0.001237,0.05,-0.462364,0.213833,-1.953166,0.859599,-276.059312,-0.898233,49.987333
11.6779,0.010357,0.023424,-1.951959,0.025627,-0.001594,0.05,-0.462396,0.213272,-1.95239,0.859599,-276.059312,-0.898233,49.987333
11.6978,0.010951,0.023231,-1.951887,0.025596,-0.0009,0.05,-0.462396,0.213272,-1.95239,0.859599,-276.059312,-0.898233,49.987333
11.718,0.010336,0.023084,-1.948611,0.025638,-0.001525,0.05,-0.462972,0.211794,-1.949457,0.858194,-276.043802,-0.896726,50.003579
11.7381,0.010638,0.023512,-1.949318,0.025269,-0.001092,0.05,-0.463036,0.211724,-1.949334,0.858194,-276.043802,-0.896726,50.003579
11.7582,0.010479,0.023306,-1.946974,0.025779,-0.001196,0.05,-0.463659,0.211069,-1.947375,0.858443,-276.028159,-0.887478,50.019773
11.7779,0.010866,0.022923,-1.947621,0.025526,-0.001185,0.05,-0.463821,0.210728,-1.946907,0.858443,-276.028159,-0.887478,50.019773
11.7978,0.010836,0.023059,-1.946536,0.025313,-0.001668,0.05,-0.463821,0.210728,-1.946907,0.858443,-276.028159,-0.887478,50.019773
11.8183,0.01046,0.023122,-1.944055,0.025427,-0.001619,0.05,-0.464082,0.209087,-1.944109,0.86159,-276.012662,-0.896722,50.035942
11.8381,0.010424,0.023309,-1.944841,0.025344,-0.001308,0.05,-0.464119,0.209057,-1.944041,0.86159,-276.012662,-0.896722,50.035942
11.8579,0.010467,0.023228,-1.942127,0.025507,-0.001187,0.05,-0.464728,0.20877,-1.942915,0.850938,-275.997347,-0.904666,50.052282
11.8782,0.010357,0.023704,-1.942875,0.025443,-0.001325,0.05,-0.464807,0.208382,-1.942222,0.850938,-275.997347,-0.904666,50.052282
11.898,0.010576,0.023147,-1.941609,0.025847,-0.001031,0.05,-0.464807,0.208382,-1.942222,0.850938,-275.997347,-0.904666,50.052282
11.9183,0.010485,0.022984,-1.940526,0.025406,-0.001469,0.05,-0.465265,0.206833,-1.939181,0.856465,-275.981889,-0.898589,50.068543
11.9378,0.010405,0.023505,-1.939725,0.02522,-0.001471,0.05,-0.465263,0.206834,-1.93921,0.856465,-275.981889,-0.898589,50.068543
11.9581,0.010214,0.022923,-1.938006,0.025676,-0.001229,0.05,-0.465674,0.206505,-1.9378,0.851414,-275.966253,-0.88472,50.084806
11.9781,0.010538,0.023451,-1.936796,0.025062,-0.001303,0.05,-0.465788,0.206114,-1.937671,0.851414,-275.966253,-0.88472,50.084806
11.9985,0.010259,0.023452,-1.937212,0.025669,-0.001447,0.05,-0.465788,0.206114,-1.937671,0.851414,-275.966253,-0.88472,50.084806
12.018,0.010353,0.023055,-1.934917,0.025571,-0.001176,0.05,-0.466388,0.205057,-1.934795,0.856146,-275.950952,-0.903473,50.101009
12.0384,0.010124,0.023401,-1.93477,0.02523,-0.001463,0.05,-0.466389,0.205002,-1.93474,0.856146,-275.950952,-0.903473,50.101009
12.0584,0.010028,0.023165,-1.931008,0.025472,-0.00113,0.05,-0.466869,0.20405,-1.932841,0.847804,-275.93547,-0.894514,50.117376
12.0779,0.010351,0.023108,-1.93088,0.025213,-0.001219,0.05,-0.467132,0.203298,-1.931557,0.847804,-275.93547,-0.894514,50.117376
12.0981,0.010009,0.023254,-1.931423,0.025273,-0.001545,0.05,-0.467132,0.203298,-1.931557,0.847804,-275.93547,-0.894514,50.117376
12.1183,0.010038,0.023267,-1.928382,0.02529,-0.00116,0.05,-0.467683,0.202091,-1.928996,0.856065,-275.919969,-0.903154,50.133784
12.1383,0.010187,0.023367,-1.929891,0.025309,-0.00126,0.05,-0.467701,0.202025,-1.928859,0.856065,-275.919969,-0.903154,50.133784
12.1581,0.010122,0.023621,-1.926472,0.025457,-0.001325,0.05,-0.467677,0.201712,-1.927981,0.853837,-275.904724,-0.903572,50.149973
12.1779,0.010178,0.023486,-1.926827,0.025667,-0.001263,0.05,-0.467887,0.201317,-1.92688,0.853837,-275.904724,-0.903572,50.149973
12.1978,0.010222,0.023634,-1.927314,0.025561,-0.001354,0.05,-0.467887,0.201317,-1.92688,0.853837,-275.904724,-0.903572,50.149973
12.2179,0.010069,0.023186,-1.924289,0.025715,-0.001331,0.05,-0.468193,0.200499,-1.924884,0.857979,-275.889235,-0.89853,50.166238
12.2385,0.010225,0.023549,-1.924667,0.025238,-0.00142,0.05,-0.468221,0.200413,-1.924775,0.857979,-275.889235,-0.89853,50.166238
12.2589,0.009753,0.023456,-1.921447,0.025634,-0.001431,0.05,-0.468568,0.199364,-1.922718,0.851478,-275.873723,-0.895139,50.18258
12.278,0.009775,0.023446,-1.922908,0.025379,-0.001102,0.05,-0.468979,0.198847,-1.921762,0.851478,-275.873723,-0.895139,50.18258
12.2987,0.009833,0.023351,-1.920992,0.025378,-0.001089,0.05,-0.468979,0.198847,-1.921762,0.851478,-275.873723,-0.895139,50.18258
12.3182,0.009683,0.023624,-1.920808,0.025308,-0.001225,0.05,-0.469699,0.197189,-1.918551,0.856642,-275.858357,-0.902345,50.198819
12.3378,0.009922,0.02359,-1.918579,0.025512,-0.000995,0.05,-0.469693,0.197234,-1.918619,0.856642,-275.858357,-0.902345,50.198819
12.3578,0.009635,0.023749,-1.915664,0.025559,-0.001288,0.05,-0.469917,0.196498,-1.916648,0.859491,-275.842807,-0.894571,50.215039
12.3779,0.009772,0.023417,-1.917896,0.025608,-0.001039,0.05,-0.470203,0.196194,-1.915843,0.859491,-275.842807,-0.894571,50.215039
12.3981,0.010161,0.023408,-1.917636,0.025344,-0.001223,0.05,-0.470203,0.196194,-1.915843,0.859491,-275.842807,-0.894571,50.215039
12.418,0.009817,0.023278,-1.914539,0.025468,-0.001599,0.05,-0.469936,0.195619,-1.915203,0.85848,-275.827174,-0.890555,50.231283
12.4386,0.009927,0.023415,-1.913983,0.025225,-0.001398,0.05,-0.469977,0.195555,-1.915091,0.85848,-275.827174,-0.890555,50.231283
12.4582,0.009546,0.023637,-1.911278,0.02539,-0.001469,0.05,-0.470705,0.194123,-1.912061,0.857906,-275.8117,-0.897291,50.247509
12.4786,0.009732,0.023621,-1.911996,0.025468,-0.001105,0.05,-0.471023,0.193907,-1.911367,0.857906,-275.8117,-0.897291,50.247509
12.4978,0.009753,0.023885,-1.911906,0.025516,-0.001267,0.05,-0.471023,0.193907,-1.911367,0.857906,-275.8117,-0.897291,50.247509
12.518,0.009563,0.023495,-1.909701,0.025771,-0.001201,0.05,-0.471334,0.193366,-1.909481,0.857287,-275.796315,-0.902257,50.263754
12.5382,0.009414,0.02392,-1.909971,0.025338,-0.001208,0.05,-0.471353,0.193314,-1.909432,0.857287,-275.796315,-0.902257,50.263754
12.5583,0.00957,0.023459,-1.906518,0.025689,-0.000919,0.05,-0.471904,0.192689,-1.908041,0.853817,-275.780776,-0.894661,50.280071
12.578,0.009554,0.023603,-1.907661,0.025303,-0.001307,0.05,-0.471982,0.19188,-1.906924,0.853817,-275.780776,-0.894661,50.280071
12.5979,0.009302,0.023743,-1.906653,0.025434,-0.001216,0.05,-0.471982,0.19188,-1.906924,0.853817,-275.780776,-0.894661,50.280071
12.618,0.00937,0.023461,-1.905114,0.025482,-0.000957,0.05,-0.472662,0.190686,-1.904227,0.858292,-275.765301,-0.897181,50.296289
12.6391,0.00962,0.023558,-1.904313,0.025236,-0.001153,0.05,-0.472656,0.190664,-1.904224,0.858292,-275.765301,-0.897181,50.296289
12.6581,0.00977,0.023573,-1.902412,0.025409,-0.001378,0.05,-0.472645,0.189594,-1.902364,0.856278,-275.749755,-0.89545,50.312583
12.6779,0.00961,0.023835,-1.901753,0.02547,-0.001563,0.05,-0.472578,0.189491,-1.902148,0.856278,-275.749755,-0.89545,50.312583
12.6983,0.009505,0.023374,-1.902274,0.025664,-0.001344,0.05,-0.472578,0.189491,-1.902148,0.856278,-275.749755,-0.89545,50.312583
12.7182,0.009725,0.024222,-1.897313,0.025194,-0.00138,0.05,-0.473183,0.188207,-1.899846,0.861199,-275.73429,-0.898294,50.328757
12.7382,0.008825,0.023837,-1.897487,0.026062,-0.001442,0.05,-0.473204,0.188151,-1.899615,0.861199,-275.73429,-0.898294,50.328757
12.7581,0.009267,0.02363,-1.896977,0.025408,-0.000709,0.05,-0.474566,0.186581,-1.895561,0.849655,-275.71876,-0.893019,50.345109
12.7779,0.009529,0.023718,-1.895839,0.025354,-0.001207,0.05,-0.474197,0.186733,-1.896129,0.849655,-275.71876,-0.893019,50.345109
12.7978,0.009074,0.02349,-1.897705,0.025519,-0.001456,0.05,-0.474197,0.186733,-1.896129,0.849655,-275.71876,-0.893019,50.345109
12.8177,0.009524,0.023407,-1.894795,0.02516,-0.00105,0.05,-0.474386,0.186087,-1.895285,0.840333,-275.703191,-0.887007,50.361552
12.8384,0.00946,0.023899,-1.893572,0.025221,-0.001576,0.05,-0.474368,0.186034,-1.895186,0.840333,-275.703191,-0.887007,50.361552
12.858,0.009491,0.02385,-1.890975,0.025666,-0.001391,0.05,-0.474566,0.184757,-1.891648,0.850552,-275.687768,-0.897501,50.377866
12.878,0.00914,0.023941,-1.891169,0.025625,-0.001502,0.05,-0.474626,0.184418,-1.891021,0.850552,-275.687768,-0.897501,50.377866
12.898,0.009595,0.023713,-1.893366,0.025601,-0.001135,0.05,-0.474626,0.184418,-1.891021,0.850552,-275.687768,-0.897501,50.377866
12.918,0.00931,0.023864,-1.889105,0.025531,-0.001583,0.05,-0.474561,0.184248,-1.890938,0.854319,-275.672405,-0.90504,50.394201
12.9381,0.009047,0.023796,-1.889366,0.025579,-0.001374,0.05,-0.474611,0.18416,-1.890737,0.854319,-275.672405,-0.90504,50.394201
12.958,0.009028,0.023629,-1.88582,0.025432,-0.001138,0.05,-0.475641,0.182611,-1.887444,0.854401,-275.656861,-0.891023,50.410439
12.9783,0.008819,0.023628,-1.887923,0.025263,-0.001263,0.05,-0.475819,0.181942,-1.886271,0.854401,-275.656861,-0.891023,50.410439
12.9978,0.00917,0.023499,-1.887714,0.0252,-0.001012,0.05,-0.475819,0.181942,-1.886271,0.854401,-275.656861,-0.891023,50.410439
13.0178,0.008974,0.023683,-1.884123,0.025187,-0.00139,0.05,-0.475881,0.181276,-1.885287,0.850791,-275.641369,-0.895114,50.426771
13.0385,0.008769,0.023963,-1.884292,0.025296,-0.001237,0.05,-0.475915,0.181218,-1.885143,0.850791,-275.641369,-0.895114,50.426771
13.0584,0.008938,0.023778,-1.881981,0.0255,-0.000951,0.05,-0.476714,0.180318,-1.882345,0.864284,-275.625887,-0.896816,50.442876
13.0779,0.00901,0.023879,-1.883082,0.025372,-0.001228,0.05,-0.476674,0.179989,-1.881901,0.864284,-275.625887,-0.896816,50.442876
13.0982,0.008866,0.02393,-1.882468,0.025492,-0.001238,0.05,-0.476674,0.179989,-1.881901,0.864284,-275.625887,-0.896816,50.442876
13.118,0.008622,0.024135,-1.880735,0.025496,-0.001101,0.05,-0.476996,0.17917,-1.88004,0.858609,-275.610415,-0.898427,50.459109
13.1382,0.008759,0.02355,-1.878071,0.025615,-0.00085,0.05,-0.477013,0.179175,-1.880023,0.858609,-275.610415,-0.898427,50.459109
13.1581,0.008906,0.02377,-1.877052,0.025096,-0.001226,0.05,-0.477698,0.176874,-1.876124,0.85477,-275.594861,-0.894682,50.475424
13.1782,0.009087,0.023805,-1.877622,0.02535,-0.001326,0.05,-0.477551,0.177131,-1.876408,0.85477,-275.594861,-0.894682,50.475424
13.1981,0.008776,0.023964,-1.877172,0.025438,-0.001473,0.05,-0.477551,0.177131,-1.876408,0.85477,-275.594861,-0.894682,50.475424
13.2182,0.009016,0.024158,-1.875997,0.025495,-0.00114,0.05,-0.477887,0.17661,-1.874746,0.858898,-275.579223,-0.886324,50.491582
13.238,0.008972,0.024146,-1.877051,0.025751,-0.00134,0.05,-0.477866,0.176633,-1.874768,0.858898,-275.579223,-0.886324,50.491582
13.2583,0.008861,0.024156,-1.870906,0.025728,-0.001275,0.05,-0.477645,0.17699,-1.875128,0.851832,-275.5638,-0.899303,50.507908
13.2779,0.008846,0.023687,-1.871507,0.025696,-0.001323,0.05,-0.478092,0.17569,-1.872461,0.851832,-275.5638,-0.899303,50.507908
13.2979,0.008377,0.024239,-1.87272,0.025244,-0.001433,0.05,-0.478092,0.17569,-1.872461,0.851832,-275.5638,-0.899303,50.507908
13.3178,0.00854,0.023875,-1.868821,0.025633,-0.000791,0.05,-0.478985,0.174717,-1.870295,0.848031,-275.548273,-0.891318,50.524253
13.3378,0.008697,0.023809,-1.869617,0.02533,-0.001153,0.05,-0.478996,0.174613,-1.870132,0.848031,-275.548273,-0.891318,50.524253
13.3579,0.008789,0.023837,-1.86578,0.025314,-0.001302,0.05,-0.47904,0.173037,-1.867692,0.856308,-275.532893,-0.902419,50.540514
13.3784,0.008572,0.024068,-1.866715,0.025363,-0.001479,0.05,-0.479164,0.172391,-1.866359,0.856308,-275.532893,-0.902419,50.540514
13.3978,0.008528,0.023937,-1.867427,0.025522,-0.001181,0.05,-0.479164,0.172391,-1.866359,0.856308,-275.532893,-0.902419,50.540514
13.4181,0.008442,0.023824,-1.864416,0.025385,-0.001159,0.05,-0.47961,0.171849,-1.864997,0.85936,-275.517394,-0.896495,50.556723
13.4382,0.008668,0.023748,-1.863798,0.025248,-0.001186,0.05,-0.479629,0.171792,-1.864897,0.85936,-275.517394,-0.896495,50.556723
13.4577,0.008576,0.024041,-1.86219,0.025239,-0.001439,0.05,-0.479924,0.170119,-1.861866,0.855159,-275.501828,-0.893238,50.573014
13.478,0.008591,0.024175,-1.862903,0.025491,-0.001308,0.05,-0.479966,0.170253,-1.861808,0.855159,-275.501828,-0.893238,50.573014
13.4979,0.008743,0.023924,-1.861331,0.025625,-0.001266,0.05,-0.479966,0.170253,-1.861808,0.855159,-275.501828,-0.893238,50.573014
13.5179,0.00851,0.024065,-1.859017,0.025426,-0.001523,0.05,-0.480288,0.168865,-1.858908,0.860424,-275.486294,-0.898572,50.589281
13.538,0.008135,0.023945,-1.860222,0.025491,-0.001319,0.05,-0.480315,0.168842,-1.858839,0.860424,-275.486294,-0.898572,50.589281
13.5584,0.008352,0.024098,-1.856691,0.025271,-0.000963,0.05,-0.480978,0.168574,-1.858309,0.851734,-275.470828,-0.892567,50.605518
13.5781,0.008557,0.024252,-1.856075,0.025475,-0.001217,0.05,-0.481002,0.168085,-1.857139,0.851734,-275.470828,-0.892567,50.605518
13.5979,0.008461,0.024388,-1.857425,0.02568,-0.001386,0.05,-0.481002,0.168085,-1.857139,0.851734,-275.470828,-0.892567,50.605518
13.6178,0.008478,0.023882,-1.855447,0.025785,-0.001221,0.05,-0.481143,0.167405,-1.854995,0.853417,-275.455339,-0.895935,50.621815
13.638,0.008143,0.023906,-1.854248,0.025302,-0.00143,0.05,-0.481144,0.167355,-1.854964,0.853417,-275.455339,-0.895935,50.621815
13.6584,0.008011,0.023857,-1.852761,0.02523,-0.001132,0.05,-0.481834,0.1656,-1.852315,0.848621,-275.439785,-0.893358,50.638219
13.6785,0.008379,0.024081,-1.8511,0.025144,-0.001056,0.05,-0.481884,0.165573,-1.852324,0.848621,-275.439785,-0.893358,50.638219
13.6979,0.008128,0.023954,-1.851571,0.025459,-0.00139,0.05,-0.481884,0.165573,-1.852324,0.848621,-275.439785,-0.893358,50.638219
13.7181,0.008511,0.023846,-1.848259,0.025269,-0.001172,0.05,-0.482306,0.164115,-1.849147,0.855216,-275.424406,-0.901267,50.654475
13.7379,0.008006,0.023746,-1.850863,0.025265,-0.001654,0.05,-0.482294,0.164047,-1.849025,0.855216,-275.424406,-0.901267,50.654475
13.7585,0.008438,0.024394,-1.846795,0.025034,-0.00113,0.05,-0.482446,0.163788,-1.848928,0.852842,-275.408929,-0.897646,50.670806
13.7782,0.008234,0.023926,-1.849402,0.02577,-0.001471,0.05,-0.482382,0.163435,-1.847474,0.852842,-275.408929,-0.897646,50.670806
13.798,0.008105,0.024066,-1.846904,0.025268,-0.001337,0.05,-0.482382,0.163435,-1.847474,0.852842,-275.408929,-0.897646,50.670806
13.8179,0.008047,0.024414,-1.844307,0.025364,-0.001237,0.05,-0.482988,0.161939,-1.844476,0.85213,-275.393595,-0.905371,50.687158
13.8384,0.008329,0.024259,-1.844633,0.02568,-0.001153,0.05,-0.483,0.161925,-1.8444,0.85213,-275.393595,-0.905371,50.687158
13.8582,0.008032,0.024187,-1.842618,0.025608,-0.001459,0.05,-0.482981,0.161252,-1.842703,0.857479,-275.378143,-0.900505,50.703435
13.8781,0.008033,0.024135,-1.842579,0.025455,-0.001243,0.05,-0.48317,0.161056,-1.842409,0.857479,-275.378143,-0.900505,50.703435
13.8978,0.008196,0.024276,-1.844007,0.025406,-0.001259,0.05,-0.48317,0.161056,-1.842409,0.857479,-275.378143,-0.900505,50.703435
13.918,0.008142,0.024435,-1.838746,0.025587,-0.001342,0.05,-0.483276,0.160702,-1.841584,0.852565,-275.362587,-0.88979,50.719694
13.9386,0.007805,0.023936,-1.837731,0.025719,-0.001382,0.05,-0.483313,0.160587,-1.841328,0.852565,-275.362587,-0.88979,50.719694
13.9582,0.008026,0.024501,-1.8373,0.025147,-0.001214,0.05,-0.484437,0.157529,-1.835802,0.856097,-275.347066,-0.896659,50.73599
13.9786,0.007872,0.024185,-1.838094,0.025749,-0.00129,0.05,-0.484208,0.158148,-1.836416,0.856097,-275.347066,-0.896659,50.73599
13.9982,0.007706,0.024436,-1.83593,0.025406,-0.001205,0.05,-0.484208,0.158148,-1.836416,0.856097,-275.347066,-0.896659,50.73599
14.0178,0.007827,0.024228,-1.835117,0.025601,-0.001033,0.05,-0.484864,0.156888,-1.833504,0.847951,-275.331566,-0.892568,50.752333
14.0381,0.00796,0.024511,-1.83266,0.025431,-0.001225,0.05,-0.484847,0.156896,-1.833549,0.847951,-275.331566,-0.892568,50.752333
14.0582,0.007501,0.024638,-1.831636,0.025736,-0.001343,0.05,-0.484951,0.155604,-1.830728,0.857015,-275.316066,-0.895824,50.768572
14.0782,0.007766,0.024163,-1.832854,0.025739,-0.000894,0.05,-0.485157,0.155802,-1.830997,0.857015,-275.316066,-0.895824,50.768572
14.0982,0.007911,0.023989,-1.831479,0.02535,-0.001241,0.05,-0.485157,0.155802,-1.830997,0.857015,-275.316066,-0.895824,50.768572
14.118,0.007687,0.023933,-1.828473,0.025218,-0.001461,0.05,-0.485233,0.154257,-1.829048,0.856177,-275.300522,-0.895656,50.78487
14.1381,0.007465,0.024473,-1.830104,0.025102,-0.001334,0.05,-0.485261,0.154198,-1.828939,0.856177,-275.300522,-0.895656,50.78487
14.1577,0.007979,0.024502,-1.826618,0.025569,-0.00094,0.05,-0.48578,0.15431,-1.828176,0.857496,-275.285049,-0.89745,50.801106
14.1782,0.007642,0.024417,-1.826353,0.025724,-0.00152,0.05,-0.485614,0.15376,-1.827043,0.857496,-275.285049,-0.89745,50.801106
14.1981,0.00753,0.024095,-1.827994,0.025556,-0.001222,0.05,-0.485614,0.15376,-1.827043,0.857496,-275.285049,-0.89745,50.801106
14.2179,0.007367,0.024406,-1.826054,0.025218,-0.001153,0.05,-0.486066,0.152659,-1.82556,0.860792,-275.269624,-0.903671,50.817357
14.2383,0.008075,0.024553,-1.824881,0.025475,-0.000966,0.05,-0.486079,0.152664,-1.82553,0.860792,-275.269624,-0.903671,50.817357
14.2587,0.007863,0.024377,-1.820424,0.025794,-0.001644,0.05,-0.485842,0.151807,-1.822959,0.853812,-275.25412,-0.893207,50.833607
14.2779,0.00772,0.024489,-1.823975,0.025564,-0.001597,0.05,-0.486158,0.150865,-1.821265,0.853812,-275.25412,-0.893207,50.833607
14.2979,0.007583,0.024334,-1.822418,0.025642,-0.00134,0.05,-0.486158,0.150865,-1.821265,0.853812,-275.25412,-0.893207,50.833607
14.3178,0.007753,0.024189,-1.820794,0.025455,-0.001286,0.05,-0.486709,0.150125,-1.819991,0.85967,-275.238513,-0.8908,50.849808
14.3382,0.007881,0.024527,-1.818216,0.025355,-0.001528,0.05,-0.486696,0.150109,-1.819982,0.85967,-275.238513,-0.8908,50.849808
14.358,0.007545,0.024204,-1.816778,0.02571,-0.001635,0.05,-0.486878,0.148483,-1.816293,0.850149,-275.222978,-0.893388,50.866162
14.3778,0.007548,0.024611,-1.816046,0.025312,-0.001424,0.05,-0.487045,0.148311,-1.816326,0.850149,-275.222978,-0.893388,50.866162
14.3979,0.007261,0.024362,-1.815087,0.025707,-0.001347,0.05,-0.487045,0.148311,-1.816326,0.850149,-275.222978,-0.893388,50.866162
14.4179,0.007393,0.024603,-1.814545,0.025395,-0.001154,0.05,-0.487964,0.14654,-1.812665,0.85252,-275.207625,-0.901739,50.882452
14.4381,0.00768,0.024305,-1.814687,0.02566,-0.001236,0.05,-0.487944,0.146589,-1.812731,0.85252,-275.207625,-0.901739,50.882452
14.4581,0.007367,0.024565,-1.812895,0.02544,-0.001583,0.05,-0.487516,0.14651,-1.812759,0.848768,-275.192057,-0.892259,50.898845
14.4779,0.007444,0.024149,-1.812219,0.025615,-0.001263,0.05,-0.487692,0.146575,-1.812593,0.848768,-275.192057,-0.892259,50.898845
14.4983,0.007334,0.024496,-1.813807,0.025229,-0.001454,0.05,-0.487692,0.146575,-1.812593,0.848768,-275.192057,-0.892259,50.898845
14.5182,0.006788,0.024416,-1.808671,0.025541,-0.001225,0.05,-0.488037,0.146021,-1.811382,0.85155,-275.176483,-0.891447,50.915175
14.5385,0.007175,0.024405,-1.809304,0.025328,-0.000843,0.05,-0.488109,0.145878,-1.811105,0.85155,-275.176483,-0.891447,50.915175
14.5581,0.007203,0.024203,-1.806249,0.025409,-0.001206,0.05,-0.48867,0.143964,-1.807382,0.85625,-275.161135,-0.903043,50.931418
14.5777,0.007048,0.024459,-1.81033,0.025216,-0.001358,0.05,-0.488737,0.143398,-1.806492,0.85625,-275.161135,-0.903043,50.931418
14.5979,0.007061,0.02438,-1.807189,0.025433,-0.001044,0.05,-0.488737,0.143398,-1.806492,0.85625,-275.161135,-0.903043,50.931418
14.6182,0.007296,0.024261,-1.806202,0.025356,-0.001155,0.05,-0.489081,0.142637,-1.804767,0.864582,-275.145591,-0.891723,50.947478
14.6383,0.007501,0.024564,-1.804249,0.025293,-0.001436,0.05,-0.489059,0.142645,-1.804802,0.864582,-275.145591,-0.891723,50.947478
14.6579,0.007162,0.024208,-1.80264,0.025632,-0.001615,0.05,-0.48893,0.141599,-1.802318,0.859201,-275.130021,-0.892831,50.963689
14.6782,0.006836,0.024669,-1.802632,0.025206,-0.001408,0.05,-0.489113,0.141361,-1.802256,0.859201,-275.130021,-0.892831,50.963689
14.6979,0.007011,0.024096,-1.802718,0.02558,-0.000985,0.05,-0.489113,0.141361,-1.802256,0.859201,-275.130021,-0.892831,50.963689
14.7178,0.00713,0.024589,-1.801083,0.025062,-0.001285,0.05,-0.489684,0.140137,-1.800287,0.855299,-275.11462,-0.901527,50.979974
14.7385,0.006989,0.024553,-1.799317,0.025568,-0.001329,0.05,-0.489674,0.140164,-1.800278,0.855299,-275.11462,-0.901527,50.979974
14.758,0.006946,0.024527,-1.79643,0.025498,-0.001245,0.05,-0.490012,0.139133,-1.797387,0.857342,-275.098993,-0.889094,50.996204
14.778,0.006669,0.024696,-1.797901,0.02546,-0.001283,0.05,-0.49011,0.138723,-1.796596,0.857342,-275.098993,-0.889094,50.996204
14.798,0.006895,0.024794,-1.797586,0.025563,-0.000937,0.05,-0.49011,0.138723,-1.796596,0.857342,-275.098993,-0.889094,50.996204
14.8179,0.007121,0.024664,-1.793725,0.02571,-0.001144,0.05,-0.490386,0.138273,-1.795158,0.851764,-275.083494,-0.894637,51.012517
14.8381,0.00684,0.024437,-1.794209,0.025628,-0.001491,0.05,-0.490386,0.138184,-1.794998,0.851764,-275.083494,-0.894637,51.012517
14.8581,0.006859,0.024469,-1.791742,0.025345,-0.001256,0.05,-0.490737,0.13648,-1.792284,0.858455,-275.067862,-0.888669,51.028723
14.8781,0.007194,0.024412,-1.791341,0.025378,-0.00133,0.05,-0.490772,0.13622,-1.791729,0.858455,-275.067862,-0.888669,51.028723
14.8982,0.006773,0.024678,-1.792047,0.025394,-0.00168,0.05,-0.490772,0.13622,-1.791729,0.858455,-275.067862,-0.888669,51.028723
14.9182,0.006902,0.024507,-1.789546,0.025563,-0.001193,0.05,-0.491136,0.135404,-1.789628,0.847833,-275.052436,-0.895961,51.045059
14.9378,0.006741,0.024824,-1.790007,0.02542,-0.00142,0.05,-0.491132,0.135356,-1.789557,0.847833,-275.052436,-0.895961,51.045059
14.9581,0.00644,0.024527,-1.787605,0.025696,-0.001181,0.05,-0.49133,0.134786,-1.78808,0.849149,-275.037013,-0.90328,51.061518
14.9779,0.006576,0.024304,-1.785468,0.025339,-0.001013,0.05,-0.491533,0.134348,-1.787561,0.849149,-275.037013,-0.90328,51.061518
14.998,0.006482,0.024761,-1.78762,0.025147,-0.001248,0.05,-0.491533,0.134348,-1.787561,0.849149,-275.037013,-0.90328,51.061518
15.0179,0.006769,0.02464,-1.784888,0.025576,-0.001003,0.05,-0.491907,0.13329,-1.785201,0.853091,-275.021622,-0.898833,51.077777
15.0382,0.00637,0.024735,-1.782805,0.025515,-0.00138,0.05,-0.491894,0.133238,-1.785114,0.853091,-275.021622,-0.898833,51.077777
15.0581,0.006461,0.024792,-1.782128,0.025522,-0.001023,0.05,-0.492461,0.131112,-1.780875,0.861352,-275.006199,-0.901477,51.09397
15.0779,0.006558,0.024425,-1.783384,0.025596,-0.001117,0.05,-0.49234,0.131368,-1.781344,0.861352,-275.006199,-0.901477,51.09397
15.098,0.006841,0.024623,-1.780739,0.025259,-0.001257,0.05,-0.49234,0.131368,-1.781344,0.861352,-275.006199,-0.901477,51.09397
15.1179,0.006275,0.024625,-1.778828,0.025508,-0.001559,0.05,-0.492283,0.129711,-1.778311,0.851926,-274.990709,-0.896409,51.110307
15.138,0.006542,0.024304,-1.778737,0.02539,-0.001053,0.05,-0.492324,0.129696,-1.778282,0.851926,-274.990709,-0.896409,51.110307
15.1584,0.006433,0.024484,-1.777188,0.025131,-0.001384,0.05,-0.492719,0.128649,-1.776809,0.85901,-274.975275,-0.899456,51.126513
15.1784,0.006306,0.024825,-1.777693,0.025282,-0.001279,0.05,-0.492764,0.128727,-1.776779,0.85901,-274.975275,-0.899456,51.126513
15.1978,0.006304,0.024436,-1.777336,0.025591,-0.001072,0.05,-0.492764,0.128727,-1.776779,0.85901,-274.975275,-0.899456,51.126513
15.2182,0.006192,0.024817,-1.775689,0.02521,-0.001159,0.05,-0.493158,0.127827,-1.774908,0.859859,-274.959695,-0.893787,51.142743
15.2381,0.006424,0.024691,-1.77448,0.025558,-0.001013,0.05,-0.493165,0.12785,-1.774897,0.859859,-274.959695,-0.893787,51.142743
15.258,0.006254,0.02443,-1.772971,0.02548,-0.001297,0.05,-0.493272,0.126895,-1.772554,0.855654,-274.944117,-0.890231,51.158976
15.278,0.006694,0.024521,-1.773321,0.025188,-0.001221,0.05,-0.493351,0.12674,-1.772543,0.855654,-274.944117,-0.890231,51.158976
15.2984,0.006123,0.024666,-1.772388,0.025366,-0.001625,0.05,-0.493351,0.12674,-1.772543,0.855654,-274.944117,-0.890231,51.158976
15.3179,0.006185,0.024703,-1.769466,0.025392,-0.00106,0.05,-0.493845,0.125575,-1.769958,0.857284,-274.928478,-0.889959,51.175237
15.3383,0.006423,0.024935,-1.77069,0.025438,-0.001188,0.05,-0.493848,0.125526,-1.769855,0.857284,-274.928478,-0.889959,51.175237
15.3579,0.006326,0.024557,-1.766374,0.025713,-0.001344,0.05,-0.493676,0.125259,-1.768769,0.850641,-274.913165,-0.902986,51.191545
