mach0312/omni-docking-bench/src/icros_test_setup/results/kinematic_sample/timeseries/trial_090.csv
t,x,y,yaw,vx,vy,wz,bl_x,bl_y,bl_yaw,front_steering_joint,front_wheel_joint,rear_steering_joint,rear_wheel_joint
0.0,-0.028467,0.018524,0.085538,0.014186,0.0007,0.00634,0.01297,-0.489733,0.083625,0.311775,-264.392885,-0.220013,62.20661
0.0004,-0.028053,0.018896,0.086094,0.009356,0.000462,0.004182,0.01297,-0.489733,0.083625,0.311775,-264.386346,-0.220013,62.212987
0.0007,-0.028393,0.018633,0.087884,0.008264,0.000408,0.003694,0.014664,-0.489569,0.085484,0.311775,-264.380398,-0.220013,62.218789
0.0011,-0.027783,0.018382,0.086256,0.00709,0.00035,0.003169,0.014664,-0.489569,0.085484,0.311775,-264.374956,-0.220013,62.224096
0.0014,-0.027861,0.018942,0.087447,0.005835,0.000288,0.002608,0.014666,-0.489566,0.085492,0.311775,-264.370595,-0.220013,62.228349
0.0017,-0.02777,0.018666,0.085768,0.004499,0.000222,0.002011,0.014666,-0.489566,0.085492,0.311775,-264.367123,-0.220013,62.231735
0.002,-0.027431,0.019177,0.087363,0.00308,0.000152,0.001376,0.015573,-0.489524,0.08687,0.311775,-264.365236,-0.220013,62.233576
0.0022,-0.027121,0.018701,0.085434,0.001582,7.8e-05,0.000707,0.015247,-0.489634,0.086584,0.311775,-264.365236,-0.220013,62.233576
0.0025,-0.026951,0.019105,0.085302,0.0,0.0,0.0,0.015247,-0.489634,0.086584,0.311775,-264.365236,-0.220013,62.233576
0.0027,-0.027076,0.018838,0.087778,0.0,0.0,0.0,0.015247,-0.489634,0.086584,0.311775,-264.365236,-0.220013,62.233576
0.0059,-0.027034,0.018953,0.085398,0.0,0.0,0.0,0.016552,-0.489199,0.085402,0.311775,-264.365236,-0.220013,62.233576
0.0248,-0.026801,0.01869,0.085659,0.016,-0.016,-0.03,0.016542,-0.489178,0.085432,0.311775,-264.364572,-0.220013,62.234224
0.0449,-0.027111,0.018543,0.086237,0.025104,-0.020915,-0.05,0.016559,-0.489191,0.085445,0.311775,-264.364572,-0.220013,62.234224
0.0648,-0.027092,0.019071,0.086595,0.025413,-0.020809,-0.05,0.016815,-0.489562,0.086237,0.311775,-264.364572,-0.220013,62.234224
0.0847,-0.027122,0.018681,0.088294,0.025341,-0.021343,-0.05,0.01693,-0.489251,0.086441,0.311775,-264.364572,-0.220013,62.234224
0.1052,-0.027288,0.018581,0.086096,0.025369,-0.021,-0.05,0.01693,-0.489251,0.086441,0.311775,-264.364572,-0.220013,62.234224
0.1252,-0.026824,0.018901,0.085632,0.025589,-0.020859,-0.05,0.016566,-0.48953,0.086096,0.236726,-264.364572,-0.144964,62.234224
0.1451,-0.027278,0.018727,0.085815,0.025109,-0.021126,-0.05,0.016582,-0.489509,0.086064,0.236726,-264.364572,-0.144964,62.234224
0.1646,-0.02727,0.018983,0.086046,0.025572,-0.020996,-0.05,0.016434,-0.489397,0.085815,0.161306,-264.364571,-0.069544,62.234224
0.1848,-0.027005,0.018595,0.086765,0.025538,-0.021257,-0.05,0.016506,-0.489243,0.085948,0.161306,-264.364571,-0.069544,62.234224
0.2048,-0.027193,0.018897,0.085759,0.025293,-0.020865,-0.05,0.016506,-0.489243,0.085948,0.161306,-264.364571,-0.069544,62.234224
0.2246,-0.02701,0.019022,0.087812,0.025474,-0.021156,-0.05,0.016491,-0.489229,0.085759,0.086498,-264.364571,0.005265,62.234224
0.2449,-0.026986,0.018878,0.086948,0.025238,-0.021317,-0.05,0.016576,-0.489214,0.085901,0.086498,-264.364571,0.005265,62.234224
0.2647,-0.027184,0.018788,0.087518,0.025245,-0.02115,-0.05,0.017301,-0.489196,0.086948,0.011785,-264.364571,0.079978,62.234224
0.2848,-0.027337,0.018973,0.085452,0.025438,-0.021092,-0.05,0.017354,-0.489233,0.087273,0.011785,-264.364571,0.079978,62.234224
0.3046,-0.027046,0.018517,0.086411,0.025618,-0.021237,-0.05,0.017354,-0.489233,0.087273,0.011785,-264.364571,0.079978,62.234224
0.3245,-0.027172,0.018991,0.08671,0.025347,-0.020782,-0.05,0.016969,-0.48958,0.086411,-0.063352,-264.36457,0.155115,62.234225
0.3447,-0.027079,0.018867,0.086484,0.025425,-0.021273,-0.05,0.016971,-0.489546,0.086432,-0.063352,-264.36457,0.155115,62.234225
0.3649,-0.027249,0.018935,0.085344,0.025348,-0.021135,-0.05,0.016973,-0.489227,0.086484,-0.138219,-264.364569,0.229982,62.234225
0.3849,-0.027301,0.019053,0.086293,0.025535,-0.021189,-0.05,0.016548,-0.489217,0.085838,-0.138219,-264.364569,0.229982,62.234225
0.4047,-0.027071,0.018787,0.085576,0.025558,-0.021335,-0.05,0.016548,-0.489217,0.085838,-0.138219,-264.364569,0.229982,62.234225
0.4248,-0.027189,0.018302,0.086746,0.025366,-0.021032,-0.05,0.01652,-0.489346,0.085576,-0.213374,-264.364567,0.305137,62.234226
0.4451,-0.026981,0.018944,0.085754,0.025501,-0.020589,-0.05,0.016552,-0.489375,0.085654,-0.213374,-264.364567,0.305137,62.234226
0.4649,-0.027376,0.018616,0.087914,0.02526,-0.021185,-0.05,0.0167,-0.489182,0.085754,-0.288215,-264.364565,0.345608,62.234227
0.4847,-0.027108,0.018546,0.086266,0.025635,-0.020948,-0.05,0.017096,-0.489313,0.086972,-0.288215,-264.364565,0.345608,62.234227
0.5047,-0.026757,0.018869,0.086716,0.02541,-0.020813,-0.05,0.017096,-0.489313,0.086972,-0.288215,-264.364565,0.345608,62.234227
0.5256,-0.027016,0.018804,0.08723,0.025023,-0.021115,-0.05,0.017412,-0.489215,0.086715,-0.363309,-264.364563,0.371973,62.234228
0.5451,-0.027373,0.018827,0.087657,0.025275,-0.021086,-0.05,0.017412,-0.489218,0.086751,-0.363309,-264.364563,0.371973,62.234228
0.565,-0.02699,0.018753,0.086252,0.02562,-0.021151,-0.05,0.017275,-0.489215,0.087657,-0.438212,-264.364559,0.365516,62.23423
0.5849,-0.02672,0.018676,0.085034,0.025274,-0.021009,-0.05,0.017085,-0.489293,0.086852,-0.438212,-264.364559,0.365516,62.23423
0.605,-0.026951,0.018836,0.085867,0.025037,-0.020878,-0.05,0.017085,-0.489293,0.086852,-0.438212,-264.364559,0.365516,62.23423
0.625,-0.027259,0.019119,0.087135,0.025236,-0.021078,-0.05,0.016789,-0.489285,0.085867,-0.513393,-264.364549,0.357846,62.234235
0.6454,-0.026971,0.019141,0.083703,0.025492,-0.021418,-0.05,0.016812,-0.489261,0.085956,-0.513393,-264.364549,0.357846,62.234235
0.6646,-0.027022,0.018616,0.085721,0.025277,-0.021329,-0.05,0.015671,-0.489074,0.083701,-0.588221,-264.364502,0.368227,62.234257
0.6847,-0.027151,0.018785,0.087054,0.025329,-0.020861,-0.05,0.01623,-0.489325,0.084862,-0.588221,-264.364502,0.368227,62.234257
0.705,-0.027212,0.019083,0.085564,0.025415,-0.021075,-0.05,0.01623,-0.489325,0.084862,-0.588221,-264.364502,0.368227,62.234257
0.7248,-0.027154,0.018719,0.086149,0.025482,-0.021339,-0.05,0.016389,-0.489056,0.085547,-0.663383,-264.364283,0.343545,62.234359
0.745,-0.026734,0.018453,0.086455,0.025442,-0.020986,-0.05,0.01641,-0.489077,0.085584,-0.663383,-264.364283,0.343545,62.234359
0.7647,-0.027079,0.018918,0.086756,0.025041,-0.020693,-0.05,0.017351,-0.489658,0.086402,-0.738223,-264.36348,0.356432,62.234738
0.7847,-0.027045,0.019177,0.086084,0.025338,-0.021193,-0.05,0.01722,-0.489378,0.086597,-0.738223,-264.36348,0.356432,62.234738
0.8048,-0.027081,0.018682,0.085272,0.025296,-0.021431,-0.05,0.01722,-0.489378,0.086597,-0.738223,-264.36348,0.356432,62.234738
0.8246,-0.026807,0.018929,0.085726,0.025391,-0.020921,-0.05,0.016521,-0.48953,0.085065,-0.813262,-264.361155,0.359127,62.235837
0.8449,-0.02663,0.018531,0.085939,0.025088,-0.021155,-0.05,0.016549,-0.489509,0.085106,-0.813262,-264.361155,0.359127,62.235837
0.8646,-0.026022,0.018774,0.085974,0.024941,-0.020748,-0.05,0.017411,-0.489707,0.085579,-0.888218,-264.356333,0.345545,62.238211
0.8846,-0.026268,0.018551,0.085371,0.024314,-0.020939,-0.05,0.017649,-0.489515,0.085758,-0.888218,-264.356333,0.345545,62.238211
0.9047,-0.026464,0.01899,0.08441,0.024591,-0.020723,-0.05,0.017649,-0.489515,0.085758,-0.888218,-264.356333,0.345545,62.238211
0.9246,-0.02542,0.018438,0.085257,0.024769,-0.021153,-0.05,0.017067,-0.48942,0.083652,-0.963217,-264.349009,0.357878,62.242735
0.945,-0.02521,0.018439,0.083905,0.023758,-0.020535,-0.05,0.01714,-0.489444,0.083735,-0.963217,-264.349009,0.357878,62.242735
0.965,-0.024114,0.018345,0.085467,0.023576,-0.020487,-0.05,0.018106,-0.490004,0.083032,-1.038209,-264.339148,0.379748,62.249716
0.9846,-0.024049,0.018234,0.085118,0.02246,-0.020336,-0.05,0.018936,-0.489913,0.084322,-1.038209,-264.339148,0.379748,62.249716
1.0047,-0.024018,0.018141,0.084411,0.022412,-0.020212,-0.05,0.018936,-0.489913,0.084322,-1.038209,-264.339148,0.379748,62.249716
1.0251,-0.022603,0.018142,0.08119,0.022403,-0.020102,-0.05,0.019837,-0.490435,0.082976,-1.113511,-264.326864,0.398486,62.258494
1.0452,-0.022153,0.017803,0.084123,0.021057,-0.019915,-0.05,0.019785,-0.490428,0.082814,-1.113511,-264.326864,0.398486,62.258494
1.0647,-0.020485,0.017646,0.080435,0.020578,-0.019601,-0.05,0.021439,-0.490798,0.082738,-1.154933,-264.311975,0.431717,62.26797
1.0848,-0.020237,0.017414,0.081032,0.019001,-0.019235,-0.05,0.020983,-0.490795,0.081228,-1.154933,-264.311975,0.431717,62.26797
1.105,-0.020587,0.017654,0.08042,0.018761,-0.018995,-0.05,0.020983,-0.490795,0.081228,-1.154933,-264.311975,0.431717,62.26797
1.1248,-0.018817,0.017214,0.07755,0.019103,-0.01925,-0.05,0.021337,-0.491342,0.078426,-1.175405,-264.294717,0.4672,62.277114
1.1446,-0.018447,0.016534,0.079117,0.017427,-0.01862,-0.05,0.021317,-0.491353,0.078312,-1.175405,-264.294717,0.4672,62.277114
1.1646,-0.016519,0.016066,0.077408,0.017082,-0.01794,-0.05,0.022546,-0.492465,0.077431,-1.208731,-264.276146,0.541869,62.284837
1.1846,-0.016212,0.016203,0.077305,0.015228,-0.017295,-0.05,0.022846,-0.492507,0.077204,-1.208731,-264.276146,0.541869,62.284837
1.2047,-0.016522,0.015899,0.075398,0.014913,-0.017407,-0.05,0.022846,-0.492507,0.077204,-1.208731,-264.276146,0.541869,62.284837
1.2245,-0.014257,0.015229,0.074655,0.015278,-0.017098,-0.05,0.022752,-0.493442,0.073113,-1.230115,-264.256496,0.599809,62.292791
1.2452,-0.014305,0.015225,0.073719,0.013082,-0.01625,-0.05,0.022852,-0.493457,0.073162,-1.230115,-264.256496,0.599809,62.292791
1.2651,-0.012791,0.014661,0.072693,0.013144,-0.016237,-0.05,0.023748,-0.493884,0.072248,-1.269241,-264.241062,0.674901,62.298899
1.2847,-0.012695,0.01505,0.072174,0.011692,-0.015552,-0.05,0.024094,-0.494007,0.072314,-1.269241,-264.241062,0.674901,62.298899
1.3055,-0.012689,0.01515,0.070628,0.011577,-0.015927,-0.05,0.024094,-0.494007,0.072314,-1.269241,-264.241062,0.674901,62.298899
1.3247,-0.011042,0.014685,0.068911,0.011589,-0.016008,-0.05,0.023783,-0.494094,0.069025,-1.298161,-264.227966,0.749939,62.304121
1.3452,-0.011349,0.014704,0.069517,0.010004,-0.015411,-0.05,0.023821,-0.49411,0.068968,-1.298161,-264.227966,0.749939,62.304121
1.3646,-0.009876,0.014142,0.06872,0.0103,-0.015456,-0.05,0.024424,-0.494473,0.068222,-1.32661,-264.214878,0.825138,62.309216
1.3847,-0.009969,0.014071,0.070219,0.008881,-0.014786,-0.05,0.024881,-0.494629,0.068343,-1.32661,-264.214878,0.825138,62.309216
1.4049,-0.009896,0.013872,0.069868,0.008957,-0.014736,-0.05,0.024881,-0.494629,0.068343,-1.32661,-264.214878,0.825138,62.309216
1.425,-0.008704,0.013535,0.067587,0.008904,-0.014529,-0.05,0.026077,-0.49536,0.068313,-1.35641,-264.202695,0.899945,62.313914
1.4452,-0.008829,0.013463,0.068256,0.00777,-0.014092,-0.05,0.026065,-0.495368,0.06823,-1.35641,-264.202695,0.899945,62.313914
1.4653,-0.007747,0.01308,0.066051,0.00789,-0.014034,-0.05,0.026231,-0.495727,0.066963,-1.375468,-264.190231,0.974808,62.31882
1.485,-0.007659,0.013015,0.066559,0.006867,-0.013563,-0.05,0.026087,-0.49582,0.066285,-1.375468,-264.190231,0.974808,62.31882
1.505,-0.00747,0.013094,0.066758,0.006777,-0.013496,-0.05,0.026087,-0.49582,0.066285,-1.375468,-264.190231,0.974808,62.31882
1.5247,-0.006322,0.012644,0.063508,0.00658,-0.013563,-0.05,0.026858,-0.496225,0.065134,-1.398414,-264.177992,1.049815,62.323734
1.5446,-0.006261,0.012438,0.063423,0.005507,-0.013019,-0.05,0.02681,-0.496244,0.064978,-1.398414,-264.177992,1.049815,62.323734
1.5648,-0.005107,0.012484,0.06257,0.00546,-0.01281,-0.05,0.02629,-0.496904,0.06205,-1.418094,-264.16521,1.124813,62.328996
1.5849,-0.005411,0.012275,0.061717,0.004316,-0.012779,-0.05,0.026599,-0.496731,0.062171,-1.418094,-264.16521,1.124813,62.328996
1.6047,-0.005322,0.012051,0.062061,0.004644,-0.012585,-0.05,0.026599,-0.496731,0.062171,-1.418094,-264.16521,1.124813,62.328996
1.6248,-0.004527,0.011936,0.058181,0.004564,-0.012358,-0.05,0.026549,-0.497414,0.060329,-1.445032,-264.152619,1.199801,62.334262
1.6447,-0.004087,0.011954,0.060873,0.003825,-0.012179,-0.05,0.026458,-0.497411,0.060136,-1.445032,-264.152619,1.199801,62.334262
1.6646,-0.002694,0.011314,0.057927,0.003353,-0.012181,-0.05,0.027116,-0.497481,0.059341,-1.463521,-264.13879,1.274811,62.340175
1.6848,-0.003171,0.011422,0.05706,0.002035,-0.011451,-0.05,0.026976,-0.497729,0.058337,-1.463521,-264.13879,1.274811,62.340175
1.7051,-0.003073,0.011424,0.057478,0.002514,-0.011585,-0.05,0.026976,-0.497729,0.058337,-1.463521,-264.13879,1.274811,62.340175
1.7252,-0.001681,0.011121,0.056505,0.002412,-0.011581,-0.05,0.026421,-0.498241,0.055359,-1.481494,-264.123849,1.349934,62.346707
1.7446,-0.001829,0.011121,0.055084,0.001051,-0.011199,-0.05,0.026472,-0.498243,0.055381,-1.481494,-264.123849,1.349934,62.346707
1.7648,-0.000124,0.010625,0.054809,0.001214,-0.011205,-0.05,0.026359,-0.49849,0.053407,-1.511175,-264.109187,1.424823,62.35335
1.7848,-0.000447,0.009888,0.054402,-0.000458,-0.010615,-0.05,0.027203,-0.498607,0.053993,-1.511175,-264.109187,1.424823,62.35335
1.805,-0.000295,0.010159,0.051694,-0.000458,-0.010615,-0.05,0.027203,-0.498607,0.053993,-1.511175,-264.109187,1.424823,62.35335
1.8251,0.000628,0.010024,0.051063,-2e-06,-0.0001,0.0,0.026131,-0.499624,0.049612,-1.545628,-264.094838,1.499864,62.360007
1.8448,0.00088,0.010057,0.051047,-2e-06,-0.0001,0.0,0.026173,-0.499613,0.049661,-1.545628,-264.094838,1.499864,62.360007
1.8645,0.001922,0.009823,0.049807,-2e-06,-0.0001,0.0,0.026912,-0.499626,0.049412,-1.581931,-264.080861,1.574987,62.366775
1.8849,0.002112,0.009425,0.049051,-2e-06,-0.0001,0.0,0.027143,-0.499623,0.04943,-1.581931,-264.080861,1.574987,62.366775
1.9049,0.001803,0.009808,0.049905,-2e-06,-0.0001,0.0,0.027143,-0.499623,0.04943,-1.581931,-264.080861,1.574987,62.366775
1.9249,0.002072,0.009518,0.049016,-2e-06,-0.0001,0.0,0.027251,-0.499802,0.049511,-1.593479,-264.076861,1.548114,62.366735
1.9452,0.002261,0.009389,0.046872,-2e-06,-0.0001,0.0,0.027238,-0.499813,0.049467,-1.593479,-264.076861,1.548114,62.366735
1.9647,0.001849,0.009645,0.049096,-2e-06,-0.0001,0.0,0.026157,-0.500055,0.046872,-1.593479,-264.076821,1.548114,62.366695
1.9848,0.00228,0.009157,0.04762,-2e-06,-0.0001,0.0,0.026571,-0.499875,0.048147,-1.593479,-264.076821,1.548114,62.366695
2.0048,0.002021,0.00964,0.05034,-2e-06,-0.0001,0.0,0.026571,-0.499875,0.048147,-1.593479,-264.076821,1.548114,62.366695
2.0252,0.001941,0.009293,0.051026,-0.0,-1e-06,-6e-06,0.027684,-0.499719,0.05034,-1.593479,-264.076781,1.548114,62.366655
2.0452,0.002398,0.009126,0.048937,-3.4e-05,-0.001486,-0.007558,0.027702,-0.499742,0.050387,-1.593479,-264.076781,1.548114,62.366655
2.0647,0.002235,0.009263,0.049341,-6.6e-05,-0.002895,-0.01473,0.027346,-0.500267,0.048937,-1.593479,-264.076741,1.548114,62.366615
2.0847,0.002273,0.009397,0.04883,-9.6e-05,-0.004227,-0.021508,0.02737,-0.500183,0.049164,-1.593479,-264.076741,1.548114,62.366615
2.1048,0.00201,0.009557,0.051196,-0.000124,-0.005485,-0.027909,0.02737,-0.500183,0.049164,-1.593479,-264.076741,1.548114,62.366615
2.1249,0.002211,0.009591,0.049026,-0.000151,-0.006667,-0.03392,0.02811,-0.499846,0.050836,-1.57632,-264.074355,1.581561,62.367839
2.1446,0.002316,0.00956,0.047516,-0.000176,-0.007772,-0.039541,0.028051,-0.499844,0.050708,-1.57632,-264.074355,1.581561,62.367839
2.1651,0.00267,0.009246,0.050105,-0.0002,-0.008802,-0.044781,0.026539,-0.49992,0.046835,-1.57632,-264.069465,1.581561,62.371566
2.1852,0.002549,0.009038,0.048047,-0.000221,-0.009752,-0.049614,0.027494,-0.500038,0.048614,-1.57632,-264.069465,1.581561,62.371566
2.2049,0.002564,0.009731,0.047449,-0.000241,-0.01063,-0.054082,0.027494,-0.500038,0.048614,-1.57632,-264.069465,1.581561,62.371566
2.2248,0.003314,0.009487,0.046232,-0.000259,-0.011434,-0.058171,0.026751,-0.499766,0.046094,-1.57632,-264.062074,1.581561,62.377795
2.2452,0.00354,0.009325,0.046495,-0.000276,-0.012155,-0.061841,0.02676,-0.499781,0.046068,-1.57632,-264.062074,1.581561,62.377795
2.2648,0.004589,0.009478,0.04351,-0.00029,-0.012802,-0.065132,0.027239,-0.50018,0.045025,-1.57632,-264.052183,1.581561,62.386524
2.2849,0.004336,0.008976,0.04374,-0.000303,-0.013373,-0.068039,0.026971,-0.500106,0.04397,-1.57632,-264.052183,1.581561,62.386524
2.3046,0.004627,0.009233,0.044066,-0.000315,-0.013868,-0.070559,0.026971,-0.500106,0.04397,-1.57632,-264.052183,1.581561,62.386524
2.3246,0.005647,0.009163,0.04118,-0.000324,-0.014288,-0.072692,0.027089,-0.500403,0.041819,-1.57632,-264.039817,1.581561,62.396751
2.3452,0.005763,0.00915,0.042477,-0.000332,-0.014632,-0.074442,0.027058,-0.500406,0.041715,-1.57632,-264.039817,1.581561,62.396751
2.3646,0.007067,0.009091,0.039746,-0.000338,-0.014899,-0.075801,0.027416,-0.500545,0.040374,-1.57632,-264.024911,1.581561,62.408459
2.3846,0.00692,0.00946,0.039958,-0.000342,-0.015089,-0.07677,0.027368,-0.500543,0.039749,-1.57632,-264.024911,1.581561,62.408459
2.4048,0.007203,0.009246,0.039055,-0.000345,-0.015203,-0.077347,0.027368,-0.500543,0.039749,-1.57632,-264.024911,1.581561,62.408459
2.4252,0.00859,0.008629,0.036515,-0.000346,-0.015241,-0.07754,0.027113,-0.500672,0.036104,-1.57632,-264.007442,1.581561,62.420851
2.4452,0.008359,0.008542,0.036719,-0.000345,-0.015202,-0.077346,0.027121,-0.500713,0.036043,-1.57632,-264.007442,1.581561,62.420851
2.4648,0.010255,0.008767,0.034893,-0.000342,-0.015088,-0.076765,0.027082,-0.501454,0.034152,-1.57632,-263.987664,1.581561,62.433587
2.4847,0.010354,0.008401,0.032122,-0.000338,-0.014897,-0.075792,0.027631,-0.501195,0.034246,-1.57632,-263.987664,1.581561,62.433587
2.5048,0.010488,0.008155,0.031941,-0.000332,-0.01463,-0.074436,0.027631,-0.501195,0.034246,-1.57632,-263.987664,1.581561,62.433587
2.525,0.01182,0.007876,0.029327,-0.000324,-0.014288,-0.072693,0.026777,-0.502167,0.028438,-1.57632,-263.96528,1.581561,62.446402
2.5447,0.012222,0.007686,0.030444,-0.000315,-0.01387,-0.070566,0.026777,-0.502165,0.028407,-1.57632,-263.96528,1.581561,62.446402
2.5649,0.013866,0.006982,0.026592,-0.000303,-0.01337,-0.068024,0.02775,-0.502643,0.027569,-1.57632,-263.941204,1.581561,62.458755
2.5853,0.014263,0.007492,0.026979,-0.00029,-0.012803,-0.065139,0.027565,-0.502826,0.026645,-1.57632,-263.941204,1.581561,62.458755
2.6047,0.014188,0.007305,0.026622,-0.000276,-0.012156,-0.061845,0.027565,-0.502826,0.026645,-1.57632,-263.941204,1.581561,62.458755
2.6247,0.015725,0.006691,0.022776,-0.000259,-0.011429,-0.05815,0.027765,-0.503187,0.023198,-1.57632,-263.91834,1.581561,62.470487
2.6446,0.015848,0.006567,0.022446,-0.000241,-0.010631,-0.054087,0.02773,-0.503207,0.023056,-1.57632,-263.91834,1.581561,62.470487
2.6646,0.017297,0.006019,0.018709,-0.000221,-0.009754,-0.049624,0.027293,-0.503771,0.020072,-1.57632,-263.898427,1.581561,62.480704
2.6853,0.017366,0.006014,0.019047,-0.0002,-0.008801,-0.044777,0.027032,-0.5039,0.018987,-1.57632,-263.898427,1.581561,62.480704
2.7048,0.017052,0.005938,0.018295,-0.000176,-0.007775,-0.039555,0.027032,-0.5039,0.018987,-1.57632,-263.898427,1.581561,62.480704
2.7249,0.01856,0.005185,0.016839,-0.000151,-0.006667,-0.033917,0.026379,-0.504494,0.015665,-1.57632,-263.88096,1.581561,62.489666
2.7451,0.018932,0.005562,0.014599,-0.000124,-0.005488,-0.02792,0.026432,-0.504524,0.015677,-1.57632,-263.88096,1.581561,62.489666
2.7647,0.020118,0.005324,0.014291,-9.5e-05,-0.004201,-0.021376,0.026375,-0.504684,0.013072,-1.57632,-263.86819,1.581561,62.496219
2.7847,0.019496,0.005079,0.014548,-6.6e-05,-0.002889,-0.014698,0.026965,-0.504687,0.013577,-1.57632,-263.86819,1.581561,62.496219
2.8051,0.019763,0.004948,0.013824,-3.4e-05,-0.001488,-0.007571,0.026965,-0.504687,0.013577,-1.57632,-263.86819,1.581561,62.496219
2.8248,0.020464,0.00523,0.014914,0.0,0.0,0.0,0.02681,-0.505269,0.012468,-1.57632,-263.85919,1.581561,62.500836
2.8449,0.020731,0.004626,0.014181,0.0,0.0,0.0,0.026895,-0.505239,0.012597,-1.57632,-263.85919,1.581561,62.500836
2.8646,0.020428,0.004819,0.013808,0.0,0.0,0.0,0.027962,-0.50538,0.013888,-1.57632,-263.856745,1.581561,62.502091
2.8849,0.020528,0.004871,0.013669,0.0,0.0,0.0,0.027681,-0.505246,0.013806,-1.57632,-263.856745,1.581561,62.502091
2.9046,0.020758,0.00452,0.011995,0.0,0.0,0.0,0.027681,-0.505246,0.013806,-1.57632,-263.856745,1.581561,62.502091
2.9246,0.020873,0.004631,0.012221,0.0,0.0,0.0,0.026875,-0.505443,0.011995,-1.57632,-263.856745,1.581561,62.502091
2.9446,0.020803,0.0047,0.010976,0.0,0.0,0.0,0.026891,-0.505435,0.012011,-1.57632,-263.856745,1.581561,62.502091
2.9647,0.020729,0.004831,0.013117,0.0,0.0,0.0,0.026401,-0.505269,0.010976,-1.57632,-263.856745,1.581561,62.502091
2.9847,0.021,0.005222,0.012715,0.0,0.0,0.0,0.026979,-0.505187,0.012193,-1.57632,-263.856745,1.581561,62.502091
3.0047,0.020707,0.004329,0.011741,0.0,0.0,0.0,0.026979,-0.505187,0.012193,-1.57632,-263.856745,1.581561,62.502091
3.0255,0.020584,0.004696,0.012528,0.0,0.0,0.0,0.026695,-0.505636,0.011741,-1.57632,-263.856745,1.581561,62.502091
3.0449,0.020635,0.004524,0.013791,-9.8e-05,-2.1e-05,0.0,0.026715,-0.505609,0.011798,-1.57632,-263.856745,1.581561,62.502091
3.065,0.020564,0.004858,0.0132,-9.8e-05,-2.1e-05,0.0,0.027668,-0.505428,0.013791,-1.57632,-263.856745,1.581561,62.502091
3.0848,0.020669,0.005224,0.012212,-9.8e-05,-2.1e-05,0.0,0.027456,-0.505239,0.013454,-1.57632,-263.856745,1.581561,62.502091
3.105,0.02064,0.004847,0.012594,-9.8e-05,-2.1e-05,0.0,0.027456,-0.505239,0.013454,-1.57632,-263.856745,1.581561,62.502091
3.1247,0.020453,0.004738,0.012546,-9.8e-05,-2.1e-05,0.0,0.027063,-0.505112,0.012594,-1.501373,-263.856745,1.506615,62.502091
3.1446,0.020758,0.004637,0.012317,-9.8e-05,-2.1e-05,0.0,0.027047,-0.505121,0.01259,-1.501373,-263.856745,1.506615,62.502091
3.1646,0.020592,0.004582,0.013286,-9.8e-05,-2.1e-05,0.0,0.027039,-0.505324,0.012317,-1.42616,-263.856745,1.431402,62.502091
3.1847,0.020498,0.004665,0.013865,-9.8e-05,-2.1e-05,0.0,0.027229,-0.505352,0.012875,-1.42616,-263.856745,1.431402,62.502091
3.2047,0.020956,0.004849,0.011647,-9.8e-05,-2.1e-05,0.0,0.027229,-0.505352,0.012875,-1.42616,-263.856745,1.431402,62.502091
3.2249,0.020703,0.004741,0.014116,-9.8e-05,-2.1e-05,0.0,0.026896,-0.505116,0.011647,-1.351203,-263.856745,1.356445,62.502091
3.245,0.020478,0.004427,0.013472,-9.8e-05,-2.1e-05,0.0,0.026969,-0.505123,0.011827,-1.351203,-263.856745,1.356445,62.502091
3.2651,0.02075,0.004918,0.012001,-0.003016,-0.000649,-0.001831,0.027349,-0.505527,0.013472,-1.276364,-263.856745,1.281606,62.502091
3.2847,0.020768,0.00476,0.012836,-0.005883,-0.001265,-0.003571,0.027074,-0.50525,0.012628,-1.276364,-263.856745,1.281606,62.502091
3.3049,0.020745,0.004711,0.012747,-0.008599,-0.001849,-0.005219,0.027074,-0.50525,0.012628,-1.276364,-263.856745,1.281606,62.502091
3.3247,0.020498,0.004641,0.013244,-0.011154,-0.002398,-0.00677,0.027246,-0.505247,0.012747,-1.20132,-263.856745,1.206561,62.502091
3.345,0.020805,0.004542,0.012833,-0.013546,-0.002913,-0.008221,0.027247,-0.505252,0.012782,-1.20132,-263.856745,1.206561,62.502091
3.3651,0.020753,0.005021,0.012538,-0.015792,-0.003395,-0.009584,0.02735,-0.505416,0.012833,-1.126346,-263.856745,1.131587,62.502091
3.3847,0.020519,0.004568,0.013686,-0.017882,-0.003845,-0.010853,0.027234,-0.505143,0.012664,-1.126346,-263.856745,1.131587,62.502091
3.4058,0.020628,0.004574,0.013228,-0.019814,-0.00426,-0.012026,0.027234,-0.505143,0.012664,-1.126346,-263.856745,1.131587,62.502091
3.425,0.020466,0.004774,0.013425,-0.021596,-0.004644,-0.013107,0.027374,-0.505382,0.013228,-1.051363,-263.856745,1.056605,62.502091
3.4447,0.02052,0.004495,0.011194,-0.023221,-0.004993,-0.014093,0.02737,-0.505366,0.013243,-1.051363,-263.856745,1.056605,62.502091
3.4648,0.020531,0.004729,0.013754,-0.024693,-0.00531,-0.014987,0.026229,-0.505473,0.011194,-0.976043,-263.856745,0.981285,62.502091
3.485,0.020606,0.004757,0.012293,-0.026011,-0.005593,-0.015786,0.026977,-0.505331,0.012648,-0.976043,-263.856745,0.981285,62.502091
3.5053,0.020961,0.004429,0.012539,-0.02717,-0.005842,-0.01649,0.026977,-0.505331,0.012648,-0.976043,-263.856745,0.981285,62.502091
3.5246,0.020808,0.004683,0.012894,-0.02818,-0.006059,-0.017103,0.027356,-0.505531,0.012539,-0.901454,-263.856745,0.906696,62.502091
3.5446,0.020375,0.004857,0.011596,-0.029029,-0.006242,-0.017619,0.027358,-0.505514,0.012562,-0.901454,-263.856745,0.906696,62.502091
3.5646,0.020719,0.004595,0.013539,-0.029726,-0.006392,-0.018041,0.026288,-0.505108,0.011596,-0.826473,-263.856745,0.831714,62.502091
3.5845,0.020705,0.00477,0.011332,-0.030265,-0.006507,-0.018368,0.027053,-0.505251,0.012708,-0.826473,-263.856745,0.831714,62.502091
3.6048,0.020356,0.004796,0.014455,-0.030652,-0.006591,-0.018603,0.027053,-0.505251,0.012708,-0.826473,-263.856745,0.831714,62.502091
3.6247,0.020621,0.004402,0.011627,-0.030884,-0.006641,-0.018745,0.027728,-0.505151,0.014455,-0.751381,-263.856745,0.756622,62.502091
3.6452,0.020652,0.004691,0.012241,-0.030962,-0.006657,-0.018791,0.027641,-0.505181,0.014247,-0.751381,-263.856745,0.756622,62.502091
3.665,0.02036,0.004368,0.012523,-0.030884,-0.006641,-0.018744,0.026895,-0.505271,0.012241,-0.676369,-263.856745,0.681611,62.502091
3.6855,0.020693,0.004999,0.013264,-0.030651,-0.00659,-0.018603,0.02681,-0.505455,0.012402,-0.676369,-263.856745,0.681611,62.502091
3.705,0.020825,0.00462,0.012508,-0.03026,-0.006506,-0.018365,0.02681,-0.505455,0.012402,-0.676369,-263.856745,0.681611,62.502091
3.7248,0.020227,0.004757,0.014164,-0.02972,-0.00639,-0.018038,0.027204,-0.50534,0.012508,-0.601353,-263.856745,0.606595,62.502091
3.7447,0.020679,0.004562,0.012377,-0.029025,-0.006241,-0.017616,0.02722,-0.50533,0.012615,-0.601353,-263.856745,0.606595,62.502091
3.7647,0.020539,0.004375,0.013963,-0.02816,-0.006055,-0.017091,0.026991,-0.505399,0.012377,-0.526467,-263.856745,0.531709,62.502091
3.7848,0.02074,0.004739,0.013478,-0.027168,-0.005842,-0.016489,0.027374,-0.5055,0.013284,-0.526467,-263.856745,0.531709,62.502091
3.805,0.020725,0.005045,0.01213,-0.026008,-0.005592,-0.015785,0.027374,-0.5055,0.013284,-0.526467,-263.856745,0.531709,62.502091
3.8247,0.020677,0.004656,0.014673,-0.024689,-0.005309,-0.014984,0.026911,-0.504917,0.01213,-0.451333,-263.856745,0.456575,62.502091
3.8447,0.020574,0.004909,0.013023,-0.023222,-0.004993,-0.014094,0.026996,-0.504943,0.012303,-0.451333,-263.856745,0.456575,62.502091
3.8652,0.020356,0.005023,0.013258,-0.021588,-0.004642,-0.013102,0.027216,-0.505047,0.013023,-0.376479,-263.856745,0.38172,62.502091
3.8849,0.020637,0.005205,0.012053,-0.019816,-0.004261,-0.012027,0.027161,-0.504984,0.013153,-0.376479,-263.856745,0.38172,62.502091
3.9048,0.02096,0.004818,0.01463,-0.017876,-0.003844,-0.010849,0.027161,-0.504984,0.013153,-0.376479,-263.856745,0.38172,62.502091
3.9254,0.020379,0.004572,0.011675,-0.015783,-0.003394,-0.009579,0.028421,-0.505128,0.01463,-0.301474,-263.856745,0.306716,62.502091
3.9447,0.021004,0.00505,0.012241,-0.013547,-0.002913,-0.008222,0.02827,-0.505147,0.014415,-0.301474,-263.856745,0.306716,62.502091
3.965,0.020721,0.004635,0.012313,-0.011131,-0.002393,-0.006755,0.027246,-0.504912,0.012241,-0.226322,-263.856745,0.231564,62.502091
3.9855,0.020999,0.004691,0.013126,-0.008574,-0.001843,-0.005203,0.027107,-0.505146,0.012282,-0.226322,-263.856745,0.231564,62.502091
4.0055,0.020684,0.004814,0.013098,-0.005882,-0.001265,-0.00357,0.027107,-0.505146,0.012282,-0.226322,-263.856745,0.231564,62.502091
4.0248,0.021101,0.004504,0.012997,-0.003018,-0.000649,-0.001832,0.027364,-0.505142,0.013098,-0.151462,-263.856745,0.156704,62.502091
4.0447,0.020735,0.004789,0.013275,0.0,0.0,0.0,0.027389,-0.505163,0.013092,-0.151462,-263.856745,0.156704,62.502091
4.065,0.020622,0.004641,0.012276,0.0,0.0,0.0,0.027505,-0.505166,0.013275,-0.076472,-263.856745,0.081714,62.50209
4.0854,0.020647,0.004704,0.011164,0.0,0.0,0.0,0.027151,-0.505254,0.012707,-0.076472,-263.856745,0.081714,62.50209
4.1054,0.020717,0.00471,0.013605,0.0,0.0,0.0,0.027151,-0.505254,0.012707,-0.076472,-263.856745,0.081714,62.50209
4.125,0.020805,0.004755,0.010751,0.0,0.0,0.0,0.027655,-0.505242,0.013605,-0.076472,-263.856745,0.081714,62.50209
4.1456,0.020709,0.004767,0.013945,0.0,0.0,0.0,0.027559,-0.505241,0.013403,-0.076472,-263.856745,0.081714,62.50209
4.165,0.021118,0.004866,0.013671,0.0,0.0,0.0,0.027821,-0.505184,0.013945,-0.076472,-263.856745,0.081714,62.50209
4.1847,0.020723,0.004714,0.012227,0.0,0.0,0.0,0.027971,-0.505129,0.013791,-0.076472,-263.856745,0.081714,62.50209
4.2047,0.02097,0.004764,0.013115,0.0,0.0,0.0,0.027971,-0.505129,0.013791,-0.076472,-263.856745,0.081714,62.50209
4.2247,0.020979,0.004801,0.013913,0.0,0.0,0.0,0.027659,-0.505192,0.013115,-0.076472,-263.856745,0.081714,62.50209
4.2452,0.020604,0.004816,0.013336,0.0,0.0,0.0,0.027688,-0.505189,0.01317,-0.076472,-263.856745,0.081714,62.50209
4.2649,0.020618,0.004749,0.014436,0.0,0.0,0.0,0.027405,-0.505139,0.013336,-0.076472,-263.856745,0.081714,62.50209
4.2849,0.020628,0.004937,0.012749,-9.8e-05,-2.1e-05,0.0,0.027732,-0.505172,0.01396,-0.076472,-263.856745,0.081714,62.50209
4.3051,0.020526,0.005097,0.013973,-9.8e-05,-2.1e-05,0.0,0.027732,-0.505172,0.01396,-0.076472,-263.856745,0.081714,62.50209
4.3247,0.020463,0.004822,0.012177,-9.8e-05,-2.1e-05,0.0,0.027652,-0.504853,0.013973,-0.076472,-263.856745,0.081714,62.50209
4.3451,0.020626,0.004567,0.01307,-9.8e-05,-2.1e-05,0.0,0.02757,-0.504877,0.013823,-0.076472,-263.856745,0.081714,62.50209
4.3646,0.0205,0.00506,0.015006,-9.8e-05,-2.1e-05,0.0,0.02729,-0.505389,0.01307,-0.000871,-263.856753,0.157315,62.502083
4.3849,0.020874,0.00446,0.013341,-9.8e-05,-2.1e-05,0.0,0.027785,-0.505099,0.01418,-0.000871,-263.856753,0.157315,62.502083
4.4048,0.020232,0.004873,0.012406,-9.8e-05,-2.1e-05,0.0,0.027785,-0.505099,0.01418,-0.000871,-263.856753,0.157315,62.502083
4.4247,0.020356,0.004483,0.012897,-9.8e-05,-2.1e-05,0.0,0.026556,-0.505088,0.012406,0.073633,-263.856771,0.211934,62.502064
4.4447,0.020287,0.004616,0.013671,-9.8e-05,-2.1e-05,0.0,0.026584,-0.505117,0.012443,0.073633,-263.856771,0.211934,62.502064
4.4646,0.020595,0.004668,0.013289,-9.8e-05,-2.1e-05,0.0,0.027256,-0.505337,0.013671,0.148684,-263.856801,0.211934,62.502035
4.4849,0.020743,0.004804,0.013,-0.0,-0.0,-0.0,0.027325,-0.505307,0.013442,0.148684,-263.856801,0.211934,62.502035
4.5047,0.020472,0.004715,0.011664,-0.003017,-0.000649,-0.002106,0.027325,-0.505307,0.013442,0.148684,-263.856801,0.211934,62.502035
4.5247,0.021056,0.00462,0.013353,-0.005888,-0.001267,-0.004109,0.026416,-0.505251,0.011664,0.211934,-263.856838,0.211934,62.501997
4.5453,0.020844,0.004774,0.012629,-0.008603,-0.001851,-0.006004,0.026533,-0.505258,0.0118,0.211934,-263.856838,0.211934,62.501997
4.5646,0.020634,0.004632,0.012282,-0.011169,-0.002403,-0.007795,0.027283,-0.505185,0.012628,0.286306,-263.856848,0.137562,62.501989
4.5846,0.020864,0.004776,0.013105,-0.013568,-0.002919,-0.009469,0.027064,-0.505267,0.012431,0.286306,-263.856848,0.137562,62.501989
4.6045,0.020765,0.004878,0.013874,-0.015818,-0.003403,-0.011039,0.027064,-0.505267,0.012431,0.286306,-263.856848,0.137562,62.501989
4.6251,0.020892,0.004902,0.012514,-0.017914,-0.003854,-0.012502,0.027824,-0.505078,0.013869,0.361004,-263.857005,0.062864,62.501854
4.6448,0.020518,0.004652,0.012491,-0.019854,-0.004272,-0.013856,0.027783,-0.505076,0.013771,0.361004,-263.857005,0.062864,62.501854
4.6646,0.020839,0.00488,0.011987,-0.02164,-0.004656,-0.015103,0.026792,-0.505332,0.012452,0.436111,-263.858133,-0.012243,62.500884
4.6849,0.020201,0.004522,0.013307,-0.023275,-0.005008,-0.016244,0.026871,-0.505194,0.012183,0.436111,-263.858133,-0.012243,62.500884
4.705,0.020606,0.004682,0.011504,-0.024743,-0.005324,-0.017268,0.026871,-0.505194,0.012183,0.436111,-263.858133,-0.012243,62.500884
4.7247,0.020411,0.00437,0.012775,-0.026059,-0.005607,-0.018187,0.026083,-0.505379,0.011299,0.511004,-263.861764,-0.087136,62.497601
4.7446,0.02034,0.004694,0.012639,-0.027224,-0.005858,-0.019,0.026131,-0.505396,0.011396,0.511004,-263.861764,-0.087136,62.497601
4.7648,0.019752,0.004614,0.011229,-0.028235,-0.006075,-0.019705,0.026263,-0.505386,0.012304,0.570314,-263.867893,-0.162243,62.491819
4.7852,0.019822,0.004379,0.012415,-0.029088,-0.006259,-0.020301,0.025749,-0.505383,0.011647,0.570314,-263.867893,-0.162243,62.491819
4.8047,0.019992,0.004243,0.01137,-0.029785,-0.006409,-0.020787,0.025749,-0.505383,0.011647,0.570314,-263.867893,-0.162243,62.491819
4.8246,0.018846,0.004262,0.010949,-0.03034,-0.006528,-0.021175,0.024859,-0.505914,0.010737,0.570314,-263.876526,-0.208028,62.483534
4.8447,0.019364,0.004259,0.011838,-0.030716,-0.006609,-0.021437,0.024802,-0.505904,0.010735,0.570314,-263.876526,-0.208028,62.483534
4.8649,0.018656,0.004331,0.008401,-0.03095,-0.006659,-0.0216,0.024444,-0.505899,0.011188,0.570314,-263.887638,-0.208028,62.472769
4.8851,0.018711,0.003742,0.009645,-0.031027,-0.006676,-0.021654,0.023473,-0.505784,0.009532,0.570314,-263.887638,-0.208028,62.472769
4.9051,0.018849,0.003712,0.013247,-0.030947,-0.006659,-0.021598,0.023473,-0.505784,0.009532,0.570314,-263.887638,-0.208028,62.472769
4.9254,0.017429,0.003813,0.00971,-0.030717,-0.006609,-0.021437,0.024164,-0.506551,0.012256,0.570314,-263.901263,-0.208028,62.460213
4.945,0.01747,0.003831,0.009162,-0.030329,-0.006526,-0.021167,0.024007,-0.506533,0.012059,0.570314,-263.901263,-0.208028,62.460213
4.9647,0.016546,0.003629,0.008538,-0.029783,-0.006408,-0.020786,0.02095,-0.506415,0.008328,0.570314,-263.915993,-0.208028,62.447541
4.985,0.01627,0.003148,0.008833,-0.029082,-0.006257,-0.020296,0.020771,-0.506413,0.008343,0.570314,-263.915993,-0.208028,62.447541
5.0056,0.016344,0.003047,0.009484,-0.028233,-0.006075,-0.019704,0.020771,-0.506413,0.008343,0.570314,-263.915993,-0.208028,62.447541
5.0251,0.015395,0.003209,0.007838,-0.027221,-0.005857,-0.018997,0.019709,-0.50726,0.008455,0.570314,-263.930383,-0.208028,62.435161
5.0453,0.01553,0.003057,0.009487,-0.026058,-0.005607,-0.018186,0.019652,-0.507237,0.00839,0.570314,-263.930383,-0.208028,62.435161
5.0652,0.01483,0.002911,0.006511,-0.024737,-0.005323,-0.017264,0.019278,-0.507165,0.008725,0.570314,-263.943822,-0.208028,62.423601
5.0849,0.01455,0.002624,0.006823,-0.023271,-0.005007,-0.016241,0.018496,-0.507146,0.007364,0.570314,-263.943822,-0.208028,62.423601
5.105,0.014008,0.002878,0.005291,-0.021638,-0.004656,-0.015102,0.018496,-0.507146,0.007364,0.570314,-263.943822,-0.208028,62.423601
5.1251,0.014021,0.002204,0.006334,-0.019853,-0.004272,-0.013856,0.01544,-0.507394,0.004406,0.570314,-263.956185,-0.208028,62.412965
5.1454,0.013505,0.002571,0.005004,-0.017903,-0.003852,-0.012495,0.015523,-0.507425,0.004506,0.570314,-263.956185,-0.208028,62.412965
5.165,0.013313,0.00238,0.004434,-0.015818,-0.003404,-0.01104,0.015218,-0.507607,0.004418,0.570314,-263.966468,-0.208028,62.404118
5.1854,0.01263,0.002284,0.004568,-0.013578,-0.002922,-0.009476,0.015314,-0.507634,0.004354,0.570314,-263.966468,-0.208028,62.404118
5.205,0.012816,0.002226,0.005115,-0.011167,-0.002403,-0.007793,0.015314,-0.507634,0.004354,0.570314,-263.966468,-0.208028,62.404118
5.2257,0.012553,0.001611,0.004735,-0.008607,-0.001852,-0.006007,0.014555,-0.507959,0.004507,0.570314,-263.974975,-0.208028,62.3968
5.2455,0.012753,0.001755,0.004789,-0.005897,-0.001269,-0.004116,0.01456,-0.507992,0.004507,0.570314,-263.974975,-0.208028,62.3968
5.2649,0.012181,0.002095,0.002893,-0.003033,-0.000653,-0.002117,0.014763,-0.508334,0.004487,0.570314,-263.980293,-0.208028,62.392225
5.2857,0.01189,0.002312,0.00375,-4e-06,-1e-06,-3e-06,0.014074,-0.508099,0.003535,0.570314,-263.980293,-0.208028,62.392225
5.3048,0.011898,0.001617,0.00437,0.0,0.0,0.0,0.014074,-0.508099,0.003535,0.570314,-263.980293,-0.208028,62.392225
5.3249,0.011754,0.001685,0.003824,0.0,0.0,0.0,0.013841,-0.508441,0.00417,0.570314,-263.983102,-0.208028,62.389808
5.3452,0.012035,0.001748,0.003748,0.0,0.0,0.0,0.013821,-0.508432,0.004136,0.570314,-263.983102,-0.208028,62.389808
5.3647,0.011625,0.001884,0.004272,0.0,0.0,0.0,0.013946,-0.508248,0.003748,0.570314,-263.983102,-0.208028,62.389808
5.3851,0.011796,0.001654,0.003813,0.0,0.0,0.0,0.013866,-0.508171,0.004045,0.570314,-263.983102,-0.208028,62.389808
5.4051,0.011688,0.002018,0.003727,0.0,0.0,0.0,0.013866,-0.508171,0.004045,0.570314,-263.983102,-0.208028,62.389808
5.4252,0.012207,0.001626,0.004446,0.0,0.0,0.0,0.013588,-0.507979,0.003727,0.570314,-263.983102,-0.208028,62.389808
5.4453,0.011625,0.00182,0.004351,0.0,0.0,0.0,0.013638,-0.508001,0.003768,0.570314,-263.983102,-0.208028,62.389808
5.4653,0.01184,0.001925,0.002909,0.0,0.0,0.0,0.013845,-0.508175,0.004351,0.570314,-263.983102,-0.208028,62.389808
5.4847,0.01217,0.001699,0.004265,0.0,0.0,0.0,0.013557,-0.508118,0.003555,0.570314,-263.983102,-0.208028,62.389808
5.5053,0.011477,0.001671,0.003565,-9.9e-05,-1.3e-05,0.0,0.013557,-0.508118,0.003555,0.570314,-263.983102,-0.208028,62.389808
5.525,0.01186,0.001827,0.004674,-9.9e-05,-1.3e-05,0.0,0.013295,-0.508326,0.003565,0.570314,-263.983102,-0.208028,62.389808
5.545,0.011761,0.001645,0.003297,-9.9e-05,-1.3e-05,0.0,0.013358,-0.508315,0.003637,0.570314,-263.983102,-0.208028,62.389808
5.5651,0.011774,0.001804,0.002927,-9.9e-05,-1.3e-05,0.0,0.013443,-0.508352,0.003297,0.495304,-263.983103,-0.133017,62.389808
5.5851,0.011573,0.001783,0.003014,-9.9e-05,-1.3e-05,0.0,0.013343,-0.508262,0.003086,0.495304,-263.983103,-0.133017,62.389808
5.605,0.012059,0.00173,0.003648,-9.9e-05,-1.3e-05,0.0,0.013343,-0.508262,0.003086,0.495304,-263.983103,-0.133017,62.389808
5.6252,0.011814,0.001741,0.004879,-9.9e-05,-1.3e-05,0.0,0.013919,-0.508267,0.003648,0.420252,-263.983104,-0.057966,62.389807
5.6446,0.011572,0.001965,0.002395,-9.9e-05,-1.3e-05,0.0,0.013945,-0.508266,0.003733,0.420252,-263.983104,-0.057966,62.389807
5.6649,0.01141,0.001705,0.00204,-9.9e-05,-1.3e-05,0.0,0.012793,-0.508034,0.002395,0.345323,-263.98311,0.016963,62.389801
5.6847,0.011879,0.00184,0.003892,-9.9e-05,-1.3e-05,0.0,0.012597,-0.508183,0.002192,0.345323,-263.98311,0.016963,62.389801
5.7047,0.01163,0.001566,0.00465,-9.9e-05,-1.3e-05,0.0,0.012597,-0.508183,0.002192,0.345323,-263.98311,0.016963,62.389801
5.725,0.011833,0.001874,0.00435,-0.001785,-0.000241,-0.000625,0.014,-0.508429,0.00465,0.270195,-263.983125,0.092091,62.389785
5.7446,0.012042,0.001768,0.003497,-0.003468,-0.000469,-0.001215,0.014003,-0.508409,0.00463,0.270195,-263.983125,0.092091,62.389785
5.7651,0.011536,0.001595,0.005466,-0.00507,-0.000686,-0.001776,0.013822,-0.508229,0.003496,0.195327,-263.983154,0.134483,62.389756
5.785,0.011804,0.001619,0.004326,-0.006581,-0.00089,-0.002305,0.014109,-0.508325,0.004624,0.195327,-263.983154,0.134483,62.389756
5.805,0.011979,0.001825,0.002328,-0.007986,-0.00108,-0.002797,0.014109,-0.508325,0.004624,0.195327,-263.983154,0.134483,62.389756
5.8253,0.011305,0.001686,0.00272,-0.009315,-0.00126,-0.003263,0.013107,-0.508183,0.002317,0.270448,-263.983669,0.059362,62.389269
5.8449,0.012212,0.002068,0.00208,-0.010545,-0.001427,-0.003693,0.013074,-0.508193,0.002346,0.270448,-263.983669,0.059362,62.389269
5.8652,0.011717,0.001602,0.002408,-0.011688,-0.001581,-0.004094,0.013061,-0.507966,0.002017,0.335978,-263.985994,-0.015624,62.387067
5.8848,0.0116,0.00173,0.003208,-0.012736,-0.001723,-0.004461,0.012968,-0.508214,0.00223,0.335978,-263.985994,-0.015624,62.387067
5.9046,0.011342,0.001811,0.002268,-0.013695,-0.001853,-0.004797,0.012968,-0.508214,0.00223,0.335978,-263.985994,-0.015624,62.387067
5.9247,0.011032,0.001569,0.003536,-0.014564,-0.001971,-0.005101,0.012017,-0.508253,0.002099,0.335978,-263.990189,-0.078458,62.383095
5.9446,0.011041,0.00139,0.004155,-0.015341,-0.002076,-0.005373,0.01206,-0.508267,0.002193,0.335978,-263.990189,-0.078458,62.383095
5.9646,0.010686,0.001322,0.002456,-0.016026,-0.002168,-0.005613,0.012631,-0.508679,0.003969,0.335978,-263.995999,-0.078458,62.377593
5.985,0.010575,0.002051,0.002691,-0.016619,-0.002249,-0.005821,0.012168,-0.508687,0.00308,0.335978,-263.995999,-0.078458,62.377593
6.0052,0.010139,0.001791,0.002306,-0.017123,-0.002317,-0.005997,0.012168,-0.508687,0.00308,0.335978,-263.995999,-0.078458,62.377593
6.0248,0.00973,0.001379,0.002438,-0.017535,-0.002372,-0.006142,0.01057,-0.50831,0.002045,0.335978,-264.00249,-0.078458,62.371445
6.0453,0.010155,0.001572,0.001714,-0.017854,-0.002416,-0.006253,0.010577,-0.508333,0.002064,0.335978,-264.00249,-0.078458,62.371445
6.0646,0.009423,0.001561,0.005067,-0.018082,-0.002447,-0.006333,0.010362,-0.508518,0.001481,0.335978,-264.009745,-0.078458,62.364575
6.0847,0.009007,0.001398,0.002642,-0.01822,-0.002465,-0.006382,0.011206,-0.508481,0.003471,0.335978,-264.009745,-0.078458,62.364575
6.1052,0.009696,0.001696,0.002364,-0.018266,-0.002471,-0.006398,0.011206,-0.508481,0.003471,0.335978,-264.009745,-0.078458,62.364575
6.1248,0.008813,0.001273,0.003306,-0.01822,-0.002465,-0.006382,0.010029,-0.508423,0.002059,0.335978,-264.017309,-0.078458,62.357412
6.1451,0.008917,0.000958,0.003344,-0.018084,-0.002447,-0.006334,0.010037,-0.508443,0.002123,0.335978,-264.017309,-0.078458,62.357412
6.165,0.007637,0.001196,0.001951,-0.017848,-0.002415,-0.006251,0.009915,-0.509137,0.003096,0.335978,-264.02506,-0.078458,62.350072
6.1848,0.007882,0.001102,0.001282,-0.017532,-0.002372,-0.006141,0.009097,-0.50896,0.002415,0.335978,-264.02506,-0.078458,62.350072
6.2047,0.007828,0.00127,0.001314,-0.017126,-0.002317,-0.005998,0.009097,-0.50896,0.002415,0.335978,-264.02506,-0.078458,62.350072
6.2246,0.007293,0.001125,0.001315,-0.016623,-0.002249,-0.005822,0.00762,-0.50885,0.001006,0.335978,-264.032709,-0.078458,62.342828
6.2452,0.006742,0.001318,0.002731,-0.01603,-0.002169,-0.005615,0.007621,-0.508855,0.001019,0.335978,-264.032709,-0.078458,62.342828
6.2653,0.006169,0.000717,0.000369,-0.015345,-0.002076,-0.005375,0.00747,-0.508771,0.002498,0.335978,-264.039981,-0.078458,62.335941
6.2848,0.006305,0.000652,0.000614,-0.014569,-0.001971,-0.005103,0.006753,-0.509075,0.001255,0.335978,-264.039981,-0.078458,62.335941
6.3047,0.006418,0.000754,-0.000107,-0.013702,-0.001854,-0.004799,0.006753,-0.509075,0.001255,0.335978,-264.039981,-0.078458,62.335941
6.3247,0.005479,0.000776,6.3e-05,-0.012743,-0.001724,-0.004463,0.005586,-0.509351,-0.000379,0.335978,-264.046768,-0.078458,62.329514
6.3445,0.005785,0.00096,0.000109,-0.011693,-0.001582,-0.004096,0.005559,-0.509345,-0.000354,0.335978,-264.046768,-0.078458,62.329514
6.3646,0.005496,0.000642,0.000953,-0.010551,-0.001428,-0.003695,0.005313,-0.509111,-7.6e-05,0.335978,-264.052599,-0.078458,62.323992
6.385,0.005236,0.000682,0.00186,-0.009317,-0.001261,-0.003263,0.005638,-0.509264,0.000503,0.335978,-264.052599,-0.078458,62.323992
6.4048,0.005211,0.000727,0.001625,-0.007995,-0.001082,-0.0028,0.005638,-0.509264,0.000503,0.335978,-264.052599,-0.078458,62.323992
6.4249,0.004671,0.000637,0.00022,-0.00658,-0.00089,-0.002305,0.005475,-0.50935,0.001427,0.335978,-264.057531,-0.078458,62.319322
6.4448,0.004737,0.000524,0.000157,-0.005074,-0.000687,-0.001777,0.00541,-0.509353,0.001335,0.335978,-264.057531,-0.078458,62.319322
6.4646,0.004305,0.000551,0.000595,-0.003475,-0.00047,-0.001217,0.004509,-0.509517,4.9e-05,0.335978,-264.060918,-0.078458,62.316114
6.4848,0.004281,0.000633,0.000475,-0.001782,-0.000241,-0.000624,0.004527,-0.509484,0.000347,0.335978,-264.060918,-0.078458,62.316114
6.5045,0.004248,0.000747,0.001,-6e-06,-1e-06,-2e-06,0.004527,-0.509484,0.000347,0.335978,-264.060918,-0.078458,62.316114
6.525,0.003507,0.000669,0.00199,0.0,0.0,0.0,0.004512,-0.509287,0.000913,0.335978,-264.063065,-0.078458,62.314081
6.5452,0.004073,0.000607,0.000234,0.0,0.0,0.0,0.004506,-0.509291,0.000986,0.335978,-264.063065,-0.078458,62.314081
6.5646,0.004124,0.00041,0.000312,0.0,0.0,0.0,0.004192,-0.509393,0.000233,0.335978,-264.063068,-0.078458,62.314078
6.5846,0.003884,0.000128,-0.000484,0.0,0.0,0.0,0.004243,-0.509504,0.000278,0.335978,-264.063068,-0.078458,62.314078
6.6046,0.004019,0.000631,0.001307,0.0,0.0,0.0,0.004243,-0.509504,0.000278,0.335978,-264.063068,-0.078458,62.314078
6.6247,0.004238,0.000839,9.4e-05,0.0,0.0,0.0,0.004686,-0.509369,0.001307,0.335978,-264.063068,-0.078458,62.314078
6.6446,0.004269,0.000451,-0.000883,0.0,0.0,0.0,0.004659,-0.509354,0.001225,0.335978,-264.063068,-0.078458,62.314078
6.6647,0.004027,0.000551,0.001215,0.0,0.0,0.0,0.003818,-0.509548,-0.000883,0.335978,-264.063068,-0.078458,62.314078
6.6848,0.004173,0.000462,0.000853,0.0,0.0,0.0,0.00429,-0.509491,0.000311,0.335978,-264.063068,-0.078458,62.314078
6.7052,0.004161,0.000309,0.001455,0.0,0.0,0.0,0.00429,-0.509491,0.000311,0.335978,-264.063068,-0.078458,62.314078
6.7248,0.003917,0.000711,0.000799,-0.0001,-7e-06,0.0,0.004903,-0.50969,0.001455,0.335978,-264.063068,-0.078458,62.314078
6.7452,0.004005,0.000468,-0.00152,-0.0001,-7e-06,0.0,0.004862,-0.509662,0.001409,0.335978,-264.063068,-0.078458,62.314078
6.7646,0.003931,0.000391,-0.000566,-0.0001,-7e-06,0.0,0.00323,-0.509532,-0.00152,0.335978,-264.063068,-0.078458,62.314078
6.7846,0.003879,0.00067,0.000724,-0.0001,-7e-06,0.0,0.003465,-0.509575,-0.000977,0.335978,-264.063068,-0.078458,62.314078
6.8047,0.00414,0.000495,-0.00052,-0.0001,-7e-06,0.0,0.003465,-0.509575,-0.000977,0.335978,-264.063068,-0.078458,62.314078
6.8247,0.004279,0.000599,-0.001145,-0.0001,-7e-06,0.0,0.003874,-0.509505,-0.00052,0.261011,-264.063077,-0.003491,62.314069
6.8451,0.004266,0.0004,0.000225,-0.0001,-7e-06,0.0,0.003861,-0.509497,-0.000565,0.261011,-264.063077,-0.003491,62.314069
6.8651,0.004031,0.000567,0.001557,-0.0001,-7e-06,0.0,0.004379,-0.5096,0.000225,0.186006,-264.063097,0.071514,62.314049
6.8848,0.004169,0.000278,-0.000611,-0.0001,-7e-06,0.0,0.004634,-0.509504,0.000988,0.186006,-264.063097,0.071514,62.314049
6.9049,0.004297,0.000313,0.001045,-0.0001,-7e-06,0.0,0.004634,-0.509504,0.000988,0.186006,-264.063097,0.071514,62.314049
6.925,0.004022,0.000448,0.000865,-0.0,-0.0,-0.0,0.004826,-0.509687,0.001045,0.110876,-264.06313,0.072736,62.314016
6.9452,0.003776,0.000164,-6.6e-05,-0.000609,-4.4e-05,-0.000213,0.004802,-0.509678,0.001033,0.110876,-264.06313,0.072736,62.314016
6.9651,0.004011,0.000618,0.000412,-0.001186,-8.6e-05,-0.000415,0.003739,-0.509837,-6.6e-05,0.072736,-264.063169,0.072736,62.313977
6.9846,0.004008,0.000527,0.000839,-0.001733,-0.000126,-0.000606,0.004014,-0.509577,0.000207,0.072736,-264.063169,0.072736,62.313977
7.0049,0.004259,0.000375,0.000284,-0.002247,-0.000164,-0.000786,0.004014,-0.509577,0.000207,0.072736,-264.063169,0.072736,62.313977
7.0248,0.003952,0.000517,0.000245,-0.002733,-0.000199,-0.000955,0.004397,-0.509626,0.000283,0.14789,-264.063231,-0.002419,62.313917
7.0448,0.004159,0.000333,-0.000592,-0.003183,-0.000232,-0.001113,0.004376,-0.509616,0.000281,0.14789,-264.063231,-0.002419,62.313917
7.0653,0.003794,0.000678,0.000506,-0.003606,-0.000263,-0.001261,0.003807,-0.50967,-0.000604,0.222754,-264.063755,-0.077283,62.313408
7.085,0.003929,-4.6e-05,0.000853,-0.003995,-0.000291,-0.001397,0.003941,-0.509473,2.6e-05,0.222754,-264.063755,-0.077283,62.313408
7.1048,0.004397,0.000562,-0.001232,-0.004354,-0.000317,-0.001522,0.003941,-0.509473,2.6e-05,0.222754,-264.063755,-0.077283,62.313408
7.1247,0.003955,0.000435,0.001214,-0.004682,-0.000341,-0.001637,0.00363,-0.509447,-0.00128,0.278919,-264.064939,-0.139739,62.312258
7.1452,0.003912,0.000536,-4.7e-05,-0.004978,-0.000363,-0.00174,0.003695,-0.509456,-0.001101,0.278919,-264.064939,-0.139739,62.312258
7.1647,0.003698,0.000462,0.000607,-0.005244,-0.000382,-0.001833,0.00372,-0.509476,-0.000106,0.278919,-264.066752,-0.139739,62.310498
7.1848,0.003834,0.000557,-0.000518,-0.005477,-0.000399,-0.001915,0.003864,-0.509513,0.000297,0.278919,-264.066752,-0.139739,62.310498
7.2047,0.003413,-4.6e-05,0.000346,-0.00568,-0.000414,-0.001986,0.003864,-0.509513,0.000297,0.278919,-264.066752,-0.139739,62.310498
7.2247,0.003218,0.000385,0.000808,-0.005852,-0.000426,-0.002046,0.003347,-0.510063,0.000261,0.278919,-264.068832,-0.139739,62.308479
7.2451,0.003308,0.000291,0.001854,-0.005992,-0.000437,-0.002095,0.003364,-0.510025,0.000305,0.278919,-264.068832,-0.139739,62.308479
7.2647,0.003383,0.00051,-0.001053,-0.006102,-0.000445,-0.002133,0.004036,-0.509724,0.001778,0.278919,-264.071186,-0.139739,62.306193
7.2849,0.003378,0.000182,-0.000819,-0.00618,-0.00045,-0.00216,0.003324,-0.509591,0.00014,0.278919,-264.071186,-0.139739,62.306193
7.305,0.003339,0.000436,0.001638,-0.006227,-0.000454,-0.002177,0.003324,-0.509591,0.00014,0.278919,-264.071186,-0.139739,62.306193
7.3251,0.002785,0.000502,-0.002112,-0.006242,-0.000455,-0.002182,0.003884,-0.509585,0.001537,0.278919,-264.073674,-0.139739,62.303778
7.3456,0.003163,0.000439,0.000495,-0.006227,-0.000454,-0.002177,0.003727,-0.509579,0.001283,0.278919,-264.073674,-0.139739,62.303778
7.3651,0.002517,0.000591,0.00126,-0.00618,-0.00045,-0.00216,0.003174,-0.509579,0.00041,0.278919,-264.076268,-0.139739,62.30126
7.3847,0.002677,0.000402,0.000801,-0.006102,-0.000445,-0.002133,0.003135,-0.509485,0.000882,0.278919,-264.076268,-0.139739,62.30126
