mach0312/omni-docking-bench/src/icros_test_setup/results/kinematic_sample/timeseries/trial_054.csv
t,x,y,yaw,vx,vy,wz,bl_x,bl_y,bl_yaw,front_steering_joint,front_wheel_joint,rear_steering_joint,rear_wheel_joint
0.0,-0.069142,-0.023168,0.08472,0.00805,-0.000627,0.00281,-0.026409,-0.5312,0.085061,0.134513,-265.020215,-0.283216,61.875237
0.0004,-0.068381,-0.023026,0.086379,0.003865,-0.000301,0.001349,-0.026409,-0.5312,0.085061,0.134513,-265.016576,-0.283216,61.878993
0.0007,-0.068418,-0.02339,0.084877,0.00298,-0.000232,0.00104,-0.026318,-0.53121,0.084346,0.134513,-265.013549,-0.283216,61.882117
0.0011,-0.068239,-0.023178,0.086276,0.002042,-0.000159,0.000713,-0.026318,-0.53121,0.084346,0.134513,-265.011047,-0.283216,61.8847
0.0014,-0.0685,-0.022966,0.086175,0.001049,-8.2e-05,0.000366,-0.026202,-0.531221,0.084523,0.134513,-265.009487,-0.283216,61.88631
0.0017,-0.068382,-0.023376,0.088292,0.0,0.0,0.0,-0.026202,-0.531221,0.084523,0.134513,-265.008663,-0.283216,61.88716
0.0019,-0.068385,-0.023323,0.087851,0.0,0.0,0.0,-0.024422,-0.531713,0.086984,0.134513,-265.008663,-0.283216,61.88716
0.0022,-0.06858,-0.023296,0.087603,0.0,0.0,0.0,-0.024422,-0.531713,0.086984,0.134513,-265.008663,-0.283216,61.88716
0.0025,-0.068235,-0.023347,0.085174,0.0,0.0,0.0,-0.024219,-0.531274,0.087739,0.134513,-265.008663,-0.283216,61.88716
0.0027,-0.068393,-0.023037,0.087095,0.0,0.0,0.0,-0.024219,-0.531274,0.087739,0.134513,-265.008663,-0.283216,61.88716
0.0182,-0.068267,-0.023115,0.085842,0.016,0.016,-0.03,-0.024466,-0.53143,0.086219,0.134513,-265.008663,-0.283216,61.88716
0.0383,-0.068318,-0.023102,0.085565,0.032,0.017177,-0.05,-0.024541,-0.531237,0.085842,0.134513,-265.008663,-0.283216,61.88716
0.0584,-0.068522,-0.023281,0.085218,0.048,0.017179,-0.05,-0.024555,-0.531237,0.085822,0.134513,-265.008663,-0.283216,61.88716
0.078,-0.068702,-0.023283,0.087528,0.064,0.017364,-0.05,-0.025114,-0.53143,0.085218,0.059422,-265.008663,-0.208125,61.88716
0.0982,-0.068566,-0.023055,0.086016,0.070474,0.017188,-0.05,-0.024543,-0.531373,0.086544,0.059422,-265.008663,-0.208125,61.88716
0.1183,-0.068457,-0.023262,0.085687,0.070294,0.017079,-0.05,-0.024543,-0.531373,0.086544,0.059422,-265.008663,-0.208125,61.88716
0.1383,-0.068828,-0.022977,0.086124,0.070196,0.017318,-0.05,-0.024809,-0.531391,0.085687,-0.015635,-265.008663,-0.133068,61.88716
0.1585,-0.068404,-0.023197,0.086525,0.070549,0.016971,-0.05,-0.024819,-0.531371,0.085716,-0.015635,-265.008663,-0.133068,61.88716
0.1786,-0.068347,-0.023285,0.08755,0.070152,0.017198,-0.05,-0.024331,-0.531289,0.086525,-0.090472,-265.008659,-0.058231,61.887164
0.1982,-0.068606,-0.023337,0.085895,0.070121,0.01722,-0.05,-0.024,-0.531313,0.087112,-0.090472,-265.008659,-0.058231,61.887164
0.2184,-0.06813,-0.023041,0.085968,0.070355,0.017365,-0.05,-0.024,-0.531313,0.087112,-0.090472,-265.008659,-0.058231,61.887164
0.2381,-0.068198,-0.023159,0.085599,0.069857,0.017106,-0.05,-0.024338,-0.531158,0.085967,-0.165591,-265.008641,0.016888,61.887186
0.2583,-0.068159,-0.023301,0.085779,0.069928,0.017243,-0.05,-0.024356,-0.531167,0.085942,-0.165591,-265.008641,0.016888,61.887186
0.2783,-0.06801,-0.023222,0.084649,0.069905,0.017376,-0.05,-0.024456,-0.531425,0.085777,-0.185083,-265.008546,0.091779,61.887299
0.2982,-0.068396,-0.023411,0.085909,0.06973,0.017389,-0.05,-0.024702,-0.531409,0.085134,-0.185083,-265.008546,0.091779,61.887299
0.3186,-0.068106,-0.023345,0.087138,0.070153,0.017456,-0.05,-0.024702,-0.531409,0.085134,-0.185083,-265.008546,0.091779,61.887299
0.3386,-0.068126,-0.023144,0.087648,0.069879,0.017329,-0.05,-0.023672,-0.531405,0.087124,-0.18787,-265.008161,0.166776,61.887757
0.3582,-0.068697,-0.023193,0.086251,0.06989,0.017092,-0.05,-0.023655,-0.531388,0.087165,-0.18787,-265.008161,0.166776,61.887757
0.3784,-0.067838,-0.023265,0.086852,0.070439,0.017189,-0.05,-0.024632,-0.53128,0.086204,-0.184357,-265.006883,0.242169,61.889279
0.3981,-0.068149,-0.023448,0.08548,0.0696,0.017293,-0.05,-0.02403,-0.531313,0.086565,-0.184357,-265.006883,0.242169,61.889279
0.4185,-0.068634,-0.023314,0.085305,0.069902,0.017544,-0.05,-0.02403,-0.531313,0.086565,-0.184357,-265.006883,0.242169,61.889279
0.4382,-0.067392,-0.022954,0.084629,0.07037,0.017381,-0.05,-0.024739,-0.531387,0.085113,-0.190064,-265.003303,0.316788,61.893296
0.4584,-0.067308,-0.023296,0.086778,0.069091,0.017176,-0.05,-0.024698,-0.531368,0.085076,-0.190064,-265.003303,0.316788,61.893296
0.4784,-0.06629,-0.023018,0.085011,0.069074,0.017375,-0.05,-0.022535,-0.531261,0.086494,-0.183782,-264.997227,0.391783,61.899807
0.4983,-0.067121,-0.023175,0.085141,0.068005,0.017307,-0.05,-0.022718,-0.531198,0.085618,-0.183782,-264.997227,0.391783,61.899807
0.5184,-0.066666,-0.022843,0.086257,0.068849,0.017384,-0.05,-0.022718,-0.531198,0.085618,-0.183782,-264.997227,0.391783,61.899807
0.5382,-0.065637,-0.022765,0.084021,0.068386,0.017015,-0.05,-0.021744,-0.530714,0.08569,-0.191038,-264.988642,0.466724,61.908829
0.5587,-0.065527,-0.022914,0.085353,0.067315,0.017176,-0.05,-0.021793,-0.530725,0.08556,-0.191038,-264.988642,0.466724,61.908829
0.5785,-0.063633,-0.022101,0.083974,0.067242,0.017245,-0.05,-0.021059,-0.530785,0.084714,-0.188781,-264.977562,0.541785,61.920345
0.5984,-0.063581,-0.022685,0.083317,0.065262,0.016686,-0.05,-0.020822,-0.530482,0.08422,-0.188781,-264.977562,0.541785,61.920345
0.6188,-0.063713,-0.022384,0.084086,0.065248,0.017315,-0.05,-0.020822,-0.530482,0.08422,-0.188781,-264.977562,0.541785,61.920345
0.6382,-0.06163,-0.021684,0.083477,0.065368,0.016953,-0.05,-0.019402,-0.530124,0.083012,-0.19594,-264.963981,0.616613,61.934362
0.6587,-0.061475,-0.021668,0.084514,0.063224,0.01647,-0.05,-0.019351,-0.5301,0.083015,-0.19594,-264.963981,0.616613,61.934362
0.6785,-0.059558,-0.021295,0.081526,0.063085,0.016402,-0.05,-0.017048,-0.529413,0.083486,-0.199937,-264.9479,0.632792,61.950879
0.6986,-0.058859,-0.021428,0.082053,0.061094,0.016374,-0.05,-0.017427,-0.529464,0.082248,-0.199937,-264.9479,0.632792,61.950879
0.7187,-0.059563,-0.021382,0.07974,0.060418,0.016532,-0.05,-0.017427,-0.529464,0.082248,-0.199937,-264.9479,0.632792,61.950879
0.7382,-0.056198,-0.020642,0.082662,0.061077,0.016569,-0.05,-0.016947,-0.529157,0.078207,-0.218934,-264.92932,0.639338,61.969895
0.7582,-0.056195,-0.020546,0.079843,0.05771,0.015932,-0.05,-0.016714,-0.529126,0.078455,-0.218934,-264.92932,0.639338,61.969895
0.7783,-0.052834,-0.019835,0.078167,0.057654,0.015999,-0.05,-0.013739,-0.528369,0.078417,-0.227794,-264.90824,0.661844,61.991411
0.7991,-0.053066,-0.01979,0.078969,0.054221,0.015649,-0.05,-0.013102,-0.528248,0.078096,-0.227794,-264.90824,0.661844,61.991411
0.8184,-0.053143,-0.019909,0.078799,0.054462,0.015542,-0.05,-0.013102,-0.528248,0.078096,-0.227794,-264.90824,0.661844,61.991411
0.8386,-0.049587,-0.019296,0.075747,0.054546,0.015664,-0.05,-0.010517,-0.527566,0.076719,-0.247881,-264.884679,0.677916,62.015427
0.8585,-0.049205,-0.018923,0.076627,0.050905,0.015488,-0.05,-0.010487,-0.527564,0.076608,-0.247881,-264.884679,0.677916,62.015427
0.8787,-0.045768,-0.017938,0.07494,0.050509,0.015101,-0.05,-0.008195,-0.526733,0.074804,-0.268679,-264.862449,0.702219,62.041946
0.8987,-0.045714,-0.017811,0.074804,0.046983,0.014461,-0.05,-0.007599,-0.526517,0.07465,-0.268679,-264.862449,0.702219,62.041946
0.9185,-0.045567,-0.017589,0.073579,0.046918,0.014345,-0.05,-0.007599,-0.526517,0.07465,-0.268679,-264.862449,0.702219,62.041946
0.9383,-0.042003,-0.016876,0.072946,0.046737,0.014192,-0.05,-0.005714,-0.5253,0.071201,-0.287448,-264.841699,0.735107,62.068773
0.9588,-0.042068,-0.016957,0.072792,0.043121,0.01377,-0.05,-0.005596,-0.525291,0.071255,-0.287448,-264.841699,0.735107,62.068773
0.9787,-0.038708,-0.015587,0.06845,0.043189,0.013853,-0.05,-0.003283,-0.524953,0.070942,-0.332329,-264.822716,0.76323,62.093605
0.9985,-0.038506,-0.015834,0.069417,0.039684,0.012903,-0.05,-0.003375,-0.524553,0.069298,-0.332329,-264.822716,0.76323,62.093605
1.0184,-0.038587,-0.0159,0.068449,0.039512,0.013125,-0.05,-0.003375,-0.524553,0.069298,-0.332329,-264.822716,0.76323,62.093605
1.0388,-0.035573,-0.015039,0.067587,0.039585,0.013224,-0.05,-0.001744,-0.523931,0.066119,-0.370849,-264.80501,0.79897,62.117266
1.0581,-0.03534,-0.014936,0.068537,0.036508,0.012603,-0.05,-0.001656,-0.523908,0.066156,-0.370849,-264.80501,0.79897,62.117266
1.0785,-0.032405,-0.013901,0.06367,0.03628,0.012481,-0.05,0.000999,-0.523161,0.066705,-0.415084,-264.788622,0.835264,62.139617
1.0982,-0.032084,-0.014286,0.063666,0.033224,0.011811,-0.05,0.000635,-0.522921,0.064744,-0.415084,-264.788622,0.835264,62.139617
1.1186,-0.032112,-0.014011,0.063948,0.032928,0.012215,-0.05,0.000635,-0.522921,0.064744,-0.415084,-264.788622,0.835264,62.139617
1.1386,-0.029399,-0.013172,0.06317,0.032942,0.01193,-0.05,0.002134,-0.522278,0.061626,-0.456634,-264.773073,0.86848,62.161221
1.1584,-0.029612,-0.013183,0.062195,0.030172,0.01129,-0.05,0.002225,-0.522251,0.061671,-0.456634,-264.773073,0.86848,62.161221
1.1784,-0.026595,-0.012712,0.060465,0.030374,0.011317,-0.05,0.00324,-0.521687,0.0604,-0.507762,-264.759099,0.914492,62.181232
1.1983,-0.02667,-0.012467,0.060079,0.027315,0.011082,-0.05,0.003942,-0.521675,0.06021,-0.507762,-264.759099,0.914492,62.181232
1.2183,-0.026711,-0.012357,0.059232,0.027371,0.010843,-0.05,0.003942,-0.521675,0.06021,-0.507762,-264.759099,0.914492,62.181232
1.2384,-0.02433,-0.012022,0.058463,0.027395,0.010754,-0.05,0.004813,-0.520873,0.05697,-0.567844,-264.7458,0.945886,62.200397
1.2582,-0.024224,-0.011904,0.057656,0.024991,0.010579,-0.05,0.00489,-0.520877,0.057012,-0.567844,-264.7458,0.945886,62.200397
1.2784,-0.022085,-0.011408,0.054729,0.02487,0.010488,-0.05,0.006122,-0.520613,0.055865,-0.623715,-264.733286,0.98642,62.218809
1.2983,-0.021793,-0.011222,0.054709,0.022676,0.010183,-0.05,0.006066,-0.520575,0.05499,-0.623715,-264.733286,0.98642,62.218809
1.3182,-0.022042,-0.011345,0.054654,0.022374,0.010014,-0.05,0.006066,-0.520575,0.05499,-0.623715,-264.733286,0.98642,62.218809
1.3381,-0.01888,-0.010623,0.053484,0.022629,0.010124,-0.05,0.00693,-0.52004,0.052373,-0.673891,-264.721299,1.024657,62.236844
1.3581,-0.019696,-0.010762,0.05241,0.019421,0.009599,-0.05,0.007054,-0.520017,0.052389,-0.673891,-264.721299,1.024657,62.236844
1.3784,-0.017564,-0.010046,0.050128,0.020232,0.009715,-0.05,0.007782,-0.519673,0.050668,-0.742295,-264.710344,1.066611,62.253554
1.3983,-0.01772,-0.009694,0.049893,0.018046,0.009153,-0.05,0.007997,-0.519471,0.05014,-0.742295,-264.710344,1.066611,62.253554
1.4181,-0.017473,-0.010067,0.050157,0.018181,0.008798,-0.049893,0.007997,-0.519471,0.05014,-0.742295,-264.710344,1.066611,62.253554
1.4383,-0.015541,-0.009498,0.048382,0.017956,0.009178,-0.05,0.00889,-0.518982,0.048069,-0.817289,-264.700514,1.12013,62.268901
1.4583,-0.015608,-0.00951,0.048408,0.015982,0.008735,-0.048382,0.008928,-0.518965,0.048035,-0.817289,-264.700514,1.12013,62.268901
1.4785,-0.013306,-0.009519,0.046312,0.016049,0.008743,-0.048408,0.00972,-0.518559,0.046583,-0.872817,-264.689792,1.137204,62.285303
1.4985,-0.013621,-0.009481,0.046956,0.013732,0.008892,-0.046312,0.010135,-0.518749,0.046196,-0.872817,-264.689792,1.137204,62.285303
1.5183,-0.013225,-0.009445,0.046774,0.014051,0.008831,-0.046956,0.010135,-0.518749,0.046196,-0.872817,-264.689792,1.137204,62.285303
1.5383,-0.01132,-0.00868,0.043762,0.013652,0.008817,-0.046774,0.011338,-0.518452,0.044545,-0.915961,-264.679839,1.175324,62.301037
1.5585,-0.011651,-0.008487,0.043958,0.011689,0.008177,-0.043762,0.011333,-0.518422,0.044431,-0.915961,-264.679839,1.175324,62.301037
1.5785,-0.009895,-0.008186,0.041631,0.012012,0.007967,-0.043958,0.011266,-0.517646,0.042224,-0.954744,-264.670536,1.212379,62.316361
1.5985,-0.009444,-0.007986,0.041371,0.010227,0.007767,-0.041631,0.011367,-0.517658,0.041667,-0.954744,-264.670536,1.212379,62.316361
1.6186,-0.009514,-0.008329,0.041289,0.009767,0.007589,-0.041371,0.011367,-0.517658,0.041667,-0.954744,-264.670536,1.212379,62.316361
1.6383,-0.008009,-0.007594,0.040175,0.009849,0.007929,-0.041289,0.012057,-0.517499,0.039288,-1.008549,-264.66234,1.247661,62.330119
1.6581,-0.008203,-0.007703,0.040114,0.008308,0.007266,-0.040175,0.01209,-0.517473,0.039295,-1.008549,-264.66234,1.247661,62.330119
1.6781,-0.006652,-0.007618,0.036101,0.008505,0.007368,-0.040114,0.01259,-0.517006,0.038626,-1.066064,-264.65481,1.281857,62.342899
1.6985,-0.006546,-0.007112,0.036164,0.006923,0.007373,-0.036101,0.012157,-0.517129,0.036996,-1.066064,-264.65481,1.281857,62.342899
1.7183,-0.006831,-0.007025,0.036218,0.006923,0.007373,-0.036101,0.012157,-0.517129,0.036996,-1.066064,-264.65481,1.281857,62.342899
1.7382,-0.00552,-0.006965,0.034801,7.2e-05,6.9e-05,0.0,0.012001,-0.516348,0.034398,-1.122431,-264.647663,1.315284,62.355158
1.7582,-0.005154,-0.006662,0.036408,7.2e-05,6.9e-05,0.0,0.012027,-0.51636,0.034377,-1.122431,-264.647663,1.315284,62.355158
1.7784,-0.003973,-0.006484,0.034249,7.2e-05,6.9e-05,0.0,0.013665,-0.516033,0.035026,-1.130029,-264.641231,1.339697,62.367138
1.7982,-0.003929,-0.006234,0.035666,7.2e-05,6.9e-05,0.0,0.013597,-0.516083,0.034407,-1.130029,-264.641231,1.339697,62.367138
1.8185,-0.003586,-0.006652,0.034119,7.2e-05,6.9e-05,0.0,0.013597,-0.516083,0.034407,-1.130029,-264.641231,1.339697,62.367138
1.8384,-0.004159,-0.00623,0.033491,7.2e-05,6.9e-05,0.0,0.013844,-0.516241,0.033935,-1.054927,-264.641231,1.264596,62.369086
1.8581,-0.003975,-0.00649,0.033363,7.2e-05,6.9e-05,0.0,0.01378,-0.516218,0.033899,-1.054927,-264.641231,1.264596,62.369086
1.8783,-0.003981,-0.006501,0.035428,7.2e-05,6.9e-05,0.0,0.013037,-0.516206,0.033363,-0.980029,-264.641231,1.189698,62.369086
1.8983,-0.00379,-0.006627,0.033529,7.2e-05,6.9e-05,0.0,0.013635,-0.516192,0.034544,-0.980029,-264.641231,1.189698,62.369086
1.9184,-0.003796,-0.006484,0.035249,7.2e-05,6.9e-05,0.0,0.013635,-0.516192,0.034544,-0.980029,-264.641231,1.189698,62.369086
1.9383,-0.003908,-0.006534,0.031938,7.2e-05,6.9e-05,0.0,0.014178,-0.516167,0.035249,-0.90492,-264.641231,1.114589,62.369086
1.9587,-0.003766,-0.006656,0.033965,0.001035,0.00099,-0.005296,0.014054,-0.516174,0.035022,-0.90492,-264.641231,1.114589,62.369086
1.979,-0.00403,-0.005968,0.034462,0.002017,0.00193,-0.010319,0.013553,-0.516362,0.033965,-0.830007,-264.641231,1.039675,62.369086
1.9987,-0.00407,-0.006295,0.035157,0.002947,0.002819,-0.015075,0.013547,-0.515959,0.034253,-0.830007,-264.641231,1.039675,62.369086
2.0186,-0.003922,-0.005982,0.033624,0.003823,0.003657,-0.019556,0.013547,-0.515959,0.034253,-0.830007,-264.641231,1.039675,62.369086
2.0384,-0.003774,-0.006369,0.033175,0.004647,0.004445,-0.023769,0.013228,-0.515691,0.033612,-0.905331,-264.641178,1.115,62.369179
2.0582,-0.004065,-0.006446,0.033779,0.00542,0.005185,-0.027726,0.013222,-0.515718,0.033581,-0.905331,-264.641178,1.115,62.369179
2.0786,-0.003618,-0.006501,0.033626,0.006153,0.005886,-0.031476,0.013199,-0.516126,0.033639,-0.980125,-264.640462,1.189794,62.370439
2.0984,-0.003692,-0.006219,0.034717,0.006801,0.006505,-0.034788,0.013392,-0.516172,0.033614,-0.980125,-264.640462,1.189794,62.370439
2.1187,-0.003848,-0.006281,0.032369,0.007408,0.007086,-0.037892,0.013392,-0.516172,0.033614,-0.980125,-264.640462,1.189794,62.370439
2.1384,-0.003235,-0.006224,0.033081,0.007966,0.007619,-0.040745,0.012799,-0.515925,0.031794,-1.054996,-264.637942,1.264664,62.374203
2.1584,-0.003278,-0.006505,0.032124,0.00847,0.008102,-0.043325,0.012861,-0.515924,0.031869,-1.054996,-264.637942,1.264664,62.374203
2.1781,-0.00253,-0.006339,0.032261,0.008931,0.008543,-0.045685,0.013275,-0.516162,0.031286,-1.130114,-264.632925,1.330472,62.380461
2.1983,-0.002578,-0.006104,0.032752,0.009321,0.008916,-0.04768,0.013666,-0.516101,0.031738,-1.130114,-264.632925,1.330472,62.380461
2.2182,-0.002701,-0.006032,0.03097,0.009665,0.009245,-0.049436,0.013666,-0.516101,0.031738,-1.130114,-264.632925,1.330472,62.380461
2.2381,-0.001375,-0.005979,0.031727,0.009957,0.009524,-0.050931,0.013406,-0.515675,0.029444,-1.13854,-264.625414,1.330472,62.389212
2.2584,-0.001312,-0.005908,0.031554,0.010197,0.009754,-0.052157,0.013506,-0.515676,0.029556,-1.13854,-264.625414,1.330472,62.389212
2.2781,0.000114,-0.005626,0.028466,0.010382,0.009931,-0.053106,0.01509,-0.515521,0.030027,-1.13854,-264.616166,1.330472,62.400494
2.2984,-0.000215,-0.005921,0.030301,0.010515,0.010058,-0.053784,0.014865,-0.515446,0.028936,-1.13854,-264.616166,1.330472,62.400494
2.318,-0.000236,-0.005762,0.027851,0.010594,0.010134,-0.054192,0.014865,-0.515446,0.028936,-1.13854,-264.616166,1.330472,62.400494
2.3381,0.001341,-0.005553,0.028096,0.010621,0.010159,-0.054328,0.014404,-0.515278,0.025647,-1.13854,-264.606449,1.330472,62.41423
2.3588,0.001592,-0.005035,0.026652,0.010594,0.010134,-0.054191,0.014506,-0.515276,0.025762,-1.13854,-264.606449,1.330472,62.41423
2.3785,0.003459,-0.004742,0.021744,0.010514,0.010057,-0.053781,0.015567,-0.514524,0.024674,-1.13854,-264.596334,1.330472,62.430487
2.3981,0.003148,-0.004925,0.022948,0.010382,0.009931,-0.053105,0.015037,-0.514538,0.022762,-1.13854,-264.596334,1.330472,62.430487
2.4185,0.003492,-0.004814,0.025425,0.010196,0.009753,-0.052155,0.015037,-0.514538,0.022762,-1.13854,-264.596334,1.330472,62.430487
2.4382,0.005089,-0.00473,0.022087,0.009957,0.009524,-0.05093,0.016961,-0.514144,0.022786,-1.13854,-264.586219,1.330472,62.448289
2.459,0.00517,-0.004638,0.020597,0.009665,0.009245,-0.049437,0.016935,-0.514161,0.022677,-1.13854,-264.586219,1.330472,62.448289
2.4785,0.006977,-0.003822,0.018086,0.009319,0.008914,-0.047669,0.016065,-0.514142,0.01856,-1.13854,-264.576483,1.330472,62.465426
2.4984,0.007113,-0.004019,0.018401,0.008922,0.008534,-0.045638,0.016189,-0.513868,0.018043,-1.13854,-264.576483,1.330472,62.465426
2.5184,0.006929,-0.004229,0.017551,0.00847,0.008102,-0.043326,0.016189,-0.513868,0.018043,-1.13854,-264.576483,1.330472,62.465426
2.5384,0.009145,-0.003323,0.015455,0.007965,0.007619,-0.040744,0.016343,-0.513692,0.015144,-1.13854,-264.567196,1.330472,62.481772
2.5581,0.008908,-0.003453,0.015244,0.007408,0.007086,-0.03789,0.016412,-0.513643,0.015095,-1.13854,-264.567196,1.330472,62.481772
2.5782,0.01037,-0.002994,0.012333,0.006796,0.006501,-0.034763,0.017002,-0.513079,0.013585,-1.13854,-264.559141,1.330472,62.495948
2.5984,0.010471,-0.003001,0.013595,0.006134,0.005867,-0.031375,0.016845,-0.512968,0.012652,-1.13854,-264.559141,1.330472,62.495948
2.6181,0.010361,-0.002848,0.01326,0.005417,0.005182,-0.02771,0.016845,-0.512968,0.012652,-1.13854,-264.559141,1.330472,62.495948
2.6384,0.011457,-0.002486,0.010955,0.004646,0.004444,-0.023765,0.017478,-0.512456,0.011423,-1.13854,-264.552078,1.330472,62.50838
2.6581,0.011906,-0.002261,0.011322,0.003823,0.003657,-0.019556,0.017457,-0.512446,0.011338,-1.13854,-264.552078,1.330472,62.50838
2.6784,0.01239,-0.002341,0.009059,0.002926,0.002799,-0.014969,0.017887,-0.512026,0.010253,-1.13854,-264.546902,1.330472,62.517489
2.6981,0.012753,-0.002213,0.010314,0.00201,0.001923,-0.010281,0.01741,-0.512169,0.009432,-1.13854,-264.546902,1.330472,62.517489
2.7186,0.012709,-0.002137,0.011135,0.001036,0.000991,-0.005302,0.01741,-0.512169,0.009432,-1.13854,-264.546902,1.330472,62.517489
2.7382,0.013181,-0.001947,0.009807,0.0,0.0,0.0,0.018572,-0.511925,0.010183,-1.13854,-264.543258,1.330472,62.523904
2.7587,0.01327,-0.001509,0.011032,0.0,0.0,0.0,0.018552,-0.511921,0.010137,-1.13854,-264.543258,1.330472,62.523904
2.778,0.013556,-0.002231,0.009216,0.0,0.0,0.0,0.018935,-0.511439,0.010827,-1.13854,-264.542266,1.330472,62.525648
2.7983,0.013553,-0.002187,0.009262,0.0,0.0,0.0,0.01855,-0.511877,0.009875,-1.13854,-264.542266,1.330472,62.525648
2.8182,0.013566,-0.001943,0.007229,0.0,0.0,0.0,0.01855,-0.511877,0.009875,-1.13854,-264.542266,1.330472,62.525648
2.8383,0.013669,-0.002052,0.009188,0.0,0.0,0.0,0.017252,-0.51193,0.007229,-1.13854,-264.542266,1.330472,62.525648
2.8584,0.013445,-0.00244,0.007672,0.0,0.0,0.0,0.017332,-0.511937,0.00737,-1.13854,-264.542266,1.330472,62.525648
2.8782,0.013813,-0.002117,0.008788,0.0,0.0,0.0,0.017357,-0.512425,0.007672,-1.13854,-264.542266,1.330472,62.525648
2.8982,0.013756,-0.002426,0.009997,0.0,0.0,0.0,0.01789,-0.512239,0.008307,-1.13854,-264.542266,1.330472,62.525648
2.9185,0.013204,-0.001948,0.008397,0.0,0.0,0.0,0.01789,-0.512239,0.008307,-1.13854,-264.542266,1.330472,62.525648
2.9382,0.013563,-0.002389,0.008745,0.0,0.0,0.0,0.017487,-0.51193,0.008397,-1.13854,-264.542266,1.330472,62.525648
2.9581,0.013679,-0.00221,0.009527,0.0,0.0,0.0,0.01752,-0.511957,0.008419,-1.13854,-264.542266,1.330472,62.525648
2.9782,0.013329,-0.002009,0.008424,-9.9e-05,1.7e-05,0.0,0.018538,-0.512187,0.009527,-1.13854,-264.542266,1.330472,62.525648
2.9982,0.013523,-0.002048,0.009007,-9.9e-05,1.7e-05,0.0,0.018021,-0.512076,0.008903,-1.13854,-264.542266,1.330472,62.525648
3.0183,0.013408,-0.002146,0.009318,-9.9e-05,1.7e-05,0.0,0.018021,-0.512076,0.008903,-1.13854,-264.542266,1.330472,62.525648
3.0382,0.013385,-0.001987,0.009309,-9.9e-05,1.7e-05,0.0,0.01816,-0.512124,0.009318,-1.13854,-264.542266,1.330472,62.525648
3.0587,0.013513,-0.001948,0.009325,-9.9e-05,1.7e-05,0.0,0.018158,-0.512112,0.009317,-1.13854,-264.542266,1.330472,62.525648
3.0782,0.013894,-0.001921,0.008924,-9.9e-05,1.7e-05,0.0,0.018269,-0.511926,0.009325,-1.063443,-264.542266,1.255375,62.525648
3.0982,0.013687,-0.002099,0.010886,-9.9e-05,1.7e-05,0.0,0.01837,-0.511912,0.009095,-1.063443,-264.542266,1.255375,62.525648
3.1185,0.013708,-0.001863,0.008645,-9.9e-05,1.7e-05,0.0,0.01837,-0.511912,0.009095,-1.063443,-264.542266,1.255375,62.525648
3.1384,0.013334,-0.002428,0.00864,-9.9e-05,1.7e-05,0.0,0.018116,-0.511844,0.008645,-0.988391,-264.542266,1.180323,62.525648
3.1582,0.014009,-0.001898,0.010487,-9.9e-05,1.7e-05,0.0,0.01809,-0.511884,0.008644,-0.988391,-264.542266,1.180323,62.525648
3.1782,0.013403,-0.002174,0.009554,-9.9e-05,1.7e-05,0.0,0.019357,-0.51187,0.010487,-0.913394,-264.542266,1.105325,62.525648
3.1985,0.013449,-0.0024,0.008448,-0.002001,0.000343,-0.001396,0.018738,-0.512031,0.009953,-0.913394,-264.542266,1.105325,62.525648
3.2188,0.013838,-0.002422,0.008839,-0.003898,0.000668,-0.002719,0.018738,-0.512031,0.009953,-0.913394,-264.542266,1.105325,62.525648
3.2386,0.013215,-0.00222,0.007449,-0.005685,0.000974,-0.003966,0.018346,-0.512402,0.008839,-0.83844,-264.542266,1.030372,62.525648
3.259,0.013493,-0.002197,0.009215,-0.007375,0.001264,-0.005145,0.018263,-0.51239,0.008753,-0.83844,-264.542266,1.030372,62.525648
3.2784,0.01337,-0.002209,0.009428,-0.009006,0.001543,-0.006283,0.018193,-0.512175,0.009215,-0.763511,-264.542266,0.955442,62.525648
3.2985,0.013394,-0.001973,0.009506,-0.010447,0.00179,-0.007288,0.018184,-0.512181,0.009336,-0.763511,-264.542266,0.955442,62.525648
3.3186,0.013456,-0.002304,0.009397,-0.011829,0.002027,-0.008252,0.018184,-0.512181,0.009336,-0.763511,-264.542266,0.955442,62.525648
3.3385,0.013763,-0.002209,0.008495,-0.013114,0.002247,-0.009148,0.018248,-0.512281,0.009397,-0.688435,-264.542266,0.880366,62.525648
3.3581,0.013755,-0.001764,0.009079,-0.014289,0.002448,-0.009968,0.018241,-0.512277,0.009353,-0.688435,-264.542266,0.880366,62.525648
3.3782,0.013466,-0.001896,0.009627,-0.015367,0.002633,-0.01072,0.018386,-0.511743,0.009079,-0.613515,-264.542266,0.805447,62.525648
3.3983,0.013751,-0.001896,0.008498,-0.016336,0.002799,-0.011396,0.01838,-0.511816,0.00939,-0.613515,-264.542266,0.805447,62.525648
3.4183,0.013478,-0.002087,0.009205,-0.017213,0.002949,-0.012008,0.01838,-0.511816,0.00939,-0.613515,-264.542266,0.805447,62.525648
3.4384,0.0137,-0.001906,0.009177,-0.017979,0.003081,-0.012542,0.018172,-0.512065,0.009205,-0.538546,-264.542266,0.730478,62.525648
3.4585,0.013483,-0.002001,0.007642,-0.018642,0.003194,-0.013004,0.018187,-0.512052,0.009203,-0.538546,-264.542266,0.730478,62.525648
3.4784,0.013413,-0.002023,0.010198,-0.019206,0.003291,-0.013398,0.017381,-0.511986,0.007642,-0.463553,-264.542266,0.655484,62.525648
3.4985,0.012943,-0.001901,0.009071,-0.019668,0.00337,-0.013721,0.018087,-0.511992,0.009106,-0.463553,-264.542266,0.655484,62.525648
3.5183,0.013561,-0.002247,0.008447,-0.020026,0.003431,-0.01397,0.018087,-0.511992,0.009106,-0.463553,-264.542266,0.655484,62.525648
3.5382,0.013661,-0.002065,0.009895,-0.020281,0.003475,-0.014148,0.017869,-0.512228,0.008447,-0.38843,-264.542266,0.580361,62.525648
3.5585,0.01361,-0.001829,0.009855,-0.020435,0.003502,-0.014256,0.017941,-0.512212,0.008571,-0.38843,-264.542266,0.580361,62.525648
3.5784,0.013568,-0.001931,0.011171,-0.020486,0.00351,-0.014291,0.018636,-0.511804,0.009855,-0.313029,-264.542266,0.50496,62.525648
3.5985,0.013354,-0.00212,0.008569,-0.020434,0.003501,-0.014255,0.018992,-0.511858,0.0106,-0.313029,-264.542266,0.50496,62.525648
3.6187,0.013403,-0.002114,0.008973,-0.020282,0.003475,-0.014149,0.018992,-0.511858,0.0106,-0.313029,-264.542266,0.50496,62.525648
3.6386,0.013296,-0.001748,0.009244,-0.020026,0.003431,-0.01397,0.017979,-0.512093,0.008973,-0.2384,-264.542266,0.430332,62.525648
3.6582,0.01345,-0.002138,0.009611,-0.019667,0.00337,-0.01372,0.017981,-0.512076,0.008985,-0.2384,-264.542266,0.430332,62.525648
3.6783,0.013452,-0.001879,0.009011,-0.019206,0.003291,-0.013398,0.018352,-0.512114,0.009611,-0.163539,-264.542266,0.355471,62.525648
3.6982,0.013605,-0.001908,0.010552,-0.018643,0.003195,-0.013006,0.018179,-0.511969,0.00927,-0.163539,-264.542266,0.355471,62.525648
3.7184,0.013755,-0.00171,0.009267,-0.017977,0.00308,-0.012541,0.018179,-0.511969,0.00927,-0.163539,-264.542266,0.355471,62.525648
3.7383,0.013815,-0.001979,0.009894,-0.017209,0.002949,-0.012005,0.01848,-0.511688,0.009267,-0.088547,-264.542266,0.280478,62.525648
3.7581,0.013532,-0.002111,0.008559,-0.016339,0.0028,-0.011398,0.018507,-0.511707,0.009311,-0.088547,-264.542266,0.280478,62.525648
3.7783,0.013406,-0.002367,0.010237,-0.015365,0.002633,-0.010718,0.017897,-0.512092,0.008559,-0.013544,-264.542267,0.205475,62.525648
3.7982,0.013459,-0.002085,0.009098,-0.01429,0.002449,-0.009969,0.018311,-0.512233,0.009512,-0.013544,-264.542267,0.205475,62.525648
3.8182,0.013831,-0.00213,0.009496,-0.013112,0.002247,-0.009147,0.018311,-0.512233,0.009512,-0.013544,-264.542267,0.205475,62.525648
3.8383,0.013303,-0.002383,0.008973,-0.011832,0.002027,-0.008254,0.018674,-0.512107,0.009496,0.061447,-264.542267,0.130484,62.525648
3.8586,0.013453,-0.00198,0.008195,-0.01045,0.001791,-0.00729,0.018618,-0.512124,0.00946,0.061447,-264.542267,0.130484,62.525648
3.878,0.013665,-0.002088,0.008972,-0.008962,0.001536,-0.006252,0.017633,-0.511963,0.008195,0.136458,-264.542269,0.055473,62.525646
3.8986,0.013597,-0.002168,0.009738,-0.007379,0.001264,-0.005148,0.017979,-0.512023,0.008637,0.136458,-264.542269,0.055473,62.525646
3.9186,0.013455,-0.001951,0.009953,-0.005688,0.000975,-0.003968,0.017979,-0.512023,0.008637,0.136458,-264.542269,0.055473,62.525646
3.9383,0.013421,-0.002309,0.010003,-0.003894,0.000667,-0.002717,0.01853,-0.511926,0.009953,0.211449,-264.542277,-0.019517,62.525636
3.9588,0.013753,-0.002276,0.009407,-0.002,0.000343,-0.001395,0.01853,-0.511953,0.009957,0.211449,-264.542277,-0.019517,62.525636
3.9785,0.01354,-0.002042,0.008579,-1e-06,0.0,-1e-06,0.018548,-0.512254,0.009407,0.249407,-264.542303,-0.09479,62.525607
3.9982,0.01362,-0.002561,0.008124,0.0,0.0,0.0,0.018191,-0.512124,0.00894,0.249407,-264.542303,-0.09479,62.525607
4.0185,0.0136,-0.001903,0.009079,0.0,0.0,0.0,0.018191,-0.512124,0.00894,0.249407,-264.542303,-0.09479,62.525607
4.0387,0.013424,-0.002103,0.008521,0.0,0.0,0.0,0.018226,-0.511882,0.009078,0.249407,-264.542334,-0.169579,62.525571
4.0587,0.013916,-0.00265,0.009619,0.0,0.0,0.0,0.018192,-0.511897,0.009036,0.249407,-264.542334,-0.169579,62.525571
4.0785,0.013645,-0.001944,0.010347,0.0,0.0,0.0,0.018822,-0.512627,0.009619,0.249407,-264.542334,-0.169579,62.525571
4.0982,0.013313,-0.002054,0.007112,0.0,0.0,0.0,0.018879,-0.512224,0.010032,0.249407,-264.542334,-0.169579,62.525571
4.1187,0.013455,-0.001692,0.009868,0.0,0.0,0.0,0.018879,-0.512224,0.010032,0.249407,-264.542334,-0.169579,62.525571
4.1382,0.013382,-0.0021,0.009319,0.0,0.0,0.0,0.018488,-0.511667,0.009868,0.249407,-264.542334,-0.169579,62.525571
4.1581,0.013721,-0.002236,0.010497,0.0,0.0,0.0,0.018464,-0.511695,0.009832,0.249407,-264.542334,-0.169579,62.525571
4.1781,0.013602,-0.002307,0.010719,0.0,0.0,0.0,0.019074,-0.512208,0.010497,0.249407,-264.542334,-0.169579,62.525571
4.1982,0.013316,-0.002054,0.009436,0.0,0.0,0.0,0.019071,-0.512248,0.010623,0.249407,-264.542334,-0.169579,62.525571
4.2182,0.013852,-0.001896,0.010713,-9.9e-05,1.6e-05,0.0,0.019071,-0.512248,0.010623,0.249407,-264.542334,-0.169579,62.525571
4.2383,0.013353,-0.001861,0.009511,-9.9e-05,1.6e-05,0.0,0.019316,-0.511866,0.010713,0.249407,-264.542334,-0.169579,62.525571
4.2585,0.013669,-0.002056,0.010537,-9.9e-05,1.6e-05,0.0,0.019241,-0.511864,0.010632,0.249407,-264.542334,-0.169579,62.525571
4.2782,0.013678,-0.002266,0.010164,-9.9e-05,1.6e-05,0.0,0.019043,-0.512028,0.010537,0.174411,-264.542337,-0.162462,62.525569
4.2983,0.01355,-0.002363,0.008321,-9.9e-05,1.6e-05,0.0,0.01894,-0.512149,0.010325,0.174411,-264.542337,-0.162462,62.525569
4.3184,0.013734,-0.001918,0.008225,-9.9e-05,1.6e-05,0.0,0.01894,-0.512149,0.010325,0.174411,-264.542337,-0.162462,62.525569
4.3383,0.013719,-0.002237,0.008991,-9.9e-05,1.6e-05,0.0,0.017928,-0.511901,0.008225,0.099418,-264.542343,-0.162462,62.525563
4.3582,0.013552,-0.002091,0.010112,-9.9e-05,1.6e-05,0.0,0.017954,-0.511922,0.008278,0.099418,-264.542343,-0.162462,62.525563
4.3783,0.013598,-0.002464,0.007965,-9.9e-05,1.6e-05,0.0,0.018708,-0.512065,0.010112,0.024299,-264.542356,-0.162462,62.52555
4.3985,0.01312,-0.002303,0.009662,-9.9e-05,1.6e-05,0.0,0.018113,-0.512282,0.008893,0.024299,-264.542356,-0.162462,62.52555
4.4182,0.013417,-0.002152,0.009313,-9.9e-05,1.6e-05,0.0,0.018113,-0.512282,0.008893,0.024299,-264.542356,-0.162462,62.52555
4.4384,0.01353,-0.002159,0.008877,-0.001942,0.000318,-0.001378,0.018164,-0.512129,0.009313,-0.050614,-264.542379,-0.162462,62.525527
4.4584,0.013284,-0.002235,0.009162,-0.003786,0.000621,-0.002687,0.018154,-0.51213,0.009274,-0.050614,-264.542379,-0.162462,62.525527
4.4785,0.013593,-0.002281,0.009363,-0.005531,0.000907,-0.003925,0.017953,-0.512214,0.009162,-0.126182,-264.542412,-0.162462,62.525494
4.4987,0.013695,-0.001994,0.01013,-0.00718,0.001177,-0.005096,0.01819,-0.512239,0.009277,-0.126182,-264.542412,-0.162462,62.525494
4.5189,0.013274,-0.001626,0.009835,-0.008724,0.00143,-0.006192,0.01819,-0.512239,0.009277,-0.126182,-264.542412,-0.162462,62.525494
4.5384,0.013379,-0.002221,0.009203,-0.01017,0.001667,-0.007218,0.018288,-0.511601,0.009835,-0.051634,-264.542425,-0.237009,62.52548
4.5584,0.013515,-0.002177,0.008536,-0.011516,0.001887,-0.008173,0.01827,-0.511652,0.009781,-0.051634,-264.542425,-0.237009,62.52548
4.5784,0.013466,-0.001787,0.008535,-0.012793,0.002097,-0.009079,0.017852,-0.512156,0.008531,0.023745,-264.542588,-0.312389,62.525296
4.5981,0.013681,-0.001997,0.008916,-0.01391,0.00228,-0.009872,0.017831,-0.511933,0.008533,0.023745,-264.542588,-0.312389,62.525296
4.6183,0.013613,-0.002069,0.009052,-0.014973,0.002454,-0.010627,0.017831,-0.511933,0.008533,0.023745,-264.542588,-0.312389,62.525296
4.6387,0.013695,-0.001797,0.008152,-0.015904,0.002607,-0.011287,0.018127,-0.512033,0.009009,0.09838,-264.543413,-0.387024,62.524367
4.6587,0.013353,-0.002345,0.009278,-0.016752,0.002746,-0.011889,0.018105,-0.512015,0.008949,0.09838,-264.543413,-0.387024,62.524367
4.6781,0.013386,-0.00161,0.008255,-0.0175,0.002868,-0.01242,0.017818,-0.512281,0.009131,0.173236,-264.546187,-0.46188,62.521248
4.6983,0.013241,-0.00184,0.009284,-0.018149,0.002975,-0.01288,0.017657,-0.511882,0.00861,0.173236,-264.546187,-0.46188,62.521248
4.7187,0.013035,-0.002118,0.008711,-0.018697,0.003064,-0.013269,0.017657,-0.511882,0.00861,0.173236,-264.546187,-0.46188,62.521248
4.7382,0.012326,-0.00195,0.009589,-0.019146,0.003138,-0.013588,0.016874,-0.512008,0.008297,0.248316,-264.551456,-0.536959,62.515634
4.7586,0.012245,-0.002132,0.009445,-0.019494,0.003195,-0.013835,0.016881,-0.512,0.008376,0.248316,-264.551456,-0.536959,62.515634
4.7784,0.012159,-0.001861,0.007712,-0.019744,0.003236,-0.014013,0.016364,-0.512012,0.008957,0.263298,-264.559183,-0.538482,62.507507
4.7987,0.011759,-0.001671,0.007967,-0.019894,0.003261,-0.014119,0.01612,-0.511905,0.008184,0.263298,-264.559183,-0.538482,62.507507
4.8187,0.012131,-0.001716,0.00849,-0.019944,0.003269,-0.014154,0.01612,-0.511905,0.008184,0.263298,-264.559183,-0.538482,62.507507
4.8384,0.011725,-0.001851,0.00632,-0.019894,0.003261,-0.014119,0.015513,-0.51155,0.007818,0.263298,-264.567276,-0.538482,62.498405
4.8593,0.011178,-0.001452,0.007536,-0.019745,0.003236,-0.014013,0.015441,-0.511569,0.007681,0.263298,-264.567276,-0.538482,62.498405
4.8782,0.010734,-0.001174,0.007451,-0.019494,0.003195,-0.013836,0.014241,-0.511315,0.006983,0.263298,-264.57551,-0.538482,62.489144
4.8983,0.010928,-0.001212,0.005465,-0.019146,0.003138,-0.013588,0.014308,-0.511214,0.007175,0.263298,-264.57551,-0.538482,62.489144
4.9183,0.011183,-0.001496,0.006171,-0.018698,0.003065,-0.01327,0.014308,-0.511214,0.007175,0.263298,-264.57551,-0.538482,62.489144
4.9382,0.010133,-0.001285,0.006017,-0.018148,0.002975,-0.01288,0.013369,-0.511334,0.00549,0.263298,-264.58369,-0.538482,62.479944
4.9586,0.010308,-0.001721,0.004518,-0.017501,0.002868,-0.012421,0.013332,-0.511326,0.005509,0.263298,-264.58369,-0.538482,62.479944
4.9781,0.009781,-0.001042,0.005848,-0.016753,0.002746,-0.01189,0.011889,-0.511601,0.004005,0.263298,-264.591435,-0.538482,62.471233
4.9984,0.009861,-0.001263,0.005288,-0.015899,0.002606,-0.011284,0.012294,-0.511264,0.004987,0.263298,-264.591435,-0.538482,62.471233
5.0185,0.009636,-0.000987,0.005264,-0.014952,0.002451,-0.010612,0.012294,-0.511264,0.004987,0.263298,-264.591435,-0.538482,62.471233
5.0393,0.009296,-0.001244,0.003878,-0.013908,0.00228,-0.00987,0.011467,-0.510845,0.004658,0.263298,-264.598685,-0.538482,62.463079
5.0583,0.00892,-0.001243,0.004392,-0.012764,0.002092,-0.009059,0.011434,-0.510866,0.004594,0.263298,-264.598685,-0.538482,62.463079
5.0783,0.008687,-0.000845,0.002573,-0.011518,0.001888,-0.008174,0.010581,-0.511146,0.003982,0.263298,-264.604904,-0.538482,62.456085
5.0982,0.008604,-0.000923,0.003858,-0.010166,0.001666,-0.007215,0.010174,-0.510961,0.003123,0.263298,-264.604904,-0.538482,62.456085
5.1182,0.008815,-0.000937,0.003152,-0.008728,0.001431,-0.006194,0.010174,-0.510961,0.003123,0.263298,-264.604904,-0.538482,62.456085
5.1387,0.008188,-0.000889,0.00438,-0.007177,0.001176,-0.005094,0.009804,-0.510834,0.002713,0.263298,-264.610172,-0.538482,62.45016
5.1585,0.008557,-0.000678,0.00385,-0.005535,0.000907,-0.003929,0.00983,-0.510835,0.002817,0.263298,-264.610172,-0.538482,62.45016
5.1784,0.008223,-0.001139,0.003213,-0.003791,0.000621,-0.002691,0.010183,-0.51062,0.003611,0.263298,-264.613788,-0.538482,62.446094
5.1985,0.007939,-0.000604,0.00247,-0.00195,0.00032,-0.001384,0.009958,-0.510907,0.003354,0.263298,-264.613788,-0.538482,62.446094
5.2187,0.007977,-0.000916,0.002497,0.0,0.0,0.0,0.009958,-0.510907,0.003354,0.263298,-264.613788,-0.538482,62.446094
5.2382,0.007748,-0.00056,0.001598,0.0,0.0,0.0,0.008981,-0.510871,0.002306,0.263298,-264.61608,-0.538482,62.443515
5.2584,0.007747,-0.000548,0.002417,0.0,0.0,0.0,0.008947,-0.510849,0.002255,0.263298,-264.61608,-0.538482,62.443515
5.2785,0.007637,-0.000585,0.002918,0.0,0.0,0.0,0.00898,-0.510547,0.002417,0.263298,-264.61608,-0.538482,62.443515
5.2982,0.007799,-0.000653,0.002429,0.0,0.0,0.0,0.009062,-0.510567,0.002699,0.263298,-264.61608,-0.538482,62.443515
5.3182,0.007893,-0.000667,0.002712,0.0,0.0,0.0,0.009062,-0.510567,0.002699,0.263298,-264.61608,-0.538482,62.443515
5.3385,0.007546,-0.000596,0.003186,0.0,0.0,0.0,0.009277,-0.510665,0.002712,0.263298,-264.61608,-0.538482,62.443515
5.3587,0.007679,-0.000358,0.004406,0.0,0.0,0.0,0.009269,-0.51066,0.002746,0.263298,-264.61608,-0.538482,62.443515
5.3784,0.007693,-0.000319,0.002624,0.0,0.0,0.0,0.009926,-0.510353,0.004406,0.263298,-264.61608,-0.538482,62.443515
5.3985,0.007796,-0.00069,0.001036,0.0,0.0,0.0,0.009418,-0.510333,0.003394,0.263298,-264.61608,-0.538482,62.443515
5.4182,0.007846,-0.000672,0.004644,0.0,0.0,0.0,0.009418,-0.510333,0.003394,0.263298,-264.61608,-0.538482,62.443515
5.4386,0.007792,-0.00077,0.003101,0.0,0.0,0.0,0.010215,-0.510667,0.004644,0.263298,-264.61608,-0.538482,62.443515
5.4585,0.007354,-0.000629,0.001458,-9.9e-05,1e-05,0.0,0.010158,-0.510674,0.00454,0.263298,-264.61608,-0.538482,62.443515
5.479,0.007857,-0.000822,0.002549,-9.9e-05,1e-05,0.0,0.008098,-0.510629,0.001458,0.263298,-264.61608,-0.538482,62.443515
5.4986,0.00761,-0.001177,0.003071,-9.9e-05,1e-05,0.0,0.008702,-0.510738,0.00208,0.263298,-264.61608,-0.538482,62.443515
5.5184,0.007596,-0.000382,0.003936,-9.9e-05,1e-05,0.0,0.008702,-0.510738,0.00208,0.263298,-264.61608,-0.538482,62.443515
5.5382,0.007539,-0.000933,0.002099,-9.9e-05,1e-05,0.0,0.009603,-0.510378,0.003936,0.188188,-264.616081,-0.463373,62.443515
5.5588,0.007451,-0.000495,0.003253,-9.9e-05,1e-05,0.0,0.009541,-0.510413,0.003821,0.188188,-264.616081,-0.463373,62.443515
5.5787,0.007613,-0.000617,0.003351,-9.9e-05,1e-05,0.0,0.00911,-0.510492,0.003253,0.113293,-264.616082,-0.388478,62.443514
5.5983,0.00792,-0.00095,0.00095,-9.9e-05,1e-05,0.0,0.009229,-0.51056,0.003308,0.113293,-264.616082,-0.388478,62.443514
5.6182,0.007515,-0.000518,0.001595,-9.9e-05,1e-05,0.0,0.009229,-0.51056,0.003308,0.113293,-264.616082,-0.388478,62.443514
5.6385,0.007976,-0.000795,0.003069,-9.9e-05,1e-05,0.0,0.008328,-0.510517,0.001595,0.038091,-264.616087,-0.313275,62.443509
5.6582,0.00791,-0.000746,0.002275,-9.9e-05,1e-05,0.0,0.008435,-0.510541,0.001726,0.038091,-264.616087,-0.313275,62.443509
5.6786,0.007609,-0.000377,0.002592,-0.001136,0.000116,-0.000452,0.009069,-0.510745,0.002275,-0.037457,-264.616101,-0.237727,62.443495
5.6985,0.007775,-0.000757,0.002756,-0.002216,0.000226,-0.000882,0.00899,-0.510535,0.002454,-0.037457,-264.616101,-0.237727,62.443495
5.7183,0.008002,-0.000907,0.002001,-0.00324,0.00033,-0.00129,0.00899,-0.510535,0.002454,-0.037457,-264.616101,-0.237727,62.443495
5.7388,0.007818,-0.000775,0.002479,-0.004205,0.000429,-0.001674,0.009019,-0.510906,0.002001,-0.10163,-264.616129,-0.163487,62.443467
5.7586,0.007704,-0.000739,0.002934,-0.005108,0.000521,-0.002034,0.009024,-0.510896,0.002038,-0.10163,-264.616129,-0.163487,62.443467
5.7782,0.00762,-0.000637,0.002246,-0.005955,0.000607,-0.002371,0.009169,-0.510733,0.002929,-0.026407,-264.61645,-0.23871,62.44313
5.7981,0.007849,-0.000462,0.002602,-0.006743,0.000688,-0.002685,0.008932,-0.510677,0.002534,-0.026407,-264.61645,-0.23871,62.44313
5.8184,0.007391,-0.000712,0.002074,-0.007475,0.000762,-0.002976,0.008932,-0.510677,0.002534,-0.026407,-264.61645,-0.23871,62.44313
5.8382,0.007383,-0.000848,0.002656,-0.008147,0.000831,-0.003244,0.00831,-0.510692,0.002032,0.048613,-264.617594,-0.31373,62.441932
5.8584,0.007823,-0.000506,0.0019,-0.00876,0.000893,-0.003488,0.008336,-0.510702,0.002074,0.048613,-264.617594,-0.31373,62.441932
5.8785,0.007513,-0.000589,0.001027,-0.009316,0.00095,-0.003709,0.008541,-0.510478,0.001804,0.123376,-264.620222,-0.332348,62.439179
5.8982,0.007698,-0.000528,0.003289,-0.009813,0.001001,-0.003907,0.00822,-0.510538,0.001346,0.123376,-264.620222,-0.332348,62.439179
5.9183,0.006997,-0.00057,0.003894,-0.010251,0.001045,-0.004081,0.00822,-0.510538,0.001346,0.123376,-264.620222,-0.332348,62.439179
5.9381,0.007175,-0.000946,0.002886,-0.010633,0.001084,-0.004234,0.00856,-0.510525,0.003726,0.14026,-264.623753,-0.332348,62.435481
5.9587,0.006936,-0.000515,0.004328,-0.010953,0.001117,-0.004361,0.008554,-0.510557,0.003655,0.14026,-264.623753,-0.332348,62.435481
5.9786,0.006917,-0.000644,0.001615,-0.011216,0.001144,-0.004466,0.008749,-0.510472,0.004171,0.14026,-264.627886,-0.332348,62.431151
5.9984,0.006429,-0.000418,0.002827,-0.011422,0.001165,-0.004547,0.008123,-0.510565,0.002691,0.14026,-264.627886,-0.332348,62.431151
6.0181,0.006603,-0.000384,0.002609,-0.011567,0.00118,-0.004605,0.008123,-0.510565,0.002691,0.14026,-264.627886,-0.332348,62.431151
6.0384,0.005993,-0.000472,0.002905,-0.011657,0.001189,-0.004641,0.007402,-0.510329,0.002398,0.14026,-264.632336,-0.332348,62.42649
6.0586,0.006183,-8.6e-05,0.001677,-0.011685,0.001192,-0.004652,0.007391,-0.51034,0.002436,0.14026,-264.632336,-0.332348,62.42649
6.0787,0.005782,-0.0006,0.003515,-0.011655,0.001189,-0.004641,0.006595,-0.510041,0.001501,0.14026,-264.636981,-0.332348,62.421624
6.0987,0.005905,-0.000493,0.001994,-0.011568,0.00118,-0.004606,0.007099,-0.510353,0.002631,0.14026,-264.636981,-0.332348,62.421624
6.1184,0.005755,-0.000396,0.001962,-0.011423,0.001165,-0.004548,0.007099,-0.510353,0.002631,0.14026,-264.636981,-0.332348,62.421624
6.1381,0.005093,-0.000593,0.001486,-0.011218,0.001144,-0.004466,0.006186,-0.510338,0.001736,0.14026,-264.641695,-0.332348,62.416687
6.1581,0.005309,-0.000236,0.002239,-0.010956,0.001117,-0.004362,0.006153,-0.510352,0.001716,0.14026,-264.641695,-0.332348,62.416687
6.1782,0.004623,-0.000156,0.001127,-0.010635,0.001085,-0.004234,0.00601,-0.510191,0.002064,0.14026,-264.646317,-0.332348,62.411844
6.1982,0.005006,-0.000465,0.001574,-0.010253,0.001046,-0.004082,0.005488,-0.510165,0.001504,0.14026,-264.646317,-0.332348,62.411844
6.2182,0.004917,-0.000311,0.001467,-0.009818,0.001001,-0.003909,0.005488,-0.510165,0.001504,0.14026,-264.646317,-0.332348,62.411844
6.2382,0.004561,-0.000499,0.001605,-0.009317,0.00095,-0.00371,0.005134,-0.510257,0.001255,0.14026,-264.650735,-0.332348,62.407217
6.2581,0.004318,-0.000166,0.000389,-0.008767,0.000894,-0.00349,0.005137,-0.510273,0.001274,0.14026,-264.650735,-0.332348,62.407217
6.2781,0.004377,-5.2e-05,0.001189,-0.008152,0.000831,-0.003246,0.004137,-0.510128,0.000238,0.14026,-264.654706,-0.332348,62.403057
6.2981,0.003816,-0.000413,0.000223,-0.007483,0.000763,-0.002979,0.004575,-0.510079,0.000764,0.14026,-264.654706,-0.332348,62.403057
6.3181,0.003782,0.000168,0.000418,-0.006752,0.000689,-0.002688,0.004575,-0.510079,0.000764,0.14026,-264.654706,-0.332348,62.403057
6.3383,0.003523,1.7e-05,0.001266,-0.005963,0.000608,-0.002374,0.003569,-0.509789,0.000248,0.14026,-264.658257,-0.332348,62.399337
6.3587,0.003694,3.6e-05,0.002736,-0.005117,0.000522,-0.002037,0.003603,-0.509803,0.000323,0.14026,-264.658257,-0.332348,62.399337
6.3784,0.003052,0.000232,0.00064,-0.00421,0.000429,-0.001676,0.00483,-0.509936,0.002633,0.14026,-264.660974,-0.332348,62.396491
6.3982,0.003048,0.00022,0.000714,-0.003244,0.000331,-0.001292,0.003974,-0.509838,0.00149,0.14026,-264.660974,-0.332348,62.396491
6.4185,0.003386,-6.4e-05,0.000966,-0.002225,0.000227,-0.000886,0.003974,-0.509838,0.00149,0.14026,-264.660974,-0.332348,62.396491
6.4381,0.002908,2.1e-05,0.001908,-0.001138,0.000116,-0.000453,0.00363,-0.510039,0.000867,0.14026,-264.66305,-0.332348,62.394317
6.4582,0.003063,6e-05,0.001892,0.0,0.0,0.0,0.003642,-0.510034,0.000945,0.14026,-264.66305,-0.332348,62.394317
6.4782,0.0031,0.000355,0.000975,0.0,0.0,0.0,0.003943,-0.509931,0.001858,0.14026,-264.663945,-0.332348,62.39338
6.4982,0.002868,0.000128,0.000192,0.0,0.0,0.0,0.003736,-0.509768,0.001353,0.14026,-264.663945,-0.332348,62.39338
6.5189,0.003194,-3.6e-05,0.001502,0.0,0.0,0.0,0.003736,-0.509768,0.001353,0.14026,-264.663945,-0.332348,62.39338
6.5382,0.003211,9.1e-05,0.000675,0.0,0.0,0.0,0.00396,-0.510036,0.001502,0.14026,-264.663945,-0.332348,62.39338
6.5584,0.003096,-0.000346,-0.000936,0.0,0.0,0.0,0.003931,-0.510027,0.001444,0.14026,-264.663945,-0.332348,62.39338
6.5782,0.002688,-0.000319,-0.00045,0.0,0.0,0.0,0.002619,-0.510346,-0.000936,0.14026,-264.663945,-0.332348,62.39338
6.5982,0.003133,-0.000348,0.000461,0.0,0.0,0.0,0.002527,-0.51033,-0.00066,0.14026,-264.663945,-0.332348,62.39338
6.6181,0.003138,-0.000133,-4.6e-05,0.0,0.0,0.0,0.002527,-0.51033,-0.00066,0.14026,-264.663945,-0.332348,62.39338
6.6382,0.00321,-8.5e-05,0.001387,0.0,0.0,0.0,0.003115,-0.510133,-4.6e-05,0.14026,-264.663945,-0.332348,62.39338
6.6581,0.003099,-0.000175,0.000995,0.0,0.0,0.0,0.003169,-0.51013,5.2e-05,0.14026,-264.663945,-0.332348,62.39338
6.6785,0.003399,0.000165,0.000832,0.0,0.0,0.0,0.003606,-0.510175,0.000995,0.14026,-264.663945,-0.332348,62.39338
6.6981,0.003244,-0.000342,0.002215,-0.0001,-5e-06,0.0,0.00373,-0.509981,0.000903,0.14026,-264.663945,-0.332348,62.39338
6.7183,0.003103,-0.000151,0.000534,-0.0001,-5e-06,0.0,0.00373,-0.509981,0.000903,0.14026,-264.663945,-0.332348,62.39338
6.7384,0.003138,0.000189,-5.3e-05,-0.0001,-5e-06,0.0,0.003376,-0.510151,0.000534,0.14026,-264.663945,-0.332348,62.39338
6.7592,0.003092,-6.9e-05,-0.000645,-0.0001,-5e-06,0.0,0.003356,-0.510125,0.00049,0.14026,-264.663945,-0.332348,62.39338
6.7782,0.002821,-7e-05,0.000866,-0.0001,-5e-06,0.0,0.002763,-0.510069,-0.000645,0.064996,-264.663948,-0.257083,62.393376
6.7982,0.003365,-9.8e-05,0.001045,-0.0001,-5e-06,0.0,0.003042,-0.510069,0.000199,0.064996,-264.663948,-0.257083,62.393376
6.8182,0.003213,-0.000439,-0.001322,-0.0001,-5e-06,0.0,0.003042,-0.510069,0.000199,0.064996,-264.663948,-0.257083,62.393376
6.8383,0.002855,0.000104,0.000752,-0.0001,-5e-06,0.0,0.002538,-0.510438,-0.001322,0.047816,-264.663957,-0.18235,62.393368
6.8587,0.0032,-0.000342,0.001452,-0.0001,-5e-06,0.0,0.002584,-0.510403,-0.001186,0.047816,-264.663957,-0.18235,62.393368
6.8784,0.003454,-0.000262,0.001625,-0.0001,-5e-06,0.0,0.003939,-0.510342,0.001452,0.047816,-264.663974,-0.107341,62.393351
6.8984,0.003112,3.4e-05,-0.0001,-3e-06,-0.0,-1e-06,0.004134,-0.510296,0.00155,0.047816,-264.663974,-0.107341,62.393351
6.9183,0.002749,0.000262,0.000913,-0.000498,-2.4e-05,-0.000122,0.004134,-0.510296,0.00155,0.047816,-264.663974,-0.107341,62.393351
