mach0312/omni-docking-bench/src/icros_test_setup/results/kinematic_sample/timeseries/trial_092.csv
t,x,y,yaw,vx,vy,wz,bl_x,bl_y,bl_yaw,front_steering_joint,front_wheel_joint,rear_steering_joint,rear_wheel_joint
0.0,0.020205,0.028457,-0.031927,-0.007458,0.002317,-0.001919,0.004331,-0.481275,-0.032845,-0.152325,-264.040142,-0.437572,62.657544
0.0004,0.020241,0.028734,-0.03292,-0.005549,0.001724,-0.001428,0.004114,-0.481143,-0.034024,-0.152325,-264.043289,-0.437572,62.65411
0.0008,0.020576,0.028739,-0.03401,-0.005094,0.001583,-0.001311,0.004114,-0.481143,-0.034024,-0.152325,-264.046303,-0.437572,62.65082
0.0011,0.020183,0.028908,-0.033885,-0.004593,0.001427,-0.001182,0.00383,-0.481023,-0.034241,-0.152325,-264.049013,-0.437572,62.647864
0.0014,0.020279,0.028709,-0.033791,-0.00406,0.001261,-0.001045,0.00383,-0.481023,-0.034241,-0.152325,-264.051424,-0.437572,62.645233
0.0017,0.019518,0.028968,-0.034081,-0.003482,0.001082,-0.000896,0.00383,-0.481023,-0.034241,-0.152325,-264.053285,-0.437572,62.643202
0.002,0.020085,0.028993,-0.033852,-0.002849,0.000885,-0.000733,0.00366,-0.481146,-0.032981,-0.152325,-264.054696,-0.437572,62.641662
0.0023,0.020176,0.029125,-0.032621,-0.002207,0.000686,-0.000568,0.003699,-0.481148,-0.032917,-0.152325,-264.054696,-0.437572,62.641662
0.0025,0.019868,0.028942,-0.033074,-0.001516,0.000471,-0.00039,0.003699,-0.481148,-0.032917,-0.152325,-264.054696,-0.437572,62.641662
0.0028,0.019344,0.029211,-0.034399,-0.000774,0.000241,-0.000199,0.003449,-0.480964,-0.032809,-0.152325,-264.054696,-0.437572,62.641662
0.0184,0.019744,0.029417,-0.032852,-0.016005,-0.015998,0.029999,0.001746,-0.480467,-0.034414,-0.152325,-264.055308,-0.437572,62.640995
0.0381,0.01935,0.028752,-0.034094,-0.018767,-0.03005,0.032852,0.002449,-0.480374,-0.033526,-0.152325,-264.055308,-0.437572,62.640995
0.0582,0.019512,0.029277,-0.033617,-0.018359,-0.029395,0.034094,0.002449,-0.480374,-0.033526,-0.152325,-264.055308,-0.437572,62.640995
0.0783,0.019748,0.02912,-0.033432,-0.018517,-0.029916,0.033617,0.00237,-0.480435,-0.033617,-0.152325,-264.05531,-0.437572,62.640992
0.098,0.019703,0.029226,-0.033485,-0.018764,-0.029764,0.033432,0.002392,-0.480445,-0.033606,-0.152325,-264.05531,-0.437572,62.640992
0.1182,0.019634,0.029103,-0.032887,-0.018714,-0.029869,0.033485,0.002629,-0.480488,-0.033485,-0.077316,-264.05531,-0.362563,62.640992
0.1381,0.019759,0.029411,-0.032808,-0.018667,-0.029733,0.032887,0.002764,-0.480564,-0.033145,-0.077316,-264.05531,-0.362563,62.640992
0.1579,0.019547,0.029106,-0.034136,-0.018784,-0.030043,0.032808,0.002764,-0.480564,-0.033145,-0.077316,-264.05531,-0.362563,62.640992
0.178,0.019395,0.029332,-0.033072,-0.018542,-0.029757,0.034136,0.002141,-0.480597,-0.034136,-0.002326,-264.05531,-0.287573,62.640992
0.1984,0.01955,0.028749,-0.034074,-0.018415,-0.029957,0.033072,0.002168,-0.480582,-0.034064,-0.002326,-264.05531,-0.287573,62.640992
0.218,0.019837,0.029024,-0.032637,-0.018559,-0.029398,0.034074,0.002176,-0.480955,-0.034074,0.07268,-264.05531,-0.212567,62.640992
0.2379,0.019737,0.029345,-0.032846,-0.01888,-0.029656,0.032637,0.002756,-0.480812,-0.033256,0.07268,-264.05531,-0.212567,62.640992
0.258,0.01991,0.029085,-0.033698,-0.018763,-0.029977,0.032846,0.002756,-0.480812,-0.033256,0.07268,-264.05531,-0.212567,62.640992
0.278,0.019576,0.029106,-0.032964,-0.018919,-0.029739,0.033698,0.002727,-0.480626,-0.033698,0.147675,-264.05531,-0.137572,62.640992
0.2984,0.019631,0.029041,-0.034703,-0.018607,-0.029736,0.032964,0.00273,-0.480625,-0.033647,0.147675,-264.05531,-0.137572,62.640992
0.3181,0.019722,0.028902,-0.034223,-0.018611,-0.029704,0.034703,0.001936,-0.480652,-0.034703,0.222677,-264.05531,-0.06257,62.640992
0.3382,0.019544,0.029043,-0.031064,-0.018722,-0.02956,0.034223,0.002127,-0.480736,-0.03443,0.222677,-264.05531,-0.06257,62.640992
0.3581,0.019667,0.02904,-0.034165,-0.018633,-0.029636,0.031064,0.002127,-0.480736,-0.03443,0.222677,-264.05531,-0.06257,62.640992
0.3781,0.019676,0.028871,-0.03456,-0.018664,-0.029695,0.034165,0.002246,-0.480663,-0.034165,0.297675,-264.05531,0.012428,62.640991
0.398,0.019663,0.029367,-0.033835,-0.018666,-0.029534,0.03456,0.002233,-0.480674,-0.034192,0.297675,-264.05531,0.012428,62.640991
0.4185,0.019863,0.029041,-0.033748,-0.018658,-0.030015,0.033835,0.002411,-0.480341,-0.033835,0.372678,-264.055311,0.087431,62.64099
0.4383,0.019642,0.029248,-0.034759,-0.018872,-0.029695,0.033748,0.002549,-0.480527,-0.033785,0.372678,-264.055311,0.087431,62.64099
0.458,0.019625,0.029367,-0.034509,-0.018614,-0.029913,0.034759,0.002549,-0.480527,-0.033785,0.372678,-264.055311,0.087431,62.64099
0.4782,0.019374,0.029157,-0.033505,-0.0186,-0.030027,0.034509,0.002028,-0.480329,-0.034509,0.424025,-264.055311,0.162436,62.640988
0.4984,0.019861,0.029186,-0.033883,-0.018386,-0.029789,0.033505,0.002046,-0.480345,-0.034441,0.424025,-264.055311,0.162436,62.640988
0.5182,0.019487,0.028737,-0.033566,-0.018861,-0.029842,0.033883,0.002584,-0.480521,-0.033883,0.436523,-264.055312,0.23745,62.640986
0.538,0.019788,0.028999,-0.033772,-0.018512,-0.029375,0.033566,0.002463,-0.480779,-0.033703,0.436523,-264.055312,0.23745,62.640986
0.5587,0.019687,0.028838,-0.033835,-0.018798,-0.029651,0.033772,0.002463,-0.480779,-0.033703,0.436523,-264.055312,0.23745,62.640986
0.5784,0.019649,0.029062,-0.033831,-0.018701,-0.029488,0.033835,0.002435,-0.48087,-0.033835,0.46941,-264.055313,0.312437,62.640984
0.5986,0.019468,0.029249,-0.033776,-0.018655,-0.02971,0.033831,0.002432,-0.480856,-0.033835,0.46941,-264.055313,0.312437,62.640984
0.618,0.019703,0.028909,-0.032213,-0.018469,-0.02989,0.033776,0.002246,-0.48046,-0.033776,0.447603,-264.055314,0.387459,62.640982
0.6383,0.020093,0.028986,-0.032551,-0.018761,-0.029529,0.032213,0.00283,-0.480668,-0.03289,0.447603,-264.055314,0.387459,62.640982
0.6581,0.01947,0.029224,-0.034538,-0.019139,-0.029624,0.032551,0.00283,-0.480668,-0.03289,0.447603,-264.055314,0.387459,62.640982
0.6782,0.019711,0.029003,-0.034813,-0.018449,-0.029879,0.034538,0.001859,-0.480472,-0.034538,0.451565,-264.055315,0.462443,62.640979
0.6983,0.019731,0.029357,-0.034966,-0.01869,-0.029672,0.034813,0.001865,-0.480486,-0.034556,0.451565,-264.055315,0.462443,62.640979
0.7184,0.020006,0.029075,-0.033992,-0.018693,-0.030029,0.034966,0.001902,-0.480331,-0.034966,0.470901,-264.055316,0.537445,62.640976
0.738,0.019832,0.02946,-0.033523,-0.019006,-0.029738,0.033992,0.002337,-0.4805,-0.034417,0.470901,-264.055316,0.537445,62.640976
0.7586,0.019785,0.029394,-0.03281,-0.018834,-0.030108,0.033523,0.002337,-0.4805,-0.034417,0.470901,-264.055316,0.537445,62.640976
0.7779,0.019396,0.028658,-0.034675,-0.01881,-0.030027,0.03281,0.003054,-0.480332,-0.03281,0.422824,-264.055319,0.612441,62.640968
0.7984,0.019514,0.029148,-0.034445,-0.018391,-0.029314,0.034675,0.002964,-0.480379,-0.032935,0.422824,-264.055319,0.612441,62.640968
0.8179,0.019946,0.029174,-0.032456,-0.018499,-0.029802,0.034445,0.001948,-0.480551,-0.034444,0.472837,-264.055337,0.68745,62.640923
0.838,0.019569,0.029157,-0.03576,-0.018989,-0.029806,0.032456,0.002771,-0.480555,-0.033313,0.472837,-264.055337,0.68745,62.640923
0.8581,0.019534,0.02943,-0.033346,-0.018514,-0.029838,0.03576,0.002771,-0.480555,-0.033313,0.472837,-264.055337,0.68745,62.640923
0.8783,0.019378,0.029196,-0.034322,-0.018542,-0.030065,0.033346,0.002519,-0.480295,-0.033337,0.416494,-264.0554,0.762438,62.640753
0.8985,0.019647,0.02932,-0.032082,-0.018365,-0.029843,0.034322,0.002478,-0.480309,-0.0334,0.416494,-264.0554,0.762438,62.640753
0.9179,0.019749,0.028872,-0.03519,-0.018697,-0.029935,0.032082,0.003258,-0.480443,-0.032053,0.40773,-264.055625,0.837389,62.640141
0.9383,0.019717,0.029634,-0.032979,-0.018721,-0.029549,0.03519,0.002429,-0.480656,-0.033832,0.40773,-264.055625,0.837389,62.640141
0.9588,0.02007,0.028875,-0.033585,-0.018729,-0.030268,0.032979,0.002429,-0.480656,-0.033832,0.40773,-264.055625,0.837389,62.640141
0.978,0.019545,0.029258,-0.032227,-0.019089,-0.029533,0.033585,0.002837,-0.480938,-0.033472,0.450446,-264.056308,0.912437,62.638332
0.9981,0.019398,0.028822,-0.033968,-0.018592,-0.029873,0.032227,0.002854,-0.480907,-0.033377,0.450446,-264.056308,0.912437,62.638332
1.0187,0.018878,0.028905,-0.033288,-0.018408,-0.029464,0.033968,0.001877,-0.481094,-0.033754,0.495647,-264.058167,0.987561,62.634026
1.0381,0.018649,0.028659,-0.033131,-0.017906,-0.029517,0.033288,0.001867,-0.48096,-0.03346,0.495647,-264.058167,0.987561,62.634026
1.0586,0.019038,0.028535,-0.033023,-0.01769,-0.029261,0.033131,0.001867,-0.48096,-0.03346,0.495647,-264.058167,0.987561,62.634026
1.078,0.019014,0.028161,-0.031738,-0.018085,-0.029148,0.033023,0.001782,-0.481645,-0.03261,0.501401,-264.061926,1.062493,62.627224
1.0983,0.018484,0.028324,-0.032171,-0.018111,-0.02875,0.031738,0.00184,-0.481652,-0.032543,0.501401,-264.061926,1.062493,62.627224
1.1179,0.017471,0.027518,-0.030835,-0.017564,-0.028904,0.032171,0.001657,-0.481918,-0.031685,0.471836,-264.06699,1.137448,62.617901
1.1382,0.017606,0.027821,-0.031259,-0.016614,-0.028044,0.030835,0.001656,-0.482166,-0.031136,0.471836,-264.06699,1.137448,62.617901
1.158,0.017565,0.027443,-0.031936,-0.016728,-0.028358,0.031259,0.001656,-0.482166,-0.031136,0.471836,-264.06699,1.137448,62.617901
1.1781,0.016479,0.026955,-0.031144,-0.01668,-0.02799,0.031936,0.000598,-0.483155,-0.03118,0.477292,-264.074462,1.210929,62.606098
1.1983,0.016759,0.026858,-0.030236,-0.015631,-0.027455,0.031144,0.000579,-0.483153,-0.031156,0.477292,-264.074462,1.210929,62.606098
1.2182,0.014966,0.025834,-0.030273,-0.015939,-0.027353,0.030236,0.000771,-0.483718,-0.029458,0.505842,-264.081974,1.231849,62.591761
1.2384,0.015041,0.026054,-0.031344,-0.014177,-0.026275,0.030273,-1.8e-05,-0.483944,-0.02983,0.505842,-264.081974,1.231849,62.591761
1.2583,0.015108,0.025717,-0.029423,-0.014217,-0.026513,0.031344,-1.8e-05,-0.483944,-0.02983,0.505842,-264.081974,1.231849,62.591761
1.278,0.014048,0.024664,-0.030548,-0.014345,-0.02615,0.029423,-0.00063,-0.48521,-0.028175,0.49478,-264.089046,1.246351,62.574936
1.2981,0.013465,0.02468,-0.029136,-0.013289,-0.025081,0.030548,-0.000724,-0.485236,-0.028327,0.49478,-264.089046,1.246351,62.574936
1.3181,0.012274,0.023291,-0.026865,-0.01274,-0.025062,0.029136,-0.00196,-0.486094,-0.027947,0.478232,-264.095347,1.268919,62.55612
1.3381,0.012286,0.022856,-0.027337,-0.011644,-0.023613,0.026865,-0.001728,-0.486465,-0.027179,0.478232,-264.095347,1.268919,62.55612
1.3584,0.011825,0.023278,-0.028461,-0.011656,-0.023184,0.027337,-0.001728,-0.486465,-0.027179,0.478232,-264.095347,1.268919,62.55612
1.3781,0.011107,0.022253,-0.025518,-0.011158,-0.023606,0.028461,-0.003358,-0.4877,-0.026996,0.45032,-264.101174,1.275837,62.538075
1.3985,0.010543,0.022232,-0.025458,-0.010535,-0.022529,0.025518,-0.003274,-0.487723,-0.026853,0.45032,-264.101174,1.275837,62.538075
1.4179,0.0096,0.02105,-0.02432,-0.009974,-0.022493,0.025458,-0.002886,-0.48844,-0.024459,0.507872,-264.106231,1.286433,62.522324
1.4385,0.009334,0.020889,-0.026048,-0.009085,-0.021277,0.02432,-0.002895,-0.488751,-0.024252,0.507872,-264.106231,1.286433,62.522324
1.4583,0.009782,0.020751,-0.023898,-0.008786,-0.021125,0.026048,-0.002895,-0.488751,-0.024252,0.507872,-264.106231,1.286433,62.522324
1.478,0.008348,0.019915,-0.022248,-0.009283,-0.020978,0.023898,-0.002894,-0.490089,-0.02277,0.582739,-264.110832,1.301113,62.507903
1.4985,0.008647,0.019997,-0.022924,-0.007903,-0.020095,0.022248,-0.002916,-0.490107,-0.022698,0.582739,-264.110832,1.301113,62.507903
1.5184,0.007064,0.018743,-0.022061,-0.008187,-0.02019,0.022924,-0.00338,-0.49063,-0.021977,0.535755,-264.114692,1.337856,62.493527
1.538,0.007474,0.018848,-0.022041,-0.006649,-0.018895,0.022061,-0.003884,-0.491015,-0.021905,0.535755,-264.114692,1.337856,62.493527
1.5584,0.007128,0.019415,-0.021949,-0.007056,-0.019009,0.022041,-0.003884,-0.491015,-0.021905,0.535755,-264.114692,1.337856,62.493527
1.5781,0.006863,0.018214,-0.021375,-0.0067,-0.019567,0.021949,-0.004351,-0.491115,-0.02119,0.610719,-264.117497,1.340336,62.484046
1.5983,0.006883,0.018299,-0.021624,-0.006472,-0.018357,0.021375,-0.004337,-0.49117,-0.021183,0.610719,-264.117497,1.340336,62.484046
1.6179,0.005587,0.0172,-0.019746,-0.006486,-0.018443,0.021624,-0.004411,-0.492244,-0.020863,0.666212,-264.120906,1.356801,62.472032
1.6379,0.005987,0.017186,-0.020645,-0.005246,-0.017307,0.019746,-0.004486,-0.492589,-0.020127,0.666212,-264.120906,1.356801,62.472032
1.6579,0.005753,0.017676,-0.01861,-0.005631,-0.017306,0.020645,-0.004486,-0.492589,-0.020127,0.666212,-264.120906,1.356801,62.472032
1.678,0.005049,0.016542,-0.019706,-0.005423,-0.01778,0.01861,-0.004065,-0.493114,-0.017581,0.68627,-264.124236,1.367588,62.459266
1.698,0.004937,0.016538,-0.019505,-0.004722,-0.016638,0.019706,-0.004151,-0.493161,-0.017723,0.68627,-264.124236,1.367588,62.459266
1.718,0.004251,0.015942,-0.018155,-0.004614,-0.016631,0.019505,-0.005237,-0.494021,-0.018717,0.695218,-264.127141,1.384738,62.447206
1.738,0.003997,0.015813,-0.01925,-0.003961,-0.016016,0.018155,-0.005135,-0.494078,-0.018295,0.695218,-264.127141,1.384738,62.447206
1.7582,0.004069,0.016353,-0.018679,-0.003692,-0.015887,0.01925,-0.005135,-0.494078,-0.018295,0.695218,-264.127141,1.384738,62.447206
1.7786,0.003561,0.014887,-0.016317,-0.003763,-0.016427,0.018679,-0.005677,-0.494282,-0.017816,0.76995,-264.129514,1.407569,62.436749
1.7983,0.003438,0.015074,-0.018294,-0.003317,-0.014943,0.016317,-0.005622,-0.494351,-0.017695,0.76995,-264.129514,1.407569,62.436749
1.818,0.002972,0.014328,-0.016657,-0.003161,-0.015135,0.018294,-0.006031,-0.495396,-0.017618,0.841326,-264.13153,1.438025,62.426601
1.8381,0.002796,0.014253,-0.016411,-0.002733,-0.014375,0.016657,-0.005759,-0.495584,-0.016984,0.841326,-264.13153,1.438025,62.426601
1.8584,0.003013,0.014379,-0.01629,-0.002561,-0.014297,0.016411,-0.005759,-0.495584,-0.016984,0.841326,-264.13153,1.438025,62.426601
1.8781,0.00223,0.013742,-0.015436,-0.002778,-0.014426,0.01629,-0.005425,-0.496074,-0.015708,0.916458,-264.133261,1.438399,62.419331
1.8983,0.002439,0.013772,-0.016472,-0.002017,-0.013775,0.015436,-0.005443,-0.496095,-0.015676,0.916458,-264.133261,1.438399,62.419331
1.9182,0.002105,0.013529,-0.014431,-0.002212,-0.01381,0.016472,-0.006051,-0.496599,-0.015961,0.991323,-264.134857,1.465865,62.411496
1.9381,0.001807,0.013251,-0.016494,-0.00191,-0.013558,0.014431,-0.00561,-0.496552,-0.015028,0.991323,-264.134857,1.465865,62.411496
1.9586,0.001876,0.013017,-0.016169,-0.001588,-0.013279,0.016494,-0.00561,-0.496552,-0.015028,0.991323,-264.134857,1.465865,62.411496
1.9781,0.001435,0.012791,-0.014766,-0.001665,-0.013046,0.016169,-0.006452,-0.497389,-0.015631,1.066325,-264.136223,1.484079,62.404858
1.9985,0.001355,0.012652,-0.014139,-0.001246,-0.012811,0.014766,-0.006429,-0.497385,-0.015553,1.066325,-264.136223,1.484079,62.404858
2.0185,0.000692,0.012177,-0.013766,-0.001176,-0.01267,0.014139,-0.005921,-0.497787,-0.013529,1.110854,-264.137597,1.502904,62.395863
2.038,0.001454,0.011937,-0.013664,-0.000524,-0.012185,0.013766,-0.006163,-0.497843,-0.013587,1.110854,-264.137597,1.502904,62.395863
2.058,0.001316,0.012273,-0.012853,-0.001291,-0.011956,0.013664,-0.006163,-0.497843,-0.013587,1.110854,-264.137597,1.502904,62.395863
2.0783,0.000638,0.011594,-0.012821,-0.001158,-0.012289,0.012853,-0.005293,-0.498131,-0.012334,1.185647,-264.138748,1.513763,62.389563
2.0984,0.000264,0.011647,-0.013446,-0.000489,-0.011601,0.012821,-0.005338,-0.49816,-0.012355,1.185647,-264.138748,1.513763,62.389563
2.1183,0.000345,0.011166,-0.013035,-0.000108,-0.01165,0.013446,-0.006648,-0.498759,-0.012929,1.227488,-264.140239,1.507298,62.381652
2.1381,0.000503,0.011325,-0.011766,-0.000199,-0.01117,0.013035,-0.00646,-0.498833,-0.012925,1.227488,-264.140239,1.507298,62.381652
2.1581,0.000554,0.011118,-0.013396,-0.00037,-0.01133,0.011766,-0.00646,-0.498833,-0.012925,1.227488,-264.140239,1.507298,62.381652
2.1781,0.000313,0.010994,-0.011715,-0.000405,-0.011125,0.013396,-0.006298,-0.499096,-0.013105,1.302525,-264.140946,1.545623,62.378037
2.1987,0.000108,0.010958,-0.011508,-0.000184,-0.010997,0.011715,-0.006253,-0.499095,-0.012998,1.302525,-264.140946,1.545623,62.378037
2.2179,3.7e-05,0.010327,-0.011128,1.8e-05,-0.010959,0.011508,-0.005777,-0.499268,-0.011236,1.377387,-264.14194,1.550807,62.373614
2.2382,0.000234,0.010316,-0.011857,7.8e-05,-0.010326,0.011128,-0.0057,-0.499515,-0.01114,1.377387,-264.14194,1.550807,62.373614
2.2583,-6e-06,0.010839,-0.013224,-0.000112,-0.010318,0.011857,-0.0057,-0.499515,-0.01114,1.377387,-264.14194,1.550807,62.373614
2.2786,-4.1e-05,0.010012,-0.011811,0.00015,-0.010838,0.013224,-0.006766,-0.499497,-0.012818,1.452489,-264.143031,1.560657,62.368462
2.2984,-0.000452,0.010085,-0.011131,0.00016,-0.01001,0.011811,-0.006725,-0.499532,-0.012749,1.452489,-264.143031,1.560657,62.368462
2.3182,-0.000465,0.009923,-0.013265,0.000564,-0.010079,0.011131,-0.006137,-0.500241,-0.01072,1.527398,-264.144137,1.564412,62.362155
2.3382,-0.000437,0.010084,-0.010926,0.000564,-0.010079,0.011131,-0.00676,-0.500167,-0.012116,1.527398,-264.144137,1.564412,62.362155
2.358,-0.001149,0.009331,-0.010437,5e-06,-0.0001,0.0,-0.00676,-0.500167,-0.012116,1.527398,-264.144137,1.564412,62.362155
2.378,-0.00084,0.009035,-0.010949,5e-06,-0.0001,0.0,-0.006471,-0.501054,-0.009951,1.60239,-264.145088,1.580058,62.356308
2.3986,-0.000666,0.009291,-0.010203,5e-06,-0.0001,0.0,-0.006467,-0.501057,-0.01001,1.60239,-264.145088,1.580058,62.356308
2.4183,-0.000751,0.009049,-0.008195,5e-06,-0.0001,0.0,-0.005869,-0.500686,-0.010203,1.625017,-264.145126,1.625017,62.35627
2.438,-0.001108,0.009207,-0.009637,5e-06,-0.0001,0.0,-0.005334,-0.500828,-0.009059,1.625017,-264.145126,1.625017,62.35627
2.4582,-0.00059,0.009053,-0.012179,5e-06,-0.0001,0.0,-0.005334,-0.500828,-0.009059,1.625017,-264.145126,1.625017,62.35627
2.4783,-0.000742,0.009078,-0.010568,5e-06,-0.0001,0.0,-0.006801,-0.500915,-0.012179,1.625017,-264.145166,1.625017,62.356229
2.498,-0.000806,0.009084,-0.010782,5e-06,-0.0001,0.0,-0.006749,-0.500913,-0.012053,1.625017,-264.145166,1.625017,62.356229
2.518,-0.000945,0.009562,-0.010693,5e-06,-0.0001,0.0,-0.006305,-0.500891,-0.010782,1.625017,-264.145206,1.625017,62.35619
2.538,-0.000581,0.009276,-0.009343,5e-06,-0.0001,0.0,-0.006358,-0.500617,-0.010731,1.625017,-264.145206,1.625017,62.35619
2.5581,-0.000781,0.009227,-0.009215,0.0,-1e-06,1e-06,-0.006358,-0.500617,-0.010731,1.625017,-264.145206,1.625017,62.35619
2.5786,-0.001183,0.009355,-0.010915,8e-05,-0.00148,0.001605,-0.00548,-0.500756,-0.009215,1.625017,-264.145246,1.625017,62.35615
2.598,-0.000808,0.009428,-0.00965,0.000156,-0.002872,0.003114,-0.005567,-0.500747,-0.009332,1.625017,-264.145246,1.625017,62.35615
2.6184,-0.000534,0.009167,-0.011704,0.000228,-0.004197,0.00455,-0.00573,-0.500548,-0.00965,1.70003,-264.145246,1.603438,62.356149
2.6385,-0.000769,0.008914,-0.010411,0.000295,-0.005442,0.0059,-0.00617,-0.500691,-0.010818,1.70003,-264.145246,1.603438,62.356149
2.658,-0.000707,0.008971,-0.010578,0.000359,-0.006617,0.007174,-0.00617,-0.500691,-0.010818,1.70003,-264.145246,1.603438,62.356149
2.6781,-0.000971,0.009154,-0.010812,0.000419,-0.007712,0.008361,-0.006096,-0.501138,-0.010429,1.730067,-264.145634,1.603438,62.354266
2.6985,-0.001082,0.009089,-0.010064,0.000474,-0.008732,0.009466,-0.006122,-0.50112,-0.01045,1.730067,-264.145634,1.603438,62.354266
2.7185,-0.001006,0.00863,-0.009516,0.000525,-0.009677,0.010491,-0.006203,-0.50114,-0.009788,1.730067,-264.14654,1.603438,62.349882
2.7381,-0.000996,0.008523,-0.009745,0.000573,-0.010549,0.011436,-0.006007,-0.50129,-0.009599,1.730067,-264.14654,1.603438,62.349882
2.7581,-0.001039,0.008809,-0.008321,0.000615,-0.011339,0.012292,-0.006007,-0.50129,-0.009599,1.730067,-264.14654,1.603438,62.349882
2.778,-0.001393,0.00818,-0.009283,0.000654,-0.012057,0.013071,-0.005263,-0.501598,-0.007861,1.730067,-264.147736,1.603438,62.344067
2.7982,-0.000979,0.008271,-0.00881,0.000689,-0.012701,0.013769,-0.005325,-0.501624,-0.00795,1.730067,-264.147736,1.603438,62.344067
2.8181,-0.001666,0.00766,-0.009666,0.00072,-0.013266,0.014382,-0.005452,-0.502147,-0.008336,1.730067,-264.149286,1.603438,62.336534
2.8383,-0.001381,0.00767,-0.00914,0.000747,-0.013757,0.014914,-0.0061,-0.502299,-0.009033,1.730067,-264.149286,1.603438,62.336534
2.8585,-0.001606,0.007754,-0.010127,0.000769,-0.014173,0.015365,-0.0061,-0.502299,-0.009033,1.730067,-264.149286,1.603438,62.336534
2.8783,-0.001914,0.007133,-0.007797,0.000788,-0.014513,0.015734,-0.006743,-0.502839,-0.009456,1.730067,-264.151025,1.603438,62.328085
2.8983,-0.001996,0.00688,-0.00921,0.000802,-0.014779,0.016022,-0.006687,-0.502855,-0.009332,1.730067,-264.151025,1.603438,62.328085
2.9181,-0.001666,0.006532,-0.007371,0.000812,-0.014967,0.016226,-0.006668,-0.503645,-0.008617,1.730067,-264.152965,1.603438,62.318657
2.9382,-0.002363,0.0065,-0.0089,0.000818,-0.01508,0.016348,-0.005957,-0.503606,-0.007832,1.730067,-264.152965,1.603438,62.318657
2.958,-0.002058,0.00604,-0.006347,0.00082,-0.015118,0.016389,-0.005957,-0.503606,-0.007832,1.730067,-264.152965,1.603438,62.318657
2.9779,-0.002373,0.005685,-0.00832,0.000818,-0.01508,0.016348,-0.00526,-0.504668,-0.005568,1.730067,-264.154988,1.603438,62.308827
2.9981,-0.002349,0.005437,-0.007549,0.000812,-0.014966,0.016225,-0.005354,-0.504661,-0.005739,1.730067,-264.154988,1.603438,62.308827
3.0179,-0.003058,0.005113,-0.006424,0.000802,-0.014777,0.01602,-0.006172,-0.505132,-0.006916,1.730067,-264.157057,1.603438,62.29877
3.038,-0.003157,0.004878,-0.007884,0.000788,-0.014513,0.015734,-0.006261,-0.505061,-0.006556,1.730067,-264.157057,1.603438,62.29877
3.0581,-0.003095,0.004972,-0.005847,0.000769,-0.014172,0.015364,-0.006261,-0.505061,-0.006556,1.730067,-264.157057,1.603438,62.29877
3.0779,-0.003696,0.004022,-0.005341,0.000747,-0.013757,0.014914,-0.006042,-0.505747,-0.005058,1.730067,-264.159106,1.603438,62.288814
3.0983,-0.00319,0.004396,-0.005069,0.00072,-0.013265,0.014381,-0.006067,-0.505782,-0.005056,1.730067,-264.159106,1.603438,62.288814
3.1185,-0.003564,0.003602,-0.00398,0.000689,-0.012698,0.013766,-0.005748,-0.506146,-0.004475,1.730067,-264.161046,1.603438,62.279387
3.1382,-0.003659,0.003548,-0.00581,0.000654,-0.012054,0.013068,-0.005657,-0.506356,-0.004119,1.730067,-264.161046,1.603438,62.279387
3.158,-0.003877,0.003823,-0.004979,0.000615,-0.011338,0.012291,-0.005657,-0.506356,-0.004119,1.730067,-264.161046,1.603438,62.279387
3.178,-0.003914,0.002673,-0.00311,0.000572,-0.010543,0.01143,-0.006384,-0.506816,-0.004279,1.730067,-264.162862,1.603438,62.270563
3.1979,-0.004298,0.002894,-0.003101,0.000525,-0.009675,0.010488,-0.006322,-0.506868,-0.00418,1.730067,-264.162862,1.603438,62.270563
3.2179,-0.004575,0.002361,-0.003787,0.000474,-0.008729,0.009463,-0.005857,-0.507542,-0.002626,1.730067,-264.164416,1.603438,62.263012
3.2379,-0.003842,0.002191,-0.002047,0.000418,-0.007708,0.008356,-0.006226,-0.507651,-0.00323,1.730067,-264.164416,1.603438,62.263012
3.2579,-0.004298,0.002212,-0.001912,0.000359,-0.006614,0.00717,-0.006226,-0.507651,-0.00323,1.730067,-264.164416,1.603438,62.263012
3.2779,-0.004328,0.001653,-0.003058,0.000295,-0.005441,0.005899,-0.005249,-0.508258,-0.001402,1.730067,-264.165738,1.603438,62.256584
3.298,-0.004794,0.001285,-0.002312,0.000228,-0.004194,0.004547,-0.005291,-0.508276,-0.001499,1.730067,-264.165738,1.603438,62.256584
3.3183,-0.005045,0.001471,-0.00098,0.000156,-0.002871,0.003113,-0.00596,-0.508969,-0.002035,1.730067,-264.166644,1.603438,62.252185
3.3381,-0.004895,0.001357,-0.001072,8e-05,-0.001473,0.001597,-0.005722,-0.508751,-0.0014,1.730067,-264.166644,1.603438,62.252185
3.358,-0.004641,0.001033,-0.002284,0.0,-0.0,0.0,-0.005722,-0.508751,-0.0014,1.730067,-264.166644,1.603438,62.252185
3.3783,-0.004782,0.00126,-0.003009,0.0,0.0,0.0,-0.005795,-0.509169,-0.002063,1.730067,-264.167218,1.603438,62.249395
3.3979,-0.004856,0.001444,-0.001098,0.0,0.0,0.0,-0.005831,-0.509144,-0.002124,1.730067,-264.167218,1.603438,62.249395
3.4179,-0.004777,0.001269,-0.002266,0.0,0.0,0.0,-0.005415,-0.508556,-0.001098,1.730067,-264.167218,1.603438,62.249395
3.4382,-0.004766,0.000845,-0.001287,0.0,0.0,0.0,-0.00571,-0.508655,-0.001763,1.730067,-264.167218,1.603438,62.249395
3.4579,-0.004914,0.001458,-0.003135,0.0,0.0,0.0,-0.00571,-0.508655,-0.001763,1.730067,-264.167218,1.603438,62.249395
3.478,-0.005104,0.001038,-0.002701,0.0,0.0,0.0,-0.006512,-0.50854,-0.003135,1.730067,-264.167218,1.603438,62.249395
3.4985,-0.005222,0.00121,-0.002421,0.0,0.0,0.0,-0.00651,-0.508568,-0.003105,1.730067,-264.167218,1.603438,62.249395
3.5184,-0.005421,0.001079,-0.000818,0.0,0.0,0.0,-0.006457,-0.508788,-0.002421,1.730067,-264.167218,1.603438,62.249395
3.5379,-0.004706,0.001123,-0.003575,0.0,0.0,0.0,-0.006111,-0.508863,-0.001523,1.730067,-264.167218,1.603438,62.249395
3.558,-0.004843,0.001348,-0.001798,0.0,0.0,0.0,-0.006111,-0.508863,-0.001523,1.730067,-264.167218,1.603438,62.249395
3.5779,-0.004743,0.001392,-0.001894,9.6e-05,-2.7e-05,0.0,-0.00576,-0.508652,-0.001798,1.730067,-264.167218,1.603438,62.249395
3.5983,-0.004676,0.001068,-0.001471,9.6e-05,-2.7e-05,0.0,-0.005757,-0.508649,-0.001805,1.730067,-264.167218,1.603438,62.249395
3.6184,-0.004946,0.001329,-0.002583,9.6e-05,-2.7e-05,0.0,-0.005427,-0.508931,-0.001471,1.730067,-264.167218,1.603438,62.249395
3.638,-0.004935,0.001031,-0.001884,9.6e-05,-2.7e-05,0.0,-0.005903,-0.508782,-0.002104,1.730067,-264.167218,1.603438,62.249395
3.658,-0.004796,0.001528,-0.001194,9.6e-05,-2.7e-05,0.0,-0.005903,-0.508782,-0.002104,1.730067,-264.167218,1.603438,62.249395
3.6779,-0.004658,0.00098,-0.001695,9.6e-05,-2.7e-05,0.0,-0.005405,-0.508472,-0.001194,1.655071,-264.167218,1.528443,62.249395
3.6979,-0.00461,0.001289,-0.001446,9.6e-05,-2.7e-05,0.0,-0.005413,-0.508509,-0.001229,1.655071,-264.167218,1.528443,62.249395
3.718,-0.004906,0.001396,-0.001744,9.6e-05,-2.7e-05,0.0,-0.005347,-0.50871,-0.001446,1.580083,-264.167218,1.453455,62.249395
3.7379,-0.004921,0.001064,-0.001075,9.6e-05,-2.7e-05,0.0,-0.005602,-0.508649,-0.001615,1.580083,-264.167218,1.453455,62.249395
3.7587,-0.005042,0.001129,-0.001623,9.6e-05,-2.7e-05,0.0,-0.005602,-0.508649,-0.001615,1.580083,-264.167218,1.453455,62.249395
3.7781,-0.004876,0.000542,-0.002313,1e-06,-0.0,0.0,-0.005869,-0.50887,-0.001623,1.505072,-264.167218,1.378444,62.249395
3.798,-0.004996,0.001622,-0.003397,0.000708,-0.000196,0.000263,-0.005878,-0.508899,-0.001656,1.505072,-264.167218,1.378444,62.249395
3.8179,-0.004962,0.00082,-0.002063,0.001381,-0.000382,0.000513,-0.006729,-0.508375,-0.003397,1.43007,-264.167218,1.303441,62.249395
3.8383,-0.004524,0.001408,-0.002728,0.002018,-0.000557,0.000749,-0.00632,-0.508834,-0.002634,1.43007,-264.167218,1.303441,62.249395
3.8578,-0.004959,0.000804,-0.001611,0.002615,-0.000723,0.000971,-0.00632,-0.508834,-0.002634,1.43007,-264.167218,1.303441,62.249395
3.8782,-0.005103,0.001009,-0.002196,0.003179,-0.000878,0.00118,-0.00578,-0.509195,-0.001611,1.354967,-264.167218,1.228339,62.249395
3.8982,-0.004734,0.001441,-0.00206,0.003705,-0.001024,0.001375,-0.005811,-0.509181,-0.001651,1.354967,-264.167218,1.228339,62.249395
3.9183,-0.005037,0.000931,-0.001998,0.004197,-0.00116,0.001558,-0.005785,-0.508558,-0.00206,1.280095,-264.167218,1.153467,62.249395
3.938,-0.005218,0.001479,-0.003037,0.004651,-0.001285,0.001726,-0.00594,-0.50885,-0.002024,1.280095,-264.167218,1.153467,62.249395
3.958,-0.004841,0.001497,-0.001478,0.005068,-0.001401,0.001881,-0.00594,-0.50885,-0.002024,1.280095,-264.167218,1.153467,62.249395
3.978,-0.004913,0.001244,-0.002754,0.00545,-0.001506,0.002023,-0.005594,-0.508502,-0.001478,1.204968,-264.167218,1.07834,62.249395
3.9982,-0.004659,0.00111,-0.001557,0.005795,-0.001601,0.002151,-0.005647,-0.508521,-0.001572,1.204968,-264.167218,1.07834,62.249395
4.0184,-0.004943,0.001188,-0.002784,0.006105,-0.001687,0.002266,-0.005453,-0.508889,-0.001557,1.129992,-264.167218,1.003363,62.249395
4.0383,-0.004635,0.001415,-0.00191,0.006377,-0.001762,0.002367,-0.005974,-0.508844,-0.00226,1.129992,-264.167218,1.003363,62.249395
4.0585,-0.005099,0.001093,-0.00268,0.006616,-0.001828,0.002456,-0.005974,-0.508844,-0.00226,1.129992,-264.167218,1.003363,62.249395
4.0779,-0.00485,0.001127,-0.001104,0.006814,-0.001883,0.002529,-0.006466,-0.508905,-0.00268,1.054989,-264.167218,0.92836,62.249395
4.0983,-0.004756,0.001456,-0.002237,0.006977,-0.001928,0.00259,-0.006418,-0.508903,-0.002609,1.054989,-264.167218,0.92836,62.249395
4.1179,-0.004794,0.001145,-0.002468,0.007105,-0.001963,0.002637,-0.005897,-0.508543,-0.002237,0.98004,-264.167218,0.853411,62.249395
4.138,-0.005102,0.00121,-0.001584,0.007195,-0.001988,0.002671,-0.005986,-0.50872,-0.002368,0.98004,-264.167218,0.853411,62.249395
4.158,-0.004931,0.001703,-0.003191,0.00725,-0.002003,0.002691,-0.005986,-0.50872,-0.002368,0.98004,-264.167218,0.853411,62.249395
4.1783,-0.004876,0.001141,-0.003573,0.007268,-0.002008,0.002698,-0.006558,-0.508295,-0.003191,0.905078,-264.167218,0.778449,62.249395
4.1984,-0.004938,0.001272,-0.002437,0.00725,-0.002003,0.002691,-0.006568,-0.508334,-0.003218,0.905078,-264.167218,0.778449,62.249395
4.2184,-0.005263,0.001383,-0.002042,0.007195,-0.001988,0.002671,-0.006181,-0.508727,-0.002437,0.830081,-264.167218,0.703452,62.249395
4.2381,-0.004968,0.001069,-0.002389,0.007104,-0.001963,0.002637,-0.006251,-0.508664,-0.002212,0.830081,-264.167218,0.703452,62.249395
4.258,-0.004658,0.001433,-0.003415,0.006977,-0.001928,0.00259,-0.006251,-0.508664,-0.002212,0.830081,-264.167218,0.703452,62.249395
4.278,-0.005174,0.001409,-0.002973,0.006814,-0.001883,0.002529,-0.006399,-0.508564,-0.003415,0.755082,-264.167218,0.628453,62.249395
4.2985,-0.0049,0.001317,-0.001104,0.006614,-0.001828,0.002455,-0.00642,-0.508566,-0.003383,0.755082,-264.167218,0.628453,62.249395
4.3184,-0.004917,0.001334,-0.001074,0.006378,-0.001762,0.002367,-0.005463,-0.508683,-0.001104,0.679971,-264.167218,0.553342,62.249395
4.3385,-0.004892,0.001467,-0.002109,0.006105,-0.001687,0.002266,-0.005464,-0.508673,-0.001087,0.679971,-264.167218,0.553342,62.249395
4.3585,-0.004536,0.001496,-0.003244,0.005793,-0.001601,0.00215,-0.005464,-0.508673,-0.001087,0.679971,-264.167218,0.553342,62.249395
4.3785,-0.004935,0.00114,-0.001536,0.005451,-0.001506,0.002023,-0.006191,-0.508502,-0.003244,0.605081,-264.167218,0.478452,62.249395
4.3982,-0.004506,0.000932,-0.00224,0.005069,-0.001401,0.001882,-0.006161,-0.508524,-0.003137,0.605081,-264.167218,0.478452,62.249395
4.4182,-0.004935,0.001629,-0.00242,0.004652,-0.001285,0.001727,-0.005648,-0.509067,-0.00224,0.530064,-264.167218,0.403435,62.249395
4.4385,-0.005039,0.001322,-0.000409,0.004197,-0.00116,0.001558,-0.005944,-0.508671,-0.002342,0.530064,-264.167218,0.403435,62.249395
4.4582,-0.004927,0.001429,-0.001441,0.003704,-0.001023,0.001375,-0.005944,-0.508671,-0.002342,0.530064,-264.167218,0.403435,62.249395
4.4782,-0.004891,0.001322,-0.000851,0.003178,-0.000878,0.00118,-0.005662,-0.508571,-0.001441,0.455079,-264.167218,0.32845,62.249395
4.4981,-0.004593,0.000828,-0.000644,0.002614,-0.000722,0.00097,-0.00564,-0.508578,-0.001402,0.455079,-264.167218,0.32845,62.249395
4.5182,-0.004942,0.00118,-0.002809,0.002015,-0.000557,0.000748,-0.004921,-0.509172,-0.000644,0.380056,-264.167218,0.253428,62.249395
4.5385,-0.005154,0.001113,-0.002155,0.00138,-0.000381,0.000512,-0.005751,-0.50897,-0.00188,0.380056,-264.167218,0.253428,62.249395
4.5586,-0.004926,0.001016,-0.00263,0.000709,-0.000196,0.000263,-0.005751,-0.50897,-0.00188,0.380056,-264.167218,0.253428,62.249395
4.5781,-0.005108,0.000838,-0.002319,0.0,0.0,0.0,-0.006267,-0.508982,-0.00263,0.304916,-264.167218,0.178287,62.249395
4.5985,-0.005004,0.001318,-0.003102,0.0,0.0,0.0,-0.006269,-0.508992,-0.002613,0.304916,-264.167218,0.178287,62.249395
4.6179,-0.004969,0.001113,-0.002046,0.0,0.0,0.0,-0.006586,-0.50868,-0.003102,0.230107,-264.167218,0.103479,62.249395
4.6379,-0.00512,0.001161,-0.002376,0.0,0.0,0.0,-0.006259,-0.508798,-0.0025,0.230107,-264.167218,0.103479,62.249395
4.6587,-0.004749,0.001316,-0.00218,0.0,0.0,0.0,-0.006259,-0.508798,-0.0025,0.230107,-264.167218,0.103479,62.249395
4.6781,-0.004926,0.001074,-0.001427,0.0,0.0,0.0,-0.005861,-0.508682,-0.00218,0.230107,-264.167218,0.103479,62.249395
4.698,-0.005153,0.001157,-0.002311,0.0,0.0,0.0,-0.005848,-0.508698,-0.002133,0.230107,-264.167218,0.103479,62.249395
4.7181,-0.004589,0.00151,-0.002906,0.0,0.0,0.0,-0.006331,-0.508842,-0.002311,0.230107,-264.167218,0.103479,62.249395
4.7379,-0.004806,0.001222,-0.003478,0.0,0.0,0.0,-0.006183,-0.508641,-0.002649,0.230107,-264.167218,0.103479,62.249395
4.7581,-0.004799,0.001528,-0.003209,0.0,0.0,0.0,-0.006183,-0.508641,-0.002649,0.230107,-264.167218,0.103479,62.249395
4.778,-0.004835,0.000811,-0.002801,0.0,0.0,0.0,-0.006435,-0.508469,-0.003209,0.230107,-264.167218,0.103479,62.249395
4.7979,-0.004408,0.001231,-0.002104,9.9e-05,-1.6e-05,0.0,-0.006424,-0.508516,-0.003183,0.230107,-264.167218,0.103479,62.249395
4.8189,-0.004792,0.001291,-0.003018,9.9e-05,-1.6e-05,0.0,-0.005481,-0.508767,-0.002104,0.230107,-264.167218,0.103479,62.249395
4.8381,-0.004861,0.001245,-0.000533,9.9e-05,-1.6e-05,0.0,-0.005965,-0.508733,-0.002624,0.230107,-264.167218,0.103479,62.249395
4.8581,-0.004972,0.0015,-0.002236,9.9e-05,-1.6e-05,0.0,-0.005965,-0.508733,-0.002624,0.230107,-264.167218,0.103479,62.249395
4.878,-0.005359,0.001325,-0.003687,9.9e-05,-1.6e-05,0.0,-0.006112,-0.508499,-0.002236,0.155069,-264.167217,0.02844,62.249396
4.8981,-0.004794,0.001417,-0.001544,9.9e-05,-1.6e-05,0.0,-0.006185,-0.50851,-0.002329,0.155069,-264.167217,0.02844,62.249396
4.9181,-0.004935,0.001109,-0.001713,9.9e-05,-1.6e-05,0.0,-0.005581,-0.508583,-0.001544,0.080117,-264.167212,-0.046511,62.2494
4.9383,-0.004874,0.001149,-0.00304,9.9e-05,-1.6e-05,0.0,-0.00571,-0.508758,-0.00164,0.080117,-264.167212,-0.046511,62.2494
4.9583,-0.004274,0.001192,-0.000391,9.9e-05,-1.6e-05,0.0,-0.00571,-0.508758,-0.00164,0.080117,-264.167212,-0.046511,62.2494
4.9785,-0.005451,0.001203,-0.001739,9.9e-05,-1.6e-05,0.0,-0.004472,-0.508808,-0.000391,0.005116,-264.1672,-0.121513,62.249412
4.9991,-0.004756,0.001391,-0.002003,9.9e-05,-1.6e-05,0.0,-0.00459,-0.508807,-0.000476,0.005116,-264.1672,-0.121513,62.249412
5.0181,-0.004903,0.001433,-0.002074,0.000706,-0.000116,0.000409,-0.005775,-0.508608,-0.002002,-0.069889,-264.167175,-0.163325,62.249437
5.0386,-0.005016,0.001548,-0.002977,0.001377,-0.000227,0.000797,-0.005879,-0.508584,-0.002043,-0.069889,-264.167175,-0.163325,62.249437
5.058,-0.004697,0.001251,-0.003378,0.00201,-0.000331,0.001164,-0.005879,-0.508584,-0.002043,-0.069889,-264.167175,-0.163325,62.249437
5.0782,-0.004996,0.00128,-0.003295,0.002613,-0.000431,0.001513,-0.006415,-0.508747,-0.003378,-0.144925,-264.167141,-0.163325,62.249472
5.0991,-0.00484,0.000884,-0.001175,0.003173,-0.000523,0.001838,-0.006433,-0.508745,-0.003372,-0.144925,-264.167141,-0.163325,62.249472
5.118,-0.004643,0.001318,-0.004203,0.003712,-0.000612,0.00215,-0.005437,-0.509116,-0.001174,-0.069956,-264.167114,-0.238295,62.249502
5.138,-0.004947,0.001464,-0.000406,0.004189,-0.00069,0.002426,-0.006193,-0.50887,-0.002872,-0.069956,-264.167114,-0.238295,62.249502
5.1581,-0.005071,0.001093,-0.002249,0.004643,-0.000765,0.002688,-0.006193,-0.50887,-0.002872,-0.069956,-264.167114,-0.238295,62.249502
5.1779,-0.004369,0.000962,-0.001194,0.00506,-0.000834,0.00293,-0.006196,-0.50891,-0.002243,0.005035,-264.166938,-0.313285,62.249696
5.1979,-0.004861,0.001203,-0.000971,0.005441,-0.000897,0.003151,-0.00611,-0.508919,-0.002169,0.005035,-264.166938,-0.313285,62.249696
5.2181,-0.004922,0.000726,-0.001188,0.005786,-0.000953,0.00335,-0.005286,-0.508809,-0.000943,0.080033,-264.166221,-0.388283,62.25049
5.2384,-0.004658,0.001233,-0.002105,0.006094,-0.001004,0.003529,-0.005415,-0.509075,-0.001079,0.080033,-264.166221,-0.388283,62.25049
5.2585,-0.004941,0.001435,-0.00297,0.006367,-0.001049,0.003687,-0.005415,-0.509075,-0.001079,0.080033,-264.166221,-0.388283,62.25049
5.2781,-0.004531,0.001476,-0.000727,0.006602,-0.001088,0.003823,-0.006261,-0.508597,-0.002865,0.155034,-264.164597,-0.463285,62.252287
5.2986,-0.004278,0.001161,-0.003495,0.006802,-0.001121,0.003939,-0.006154,-0.508592,-0.002703,0.155034,-264.164597,-0.463285,62.252287
5.3181,-0.004338,0.0012,-0.001822,0.006966,-0.001148,0.004033,-0.00582,-0.508876,-0.003356,0.18667,-264.162057,-0.478303,62.255099
5.3383,-0.004058,0.001703,-0.001876,0.007093,-0.001169,0.004107,-0.005472,-0.508837,-0.002458,0.18667,-264.162057,-0.478303,62.255099
5.3582,-0.004477,0.001062,-0.003291,0.007183,-0.001184,0.00416,-0.005472,-0.508837,-0.002458,0.18667,-264.162057,-0.478303,62.255099
5.378,-0.00406,0.001314,-0.001195,0.007238,-0.001193,0.004191,-0.005825,-0.508991,-0.0031,0.18667,-264.159288,-0.478303,62.258164
5.3989,-0.004212,0.001293,-0.001769,0.007256,-0.001196,0.004202,-0.005731,-0.50897,-0.002955,0.18667,-264.159288,-0.478303,62.258164
5.4185,-0.0042,0.000969,-0.000544,0.007238,-0.001193,0.004191,-0.004835,-0.508753,-0.001607,0.18667,-264.156364,-0.478303,62.2614
5.4381,-0.003815,0.000942,-0.000304,0.007184,-0.001184,0.00416,-0.004599,-0.508915,-0.000988,0.18667,-264.156364,-0.478303,62.2614
5.4582,-0.003533,0.001177,-0.002283,0.007093,-0.001169,0.004107,-0.004599,-0.508915,-0.000988,0.18667,-264.156364,-0.478303,62.2614
5.478,-0.003755,0.001101,-0.002088,0.006966,-0.001148,0.004034,-0.004344,-0.508881,-0.002079,0.18667,-264.153415,-0.478303,62.264664
5.4987,-0.003732,0.000792,-0.000431,0.006802,-0.001121,0.003939,-0.004366,-0.508883,-0.002074,0.18667,-264.153415,-0.478303,62.264664
5.5182,-0.00339,0.00105,-0.001326,0.006603,-0.001088,0.003824,-0.003678,-0.509253,-0.000272,0.18667,-264.150524,-0.478303,62.267864
5.5381,-0.00373,0.000655,-0.000848,0.006368,-0.001049,0.003688,-0.003865,-0.509085,-0.000854,0.18667,-264.150524,-0.478303,62.267864
5.5582,-0.003482,0.001206,-0.000819,0.006095,-0.001004,0.00353,-0.003865,-0.509085,-0.000854,0.18667,-264.150524,-0.478303,62.267864
5.5782,-0.003437,0.001035,-0.002388,0.005785,-0.000953,0.00335,-0.00357,-0.508848,-0.000628,0.18667,-264.147758,-0.478303,62.270925
5.5983,-0.003086,0.000758,-0.001387,0.005442,-0.000897,0.003151,-0.003635,-0.508858,-0.000743,0.18667,-264.147758,-0.478303,62.270925
5.6185,-0.003416,0.000902,0.001039,0.00506,-0.000834,0.00293,-0.003557,-0.50928,-0.00125,0.18667,-264.145272,-0.478303,62.273677
5.638,-0.002727,0.000638,-0.000166,0.004645,-0.000766,0.00269,-0.003144,-0.50918,7.8e-05,0.18667,-264.145272,-0.478303,62.273677
5.6582,-0.002815,0.000705,-0.000374,0.004192,-0.000691,0.002427,-0.003144,-0.50918,7.8e-05,0.18667,-264.145272,-0.478303,62.273677
