mach0312/omni-docking-bench/src/icros_test_setup/results/kinematic_sample/timeseries/trial_069.csv
t,x,y,yaw,vx,vy,wz,bl_x,bl_y,bl_yaw,front_steering_joint,front_wheel_joint,rear_steering_joint,rear_wheel_joint
0.0,0.061476,-0.022137,-0.067671,0.0,0.0,0.0,0.027833,-0.531352,-0.06643,0.471928,-263.812772,-0.061303,62.116715
0.0004,0.061012,-0.0224,-0.066603,-0.0001,-3e-06,0.0,0.02761,-0.531035,-0.065802,0.471928,-263.812772,-0.061303,62.116715
0.0008,0.061466,-0.022053,-0.066608,-0.0001,-3e-06,0.0,0.02761,-0.531035,-0.065802,0.471928,-263.812772,-0.061303,62.116715
0.0011,0.061469,-0.022275,-0.065375,-0.0001,-3e-06,0.0,0.027288,-0.530746,-0.066565,0.471928,-263.812772,-0.061303,62.116715
0.0014,0.061809,-0.022265,-0.066339,-0.0001,-3e-06,0.0,0.027288,-0.530746,-0.066565,0.396837,-263.812774,0.013788,62.116714
0.0017,0.061181,-0.02216,-0.067342,-0.0001,-3e-06,0.0,0.027288,-0.530746,-0.066565,0.321795,-263.812778,0.033517,62.116709
0.002,0.061421,-0.0225,-0.067408,-0.0001,-3e-06,0.0,0.027174,-0.530949,-0.066817,0.246815,-263.812789,0.033517,62.116699
0.0023,0.061479,-0.021931,-0.066141,-0.0001,-3e-06,0.0,0.027212,-0.530986,-0.066738,0.246815,-263.812789,0.033517,62.116699
0.0025,0.061233,-0.0221,-0.067282,-0.0001,-3e-06,0.0,0.027212,-0.530986,-0.066738,0.246815,-263.812789,0.033517,62.116699
0.0027,0.061545,-0.022028,-0.065859,-0.0001,-3e-06,0.0,0.027321,-0.531194,-0.066777,0.246815,-263.812789,0.033517,62.116699
0.018,0.061483,-0.021992,-0.066434,-0.0161,0.015997,0.03,0.027979,-0.530922,-0.065859,0.171778,-263.812808,0.033517,62.116679
0.038,0.061269,-0.022314,-0.066,-0.0321,0.017862,0.05,0.027779,-0.530891,-0.066186,0.171778,-263.812808,0.033517,62.116679
0.058,0.061665,-0.022176,-0.066802,-0.0481,0.018224,0.05,0.027779,-0.530891,-0.066186,0.171778,-263.812808,0.033517,62.116679
0.0778,0.060958,-0.022131,-0.066299,-0.063008,0.01801,0.05,0.027618,-0.531038,-0.066802,0.096943,-263.812838,0.033517,62.11665
0.0978,0.060918,-0.022356,-0.068591,-0.06229,0.018044,0.05,0.027585,-0.531036,-0.066765,0.096943,-263.812838,0.033517,62.11665
0.1179,0.061101,-0.021951,-0.066758,-0.062307,0.018128,0.05,0.025963,-0.531157,-0.068591,0.021838,-263.812839,0.108622,62.116649
0.1379,0.061292,-0.022548,-0.066465,-0.062429,0.017826,0.05,0.026601,-0.530961,-0.067543,0.021838,-263.812839,0.108622,62.116649
0.1578,0.061525,-0.0223,-0.066088,-0.062654,0.018428,0.05,0.026601,-0.530961,-0.067543,0.021838,-263.812839,0.108622,62.116649
0.1778,0.061331,-0.022258,-0.066348,-0.062863,0.018189,0.05,0.027844,-0.531187,-0.066087,-0.053177,-263.81285,0.183637,62.11664
0.1982,0.061719,-0.022062,-0.067076,-0.062672,0.018143,0.05,0.027816,-0.531183,-0.066109,-0.053177,-263.81285,0.183637,62.11664
0.2178,0.061748,-0.022609,-0.066927,-0.063059,0.017875,0.05,0.027531,-0.530915,-0.067075,-0.128465,-263.812907,0.190924,62.116594
0.2379,0.061695,-0.022236,-0.066968,-0.063122,0.018429,0.05,0.027593,-0.531229,-0.06699,-0.128465,-263.812907,0.190924,62.116594
0.2578,0.061162,-0.0222,-0.065578,-0.063044,0.018057,0.05,0.027593,-0.531229,-0.06699,-0.128465,-263.812907,0.190924,62.116594
0.2781,0.061338,-0.022667,-0.066239,-0.062486,0.018144,0.05,0.027712,-0.531101,-0.065568,-0.203061,-263.813181,0.195251,62.116373
0.2981,0.06117,-0.022374,-0.066407,-0.062704,0.018557,0.05,0.027702,-0.531132,-0.065615,-0.203061,-263.813181,0.195251,62.116373
0.3178,0.061421,-0.022075,-0.066884,-0.06252,0.018266,0.05,0.027238,-0.531238,-0.066372,-0.278068,-263.814234,0.19543,62.115523
0.3378,0.061289,-0.022211,-0.067404,-0.062759,0.017921,0.05,0.027283,-0.531063,-0.066661,-0.278068,-263.814234,0.19543,62.115523
0.3581,0.061223,-0.022063,-0.06625,-0.062646,0.018033,0.05,0.027283,-0.531063,-0.066661,-0.278068,-263.814234,0.19543,62.115523
0.3778,0.060953,-0.022338,-0.066905,-0.062549,0.017961,0.05,0.027175,-0.530892,-0.066114,-0.353192,-263.816981,0.188791,62.113321
0.3981,0.060932,-0.021955,-0.067443,-0.06231,0.018213,0.05,0.027146,-0.530911,-0.066163,-0.353192,-263.816981,0.188791,62.113321
0.4177,0.060085,-0.021983,-0.065387,-0.062273,0.017799,0.05,0.026115,-0.530704,-0.067198,-0.428075,-263.822228,0.197024,62.10862
0.4377,0.060596,-0.021917,-0.066366,-0.061393,0.01801,0.05,0.026426,-0.5308,-0.066136,-0.428075,-263.822228,0.197024,62.10862
0.4578,0.060169,-0.02239,-0.065901,-0.061916,0.01785,0.05,0.026426,-0.5308,-0.066136,-0.428075,-263.822228,0.197024,62.10862
0.4777,0.05918,-0.021959,-0.065978,-0.061512,0.018379,0.05,0.025753,-0.531086,-0.06539,-0.503067,-263.829976,0.195275,62.101419
0.498,0.059075,-0.021715,-0.065973,-0.060499,0.01801,0.05,0.025717,-0.531064,-0.065418,-0.503067,-263.829976,0.195275,62.101419
0.5178,0.057743,-0.021421,-0.065941,-0.060378,0.017773,0.05,0.024593,-0.530372,-0.065376,-0.578063,-263.840222,0.202111,62.091718
0.5385,0.057379,-0.021479,-0.065271,-0.059029,0.017569,0.05,0.024225,-0.530309,-0.065622,-0.578063,-263.840222,0.202111,62.091718
0.5578,0.057695,-0.021738,-0.065366,-0.058658,0.017691,0.05,0.024225,-0.530309,-0.065622,-0.578063,-263.840222,0.202111,62.091718
0.5778,0.055688,-0.02082,-0.063421,-0.058992,0.017923,0.05,0.023065,-0.530242,-0.064349,-0.653058,-263.85297,0.20419,62.079516
0.5977,0.055989,-0.021185,-0.064516,-0.056896,0.017249,0.05,0.023051,-0.5302,-0.064257,-0.653058,-263.85297,0.20419,62.079516
0.6178,0.05345,-0.020621,-0.063416,-0.057238,0.017531,0.05,0.021869,-0.529728,-0.063502,-0.688131,-263.868217,0.215608,62.064814
0.6383,0.053692,-0.020476,-0.062458,-0.054649,0.017192,0.05,0.021291,-0.529603,-0.063324,-0.688131,-263.868217,0.215608,62.064814
0.6579,0.05348,-0.02053,-0.06297,-0.054866,0.017085,0.05,0.021291,-0.529603,-0.063324,-0.688131,-263.868217,0.215608,62.064814
0.6778,0.051165,-0.019799,-0.062768,-0.054666,0.017124,0.05,0.019571,-0.528949,-0.061442,-0.698595,-263.885964,0.22945,62.047613
0.698,0.050897,-0.019617,-0.06111,-0.052306,0.016551,0.05,0.0195,-0.528925,-0.06149,-0.698595,-263.885964,0.22945,62.047613
0.7178,0.047637,-0.018928,-0.05777,-0.052,0.016472,0.05,0.018116,-0.528151,-0.05969,-0.714843,-263.906237,0.240446,62.027887
0.7378,0.047684,-0.019226,-0.05935,-0.04865,0.016146,0.05,0.017951,-0.528044,-0.058413,-0.714843,-263.906237,0.240446,62.027887
0.7577,0.047445,-0.019029,-0.059174,-0.048741,0.016364,0.05,0.017951,-0.528044,-0.058413,-0.714843,-263.906237,0.240446,62.027887
0.7779,0.044312,-0.018004,-0.057778,-0.048487,0.01619,0.05,0.015039,-0.527416,-0.05711,-0.732949,-263.928959,0.261287,62.006519
0.7981,0.044543,-0.018646,-0.058114,-0.045278,0.015415,0.05,0.014969,-0.52738,-0.057102,-0.732949,-263.928959,0.261287,62.006519
0.8178,0.040899,-0.017363,-0.054246,-0.045551,0.016028,0.05,0.013163,-0.527107,-0.056295,-0.766168,-263.954247,0.282997,61.986688
0.8378,0.040967,-0.01762,-0.056012,-0.04178,0.01512,0.05,0.012988,-0.526737,-0.054888,-0.766168,-263.954247,0.282997,61.986688
0.8579,0.040695,-0.017474,-0.054313,-0.041889,0.015299,0.05,0.012988,-0.526737,-0.054888,-0.766168,-263.954247,0.282997,61.986688
0.8782,0.037349,-0.016918,-0.052221,-0.041583,0.015239,0.05,0.010931,-0.525889,-0.051973,-0.792795,-263.979095,0.322346,61.968301
0.8981,0.037395,-0.016648,-0.052481,-0.038181,0.014945,0.05,0.010861,-0.52589,-0.051928,-0.792795,-263.979095,0.322346,61.968301
0.9177,0.034507,-0.015688,-0.050592,-0.038217,0.014663,0.05,0.00911,-0.525295,-0.050615,-0.830364,-264.003135,0.348909,61.951044
0.938,0.034053,-0.01558,-0.048966,-0.035256,0.013923,0.05,0.00869,-0.525064,-0.050365,-0.830364,-264.003135,0.348909,61.951044
0.9584,0.03402,-0.015712,-0.04937,-0.034775,0.013895,0.048966,0.00869,-0.525064,-0.050365,-0.830364,-264.003135,0.348909,61.951044
0.9779,0.030962,-0.014852,-0.047728,-0.034754,0.014014,0.04937,0.007128,-0.524319,-0.047067,-0.872454,-264.025689,0.38771,61.935381
0.9978,0.031214,-0.014565,-0.046198,-0.031635,0.013358,0.047728,0.007042,-0.524293,-0.047051,-0.872454,-264.025689,0.38771,61.935381
1.0179,0.028285,-0.014029,-0.045128,-0.031854,0.013108,0.046198,0.006402,-0.523451,-0.044391,-0.899764,-264.047085,0.431485,61.920734
1.0379,0.028469,-0.013907,-0.044606,-0.028889,0.012739,0.045128,0.005602,-0.523412,-0.04458,-0.899764,-264.047085,0.431485,61.920734
1.0579,0.028379,-0.014021,-0.044931,-0.029061,0.012623,0.044606,0.005602,-0.523412,-0.04458,-0.899764,-264.047085,0.431485,61.920734
1.0778,0.025534,-0.013237,-0.044009,-0.02898,0.012732,0.044931,0.004009,-0.522811,-0.042681,-0.931004,-264.067623,0.463012,61.907029
1.0977,0.026092,-0.013172,-0.043638,-0.026092,0.012101,0.044009,0.003909,-0.522789,-0.042712,-0.931004,-264.067623,0.463012,61.907029
1.1177,0.022608,-0.012545,-0.03998,-0.026641,0.012022,0.043638,0.002745,-0.522153,-0.041919,-0.940899,-264.087322,0.466102,61.89404
1.1377,0.023225,-0.01235,-0.041349,-0.023091,0.011631,0.03998,0.002308,-0.522077,-0.040596,-0.940899,-264.087322,0.466102,61.89404
1.1583,0.023452,-0.012574,-0.041261,-0.023716,0.01138,0.041349,0.002308,-0.522077,-0.040596,-0.940899,-264.087322,0.466102,61.89404
1.1778,0.02094,-0.011906,-0.039097,-0.023951,0.011596,0.041261,0.001247,-0.52154,-0.039251,-0.980919,-264.104913,0.515324,61.882794
1.198,0.020491,-0.011612,-0.038455,-0.021389,0.011079,0.039097,0.001202,-0.521524,-0.039191,-0.980919,-264.104913,0.515324,61.882794
1.2178,0.018508,-0.011539,-0.035514,-0.020922,0.010816,0.038455,-9e-06,-0.520765,-0.03687,-0.996258,-264.122249,0.529326,61.871879
1.2378,0.018374,-0.011001,-0.037,-0.018906,0.010874,0.035514,0.00011,-0.520963,-0.035897,-0.996258,-264.122249,0.529326,61.871879
1.2579,0.018744,-0.010966,-0.036597,-0.018768,0.010314,0.037,0.00011,-0.520963,-0.035897,-0.996258,-264.122249,0.529326,61.871879
1.278,0.016406,-0.010401,-0.034926,-0.019132,0.010272,0.036597,-0.000924,-0.520056,-0.034719,-1.021703,-264.138447,0.539265,61.862027
1.2984,0.01695,-0.010538,-0.034374,-0.016759,0.009822,0.034926,-0.000985,-0.520043,-0.034683,-1.021703,-264.138447,0.539265,61.862027
1.318,0.014621,-0.009799,-0.033368,-0.017302,0.009949,0.034374,-0.00126,-0.519832,-0.033003,-1.052536,-264.152992,0.579532,61.853416
1.3377,0.015211,-0.009882,-0.03288,-0.014939,0.009306,0.033368,-0.001989,-0.519601,-0.033034,-1.052536,-264.152992,0.579532,61.853416
1.3577,0.014469,-0.009864,-0.033842,-0.015528,0.009376,0.03288,-0.001989,-0.519601,-0.033034,-1.052536,-264.152992,0.579532,61.853416
1.3779,0.013233,-0.009264,-0.030707,-0.014794,0.009369,0.033842,-0.003572,-0.519077,-0.032175,-1.077239,-264.166893,0.601793,61.845427
1.3984,0.013389,-0.009222,-0.031245,-0.013512,0.008854,0.030707,-0.003513,-0.51906,-0.032027,-1.077239,-264.166893,0.601793,61.845427
1.4182,0.011822,-0.00917,-0.029955,-0.013671,0.0088,0.031245,-0.003133,-0.518593,-0.029973,-1.085693,-264.180197,0.603597,61.837891
1.4383,0.011403,-0.00865,-0.031196,-0.012091,0.008811,0.029955,-0.003389,-0.518742,-0.029803,-1.085693,-264.180197,0.603597,61.837891
1.4579,0.011654,-0.008591,-0.028961,-0.011667,0.00829,0.031196,-0.003389,-0.518742,-0.029803,-1.085693,-264.180197,0.603597,61.837891
1.4781,0.010394,-0.008532,-0.027809,-0.011898,0.00825,0.028961,-0.00374,-0.517941,-0.027509,-1.115654,-264.192157,0.632368,61.831374
1.4981,0.010443,-0.008351,-0.028868,-0.010627,0.008239,0.027809,-0.00376,-0.517957,-0.027491,-1.115654,-264.192157,0.632368,61.831374
1.5178,0.009089,-0.007886,-0.027981,-0.01068,0.008046,0.028868,-0.004628,-0.517871,-0.027938,-1.167479,-264.201447,0.707366,61.826414
1.5378,0.009274,-0.007985,-0.026847,-0.009306,0.007629,0.027981,-0.004987,-0.517732,-0.027845,-1.167479,-264.201447,0.707366,61.826414
1.5578,0.008962,-0.008257,-0.025247,-0.009485,0.007733,0.026847,-0.004987,-0.517732,-0.027845,-1.167479,-264.201447,0.707366,61.826414
1.5779,0.008057,-0.007668,-0.02451,-0.009168,0.008028,0.025247,-0.004415,-0.517684,-0.023904,-1.172063,-264.21233,0.688551,61.820941
1.5984,0.007503,-0.007276,-0.025031,-0.008243,0.007469,0.02451,-0.004431,-0.517661,-0.02391,-1.172063,-264.21233,0.688551,61.820941
1.6181,0.007101,-0.007524,-0.024463,-0.007683,0.007086,0.025031,-0.005603,-0.516824,-0.024044,-1.196245,-264.222191,0.740149,61.816055
1.638,0.00685,-0.007033,-0.025061,-0.007283,0.007348,0.024463,-0.005516,-0.517099,-0.024158,-1.196245,-264.222191,0.740149,61.816055
1.6579,0.006838,-0.007379,-0.024553,-0.007283,0.007348,0.024463,-0.005516,-0.517099,-0.024158,-1.196245,-264.222191,0.740149,61.816055
1.6779,0.00576,-0.006681,-0.023794,-7e-05,7.2e-05,0.0,-0.006072,-0.516855,-0.02337,-1.218744,-264.231659,0.73831,61.811641
1.6983,0.006033,-0.006758,-0.022351,-7e-05,7.2e-05,0.0,-0.0061,-0.516826,-0.023368,-1.218744,-264.231659,0.73831,61.811641
1.7178,0.004697,-0.006376,-0.021454,-7e-05,7.2e-05,0.0,-0.005615,-0.516367,-0.02149,-1.25497,-264.24019,0.806219,61.807813
1.738,0.004917,-0.006683,-0.021401,-7e-05,7.2e-05,0.0,-0.006004,-0.516272,-0.021361,-1.25497,-264.24019,0.806219,61.807813
1.7578,0.004885,-0.006266,-0.021284,-7e-05,7.2e-05,0.0,-0.006004,-0.516272,-0.021361,-1.25497,-264.24019,0.806219,61.807813
1.7778,0.004774,-0.00649,-0.021659,-7e-05,7.2e-05,0.0,-0.005969,-0.51615,-0.021284,-1.179967,-264.24019,0.731216,61.807813
1.7978,0.004985,-0.006545,-0.020363,-7e-05,7.2e-05,0.0,-0.00599,-0.516166,-0.02131,-1.179967,-264.24019,0.731216,61.807813
1.8178,0.004847,-0.006612,-0.021941,-7e-05,7.2e-05,0.0,-0.0054,-0.516439,-0.020363,-1.104972,-264.24019,0.656221,61.807813
1.8379,0.005029,-0.00654,-0.022739,-7e-05,7.2e-05,0.0,-0.005935,-0.516468,-0.021259,-1.104972,-264.24019,0.656221,61.807813
1.8578,0.004828,-0.006452,-0.022769,-7e-05,7.2e-05,0.0,-0.005935,-0.516468,-0.021259,-1.104972,-264.24019,0.656221,61.807813
1.8779,0.004994,-0.006689,-0.022047,-2e-06,2e-06,7e-06,-0.006783,-0.51632,-0.022769,-1.029971,-264.24019,0.58122,61.807813
1.8983,0.004946,-0.006449,-0.022168,-0.001025,0.001053,0.003585,-0.006748,-0.516336,-0.022722,-1.029971,-264.24019,0.58122,61.807813
1.9183,0.005001,-0.006476,-0.02249,-0.001998,0.002053,0.006992,-0.006358,-0.516323,-0.022168,-0.954969,-264.24019,0.506218,61.807813
1.9382,0.004586,-0.006436,-0.02178,-0.002919,0.002999,0.010214,-0.006421,-0.516337,-0.022351,-0.954969,-264.24019,0.506218,61.807813
1.9581,0.004809,-0.006261,-0.022491,-0.003788,0.003891,0.013253,-0.006421,-0.516337,-0.022351,-0.954969,-264.24019,0.506218,61.807813
1.9781,0.004623,-0.006238,-0.021985,-0.004605,0.004731,0.016114,-0.006663,-0.51613,-0.022486,-1.029972,-264.240238,0.581221,61.807792
1.9981,0.004743,-0.006332,-0.021749,-0.005367,0.005513,0.018779,-0.006657,-0.516129,-0.022446,-1.029972,-264.240238,0.581221,61.807792
2.0178,0.005015,-0.006474,-0.022938,-0.006078,0.006244,0.021267,-0.006376,-0.51619,-0.021683,-1.105245,-264.24095,0.656494,61.807471
2.038,0.005031,-0.006422,-0.021157,-0.006735,0.006919,0.023567,-0.006554,-0.516273,-0.022389,-1.105245,-264.24095,0.656494,61.807471
2.0581,0.004706,-0.006517,-0.02178,-0.007343,0.007544,0.025694,-0.006554,-0.516273,-0.022389,-1.105245,-264.24095,0.656494,61.807471
2.0777,0.004314,-0.005969,-0.021436,-0.007896,0.008111,0.027627,-0.00652,-0.516287,-0.02144,-1.180022,-264.243745,0.731271,61.806213
2.098,0.004927,-0.006351,-0.020861,-0.008393,0.008623,0.029369,-0.00653,-0.516254,-0.02143,-1.180022,-264.243745,0.731271,61.806213
2.118,0.00371,-0.00619,-0.02139,-0.008843,0.009085,0.030942,-0.005897,-0.516107,-0.020277,-1.254963,-264.249039,0.806211,61.802948
2.1378,0.004032,-0.005955,-0.019466,-0.009237,0.00949,0.032322,-0.006661,-0.516071,-0.020837,-1.254963,-264.249039,0.806211,61.802948
2.1579,0.003911,-0.006134,-0.020372,-0.009578,0.009839,0.033513,-0.006661,-0.516071,-0.020837,-1.254963,-264.249039,0.806211,61.802948
2.1779,0.002669,-0.0061,-0.018528,-0.009869,0.010138,0.034531,-0.006817,-0.515792,-0.019267,-1.264707,-264.256833,0.837362,61.798017
2.1977,0.003061,-0.005656,-0.018531,-0.010105,0.010381,0.035359,-0.006823,-0.515801,-0.019189,-1.264707,-264.256833,0.837362,61.798017
2.218,0.001612,-0.005441,-0.016937,-0.010289,0.01057,0.036002,-0.006719,-0.515294,-0.017418,-1.264707,-264.267128,0.837362,61.792294
2.2379,0.001741,-0.005862,-0.017382,-0.01042,0.010705,0.036461,-0.006935,-0.515301,-0.017004,-1.264707,-264.267128,0.837362,61.792294
2.2579,0.001897,-0.005647,-0.018242,-0.010499,0.010786,0.036738,-0.006935,-0.515301,-0.017004,-1.264707,-264.267128,0.837362,61.792294
2.2779,0.000693,-0.005012,-0.016137,-0.010526,0.010813,0.03683,-0.007877,-0.515085,-0.016581,-1.264707,-264.279921,0.837362,61.786256
2.2983,0.000444,-0.004849,-0.013811,-0.010499,0.010786,0.036738,-0.007866,-0.515063,-0.016506,-1.264707,-264.279921,0.837362,61.786256
2.3186,-0.001259,-0.00422,-0.012789,-0.010421,0.010705,0.036462,-0.006999,-0.514378,-0.012393,-1.264707,-264.29391,0.837362,61.779959
2.3379,-0.001089,-0.004141,-0.014087,-0.010289,0.01057,0.036003,-0.007498,-0.51421,-0.012438,-1.264707,-264.29391,0.837362,61.779959
2.3582,-0.000805,-0.0047,-0.013822,-0.010104,0.01038,0.035353,-0.007498,-0.51421,-0.012438,-1.264707,-264.29391,0.837362,61.779959
2.3778,-0.002501,-0.003773,-0.01224,-0.009868,0.010137,0.034528,-0.008356,-0.514122,-0.012041,-1.264707,-264.307814,0.837362,61.7737
2.3984,-0.00235,-0.003956,-0.013253,-0.009579,0.009841,0.033517,-0.008397,-0.514081,-0.012007,-1.264707,-264.307814,0.837362,61.7737
2.418,-0.003721,-0.003088,-0.011253,-0.009228,0.00948,0.032289,-0.009493,-0.513506,-0.01189,-1.264707,-264.321227,0.837362,61.767663
2.4378,-0.00395,-0.003116,-0.011536,-0.008842,0.009083,0.030938,-0.009523,-0.513197,-0.011353,-1.264707,-264.321227,0.837362,61.767663
2.4577,-0.004042,-0.003608,-0.01005,-0.008395,0.008625,0.029375,-0.009523,-0.513197,-0.011353,-1.264707,-264.321227,0.837362,61.767663
2.4782,-0.005125,-0.002764,-0.010035,-0.007894,0.00811,0.027623,-0.009628,-0.5131,-0.008423,-1.264707,-264.333926,0.837362,61.761947
2.4981,-0.005038,-0.002744,-0.008619,-0.007339,0.00754,0.02568,-0.009683,-0.513062,-0.008492,-1.264707,-264.333926,0.837362,61.761947
2.5181,-0.006284,-0.002425,-0.007404,-0.006731,0.006915,0.023551,-0.009755,-0.512389,-0.007484,-1.264707,-264.345129,0.837362,61.756904
2.5381,-0.006102,-0.00236,-0.008543,-0.006076,0.006242,0.02126,-0.009973,-0.51236,-0.007295,-1.264707,-264.345129,0.837362,61.756904
2.558,-0.006503,-0.002409,-0.00708,-0.005366,0.005513,0.018776,-0.009973,-0.51236,-0.007295,-1.264707,-264.345129,0.837362,61.756904
2.5778,-0.007432,-0.001791,-0.008096,-0.004607,0.004732,0.016118,-0.010466,-0.512029,-0.005836,-1.264707,-264.35482,0.837362,61.752542
2.5977,-0.007613,-0.001959,-0.006814,-0.003786,0.00389,0.013248,-0.010547,-0.512003,-0.005952,-1.264707,-264.35482,0.837362,61.752542
2.618,-0.008374,-0.001692,-0.005381,-0.002922,0.003002,0.010224,-0.011294,-0.511733,-0.006089,-1.264707,-264.361943,0.837362,61.749335
2.6379,-0.008085,-0.001633,-0.006194,-0.002001,0.002056,0.007002,-0.01122,-0.511678,-0.005594,-1.264707,-264.361943,0.837362,61.749335
2.6579,-0.007923,-0.002235,-0.005203,-0.001021,0.001049,0.003574,-0.01122,-0.511678,-0.005594,-1.264707,-264.361943,0.837362,61.749335
2.6779,-0.0091,-0.002003,-0.005194,-1e-06,1e-06,4e-06,-0.010759,-0.512039,-0.004558,-1.264707,-264.36697,0.837362,61.747072
2.6981,-0.00902,-0.001681,-0.004837,0.0,0.0,0.0,-0.010833,-0.51203,-0.004586,-1.264707,-264.36697,0.837362,61.747072
2.718,-0.009129,-0.00142,-0.004642,0.0,0.0,0.0,-0.011527,-0.511635,-0.004699,-1.264707,-264.368327,0.837362,61.746461
2.7379,-0.00866,-0.001628,-0.00544,0.0,0.0,0.0,-0.011514,-0.511503,-0.004649,-1.264707,-264.368327,0.837362,61.746461
2.7576,-0.008673,-0.001347,-0.003979,0.0,0.0,0.0,-0.011514,-0.511503,-0.004649,-1.264707,-264.368327,0.837362,61.746461
2.7782,-0.00864,-0.001513,-0.004903,0.0,0.0,0.0,-0.010702,-0.511343,-0.003979,-1.264707,-264.368327,0.837362,61.746461
2.7982,-0.008685,-0.001651,-0.004276,0.0,0.0,0.0,-0.010732,-0.511355,-0.004043,-1.264707,-264.368327,0.837362,61.746461
2.8182,-0.008927,-0.001281,-0.003178,0.0,0.0,0.0,-0.010865,-0.511646,-0.004276,-1.264707,-264.368327,0.837362,61.746461
2.8379,-0.008879,-0.001685,-0.004988,0.0,0.0,0.0,-0.010681,-0.511433,-0.003638,-1.264707,-264.368327,0.837362,61.746461
2.8586,-0.008276,-0.00134,-0.004692,0.0,0.0,0.0,-0.010681,-0.511433,-0.003638,-1.264707,-264.368327,0.837362,61.746461
2.8781,-0.008466,-0.001608,-0.005137,0.0,0.0,0.0,-0.010669,-0.511335,-0.004692,-1.264707,-264.368327,0.837362,61.746461
2.8979,-0.008807,-0.001333,-0.004812,9.8e-05,1.9e-05,0.0,-0.010694,-0.511351,-0.00472,-1.264707,-264.368327,0.837362,61.746461
2.9177,-0.008653,-0.001559,-0.006485,9.8e-05,1.9e-05,0.0,-0.011261,-0.511327,-0.004812,-1.264707,-264.368327,0.837362,61.746461
2.9384,-0.008944,-0.001408,-0.004145,9.8e-05,1.9e-05,0.0,-0.011662,-0.511454,-0.005771,-1.264707,-264.368327,0.837362,61.746461
2.958,-0.008833,-0.001723,-0.004683,9.8e-05,1.9e-05,0.0,-0.011662,-0.511454,-0.005771,-1.264707,-264.368327,0.837362,61.746461
2.9787,-0.008259,-0.001555,-0.005334,9.8e-05,1.9e-05,0.0,-0.011221,-0.511718,-0.004683,-1.189573,-264.368327,0.762228,61.746461
2.9977,-0.0091,-0.001575,-0.006272,9.8e-05,1.9e-05,0.0,-0.011204,-0.511705,-0.004729,-1.189573,-264.368327,0.762228,61.746461
3.018,-0.00899,-0.001499,-0.004726,9.8e-05,1.9e-05,0.0,-0.012299,-0.511565,-0.006272,-1.114553,-264.368327,0.687207,61.746461
3.0378,-0.008764,-0.001514,-0.005124,9.8e-05,1.9e-05,0.0,-0.011784,-0.511524,-0.005386,-1.114553,-264.368327,0.687207,61.746461
3.0584,-0.009228,-0.001624,-0.003553,9.8e-05,1.9e-05,0.0,-0.011784,-0.511524,-0.005386,-1.114553,-264.368327,0.687207,61.746461
3.078,-0.008708,-0.001565,-0.005786,9.8e-05,1.9e-05,0.0,-0.011041,-0.511621,-0.003553,-1.039581,-264.368327,0.612236,61.746461
3.0983,-0.009034,-0.001888,-0.005362,3e-06,1e-06,2e-06,-0.01109,-0.511616,-0.003732,-1.039581,-264.368327,0.612236,61.746461
3.1183,-0.00864,-0.001346,-0.004906,0.001241,0.000242,0.000754,-0.011769,-0.511881,-0.005362,-0.964245,-264.368327,0.5369,61.746461
3.1378,-0.008973,-0.001528,-0.00471,0.002411,0.000471,0.001465,-0.01141,-0.511571,-0.005101,-0.964245,-264.368327,0.5369,61.746461
3.1578,-0.008732,-0.001947,-0.005236,0.003523,0.000688,0.00214,-0.01141,-0.511571,-0.005101,-0.964245,-264.368327,0.5369,61.746461
3.1778,-0.008893,-0.001492,-0.004383,0.00457,0.000893,0.002776,-0.011402,-0.51194,-0.005236,-0.889552,-264.368327,0.462206,61.746461
3.1985,-0.008556,-0.001816,-0.00422,0.005552,0.001085,0.003373,-0.011383,-0.511909,-0.005176,-0.889552,-264.368327,0.462206,61.746461
3.2179,-0.008603,-0.00118,-0.005943,0.006474,0.001265,0.003932,-0.010708,-0.511811,-0.00422,-0.814697,-264.368327,0.387352,61.746461
3.2379,-0.008581,-0.001226,-0.005504,0.007328,0.001431,0.004451,-0.011238,-0.511445,-0.005206,-0.814697,-264.368327,0.387352,61.746461
3.2578,-0.008768,-0.001377,-0.004173,0.008121,0.001586,0.004932,-0.011238,-0.511445,-0.005206,-0.814697,-264.368327,0.387352,61.746461
3.2779,-0.008872,-0.001496,-0.002703,0.00885,0.001729,0.005376,-0.010896,-0.511372,-0.004173,-0.739557,-264.368327,0.312212,61.746461
3.2984,-0.008917,-0.002052,-0.004448,0.009516,0.001859,0.00578,-0.010849,-0.511381,-0.004064,-0.739557,-264.368327,0.312212,61.746461
3.3181,-0.008985,-0.001703,-0.004926,0.010119,0.001977,0.006146,-0.011185,-0.512047,-0.004448,-0.664573,-264.368327,0.237227,61.746461
3.3378,-0.008698,-0.001582,-0.004869,0.01066,0.002082,0.006475,-0.011363,-0.511847,-0.004721,-0.664573,-264.368327,0.237227,61.746461
3.3578,-0.008923,-0.001642,-0.00398,0.011133,0.002175,0.006762,-0.011363,-0.511847,-0.004721,-0.664573,-264.368327,0.237227,61.746461
3.378,-0.008986,-0.001319,-0.00466,0.011545,0.002255,0.007013,-0.010953,-0.511638,-0.00398,-0.589595,-264.368327,0.16225,61.746461
3.3981,-0.008712,-0.001681,-0.003294,0.011893,0.002323,0.007224,-0.010989,-0.511609,-0.00404,-0.589595,-264.368327,0.16225,61.746461
3.4177,-0.008868,-0.001215,-0.004336,0.012179,0.002379,0.007397,-0.010392,-0.511678,-0.003294,-0.514077,-264.368327,0.086732,61.746461
3.4378,-0.008533,-0.001809,-0.003165,0.012401,0.002422,0.007532,-0.010787,-0.51141,-0.003892,-0.514077,-264.368327,0.086732,61.746461
3.4577,-0.008943,-0.00124,-0.004619,0.012559,0.002453,0.007628,-0.010787,-0.51141,-0.003892,-0.514077,-264.368327,0.086732,61.746461
3.4779,-0.008789,-0.001594,-0.006695,0.012654,0.002472,0.007686,-0.011299,-0.511234,-0.004619,-0.439558,-264.368327,0.012213,61.746462
3.4986,-0.008597,-0.001311,-0.005302,0.012686,0.002478,0.007705,-0.011362,-0.511259,-0.004764,-0.439558,-264.368327,0.012213,61.746462
3.5185,-0.008743,-0.0017,-0.003831,0.012652,0.002471,0.007685,-0.011301,-0.511304,-0.005302,-0.364699,-264.368327,-0.062646,61.746462
3.5385,-0.009071,-0.001121,-0.004106,0.012558,0.002453,0.007628,-0.010955,-0.511528,-0.00446,-0.364699,-264.368327,-0.062646,61.746462
3.5586,-0.0089,-0.001297,-0.004384,0.0124,0.002422,0.007532,-0.010955,-0.511528,-0.00446,-0.364699,-264.368327,-0.062646,61.746462
3.578,-0.008775,-0.001704,-0.005916,0.012178,0.002379,0.007397,-0.011135,-0.511292,-0.004384,-0.289597,-264.368326,-0.137748,61.746462
3.5983,-0.008993,-0.001958,-0.005978,0.011892,0.002323,0.007223,-0.011194,-0.511328,-0.004522,-0.289597,-264.368326,-0.137748,61.746462
3.6183,-0.008478,-0.000963,-0.005303,0.011534,0.002253,0.007006,-0.012041,-0.511949,-0.005978,-0.214081,-264.368326,-0.173866,61.746463
3.6383,-0.008775,-0.00173,-0.00329,0.011128,0.002174,0.006759,-0.011552,-0.511384,-0.005594,-0.214081,-264.368326,-0.173866,61.746463
3.658,-0.008674,-0.001673,-0.004596,0.010654,0.002081,0.006471,-0.011552,-0.511384,-0.005594,-0.214081,-264.368326,-0.173866,61.746463
3.6782,-0.009055,-0.001518,-0.004402,0.010116,0.001976,0.006144,-0.011017,-0.511668,-0.004596,-0.139509,-264.368325,-0.173866,61.746464
3.6982,-0.00868,-0.001564,-0.004584,0.009513,0.001858,0.005778,-0.011037,-0.511656,-0.004582,-0.139509,-264.368325,-0.173866,61.746464
3.7178,-0.008764,-0.00143,-0.0046,0.008847,0.001728,0.005373,-0.011017,-0.511558,-0.004584,-0.064421,-264.368321,-0.173866,61.746467
3.7379,-0.008656,-0.001308,-0.00423,0.008118,0.001586,0.004931,-0.011071,-0.511481,-0.004593,-0.064421,-264.368321,-0.173866,61.746467
3.7579,-0.008934,-0.001463,-0.005133,0.007325,0.001431,0.004449,-0.011071,-0.511481,-0.004593,-0.064421,-264.368321,-0.173866,61.746467
3.7782,-0.00879,-0.001192,-0.003776,0.006466,0.001263,0.003928,-0.01155,-0.511457,-0.005133,0.010576,-264.368306,-0.173866,61.74648
3.7982,-0.008689,-0.001517,-0.004653,0.005539,0.001082,0.003365,-0.011491,-0.511438,-0.005037,0.010576,-264.368306,-0.173866,61.74648
3.8179,-0.008647,-0.001688,-0.005577,0.004563,0.000891,0.002772,-0.011058,-0.511512,-0.004652,0.085381,-264.368259,-0.173866,61.746522
3.8382,-0.008632,-0.00129,-0.004207,0.003519,0.000687,0.002138,-0.011306,-0.511609,-0.005183,0.085381,-264.368259,-0.173866,61.746522
3.8577,-0.009325,-0.001613,-0.004879,0.002408,0.00047,0.001463,-0.011306,-0.511609,-0.005183,0.085381,-264.368259,-0.173866,61.746522
3.8777,-0.009058,-0.001145,-0.003625,0.001234,0.000241,0.00075,-0.011799,-0.511607,-0.004875,0.160443,-264.368138,-0.173866,61.746628
3.8981,-0.008564,-0.001516,-0.00466,0.0,0.0,0.0,-0.011734,-0.511573,-0.004783,0.160443,-264.368138,-0.173866,61.746628
3.9178,-0.008663,-0.001838,-0.00413,0.0,0.0,0.0,-0.010928,-0.51151,-0.004655,0.235398,-264.367997,-0.173866,61.746753
3.9378,-0.008474,-0.001195,-0.004663,0.0,0.0,0.0,-0.010835,-0.511696,-0.004353,0.235398,-264.367997,-0.173866,61.746753
3.9579,-0.009032,-0.000952,-0.004126,0.0,0.0,0.0,-0.010835,-0.511696,-0.004353,0.235398,-264.367997,-0.173866,61.746753
3.978,-0.008732,-0.001372,-0.007608,0.0,0.0,0.0,-0.011137,-0.510948,-0.004126,0.235398,-264.367997,-0.173866,61.746753
3.998,-0.008913,-0.001655,-0.004325,0.0,0.0,0.0,-0.011244,-0.510977,-0.00438,0.235398,-264.367997,-0.173866,61.746753
4.0179,-0.008857,-0.001587,-0.005436,0.0,0.0,0.0,-0.011119,-0.51165,-0.004325,0.235398,-264.367997,-0.173866,61.746753
4.038,-0.00855,-0.001426,-0.004442,0.0,0.0,0.0,-0.011411,-0.51161,-0.004961,0.235398,-264.367997,-0.173866,61.746753
4.0577,-0.008492,-0.001668,-0.003109,0.0,0.0,0.0,-0.011411,-0.51161,-0.004961,0.235398,-264.367997,-0.173866,61.746753
4.0778,-0.008749,-0.001661,-0.006204,0.0,0.0,0.0,-0.010078,-0.511666,-0.003109,0.235398,-264.367997,-0.173866,61.746753
4.0978,-0.008985,-0.001502,-0.004842,0.0,0.0,0.0,-0.010214,-0.511665,-0.003339,0.235398,-264.367997,-0.173866,61.746753
4.1179,-0.008672,-0.000857,-0.005099,9.9e-05,1.7e-05,0.0,-0.011454,-0.511496,-0.004842,0.235398,-264.367997,-0.173866,61.746753
4.1378,-0.008548,-0.0017,-0.003825,9.9e-05,1.7e-05,0.0,-0.01135,-0.511126,-0.004989,0.235398,-264.367997,-0.173866,61.746753
4.1582,-0.008765,-0.001816,-0.005505,9.9e-05,1.7e-05,0.0,-0.01135,-0.511126,-0.004989,0.235398,-264.367997,-0.173866,61.746753
4.1777,-0.008587,-0.001172,-0.005469,9.9e-05,1.7e-05,0.0,-0.011572,-0.511808,-0.005505,0.235398,-264.367997,-0.173866,61.746753
4.1987,-0.008523,-0.00201,-0.004545,9.9e-05,1.7e-05,0.0,-0.011559,-0.511765,-0.005502,0.235398,-264.367997,-0.173866,61.746753
4.2178,-0.00897,-0.00151,-0.00484,9.9e-05,1.7e-05,0.0,-0.010841,-0.512004,-0.004545,0.1705,-264.367991,-0.098962,61.746759
4.2379,-0.008497,-0.001401,-0.004514,9.9e-05,1.7e-05,0.0,-0.011183,-0.511718,-0.004714,0.1705,-264.367991,-0.098962,61.746759
4.2579,-0.008907,-0.001698,-0.004348,9.9e-05,1.7e-05,0.0,-0.011183,-0.511718,-0.004714,0.1705,-264.367991,-0.098962,61.746759
4.2778,-0.009162,-0.001572,-0.00253,9.9e-05,1.7e-05,0.0,-0.011123,-0.511694,-0.004347,0.1705,-264.367979,-0.023869,61.746771
4.2981,-0.008988,-0.001655,-0.003663,9.9e-05,1.7e-05,0.0,-0.011074,-0.511685,-0.004215,0.1705,-264.367979,-0.023869,61.746771
4.3178,-0.008692,-0.001218,-0.005635,1e-06,0.0,0.0,-0.010854,-0.511651,-0.003663,0.1705,-264.367957,0.051133,61.746793
4.338,-0.008796,-0.001287,-0.003427,0.001312,0.000226,0.000708,-0.011259,-0.5114,-0.004785,0.1705,-264.367957,0.051133,61.746793
4.3578,-0.008849,-0.001812,-0.004878,0.002558,0.00044,0.00138,-0.011259,-0.5114,-0.004785,0.1705,-264.367957,0.051133,61.746793
4.378,-0.008699,-0.001593,-0.002945,0.003737,0.000643,0.002016,-0.011333,-0.511806,-0.004878,0.1705,-264.367926,0.126049,61.746825
4.3978,-0.008694,-0.00124,-0.00375,0.004847,0.000835,0.002615,-0.011254,-0.511791,-0.004743,0.1705,-264.367926,0.126049,61.746825
4.4179,-0.009049,-0.001364,-0.006101,0.005893,0.001015,0.003179,-0.0106,-0.511235,-0.003749,0.245494,-264.367849,0.051055,61.746894
4.4378,-0.008477,-0.00157,-0.003808,0.006868,0.001182,0.003705,-0.011485,-0.511303,-0.005085,0.245494,-264.367849,0.051055,61.746894
4.4581,-0.008641,-0.001453,-0.004925,0.007779,0.001339,0.004196,-0.011485,-0.511303,-0.005085,0.245494,-264.367849,0.051055,61.746894
4.4783,-0.008641,-0.001561,-0.004485,0.00862,0.001484,0.00465,-0.011096,-0.511438,-0.004908,0.320495,-264.367349,-0.023946,61.747346
4.4978,-0.008604,-0.001426,-0.003393,0.009392,0.001617,0.005066,-0.011083,-0.511446,-0.004878,0.320495,-264.367349,-0.023946,61.747346
4.518,-0.00862,-0.00134,-0.005647,0.0101,0.001739,0.005448,-0.010168,-0.511397,-0.003322,0.395498,-264.365467,-0.098949,61.749049
4.5381,-0.008208,-0.001087,-0.005847,0.010738,0.001849,0.005792,-0.010905,-0.511357,-0.004636,0.395498,-264.365467,-0.098949,61.749049
4.5581,-0.008583,-0.001533,-0.004545,0.011311,0.001947,0.006101,-0.010905,-0.511357,-0.004636,0.395498,-264.365467,-0.098949,61.749049
4.5779,-0.008139,-0.001295,-0.004222,0.011816,0.002034,0.006374,-0.010499,-0.511461,-0.004329,0.464936,-264.361774,-0.155991,61.752391
4.5984,-0.008214,-0.001125,-0.005289,0.012254,0.00211,0.00661,-0.010475,-0.511447,-0.004316,0.464936,-264.361774,-0.155991,61.752391
4.6179,-0.007772,-0.001031,-0.003618,0.012625,0.002174,0.00681,-0.01047,-0.511044,-0.005051,0.464936,-264.356708,-0.155991,61.756975
4.6378,-0.00793,-0.001224,-0.004952,0.012927,0.002226,0.006973,-0.009936,-0.511026,-0.004217,0.464936,-264.356708,-0.155991,61.756975
4.6578,-0.007736,-0.000961,-0.002747,0.013163,0.002266,0.0071,-0.009936,-0.511026,-0.004217,0.464936,-264.356708,-0.155991,61.756975
4.6781,-0.007347,-0.001074,-0.00411,0.013332,0.002295,0.007191,-0.00854,-0.510858,-0.002425,0.464936,-264.351219,-0.155991,61.761941
4.6981,-0.007338,-0.001432,-0.004372,0.013432,0.002313,0.007245,-0.008588,-0.51087,-0.002536,0.464936,-264.351219,-0.155991,61.761941
4.7181,-0.006613,-0.001071,-0.001762,0.013466,0.002318,0.007263,-0.00906,-0.511342,-0.004098,0.464936,-264.345339,-0.155991,61.767262
4.7378,-0.006937,-0.001166,-0.002111,0.013432,0.002313,0.007245,-0.008114,-0.511177,-0.002734,0.464936,-264.345339,-0.155991,61.767262
4.7585,-0.006824,-0.001301,-0.002342,0.013331,0.002295,0.007191,-0.008114,-0.511177,-0.002734,0.464936,-264.345339,-0.155991,61.767262
4.7779,-0.006423,-0.000977,-0.001919,0.013163,0.002266,0.0071,-0.007366,-0.511189,-0.00199,0.464936,-264.339329,-0.155991,61.7727
4.7978,-0.006197,-0.000778,-0.003843,0.012927,0.002226,0.006973,-0.007351,-0.511171,-0.001976,0.464936,-264.339329,-0.155991,61.7727
4.8179,-0.006138,-0.00107,-0.001776,0.012624,0.002173,0.006809,-0.007642,-0.510688,-0.003565,0.464936,-264.333351,-0.155991,61.778109
4.8381,-0.005847,-0.001068,-0.003054,0.012253,0.00211,0.00661,-0.007233,-0.510896,-0.002502,0.464936,-264.333351,-0.155991,61.778109
4.858,-0.005829,-0.000833,-0.002389,0.011815,0.002034,0.006373,-0.007233,-0.510896,-0.002502,0.464936,-264.333351,-0.155991,61.778109
4.8779,-0.005581,-0.000688,-0.0024,0.01131,0.001947,0.006101,-0.00642,-0.510724,-0.00205,0.464936,-264.327577,-0.155991,61.783333
4.8982,-0.005643,-0.000714,-0.003396,0.010738,0.001849,0.005792,-0.00643,-0.510719,-0.002065,0.464936,-264.327577,-0.155991,61.783333
4.9181,-0.004867,-0.000503,-0.00117,0.010099,0.001739,0.005448,-0.006918,-0.510634,-0.003149,0.464936,-264.322289,-0.155991,61.788118
4.9378,-0.005341,-0.00098,-0.001911,0.009387,0.001616,0.005063,-0.006036,-0.51055,-0.001996,0.464936,-264.322289,-0.155991,61.788118
4.9587,-0.004976,-0.000619,-0.002673,0.008618,0.001484,0.004649,-0.006036,-0.51055,-0.001996,0.464936,-264.322289,-0.155991,61.788118
4.9778,-0.004737,-0.00065,-0.003929,0.007774,0.001339,0.004194,-0.005817,-0.510528,-0.002392,0.464936,-264.317465,-0.155991,61.792484
4.9977,-0.004769,-0.000652,-0.000969,0.006865,0.001182,0.003703,-0.005875,-0.510535,-0.002506,0.464936,-264.317465,-0.155991,61.792484
5.0179,-0.004311,-0.000627,-0.001602,0.005879,0.001012,0.003171,-0.004932,-0.510595,-0.000791,0.464936,-264.313624,-0.155991,61.795959
5.0378,-0.00404,-0.000623,-0.0011,0.004849,0.000835,0.002615,-0.005001,-0.510606,-0.00123,0.464936,-264.313624,-0.155991,61.795959
5.058,-0.004175,-0.000296,-0.000742,0.003738,0.000643,0.002016,-0.005001,-0.510606,-0.00123,0.464936,-264.313624,-0.155991,61.795959
5.0784,-0.004298,-0.000558,-0.000788,0.002553,0.00044,0.001377,-0.00422,-0.510239,-0.000562,0.464936,-264.310552,-0.155991,61.798739
5.0985,-0.004119,-0.000846,-0.001684,0.001309,0.000225,0.000706,-0.004244,-0.510259,-0.000572,0.464936,-264.310552,-0.155991,61.798739
5.1177,-0.004104,-0.000471,-0.000344,0.0,0.0,0.0,-0.004834,-0.510821,-0.001606,0.464936,-264.308879,-0.155991,61.800252
5.138,-0.003762,-0.000661,-0.002126,0.0,0.0,0.0,-0.004501,-0.510619,-0.00088,0.464936,-264.308879,-0.155991,61.800252
5.1578,-0.00372,-0.000383,-0.000731,0.0,0.0,0.0,-0.004501,-0.510619,-0.00088,0.464936,-264.308879,-0.155991,61.800252
5.178,-0.003815,-0.000775,-0.001007,0.0,0.0,0.0,-0.004029,-0.510372,-0.000697,0.464936,-264.308293,-0.155991,61.800782
5.1984,-0.004554,-0.000538,-0.002374,0.0,0.0,0.0,-0.004048,-0.5104,-0.000717,0.464936,-264.308293,-0.155991,61.800782
5.2182,-0.004127,-0.000453,-0.001362,0.0,0.0,0.0,-0.005765,-0.510537,-0.002374,0.464936,-264.308293,-0.155991,61.800782
5.2383,-0.003943,-0.000398,-0.001717,0.0,0.0,0.0,-0.005228,-0.510489,-0.001798,0.464936,-264.308293,-0.155991,61.800782
5.2578,-0.004078,-0.000366,-0.001143,0.0,0.0,0.0,-0.005228,-0.510489,-0.001798,0.464936,-264.308293,-0.155991,61.800782
5.2778,-0.003736,-0.000682,7.8e-05,0.0,0.0,0.0,-0.00466,-0.510365,-0.001143,0.464936,-264.308293,-0.155991,61.800782
5.2978,-0.003946,-0.000566,-0.000505,0.0,0.0,0.0,-0.004596,-0.510386,-0.001062,0.464936,-264.308293,-0.155991,61.800782
5.3183,-0.003689,-0.000695,-0.002163,0.0,0.0,0.0,-0.004204,-0.510566,-0.000505,0.464936,-264.308293,-0.155991,61.800782
5.3381,-0.00417,-0.000163,-0.000935,9.8e-05,1.9e-05,0.0,-0.004538,-0.510638,-0.001445,0.464936,-264.308293,-0.155991,61.800782
5.3584,-0.003712,-0.000361,-0.001324,9.8e-05,1.9e-05,0.0,-0.004538,-0.510638,-0.001445,0.464936,-264.308293,-0.155991,61.800782
5.378,-0.003921,-0.000321,-0.001744,9.8e-05,1.9e-05,0.0,-0.004387,-0.51036,-0.001324,0.464936,-264.308293,-0.155991,61.800782
5.3978,-0.003796,-0.00019,-0.000736,9.8e-05,1.9e-05,0.0,-0.00443,-0.510356,-0.001367,0.464936,-264.308293,-0.155991,61.800782
5.4178,-0.003902,-0.000678,0.000213,9.8e-05,1.9e-05,0.0,-0.004171,-0.51019,-0.000736,0.38887,-264.308292,-0.079925,61.800784
5.4384,-0.003694,-0.000321,-0.002006,9.8e-05,1.9e-05,0.0,-0.003957,-0.510467,-0.000197,0.38887,-264.308292,-0.079925,61.800784
5.4581,-0.00382,-0.000124,-0.000954,9.8e-05,1.9e-05,0.0,-0.003957,-0.510467,-0.000197,0.38887,-264.308292,-0.079925,61.800784
5.478,-0.004032,-0.000673,-0.001307,9.8e-05,1.9e-05,0.0,-0.004305,-0.510124,-0.000954,0.31493,-264.308285,-0.005984,61.80079
5.4982,-0.003871,-0.000383,-0.001941,9.8e-05,1.9e-05,0.0,-0.004333,-0.510162,-0.000978,0.31493,-264.308285,-0.005984,61.80079
5.5179,-0.004167,-0.000627,-0.00124,9.8e-05,1.9e-05,0.0,-0.00486,-0.510382,-0.001941,0.239953,-264.308268,0.068993,61.800807
5.5382,-0.003599,-0.000203,-0.001934,9.8e-05,1.9e-05,0.0,-0.004825,-0.510521,-0.001541,0.239953,-264.308268,0.068993,61.800807
5.5582,-0.003912,-0.000112,-0.00096,0.000536,0.000102,0.000315,-0.004825,-0.510521,-0.001541,0.239953,-264.308268,0.068993,61.800807
5.5782,-0.004243,-0.000424,-0.001155,0.001047,0.0002,0.000614,-0.004398,-0.510111,-0.00096,0.188424,-264.308238,0.144104,61.800837
5.598,-0.004218,-0.000738,-0.00192,0.00154,0.000294,0.000903,-0.004426,-0.510131,-0.000972,0.188424,-264.308238,0.144104,61.800837
5.6181,-0.004082,-0.000621,-0.001364,0.001988,0.000379,0.001166,-0.005196,-0.510736,-0.00192,0.263335,-264.308228,0.069193,61.800847
5.6382,-0.0039,-0.000461,-0.001308,0.002419,0.000461,0.001418,-0.004959,-0.510671,-0.001604,0.263335,-264.308228,0.069193,61.800847
5.6578,-0.003935,-0.000245,-0.001507,0.002821,0.000538,0.001654,-0.004959,-0.510671,-0.001604,0.263335,-264.308228,0.069193,61.800847
5.6782,-0.004109,-0.000401,-0.001597,0.003193,0.000609,0.001873,-0.004691,-0.510242,-0.001503,0.338335,-264.308113,-0.005807,61.800949
5.6979,-0.004048,-0.000125,-0.002519,0.003539,0.000675,0.002076,-0.004709,-0.510255,-0.00151,0.338335,-264.308113,-0.005807,61.800949
5.7187,-0.003789,-0.000259,-0.000259,0.003857,0.000735,0.002262,-0.005285,-0.510115,-0.002498,0.413672,-264.307561,-0.081144,61.801439
5.7379,-0.004027,-0.000266,-0.001334,0.004147,0.000791,0.002432,-0.004505,-0.510196,-0.001225,0.413672,-264.307561,-0.081144,61.801439
5.7584,-0.003816,-0.000588,-0.000768,0.00441,0.000841,0.002586,-0.004505,-0.510196,-0.001225,0.413672,-264.307561,-0.081144,61.801439
5.7781,-0.003742,-5.5e-05,0.000913,0.004646,0.000886,0.002725,-0.004071,-0.510562,-0.000692,0.488332,-264.306291,-0.155804,61.802568
5.7984,-0.003714,-0.000122,-0.001098,0.004854,0.000926,0.002846,-0.004018,-0.51053,-0.000589,0.488332,-264.306291,-0.155804,61.802568
5.8181,-0.003618,-0.000255,0.000166,0.005033,0.00096,0.002952,-0.004104,-0.51009,-0.000998,0.501954,-264.304285,-0.165931,61.804351
5.8381,-0.00354,-0.000535,-0.002064,0.005185,0.000989,0.003041,-0.003758,-0.51018,-0.000323,0.501954,-264.304285,-0.165931,61.804351
5.8578,-0.003594,-0.00011,-0.001401,0.00531,0.001013,0.003114,-0.003758,-0.51018,-0.000323,0.501954,-264.304285,-0.165931,61.804351
5.8779,-0.003477,-0.000379,-0.001399,0.005407,0.001031,0.003171,-0.004073,-0.510065,-0.001263,0.501954,-264.302073,-0.165931,61.806317
5.8983,-0.003384,0.000144,-0.000506,0.005476,0.001044,0.003211,-0.004075,-0.510085,-0.001268,0.501954,-264.302073,-0.165931,61.806317
5.9184,-0.003161,4.6e-05,4.9e-05,0.005518,0.001052,0.003236,-0.003437,-0.509817,-0.000386,0.501954,-264.299648,-0.165931,61.808473
5.9382,-0.002979,-0.00021,0.001323,0.005532,0.001055,0.003244,-0.003241,-0.509889,-0.000125,0.501954,-264.299648,-0.165931,61.808473
5.9578,-0.002728,-0.00041,-0.00095,0.005518,0.001052,0.003236,-0.003241,-0.509889,-0.000125,0.501954,-264.299648,-0.165931,61.808473
