mach0312/omni-docking-bench/src/icros_test_setup/results/kinematic_sample/timeseries/trial_071.csv
t,x,y,yaw,vx,vy,wz,bl_x,bl_y,bl_yaw,front_steering_joint,front_wheel_joint,rear_steering_joint,rear_wheel_joint
0.0,0.068503,-0.023145,-0.0853,-0.007988,-0.00085,-0.002463,0.024952,-0.531753,-0.086602,0.286581,-263.744744,-0.081799,62.192757
0.0005,0.068466,-0.023127,-0.087696,-0.002372,-0.000252,-0.000731,0.024968,-0.531719,-0.086598,0.286581,-263.748075,-0.081799,62.189551
0.0008,0.068525,-0.023007,-0.086343,-0.001219,-0.00013,-0.000376,0.024968,-0.531719,-0.086598,0.286581,-263.75073,-0.081799,62.186996
0.0011,0.068319,-0.023096,-0.086275,-1e-06,-0.0,-0.0,0.024443,-0.531484,-0.086634,0.286581,-263.752173,-0.081799,62.185607
0.0015,0.068482,-0.023393,-0.087296,0.0,0.0,0.0,0.024443,-0.531484,-0.086634,0.286581,-263.752681,-0.081799,62.185118
0.0018,0.068102,-0.023303,-0.08626,0.0,0.0,0.0,0.024777,-0.53129,-0.086086,0.286581,-263.752681,-0.081799,62.185118
0.0021,0.068311,-0.022906,-0.085624,0.0,0.0,0.0,0.024777,-0.53129,-0.086086,0.286581,-263.752681,-0.081799,62.185118
0.0024,0.068066,-0.023112,-0.08653,0.0,0.0,0.0,0.024777,-0.53129,-0.086086,0.286581,-263.752681,-0.081799,62.185118
0.0027,0.06815,-0.023499,-0.087354,0.0,0.0,0.0,0.024732,-0.53133,-0.085469,0.286581,-263.752681,-0.081799,62.185118
0.003,0.068173,-0.023052,-0.086384,0.0,0.0,0.0,0.024732,-0.53133,-0.085469,0.286581,-263.752681,-0.081799,62.185118
0.0162,0.068545,-0.023091,-0.084425,-0.016,0.016,0.03,0.024172,-0.531151,-0.086384,0.286581,-263.752681,-0.081799,62.185118
0.0359,0.068179,-0.023014,-0.088682,-0.032,0.017228,0.05,0.024268,-0.531159,-0.086247,0.286581,-263.752681,-0.081799,62.185118
0.0561,0.068245,-0.022969,-0.086604,-0.048,0.016886,0.05,0.02301,-0.53101,-0.088682,0.286581,-263.752681,-0.081799,62.185118
0.0762,0.068423,-0.023092,-0.086035,-0.064,0.01698,0.05,0.02366,-0.531038,-0.087479,0.286581,-263.752681,-0.081799,62.185118
0.0959,0.068537,-0.023268,-0.08674,-0.070154,0.017127,0.05,0.02366,-0.531038,-0.087479,0.286581,-263.752681,-0.081799,62.185118
0.1163,0.06835,-0.023174,-0.085851,-0.070295,0.017243,0.05,0.024355,-0.531351,-0.08674,0.211293,-263.752681,-0.006512,62.185118
0.1359,0.068461,-0.02341,-0.087437,-0.070086,0.017228,0.05,0.024376,-0.531346,-0.08667,0.211293,-263.752681,-0.006512,62.185118
0.1559,0.068828,-0.023545,-0.086977,-0.070243,0.017342,0.05,0.023924,-0.531462,-0.087437,0.136323,-263.752683,0.068459,62.185116
0.176,0.068173,-0.023304,-0.086015,-0.070613,0.017477,0.05,0.024266,-0.53155,-0.087176,0.136323,-263.752683,0.068459,62.185116
0.1961,0.068333,-0.023188,-0.084581,-0.069923,0.017361,0.05,0.024266,-0.53155,-0.087176,0.136323,-263.752683,0.068459,62.185116
0.2164,0.06808,-0.023331,-0.08606,-0.070048,0.017333,0.05,0.025248,-0.531365,-0.084581,0.061576,-263.752688,0.143206,62.185112
0.2362,0.068475,-0.023003,-0.08581,-0.069833,0.017393,0.05,0.025178,-0.531371,-0.084683,0.061576,-263.752688,0.143206,62.185112
0.2567,0.06824,-0.023396,-0.085341,-0.070194,0.017049,0.05,0.024764,-0.531126,-0.085809,-0.01343,-263.752708,0.186263,62.185096
0.2767,0.068419,-0.02329,-0.086102,-0.069986,0.017494,0.05,0.024766,-0.531358,-0.085546,-0.01343,-263.752708,0.186263,62.185096
0.2965,0.068056,-0.023175,-0.087159,-0.070169,0.01732,0.05,0.024766,-0.531358,-0.085546,-0.01343,-263.752708,0.186263,62.185096
0.316,0.068462,-0.023104,-0.085626,-0.069815,0.017162,0.05,0.023651,-0.531238,-0.087157,-0.088421,-263.752805,0.186046,62.185014
0.336,0.068339,-0.022652,-0.087047,-0.070187,0.017164,0.05,0.023724,-0.531238,-0.087063,-0.088421,-263.752805,0.186046,62.185014
0.3559,0.06856,-0.023331,-0.086442,-0.07005,0.016625,0.05,0.023963,-0.530717,-0.087036,-0.163444,-263.753242,0.186191,62.184647
0.3759,0.068238,-0.023412,-0.086538,-0.070319,0.017324,0.05,0.024279,-0.531118,-0.086699,-0.163444,-263.753242,0.186191,62.184647
0.396,0.068265,-0.023154,-0.086228,-0.070006,0.017427,0.05,0.024279,-0.531118,-0.086699,-0.163444,-263.753242,0.186191,62.184647
0.4162,0.067887,-0.023479,-0.087254,-0.070005,0.017189,0.05,0.024178,-0.531238,-0.086168,-0.238425,-263.75477,0.188277,62.18336
0.4364,0.068144,-0.023067,-0.087649,-0.069675,0.017474,0.05,0.024114,-0.531261,-0.086253,-0.238425,-263.75477,0.188277,62.18336
0.4563,0.06778,-0.022918,-0.086264,-0.069902,0.017014,0.05,0.023167,-0.531051,-0.087504,-0.313754,-263.758716,0.185136,62.180048
0.4761,0.067314,-0.023063,-0.08702,-0.069503,0.016993,0.05,0.023506,-0.531027,-0.086782,-0.313754,-263.758716,0.185136,62.180048
0.4961,0.067342,-0.023246,-0.085424,-0.069064,0.017125,0.05,0.023506,-0.531027,-0.086782,-0.313754,-263.758716,0.185136,62.180048
0.5163,0.066523,-0.023028,-0.086363,-0.06908,0.017415,0.05,0.023127,-0.531242,-0.085073,-0.388442,-263.765168,0.185342,62.174234
0.5362,0.066743,-0.023255,-0.085341,-0.068261,0.017205,0.05,0.023072,-0.531231,-0.085147,-0.388442,-263.765168,0.185342,62.174234
0.5559,0.065318,-0.022762,-0.08546,-0.068482,0.017481,0.05,0.022497,-0.531215,-0.084895,-0.463421,-263.774119,0.191811,62.165919
0.576,0.065366,-0.022682,-0.085183,-0.067023,0.017103,0.05,0.022003,-0.531016,-0.085156,-0.463421,-263.774119,0.191811,62.165919
0.596,0.065666,-0.023049,-0.08497,-0.067059,0.017039,0.05,0.022003,-0.531016,-0.085156,-0.463421,-263.774119,0.191811,62.165919
0.616,0.06353,-0.022467,-0.085397,-0.067385,0.017393,0.05,0.021165,-0.530874,-0.08418,-0.538422,-263.785571,0.192893,62.155104
0.636,0.063799,-0.022236,-0.085334,-0.065215,0.016966,0.05,0.021053,-0.530847,-0.084244,-0.538422,-263.785571,0.192893,62.155104
0.656,0.061374,-0.021855,-0.083656,-0.065462,0.016718,0.05,0.019176,-0.53002,-0.08449,-0.613425,-263.799544,0.198642,62.141769
0.6759,0.061752,-0.021664,-0.082683,-0.062986,0.016651,0.05,0.018792,-0.530004,-0.083907,-0.613425,-263.799544,0.198642,62.141769
0.696,0.061906,-0.021683,-0.083578,-0.06333,0.01649,0.05,0.018792,-0.530004,-0.083907,-0.613425,-263.799544,0.198642,62.141769
0.7161,0.058986,-0.02125,-0.080711,-0.0635,0.016439,0.05,0.017621,-0.529366,-0.082294,-0.629545,-263.815975,0.205177,62.125973
0.7365,0.059049,-0.021151,-0.079747,-0.060507,0.016425,0.05,0.017594,-0.529368,-0.082158,-0.629545,-263.815975,0.205177,62.125973
0.756,0.056597,-0.020626,-0.07994,-0.060546,0.01638,0.05,0.016855,-0.529051,-0.07854,-0.638734,-263.834955,0.218284,62.107631
0.7763,0.056429,-0.020267,-0.080285,-0.058063,0.01604,0.05,0.016094,-0.528959,-0.079189,-0.638734,-263.834955,0.218284,62.107631
0.7963,0.056239,-0.020512,-0.079109,-0.057873,0.015676,0.05,0.016094,-0.528959,-0.079189,-0.638734,-263.834955,0.218284,62.107631
0.8163,0.053105,-0.019664,-0.077467,-0.057684,0.016003,0.05,0.01372,-0.528229,-0.07733,-0.660033,-263.856541,0.229136,62.086686
0.836,0.053318,-0.02002,-0.078847,-0.054468,0.015495,0.05,0.013641,-0.528199,-0.077284,-0.660033,-263.856541,0.229136,62.086686
0.8566,0.049722,-0.018807,-0.076073,-0.054729,0.015758,0.05,0.01121,-0.527845,-0.077221,-0.673844,-263.880362,0.251368,62.063498
0.8759,0.049906,-0.018562,-0.075578,-0.051007,0.014974,0.05,0.010821,-0.527476,-0.076357,-0.673844,-263.880362,0.251368,62.063498
0.8965,0.049761,-0.018714,-0.075696,-0.051165,0.01474,0.05,0.010821,-0.527476,-0.076357,-0.673844,-263.880362,0.251368,62.063498
0.9165,0.045802,-0.018198,-0.073751,-0.051034,0.014897,0.05,0.008726,-0.52639,-0.073412,-0.701662,-263.906781,0.269458,62.041321
0.9362,0.045894,-0.017822,-0.073737,-0.047018,0.014774,0.05,0.008627,-0.526396,-0.073375,-0.701662,-263.906781,0.269458,62.041321
0.9564,0.041904,-0.01681,-0.072762,-0.047083,0.014393,0.05,0.006435,-0.525741,-0.071849,-0.724427,-263.933644,0.299461,62.020267
0.9761,0.041784,-0.016949,-0.071346,-0.043015,0.013719,0.05,0.005262,-0.52549,-0.072143,-0.724427,-263.933644,0.299461,62.020267
0.9959,0.042113,-0.016843,-0.074237,-0.042886,0.013928,0.05,0.005262,-0.52549,-0.072143,-0.724427,-263.933644,0.299461,62.020267
1.016,0.038429,-0.015976,-0.069926,-0.043247,0.013673,0.05,0.002155,-0.524593,-0.071911,-0.766916,-263.958651,0.323483,62.001275
1.0363,0.038895,-0.015815,-0.069871,-0.039451,0.013252,0.05,0.002143,-0.52458,-0.071709,-0.766916,-263.958651,0.323483,62.001275
1.0559,0.035579,-0.014822,-0.067115,-0.039904,0.013061,0.05,0.001761,-0.523955,-0.068043,-0.80347,-263.982062,0.369512,61.983847
1.0762,0.034822,-0.015057,-0.068865,-0.036493,0.012402,0.05,0.001347,-0.523716,-0.06728,-0.80347,-263.982062,0.369512,61.983847
1.096,0.035164,-0.015139,-0.066013,-0.035776,0.012625,0.05,0.001347,-0.523716,-0.06728,-0.80347,-263.982062,0.369512,61.983847
1.1159,0.032619,-0.014219,-0.063296,-0.036086,0.012786,0.05,-0.000261,-0.523298,-0.063698,-0.837475,-264.004511,0.412952,61.967442
1.1361,0.032554,-0.014108,-0.064188,-0.033453,0.012127,0.05,-0.000265,-0.523272,-0.06361,-0.837475,-264.004511,0.412952,61.967442
1.1561,0.029402,-0.013621,-0.06342,-0.033391,0.011991,0.05,-0.001418,-0.522523,-0.062386,-0.878711,-264.025453,0.46419,61.952496
1.176,0.030088,-0.013534,-0.061762,-0.030206,0.011731,0.05,-0.002438,-0.522497,-0.062751,-0.878711,-264.025453,0.46419,61.952496
1.1962,0.029431,-0.013692,-0.062745,-0.030866,0.011651,0.05,-0.002438,-0.522497,-0.062751,-0.878711,-264.025453,0.46419,61.952496
1.2163,0.026654,-0.012882,-0.059047,-0.030232,0.01182,0.05,-0.004078,-0.522025,-0.060402,-0.90584,-264.046331,0.503099,61.937792
1.2364,0.026509,-0.012723,-0.060646,-0.027368,0.011287,0.05,-0.004075,-0.522006,-0.060254,-0.90584,-264.046331,0.503099,61.937792
1.2563,0.024055,-0.012019,-0.05639,-0.027231,0.011093,0.05,-0.005512,-0.521289,-0.058802,-0.939165,-264.066217,0.549116,61.924027
1.2764,0.024535,-0.011875,-0.055218,-0.024694,0.010644,0.05,-0.005184,-0.521181,-0.057201,-0.939165,-264.066217,0.549116,61.924027
1.2967,0.024163,-0.011998,-0.057773,-0.025153,0.010503,0.05,-0.005184,-0.521181,-0.057201,-0.939165,-264.066217,0.549116,61.924027
1.316,0.021755,-0.01124,-0.055697,-0.024816,0.010583,0.05,-0.006448,-0.520588,-0.055593,-0.991369,-264.084118,0.613013,61.912043
1.3364,0.021792,-0.011278,-0.055346,-0.022347,0.010012,0.05,-0.006489,-0.520566,-0.055546,-0.991369,-264.084118,0.613013,61.912043
1.356,0.019432,-0.01045,-0.052406,-0.022382,0.010055,0.05,-0.007314,-0.520065,-0.053525,-1.020958,-264.102083,0.6726,61.900042
1.376,0.019395,-0.010512,-0.053592,-0.019953,0.009418,0.05,-0.007407,-0.519835,-0.052673,-1.020958,-264.102083,0.6726,61.900042
1.396,0.01978,-0.010701,-0.052925,-0.01993,0.009458,0.05,-0.007407,-0.519835,-0.052673,-1.020958,-264.102083,0.6726,61.900042
1.4161,0.01702,-0.010555,-0.050881,-0.020319,0.009639,0.05,-0.008143,-0.519504,-0.050759,-1.067098,-264.11868,0.742942,61.889164
1.4362,0.017148,-0.010394,-0.049869,-0.017535,0.009676,0.05,-0.008237,-0.519521,-0.050701,-1.067098,-264.11868,0.742942,61.889164
1.4561,0.015144,-0.010166,-0.049345,-0.017645,0.009526,0.049869,-0.008946,-0.5194,-0.048141,-1.108501,-264.134676,0.81343,61.87878
1.4759,0.015117,-0.009812,-0.048563,-0.015627,0.009407,0.049345,-0.009639,-0.519437,-0.048608,-1.108501,-264.134676,0.81343,61.87878
1.4959,0.015708,-0.009852,-0.046892,-0.015575,0.009067,0.048563,-0.009639,-0.519437,-0.048608,-1.108501,-264.134676,0.81343,61.87878
1.516,0.013558,-0.009108,-0.045555,-0.016153,0.009104,0.046892,-0.008951,-0.518829,-0.044687,-1.159599,-264.150611,0.87181,61.868881
1.536,0.013173,-0.008914,-0.045682,-0.013959,0.008481,0.045555,-0.009023,-0.518799,-0.044689,-1.159599,-264.150611,0.87181,61.868881
1.556,0.011533,-0.008716,-0.045234,-0.013567,0.008303,0.045682,-0.01067,-0.518026,-0.04391,-1.188402,-264.166402,0.923246,61.859113
1.576,0.011429,-0.008481,-0.044679,-0.011915,0.008185,0.045234,-0.011231,-0.518077,-0.044443,-1.188402,-264.166402,0.923246,61.859113
1.5965,0.011983,-0.008548,-0.044504,-0.011796,0.007962,0.044679,-0.011231,-0.518077,-0.044443,-1.188402,-264.166402,0.923246,61.859113
1.616,0.009444,-0.008038,-0.041879,-0.012352,0.008006,0.044504,-0.011358,-0.517607,-0.042318,-1.20372,-264.181759,0.945649,61.849695
1.636,0.009735,-0.008078,-0.041211,-0.009772,0.007636,0.041879,-0.011413,-0.517594,-0.04223,-1.20372,-264.181759,0.945649,61.849695
1.6559,0.008162,-0.007754,-0.039944,-0.010059,0.00767,0.041211,-0.011668,-0.517357,-0.03969,-1.247869,-264.19486,1.020547,61.841715
1.676,0.008452,-0.008207,-0.039219,-0.008465,0.007421,0.039944,-0.012022,-0.517315,-0.039642,-1.247869,-264.19486,1.020547,61.841715
1.6959,0.008284,-0.007453,-0.039223,-0.008767,0.007869,0.039219,-0.012022,-0.517315,-0.039642,-1.247869,-264.19486,1.020547,61.841715
1.716,0.007526,-0.007563,-0.038927,-0.00857,0.007122,0.039223,-0.012146,-0.516696,-0.037314,-1.284654,-264.207848,1.072084,61.834051
1.736,0.006962,-0.007179,-0.038487,-0.007815,0.007264,0.038927,-0.01217,-0.51672,-0.037375,-1.284654,-264.207848,1.072084,61.834051
1.7563,0.005541,-0.00685,-0.035802,-0.007233,0.006906,0.038487,-0.012987,-0.516486,-0.036979,-1.30196,-264.221016,1.071729,61.826743
1.776,0.005225,-0.006972,-0.034638,-0.007233,0.006906,0.038487,-0.012872,-0.516467,-0.036113,-1.30196,-264.221016,1.071729,61.826743
1.796,0.005412,-0.007027,-0.036064,-6.3e-05,7.8e-05,0.0,-0.012872,-0.516467,-0.036113,-1.30196,-264.221016,1.071729,61.826743
1.816,0.003835,-0.005853,-0.034036,-6.3e-05,7.8e-05,0.0,-0.013321,-0.516351,-0.034286,-1.324142,-264.23305,1.128711,61.819876
1.8365,0.00395,-0.006387,-0.033228,-6.3e-05,7.8e-05,0.0,-0.013344,-0.516287,-0.03422,-1.324142,-264.23305,1.128711,61.819876
1.8564,0.004033,-0.006216,-0.032898,-6.3e-05,7.8e-05,0.0,-0.013021,-0.51601,-0.033072,-1.249295,-264.235132,1.053864,61.819876
1.8762,0.003997,-0.006243,-0.033519,-6.3e-05,7.8e-05,0.0,-0.012865,-0.515957,-0.032953,-1.249295,-264.235132,1.053864,61.819876
1.8961,0.004153,-0.006386,-0.03462,-6.3e-05,7.8e-05,0.0,-0.012865,-0.515957,-0.032953,-1.249295,-264.235132,1.053864,61.819876
1.916,0.004146,-0.006297,-0.032694,-6.3e-05,7.8e-05,0.0,-0.0135,-0.51608,-0.03462,-1.174185,-264.235132,0.978754,61.819876
1.936,0.003847,-0.006196,-0.035646,-6.3e-05,7.8e-05,0.0,-0.013436,-0.516076,-0.034494,-1.174185,-264.235132,0.978754,61.819876
1.9563,0.003999,-0.00612,-0.033265,-6.3e-05,7.8e-05,0.0,-0.014329,-0.515872,-0.035646,-1.099287,-264.235132,0.903856,61.819876
1.9767,0.004153,-0.006613,-0.032259,-6.3e-05,7.8e-05,0.0,-0.013545,-0.515853,-0.03428,-1.099287,-264.235132,0.903856,61.819876
1.9963,0.004224,-0.006088,-0.03335,-0.0,1e-06,3e-06,-0.013545,-0.515853,-0.03428,-1.099287,-264.235132,0.903856,61.819876
2.0162,0.003651,-0.006382,-0.034055,-0.0008,0.000994,0.005075,-0.012781,-0.515805,-0.03335,-1.02417,-264.235132,0.828739,61.819876
2.036,0.00403,-0.006206,-0.034312,-0.001557,0.001935,0.009875,-0.012847,-0.515825,-0.0334,-1.02417,-264.235132,0.828739,61.819876
2.0563,0.0038,-0.006152,-0.033655,-0.002275,0.002826,0.014423,-0.013466,-0.515906,-0.034312,-1.099214,-264.235132,0.903783,61.819876
2.0759,0.003582,-0.006527,-0.033376,-0.00295,0.003665,0.018704,-0.013406,-0.515881,-0.033935,-1.099214,-264.235132,0.903783,61.819876
2.096,0.00392,-0.006616,-0.032991,-0.003585,0.004454,0.022732,-0.013406,-0.515881,-0.033935,-1.099214,-264.235132,0.903783,61.819876
2.116,0.003714,-0.006372,-0.034359,-0.004181,0.005194,0.026509,-0.012911,-0.516332,-0.032963,-1.174182,-264.235338,0.978751,61.819764
2.1364,0.004124,-0.006881,-0.033821,-0.004733,0.00588,0.030011,-0.012978,-0.516313,-0.033066,-1.174182,-264.235338,0.978751,61.819764
2.1562,0.003886,-0.00643,-0.033021,-0.005261,0.006536,0.033354,-0.013166,-0.51655,-0.033637,-1.249171,-264.236984,1.05374,61.818876
2.1761,0.003763,-0.006298,-0.033211,-0.005719,0.007105,0.03626,-0.01305,-0.516318,-0.033262,-1.249171,-264.236984,1.05374,61.818876
2.196,0.00374,-0.006385,-0.033602,-0.006146,0.007636,0.038969,-0.01305,-0.516318,-0.033262,-1.249171,-264.236984,1.05374,61.818876
2.2161,0.00344,-0.005773,-0.032206,-0.006541,0.008127,0.041476,-0.013525,-0.516002,-0.03295,-1.324111,-264.241126,1.128681,61.816083
2.2371,0.003171,-0.006627,-0.032276,-0.006884,0.008552,0.043646,-0.013493,-0.515968,-0.032886,-1.324111,-264.241126,1.128681,61.816083
2.2562,0.002466,-0.006367,-0.032275,-0.007196,0.00894,0.045624,-0.013438,-0.51628,-0.031369,-1.377723,-264.24778,1.203608,61.810781
2.2761,0.001935,-0.005881,-0.031706,-0.007457,0.009265,0.047282,-0.013773,-0.516168,-0.031771,-1.377723,-264.24778,1.203608,61.810781
2.2964,0.002361,-0.005763,-0.031539,-0.007682,0.009545,0.04871,-0.013773,-0.516168,-0.031771,-1.377723,-264.24778,1.203608,61.810781
2.3163,0.001376,-0.005723,-0.029272,-0.007868,0.009775,0.049887,-0.013991,-0.515396,-0.029927,-1.377723,-264.256912,1.20746,61.803049
2.3363,0.001525,-0.006068,-0.028751,-0.00801,0.009952,0.050789,-0.013969,-0.5154,-0.029843,-1.377723,-264.256912,1.20746,61.803049
2.3563,0.000135,-0.00544,-0.026955,-0.008113,0.010079,0.051438,-0.013388,-0.515689,-0.027209,-1.377723,-264.268556,1.20746,61.794402
2.3766,-0.000196,-0.005703,-0.02819,-0.008174,0.010156,0.051829,-0.013546,-0.51542,-0.026869,-1.377723,-264.268556,1.20746,61.794402
2.3961,0.000484,-0.00556,-0.027705,-0.008194,0.010181,0.051957,-0.013546,-0.51542,-0.026869,-1.377723,-264.268556,1.20746,61.794402
2.4163,-0.001146,-0.005165,-0.025191,-0.008174,0.010155,0.051827,-0.013995,-0.515023,-0.025484,-1.377723,-264.282698,1.20746,61.785386
2.4364,-0.001537,-0.005241,-0.025488,-0.008113,0.010079,0.051438,-0.014004,-0.515013,-0.025406,-1.377723,-264.282698,1.20746,61.785386
2.456,-0.00343,-0.004718,-0.025004,-0.008009,0.009951,0.050784,-0.014837,-0.514696,-0.023515,-1.377723,-264.299341,1.20746,61.776164
2.476,-0.003198,-0.004767,-0.024361,-0.007866,0.009772,0.049873,-0.015642,-0.51457,-0.024114,-1.377723,-264.299341,1.20746,61.776164
2.4962,-0.003554,-0.004547,-0.023085,-0.007681,0.009543,0.048702,-0.015642,-0.51457,-0.024114,-1.377723,-264.299341,1.20746,61.776164
2.516,-0.004925,-0.004196,-0.021415,-0.007457,0.009264,0.047279,-0.01571,-0.513913,-0.020582,-1.377723,-264.316253,1.20746,61.767033
2.5366,-0.004801,-0.00417,-0.02213,-0.007191,0.008934,0.045592,-0.015729,-0.513911,-0.020574,-1.377723,-264.316253,1.20746,61.767033
2.556,-0.006683,-0.003651,-0.017995,-0.006883,0.008551,0.04364,-0.016376,-0.51367,-0.020244,-1.377723,-264.332265,1.20746,61.758388
2.576,-0.006468,-0.003687,-0.01792,-0.006535,0.008119,0.041433,-0.01612,-0.513565,-0.018731,-1.377723,-264.332265,1.20746,61.758388
2.5962,-0.006866,-0.003331,-0.01929,-0.006145,0.007635,0.038964,-0.01612,-0.513565,-0.018731,-1.377723,-264.332265,1.20746,61.758388
2.616,-0.008051,-0.003171,-0.013648,-0.005715,0.007101,0.036238,-0.017046,-0.512795,-0.017072,-1.377723,-264.347257,1.20746,61.750294
2.6366,-0.007904,-0.003063,-0.014826,-0.005243,0.006514,0.033246,-0.016917,-0.512806,-0.016783,-1.377723,-264.347257,1.20746,61.750294
2.6559,-0.009129,-0.00293,-0.014496,-0.004728,0.005874,0.029975,-0.015698,-0.512709,-0.013321,-1.377723,-264.360067,1.20746,61.743378
2.676,-0.009314,-0.002915,-0.013267,-0.004176,0.005188,0.026479,-0.016196,-0.512766,-0.013798,-1.377723,-264.360067,1.20746,61.743378
2.6966,-0.009526,-0.002777,-0.013239,-0.003585,0.004453,0.022728,-0.016196,-0.512766,-0.013798,-1.377723,-264.360067,1.20746,61.743378
2.7159,-0.010346,-0.002346,-0.013516,-0.00295,0.003665,0.018702,-0.016528,-0.512412,-0.011623,-1.377723,-264.370998,1.20746,61.737476
2.7359,-0.010126,-0.002431,-0.01081,-0.002273,0.002824,0.014413,-0.016585,-0.512396,-0.011713,-1.377723,-264.370998,1.20746,61.737476
2.7565,-0.011187,-0.002069,-0.012152,-0.001555,0.001932,0.009861,-0.015776,-0.512228,-0.009931,-1.377723,-264.378475,1.20746,61.73344
2.7767,-0.011091,-0.002305,-0.011529,-0.0008,0.000993,0.00507,-0.016711,-0.512094,-0.011087,-1.377723,-264.378475,1.20746,61.73344
2.7964,-0.011396,-0.00176,-0.011476,0.0,0.0,0.0,-0.016711,-0.512094,-0.011087,-1.377723,-264.378475,1.20746,61.73344
2.8164,-0.011558,-0.002114,-0.008727,0.0,0.0,0.0,-0.017358,-0.511587,-0.010775,-1.377723,-264.383211,1.20746,61.730883
2.8365,-0.011634,-0.001887,-0.010859,0.0,0.0,0.0,-0.017273,-0.511617,-0.010625,-1.377723,-264.383211,1.20746,61.730883
2.8563,-0.011471,-0.002024,-0.011794,0.0,0.0,0.0,-0.017172,-0.511857,-0.010859,-1.377723,-264.383211,1.20746,61.730883
2.8762,-0.011724,-0.001769,-0.011637,0.0,0.0,0.0,-0.01735,-0.511932,-0.011391,-1.377723,-264.383211,1.20746,61.730883
2.8965,-0.011585,-0.002251,-0.009869,0.0,0.0,0.0,-0.01735,-0.511932,-0.011391,-1.377723,-264.383211,1.20746,61.730883
2.9163,-0.011562,-0.002193,-0.009866,0.0,0.0,0.0,-0.016618,-0.512226,-0.009869,-1.377723,-264.383211,1.20746,61.730883
2.9364,-0.011648,-0.001902,-0.011451,0.0,0.0,0.0,-0.016617,-0.512222,-0.009869,-1.377723,-264.383211,1.20746,61.730883
2.956,-0.011777,-0.002361,-0.009722,0.0,0.0,0.0,-0.017488,-0.511869,-0.011451,-1.377723,-264.383211,1.20746,61.730883
2.9758,-0.011963,-0.002245,-0.010965,0.0,0.0,0.0,-0.017061,-0.512134,-0.01047,-1.377723,-264.383211,1.20746,61.730883
2.9962,-0.011387,-0.002135,-0.010069,0.0,0.0,0.0,-0.017061,-0.512134,-0.01047,-1.377723,-264.383211,1.20746,61.730883
3.0159,-0.011781,-0.001885,-0.011228,9.8e-05,1.9e-05,0.0,-0.016523,-0.512109,-0.010069,-1.377723,-264.383211,1.20746,61.730883
3.0365,-0.011588,-0.002191,-0.011164,9.8e-05,1.9e-05,0.0,-0.016586,-0.512092,-0.010144,-1.377723,-264.383211,1.20746,61.730883
3.0559,-0.011519,-0.002116,-0.008819,9.8e-05,1.9e-05,0.0,-0.017281,-0.51216,-0.011164,-1.377723,-264.383211,1.20746,61.730883
3.0762,-0.011504,-0.002022,-0.011494,9.8e-05,1.9e-05,0.0,-0.016559,-0.512124,-0.009825,-1.377723,-264.383211,1.20746,61.730883
3.0959,-0.011285,-0.002094,-0.011194,9.8e-05,1.9e-05,0.0,-0.016559,-0.512124,-0.009825,-1.377723,-264.383211,1.20746,61.730883
3.1159,-0.012121,-0.002369,-0.010035,9.8e-05,1.9e-05,0.0,-0.016994,-0.512062,-0.011194,-1.302678,-264.383211,1.132415,61.730883
3.1359,-0.011413,-0.00199,-0.011509,9.8e-05,1.9e-05,0.0,-0.017011,-0.512082,-0.011113,-1.302678,-264.383211,1.132415,61.730883
3.1559,-0.01203,-0.002335,-0.009766,9.8e-05,1.9e-05,0.0,-0.017283,-0.511956,-0.011509,-1.227733,-264.383211,1.057469,61.730883
3.1759,-0.011642,-0.002161,-0.010447,9.8e-05,1.9e-05,0.0,-0.017128,-0.512158,-0.010516,-1.227733,-264.383211,1.057469,61.730883
3.196,-0.011686,-0.002003,-0.009757,9.8e-05,1.9e-05,0.0,-0.017128,-0.512158,-0.010516,-1.227733,-264.383211,1.057469,61.730883
3.2164,-0.011544,-0.002303,-0.010635,9.8e-05,1.9e-05,0.0,-0.016662,-0.511979,-0.009757,-1.152704,-264.383211,0.982441,61.730883
3.2366,-0.011963,-0.00236,-0.010884,0.001643,0.000325,0.001456,-0.016684,-0.511999,-0.009818,-1.152704,-264.383211,0.982441,61.730883
3.2564,-0.011322,-0.002508,-0.010653,0.003223,0.000638,0.002855,-0.017514,-0.51233,-0.010884,-1.077728,-264.383211,0.907465,61.730883
3.2762,-0.011649,-0.001826,-0.00893,0.004713,0.000933,0.004175,-0.017082,-0.512415,-0.010753,-1.077728,-264.383211,0.907465,61.730883
3.2963,-0.01189,-0.00195,-0.009576,0.006121,0.001211,0.005423,-0.017082,-0.512415,-0.010753,-1.077728,-264.383211,0.907465,61.730883
3.3161,-0.01187,-0.002219,-0.010365,0.007448,0.001474,0.006598,-0.016774,-0.511927,-0.009576,-1.002726,-264.383211,0.832463,61.730883
3.3359,-0.011655,-0.001934,-0.009497,0.008681,0.001718,0.007691,-0.0168,-0.511946,-0.009632,-1.002726,-264.383211,0.832463,61.730883
3.3559,-0.011535,-0.001953,-0.009487,0.009835,0.001946,0.008713,-0.016499,-0.511911,-0.009497,-0.927724,-264.383211,0.757461,61.730883
3.376,-0.011829,-0.002158,-0.009676,0.0109,0.002157,0.009657,-0.016428,-0.511922,-0.009492,-0.927724,-264.383211,0.757461,61.730883
3.3963,-0.011485,-0.002475,-0.009903,0.01188,0.002351,0.010525,-0.016428,-0.511922,-0.009492,-0.927724,-264.383211,0.757461,61.730883
3.4159,-0.011712,-0.002012,-0.010465,0.012778,0.002529,0.011321,-0.016536,-0.51245,-0.009903,-0.85271,-264.383211,0.682446,61.730883
3.4359,-0.01188,-0.002195,-0.009527,0.013587,0.002689,0.012037,-0.01657,-0.512419,-0.00994,-0.85271,-264.383211,0.682446,61.730883
3.456,-0.011702,-0.001849,-0.010096,0.01433,0.002836,0.012695,-0.016738,-0.512172,-0.009527,-0.777717,-264.383211,0.607453,61.730883
3.4762,-0.011782,-0.002057,-0.010533,0.014952,0.002959,0.013247,-0.016803,-0.511973,-0.009851,-0.777717,-264.383211,0.607453,61.730883
3.496,-0.01201,-0.002316,-0.00972,0.015508,0.003069,0.013739,-0.016803,-0.511973,-0.009851,-0.777717,-264.383211,0.607453,61.730883
3.5161,-0.011863,-0.001868,-0.009047,0.015979,0.003162,0.014156,-0.016967,-0.512292,-0.00972,-0.702723,-264.383211,0.53246,61.730883
3.5364,-0.011394,-0.001708,-0.009615,0.016362,0.003238,0.014496,-0.016934,-0.512262,-0.009674,-0.702723,-264.383211,0.53246,61.730883
3.5559,-0.011706,-0.002135,-0.010431,0.016662,0.003298,0.014761,-0.016297,-0.511684,-0.009615,-0.627701,-264.383211,0.457438,61.730883
3.5758,-0.011624,-0.002137,-0.009298,0.016875,0.00334,0.014951,-0.016707,-0.511922,-0.010074,-0.627701,-264.383211,0.457438,61.730883
3.5961,-0.011731,-0.002004,-0.010994,0.017004,0.003365,0.015065,-0.016707,-0.511922,-0.010074,-0.627701,-264.383211,0.457438,61.730883
3.6166,-0.011948,-0.002344,-0.009991,0.017048,0.003374,0.015104,-0.017338,-0.511973,-0.010994,-0.55273,-264.383211,0.382467,61.730883
3.6363,-0.011402,-0.002154,-0.011195,0.017006,0.003366,0.015067,-0.017317,-0.511997,-0.010925,-0.55273,-264.383211,0.382467,61.730883
3.6561,-0.011313,-0.002308,-0.010346,0.016879,0.003341,0.014954,-0.017111,-0.512122,-0.011195,-0.47772,-264.383211,0.307457,61.730883
3.6761,-0.011462,-0.002075,-0.011826,0.016668,0.003299,0.014767,-0.016814,-0.512212,-0.010712,-0.47772,-264.383211,0.307457,61.730883
3.6962,-0.011987,-0.002358,-0.010121,0.01637,0.00324,0.014503,-0.016814,-0.512212,-0.010712,-0.47772,-264.383211,0.307457,61.730883
3.7164,-0.011119,-0.001996,-0.010579,0.015987,0.003164,0.014164,-0.017148,-0.512332,-0.010121,-0.402715,-264.383211,0.232452,61.730883
3.7363,-0.011141,-0.00212,-0.011037,0.01552,0.003071,0.01375,-0.017107,-0.512309,-0.01015,-0.402715,-264.383211,0.232452,61.730883
3.7561,-0.011865,-0.002247,-0.010939,0.014964,0.002961,0.013257,-0.016769,-0.512089,-0.011037,-0.327717,-264.383211,0.157454,61.730883
3.776,-0.012306,-0.002031,-0.00995,0.014325,0.002835,0.012691,-0.017153,-0.512162,-0.010981,-0.327717,-264.383211,0.157454,61.730883
3.7959,-0.011409,-0.001934,-0.010805,0.013605,0.002693,0.012053,-0.017153,-0.512162,-0.010981,-0.327717,-264.383211,0.157454,61.730883
3.816,-0.011463,-0.00226,-0.010313,0.012795,0.002532,0.011336,-0.01692,-0.511904,-0.010805,-0.252717,-264.383211,0.082454,61.730883
3.8364,-0.011747,-0.002353,-0.010648,0.011902,0.002356,0.010545,-0.016906,-0.511927,-0.01077,-0.252717,-264.383211,0.082454,61.730883
3.8563,-0.011285,-0.001999,-0.00954,0.010921,0.002161,0.009675,-0.017177,-0.512324,-0.010648,-0.17772,-264.383211,0.007457,61.730883
3.8762,-0.011319,-0.002531,-0.009397,0.009858,0.001951,0.008734,-0.016594,-0.512127,-0.010019,-0.17772,-264.383211,0.007457,61.730883
3.8961,-0.011731,-0.00229,-0.009079,0.008706,0.001723,0.007713,-0.016594,-0.512127,-0.010019,-0.17772,-264.383211,0.007457,61.730883
3.9158,-0.011733,-0.001995,-0.0091,0.00747,0.001478,0.006618,-0.016361,-0.512269,-0.009079,-0.102723,-264.383211,-0.067541,61.730883
3.9359,-0.011937,-0.002007,-0.009752,0.006154,0.001218,0.005452,-0.016362,-0.512248,-0.00908,-0.102723,-264.383211,-0.067541,61.730883
3.956,-0.01217,-0.00215,-0.010504,0.004747,0.00094,0.004206,-0.01691,-0.511983,-0.009752,-0.027728,-264.383211,-0.142535,61.730883
3.9759,-0.011951,-0.00236,-0.009406,0.003258,0.000645,0.002886,-0.017261,-0.512062,-0.01018,-0.027728,-264.383211,-0.142535,61.730883
3.996,-0.011645,-0.002027,-0.009749,0.001682,0.000333,0.00149,-0.017261,-0.512062,-0.01018,-0.027728,-264.383211,-0.142535,61.730883
4.0161,-0.011714,-0.002102,-0.008807,2e-05,4e-06,1.7e-05,-0.016617,-0.512003,-0.009749,0.047274,-264.38321,-0.217538,61.730884
4.0364,-0.011746,-0.001983,-0.009101,0.0,0.0,0.0,-0.016588,-0.512008,-0.009683,0.047274,-264.38321,-0.217538,61.730884
4.056,-0.011647,-0.002245,-0.011819,0.0,0.0,0.0,-0.016387,-0.511962,-0.009101,0.122366,-264.383208,-0.29263,61.730885
4.076,-0.011941,-0.002216,-0.011172,0.0,0.0,0.0,-0.01712,-0.512103,-0.010648,0.122366,-264.383208,-0.29263,61.730885
4.0959,-0.011746,-0.002152,-0.011075,0.0,0.0,0.0,-0.01712,-0.512103,-0.010648,0.122366,-264.383208,-0.29263,61.730885
4.116,-0.012028,-0.002069,-0.010213,0.0,0.0,0.0,-0.017394,-0.512121,-0.011075,0.122366,-264.383208,-0.29263,61.730885
4.1365,-0.01208,-0.001757,-0.009584,0.0,0.0,0.0,-0.017383,-0.512116,-0.011015,0.122366,-264.383208,-0.29263,61.730885
4.1559,-0.011794,-0.002139,-0.00956,0.0,0.0,0.0,-0.016968,-0.511734,-0.009584,0.122366,-264.383208,-0.29263,61.730885
4.176,-0.01149,-0.002096,-0.009854,0.0,0.0,0.0,-0.016798,-0.511951,-0.00957,0.122366,-264.383208,-0.29263,61.730885
4.1959,-0.011387,-0.002087,-0.010007,0.0,0.0,0.0,-0.016798,-0.511951,-0.00957,0.122366,-264.383208,-0.29263,61.730885
4.2161,-0.011659,-0.002115,-0.010855,0.0,0.0,0.0,-0.016491,-0.512062,-0.010007,0.122366,-264.383208,-0.29263,61.730885
4.2365,-0.011339,-0.001962,-0.011176,0.0,0.0,0.0,-0.01654,-0.512063,-0.010066,0.122366,-264.383208,-0.29263,61.730885
4.2562,-0.01154,-0.002243,-0.00967,9.8e-05,1.8e-05,0.0,-0.017039,-0.51193,-0.011176,0.122366,-264.383208,-0.29263,61.730885
4.2764,-0.011788,-0.002106,-0.009957,9.8e-05,1.8e-05,0.0,-0.016717,-0.512094,-0.010321,0.122366,-264.383208,-0.29263,61.730885
4.2961,-0.012078,-0.002188,-0.009952,9.8e-05,1.8e-05,0.0,-0.016717,-0.512094,-0.010321,0.122366,-264.383208,-0.29263,61.730885
4.3163,-0.011679,-0.001853,-0.010401,9.8e-05,1.8e-05,0.0,-0.017153,-0.512163,-0.009952,0.122366,-264.383208,-0.29263,61.730885
4.336,-0.011589,-0.001845,-0.008569,9.8e-05,1.8e-05,0.0,-0.017142,-0.51214,-0.009982,0.122366,-264.383208,-0.29263,61.730885
4.356,-0.011822,-0.002018,-0.010442,9.8e-05,1.8e-05,0.0,-0.015959,-0.511827,-0.008569,0.182466,-264.383207,-0.217633,61.730886
4.376,-0.011725,-0.002302,-0.010399,9.8e-05,1.8e-05,0.0,-0.016635,-0.51192,-0.009635,0.182466,-264.383207,-0.217633,61.730886
4.3959,-0.011563,-0.00189,-0.00943,9.8e-05,1.8e-05,0.0,-0.016635,-0.51192,-0.009635,0.182466,-264.383207,-0.217633,61.730886
4.416,-0.011386,-0.002505,-0.008518,9.8e-05,1.8e-05,0.0,-0.016372,-0.511867,-0.00943,0.182466,-264.383204,-0.142579,61.730889
4.4359,-0.011596,-0.002301,-0.011737,9.8e-05,1.8e-05,0.0,-0.016329,-0.511908,-0.00937,0.182466,-264.383204,-0.142579,61.730889
4.4563,-0.011468,-0.002292,-0.009671,9.8e-05,1.8e-05,0.0,-0.017581,-0.512266,-0.011737,0.182466,-264.383197,-0.067641,61.730896
4.4761,-0.012024,-0.002648,-0.008448,0.001648,0.000304,0.001627,-0.016906,-0.512267,-0.010557,0.182466,-264.383197,-0.067641,61.730896
4.496,-0.012008,-0.002276,-0.010615,0.003221,0.000594,0.00318,-0.016906,-0.512267,-0.010557,0.182466,-264.383197,-0.067641,61.730896
4.5161,-0.011515,-0.002081,-0.011309,0.004713,0.00087,0.004654,-0.01742,-0.512247,-0.010615,0.182466,-264.383182,0.007414,61.730911
4.5368,-0.011546,-0.001954,-0.009299,0.006114,0.001128,0.006038,-0.01741,-0.512233,-0.010663,0.182466,-264.383182,0.007414,61.730911
4.5563,-0.011874,-0.002293,-0.010405,0.007423,0.00137,0.007331,-0.016288,-0.511932,-0.009299,0.257399,-264.38318,-0.067519,61.730913
4.5762,-0.011629,-0.001813,-0.009002,0.008656,0.001597,0.008548,-0.016788,-0.512119,-0.009918,0.257399,-264.38318,-0.067519,61.730913
4.5964,-0.012226,-0.002138,-0.010397,0.009802,0.001809,0.00968,-0.016788,-0.512119,-0.009918,0.257399,-264.38318,-0.067519,61.730913
4.6161,-0.011688,-0.001993,-0.009572,0.010861,0.002004,0.010726,-0.017525,-0.51211,-0.010396,0.332398,-264.383146,-0.142518,61.730941
4.636,-0.011839,-0.00265,-0.010409,0.011837,0.002184,0.011689,-0.017468,-0.512101,-0.010347,0.332398,-264.383146,-0.142518,61.730941
4.6559,-0.011472,-0.001946,-0.01054,0.012753,0.002353,0.012594,-0.017123,-0.51262,-0.010396,0.407416,-264.382864,-0.217536,61.731182
4.6763,-0.011845,-0.002121,-0.010164,0.013538,0.002498,0.013369,-0.016964,-0.51222,-0.010476,0.407416,-264.382864,-0.217536,61.731182
4.6962,-0.011728,-0.001857,-0.009682,0.014258,0.002631,0.01408,-0.016964,-0.51222,-0.010476,0.407416,-264.382864,-0.217536,61.731182
4.7164,-0.011856,-0.002448,-0.009851,0.014897,0.002749,0.014711,-0.01654,-0.511819,-0.009596,0.482416,-264.381656,-0.292536,61.732211
4.7365,-0.011467,-0.002292,-0.011861,0.015447,0.00285,0.015255,-0.016559,-0.511857,-0.00961,0.482416,-264.381656,-0.292536,61.732211
4.7565,-0.011569,-0.002333,-0.010163,0.015926,0.002939,0.015727,-0.017236,-0.512221,-0.011628,0.557426,-264.378131,-0.367546,61.735212
4.7763,-0.011256,-0.001877,-0.010841,0.016297,0.003007,0.016094,-0.016926,-0.512265,-0.010768,0.557426,-264.378131,-0.367546,61.735212
4.7966,-0.011088,-0.002226,-0.008517,0.016592,0.003062,0.016385,-0.016926,-0.512265,-0.010768,0.557426,-264.378131,-0.367546,61.735212
4.8161,-0.011135,-0.002042,-0.00959,0.016805,0.003101,0.016595,-0.014829,-0.512124,-0.007953,0.63242,-264.372107,-0.396449,61.740661
4.8363,-0.011154,-0.001863,-0.009236,0.016933,0.003124,0.016722,-0.014893,-0.512115,-0.008046,0.63242,-264.372107,-0.396449,61.740661
4.856,-0.010692,-0.001813,-0.008145,0.016975,0.003132,0.016763,-0.015233,-0.51173,-0.008614,0.667165,-264.36382,-0.396449,61.747719
4.876,-0.010656,-0.001756,-0.008986,0.016933,0.003124,0.016722,-0.014934,-0.511754,-0.00827,0.667165,-264.36382,-0.396449,61.747719
4.8961,-0.010714,-0.002406,-0.010236,0.016806,0.003101,0.016596,-0.014934,-0.511754,-0.00827,0.667165,-264.36382,-0.396449,61.747719
4.9163,-0.010353,-0.001816,-0.009355,0.016594,0.003062,0.016387,-0.015109,-0.512236,-0.009423,0.667165,-264.355199,-0.396449,61.755061
4.9365,-0.010118,-0.001703,-0.00756,0.016297,0.003007,0.016094,-0.015089,-0.512202,-0.009397,0.667165,-264.355199,-0.396449,61.755061
4.9561,-0.009351,-0.00143,-0.006402,0.015915,0.002937,0.015717,-0.013323,-0.511573,-0.006919,0.667165,-264.346638,-0.396449,61.762351
4.9762,-0.009714,-0.00169,-0.007746,0.015449,0.002851,0.015257,-0.012837,-0.511471,-0.006542,0.667165,-264.346638,-0.396449,61.762351
4.9961,-0.009458,-0.001277,-0.009032,0.014898,0.002749,0.014712,-0.012837,-0.511471,-0.006542,0.667165,-264.346638,-0.396449,61.762351
5.016,-0.009336,-0.00123,-0.005375,0.01426,0.002631,0.014082,-0.01327,-0.511117,-0.008249,0.667165,-264.338343,-0.396449,61.769415
5.0362,-0.009346,-0.001164,-0.004537,0.013541,0.002499,0.013372,-0.013172,-0.51112,-0.00804,0.667165,-264.338343,-0.396449,61.769415
5.0558,-0.009392,-0.000911,-0.006555,0.012734,0.00235,0.012575,-0.011085,-0.511055,-0.003969,0.667165,-264.330756,-0.396449,61.775877
5.0758,-0.008936,-0.001251,-0.00698,0.011845,0.002186,0.011697,-0.011954,-0.510954,-0.005374,0.667165,-264.330756,-0.396449,61.775877
5.0959,-0.008669,-0.001067,-0.006256,0.010865,0.002005,0.01073,-0.011954,-0.510954,-0.005374,0.667165,-264.330756,-0.396449,61.775877
5.1163,-0.009107,-0.000813,-0.0055,0.009805,0.001809,0.009683,-0.011201,-0.510939,-0.005606,0.667165,-264.323863,-0.396449,61.781748
5.1362,-0.008532,-0.000804,-0.004272,0.008659,0.001598,0.008551,-0.011233,-0.510927,-0.005581,0.667165,-264.323863,-0.396449,61.781748
5.1568,-0.008379,-0.000769,-0.003301,0.007348,0.001356,0.007256,-0.01029,-0.510723,-0.003856,0.667165,-264.318329,-0.396449,61.78646
5.1764,-0.008649,-0.000927,-0.004478,0.006105,0.001127,0.006029,-0.010109,-0.510738,-0.003491,0.667165,-264.318329,-0.396449,61.78646
5.1963,-0.008465,-0.001034,-0.005192,0.004688,0.000865,0.004629,-0.010109,-0.510738,-0.003491,0.667165,-264.318329,-0.396449,61.78646
5.2162,-0.008262,-0.000692,-0.00323,0.00322,0.000594,0.00318,-0.010691,-0.510951,-0.004776,0.667165,-264.313921,-0.396449,61.790214
5.2367,-0.007949,-0.001252,-0.004298,0.001659,0.000306,0.001638,-0.01063,-0.510932,-0.004665,0.667165,-264.313921,-0.396449,61.790214
5.2566,-0.008087,-0.000883,-0.004083,0.0,0.0,0.0,-0.009958,-0.511214,-0.004118,0.667165,-264.311534,-0.396449,61.792247
5.2764,-0.007762,-0.000933,-0.002248,0.0,0.0,0.0,-0.010053,-0.511021,-0.004075,0.667165,-264.311534,-0.396449,61.792247
5.2965,-0.008144,-0.000898,-0.004343,0.0,0.0,0.0,-0.010053,-0.511021,-0.004075,0.667165,-264.311534,-0.396449,61.792247
5.3163,-0.008095,-0.001285,-0.002521,0.0,0.0,0.0,-0.010278,-0.510878,-0.004263,0.667165,-264.310689,-0.396449,61.792967
5.3368,-0.008166,-0.000636,-0.004285,0.0,0.0,0.0,-0.010224,-0.510902,-0.004159,0.667165,-264.310689,-0.396449,61.792967
5.3566,-0.007739,-0.00099,-0.00477,0.0,0.0,0.0,-0.010351,-0.510631,-0.004285,0.667165,-264.310689,-0.396449,61.792967
5.3764,-0.007826,-0.00073,-0.003956,0.0,0.0,0.0,-0.010251,-0.510828,-0.004556,0.667165,-264.310689,-0.396449,61.792967
5.3962,-0.008031,-0.000649,-0.003487,0.0,0.0,0.0,-0.010251,-0.510828,-0.004556,0.667165,-264.310689,-0.396449,61.792967
5.4161,-0.007835,-0.000866,-0.003637,0.0,0.0,0.0,-0.009809,-0.510646,-0.003487,0.667165,-264.310689,-0.396449,61.792967
5.436,-0.007792,-0.000797,-0.003514,0.0,0.0,0.0,-0.009801,-0.51066,-0.003497,0.667165,-264.310689,-0.396449,61.792967
5.4563,-0.007862,-0.001132,-0.004108,0.0,0.0,0.0,-0.009584,-0.510794,-0.003514,0.667165,-264.310689,-0.396449,61.792967
5.476,-0.008005,-0.000709,-0.003736,9.9e-05,1.5e-05,0.0,-0.009795,-0.510983,-0.00385,0.667165,-264.310689,-0.396449,61.792967
5.4966,-0.007629,-0.001097,-0.003174,9.9e-05,1.5e-05,0.0,-0.009795,-0.510983,-0.00385,0.667165,-264.310689,-0.396449,61.792967
5.5162,-0.008036,-0.000796,-0.00289,9.9e-05,1.5e-05,0.0,-0.009248,-0.511094,-0.003174,0.667165,-264.310689,-0.396449,61.792967
5.5363,-0.008058,-0.00053,-0.002469,9.9e-05,1.5e-05,0.0,-0.009264,-0.511075,-0.003156,0.667165,-264.310689,-0.396449,61.792967
5.5562,-0.007996,-0.000763,-0.004899,9.9e-05,1.5e-05,0.0,-0.009317,-0.510528,-0.002469,0.592312,-264.310689,-0.321596,61.792967
5.5767,-0.007798,-0.001242,-0.002342,9.9e-05,1.5e-05,0.0,-0.009988,-0.510659,-0.003855,0.592312,-264.310689,-0.321596,61.792967
5.5966,-0.008302,-0.000766,-0.00328,9.9e-05,1.5e-05,0.0,-0.009988,-0.510659,-0.003855,0.592312,-264.310689,-0.321596,61.792967
5.6174,-0.007837,-0.001238,-0.002633,9.9e-05,1.5e-05,0.0,-0.009975,-0.510764,-0.00328,0.517152,-264.310689,-0.246436,61.792967
5.6362,-0.008322,-0.000985,-0.003431,9.9e-05,1.5e-05,0.0,-0.009926,-0.510793,-0.00324,0.517152,-264.310689,-0.246436,61.792967
5.6562,-0.008254,-0.00084,-0.002919,9.9e-05,1.5e-05,0.0,-0.010071,-0.510982,-0.003431,0.442298,-264.310689,-0.171582,61.792967
5.6769,-0.007933,-0.000738,-0.003052,9.9e-05,1.5e-05,0.0,-0.009885,-0.510901,-0.003141,0.442298,-264.310689,-0.171582,61.792967
5.6961,-0.008011,-0.000857,-0.003814,0.001152,0.000171,0.000602,-0.009885,-0.510901,-0.003141,0.442298,-264.310689,-0.171582,61.792967
5.7161,-0.007842,-0.000812,-0.003446,0.002239,0.000332,0.001171,-0.009956,-0.510853,-0.003814,0.367298,-264.310687,-0.096581,61.792969
5.7364,-0.007859,-0.000693,-0.002388,0.003271,0.000485,0.00171,-0.009933,-0.51085,-0.00379,0.367298,-264.310687,-0.096581,61.792969
5.756,-0.008154,-0.000867,-0.003786,0.004244,0.000629,0.002219,-0.009039,-0.510686,-0.002368,0.437376,-264.310254,-0.169476,61.793367
5.7762,-0.008232,-0.0009,-0.00407,0.005156,0.000764,0.002696,-0.009632,-0.510787,-0.003177,0.437376,-264.310254,-0.169476,61.793367
5.7965,-0.00779,-0.000639,-0.004133,0.00601,0.000891,0.003143,-0.009632,-0.510787,-0.003177,0.437376,-264.310254,-0.169476,61.793367
5.8162,-0.007578,-0.001055,-0.005009,0.006807,0.001009,0.003559,-0.009738,-0.510611,-0.004049,0.437376,-264.308812,-0.169476,61.794692
5.837,-0.008047,-0.001078,-0.003236,0.007546,0.001118,0.003945,-0.009753,-0.510631,-0.004091,0.437376,-264.308812,-0.169476,61.794692
5.856,-0.007358,-0.000518,-0.001874,0.008222,0.001219,0.004299,-0.009465,-0.511042,-0.003114,0.437376,-264.306159,-0.169476,61.79713
5.8761,-0.00751,-0.000554,-0.004283,0.00884,0.00131,0.004622,-0.008784,-0.510741,-0.002397,0.437376,-264.306159,-0.169476,61.79713
5.8965,-0.007565,-0.000615,-0.002348,0.009403,0.001394,0.004917,-0.008784,-0.510741,-0.002397,0.437376,-264.306159,-0.169476,61.79713
5.9161,-0.007342,-0.000724,-0.002528,0.009901,0.001468,0.005177,-0.008394,-0.51056,-0.002155,0.437376,-264.302827,-0.169476,61.800193
5.937,-0.007302,-0.000765,-0.002461,0.010349,0.001534,0.005411,-0.008399,-0.510567,-0.002172,0.437376,-264.302827,-0.169476,61.800193
5.9561,-0.007138,-0.000627,-0.00402,0.010726,0.00159,0.005609,-0.008188,-0.51071,-0.002268,0.437376,-264.298675,-0.169476,61.804008
5.9762,-0.007066,-0.001011,-0.001427,0.011051,0.001638,0.005778,-0.008696,-0.510655,-0.003212,0.437376,-264.298675,-0.169476,61.804008
5.996,-0.007555,-0.000441,-0.002357,0.011315,0.001677,0.005916,-0.008696,-0.510655,-0.003212,0.437376,-264.298675,-0.169476,61.804008
6.0162,-0.006831,-0.000766,-0.002402,0.011521,0.001708,0.006024,-0.008253,-0.510366,-0.002093,0.437376,-264.29408,-0.169476,61.808231
6.036,-0.006502,-0.000425,-0.002418,0.011669,0.00173,0.006101,-0.008222,-0.510395,-0.00211,0.437376,-264.29408,-0.169476,61.808231
6.0566,-0.006488,-0.000614,-0.002347,0.011756,0.001743,0.006147,-0.0073,-0.51036,-0.002191,0.437376,-264.289086,-0.169476,61.81282
6.0763,-0.006444,-0.000478,-5.8e-05,0.011786,0.001747,0.006163,-0.007468,-0.510498,-0.002253,0.437376,-264.289086,-0.169476,61.81282
6.0965,-0.005954,-0.000249,-0.001297,0.011756,0.001743,0.006147,-0.007468,-0.510498,-0.002253,0.437376,-264.289086,-0.169476,61.81282
6.1164,-0.006139,-0.000395,-0.002656,0.011668,0.00173,0.006101,-0.006051,-0.510165,-0.001001,0.437376,-264.283959,-0.169476,61.817533
6.1362,-0.00608,-0.000283,-0.00237,0.011519,0.001707,0.006023,-0.006132,-0.510178,-0.001104,0.437376,-264.283959,-0.169476,61.817533
6.1565,-0.00519,-0.000603,-0.000577,0.011312,0.001677,0.005915,-0.006834,-0.510215,-0.002132,0.437376,-264.278768,-0.169476,61.822304
6.1762,-0.005268,-0.0003,-0.000385,0.011049,0.001638,0.005777,-0.006011,-0.510427,-0.00122,0.437376,-264.278768,-0.169476,61.822304
6.1964,-0.005304,-0.000405,-0.000908,0.010723,0.00159,0.005607,-0.006011,-0.510427,-0.00122,0.437376,-264.278768,-0.169476,61.822304
6.2165,-0.004972,-0.00011,-0.001524,0.01034,0.001533,0.005406,-0.005206,-0.510322,-0.000615,0.437376,-264.273681,-0.169476,61.826978
6.2365,-0.004977,1.4e-05,-0.002018,0.0099,0.001467,0.005177,-0.005228,-0.510306,-0.000668,0.437376,-264.273681,-0.169476,61.826978
6.2569,-0.004525,-0.000192,0.000354,0.009396,0.001393,0.004913,-0.005592,-0.509925,-0.001801,0.437376,-264.268946,-0.169476,61.83133
6.2764,-0.004706,-0.000208,-0.000803,0.008836,0.00131,0.00462,-0.004857,-0.510062,-0.000598,0.437376,-264.268946,-0.169476,61.83133
6.2966,-0.004613,-1.8e-05,-6e-05,0.008214,0.001218,0.004295,-0.004857,-0.510062,-0.000598,0.437376,-264.268946,-0.169476,61.83133
6.3166,-0.004259,-0.000198,-0.001177,0.007542,0.001118,0.003944,-0.004162,-0.509947,0.000192,0.437376,-264.264575,-0.169476,61.835348
6.3369,-0.0041,9.7e-05,-0.000112,0.006806,0.001009,0.003559,-0.004197,-0.509962,0.000106,0.437376,-264.264575,-0.169476,61.835348
6.3564,-0.003849,9.8e-05,0.000144,0.005983,0.000887,0.003128,-0.003839,-0.509856,5.4e-05,0.437376,-264.260948,-0.169476,61.838681
6.3762,-0.003603,-4.8e-05,-0.000581,0.005144,0.000762,0.00269,-0.003763,-0.509876,0.000126,0.437376,-264.260948,-0.169476,61.838681
6.396,-0.004294,-6.5e-05,-0.001375,0.004239,0.000628,0.002217,-0.003763,-0.509876,0.000126,0.437376,-264.260948,-0.169476,61.838681
6.416,-0.003806,0.000322,-0.000932,0.003272,0.000485,0.001711,-0.004664,-0.510016,-0.001202,0.437376,-264.257942,-0.169476,61.841443
6.4365,-0.003597,3.2e-05,-0.001974,0.002241,0.000332,0.001172,-0.004629,-0.509992,-0.001179,0.437376,-264.257942,-0.169476,61.841443
6.4559,-0.003615,-3e-05,0.000423,0.00115,0.00017,0.000601,-0.00444,-0.509943,-0.001888,0.437376,-264.256067,-0.169476,61.843166
6.4759,-0.003577,0.000245,-0.001345,2e-06,0.0,1e-06,-0.003822,-0.50999,-0.000551,0.437376,-264.256067,-0.169476,61.843166
6.4959,-0.003986,-8.4e-05,-0.000262,0.0,0.0,0.0,-0.003822,-0.50999,-0.000551,0.437376,-264.256067,-0.169476,61.843166
6.516,-0.003302,-9.7e-05,9.3e-05,0.0,0.0,0.0,-0.004011,-0.510068,-0.000205,0.437376,-264.255078,-0.169476,61.844075
6.5364,-0.003243,-1.6e-05,0.000745,0.0,0.0,0.0,-0.003954,-0.510069,-0.000183,0.437376,-264.255078,-0.169476,61.844075
6.5563,-0.003552,0.000128,-0.000596,0.0,0.0,0.0,-0.002863,-0.510016,0.000745,0.437376,-264.255078,-0.169476,61.844075
6.576,-0.003297,-0.000107,-0.000902,0.0,0.0,0.0,-0.003439,-0.509932,-3.4e-05,0.437376,-264.255078,-0.169476,61.844075
6.596,-0.003831,3.4e-05,-0.000426,0.0,0.0,0.0,-0.003439,-0.509932,-3.4e-05,0.437376,-264.255078,-0.169476,61.844075
6.6161,-0.003356,1.6e-05,-0.001029,0.0,0.0,0.0,-0.004048,-0.509966,-0.000426,0.437376,-264.255078,-0.169476,61.844075
6.6362,-0.00327,0.000262,0.001192,0.0,0.0,0.0,-0.004035,-0.509968,-0.000473,0.437376,-264.255078,-0.169476,61.844075
6.6566,-0.003301,-9.2e-05,-0.001226,0.0,0.0,0.0,-0.002662,-0.509738,0.001192,0.437376,-264.255078,-0.169476,61.844075
6.6762,-0.003251,-5.3e-05,-0.000344,0.0,0.0,0.0,-0.003386,-0.509941,-0.000193,0.437376,-264.255078,-0.169476,61.844075
6.6964,-0.003268,8.1e-05,0.000842,0.0001,2e-06,0.0,-0.003386,-0.509941,-0.000193,0.437376,-264.255078,-0.169476,61.844075
6.7162,-0.003428,3.5e-05,-0.001541,0.0001,2e-06,0.0,-0.002839,-0.509918,0.000842,0.437376,-264.255078,-0.169476,61.844075
6.7359,-0.003333,0.000121,0.000799,0.0001,2e-06,0.0,-0.002935,-0.509922,0.000675,0.437376,-264.255078,-0.169476,61.844075
6.7561,-0.003404,0.000354,-0.00088,0.0001,2e-06,0.0,-0.002925,-0.509879,0.000799,0.362475,-264.255077,-0.094575,61.844077
6.7763,-0.003318,-0.000453,-0.000223,0.0001,2e-06,0.0,-0.003447,-0.509748,-0.000146,0.362475,-264.255077,-0.094575,61.844077
6.7965,-0.003176,0.000203,0.000643,0.0001,2e-06,0.0,-0.003447,-0.509748,-0.000146,0.362475,-264.255077,-0.094575,61.844077
6.8162,-0.003506,0.000311,-0.000578,0.0001,2e-06,0.0,-0.002848,-0.509796,0.000643,0.287472,-264.255072,-0.019573,61.844081
6.8376,-0.00331,0.000476,-0.001766,0.0001,2e-06,0.0,-0.002914,-0.509789,0.000559,0.287472,-264.255072,-0.019573,61.844081
6.8563,-0.003184,-0.000297,0.000423,0.0001,2e-06,0.0,-0.004209,-0.509523,-0.001765,0.212472,-264.25506,0.016632,61.844093
6.8762,-0.003219,0.000292,-0.000511,0.0001,2e-06,0.0,-0.00352,-0.509953,-0.00055,0.212472,-264.25506,0.016632,61.844093
6.8965,-0.003571,7.1e-05,-0.000442,1e-06,0.0,0.0,-0.00352,-0.509953,-0.00055,0.212472,-264.25506,0.016632,61.844093
6.9165,-0.003591,-7.1e-05,-0.000439,0.000476,8e-06,5e-05,-0.003794,-0.509929,-0.000442,0.13743,-264.255039,0.016632,61.844115
6.9364,-0.003566,1.4e-05,-0.000386,0.000926,1.5e-05,9.8e-05,-0.003795,-0.509937,-0.000442,0.13743,-264.255039,0.016632,61.844115
6.9568,-0.003514,-8.2e-05,-5.6e-05,0.001358,2.3e-05,0.000144,-0.003763,-0.509986,-0.000386,0.081025,-264.255038,-0.047899,61.844115
6.9761,-0.003567,0.000109,0.00113,0.001756,2.9e-05,0.000186,-0.003637,-0.510041,-0.000198,0.081025,-264.255038,-0.047899,61.844115
6.996,-0.003443,0.000243,0.000249,0.002133,3.5e-05,0.000226,-0.003637,-0.510041,-0.000198,0.081025,-264.255038,-0.047899,61.844115
7.0161,-0.003073,7.3e-05,-0.000942,0.002487,4.1e-05,0.000263,-0.003271,-0.509756,0.000254,0.081025,-264.254666,-0.047899,61.844486
7.0364,-0.003648,-0.000122,-0.000777,0.002816,4.7e-05,0.000298,-0.00329,-0.509768,0.000167,0.081025,-264.254666,-0.047899,61.844486
7.0561,-0.003378,2.5e-05,-0.000181,0.003122,5.2e-05,0.00033,-0.003962,-0.51012,-0.000768,0.081025,-264.25381,-0.047899,61.845341
7.0762,-0.003527,1.3e-05,0.000179,0.003403,5.7e-05,0.00036,-0.00367,-0.510037,-0.000431,0.081025,-264.25381,-0.047899,61.845341
7.0964,-0.003164,0.000299,0.00092,0.003657,6.1e-05,0.000387,-0.00367,-0.510037,-0.000431,0.081025,-264.25381,-0.047899,61.845341
7.116,-0.003137,-0.000136,0.001793,0.003889,6.5e-05,0.000411,-0.002558,-0.509699,0.000934,0.081025,-264.252677,-0.047899,61.846472
7.1371,-0.003568,0.000402,-0.000228,0.004096,6.8e-05,0.000433,-0.002529,-0.509731,0.000999,0.081025,-264.252677,-0.047899,61.846472
7.156,-0.003209,7e-05,0.000258,0.00428,7.1e-05,0.000452,-0.003544,-0.509596,-0.000213,0.081025,-264.251213,-0.047899,61.847932
7.1761,-0.002802,0.000101,-0.001159,0.00444,7.4e-05,0.000469,-0.003259,-0.509787,5.8e-05,0.081025,-264.251213,-0.047899,61.847932
7.196,-0.002787,0.000257,-0.001497,0.004572,7.6e-05,0.000483,-0.003259,-0.509787,5.8e-05,0.081025,-264.251213,-0.047899,61.847932
