mach0312/omni-docking-bench/src/icros_test_setup/results/kinematic_sample/timeseries/trial_072.csv
t,x,y,yaw,vx,vy,wz,bl_x,bl_y,bl_yaw,front_steering_joint,front_wheel_joint,rear_steering_joint,rear_wheel_joint
0.0,-0.026207,-0.023126,0.086583,0.008666,-0.000908,0.003634,0.01632,-0.531187,0.085297,0.150163,-264.106132,-0.346325,61.875601
0.0004,-0.026725,-0.023144,0.088211,0.005704,-0.000598,0.002392,0.01632,-0.531187,0.085297,0.150163,-264.102391,-0.346325,61.879533
0.0007,-0.026223,-0.022962,0.087142,0.005037,-0.000528,0.002112,0.018172,-0.530721,0.088105,0.150163,-264.099031,-0.346325,61.883065
0.001,-0.025583,-0.02289,0.087714,0.004321,-0.000453,0.001812,0.018172,-0.530721,0.088105,0.150163,-264.096033,-0.346325,61.886216
0.0013,-0.026088,-0.02314,0.088476,0.003556,-0.000373,0.001491,0.018116,-0.530779,0.087982,0.150163,-264.093726,-0.346325,61.888642
0.0015,-0.02621,-0.023324,0.089221,0.002742,-0.000287,0.00115,0.018116,-0.530779,0.087982,0.150163,-264.091971,-0.346325,61.890487
0.0018,-0.025899,-0.023366,0.089044,0.001876,-0.000197,0.000786,0.018116,-0.530779,0.087982,0.150163,-264.091216,-0.346325,61.89128
0.002,-0.025806,-0.023202,0.086845,0.000953,-0.0001,0.0004,0.016812,-0.531318,0.085648,0.150163,-264.091216,-0.346325,61.89128
0.0022,-0.02592,-0.023351,0.087562,0.0,0.0,0.0,0.017611,-0.531046,0.086598,0.150163,-264.091216,-0.346325,61.89128
0.0024,-0.025737,-0.022982,0.088045,0.0,0.0,0.0,0.017611,-0.531046,0.086598,0.150163,-264.091216,-0.346325,61.89128
0.0185,-0.02559,-0.023285,0.087012,0.016,0.016,-0.03,0.018611,-0.531347,0.087268,0.150163,-264.091216,-0.346325,61.89128
0.0385,-0.025682,-0.022877,0.087213,0.027517,0.020973,-0.05,0.01873,-0.531356,0.087012,0.150163,-264.091216,-0.346325,61.89128
0.0587,-0.02597,-0.022747,0.088229,0.027577,0.020553,-0.05,0.018731,-0.531327,0.087026,0.150163,-264.091216,-0.346325,61.89128
0.0784,-0.025876,-0.022833,0.087959,0.027874,0.02037,-0.05,0.018968,-0.530763,0.088229,0.075181,-264.091216,-0.271343,61.89128
0.0984,-0.026077,-0.02314,0.08631,0.027781,0.020471,-0.05,0.018944,-0.53082,0.088073,0.075181,-264.091216,-0.271343,61.89128
0.1183,-0.025389,-0.022941,0.088076,0.027975,0.020806,-0.05,0.018944,-0.53082,0.088073,0.075181,-264.091216,-0.271343,61.89128
0.1383,-0.025903,-0.023071,0.087488,0.027309,0.020619,-0.05,0.019471,-0.530964,0.088076,-0.000122,-264.091216,-0.196041,61.89128
0.1588,-0.025706,-0.022905,0.088992,0.02782,0.02072,-0.05,0.019414,-0.530975,0.088035,-0.000122,-264.091216,-0.196041,61.89128
0.1783,-0.025932,-0.022877,0.085827,0.02764,0.020529,-0.05,0.01962,-0.530886,0.088992,-0.074812,-264.091216,-0.121351,61.891281
0.1983,-0.025735,-0.022763,0.086341,0.027798,0.02057,-0.05,0.018566,-0.530952,0.087172,-0.074812,-264.091216,-0.121351,61.891281
0.2183,-0.025738,-0.023407,0.0873,0.027602,0.020459,-0.05,0.018566,-0.530952,0.087172,-0.074812,-264.091216,-0.121351,61.891281
0.2382,-0.026007,-0.022838,0.088736,0.027681,0.021073,-0.05,0.018729,-0.531464,0.0873,-0.149976,-264.091215,-0.046187,61.891281
0.2586,-0.025897,-0.023028,0.088933,0.027929,0.020444,-0.05,0.018763,-0.531417,0.087407,-0.149976,-264.091215,-0.046187,61.891281
0.2783,-0.026026,-0.023224,0.08811,0.02784,0.020637,-0.05,0.019399,-0.531012,0.088933,-0.22496,-264.091215,0.028798,61.891283
0.2986,-0.026059,-0.022882,0.088638,0.027969,0.020844,-0.05,0.019088,-0.531145,0.088466,-0.22496,-264.091215,0.028798,61.891283
0.319,-0.025743,-0.023002,0.088127,0.027982,0.020485,-0.05,0.019088,-0.531145,0.088466,-0.22496,-264.091215,0.028798,61.891283
0.3385,-0.025794,-0.023246,0.088853,0.027667,0.020647,-0.05,0.019144,-0.531023,0.088127,-0.299984,-264.091214,0.103821,61.891284
0.3588,-0.025706,-0.022769,0.086471,0.027755,0.020865,-0.05,0.019172,-0.531042,0.088191,-0.299984,-264.091214,0.103821,61.891284
0.3783,-0.02591,-0.023133,0.088146,0.027576,0.020464,-0.05,0.01834,-0.530864,0.086471,-0.344877,-264.091213,0.179239,61.891287
0.399,-0.025927,-0.023121,0.087654,0.027846,0.020762,-0.05,0.01871,-0.531029,0.087431,-0.344877,-264.091213,0.179239,61.891287
0.4185,-0.025455,-0.023166,0.087206,0.027852,0.020763,-0.05,0.01871,-0.531029,0.087431,-0.344877,-264.091213,0.179239,61.891287
0.4389,-0.025914,-0.023092,0.088162,0.027376,0.020861,-0.05,0.018963,-0.531228,0.087206,-0.335337,-264.091211,0.253792,61.891289
0.4588,-0.026108,-0.022983,0.087697,0.027846,0.020721,-0.05,0.018965,-0.531219,0.087276,-0.335337,-264.091211,0.253792,61.891289
0.4788,-0.026057,-0.022937,0.086534,0.02802,0.020608,-0.05,0.018561,-0.531023,0.087697,-0.337526,-264.09121,0.328771,61.891291
0.4984,-0.025975,-0.023121,0.087758,0.027942,0.020599,-0.05,0.018246,-0.531026,0.087021,-0.337526,-264.09121,0.328771,61.891291
0.5183,-0.02593,-0.023069,0.087917,0.027902,0.020756,-0.05,0.018246,-0.531026,0.087021,-0.337526,-264.09121,0.328771,61.891291
0.5382,-0.025312,-0.022904,0.088539,0.027856,0.020703,-0.05,0.01885,-0.531099,0.087917,-0.338932,-264.091208,0.404016,61.891295
0.5586,-0.025834,-0.022634,0.086939,0.027238,0.020576,-0.05,0.018917,-0.531085,0.087961,-0.338932,-264.091208,0.404016,61.891295
0.5783,-0.026038,-0.022982,0.088109,0.027702,0.020305,-0.05,0.01845,-0.530707,0.086939,-0.337195,-264.091202,0.478729,61.891307
0.5984,-0.025774,-0.02314,0.089923,0.027959,0.020601,-0.05,0.018674,-0.530877,0.08761,-0.337195,-264.091202,0.478729,61.891307
0.6186,-0.025615,-0.023056,0.08793,0.027748,0.020732,-0.05,0.018674,-0.530877,0.08761,-0.337195,-264.091202,0.478729,61.891307
0.6383,-0.026226,-0.023064,0.087236,0.027541,0.020717,-0.05,0.019175,-0.531084,0.087927,-0.350618,-264.091178,0.553794,61.891356
0.6589,-0.025665,-0.023176,0.087499,0.028136,0.020691,-0.05,0.019114,-0.531087,0.087883,-0.350618,-264.091178,0.553794,61.891356
0.6785,-0.025539,-0.023059,0.087977,0.027592,0.020845,-0.05,0.018917,-0.531219,0.087484,-0.339678,-264.091053,0.628673,61.891603
0.6984,-0.025902,-0.023164,0.087114,0.027466,0.020726,-0.05,0.019121,-0.531143,0.087763,-0.339678,-264.091053,0.628673,61.891603
0.7187,-0.025836,-0.02303,0.087229,0.027819,0.020823,-0.05,0.019121,-0.531143,0.087763,-0.339678,-264.091053,0.628673,61.891603
0.7383,-0.025625,-0.022871,0.087719,0.027744,0.020692,-0.05,0.018664,-0.531057,0.087152,-0.336634,-264.090568,0.703752,61.892554
0.7587,-0.025587,-0.022912,0.087002,0.02753,0.020538,-0.05,0.018692,-0.531046,0.087188,-0.336634,-264.090568,0.703752,61.892554
0.7785,-0.025367,-0.023339,0.086507,0.027481,0.020602,-0.05,0.018863,-0.530908,0.086833,-0.335966,-264.089324,0.778661,61.89502
0.7983,-0.025195,-0.023036,0.086397,0.027289,0.02106,-0.05,0.018784,-0.531199,0.086624,-0.335966,-264.089324,0.778661,61.89502
0.8183,-0.025495,-0.023041,0.088435,0.027089,0.020776,-0.05,0.018784,-0.531199,0.086624,-0.335966,-264.089324,0.778661,61.89502
0.8383,-0.024656,-0.022863,0.086718,0.027431,0.020699,-0.05,0.019887,-0.530848,0.087969,-0.348395,-264.086562,0.853787,61.899976
0.8588,-0.024755,-0.022597,0.08733,0.026544,0.020642,-0.05,0.01987,-0.53085,0.087869,-0.348395,-264.086562,0.853787,61.899976
0.8782,-0.023675,-0.022464,0.086258,0.026632,0.020351,-0.05,0.020143,-0.530407,0.086728,-0.345854,-264.081708,0.928653,61.907437
0.8982,-0.024315,-0.02235,0.085398,0.025522,0.020341,-0.05,0.020264,-0.530467,0.086384,-0.345854,-264.081708,0.928653,61.907437
0.9183,-0.023674,-0.022299,0.085685,0.026133,0.020195,-0.05,0.020264,-0.530467,0.086384,-0.345854,-264.081708,0.928653,61.907437
0.9383,-0.02261,-0.02193,0.084796,0.025496,0.020191,-0.05,0.020683,-0.530011,0.084592,-0.356839,-264.074357,1.003649,61.917398
0.9587,-0.022378,-0.02145,0.084183,0.024387,0.019937,-0.05,0.020695,-0.530006,0.084578,-0.356839,-264.074357,1.003649,61.917398
0.9783,-0.02096,-0.021102,0.083879,0.024102,0.019493,-0.05,0.021196,-0.529229,0.083031,-0.376864,-264.064589,1.078654,61.929859
0.9985,-0.020696,-0.021126,0.082573,0.022654,0.019272,-0.05,0.021609,-0.529222,0.083367,-0.376864,-264.064589,1.078654,61.929859
1.0189,-0.020775,-0.021216,0.085265,0.022368,0.019347,-0.05,0.021609,-0.529222,0.083367,-0.376864,-264.064589,1.078654,61.929859
1.0384,-0.019155,-0.020489,0.082141,0.022506,0.01937,-0.05,0.023568,-0.528711,0.083519,-0.410059,-264.05443,1.12072,61.94482
1.0589,-0.01901,-0.020416,0.080631,0.020772,0.018849,-0.05,0.023533,-0.528699,0.083383,-0.410059,-264.05443,1.12072,61.94482
1.0783,-0.017101,-0.019553,0.080011,0.020593,0.018819,-0.05,0.022772,-0.528135,0.079038,-0.463861,-264.045002,1.149275,61.962281
1.0984,-0.017191,-0.019358,0.07964,0.018609,0.018124,-0.05,0.023368,-0.527935,0.07939,-0.463861,-264.045002,1.149275,61.962281
1.1185,-0.01672,-0.019669,0.080018,0.018677,0.017929,-0.05,0.023368,-0.527935,0.07939,-0.463861,-264.045002,1.149275,61.962281
1.1383,-0.01523,-0.01842,0.077844,0.018239,0.01827,-0.05,0.02493,-0.527115,0.077737,-0.512563,-264.035904,1.172654,61.982242
1.1587,-0.015016,-0.019056,0.077399,0.016617,0.01718,-0.05,0.02492,-0.527078,0.077689,-0.512563,-264.035904,1.172654,61.982242
1.1783,-0.012751,-0.017983,0.074356,0.016444,0.017838,-0.05,0.025011,-0.526865,0.075686,-0.587557,-264.027914,1.202982,62.000659
1.1983,-0.012772,-0.017696,0.074178,0.014051,0.016986,-0.05,0.025157,-0.526616,0.074715,-0.587557,-264.027914,1.202982,62.000659
1.2183,-0.013188,-0.017436,0.075411,0.014049,0.016701,-0.05,0.025157,-0.526616,0.074715,-0.587557,-264.027914,1.202982,62.000659
1.2384,-0.011125,-0.016665,0.07174,0.014464,0.016392,-0.05,0.025881,-0.525209,0.073318,-0.662551,-264.020541,1.235699,62.018132
1.2587,-0.011414,-0.016936,0.073028,0.012291,0.015825,-0.05,0.025867,-0.525198,0.073152,-0.662551,-264.020541,1.235699,62.018132
1.2787,-0.009929,-0.015747,0.070337,0.01262,0.016058,-0.05,0.026191,-0.525034,0.071534,-0.737563,-264.01438,1.281726,62.03353
1.2983,-0.010195,-0.015832,0.071677,0.011011,0.015011,-0.05,0.026083,-0.524654,0.070663,-0.737563,-264.01438,1.281726,62.03353
1.3184,-0.009807,-0.016111,0.070957,0.011303,0.015062,-0.05,0.026083,-0.524654,0.070663,-0.737563,-264.01438,1.281726,62.03353
1.3383,-0.008849,-0.01567,0.067991,0.010924,0.015375,-0.05,0.026761,-0.524223,0.069209,-0.812556,-264.008794,1.311643,62.047506
1.3583,-0.008655,-0.015022,0.071507,0.009893,0.015033,-0.05,0.026704,-0.524226,0.069078,-0.812556,-264.008794,1.311643,62.047506
1.3783,-0.007275,-0.014868,0.068342,0.009706,0.014365,-0.05,0.028097,-0.52324,0.070039,-0.887556,-264.002911,1.327813,62.061926
1.3984,-0.007233,-0.0149,0.066517,0.008273,0.014336,-0.05,0.027827,-0.523428,0.068888,-0.887556,-264.002911,1.327813,62.061926
1.4183,-0.007397,-0.014447,0.066781,0.008208,0.014387,-0.05,0.027827,-0.523428,0.068888,-0.887556,-264.002911,1.327813,62.061926
1.4387,-0.005544,-0.014143,0.065263,0.008345,0.013921,-0.05,0.026991,-0.522695,0.064856,-0.962553,-263.997048,1.35702,62.076793
1.4583,-0.005982,-0.013689,0.065238,0.006455,0.013751,-0.05,0.02705,-0.522703,0.064834,-0.962553,-263.997048,1.35702,62.076793
1.479,-0.00445,-0.013413,0.063594,0.006862,0.01327,-0.05,0.027482,-0.52218,0.063853,-1.03755,-263.991804,1.390087,62.090011
1.4986,-0.004626,-0.013148,0.064992,0.005294,0.013103,-0.05,0.027781,-0.52224,0.063529,-1.03755,-263.991804,1.390087,62.090011
1.5185,-0.004393,-0.01322,0.064197,0.005471,0.01282,-0.05,0.027781,-0.52224,0.063529,-1.03755,-263.991804,1.390087,62.090011
1.5383,-0.003781,-0.012463,0.062759,0.005232,0.012911,-0.05,0.028518,-0.521726,0.062687,-1.11255,-263.987284,1.426069,62.10126
1.5582,-0.003533,-0.012712,0.063381,0.004556,0.012202,-0.05,0.028501,-0.521696,0.062651,-1.11255,-263.987284,1.426069,62.10126
1.5783,-0.002175,-0.012443,0.060374,0.004332,0.012463,-0.05,0.028906,-0.521344,0.062112,-1.187558,-263.98235,1.445286,62.112887
1.5984,-0.002126,-0.011802,0.061487,0.002922,0.012289,-0.05,0.028745,-0.521399,0.060947,-1.187558,-263.98235,1.445286,62.112887
1.6184,-0.002553,-0.012146,0.06073,0.002847,0.011649,-0.05,0.028745,-0.521399,0.060947,-1.187558,-263.98235,1.445286,62.112887
1.6383,-0.001501,-0.011679,0.057987,0.003285,0.011969,-0.05,0.028555,-0.52076,0.058977,-1.262808,-263.976871,1.464606,62.125353
1.6583,-0.001861,-0.011736,0.059203,0.002175,0.011572,-0.05,0.028524,-0.520753,0.058861,-1.262808,-263.976871,1.464606,62.125353
1.6784,-0.000635,-0.011453,0.056634,0.002552,0.011605,-0.05,0.028389,-0.52054,0.057951,-1.337654,-263.971894,1.503417,62.136368
1.6987,-0.000398,-0.011272,0.057598,0.001282,0.011399,-0.05,0.02831,-0.520556,0.057044,-1.337654,-263.971894,1.503417,62.136368
1.7183,-0.000464,-0.011324,0.056078,0.001046,0.01123,-0.05,0.02831,-0.520556,0.057044,-1.337654,-263.971894,1.503417,62.136368
1.7383,0.000342,-0.010565,0.054064,0.001098,0.01128,-0.05,0.028196,-0.520069,0.054153,-1.412553,-263.965833,1.519189,62.149757
1.7589,0.000217,-0.011163,0.055915,0.000229,0.010568,-0.05,0.028177,-0.520039,0.054095,-1.412553,-263.965833,1.519189,62.149757
1.7782,0.001606,-0.010532,0.051343,0.000407,0.011158,-0.05,0.028741,-0.520003,0.05431,-1.48756,-263.959399,1.545765,62.163661
1.7982,0.001889,-0.009832,0.053236,-0.001063,0.010601,-0.05,0.028194,-0.519875,0.05241,-1.48756,-263.959399,1.545765,62.163661
1.8185,0.001527,-0.010211,0.054135,-0.001363,0.009919,-0.05,0.028194,-0.519875,0.05241,-1.48756,-263.959399,1.545765,62.163661
1.8384,0.002794,-0.009716,0.049635,-0.000972,0.010278,-0.05,0.029107,-0.518992,0.051902,-1.559307,-263.952096,1.565214,62.178691
1.8583,0.002407,-0.009773,0.049984,-0.002309,0.009842,-0.049635,0.029048,-0.518987,0.051721,-1.559307,-263.952096,1.565214,62.178691
1.8784,0.003749,-0.009376,0.04914,-0.001916,0.009881,-0.049984,0.027826,-0.518799,0.048273,-1.634193,-263.944772,1.604486,62.193039
1.8984,0.003768,-0.009586,0.047005,-0.003284,0.009549,-0.04914,0.028369,-0.518734,0.048544,-1.634193,-263.944772,1.604486,62.193039
1.9188,0.003691,-0.009129,0.046769,-0.003314,0.009753,-0.047005,0.028369,-0.518734,0.048544,-1.634193,-263.944772,1.604486,62.193039
1.9386,0.004842,-0.00885,0.044043,-0.003314,0.009753,-0.047005,0.027407,-0.51812,0.044464,-1.683091,-263.936913,1.628224,62.208383
1.9588,0.004858,-0.008775,0.044386,-4.4e-05,9e-05,0.0,0.027396,-0.518124,0.044378,-1.683091,-263.936913,1.628224,62.208383
1.9784,0.006022,-0.008327,0.04326,-4.4e-05,9e-05,0.0,0.027353,-0.517927,0.042698,-1.743866,-263.92975,1.656744,62.222752
1.9984,0.005667,-0.008414,0.041521,-4.4e-05,9e-05,0.0,0.027748,-0.517839,0.042802,-1.743866,-263.92975,1.656744,62.222752
2.0185,0.005778,-0.008264,0.043383,-4.4e-05,9e-05,0.0,0.027748,-0.517839,0.042802,-1.743866,-263.92975,1.656744,62.222752
2.0382,0.006142,-0.007811,0.043464,-4.4e-05,9e-05,0.0,0.027882,-0.51752,0.042949,-1.668826,-263.92975,1.581705,62.227118
2.0587,0.006236,-0.008111,0.044423,-4.4e-05,9e-05,0.0,0.027912,-0.517499,0.042974,-1.668826,-263.92975,1.581705,62.227118
2.0785,0.006224,-0.008164,0.043244,-4.4e-05,9e-05,0.0,0.028884,-0.517607,0.044423,-1.593753,-263.92975,1.506632,62.227118
2.0985,0.005731,-0.007979,0.043197,-4.4e-05,9e-05,0.0,0.028533,-0.517653,0.043747,-1.593753,-263.92975,1.506632,62.227118
2.1186,0.005943,-0.008287,0.043219,-4.4e-05,9e-05,0.0,0.028533,-0.517653,0.043747,-1.593753,-263.92975,1.506632,62.227118
2.1383,0.005716,-0.007822,0.043653,-4.4e-05,9e-05,0.0,0.027978,-0.51781,0.043219,-1.518765,-263.92975,1.431644,62.227118
2.1589,0.006345,-0.007596,0.043419,-0.0,0.0,-2e-06,0.027978,-0.517778,0.043248,-1.518765,-263.92975,1.431644,62.227118
2.1782,0.005861,-0.008086,0.042738,-0.000669,0.001362,-0.006627,0.028482,-0.517115,0.043419,-1.443841,-263.92975,1.356719,62.227118
2.1985,0.005966,-0.007892,0.044162,-0.001268,0.002581,-0.012555,0.028012,-0.517401,0.043034,-1.443841,-263.92975,1.356719,62.227118
2.2182,0.005865,-0.007776,0.04181,-0.001852,0.003769,-0.018336,0.028012,-0.517401,0.043034,-1.443841,-263.92975,1.356719,62.227118
2.2385,0.006339,-0.007758,0.04426,-0.002402,0.00489,-0.023788,0.027182,-0.517331,0.04181,-1.368713,-263.92975,1.431847,62.227118
2.2583,0.006132,-0.008031,0.043387,-0.002924,0.005953,-0.028956,0.027301,-0.517326,0.04198,-1.368713,-263.92975,1.431847,62.227118
2.2784,0.006023,-0.00793,0.043245,-0.003404,0.006929,-0.033704,0.028252,-0.517551,0.043387,-1.293859,-263.929751,1.506701,62.227118
2.2984,0.00599,-0.00804,0.042591,-0.003855,0.007848,-0.038176,0.028149,-0.517496,0.043306,-1.293859,-263.929751,1.506701,62.227118
2.3183,0.005959,-0.007842,0.04317,-0.004272,0.008696,-0.0423,0.028149,-0.517496,0.043306,-1.293859,-263.929751,1.506701,62.227118
2.3388,0.006211,-0.007923,0.04327,-0.004655,0.009476,-0.046092,0.027969,-0.517366,0.04317,-1.218848,-263.929751,1.581712,62.227118
2.3587,0.006026,-0.00793,0.044355,-0.005004,0.010187,-0.049552,0.02799,-0.517372,0.043177,-1.218848,-263.929751,1.581712,62.227118
2.3789,0.006102,-0.008028,0.045699,-0.005321,0.010832,-0.052689,0.02864,-0.517428,0.044355,-1.143849,-263.929751,1.656711,62.22712
2.3984,0.006057,-0.007987,0.042436,-0.005605,0.011409,-0.055499,0.029076,-0.517467,0.045126,-1.143849,-263.929751,1.656711,62.22712
2.4186,0.005982,-0.008019,0.04343,-0.005854,0.011918,-0.057971,0.029076,-0.517467,0.045126,-1.143849,-263.929751,1.656711,62.22712
2.4384,0.005885,-0.007924,0.041767,-0.006072,0.01236,-0.060122,0.028124,-0.517538,0.04343,-1.068717,-263.929752,1.693879,62.227121
2.4589,0.00573,-0.007843,0.042658,-0.006255,0.012733,-0.061937,0.028062,-0.517534,0.043319,-1.068717,-263.929752,1.693879,62.227121
2.4783,0.005694,-0.007965,0.042548,-0.006405,0.013039,-0.063423,0.027479,-0.517379,0.042658,-0.993853,-263.929753,1.693879,62.227123
2.4984,0.006032,-0.007958,0.04538,-0.006521,0.013276,-0.064577,0.027427,-0.51745,0.042595,-0.993853,-263.929753,1.693879,62.227123
2.5185,0.005997,-0.007788,0.04395,-0.006605,0.013446,-0.065405,0.027427,-0.51745,0.042595,-0.993853,-263.929753,1.693879,62.227123
2.5387,0.005943,-0.007774,0.042587,-0.006655,0.013547,-0.065899,0.028405,-0.517295,0.04395,-0.918733,-263.929754,1.693879,62.227125
2.5584,0.005974,-0.00776,0.041855,-0.006672,0.013581,-0.066064,0.02835,-0.517297,0.043851,-0.918733,-263.929754,1.693879,62.227125
2.5782,0.005529,-0.007792,0.042452,-0.006655,0.013547,-0.065897,0.027314,-0.517313,0.041854,-0.843775,-263.929755,1.693879,62.227127
2.5985,0.006159,-0.007824,0.042251,-0.006605,0.013445,-0.0654,0.027233,-0.517324,0.042196,-0.843775,-263.929755,1.693879,62.227127
2.6184,0.005959,-0.008091,0.044376,-0.006521,0.013275,-0.064576,0.027233,-0.517324,0.042196,-0.843775,-263.929755,1.693879,62.227127
2.6384,0.006178,-0.00809,0.043556,-0.006404,0.013037,-0.063416,0.028583,-0.517588,0.044376,-0.768759,-263.929756,1.693879,62.22713
2.6586,0.005894,-0.00807,0.042706,-0.006254,0.012732,-0.061934,0.028569,-0.51759,0.044316,-0.768759,-263.929756,1.693879,62.22713
2.6789,0.006365,-0.007776,0.041674,-0.006071,0.012358,-0.060114,0.027667,-0.517605,0.042706,-0.69372,-263.929757,1.693879,62.227132
2.6984,0.005986,-0.007742,0.043081,-0.005853,0.011915,-0.057958,0.027636,-0.517451,0.042122,-0.69372,-263.929757,1.693879,62.227132
2.7182,0.005903,-0.007773,0.043293,-0.005603,0.011406,-0.055484,0.027636,-0.517451,0.042122,-0.69372,-263.929757,1.693879,62.227132
2.7384,0.006042,-0.007886,0.042262,-0.00532,0.010829,-0.052676,0.027975,-0.517295,0.043293,-0.618857,-263.929759,1.693879,62.227134
2.7588,0.006062,-0.00834,0.044625,-0.005004,0.010186,-0.049549,0.02795,-0.517304,0.043225,-0.618857,-263.929759,1.693879,62.227134
2.7783,0.006116,-0.007767,0.043074,-0.004653,0.009472,-0.046072,0.028813,-0.517832,0.044625,-0.543855,-263.929759,1.693879,62.227135
2.7983,0.006409,-0.008198,0.043941,-0.004268,0.008689,-0.042268,0.028392,-0.517524,0.043737,-0.543855,-263.929759,1.693879,62.227135
2.8183,0.006266,-0.007893,0.043765,-0.003853,0.007843,-0.038152,0.028392,-0.517524,0.043737,-0.543855,-263.929759,1.693879,62.227135
2.8383,0.006029,-0.007993,0.042651,-0.003401,0.006924,-0.033679,0.028579,-0.517404,0.043765,-0.468761,-263.92976,1.693879,62.227137
2.8583,0.006406,-0.00781,0.043797,-0.002919,0.005942,-0.028905,0.028525,-0.517413,0.04369,-0.468761,-263.92976,1.693879,62.227137
2.8783,0.005759,-0.008153,0.042822,-0.002402,0.004889,-0.023782,0.028736,-0.517321,0.043797,-0.393861,-263.929761,1.693879,62.227138
2.8985,0.006001,-0.008133,0.045601,-0.001852,0.003769,-0.018335,0.028076,-0.517531,0.043234,-0.393861,-263.929761,1.693879,62.227138
2.9184,0.006157,-0.007723,0.042781,-0.001268,0.002581,-0.012555,0.028076,-0.517531,0.043234,-0.393861,-263.929761,1.693879,62.227138
2.9383,0.006023,-0.008153,0.042573,-0.00065,0.001324,-0.006439,0.027969,-0.517256,0.042781,-0.318641,-263.929761,1.693879,62.227139
2.9585,0.005911,-0.008061,0.04292,0.0,0.0,0.0,0.027953,-0.517284,0.042768,-0.318641,-263.929761,1.693879,62.227139
2.9782,0.005459,-0.008157,0.043936,0.0,0.0,0.0,0.027794,-0.517591,0.04292,-0.243859,-263.929762,1.693879,62.22714
2.9982,0.00569,-0.007753,0.042964,0.0,0.0,0.0,0.027831,-0.517633,0.0435,-0.243859,-263.929762,1.693879,62.22714
3.0183,0.005897,-0.007997,0.043296,0.0,0.0,0.0,0.027831,-0.517633,0.0435,-0.243859,-263.929762,1.693879,62.22714
3.0386,0.00602,-0.007789,0.043792,0.0,0.0,0.0,0.027971,-0.517519,0.043296,-0.243859,-263.929762,1.693879,62.22714
3.0585,0.005884,-0.007771,0.042927,0.0,0.0,0.0,0.027998,-0.517503,0.043332,-0.243859,-263.929762,1.693879,62.22714
3.0787,0.005935,-0.008109,0.0432,0.0,0.0,0.0,0.02777,-0.517301,0.042927,-0.243859,-263.929762,1.693879,62.22714
3.0984,0.006009,-0.008002,0.043969,0.0,0.0,0.0,0.027877,-0.517489,0.043081,-0.243859,-263.929762,1.693879,62.22714
3.1183,0.006036,-0.007788,0.043933,0.0,0.0,0.0,0.027877,-0.517489,0.043081,-0.243859,-263.929762,1.693879,62.22714
3.1384,0.006,-0.007553,0.04347,0.0,0.0,0.0,0.028434,-0.517296,0.043933,-0.243859,-263.929762,1.693879,62.22714
3.1589,0.005752,-0.007931,0.042809,0.0,0.0,0.0,0.028415,-0.517279,0.043899,-0.243859,-263.929762,1.693879,62.22714
3.1791,0.006295,-0.007804,0.04415,-5.5e-05,8.3e-05,0.0,0.027578,-0.517464,0.042809,-0.243859,-263.929762,1.693879,62.22714
3.1989,0.005681,-0.008049,0.043327,-5.5e-05,8.3e-05,0.0,0.028276,-0.517374,0.043572,-0.243859,-263.929762,1.693879,62.22714
3.2186,0.006208,-0.007954,0.043609,-5.5e-05,8.3e-05,0.0,0.028276,-0.517374,0.043572,-0.243859,-263.929762,1.693879,62.22714
3.2383,0.006057,-0.008133,0.042519,-5.5e-05,8.3e-05,0.0,0.028441,-0.517469,0.043609,-0.243859,-263.929762,1.693879,62.22714
3.2588,0.005688,-0.00787,0.043646,-5.5e-05,8.3e-05,0.0,0.028396,-0.517482,0.043538,-0.243859,-263.929762,1.693879,62.22714
3.2783,0.005703,-0.008084,0.043736,-5.5e-05,8.3e-05,0.0,0.027941,-0.517385,0.043646,-0.318852,-263.929762,1.618887,62.22714
3.2991,0.005965,-0.007979,0.04541,-5.5e-05,8.3e-05,0.0,0.027975,-0.517506,0.043697,-0.318852,-263.929762,1.618887,62.22714
3.3185,0.006065,-0.008256,0.043081,-5.5e-05,8.3e-05,0.0,0.027975,-0.517506,0.043697,-0.318852,-263.929762,1.618887,62.22714
3.3385,0.00619,-0.00817,0.041785,-5.5e-05,8.3e-05,0.0,0.028029,-0.517782,0.043081,-0.393946,-263.929762,1.543792,62.22714
3.3592,0.005734,-0.008349,0.042748,-5.5e-05,8.3e-05,0.0,0.027994,-0.517779,0.042996,-0.393946,-263.929762,1.543792,62.22714
3.3788,0.0062,-0.008187,0.042551,-1.5e-05,2.2e-05,-0.000116,0.027529,-0.517883,0.042748,-0.468853,-263.929762,1.468885,62.22714
3.3984,0.006059,-0.008131,0.043075,-0.000793,0.001198,-0.006279,0.027737,-0.517793,0.042636,-0.468853,-263.929762,1.468885,62.22714
3.4184,0.005573,-0.008139,0.041625,-0.00154,0.002326,-0.01219,0.027737,-0.517793,0.042636,-0.468853,-263.929762,1.468885,62.22714
3.4383,0.005977,-0.007777,0.043684,-0.00225,0.0034,-0.017814,0.026796,-0.517697,0.041625,-0.543957,-263.929762,1.393781,62.22714
3.4588,0.005997,-0.008291,0.043562,-0.00292,0.004411,-0.023113,0.026901,-0.517668,0.041775,-0.543957,-263.929762,1.393781,62.22714
3.4784,0.005914,-0.007716,0.043994,-0.003565,0.005386,-0.028224,0.028207,-0.517807,0.043562,-0.468963,-263.929762,1.468775,62.22714
3.4987,0.005821,-0.00799,0.045577,-0.004136,0.006248,-0.03274,0.028285,-0.517473,0.043809,-0.468963,-263.929762,1.468775,62.22714
3.5187,0.0058,-0.008107,0.043621,-0.004688,0.007083,-0.037114,0.028285,-0.517473,0.043809,-0.468963,-263.929762,1.468775,62.22714
3.5385,0.006061,-0.008155,0.043246,-0.005194,0.007847,-0.041117,0.028039,-0.517622,0.043621,-0.393945,-263.929762,1.543793,62.22714
3.5584,0.006103,-0.007816,0.0453,-0.005661,0.008553,-0.044817,0.028044,-0.517625,0.043597,-0.393945,-263.929762,1.543793,62.22714
3.5785,0.006024,-0.008197,0.043357,-0.006083,0.00919,-0.048155,0.029199,-0.517293,0.0453,-0.319053,-263.929762,1.618685,62.227141
3.5989,0.006666,-0.007797,0.044607,-0.006468,0.009772,-0.051206,0.02859,-0.517534,0.044194,-0.319053,-263.929762,1.618685,62.227141
3.6191,0.006063,-0.007883,0.041761,-0.006813,0.010294,-0.053937,0.02859,-0.517534,0.044194,-0.319053,-263.929762,1.618685,62.227141
3.6388,0.006513,-0.007781,0.042179,-0.007117,0.010753,-0.056345,0.027354,-0.517438,0.041761,-0.244057,-263.929763,1.693681,62.227142
3.6589,0.005938,-0.007902,0.042874,-0.007381,0.011151,-0.058432,0.027397,-0.517431,0.041788,-0.244057,-263.929763,1.693681,62.227142
3.6788,0.006572,-0.007985,0.042688,-0.007604,0.011489,-0.060199,0.027797,-0.517433,0.042874,-0.169061,-263.929764,1.727092,62.227144
3.6985,0.005922,-0.008082,0.043716,-0.007786,0.011764,-0.061642,0.028104,-0.517483,0.042768,-0.169061,-263.929764,1.727092,62.227144
3.7189,0.006024,-0.00791,0.044176,-0.007928,0.011979,-0.062767,0.028104,-0.517483,0.042768,-0.169061,-263.929764,1.727092,62.227144
3.7383,0.006173,-0.008045,0.04448,-0.00803,0.012132,-0.063571,0.028546,-0.517413,0.044176,-0.094063,-263.929765,1.727092,62.227146
3.7582,0.006062,-0.007703,0.041979,-0.008091,0.012225,-0.064055,0.028568,-0.517422,0.044198,-0.094063,-263.929765,1.727092,62.227146
3.7791,0.006153,-0.007937,0.043028,-0.008111,0.012255,-0.064214,0.027465,-0.517254,0.041979,-0.018962,-263.929766,1.727092,62.227148
3.7985,0.006017,-0.008162,0.043926,-0.008091,0.012224,-0.064054,0.027821,-0.517374,0.042576,-0.018962,-263.929766,1.727092,62.227148
3.8184,0.006047,-0.007454,0.043796,-0.00803,0.012133,-0.063573,0.027821,-0.517374,0.042576,-0.018962,-263.929766,1.727092,62.227148
3.8382,0.005779,-0.007948,0.043237,-0.007929,0.011979,-0.062771,0.028376,-0.516965,0.043796,0.055937,-263.929767,1.727092,62.22715
3.8589,0.00621,-0.008204,0.042737,-0.007787,0.011765,-0.061648,0.028339,-0.516998,0.043759,0.055937,-263.929767,1.727092,62.22715
3.8784,0.006124,-0.007935,0.042931,-0.007604,0.011488,-0.060195,0.027999,-0.517738,0.042737,0.130939,-263.929768,1.727092,62.227152
3.8983,0.006247,-0.007858,0.044281,-0.007381,0.011152,-0.058433,0.028007,-0.517584,0.042847,0.130939,-263.929768,1.727092,62.227152
3.9185,0.006014,-0.007679,0.042594,-0.007117,0.010752,-0.05634,0.028007,-0.517584,0.042847,0.130939,-263.929768,1.727092,62.227152
3.9383,0.005866,-0.007906,0.0429,-0.00681,0.010289,-0.053913,0.02773,-0.517217,0.042593,0.205931,-263.929769,1.727092,62.227154
3.9585,0.006509,-0.008033,0.04251,-0.00647,0.009775,-0.051218,0.027731,-0.517232,0.042614,0.205931,-263.929769,1.727092,62.227154
3.9783,0.00589,-0.008024,0.045776,-0.006084,0.009191,-0.048162,0.028183,-0.517572,0.04251,0.281035,-263.92977,1.727092,62.227156
3.9987,0.006271,-0.008135,0.042699,-0.005656,0.008545,-0.044776,0.028778,-0.517525,0.04437,0.281035,-263.92977,1.727092,62.227156
4.0183,0.006011,-0.007859,0.043086,-0.00519,0.007842,-0.041091,0.028778,-0.517525,0.04437,0.281035,-263.92977,1.727092,62.227156
4.0383,0.00584,-0.008104,0.045068,-0.004681,0.007072,-0.037059,0.027978,-0.517385,0.043085,0.355938,-263.929771,1.727092,62.227157
4.0582,0.006371,-0.008103,0.041978,-0.004138,0.006252,-0.032759,0.02804,-0.5174,0.043233,0.355938,-263.929771,1.727092,62.227157
4.0783,0.005897,-0.007881,0.042547,-0.003539,0.005347,-0.028018,0.027773,-0.517654,0.041978,0.431157,-263.929772,1.727092,62.227159
4.0983,0.006021,-0.008145,0.043144,-0.002918,0.004408,-0.023099,0.027668,-0.51752,0.042303,0.431157,-263.929772,1.727092,62.227159
4.1183,0.006336,-0.007891,0.042362,-0.002253,0.003403,-0.017832,0.027668,-0.51752,0.042303,0.431157,-263.929772,1.727092,62.227159
4.1385,0.006096,-0.008053,0.041975,-0.001542,0.00233,-0.012211,0.027934,-0.517433,0.042362,0.50606,-263.929772,1.727092,62.22716
4.1584,0.005992,-0.007901,0.042121,-0.000792,0.001196,-0.006268,0.027903,-0.517445,0.042335,0.50606,-263.929772,1.727092,62.22716
4.1792,0.005857,-0.007909,0.043835,0.0,0.0,0.0,0.027467,-0.517448,0.042121,0.581053,-263.929773,1.727092,62.22716
4.1984,0.005856,-0.007783,0.041756,0.0,0.0,0.0,0.027886,-0.517432,0.043091,0.581053,-263.929773,1.727092,62.22716
4.2187,0.005897,-0.007789,0.043149,0.0,0.0,0.0,0.027886,-0.517432,0.043091,0.581053,-263.929773,1.727092,62.22716
4.2383,0.005862,-0.007569,0.042542,0.0,0.0,0.0,0.027896,-0.517314,0.043148,0.655934,-263.929773,1.727092,62.227161
4.2588,0.006493,-0.008155,0.042785,0.0,0.0,0.0,0.027878,-0.517303,0.043116,0.655934,-263.929773,1.727092,62.227161
4.2782,0.005706,-0.008043,0.042338,0.0,0.0,0.0,0.028307,-0.517688,0.042785,0.655934,-263.929773,1.727092,62.227161
4.2983,0.006018,-0.007724,0.043596,0.0,0.0,0.0,0.027729,-0.51763,0.042531,0.655934,-263.929773,1.727092,62.227161
4.3184,0.006144,-0.007804,0.043493,0.0,0.0,0.0,0.027729,-0.51763,0.042531,0.655934,-263.929773,1.727092,62.227161
4.3382,0.005866,-0.00776,0.042604,0.0,0.0,0.0,0.028318,-0.517321,0.043493,0.655934,-263.929773,1.727092,62.227161
4.3589,0.0062,-0.00789,0.04351,0.0,0.0,0.0,0.02827,-0.51732,0.043434,0.655934,-263.929773,1.727092,62.227161
4.3787,0.006039,-0.007771,0.042579,0.0,0.0,0.0,0.028383,-0.517407,0.04351,0.655934,-263.929773,1.727092,62.227161
4.3985,0.005889,-0.007902,0.044251,-5.8e-05,8.2e-05,0.0,0.028022,-0.517351,0.042982,0.655934,-263.929773,1.727092,62.227161
4.4184,0.005894,-0.008029,0.042118,-5.8e-05,8.2e-05,0.0,0.028022,-0.517351,0.042982,0.655934,-263.929773,1.727092,62.227161
4.4383,0.006219,-0.00781,0.042242,-5.8e-05,8.2e-05,0.0,0.027368,-0.517577,0.042118,0.655934,-263.929773,1.727092,62.227161
4.4589,0.00608,-0.007774,0.044153,-5.8e-05,8.2e-05,0.0,0.027394,-0.517562,0.042127,0.655934,-263.929773,1.727092,62.227161
4.4783,0.005637,-0.008179,0.045143,-5.8e-05,8.2e-05,0.0,0.028591,-0.517277,0.044153,0.580938,-263.929773,1.652096,62.227161
4.4984,0.006287,-0.007547,0.043927,-5.8e-05,8.2e-05,0.0,0.028626,-0.517492,0.04471,0.580938,-263.929773,1.652096,62.227161
4.5184,0.005981,-0.00791,0.043016,-5.8e-05,8.2e-05,0.0,0.028626,-0.517492,0.04471,0.580938,-263.929773,1.652096,62.227161
4.5383,0.005817,-0.007409,0.043982,-5.8e-05,8.2e-05,0.0,0.027912,-0.517438,0.043016,0.50589,-263.929773,1.577048,62.227161
4.5588,0.005796,-0.008088,0.042821,-5.8e-05,8.2e-05,0.0,0.027935,-0.517402,0.043083,0.50589,-263.929773,1.577048,62.227161
4.5786,0.005842,-0.007782,0.042622,-5.8e-05,8.2e-05,0.0,0.027628,-0.51762,0.042821,0.430946,-263.929773,1.502104,62.227161
4.5985,0.006135,-0.007655,0.043505,-5.8e-05,8.2e-05,0.0,0.027597,-0.51745,0.042708,0.430946,-263.929773,1.502104,62.227161
4.6185,0.006061,-0.007894,0.043993,-0.000832,0.00117,-0.00621,0.027597,-0.51745,0.042708,0.430946,-263.929773,1.502104,62.227161
4.6384,0.005552,-0.008027,0.042269,-0.001624,0.002284,-0.012123,0.02849,-0.517401,0.043993,0.355948,-263.929773,1.427106,62.227161
4.6591,0.00582,-0.007685,0.044395,-0.002371,0.003335,-0.017707,0.028399,-0.517412,0.04388,0.355948,-263.929773,1.427106,62.227161
4.6784,0.00608,-0.007713,0.042155,-0.003078,0.004329,-0.022983,0.028455,-0.517183,0.044395,0.430959,-263.929773,1.502117,62.227161
4.6985,0.006085,-0.008243,0.043917,-0.003742,0.005263,-0.027937,0.027954,-0.517227,0.043123,0.430959,-263.929773,1.502117,62.227161
4.7185,0.005661,-0.008192,0.044271,-0.00436,0.006133,-0.032556,0.027954,-0.517227,0.043123,0.430959,-263.929773,1.502117,62.227161
4.7385,0.006311,-0.007833,0.04366,-0.00494,0.006948,-0.036885,0.028231,-0.517693,0.044271,0.505957,-263.929773,1.577115,62.227161
4.7591,0.005932,-0.007749,0.042928,-0.005473,0.007697,-0.040862,0.028253,-0.51767,0.044231,0.505957,-263.929773,1.577115,62.227161
4.7782,0.006493,-0.007866,0.043659,-0.005965,0.00839,-0.044538,0.027819,-0.517279,0.042928,0.580957,-263.929774,1.652116,62.227162
4.7982,0.006178,-0.00797,0.044615,-0.006415,0.009022,-0.047895,0.028342,-0.517336,0.043338,0.580957,-263.929774,1.652116,62.227162
4.8183,0.005962,-0.008148,0.043928,-0.00682,0.009593,-0.050925,0.028342,-0.517336,0.043338,0.580957,-263.929774,1.652116,62.227162
4.8383,0.00631,-0.007884,0.044397,-0.007185,0.010105,-0.053645,0.028358,-0.517656,0.043927,0.655952,-263.929776,1.727111,62.227167
4.8583,0.005919,-0.007919,0.043977,-0.007505,0.010556,-0.056039,0.028399,-0.517637,0.04396,0.655952,-263.929776,1.727111,62.227167
4.8784,0.005842,-0.008112,0.0452,-0.007784,0.010948,-0.058121,0.028339,-0.517425,0.043973,0.730958,-263.929793,1.736846,62.227198
4.8989,0.006134,-0.008175,0.042986,-0.008018,0.011278,-0.059872,0.02865,-0.517519,0.044669,0.730958,-263.929793,1.736846,62.227198
4.9186,0.005489,-0.007526,0.042677,-0.008212,0.01155,-0.061316,0.02865,-0.517519,0.044669,0.730958,-263.929793,1.736846,62.227198
4.9388,0.006079,-0.007853,0.043576,-0.008361,0.01176,-0.06243,0.027242,-0.517056,0.042655,0.805957,-263.929878,1.736846,62.227353
4.9582,0.006137,-0.008011,0.042474,-0.008468,0.01191,-0.063229,0.02732,-0.517079,0.042723,0.805957,-263.929878,1.736846,62.227353
4.9785,0.005704,-0.007741,0.043048,-0.008533,0.012001,-0.06371,0.027776,-0.517535,0.042406,0.881068,-263.930214,1.736846,62.227968
4.9984,0.006455,-0.007868,0.042528,-0.008554,0.012031,-0.063869,0.027703,-0.51738,0.042765,0.881068,-263.930214,1.736846,62.227968
5.0183,0.00595,-0.007821,0.043402,-0.008532,0.012001,-0.063709,0.027703,-0.51738,0.042765,0.881068,-263.930214,1.736846,62.227968
5.0384,0.006095,-0.007499,0.044204,-0.008468,0.011911,-0.063231,0.028021,-0.517282,0.043139,0.956058,-263.931227,1.736846,62.229819
5.0585,0.00621,-0.007627,0.043063,-0.008362,0.011761,-0.062435,0.028062,-0.517261,0.043205,0.956058,-263.931227,1.736846,62.229819
5.0785,0.006639,-0.00785,0.041102,-0.008212,0.01155,-0.061318,0.028066,-0.517052,0.04256,1.030947,-263.933652,1.736846,62.234176
5.0987,0.006012,-0.007579,0.041971,-0.00802,0.01128,-0.059882,0.027783,-0.51725,0.041659,1.030947,-263.933652,1.736846,62.234176
5.1183,0.006145,-0.007244,0.042067,-0.007785,0.01095,-0.058127,0.027783,-0.51725,0.041659,1.030947,-263.933652,1.736846,62.234176
5.1384,0.006674,-0.007683,0.040762,-0.007507,0.010558,-0.05605,0.027392,-0.516642,0.040986,1.106089,-263.938256,1.736846,62.24102
5.159,0.006851,-0.007366,0.041028,-0.007185,0.010106,-0.053647,0.027392,-0.516681,0.040942,1.106089,-263.938256,1.736846,62.24102
5.1786,0.006965,-0.007534,0.038126,-0.006822,0.009596,-0.050939,0.027563,-0.516809,0.039793,1.180944,-263.945165,1.736846,62.25037
5.1984,0.006992,-0.007406,0.039101,-0.006417,0.009025,-0.047913,0.026879,-0.516994,0.038689,1.180944,-263.945165,1.736846,62.25037
5.2184,0.007619,-0.007274,0.040647,-0.005967,0.008393,-0.044555,0.026879,-0.516994,0.038689,1.180944,-263.945165,1.736846,62.25037
5.2387,0.007998,-0.006924,0.037195,-0.005475,0.007701,-0.040883,0.028055,-0.516645,0.038674,1.255949,-263.953696,1.736846,62.262237
5.2593,0.008344,-0.006923,0.039097,-0.004941,0.00695,-0.036895,0.027973,-0.516635,0.038522,1.255949,-263.953696,1.736846,62.262237
5.2783,0.00879,-0.006598,0.034154,-0.004364,0.006137,-0.032582,0.028037,-0.516222,0.037383,1.263745,-263.961584,1.736846,62.276588
5.2987,0.008878,-0.00692,0.036379,-0.003744,0.005266,-0.027957,0.02696,-0.516228,0.035323,1.263745,-263.961584,1.736846,62.276588
5.3183,0.008983,-0.006433,0.03519,-0.003082,0.004334,-0.02301,0.02696,-0.516228,0.035323,1.263745,-263.961584,1.736846,62.276588
5.3391,0.00955,-0.006235,0.033832,-0.002371,0.003335,-0.017705,0.026675,-0.515788,0.033399,1.263745,-263.968142,1.736846,62.28858
5.3586,0.009364,-0.006258,0.033183,-0.001618,0.002276,-0.012084,0.026678,-0.515791,0.03338,1.263745,-263.968142,1.736846,62.28858
5.3784,0.009754,-0.006134,0.033002,-0.000835,0.001175,-0.006235,0.02616,-0.515814,0.032296,1.263745,-263.972209,1.736846,62.296017
5.3985,0.009869,-0.006095,0.030807,-3e-06,4e-06,-2e-05,0.026382,-0.515817,0.032582,1.263745,-263.972209,1.736846,62.296017
5.4185,0.010054,-0.006355,0.033679,0.0,0.0,0.0,0.026382,-0.515817,0.032582,1.263745,-263.972209,1.736846,62.296017
5.4391,0.009718,-0.005678,0.031801,0.0,0.0,0.0,0.027145,-0.515958,0.033093,1.263745,-263.974352,1.736846,62.299936
5.4585,0.010038,-0.005891,0.030039,0.0,0.0,0.0,0.027053,-0.515915,0.03298,1.263745,-263.974352,1.736846,62.299936
5.4785,0.009999,-0.006037,0.031719,0.0,0.0,0.0,0.025356,-0.515661,0.030039,1.263745,-263.974352,1.736846,62.299936
5.4983,0.010239,-0.005907,0.03188,0.0,0.0,0.0,0.025821,-0.515729,0.030996,1.263745,-263.974352,1.736846,62.299936
5.5188,0.010078,-0.005859,0.03168,0.0,0.0,0.0,0.025821,-0.515729,0.030996,1.263745,-263.974352,1.736846,62.299936
5.5387,0.01001,-0.005974,0.030757,0.0,0.0,0.0,0.026233,-0.515603,0.03168,1.263745,-263.974352,1.736846,62.299936
5.5586,0.009793,-0.00602,0.03199,0.0,0.0,0.0,0.026189,-0.515613,0.031605,1.263745,-263.974352,1.736846,62.299936
5.5784,0.010091,-0.006197,0.030971,0.0,0.0,0.0,0.026105,-0.515759,0.03199,1.263745,-263.974352,1.736846,62.299936
5.5983,0.010058,-0.006096,0.031494,0.0,0.0,0.0,0.025979,-0.51587,0.031408,1.263745,-263.974352,1.736846,62.299936
5.6183,0.010172,-0.00605,0.032123,0.0,0.0,0.0,0.025979,-0.51587,0.031408,1.263745,-263.974352,1.736846,62.299936
5.6385,0.010284,-0.006194,0.030979,-8.4e-05,5.4e-05,0.0,0.026552,-0.515787,0.032123,1.263745,-263.974352,1.736846,62.299936
5.6585,0.010098,-0.005927,0.032028,-8.4e-05,5.4e-05,0.0,0.026518,-0.515799,0.032041,1.263745,-263.974352,1.736846,62.299936
5.6786,0.01027,-0.005889,0.032867,-8.4e-05,5.4e-05,0.0,0.026429,-0.515665,0.032028,1.263745,-263.974352,1.736846,62.299936
5.6983,0.010182,-0.005928,0.033375,-8.4e-05,5.4e-05,0.0,0.026772,-0.515636,0.032507,1.263745,-263.974352,1.736846,62.299936
5.7184,0.010031,-0.005969,0.032603,-8.4e-05,5.4e-05,0.0,0.026772,-0.515636,0.032507,1.263745,-263.974352,1.736846,62.299936
5.7387,0.010037,-0.005785,0.032124,-8.4e-05,5.4e-05,0.0,0.026656,-0.515698,0.032603,1.188823,-263.974352,1.661924,62.299936
5.7583,0.010269,-0.005605,0.03113,-8.4e-05,5.4e-05,0.0,0.026639,-0.515686,0.03257,1.188823,-263.974352,1.661924,62.299936
5.7785,0.010276,-0.005832,0.032339,-8.4e-05,5.4e-05,0.0,0.026143,-0.515358,0.03113,1.113883,-263.974352,1.586984,62.299936
5.7984,0.010177,-0.005847,0.031809,-8.4e-05,5.4e-05,0.0,0.026499,-0.515477,0.03182,1.113883,-263.974352,1.586984,62.299936
5.8186,0.010145,-0.006327,0.032625,-8.4e-05,5.4e-05,0.0,0.026499,-0.515477,0.03182,1.113883,-263.974352,1.586984,62.299936
5.8389,0.009678,-0.005745,0.031971,-1e-06,1e-06,-4e-06,0.026781,-0.516056,0.032625,1.038843,-263.974352,1.511944,62.299936
5.8591,0.010259,-0.00597,0.031451,-0.001458,0.000932,-0.004697,0.026729,-0.516019,0.032582,1.038843,-263.974352,1.511944,62.299936
5.8788,0.010151,-0.006184,0.03103,-0.002843,0.001817,-0.009158,0.026296,-0.515718,0.031451,0.963894,-263.974352,1.436995,62.299936
5.8984,0.010214,-0.005759,0.031314,-0.004151,0.002653,-0.013372,0.026116,-0.515841,0.031216,0.963894,-263.974352,1.436995,62.299936
5.9183,0.01019,-0.005742,0.03129,-0.005384,0.003441,-0.017344,0.026116,-0.515841,0.031216,0.963894,-263.974352,1.436995,62.299936
5.9383,0.010231,-0.006046,0.032578,-0.006545,0.004183,-0.021083,0.026146,-0.515492,0.03129,0.925447,-263.974352,1.361994,62.299935
5.9586,0.010261,-0.005762,0.031549,-0.007629,0.004876,-0.024576,0.026197,-0.515513,0.031385,0.925447,-263.974352,1.361994,62.299935
5.9782,0.010223,-0.005812,0.032177,-0.00864,0.005522,-0.027833,0.026348,-0.515509,0.031549,0.925447,-263.974353,1.286878,62.299935
5.9984,0.009871,-0.005707,0.032897,-0.009578,0.006122,-0.030852,0.02651,-0.515531,0.03191,0.925447,-263.974353,1.286878,62.299935
6.0185,0.010198,-0.006064,0.032219,-0.010438,0.006672,-0.033624,0.02651,-0.515531,0.03191,0.925447,-263.974353,1.286878,62.299935
6.0383,0.010139,-0.005738,0.03145,-0.01122,0.007171,-0.036143,0.026627,-0.5158,0.032219,0.925447,-263.974353,1.211831,62.299934
6.0584,0.010169,-0.005808,0.032543,-0.011931,0.007626,-0.038433,0.026599,-0.51578,0.03217,0.925447,-263.974353,1.211831,62.299934
6.0782,0.010097,-0.005819,0.031864,-0.012568,0.008033,-0.040486,0.026763,-0.515538,0.032543,0.925447,-263.974354,1.136986,62.299933
6.0983,0.010331,-0.006289,0.031606,-0.013127,0.00839,-0.042285,0.026526,-0.51555,0.032158,0.925447,-263.974354,1.136986,62.299933
6.1185,0.0099,-0.006032,0.03174,-0.013612,0.0087,-0.043849,0.026526,-0.51555,0.032158,0.925447,-263.974354,1.136986,62.299933
6.1384,0.010457,-0.005777,0.032139,-0.014025,0.008964,-0.045178,0.026084,-0.515775,0.03174,0.925447,-263.974355,1.061999,62.299931
6.1587,0.010096,-0.005994,0.032954,-0.01436,0.009178,-0.046258,0.026135,-0.515758,0.031767,0.925447,-263.974355,1.061999,62.299931
6.1784,0.010367,-0.005885,0.030498,-0.014622,0.009346,-0.047101,0.026899,-0.515717,0.032954,0.925447,-263.974356,0.987001,62.29993
6.1985,0.010016,-0.006334,0.031588,-0.014809,0.009465,-0.047704,0.026345,-0.515678,0.031566,0.925447,-263.974356,0.987001,62.29993
6.2186,0.010196,-0.005922,0.032476,-0.014921,0.009537,-0.048065,0.026345,-0.515678,0.031566,0.925447,-263.974356,0.987001,62.29993
6.2388,0.010275,-0.006186,0.031855,-0.014959,0.009561,-0.048185,0.026755,-0.515653,0.032476,0.925447,-263.974357,0.911804,62.299928
6.2589,0.010256,-0.005888,0.032156,-0.014921,0.009537,-0.048064,0.026738,-0.515673,0.032431,0.925447,-263.974357,0.911804,62.299928
6.2784,0.009924,-0.006039,0.031389,-0.014808,0.009465,-0.047701,0.026652,-0.515624,0.032156,0.925447,-263.974358,0.836905,62.299927
6.2983,0.010206,-0.005998,0.032138,-0.014622,0.009346,-0.047102,0.026242,-0.515717,0.03172,0.925447,-263.974358,0.836905,62.299927
6.3183,0.009965,-0.006009,0.030527,-0.01436,0.009178,-0.046258,0.026242,-0.515717,0.03172,0.925447,-263.974358,0.836905,62.299927
6.3388,0.010089,-0.00574,0.032492,-0.014022,0.008962,-0.045169,0.025531,-0.515771,0.030527,0.925447,-263.974359,0.761996,62.299925
6.3593,0.010267,-0.005658,0.032282,-0.013613,0.008701,-0.04385,0.02561,-0.51575,0.030665,0.925447,-263.974359,0.761996,62.299925
6.3789,0.009968,-0.006062,0.03051,-0.013124,0.008388,-0.042275,0.026728,-0.515392,0.032282,0.925447,-263.974359,0.687,62.299923
6.3985,0.009859,-0.006391,0.032812,-0.012563,0.00803,-0.040469,0.026048,-0.515637,0.03128,0.925447,-263.974359,0.687,62.299923
6.4189,0.010215,-0.005859,0.031827,-0.01193,0.007625,-0.038428,0.026048,-0.515637,0.03128,0.925447,-263.974359,0.687,62.299923
6.4382,0.010009,-0.006029,0.032447,-0.011219,0.00717,-0.036138,0.026444,-0.515601,0.031827,0.925447,-263.97436,0.611991,62.299922
6.4583,0.009893,-0.005752,0.030538,-0.010431,0.006667,-0.0336,0.026452,-0.515612,0.031871,0.925447,-263.97436,0.611991,62.299922
6.4784,0.00989,-0.005773,0.032357,-0.009572,0.006118,-0.030835,0.025465,-0.515514,0.030538,0.925447,-263.974361,0.536993,62.299921
6.4988,0.010006,-0.00604,0.031569,-0.008639,0.005522,-0.027829,0.025997,-0.515509,0.031587,0.925447,-263.974361,0.536993,62.299921
6.5188,0.010142,-0.005878,0.030522,-0.007626,0.004874,-0.024564,0.025997,-0.515509,0.031587,0.925447,-263.974361,0.536993,62.299921
6.5383,0.009741,-0.006033,0.032766,-0.006543,0.004182,-0.021078,0.025705,-0.51564,0.030522,0.925447,-263.974362,0.461741,62.299919
6.5588,0.009563,-0.005679,0.031375,-0.005384,0.003441,-0.017343,0.025753,-0.515648,0.030665,0.925447,-263.974362,0.461741,62.299919
6.5785,0.010238,-0.005869,0.032841,-0.004149,0.002652,-0.013366,0.025561,-0.515429,0.031375,0.925447,-263.974362,0.387006,62.299919
6.5983,0.009942,-0.005719,0.031618,-0.002842,0.001816,-0.009155,0.026371,-0.515523,0.032209,0.925447,-263.974362,0.387006,62.299919
6.6187,0.010205,-0.005986,0.03053,-0.001446,0.000924,-0.004656,0.026371,-0.515523,0.032209,0.925447,-263.974362,0.387006,62.299919
6.6387,0.010105,-0.005834,0.031965,0.0,0.0,0.0,0.025773,-0.515749,0.03053,0.925447,-263.974363,0.312002,62.299918
6.6584,0.010012,-0.006118,0.029955,0.0,0.0,0.0,0.025813,-0.515738,0.03062,0.925447,-263.974363,0.312002,62.299918
6.6783,0.010212,-0.006036,0.033565,0.0,0.0,0.0,0.025287,-0.51589,0.029955,0.925447,-263.974363,0.23697,62.299918
6.6982,0.009801,-0.005869,0.031546,0.0,0.0,0.0,0.026443,-0.51581,0.032002,0.925447,-263.974363,0.23697,62.299918
6.7186,0.010202,-0.005759,0.031499,0.0,0.0,0.0,0.026443,-0.51581,0.032002,0.925447,-263.974363,0.23697,62.299918
6.7386,0.010144,-0.005731,0.03202,0.0,0.0,0.0,0.026264,-0.515506,0.031499,0.925447,-263.974363,0.23697,62.299918
6.7589,0.010305,-0.005766,0.031494,0.0,0.0,0.0,0.026277,-0.515503,0.031532,0.925447,-263.974363,0.23697,62.299918
6.7786,0.010325,-0.006044,0.032723,0.0,0.0,0.0,0.026364,-0.515513,0.031494,0.925447,-263.974363,0.23697,62.299918
6.7985,0.010124,-0.006114,0.030117,0.0,0.0,0.0,0.026732,-0.51566,0.032194,0.925447,-263.974363,0.23697,62.299918
6.8185,0.010352,-0.005853,0.030202,0.0,0.0,0.0,0.026732,-0.51566,0.032194,0.925447,-263.974363,0.23697,62.299918
6.8385,0.010258,-0.005857,0.032127,0.0,0.0,0.0,0.025752,-0.51562,0.030202,0.925447,-263.974363,0.23697,62.299918
6.8583,0.010232,-0.006346,0.033434,-8.5e-05,5.2e-05,0.0,0.025818,-0.515618,0.030343,0.925447,-263.974363,0.23697,62.299918
6.8785,0.010287,-0.006073,0.031099,-8.5e-05,5.2e-05,0.0,0.02728,-0.516061,0.033434,0.925447,-263.974363,0.23697,62.299918
6.8983,0.01003,-0.005921,0.031976,-8.5e-05,5.2e-05,0.0,0.02663,-0.515926,0.032096,0.925447,-263.974363,0.23697,62.299918
6.9187,0.010179,-0.006213,0.031361,-8.5e-05,5.2e-05,0.0,0.02663,-0.515926,0.032096,0.925447,-263.974363,0.23697,62.299918
6.9388,0.009986,-0.005866,0.032491,-8.5e-05,5.2e-05,0.0,0.02617,-0.515962,0.031361,0.85041,-263.974363,0.161933,62.299918
6.9585,0.009685,-0.006108,0.032235,-8.5e-05,5.2e-05,0.0,0.026196,-0.515938,0.031436,0.85041,-263.974363,0.161933,62.299918
6.9783,0.010032,-0.00628,0.032408,-8.5e-05,5.2e-05,0.0,0.026122,-0.515843,0.032235,0.775541,-263.974363,0.087063,62.299918
6.9985,0.010058,-0.005912,0.03106,-8.5e-05,5.2e-05,0.0,0.026369,-0.515939,0.032333,0.775541,-263.974363,0.087063,62.299918
7.0184,0.010342,-0.005756,0.03231,-8.5e-05,5.2e-05,0.0,0.026369,-0.515939,0.032333,0.775541,-263.974363,0.087063,62.299918
7.0383,0.010424,-0.005987,0.030577,-8.5e-05,5.2e-05,0.0,0.026817,-0.515489,0.03231,0.70054,-263.974363,0.012062,62.299918
7.0586,0.01009,-0.005426,0.033017,-0.0,0.0,-0.0,0.026764,-0.515506,0.032196,0.70054,-263.974363,0.012062,62.299918
7.0784,0.010027,-0.005851,0.032027,-0.001474,0.000905,-0.004704,0.026926,-0.515148,0.033017,0.625543,-263.974363,-0.062934,62.299918
7.0984,0.010005,-0.006135,0.03062,-0.002866,0.001761,-0.009149,0.026603,-0.515399,0.032454,0.625543,-263.974363,-0.062934,62.299918
7.1185,0.010356,-0.005922,0.031723,-0.004187,0.002573,-0.013366,0.026603,-0.515399,0.032454,0.625543,-263.974363,-0.062934,62.299918
7.1383,0.009898,-0.005888,0.031346,-0.005433,0.003338,-0.017343,0.026532,-0.515665,0.031723,0.700543,-263.974363,-0.137933,62.299918
7.1587,0.009819,-0.005756,0.033032,-0.006604,0.004057,-0.02108,0.02649,-0.515663,0.031699,0.700543,-263.974363,-0.137933,62.299918
7.1785,0.010083,-0.005816,0.030863,-0.007719,0.004743,-0.02464,0.026663,-0.515478,0.033032,0.775542,-263.974363,-0.212932,62.299918
7.1989,0.010242,-0.005979,0.031319,-0.008723,0.005359,-0.027844,0.026183,-0.515532,0.031798,0.775542,-263.974363,-0.212932,62.299918
7.2184,0.009789,-0.005664,0.03354,-0.009663,0.005937,-0.030846,0.026183,-0.515532,0.031798,0.775542,-263.974363,-0.212932,62.299918
7.2383,0.010108,-0.00602,0.030444,-0.010528,0.006469,-0.033608,0.026891,-0.515377,0.03354,0.850543,-263.974363,-0.287933,62.299917
7.2583,0.010039,-0.006013,0.032245,-0.011322,0.006956,-0.036142,0.026803,-0.515405,0.033325,0.850543,-263.974363,-0.287933,62.299917
7.2783,0.010498,-0.005758,0.031859,-0.01204,0.007397,-0.038433,0.02648,-0.515748,0.032244,0.925548,-263.974364,-0.362938,62.299916
7.2983,0.009782,-0.005718,0.031594,-0.01268,0.007791,-0.040477,0.02663,-0.515606,0.032025,0.925548,-263.974364,-0.362938,62.299916
7.3183,0.010058,-0.006243,0.033964,-0.013247,0.008139,-0.042286,0.02663,-0.515606,0.032025,0.925548,-263.974364,-0.362938,62.299916
7.3383,0.009995,-0.005595,0.030705,-0.013738,0.008441,-0.043855,0.027376,-0.515949,0.033964,0.927962,-263.974365,-0.437934,62.299915
7.3583,0.010183,-0.005952,0.031462,-0.014153,0.008696,-0.045179,0.027254,-0.515907,0.033734,0.927962,-263.974365,-0.437934,62.299915
7.3786,0.010364,-0.005854,0.03216,-0.014493,0.008904,-0.046264,0.026226,-0.515699,0.031462,0.927962,-263.974366,-0.512934,62.299913
7.3982,0.010362,-0.005656,0.031289,-0.014758,0.009067,-0.047111,0.026531,-0.515637,0.031859,0.927962,-263.974366,-0.512934,62.299913
7.4186,0.010201,-0.005887,0.032308,-0.014946,0.009183,-0.047709,0.026531,-0.515637,0.031859,0.927962,-263.974366,-0.512934,62.299913
7.4386,0.010357,-0.005976,0.032185,-0.015061,0.009253,-0.048075,0.026675,-0.51562,0.032307,0.927962,-263.974369,-0.587946,62.299907
7.4586,0.010582,-0.00603,0.032579,-0.015097,0.009275,-0.048191,0.026682,-0.515627,0.032299,0.927962,-263.974369,-0.587946,62.299907
7.4784,0.00992,-0.005808,0.032192,-0.015059,0.009252,-0.048071,0.027192,-0.515759,0.032576,0.927962,-263.974387,-0.662935,62.299878
7.4982,0.010275,-0.005759,0.031722,-0.014946,0.009183,-0.04771,0.026702,-0.515636,0.032356,0.927962,-263.974387,-0.662935,62.299878
7.5184,0.010015,-0.005819,0.031129,-0.014758,0.009067,-0.047108,0.026702,-0.515636,0.032356,0.927962,-263.974387,-0.662935,62.299878
7.5385,0.010326,-0.005738,0.031942,-0.014493,0.008905,-0.046264,0.025879,-0.515571,0.031113,0.927962,-263.974468,-0.738033,62.299745
7.5588,0.010107,-0.005763,0.031433,-0.014152,0.008695,-0.045174,0.02593,-0.515564,0.031171,0.927962,-263.974468,-0.738033,62.299745
7.5788,0.010327,-0.005819,0.031672,-0.013737,0.00844,-0.043851,0.026111,-0.515506,0.031387,0.927962,-263.974758,-0.812921,62.299266
7.5986,0.010158,-0.005784,0.031252,-0.013247,0.008139,-0.042287,0.026317,-0.515538,0.031544,0.927962,-263.974758,-0.812921,62.299266
7.6187,0.010073,-0.0062,0.031612,-0.012682,0.007792,-0.040481,0.026317,-0.515538,0.031544,0.927962,-263.974758,-0.812921,62.299266
7.6382,0.010107,-0.00609,0.031859,-0.01204,0.007397,-0.038432,0.02611,-0.515924,0.031443,0.927962,-263.97558,-0.887938,62.29791
7.6586,0.010386,-0.006066,0.031512,-0.011323,0.006957,-0.036144,0.026127,-0.515915,0.031471,0.927962,-263.97558,-0.887938,62.29791
7.6783,0.009952,-0.005907,0.032552,-0.010531,0.00647,-0.033616,0.026322,-0.515769,0.031211,0.927962,-263.977329,-0.963247,62.295024
7.6987,0.010217,-0.006011,0.031966,-0.009663,0.005937,-0.030845,0.026434,-0.51569,0.031928,0.927962,-263.977329,-0.963247,62.295024
7.7188,0.010328,-0.005851,0.032126,-0.00872,0.005357,-0.027834,0.026434,-0.51569,0.031928,0.927962,-263.977329,-0.963247,62.295024
7.7384,0.010169,-0.005692,0.028682,-0.0077,0.004731,-0.02458,0.026436,-0.51548,0.031445,0.927962,-263.980405,-1.038039,62.28995
7.7583,0.010137,-0.00547,0.029635,-0.006606,0.004059,-0.021088,0.026323,-0.515478,0.031249,0.927962,-263.980405,-1.038039,62.28995
7.7787,0.01011,-0.005504,0.030094,-0.005433,0.003338,-0.017343,0.024999,-0.515128,0.028943,0.927962,-263.984243,-1.112925,62.283618
7.799,0.010516,-0.005252,0.031279,-0.004184,0.002571,-0.013357,0.025227,-0.515195,0.029509,0.927962,-263.984243,-1.112925,62.283618
7.8184,0.010197,-0.005689,0.030581,-0.00287,0.001763,-0.00916,0.025227,-0.515195,0.029509,0.927962,-263.984243,-1.112925,62.283618
7.8385,0.010388,-0.005485,0.029339,-0.00147,0.000903,-0.004692,0.025497,-0.515286,0.029673,0.927962,-263.988164,-1.187937,62.277149
7.8588,0.010433,-0.005402,0.027178,-1e-06,1e-06,-3e-06,0.025478,-0.51528,0.029624,0.927962,-263.988164,-1.187937,62.277149
7.8788,0.010555,-0.005196,0.028355,0.0,0.0,0.0,0.02418,-0.515148,0.026825,0.927962,-263.990074,-1.198923,62.273997
7.8983,0.010738,-0.00509,0.028381,0.0,0.0,0.0,0.024643,-0.51505,0.027655,0.927962,-263.990074,-1.198923,62.273997
7.919,0.010284,-0.005304,0.027362,0.0,0.0,0.0,0.024643,-0.51505,0.027655,0.927962,-263.990074,-1.198923,62.273997
7.9386,0.010564,-0.005147,0.027474,0.0,0.0,0.0,0.024236,-0.515113,0.027361,0.927962,-263.990075,-1.198923,62.273996
7.9583,0.010437,-0.005437,0.026667,0.0,0.0,0.0,0.02426,-0.515102,0.027369,0.927962,-263.990075,-1.198923,62.273996
7.9788,0.010854,-0.005227,0.02625,0.0,0.0,0.0,0.024035,-0.515256,0.026667,0.927962,-263.990075,-1.198923,62.273996
7.9982,0.010911,-0.005261,0.028397,0.0,0.0,0.0,0.024153,-0.515139,0.026428,0.927962,-263.990075,-1.198923,62.273996
8.0184,0.010513,-0.005276,0.028894,0.0,0.0,0.0,0.024153,-0.515139,0.026428,0.927962,-263.990075,-1.198923,62.273996
8.0388,0.010409,-0.005348,0.027417,0.0,0.0,0.0,0.025246,-0.515063,0.028894,0.927962,-263.990075,-1.198923,62.273996
8.0589,0.01074,-0.00493,0.028139,0.0,0.0,0.0,0.025193,-0.515069,0.028802,0.927962,-263.990075,-1.198923,62.273996
8.0785,0.010793,-0.004965,0.029339,-9e-05,4.4e-05,0.0,0.025088,-0.514728,0.028139,0.927962,-263.990075,-1.198923,62.273996
8.0998,0.010288,-0.005119,0.028321,-9e-05,4.4e-05,0.0,0.025467,-0.514738,0.028822,0.927962,-263.990075,-1.198923,62.273996
8.1184,0.010223,-0.005273,0.026231,-9e-05,4.4e-05,0.0,0.025467,-0.514738,0.028822,0.927962,-263.990075,-1.198923,62.273996
8.1385,0.010615,-0.005268,0.029296,-9e-05,4.4e-05,0.0,0.023599,-0.515098,0.026231,0.927962,-263.990075,-1.198923,62.273996
8.1591,0.010546,-0.005268,0.027781,-9e-05,4.4e-05,0.0,0.02373,-0.515094,0.026436,0.927962,-263.990075,-1.198923,62.273996
8.1785,0.010324,-0.004869,0.027015,-9e-05,4.4e-05,0.0,0.024712,-0.515071,0.027781,0.853004,-263.990075,-1.123965,62.273996
8.1988,0.010813,-0.005304,0.028279,-9e-05,4.4e-05,0.0,0.024368,-0.514853,0.027351,0.853004,-263.990075,-1.123965,62.273996
8.2185,0.011013,-0.005212,0.027924,-9e-05,4.4e-05,0.0,0.024368,-0.514853,0.027351,0.853004,-263.990075,-1.123965,62.273996
8.2386,0.01071,-0.005119,0.026801,-9e-05,4.4e-05,0.0,0.025252,-0.515014,0.027924,0.777949,-263.990075,-1.04891,62.273996
8.259,0.010534,-0.005266,0.027976,-9e-05,4.4e-05,0.0,0.025202,-0.515009,0.02786,0.777949,-263.990075,-1.04891,62.273996
8.2784,0.010641,-0.004935,0.027172,-6e-06,3e-06,-1.7e-05,0.0248,-0.515067,0.027976,0.703015,-263.990075,-0.973976,62.273996
8.2982,0.010806,-0.005311,0.028391,-0.001548,0.000764,-0.00411,0.024628,-0.514886,0.027521,0.703015,-263.990075,-0.973976,62.273996
8.3182,0.010585,-0.005345,0.029201,-0.003018,0.001489,-0.008013,0.024628,-0.514886,0.027521,0.703015,-263.990075,-0.973976,62.273996
8.3385,0.010599,-0.005442,0.027583,-0.004409,0.002176,-0.011707,0.025476,-0.515127,0.029201,0.628011,-263.990075,-0.898971,62.273996
8.3587,0.010918,-0.005474,0.027889,-0.005719,0.002823,-0.015187,0.02542,-0.515136,0.02909,0.628011,-263.990075,-0.898971,62.273996
8.3783,0.010367,-0.004978,0.027289,-0.006953,0.003432,-0.018462,0.025111,-0.515265,0.027834,0.703013,-263.990435,-0.973973,62.273437
8.3985,0.010699,-0.005588,0.027502,-0.008106,0.004001,-0.021525,0.024637,-0.514993,0.027517,0.703013,-263.990435,-0.973973,62.273437
8.4183,0.010873,-0.005189,0.027797,-0.009176,0.004529,-0.024366,0.024637,-0.514993,0.027517,0.703013,-263.990435,-0.973973,62.273437
8.4383,0.010586,-0.005109,0.027178,-0.010177,0.005023,-0.027025,0.024893,-0.51493,0.027452,0.778005,-263.992125,-1.048965,62.270815
8.4582,0.010339,-0.005132,0.02828,-0.011085,0.005471,-0.029435,0.024859,-0.514927,0.027425,0.778005,-263.992125,-1.048965,62.270815
8.4783,0.010761,-0.00509,0.026137,-0.011919,0.005883,-0.031649,0.024517,-0.514863,0.027667,0.845576,-263.996338,-1.123963,62.265664
8.4982,0.010673,-0.005078,0.026678,-0.012674,0.006255,-0.033654,0.024238,-0.514885,0.026701,0.845576,-263.996338,-1.123963,62.265664
8.5184,0.010705,-0.004981,0.027618,-0.013351,0.00659,-0.035451,0.024238,-0.514885,0.026701,0.845576,-263.996338,-1.123963,62.265664
8.5383,0.010653,-0.004825,0.026309,-0.013946,0.006884,-0.037034,0.02432,-0.514684,0.026439,0.845576,-264.002989,-1.129203,62.258062
8.5584,0.010561,-0.005048,0.024379,-0.014463,0.007139,-0.038406,0.024291,-0.514679,0.026399,0.845576,-264.002989,-1.129203,62.258062
8.5788,0.011275,-0.005156,0.023977,-0.014901,0.007355,-0.039568,0.022523,-0.514756,0.023179,0.845576,-264.01106,-1.129203,62.247912
8.5985,0.010964,-0.004848,0.023021,-0.015258,0.007531,-0.040517,0.023029,-0.514885,0.023488,0.845576,-264.01106,-1.129203,62.247912
8.619,0.010958,-0.004553,0.023945,-0.015538,0.007669,-0.041261,0.023029,-0.514885,0.023488,0.845576,-264.01106,-1.129203,62.247912
8.6386,0.011312,-0.004519,0.022684,-0.015736,0.007767,-0.041787,0.02248,-0.514125,0.022153,0.845576,-264.019782,-1.129203,62.235281
8.6589,0.011385,-0.004268,0.022886,-0.015855,0.007826,-0.042103,0.022489,-0.514134,0.022144,0.845576,-264.019782,-1.129203,62.235281
8.6787,0.011448,-0.003898,0.02037,-0.015895,0.007845,-0.042208,0.022451,-0.513852,0.021297,0.845576,-264.029135,-1.129203,62.220765
8.6987,0.011693,-0.003971,0.019449,-0.015855,0.007826,-0.042102,0.022023,-0.513782,0.020566,0.845576,-264.029135,-1.129203,62.220765
8.7187,0.01135,-0.003747,0.020779,-0.015736,0.007767,-0.041786,0.022023,-0.513782,0.020566,0.845576,-264.029135,-1.129203,62.220765
8.7391,0.012085,-0.003457,0.017078,-0.015537,0.007669,-0.041257,0.021169,-0.513272,0.018733,0.845576,-264.03868,-1.129203,62.205951
8.7589,0.011863,-0.003431,0.017171,-0.015255,0.007529,-0.040508,0.021124,-0.51327,0.018572,0.845576,-264.03868,-1.129203,62.205951
8.7786,0.011829,-0.003442,0.016148,-0.014901,0.007355,-0.039569,0.020005,-0.513065,0.015553,0.845576,-264.048217,-1.129203,62.19115
8.7984,0.011804,-0.003055,0.014791,-0.014463,0.007138,-0.038404,0.019962,-0.513208,0.015695,0.845576,-264.048217,-1.129203,62.19115
8.8183,0.01208,-0.00336,0.014096,-0.01395,0.006885,-0.037042,0.019962,-0.513208,0.015695,0.845576,-264.048217,-1.129203,62.19115
8.8384,0.012227,-0.002811,0.014789,-0.013354,0.006591,-0.035459,0.018526,-0.512955,0.012137,0.845576,-264.05737,-1.129203,62.176944
8.8587,0.012275,-0.00281,0.014323,-0.012679,0.006258,-0.033667,0.018592,-0.512931,0.012268,0.845576,-264.05737,-1.129203,62.176944
8.8787,0.012511,-0.002425,0.012525,-0.011924,0.005885,-0.031663,0.019037,-0.512499,0.012892,0.845576,-264.065794,-1.129203,62.16387
8.8983,0.012731,-0.002287,0.011524,-0.011088,0.005473,-0.029443,0.018889,-0.512401,0.012501,0.845576,-264.065794,-1.129203,62.16387
8.9184,0.012436,-0.002211,0.011057,-0.010172,0.005021,-0.027011,0.018889,-0.512401,0.012501,0.845576,-264.065794,-1.129203,62.16387
8.9384,0.01278,-0.00208,0.011289,-0.009183,0.004532,-0.024384,0.017457,-0.511882,0.009424,0.845576,-264.073429,-1.129203,62.152021
8.9588,0.012869,-0.002691,0.012244,-0.00811,0.004003,-0.021537,0.017516,-0.511886,0.00951,0.845576,-264.073429,-1.129203,62.152021
8.9785,0.012786,-0.002304,0.009016,-0.006926,0.003418,-0.01839,0.018719,-0.512463,0.011201,0.845576,-264.079563,-1.129203,62.1425
8.9986,0.013078,-0.001893,0.007819,-0.005725,0.002826,-0.015203,0.017909,-0.512337,0.009824,0.845576,-264.079563,-1.129203,62.1425
9.0184,0.013107,-0.002104,0.008898,-0.004415,0.002179,-0.011725,0.017909,-0.512337,0.009824,0.845576,-264.079563,-1.129203,62.1425
9.0383,0.01314,-0.001942,0.008984,-0.00302,0.001491,-0.00802,0.017249,-0.511893,0.007851,0.845576,-264.084454,-1.129203,62.134909
9.0588,0.013101,-0.001667,0.009028,-0.001555,0.000767,-0.004128,0.017272,-0.511889,0.007902,0.845576,-264.084454,-1.129203,62.134909
9.0785,0.013561,-0.001795,0.007189,-3e-06,1e-06,-8e-06,0.017534,-0.511564,0.008576,0.845576,-264.087117,-1.129203,62.130777
9.0985,0.013406,-0.001538,0.008021,0.0,0.0,0.0,0.017338,-0.511678,0.007729,0.845576,-264.087117,-1.129203,62.130777
9.1185,0.013186,-0.001497,0.007228,0.0,0.0,0.0,0.017338,-0.511678,0.007729,0.845576,-264.087117,-1.129203,62.130777
9.1385,0.013521,-0.001731,0.007278,0.0,0.0,0.0,0.016796,-0.511446,0.007027,0.845576,-264.088054,-1.129203,62.129322
9.1583,0.013144,-0.001764,0.007043,0.0,0.0,0.0,0.016823,-0.511463,0.007038,0.845576,-264.088054,-1.129203,62.129322
9.1782,0.012666,-0.001433,0.007904,0.0,0.0,0.0,0.016736,-0.511752,0.007043,0.845576,-264.088054,-1.129203,62.129322
9.1986,0.013339,-0.001774,0.008961,0.0,0.0,0.0,0.016714,-0.511562,0.007532,0.845576,-264.088054,-1.129203,62.129322
9.2187,0.013104,-0.001529,0.006389,0.0,0.0,0.0,0.016714,-0.511562,0.007532,0.845576,-264.088054,-1.129203,62.129322
9.2383,0.013183,-0.002034,0.005709,0.0,0.0,0.0,0.016363,-0.511518,0.006389,0.845576,-264.088054,-1.129203,62.129322
9.2586,0.012851,-0.00168,0.00823,0.0,0.0,0.0,0.016344,-0.511554,0.006341,0.845576,-264.088054,-1.129203,62.129322
9.2783,0.01316,-0.001241,0.008648,0.0,0.0,0.0,0.017048,-0.511663,0.00823,0.845576,-264.088054,-1.129203,62.129322
9.2983,0.013391,-0.00146,0.007168,0.0,0.0,0.0,0.017347,-0.511411,0.008469,0.845576,-264.088054,-1.129203,62.129322
9.3186,0.013461,-0.001545,0.006487,-9.9e-05,1.2e-05,0.0,0.017347,-0.511411,0.008469,0.845576,-264.088054,-1.129203,62.129322
9.3385,0.013116,-0.001798,0.006947,-9.9e-05,1.2e-05,0.0,0.016769,-0.511535,0.006487,0.845576,-264.088054,-1.129203,62.129322
9.3587,0.012833,-0.00153,0.006395,-9.9e-05,1.2e-05,0.0,0.01676,-0.511556,0.006526,0.845576,-264.088054,-1.129203,62.129322
9.3787,0.013501,-0.001657,0.006856,-9.9e-05,1.2e-05,0.0,0.016095,-0.511519,0.006395,0.770214,-264.088054,-1.053841,62.129322
9.3984,0.013159,-0.001417,0.007674,-9.9e-05,1.2e-05,0.0,0.016609,-0.511591,0.006658,0.770214,-264.088054,-1.053841,62.129322
9.4183,0.013412,-0.002002,0.008017,-9.9e-05,1.2e-05,0.0,0.016609,-0.511591,0.006658,0.770214,-264.088054,-1.053841,62.129322
9.4383,0.013282,-0.001727,0.007654,-9.9e-05,1.2e-05,0.0,0.017501,-0.511986,0.008017,0.695611,-264.088054,-0.979237,62.129322
9.4592,0.013256,-0.001665,0.007726,-9.9e-05,1.2e-05,0.0,0.017475,-0.511964,0.007987,0.695611,-264.088054,-0.979237,62.129322
9.4783,0.013002,-0.001617,0.006873,-9.9e-05,1.2e-05,0.0,0.017197,-0.51165,0.007726,0.620309,-264.088054,-0.903936,62.129322
9.4983,0.013321,-0.001694,0.007304,-9.9e-05,1.2e-05,0.0,0.016808,-0.511625,0.007244,0.620309,-264.088054,-0.903936,62.129322
9.5183,0.013168,-0.0016,0.007972,-9.9e-05,1.2e-05,0.0,0.016808,-0.511625,0.007244,0.620309,-264.088054,-0.903936,62.129322
9.5385,0.013232,-0.00143,0.006817,-0.001959,0.000228,-0.001049,0.017234,-0.511583,0.007972,0.545541,-264.088054,-0.829168,62.129322
9.5588,0.013025,-0.001495,0.008012,-0.003813,0.000443,-0.002043,0.017195,-0.511571,0.007888,0.545541,-264.088054,-0.829168,62.129322
9.5787,0.01296,-0.001486,0.006622,-0.00558,0.000649,-0.00299,0.017111,-0.511478,0.008012,0.47055,-264.088054,-0.754177,62.129322
9.5985,0.013182,-0.001938,0.007963,-0.007229,0.000841,-0.003873,0.016672,-0.511476,0.007224,0.47055,-264.088054,-0.754177,62.129322
9.6183,0.013418,-0.001347,0.005988,-0.008784,0.001021,-0.004706,0.016672,-0.511476,0.007224,0.47055,-264.088054,-0.754177,62.129322
9.6386,0.012819,-0.001865,0.006302,-0.010239,0.00119,-0.005485,0.016463,-0.511336,0.005979,0.395653,-264.088135,-0.67928,62.129236
9.6583,0.013245,-0.001985,0.00672,-0.011594,0.001348,-0.006211,0.016432,-0.511374,0.006002,0.395653,-264.088135,-0.67928,62.129236
9.6783,0.013551,-0.001831,0.006233,-0.012855,0.001495,-0.006887,0.016613,-0.511964,0.006671,0.320551,-264.088805,-0.604178,62.128518
9.6985,0.013176,-0.001231,0.007867,-0.014001,0.001628,-0.007501,0.016672,-0.511881,0.006414,0.320551,-264.088805,-0.604178,62.128518
9.7183,0.013103,-0.001567,0.003744,-0.015053,0.00175,-0.008064,0.016672,-0.511881,0.006414,0.320551,-264.088805,-0.604178,62.128518
9.7386,0.013232,-0.001711,0.00748,-0.016006,0.001861,-0.008575,0.014759,-0.511524,0.003572,0.245571,-264.09101,-0.529198,62.126158
9.7587,0.012844,-0.001873,0.005693,-0.016859,0.00196,-0.009032,0.014919,-0.511536,0.003854,0.245571,-264.09101,-0.529198,62.126158
9.7782,0.012433,-0.001383,0.006118,-0.017612,0.002048,-0.009435,0.015314,-0.511811,0.005448,0.207877,-264.095705,-0.454198,62.121308
9.7984,0.012812,-0.001297,0.0056,-0.018263,0.002123,-0.009784,0.015395,-0.511556,0.005797,0.207877,-264.095705,-0.454198,62.121308
9.8184,0.012646,-0.00163,0.007057,-0.018816,0.002188,-0.01008,0.015395,-0.511556,0.005797,0.207877,-264.095705,-0.454198,62.121308
9.8385,0.011812,-0.00148,0.007855,-0.019268,0.00224,-0.010322,0.015442,-0.511529,0.006627,0.207877,-264.102454,-0.417394,62.114084
9.8585,0.011946,-0.001345,0.007951,-0.019619,0.002281,-0.01051,0.015446,-0.511523,0.006701,0.207877,-264.102454,-0.417394,62.114084
9.8786,0.011365,-0.001441,0.004848,-0.01987,0.00231,-0.010645,0.01527,-0.511249,0.00756,0.207877,-264.110147,-0.417394,62.10585
9.8982,0.011736,-0.00129,0.006227,-0.020021,0.002328,-0.010726,0.014366,-0.511344,0.005973,0.207877,-264.110147,-0.417394,62.10585
9.9183,0.011184,-0.001158,0.005921,-0.020071,0.002333,-0.010752,0.014366,-0.511344,0.005973,0.207877,-264.110147,-0.417394,62.10585
9.9384,0.010472,-0.000907,0.005701,-0.020021,0.002328,-0.010725,0.01325,-0.511044,0.00541,0.207877,-264.118185,-0.417394,62.097246
9.9584,0.010587,-0.001309,0.004971,-0.01987,0.00231,-0.010645,0.013232,-0.51103,0.005417,0.207877,-264.118185,-0.417394,62.097246
9.9785,0.009714,-0.001093,0.004088,-0.019619,0.002281,-0.01051,0.012348,-0.511217,0.004556,0.207877,-264.126383,-0.417394,62.088472
9.9985,0.010063,-0.001277,0.003897,-0.019266,0.00224,-0.010321,0.011936,-0.511133,0.004236,0.207877,-264.126383,-0.417394,62.088472
10.0185,0.010366,-0.001015,0.005045,-0.018814,0.002187,-0.010079,0.011936,-0.511133,0.004236,0.207877,-264.126383,-0.417394,62.088472
10.0389,0.009278,-0.001018,0.004116,-0.018264,0.002123,-0.009784,0.011972,-0.510901,0.004527,0.207877,-264.134506,-0.417394,62.079777
10.0589,0.008951,-0.000949,0.003534,-0.01761,0.002047,-0.009434,0.011906,-0.510906,0.004486,0.207877,-264.134506,-0.417394,62.079777
10.0787,0.008645,-0.00056,0.003604,-0.016859,0.00196,-0.009031,0.010026,-0.510863,0.003145,0.207877,-264.142224,-0.417394,62.071516
10.0985,0.008413,-0.000823,0.004203,-0.016007,0.001861,-0.008575,0.010198,-0.510676,0.003361,0.207877,-264.142224,-0.417394,62.071516
10.1188,0.008576,-0.000754,0.00286,-0.015054,0.00175,-0.008065,0.010198,-0.510676,0.003361,0.207877,-264.142224,-0.417394,62.071516
10.139,0.00774,-0.000488,0.003648,-0.014,0.001628,-0.0075,0.009182,-0.510655,0.002404,0.207877,-264.149432,-0.417394,62.0638
10.1589,0.007869,-0.000555,0.00328,-0.012846,0.001494,-0.006882,0.00919,-0.510638,0.002491,0.207877,-264.149432,-0.417394,62.0638
10.1785,0.007072,-0.000756,0.001886,-0.011591,0.001348,-0.00621,0.008965,-0.510487,0.002971,0.207877,-264.15556,-0.417394,62.057242
10.1985,0.007207,-0.000658,0.001906,-0.010236,0.00119,-0.005483,0.008356,-0.510633,0.002308,0.207877,-264.15556,-0.417394,62.057242
10.2184,0.007159,-0.0009,0.00352,-0.008783,0.001021,-0.004705,0.008356,-0.510633,0.002308,0.207877,-264.15556,-0.417394,62.057242
10.2385,0.007062,-0.000614,0.000147,-0.007226,0.00084,-0.003871,0.008331,-0.510827,0.003186,0.207877,-264.160801,-0.417394,62.051632
10.2588,0.006669,-0.000555,0.00223,-0.005571,0.000648,-0.002984,0.00823,-0.51081,0.002965,0.207877,-264.160801,-0.417394,62.051632
10.2788,0.006635,-0.000433,0.002179,-0.003812,0.000443,-0.002042,0.007466,-0.510515,0.002048,0.207877,-264.164417,-0.417394,62.047762
10.2985,0.006558,-0.000546,0.002939,-0.001957,0.000228,-0.001049,0.007587,-0.510461,0.002102,0.207877,-264.164417,-0.417394,62.047762
10.3186,0.006748,-0.000353,0.002068,-2e-06,0.0,-1e-06,0.007587,-0.510461,0.002102,0.207877,-264.164417,-0.417394,62.047762
10.3383,0.005709,-0.000599,0.00121,0.0,0.0,0.0,0.007533,-0.510321,0.001923,0.207877,-264.166695,-0.417394,62.045323
10.3586,0.006362,-0.000374,-0.000461,0.0,0.0,0.0,0.007424,-0.510343,0.00186,0.207877,-264.166695,-0.417394,62.045323
10.3782,0.00634,-0.00087,0.002015,0.0,0.0,0.0,0.006127,-0.510374,-0.000461,0.207877,-264.166696,-0.417394,62.045323
10.3984,0.006213,-0.000808,0.001306,0.0,0.0,0.0,0.006841,-0.510659,0.000964,0.207877,-264.166696,-0.417394,62.045323
10.4184,0.006513,-0.000744,0.002268,0.0,0.0,0.0,0.006841,-0.510659,0.000964,0.207877,-264.166696,-0.417394,62.045323
10.4386,0.006299,-0.000569,0.001977,0.0,0.0,0.0,0.007669,-0.510742,0.002268,0.207877,-264.166696,-0.417394,62.045323
10.4588,0.006487,-0.000449,0.002615,0.0,0.0,0.0,0.007644,-0.51073,0.002247,0.207877,-264.166696,-0.417394,62.045323
10.4785,0.005947,-0.000262,0.001324,0.0,0.0,0.0,0.007821,-0.510448,0.002615,0.207877,-264.166696,-0.417394,62.045323
10.4984,0.006509,-0.000874,0.002386,0.0,0.0,0.0,0.007137,-0.510342,0.001878,0.207877,-264.166696,-0.417394,62.045323
10.5185,0.00638,-0.000693,0.000606,0.0,0.0,0.0,0.007137,-0.510342,0.001878,0.207877,-264.166696,-0.417394,62.045323
10.5383,0.006392,-0.000576,0.001781,0.0,0.0,0.0,0.006689,-0.510693,0.000606,0.207877,-264.166696,-0.417394,62.045323
10.5587,0.006437,-0.000412,0.001711,-0.0001,9e-06,0.0,0.006732,-0.510685,0.000688,0.207877,-264.166696,-0.417394,62.045323
10.5784,0.006207,-0.000415,0.00213,-0.0001,9e-06,0.0,0.007309,-0.510412,0.001711,0.207877,-264.166696,-0.417394,62.045323
10.5985,0.006348,-0.000164,0.003207,-0.0001,9e-06,0.0,0.0073,-0.510413,0.001951,0.207877,-264.166696,-0.417394,62.045323
10.6185,0.006415,-0.000708,0.001139,-0.0001,9e-06,0.0,0.0073,-0.510413,0.001951,0.207877,-264.166696,-0.417394,62.045323
10.6384,0.006703,-0.000485,0.001097,-0.0001,9e-06,0.0,0.006995,-0.510708,0.001139,0.132863,-264.166697,-0.34238,62.045321
10.6586,0.006591,-0.000627,0.001554,-0.0001,9e-06,0.0,0.007015,-0.510692,0.001136,0.132863,-264.166697,-0.34238,62.045321
10.6784,0.006379,-0.000556,0.002192,-0.0001,9e-06,0.0,0.007383,-0.510626,0.001553,0.057863,-264.166704,-0.267379,62.045315
10.6985,0.006019,-0.000912,0.001578,-0.0001,9e-06,0.0,0.007448,-0.510585,0.001917,0.057863,-264.166704,-0.267379,62.045315
10.7184,0.0064,-0.000394,0.002739,-0.0001,9e-06,0.0,0.007448,-0.510585,0.001917,0.057863,-264.166704,-0.267379,62.045315
10.7385,0.006635,-4.2e-05,0.001428,-0.0001,9e-06,0.0,0.007795,-0.510392,0.002739,-0.017047,-264.166721,-0.19247,62.045298
10.7589,0.006688,-0.000618,0.001846,-0.0001,9e-06,0.0,0.007763,-0.510366,0.002642,-0.017047,-264.166721,-0.19247,62.045298
10.7783,0.006083,-0.000601,0.003017,-0.000935,8.6e-05,-0.00026,0.007626,-0.510617,0.001846,-0.091729,-264.166752,-0.117354,62.045266
10.7985,0.006488,-0.000681,0.002876,-0.00182,0.000167,-0.000507,0.007623,-0.510606,0.002517,-0.091729,-264.166752,-0.117354,62.045266
10.8185,0.006177,-0.000859,0.002201,-0.002659,0.000245,-0.000741,0.007623,-0.510606,0.002517,-0.091729,-264.166752,-0.117354,62.045266
10.8387,0.006107,-0.000438,0.001457,-0.003452,0.000318,-0.000962,0.007294,-0.510857,0.002201,-0.091729,-264.166791,-0.091729,62.045227
10.8583,0.006087,-0.000547,0.002918,-0.004193,0.000386,-0.001169,0.007259,-0.510824,0.002143,-0.091729,-264.166791,-0.091729,62.045227
10.8782,0.006195,-0.000843,0.001222,-0.004889,0.00045,-0.001362,0.007533,-0.510541,0.002913,-0.016601,-264.167224,-0.166856,62.044781
10.8982,0.006113,-0.000459,0.002402,-0.005534,0.000509,-0.001542,0.00712,-0.510713,0.001946,-0.016601,-264.167224,-0.166856,62.044781
10.9182,0.006082,-0.000425,0.003468,-0.006134,0.000564,-0.001709,0.00712,-0.510713,0.001946,-0.016601,-264.167224,-0.166856,62.044781
10.9383,0.006038,-0.000566,0.001829,-0.006685,0.000615,-0.001863,0.007695,-0.510408,0.003429,0.058192,-264.168505,-0.241649,62.043461
10.9583,0.006282,-0.000469,0.001583,-0.007188,0.000661,-0.002003,0.007642,-0.510418,0.00332,0.058192,-264.168505,-0.241649,62.043461
10.9785,0.006102,-0.000632,0.002521,-0.007653,0.000704,-0.002133,0.006854,-0.510447,0.001517,0.078067,-264.170942,-0.256428,62.040949
10.9984,0.005798,-0.000602,0.002062,-0.008052,0.000741,-0.002244,0.007128,-0.510549,0.002079,0.078067,-264.170942,-0.256428,62.040949
11.0186,0.005688,-0.000501,-2.2e-05,-0.008412,0.000774,-0.002344,0.007128,-0.510549,0.002079,0.078067,-264.170942,-0.256428,62.040949
11.0389,0.00549,-0.000283,0.002138,-0.008723,0.000802,-0.002431,0.005327,-0.510469,-0.000119,0.078067,-264.173826,-0.256428,62.037977
11.0586,0.005498,-0.0002,0.001966,-0.008986,0.000827,-0.002504,0.0054,-0.510456,2.5e-05,0.078067,-264.173826,-0.256428,62.037977
11.0786,0.005296,-0.000431,0.003097,-0.009202,0.000846,-0.002565,0.006175,-0.51017,0.001876,0.078067,-264.177201,-0.256428,62.034498
11.0983,0.005589,-0.000161,0.001373,-0.00937,0.000862,-0.002611,0.006532,-0.510314,0.002558,0.078067,-264.177201,-0.256428,62.034498
11.1183,0.005318,-0.000333,0.002186,-0.00949,0.000873,-0.002645,0.006532,-0.510314,0.002558,0.078067,-264.177201,-0.256428,62.034498
11.1383,0.004673,-0.000433,0.002067,-0.009562,0.00088,-0.002665,0.005996,-0.510293,0.002065,0.078067,-264.180806,-0.256428,62.030782
11.1588,0.004764,2.3e-05,0.000806,-0.009586,0.000882,-0.002671,0.005965,-0.510301,0.002062,0.078067,-264.180806,-0.256428,62.030782
11.1785,0.004292,2e-06,0.001592,-0.009562,0.00088,-0.002665,0.004808,-0.509944,0.000703,0.078067,-264.184614,-0.256428,62.026858
11.1984,0.004326,-0.000389,0.001358,-0.00949,0.000873,-0.002645,0.00493,-0.50997,0.001196,0.078067,-264.184614,-0.256428,62.026858
11.2185,0.004663,-0.000549,0.00285,-0.00937,0.000862,-0.002611,0.00493,-0.50997,0.001196,0.078067,-264.184614,-0.256428,62.026858
11.2383,0.003731,-0.00049,-0.000129,-0.009203,0.000847,-0.002565,0.00565,-0.510505,0.00272,0.078067,-264.188465,-0.256428,62.022888
11.2587,0.004003,-0.000269,0.000938,-0.008987,0.000827,-0.002505,0.005491,-0.510503,0.002507,0.078067,-264.188465,-0.256428,62.022888
11.2783,0.003507,0.000174,0.001852,-0.008721,0.000802,-0.002431,0.00412,-0.510236,0.000838,0.078067,-264.192225,-0.256428,62.019014
11.2983,0.003328,4.7e-05,0.00184,-0.008412,0.000774,-0.002344,0.004264,-0.509996,0.001407,0.078067,-264.192225,-0.256428,62.019014
11.3183,0.003646,-0.000296,0.000851,-0.008051,0.000741,-0.002244,0.004264,-0.509996,0.001407,0.078067,-264.192225,-0.256428,62.019014
11.3384,0.002897,0.000105,-0.001022,-0.007643,0.000703,-0.00213,0.003644,-0.510256,0.00073,0.078067,-264.195825,-0.256428,62.015303
11.3586,0.003222,-0.000376,0.00046,-0.00719,0.000661,-0.002004,0.003544,-0.51023,0.000604,0.078067,-264.195825,-0.256428,62.015303
11.3787,0.003064,-0.000446,-0.000252,-0.006686,0.000615,-0.001863,0.003146,-0.510347,0.000373,0.078067,-264.19906,-0.256428,62.011969
11.3984,0.002467,-0.000278,0.0,-0.006135,0.000564,-0.00171,0.002986,-0.5104,5e-06,0.078067,-264.19906,-0.256428,62.011969
11.4184,0.002923,2.9e-05,0.001566,-0.005534,0.000509,-0.001542,0.002986,-0.5104,5e-06,0.078067,-264.19906,-0.256428,62.011969
