mach0312/omni-docking-bench/src/icros_test_setup/results/kinematic_sample/timeseries/trial_061.csv
t,x,y,yaw,vx,vy,wz,bl_x,bl_y,bl_yaw,front_steering_joint,front_wheel_joint,rear_steering_joint,rear_wheel_joint
0.0,-0.039685,-0.031471,0.069605,1e-06,-0.0,0.0,-0.003973,-0.53979,0.069837,0.030778,-264.540313,-0.451696,61.669009
0.0004,-0.039798,-0.030848,0.067811,0.0,0.0,0.0,-0.003989,-0.53978,0.069809,0.030778,-264.540313,-0.451696,61.66901
0.0006,-0.039283,-0.030703,0.069646,0.0,0.0,0.0,-0.003989,-0.53978,0.069809,0.030778,-264.540313,-0.451696,61.66901
0.0009,-0.03949,-0.030842,0.068004,0.0,0.0,0.0,-0.004672,-0.539946,0.068172,0.030778,-264.540313,-0.451696,61.66901
0.0012,-0.039615,-0.030943,0.067462,0.0,0.0,0.0,-0.004672,-0.539946,0.068172,0.030778,-264.540313,-0.451696,61.66901
0.0014,-0.039386,-0.031267,0.068034,0.0,0.0,0.0,-0.004878,-0.53987,0.068021,0.030778,-264.540313,-0.451696,61.66901
0.0017,-0.039792,-0.03106,0.06866,0.0,0.0,0.0,-0.004878,-0.53987,0.068021,-0.04422,-264.54031,-0.376698,61.669013
0.0019,-0.039931,-0.031099,0.068489,0.0001,-6e-06,0.0,-0.004878,-0.53987,0.068021,-0.04422,-264.54031,-0.376698,61.669013
0.0021,-0.039734,-0.03113,0.070611,0.0001,-6e-06,0.0,-0.004529,-0.539638,0.069117,-0.04422,-264.54031,-0.376698,61.669013
0.0023,-0.039358,-0.030599,0.068569,0.0001,-6e-06,0.0,-0.004529,-0.539638,0.069117,-0.04422,-264.54031,-0.376698,61.669013
0.0168,-0.039534,-0.030934,0.069554,0.0161,0.015994,-0.03,-0.004415,-0.539401,0.068569,-0.04422,-264.54031,-0.376698,61.669013
0.037,-0.039591,-0.031138,0.06797,0.0321,0.028112,-0.05,-0.004392,-0.539422,0.068638,-0.04422,-264.54031,-0.376698,61.669013
0.0572,-0.040041,-0.030713,0.069548,0.041614,0.028377,-0.05,-0.004952,-0.53996,0.06797,-0.061578,-264.540302,-0.301688,61.66902
0.0769,-0.039798,-0.030927,0.068886,0.042078,0.027857,-0.05,-0.004747,-0.539681,0.068887,-0.061578,-264.540302,-0.301688,61.66902
0.0973,-0.039833,-0.031146,0.068684,0.041832,0.028115,-0.05,-0.004747,-0.539681,0.068887,-0.061578,-264.540302,-0.301688,61.66902
0.1174,-0.039822,-0.030801,0.067585,0.041877,0.028339,-0.05,-0.004832,-0.539944,0.068684,-0.075426,-264.540301,-0.226296,61.669023
0.1367,-0.039832,-0.031123,0.067347,0.041812,0.028041,-0.05,-0.004877,-0.539918,0.068593,-0.075426,-264.540301,-0.226296,61.669023
0.1573,-0.039682,-0.031286,0.068094,0.041837,0.028372,-0.05,-0.005511,-0.539967,0.067347,-0.057854,-264.540299,-0.151177,61.669026
0.1769,-0.039889,-0.031246,0.067907,0.041719,0.028513,-0.05,-0.005208,-0.540045,0.067774,-0.057854,-264.540299,-0.151177,61.669026
0.1968,-0.039933,-0.031088,0.068327,0.041917,0.028467,-0.05,-0.005208,-0.540045,0.067774,-0.057854,-264.540299,-0.151177,61.669026
0.2168,-0.03968,-0.03112,0.068354,0.041962,0.028289,-0.05,-0.005113,-0.539898,0.068327,-0.05963,-264.540297,-0.076584,61.669029
0.237,-0.039942,-0.031182,0.068569,0.041713,0.028337,-0.05,-0.005095,-0.5399,0.068329,-0.05963,-264.540297,-0.076584,61.669029
0.2575,-0.039291,-0.031045,0.068746,0.041985,0.028372,-0.05,-0.004999,-0.539984,0.068569,-0.049346,-264.540296,-0.001685,61.669032
0.2775,-0.039403,-0.030956,0.069076,0.041331,0.028272,-0.05,-0.004583,-0.539903,0.068669,-0.049346,-264.540296,-0.001685,61.669032
0.2968,-0.039222,-0.031231,0.067074,0.041446,0.028163,-0.05,-0.004583,-0.539903,0.068669,-0.049346,-264.540296,-0.001685,61.669032
0.3168,-0.039416,-0.03107,0.070389,0.041227,0.028532,-0.05,-0.005039,-0.540084,0.067074,-0.05271,-264.540294,0.073332,61.669035
0.3368,-0.039797,-0.031047,0.069355,0.041504,0.02822,-0.05,-0.004938,-0.540066,0.067298,-0.05271,-264.540294,0.073332,61.669035
0.3572,-0.039234,-0.030978,0.068739,0.041853,0.028214,-0.05,-0.004454,-0.539821,0.069355,-0.057236,-264.540292,0.148372,61.669038
0.377,-0.040082,-0.031053,0.068694,0.041269,0.02821,-0.05,-0.004312,-0.539794,0.069004,-0.057236,-264.540292,0.148372,61.669038
0.3969,-0.039359,-0.031257,0.067511,0.042119,0.028229,-0.05,-0.004312,-0.539794,0.069004,-0.057236,-264.540292,0.148372,61.669038
0.4174,-0.039956,-0.030911,0.069593,0.041378,0.02853,-0.05,-0.004954,-0.540095,0.067511,-0.05577,-264.540291,0.223323,61.669041
0.4371,-0.039532,-0.031089,0.069228,0.042009,0.028057,-0.05,-0.004924,-0.540068,0.067645,-0.05577,-264.540291,0.223323,61.669041
0.4571,-0.039651,-0.031495,0.067134,0.041588,0.02828,-0.05,-0.004254,-0.539867,0.069228,-0.054761,-264.540287,0.298263,61.669046
0.4779,-0.03959,-0.030867,0.067984,0.041675,0.028764,-0.05,-0.004927,-0.540139,0.068038,-0.054761,-264.540287,0.298263,61.669046
0.4973,-0.039695,-0.031004,0.069667,0.041595,0.028106,-0.05,-0.004927,-0.540139,0.068038,-0.054761,-264.540287,0.298263,61.669046
0.5171,-0.03963,-0.030971,0.067605,0.041757,0.028165,-0.05,-0.004191,-0.539766,0.069666,-0.058967,-264.540275,0.373379,61.669068
0.5373,-0.039608,-0.031344,0.069065,0.041631,0.028223,-0.05,-0.004257,-0.539768,0.069528,-0.058967,-264.540275,0.373379,61.669068
0.5568,-0.039686,-0.030912,0.067937,0.041677,0.028536,-0.05,-0.004406,-0.540126,0.069061,-0.058394,-264.540219,0.448327,61.669165
0.5772,-0.039196,-0.031265,0.067634,0.041693,0.028147,-0.05,-0.004781,-0.539903,0.06842,-0.058394,-264.540219,0.448327,61.669165
0.5969,-0.039329,-0.030929,0.068525,0.041219,0.028545,-0.05,-0.004781,-0.539903,0.06842,-0.058394,-264.540219,0.448327,61.669165
0.6167,-0.039528,-0.030986,0.067535,0.041354,0.028163,-0.05,-0.004374,-0.539718,0.068504,-0.055545,-264.539988,0.523444,61.669563
0.6371,-0.039395,-0.030761,0.06944,0.041529,0.028248,-0.05,-0.004424,-0.539725,0.068437,-0.055545,-264.539988,0.523444,61.669563
0.6568,-0.03956,-0.030888,0.068766,0.041435,0.027954,-0.05,-0.00393,-0.539496,0.069383,-0.048303,-264.539299,0.598315,61.670766
0.6768,-0.039596,-0.031086,0.06803,0.041589,0.028097,-0.05,-0.004253,-0.539597,0.069026,-0.048303,-264.539299,0.598315,61.670766
0.6968,-0.039557,-0.03103,0.069362,0.041618,0.028323,-0.05,-0.004253,-0.539597,0.069026,-0.048303,-264.539299,0.598315,61.670766
0.7169,-0.039146,-0.03139,0.067227,0.041613,0.028214,-0.05,-0.003927,-0.539656,0.06913,-0.055082,-264.53724,0.673357,61.67433
0.7371,-0.039187,-0.030778,0.068869,0.041166,0.028689,-0.05,-0.003989,-0.539694,0.068984,-0.055082,-264.53724,0.673357,61.67433
0.7572,-0.037976,-0.030829,0.067737,0.041213,0.028009,-0.05,-0.003673,-0.539353,0.068524,-0.053165,-264.532687,0.748409,61.680383
0.7769,-0.038374,-0.030632,0.067994,0.039976,0.028188,-0.05,-0.003496,-0.5395,0.068032,-0.053165,-264.532687,0.748409,61.680383
0.7968,-0.038061,-0.03037,0.067688,0.040366,0.027954,-0.05,-0.003496,-0.5395,0.068032,-0.053165,-264.532687,0.748409,61.680383
0.817,-0.037254,-0.030285,0.06672,0.040028,0.027726,-0.05,-0.00281,-0.538787,0.067031,-0.044873,-264.525637,0.823309,61.688934
0.8377,-0.03687,-0.029849,0.066255,0.039191,0.027734,-0.05,-0.00282,-0.5388,0.066995,-0.044873,-264.525637,0.823309,61.688934
0.8572,-0.035949,-0.029465,0.0643,0.038766,0.027343,-0.05,-0.002339,-0.53829,0.065522,-0.063914,-264.516076,0.898248,61.7
0.877,-0.035826,-0.029489,0.065924,0.037768,0.027095,-0.05,-0.00272,-0.538304,0.064733,-0.063914,-264.516076,0.898248,61.7
0.8969,-0.0356,-0.029598,0.066765,0.03769,0.027065,-0.05,-0.00272,-0.538304,0.064733,-0.063914,-264.516076,0.898248,61.7
0.9168,-0.033793,-0.028609,0.064297,0.037495,0.027157,-0.05,-0.000423,-0.537755,0.065563,-0.07141,-264.50402,0.973313,61.713558
0.9373,-0.033727,-0.028562,0.065041,0.035562,0.026378,-0.05,-0.000434,-0.537723,0.065448,-0.07141,-264.50402,0.973313,61.713558
0.9572,-0.031571,-0.027915,0.064298,0.035512,0.026309,-0.05,0.000505,-0.536828,0.063873,-0.091884,-264.489462,0.991388,61.729619
0.9768,-0.032106,-0.02752,0.064449,0.033299,0.025829,-0.05,0.001038,-0.536764,0.063967,-0.091884,-264.489462,0.991388,61.729619
0.9969,-0.031933,-0.027954,0.064033,0.033812,0.025395,-0.05,0.001038,-0.536764,0.063967,-0.091884,-264.489462,0.991388,61.729619
1.0171,-0.029788,-0.026836,0.061056,0.033656,0.025854,-0.05,0.002093,-0.535962,0.062304,-0.116425,-264.475379,1.012331,61.748176
1.0368,-0.029593,-0.026616,0.061115,0.03137,0.024968,-0.05,0.002078,-0.535933,0.062176,-0.116425,-264.475379,1.012331,61.748176
1.057,-0.027081,-0.025667,0.059453,0.031163,0.024759,-0.05,0.002672,-0.534822,0.059531,-0.150944,-264.462004,1.027061,61.769234
1.0769,-0.027287,-0.025726,0.057544,0.028558,0.024012,-0.05,0.003127,-0.534683,0.059286,-0.150944,-264.462004,1.027061,61.769234
1.0972,-0.026982,-0.025888,0.058885,0.028722,0.024114,-0.05,0.003127,-0.534683,0.059286,-0.150944,-264.462004,1.027061,61.769234
1.117,-0.024408,-0.024472,0.056967,0.028459,0.024255,-0.05,0.004414,-0.533808,0.056629,-0.175706,-264.449556,1.056377,61.792792
1.137,-0.024053,-0.024695,0.057987,0.025761,0.023043,-0.05,0.004466,-0.533765,0.056592,-0.175706,-264.449556,1.056377,61.792792
1.1568,-0.021565,-0.02282,0.053795,0.025444,0.02326,-0.05,0.006518,-0.532884,0.056131,-0.220019,-264.438317,1.086926,61.816368
1.1769,-0.021581,-0.023145,0.05433,0.02276,0.021628,-0.05,0.006272,-0.532313,0.054583,-0.220019,-264.438317,1.086926,61.816368
1.1969,-0.021852,-0.023126,0.05477,0.022806,0.021938,-0.05,0.006272,-0.532313,0.054583,-0.220019,-264.438317,1.086926,61.816368
1.2168,-0.01938,-0.022031,0.05319,0.023085,0.021896,-0.05,0.007162,-0.531272,0.052536,-0.283107,-264.428452,1.122629,61.838229
1.2372,-0.019594,-0.02195,0.05104,0.020524,0.020969,-0.05,0.00723,-0.531245,0.052522,-0.283107,-264.428452,1.122629,61.838229
1.2567,-0.01728,-0.021057,0.051256,0.020688,0.020921,-0.05,0.007168,-0.530495,0.049327,-0.358103,-264.419801,1.160817,61.858538
1.2768,-0.017252,-0.0205,0.050288,0.018336,0.020144,-0.05,0.008219,-0.530333,0.050207,-0.358103,-264.419801,1.160817,61.858538
1.2966,-0.017695,-0.02085,0.05054,0.01826,0.019607,-0.05,0.008219,-0.530333,0.050207,-0.358103,-264.419801,1.160817,61.858538
1.3167,-0.015265,-0.019643,0.049804,0.018726,0.019929,-0.05,0.008915,-0.529243,0.048371,-0.433096,-264.411711,1.191607,61.878347
1.3367,-0.015636,-0.019873,0.048402,0.016224,0.018859,-0.049804,0.009021,-0.529202,0.048412,-0.433096,-264.411711,1.191607,61.878347
1.3569,-0.013839,-0.019007,0.048101,0.016579,0.019093,-0.048402,0.009594,-0.528616,0.046828,-0.508099,-264.404708,1.22157,61.895906
1.377,-0.013543,-0.01917,0.046793,0.014737,0.018319,-0.048101,0.010286,-0.528419,0.047354,-0.508099,-264.404708,1.22157,61.895906
1.3967,-0.013888,-0.018726,0.045048,0.014425,0.018516,-0.046793,0.010286,-0.528419,0.047354,-0.508099,-264.404708,1.22157,61.895906
1.4172,-0.011759,-0.018373,0.045771,0.014717,0.018081,-0.045048,0.00969,-0.527429,0.043111,-0.583149,-264.39827,1.252731,61.912674
1.4367,-0.012051,-0.017785,0.044054,0.012587,0.017815,-0.045771,0.009836,-0.527436,0.043243,-0.583149,-264.39827,1.252731,61.912674
1.4568,-0.009923,-0.017038,0.041717,0.012822,0.017237,-0.044054,0.010925,-0.526568,0.042285,-0.609112,-264.391358,1.273567,61.931944
1.4768,-0.010332,-0.016897,0.040216,0.010625,0.016609,-0.041717,0.01123,-0.526492,0.041737,-0.609112,-264.391358,1.273567,61.931944
1.4968,-0.010177,-0.016836,0.041874,0.011003,0.016468,-0.040216,0.01123,-0.526492,0.041737,-0.609112,-264.391358,1.273567,61.931944
1.5167,-0.00843,-0.016202,0.040297,0.010873,0.016395,-0.041874,0.011699,-0.525575,0.039839,-0.678078,-264.385446,1.302414,61.949306
1.5371,-0.008306,-0.01632,0.039505,0.009076,0.015849,-0.040297,0.011742,-0.525568,0.039817,-0.678078,-264.385446,1.302414,61.949306
1.5569,-0.006919,-0.01516,0.037228,0.008944,0.015979,-0.039505,0.012224,-0.52529,0.038,-0.634285,-264.380144,1.308798,61.965795
1.5774,-0.007173,-0.015081,0.036449,0.007478,0.014892,-0.037228,0.012181,-0.524933,0.037367,-0.634285,-264.380144,1.308798,61.965795
1.5971,-0.006868,-0.015372,0.036107,0.007718,0.01481,-0.036449,0.012181,-0.524933,0.037367,-0.634285,-264.380144,1.308798,61.965795
1.617,-0.006313,-0.015047,0.035808,0.007418,0.015114,-0.036107,0.011854,-0.524455,0.03469,-0.709382,-264.376462,1.350134,61.977899
1.6376,-0.006061,-0.014525,0.035381,0.006847,0.014811,-0.035808,0.011867,-0.524458,0.034727,-0.709382,-264.376462,1.350134,61.977899
1.6577,-0.004378,-0.01413,0.033084,0.006571,0.014301,-0.035381,0.012242,-0.523657,0.034052,-0.767851,-264.372402,1.365535,61.992228
1.6772,-0.004675,-0.013861,0.036327,0.004843,0.013977,-0.033084,0.012419,-0.523699,0.033327,-0.767851,-264.372402,1.365535,61.992228
1.6972,-0.004596,-0.013902,0.033961,0.005175,0.013683,-0.036327,0.012419,-0.523699,0.033327,-0.767851,-264.372402,1.365535,61.992228
1.7169,-0.00336,-0.012934,0.032502,0.005065,0.013737,-0.033961,0.013021,-0.522896,0.032268,-0.800593,-264.368573,1.38625,62.006755
1.7377,-0.00344,-0.013116,0.032468,0.003778,0.012818,-0.032502,0.013043,-0.522861,0.032239,-0.800593,-264.368573,1.38625,62.006755
1.757,-0.003215,-0.012676,0.031713,0.003864,0.012998,-0.032468,0.013206,-0.522607,0.031869,-0.875356,-264.36684,1.427498,62.013066
1.777,-0.003197,-0.01277,0.032781,0.003615,0.012567,-0.031713,0.013075,-0.52247,0.031704,-0.875356,-264.36684,1.427498,62.013066
1.7969,-0.002845,-0.012978,0.032436,0.003614,0.012658,-0.032781,0.013075,-0.52247,0.031704,-0.875356,-264.36684,1.427498,62.013066
1.817,-0.002589,-0.012708,0.031646,0.003264,0.012879,-0.032436,0.013789,-0.522383,0.031642,-0.950493,-264.365212,1.455649,62.019771
1.8368,-0.002637,-0.012538,0.03128,0.002989,0.01262,-0.031646,0.013774,-0.522379,0.031621,-0.950493,-264.365212,1.455649,62.019771
1.8572,-0.001564,-0.01215,0.029105,0.003027,0.012449,-0.03128,0.013402,-0.521965,0.030468,-1.025443,-264.363083,1.46066,62.028307
1.8771,-0.001615,-0.012101,0.030016,0.001917,0.012099,-0.029105,0.013342,-0.521906,0.029583,-1.025443,-264.363083,1.46066,62.028307
1.8968,-0.00198,-0.012489,0.030575,0.001977,0.012048,-0.030016,0.013342,-0.521906,0.029583,-1.025443,-264.363083,1.46066,62.028307
1.9168,-0.000959,-0.01157,0.029587,0.002361,0.012423,-0.030575,0.013715,-0.521771,0.029395,-1.100495,-264.360822,1.477496,62.038186
1.9373,-0.001297,-0.011854,0.028811,0.001301,0.011537,-0.029587,0.013745,-0.521731,0.029377,-1.100495,-264.360822,1.477496,62.038186
1.957,-0.000646,-0.011374,0.028665,0.001637,0.011812,-0.028811,0.013442,-0.521343,0.028078,-1.175356,-264.359144,1.505796,62.045937
1.9772,-0.000769,-0.011276,0.026386,0.000972,0.01135,-0.028665,0.01375,-0.521202,0.02832,-1.175356,-264.359144,1.505796,62.045937
1.9972,-0.00047,-0.010867,0.028633,0.001066,0.011252,-0.026386,0.01375,-0.521202,0.02832,-1.175356,-264.359144,1.505796,62.045937
2.017,-0.00043,-0.010576,0.026212,0.000781,0.010849,-0.028633,0.014166,-0.520358,0.027878,-1.250452,-264.357747,1.52688,62.052153
2.0373,-0.000179,-0.010597,0.028252,0.000707,0.010561,-0.026212,0.014101,-0.520354,0.027773,-1.250452,-264.357747,1.52688,62.052153
2.0572,0.000311,-0.010203,0.025967,0.000478,0.010587,-0.028252,0.014254,-0.52005,0.027435,-1.325364,-264.356076,1.531855,62.060873
2.0768,-0.000205,-0.01046,0.026724,-4.6e-05,0.010208,-0.025967,0.013859,-0.519996,0.026496,-1.325364,-264.356076,1.531855,62.060873
2.0974,0.000429,-0.010284,0.026742,0.000484,0.010451,-0.026724,0.013859,-0.519996,0.026496,-1.325364,-264.356076,1.531855,62.060873
2.1167,0.000693,-0.00958,0.02628,-0.000154,0.010292,-0.026742,0.014087,-0.519689,0.02572,-1.400353,-264.354312,1.544176,62.069411
2.1373,0.00075,-0.010172,0.023717,-0.000154,0.010292,-0.026742,0.014088,-0.519657,0.025732,-1.400353,-264.354312,1.544176,62.069411
2.1567,0.001845,-0.009494,0.02551,-5e-06,0.0001,0.0,0.012855,-0.519671,0.022805,-1.475361,-264.352233,1.55271,62.078857
2.1769,0.001443,-0.009742,0.025223,-5e-06,0.0001,0.0,0.013988,-0.519432,0.024222,-1.475361,-264.352233,1.55271,62.078857
2.1971,0.001724,-0.009665,0.024412,-5e-06,0.0001,0.0,0.013988,-0.519432,0.024222,-1.475361,-264.352233,1.55271,62.078857
2.2169,0.002402,-0.009042,0.024894,-5e-06,0.0001,0.0,0.014163,-0.519121,0.023393,-1.550361,-264.350339,1.576582,62.087203
2.2371,0.002174,-0.008891,0.022626,-5e-06,0.0001,0.0,0.014228,-0.519094,0.02347,-1.550361,-264.350339,1.576582,62.087203
2.2568,0.00227,-0.008983,0.021685,-5e-06,0.0001,0.0,0.013712,-0.518757,0.022626,-1.52088,-264.350378,1.620712,62.087242
2.277,0.001852,-0.009028,0.021456,-5e-06,0.0001,0.0,0.013494,-0.518817,0.022091,-1.52088,-264.350378,1.620712,62.087242
2.2968,0.00181,-0.00884,0.022868,-5e-06,0.0001,0.0,0.013494,-0.518817,0.022091,-1.52088,-264.350378,1.620712,62.087242
2.3172,0.001991,-0.008948,0.022191,-5e-06,0.0001,0.0,0.013471,-0.518702,0.022868,-1.52088,-264.350418,1.620712,62.087282
2.3374,0.002012,-0.008694,0.02304,-5e-06,0.0001,0.0,0.01346,-0.51871,0.022821,-1.52088,-264.350418,1.620712,62.087282
2.3568,0.001836,-0.008995,0.023603,-5e-06,0.0001,0.0,0.013761,-0.518555,0.02304,-1.52088,-264.350458,1.620712,62.087322
2.377,0.001982,-0.009136,0.023005,-7.5e-05,0.001493,-0.003476,0.013823,-0.518721,0.023354,-1.52088,-264.350458,1.620712,62.087322
2.3968,0.002234,-0.009031,0.02307,-0.000146,0.002928,-0.006818,0.013823,-0.518721,0.023354,-1.52088,-264.350458,1.620712,62.087322
2.4172,0.002543,-0.00905,0.02252,-0.000212,0.004238,-0.009867,0.013998,-0.518891,0.02307,-1.52088,-264.350498,1.620712,62.087362
2.4373,0.002174,-0.00926,0.022611,-0.000275,0.005498,-0.0128,0.014001,-0.518893,0.023025,-1.52088,-264.350498,1.620712,62.087362
2.4569,0.001937,-0.008815,0.022931,-0.000334,0.006684,-0.015562,0.013701,-0.51906,0.022447,-1.596403,-264.350188,1.59142,62.089131
2.4767,0.002152,-0.009153,0.023119,-0.000389,0.00779,-0.018138,0.013661,-0.518835,0.022702,-1.596403,-264.350188,1.59142,62.089131
2.497,0.002349,-0.008723,0.021281,-0.000441,0.008823,-0.020543,0.013661,-0.518835,0.022702,-1.596403,-264.350188,1.59142,62.089131
2.5167,0.002273,-0.008647,0.023009,-0.000488,0.009777,-0.022763,0.013186,-0.518398,0.020776,-1.670935,-264.349373,1.59142,62.093392
2.537,0.002614,-0.009023,0.021448,-0.000532,0.010655,-0.024809,0.01324,-0.518401,0.02091,-1.670935,-264.349373,1.59142,62.093392
2.5573,0.002772,-0.008263,0.022412,-0.000572,0.011459,-0.026679,0.013531,-0.518649,0.02079,-1.688625,-264.347881,1.59142,62.100154
2.5769,0.002921,-0.008276,0.023097,-0.000609,0.012186,-0.028373,0.013905,-0.518328,0.02162,-1.688625,-264.347881,1.59142,62.100154
2.5971,0.002942,-0.008459,0.021942,-0.000641,0.012835,-0.029883,0.013905,-0.518328,0.02162,-1.688625,-264.347881,1.59142,62.100154
2.6168,0.003503,-0.007853,0.019887,-0.00067,0.013407,-0.031215,0.014097,-0.517883,0.02084,-1.688625,-264.346069,1.59142,62.109417
2.6367,0.003272,-0.007949,0.019293,-0.000695,0.013903,-0.032372,0.014066,-0.517863,0.020749,-1.688625,-264.346069,1.59142,62.109417
2.6575,0.0041,-0.00714,0.018439,-0.000716,0.014325,-0.033352,0.013078,-0.517391,0.018192,-1.688625,-264.343887,1.59142,62.121183
2.677,0.004071,-0.007166,0.01947,-0.000733,0.014669,-0.034154,0.013317,-0.51714,0.018193,-1.688625,-264.343887,1.59142,62.121183
2.6968,0.003996,-0.007457,0.018897,-0.000746,0.014935,-0.034774,0.013317,-0.51714,0.018193,-1.688625,-264.343887,1.59142,62.121183
2.7174,0.005287,-0.006498,0.015322,-0.000756,0.015127,-0.03522,0.013587,-0.51669,0.017323,-1.688625,-264.341524,1.59142,62.134652
2.7371,0.004553,-0.006452,0.015556,-0.000761,0.015241,-0.035486,0.013554,-0.516657,0.01715,-1.688625,-264.341524,1.59142,62.134652
2.7568,0.005709,-0.006092,0.015519,-0.000763,0.01528,-0.035576,0.012448,-0.515809,0.014199,-1.688625,-264.338985,1.59142,62.149124
2.7768,0.005668,-0.005995,0.016628,-0.000761,0.015242,-0.035487,0.013103,-0.515861,0.014772,-1.688625,-264.338985,1.59142,62.149124
2.7968,0.005555,-0.005921,0.014941,-0.000756,0.015127,-0.035221,0.013103,-0.515861,0.014772,-1.688625,-264.338985,1.59142,62.149124
2.8169,0.006618,-0.004462,0.01356,-0.000746,0.014936,-0.034777,0.013128,-0.515124,0.013217,-1.688625,-264.336393,1.59142,62.163899
2.837,0.006415,-0.005063,0.014549,-0.000733,0.014669,-0.034155,0.013155,-0.515053,0.013194,-1.688625,-264.336393,1.59142,62.163899
2.8569,0.00736,-0.004263,0.012131,-0.000716,0.014324,-0.033351,0.013798,-0.514426,0.01319,-1.688625,-264.333818,1.59142,62.178578
2.8768,0.007266,-0.004374,0.011146,-0.000695,0.013906,-0.032378,0.013649,-0.514237,0.01241,-1.688625,-264.333818,1.59142,62.178578
2.8972,0.007115,-0.004201,0.010624,-0.00067,0.013409,-0.031221,0.013649,-0.514237,0.01241,-1.688625,-264.333818,1.59142,62.178578
2.9173,0.007976,-0.003228,0.009287,-0.000641,0.012832,-0.029876,0.01249,-0.51346,0.008965,-1.688625,-264.331329,1.59142,62.192768
2.937,0.008359,-0.003696,0.010916,-0.000609,0.012185,-0.028372,0.012504,-0.513424,0.008944,-1.688625,-264.331329,1.59142,62.192768
2.9574,0.008589,-0.002716,0.009763,-0.000572,0.011456,-0.026672,0.013895,-0.513145,0.009705,-1.688625,-264.32905,1.59142,62.205761
2.9773,0.009069,-0.002708,0.007981,-0.000532,0.010655,-0.024808,0.013706,-0.512824,0.009585,-1.688625,-264.32905,1.59142,62.205761
2.9975,0.008787,-0.002948,0.009546,-0.000489,0.00978,-0.022772,0.013706,-0.512824,0.009585,-1.688625,-264.32905,1.59142,62.205761
3.0171,0.009379,-0.002323,0.006948,-0.000441,0.008824,-0.020545,0.01362,-0.51233,0.00816,-1.688625,-264.326979,1.59142,62.217569
3.0371,0.009443,-0.002097,0.00641,-0.000389,0.007793,-0.018145,0.013579,-0.512315,0.00806,-1.688625,-264.326979,1.59142,62.217569
3.0568,0.010625,-0.001657,0.006139,-0.000334,0.006685,-0.015566,0.012691,-0.511708,0.00553,-1.688625,-264.325316,1.59142,62.227046
3.0774,0.010459,-0.001181,0.008049,-0.000275,0.005499,-0.012804,0.013292,-0.511626,0.005763,-1.688625,-264.325316,1.59142,62.227046
3.0968,0.010283,-0.001584,0.005814,-0.000212,0.004242,-0.009877,0.013292,-0.511626,0.005763,-1.688625,-264.325316,1.59142,62.227046
3.1171,0.010716,-0.00128,0.005519,-0.000145,0.002902,-0.006756,0.013227,-0.511196,0.004931,-1.688625,-264.323992,1.59142,62.234592
3.1369,0.01062,-0.001374,0.003503,-7.4e-05,0.001489,-0.003468,0.013247,-0.511192,0.004948,-1.688625,-264.323992,1.59142,62.234592
3.1575,0.010891,-0.00125,0.005857,0.0,0.0,0.0,0.012398,-0.511206,0.003121,-1.688625,-264.323271,1.59142,62.238706
3.1772,0.011006,-0.001262,0.003995,0.0,0.0,0.0,0.013233,-0.511205,0.004618,-1.688625,-264.323271,1.59142,62.238706
3.1967,0.010705,-0.00114,0.004214,0.0,0.0,0.0,0.013233,-0.511205,0.004618,-1.688625,-264.323271,1.59142,62.238706
3.2174,0.010796,-0.001028,0.00468,0.0,0.0,0.0,0.012851,-0.511063,0.004045,-1.688625,-264.323017,1.59142,62.240149
3.2373,0.010887,-0.001122,0.005442,0.0,0.0,0.0,0.012873,-0.511058,0.004084,-1.688625,-264.323017,1.59142,62.240149
3.2571,0.010984,-0.001076,0.003051,0.0,0.0,0.0,0.013662,-0.511114,0.005442,-1.688625,-264.323017,1.59142,62.240149
3.2771,0.011079,-0.001259,0.005199,0.0,0.0,0.0,0.013023,-0.511091,0.004079,-1.688625,-264.323017,1.59142,62.240149
3.2974,0.010883,-0.000919,0.004597,0.0,0.0,0.0,0.013023,-0.511091,0.004079,-1.688625,-264.323017,1.59142,62.240149
3.3169,0.011064,-0.001195,0.006309,0.0,0.0,0.0,0.013227,-0.510913,0.004597,-1.688625,-264.323017,1.59142,62.240149
3.3377,0.011194,-0.000685,0.005123,0.0,0.0,0.0,0.013294,-0.51093,0.004705,-1.688625,-264.323017,1.59142,62.240149
3.3574,0.011171,-0.000971,0.004501,0.0,0.0,0.0,0.013807,-0.510678,0.005123,-1.688625,-264.323017,1.59142,62.240149
3.3773,0.010821,-0.000855,0.003919,-0.0001,9e-06,0.0,0.013617,-0.510839,0.004776,-1.688625,-264.323017,1.59142,62.240149
3.3973,0.011062,-0.001009,0.004112,-0.0001,9e-06,0.0,0.013617,-0.510839,0.004776,-1.688625,-264.323017,1.59142,62.240149
3.4168,0.010892,-0.001132,0.004695,-0.0001,9e-06,0.0,0.01316,-0.511005,0.004112,-1.688625,-264.323017,1.59142,62.240149
3.4368,0.010851,-0.00089,0.00421,-0.0001,9e-06,0.0,0.013168,-0.511013,0.004151,-1.688625,-264.323017,1.59142,62.240149
3.4568,0.011034,-0.000757,0.004861,-0.0001,9e-06,0.0,0.012998,-0.510885,0.00421,-1.613624,-264.323017,1.516419,62.240149
3.4773,0.010964,-0.00098,0.005166,-0.0001,9e-06,0.0,0.01329,-0.510809,0.00458,-1.613624,-264.323017,1.516419,62.240149
3.4969,0.011149,-0.001196,0.004749,-0.0001,9e-06,0.0,0.01329,-0.510809,0.00458,-1.613624,-264.323017,1.516419,62.240149
3.5168,0.010991,-0.001183,0.004143,-0.0001,9e-06,0.0,0.013571,-0.51119,0.004749,-1.538621,-264.323017,1.441417,62.240149
3.5375,0.010965,-0.001192,0.006196,-0.0001,9e-06,0.0,0.013542,-0.51119,0.004711,-1.538621,-264.323017,1.441417,62.240149
3.5573,0.011329,-0.001066,0.004818,-0.0001,9e-06,0.0,0.014125,-0.511182,0.006196,-1.463634,-264.323017,1.36643,62.240149
3.5773,0.011083,-0.000939,0.00396,-8e-06,1e-06,-3e-06,0.013934,-0.511113,0.005418,-1.463634,-264.323017,1.36643,62.240149
3.5968,0.010965,-0.001012,0.006012,-0.001653,0.000151,-0.000666,0.013934,-0.511113,0.005418,-1.463634,-264.323017,1.36643,62.240149
3.617,0.011143,-0.001024,0.004317,-0.003203,0.000293,-0.001291,0.014031,-0.511003,0.006012,-1.388592,-264.323017,1.291388,62.240149
3.6372,0.010844,-0.001193,0.004359,-0.00465,0.000425,-0.001874,0.013985,-0.511004,0.005899,-1.388592,-264.323017,1.291388,62.240149
3.6568,0.01115,-0.001157,0.00381,-0.006031,0.000552,-0.002431,0.013067,-0.511188,0.004359,-1.313603,-264.323017,1.216398,62.240149
3.6769,0.011003,-0.000879,0.004602,-0.007324,0.00067,-0.002952,0.013082,-0.511168,0.004048,-1.313603,-264.323017,1.216398,62.240149
3.6971,0.011137,-0.00065,0.005835,-0.008545,0.000782,-0.003444,0.013082,-0.511168,0.004048,-1.313603,-264.323017,1.216398,62.240149
3.7171,0.011201,-0.001042,0.005551,-0.009671,0.000885,-0.003898,0.014113,-0.510641,0.005835,-1.238623,-264.323017,1.141418,62.240149
3.7374,0.010831,-0.000995,0.005178,-0.010717,0.00098,-0.00432,0.014108,-0.510669,0.005815,-1.238623,-264.323017,1.141418,62.240149
3.7573,0.010849,-0.000959,0.003876,-0.011682,0.001069,-0.004709,0.013472,-0.510988,0.005178,-1.163554,-264.323017,1.066349,62.240149
3.7773,0.010998,-0.000634,0.005653,-0.012562,0.001149,-0.005063,0.013108,-0.51097,0.004445,-1.163554,-264.323017,1.066349,62.240149
3.7971,0.010927,-0.001123,0.004586,-0.013363,0.001222,-0.005387,0.013108,-0.51097,0.004445,-1.163554,-264.323017,1.066349,62.240149
3.8171,0.011219,-0.00105,0.002848,-0.014071,0.001287,-0.005672,0.013266,-0.511117,0.004586,-1.088594,-264.323017,0.991389,62.240149
3.8375,0.011109,-0.000947,0.005926,-0.014697,0.001344,-0.005924,0.013225,-0.511113,0.004468,-1.088594,-264.323017,0.991389,62.240149
3.857,0.01071,-0.000883,0.003818,-0.015242,0.001394,-0.006144,0.014131,-0.510938,0.005926,-1.013611,-264.323017,0.916407,62.240149
3.8772,0.010985,-0.001119,0.005431,-0.015702,0.001436,-0.006329,0.013287,-0.510904,0.004719,-1.013611,-264.323017,0.916407,62.240149
3.897,0.011074,-0.000882,0.004859,-0.016086,0.001471,-0.006484,0.013287,-0.510904,0.004719,-1.013611,-264.323017,0.916407,62.240149
3.9174,0.011028,-0.000826,0.004469,-0.016373,0.001498,-0.006599,0.013552,-0.510876,0.004859,-0.938472,-264.323017,0.841268,62.240149
3.9375,0.010799,-0.001103,0.003232,-0.016584,0.001517,-0.006685,0.013536,-0.510872,0.004833,-0.938472,-264.323017,0.841268,62.240149
3.9568,0.010577,-0.001269,0.003627,-0.016708,0.001528,-0.006735,0.012447,-0.5111,0.003232,-0.863619,-264.323017,0.766414,62.240149
3.9773,0.010965,-0.001066,0.0049,-0.01675,0.001532,-0.006752,0.012436,-0.511194,0.003458,-0.863619,-264.323017,0.766414,62.240149
3.997,0.011324,-0.001024,0.004502,-0.016708,0.001528,-0.006735,0.012436,-0.511194,0.003458,-0.863619,-264.323017,0.766414,62.240149
4.017,0.010871,-0.001234,0.004408,-0.016583,0.001517,-0.006684,0.01362,-0.511019,0.004502,-0.788478,-264.323017,0.691274,62.240149
4.037,0.011035,-0.001127,0.005006,-0.016373,0.001498,-0.0066,0.013587,-0.511033,0.004495,-0.788478,-264.323017,0.691274,62.240149
4.0574,0.010935,-0.001132,0.004629,-0.01608,0.001471,-0.006481,0.013587,-0.511121,0.005006,-0.7136,-264.323017,0.616395,62.240149
4.0772,0.010698,-0.000836,0.002145,-0.015699,0.001436,-0.006328,0.013423,-0.511124,0.004793,-0.7136,-264.323017,0.616395,62.240149
4.0973,0.010955,-0.000829,0.004473,-0.015243,0.001394,-0.006144,0.013423,-0.511124,0.004793,-0.7136,-264.323017,0.616395,62.240149
4.1171,0.011308,-0.000989,0.004872,-0.014689,0.001344,-0.005921,0.013236,-0.510824,0.004473,-0.638599,-264.323017,0.541394,62.240149
4.1375,0.010636,-0.001327,0.004801,-0.014071,0.001287,-0.005672,0.013274,-0.510835,0.0045,-0.638599,-264.323017,0.541394,62.240149
4.1574,0.010938,-0.000754,0.004591,-0.013354,0.001221,-0.005383,0.013085,-0.511321,0.004801,-0.563617,-264.323017,0.466412,62.240149
4.1774,0.010805,-0.001017,0.004085,-0.012562,0.001149,-0.005064,0.013195,-0.510997,0.004683,-0.563617,-264.323017,0.466412,62.240149
4.1971,0.010712,-0.000947,0.004184,-0.011681,0.001068,-0.004708,0.013195,-0.510997,0.004683,-0.563617,-264.323017,0.466412,62.240149
4.2175,0.010852,-0.001121,0.003585,-0.010718,0.00098,-0.00432,0.012845,-0.510942,0.004184,-0.48859,-264.323017,0.391385,62.240149
4.2374,0.010911,-0.001023,0.003965,-0.009674,0.000885,-0.0039,0.012834,-0.510954,0.004145,-0.48859,-264.323017,0.391385,62.240149
4.2571,0.011314,-0.001257,0.005281,-0.008545,0.000782,-0.003444,0.012934,-0.511019,0.003965,-0.413622,-264.323017,0.316417,62.240149
4.2767,0.010814,-0.000853,0.00474,-0.00733,0.00067,-0.002954,0.013547,-0.511151,0.004717,-0.413622,-264.323017,0.316417,62.240149
4.2973,0.010897,-0.000823,0.005341,-0.006033,0.000552,-0.002432,0.013547,-0.511151,0.004717,-0.413622,-264.323017,0.316417,62.240149
4.3172,0.010756,-0.001028,0.004565,-0.004642,0.000425,-0.001871,0.013621,-0.510816,0.005341,-0.338513,-264.323017,0.241308,62.240149
4.337,0.010782,-0.001036,0.005247,-0.003182,0.000291,-0.001282,0.013585,-0.51083,0.00529,-0.338513,-264.323017,0.241308,62.240149
4.3573,0.010978,-0.001159,0.004671,-0.001622,0.000148,-0.000654,0.013458,-0.511029,0.005247,-0.263598,-264.323018,0.166393,62.240149
4.3772,0.010906,-0.001072,0.005125,0.0,0.0,0.0,0.013402,-0.5111,0.004917,-0.263598,-264.323018,0.166393,62.240149
4.3973,0.011003,-0.001146,0.003533,0.0,0.0,0.0,0.013402,-0.5111,0.004917,-0.263598,-264.323018,0.166393,62.240149
4.4168,0.010895,-0.001113,0.00322,0.0,0.0,0.0,0.012804,-0.511142,0.003533,-0.188402,-264.323019,0.091197,62.240148
4.4368,0.011076,-0.000461,0.004589,0.0,0.0,0.0,0.012788,-0.51114,0.003514,-0.188402,-264.323019,0.091197,62.240148
4.4573,0.01082,-0.00074,0.00283,0.0,0.0,0.0,0.013416,-0.510456,0.004589,-0.188402,-264.323019,0.091197,62.240148
4.4771,0.011138,-0.000814,0.006452,0.0,0.0,0.0,0.012754,-0.510618,0.003578,-0.188402,-264.323019,0.091197,62.240148
4.4972,0.010894,-0.00131,0.006081,0.0,0.0,0.0,0.012754,-0.510618,0.003578,-0.188402,-264.323019,0.091197,62.240148
4.5168,0.010591,-0.001043,0.004657,0.0,0.0,0.0,0.013995,-0.5113,0.006081,-0.188402,-264.323019,0.091197,62.240148
4.5367,0.010907,-0.000952,0.004759,0.0,0.0,0.0,0.013925,-0.511282,0.005985,-0.188402,-264.323019,0.091197,62.240148
4.5568,0.01089,-0.001272,0.003942,0.0,0.0,0.0,0.013334,-0.510947,0.004759,-0.188402,-264.323019,0.091197,62.240148
4.5768,0.011166,-0.000837,0.003682,0.0,0.0,0.0,0.013086,-0.51113,0.004293,-0.188402,-264.323019,0.091197,62.240148
4.597,0.010801,-0.00088,0.004831,0.0,0.0,0.0,0.013086,-0.51113,0.004293,-0.188402,-264.323019,0.091197,62.240148
4.617,0.011315,-0.000989,0.0069,-0.0001,9e-06,0.0,0.013265,-0.510874,0.004831,-0.188402,-264.323019,0.091197,62.240148
4.6376,0.010738,-0.001232,0.005122,-0.0001,9e-06,0.0,0.013387,-0.510882,0.004992,-0.188402,-264.323019,0.091197,62.240148
4.657,0.010815,-0.000878,0.002772,-0.0001,9e-06,0.0,0.01335,-0.511225,0.005122,-0.188402,-264.323019,0.091197,62.240148
4.6771,0.011047,-0.00104,0.003595,-0.0001,9e-06,0.0,0.012721,-0.511029,0.003803,-0.188402,-264.323019,0.091197,62.240148
4.6968,0.01104,-0.001271,0.004386,-0.0001,9e-06,0.0,0.012721,-0.511029,0.003803,-0.188402,-264.323019,0.091197,62.240148
4.7167,0.010939,-0.001067,0.004232,-0.0001,9e-06,0.0,0.013275,-0.511266,0.004386,-0.113606,-264.323039,0.016401,62.240127
4.7371,0.011292,-0.001158,0.00402,-0.0001,9e-06,0.0,0.013262,-0.511252,0.004376,-0.113606,-264.323039,0.016401,62.240127
4.7573,0.010866,-0.001092,0.005231,-0.0001,9e-06,0.0,0.013339,-0.511153,0.00402,-0.086128,-264.323073,-0.058532,62.240094
4.777,0.010873,-0.000951,0.002555,-0.0001,9e-06,0.0,0.01345,-0.511114,0.004717,-0.086128,-264.323073,-0.058532,62.240094
4.7968,0.01122,-0.000861,0.001565,-0.0001,9e-06,0.0,0.01345,-0.511114,0.004717,-0.086128,-264.323073,-0.058532,62.240094
4.8171,0.010954,-0.001031,0.005579,-0.0001,9e-06,0.0,0.012013,-0.51086,0.001565,-0.086128,-264.323112,-0.086128,62.240054
4.8369,0.01086,-0.000749,0.005273,-0.001577,0.000136,-0.000706,0.012138,-0.510872,0.001847,-0.086128,-264.323112,-0.086128,62.240054
4.8568,0.010658,-0.000832,0.004653,-0.003076,0.000266,-0.001377,0.013546,-0.510742,0.005273,-0.086128,-264.323152,-0.086128,62.240014
4.8768,0.010723,-0.001229,0.003789,-0.004496,0.000388,-0.002012,0.013252,-0.51079,0.00492,-0.086128,-264.323152,-0.086128,62.240014
4.8969,0.011208,-0.000578,0.005231,-0.005829,0.000503,-0.002608,0.013252,-0.51079,0.00492,-0.086128,-264.323152,-0.086128,62.240014
4.9169,0.010799,-0.000987,0.004928,-0.007085,0.000612,-0.00317,0.013868,-0.51057,0.00523,-0.011126,-264.323218,-0.161131,62.239945
4.9375,0.010772,-0.001024,0.004645,-0.008264,0.000714,-0.003698,0.013827,-0.5106,0.005208,-0.011126,-264.323218,-0.161131,62.239945
4.9578,0.010847,-0.000955,0.002399,-0.009355,0.000808,-0.004186,0.013069,-0.511013,0.004627,0.063956,-264.323959,-0.236213,62.239172
4.9772,0.011014,-0.000755,0.004094,-0.010366,0.000895,-0.004639,0.012491,-0.510978,0.003356,0.063956,-264.323959,-0.236213,62.239172
4.9971,0.010822,-0.000687,0.003152,-0.011298,0.000976,-0.005056,0.012491,-0.510978,0.003356,0.063956,-264.323959,-0.236213,62.239172
5.0171,0.010799,-0.000433,0.003945,-0.012145,0.001049,-0.005435,0.012165,-0.510661,0.003052,0.139005,-264.326155,-0.311261,62.236877
5.037,0.010681,-0.000964,0.004025,-0.012915,0.001115,-0.005779,0.0122,-0.510645,0.003108,0.139005,-264.326155,-0.311261,62.236877
5.0574,0.010315,-0.001149,0.004358,-0.013603,0.001175,-0.006087,0.01232,-0.510926,0.00384,0.18481,-264.330525,-0.345225,62.232313
5.0769,0.010341,-0.001068,0.003052,-0.014213,0.001227,-0.00636,0.012392,-0.511046,0.004113,0.18481,-264.330525,-0.345225,62.232313
5.0973,0.010257,-0.000806,0.003735,-0.014737,0.001272,-0.006594,0.012392,-0.511046,0.004113,0.18481,-264.330525,-0.345225,62.232313
5.1172,0.0095,-0.00091,0.003692,-0.015185,0.001311,-0.006795,0.011535,-0.510751,0.003454,0.18481,-264.335824,-0.345225,62.226777
5.1371,0.009644,-0.001208,0.004715,-0.015547,0.001342,-0.006957,0.011498,-0.510763,0.003467,0.18481,-264.335824,-0.345225,62.226777
5.1569,0.009394,-0.000845,0.003773,-0.01583,0.001367,-0.007083,0.011486,-0.511156,0.004464,0.18481,-264.341772,-0.345225,62.220564
5.1766,0.009071,-0.000968,0.00302,-0.016033,0.001384,-0.007174,0.011318,-0.51097,0.004035,0.18481,-264.341772,-0.345225,62.220564
5.1967,0.00916,-0.000592,0.002976,-0.016154,0.001395,-0.007228,0.011318,-0.51097,0.004035,0.18481,-264.341772,-0.345225,62.220564
5.2173,0.008446,-0.001174,0.005303,-0.016195,0.001398,-0.007247,0.009923,-0.510527,0.002639,0.18481,-264.348089,-0.345225,62.213965
5.2368,0.008515,-0.000798,0.004084,-0.016155,0.001395,-0.007228,0.009987,-0.510568,0.002811,0.18481,-264.348089,-0.345225,62.213965
5.2571,0.007888,-0.000398,0.002754,-0.016033,0.001384,-0.007174,0.009972,-0.510742,0.003804,0.18481,-264.354672,-0.345225,62.207089
5.2771,0.008403,-0.000429,0.002863,-0.015831,0.001367,-0.007084,0.009506,-0.510538,0.00317,0.18481,-264.354672,-0.345225,62.207089
5.2968,0.007588,-0.000627,0.003139,-0.015547,0.001342,-0.006957,0.009506,-0.510538,0.00317,0.18481,-264.354672,-0.345225,62.207089
5.3168,0.007241,-0.000634,0.00356,-0.015183,0.001311,-0.006794,0.008405,-0.510559,0.002788,0.18481,-264.361237,-0.345225,62.200231
5.3368,0.007176,-0.000621,0.001903,-0.014737,0.001272,-0.006594,0.008429,-0.510562,0.002833,0.18481,-264.361237,-0.345225,62.200231
5.3572,0.006265,-0.000508,0.002328,-0.014211,0.001227,-0.006359,0.007546,-0.51057,0.001634,0.18481,-264.367571,-0.345225,62.193614
5.3767,0.007147,-0.000437,0.001981,-0.013603,0.001174,-0.006087,0.007416,-0.510528,0.001995,0.18481,-264.367571,-0.345225,62.193614
5.3968,0.006849,-0.000186,0.002517,-0.012915,0.001115,-0.005779,0.007416,-0.510528,0.001995,0.18481,-264.367571,-0.345225,62.193614
5.4168,0.005972,-0.000601,0.001642,-0.012147,0.001049,-0.005435,0.007417,-0.510124,0.002197,0.18481,-264.373561,-0.345225,62.187357
5.4367,0.006215,-0.000343,0.000194,-0.011297,0.000975,-0.005055,0.007356,-0.510156,0.00215,0.18481,-264.373561,-0.345225,62.187357
5.4568,0.00599,-0.000423,0.001565,-0.010364,0.000895,-0.004638,0.005814,-0.5103,-3e-05,0.18481,-264.378823,-0.345225,62.18186
5.4767,0.005493,-0.000508,0.001382,-0.009351,0.000807,-0.004184,0.006309,-0.510365,0.000855,0.18481,-264.378823,-0.345225,62.18186
5.4967,0.00552,-0.000273,0.000441,-0.008261,0.000713,-0.003696,0.006309,-0.510365,0.000855,0.18481,-264.378823,-0.345225,62.18186
5.5169,0.005237,-0.000543,0.000192,-0.007083,0.000612,-0.003169,0.005196,-0.510226,0.000195,0.18481,-264.383414,-0.345225,62.177064
5.5374,0.005075,-0.000691,0.001619,-0.005832,0.000504,-0.002609,0.005191,-0.510245,0.000189,0.18481,-264.383414,-0.345225,62.177064
5.5572,0.004827,-0.000275,0.00058,-0.004495,0.000388,-0.002011,0.005581,-0.510663,0.001476,0.18481,-264.386781,-0.345225,62.173548
5.5774,0.004879,-0.000225,0.001414,-0.003081,0.000266,-0.001378,0.005278,-0.510437,0.000945,0.18481,-264.386781,-0.345225,62.173548
5.5974,0.005091,-0.000409,0.002183,-0.001581,0.000136,-0.000707,0.005278,-0.510437,0.000945,0.18481,-264.386781,-0.345225,62.173548
5.6175,0.004587,-0.000355,0.002743,0.0,0.0,0.0,0.005922,-0.510384,0.002057,0.18481,-264.38915,-0.345225,62.171072
5.6373,0.004601,-0.000368,0.000365,0.0,0.0,0.0,0.005919,-0.510381,0.0021,0.18481,-264.38915,-0.345225,62.171072
5.6569,0.004612,-0.000459,0.001229,0.0,0.0,0.0,0.004726,-0.510363,0.000338,0.18481,-264.389795,-0.345225,62.170399
5.6769,0.00454,-0.000127,-0.000127,0.0,0.0,0.0,0.005012,-0.510417,0.000844,0.18481,-264.389795,-0.345225,62.170399
5.6976,0.004998,-7.1e-05,0.000458,0.0,0.0,0.0,0.005012,-0.510417,0.000844,0.18481,-264.389795,-0.345225,62.170399
5.717,0.004304,-0.000261,1.4e-05,0.0,0.0,0.0,0.005232,-0.510071,0.000458,0.18481,-264.389795,-0.345225,62.170399
5.7372,0.004765,-0.000524,-0.000253,0.0,0.0,0.0,0.005171,-0.510083,0.000429,0.18481,-264.389795,-0.345225,62.170399
5.7576,0.004791,-5e-06,0.001634,0.0,0.0,0.0,0.004636,-0.510524,-0.000253,0.18481,-264.389795,-0.345225,62.170399
5.7768,0.004545,-0.000401,-0.00017,0.0,0.0,0.0,0.005197,-0.510229,0.000818,0.18481,-264.389795,-0.345225,62.170399
5.7971,0.004693,-0.000525,-0.000447,0.0,0.0,0.0,0.005197,-0.510229,0.000818,0.18481,-264.389795,-0.345225,62.170399
5.8168,0.004601,-0.000501,-6e-06,0.0,0.0,0.0,0.004465,-0.510525,-0.000447,0.18481,-264.389795,-0.345225,62.170399
5.8371,0.004739,-0.000378,0.002057,0.0,0.0,0.0,0.004474,-0.510523,-0.000416,0.18481,-264.389795,-0.345225,62.170399
5.8569,0.004354,-0.000337,0.00193,-0.0001,8e-06,0.0,0.005788,-0.510377,0.002057,0.18481,-264.389795,-0.345225,62.170399
5.8774,0.004651,-0.000251,0.000895,-0.0001,8e-06,0.0,0.005531,-0.510354,0.001984,0.18481,-264.389795,-0.345225,62.170399
5.897,0.004431,-0.000612,0.000516,-0.0001,8e-06,0.0,0.005531,-0.510354,0.001984,0.18481,-264.389795,-0.345225,62.170399
5.9166,0.004331,-0.000442,0.001621,-0.0001,8e-06,0.0,0.004694,-0.510612,0.000516,0.18481,-264.389795,-0.345225,62.170399
5.9371,0.004323,-0.000442,0.000135,-0.0001,8e-06,0.0,0.004726,-0.5106,0.000594,0.18481,-264.389795,-0.345225,62.170399
5.9567,0.004716,-0.000612,-6e-06,-0.0001,8e-06,0.0,0.004391,-0.510442,0.000135,0.109818,-264.389799,-0.270233,62.170395
5.9769,0.00465,-0.000414,0.000495,-0.0001,8e-06,0.0,0.004574,-0.510539,5.4e-05,0.109818,-264.389799,-0.270233,62.170395
5.9973,0.004705,-0.00054,0.001407,-0.0001,8e-06,0.0,0.004574,-0.510539,5.4e-05,0.109818,-264.389799,-0.270233,62.170395
6.0168,0.004723,-0.000477,0.000775,-0.0001,8e-06,0.0,0.005421,-0.510539,0.001406,0.034799,-264.389811,-0.195215,62.170383
6.0372,0.005165,-5e-06,0.001673,-0.0001,8e-06,0.0,0.005402,-0.510535,0.001365,0.034799,-264.389811,-0.195215,62.170383
6.0569,0.004402,-3.9e-05,0.002405,-0.0001,8e-06,0.0,0.006016,-0.510004,0.001673,-0.04045,-264.389837,-0.119965,62.170357
6.077,0.004531,-0.000261,0.002805,-0.000693,5.7e-05,-0.000301,0.005796,-0.510023,0.002087,-0.04045,-264.389837,-0.119965,62.170357
6.0971,0.004471,-0.000263,0.000362,-0.001352,0.000111,-0.000587,0.005796,-0.510023,0.002087,-0.04045,-264.389837,-0.119965,62.170357
6.1171,0.004732,-0.000413,0.001484,-0.001974,0.000162,-0.000857,0.004651,-0.510263,0.000362,-0.081741,-264.389875,-0.081741,62.170319
6.1371,0.004822,-0.000183,0.000939,-0.002559,0.00021,-0.001111,0.004709,-0.510273,0.000441,-0.081741,-264.389875,-0.081741,62.170319
6.157,0.004285,-0.000155,0.001011,-0.00311,0.000255,-0.00135,0.005294,-0.510182,0.000938,-0.006861,-264.38994,-0.156621,62.170252
6.1768,0.004501,-0.000294,0.001212,-0.003624,0.000297,-0.001574,0.005013,-0.510167,0.00098,-0.006861,-264.38994,-0.156621,62.170252
6.1969,0.004652,-0.000697,0.001735,-0.004105,0.000336,-0.001782,0.005013,-0.510167,0.00098,-0.006861,-264.38994,-0.156621,62.170252
6.2167,0.004622,-0.000295,3e-06,-0.004548,0.000373,-0.001975,0.005493,-0.510693,0.001724,0.068416,-264.390293,-0.231898,62.169884
6.2375,0.004546,-0.00018,0.000736,-0.004958,0.000406,-0.002153,0.005431,-0.510665,0.001603,0.068416,-264.390293,-0.231898,62.169884
6.2567,0.004334,-0.000414,0.002206,-0.00533,0.000437,-0.002314,0.004809,-0.51017,0.000694,0.143131,-264.391445,-0.306613,62.168684
6.2773,0.004596,-0.000569,-4.7e-05,-0.005667,0.000464,-0.002461,0.005159,-0.510305,0.001534,0.143131,-264.391445,-0.306613,62.168684
6.2967,0.004285,-0.000263,0.000311,-0.00597,0.000489,-0.002592,0.005159,-0.510305,0.001534,0.143131,-264.391445,-0.306613,62.168684
6.3167,0.0043,-0.000212,-1e-06,-0.006237,0.000511,-0.002708,0.004211,-0.510244,0.00021,0.181241,-264.393394,-0.334088,62.166655
6.3367,0.004116,1.5e-05,0.000699,-0.006469,0.00053,-0.002809,0.004211,-0.510241,0.000191,0.181241,-264.393394,-0.334088,62.166655
6.3568,0.003757,-0.000276,-0.00081,-0.006663,0.000546,-0.002893,0.004242,-0.509966,0.000599,0.181241,-264.395819,-0.334088,62.16413
6.3773,0.003958,-0.000372,-0.000558,-0.006823,0.000559,-0.002962,0.0037,-0.510141,-0.000219,0.181241,-264.395819,-0.334088,62.16413
6.3966,0.004087,-0.000429,-0.000951,-0.006947,0.000569,-0.003016,0.0037,-0.510141,-0.000219,0.181241,-264.395819,-0.334088,62.16413
6.4167,0.003595,-0.000256,0.001296,-0.007036,0.000576,-0.003055,0.003288,-0.510403,-0.001088,0.181241,-264.398446,-0.334088,62.161395
6.437,0.00392,-0.000603,0.000442,-0.00709,0.000581,-0.003078,0.003346,-0.510392,-0.000926,0.181241,-264.398446,-0.334088,62.161395
6.4566,0.003741,-0.000213,0.002429,-0.007107,0.000582,-0.003086,0.003878,-0.510581,0.000326,0.181241,-264.401276,-0.334088,62.158448
6.477,0.003509,-1.6e-05,0.000311,-0.00709,0.000581,-0.003078,0.004476,-0.510366,0.001518,0.181241,-264.401276,-0.334088,62.158448
6.4967,0.003316,9.1e-05,-8.7e-05,-0.007036,0.000576,-0.003055,0.004476,-0.510366,0.001518,0.181241,-264.401276,-0.334088,62.158448
6.5167,0.003089,-0.000152,-0.001396,-0.006948,0.000569,-0.003017,0.002928,-0.509881,-0.000236,0.181241,-264.404154,-0.334088,62.155451
6.5376,0.003117,-0.000318,-0.000295,-0.006823,0.000559,-0.002963,0.00288,-0.509899,-0.000322,0.181241,-264.404154,-0.334088,62.155451
6.5567,0.003038,9e-06,0.000403,-0.006663,0.000546,-0.002893,0.002695,-0.510296,-0.000413,0.181241,-264.407026,-0.334088,62.152461
6.5768,0.002849,0.000188,0.00081,-0.006468,0.00053,-0.002808,0.002978,-0.510116,4.5e-05,0.181241,-264.407026,-0.334088,62.152461
6.5968,0.00306,4.6e-05,0.000304,-0.006237,0.000511,-0.002708,0.002978,-0.510116,4.5e-05,0.181241,-264.407026,-0.334088,62.152461
6.6168,0.002779,-0.000222,0.00063,-0.00597,0.000489,-0.002592,0.002884,-0.509927,0.00016,0.181241,-264.409791,-0.334088,62.149583
6.637,0.00256,-0.000253,-0.000507,-0.005668,0.000464,-0.002461,0.00289,-0.509947,0.000188,0.181241,-264.409791,-0.334088,62.149583
