mach0312/omni-docking-bench/src/icros_test_setup/results/kinematic_sample/timeseries/trial_103.csv
t,x,y,yaw,vx,vy,wz,bl_x,bl_y,bl_yaw,front_steering_joint,front_wheel_joint,rear_steering_joint,rear_wheel_joint
0.0,0.009018,0.020194,-0.052869,-0.008092,0.000884,-0.00499,-0.0161,-0.48958,-0.050619,0.261329,-264.520897,-0.452225,61.952701
0.0004,0.008796,0.020015,-0.05333,-0.004917,0.000537,-0.003032,-0.0161,-0.48958,-0.050619,0.261329,-264.524542,-0.452225,61.948786
0.0007,0.009232,0.020249,-0.054794,-0.004219,0.000461,-0.002602,-0.018014,-0.489375,-0.052983,0.261329,-264.527707,-0.452225,61.945387
0.0011,0.008412,0.02033,-0.052613,-0.003474,0.000379,-0.002143,-0.018014,-0.489375,-0.052983,0.261329,-264.530489,-0.452225,61.942399
0.0014,0.008949,0.020082,-0.051483,-0.002659,0.00029,-0.00164,-0.017924,-0.489372,-0.052809,0.261329,-264.532527,-0.452225,61.94021
0.0017,0.0089,0.019955,-0.051661,-0.001833,0.0002,-0.001131,-0.017924,-0.489372,-0.052809,0.261329,-264.533963,-0.452225,61.938669
0.002,0.00856,0.019941,-0.051789,-0.000949,0.000104,-0.000585,-0.018115,-0.48926,-0.053158,0.261329,-264.534355,-0.452225,61.938247
0.0022,0.008324,0.019998,-0.052441,-1e-05,1e-06,-6e-06,-0.017905,-0.48927,-0.052605,0.261329,-264.534355,-0.452225,61.938247
0.0025,0.00861,0.020384,-0.050521,0.0,0.0,0.0,-0.017905,-0.48927,-0.052605,0.261329,-264.534355,-0.452225,61.938247
0.0027,0.00846,0.019868,-0.052777,0.0,0.0,0.0,-0.017905,-0.48927,-0.052605,0.261329,-264.534355,-0.452225,61.938247
0.0185,0.008527,0.020073,-0.052525,-0.007401,-0.016,0.03,-0.01771,-0.489107,-0.051361,0.261329,-264.534355,-0.452225,61.938247
0.0383,0.008326,0.02013,-0.05094,-0.007461,-0.020493,0.05,-0.018249,-0.489224,-0.052525,0.261329,-264.534355,-0.452225,61.938247
0.0587,0.008469,0.020328,-0.050999,-0.00729,-0.020527,0.05,-0.018203,-0.489223,-0.052405,0.261329,-264.534355,-0.452225,61.938247
0.0783,0.008145,0.019796,-0.053941,-0.007422,-0.020734,0.05,-0.017529,-0.489009,-0.050999,0.186073,-264.534355,-0.376969,61.938247
0.0984,0.00851,0.020375,-0.052901,-0.007066,-0.020206,0.05,-0.018567,-0.489267,-0.052675,0.186073,-264.534355,-0.376969,61.938247
0.1184,0.008591,0.020069,-0.053209,-0.007421,-0.020797,0.05,-0.018567,-0.489267,-0.052675,0.186073,-264.534355,-0.376969,61.938247
0.1385,0.008354,0.019803,-0.051425,-0.007512,-0.020497,0.05,-0.018533,-0.489209,-0.053209,0.111315,-264.534355,-0.451727,61.938247
0.1584,0.008637,0.019742,-0.051643,-0.007325,-0.020206,0.05,-0.018486,-0.489231,-0.053085,0.111315,-264.534355,-0.451727,61.938247
0.1783,0.00804,0.020374,-0.053619,-0.007607,-0.020162,0.05,-0.017689,-0.489578,-0.051643,0.036308,-264.534355,-0.526733,61.938247
0.1986,0.008307,0.020498,-0.05404,-0.006937,-0.020776,0.05,-0.018614,-0.489183,-0.052783,0.036308,-264.534355,-0.526733,61.938247
0.2184,0.008212,0.019864,-0.053151,-0.007188,-0.020917,0.05,-0.018614,-0.489183,-0.052783,0.036308,-264.534355,-0.526733,61.938247
0.2384,0.008499,0.020037,-0.050185,-0.007145,-0.020273,0.05,-0.018882,-0.489415,-0.053151,-0.039163,-264.534355,-0.602204,61.938247
0.2586,0.008557,0.020291,-0.053386,-0.007483,-0.020438,0.05,-0.018747,-0.489408,-0.052927,-0.039163,-264.534355,-0.602204,61.938247
0.278,0.008452,0.019851,-0.053046,-0.007462,-0.020719,0.05,-0.018657,-0.488982,-0.053386,-0.113975,-264.534355,-0.677016,61.938247
0.2982,0.008414,0.019983,-0.05121,-0.007387,-0.020271,0.05,-0.018618,-0.489239,-0.053192,-0.113975,-264.534355,-0.677016,61.938247
0.3183,0.008416,0.020228,-0.051583,-0.00738,-0.020387,0.05,-0.018618,-0.489239,-0.053192,-0.113975,-264.534355,-0.677016,61.938247
0.338,0.008441,0.020215,-0.052081,-0.007362,-0.020635,0.05,-0.01788,-0.489094,-0.051583,-0.188774,-264.534355,-0.751815,61.938247
0.3585,0.008286,0.020016,-0.052159,-0.007377,-0.020627,0.05,-0.017896,-0.489094,-0.051618,-0.188774,-264.534355,-0.751815,61.938247
0.3782,0.008233,0.019995,-0.052085,-0.007231,-0.020421,0.05,-0.018303,-0.48929,-0.052159,-0.263685,-264.534355,-0.826726,61.938247
0.3981,0.008601,0.020289,-0.051326,-0.007181,-0.020397,0.05,-0.018312,-0.489303,-0.052117,-0.263685,-264.534355,-0.826726,61.938247
0.4183,0.008378,0.020062,-0.051949,-0.007549,-0.020703,0.05,-0.018312,-0.489303,-0.052117,-0.263685,-264.534355,-0.826726,61.938247
0.4383,0.00853,0.020031,-0.04936,-0.007325,-0.02047,0.05,-0.018103,-0.48925,-0.051949,-0.338834,-264.534355,-0.901875,61.938247
0.459,0.008216,0.020101,-0.053703,-0.007531,-0.020427,0.04936,-0.017962,-0.489259,-0.0517,-0.338834,-264.534355,-0.901875,61.938247
0.4784,0.008465,0.019961,-0.053513,-0.007126,-0.020513,0.05,-0.019159,-0.489164,-0.053703,-0.414535,-264.534355,-0.977577,61.938247
0.4983,0.008384,0.020347,-0.052932,-0.007385,-0.020385,0.05,-0.018965,-0.489246,-0.053596,-0.414535,-264.534355,-0.977577,61.938247
0.5185,0.008614,0.020149,-0.053067,-0.007296,-0.020762,0.05,-0.018965,-0.489246,-0.053596,-0.414535,-264.534355,-0.977577,61.938247
0.5382,0.00824,0.019758,-0.053173,-0.007534,-0.020578,0.05,-0.018437,-0.489133,-0.053067,-0.488792,-264.534355,-1.051833,61.938247
0.5588,0.008688,0.020108,-0.051573,-0.007178,-0.020168,0.05,-0.018464,-0.489158,-0.053074,-0.488792,-264.534355,-1.051833,61.938247
0.5782,0.008298,0.020321,-0.052446,-0.00764,-0.020529,0.05,-0.017602,-0.489214,-0.051572,-0.563682,-264.534356,-1.126724,61.938248
0.5981,0.008638,0.019952,-0.05364,-0.007222,-0.020728,0.05,-0.018082,-0.489079,-0.052075,-0.563682,-264.534356,-1.126724,61.938248
0.6182,0.008519,0.020064,-0.052186,-0.007556,-0.020386,0.05,-0.018082,-0.489079,-0.052075,-0.563682,-264.534356,-1.126724,61.938248
0.6382,0.008411,0.019917,-0.05257,-0.007461,-0.020481,0.05,-0.018083,-0.489242,-0.052186,-0.638865,-264.534357,-1.201907,61.938252
0.6587,0.008921,0.020262,-0.052689,-0.007353,-0.020331,0.05,-0.018105,-0.489251,-0.052213,-0.638865,-264.534357,-1.201907,61.938252
0.6784,0.00838,0.020147,-0.052442,-0.007841,-0.020704,0.05,-0.017938,-0.489032,-0.052684,-0.713798,-264.534371,-1.276839,61.938311
0.6985,0.008205,0.020235,-0.052544,-0.007313,-0.020558,0.05,-0.018176,-0.489101,-0.052545,-0.713798,-264.534371,-1.276839,61.938311
0.7181,0.00816,0.020153,-0.051915,-0.007131,-0.020638,0.05,-0.018176,-0.489101,-0.052545,-0.713798,-264.534371,-1.276839,61.938311
0.7381,0.008648,0.020291,-0.05316,-0.007103,-0.020549,0.05,-0.018305,-0.489178,-0.051874,-0.788826,-264.53446,-1.351868,61.938673
0.7584,0.00826,0.020408,-0.053602,-0.007558,-0.020722,0.05,-0.018315,-0.489165,-0.051962,-0.788826,-264.53446,-1.351868,61.938673
0.7781,0.008486,0.02019,-0.051956,-0.007155,-0.020821,0.05,-0.019068,-0.488927,-0.053442,-0.863683,-264.534866,-1.426725,61.940395
0.7983,0.008244,0.020166,-0.050967,-0.007426,-0.020604,0.05,-0.018459,-0.489047,-0.052574,-0.863683,-264.534866,-1.426725,61.940395
0.8189,0.008499,0.020273,-0.05285,-0.007206,-0.02056,0.05,-0.018459,-0.489047,-0.052574,-0.863683,-264.534866,-1.426725,61.940395
0.8383,0.007712,0.019991,-0.051678,-0.007416,-0.020694,0.05,-0.01848,-0.48921,-0.052338,-0.914619,-264.53607,-1.502036,61.944604
0.858,0.008165,0.019505,-0.052443,-0.006669,-0.020363,0.05,-0.018492,-0.489224,-0.052278,-0.914619,-264.53607,-1.502036,61.944604
0.8784,0.007642,0.019551,-0.050347,-0.007131,-0.019906,0.05,-0.01865,-0.49002,-0.051758,-0.945342,-264.538473,-1.576719,61.95133
0.8985,0.007983,0.019392,-0.05172,-0.006649,-0.019911,0.05,-0.018301,-0.489924,-0.050862,-0.945342,-264.538473,-1.576719,61.95133
0.9183,0.007147,0.019721,-0.050452,-0.00697,-0.019778,0.05,-0.018301,-0.489924,-0.050862,-0.945342,-264.538473,-1.576719,61.95133
0.9391,0.006571,0.019202,-0.049368,-0.006144,-0.020057,0.05,-0.018758,-0.489993,-0.049231,-0.99059,-264.542156,-1.651839,61.960571
0.9585,0.006495,0.019566,-0.048417,-0.005615,-0.019502,0.049368,-0.018752,-0.490016,-0.049207,-0.99059,-264.542156,-1.651839,61.960571
0.9786,0.005266,0.018779,-0.048935,-0.005541,-0.019857,0.048417,-0.018412,-0.490192,-0.047167,-0.995981,-264.547012,-1.708437,61.972265
0.9987,0.00549,0.019001,-0.047037,-0.004341,-0.019014,0.048935,-0.019151,-0.490471,-0.048004,-0.995981,-264.547012,-1.708437,61.972265
1.0187,0.005537,0.018495,-0.048301,-0.00459,-0.019238,0.047037,-0.019151,-0.490471,-0.048004,-0.995981,-264.547012,-1.708437,61.972265
1.0383,0.004239,0.017855,-0.047866,-0.004637,-0.018741,0.048301,-0.019337,-0.491537,-0.04652,-1.070808,-264.5512,-1.683403,61.98647
1.0582,0.004273,0.018424,-0.044909,-0.00338,-0.018037,0.047866,-0.019388,-0.491551,-0.046557,-1.070808,-264.5512,-1.683403,61.98647
1.0783,0.003026,0.017321,-0.043052,-0.003442,-0.018597,0.044909,-0.018812,-0.491683,-0.043304,-1.120283,-264.555241,-1.666204,62.003209
1.0985,0.003141,0.01745,-0.045319,-0.002278,-0.017435,0.043052,-0.0189,-0.492061,-0.042957,-1.120283,-264.555241,-1.666204,62.003209
1.1185,0.00287,0.017214,-0.044317,-0.002347,-0.017575,0.045319,-0.0189,-0.492061,-0.042957,-1.120283,-264.555241,-1.666204,62.003209
1.1389,0.002012,0.017023,-0.041884,-0.002104,-0.017324,0.044317,-0.019874,-0.492868,-0.042776,-1.195413,-264.558351,-1.642183,62.015809
1.1587,0.002005,0.016651,-0.041556,-0.001298,-0.017092,0.041884,-0.019843,-0.49286,-0.042679,-1.195413,-264.558351,-1.642183,62.015809
1.1782,0.001366,0.016224,-0.039562,-0.001311,-0.01672,0.041556,-0.019276,-0.493386,-0.040329,-1.270282,-264.561267,-1.622618,62.02855
1.1982,0.001122,0.016142,-0.040436,-0.000723,-0.016265,0.039562,-0.01902,-0.493441,-0.039737,-1.270282,-264.561267,-1.622618,62.02855
1.2181,0.0015,0.016385,-0.041041,-0.000469,-0.016174,0.040436,-0.01902,-0.493441,-0.039737,-1.270282,-264.561267,-1.622618,62.02855
1.2383,0.00013,0.015784,-0.040112,-0.000827,-0.016432,0.041041,-0.019502,-0.493763,-0.039627,-1.345384,-264.563653,-1.601197,62.040412
1.2592,0.000257,0.016049,-0.040135,0.000503,-0.015776,0.040112,-0.019557,-0.49378,-0.039624,-1.345384,-264.563653,-1.601197,62.040412
1.2781,-0.000367,0.015236,-0.038111,0.000387,-0.016046,0.040135,-0.020243,-0.493931,-0.039161,-1.420278,-264.565784,-1.582264,62.050613
1.2981,-0.000209,0.015035,-0.038299,0.000947,-0.015211,0.038111,-0.019994,-0.494244,-0.038439,-1.420278,-264.565784,-1.582264,62.050613
1.3182,-0.000276,0.015397,-0.038329,0.000785,-0.015016,0.038299,-0.019994,-0.494244,-0.038439,-1.420278,-264.565784,-1.582264,62.050613
1.3381,-0.000859,0.014784,-0.038846,0.000866,-0.015375,0.038329,-0.019835,-0.494606,-0.037369,-1.495421,-264.567505,-1.558307,62.05855
1.3586,-0.000785,0.014567,-0.036335,0.001433,-0.01474,0.038846,-0.019895,-0.494632,-0.037448,-1.495421,-264.567505,-1.558307,62.05855
1.3782,-0.001626,0.014712,-0.036652,0.001314,-0.014529,0.036335,-0.019315,-0.495462,-0.0354,-1.570366,-264.569631,-1.550367,62.068259
1.3983,-0.001551,0.014241,-0.03633,0.002164,-0.014642,0.036652,-0.019887,-0.495213,-0.035998,-1.570366,-264.569631,-1.550367,62.068259
1.4182,-0.00123,0.014358,-0.036017,0.002067,-0.014175,0.03633,-0.019887,-0.495213,-0.035998,-1.570366,-264.569631,-1.550367,62.068259
1.4381,-0.002154,0.014037,-0.033879,0.001747,-0.014305,0.036017,-0.019578,-0.495787,-0.034759,-1.645387,-264.57205,-1.533561,62.078491
1.4583,-0.002103,0.013722,-0.036323,0.002628,-0.013956,0.033879,-0.019568,-0.495792,-0.034669,-1.645387,-264.57205,-1.533561,62.078491
1.4787,-0.002118,0.014061,-0.034364,0.0026,-0.013636,0.036323,-0.020623,-0.495953,-0.036304,-1.570408,-264.57205,-1.514009,62.078725
1.4985,-0.00217,0.014024,-0.034846,0.0026,-0.01398,0.034364,-0.020067,-0.495776,-0.035203,-1.570408,-264.57205,-1.514009,62.078725
1.5184,-0.002195,0.013852,-0.034783,0.002657,-0.01394,0.034846,-0.020067,-0.495776,-0.035203,-1.570408,-264.57205,-1.514009,62.078725
1.5384,-0.00258,0.014119,-0.036166,0.002676,-0.013767,0.034783,-0.019931,-0.49584,-0.034783,-1.49549,-264.572049,-1.495094,62.078726
1.5581,-0.001892,0.014173,-0.034647,0.003089,-0.014016,0.036166,-0.020003,-0.495821,-0.034874,-1.49549,-264.572049,-1.495094,62.078726
1.578,-0.00251,0.014212,-0.034941,0.002382,-0.014099,0.034647,-0.019559,-0.495521,-0.034647,-1.420491,-264.572049,-1.495509,62.078728
1.5983,-0.001962,0.013859,-0.033752,0.003005,-0.014116,0.034941,-0.019997,-0.495496,-0.034815,-1.420491,-264.572049,-1.495509,62.078728
1.6181,-0.002311,0.013663,-0.037358,0.002429,-0.013785,0.033752,-0.019997,-0.495496,-0.034815,-1.420491,-264.572049,-1.495509,62.078728
1.6382,-0.001855,0.013776,-0.036434,0.002819,-0.013567,0.037358,-0.021359,-0.495981,-0.037358,-1.345495,-264.572049,-1.485458,62.078729
1.6584,-0.002335,0.013617,-0.034333,0.002355,-0.013699,0.036434,-0.021295,-0.495975,-0.037294,-1.345495,-264.572049,-1.485458,62.078729
1.6782,-0.002139,0.014135,-0.035596,0.002801,-0.013529,0.034333,-0.019841,-0.496083,-0.034333,-1.270492,-264.572048,-1.5003,62.078731
1.6983,-0.002075,0.013662,-0.034613,0.002641,-0.014049,0.035596,-0.020096,-0.495775,-0.035051,-1.270492,-264.572048,-1.5003,62.078731
1.7181,-0.002011,0.014077,-0.034916,0.002547,-0.013582,0.034613,-0.020096,-0.495775,-0.035051,-1.270492,-264.572048,-1.5003,62.078731
1.7383,-0.002138,0.014266,-0.035414,0.002501,-0.013998,0.034916,-0.019814,-0.495613,-0.034915,-1.195502,-264.572048,-1.50538,62.078732
1.7584,-0.002455,0.014045,-0.03345,0.002642,-0.014182,0.035414,-0.019839,-0.495599,-0.034948,-1.195502,-264.572048,-1.50538,62.078732
1.7781,-0.002119,0.014017,-0.033835,0.002924,-0.013955,0.03345,-0.019511,-0.49567,-0.03345,-1.120509,-264.572048,-1.49758,62.078734
1.7982,-0.00196,0.013754,-0.034042,0.002592,-0.013937,0.033835,-0.01943,-0.495682,-0.033674,-1.120509,-264.572048,-1.49758,62.078734
1.8182,-0.002171,0.014327,-0.036073,0.002427,-0.013679,0.034042,-0.01943,-0.495682,-0.033674,-1.120509,-264.572048,-1.49758,62.078734
1.8381,-0.002141,0.013995,-0.035553,0.002686,-0.014239,0.036073,-0.020564,-0.495342,-0.036073,-1.045105,-264.572047,-1.497162,62.078735
1.8587,-0.002203,0.013961,-0.034481,0.002637,-0.01391,0.035553,-0.020545,-0.495364,-0.036039,-1.045105,-264.572047,-1.497162,62.078735
1.8783,-0.0022,0.013943,-0.035537,0.002683,-0.013877,0.034481,-0.019785,-0.495736,-0.034481,-0.970511,-264.572047,-1.500512,62.078736
1.8985,-0.002192,0.014055,-0.035611,0.002694,-0.013856,0.035537,-0.020089,-0.495735,-0.035082,-0.970511,-264.572047,-1.500512,62.078736
1.9182,-0.00209,0.013779,-0.034166,0.002691,-0.013968,0.035611,-0.020089,-0.495735,-0.035082,-0.970511,-264.572047,-1.500512,62.078736
1.938,-0.002097,0.014307,-0.036179,0.002559,-0.013699,0.034166,-0.019511,-0.495924,-0.034165,-0.895505,-264.572047,-1.496908,62.078738
1.9584,-0.002237,0.013922,-0.035723,0.002613,-0.014222,0.036179,-0.019579,-0.495886,-0.034299,-0.895505,-264.572047,-1.496908,62.078738
1.9784,-0.002316,0.013746,-0.034318,0.002733,-0.013833,0.035723,-0.020452,-0.495753,-0.035723,-0.820504,-264.572046,-1.495585,62.078739
1.9981,-0.002041,0.013947,-0.035662,0.002786,-0.013659,0.034318,-0.020088,-0.495867,-0.034921,-0.820504,-264.572046,-1.495585,62.078739
2.0181,-0.002133,0.013867,-0.033143,0.002537,-0.013865,0.035662,-0.020088,-0.495867,-0.034921,-0.820504,-264.572046,-1.495585,62.078739
2.0382,-0.00183,0.01412,-0.035084,0.002591,-0.013789,0.033143,-0.019033,-0.495853,-0.033143,-0.745447,-264.572046,-1.498976,62.078741
2.058,-0.002101,0.013981,-0.03491,0.002324,-0.014047,0.035084,-0.01908,-0.495833,-0.033278,-0.745447,-264.572046,-1.498976,62.078741
2.0781,-0.002249,0.013883,-0.034141,0.002587,-0.013899,0.03491,-0.019901,-0.495709,-0.034909,-0.670503,-264.572046,-1.499734,62.078742
2.0982,-0.002141,0.013892,-0.035521,0.002721,-0.013798,0.034141,-0.019762,-0.495772,-0.034472,-0.670503,-264.572046,-1.499734,62.078742
2.1182,-0.002086,0.014063,-0.034716,0.002633,-0.013807,0.035521,-0.019762,-0.495772,-0.034472,-0.670503,-264.572046,-1.499734,62.078742
2.1381,-0.002087,0.014041,-0.034463,0.002573,-0.013982,0.034716,-0.019788,-0.49563,-0.034716,-0.595505,-264.572045,-1.505368,62.078744
2.1587,-0.001998,0.013805,-0.034895,0.00257,-0.01396,0.034463,-0.019779,-0.495632,-0.034699,-0.595505,-264.572045,-1.505368,62.078744
2.1781,-0.002119,0.014463,-0.035745,0.002478,-0.013727,0.034895,-0.019791,-0.495885,-0.034895,-0.5205,-264.572045,-1.496762,62.078745
2.1984,-0.00244,0.014043,-0.036449,0.002634,-0.014378,0.035745,-0.020106,-0.495501,-0.035379,-0.5205,-264.572045,-1.496762,62.078745
2.2185,-0.002206,0.014247,-0.033443,0.00295,-0.013944,0.036449,-0.020106,-0.495501,-0.035379,-0.5205,-264.572045,-1.496762,62.078745
2.2383,-0.001997,0.013843,-0.034967,0.002681,-0.014165,0.033443,-0.019259,-0.495468,-0.033443,-0.445497,-264.572045,-1.497529,62.078746
2.2585,-0.002181,0.014127,-0.03542,0.002479,-0.013765,0.034967,-0.019299,-0.495494,-0.03355,-0.445497,-264.572045,-1.497529,62.078746
2.2782,-0.002226,0.013672,-0.034449,0.00268,-0.014041,0.03542,-0.020242,-0.495553,-0.03542,-0.370474,-264.572044,-1.489487,62.078748
2.2984,-0.002335,0.013841,-0.035291,0.002696,-0.013587,0.034449,-0.019987,-0.495821,-0.034871,-0.370474,-264.572044,-1.489487,62.078748
2.3183,-0.00246,0.013902,-0.033542,0.002822,-0.01375,0.035291,-0.019987,-0.495821,-0.034871,-0.370474,-264.572044,-1.489487,62.078748
2.338,-0.002215,0.014315,-0.035591,0.002925,-0.013812,0.033542,-0.019563,-0.495811,-0.033542,-0.295503,-264.572044,-1.500321,62.078749
2.358,-0.002219,0.01405,-0.036519,0.002723,-0.014227,0.035591,-0.019618,-0.49578,-0.033683,-0.295503,-264.572044,-1.500321,62.078749
2.3781,-0.002353,0.013831,-0.034436,0.00273,-0.01396,0.036519,-0.020839,-0.49561,-0.036519,-0.220499,-264.572044,-1.491035,62.078751
2.3982,-0.002547,0.014094,-0.035413,0.002828,-0.013741,0.034436,-0.020313,-0.495756,-0.035336,-0.220499,-264.572044,-1.491035,62.078751
2.4182,-0.002259,0.013626,-0.035937,0.003044,-0.013995,0.035413,-0.020313,-0.495756,-0.035336,-0.220499,-264.572044,-1.491035,62.078751
2.4381,-0.001998,0.013874,-0.03567,0.002748,-0.013536,0.035937,-0.020584,-0.496045,-0.035937,-0.145509,-264.572043,-1.495234,62.078752
2.4587,-0.002317,0.013796,-0.035085,0.002491,-0.013794,0.03567,-0.020557,-0.496029,-0.03592,-0.145509,-264.572043,-1.495234,62.078752
2.4784,-0.0023,0.01399,-0.035026,0.0028,-0.013707,0.035085,-0.020207,-0.49589,-0.035085,-0.070509,-264.572043,-1.485549,62.078753
2.4983,-0.002653,0.014358,-0.033612,0.002788,-0.013901,0.035026,-0.02018,-0.49578,-0.035051,-0.070509,-264.572043,-1.485549,62.078753
2.5181,-0.002082,0.013817,-0.033283,0.003134,-0.01426,0.033612,-0.02018,-0.49578,-0.035051,-0.070509,-264.572043,-1.485549,62.078753
2.538,-0.002332,0.014225,-0.035011,0.002541,-0.01374,0.033283,-0.019053,-0.495901,-0.033282,0.004493,-264.572043,-1.500883,62.078755
2.5586,-0.001929,0.01377,-0.034105,0.002828,-0.014134,0.035011,-0.019133,-0.49587,-0.033404,0.004493,-264.572043,-1.500883,62.078755
2.578,-0.001934,0.013898,-0.035018,0.002397,-0.013697,0.034105,-0.019319,-0.495933,-0.034104,0.079499,-264.572042,-1.480941,62.078756
2.5983,-0.00187,0.014397,-0.034919,0.002419,-0.013821,0.035018,-0.019586,-0.495852,-0.034623,0.079499,-264.572042,-1.480941,62.078756
2.6182,-0.002048,0.013726,-0.034689,0.002371,-0.014323,0.034919,-0.019586,-0.495852,-0.034623,0.079499,-264.572042,-1.480941,62.078756
2.6381,-0.002161,0.014249,-0.035821,0.002523,-0.013646,0.034689,-0.019736,-0.495968,-0.034688,0.154499,-264.572042,-1.491328,62.078758
2.6583,-0.002119,0.013854,-0.034167,0.00267,-0.014163,0.035821,-0.01978,-0.495933,-0.034761,0.154499,-264.572042,-1.491328,62.078758
2.6782,-0.002309,0.01394,-0.033241,0.002591,-0.013773,0.034167,-0.019541,-0.495849,-0.034166,0.229496,-264.572042,-1.504373,62.078759
2.6982,-0.001817,0.013828,-0.033802,0.002771,-0.013855,0.033241,-0.019382,-0.495809,-0.033643,0.229496,-264.572042,-1.504373,62.078759
2.7184,-0.002277,0.01389,-0.034036,0.002284,-0.013759,0.033802,-0.019382,-0.495809,-0.033643,0.229496,-264.572042,-1.504373,62.078759
2.7382,-0.002119,0.013767,-0.032868,0.002748,-0.013805,0.034036,-0.019632,-0.495814,-0.034036,0.304515,-264.572042,-1.49684,62.078761
2.7582,-0.0025,0.014009,-0.035001,0.002571,-0.01369,0.032868,-0.019582,-0.495824,-0.033958,0.304515,-264.572042,-1.49684,62.078761
2.7783,-0.002519,0.013941,-0.034425,0.002989,-0.013913,0.035001,-0.020347,-0.495678,-0.035001,0.379509,-264.572041,-1.504515,62.078762
2.7984,-0.002247,0.013781,-0.035055,0.002997,-0.013846,0.034425,-0.020191,-0.495723,-0.034675,0.379509,-264.572041,-1.504515,62.078762
2.8191,-0.002089,0.013974,-0.034946,0.002728,-0.013693,0.035055,-0.020191,-0.495723,-0.034675,0.379509,-264.572041,-1.504515,62.078762
2.8385,-0.002506,0.014077,-0.035924,0.002576,-0.013892,0.034946,-0.019908,-0.495715,-0.034946,0.454507,-264.572041,-1.494805,62.078763
2.8588,-0.00193,0.014027,-0.035178,0.00301,-0.013978,0.035924,-0.019969,-0.495707,-0.035011,0.454507,-264.572041,-1.494805,62.078763
2.8783,-0.001856,0.013952,-0.034475,0.002422,-0.013951,0.035178,-0.019867,-0.495657,-0.035177,0.529509,-264.572041,-1.493226,62.078765
2.8986,-0.002031,0.013932,-0.03504,0.002336,-0.01388,0.034475,-0.019616,-0.495708,-0.034769,0.529509,-264.572041,-1.493226,62.078765
2.9185,-0.001975,0.013854,-0.035617,0.002518,-0.013852,0.03504,-0.019616,-0.495708,-0.034769,0.529509,-264.572041,-1.493226,62.078765
2.9381,-0.001871,0.013711,-0.032976,0.002467,-0.013775,0.035617,-0.020136,-0.495823,-0.035616,0.604987,-264.572039,-1.487192,62.078771
2.9582,-0.002315,0.014182,-0.034,0.002322,-0.013642,0.032976,-0.020041,-0.495835,-0.035443,0.604987,-264.572039,-1.487192,62.078771
2.9782,-0.002417,0.013748,-0.034994,0.002796,-0.014095,0.034,-0.019652,-0.495524,-0.033999,0.679508,-264.572036,-1.499504,62.078784
2.9982,-0.002435,0.013788,-0.035032,0.002896,-0.013655,0.034994,-0.019995,-0.495759,-0.03456,0.679508,-264.572036,-1.499504,62.078784
3.0182,-0.002075,0.01378,-0.035395,0.002916,-0.013694,0.035032,-0.019995,-0.495759,-0.03456,0.679508,-264.572036,-1.499504,62.078784
3.0383,-0.002289,0.014083,-0.033534,0.002562,-0.013698,0.035395,-0.020122,-0.495905,-0.035385,0.754507,-264.572019,-1.502175,62.07887
3.0587,-0.002485,0.013755,-0.036313,0.00276,-0.013999,0.033534,-0.020072,-0.495886,-0.035258,0.754507,-264.572019,-1.502175,62.07887
3.0781,-0.00258,0.013673,-0.0344,0.002982,-0.013656,0.036313,-0.020996,-0.495927,-0.036271,0.829503,-264.571912,-1.487885,62.079328
3.0985,-0.001907,0.014065,-0.034428,0.003049,-0.013576,0.0344,-0.020498,-0.495985,-0.035202,0.829503,-264.571912,-1.487885,62.079328
3.1186,-0.00237,0.014056,-0.034386,0.00239,-0.013991,0.034428,-0.020498,-0.495985,-0.035202,0.829503,-264.571912,-1.487885,62.079328
3.1385,-0.002407,0.013862,-0.034094,0.002852,-0.013966,0.034386,-0.019881,-0.495752,-0.034141,0.904514,-264.571479,-1.490932,62.081453
3.1584,-0.002277,0.013847,-0.034586,0.002878,-0.013772,0.034094,-0.019875,-0.49576,-0.034132,0.904514,-264.571479,-1.490932,62.081453
3.1783,-0.002668,0.013836,-0.035073,0.002754,-0.01376,0.034586,-0.019896,-0.495935,-0.034386,0.979529,-264.571023,-1.502645,62.083605
3.1984,-0.002442,0.013475,-0.033833,0.003151,-0.013734,0.035073,-0.020264,-0.495898,-0.034748,0.979529,-264.571023,-1.502645,62.083605
3.2188,-0.002301,0.013428,-0.031908,0.002897,-0.013385,0.033833,-0.020264,-0.495898,-0.034748,0.979529,-264.571023,-1.502645,62.083605
3.2384,-0.002189,0.013407,-0.032434,0.002729,-0.013348,0.031908,-0.018508,-0.496515,-0.031309,1.054513,-264.569455,-1.487791,62.088296
3.2586,-0.002671,0.013412,-0.034054,0.002623,-0.013329,0.032434,-0.018523,-0.496506,-0.031379,1.054513,-264.569455,-1.487791,62.088296
3.2781,-0.002996,0.01357,-0.032401,0.003126,-0.013314,0.034054,-0.019967,-0.496536,-0.033332,1.130157,-264.567162,-1.485918,62.095407
3.298,-0.002872,0.013079,-0.032697,0.003434,-0.013465,0.032401,-0.019703,-0.496355,-0.032709,1.130157,-264.567162,-1.485918,62.095407
3.3182,-0.002695,0.013273,-0.033274,0.003298,-0.012978,0.032697,-0.019703,-0.496355,-0.032709,1.130157,-264.567162,-1.485918,62.095407
3.3385,-0.003824,0.012669,-0.032137,0.003135,-0.013176,0.033274,-0.019569,-0.496883,-0.032071,1.186222,-264.564503,-1.491821,62.105062
3.3588,-0.003517,0.012823,-0.032677,0.004229,-0.012539,0.032137,-0.019611,-0.496907,-0.032044,1.186222,-264.564503,-1.491821,62.105062
3.3784,-0.003977,0.012196,-0.030238,0.003934,-0.012701,0.032677,-0.020075,-0.497367,-0.031508,1.130015,-264.561585,-1.471031,62.117209
3.3981,-0.004026,0.012242,-0.02775,0.004344,-0.01207,0.030238,-0.019679,-0.49754,-0.030644,1.130015,-264.561585,-1.471031,62.117209
3.4181,-0.004507,0.011793,-0.029053,0.004364,-0.012126,0.02775,-0.019679,-0.49754,-0.030644,1.130015,-264.561585,-1.471031,62.117209
3.4384,-0.004434,0.011717,-0.027491,0.004848,-0.011658,0.029053,-0.019166,-0.498511,-0.027726,1.055048,-264.55879,-1.440089,62.128196
3.4581,-0.004893,0.011876,-0.028022,0.004755,-0.011591,0.027491,-0.019113,-0.498496,-0.027676,1.055048,-264.55879,-1.440089,62.128196
3.4783,-0.004986,0.011206,-0.029588,0.005224,-0.011735,0.028022,-0.019118,-0.498134,-0.027524,0.98001,-264.557603,-1.421794,62.133559
3.4983,-0.005406,0.011437,-0.028364,0.005316,-0.011054,0.029588,-0.01965,-0.498408,-0.028627,0.98001,-264.557603,-1.421794,62.133559
3.5182,-0.004856,0.011242,-0.026564,0.005728,-0.011279,0.028364,-0.01965,-0.498408,-0.028627,0.98001,-264.557603,-1.421794,62.133559
3.5383,-0.00524,0.010975,-0.026856,0.005153,-0.011109,0.026564,-0.018259,-0.498961,-0.025636,0.905035,-264.555649,-1.404804,62.141421
3.5583,-0.005315,0.011034,-0.02764,0.005533,-0.01083,0.026856,-0.018297,-0.498963,-0.025689,0.905035,-264.555649,-1.404804,62.141421
3.5783,-0.00586,0.01064,-0.023641,0.005618,-0.010883,0.02764,-0.019232,-0.499149,-0.026696,0.830039,-264.552793,-1.373154,62.151425
3.5987,-0.006078,0.010708,-0.02618,0.00611,-0.010498,0.023641,-0.018469,-0.499235,-0.024858,0.830039,-264.552793,-1.373154,62.151425
3.6188,-0.005813,0.010595,-0.024955,0.006356,-0.010546,0.02618,-0.018469,-0.499235,-0.024858,0.830039,-264.552793,-1.373154,62.151425
3.6386,-0.006218,0.009831,-0.024362,0.006075,-0.010447,0.024955,-0.018289,-0.499765,-0.023682,0.788934,-264.549736,-1.370352,62.162243
3.6581,-0.005735,0.010265,-0.022648,0.006456,-0.009677,0.024362,-0.018306,-0.499795,-0.023694,0.788934,-264.549736,-1.370352,62.162243
3.6783,-0.006527,0.009739,-0.021854,0.005966,-0.010132,0.022648,-0.017076,-0.499969,-0.021753,0.713938,-264.546774,-1.33568,62.171901
3.6991,-0.005918,0.009545,-0.023959,0.006738,-0.009594,0.021854,-0.01739,-0.500112,-0.021698,0.713938,-264.546774,-1.33568,62.171901
3.7187,-0.006443,0.009795,-0.023052,0.006145,-0.009401,0.023959,-0.01739,-0.500112,-0.021698,0.713938,-264.546774,-1.33568,62.171901
3.7382,-0.006558,0.009081,-0.021197,0.006667,-0.009644,0.023052,-0.017902,-0.500535,-0.021897,0.678305,-264.543554,-1.313718,62.181762
3.7582,-0.006918,0.008797,-0.023108,0.006749,-0.00894,0.021197,-0.017865,-0.500562,-0.02183,0.678305,-264.543554,-1.313718,62.181762
3.7787,-0.007414,0.008605,-0.022042,0.007119,-0.008635,0.023108,-0.018476,-0.501431,-0.022193,0.705283,-264.540365,-1.32046,62.191563
3.7988,-0.007079,0.008774,-0.021928,0.007601,-0.008439,0.022042,-0.018548,-0.501386,-0.021991,0.705283,-264.540365,-1.32046,62.191563
3.8186,-0.007014,0.008849,-0.021525,0.007269,-0.008617,0.021928,-0.018548,-0.501386,-0.021991,0.705283,-264.540365,-1.32046,62.191563
3.8391,-0.007108,0.008514,-0.019808,0.007203,-0.008696,0.021525,-0.017804,-0.501291,-0.020885,0.630286,-264.538462,-1.271675,62.197115
3.8584,-0.007023,0.008513,-0.01891,0.007275,-0.008371,0.019808,-0.01776,-0.501304,-0.020798,0.630286,-264.538462,-1.271675,62.197115
3.8783,-0.007178,0.007699,-0.019237,0.007183,-0.008379,0.01891,-0.016416,-0.501681,-0.01816,0.581214,-264.535136,-1.251798,62.205167
3.8986,-0.007235,0.008073,-0.021397,0.007325,-0.007559,0.019237,-0.016709,-0.502016,-0.018677,0.581214,-264.535136,-1.251798,62.205167
3.9186,-0.007496,0.007996,-0.018739,0.007406,-0.007916,0.021397,-0.016709,-0.502016,-0.018677,0.581214,-264.535136,-1.251798,62.205167
3.9386,-0.007371,0.007712,-0.018171,0.007644,-0.007854,0.018739,-0.016769,-0.502251,-0.017936,0.506212,-264.532445,-1.229314,62.212319
3.9586,-0.007703,0.0073,-0.019279,0.00751,-0.007577,0.018171,-0.016754,-0.502256,-0.017931,0.506212,-264.532445,-1.229314,62.212319
3.9788,-0.007507,0.0078,-0.015557,0.007842,-0.007151,0.019279,-0.017294,-0.502873,-0.018581,0.581206,-264.529387,-1.231526,62.219862
3.9982,-0.007684,0.007531,-0.017312,0.007627,-0.007682,0.015557,-0.016218,-0.502492,-0.016787,0.581206,-264.529387,-1.231526,62.219862
4.0186,-0.007579,0.007581,-0.017109,0.007813,-0.007397,0.017312,-0.016218,-0.502492,-0.016787,0.581206,-264.529387,-1.231526,62.219862
4.0382,-0.007649,0.007193,-0.016754,0.007708,-0.00745,0.017109,-0.016058,-0.502598,-0.016477,0.506204,-264.527065,-1.188469,62.225496
4.0586,-0.007741,0.006913,-0.016397,0.007768,-0.007064,0.016754,-0.01606,-0.502614,-0.016479,0.506204,-264.527065,-1.188469,62.225496
4.0784,-0.007852,0.006923,-0.015905,0.007854,-0.006785,0.016397,-0.015873,-0.503241,-0.015864,0.431204,-264.524422,-1.160668,62.231637
4.0983,-0.007467,0.00676,-0.014417,0.007961,-0.006797,0.015905,-0.015895,-0.503139,-0.01582,0.431204,-264.524422,-1.160668,62.231637
4.1184,-0.00808,0.006735,-0.015559,0.007563,-0.006651,0.014417,-0.015895,-0.503139,-0.01582,0.431204,-264.524422,-1.160668,62.231637
4.1385,-0.007777,0.006679,-0.016833,0.008184,-0.006608,0.015559,-0.015654,-0.503541,-0.014771,0.387255,-264.521176,-1.148687,62.238974
4.158,-0.007605,0.00626,-0.01666,0.007888,-0.006548,0.016833,-0.015694,-0.50353,-0.014893,0.387255,-264.521176,-1.148687,62.238974
4.1781,-0.007637,0.0063,-0.014791,0.007888,-0.006548,0.016833,-0.01587,-0.503877,-0.016202,0.312252,-264.518629,-1.115733,62.244548
4.1981,-0.008066,0.006579,-0.01382,7.8e-05,-6.2e-05,0.0,-0.015448,-0.503771,-0.015341,0.312252,-264.518629,-1.115733,62.244548
4.2181,-0.007882,0.006424,-0.01462,7.8e-05,-6.2e-05,0.0,-0.015448,-0.503771,-0.015341,0.312252,-264.518629,-1.115733,62.244548
4.2383,-0.008043,0.005972,-0.014613,7.8e-05,-6.2e-05,0.0,-0.015046,-0.503775,-0.014012,0.387252,-264.515977,-1.132464,62.250196
4.258,-0.008133,0.006105,-0.014882,7.8e-05,-6.2e-05,0.0,-0.01507,-0.503796,-0.014037,0.387252,-264.515977,-1.132464,62.250196
4.2782,-0.00781,0.005764,-0.014664,7.8e-05,-6.2e-05,0.0,-0.015723,-0.503838,-0.014882,0.31226,-264.515977,-1.057472,62.250196
4.2982,-0.008078,0.005984,-0.013201,7.8e-05,-6.2e-05,0.0,-0.015477,-0.504032,-0.014758,0.31226,-264.515977,-1.057472,62.250196
4.3185,-0.008035,0.006255,-0.01375,7.8e-05,-6.2e-05,0.0,-0.015477,-0.504032,-0.014758,0.31226,-264.515977,-1.057472,62.250196
4.3381,-0.007774,0.006142,-0.015096,7.8e-05,-6.2e-05,0.0,-0.015047,-0.503697,-0.01375,0.237252,-264.515977,-0.982463,62.250196
4.3581,-0.008316,0.00609,-0.014545,7.8e-05,-6.2e-05,0.0,-0.015078,-0.503705,-0.013847,0.237252,-264.515977,-0.982463,62.250196
4.3781,-0.007627,0.006459,-0.014329,7.8e-05,-6.2e-05,0.0,-0.015733,-0.503856,-0.014545,0.161993,-264.515977,-0.907205,62.250196
4.3981,-0.008131,0.005994,-0.014351,7.8e-05,-6.2e-05,0.0,-0.015279,-0.503647,-0.014422,0.161993,-264.515977,-0.907205,62.250196
4.4182,-0.007929,0.005712,-0.014186,0.001131,-0.000905,0.002164,-0.015279,-0.503647,-0.014422,0.161993,-264.515977,-0.907205,62.250196
4.438,-0.008001,0.005468,-0.015525,0.002204,-0.001764,0.004217,-0.015164,-0.504237,-0.014186,0.087253,-264.515977,-0.832465,62.250196
4.458,-0.007982,0.006066,-0.016147,0.003218,-0.002575,0.006158,-0.015217,-0.504253,-0.01428,0.087253,-264.515977,-0.832465,62.250196
4.478,-0.00808,0.005995,-0.013395,0.004174,-0.003341,0.007988,-0.016212,-0.503871,-0.01614,0.162268,-264.515929,-0.90748,62.250295
4.498,-0.007673,0.005858,-0.015534,0.005072,-0.004059,0.009705,-0.01547,-0.503922,-0.014574,0.162268,-264.515929,-0.90748,62.250295
4.5181,-0.008045,0.006034,-0.013683,0.005914,-0.004733,0.011316,-0.01547,-0.503922,-0.014574,0.162268,-264.515929,-0.90748,62.250295
4.5381,-0.008038,0.005748,-0.013967,0.006698,-0.005361,0.012818,-0.01497,-0.503957,-0.013602,0.237245,-264.515511,-0.982457,62.251162
4.5581,-0.007818,0.005825,-0.015122,0.007422,-0.00594,0.014202,-0.014982,-0.503975,-0.013625,0.237245,-264.515511,-0.982457,62.251162
4.5783,-0.007719,0.005743,-0.013725,0.008088,-0.006473,0.015476,-0.015377,-0.504236,-0.014851,0.31225,-264.513884,-1.057462,62.254532
4.5979,-0.007519,0.005546,-0.012271,0.008698,-0.006961,0.016644,-0.014981,-0.504236,-0.014172,0.31225,-264.513884,-1.057462,62.254532
4.618,-0.008005,0.0055,-0.01422,0.009248,-0.007401,0.017697,-0.014981,-0.504236,-0.014172,0.31225,-264.513884,-1.057462,62.254532
4.6383,-0.007825,0.0057,-0.012873,0.009745,-0.007799,0.018647,-0.014929,-0.504708,-0.013597,0.352948,-264.510884,-1.10088,62.260423
4.6587,-0.007581,0.005714,-0.012516,0.010175,-0.008143,0.01947,-0.014876,-0.50468,-0.01352,0.352948,-264.510884,-1.10088,62.260423
4.6781,-0.007631,0.005089,-0.012535,0.010552,-0.008445,0.020192,-0.013612,-0.504534,-0.011837,0.352948,-264.506963,-1.10088,62.268549
4.6981,-0.00772,0.00523,-0.011583,0.01087,-0.0087,0.020801,-0.013802,-0.504762,-0.012148,0.352948,-264.506963,-1.10088,62.268549
4.7181,-0.007367,0.00507,-0.01201,0.011131,-0.008909,0.0213,-0.013802,-0.504762,-0.012148,0.352948,-264.506963,-1.10088,62.268549
4.7384,-0.007997,0.004884,-0.01089,0.011334,-0.009071,0.021689,-0.013002,-0.505294,-0.011064,0.352948,-264.502625,-1.10088,62.277537
4.7585,-0.007564,0.004547,-0.009404,0.011479,-0.009187,0.021965,-0.013027,-0.505291,-0.011026,0.352948,-264.502625,-1.10088,62.277537
4.7784,-0.007522,0.004389,-0.009516,0.011566,-0.009256,0.022132,-0.011933,-0.505779,-0.008581,0.352948,-264.497881,-1.10088,62.28737
4.7983,-0.007765,0.004169,-0.011655,0.011595,-0.00928,0.022187,-0.01213,-0.505714,-0.009009,0.352948,-264.497881,-1.10088,62.28737
4.8185,-0.00762,0.004361,-0.009039,0.011566,-0.009256,0.022132,-0.01213,-0.505714,-0.009009,0.352948,-264.497881,-1.10088,62.28737
4.8381,-0.007853,0.003731,-0.010822,0.011478,-0.009187,0.021965,-0.011674,-0.50607,-0.007969,0.352948,-264.492987,-1.10088,62.29751
4.8586,-0.007872,0.003642,-0.010569,0.011333,-0.00907,0.021687,-0.011769,-0.506092,-0.008126,0.352948,-264.492987,-1.10088,62.29751
4.8781,-0.007993,0.003499,-0.008049,0.011131,-0.008908,0.021299,-0.012818,-0.506692,-0.009713,0.352948,-264.488057,-1.10088,62.307726
4.8985,-0.007855,0.003437,-0.007319,0.010869,-0.008699,0.020799,-0.012353,-0.50662,-0.00866,0.352948,-264.488057,-1.10088,62.307726
4.9184,-0.007512,0.003433,-0.007685,0.01055,-0.008444,0.020189,-0.012353,-0.50662,-0.00866,0.352948,-264.488057,-1.10088,62.307726
4.9387,-0.007618,0.002985,-0.00691,0.010174,-0.008143,0.019469,-0.010884,-0.506996,-0.00663,0.352948,-264.483226,-1.10088,62.317738
4.959,-0.007623,0.002927,-0.007301,0.009739,-0.007794,0.018636,-0.010887,-0.507009,-0.006622,0.352948,-264.483226,-1.10088,62.317738
4.9787,-0.007941,0.002144,-0.005688,0.009245,-0.007399,0.017691,-0.010936,-0.507393,-0.006511,0.352948,-264.478729,-1.10088,62.327058
4.9981,-0.007719,0.002368,-0.005188,0.008691,-0.006956,0.016631,-0.010833,-0.507686,-0.005958,0.352948,-264.478729,-1.10088,62.327058
5.018,-0.007722,0.002687,-0.005332,0.008085,-0.00647,0.01547,-0.010833,-0.507686,-0.005958,0.352948,-264.478729,-1.10088,62.327058
5.0385,-0.007958,0.001663,-0.004757,0.00742,-0.005938,0.014198,-0.009969,-0.507687,-0.004426,0.352948,-264.474577,-1.10088,62.335661
5.0585,-0.007524,0.001988,-0.005673,0.006689,-0.005354,0.0128,-0.009986,-0.507742,-0.004425,0.352948,-264.474577,-1.10088,62.335661
5.0786,-0.007757,0.002196,-0.006872,0.005908,-0.004729,0.011306,-0.010105,-0.508256,-0.005074,0.352948,-264.47113,-1.10088,62.342805
5.0981,-0.007935,0.001959,-0.003294,0.005068,-0.004056,0.009698,-0.010719,-0.508026,-0.006014,0.352948,-264.47113,-1.10088,62.342805
5.1183,-0.007612,0.001757,-0.003455,0.00417,-0.003338,0.00798,-0.010719,-0.508026,-0.006014,0.352948,-264.47113,-1.10088,62.342805
5.1388,-0.00756,0.001428,-0.004514,0.003214,-0.002573,0.006151,-0.00905,-0.508501,-0.002833,0.352948,-264.468279,-1.10088,62.348713
5.1583,-0.007719,0.001445,-0.002575,0.0022,-0.00176,0.004209,-0.009096,-0.508512,-0.00293,0.352948,-264.468279,-1.10088,62.348713
5.1782,-0.007941,0.001446,-0.000721,0.001099,-0.00088,0.002104,-0.008872,-0.508683,-0.002267,0.352948,-264.466499,-1.10088,62.352402
5.1981,-0.007292,0.001431,-0.002874,0.0,-0.0,0.0,-0.008529,-0.508625,-0.001342,0.352948,-264.466499,-1.10088,62.352402
5.2183,-0.007763,0.001363,-0.001856,0.0,0.0,0.0,-0.008529,-0.508625,-0.001342,0.352948,-264.466499,-1.10088,62.352402
5.2386,-0.007518,0.001366,-0.001504,0.0,0.0,0.0,-0.008603,-0.508722,-0.001652,0.352948,-264.465558,-1.10088,62.354352
5.2581,-0.007717,0.001174,-0.002891,0.0,0.0,0.0,-0.008575,-0.508718,-0.001634,0.352948,-264.465558,-1.10088,62.354352
5.2783,-0.007582,0.000741,-0.002477,0.0,0.0,0.0,-0.009191,-0.508824,-0.002891,0.352948,-264.465558,-1.10088,62.354352
5.2982,-0.007438,0.000978,-0.001143,0.0,0.0,0.0,-0.008993,-0.509072,-0.002654,0.352948,-264.465558,-1.10088,62.354352
5.3181,-0.007398,0.001367,-0.003891,0.0,0.0,0.0,-0.008993,-0.509072,-0.002654,0.352948,-264.465558,-1.10088,62.354352
5.338,-0.007762,0.001403,-0.00326,0.0,0.0,0.0,-0.009382,-0.508629,-0.003891,0.352948,-264.465558,-1.10088,62.354352
5.3581,-0.007682,0.001449,-0.003523,0.0,0.0,0.0,-0.009385,-0.508627,-0.003847,0.352948,-264.465558,-1.10088,62.354352
5.3782,-0.007779,0.001212,-0.002754,0.0,0.0,0.0,-0.009479,-0.508548,-0.003523,0.352948,-264.465558,-1.10088,62.354352
5.3987,-0.007726,0.001154,-0.004649,0.0,0.0,0.0,-0.00931,-0.508685,-0.003082,0.352948,-264.465558,-1.10088,62.354352
5.4183,-0.007641,0.001852,-0.002576,0.0,0.0,0.0,-0.00931,-0.508685,-0.003082,0.352948,-264.465558,-1.10088,62.354352
5.4383,-0.007898,0.001269,-0.002518,9.7e-05,-2.3e-05,0.0,-0.008954,-0.508146,-0.002576,0.352948,-264.465558,-1.10088,62.354352
5.4587,-0.00758,0.001484,-0.00198,9.7e-05,-2.3e-05,0.0,-0.00897,-0.508187,-0.002572,0.352948,-264.465558,-1.10088,62.354352
5.4786,-0.00764,0.001284,-0.003955,9.7e-05,-2.3e-05,0.0,-0.00859,-0.508515,-0.00198,0.352948,-264.465558,-1.10088,62.354352
5.4986,-0.007801,0.001334,-0.004243,9.7e-05,-2.3e-05,0.0,-0.009198,-0.508627,-0.003106,0.352948,-264.465558,-1.10088,62.354352
5.5187,-0.007887,0.001298,-0.002463,9.7e-05,-2.3e-05,0.0,-0.009198,-0.508627,-0.003106,0.352948,-264.465558,-1.10088,62.354352
5.5385,-0.00772,0.001179,-0.003257,9.7e-05,-2.3e-05,0.0,-0.009143,-0.508701,-0.002463,0.277844,-264.465558,-1.025777,62.354352
5.5589,-0.007742,0.001283,-0.002554,9.7e-05,-2.3e-05,0.0,-0.009159,-0.508708,-0.002516,0.277844,-264.465558,-1.025777,62.354352
5.5784,-0.007617,0.001097,-0.004163,9.7e-05,-2.3e-05,0.0,-0.009044,-0.508715,-0.002554,0.202918,-264.465558,-0.95085,62.354352
5.5986,-0.007595,0.00161,-0.003084,9.7e-05,-2.3e-05,0.0,-0.009438,-0.508819,-0.003465,0.202918,-264.465558,-0.95085,62.354352
5.6188,-0.007687,0.000803,-0.003828,9.7e-05,-2.3e-05,0.0,-0.009438,-0.508819,-0.003465,0.202918,-264.465558,-0.95085,62.354352
5.6381,-0.007585,0.001235,-0.004238,0.0,-0.0,0.0,-0.009639,-0.509194,-0.003828,0.127897,-264.465558,-0.875829,62.354352
5.6587,-0.007883,0.001114,-0.003307,0.001119,-0.000268,0.000377,-0.009646,-0.509168,-0.003853,0.127897,-264.465558,-0.875829,62.354352
5.6782,-0.007591,0.001393,-0.003088,0.002181,-0.000523,0.000735,-0.00957,-0.508883,-0.003307,0.052916,-264.465558,-0.800849,62.354352
5.6982,-0.00779,0.00102,-0.002471,0.003185,-0.000763,0.001073,-0.00934,-0.508725,-0.003183,0.052916,-264.465558,-0.800849,62.354352
5.7183,-0.007691,0.001096,-0.001825,0.00413,-0.00099,0.001391,-0.00934,-0.508725,-0.003183,0.052916,-264.465558,-0.800849,62.354352
5.7384,-0.007627,0.001071,-0.003117,0.00502,-0.001203,0.001691,-0.008618,-0.508904,-0.001822,-0.022229,-264.465522,-0.725704,62.354392
5.7584,-0.007612,0.001361,-0.002512,0.005854,-0.001403,0.001972,-0.008661,-0.508906,-0.001915,-0.022229,-264.465522,-0.725704,62.354392
5.7781,-0.007607,0.001118,-0.001583,0.006626,-0.001588,0.002232,-0.00886,-0.50865,-0.002494,-0.033883,-264.465164,-0.650744,62.354783
5.7981,-0.007777,0.001278,-0.003401,0.007341,-0.001759,0.002473,-0.008601,-0.508783,-0.001971,-0.033883,-264.465164,-0.650744,62.354783
5.8183,-0.007692,0.001337,-0.003343,0.008,-0.001917,0.002695,-0.008601,-0.508783,-0.001971,-0.033883,-264.465164,-0.650744,62.354783
5.8386,-0.00752,0.001375,-0.003369,0.008601,-0.002061,0.002898,-0.009283,-0.508698,-0.003288,-0.033883,-264.464181,-0.575721,62.355858
5.8586,-0.007949,0.000982,-0.003524,0.009146,-0.002192,0.003081,-0.009277,-0.508694,-0.003292,-0.033883,-264.464181,-0.575721,62.355858
5.8783,-0.007518,0.001021,-0.001928,0.009634,-0.002309,0.003246,-0.009542,-0.509074,-0.00344,-0.033883,-264.462023,-0.500865,62.358219
5.8983,-0.007347,0.001233,-0.001716,0.010063,-0.002412,0.00339,-0.008926,-0.509027,-0.002573,-0.033883,-264.462023,-0.500865,62.358219
5.9185,-0.007412,0.001318,-0.002285,0.010436,-0.002501,0.003516,-0.008926,-0.509027,-0.002573,-0.033883,-264.462023,-0.500865,62.358219
5.938,-0.007165,0.001017,-0.002845,0.010752,-0.002577,0.003622,-0.008178,-0.508778,-0.002148,-0.033883,-264.458736,-0.425869,62.361816
5.9583,-0.007148,0.001211,-0.00279,0.01101,-0.002639,0.003709,-0.008196,-0.508794,-0.002189,-0.033883,-264.458736,-0.425869,62.361816
5.9787,-0.006523,0.000994,-0.002047,0.01121,-0.002687,0.003777,-0.008168,-0.508885,-0.002655,-0.033883,-264.454562,-0.419034,62.366382
5.9982,-0.006529,0.000924,-0.00225,0.011354,-0.002721,0.003825,-0.007778,-0.508965,-0.002295,-0.033883,-264.454562,-0.419034,62.366382
6.0184,-0.006711,0.000817,-0.002491,0.01144,-0.002742,0.003854,-0.007778,-0.508965,-0.002295,-0.033883,-264.454562,-0.419034,62.366382
6.0381,-0.006068,0.000714,-0.002114,0.011468,-0.002748,0.003864,-0.007446,-0.509311,-0.00231,-0.033883,-264.450155,-0.419034,62.371204
6.0586,-0.0064,0.000817,-0.002733,0.01144,-0.002742,0.003854,-0.007413,-0.509313,-0.002293,-0.033883,-264.450155,-0.419034,62.371204
6.0786,-0.005829,0.00035,-0.002294,0.011354,-0.002721,0.003825,-0.007352,-0.509288,-0.002584,-0.033883,-264.445571,-0.419034,62.376219
6.0984,-0.005613,0.000914,-0.002483,0.01121,-0.002687,0.003777,-0.007093,-0.509509,-0.002398,-0.033883,-264.445571,-0.419034,62.376219
6.1181,-0.006104,0.000624,-0.001227,0.011009,-0.002638,0.003709,-0.007093,-0.509509,-0.002398,-0.033883,-264.445571,-0.419034,62.376219
6.1383,-0.00535,0.000331,-0.001112,0.010751,-0.002577,0.003622,-0.006175,-0.50951,-0.001039,-0.033883,-264.440993,-0.419034,62.381228
6.1584,-0.005691,0.000125,-0.002446,0.010436,-0.002501,0.003516,-0.006141,-0.509525,-0.00104,-0.033883,-264.440993,-0.419034,62.381228
6.1783,-0.004891,0.000163,-0.001796,0.010051,-0.002409,0.003386,-0.006514,-0.509976,-0.002303,-0.033883,-264.436583,-0.419034,62.386053
6.1981,-0.004947,0.00048,-0.000846,0.009631,-0.002308,0.003245,-0.006054,-0.509909,-0.001993,-0.033883,-264.436583,-0.419034,62.386053
6.2181,-0.004748,9e-05,-0.001293,0.009146,-0.002192,0.003081,-0.006054,-0.509909,-0.001993,-0.033883,-264.436583,-0.419034,62.386053
6.2383,-0.004225,5.6e-05,-0.001973,0.008601,-0.002061,0.002898,-0.004902,-0.510032,-0.001123,-0.033883,-264.432405,-0.419034,62.390624
6.2587,-0.004457,7e-05,-0.002425,0.007999,-0.001917,0.002695,-0.004912,-0.510028,-0.00118,-0.033883,-264.432405,-0.419034,62.390624
6.2781,-0.003632,0.000357,-0.002668,0.007338,-0.001759,0.002472,-0.005341,-0.510014,-0.002307,-0.033883,-264.428747,-0.419034,62.394626
6.2985,-0.004135,-2e-05,-0.002113,0.006619,-0.001586,0.00223,-0.005096,-0.509811,-0.002499,-0.033883,-264.428747,-0.419034,62.394626
6.3183,-0.004119,0.000274,-0.001998,0.005849,-0.001402,0.001971,-0.005096,-0.509811,-0.002499,-0.033883,-264.428747,-0.419034,62.394626
6.3388,-0.003731,-0.000328,-0.001759,0.005012,-0.001201,0.001689,-0.00475,-0.509818,-0.001867,-0.033883,-264.425546,-0.419034,62.398128
6.3581,-0.003642,-1.2e-05,-0.002426,0.004124,-0.000988,0.001389,-0.004731,-0.509857,-0.001856,-0.033883,-264.425546,-0.419034,62.398128
6.3781,-0.003464,-0.000274,-0.000792,0.003181,-0.000762,0.001072,-0.004654,-0.510065,-0.00235,-0.033883,-264.423205,-0.419034,62.40069
6.3982,-0.003656,-0.000245,7.4e-05,0.002178,-0.000522,0.000734,-0.004174,-0.510192,-0.001446,-0.033883,-264.423205,-0.419034,62.40069
6.4183,-0.003154,-0.000303,-0.000965,0.001116,-0.000268,0.000376,-0.004174,-0.510192,-0.001446,-0.033883,-264.423205,-0.419034,62.40069
6.4381,-0.003366,-0.000169,-0.001562,0.0,0.0,0.0,-0.003446,-0.510351,-0.000898,-0.033883,-264.421556,-0.419034,62.402493
6.4583,-0.003399,0.000108,-0.000806,0.0,0.0,0.0,-0.003491,-0.51034,-0.000942,-0.033883,-264.421556,-0.419034,62.402493
6.4784,-0.003106,-0.000272,-0.000517,0.0,0.0,0.0,-0.003767,-0.509903,-0.000792,-0.033883,-264.421109,-0.419034,62.402983
6.4986,-0.003183,0.000122,-0.0001,0.0,0.0,0.0,-0.003537,-0.510113,-0.000635,-0.033883,-264.421109,-0.419034,62.402983
6.5182,-0.002937,-0.000352,-0.00054,0.0,0.0,0.0,-0.003537,-0.510113,-0.000635,-0.033883,-264.421109,-0.419034,62.402983
