mach0312/omni-docking-bench/src/icros_test_setup/results/kinematic_sample/timeseries/trial_104.csv
t,x,y,yaw,vx,vy,wz,bl_x,bl_y,bl_yaw,front_steering_joint,front_wheel_joint,rear_steering_joint,rear_wheel_joint
0.0,-0.051918,0.019474,0.050173,0.002897,0.001318,0.003325,-0.026514,-0.490062,0.049753,0.857571,-264.816372,-0.241069,62.197041
0.0003,-0.051943,0.019501,0.049474,0.0,0.0,0.0,-0.026514,-0.490062,0.049753,0.857571,-264.813868,-0.241069,62.198728
0.0006,-0.052109,0.019677,0.049945,0.0,0.0,0.0,-0.026975,-0.489905,0.04901,0.857571,-264.812501,-0.241069,62.199649
0.0008,-0.052163,0.019356,0.049696,0.0,0.0,0.0,-0.026968,-0.48993,0.049015,0.857571,-264.812022,-0.241069,62.199972
0.0011,-0.052095,0.019557,0.051038,0.0,0.0,0.0,-0.026968,-0.48993,0.049015,0.857571,-264.812022,-0.241069,62.199972
0.0013,-0.052015,0.019682,0.050045,0.0,0.0,0.0,-0.026205,-0.489583,0.049934,0.857571,-264.812022,-0.241069,62.199972
0.0016,-0.051982,0.019784,0.048733,0.0,0.0,0.0,-0.026205,-0.489583,0.049934,0.857571,-264.812022,-0.241069,62.199972
0.0018,-0.052028,0.019676,0.051586,0.0,0.0,0.0,-0.026478,-0.489555,0.050108,0.857571,-264.812022,-0.241069,62.199972
0.002,-0.051654,0.01963,0.049228,0.0,0.0,0.0,-0.026478,-0.489555,0.050108,0.857571,-264.812022,-0.241069,62.199972
0.0022,-0.052151,0.01948,0.051247,0.0,0.0,0.0,-0.026478,-0.489555,0.050108,0.857571,-264.812022,-0.241069,62.199972
0.0182,-0.052088,0.019659,0.048487,0.016098,-0.015982,-0.03,-0.026202,-0.489706,0.050243,0.857571,-264.812022,-0.241069,62.199972
0.0383,-0.051931,0.019205,0.051093,0.032098,-0.02216,-0.048487,-0.027369,-0.489742,0.048487,0.857571,-264.812022,-0.241069,62.199972
0.0582,-0.052202,0.019682,0.050827,0.048098,-0.021832,-0.05,-0.027274,-0.489767,0.048653,0.857571,-264.812022,-0.241069,62.199972
0.078,-0.05188,0.019368,0.049721,0.051135,-0.022309,-0.05,-0.026292,-0.489659,0.050827,0.782578,-264.812022,-0.166075,62.199972
0.0984,-0.052483,0.019518,0.049364,0.050853,-0.021922,-0.049721,-0.026428,-0.489853,0.050201,0.782578,-264.812022,-0.166075,62.199972
0.119,-0.051844,0.019597,0.050433,0.051456,-0.022084,-0.049364,-0.026428,-0.489853,0.050201,0.782578,-264.812022,-0.166075,62.199972
0.1385,-0.051959,0.019545,0.050057,0.050791,-0.022185,-0.05,-0.026135,-0.489755,0.050433,0.707582,-264.812021,-0.09108,62.199972
0.158,-0.05212,0.019374,0.049365,0.050916,-0.022121,-0.05,-0.026154,-0.489759,0.050409,0.707582,-264.812021,-0.09108,62.199972
0.1785,-0.052027,0.019515,0.048805,0.0511,-0.021923,-0.049365,-0.026954,-0.490004,0.049365,0.632568,-264.81202,-0.016065,62.199973
0.1982,-0.051838,0.019559,0.049351,0.051013,-0.02203,-0.048805,-0.027064,-0.489932,0.049045,0.632568,-264.81202,-0.016065,62.199973
0.2182,-0.052288,0.019543,0.051254,0.05081,-0.022093,-0.049351,-0.027064,-0.489932,0.049045,0.632568,-264.81202,-0.016065,62.199973
0.2381,-0.051685,0.01927,0.049407,0.051218,-0.022196,-0.05,-0.02616,-0.489787,0.051254,0.557471,-264.812018,0.059032,62.199974
0.2584,-0.051693,0.019428,0.050076,0.05067,-0.021799,-0.049407,-0.026184,-0.48981,0.051124,0.557471,-264.812018,0.059032,62.199974
0.2781,-0.052013,0.019689,0.04889,0.050656,-0.021991,-0.05,-0.026165,-0.489933,0.050076,0.482486,-264.812016,0.134017,62.199976
0.2984,-0.052016,0.019252,0.049401,0.050989,-0.022208,-0.04889,-0.026694,-0.4898,0.049397,0.482486,-264.812016,0.134017,62.199976
0.3181,-0.051889,0.019618,0.049987,0.051002,-0.021797,-0.049401,-0.026694,-0.4898,0.049397,0.482486,-264.812016,0.134017,62.199976
0.338,-0.051986,0.019554,0.049222,0.050844,-0.022186,-0.049987,-0.026406,-0.489745,0.049987,0.407478,-264.812013,0.163822,62.199978
0.3581,-0.051699,0.019531,0.049959,0.050961,-0.022088,-0.049222,-0.02644,-0.48975,0.049934,0.407478,-264.812013,0.163822,62.199978
0.3782,-0.05199,0.019444,0.050385,0.050659,-0.022088,-0.049959,-0.026231,-0.489833,0.049959,0.332482,-264.81201,0.162744,62.19998
0.3981,-0.05189,0.019607,0.050985,0.050945,-0.022038,-0.05,-0.026273,-0.489876,0.050203,0.332482,-264.81201,0.162744,62.19998
0.4183,-0.051948,0.019377,0.049831,0.050823,-0.022226,-0.05,-0.026273,-0.489876,0.050203,0.332482,-264.81201,0.162744,62.19998
0.4385,-0.051778,0.019842,0.050954,0.050919,-0.021941,-0.049831,-0.026545,-0.48999,0.049831,0.257437,-264.812007,0.155212,62.199982
0.4585,-0.051894,0.01935,0.051226,0.0507,-0.022454,-0.05,-0.026485,-0.48995,0.049922,0.257437,-264.812007,0.155212,62.199982
0.4782,-0.051965,0.019615,0.049882,0.050835,-0.021981,-0.05,-0.02578,-0.489981,0.051226,0.182201,-264.812004,0.162096,62.199984
0.4982,-0.051835,0.0195,0.049435,0.050922,-0.022182,-0.049882,-0.026213,-0.489849,0.050456,0.182201,-264.812004,0.162096,62.199984
0.518,-0.051893,0.019469,0.05095,0.050808,-0.022038,-0.049435,-0.026213,-0.489849,0.050456,0.182201,-264.812004,0.162096,62.199984
0.5381,-0.05234,0.019222,0.050869,0.050834,-0.022087,-0.05,-0.02592,-0.489869,0.05095,0.107475,-264.812001,0.158112,62.199986
0.5584,-0.052133,0.019346,0.050527,0.051295,-0.021858,-0.05,-0.025954,-0.489886,0.050944,0.107475,-264.812001,0.158112,62.199986
0.5785,-0.051835,0.01973,0.049467,0.051089,-0.021955,-0.05,-0.026374,-0.490003,0.050527,0.032588,-264.811999,0.159131,62.199988
0.5981,-0.051918,0.019632,0.049413,0.050796,-0.022269,-0.049467,-0.026513,-0.489799,0.04992,0.032588,-264.811999,0.159131,62.199988
0.6182,-0.051838,0.019259,0.050725,0.050885,-0.022172,-0.049413,-0.026513,-0.489799,0.04992,0.032588,-264.811999,0.159131,62.199988
0.6382,-0.052003,0.020214,0.05044,0.050795,-0.021862,-0.05,-0.025979,-0.490085,0.050725,-0.042638,-264.811995,0.167614,62.19999
0.6583,-0.051677,0.019659,0.050646,0.050917,-0.02281,-0.05,-0.026002,-0.490015,0.050704,-0.042638,-264.811995,0.167614,62.19999
0.6781,-0.051942,0.019495,0.048964,0.050615,-0.02225,-0.05,-0.025858,-0.489687,0.050646,-0.117551,-264.811991,0.156069,62.199993
0.6982,-0.051428,0.019287,0.051196,0.050926,-0.022014,-0.048964,-0.026497,-0.489805,0.049689,-0.117551,-264.811991,0.156069,62.199993
0.7181,-0.051882,0.019667,0.050209,0.050374,-0.021893,-0.05,-0.026497,-0.489805,0.049689,-0.117551,-264.811991,0.156069,62.199993
0.7384,-0.051767,0.019733,0.048616,0.050829,-0.022246,-0.05,-0.026285,-0.489691,0.050208,-0.192424,-264.811982,0.150619,62.2
0.7582,-0.051839,0.019672,0.048945,0.050747,-0.022225,-0.048616,-0.026334,-0.489689,0.050098,-0.192424,-264.811982,0.150619,62.2
0.7784,-0.051933,0.01965,0.049715,0.050814,-0.022185,-0.048945,-0.026883,-0.489717,0.048943,-0.267427,-264.811932,0.169952,62.200035
0.7984,-0.051838,0.019589,0.048368,0.050893,-0.022206,-0.049715,-0.026716,-0.489719,0.049381,-0.267427,-264.811932,0.169952,62.200035
0.8182,-0.051485,0.019613,0.048801,0.05083,-0.022072,-0.048368,-0.026716,-0.489719,0.049381,-0.267427,-264.811932,0.169952,62.200035
0.8382,-0.052042,0.019543,0.050012,0.050467,-0.022101,-0.048801,-0.02658,-0.489782,0.04879,-0.342425,-264.811671,0.14609,62.200219
0.8585,-0.051791,0.019874,0.04904,0.051,-0.02212,-0.05,-0.026577,-0.489785,0.048875,-0.342425,-264.811671,0.14609,62.200219
0.8781,-0.051659,0.019705,0.051642,0.050755,-0.022389,-0.04904,-0.026712,-0.489524,0.048999,-0.417425,-264.810669,0.145878,62.20093
0.898,-0.051802,0.019498,0.050019,0.050573,-0.022346,-0.05,-0.025919,-0.489577,0.050494,-0.417425,-264.810669,0.145878,62.20093
0.9184,-0.051709,0.019601,0.048166,0.050762,-0.022063,-0.05,-0.025919,-0.489577,0.050494,-0.417425,-264.810669,0.145878,62.20093
0.9382,-0.051262,0.019226,0.050491,0.050705,-0.022067,-0.048166,-0.026902,-0.489852,0.048014,-0.49242,-264.808073,0.163572,62.20276
0.9585,-0.051466,0.019614,0.048942,0.050227,-0.021789,-0.05,-0.026803,-0.489872,0.048177,-0.49242,-264.808073,0.163572,62.20276
0.9782,-0.051268,0.019853,0.049281,0.050445,-0.022108,-0.048942,-0.0261,-0.489854,0.04867,-0.567426,-264.80297,0.16541,62.207044
0.9982,-0.050482,0.019317,0.047826,0.050228,-0.022354,-0.049281,-0.026073,-0.489677,0.048985,-0.567426,-264.80297,0.16541,62.207044
1.0181,-0.050492,0.019285,0.04978,0.049501,-0.021708,-0.047826,-0.026073,-0.489677,0.048985,-0.567426,-264.80297,0.16541,62.207044
1.0381,-0.049983,0.019037,0.051225,0.04947,-0.021773,-0.04978,-0.02433,-0.490251,0.049211,-0.642527,-264.795345,0.17245,62.213848
1.0582,-0.049742,0.019465,0.048846,0.048942,-0.021571,-0.05,-0.024271,-0.490259,0.049351,-0.642527,-264.795345,0.17245,62.213848
1.0783,-0.048289,0.019144,0.047551,0.048732,-0.021871,-0.048846,-0.02402,-0.49014,0.048211,-0.717789,-264.785285,0.1504,62.223093
1.0984,-0.048312,0.018992,0.046524,0.047324,-0.021417,-0.047551,-0.023932,-0.490246,0.047758,-0.717789,-264.785285,0.1504,62.223093
1.1184,-0.048064,0.019356,0.048005,0.047376,-0.021218,-0.046524,-0.023932,-0.490246,0.047758,-0.717789,-264.785285,0.1504,62.223093
1.1382,-0.046504,0.01852,0.04654,0.04708,-0.02164,-0.048005,-0.022329,-0.490414,0.046899,-0.792429,-264.772689,0.181192,62.234871
1.1587,-0.046132,0.018891,0.0471,0.045592,-0.020664,-0.04654,-0.022327,-0.490456,0.046849,-0.792429,-264.772689,0.181192,62.234871
1.1785,-0.044029,0.018306,0.045738,0.045192,-0.021042,-0.0471,-0.020915,-0.490912,0.046066,-0.808656,-264.757592,0.150735,62.24915
1.1987,-0.043764,0.018663,0.044842,0.043146,-0.0203,-0.045738,-0.020647,-0.4911,0.045749,-0.808656,-264.757592,0.150735,62.24915
1.2189,-0.044062,0.018042,0.045506,0.042883,-0.020606,-0.044842,-0.020647,-0.4911,0.045749,-0.808656,-264.757592,0.150735,62.24915
1.2382,-0.041225,0.017785,0.044097,0.043195,-0.020028,-0.045506,-0.0191,-0.491965,0.04394,-0.822304,-264.739996,0.168605,62.265927
1.2586,-0.041569,0.017944,0.043773,0.040401,-0.019585,-0.044097,-0.019033,-0.491962,0.043912,-0.822304,-264.739996,0.168605,62.265927
1.2783,-0.038478,0.017182,0.042019,0.040744,-0.019746,-0.043773,-0.017758,-0.492099,0.042373,-0.841572,-264.719899,0.15682,62.283153
1.2981,-0.038644,0.017046,0.041914,0.037722,-0.018783,-0.042019,-0.01717,-0.492319,0.041995,-0.841572,-264.719899,0.15682,62.283153
1.3181,-0.038508,0.016939,0.042187,0.037896,-0.01865,-0.041914,-0.01717,-0.492319,0.041995,-0.841572,-264.719899,0.15682,62.283153
1.338,-0.035339,0.016452,0.040081,0.037759,-0.018548,-0.042187,-0.015095,-0.49339,0.0402,-0.855648,-264.697303,0.179902,62.299387
1.358,-0.035642,0.015904,0.040585,0.034651,-0.017855,-0.040081,-0.015031,-0.493393,0.040139,-0.855648,-264.697303,0.179902,62.299387
1.3784,-0.032479,0.015969,0.037095,0.034967,-0.017337,-0.040585,-0.013459,-0.494338,0.038967,-0.862581,-264.674019,0.181354,62.314785
1.3982,-0.03293,0.015766,0.036892,0.031864,-0.017163,-0.037095,-0.01333,-0.494048,0.037698,-0.862581,-264.674019,0.181354,62.314785
1.4182,-0.032497,0.015325,0.03774,0.032326,-0.01697,-0.036892,-0.01333,-0.494048,0.037698,-0.862581,-264.674019,0.181354,62.314785
1.4381,-0.029885,0.014896,0.035374,0.031896,-0.01654,-0.03774,-0.011552,-0.495112,0.035805,-0.884867,-264.652329,0.188899,62.328772
1.4584,-0.029808,0.014641,0.034997,0.02934,-0.015944,-0.035374,-0.011529,-0.49511,0.035728,-0.884867,-264.652329,0.188899,62.328772
1.478,-0.027468,0.013693,0.033794,0.029278,-0.015675,-0.034997,-0.0107,-0.495656,0.03358,-0.884963,-264.632024,0.170388,62.341821
1.4984,-0.027408,0.014181,0.033881,0.026989,-0.014613,-0.033794,-0.010276,-0.495938,0.033522,-0.884963,-264.632024,0.170388,62.341821
1.5182,-0.027235,0.013983,0.035792,0.026912,-0.015102,-0.033881,-0.010276,-0.495938,0.033522,-0.884963,-264.632024,0.170388,62.341821
1.5381,-0.025011,0.013438,0.033291,0.026718,-0.014949,-0.035792,-0.007554,-0.496404,0.034097,-0.907508,-264.61324,0.190586,62.3536
1.5584,-0.024839,0.013448,0.032895,0.02455,-0.014263,-0.033291,-0.007549,-0.496415,0.033996,-0.907508,-264.61324,0.190586,62.3536
1.5781,-0.022475,0.012497,0.031388,0.024384,-0.014257,-0.032895,-0.007015,-0.496822,0.031595,-0.92612,-264.595483,0.204843,62.364498
1.5986,-0.022582,0.012616,0.030578,0.022072,-0.013196,-0.031388,-0.006574,-0.497135,0.031313,-0.92612,-264.595483,0.204843,62.364498
1.6185,-0.022477,0.012755,0.031073,0.022185,-0.013301,-0.030578,-0.006574,-0.497135,0.031313,-0.92612,-264.595483,0.204843,62.364498
1.6381,-0.02089,0.012192,0.030256,0.022069,-0.013447,-0.031073,-0.005458,-0.497634,0.029508,-0.953644,-264.579093,0.242351,62.374269
1.6586,-0.020826,0.011528,0.028093,0.020511,-0.012818,-0.030256,-0.005428,-0.497647,0.029518,-0.953644,-264.579093,0.242351,62.374269
1.6783,-0.018505,0.01126,0.027159,0.020494,-0.012109,-0.028093,-0.00563,-0.498761,0.026911,-0.96424,-264.563559,0.237671,62.38338
1.6981,-0.018958,0.01123,0.028491,0.018192,-0.011758,-0.027159,-0.004971,-0.498706,0.0269,-0.96424,-264.563559,0.237671,62.38338
1.7186,-0.018602,0.011472,0.02857,0.01863,-0.011766,-0.028491,-0.004971,-0.498706,0.0269,-0.96424,-264.563559,0.237671,62.38338
1.738,-0.016531,0.01079,0.02574,0.018266,-0.011999,-0.02857,-0.003046,-0.498899,0.027138,-0.990657,-264.548968,0.269296,62.391677
1.7586,-0.016957,0.0109,0.026867,0.016248,-0.011212,-0.02574,-0.003044,-0.498926,0.026998,-0.990657,-264.548968,0.269296,62.391677
1.7786,-0.01571,0.010339,0.024552,0.016659,-0.011351,-0.026867,-0.002535,-0.499346,0.025781,-1.00237,-264.535239,0.293705,62.399398
1.7985,-0.015023,0.010164,0.025318,0.015452,-0.010722,-0.024552,-0.002825,-0.499494,0.02493,-1.00237,-264.535239,0.293705,62.399398
1.8183,-0.01546,0.010531,0.025559,0.014761,-0.010541,-0.025318,-0.002825,-0.499494,0.02493,-1.00237,-264.535239,0.293705,62.399398
1.8382,-0.013644,0.009818,0.025712,0.015186,-0.010922,-0.025559,-0.001641,-0.499816,0.024336,-1.027966,-264.522957,0.270691,62.405982
1.8583,-0.014197,0.009332,0.023252,0.013387,-0.010166,-0.025712,-0.001548,-0.499842,0.024396,-1.027966,-264.522957,0.270691,62.405982
1.8785,-0.012414,0.009117,0.021505,0.013977,-0.00966,-0.023252,-0.001791,-0.500904,0.022325,-1.054521,-264.511616,0.321825,62.411884
1.8986,-0.012654,0.00905,0.021272,0.012215,-0.009381,-0.021505,-0.001526,-0.500873,0.02174,-1.054521,-264.511616,0.321825,62.411884
1.9185,-0.012284,0.009057,0.022097,0.012459,-0.009317,-0.021272,-0.001526,-0.500873,0.02174,-1.054521,-264.511616,0.321825,62.411884
1.9381,-0.011179,0.008955,0.021331,0.012081,-0.009326,-0.022097,-0.000419,-0.501252,0.020968,-1.093267,-264.50111,0.392256,62.417109
1.9581,-0.011102,0.008901,0.021834,0.010985,-0.009192,-0.021331,-0.000396,-0.501242,0.020964,-1.093267,-264.50111,0.392256,62.417109
1.9781,-0.010685,0.008531,0.019791,0.010905,-0.009141,-0.021834,0.000434,-0.50126,0.021147,-1.061482,-264.492684,0.317257,62.421392
1.9981,-0.010396,0.00839,0.021217,0.010514,-0.00874,-0.019791,-0.000102,-0.501358,0.020286,-1.061482,-264.492684,0.317257,62.421392
2.0185,-0.010194,0.008908,0.020453,0.010216,-0.008608,-0.021217,-0.000102,-0.501358,0.020286,-1.061482,-264.492684,0.317257,62.421392
2.0383,-0.009569,0.008069,0.020174,0.01001,-0.009115,-0.020453,0.000754,-0.501401,0.019463,-1.111647,-264.483226,0.335963,62.425832
2.0586,-0.009421,0.008263,0.018603,0.009404,-0.00826,-0.020174,0.000765,-0.501442,0.019486,-1.111647,-264.483226,0.335963,62.425832
2.0785,-0.008271,0.007527,0.017318,0.009266,-0.008437,-0.018603,0.000437,-0.501951,0.017843,-1.12842,-264.474375,0.402532,62.42995
2.0983,-0.008443,0.007422,0.020077,0.00814,-0.007669,-0.017318,0.000554,-0.502242,0.017448,-1.12842,-264.474375,0.402532,62.42995
2.1182,-0.008381,0.007854,0.018732,0.008292,-0.00759,-0.020077,0.000554,-0.502242,0.017448,-1.12842,-264.474375,0.402532,62.42995
2.1386,-0.007496,0.007511,0.016671,0.008232,-0.00801,-0.018732,0.001635,-0.502448,0.017754,-1.142195,-264.465354,0.407673,62.434034
2.1585,-0.007161,0.007229,0.016473,0.007369,-0.007634,-0.016671,0.001603,-0.502457,0.017653,-1.142195,-264.465354,0.407673,62.434034
2.1782,-0.006661,0.006998,0.016694,0.007041,-0.007346,-0.016473,0.00151,-0.502943,0.01584,-1.17514,-264.458279,0.482704,62.437164
2.1982,-0.006772,0.006635,0.016494,0.007041,-0.007346,-0.016473,0.001737,-0.502967,0.016242,-1.17514,-264.458279,0.482704,62.437164
2.2184,-0.006547,0.007192,0.016131,7e-05,-7.1e-05,0.0,0.001737,-0.502967,0.016242,-1.17514,-264.458279,0.482704,62.437164
2.2381,-0.005669,0.00662,0.015768,7e-05,-7.1e-05,0.0,0.00193,-0.502987,0.01555,-1.178603,-264.452867,0.407736,62.439353
2.2588,-0.006171,0.007129,0.014007,7e-05,-7.1e-05,0.0,0.001975,-0.503022,0.01555,-1.178603,-264.452867,0.407736,62.439353
2.2781,-0.005953,0.006688,0.017891,7e-05,-7.1e-05,0.0,0.000972,-0.502821,0.014007,-1.103084,-264.452867,0.332217,62.439353
2.2984,-0.006294,0.006953,0.015532,7e-05,-7.1e-05,0.0,0.002215,-0.503052,0.016202,-1.103084,-264.452867,0.332217,62.439353
2.3182,-0.005861,0.007134,0.015248,7e-05,-7.1e-05,0.0,0.002215,-0.503052,0.016202,-1.103084,-264.452867,0.332217,62.439353
2.3382,-0.006089,0.006654,0.017009,7e-05,-7.1e-05,0.0,0.001915,-0.502807,0.015248,-1.028422,-264.452867,0.257555,62.439353
2.358,-0.006118,0.006727,0.014532,7e-05,-7.1e-05,0.0,0.001965,-0.502841,0.015377,-1.028422,-264.452867,0.257555,62.439353
2.3782,-0.006014,0.007028,0.013169,7e-05,-7.1e-05,0.0,0.001293,-0.503219,0.014532,-0.953507,-264.452867,0.182641,62.439353
2.3986,-0.005876,0.006866,0.015272,7e-05,-7.1e-05,0.0,0.000955,-0.503052,0.013752,-0.953507,-264.452867,0.182641,62.439353
2.4183,-0.005838,0.006939,0.014889,7e-05,-7.1e-05,0.0,0.000955,-0.503052,0.013752,-0.953507,-264.452867,0.182641,62.439353
2.4382,-0.006073,0.006533,0.015841,0.000968,-0.00098,-0.002396,0.001755,-0.503004,0.014889,-0.878467,-264.452867,0.1076,62.439353
2.459,-0.006297,0.006801,0.016544,0.001892,-0.001916,-0.004685,0.001773,-0.503032,0.014955,-0.878467,-264.452867,0.1076,62.439353
2.4781,-0.006098,0.006725,0.016467,0.002765,-0.0028,-0.006847,0.002141,-0.50313,0.016544,-0.803611,-264.452867,0.032744,62.439353
2.498,-0.00593,0.00665,0.015353,0.003591,-0.003636,-0.00889,0.002231,-0.503173,0.016501,-0.803611,-264.452867,0.032744,62.439353
2.5181,-0.005927,0.00693,0.016111,0.004366,-0.004421,-0.01081,0.002231,-0.503173,0.016501,-0.803611,-264.452867,0.032744,62.439353
2.5382,-0.006352,0.006862,0.015663,0.005091,-0.005155,-0.012605,0.00229,-0.503004,0.01611,-0.878773,-264.452859,0.107906,62.439356
2.5584,-0.006117,0.006517,0.016178,0.005766,-0.005839,-0.014276,0.002244,-0.503009,0.016079,-0.878773,-264.452859,0.107906,62.439356
2.578,-0.006031,0.00671,0.015393,0.006392,-0.006472,-0.015825,0.00214,-0.50342,0.01617,-0.953618,-264.45274,0.182751,62.439405
2.5982,-0.006222,0.006648,0.016613,0.00697,-0.007057,-0.017257,0.001956,-0.503311,0.015723,-0.953618,-264.45274,0.182751,62.439405
2.6183,-0.006142,0.006809,0.017299,0.007491,-0.007585,-0.018548,0.001956,-0.503311,0.015723,-0.953618,-264.45274,0.182751,62.439405
2.6385,-0.006226,0.006882,0.016228,0.007966,-0.008066,-0.019722,0.002718,-0.503145,0.017233,-1.028735,-264.452052,0.257868,62.439688
2.6585,-0.006048,0.006478,0.016615,0.008391,-0.008496,-0.020775,0.002673,-0.50314,0.017161,-1.028735,-264.452052,0.257868,62.439688
2.6781,-0.005654,0.006679,0.014303,0.008766,-0.008876,-0.021704,0.002534,-0.503547,0.016399,-1.103614,-264.449391,0.332747,62.440783
2.698,-0.005577,0.006498,0.016256,0.009091,-0.009205,-0.022508,0.002038,-0.5034,0.015176,-1.103614,-264.449391,0.332747,62.440783
2.718,-0.005616,0.006413,0.016454,0.009366,-0.009484,-0.02319,0.002038,-0.5034,0.015176,-1.103614,-264.449391,0.332747,62.440783
2.7382,-0.004672,0.006322,0.015084,0.009591,-0.009712,-0.023747,0.003039,-0.503743,0.01588,-1.178673,-264.444219,0.407806,62.443294
2.7583,-0.005205,0.006168,0.014709,0.009767,-0.00989,-0.024182,0.003045,-0.50374,0.015806,-1.178673,-264.444219,0.407806,62.443294
2.7786,-0.004262,0.005918,0.013864,0.009895,-0.010019,-0.024499,0.002608,-0.50403,0.014007,-1.193675,-264.436568,0.46333,62.447258
2.7981,-0.00408,0.006178,0.011678,0.009967,-0.010093,-0.024678,0.002762,-0.504064,0.013836,-1.193675,-264.436568,0.46333,62.447258
2.8184,-0.003795,0.005809,0.01197,0.009992,-0.010118,-0.02474,0.002762,-0.504064,0.013836,-1.193675,-264.436568,0.46333,62.447258
2.8384,-0.003377,0.005329,0.01296,0.009968,-0.010093,-0.024679,0.00278,-0.504604,0.010836,-1.193675,-264.426407,0.46333,62.451625
2.8581,-0.003351,0.005448,0.014295,0.009893,-0.010017,-0.024494,0.002823,-0.504618,0.010951,-1.193675,-264.426407,0.46333,62.451625
2.8782,-0.002386,0.00526,0.011302,0.009765,-0.009888,-0.024178,0.00433,-0.504885,0.01334,-1.193675,-264.415551,0.46333,62.456093
2.8984,-0.002094,0.005182,0.010929,0.009593,-0.009714,-0.023752,0.003836,-0.504832,0.012055,-1.193675,-264.415551,0.46333,62.456093
2.9184,-0.002587,0.00514,0.011295,0.009369,-0.009487,-0.023198,0.003836,-0.504832,0.012055,-1.193675,-264.415551,0.46333,62.456093
2.9381,-0.000494,0.004637,0.010026,0.009095,-0.00921,-0.02252,0.003659,-0.50531,0.010103,-1.193675,-264.404754,0.46333,62.460538
2.9582,-0.000814,0.004471,0.008788,0.008768,-0.008878,-0.02171,0.003749,-0.505326,0.010062,-1.193675,-264.404754,0.46333,62.460538
2.9779,8.5e-05,0.004346,0.008358,0.008396,-0.008502,-0.020788,0.004033,-0.505872,0.007894,-1.193675,-264.394611,0.46333,62.464713
2.998,0.000448,0.004326,0.007114,0.007972,-0.008072,-0.019737,0.004258,-0.505783,0.008045,-1.193675,-264.394611,0.46333,62.464713
3.0183,0.000263,0.004131,0.009742,0.007498,-0.007592,-0.018564,0.004258,-0.505783,0.008045,-1.193675,-264.394611,0.46333,62.464713
3.0381,0.00098,0.003537,0.00736,0.006974,-0.007061,-0.017266,0.005661,-0.506272,0.008689,-1.193675,-264.385085,0.46333,62.468635
3.0583,0.001568,0.003825,0.008586,0.0064,-0.00648,-0.015845,0.005604,-0.506297,0.008561,-1.193675,-264.385085,0.46333,62.468635
3.078,0.001751,0.003233,0.00825,0.005775,-0.005847,-0.014298,0.006238,-0.506446,0.00787,-1.193675,-264.376904,0.46333,62.472002
3.0981,0.001912,0.003286,0.007836,0.0051,-0.005164,-0.012628,0.006111,-0.50666,0.008002,-1.193675,-264.376904,0.46333,62.472002
3.1181,0.002072,0.003202,0.007333,0.004376,-0.004431,-0.010836,0.006111,-0.50666,0.008002,-1.193675,-264.376904,0.46333,62.472002
3.1386,0.002864,0.003081,0.007457,0.003602,-0.003647,-0.008918,0.006123,-0.507095,0.006567,-1.193675,-264.369996,0.46333,62.474846
3.158,0.002741,0.003173,0.006807,0.00278,-0.002815,-0.006882,0.006168,-0.50709,0.006608,-1.193675,-264.369996,0.46333,62.474846
3.1779,0.003272,0.002861,0.00625,0.001904,-0.001928,-0.004715,0.006382,-0.506985,0.006389,-1.193675,-264.365246,0.46333,62.476801
3.1979,0.003349,0.002835,0.005378,0.000978,-0.00099,-0.002421,0.006448,-0.507088,0.006257,-1.193675,-264.365246,0.46333,62.476801
3.2184,0.003211,0.002619,0.005653,8e-06,-8e-06,-1.9e-05,0.006448,-0.507088,0.006257,-1.193675,-264.365246,0.46333,62.476801
3.2381,0.003809,0.002951,0.004701,0.0,0.0,0.0,0.00623,-0.507509,0.005318,-1.193675,-264.362225,0.46333,62.478045
3.2586,0.00348,0.002687,0.006441,0.0,0.0,0.0,0.006232,-0.50748,0.005266,-1.193675,-264.362225,0.46333,62.478045
3.2782,0.00367,0.002805,0.006314,0.0,0.0,0.0,0.006765,-0.507303,0.006441,-1.193675,-264.362216,0.46333,62.478049
3.298,0.003415,0.002876,0.004779,0.0,0.0,0.0,0.006835,-0.507237,0.006369,-1.193675,-264.362216,0.46333,62.478049
3.3183,0.003837,0.002495,0.005238,0.0,0.0,0.0,0.006835,-0.507237,0.006369,-1.193675,-264.362216,0.46333,62.478049
3.3381,0.003319,0.002709,0.006518,0.0,0.0,0.0,0.006508,-0.507498,0.005238,-1.193675,-264.362216,0.46333,62.478049
3.358,0.00397,0.002829,0.005405,0.0,0.0,0.0,0.006518,-0.507483,0.005328,-1.193675,-264.362216,0.46333,62.478049
3.3782,0.003255,0.002458,0.005804,0.0,0.0,0.0,0.006726,-0.507164,0.005405,-1.193675,-264.362216,0.46333,62.478049
3.3982,0.003491,0.002776,0.004997,0.0,0.0,0.0,0.006434,-0.507375,0.005633,-1.193675,-264.362216,0.46333,62.478049
3.4181,0.003378,0.003115,0.005829,0.0,0.0,0.0,0.006434,-0.507375,0.005633,-1.193675,-264.362216,0.46333,62.478049
3.4384,0.003815,0.002495,0.005081,0.0,0.0,0.0,0.006351,-0.506876,0.005829,-1.193675,-264.362216,0.46333,62.478049
3.458,0.003727,0.002315,0.004834,-8.4e-05,-5.4e-05,0.0,0.006355,-0.506928,0.005767,-1.193675,-264.362216,0.46333,62.478049
3.4782,0.003199,0.002896,0.006409,-8.4e-05,-5.4e-05,0.0,0.006192,-0.507679,0.004834,-1.193675,-264.362216,0.46333,62.478049
3.4983,0.003594,0.002635,0.007461,-8.4e-05,-5.4e-05,0.0,0.006349,-0.507346,0.005731,-1.193675,-264.362216,0.46333,62.478049
3.5182,0.003483,0.002537,0.005857,-8.4e-05,-5.4e-05,0.0,0.006349,-0.507346,0.005731,-1.193675,-264.362216,0.46333,62.478049
3.5383,0.003611,0.00277,0.004997,-8.4e-05,-5.4e-05,0.0,0.00647,-0.507454,0.005857,-1.119139,-264.362216,0.537866,62.478049
3.5584,0.003589,0.002715,0.005217,-8.4e-05,-5.4e-05,0.0,0.006447,-0.507438,0.005794,-1.119139,-264.362216,0.537866,62.478049
3.5787,0.003685,0.002425,0.005704,-8.4e-05,-5.4e-05,0.0,0.00625,-0.507278,0.005217,-1.044062,-264.362216,0.574129,62.478049
3.598,0.00346,0.00308,0.005985,-8.4e-05,-5.4e-05,0.0,0.006443,-0.50744,0.005491,-1.044062,-264.362216,0.574129,62.478049
3.6182,0.003518,0.002578,0.005447,-8.4e-05,-5.4e-05,0.0,0.006443,-0.50744,0.005491,-1.044062,-264.362216,0.574129,62.478049
3.638,0.003449,0.002502,0.006755,-8.4e-05,-5.4e-05,0.0,0.006296,-0.507414,0.005447,-0.969059,-264.362216,0.574129,62.478049
3.6586,0.003477,0.00242,0.005931,-8.4e-05,-5.4e-05,0.0,0.006336,-0.507419,0.005534,-0.969059,-264.362216,0.574129,62.478049
3.6784,0.00351,0.002874,0.004946,-0.000572,-0.00037,-0.000759,0.006502,-0.507571,0.005931,-0.894134,-264.362216,0.574129,62.478049
3.6981,0.003608,0.002694,0.006081,-0.001097,-0.00071,-0.001457,0.00623,-0.507309,0.00536,-0.894134,-264.362216,0.574129,62.478049
3.7182,0.003526,0.002819,0.006653,-0.00159,-0.001029,-0.002111,0.00623,-0.507309,0.00536,-0.894134,-264.362216,0.574129,62.478049
3.7384,0.003612,0.002774,0.005594,-0.002064,-0.001335,-0.00274,0.006919,-0.50717,0.006653,-0.81875,-264.362216,0.574129,62.478049
3.7586,0.003796,0.002778,0.003851,-0.002511,-0.001624,-0.003333,0.006888,-0.507173,0.00658,-0.81875,-264.362216,0.574129,62.478049
3.7781,0.003554,0.002647,0.003605,-0.002926,-0.001893,-0.003885,0.00576,-0.507219,0.003851,-0.74414,-264.362216,0.499519,62.478049
3.7981,0.003809,0.002652,0.00647,-0.003313,-0.002143,-0.004398,0.005549,-0.507294,0.00371,-0.74414,-264.362216,0.499519,62.478049
3.818,0.003896,0.003005,0.005176,-0.003672,-0.002375,-0.004875,0.005549,-0.507294,0.00371,-0.74414,-264.362216,0.499519,62.478049
3.8386,0.003296,0.002398,0.007192,-0.004003,-0.002589,-0.005314,0.006536,-0.506988,0.005176,-0.669005,-264.362216,0.424384,62.478049
3.8585,0.00357,0.002723,0.004805,-0.004304,-0.002784,-0.005714,0.006566,-0.50703,0.005318,-0.669005,-264.362216,0.424384,62.478049
3.8781,0.003427,0.002786,0.007379,-0.004577,-0.002961,-0.006077,0.00602,-0.507271,0.004805,-0.59415,-264.362216,0.349529,62.478049
3.8985,0.003192,0.002759,0.006203,-0.004822,-0.003119,-0.006401,0.006692,-0.50723,0.006283,-0.59415,-264.362216,0.349529,62.478049
3.9182,0.003349,0.002752,0.005108,-0.005036,-0.003258,-0.006686,0.006692,-0.50723,0.006283,-0.59415,-264.362216,0.349529,62.478049
3.9383,0.003692,0.00271,0.006497,-0.005223,-0.003379,-0.006935,0.005955,-0.507241,0.005108,-0.519004,-264.362216,0.274383,62.478049
3.9585,0.003838,0.003099,0.00558,-0.005382,-0.003481,-0.007145,0.006027,-0.507244,0.005204,-0.519004,-264.362216,0.274383,62.478049
3.9783,0.003793,0.002707,0.006915,-0.005511,-0.003565,-0.007316,0.006684,-0.506893,0.00558,-0.444142,-264.362216,0.199521,62.478049
3.998,0.00366,0.002541,0.006597,-0.005613,-0.00363,-0.007451,0.007047,-0.507115,0.006343,-0.444142,-264.362216,0.199521,62.478049
4.0183,0.003757,0.002705,0.004943,-0.005683,-0.003676,-0.007545,0.007047,-0.507115,0.006343,-0.444142,-264.362216,0.199521,62.478049
4.0382,0.003862,0.002526,0.005188,-0.005727,-0.003704,-0.007603,0.006278,-0.507289,0.004943,-0.369027,-264.362216,0.124406,62.478049
4.0584,0.00381,0.002666,0.004385,-0.005741,-0.003713,-0.007622,0.0063,-0.507306,0.004966,-0.369027,-264.362216,0.124406,62.478049
4.0785,0.003657,0.00248,0.005059,-0.005727,-0.003704,-0.007603,0.006047,-0.507329,0.004385,-0.29336,-264.362216,0.048738,62.478048
4.0982,0.003742,0.002567,0.004664,-0.005684,-0.003676,-0.007546,0.006155,-0.507434,0.004769,-0.29336,-264.362216,0.048738,62.478048
4.1181,0.00384,0.002488,0.005006,-0.005612,-0.00363,-0.007451,0.006155,-0.507434,0.004769,-0.29336,-264.362216,0.048738,62.478048
4.1385,0.003286,0.002673,0.005932,-0.005512,-0.003565,-0.007318,0.006393,-0.507505,0.005006,-0.218937,-264.362216,-0.025684,62.478048
4.1581,0.003765,0.003036,0.005713,-0.005383,-0.003482,-0.007146,0.006387,-0.507492,0.005073,-0.218937,-264.362216,-0.025684,62.478048
4.178,0.003905,0.002878,0.004421,-0.005225,-0.00338,-0.006937,0.006678,-0.506956,0.005713,-0.144026,-264.362217,-0.100595,62.478048
4.1983,0.003507,0.002557,0.005258,-0.005038,-0.003259,-0.006689,0.006382,-0.507048,0.004975,-0.144026,-264.362217,-0.100595,62.478048
4.2181,0.003671,0.002583,0.005635,-0.004824,-0.00312,-0.006404,0.006382,-0.507048,0.004975,-0.144026,-264.362217,-0.100595,62.478048
4.2383,0.003603,0.002538,0.005616,-0.004579,-0.002962,-0.006079,0.006545,-0.507408,0.005635,-0.069043,-264.362217,-0.162581,62.478048
4.2583,0.003684,0.002384,0.004721,-0.004307,-0.002786,-0.005718,0.00654,-0.507412,0.005634,-0.069043,-264.362217,-0.162581,62.478048
4.2785,0.00335,0.002775,0.003542,-0.004005,-0.002591,-0.005317,0.006092,-0.50761,0.004721,0.005864,-264.362217,-0.162581,62.478048
4.2981,0.003495,0.002628,0.005198,-0.003676,-0.002378,-0.004881,0.00556,-0.507389,0.004051,0.005864,-264.362217,-0.162581,62.478048
4.3181,0.003588,0.002653,0.005118,-0.003317,-0.002146,-0.004404,0.00556,-0.507389,0.004051,0.005864,-264.362217,-0.162581,62.478048
4.338,0.003628,0.002652,0.004586,-0.002929,-0.001894,-0.003888,0.006198,-0.50734,0.005118,0.080869,-264.362218,-0.162581,62.478048
4.358,0.003387,0.002709,0.005408,-0.002512,-0.001625,-0.003335,0.006182,-0.50734,0.005081,0.080869,-264.362218,-0.162581,62.478048
4.378,0.003689,0.002507,0.005895,-0.002069,-0.001338,-0.002747,0.006145,-0.507284,0.005408,0.155859,-264.362218,-0.162581,62.478048
4.399,0.003669,0.003001,0.004617,-0.001595,-0.001032,-0.002118,0.00646,-0.507399,0.005686,0.155859,-264.362218,-0.162581,62.478048
4.4184,0.003137,0.002834,0.004661,-0.001094,-0.000708,-0.001452,0.00646,-0.507399,0.005686,0.155859,-264.362218,-0.162581,62.478048
4.4381,0.003753,0.002225,0.005052,-0.000563,-0.000364,-0.000747,0.005514,-0.50716,0.004661,0.230958,-264.362218,-0.162581,62.478047
4.4583,0.003517,0.002579,0.006199,-3e-06,-2e-06,-5e-06,0.005567,-0.5072,0.004686,0.230958,-264.362218,-0.162581,62.478047
4.4783,0.003521,0.002781,0.005879,0.0,0.0,0.0,0.006678,-0.507411,0.006199,0.305863,-264.362218,-0.162581,62.478047
4.4983,0.003773,0.002676,0.005138,0.0,0.0,0.0,0.006588,-0.507297,0.006017,0.305863,-264.362218,-0.162581,62.478047
4.5185,0.003589,0.002954,0.005012,0.0,0.0,0.0,0.006588,-0.507297,0.006017,0.305863,-264.362218,-0.162581,62.478047
4.5381,0.003779,0.002549,0.005579,0.0,0.0,0.0,0.006145,-0.507039,0.005012,0.380854,-264.362218,-0.162581,62.478047
4.558,0.003646,0.00268,0.004594,0.0,0.0,0.0,0.006176,-0.507066,0.005049,0.380854,-264.362218,-0.162581,62.478047
4.5783,0.003763,0.003153,0.004567,0.0,0.0,0.0,0.005989,-0.507315,0.004594,0.380854,-264.362218,-0.162581,62.478047
4.598,0.003124,0.002568,0.006923,0.0,0.0,0.0,0.006048,-0.507044,0.004579,0.380854,-264.362218,-0.162581,62.478047
4.6181,0.003399,0.002446,0.006434,0.0,0.0,0.0,0.006048,-0.507044,0.004579,0.380854,-264.362218,-0.162581,62.478047
4.6381,0.003453,0.002722,0.005821,0.0,0.0,0.0,0.00668,-0.507543,0.006434,0.380854,-264.362218,-0.162581,62.478047
4.6585,0.003893,0.003054,0.004757,0.0,0.0,0.0,0.006661,-0.507523,0.006389,0.380854,-264.362218,-0.162581,62.478047
4.6784,0.003625,0.002653,0.006598,0.0,0.0,0.0,0.006319,-0.50694,0.004757,0.380854,-264.362218,-0.162581,62.478047
4.6981,0.003692,0.002792,0.005212,-8.1e-05,-5.9e-05,0.0,0.006701,-0.507165,0.005804,0.380854,-264.362218,-0.162581,62.478047
4.7184,0.00377,0.002808,0.004193,-8.1e-05,-5.9e-05,0.0,0.006701,-0.507165,0.005804,0.380854,-264.362218,-0.162581,62.478047
4.7381,0.00335,0.002457,0.005214,-8.1e-05,-5.9e-05,0.0,0.005909,-0.507187,0.004193,0.380854,-264.362218,-0.162581,62.478047
4.7585,0.003768,0.002311,0.006674,-8.1e-05,-5.9e-05,0.0,0.005916,-0.507211,0.004264,0.380854,-264.362218,-0.162581,62.478047
4.778,0.003472,0.002474,0.004284,-8.1e-05,-5.9e-05,0.0,0.007172,-0.507678,0.006674,0.455857,-264.362218,-0.087578,62.478047
4.7981,0.003564,0.002803,0.005273,-8.1e-05,-5.9e-05,0.0,0.006312,-0.507589,0.005317,0.455857,-264.362218,-0.087578,62.478047
4.8181,0.003612,0.002895,0.004829,-8.1e-05,-5.9e-05,0.0,0.006312,-0.507589,0.005317,0.455857,-264.362218,-0.087578,62.478047
4.8381,0.003681,0.002706,0.005314,-8.1e-05,-5.9e-05,0.0,0.006075,-0.507099,0.004829,0.530851,-264.362218,-0.012583,62.478047
4.8587,0.003815,0.002747,0.005245,-8.1e-05,-5.9e-05,0.0,0.006096,-0.507111,0.004861,0.530851,-264.362218,-0.012583,62.478047
4.8781,0.003648,0.002273,0.004957,-8.1e-05,-5.9e-05,0.0,0.00649,-0.507246,0.005245,0.605846,-264.362218,0.062411,62.478047
4.8981,0.003154,0.00229,0.007823,-8.1e-05,-5.9e-05,0.0,0.006312,-0.507516,0.005081,0.605846,-264.362218,0.062411,62.478047
4.918,0.003384,0.002815,0.004319,-0.000532,-0.000384,-0.000964,0.006312,-0.507516,0.005081,0.605846,-264.362218,0.062411,62.478047
4.9385,0.003556,0.002755,0.006568,-0.001038,-0.000749,-0.00188,0.005586,-0.50718,0.004319,0.625175,-264.362219,0.137412,62.478047
4.9583,0.003732,0.002627,0.005319,-0.001517,-0.001095,-0.002747,0.005679,-0.507184,0.004476,0.625175,-264.362219,0.137412,62.478047
4.9786,0.003386,0.002642,0.004466,-0.00198,-0.001429,-0.003586,0.006445,-0.507366,0.005319,0.700174,-264.362219,0.062413,62.478047
4.9981,0.003255,0.002451,0.005116,-0.002391,-0.001725,-0.00433,0.006001,-0.507359,0.004835,0.700174,-264.362219,0.062413,62.478047
5.0182,0.003623,0.002393,0.004397,-0.002786,-0.002011,-0.005047,0.006001,-0.507359,0.004835,0.700174,-264.362219,0.062413,62.478047
5.0381,0.003458,0.002505,0.0062,-0.003155,-0.002277,-0.005716,0.005865,-0.507602,0.004397,0.775183,-264.362225,-0.012596,62.478044
5.0584,0.003963,0.002695,0.006018,-0.003497,-0.002524,-0.006334,0.005917,-0.507594,0.00452,0.775183,-264.362225,-0.012596,62.478044
5.0783,0.003429,0.002776,0.007674,-0.003813,-0.002752,-0.006906,0.007028,-0.507298,0.006014,0.850173,-264.362297,-0.087586,62.478007
5.0983,0.004017,0.002488,0.005431,-0.004097,-0.002957,-0.007422,0.007204,-0.507248,0.006947,0.850173,-264.362297,-0.087586,62.478007
5.1183,0.003543,0.002555,0.005007,-0.004361,-0.003147,-0.007899,0.007204,-0.507248,0.006947,0.850173,-264.362297,-0.087586,62.478007
5.138,0.003556,0.002364,0.004726,-0.00459,-0.003313,-0.008314,0.006072,-0.507455,0.004974,0.925173,-264.362673,-0.162586,62.477813
5.158,0.003591,0.002562,0.003574,-0.004795,-0.003461,-0.008686,0.006064,-0.507467,0.004956,0.925173,-264.362673,-0.162586,62.477813
5.1782,0.003866,0.002497,0.005065,-0.004972,-0.003589,-0.009007,0.005348,-0.507481,0.003474,1.000183,-264.363994,-0.237596,62.477134
5.1982,0.003202,0.002359,0.00458,-0.005123,-0.003697,-0.009279,0.005967,-0.507496,0.004367,1.000183,-264.363994,-0.237596,62.477134
5.2184,0.003556,0.002775,0.005236,-0.005246,-0.003786,-0.009503,0.005967,-0.507496,0.004367,1.000183,-264.363994,-0.237596,62.477134
5.2381,0.003161,0.002586,0.002713,-0.005341,-0.003855,-0.009675,0.006061,-0.507342,0.004945,1.07024,-264.366816,-0.312594,62.475683
5.2582,0.003494,0.002881,0.004146,-0.005409,-0.003904,-0.009798,0.005955,-0.50735,0.004788,1.07024,-264.366816,-0.312594,62.475683
5.2783,0.003857,0.001871,0.005447,-0.00545,-0.003934,-0.009873,0.005415,-0.507255,0.003795,1.07024,-264.370985,-0.367133,62.47354
5.2984,0.003463,0.002295,0.004769,-0.005464,-0.003944,-0.009897,0.006082,-0.507763,0.004686,1.07024,-264.370985,-0.367133,62.47354
5.3185,0.003689,0.002138,0.003267,-0.00545,-0.003934,-0.009873,0.006082,-0.507763,0.004686,1.07024,-264.370985,-0.367133,62.47354
5.3384,0.003567,0.002079,0.003716,-0.005409,-0.003904,-0.009798,0.005092,-0.508051,0.002789,1.07024,-264.375493,-0.367133,62.471221
5.3583,0.003633,0.002115,0.004886,-0.005341,-0.003855,-0.009675,0.005109,-0.508047,0.002836,1.07024,-264.375493,-0.367133,62.471221
5.3781,0.003457,0.001857,0.001563,-0.005243,-0.003784,-0.009497,0.005915,-0.508032,0.004505,1.07024,-264.380036,-0.367133,62.468886
5.398,0.0034,0.001766,0.00442,-0.005123,-0.003697,-0.009279,0.004943,-0.508114,0.002782,1.07024,-264.380036,-0.367133,62.468886
5.4187,0.003839,0.001443,0.00393,-0.004972,-0.003588,-0.009006,0.004943,-0.508114,0.002782,1.07024,-264.380036,-0.367133,62.468886
5.4383,0.003596,0.001419,0.002279,-0.004795,-0.003461,-0.008685,0.005584,-0.508742,0.003459,1.07024,-264.384488,-0.367133,62.466597
5.4584,0.003403,0.001564,0.001416,-0.004589,-0.003312,-0.008313,0.005521,-0.508736,0.003367,1.07024,-264.384488,-0.367133,62.466597
5.478,0.003615,0.001237,0.001409,-0.004357,-0.003145,-0.007893,0.003934,-0.508574,0.001069,1.07024,-264.388632,-0.367133,62.464466
5.4986,0.003528,0.001742,0.003015,-0.004098,-0.002958,-0.007423,0.004137,-0.508699,0.001218,1.07024,-264.388632,-0.367133,62.464466
5.5181,0.003404,0.001532,0.002098,-0.003811,-0.002751,-0.006904,0.004137,-0.508699,0.001218,1.07024,-264.388632,-0.367133,62.464466
5.5382,0.003322,0.001247,0.001261,-0.003497,-0.002524,-0.006335,0.004251,-0.508628,0.001694,1.07024,-264.392457,-0.367133,62.462499
5.5584,0.003537,0.001392,0.002911,-0.003156,-0.002278,-0.005716,0.004225,-0.508641,0.001653,1.07024,-264.392457,-0.367133,62.462499
5.5782,0.003637,0.00118,0.001648,-0.002787,-0.002011,-0.005048,0.004874,-0.508712,0.002644,1.07024,-264.395634,-0.367133,62.460866
5.599,0.003378,0.001477,0.000712,-0.002385,-0.001721,-0.00432,0.00463,-0.508787,0.002044,1.07024,-264.395634,-0.367133,62.460866
5.6186,0.00321,0.001246,0.003252,-0.001967,-0.00142,-0.003563,0.00463,-0.508787,0.002044,1.07024,-264.395634,-0.367133,62.460866
5.6384,0.003146,0.001272,0.002016,-0.001515,-0.001094,-0.002745,0.004715,-0.508862,0.002974,1.07024,-264.398264,-0.367133,62.459513
5.6584,0.00333,0.001104,0.001019,-0.001038,-0.000749,-0.00188,0.004675,-0.508856,0.002902,1.07024,-264.398264,-0.367133,62.459513
5.6783,0.003692,0.001163,0.001893,-0.000533,-0.000384,-0.000965,0.003774,-0.508951,0.000881,1.07024,-264.399903,-0.367133,62.458671
5.6987,0.003588,0.001521,0.001196,0.0,0.0,0.0,0.004266,-0.508893,0.001438,1.07024,-264.399903,-0.367133,62.458671
5.7186,0.003393,0.000956,0.001388,0.0,0.0,0.0,0.004266,-0.508893,0.001438,1.07024,-264.399903,-0.367133,62.458671
5.7381,0.003279,0.000612,0.00206,0.0,0.0,0.0,0.00405,-0.509081,0.001296,1.07024,-264.400768,-0.367133,62.458226
5.7585,0.003148,0.000856,0.001387,0.0,0.0,0.0,0.004067,-0.509101,0.001342,1.07024,-264.400768,-0.367133,62.458226
5.7784,0.003415,0.001167,0.00041,0.0,0.0,0.0,0.003855,-0.509143,0.001387,1.07024,-264.400768,-0.367133,62.458226
5.7983,0.003523,0.001305,0.001451,0.0,0.0,0.0,0.003724,-0.508967,0.000832,1.07024,-264.400768,-0.367133,62.458226
5.8188,0.003699,0.001016,0.001187,0.0,0.0,0.0,0.003724,-0.508967,0.000832,1.07024,-264.400768,-0.367133,62.458226
5.8381,0.003301,0.001164,0.001812,0.0,0.0,0.0,0.004304,-0.508984,0.001187,1.07024,-264.400768,-0.367133,62.458226
5.8586,0.003727,0.000745,0.000696,0.0,0.0,0.0,0.0043,-0.508976,0.001221,1.07024,-264.400768,-0.367133,62.458226
5.878,0.003696,0.001081,0.001399,0.0,0.0,0.0,0.004082,-0.509255,0.000696,1.07024,-264.400768,-0.367133,62.458226
5.898,0.003246,0.001137,0.001512,0.0,0.0,0.0,0.004269,-0.509064,0.001096,1.07024,-264.400768,-0.367133,62.458226
5.9185,0.003025,0.001115,0.001987,0.0,0.0,0.0,0.004269,-0.509064,0.001096,1.07024,-264.400768,-0.367133,62.458226
5.9385,0.003324,0.001336,0.000633,-9.4e-05,-3.4e-05,0.0,0.004038,-0.508884,0.001987,1.07024,-264.400768,-0.367133,62.458226
5.958,0.003482,0.000752,0.001785,-9.4e-05,-3.4e-05,0.0,0.004013,-0.50887,0.001898,1.07024,-264.400768,-0.367133,62.458226
5.9788,0.003131,0.000864,0.00201,-9.4e-05,-3.4e-05,0.0,0.004392,-0.509247,0.001785,1.07024,-264.400768,-0.367133,62.458226
5.9982,0.003455,0.000993,0.002138,-9.4e-05,-3.4e-05,0.0,0.004258,-0.509183,0.001913,1.07024,-264.400768,-0.367133,62.458226
6.0187,0.003426,0.000947,0.001108,-9.4e-05,-3.4e-05,0.0,0.004258,-0.509183,0.001913,1.07024,-264.400768,-0.367133,62.458226
6.0381,0.003567,0.001256,0.002063,-9.4e-05,-3.4e-05,0.0,0.003991,-0.509053,0.001108,0.995239,-264.400768,-0.292132,62.458226
6.0584,0.003556,0.000942,0.00134,-9.4e-05,-3.4e-05,0.0,0.004032,-0.509033,0.00117,0.995239,-264.400768,-0.292132,62.458226
6.078,0.00346,0.001015,0.001955,-9.4e-05,-3.4e-05,0.0,0.004239,-0.509057,0.00134,0.920239,-264.400768,-0.217132,62.458226
6.0983,0.003184,0.001224,0.001113,-9.4e-05,-3.4e-05,0.0,0.004366,-0.509015,0.001697,0.920239,-264.400768,-0.217132,62.458226
6.1186,0.003277,0.001075,0.002172,-9.4e-05,-3.4e-05,0.0,0.004366,-0.509015,0.001697,0.920239,-264.400768,-0.217132,62.458226
6.1381,0.003461,0.001275,0.000111,-5e-06,-2e-06,-3e-06,0.004385,-0.508924,0.002172,0.84493,-264.400768,-0.141824,62.458226
6.1581,0.003356,0.00098,0.000911,-0.000443,-0.000162,-0.000291,0.004327,-0.50891,0.002033,0.84493,-264.400768,-0.141824,62.458226
6.1781,0.003276,0.00094,0.001357,-0.000863,-0.000316,-0.000566,0.00382,-0.50902,0.000911,0.770227,-264.400768,-0.06712,62.458226
6.1983,0.003207,0.00083,0.001119,-0.00126,-0.000462,-0.000827,0.003904,-0.509042,0.001164,0.770227,-264.400768,-0.06712,62.458226
6.2181,0.003445,0.001196,0.002912,-0.001636,-0.000599,-0.001073,0.003904,-0.509042,0.001164,0.770227,-264.400768,-0.06712,62.458226
6.2383,0.003221,0.001045,0.000225,-0.001987,-0.000727,-0.001304,0.004913,-0.508808,0.0029,0.69524,-264.400945,-0.03461,62.458085
6.2583,0.003314,0.000823,0.00051,-0.002316,-0.000848,-0.00152,0.004803,-0.508819,0.002715,0.69524,-264.400945,-0.03461,62.458085
6.2781,0.003142,0.000626,0.001159,-0.002628,-0.000962,-0.001724,0.003512,-0.509199,0.000469,0.65427,-264.401748,-0.03461,62.457448
6.2981,0.003291,0.001215,0.002211,-0.002907,-0.001065,-0.001908,0.00363,-0.509301,0.000856,0.65427,-264.401748,-0.03461,62.457448
6.3182,0.003143,0.001051,0.000598,-0.003167,-0.00116,-0.002078,0.00363,-0.509301,0.000856,0.65427,-264.401748,-0.03461,62.457448
6.3383,0.003143,0.000807,0.000277,-0.003406,-0.001247,-0.002235,0.003335,-0.508991,0.000524,0.65427,-264.402917,-0.03461,62.45652
6.3585,0.00327,0.001029,5.4e-05,-0.003621,-0.001326,-0.002376,0.003328,-0.509007,0.000504,0.65427,-264.402917,-0.03461,62.45652
6.3785,0.003129,0.000883,0.001775,-0.003815,-0.001397,-0.002503,0.003175,-0.509015,-2.6e-05,0.65427,-264.404512,-0.03461,62.455253
6.3987,0.002908,0.001054,0.001165,-0.003985,-0.001459,-0.002615,0.003647,-0.509078,0.000985,0.65427,-264.404512,-0.03461,62.455253
6.4183,0.003052,0.000926,0.00105,-0.004133,-0.001513,-0.002712,0.003647,-0.509078,0.000985,0.65427,-264.404512,-0.03461,62.455253
6.4388,0.002903,0.000741,-0.000534,-0.004257,-0.001559,-0.002794,0.003412,-0.509138,0.000934,0.65427,-264.406337,-0.03461,62.453804
6.4584,0.002966,0.000711,0.002234,-0.004359,-0.001596,-0.002861,0.003354,-0.509148,0.000831,0.65427,-264.406337,-0.03461,62.453804
6.4785,0.002742,0.000749,0.000718,-0.004439,-0.001626,-0.002913,0.003946,-0.509346,0.002129,0.65427,-264.408424,-0.03461,62.452147
6.4982,0.00297,0.001013,0.001102,-0.004496,-0.001646,-0.00295,0.003446,-0.509299,0.001308,0.65427,-264.408424,-0.03461,62.452147
6.5181,0.002886,0.000472,0.00063,-0.00453,-0.001659,-0.002973,0.003446,-0.509299,0.001308,0.65427,-264.408424,-0.03461,62.452147
