mach0312/omni-docking-bench/src/icros_test_setup/results/kinematic_sample/timeseries/trial_070.csv
t,x,y,yaw,vx,vy,wz,bl_x,bl_y,bl_yaw,front_steering_joint,front_wheel_joint,rear_steering_joint,rear_wheel_joint
0.0,-0.018207,-0.022357,0.071512,0.004034,-0.00052,0.00296,0.01815,-0.53091,0.071607,0.309105,-264.130752,-0.523249,61.856143
0.0004,-0.017834,-0.022167,0.072036,0.0,0.0,0.0,0.018242,-0.530955,0.072433,0.309105,-264.128359,-0.523249,61.858774
0.0007,-0.018032,-0.022627,0.070477,0.0,0.0,0.0,0.018292,-0.531092,0.071989,0.309105,-264.12666,-0.523249,61.860642
0.001,-0.018083,-0.022508,0.0718,0.0,0.0,0.0,0.018292,-0.531092,0.071989,0.309105,-264.126203,-0.523249,61.861145
0.0013,-0.018222,-0.022298,0.072004,0.0,0.0,0.0,0.018292,-0.531092,0.071989,0.309105,-264.126203,-0.523249,61.861145
0.0015,-0.018521,-0.022548,0.071485,0.0,0.0,0.0,0.018583,-0.531139,0.072614,0.309105,-264.126203,-0.523249,61.861145
0.0018,-0.017855,-0.022373,0.071304,0.0,0.0,0.0,0.018583,-0.531139,0.072614,0.309105,-264.126203,-0.523249,61.861145
0.0021,-0.018232,-0.022549,0.072921,0.0,0.0,0.0,0.01857,-0.531146,0.072504,0.309105,-264.126203,-0.523249,61.861145
0.0023,-0.018091,-0.022365,0.071433,0.0,0.0,0.0,0.01857,-0.531146,0.072504,0.309105,-264.126203,-0.523249,61.861145
0.0025,-0.01819,-0.022347,0.071498,0.0,0.0,0.0,0.019025,-0.53154,0.072785,0.309105,-264.126203,-0.523249,61.861145
0.0181,-0.018254,-0.022558,0.071755,0.016,0.016,-0.03,0.018243,-0.531044,0.071498,0.309105,-264.126203,-0.523249,61.861145
0.0381,-0.018048,-0.022597,0.072957,0.019825,0.021191,-0.05,0.018281,-0.531158,0.071643,0.309105,-264.126203,-0.523249,61.861145
0.0584,-0.018015,-0.022373,0.071012,0.019647,0.021221,-0.05,0.018281,-0.531158,0.071643,0.309105,-264.126203,-0.523249,61.861145
0.0779,-0.018203,-0.022371,0.072023,0.019557,0.021038,-0.05,0.01817,-0.531088,0.071012,0.309105,-264.126203,-0.523249,61.861145
0.0979,-0.018188,-0.022212,0.071877,0.019766,0.021003,-0.05,0.018192,-0.531085,0.071079,0.309105,-264.126203,-0.523249,61.861145
0.1186,-0.018052,-0.022558,0.071264,0.019736,0.020848,-0.05,0.018438,-0.530895,0.071877,0.234106,-264.126203,-0.44825,61.861145
0.1384,-0.017849,-0.022495,0.069795,0.019613,0.021215,-0.05,0.018337,-0.531104,0.071528,0.234106,-264.126203,-0.44825,61.861145
0.1584,-0.018456,-0.022671,0.072622,0.019374,0.021195,-0.05,0.018337,-0.531104,0.071528,0.234106,-264.126203,-0.44825,61.861145
0.1786,-0.018312,-0.022371,0.072247,0.020053,0.021272,-0.05,0.018548,-0.531327,0.072622,0.15905,-264.126203,-0.373194,61.861145
0.1982,-0.017966,-0.022645,0.072119,0.019879,0.02099,-0.05,0.018545,-0.531308,0.072596,0.15905,-264.126203,-0.373194,61.861145
0.218,-0.018254,-0.022401,0.071124,0.019551,0.021292,-0.05,0.018783,-0.531319,0.072119,0.084105,-264.126203,-0.298249,61.861145
0.2382,-0.018119,-0.022422,0.071714,0.0198,0.021047,-0.05,0.018329,-0.5312,0.07155,0.084105,-264.126203,-0.298249,61.861145
0.2582,-0.018297,-0.02248,0.072424,0.019679,0.021066,-0.05,0.018329,-0.5312,0.07155,0.084105,-264.126203,-0.298249,61.861145
0.2782,-0.018153,-0.022089,0.071424,0.019876,0.021097,-0.05,0.018607,-0.531143,0.072424,0.009013,-264.126203,-0.223156,61.861145
0.2986,-0.018115,-0.022334,0.070335,0.019683,0.020737,-0.05,0.018583,-0.53112,0.072359,0.009013,-264.126203,-0.223156,61.861145
0.3181,-0.018177,-0.02248,0.072931,0.019639,0.021005,-0.05,0.017727,-0.531073,0.070335,-0.065892,-264.126203,-0.148251,61.861145
0.3383,-0.017985,-0.022684,0.072874,0.019767,0.021095,-0.05,0.018453,-0.531102,0.071833,-0.065892,-264.126203,-0.148251,61.861145
0.3587,-0.01829,-0.022535,0.072529,0.019588,0.021314,-0.05,0.018453,-0.531102,0.071833,-0.065892,-264.126203,-0.148251,61.861145
0.3785,-0.018284,-0.022376,0.072764,0.019874,0.02115,-0.05,0.018668,-0.531194,0.072529,-0.141281,-264.126203,-0.072863,61.861146
0.3986,-0.018036,-0.022512,0.072813,0.019862,0.020988,-0.05,0.018677,-0.531182,0.072547,-0.141281,-264.126203,-0.072863,61.861146
0.4183,-0.018092,-0.022395,0.071979,0.019626,0.021141,-0.05,0.019066,-0.531161,0.072813,-0.21625,-264.126203,0.002106,61.861146
0.439,-0.018087,-0.022702,0.072075,0.019656,0.021035,-0.05,0.018794,-0.531112,0.072341,-0.21625,-264.126203,0.002106,61.861146
0.459,-0.018018,-0.022615,0.071921,0.019675,0.021341,-0.05,0.018794,-0.531112,0.072341,-0.21625,-264.126203,0.002106,61.861146
0.4781,-0.017934,-0.022806,0.072601,0.019596,0.021262,-0.05,0.018631,-0.531297,0.071921,-0.290899,-264.126202,0.076755,61.861147
0.4987,-0.018496,-0.02255,0.070812,0.019541,0.021445,-0.05,0.018667,-0.531311,0.071978,-0.290899,-264.126202,0.076755,61.861147
0.5186,-0.018667,-0.022687,0.072689,0.020045,0.021185,-0.05,0.017588,-0.531272,0.070812,-0.366428,-264.126202,0.152284,61.861149
0.5385,-0.018085,-0.022664,0.072243,0.020266,0.021271,-0.05,0.018029,-0.53131,0.071867,-0.366428,-264.126202,0.152284,61.861149
0.5585,-0.01829,-0.021923,0.071721,0.019673,0.021299,-0.05,0.018029,-0.53131,0.071867,-0.366428,-264.126202,0.152284,61.861149
0.5782,-0.018053,-0.022662,0.071145,0.019814,0.020556,-0.05,0.018256,-0.530612,0.071721,-0.435488,-264.126201,0.226927,61.861151
0.5984,-0.018179,-0.022567,0.07224,0.019618,0.021321,-0.05,0.018252,-0.530676,0.071672,-0.435488,-264.126201,0.226927,61.861151
0.6183,-0.018238,-0.02277,0.072536,0.01976,0.021196,-0.05,0.018632,-0.531237,0.07224,-0.439008,-264.1262,0.302297,61.861153
0.6387,-0.018341,-0.022476,0.071901,0.01984,0.021388,-0.05,0.018683,-0.531346,0.072408,-0.439008,-264.1262,0.302297,61.861153
0.6586,-0.017963,-0.022295,0.071746,0.019908,0.0211,-0.05,0.018683,-0.531346,0.072408,-0.439008,-264.1262,0.302297,61.861153
0.6782,-0.017888,-0.023025,0.071433,0.019515,0.02095,-0.05,0.018596,-0.530983,0.071746,-0.43919,-264.126199,0.376783,61.861155
0.6991,-0.018334,-0.022471,0.071484,0.019485,0.021689,-0.05,0.018589,-0.531046,0.071719,-0.43919,-264.126199,0.376783,61.861155
0.7185,-0.018302,-0.022373,0.073033,0.019892,0.021105,-0.05,0.018092,-0.531169,0.071484,-0.442673,-264.126198,0.452357,61.861157
0.7381,-0.018086,-0.022684,0.072067,0.019886,0.020978,-0.05,0.018557,-0.531081,0.072363,-0.442673,-264.126198,0.452357,61.861157
0.7585,-0.018408,-0.022428,0.072791,0.019672,0.021323,-0.05,0.018557,-0.531081,0.072363,-0.442673,-264.126198,0.452357,61.861157
0.7785,-0.018008,-0.022833,0.072164,0.019991,0.02103,-0.05,0.018683,-0.531078,0.072791,-0.426246,-264.126197,0.526921,61.86116
0.7985,-0.018249,-0.022596,0.072539,0.019608,0.021476,-0.05,0.018688,-0.531105,0.072751,-0.426246,-264.126197,0.526921,61.86116
0.818,-0.017906,-0.022894,0.073047,0.019838,0.021214,-0.05,0.018714,-0.531254,0.072538,-0.438064,-264.126193,0.601725,61.861169
0.8383,-0.017961,-0.022558,0.072121,0.01953,0.021526,-0.05,0.019053,-0.531413,0.072826,-0.438064,-264.126193,0.601725,61.861169
0.8586,-0.018189,-0.022527,0.071874,0.019539,0.021205,-0.05,0.019053,-0.531413,0.072826,-0.438064,-264.126193,0.601725,61.861169
0.8782,-0.017899,-0.022482,0.071709,0.019759,0.021163,-0.05,0.018438,-0.531209,0.071871,-0.432924,-264.126177,0.676874,61.861211
0.8983,-0.018195,-0.022568,0.071547,0.019463,0.021142,-0.05,0.018453,-0.531206,0.071859,-0.432924,-264.126177,0.676874,61.861211
0.9179,-0.01816,-0.022093,0.071548,0.019761,0.021209,-0.05,0.018272,-0.531257,0.071534,-0.445603,-264.126104,0.751866,61.861399
0.938,-0.018165,-0.022571,0.071003,0.019693,0.020738,-0.05,0.018288,-0.530989,0.07154,-0.445603,-264.126104,0.751866,61.861399
0.958,-0.017693,-0.022575,0.072505,0.01972,0.021226,-0.05,0.018288,-0.530989,0.07154,-0.445603,-264.126104,0.751866,61.861399
0.9781,-0.018111,-0.022317,0.07023,0.019282,0.021234,-0.05,0.019292,-0.531209,0.072444,-0.449722,-264.125841,0.826847,61.862071
0.9979,-0.018377,-0.022415,0.071542,0.019632,0.020991,-0.05,0.019181,-0.531198,0.072289,-0.449722,-264.125841,0.826847,61.862071
1.0183,-0.017405,-0.022291,0.070617,0.019932,0.021044,-0.05,0.018172,-0.531042,0.071386,-0.441157,-264.125025,0.90175,61.864144
1.038,-0.017779,-0.022465,0.073276,0.018934,0.021007,-0.05,0.018411,-0.531021,0.070937,-0.441157,-264.125025,0.90175,61.864144
1.0584,-0.017835,-0.022496,0.071064,0.019376,0.021103,-0.05,0.018411,-0.531021,0.070937,-0.441157,-264.125025,0.90175,61.864144
1.0787,-0.017102,-0.022216,0.072065,0.019387,0.021173,-0.05,0.018625,-0.531011,0.070601,-0.452603,-264.123099,0.976737,61.868731
1.0985,-0.017304,-0.02225,0.069575,0.018657,0.020927,-0.05,0.018702,-0.530997,0.070692,-0.452603,-264.123099,0.976737,61.868731
1.1187,-0.016534,-0.021718,0.070325,0.018809,0.020994,-0.05,0.018456,-0.530773,0.068968,-0.453115,-264.119581,1.052002,61.87579
1.1387,-0.016681,-0.021889,0.071039,0.018019,0.020503,-0.05,0.018973,-0.530564,0.069657,-0.453115,-264.119581,1.052002,61.87579
1.1581,-0.016956,-0.021939,0.071405,0.018192,0.02065,-0.05,0.018973,-0.530564,0.069657,-0.453115,-264.119581,1.052002,61.87579
1.1778,-0.015603,-0.021514,0.069626,0.018478,0.020674,-0.05,0.019933,-0.530222,0.070306,-0.475655,-264.114372,1.126735,61.885375
1.1986,-0.01543,-0.021788,0.069452,0.017062,0.020376,-0.05,0.019942,-0.530215,0.070231,-0.475655,-264.114372,1.126735,61.885375
1.2185,-0.013696,-0.020412,0.068267,0.016905,0.020664,-0.05,0.020439,-0.530141,0.0683,-0.497852,-264.107425,1.201824,61.89746
1.2388,-0.014295,-0.020564,0.068157,0.015057,0.01943,-0.05,0.020874,-0.529563,0.068135,-0.497852,-264.107425,1.201824,61.89746
1.2591,-0.014067,-0.02095,0.066667,0.015662,0.019543,-0.05,0.020874,-0.529563,0.068135,-0.497852,-264.107425,1.201824,61.89746
1.2781,-0.012169,-0.019855,0.063408,0.015431,0.019966,-0.05,0.02054,-0.529167,0.06491,-0.537144,-264.099944,1.247435,61.91201
1.2984,-0.012524,-0.020166,0.066605,0.013402,0.019044,-0.05,0.020531,-0.52913,0.064772,-0.537144,-264.099944,1.247435,61.91201
1.3185,-0.010437,-0.019094,0.062735,0.013838,0.019287,-0.05,0.021901,-0.528407,0.064998,-0.611991,-264.092995,1.267696,61.929081
1.3384,-0.010962,-0.019094,0.063857,0.011614,0.018402,-0.05,0.021757,-0.528149,0.063519,-0.611991,-264.092995,1.267696,61.929081
1.3583,-0.010737,-0.019077,0.063059,0.012159,0.018355,-0.05,0.021757,-0.528149,0.063519,-0.611991,-264.092995,1.267696,61.929081
1.3782,-0.009222,-0.017929,0.061527,0.011918,0.018363,-0.05,0.021906,-0.527245,0.061022,-0.686983,-264.087066,1.306799,61.946328
1.3982,-0.009113,-0.018145,0.062468,0.010307,0.017328,-0.05,0.021932,-0.527208,0.061005,-0.686983,-264.087066,1.306799,61.946328
1.4184,-0.007593,-0.017544,0.060542,0.010228,0.017541,-0.05,0.023092,-0.526518,0.060832,-0.76198,-264.081228,1.327063,61.963416
1.4384,-0.007592,-0.017103,0.059724,0.008641,0.017053,-0.05,0.023235,-0.526491,0.060462,-0.76198,-264.081228,1.327063,61.963416
1.4587,-0.007843,-0.017624,0.059159,0.0086,0.016619,-0.05,0.023235,-0.526491,0.060462,-0.76198,-264.081228,1.327063,61.963416
1.478,-0.006518,-0.016512,0.057618,0.008871,0.017129,-0.05,0.02264,-0.52611,0.057484,-0.836981,-264.07655,1.358695,61.977088
1.4981,-0.006585,-0.016441,0.058199,0.007458,0.016109,-0.05,0.022664,-0.526063,0.057449,-0.836981,-264.07655,1.358695,61.977088
1.5182,-0.005204,-0.015672,0.056631,0.00753,0.016031,-0.05,0.023267,-0.525181,0.057092,-0.911971,-264.072735,1.390413,61.988265
1.538,-0.005611,-0.015844,0.056367,0.006083,0.015353,-0.05,0.023516,-0.524945,0.056689,-0.911971,-264.072735,1.390413,61.988265
1.5579,-0.004972,-0.015851,0.056869,0.006495,0.015502,-0.05,0.023516,-0.524945,0.056689,-0.911971,-264.072735,1.390413,61.988265
1.578,-0.004727,-0.015673,0.054122,0.005865,0.015543,-0.05,0.024221,-0.524546,0.055473,-0.986969,-264.068946,1.412253,61.999283
1.5982,-0.004531,-0.015879,0.053883,0.005568,0.015394,-0.05,0.024132,-0.52456,0.055341,-0.986969,-264.068946,1.412253,61.999283
1.6178,-0.003416,-0.015294,0.052547,0.00538,0.015612,-0.05,0.023085,-0.52476,0.052731,-1.061961,-264.064986,1.430648,62.010526
1.6378,-0.003172,-0.014974,0.052579,0.004215,0.015094,-0.05,0.023267,-0.524615,0.05248,-1.061961,-264.064986,1.430648,62.010526
1.6578,-0.00343,-0.015002,0.052678,0.003954,0.014787,-0.05,0.023267,-0.524615,0.05248,-1.061961,-264.064986,1.430648,62.010526
1.6781,-0.002427,-0.014277,0.051262,0.004215,0.0148,-0.05,0.023598,-0.523775,0.051063,-1.137018,-264.060662,1.450166,62.022925
1.6979,-0.002583,-0.014339,0.053142,0.003155,0.014134,-0.05,0.02361,-0.523749,0.051034,-1.137018,-264.060662,1.450166,62.022925
1.7181,-0.002015,-0.013538,0.052288,0.003341,0.014181,-0.05,0.024593,-0.52329,0.052077,-1.211964,-264.05704,1.483775,62.033072
1.7381,-0.001882,-0.013859,0.050547,0.00272,0.013414,-0.05,0.024631,-0.522991,0.052063,-1.211964,-264.05704,1.483775,62.033072
1.7581,-0.001652,-0.013922,0.050171,0.00258,0.013746,-0.05,0.024631,-0.522991,0.052063,-1.211964,-264.05704,1.483775,62.033072
1.7779,-0.000429,-0.013417,0.05037,0.002348,0.013822,-0.05,0.024023,-0.522838,0.048654,-1.287101,-264.052842,1.500286,62.044328
1.7981,-0.001097,-0.013701,0.047851,0.001104,0.013378,-0.05,0.024111,-0.522821,0.048733,-1.287101,-264.052842,1.500286,62.044328
1.8186,0.00054,-0.012831,0.046912,0.001752,0.013633,-0.047851,0.023368,-0.522708,0.046392,-1.36196,-264.0477,1.5126,62.057753
1.8384,0.000531,-0.012869,0.047987,6.2e-05,0.012842,-0.046912,0.023993,-0.522408,0.046501,-1.36196,-264.0477,1.5126,62.057753
1.8583,0.000264,-0.012522,0.045842,8.7e-05,0.01288,-0.047987,0.023993,-0.522408,0.046501,-1.36196,-264.0477,1.5126,62.057753
1.8782,0.0011,-0.012487,0.045027,0.00031,0.012521,-0.045842,0.023672,-0.521525,0.044137,-1.436979,-264.042869,1.545652,62.070097
1.8986,0.001102,-0.012464,0.045224,-0.000537,0.012524,-0.045027,0.023699,-0.521543,0.044153,-1.436979,-264.042869,1.545652,62.070097
1.9184,0.002084,-0.011686,0.04363,-0.000537,0.012501,-0.045224,0.024157,-0.521562,0.043809,-1.511972,-264.03786,1.568725,62.082958
1.9383,0.001905,-0.011759,0.043594,-0.001572,0.011765,-0.04363,0.024254,-0.521308,0.043529,-1.511972,-264.03786,1.568725,62.082958
1.9584,0.002134,-0.012053,0.043152,-0.001391,0.011831,-0.043594,0.024254,-0.521308,0.043529,-1.511972,-264.03786,1.568725,62.082958
1.9782,0.003099,-0.011312,0.041337,-0.001613,0.012134,-0.043152,0.024097,-0.521054,0.041263,-1.587111,-264.032698,1.584216,62.096747
1.9984,0.002971,-0.011127,0.041547,-0.002629,0.011431,-0.041337,0.024101,-0.521029,0.041221,-1.587111,-264.032698,1.584216,62.096747
2.0183,0.004237,-0.010481,0.039731,-0.002507,0.011241,-0.041547,0.02409,-0.520277,0.040027,-1.66197,-264.027336,1.606952,62.11063
2.038,0.004202,-0.01053,0.040188,-0.003817,0.010641,-0.039731,0.024312,-0.520112,0.039667,-1.66197,-264.027336,1.606952,62.11063
2.0579,0.004404,-0.010765,0.038364,-0.003775,0.010691,-0.040188,0.024312,-0.520112,0.039667,-1.66197,-264.027336,1.606952,62.11063
2.0783,0.00362,-0.010564,0.039123,-0.003988,0.010926,-0.038364,0.023939,-0.520158,0.037982,-1.586887,-264.027337,1.642344,62.114483
2.0978,0.004043,-0.0105,0.037624,-0.003204,0.010697,-0.039123,0.023912,-0.520152,0.038053,-1.586887,-264.027337,1.642344,62.114483
2.1181,0.00391,-0.010422,0.039033,-0.003645,0.010645,-0.037624,0.023226,-0.520139,0.037624,-1.511936,-264.027338,1.677528,62.114485
2.1382,0.004214,-0.01029,0.039242,-0.0035,0.010566,-0.039033,0.02356,-0.520079,0.038427,-1.511936,-264.027338,1.677528,62.114485
2.1579,0.003938,-0.010565,0.040044,-0.003807,0.010447,-0.039242,0.02356,-0.520079,0.038427,-1.511936,-264.027338,1.677528,62.114485
2.178,0.004236,-0.010299,0.038458,-0.003512,0.010714,-0.040044,0.024355,-0.520156,0.040044,-1.436977,-264.027338,1.66317,62.114486
2.1985,0.004057,-0.010597,0.040144,-0.003837,0.010455,-0.038458,0.02432,-0.520139,0.039933,-1.436977,-264.027338,1.66317,62.114486
2.2179,0.003892,-0.01045,0.038903,-0.003628,0.010752,-0.040144,0.024525,-0.520186,0.040144,-1.361981,-264.027339,1.680969,62.114488
2.2379,0.003771,-0.010443,0.038112,-0.003483,0.010593,-0.038903,0.02407,-0.520116,0.039435,-1.361981,-264.027339,1.680969,62.114488
2.2581,0.003926,-0.010434,0.037859,-0.00337,0.010579,-0.038112,0.02407,-0.520116,0.039435,-1.361981,-264.027339,1.680969,62.114488
2.278,0.004146,-0.010265,0.037472,-0.003529,0.010575,-0.037859,0.02323,-0.520068,0.037859,-1.286919,-264.027339,1.683367,62.114489
2.2979,0.004129,-0.010379,0.037401,-0.003759,0.010413,-0.037472,0.023232,-0.520057,0.037833,-1.286919,-264.027339,1.683367,62.114489
2.318,0.004464,-0.010704,0.039393,-0.003738,0.010526,-0.037401,0.023199,-0.520022,0.037401,-1.211969,-264.02734,1.670009,62.11449
2.3384,0.004124,-0.010355,0.037446,-0.004039,0.010872,-0.039393,0.023969,-0.520185,0.038537,-1.211969,-264.02734,1.670009,62.11449
2.3584,0.003967,-0.010585,0.037195,-0.003733,0.010502,-0.037446,0.023969,-0.520185,0.038537,-1.211969,-264.02734,1.670009,62.11449
2.378,0.004355,-0.010069,0.039362,-0.003571,0.010725,-0.037195,0.022932,-0.520232,0.037195,-1.136921,-264.02734,1.6832,62.114492
2.3979,0.003962,-0.01047,0.038659,-0.003956,0.010232,-0.039362,0.023048,-0.520189,0.037363,-1.136921,-264.02734,1.6832,62.114492
2.418,0.003814,-0.010632,0.039812,-0.003554,0.010615,-0.038659,0.023673,-0.520089,0.038659,-1.061653,-264.027341,1.682197,62.114493
2.4383,0.004118,-0.010507,0.040549,-0.003388,0.010776,-0.039812,0.023925,-0.520169,0.03932,-1.061653,-264.027341,1.682197,62.114493
2.4581,0.00401,-0.01005,0.037122,-0.003689,0.010666,-0.040549,0.023925,-0.520169,0.03932,-1.061653,-264.027341,1.682197,62.114493
2.4781,0.004013,-0.010442,0.037473,-0.003635,0.010192,-0.037122,0.022938,-0.519698,0.037121,-0.98686,-264.027341,1.685709,62.114494
2.4984,0.003689,-0.010431,0.038336,-0.003619,0.010585,-0.037473,0.022952,-0.519728,0.037148,-0.98686,-264.027341,1.685709,62.114494
2.5179,0.004359,-0.010382,0.03939,-0.003287,0.010564,-0.038336,0.023236,-0.520056,0.038336,-0.911793,-264.027342,1.674531,62.114496
2.538,0.00402,-0.010407,0.039281,-0.003946,0.010545,-0.03939,0.023917,-0.520017,0.038931,-0.911793,-264.027342,1.674531,62.114496
2.5582,0.004303,-0.010659,0.03871,-0.003608,0.010557,-0.039281,0.023917,-0.520017,0.038931,-0.911793,-264.027342,1.674531,62.114496
2.578,0.004021,-0.010158,0.037932,-0.003887,0.010818,-0.03871,0.02404,-0.520277,0.03871,-0.836897,-264.027342,1.678512,62.114497
2.5979,0.00418,-0.010413,0.038087,-0.003633,0.010303,-0.037932,0.02399,-0.520241,0.038653,-0.836897,-264.027342,1.678512,62.114497
2.618,0.004106,-0.010443,0.040187,-0.00378,0.010564,-0.038087,0.023599,-0.520043,0.038086,-0.761853,-264.027343,1.674865,62.114499
2.638,0.004142,-0.010171,0.039109,-0.003683,0.010599,-0.040187,0.024166,-0.520036,0.039282,-0.761853,-264.027343,1.674865,62.114499
2.6583,0.003962,-0.010372,0.038918,-0.003741,0.010326,-0.039109,0.024166,-0.520036,0.039282,-0.761853,-264.027343,1.674865,62.114499
2.678,0.004192,-0.010495,0.037411,-0.003555,0.010518,-0.038918,0.023805,-0.519986,0.038918,-0.686989,-264.027343,1.678929,62.1145
2.6985,0.004237,-0.010474,0.038675,-0.003797,0.010645,-0.037411,0.02377,-0.519996,0.038819,-0.686989,-264.027343,1.678929,62.1145
2.7183,0.004294,-0.010398,0.040386,-0.003829,0.01063,-0.038675,0.023956,-0.520092,0.038675,-0.612019,-264.027344,1.679718,62.114501
2.738,0.00395,-0.010528,0.038561,-0.003871,0.010562,-0.040386,0.024486,-0.520029,0.039651,-0.612019,-264.027344,1.679718,62.114501
2.758,0.004043,-0.010492,0.038383,-0.003541,0.010673,-0.038561,0.024486,-0.520029,0.039651,-0.612019,-264.027344,1.679718,62.114501
2.7785,0.003982,-0.010478,0.039204,-0.003637,0.01064,-0.038383,0.023613,-0.520117,0.038383,-0.536931,-264.027345,1.683666,62.114503
2.799,0.004003,-0.010249,0.037696,-0.003568,0.010626,-0.039204,0.023637,-0.520115,0.038438,-0.536931,-264.027345,1.683666,62.114503
2.8186,0.003983,-0.010379,0.038825,-0.003614,0.010393,-0.037696,0.023223,-0.519887,0.037696,-0.461981,-264.027345,1.673905,62.114504
2.8382,0.004288,-0.010278,0.038459,-0.003577,0.010526,-0.038825,0.023535,-0.519948,0.03833,-0.461981,-264.027345,1.673905,62.114504
2.8585,0.003714,-0.010553,0.038218,-0.00389,0.010435,-0.038459,0.023535,-0.519948,0.03833,-0.461981,-264.027345,1.673905,62.114504
2.8786,0.004315,-0.010728,0.038958,-0.003308,0.010687,-0.038218,0.0232,-0.520181,0.038218,-0.386878,-264.027346,1.673638,62.114505
2.8987,0.004271,-0.010477,0.036912,-0.003894,0.010888,-0.038958,0.023269,-0.520192,0.03827,-0.386878,-264.027346,1.673638,62.114505
2.9179,0.004414,-0.010494,0.038835,-0.003882,0.010627,-0.036912,0.023092,-0.520129,0.036912,-0.311972,-264.027346,1.684958,62.114507
2.9379,0.003966,-0.010395,0.03933,-0.004003,0.010658,-0.038835,0.023731,-0.520118,0.038006,-0.311972,-264.027346,1.684958,62.114507
2.958,0.004138,-0.010158,0.040457,-0.003554,0.010543,-0.03933,0.023731,-0.520118,0.038006,-0.311972,-264.027346,1.684958,62.114507
2.9779,0.004087,-0.010619,0.039216,-0.003724,0.010317,-0.040457,0.024766,-0.51974,0.040457,-0.236981,-264.027347,1.682613,62.114508
2.9985,0.004228,-0.010301,0.038412,-0.003667,0.010771,-0.039216,0.024718,-0.519774,0.04037,-0.236981,-264.027347,1.682613,62.114508
3.0179,0.004004,-0.010477,0.037884,-0.003829,0.010456,-0.038412,0.023814,-0.519925,0.038412,-0.161968,-264.027347,1.673262,62.11451
3.0379,0.003879,-0.010503,0.038819,-0.003604,0.010621,-0.037884,0.023533,-0.520031,0.038112,-0.161968,-264.027347,1.673262,62.11451
3.0579,0.004174,-0.010063,0.039233,-0.003468,0.010645,-0.038819,0.023533,-0.520031,0.038112,-0.161968,-264.027347,1.673262,62.11451
3.0785,0.003995,-0.010469,0.037438,-0.003776,0.010219,-0.039233,0.024177,-0.519671,0.039233,-0.086972,-264.027348,1.676025,62.114511
3.098,0.004187,-0.01049,0.039516,-0.0036,0.010611,-0.037438,0.024098,-0.519703,0.039103,-0.086972,-264.027348,1.676025,62.114511
3.118,0.004091,-0.01035,0.038759,-0.003769,0.010647,-0.039516,0.024334,-0.520091,0.039516,-0.011882,-264.027348,1.671412,62.114512
3.138,0.003812,-0.010525,0.037754,-0.003687,0.010501,-0.038759,0.024059,-0.52002,0.039082,-0.011882,-264.027348,1.671412,62.114512
3.158,0.003815,-0.010246,0.039113,-0.003412,0.010661,-0.037754,0.024059,-0.52002,0.039082,-0.011882,-264.027348,1.671412,62.114512
3.178,0.0038,-0.01047,0.039339,-0.003411,0.010388,-0.039113,0.023758,-0.519856,0.039113,0.063158,-264.027349,1.677929,62.114514
3.1985,0.003988,-0.010684,0.03818,-0.003385,0.010612,-0.039339,0.023766,-0.519874,0.039131,0.063158,-264.027349,1.677929,62.114514
3.2181,0.003976,-0.010496,0.039889,-0.003577,0.010829,-0.03818,0.023455,-0.520313,0.03818,0.138372,-264.027349,1.671646,62.114515
3.2379,0.003986,-0.010432,0.038624,-0.003555,0.010646,-0.039889,0.023944,-0.520186,0.039153,0.138372,-264.027349,1.671646,62.114515
3.2579,0.004122,-0.010621,0.038384,-0.003581,0.010578,-0.038624,0.023944,-0.520186,0.039153,0.138372,-264.027349,1.671646,62.114515
3.2785,0.004271,-0.010323,0.03916,-0.003712,0.010771,-0.038384,0.023693,-0.520245,0.038384,0.21302,-264.02735,1.668213,62.114516
3.2985,0.00415,-0.010328,0.038475,-0.003864,0.010483,-0.03916,0.02373,-0.520224,0.038436,0.21302,-264.02735,1.668213,62.114516
3.3178,0.003953,-0.010623,0.037197,-0.00375,0.01048,-0.038475,0.023768,-0.519951,0.038475,0.28803,-264.02735,1.675209,62.114518
3.3384,0.00386,-0.010266,0.038114,-0.003555,0.010763,-0.037197,0.023281,-0.520134,0.037743,0.28803,-264.02735,1.675209,62.114518
3.3581,0.003975,-0.010298,0.038661,-0.003466,0.010406,-0.038114,0.023281,-0.520134,0.037743,0.28803,-264.02735,1.675209,62.114518
3.378,0.004228,-0.010493,0.038366,-0.003574,0.010444,-0.038661,0.023687,-0.519917,0.038661,0.363137,-264.027351,1.682641,62.114519
3.3983,0.00423,-0.010618,0.039123,-0.003822,0.010647,-0.038366,0.023695,-0.519931,0.03864,0.363137,-264.027351,1.682641,62.114519
3.418,0.003929,-0.010367,0.039923,-0.003812,0.010776,-0.039123,0.024178,-0.520228,0.039123,0.438025,-264.027352,1.67333,62.11452
3.438,0.003994,-0.010215,0.041009,-0.003512,0.010515,-0.039923,0.024241,-0.520071,0.039593,0.438025,-264.027352,1.67333,62.11452
3.458,0.003978,-0.01019,0.039337,-0.003572,0.01037,-0.041009,0.024241,-0.520071,0.039593,0.438025,-264.027352,1.67333,62.11452
3.478,0.003648,-0.010484,0.038186,-0.003574,0.010339,-0.039337,0.024035,-0.519796,0.039337,0.513555,-264.027352,1.68248,62.114522
3.4984,0.004113,-0.010442,0.038952,-0.003245,0.010616,-0.038186,0.023971,-0.519818,0.039257,0.513555,-264.027352,1.68248,62.114522
3.5186,0.004324,-0.010047,0.039268,-0.003703,0.010594,-0.038952,0.023973,-0.520055,0.038952,0.588018,-264.027353,1.671306,62.114523
3.538,0.003924,-0.010487,0.039405,-0.003926,0.010209,-0.039268,0.024182,-0.51983,0.039129,0.588018,-264.027353,1.671306,62.114523
3.558,0.004311,-0.010391,0.037719,-0.003508,0.010633,-0.039405,0.024182,-0.51983,0.039129,0.588018,-264.027353,1.671306,62.114523
3.5781,0.004234,-0.0107,0.039792,-0.003916,0.010546,-0.037719,0.023543,-0.520028,0.037719,0.66302,-264.027354,1.666114,62.114526
3.5984,0.004286,-0.010491,0.03858,-0.003805,0.010859,-0.039792,0.023611,-0.520046,0.037863,0.66302,-264.027354,1.666114,62.114526
3.618,0.004343,-0.010094,0.03892,-0.003878,0.010649,-0.03858,0.023957,-0.520111,0.038579,0.738019,-264.027358,1.671551,62.114536
3.6382,0.004804,-0.01029,0.039209,-0.003947,0.010256,-0.03892,0.024088,-0.519882,0.038773,0.738019,-264.027358,1.671551,62.114536
3.658,0.003785,-0.010552,0.037891,-0.004397,0.010471,-0.039209,0.024088,-0.519882,0.038773,0.738019,-264.027358,1.671551,62.114536
3.6781,0.00423,-0.010118,0.038155,-0.003383,0.010688,-0.037891,0.023104,-0.520183,0.037882,0.813018,-264.027388,1.678585,62.114612
3.6982,0.004475,-0.010595,0.038749,-0.003841,0.010272,-0.038155,0.023143,-0.520153,0.0379,0.813018,-264.027388,1.678585,62.114612
3.7185,0.004579,-0.010412,0.037228,-0.004061,0.01076,-0.038749,0.024222,-0.520195,0.038693,0.888073,-264.027609,1.697871,62.115154
3.7387,0.004182,-0.010262,0.038182,-0.004189,0.010576,-0.037228,0.023842,-0.520115,0.037846,0.888073,-264.027609,1.697871,62.115154
3.7581,0.003917,-0.010122,0.038545,-0.003787,0.010414,-0.038182,0.023842,-0.520115,0.037846,0.888073,-264.027609,1.697871,62.115154
3.7779,0.004251,-0.010535,0.038921,-0.003524,0.010265,-0.038545,0.023548,-0.519703,0.038411,0.963148,-264.028019,1.684696,62.116175
3.7984,0.003878,-0.010672,0.0399,-0.003838,0.010692,-0.038921,0.023584,-0.519731,0.038442,0.963148,-264.028019,1.684696,62.116175
3.8183,0.004511,-0.010395,0.036842,-0.003449,0.010818,-0.0399,0.02418,-0.520189,0.039636,1.038012,-264.029011,1.682586,62.118676
3.8386,0.004118,-0.010511,0.039054,-0.004125,0.010554,-0.036842,0.023674,-0.5201,0.038019,1.038012,-264.029011,1.682586,62.118676
3.8583,0.004539,-0.009837,0.037908,-0.003705,0.010664,-0.039054,0.023674,-0.5201,0.038019,1.038012,-264.029011,1.682586,62.118676
3.8781,0.004955,-0.010001,0.03971,-0.004163,0.010002,-0.037908,0.023773,-0.519282,0.037231,1.113036,-264.031038,1.681712,62.123679
3.8981,0.004259,-0.010074,0.037453,-0.004554,0.01019,-0.03971,0.023863,-0.519298,0.037376,1.113036,-264.031038,1.681712,62.123679
3.9184,0.004968,-0.009606,0.036478,-0.003879,0.010226,-0.037453,0.023251,-0.519502,0.03663,1.188041,-264.034217,1.677722,62.131183
3.9384,0.004859,-0.009812,0.037125,-0.004614,0.009781,-0.036478,0.023418,-0.519341,0.036439,1.188041,-264.034217,1.677722,62.131183
3.9582,0.004693,-0.009462,0.036186,-0.004491,0.009985,-0.037125,0.023418,-0.519341,0.036439,1.188041,-264.034217,1.677722,62.131183
3.978,0.005761,-0.009517,0.035765,-0.004348,0.009626,-0.036186,0.022953,-0.518846,0.034687,1.257645,-264.039635,1.702244,62.141185
3.998,0.00535,-0.009476,0.036295,-0.005417,0.009717,-0.035765,0.023021,-0.518862,0.034722,1.257645,-264.039635,1.702244,62.141185
4.0182,0.00584,-0.008769,0.033824,-0.005002,0.009664,-0.036295,0.023676,-0.518791,0.03492,1.230608,-264.044954,1.707457,62.153687
4.0381,0.00617,-0.008864,0.033355,-0.00554,0.008961,-0.033824,0.023318,-0.518568,0.034122,1.230608,-264.044954,1.707457,62.153687
4.0579,0.006193,-0.008824,0.033085,-0.005871,0.009065,-0.033355,0.023318,-0.518568,0.034122,1.230608,-264.044954,1.707457,62.153687
4.0787,0.006732,-0.008537,0.031123,-0.005898,0.009024,-0.033085,0.022818,-0.518134,0.031542,1.155625,-264.049665,1.74077,62.165046
4.0992,0.006744,-0.008617,0.031423,-0.006463,0.008742,-0.031123,0.022796,-0.518134,0.031472,1.155625,-264.049665,1.74077,62.165046
4.1184,0.006713,-0.008678,0.031155,-0.00647,0.008825,-0.031423,0.022759,-0.518299,0.031315,1.091871,-264.049666,1.665783,62.166407
4.1379,0.006841,-0.008519,0.031258,-0.006439,0.008883,-0.031155,0.022668,-0.518365,0.031212,1.091871,-264.049666,1.665783,62.166407
4.1583,0.007117,-0.008521,0.031198,-0.006571,0.008729,-0.031258,0.022668,-0.518365,0.031212,1.091871,-264.049666,1.665783,62.166407
4.1783,0.006591,-0.007996,0.032593,-0.006847,0.008739,-0.031198,0.023025,-0.518273,0.031198,1.016865,-264.049666,1.590777,62.166406
4.1983,0.006817,-0.008569,0.031958,-0.006327,0.008206,-0.032593,0.023037,-0.518237,0.031288,1.016865,-264.049666,1.590777,62.166406
4.218,0.006557,-0.008304,0.032625,-0.00654,0.008782,-0.031958,0.023113,-0.518308,0.031958,1.005638,-264.049667,1.515789,62.166405
4.2381,0.006385,-0.008358,0.029597,-0.006283,0.008514,-0.032625,0.023159,-0.518151,0.032339,1.005638,-264.049667,1.515789,62.166405
4.2585,0.007075,-0.008544,0.030912,-0.006135,0.008544,-0.029597,0.023159,-0.518151,0.032339,1.005638,-264.049667,1.515789,62.166405
4.278,0.006971,-0.008384,0.031194,-0.006807,0.008759,-0.030912,0.022838,-0.518301,0.030912,1.075047,-264.049667,1.440623,62.166404
4.298,0.006795,-0.008619,0.03204,-0.006706,0.008597,-0.031194,0.02284,-0.51829,0.030932,1.075047,-264.049667,1.440623,62.166404
4.3182,0.006703,-0.008355,0.032176,-0.006515,0.008833,-0.03204,0.023132,-0.518358,0.03204,1.000097,-264.049668,1.365673,62.166403
4.3381,0.006966,-0.008408,0.029621,-0.006431,0.008566,-0.032176,0.02312,-0.518205,0.032118,1.000097,-264.049668,1.365673,62.166403
4.3584,0.006743,-0.008408,0.031313,-0.006714,0.00861,-0.029621,0.02312,-0.518205,0.032118,1.000097,-264.049668,1.365673,62.166403
4.3782,0.006823,-0.008802,0.030763,-0.006477,0.008615,-0.031313,0.02271,-0.518158,0.031313,1.000432,-264.049668,1.290636,62.166402
4.3984,0.007004,-0.00844,0.031179,-0.006549,0.009007,-0.030763,0.022697,-0.518185,0.031276,1.000432,-264.049668,1.290636,62.166402
4.418,0.006838,-0.008239,0.030126,-0.006738,0.008655,-0.031179,0.022903,-0.518193,0.031179,0.954575,-264.049669,1.215759,62.166401
4.4383,0.006835,-0.008492,0.030719,-0.006587,0.008441,-0.030126,0.0225,-0.518086,0.030575,0.954575,-264.049669,1.215759,62.166401
4.4579,0.006783,-0.00866,0.031732,-0.006571,0.008698,-0.030719,0.0225,-0.518086,0.030575,0.954575,-264.049669,1.215759,62.166401
4.4781,0.006872,-0.008362,0.031262,-0.006505,0.008871,-0.031732,0.022963,-0.518403,0.031732,0.980814,-264.049669,1.140623,62.1664
4.4985,0.006799,-0.008557,0.030825,-0.006607,0.008573,-0.031262,0.022952,-0.518382,0.031698,0.980814,-264.049669,1.140623,62.1664
4.5189,0.006787,-0.008583,0.031264,-0.006532,0.008762,-0.030825,0.022517,-0.518315,0.030825,0.992386,-264.04967,1.06568,62.166398
4.538,0.007098,-0.008704,0.032339,-0.006515,0.008791,-0.031264,0.022638,-0.518326,0.031075,0.992386,-264.04967,1.06568,62.166398
4.5579,0.007159,-0.008474,0.030919,-0.006813,0.008929,-0.032339,0.022638,-0.518326,0.031075,0.992386,-264.04967,1.06568,62.166398
4.5781,0.006969,-0.008333,0.031802,-0.006893,0.008691,-0.030919,0.022925,-0.51823,0.030919,1.010017,-264.04967,0.990748,62.166397
4.5983,0.007278,-0.008354,0.031774,-0.0067,0.008551,-0.031802,0.022944,-0.518219,0.030984,1.010017,-264.04967,0.990748,62.166397
4.6181,0.007051,-0.008745,0.032594,-0.007009,0.008581,-0.031774,0.02348,-0.518096,0.031774,1.008918,-264.049671,0.915678,62.166396
4.6379,0.006837,-0.008532,0.030499,-0.006762,0.00897,-0.032594,0.023589,-0.518313,0.032245,1.008918,-264.049671,0.915678,62.166396
4.6581,0.006938,-0.008679,0.032398,-0.006573,0.008737,-0.030499,0.023589,-0.518313,0.032245,1.008918,-264.049671,0.915678,62.166396
4.6784,0.006899,-0.008529,0.03108,-0.006654,0.008899,-0.032398,0.023459,-0.518411,0.032399,1.018493,-264.049671,0.840578,62.166395
4.6982,0.006891,-0.008487,0.032263,-0.00663,0.008739,-0.03108,0.023404,-0.518401,0.032297,1.018493,-264.049671,0.840578,62.166395
4.7181,0.00667,-0.008471,0.030476,-0.006614,0.008705,-0.032263,0.023342,-0.518222,0.032263,0.984213,-264.049672,0.765419,62.166394
4.7385,0.006843,-0.008571,0.032196,-0.006409,0.00867,-0.030476,0.022692,-0.518229,0.031236,0.984213,-264.049672,0.765419,62.166394
4.7587,0.006776,-0.00873,0.032052,-0.006564,0.008787,-0.032196,0.022692,-0.518229,0.031236,0.984213,-264.049672,0.765419,62.166394
4.778,0.006692,-0.008177,0.032872,-0.006493,0.008943,-0.032052,0.02312,-0.518468,0.032052,0.996295,-264.049672,0.690619,62.166393
4.7984,0.00659,-0.008723,0.032149,-0.00642,0.008393,-0.032872,0.023141,-0.518432,0.032104,0.996295,-264.049672,0.690619,62.166393
4.8181,0.006863,-0.008504,0.031128,-0.006307,0.00893,-0.032149,0.022984,-0.518459,0.032149,1.027823,-264.049673,0.615776,62.166392
4.8384,0.006757,-0.00834,0.030178,-0.006595,0.008713,-0.031128,0.022842,-0.518343,0.031564,1.027823,-264.049673,0.615776,62.166392
4.8588,0.006613,-0.008689,0.031189,-0.006502,0.00854,-0.030178,0.022842,-0.518343,0.031564,1.027823,-264.049673,0.615776,62.166392
4.878,0.006975,-0.008143,0.029669,-0.006339,0.008891,-0.031189,0.022517,-0.518441,0.031189,1.068348,-264.049673,0.540651,62.16639
4.8983,0.006765,-0.008482,0.031733,-0.00673,0.008346,-0.029669,0.022488,-0.518405,0.031083,1.068348,-264.049673,0.540651,62.16639
4.9182,0.006625,-0.008496,0.030226,-0.006493,0.008693,-0.031733,0.022946,-0.518225,0.031733,0.99347,-264.049674,0.465773,62.166389
4.9384,0.006815,-0.008336,0.032832,-0.006365,0.008693,-0.030226,0.022429,-0.518247,0.030874,0.99347,-264.049674,0.465773,62.166389
4.958,0.006714,-0.008517,0.032793,-0.006537,0.008555,-0.032832,0.022429,-0.518247,0.030874,0.99347,-264.049674,0.465773,62.166389
4.9781,0.00685,-0.008794,0.030139,-0.006431,0.008732,-0.032793,0.023436,-0.518243,0.032793,0.967774,-264.049674,0.390744,62.166388
4.998,0.006573,-0.008507,0.032335,-0.006582,0.008997,-0.030139,0.023352,-0.518265,0.032611,0.967774,-264.049674,0.390744,62.166388
5.0179,0.006835,-0.008347,0.030399,-0.006295,0.008715,-0.032335,0.023061,-0.51824,0.032335,1.04272,-264.049674,0.315798,62.166387
5.0379,0.006958,-0.008456,0.031442,-0.006578,0.008551,-0.030399,0.02265,-0.518167,0.031237,1.04272,-264.049674,0.315798,62.166387
5.058,0.006861,-0.008248,0.03021,-0.006688,0.00867,-0.031442,0.02265,-0.518167,0.031237,1.04272,-264.049674,0.315798,62.166387
5.0781,0.007053,-0.008507,0.031372,-0.006608,0.008452,-0.03021,0.022265,-0.518016,0.03021,0.967705,-264.049675,0.240783,62.166386
5.098,0.006818,-0.008275,0.031795,-0.006782,0.008724,-0.031372,0.022316,-0.518031,0.030285,0.967705,-264.049675,0.240783,62.166386
5.1178,0.006967,-0.008535,0.032598,-0.006552,0.008488,-0.031795,0.023031,-0.518018,0.031795,1.005046,-264.049675,0.165757,62.166385
5.1379,0.007156,-0.008204,0.031641,-0.006685,0.008758,-0.032598,0.023348,-0.518158,0.032251,1.005046,-264.049675,0.165757,62.166385
5.1585,0.006972,-0.00844,0.031474,-0.006893,0.008427,-0.031641,0.023348,-0.518158,0.032251,1.005046,-264.049675,0.165757,62.166385
5.1779,0.007126,-0.00821,0.030974,-0.006703,0.008655,-0.031474,0.023022,-0.518187,0.031474,0.99453,-264.049676,0.090763,62.166384
5.1979,0.006549,-0.008075,0.031314,-0.006868,0.008427,-0.030974,0.023015,-0.518172,0.031439,0.99453,-264.049676,0.090763,62.166384
5.2182,0.00682,-0.00848,0.030894,-0.006293,0.008276,-0.031314,0.022516,-0.517825,0.031314,1.006824,-264.049676,0.015783,62.166383
5.2383,0.006956,-0.008562,0.031964,-0.006555,0.008686,-0.030894,0.022549,-0.518059,0.031075,1.006824,-264.049676,0.015783,62.166383
5.2582,0.006678,-0.008415,0.03213,-0.006679,0.00878,-0.031964,0.022549,-0.518059,0.031075,1.006824,-264.049676,0.015783,62.166383
5.2784,0.006993,-0.008725,0.030892,-0.006404,0.008625,-0.03213,0.023062,-0.518152,0.03213,0.991112,-264.049677,-0.059222,62.166382
5.2982,0.006765,-0.008344,0.030734,-0.00672,0.008937,-0.030892,0.023039,-0.518176,0.032041,0.991112,-264.049677,-0.059222,62.166382
5.318,0.007194,-0.008866,0.031723,-0.006505,0.008547,-0.030734,0.022436,-0.518103,0.030734,1.01453,-264.049677,-0.134356,62.166381
5.338,0.007181,-0.008472,0.032996,-0.006909,0.009089,-0.031723,0.022968,-0.518391,0.031297,1.01453,-264.049677,-0.134356,62.166381
5.3579,0.006522,-0.008581,0.032052,-0.006898,0.008705,-0.032996,0.022968,-0.518391,0.031297,1.01453,-264.049677,-0.134356,62.166381
5.3781,0.006984,-0.008135,0.031038,-0.006244,0.008786,-0.032052,0.022866,-0.518319,0.032051,0.975846,-264.049678,-0.209337,62.166379
5.3984,0.006722,-0.008148,0.032254,-0.006728,0.008347,-0.031038,0.022862,-0.51829,0.031981,0.975846,-264.049678,-0.209337,62.166379
5.4183,0.006831,-0.008511,0.032342,-0.006455,0.00836,-0.032254,0.023168,-0.517883,0.032254,1.028506,-264.049678,-0.284222,62.166378
5.4379,0.006453,-0.008497,0.03156,-0.006553,0.008727,-0.032342,0.023257,-0.518089,0.032305,1.028506,-264.049678,-0.284222,62.166378
5.458,0.006588,-0.008333,0.030993,-0.006182,0.008696,-0.03156,0.023257,-0.518089,0.032305,1.028506,-264.049678,-0.284222,62.166378
5.478,0.006734,-0.008299,0.030906,-0.006326,0.008533,-0.030993,0.022391,-0.518088,0.030993,1.005621,-264.049679,-0.359325,62.166377
5.4982,0.006886,-0.008337,0.031175,-0.006474,0.008504,-0.030906,0.022398,-0.518086,0.030987,1.005621,-264.049679,-0.359325,62.166377
5.5181,0.00672,-0.008316,0.032304,-0.006623,0.008548,-0.031175,0.022782,-0.518089,0.031175,1.04196,-264.049679,-0.434318,62.166376
5.5385,0.006883,-0.008566,0.032843,-0.006448,0.008529,-0.032304,0.023017,-0.518067,0.031822,1.04196,-264.049679,-0.434318,62.166376
5.558,0.006759,-0.00848,0.031982,-0.006598,0.008787,-0.032843,0.023017,-0.518067,0.031822,1.04196,-264.049679,-0.434318,62.166376
5.578,0.006918,-0.008341,0.030289,-0.006485,0.008692,-0.031982,0.023067,-0.51822,0.031982,1.012759,-264.04968,-0.509353,62.166375
5.5983,0.006783,-0.008183,0.030571,-0.006663,0.008546,-0.030289,0.023014,-0.518211,0.031853,1.012759,-264.04968,-0.509353,62.166375
5.6184,0.006761,-0.008545,0.032493,-0.00653,0.008387,-0.030571,0.022372,-0.517945,0.030571,1.041223,-264.04968,-0.584404,62.166374
5.638,0.006639,-0.008215,0.031671,-0.00648,0.00876,-0.032493,0.022913,-0.518131,0.031656,1.041223,-264.04968,-0.584404,62.166374
5.6584,0.006771,-0.008379,0.030726,-0.006376,0.008421,-0.031671,0.022913,-0.518131,0.031656,1.041223,-264.04968,-0.584404,62.166374
5.678,0.007036,-0.008577,0.030155,-0.00651,0.008583,-0.030726,0.022438,-0.518138,0.030726,0.980869,-264.049681,-0.659225,62.166372
5.6982,0.007474,-0.008282,0.031184,-0.006774,0.008785,-0.030155,0.022437,-0.518152,0.030688,0.980869,-264.049681,-0.659225,62.166372
5.7178,0.006568,-0.008521,0.032885,-0.007212,0.008511,-0.031184,0.023375,-0.518034,0.031184,1.042411,-264.049683,-0.734229,62.166368
5.738,0.006877,-0.008654,0.029468,-0.006285,0.008732,-0.032885,0.023353,-0.518155,0.032157,1.042411,-264.049683,-0.734229,62.166368
5.758,0.006815,-0.008367,0.030857,-0.006619,0.008853,-0.029468,0.023353,-0.518155,0.032157,1.042411,-264.049683,-0.734229,62.166368
5.778,0.006673,-0.008584,0.031783,-0.006553,0.008573,-0.030857,0.022548,-0.518124,0.030854,0.96728,-264.049694,-0.809361,62.166342
5.7986,0.006839,-0.007929,0.031089,-0.006397,0.008791,-0.031783,0.022575,-0.51814,0.030929,0.96728,-264.049694,-0.809361,62.166342
5.818,0.006936,-0.008682,0.033354,-0.00659,0.008138,-0.031089,0.022687,-0.51768,0.031079,0.944282,-264.049742,-0.884645,62.166224
5.8383,0.006675,-0.008609,0.031183,-0.006643,0.008908,-0.033354,0.023404,-0.51809,0.032376,0.944282,-264.049742,-0.884645,62.166224
5.8586,0.007096,-0.008661,0.030676,-0.006403,0.008813,-0.031183,0.023404,-0.51809,0.032376,0.944282,-264.049742,-0.884645,62.166224
5.8784,0.006925,-0.008328,0.032503,-0.006827,0.008874,-0.030676,0.022724,-0.518413,0.030641,1.018968,-264.049868,-0.959331,62.16593
5.8984,0.006732,-0.007905,0.032253,-0.006651,0.008549,-0.032503,0.022774,-0.51839,0.030762,1.018968,-264.049868,-0.959331,62.16593
5.9179,0.006879,-0.008321,0.029447,-0.006474,0.008118,-0.032253,0.023142,-0.517617,0.032157,1.011624,-264.050289,-1.034232,62.164933
5.938,0.006785,-0.00862,0.031231,-0.006631,0.00852,-0.029447,0.022423,-0.517891,0.030593,1.011624,-264.050289,-1.034232,62.164933
5.9579,0.00689,-0.008225,0.029765,-0.006513,0.008828,-0.031231,0.022423,-0.517891,0.030593,1.011624,-264.050289,-1.034232,62.164933
5.978,0.006846,-0.008109,0.031991,-0.006642,0.008426,-0.029765,0.021964,-0.517925,0.029447,1.038907,-264.051412,-1.109347,62.162435
5.9982,0.007036,-0.008698,0.03117,-0.006583,0.008323,-0.031991,0.022044,-0.517917,0.029615,1.038907,-264.051412,-1.109347,62.162435
6.0189,0.007204,-0.008074,0.032185,-0.006761,0.008913,-0.03117,0.022788,-0.518325,0.030692,1.004614,-264.053409,-1.184233,62.157723
6.0386,0.006977,-0.008272,0.029241,-0.00694,0.008302,-0.032185,0.023242,-0.518016,0.031482,1.004614,-264.053409,-1.184233,62.157723
6.0586,0.00692,-0.008081,0.030471,-0.006732,0.008472,-0.029241,0.023242,-0.518016,0.031482,1.004614,-264.053409,-1.184233,62.157723
6.0781,0.006886,-0.00783,0.028532,-0.00667,0.008288,-0.030471,0.022209,-0.517616,0.029489,1.039985,-264.056884,-1.259276,62.150509
6.0979,0.006997,-0.007968,0.028101,-0.00666,0.008023,-0.028532,0.022151,-0.51761,0.0294,1.039985,-264.056884,-1.259276,62.150509
6.1181,0.00727,-0.007452,0.029808,-0.006771,0.008162,-0.028101,0.021108,-0.517505,0.027168,0.964987,-264.060692,-1.320491,62.141547
6.1378,0.007181,-0.007291,0.028333,-0.007045,0.007665,-0.029808,0.021859,-0.517312,0.028559,0.964987,-264.060692,-1.320491,62.141547
6.1589,0.007602,-0.007309,0.028159,-0.006972,0.007491,-0.028333,0.021859,-0.517312,0.028559,0.964987,-264.060692,-1.320491,62.141547
6.178,0.008053,-0.007137,0.027426,-0.007393,0.007521,-0.028159,0.021627,-0.516727,0.026775,0.954522,-264.065285,-1.314834,62.131062
6.1979,0.008085,-0.00723,0.026508,-0.007854,0.007355,-0.027426,0.021646,-0.516731,0.026782,0.954522,-264.065285,-1.314834,62.131062
6.2184,0.008623,-0.006695,0.024077,-0.00789,0.007442,-0.026508,0.021327,-0.51677,0.025419,0.953072,-264.070075,-1.296702,62.120813
6.2381,0.008167,-0.006741,0.024154,-0.008459,0.006901,-0.024077,0.02105,-0.516608,0.024518,0.953072,-264.070075,-1.296702,62.120813
6.2581,0.008028,-0.006628,0.025872,-0.008002,0.006936,-0.024154,0.02105,-0.516608,0.024518,0.953072,-264.070075,-1.296702,62.120813
6.278,0.008396,-0.006357,0.022997,-0.007854,0.006834,-0.025872,0.020877,-0.516151,0.024693,0.878069,-264.074395,-1.255812,62.11187
6.2982,0.008748,-0.006384,0.024445,-0.008247,0.006548,-0.022997,0.020819,-0.516148,0.024552,0.878069,-264.074395,-1.255812,62.11187
6.3179,0.008655,-0.006241,0.023394,-0.008589,0.006596,-0.024445,0.020958,-0.516022,0.023673,0.803064,-264.078061,-1.217345,62.104293
6.338,0.008666,-0.006146,0.022526,-0.008507,0.006442,-0.023394,0.020714,-0.51604,0.023417,0.803064,-264.078061,-1.217345,62.104293
6.3581,0.008704,-0.006447,0.02475,-0.008526,0.00634,-0.022526,0.020714,-0.51604,0.023417,0.803064,-264.078061,-1.217345,62.104293
6.3787,0.008878,-0.005354,0.021365,-0.008542,0.006661,-0.02475,0.020948,-0.516006,0.023718,0.737782,-264.082178,-1.189872,62.096099
6.3983,0.00916,-0.005673,0.020711,-0.008762,0.005542,-0.021365,0.020857,-0.515946,0.023528,0.737782,-264.082178,-1.189872,62.096099
6.418,0.008859,-0.00575,0.020842,-0.00904,0.005862,-0.020711,0.019391,-0.515329,0.019852,0.716059,-264.086635,-1.169585,62.087489
6.4382,0.009473,-0.005316,0.0207,-0.008737,0.005934,-0.020842,0.019404,-0.515475,0.020305,0.716059,-264.086635,-1.169585,62.087489
6.4584,0.008954,-0.005146,0.020636,-0.00936,0.005511,-0.0207,0.019404,-0.515475,0.020305,0.716059,-264.086635,-1.169585,62.087489
6.478,0.009077,-0.005091,0.01928,-0.008846,0.005329,-0.020636,0.019057,-0.514783,0.019623,0.708391,-264.091133,-1.130382,62.079476
6.4979,0.009426,-0.005358,0.020221,-0.008977,0.005265,-0.01928,0.019036,-0.51479,0.019573,0.708391,-264.091133,-1.130382,62.079476
6.5181,0.009169,-0.004779,0.019215,-0.009316,0.005548,-0.020221,0.019398,-0.515063,0.019478,0.651049,-264.095509,-1.094716,62.071882
6.5381,0.009201,-0.005131,0.02032,-0.009076,0.004954,-0.019215,0.01911,-0.514823,0.019234,0.651049,-264.095509,-1.094716,62.071882
6.5581,0.009149,-0.005216,0.018104,-0.009094,0.005317,-0.02032,0.01911,-0.514823,0.019234,0.651049,-264.095509,-1.094716,62.071882
6.5784,0.009088,-0.004787,0.0179,-0.009054,0.005381,-0.018104,0.017945,-0.514887,0.017174,0.627415,-264.0999,-1.085908,62.064255
6.5979,0.009144,-0.004502,0.017471,-0.009001,0.004949,-0.0179,0.017951,-0.514869,0.017199,0.627415,-264.0999,-1.085908,62.064255
6.618,0.009522,-0.004363,0.01783,-0.009064,0.004661,-0.017471,0.017706,-0.514229,0.016703,0.662406,-264.104415,-1.096787,62.056455
6.638,0.00953,-0.004333,0.01807,-0.009443,0.004532,-0.01783,0.018179,-0.514235,0.017246,0.662406,-264.104415,-1.096787,62.056455
6.6579,0.009213,-0.004309,0.016454,-0.009451,0.004505,-0.01807,0.018179,-0.514235,0.017246,0.662406,-264.104415,-1.096787,62.056455
6.6781,0.009121,-0.004024,0.016472,-0.009141,0.00446,-0.016454,0.017213,-0.514033,0.015682,0.587401,-264.108251,-1.05519,62.049977
6.6987,0.009528,-0.003858,0.016006,-0.009141,0.00446,-0.016454,0.017224,-0.514022,0.015716,0.587401,-264.108251,-1.05519,62.049977
6.7182,0.009285,-0.003944,0.016387,-9.2e-05,3.9e-05,0.0,0.017329,-0.513627,0.01532,0.604756,-264.112754,-1.024447,62.042847
6.7381,0.009121,-0.003845,0.015794,-9.2e-05,3.9e-05,0.0,0.01746,-0.513746,0.015837,0.604756,-264.112754,-1.024447,62.042847
6.7581,0.009181,-0.003959,0.014094,-9.2e-05,3.9e-05,0.0,0.01746,-0.513746,0.015837,0.604756,-264.112754,-1.024447,62.042847
6.7781,0.009393,-0.003723,0.013658,-9.2e-05,3.9e-05,0.0,0.015945,-0.513709,0.013336,0.548804,-264.116815,-1.008588,62.036347
6.799,0.00917,-0.003187,0.013954,-9.2e-05,3.9e-05,0.0,0.015962,-0.513701,0.013338,0.548804,-264.116815,-1.008588,62.036347
6.8182,0.009156,-0.004097,0.015959,-9.2e-05,3.9e-05,0.0,0.016286,-0.513137,0.013954,0.473778,-264.116815,-0.933562,62.036347
6.8379,0.009297,-0.003796,0.014715,-9.2e-05,3.9e-05,0.0,0.01686,-0.513646,0.015095,0.473778,-264.116815,-0.933562,62.036347
6.8578,0.009263,-0.003622,0.014535,-9.2e-05,3.9e-05,0.0,0.01686,-0.513646,0.015095,0.473778,-264.116815,-0.933562,62.036347
6.8779,0.009211,-0.003576,0.013677,-9.2e-05,3.9e-05,0.0,0.016676,-0.513568,0.014535,0.398777,-264.116815,-0.858561,62.036347
6.8984,0.009161,-0.004184,0.015227,-9.2e-05,3.9e-05,0.0,0.016642,-0.513566,0.014477,0.398777,-264.116815,-0.858561,62.036347
6.9179,0.009246,-0.003626,0.013756,-9.2e-05,3.9e-05,0.0,0.016926,-0.514125,0.015227,0.32381,-264.116815,-0.783594,62.036347
6.938,0.009359,-0.003887,0.014222,-0.001351,0.000572,-0.002285,0.016548,-0.513814,0.014391,0.32381,-264.116815,-0.783594,62.036347
6.9581,0.009343,-0.003682,0.01488,-0.002663,0.001128,-0.004503,0.016548,-0.513814,0.014391,0.32381,-264.116815,-0.783594,62.036347
6.9782,0.009228,-0.003692,0.015437,-0.003908,0.001655,-0.006608,0.016932,-0.513625,0.01488,0.248816,-264.116815,-0.7086,62.036347
6.9985,0.009348,-0.004301,0.015385,-0.005079,0.002152,-0.008589,0.016943,-0.513626,0.014918,0.248816,-264.116815,-0.7086,62.036347
7.0185,0.00917,-0.003941,0.013684,-0.006196,0.002625,-0.010478,0.017185,-0.514237,0.015374,0.323859,-264.116913,-0.783643,62.036199
7.0383,0.0094,-0.003994,0.013392,-0.007215,0.003056,-0.0122,0.016595,-0.514042,0.014413,0.323859,-264.116913,-0.783643,62.036199
7.0588,0.00929,-0.003942,0.013676,-0.008178,0.003464,-0.013829,0.016595,-0.514042,0.014413,0.323859,-264.116913,-0.783643,62.036199
7.0779,0.009177,-0.003731,0.01374,-0.009073,0.003844,-0.015344,0.016193,-0.513867,0.013582,0.398914,-264.117524,-0.858698,62.035277
7.0989,0.009139,-0.003562,0.015626,-0.009882,0.004186,-0.016711,0.016191,-0.513857,0.013589,0.398914,-264.117524,-0.858698,62.035277
7.1184,0.009103,-0.003855,0.012677,-0.010629,0.004503,-0.017975,0.016915,-0.513422,0.015333,0.47386,-264.119737,-0.933644,62.031938
7.1383,0.009031,-0.00316,0.013869,-0.011306,0.00479,-0.01912,0.016127,-0.513634,0.013791,0.47386,-264.119737,-0.933644,62.031938
7.158,0.009629,-0.003304,0.013992,-0.011909,0.005045,-0.02014,0.016127,-0.513634,0.013791,0.47386,-264.119737,-0.933644,62.031938
7.1781,0.009023,-0.003403,0.014037,-0.012444,0.005272,-0.021044,0.016344,-0.513098,0.013295,0.547144,-264.1239,-0.969124,62.026099
7.1985,0.009194,-0.003515,0.013206,-0.012907,0.005468,-0.021827,0.016325,-0.51311,0.013324,0.547144,-264.1239,-0.969124,62.026099
7.218,0.008703,-0.003538,0.012121,-0.0133,0.005635,-0.022492,0.015469,-0.513284,0.012432,0.547144,-264.129478,-0.969124,62.017761
7.2383,0.00918,-0.002969,0.012287,-0.013621,0.00577,-0.023034,0.015078,-0.513383,0.012157,0.547144,-264.129478,-0.969124,62.017761
7.2584,0.008897,-0.00354,0.012756,-0.013875,0.005878,-0.023463,0.015078,-0.513383,0.012157,0.547144,-264.129478,-0.969124,62.017761
7.278,0.009025,-0.002907,0.010053,-0.014051,0.005953,-0.023762,0.014771,-0.51324,0.011695,0.547144,-264.135523,-0.969124,62.008639
7.2985,0.008683,-0.002997,0.010223,-0.01416,0.005999,-0.023945,0.014711,-0.513208,0.011552,0.547144,-264.135523,-0.969124,62.008639
7.3186,0.008813,-0.002783,0.007593,-0.014197,0.006014,-0.024008,0.013358,-0.512748,0.009316,0.547144,-264.142023,-0.969124,61.998833
7.3381,0.008755,-0.002924,0.009237,-0.014163,0.006,-0.023951,0.012906,-0.512732,0.008219,0.547144,-264.142023,-0.969124,61.998833
7.3581,0.008973,-0.002879,0.01044,-0.014059,0.005956,-0.023775,0.012906,-0.512732,0.008219,0.547144,-264.142023,-0.969124,61.998833
7.3781,0.008891,-0.002265,0.008561,-0.013883,0.005881,-0.023477,0.013606,-0.512567,0.009276,0.547144,-264.148654,-0.969124,61.988828
7.3986,0.008245,-0.002501,0.00775,-0.013638,0.005777,-0.023062,0.013564,-0.512537,0.009197,0.547144,-264.148654,-0.969124,61.988828
7.4184,0.008591,-0.001944,0.008174,-0.013319,0.005642,-0.022523,0.011646,-0.512256,0.00682,0.547144,-264.155238,-0.969124,61.978893
7.4379,0.008827,-0.00207,0.007464,-0.012932,0.005479,-0.021869,0.012199,-0.512045,0.00746,0.547144,-264.155238,-0.969124,61.978893
7.4582,0.00886,-0.002271,0.007139,-0.012471,0.005283,-0.02109,0.012199,-0.512045,0.00746,0.547144,-264.155238,-0.969124,61.978893
7.4781,0.008401,-0.001838,0.006315,-0.011938,0.005057,-0.020188,0.011836,-0.511982,0.006018,0.547144,-264.161626,-0.969124,61.969255
7.4985,0.008861,-0.001843,0.007015,-0.011341,0.004804,-0.019178,0.011803,-0.511964,0.006009,0.547144,-264.161626,-0.969124,61.969255
7.5183,0.00831,-0.0015,0.00445,-0.010648,0.004511,-0.018007,0.011955,-0.511629,0.0062,0.547144,-264.167467,-0.969124,61.960442
7.538,0.008733,-0.00156,0.004738,-0.009925,0.004205,-0.016784,0.011112,-0.511527,0.005102,0.547144,-264.167467,-0.969124,61.960442
7.5581,0.008493,-0.001335,0.005617,-0.009108,0.003859,-0.015403,0.011112,-0.511527,0.005102,0.547144,-264.167467,-0.969124,61.960442
7.578,0.008347,-0.001227,0.003864,-0.008227,0.003485,-0.013912,0.010805,-0.511096,0.004685,0.547144,-264.172779,-0.969124,61.952428
7.598,0.008123,-0.001341,0.004196,-0.00727,0.00308,-0.012294,0.010756,-0.511099,0.004603,0.547144,-264.172779,-0.969124,61.952428
7.6181,0.008366,-0.001071,0.003735,-0.006241,0.002644,-0.010554,0.00991,-0.511189,0.003601,0.547144,-264.177045,-0.969124,61.945991
7.6379,0.008502,-0.000846,0.00303,-0.005143,0.002179,-0.008697,0.010071,-0.511101,0.003602,0.547144,-264.177045,-0.969124,61.945991
7.658,0.008657,-0.000742,0.004275,-0.003975,0.001684,-0.006722,0.010071,-0.511101,0.003602,0.547144,-264.177045,-0.969124,61.945991
7.6787,0.008408,-0.001138,0.004783,-0.002733,0.001158,-0.004622,0.010483,-0.510589,0.003678,0.547144,-264.180454,-0.969124,61.940847
7.6985,0.008041,-0.000714,0.003352,-0.001423,0.000603,-0.002407,0.0105,-0.510625,0.003742,0.547144,-264.180454,-0.969124,61.940847
7.718,0.007934,-0.000963,0.003666,-3.9e-05,1.6e-05,-6.6e-05,0.009597,-0.510647,0.003092,0.547144,-264.182316,-0.969124,61.938038
7.7379,0.007997,-0.000577,0.004592,0.0,0.0,0.0,0.009696,-0.510818,0.003388,0.547144,-264.182316,-0.969124,61.938038
7.758,0.008461,-0.000961,0.001569,0.0,0.0,0.0,0.009696,-0.510818,0.003388,0.547144,-264.182316,-0.969124,61.938038
7.7783,0.008142,-0.000905,0.002004,0.0,0.0,0.0,0.009192,-0.510931,0.001452,0.547144,-264.182982,-0.969124,61.937034
7.7985,0.008373,-0.00102,0.00385,0.0,0.0,0.0,0.009188,-0.510928,0.001487,0.547144,-264.182982,-0.969124,61.937034
7.818,0.007902,-0.001199,0.002937,0.0,0.0,0.0,0.010336,-0.511016,0.00385,0.547144,-264.182982,-0.969124,61.937034
7.838,0.008186,-0.000614,0.00289,0.0,0.0,0.0,0.009804,-0.511119,0.003331,0.547144,-264.182982,-0.969124,61.937034
7.8582,0.008166,-0.00095,0.003649,0.0,0.0,0.0,0.009804,-0.511119,0.003331,0.547144,-264.182982,-0.969124,61.937034
7.8785,0.008145,-0.000911,0.001675,0.0,0.0,0.0,0.010027,-0.510946,0.003649,0.547144,-264.182982,-0.969124,61.937034
7.8985,0.008021,-0.000907,0.003342,0.0,0.0,0.0,0.009958,-0.510944,0.003516,0.547144,-264.182982,-0.969124,61.937034
7.9179,0.008208,-0.001111,0.00308,0.0,0.0,0.0,0.009725,-0.510904,0.003342,0.547144,-264.182982,-0.969124,61.937034
7.9388,0.008334,-0.000846,0.002108,0.0,0.0,0.0,0.009755,-0.51102,0.003194,0.547144,-264.182982,-0.969124,61.937034
7.9581,0.008248,-0.000836,0.003164,-9.9e-05,1e-05,0.0,0.009755,-0.51102,0.003194,0.547144,-264.182982,-0.969124,61.937034
7.9786,0.008249,-0.000632,0.002627,-9.9e-05,1e-05,0.0,0.009861,-0.510833,0.003164,0.547144,-264.182982,-0.969124,61.937034
7.999,0.008273,-0.000984,0.003978,-9.9e-05,1e-05,0.0,0.009842,-0.510819,0.003127,0.547144,-264.182982,-0.969124,61.937034
8.0183,0.008192,-0.000743,0.001889,-9.9e-05,1e-05,0.0,0.010302,-0.51098,0.003978,0.47214,-264.182982,-0.89412,61.937034
8.0381,0.00833,-0.001041,0.001502,-9.9e-05,1e-05,0.0,0.009661,-0.510846,0.002809,0.47214,-264.182982,-0.89412,61.937034
8.058,0.008348,-0.000766,0.00349,-9.9e-05,1e-05,0.0,0.009661,-0.510846,0.002809,0.47214,-264.182982,-0.89412,61.937034
8.0781,0.008535,-0.000929,0.002303,-9.9e-05,1e-05,0.0,0.010127,-0.510762,0.00349,0.397098,-264.182982,-0.819078,61.937034
8.0984,0.008179,-0.000732,0.002418,-9.9e-05,1e-05,0.0,0.010094,-0.510775,0.003396,0.397098,-264.182982,-0.819078,61.937034
8.1179,0.008363,-0.00076,0.001067,-9.9e-05,1e-05,0.0,0.009412,-0.51073,0.002418,0.321807,-264.182982,-0.743787,61.937034
8.1382,0.008201,-0.001026,0.002909,-9.9e-05,1e-05,0.0,0.009123,-0.510747,0.001644,0.321807,-264.182982,-0.743787,61.937034
8.1582,0.007971,-0.000798,0.002565,-9.9e-05,1e-05,0.0,0.009123,-0.510747,0.001644,0.321807,-264.182982,-0.743787,61.937034
8.178,0.008476,-0.000764,0.003718,-0.001221,0.000127,-0.000309,0.009279,-0.510797,0.002565,0.247039,-264.182982,-0.66902,61.937034
8.1991,0.007988,-0.000895,0.003212,-0.002381,0.000247,-0.000602,0.009364,-0.510794,0.002654,0.247039,-264.182982,-0.66902,61.937034
8.2182,0.008391,-0.001087,0.002141,-0.003476,0.00036,-0.000879,0.009626,-0.510892,0.003212,0.17191,-264.182982,-0.59389,61.937034
8.2382,0.008342,-0.000893,0.001772,-0.004497,0.000466,-0.001138,0.009544,-0.511003,0.002598,0.17191,-264.182982,-0.59389,61.937034
8.258,0.008492,-0.000717,0.002446,-0.005467,0.000566,-0.001383,0.009544,-0.511003,0.002598,0.17191,-264.182982,-0.59389,61.937034
8.278,0.008204,-0.000765,0.001772,-0.006374,0.00066,-0.001612,0.009727,-0.510713,0.002439,0.097024,-264.183094,-0.519004,61.936918
8.2985,0.008062,-0.000334,0.002389,-0.007218,0.000748,-0.001826,0.009683,-0.510716,0.002393,0.097024,-264.183094,-0.519004,61.936918
8.318,0.008087,-0.000642,0.003455,-0.007999,0.000829,-0.002024,0.009218,-0.51032,0.002363,0.050874,-264.183764,-0.444126,61.936226
8.3379,0.008013,-0.000765,0.00339,-0.00872,0.000903,-0.002206,0.009568,-0.5105,0.00298,0.050874,-264.183764,-0.444126,61.936226
8.3579,0.008031,-0.000621,0.004073,-0.009373,0.000971,-0.002371,0.009568,-0.5105,0.00298,0.050874,-264.183764,-0.444126,61.936226
8.3785,0.007945,-0.000553,0.002944,-0.009968,0.001033,-0.002522,0.009917,-0.510587,0.004006,0.050874,-264.185366,-0.369124,61.934575
8.398,0.008008,-0.000664,0.002266,-0.0105,0.001088,-0.002657,0.009879,-0.510583,0.00393,0.050874,-264.185366,-0.369124,61.934575
8.4179,0.007645,-0.000997,0.002698,-0.010969,0.001136,-0.002775,0.008874,-0.510628,0.002182,0.050874,-264.188385,-0.294134,61.93146
8.4384,0.007491,-0.000589,0.003129,-0.011375,0.001178,-0.002878,0.00892,-0.510831,0.002464,0.050874,-264.188385,-0.294134,61.93146
8.458,0.007716,-0.000785,0.003125,-0.011716,0.001214,-0.002964,0.00892,-0.510831,0.002464,0.050874,-264.188385,-0.294134,61.93146
8.4781,0.007532,-0.000734,0.002101,-0.011999,0.001243,-0.003036,0.008813,-0.510733,0.003,0.050874,-264.192476,-0.252603,61.927241
8.4982,0.006958,-0.000861,0.001455,-0.012216,0.001266,-0.003091,0.008786,-0.510732,0.002934,0.050874,-264.192476,-0.252603,61.927241
8.5185,0.007067,-0.000737,0.002122,-0.012373,0.001282,-0.00313,0.007243,-0.510813,0.001339,0.050874,-264.197188,-0.252603,61.922381
8.5381,0.006528,-0.000424,0.002469,-0.012467,0.001292,-0.003154,0.007702,-0.510763,0.00177,0.050874,-264.197188,-0.252603,61.922381
8.5583,0.006888,-0.001143,0.003936,-0.012498,0.001295,-0.003162,0.007702,-0.510763,0.00177,0.050874,-264.197188,-0.252603,61.922381
8.578,0.006374,-0.000508,0.002018,-0.012467,0.001292,-0.003154,0.008304,-0.51108,0.003787,0.050874,-264.202061,-0.252603,61.917355
8.5983,0.006398,-0.000663,0.004147,-0.012373,0.001282,-0.00313,0.008225,-0.511038,0.003659,0.050874,-264.202061,-0.252603,61.917355
8.618,0.006159,-0.000325,0.001726,-0.012216,0.001266,-0.003091,0.00803,-0.510611,0.004025,0.050874,-264.207073,-0.252603,61.912185
8.6382,0.005696,-0.000356,0.002478,-0.011998,0.001243,-0.003035,0.007402,-0.510441,0.002693,0.050874,-264.207073,-0.252603,61.912185
8.658,0.005605,6e-06,0.002472,-0.011715,0.001214,-0.002964,0.007402,-0.510441,0.002693,0.050874,-264.207073,-0.252603,61.912185
8.6779,0.005494,-0.0007,0.000944,-0.011373,0.001178,-0.002877,0.006265,-0.509932,0.00232,0.050874,-264.212022,-0.252603,61.90708
8.6982,0.005084,-0.000469,0.001832,-0.010968,0.001136,-0.002775,0.006229,-0.509984,0.00222,0.050874,-264.212022,-0.252603,61.90708
8.7184,0.004346,-0.000642,0.002088,-0.010498,0.001088,-0.002656,0.005565,-0.510422,0.001717,0.050874,-264.216714,-0.252603,61.902241
8.7379,0.004621,-0.000314,0.001537,-0.009965,0.001032,-0.002521,0.005421,-0.510541,0.001913,0.050874,-264.216714,-0.252603,61.902241
8.7582,0.004609,-0.000448,0.001233,-0.009375,0.000971,-0.002372,0.005421,-0.510541,0.001913,0.050874,-264.216714,-0.252603,61.902241
8.778,0.003961,-0.000662,0.00241,-0.008716,0.000903,-0.002205,0.004704,-0.510393,0.001098,0.050874,-264.221108,-0.252603,61.897709
8.7984,0.00372,-0.000344,0.000182,-0.007999,0.000829,-0.002024,0.004724,-0.51041,0.001187,0.050874,-264.221108,-0.252603,61.897709
8.8181,0.003605,-0.000534,0.002157,-0.007217,0.000748,-0.001826,0.00345,-0.510307,9e-05,0.050874,-264.224871,-0.252603,61.893827
8.838,0.003949,-0.000429,0.001525,-0.006374,0.00066,-0.001613,0.004125,-0.510432,0.001265,0.050874,-264.224871,-0.252603,61.893827
8.858,0.003386,-0.000275,0.001101,-0.005469,0.000567,-0.001384,0.004125,-0.510432,0.001265,0.050874,-264.224871,-0.252603,61.893827
8.8785,0.003763,6.3e-05,0.001886,-0.004498,0.000466,-0.001138,0.003559,-0.510235,0.001003,0.050874,-264.228067,-0.252603,61.890531
8.8983,0.003715,-0.000153,-0.000246,-0.003469,0.000359,-0.000878,0.00363,-0.510213,0.001061,0.050874,-264.228067,-0.252603,61.890531
8.918,0.003246,-0.000205,0.001681,-0.002375,0.000246,-0.000601,0.003378,-0.510131,-0.000299,0.050874,-264.230257,-0.252603,61.888272
8.9381,0.003243,-0.000493,0.000442,-0.001211,0.000125,-0.000306,0.003764,-0.51017,0.00082,0.050874,-264.230257,-0.252603,61.888272
8.9581,0.003406,-7.3e-05,0.001449,-1e-06,0.0,-0.0,0.003764,-0.51017,0.00082,0.050874,-264.230257,-0.252603,61.888272
8.9781,0.003048,-0.000353,0.001238,0.0,0.0,0.0,0.003977,-0.510055,0.001407,0.050874,-264.231646,-0.252603,61.886839
8.9985,0.002828,-0.000181,0.001348,0.0,0.0,0.0,0.003952,-0.510075,0.001394,0.050874,-264.231646,-0.252603,61.886839
