mach0312/omni-docking-bench/src/icros_test_setup/results/kinematic_sample/timeseries/trial_062.csv
t,x,y,yaw,vx,vy,wz,bl_x,bl_y,bl_yaw,front_steering_joint,front_wheel_joint,rear_steering_joint,rear_wheel_joint
0.0,0.053517,-0.031105,-0.085143,-9.8e-05,-1.9e-05,0.0,0.011523,-0.539296,-0.082351,0.854215,-264.010305,-0.379379,62.244918
0.0005,0.053677,-0.031375,-0.082081,-0.005794,-0.001122,-0.002075,0.011523,-0.539296,-0.082351,0.779085,-264.010305,-0.304249,62.244918
0.0009,0.053751,-0.030995,-0.08237,-0.006754,-0.001308,-0.002419,0.011073,-0.539382,-0.083327,0.704079,-264.010318,-0.229244,62.244906
0.0012,0.053564,-0.03115,-0.083659,-0.007649,-0.001481,-0.002739,0.011073,-0.539382,-0.083327,0.629212,-264.010483,-0.154377,62.244753
0.0015,0.05362,-0.031006,-0.081793,-0.008477,-0.001642,-0.003036,0.011073,-0.539382,-0.083327,0.554079,-264.011377,-0.079243,62.243927
0.0018,0.053681,-0.031076,-0.08351,-0.009257,-0.001793,-0.003315,0.011249,-0.539263,-0.08387,0.479101,-264.013657,-0.025051,62.241818
0.0021,0.053348,-0.031317,-0.08324,-0.00994,-0.001925,-0.003559,0.011249,-0.539263,-0.08387,0.404194,-264.017695,-0.025051,62.238084
0.0024,0.053447,-0.03112,-0.083923,-0.010564,-0.002046,-0.003783,0.011189,-0.539261,-0.083897,0.404194,-264.017695,-0.025051,62.238084
0.0027,0.053357,-0.031341,-0.083219,-0.011138,-0.002157,-0.003989,0.011189,-0.539261,-0.083897,0.404194,-264.017695,-0.025051,62.238084
0.0029,0.053393,-0.031021,-0.083149,-0.011625,-0.002251,-0.004163,0.010042,-0.538938,-0.085258,0.404194,-264.017695,-0.025051,62.238084
0.0062,0.052902,-0.031296,-0.084927,-0.012055,-0.002334,-0.004317,0.010671,-0.539301,-0.083283,0.404194,-264.017695,-0.025051,62.238084
0.0262,0.053048,-0.031033,-0.08317,-0.028055,0.013666,0.025683,0.010043,-0.539395,-0.084229,0.404194,-264.017695,-0.025051,62.238084
0.0465,0.053204,-0.031184,-0.082719,-0.044055,0.026519,0.05,0.010043,-0.539395,-0.084229,0.404194,-264.017695,-0.025051,62.238084
0.0661,0.052219,-0.031229,-0.082933,-0.055599,0.026682,0.05,0.010494,-0.539503,-0.082921,0.391119,-264.022711,-0.025051,62.233446
0.0859,0.052603,-0.031045,-0.083993,-0.054627,0.026796,0.05,0.010446,-0.539502,-0.082927,0.391119,-264.022711,-0.025051,62.233446
0.106,0.052301,-0.031066,-0.085549,-0.055022,0.026522,0.05,0.009817,-0.539247,-0.083993,0.316124,-264.022713,0.049944,62.233444
0.126,0.052536,-0.031421,-0.084271,-0.054764,0.026483,0.05,0.009192,-0.539221,-0.084883,0.316124,-264.022713,0.049944,62.233444
0.1459,0.052372,-0.030971,-0.084569,-0.054994,0.026888,0.05,0.009192,-0.539221,-0.084883,0.316124,-264.022713,0.049944,62.233444
0.1663,0.05294,-0.031161,-0.082823,-0.054801,0.026437,0.05,0.009293,-0.539149,-0.084569,0.241015,-264.022716,0.068385,62.233442
0.1866,0.05238,-0.031382,-0.084819,-0.055336,0.026674,0.05,0.009396,-0.539167,-0.084445,0.241015,-264.022716,0.068385,62.233442
0.2062,0.05265,-0.031177,-0.083952,-0.05485,0.026832,0.05,0.009174,-0.539549,-0.084819,0.16602,-264.022719,0.066271,62.23344
0.2265,0.052629,-0.03139,-0.085394,-0.055079,0.026653,0.05,0.009573,-0.539455,-0.084332,0.16602,-264.022719,0.066271,62.23344
0.2466,0.052289,-0.031093,-0.083303,-0.055114,0.026787,0.05,0.009573,-0.539455,-0.084332,0.16602,-264.022719,0.066271,62.23344
0.2662,0.05252,-0.03128,-0.085062,-0.054695,0.026634,0.05,0.009853,-0.539324,-0.083303,0.091123,-264.022722,0.069704,62.233438
0.2864,0.052289,-0.031257,-0.086509,-0.054988,0.026705,0.05,0.009815,-0.53933,-0.083405,0.091123,-264.022722,0.069704,62.233438
0.3059,0.052394,-0.031388,-0.084561,-0.054794,0.026623,0.05,0.008224,-0.53935,-0.086509,0.01612,-264.022726,0.067947,62.233435
0.3264,0.052464,-0.031143,-0.082776,-0.054858,0.026851,0.05,0.008848,-0.539473,-0.0854,0.01612,-264.022726,0.067947,62.233435
0.3462,0.052129,-0.031497,-0.084195,-0.054859,0.026699,0.05,0.008848,-0.539473,-0.0854,0.01612,-264.022726,0.067947,62.233435
0.3659,0.052398,-0.031289,-0.083905,-0.054593,0.027001,0.05,0.00924,-0.53969,-0.084195,-0.058875,-264.022729,0.069592,62.233433
0.3858,0.052571,-0.03121,-0.084753,-0.054836,0.026787,0.05,0.009269,-0.539676,-0.084175,-0.058875,-264.022729,0.069592,62.233433
0.4061,0.052148,-0.03122,-0.082942,-0.055025,0.026647,0.05,0.009399,-0.539379,-0.084753,-0.133873,-264.022734,0.069862,62.23343
0.4259,0.052464,-0.030755,-0.081522,-0.054556,0.026792,0.05,0.009683,-0.539429,-0.083717,-0.133873,-264.022734,0.069862,62.23343
0.4462,0.052678,-0.031359,-0.082997,-0.054794,0.026381,0.05,0.009683,-0.539429,-0.083717,-0.133873,-264.022734,0.069862,62.23343
0.4663,0.052755,-0.031071,-0.084322,-0.055096,0.026884,0.05,0.010396,-0.539603,-0.082997,-0.208968,-264.022749,0.068285,62.233419
0.4867,0.052671,-0.031194,-0.082985,-0.055184,0.026517,0.05,0.010357,-0.53958,-0.083085,-0.208968,-264.022749,0.068285,62.233419
0.5061,0.052346,-0.031068,-0.08413,-0.055076,0.02672,0.05,0.010391,-0.539437,-0.082983,-0.283868,-264.022827,0.075712,62.233365
0.5259,0.052547,-0.03082,-0.084273,-0.054771,0.02656,0.05,0.009874,-0.539338,-0.08364,-0.283868,-264.022827,0.075712,62.233365
0.546,0.052374,-0.031441,-0.086201,-0.054955,0.026288,0.05,0.009874,-0.539338,-0.08364,-0.283868,-264.022827,0.075712,62.233365
0.5663,0.052093,-0.031127,-0.084824,-0.054887,0.026815,0.05,0.008432,-0.539538,-0.086187,-0.358992,-264.02318,0.072727,62.233119
0.5864,0.052477,-0.031474,-0.083966,-0.054543,0.026602,0.05,0.008463,-0.53952,-0.086091,-0.358992,-264.02318,0.072727,62.233119
0.6061,0.052039,-0.030867,-0.082014,-0.054932,0.026962,0.05,0.009612,-0.539648,-0.08392,-0.433894,-264.024406,0.077182,62.232264
0.6266,0.05252,-0.031263,-0.082822,-0.054393,0.0265,0.05,0.009964,-0.539366,-0.082843,-0.433894,-264.024406,0.077182,62.232264
0.6464,0.052137,-0.031089,-0.084284,-0.054926,0.026811,0.05,0.009964,-0.539366,-0.082843,-0.433894,-264.024406,0.077182,62.232264
0.666,0.051664,-0.031425,-0.082284,-0.054569,0.026589,0.05,0.008911,-0.539169,-0.084116,-0.508924,-264.027566,0.072034,62.230076
0.6858,0.05193,-0.031021,-0.083051,-0.054072,0.027072,0.05,0.008961,-0.539204,-0.083983,-0.508924,-264.027566,0.072034,62.230076
0.7062,0.051114,-0.031023,-0.084034,-0.054324,0.026606,0.05,0.009182,-0.539091,-0.082779,-0.583885,-264.033233,0.06774,62.225383
0.7259,0.051321,-0.03118,-0.082636,-0.053538,0.026623,0.05,0.008625,-0.539145,-0.083463,-0.583885,-264.033233,0.06774,62.225383
0.7463,0.050988,-0.031156,-0.083385,-0.053719,0.026838,0.05,0.008625,-0.539145,-0.083463,-0.583885,-264.033233,0.06774,62.225383
0.766,0.050175,-0.030113,-0.082269,-0.053406,0.026801,0.05,0.00771,-0.539041,-0.082843,-0.659004,-264.041426,0.063996,62.218166
0.7863,0.049574,-0.03061,-0.082436,-0.05248,0.025888,0.05,0.007731,-0.538977,-0.082779,-0.659004,-264.041426,0.063996,62.218166
0.806,0.048698,-0.029847,-0.081467,-0.051926,0.026424,0.05,0.006763,-0.538499,-0.081822,-0.73426,-264.052045,0.068766,62.208515
0.8265,0.048449,-0.02974,-0.081128,-0.050965,0.025785,0.05,0.006905,-0.538255,-0.081541,-0.73426,-264.052045,0.068766,62.208515
0.8463,0.048827,-0.029745,-0.082266,-0.050699,0.025716,0.05,0.006905,-0.538255,-0.081541,-0.73426,-264.052045,0.068766,62.208515
0.8658,0.046329,-0.029192,-0.080789,-0.051106,0.025633,0.05,0.005671,-0.537402,-0.081208,-0.808893,-264.065269,0.088371,62.196269
0.8864,0.046606,-0.029381,-0.079858,-0.048534,0.025358,0.05,0.005599,-0.537394,-0.081148,-0.808893,-264.065269,0.088371,62.196269
0.9061,0.044428,-0.028515,-0.078868,-0.048801,0.02557,0.05,0.004748,-0.537165,-0.078825,-0.837278,-264.080888,0.094822,62.181618
0.9261,0.044774,-0.028219,-0.078624,-0.046536,0.024926,0.05,0.004319,-0.536958,-0.07872,-0.837278,-264.080888,0.094822,62.181618
0.946,0.044305,-0.028277,-0.078399,-0.046853,0.024615,0.05,0.004319,-0.536958,-0.07872,-0.837278,-264.080888,0.094822,62.181618
0.9661,0.042126,-0.027483,-0.078552,-0.046384,0.02472,0.05,0.002663,-0.535854,-0.076854,-0.85578,-264.099021,0.106316,62.164457
0.9863,0.041572,-0.027747,-0.07844,-0.044153,0.024092,0.05,0.002582,-0.535836,-0.076928,-0.85578,-264.099021,0.106316,62.164457
1.0063,0.039464,-0.026699,-0.077049,-0.043618,0.024404,0.05,0.00012,-0.535414,-0.07701,-0.866591,-264.119684,0.125733,62.145712
1.0259,0.039112,-0.026418,-0.076574,-0.041402,0.023582,0.05,-2e-05,-0.535187,-0.076849,-0.866591,-264.119684,0.125733,62.145712
1.0463,0.039087,-0.026309,-0.076422,-0.041018,0.023349,0.05,-2e-05,-0.535187,-0.076849,-0.866591,-264.119684,0.125733,62.145712
1.0658,0.035984,-0.025579,-0.07303,-0.040981,0.023248,0.05,-0.001715,-0.533737,-0.074378,-0.891062,-264.142839,0.144946,62.128141
1.0859,0.036057,-0.025151,-0.074367,-0.037754,0.022885,0.05,-0.001731,-0.533742,-0.07423,-0.891062,-264.142839,0.144946,62.128141
1.1059,0.03325,-0.024193,-0.072256,-0.037826,0.022402,0.05,-0.00329,-0.532781,-0.072531,-0.920171,-264.1685,0.17349,62.11192
1.1259,0.032829,-0.023764,-0.071381,-0.03491,0.02173,0.05,-0.003633,-0.532706,-0.072142,-0.920171,-264.1685,0.17349,62.11192
1.1462,0.033062,-0.023861,-0.072674,-0.03444,0.021362,0.05,-0.003633,-0.532706,-0.072142,-0.920171,-264.1685,0.17349,62.11192
1.1668,0.029624,-0.022614,-0.06976,-0.034708,0.021398,0.05,-0.005669,-0.53131,-0.070314,-0.955582,-264.193859,0.199977,62.096987
1.1862,0.029897,-0.02294,-0.068419,-0.031128,0.020494,0.05,-0.005728,-0.531284,-0.070219,-0.955582,-264.193859,0.199977,62.096987
1.2063,0.027177,-0.0216,-0.06688,-0.031395,0.020842,0.05,-0.006166,-0.530888,-0.066602,-0.984928,-264.217038,0.26038,62.083723
1.2263,0.027388,-0.021338,-0.066014,-0.02856,0.019735,0.05,-0.006728,-0.530542,-0.066533,-0.984928,-264.217038,0.26038,62.083723
1.246,0.027343,-0.021534,-0.066115,-0.028736,0.019485,0.05,-0.006728,-0.530542,-0.066533,-0.984928,-264.217038,0.26038,62.083723
1.2663,0.024988,-0.020193,-0.063163,-0.028706,0.019681,0.05,-0.007707,-0.529396,-0.063835,-1.023073,-264.239559,0.312105,62.071401
1.2871,0.024698,-0.020278,-0.065741,-0.026213,0.018576,0.05,-0.007707,-0.529347,-0.063712,-1.023073,-264.239559,0.312105,62.071401
1.306,0.022052,-0.018839,-0.060956,-0.025977,0.018612,0.05,-0.009805,-0.5284,-0.063918,-1.049371,-264.261187,0.367172,62.059858
1.3268,0.022325,-0.018835,-0.062603,-0.023159,0.01746,0.05,-0.009485,-0.528016,-0.06202,-1.049371,-264.261187,0.367172,62.059858
1.3463,0.022482,-0.019269,-0.061533,-0.02346,0.017402,0.05,-0.009485,-0.528016,-0.06202,-1.049371,-264.261187,0.367172,62.059858
1.3659,0.019412,-0.018053,-0.059312,-0.023624,0.01785,0.05,-0.010009,-0.527397,-0.059279,-1.080533,-264.281848,0.428097,62.049164
1.3859,0.020278,-0.018363,-0.059788,-0.020448,0.01687,0.05,-0.010096,-0.527356,-0.05922,-1.080533,-264.281848,0.428097,62.049164
1.4059,0.01812,-0.017371,-0.05666,-0.021339,0.017118,0.05,-0.010956,-0.526813,-0.058097,-1.115686,-264.300627,0.503094,62.039704
1.4263,0.017522,-0.017295,-0.057003,-0.019074,0.016317,0.05,-0.010941,-0.526582,-0.057059,-1.115686,-264.300627,0.503094,62.039704
1.446,0.017697,-0.017086,-0.057447,-0.018479,0.016268,0.05,-0.010941,-0.526582,-0.057059,-1.115686,-264.300627,0.503094,62.039704
1.4666,0.015876,-0.016734,-0.054053,-0.018649,0.016042,0.05,-0.012398,-0.525491,-0.055374,-1.163577,-264.318304,0.578103,62.031283
1.4859,0.015687,-0.016444,-0.055875,-0.016756,0.015852,0.05,-0.01237,-0.525506,-0.055228,-1.163577,-264.318304,0.578103,62.031283
1.5065,0.013905,-0.015544,-0.052159,-0.016581,0.015542,0.05,-0.013398,-0.525054,-0.05416,-1.194786,-264.336191,0.653089,62.022984
1.5263,0.014137,-0.015723,-0.054263,-0.014697,0.014797,0.05,-0.013073,-0.524863,-0.052812,-1.194786,-264.336191,0.653089,62.022984
1.5465,0.014028,-0.015376,-0.054015,-0.014969,0.014934,0.05,-0.013073,-0.524863,-0.052812,-1.194786,-264.336191,0.653089,62.022984
1.566,0.011997,-0.01521,-0.050534,-0.014837,0.014596,0.05,-0.014217,-0.523884,-0.051778,-1.224166,-264.354344,0.719632,62.014784
1.5867,0.012059,-0.01486,-0.049665,-0.01275,0.014585,0.05,-0.014204,-0.523912,-0.05163,-1.224166,-264.354344,0.719632,62.014784
1.606,0.00996,-0.01379,-0.049429,-0.012782,0.014243,0.049665,-0.013742,-0.5237,-0.047983,-1.252767,-264.371103,0.794766,62.007214
1.6263,0.0103,-0.014045,-0.048245,-0.01063,0.013281,0.049429,-0.01466,-0.523328,-0.048598,-1.252767,-264.371103,0.794766,62.007214
1.6459,0.010529,-0.013904,-0.048113,-0.010966,0.013531,0.048245,-0.01466,-0.523328,-0.048598,-1.252767,-264.371103,0.794766,62.007214
1.6659,0.008795,-0.013448,-0.04703,-0.011186,0.013381,0.048113,-0.014488,-0.522701,-0.046128,-1.295411,-264.386543,0.869724,62.000489
1.6861,0.008769,-0.013661,-0.047164,-0.009417,0.01302,0.04703,-0.014554,-0.522697,-0.046138,-1.295411,-264.386543,0.869724,62.000489
1.706,0.00687,-0.012756,-0.044651,-0.009403,0.013232,0.047164,-0.015619,-0.522631,-0.045594,-1.321084,-264.401557,0.944768,61.993945
1.7263,0.007439,-0.012931,-0.045494,-0.007432,0.012437,0.044651,-0.015819,-0.522355,-0.044859,-1.321084,-264.401557,0.944768,61.993945
1.7461,0.007487,-0.012667,-0.047183,-0.00802,0.012579,0.045494,-0.015819,-0.522355,-0.044859,-1.321084,-264.401557,0.944768,61.993945
1.7659,0.006068,-0.012081,-0.043651,-0.008076,0.0123,0.047183,-0.016947,-0.521523,-0.045178,-1.34891,-264.416606,1.019632,61.987505
1.7864,0.005812,-0.012264,-0.043637,-0.00659,0.011805,0.043651,-0.016903,-0.521513,-0.045015,-1.34891,-264.416606,1.019632,61.987505
1.8061,0.004286,-0.011241,-0.040766,-0.006341,0.011998,0.043637,-0.016702,-0.521319,-0.042019,-1.37467,-264.431774,1.08548,61.981169
1.8265,0.003995,-0.011198,-0.039878,-0.004741,0.011057,0.040766,-0.01662,-0.520975,-0.0411,-1.37467,-264.431774,1.08548,61.981169
1.846,0.00469,-0.011396,-0.040328,-0.004438,0.011029,0.039878,-0.01662,-0.520975,-0.0411,-1.37467,-264.431774,1.08548,61.981169
1.8663,0.002702,-0.010741,-0.039034,-0.005146,0.011198,0.040328,-0.016145,-0.520443,-0.038379,-1.401126,-264.446137,1.153275,61.975188
1.8862,0.003307,-0.011059,-0.039804,-0.003119,0.010627,0.039034,-0.01623,-0.520422,-0.038372,-1.401126,-264.446137,1.153275,61.975188
1.9064,0.002117,-0.010231,-0.036377,-0.003745,0.010919,0.039804,-0.017121,-0.520293,-0.038524,-1.446017,-264.45805,1.228402,61.970496
1.9262,0.002264,-0.010582,-0.036252,-0.002488,0.010148,0.036377,-0.016742,-0.520018,-0.037129,-1.446017,-264.45805,1.228402,61.970496
1.9463,0.002214,-0.01032,-0.038212,-0.002646,0.010493,0.036252,-0.016742,-0.520018,-0.037129,-1.446017,-264.45805,1.228402,61.970496
1.9659,0.001389,-0.00994,-0.034264,-0.002607,0.010228,0.038212,-0.017385,-0.519524,-0.036688,-1.480556,-264.469196,1.303392,61.966123
1.9864,0.001315,-0.009958,-0.034279,-0.001729,0.009886,0.034264,-0.017299,-0.519521,-0.036482,-1.480556,-264.469196,1.303392,61.966123
2.0062,3.3e-05,-0.009184,-0.032499,-0.001655,0.009907,0.034279,-0.01625,-0.519263,-0.032923,-1.489878,-264.481896,1.34738,61.96149
2.0265,0.000348,-0.009536,-0.032637,-0.001655,0.009907,0.034279,-0.016426,-0.519014,-0.032508,-1.489878,-264.481896,1.34738,61.96149
2.0463,0.000277,-0.009576,-0.03319,-7e-06,0.0001,0.0,-0.016426,-0.519014,-0.032508,-1.489878,-264.481896,1.34738,61.96149
2.0665,-0.000592,-0.009084,-0.032092,-7e-06,0.0001,0.0,-0.01671,-0.518852,-0.031662,-1.514742,-264.493227,1.415444,61.957387
2.0859,-0.000769,-0.008614,-0.031193,-7e-06,0.0001,0.0,-0.016729,-0.518838,-0.031651,-1.514742,-264.493227,1.415444,61.957387
2.1061,-0.000669,-0.008266,-0.033386,-7e-06,0.0001,0.0,-0.016678,-0.5183,-0.031087,-1.501703,-264.494592,1.490334,61.957405
2.1262,-0.000594,-0.008536,-0.032044,-7e-06,0.0001,0.0,-0.017261,-0.518109,-0.032393,-1.501703,-264.494592,1.490334,61.957405
2.1464,-0.000359,-0.008247,-0.030788,-7e-06,0.0001,0.0,-0.017261,-0.518109,-0.032393,-1.501703,-264.494592,1.490334,61.957405
2.166,-0.000646,-0.008935,-0.032242,-7e-06,0.0001,0.0,-0.016059,-0.518002,-0.030788,-1.501703,-264.49462,1.565447,61.957433
2.1864,-0.000695,-0.008932,-0.032161,-7e-06,0.0001,0.0,-0.016136,-0.518052,-0.030896,-1.501703,-264.49462,1.565447,61.957433
2.206,-0.000799,-0.008739,-0.031886,-7e-06,0.0001,0.0,-0.017094,-0.518665,-0.032161,-1.501703,-264.494657,1.63989,61.95747
2.2258,-0.000902,-0.008903,-0.032071,-7e-06,0.0001,0.0,-0.017073,-0.518559,-0.032003,-1.501703,-264.494657,1.63989,61.95747
2.2459,-0.000992,-0.008872,-0.032074,-7e-06,0.0001,0.0,-0.017073,-0.518559,-0.032003,-1.501703,-264.494657,1.63989,61.95747
2.266,-0.000818,-0.008958,-0.031751,-9.6e-05,0.00139,0.004767,-0.017348,-0.518605,-0.032074,-1.501703,-264.494697,1.63989,61.95751
2.2864,-0.000994,-0.008458,-0.032625,-0.000187,0.002709,0.009288,-0.017324,-0.518612,-0.032052,-1.501703,-264.494697,1.63989,61.95751
2.3061,-0.00084,-0.008703,-0.032054,-0.000274,0.00396,0.013575,-0.01763,-0.518183,-0.032625,-1.501703,-264.494737,1.63989,61.95755
2.3259,-0.000757,-0.009117,-0.031195,-0.000356,0.005145,0.017637,-0.017379,-0.518328,-0.032303,-1.501703,-264.494737,1.63989,61.95755
2.3461,-0.000398,-0.009044,-0.031001,-0.000432,0.006244,0.021406,-0.017379,-0.518328,-0.032303,-1.501703,-264.494737,1.63989,61.95755
2.3659,-0.000864,-0.008741,-0.031036,-0.000504,0.007282,0.024965,-0.016207,-0.518703,-0.030672,-1.548432,-264.49718,1.56479,61.956684
2.3861,-0.000977,-0.008161,-0.029747,-0.000572,0.008265,0.028333,-0.016241,-0.518686,-0.030689,-1.548432,-264.49718,1.56479,61.956684
2.4061,-0.001325,-0.008586,-0.030246,-0.000632,0.009137,0.031326,-0.016156,-0.517822,-0.029152,-1.548432,-264.502128,1.507615,61.954084
2.426,-0.001152,-0.008473,-0.030574,-0.000689,0.009961,0.03415,-0.016497,-0.518112,-0.029704,-1.548432,-264.502128,1.507615,61.954084
2.4464,-0.001535,-0.008523,-0.030339,-0.000741,0.010709,0.036713,-0.016497,-0.518112,-0.029704,-1.548432,-264.502128,1.507615,61.954084
2.4664,-0.002211,-0.008158,-0.028923,-0.000788,0.011387,0.039039,-0.017023,-0.518055,-0.029238,-1.548432,-264.509571,1.507615,61.950462
2.4865,-0.001971,-0.008299,-0.029654,-0.00083,0.011994,0.041119,-0.017019,-0.518042,-0.029188,-1.548432,-264.509571,1.507615,61.950462
2.5062,-0.002761,-0.007583,-0.026239,-0.000867,0.012531,0.04296,-0.01711,-0.517821,-0.028499,-1.548432,-264.519518,1.507615,61.945766
2.5261,-0.002572,-0.007523,-0.027785,-0.000899,0.012993,0.044544,-0.016558,-0.517552,-0.02706,-1.548432,-264.519518,1.507615,61.945766
2.5462,-0.002681,-0.0079,-0.028075,-0.000926,0.013386,0.045892,-0.016558,-0.517552,-0.02706,-1.548432,-264.519518,1.507615,61.945766
2.5659,-0.003341,-0.007311,-0.027223,-0.000949,0.013708,0.046995,-0.017023,-0.517261,-0.026318,-1.548432,-264.531946,1.507615,61.940515
2.5867,-0.003658,-0.007687,-0.026737,-0.000966,0.013958,0.047852,-0.017038,-0.51724,-0.026335,-1.548432,-264.531946,1.507615,61.940515
2.6064,-0.00476,-0.00651,-0.024297,-0.000978,0.014137,0.048467,-0.017316,-0.517062,-0.025077,-1.548432,-264.546889,1.507615,61.934646
2.6261,-0.004513,-0.006583,-0.023602,-0.000986,0.014244,0.048834,-0.017227,-0.516616,-0.024436,-1.548432,-264.546889,1.507615,61.934646
2.6458,-0.004681,-0.00674,-0.022686,-0.000988,0.01428,0.048956,-0.017227,-0.516616,-0.024436,-1.548432,-264.546889,1.507615,61.934646
2.666,-0.006148,-0.00597,-0.021338,-0.000986,0.014244,0.048832,-0.016282,-0.515929,-0.020361,-1.548432,-264.564194,1.507615,61.928517
2.6863,-0.006081,-0.005998,-0.020832,-0.000978,0.014137,0.048468,-0.016338,-0.515905,-0.020368,-1.548432,-264.564194,1.507615,61.928517
2.7059,-0.007378,-0.005134,-0.020538,-0.000966,0.013953,0.047837,-0.016732,-0.515336,-0.018945,-1.548432,-264.581864,1.507615,61.922258
2.726,-0.007281,-0.005456,-0.01995,-0.000949,0.01371,0.047002,-0.017377,-0.515089,-0.019617,-1.548432,-264.581864,1.507615,61.922258
2.7459,-0.007636,-0.005254,-0.019879,-0.000927,0.013388,0.0459,-0.017377,-0.515089,-0.019617,-1.548432,-264.581864,1.507615,61.922258
2.766,-0.00846,-0.004775,-0.017267,-0.000899,0.012996,0.044554,-0.017809,-0.514465,-0.017524,-1.548432,-264.599341,1.507615,61.916068
2.7862,-0.008383,-0.00425,-0.015441,-0.000867,0.01253,0.042958,-0.017773,-0.514463,-0.017446,-1.548432,-264.599341,1.507615,61.916068
2.8058,-0.009688,-0.004166,-0.015205,-0.00083,0.011996,0.041127,-0.016286,-0.51367,-0.013664,-1.548432,-264.615935,1.507615,61.910191
2.8261,-0.009847,-0.003725,-0.015535,-0.000788,0.011389,0.039047,-0.016949,-0.513854,-0.014319,-1.548432,-264.615935,1.507615,61.910191
2.846,-0.009853,-0.003761,-0.014479,-0.000741,0.010712,0.036725,-0.016949,-0.513854,-0.014319,-1.548432,-264.615935,1.507615,61.910191
2.8659,-0.011319,-0.003208,-0.013311,-0.000689,0.009963,0.034155,-0.017271,-0.513099,-0.012393,-1.548432,-264.631439,1.507615,61.9047
2.8861,-0.010913,-0.003295,-0.013084,-0.000633,0.009141,0.031339,-0.017332,-0.513087,-0.012402,-1.548432,-264.631439,1.507615,61.9047
2.9064,-0.011762,-0.003153,-0.011192,-0.000571,0.008249,0.02828,-0.01761,-0.512838,-0.011667,-1.548432,-264.644704,1.507615,61.900002
2.926,-0.01216,-0.002548,-0.010771,-0.000504,0.007283,0.024968,-0.017533,-0.512947,-0.011216,-1.548432,-264.644704,1.507615,61.900002
2.9461,-0.011767,-0.002663,-0.010056,-0.000433,0.006252,0.021433,-0.017533,-0.512947,-0.011216,-1.548432,-264.644704,1.507615,61.900002
2.9665,-0.012959,-0.002454,-0.009187,-0.000355,0.00513,0.017588,-0.016922,-0.512193,-0.008535,-1.548432,-264.656005,1.507615,61.895999
2.9862,-0.012849,-0.002171,-0.009632,-0.000274,0.003966,0.013598,-0.016973,-0.512198,-0.008539,-1.548432,-264.656005,1.507615,61.895999
3.006,-0.013344,-0.001864,-0.006716,-0.000188,0.002716,0.009311,-0.017776,-0.511906,-0.008804,-1.548432,-264.663754,1.507615,61.893255
3.0259,-0.013054,-0.001933,-0.008786,-9.7e-05,0.001398,0.004792,-0.017201,-0.511845,-0.007504,-1.548432,-264.663754,1.507615,61.893255
3.0465,-0.013422,-0.002082,-0.007577,-0.0,4e-06,1.3e-05,-0.017201,-0.511845,-0.007504,-1.548432,-264.663754,1.507615,61.893255
3.0663,-0.013512,-0.001597,-0.006763,0.0,0.0,0.0,-0.017298,-0.511874,-0.006917,-1.548432,-264.668658,1.507615,61.891518
3.0865,-0.013582,-0.001837,-0.007144,0.0,0.0,0.0,-0.017275,-0.511849,-0.006889,-1.548432,-264.668658,1.507615,61.891518
3.106,-0.013491,-0.002056,-0.008859,0.0,0.0,0.0,-0.017226,-0.511824,-0.007144,-1.548432,-264.668662,1.507615,61.891516
3.126,-0.013515,-0.001456,-0.007735,0.0,0.0,0.0,-0.017675,-0.511945,-0.008127,-1.548432,-264.668662,1.507615,61.891516
3.146,-0.013482,-0.001854,-0.005392,0.0,0.0,0.0,-0.017675,-0.511945,-0.008127,-1.548432,-264.668662,1.507615,61.891516
3.166,-0.013587,-0.002007,-0.006176,0.0,0.0,0.0,-0.016232,-0.511847,-0.005392,-1.548432,-264.668662,1.507615,61.891516
3.1862,-0.013541,-0.001413,-0.007646,0.0,0.0,0.0,-0.016266,-0.511857,-0.005445,-1.548432,-264.668662,1.507615,61.891516
3.2059,-0.013896,-0.001915,-0.007115,0.0,0.0,0.0,-0.017441,-0.511398,-0.007646,-1.548432,-264.668662,1.507615,61.891516
3.2259,-0.013328,-0.001744,-0.006648,0.0,0.0,0.0,-0.017489,-0.511688,-0.007341,-1.548432,-264.668662,1.507615,61.891516
3.2461,-0.013681,-0.001444,-0.006797,0.0,0.0,0.0,-0.017489,-0.511688,-0.007341,-1.548432,-264.668662,1.507615,61.891516
3.2662,-0.013116,-0.001632,-0.006791,9.9e-05,1.1e-05,0.0,-0.017148,-0.511432,-0.006797,-1.548432,-264.668662,1.507615,61.891516
3.2863,-0.013809,-0.001465,-0.006727,9.9e-05,1.1e-05,0.0,-0.01711,-0.511445,-0.006797,-1.548432,-264.668662,1.507615,61.891516
3.3061,-0.01347,-0.001559,-0.007209,9.9e-05,1.1e-05,0.0,-0.01724,-0.511453,-0.006727,-1.548432,-264.668662,1.507615,61.891516
3.3263,-0.013545,-0.001638,-0.00785,9.9e-05,1.1e-05,0.0,-0.017187,-0.511506,-0.007002,-1.548432,-264.668662,1.507615,61.891516
3.3463,-0.013446,-0.001643,-0.006717,9.9e-05,1.1e-05,0.0,-0.017187,-0.511506,-0.007002,-1.548432,-264.668662,1.507615,61.891516
3.3662,-0.01381,-0.001528,-0.006575,9.9e-05,1.1e-05,0.0,-0.016872,-0.511631,-0.006717,-1.473336,-264.668662,1.432518,61.891516
3.386,-0.013117,-0.001517,-0.006883,9.9e-05,1.1e-05,0.0,-0.016891,-0.511624,-0.006708,-1.473336,-264.668662,1.432518,61.891516
3.4059,-0.013644,-0.0021,-0.007295,9.9e-05,1.1e-05,0.0,-0.016628,-0.511505,-0.006883,-1.398415,-264.668662,1.357598,61.891516
3.426,-0.01373,-0.001824,-0.007985,9.9e-05,1.1e-05,0.0,-0.017046,-0.511835,-0.007117,-1.398415,-264.668662,1.357598,61.891516
3.4459,-0.013454,-0.001587,-0.006401,9.9e-05,1.1e-05,0.0,-0.017046,-0.511835,-0.007117,-1.398415,-264.668662,1.357598,61.891516
3.4658,-0.013786,-0.001763,-0.007611,9.9e-05,1.1e-05,0.0,-0.016719,-0.511577,-0.006401,-1.323429,-264.668662,1.282612,61.891516
3.4866,-0.013765,-0.001611,-0.007033,0.002003,0.000225,0.000996,-0.016784,-0.511588,-0.006484,-1.323429,-264.668662,1.282612,61.891516
3.5062,-0.013765,-0.001917,-0.00701,0.003911,0.00044,0.001945,-0.017352,-0.511599,-0.007033,-1.248341,-264.668662,1.207523,61.891516
3.5261,-0.013658,-0.001576,-0.006592,0.005688,0.000639,0.002828,-0.017345,-0.511771,-0.00702,-1.248341,-264.668662,1.207523,61.891516
3.5463,-0.01354,-0.001655,-0.006217,0.007378,0.000829,0.003668,-0.017345,-0.511771,-0.00702,-1.248341,-264.668662,1.207523,61.891516
3.5658,-0.013665,-0.001707,-0.00712,0.008965,0.001008,0.004458,-0.016711,-0.511645,-0.006217,-1.173424,-264.668662,1.132607,61.891516
3.5859,-0.013348,-0.001773,-0.00819,0.010451,0.001175,0.005196,-0.01675,-0.511648,-0.006277,-1.173424,-264.668662,1.132607,61.891516
3.606,-0.013401,-0.001373,-0.006006,0.01184,0.001331,0.005887,-0.017525,-0.511756,-0.00819,-1.098436,-264.668662,1.057619,61.891516
3.6266,-0.01374,-0.002,-0.007031,0.01312,0.001475,0.006523,-0.016922,-0.511533,-0.006949,-1.098436,-264.668662,1.057619,61.891516
3.6461,-0.013731,-0.001744,-0.00723,0.014298,0.001607,0.007109,-0.016922,-0.511533,-0.006949,-1.098436,-264.668662,1.057619,61.891516
3.6659,-0.013426,-0.001755,-0.007048,0.015375,0.001728,0.007645,-0.017418,-0.511731,-0.00723,-1.023451,-264.668662,0.982634,61.891516
3.6861,-0.013925,-0.001445,-0.008315,0.016351,0.001838,0.00813,-0.017392,-0.511731,-0.007218,-1.023451,-264.668662,0.982634,61.891516
3.7059,-0.0137,-0.001781,-0.006888,0.017222,0.001936,0.008563,-0.018165,-0.511428,-0.008315,-0.948441,-264.668662,0.907624,61.891516
3.7259,-0.013551,-0.001627,-0.006512,0.01799,0.002022,0.008945,-0.017624,-0.511621,-0.007504,-0.948441,-264.668662,0.907624,61.891516
3.7463,-0.013466,-0.001592,-0.007306,0.018657,0.002097,0.009277,-0.017624,-0.511621,-0.007504,-0.948441,-264.668662,0.907624,61.891516
3.7665,-0.013457,-0.001392,-0.006802,0.019222,0.002161,0.009557,-0.017192,-0.511578,-0.007306,-0.87344,-264.668662,0.832623,61.891516
3.7859,-0.01363,-0.001379,-0.006817,0.019684,0.002213,0.009787,-0.017174,-0.511565,-0.007271,-0.87344,-264.668662,0.832623,61.891516
3.8059,-0.013109,-0.001458,-0.007452,0.020044,0.002253,0.009966,-0.017107,-0.511367,-0.006817,-0.798442,-264.668662,0.757625,61.891516
3.826,-0.013101,-0.001577,-0.008539,0.020301,0.002282,0.010094,-0.016995,-0.511411,-0.007178,-0.798442,-264.668662,0.757625,61.891516
3.8461,-0.013688,-0.001876,-0.007591,0.020455,0.0023,0.01017,-0.016995,-0.511411,-0.007178,-0.798442,-264.668662,0.757625,61.891516
3.8659,-0.013525,-0.001726,-0.007112,0.020506,0.002305,0.010196,-0.01756,-0.511861,-0.007591,-0.723447,-264.668662,0.682629,61.891516
3.8864,-0.013893,-0.001607,-0.007028,0.020455,0.0023,0.010171,-0.017535,-0.511852,-0.007561,-0.723447,-264.668662,0.682629,61.891516
3.9063,-0.013961,-0.001709,-0.00763,0.020297,0.002282,0.010092,-0.017477,-0.511594,-0.007028,-0.648441,-264.668662,0.607624,61.891516
3.926,-0.013167,-0.001407,-0.007119,0.020045,0.002253,0.009966,-0.01769,-0.511651,-0.00737,-0.648441,-264.668662,0.607624,61.891516
3.9463,-0.013537,-0.001764,-0.005853,0.019687,0.002213,0.009789,-0.01769,-0.511651,-0.00737,-0.648441,-264.668662,0.607624,61.891516
3.9664,-0.013476,-0.001827,-0.007566,0.019226,0.002161,0.009559,-0.016522,-0.511756,-0.005853,-0.573443,-264.668662,0.532625,61.891516
3.9862,-0.013571,-0.001429,-0.008169,0.018663,0.002098,0.009279,-0.016576,-0.511759,-0.005966,-0.573443,-264.668662,0.532625,61.891516
4.0061,-0.013875,-0.001603,-0.00603,0.017994,0.002023,0.008947,-0.017738,-0.511412,-0.008169,-0.498432,-264.668662,0.457615,61.891516
4.0262,-0.013452,-0.001492,-0.005265,0.017231,0.001937,0.008567,-0.017292,-0.511515,-0.006959,-0.498432,-264.668662,0.457615,61.891516
4.0461,-0.013765,-0.00202,-0.007236,0.016358,0.001839,0.008134,-0.017292,-0.511515,-0.006959,-0.498432,-264.668662,0.457615,61.891516
4.0664,-0.013836,-0.001884,-0.007361,0.015385,0.00173,0.007649,-0.017456,-0.512007,-0.007236,-0.423279,-264.668662,0.382462,61.891516
4.0858,-0.013645,-0.001707,-0.007222,0.014309,0.001609,0.007115,-0.017464,-0.511999,-0.007244,-0.423279,-264.668662,0.382462,61.891516
4.1059,-0.014099,-0.001713,-0.007616,0.01313,0.001476,0.006528,-0.017328,-0.511694,-0.007222,-0.348458,-264.668662,0.307641,61.891516
4.1259,-0.013764,-0.001675,-0.007073,0.011848,0.001332,0.005891,-0.017704,-0.511697,-0.007448,-0.348458,-264.668662,0.307641,61.891516
4.1464,-0.013813,-0.001725,-0.006958,0.010466,0.001177,0.005204,-0.017704,-0.511697,-0.007448,-0.348458,-264.668662,0.307641,61.891516
4.1659,-0.013791,-0.00156,-0.009251,0.008979,0.001009,0.004464,-0.017362,-0.511713,-0.006958,-0.273321,-264.668662,0.232504,61.891516
4.1859,-0.013459,-0.001626,-0.007272,0.00739,0.000831,0.003674,-0.017432,-0.511702,-0.007098,-0.273321,-264.668662,0.232504,61.891516
4.2064,-0.013895,-0.001549,-0.007485,0.005686,0.000639,0.002827,-0.017168,-0.511613,-0.007272,-0.198449,-264.668662,0.157631,61.891517
4.2259,-0.013392,-0.001666,-0.007054,0.003905,0.000439,0.001942,-0.017477,-0.511569,-0.007393,-0.198449,-264.668662,0.157631,61.891517
4.2463,-0.013758,-0.001289,-0.008156,0.001991,0.000224,0.00099,-0.017477,-0.511569,-0.007393,-0.198449,-264.668662,0.157631,61.891517
4.2662,-0.013498,-0.001587,-0.005769,0.0,0.0,0.0,-0.017918,-0.511272,-0.008156,-0.123334,-264.668661,0.082517,61.891518
4.287,-0.013806,-0.001861,-0.008035,0.0,0.0,0.0,-0.017827,-0.511291,-0.008009,-0.123334,-264.668661,0.082517,61.891518
4.3061,-0.013599,-0.001704,-0.007548,0.0,0.0,0.0,-0.017903,-0.511845,-0.008035,-0.04842,-264.668658,0.007602,61.89152
4.3264,-0.013294,-0.001727,-0.006747,0.0,0.0,0.0,-0.017644,-0.511756,-0.007757,-0.04842,-264.668658,0.007602,61.89152
4.3465,-0.013775,-0.001625,-0.008003,0.0,0.0,0.0,-0.017644,-0.511756,-0.007757,-0.04842,-264.668658,0.007602,61.89152
4.366,-0.013848,-0.002072,-0.007801,0.0,0.0,0.0,-0.017856,-0.511608,-0.008003,-0.04842,-264.668658,0.007602,61.89152
4.3859,-0.013834,-0.001835,-0.006767,0.0,0.0,0.0,-0.017854,-0.511643,-0.007987,-0.04842,-264.668658,0.007602,61.89152
4.4059,-0.013639,-0.001236,-0.007384,0.0,0.0,0.0,-0.017286,-0.511823,-0.006767,-0.04842,-264.668658,0.007602,61.89152
4.4261,-0.013825,-0.001827,-0.007164,0.0,0.0,0.0,-0.017353,-0.511481,-0.007118,-0.04842,-264.668658,0.007602,61.89152
4.4462,-0.013299,-0.001332,-0.008709,0.0,0.0,0.0,-0.017353,-0.511481,-0.007118,-0.04842,-264.668658,0.007602,61.89152
4.466,-0.013482,-0.001552,-0.008431,0.0,0.0,0.0,-0.01774,-0.511312,-0.008709,-0.04842,-264.668658,0.007602,61.89152
4.4861,-0.013854,-0.001594,-0.006004,0.0,0.0,0.0,-0.017742,-0.511325,-0.008692,-0.04842,-264.668658,0.007602,61.89152
4.5067,-0.013694,-0.00181,-0.007421,9.9e-05,1.2e-05,0.0,-0.016916,-0.511585,-0.006004,-0.04842,-264.668658,0.007602,61.89152
4.5264,-0.013499,-0.001831,-0.005509,9.9e-05,1.2e-05,0.0,-0.017236,-0.511705,-0.00681,-0.04842,-264.668658,0.007602,61.89152
4.546,-0.013797,-0.001599,-0.006277,9.9e-05,1.2e-05,0.0,-0.017236,-0.511705,-0.00681,-0.04842,-264.668658,0.007602,61.89152
4.566,-0.013734,-0.001537,-0.00645,9.9e-05,1.2e-05,0.0,-0.016998,-0.511589,-0.006277,-0.04842,-264.668658,0.007602,61.89152
4.5864,-0.013823,-0.002081,-0.008333,9.9e-05,1.2e-05,0.0,-0.017,-0.511585,-0.006288,-0.04842,-264.668658,0.007602,61.89152
4.6059,-0.013612,-0.001825,-0.008212,9.9e-05,1.2e-05,0.0,-0.018071,-0.512063,-0.008333,0.026585,-264.668638,0.082607,61.891541
4.6261,-0.013794,-0.001344,-0.00779,9.9e-05,1.2e-05,0.0,-0.017917,-0.511918,-0.008264,0.026585,-264.668638,0.082607,61.891541
4.6464,-0.014224,-0.001583,-0.009081,9.9e-05,1.2e-05,0.0,-0.017917,-0.511918,-0.008264,0.026585,-264.668638,0.082607,61.891541
4.6666,-0.01359,-0.001678,-0.006361,9.9e-05,1.2e-05,0.0,-0.018851,-0.511561,-0.009081,0.101572,-264.668604,0.120551,61.891575
4.6863,-0.013643,-0.001472,-0.007886,9.9e-05,1.2e-05,0.0,-0.018712,-0.511569,-0.008893,0.101572,-264.668604,0.120551,61.891575
4.7061,-0.013476,-0.001591,-0.007883,9.9e-05,1.2e-05,0.0,-0.017661,-0.511456,-0.007886,0.120551,-264.668564,0.120551,61.891615
4.7261,-0.013843,-0.001945,-0.006521,0.002037,0.000247,0.000883,-0.017566,-0.511524,-0.007884,0.120551,-264.668564,0.120551,61.891615
4.746,-0.01402,-0.002171,-0.006981,0.003941,0.000477,0.001709,-0.017566,-0.511524,-0.007884,0.120551,-264.668564,0.120551,61.891615
4.7659,-0.013551,-0.001823,-0.006202,0.005763,0.000698,0.002499,-0.017575,-0.512158,-0.006981,0.120551,-264.668524,0.120551,61.891655
4.786,-0.013831,-0.001515,-0.008507,0.007471,0.000905,0.00324,-0.017513,-0.512134,-0.006925,0.120551,-264.668524,0.120551,61.891655
4.8059,-0.013679,-0.00177,-0.006695,0.009085,0.001101,0.00394,-0.018151,-0.511495,-0.008505,0.195505,-264.66832,0.045596,61.891846
4.8263,-0.013894,-0.001711,-0.007967,0.010589,0.001283,0.004592,-0.017546,-0.511645,-0.007474,0.195505,-264.66832,0.045596,61.891846
4.846,-0.013356,-0.00211,-0.008701,0.011994,0.001453,0.005202,-0.017546,-0.511645,-0.007474,0.195505,-264.66832,0.045596,61.891846
4.8661,-0.013469,-0.001795,-0.007744,0.013288,0.00161,0.005763,-0.017664,-0.512076,-0.008668,0.270404,-264.6672,-0.029303,61.892902
4.8865,-0.013501,-0.001594,-0.007217,0.014481,0.001754,0.00628,-0.017642,-0.512054,-0.008601,0.270404,-264.6672,-0.029303,61.892902
4.9063,-0.013372,-0.001919,-0.007308,0.015575,0.001887,0.006754,-0.016857,-0.511541,-0.007093,0.345547,-264.663614,-0.104445,61.896283
4.9262,-0.01305,-0.001527,-0.006761,0.016559,0.002006,0.007181,-0.016954,-0.511745,-0.007201,0.345547,-264.663614,-0.104445,61.896283
4.9465,-0.013167,-0.00169,-0.006973,0.017447,0.002114,0.007566,-0.016954,-0.511745,-0.007201,0.345547,-264.663614,-0.104445,61.896283
4.9663,-0.012936,-0.001751,-0.00729,0.01823,0.002208,0.007906,-0.016042,-0.511599,-0.006678,0.368387,-264.657607,-0.142754,61.901944
4.986,-0.012663,-0.001925,-0.006431,0.018897,0.002289,0.008195,-0.016066,-0.511607,-0.006712,0.368387,-264.657607,-0.142754,61.901944
5.0063,-0.012197,-0.001689,-0.006682,0.019469,0.002358,0.008443,-0.015268,-0.511837,-0.006139,0.368387,-264.650126,-0.142754,61.908995
5.026,-0.012223,-0.001379,-0.006409,0.019936,0.002415,0.008646,-0.015374,-0.511737,-0.00641,0.368387,-264.650126,-0.142754,61.908995
5.0461,-0.012228,-0.001419,-0.005386,0.0203,0.002459,0.008804,-0.015374,-0.511737,-0.00641,0.368387,-264.650126,-0.142754,61.908995
5.0663,-0.010944,-0.001093,-0.006097,0.020561,0.002491,0.008917,-0.014055,-0.511305,-0.004988,0.368387,-264.642023,-0.142754,61.916632
5.0874,-0.010998,-0.001552,-0.005171,0.020714,0.002509,0.008983,-0.014031,-0.511287,-0.005053,0.368387,-264.642023,-0.142754,61.916632
5.1061,-0.010338,-0.001268,-0.004765,0.020766,0.002516,0.009006,-0.012843,-0.511453,-0.004827,0.368387,-264.633306,-0.142754,61.924847
5.1258,-0.010285,-0.001275,-0.006076,0.020714,0.002509,0.008983,-0.012703,-0.511335,-0.00475,0.368387,-264.633306,-0.142754,61.924847
5.146,-0.010392,-0.001132,-0.004843,0.020559,0.002491,0.008916,-0.012703,-0.511335,-0.00475,0.368387,-264.633306,-0.142754,61.924847
5.1664,-0.00947,-0.000819,-0.00465,0.020299,0.002459,0.008803,-0.011857,-0.511009,-0.004407,0.368387,-264.624437,-0.142754,61.933206
5.1867,-0.009734,-0.001099,-0.004185,0.019936,0.002415,0.008646,-0.011828,-0.510992,-0.004413,0.368387,-264.624437,-0.142754,61.933206
5.2062,-0.008848,-0.001151,-0.004636,0.01947,0.002359,0.008444,-0.011074,-0.511002,-0.003841,0.368387,-264.615611,-0.142754,61.941525
5.2262,-0.008723,-0.001089,-0.006096,0.018896,0.002289,0.008195,-0.011053,-0.511073,-0.004253,0.368387,-264.615611,-0.142754,61.941525
5.246,-0.008777,-0.000742,-0.003289,0.018221,0.002207,0.007902,-0.011053,-0.511073,-0.004253,0.368387,-264.615611,-0.142754,61.941525
5.2658,-0.007783,-0.000767,-0.003015,0.017445,0.002113,0.007565,-0.009488,-0.510625,-0.00287,0.368387,-264.607075,-0.142754,61.94957
5.2858,-0.007894,-0.000692,-0.002811,0.016559,0.002006,0.007181,-0.00945,-0.510631,-0.002869,0.368387,-264.607075,-0.142754,61.94957
5.3061,-0.007172,-0.000552,-0.002679,0.015577,0.001887,0.006755,-0.008624,-0.510607,-0.002506,0.368387,-264.59925,-0.142754,61.956945
5.3258,-0.007267,-0.000354,-0.004055,0.014487,0.001755,0.006283,-0.008486,-0.510564,-0.002567,0.368387,-264.59925,-0.142754,61.956945
5.3459,-0.007106,-0.000652,-0.004052,0.013287,0.00161,0.005762,-0.008486,-0.510564,-0.002567,0.368387,-264.59925,-0.142754,61.956945
5.3663,-0.006615,-0.000585,-0.002828,0.011979,0.001451,0.005195,-0.008368,-0.510553,-0.003703,0.368387,-264.592162,-0.142754,61.963626
5.3866,-0.006775,-0.000697,-0.003343,0.010595,0.001283,0.004595,-0.008327,-0.510553,-0.003637,0.368387,-264.592162,-0.142754,61.963626
5.4067,-0.006101,-0.000926,-0.002164,0.009086,0.001101,0.00394,-0.007966,-0.510633,-0.00312,0.368387,-264.586464,-0.142754,61.968996
5.4259,-0.006016,-0.000684,-0.003923,0.00748,0.000906,0.003244,-0.007468,-0.510791,-0.002549,0.368387,-264.586464,-0.142754,61.968996
5.446,-0.005909,-0.000372,-0.00389,0.005768,0.000699,0.002501,-0.007468,-0.510791,-0.002549,0.368387,-264.586464,-0.142754,61.968996
5.4664,-0.005741,-0.000805,-0.003442,0.003948,0.000478,0.001712,-0.007377,-0.510308,-0.003667,0.368387,-264.581921,-0.142754,61.973277
5.4865,-0.005955,-0.000375,-0.003133,0.002029,0.000246,0.00088,-0.007372,-0.510341,-0.003645,0.368387,-264.581921,-0.142754,61.973277
5.506,-0.005375,-0.000542,-0.003283,0.0,0.0,0.0,-0.007329,-0.510347,-0.003036,0.368387,-264.579446,-0.142754,61.97561
5.5261,-0.005149,-0.000983,-0.000759,0.0,0.0,0.0,-0.007141,-0.510453,-0.003164,0.368387,-264.579446,-0.142754,61.97561
5.5462,-0.005547,-0.000552,-0.003027,0.0,0.0,0.0,-0.007141,-0.510453,-0.003164,0.368387,-264.579446,-0.142754,61.97561
5.566,-0.005546,-0.00036,-0.002995,0.0,0.0,0.0,-0.006992,-0.510538,-0.002984,0.368387,-264.578575,-0.142754,61.976431
5.5859,-0.005644,-0.000492,-0.002215,0.0,0.0,0.0,-0.006996,-0.510525,-0.002984,0.368387,-264.578575,-0.142754,61.976431
5.6058,-0.005294,-0.000801,-0.002837,0.0,0.0,0.0,-0.006774,-0.510491,-0.002215,0.368387,-264.578575,-0.142754,61.976431
5.626,-0.005342,-0.000604,-0.00228,0.0,0.0,0.0,-0.006755,-0.510667,-0.002569,0.368387,-264.578575,-0.142754,61.976431
5.646,-0.005698,-0.00055,-0.002285,0.0,0.0,0.0,-0.006755,-0.510667,-0.002569,0.368387,-264.578575,-0.142754,61.976431
5.6659,-0.005661,-0.00058,-0.003247,0.0,0.0,0.0,-0.006863,-0.510549,-0.002285,0.368387,-264.578575,-0.142754,61.976431
5.6858,-0.00542,-0.000666,-0.004149,0.0,0.0,0.0,-0.006895,-0.510551,-0.002352,0.368387,-264.578575,-0.142754,61.976431
5.706,-0.005571,-0.00045,-0.004173,0.0,0.0,0.0,-0.007536,-0.510662,-0.004149,0.368387,-264.578575,-0.142754,61.976431
5.7259,-0.005158,-0.000314,-0.002537,0.0,0.0,0.0,-0.007629,-0.510538,-0.004163,0.368387,-264.578575,-0.142754,61.976431
5.7459,-0.005512,-0.000257,-0.002557,0.0001,6e-06,0.0,-0.007629,-0.510538,-0.004163,0.368387,-264.578575,-0.142754,61.976431
5.7663,-0.005305,-0.000485,-0.00234,0.0001,6e-06,0.0,-0.006817,-0.510256,-0.002557,0.368387,-264.578575,-0.142754,61.976431
5.7865,-0.0053,-0.000455,-0.002926,0.0001,6e-06,0.0,-0.006795,-0.510271,-0.002542,0.368387,-264.578575,-0.142754,61.976431
5.806,-0.00572,-0.000164,-0.002205,0.0001,6e-06,0.0,-0.006792,-0.510452,-0.002926,0.293498,-264.578571,-0.067866,61.976435
5.8261,-0.00565,-0.000619,-0.00051,0.0001,6e-06,0.0,-0.006822,-0.510288,-0.002516,0.293498,-264.578571,-0.067866,61.976435
5.846,-0.005732,-0.00057,-0.002501,0.0001,6e-06,0.0,-0.006822,-0.510288,-0.002516,0.293498,-264.578571,-0.067866,61.976435
5.866,-0.005115,-0.000782,-0.000998,0.0001,6e-06,0.0,-0.007005,-0.510569,-0.002501,0.218484,-264.578558,0.007149,61.976448
5.8863,-0.005615,-0.000406,-0.003112,0.0001,6e-06,0.0,-0.006894,-0.510586,-0.002379,0.218484,-264.578558,0.007149,61.976448
5.9066,-0.005474,-0.000562,-0.003561,0.0001,6e-06,0.0,-0.0072,-0.510403,-0.003112,0.143161,-264.578532,0.063355,61.976474
5.926,-0.005366,-0.000612,-0.003787,0.0001,6e-06,0.0,-0.00725,-0.51049,-0.003363,0.143161,-264.578532,0.063355,61.976474
5.946,-0.005807,-0.000421,-0.002973,0.0001,6e-06,0.0,-0.00725,-0.51049,-0.003363,0.143161,-264.578532,0.063355,61.976474
5.9662,-0.00547,-0.000647,-0.001444,0.000758,4.8e-05,0.000373,-0.007319,-0.510419,-0.002973,0.068372,-264.578496,0.063355,61.97651
5.9869,-0.005063,-0.000115,-0.001297,0.001473,9.3e-05,0.000724,-0.007253,-0.510432,-0.002883,0.068372,-264.578496,0.063355,61.97651
6.006,-0.005054,-0.000366,-0.002826,0.002148,0.000136,0.001057,-0.00572,-0.510114,-0.001297,0.063355,-264.578456,0.063355,61.97655
6.0266,-0.00551,-0.000855,-0.003031,0.002786,0.000177,0.00137,-0.006153,-0.510254,-0.002152,0.063355,-264.578456,0.063355,61.97655
6.0461,-0.005127,-0.000582,-0.003191,0.003384,0.000215,0.001665,-0.006153,-0.510254,-0.002152,0.063355,-264.578456,0.063355,61.97655
6.0663,-0.005596,-0.000362,-0.002246,0.003947,0.00025,0.001941,-0.006749,-0.510579,-0.00319,0.138479,-264.578416,-0.01177,61.976589
6.0864,-0.00542,-0.000487,-0.002797,0.004468,0.000283,0.002198,-0.006749,-0.510564,-0.003127,0.138479,-264.578416,-0.01177,61.976589
6.106,-0.005515,-0.00053,-0.002295,0.004952,0.000314,0.002435,-0.006817,-0.510483,-0.00279,0.213363,-264.578095,-0.086654,61.976899
6.1264,-0.005487,-0.000548,-0.00243,0.005396,0.000342,0.002654,-0.006739,-0.510508,-0.002509,0.213363,-264.578095,-0.086654,61.976899
6.1461,-0.005434,-0.000595,-0.004035,0.005802,0.000368,0.002854,-0.006739,-0.510508,-0.002509,0.213363,-264.578095,-0.086654,61.976899
6.1659,-0.005383,0.000103,-0.002359,0.00617,0.000391,0.003035,-0.007375,-0.510583,-0.003991,0.288363,-264.577089,-0.161654,61.97787
6.1859,-0.005002,-0.000392,-0.003737,0.006499,0.000412,0.003196,-0.007319,-0.510537,-0.003881,0.288363,-264.577089,-0.161654,61.97787
6.206,-0.005159,-0.000189,-0.000972,0.00679,0.000431,0.00334,-0.006713,-0.510377,-0.003641,0.348954,-264.574938,-0.232672,61.979947
6.226,-0.005317,-0.000145,-0.003755,0.007041,0.000447,0.003463,-0.00608,-0.510267,-0.002095,0.348954,-264.574938,-0.232672,61.979947
6.2462,-0.004998,-0.000147,-0.003138,0.007253,0.00046,0.003567,-0.00608,-0.510267,-0.002095,0.348954,-264.574938,-0.232672,61.979947
6.266,-0.004876,-0.000328,-0.002033,0.007427,0.000471,0.003653,-0.006283,-0.510125,-0.002983,0.348954,-264.572172,-0.232672,61.982619
6.2868,-0.004537,-0.000455,-0.00276,0.007562,0.00048,0.00372,-0.006247,-0.51014,-0.002908,0.348954,-264.572172,-0.232672,61.982619
6.3059,-0.004539,-0.000313,-0.000666,0.007659,0.000486,0.003767,-0.005665,-0.510436,-0.002623,0.348954,-264.569087,-0.232672,61.985598
6.3261,-0.004428,-0.000812,-0.000866,0.007717,0.00049,0.003796,-0.005179,-0.510363,-0.001484,0.348954,-264.569087,-0.232672,61.985598
6.346,-0.004295,-0.000378,-0.001243,0.007736,0.000491,0.003805,-0.005179,-0.510363,-0.001484,0.348954,-264.569087,-0.232672,61.985598
6.3658,-0.003945,-0.000444,-0.002034,0.007717,0.00049,0.003796,-0.004562,-0.510354,-0.001062,0.348954,-264.565866,-0.232672,61.988709
6.3859,-0.003946,-0.000288,-0.002028,0.007659,0.000486,0.003767,-0.004582,-0.51036,-0.001127,0.348954,-264.565866,-0.232672,61.988709
6.4058,-0.003925,-0.000478,-0.002603,0.007559,0.00048,0.003718,-0.004682,-0.510269,-0.001881,0.348954,-264.562575,-0.232672,61.991887
6.4261,-0.004189,-0.000479,-0.001195,0.007426,0.000471,0.003653,-0.004971,-0.510386,-0.002277,0.348954,-264.562575,-0.232672,61.991887
6.446,-0.003609,-0.000333,-0.000626,0.007253,0.00046,0.003567,-0.004971,-0.510386,-0.002277,0.348954,-264.562575,-0.232672,61.991887
6.4661,-0.003999,-0.000426,-0.000835,0.00704,0.000447,0.003463,-0.003557,-0.510309,-0.000443,0.348954,-264.559303,-0.232672,61.995047
6.4867,-0.003664,-0.000633,-0.000325,0.006788,0.000431,0.003339,-0.003617,-0.510318,-0.00047,0.348954,-264.559303,-0.232672,61.995047
6.506,-0.003442,-0.00033,-0.001684,0.006498,0.000412,0.003196,-0.003551,-0.510615,-0.000188,0.348954,-264.556228,-0.232672,61.998017
6.526,-0.003059,-0.000406,-0.000581,0.006168,0.000391,0.003034,-0.003944,-0.51045,-0.001026,0.348954,-264.556228,-0.232672,61.998017
6.5463,-0.0033,-0.000296,-0.002056,0.005802,0.000368,0.002854,-0.003944,-0.51045,-0.001026,0.348954,-264.556228,-0.232672,61.998017
6.5661,-0.003367,-0.000337,-0.002791,0.005396,0.000342,0.002654,-0.004019,-0.510275,-0.001893,0.348954,-264.553339,-0.232672,62.000808
6.5861,-0.00356,-0.000254,-0.001693,0.004951,0.000314,0.002435,-0.004064,-0.510278,-0.001952,0.348954,-264.553339,-0.232672,62.000808
6.6064,-0.003117,-0.000425,-0.000259,0.004467,0.000283,0.002197,-0.004199,-0.510239,-0.001583,0.348954,-264.550872,-0.232672,62.00319
6.6263,-0.003184,-0.000153,-0.001082,0.003945,0.00025,0.00194,-0.003631,-0.510343,-0.000818,0.348954,-264.550872,-0.232672,62.00319
6.6463,-0.002946,-0.000402,-0.000928,0.003383,0.000215,0.001664,-0.003631,-0.510343,-0.000818,0.348954,-264.550872,-0.232672,62.00319
