mach0312/omni-docking-bench/src/icros_test_setup/results/kinematic_sample/timeseries/trial_049.csv
t,x,y,yaw,vx,vy,wz,bl_x,bl_y,bl_yaw,front_steering_joint,front_wheel_joint,rear_steering_joint,rear_wheel_joint
0.0,0.008959,-0.021369,-0.051703,-0.007909,-0.001203,-0.003154,-0.015939,-0.530926,-0.05003,0.376797,-264.483084,-0.091261,62.513747
0.0005,0.008788,-0.021749,-0.05134,-0.005215,-0.000793,-0.00208,-0.015939,-0.530926,-0.05003,0.376797,-264.486717,-0.091261,62.510354
0.0008,0.008562,-0.021796,-0.051564,-0.004609,-0.000701,-0.001838,-0.016909,-0.530986,-0.050805,0.376797,-264.489976,-0.091261,62.507311
0.0012,0.008145,-0.021614,-0.050627,-0.003957,-0.000602,-0.001578,-0.016906,-0.530982,-0.050845,0.376797,-264.492886,-0.091261,62.504594
0.0015,0.008111,-0.021909,-0.051652,-0.00326,-0.000496,-0.0013,-0.016906,-0.530982,-0.050845,0.376797,-264.49513,-0.091261,62.502499
0.0018,0.00842,-0.021649,-0.053027,-0.002519,-0.000383,-0.001005,-0.017879,-0.531128,-0.052852,0.376797,-264.496829,-0.091261,62.500912
0.0022,0.008411,-0.022014,-0.052009,-0.001733,-0.000264,-0.000691,-0.017879,-0.531128,-0.052852,0.376797,-264.497576,-0.091261,62.500215
0.0024,0.008544,-0.021913,-0.051766,-0.000898,-0.000137,-0.000358,-0.017691,-0.531211,-0.051846,0.376797,-264.497576,-0.091261,62.500215
0.0027,0.008248,-0.021645,-0.053226,-2.4e-05,-4e-06,-1e-05,-0.017691,-0.531211,-0.051846,0.376797,-264.497576,-0.091261,62.500215
0.0029,0.00827,-0.021525,-0.052418,0.0,0.0,0.0,-0.017691,-0.531211,-0.051846,0.376797,-264.497576,-0.091261,62.500215
0.0192,0.008185,-0.021589,-0.053626,-0.009387,0.016,0.03,-0.018474,-0.531059,-0.052612,0.376797,-264.497576,-0.091261,62.500215
0.0388,0.008075,-0.02221,-0.051167,-0.009331,0.021119,0.05,-0.019152,-0.530856,-0.053626,0.376797,-264.497586,-0.091261,62.500205
0.0585,0.008232,-0.02214,-0.052902,-0.0092,0.021768,0.05,-0.019093,-0.530891,-0.0535,0.376797,-264.497586,-0.091261,62.500205
0.0783,0.008366,-0.022177,-0.051942,-0.009391,0.021674,0.05,-0.018736,-0.531427,-0.052902,0.301874,-264.497586,-0.016338,62.500205
0.0983,0.008114,-0.021982,-0.052917,-0.009506,0.021713,0.05,-0.018381,-0.531462,-0.052355,0.301874,-264.497586,-0.016338,62.500205
0.1187,0.008255,-0.021832,-0.052829,-0.009265,0.021523,0.05,-0.018381,-0.531462,-0.052355,0.301874,-264.497586,-0.016338,62.500205
0.1384,0.008045,-0.021422,-0.053796,-0.009396,0.021366,0.05,-0.018675,-0.531121,-0.052829,0.37684,-264.497586,0.058628,62.500205
0.1587,0.008163,-0.021847,-0.051177,-0.009185,0.020958,0.05,-0.018723,-0.531091,-0.052895,0.37684,-264.497586,0.058628,62.500205
0.1783,0.00795,-0.021704,-0.051771,-0.00927,0.021401,0.05,-0.017926,-0.531179,-0.051177,0.301336,-264.497586,0.134132,62.500205
0.1982,0.007798,-0.021315,-0.052017,-0.009063,0.021263,0.05,-0.018222,-0.531088,-0.051518,0.301336,-264.497586,0.134132,62.500205
0.2184,0.00821,-0.021565,-0.051712,-0.008896,0.020881,0.05,-0.018222,-0.531088,-0.051518,0.301336,-264.497586,0.134132,62.500205
0.2385,0.008016,-0.02171,-0.052786,-0.009314,0.021112,0.05,-0.018152,-0.530883,-0.051712,0.2267,-264.497586,0.208768,62.500205
0.2583,0.008181,-0.021809,-0.051985,-0.00915,0.021257,0.05,-0.018206,-0.530892,-0.051792,0.2267,-264.497586,0.208768,62.500205
0.2787,0.007897,-0.021772,-0.052255,-0.009303,0.021355,0.05,-0.01832,-0.53112,-0.051985,0.301702,-264.497586,0.28377,62.500205
0.2985,0.00818,-0.021634,-0.053047,-0.009023,0.021329,0.05,-0.018556,-0.531095,-0.052136,0.301702,-264.497586,0.28377,62.500205
0.3184,0.008291,-0.022037,-0.051214,-0.009316,0.02117,0.05,-0.018556,-0.531095,-0.052136,0.301702,-264.497586,0.28377,62.500205
0.3385,0.0083,-0.021959,-0.053855,-0.009408,0.021584,0.05,-0.017817,-0.531368,-0.051214,0.226764,-264.497586,0.358708,62.500205
0.3583,0.008315,-0.021769,-0.052623,-0.00947,0.021481,0.05,-0.017909,-0.531358,-0.051396,0.226764,-264.497586,0.358708,62.500205
0.3786,0.008063,-0.021175,-0.052403,-0.009449,0.021302,0.05,-0.01851,-0.531063,-0.052623,0.151854,-264.497586,0.433618,62.500205
0.3988,0.007821,-0.021536,-0.054953,-0.009161,0.020723,0.05,-0.01859,-0.530726,-0.052497,0.151854,-264.497586,0.433618,62.500205
0.4191,0.008205,-0.021932,-0.051066,-0.008992,0.021074,0.05,-0.01859,-0.530726,-0.052497,0.151854,-264.497586,0.433618,62.500205
0.4386,0.007787,-0.02191,-0.052996,-0.009313,0.021484,0.05,-0.017828,-0.531267,-0.051066,0.076677,-264.497587,0.508795,62.500205
0.4584,0.008404,-0.021725,-0.051681,-0.008937,0.021467,0.05,-0.017925,-0.531262,-0.051201,0.076677,-264.497587,0.508795,62.500205
0.4786,0.008164,-0.02185,-0.053444,-0.009516,0.021262,0.05,-0.017941,-0.531044,-0.051681,0.001836,-264.497587,0.583637,62.500205
0.4989,0.008096,-0.021795,-0.051066,-0.00932,0.021382,0.05,-0.018587,-0.531088,-0.052681,0.001836,-264.497587,0.583637,62.500205
0.5184,0.008403,-0.021899,-0.051414,-0.009198,0.021353,0.05,-0.018587,-0.531088,-0.052681,0.001836,-264.497587,0.583637,62.500205
0.5384,0.008336,-0.021924,-0.05178,-0.009518,0.021438,0.05,-0.017806,-0.531225,-0.051414,-0.073158,-264.497588,0.65863,62.500205
0.5587,0.007984,-0.021875,-0.050339,-0.009459,0.021463,0.05,-0.017824,-0.531226,-0.051439,-0.073158,-264.497588,0.65863,62.500205
0.5787,0.007999,-0.02187,-0.051681,-0.009074,0.021445,0.05,-0.017679,-0.531229,-0.050339,-0.148151,-264.49759,0.733623,62.500204
0.5989,0.008177,-0.021754,-0.051729,-0.009118,0.021427,0.05,-0.018059,-0.531206,-0.051104,-0.148151,-264.49759,0.733623,62.500204
0.6185,0.008172,-0.021761,-0.050629,-0.009291,0.021302,0.05,-0.018059,-0.531206,-0.051104,-0.148151,-264.49759,0.733623,62.500204
0.6384,0.008169,-0.021697,-0.050609,-0.009263,0.02132,0.05,-0.017638,-0.531108,-0.050629,-0.223158,-264.497592,0.764646,62.500204
0.6585,0.00816,-0.021892,-0.049971,-0.009256,0.021256,0.05,-0.017637,-0.531104,-0.050627,-0.223158,-264.497592,0.764646,62.500204
0.6783,0.008145,-0.021581,-0.051892,-0.009244,0.021457,0.049971,-0.017314,-0.531255,-0.049971,-0.298157,-264.497594,0.782388,62.500203
0.6985,0.007707,-0.021751,-0.052491,-0.009253,0.021129,0.05,-0.017891,-0.531046,-0.051085,-0.298157,-264.497594,0.782388,62.500203
0.7184,0.008077,-0.021713,-0.053175,-0.008838,0.021317,0.05,-0.017891,-0.531046,-0.051085,-0.298157,-264.497594,0.782388,62.500203
0.7387,0.008256,-0.021898,-0.052102,-0.009219,0.021253,0.05,-0.01903,-0.530992,-0.053175,-0.373505,-264.497596,0.786775,62.500203
0.7587,0.008103,-0.021661,-0.053346,-0.009385,0.021438,0.05,-0.018979,-0.531007,-0.0531,-0.373505,-264.497596,0.786775,62.500203
0.7784,0.008079,-0.022195,-0.051877,-0.009246,0.021198,0.05,-0.019091,-0.530936,-0.053346,-0.448153,-264.497598,0.806588,62.500202
0.7988,0.00785,-0.021672,-0.051234,-0.009219,0.021746,0.05,-0.018677,-0.531263,-0.052507,-0.448153,-264.497598,0.806588,62.500202
0.8185,0.007864,-0.022153,-0.052748,-0.008949,0.021242,0.05,-0.018677,-0.531263,-0.052507,-0.448153,-264.497598,0.806588,62.500202
0.839,0.008313,-0.022051,-0.053621,-0.009021,0.021708,0.05,-0.019025,-0.531444,-0.052748,-0.523205,-264.4976,0.769921,62.500202
0.8588,0.0078,-0.021988,-0.052312,-0.009483,0.021573,0.05,-0.019025,-0.531435,-0.052808,-0.523205,-264.4976,0.769921,62.500202
0.8783,0.00843,-0.021922,-0.051404,-0.008939,0.02155,0.05,-0.018867,-0.53129,-0.052312,-0.598155,-264.497603,0.8044,62.500201
0.8988,0.008096,-0.021691,-0.051378,-0.009545,0.02146,0.05,-0.018245,-0.531267,-0.051795,-0.598155,-264.497603,0.8044,62.500201
0.919,0.008375,-0.021922,-0.052524,-0.009199,0.021247,0.05,-0.018245,-0.531267,-0.051795,-0.598155,-264.497603,0.8044,62.500201
0.9385,0.008192,-0.021817,-0.052149,-0.009514,0.021452,0.05,-0.0184,-0.531218,-0.052524,-0.673155,-264.497605,0.757287,62.500201
0.9593,0.008044,-0.021691,-0.051709,-0.009318,0.02136,0.05,-0.0184,-0.531212,-0.052497,-0.673155,-264.497605,0.757287,62.500201
0.9788,0.008048,-0.021694,-0.053196,-0.009155,0.021247,0.05,-0.018316,-0.531009,-0.051709,-0.748169,-264.497609,0.790333,62.5002
0.9987,0.008493,-0.022065,-0.053342,-0.00919,0.021236,0.05,-0.018736,-0.530989,-0.052538,-0.748169,-264.497609,0.790333,62.5002
1.0184,0.008217,-0.022034,-0.052072,-0.009657,0.021581,0.05,-0.018736,-0.530989,-0.052538,-0.748169,-264.497609,0.790333,62.5002
1.0386,0.008209,-0.021887,-0.05323,-0.009352,0.021576,0.05,-0.018329,-0.531342,-0.05207,-0.823177,-264.497627,0.777785,62.500195
1.0586,0.007908,-0.02174,-0.052638,-0.009362,0.021419,0.05,-0.018369,-0.53133,-0.052149,-0.823177,-264.497627,0.777785,62.500195
1.0785,0.008137,-0.021805,-0.053117,-0.00904,0.021294,0.05,-0.018929,-0.53103,-0.052631,-0.898171,-264.497724,0.747782,62.500171
1.0986,0.00823,-0.022122,-0.052669,-0.009284,0.021342,0.05,-0.018935,-0.531062,-0.052907,-0.898171,-264.497724,0.747782,62.500171
1.1184,0.00824,-0.022043,-0.051937,-0.009383,0.021658,0.05,-0.018935,-0.531062,-0.052907,-0.898171,-264.497724,0.747782,62.500171
1.1383,0.007953,-0.021902,-0.051918,-0.009373,0.021585,0.05,-0.018251,-0.53134,-0.051902,-0.97318,-264.498079,0.772226,62.500083
1.1588,0.008215,-0.021869,-0.05191,-0.009079,0.02146,0.05,-0.018269,-0.531331,-0.051902,-0.97318,-264.498079,0.772226,62.500083
1.1789,0.008076,-0.022078,-0.052723,-0.009338,0.021413,0.05,-0.018283,-0.531141,-0.051815,-1.048154,-264.499235,0.757812,62.499802
1.1985,0.007818,-0.021632,-0.052041,-0.009228,0.021622,0.05,-0.018582,-0.531266,-0.05232,-1.048154,-264.499235,0.757812,62.499802
1.2191,0.008122,-0.021687,-0.053229,-0.008933,0.021196,0.05,-0.018582,-0.531266,-0.05232,-1.048154,-264.499235,0.757812,62.499802
1.2385,0.007761,-0.021721,-0.050257,-0.009264,0.021225,0.05,-0.019109,-0.530834,-0.052927,-1.123166,-264.502071,0.785316,62.499112
1.2587,0.007776,-0.021585,-0.052635,-0.008842,0.021304,0.05,-0.019014,-0.53085,-0.052709,-1.123166,-264.502071,0.785316,62.499112
1.2783,0.007436,-0.021238,-0.05109,-0.008901,0.021146,0.05,-0.019188,-0.530685,-0.052159,-1.198432,-264.507394,0.80776,62.497632
1.2985,0.007417,-0.020976,-0.052251,-0.008511,0.02083,0.05,-0.018872,-0.530596,-0.051486,-1.198432,-264.507394,0.80776,62.497632
1.3185,0.007311,-0.021565,-0.051038,-0.008502,0.02056,0.05,-0.018872,-0.530596,-0.051486,-1.198432,-264.507394,0.80776,62.497632
1.3384,0.006747,-0.020616,-0.050242,-0.008401,0.021164,0.05,-0.01894,-0.530549,-0.050105,-1.27329,-264.515222,0.807043,62.495008
1.3586,0.006792,-0.020763,-0.04973,-0.007774,0.020251,0.05,-0.018941,-0.530501,-0.05009,-1.27329,-264.515222,0.807043,62.495008
1.3792,0.005769,-0.020532,-0.049347,-0.007816,0.0204,0.04973,-0.01877,-0.529774,-0.04871,-1.348244,-264.525539,0.865043,62.491266
1.3984,0.005702,-0.020555,-0.048584,-0.006775,0.020223,0.049347,-0.019148,-0.529807,-0.048943,-1.348244,-264.525539,0.865043,62.491266
1.4185,0.005653,-0.020595,-0.04769,-0.006693,0.020254,0.048584,-0.019148,-0.529807,-0.048943,-1.348244,-264.525539,0.865043,62.491266
1.4384,0.004322,-0.019843,-0.047264,-0.006628,0.020303,0.04769,-0.018917,-0.52945,-0.046069,-1.418906,-264.538383,0.92361,62.486753
1.4587,0.004725,-0.019454,-0.047697,-0.005255,0.019617,0.047264,-0.018984,-0.529423,-0.04611,-1.418906,-264.538383,0.92361,62.486753
1.4785,0.003116,-0.019072,-0.044842,-0.005647,0.019206,0.047697,-0.01979,-0.52831,-0.046208,-1.437526,-264.553711,0.952955,62.48222
1.4984,0.002872,-0.019395,-0.044697,-0.003968,0.018913,0.044842,-0.01979,-0.528382,-0.045235,-1.437526,-264.553711,0.952955,62.48222
1.5185,0.00306,-0.01884,-0.044986,-0.003736,0.019247,0.044697,-0.01979,-0.528382,-0.045235,-1.437526,-264.553711,0.952955,62.48222
1.5384,0.001865,-0.018322,-0.042707,-0.003904,0.018684,0.044986,-0.020059,-0.527512,-0.043062,-1.462835,-264.570091,1.027942,62.478647
1.5589,0.002272,-0.017974,-0.041962,-0.002645,0.018225,0.042707,-0.020054,-0.527515,-0.042986,-1.462835,-264.570091,1.027942,62.478647
1.5789,0.000937,-0.017047,-0.040964,-0.003024,0.017863,0.041962,-0.01922,-0.526911,-0.040555,-1.490708,-264.585366,1.102904,62.475743
1.599,0.000915,-0.017154,-0.04209,-0.001634,0.016994,0.040964,-0.019649,-0.526666,-0.040611,-1.490708,-264.585366,1.102904,62.475743
1.6186,0.001097,-0.017064,-0.04189,-0.001636,0.0171,0.04209,-0.019649,-0.526666,-0.040611,-1.490708,-264.585366,1.102904,62.475743
1.6384,0.000292,-0.016474,-0.039192,-0.001811,0.017004,0.04189,-0.020335,-0.525977,-0.040412,-1.511164,-264.598054,1.177929,62.473373
1.659,6.6e-05,-0.016407,-0.040129,-0.000937,0.01645,0.039192,-0.020294,-0.525967,-0.040291,-1.511164,-264.598054,1.177929,62.473373
1.6784,-0.000489,-0.016286,-0.039044,-0.000725,0.016391,0.040129,-0.020423,-0.52566,-0.039315,-1.532603,-264.606692,1.252889,62.471607
1.6985,-0.000569,-0.016735,-0.038893,-0.000147,0.016292,0.039044,-0.020411,-0.525753,-0.039057,-1.532603,-264.606692,1.252889,62.471607
1.7183,-0.000159,-0.016537,-0.038896,-8.2e-05,0.016744,0.038893,-0.020411,-0.525753,-0.039057,-1.532603,-264.606692,1.252889,62.471607
1.7392,-0.000827,-0.015613,-0.038629,-0.000484,0.01653,0.038896,-0.020011,-0.525712,-0.037861,-1.547593,-264.615511,1.327917,62.46996
1.7587,-0.001155,-0.015698,-0.037579,0.000223,0.015634,0.038629,-0.020049,-0.525665,-0.037889,-1.547593,-264.615511,1.327917,62.46996
1.7785,-0.001466,-0.015565,-0.03545,0.000565,0.01573,0.037579,-0.020316,-0.525066,-0.036952,-1.568781,-264.622294,1.402912,62.468786
1.7983,-0.001367,-0.01499,-0.037373,0.000913,0.015608,0.03545,-0.019871,-0.525135,-0.03601,-1.568781,-264.622294,1.402912,62.468786
1.8184,-0.001573,-0.015078,-0.037014,0.000806,0.015031,0.037373,-0.019871,-0.525135,-0.03601,-1.568781,-264.622294,1.402912,62.468786
1.8384,-0.001943,-0.014995,-0.036491,0.001014,0.015126,0.037014,-0.020437,-0.524319,-0.036003,-1.576494,-264.630726,1.477938,62.467074
1.8584,-0.00195,-0.014848,-0.036311,0.001395,0.015056,0.036491,-0.020444,-0.524331,-0.03601,-1.576494,-264.630726,1.477938,62.467074
1.8789,-0.002511,-0.014745,-0.033973,0.00141,0.014909,0.036311,-0.020447,-0.524201,-0.035535,-1.592084,-264.638864,1.552824,62.46539
1.8988,-0.002578,-0.014312,-0.035347,0.002009,0.014821,0.033973,-0.020096,-0.524303,-0.034546,-1.592084,-264.638864,1.552824,62.46539
1.9186,-0.002232,-0.014734,-0.034484,0.002071,0.014394,0.035347,-0.020096,-0.524303,-0.034546,-1.592084,-264.638864,1.552824,62.46539
1.9383,-0.00257,-0.0145,-0.035702,0.001723,0.014803,0.034484,-0.019815,-0.524431,-0.034484,-1.608129,-264.638866,1.477752,62.46539
1.9592,-0.002385,-0.014384,-0.034618,0.002051,0.014583,0.035702,-0.019878,-0.524414,-0.034563,-1.608129,-264.638866,1.477752,62.46539
1.9788,-0.002404,-0.014416,-0.036371,0.001885,0.014458,0.034618,-0.020036,-0.524078,-0.034618,-1.628286,-264.638867,1.40283,62.465391
1.9989,-0.002489,-0.01451,-0.036038,0.001878,0.014494,0.036371,-0.02056,-0.524079,-0.035623,-1.628286,-264.638867,1.40283,62.465391
2.0188,-0.002358,-0.014418,-0.035812,0.001965,0.01459,0.036038,-0.02056,-0.524079,-0.035623,-1.628286,-264.638867,1.40283,62.465391
2.0389,-0.002531,-0.014659,-0.033812,0.001841,0.014493,0.035812,-0.020619,-0.524091,-0.035812,-1.627095,-264.638869,1.327669,62.465391
2.0588,-0.001962,-0.014327,-0.03483,0.002034,0.014736,0.033812,-0.02056,-0.52411,-0.035673,-1.627095,-264.638869,1.327669,62.465391
2.0784,-0.002429,-0.014368,-0.034175,0.001462,0.014386,0.03483,-0.019722,-0.524017,-0.03483,-1.624426,-264.63887,1.252844,62.465391
2.0985,-0.002334,-0.014669,-0.032953,0.001937,0.014443,0.034175,-0.019798,-0.524047,-0.034458,-1.624426,-264.63887,1.252844,62.465391
2.1189,-0.002491,-0.014375,-0.034977,0.001849,0.014738,0.032953,-0.019798,-0.524047,-0.034458,-1.624426,-264.63887,1.252844,62.465391
2.1384,-0.002089,-0.014565,-0.035193,0.001986,0.014453,0.034977,-0.020325,-0.524063,-0.034977,-1.62822,-264.638872,1.177779,62.465391
2.1586,-0.002195,-0.014585,-0.035334,0.001575,0.014629,0.035193,-0.020305,-0.524075,-0.034991,-1.62822,-264.638872,1.177779,62.465391
2.1784,-0.002615,-0.014493,-0.036344,0.001678,0.014653,0.035334,-0.020211,-0.524266,-0.035334,-1.623785,-264.638873,1.102846,62.465392
2.1989,-0.002232,-0.014303,-0.035741,0.002086,0.014579,0.036344,-0.020743,-0.524204,-0.035908,-1.623785,-264.638873,1.102846,62.465392
2.2187,-0.002749,-0.01449,-0.033575,0.001719,0.014374,0.035741,-0.020743,-0.524204,-0.035908,-1.623785,-264.638873,1.102846,62.465392
2.2384,-0.002292,-0.014103,-0.033532,0.002261,0.014574,0.033575,-0.019869,-0.524202,-0.033575,-1.614365,-264.638874,1.027845,62.465392
2.2586,-0.002624,-0.014654,-0.0357,0.001818,0.014172,0.033532,-0.019838,-0.524177,-0.033572,-1.614365,-264.638874,1.027845,62.465392
2.2785,-0.002468,-0.014463,-0.035381,0.0021,0.014739,0.0357,-0.020828,-0.524329,-0.0357,-1.618253,-264.638876,0.952834,62.465392
2.2985,-0.002598,-0.014735,-0.035666,0.001954,0.014541,0.035381,-0.020646,-0.524224,-0.035519,-1.618253,-264.638876,0.952834,62.465392
2.3183,-0.002389,-0.014152,-0.036225,0.002071,0.014819,0.035666,-0.020646,-0.524224,-0.035519,-1.618253,-264.638876,0.952834,62.465392
2.3384,-0.002566,-0.014597,-0.034482,0.001875,0.014229,0.036225,-0.020859,-0.523817,-0.036225,-1.623219,-264.638877,0.87784,62.465393
2.3583,-0.002239,-0.014747,-0.033593,0.002061,0.014677,0.034482,-0.02081,-0.523851,-0.036103,-1.623219,-264.638877,0.87784,62.465393
2.3783,-0.002929,-0.014581,-0.035782,0.001742,0.014814,0.033593,-0.019368,-0.524459,-0.033593,-1.627309,-264.638879,0.802844,62.465393
2.3982,-0.002467,-0.014223,-0.035733,0.002405,0.014676,0.035782,-0.020403,-0.524342,-0.034848,-1.627309,-264.638879,0.802844,62.465393
2.4185,-0.002201,-0.01413,-0.036504,0.001958,0.014302,0.035733,-0.020403,-0.524342,-0.034848,-1.627309,-264.638879,0.802844,62.465393
2.4387,-0.00261,-0.014516,-0.036135,0.001683,0.014201,0.036504,-0.020814,-0.52379,-0.036504,-1.6284,-264.63888,0.727719,62.465393
2.4586,-0.00248,-0.014241,-0.0344,0.002084,0.014601,0.036135,-0.020829,-0.523817,-0.036479,-1.6284,-264.63888,0.727719,62.465393
2.4784,-0.00236,-0.014507,-0.034723,0.001989,0.014318,0.0344,-0.02002,-0.523939,-0.034399,-1.624935,-264.638882,0.652841,62.465393
2.4984,-0.0025,-0.014547,-0.036816,0.001855,0.01458,0.034723,-0.020046,-0.524087,-0.034584,-1.624935,-264.638882,0.652841,62.465393
2.5184,-0.002466,-0.014225,-0.034825,0.001963,0.014629,0.036816,-0.020046,-0.524087,-0.034584,-1.624935,-264.638882,0.652841,62.465393
2.5384,-0.002303,-0.014752,-0.033249,0.001969,0.014302,0.034825,-0.020223,-0.523915,-0.034825,-1.627567,-264.638883,0.577786,62.465394
2.5587,-0.002573,-0.014885,-0.034869,0.001811,0.01482,0.033249,-0.020155,-0.523954,-0.034714,-1.627567,-264.638883,0.577786,62.465394
2.5784,-0.002266,-0.014524,-0.036096,0.002052,0.014965,0.034869,-0.020352,-0.524575,-0.034869,-1.62364,-264.638885,0.502837,62.465394
2.5984,-0.00228,-0.014541,-0.035132,0.00174,0.014596,0.036096,-0.020532,-0.524359,-0.035561,-1.62364,-264.638885,0.502837,62.465394
2.619,-0.002551,-0.014352,-0.035151,0.001768,0.014612,0.035132,-0.020532,-0.524359,-0.035561,-1.62364,-264.638885,0.502837,62.465394
2.6384,-0.002561,-0.014604,-0.033058,0.002045,0.014432,0.035151,-0.020475,-0.524036,-0.035151,-1.622313,-264.638886,0.427788,62.465394
2.6585,-0.002324,-0.014364,-0.035238,0.002077,0.014681,0.033058,-0.020401,-0.524057,-0.035005,-1.622313,-264.638886,0.427788,62.465394
2.6784,-0.002244,-0.014289,-0.034693,0.001817,0.014437,0.035238,-0.020292,-0.524047,-0.035238,-1.619784,-264.638887,0.35284,62.465395
2.6983,-0.002304,-0.014448,-0.034512,0.001747,0.014358,0.034693,-0.020086,-0.52401,-0.034925,-1.619784,-264.638887,0.35284,62.465395
2.7183,-0.002564,-0.014276,-0.034162,0.001804,0.014519,0.034512,-0.020086,-0.52401,-0.034925,-1.619784,-264.638887,0.35284,62.465395
2.7384,-0.002518,-0.014579,-0.034882,0.002075,0.014355,0.034162,-0.019983,-0.523978,-0.034162,-1.630277,-264.638889,0.277706,62.465395
2.7583,-0.002752,-0.01438,-0.03439,0.002008,0.014658,0.034882,-0.020006,-0.523998,-0.034213,-1.630277,-264.638889,0.277706,62.465395
2.7786,-0.001941,-0.014503,-0.036491,0.002256,0.014466,0.03439,-0.020288,-0.524078,-0.03439,-1.621432,-264.63889,0.202826,62.465395
2.7985,-0.002247,-0.014399,-0.03464,0.00141,0.014564,0.036491,-0.020436,-0.524127,-0.03559,-1.621432,-264.63889,0.202826,62.465395
2.8185,-0.002334,-0.014565,-0.034363,0.001747,0.014468,0.03464,-0.020436,-0.524127,-0.03559,-1.621432,-264.63889,0.202826,62.465395
2.8386,-0.002123,-0.014294,-0.033667,0.001832,0.014637,0.034363,-0.019855,-0.524264,-0.034363,-1.626575,-264.638892,0.127729,62.465395
2.8588,-0.002277,-0.014012,-0.034615,0.001641,0.014358,0.033667,-0.019814,-0.524245,-0.034312,-1.626575,-264.638892,0.127729,62.465395
2.8784,-0.002276,-0.014405,-0.034555,0.001791,0.014083,0.034615,-0.019927,-0.523707,-0.034615,-1.619801,-264.638893,0.052732,62.465396
2.8987,-0.002333,-0.014457,-0.036118,0.001777,0.014475,0.034555,-0.019909,-0.523934,-0.03458,-1.619801,-264.638893,0.052732,62.465396
2.9188,-0.002292,-0.014061,-0.03509,0.001809,0.014532,0.036118,-0.019909,-0.523934,-0.03458,-1.619801,-264.638893,0.052732,62.465396
2.9387,-0.002533,-0.014415,-0.035297,0.001797,0.014133,0.03509,-0.020184,-0.523747,-0.03509,-1.617742,-264.638895,-0.022459,62.465396
2.9589,-0.002209,-0.014261,-0.035729,0.002023,0.014495,0.035297,-0.020213,-0.523776,-0.035107,-1.617742,-264.638895,-0.022459,62.465396
2.9787,-0.002569,-0.014326,-0.034252,0.001698,0.014331,0.035729,-0.020427,-0.523936,-0.035729,-1.620203,-264.638896,-0.097613,62.465396
2.999,-0.00238,-0.014528,-0.036818,0.002077,0.014406,0.034252,-0.020204,-0.523987,-0.034892,-1.620203,-264.638896,-0.097613,62.465396
3.0185,-0.001897,-0.014801,-0.034793,0.001843,0.014605,0.036818,-0.020204,-0.523987,-0.034892,-1.620203,-264.638896,-0.097613,62.465396
3.0385,-0.002594,-0.014256,-0.034068,0.001381,0.014858,0.034793,-0.019638,-0.524493,-0.034793,-1.62684,-264.638897,-0.172414,62.465396
3.0584,-0.002318,-0.014656,-0.03611,0.002107,0.014336,0.034068,-0.019659,-0.524459,-0.034748,-1.62684,-264.638897,-0.172414,62.465396
3.0783,-0.002604,-0.014394,-0.034663,0.001788,0.01473,0.03611,-0.02073,-0.524324,-0.03611,-1.620448,-264.638899,-0.247166,62.465397
3.0987,-0.002473,-0.014416,-0.035169,0.002103,0.014476,0.034663,-0.020472,-0.524189,-0.035282,-1.620448,-264.638899,-0.247166,62.465397
3.1187,-0.002286,-0.014666,-0.035119,0.001964,0.014494,0.035169,-0.020472,-0.524189,-0.035282,-1.620448,-264.638899,-0.247166,62.465397
3.1386,-0.002456,-0.014633,-0.035397,0.001769,0.014737,0.035119,-0.020193,-0.524352,-0.035119,-1.630677,-264.6389,-0.322295,62.465397
3.1588,-0.002529,-0.014548,-0.034789,0.001937,0.014711,0.035397,-0.020221,-0.524348,-0.035144,-1.630677,-264.6389,-0.322295,62.465397
3.1784,-0.00242,-0.014482,-0.035391,0.002022,0.014627,0.034789,-0.020268,-0.524239,-0.034789,-1.625341,-264.638902,-0.397931,62.465397
3.1985,-0.002643,-0.014873,-0.033695,0.001906,0.014558,0.035391,-0.020381,-0.524195,-0.035132,-1.625341,-264.638902,-0.397931,62.465397
3.2187,-0.002379,-0.014821,-0.034065,0.002141,0.014953,0.033695,-0.020381,-0.524195,-0.035132,-1.625341,-264.638902,-0.397931,62.465397
3.2389,-0.002456,-0.014203,-0.034096,0.001873,0.014893,0.034065,-0.019749,-0.524525,-0.034065,-1.624057,-264.638903,-0.472148,62.465398
3.2592,-0.002307,-0.014356,-0.035109,0.00197,0.014279,0.034096,-0.019755,-0.524483,-0.034067,-1.624057,-264.638903,-0.472148,62.465398
3.2782,-0.002409,-0.014313,-0.034732,0.001802,0.014428,0.035109,-0.020209,-0.524042,-0.035108,-1.630976,-264.638906,-0.547182,62.465398
3.2989,-0.002171,-0.014738,-0.035329,0.001911,0.014388,0.034732,-0.020158,-0.524021,-0.034896,-1.630976,-264.638906,-0.547182,62.465398
3.3184,-0.002607,-0.014396,-0.035308,0.001649,0.014805,0.035329,-0.020158,-0.524021,-0.034896,-1.630976,-264.638906,-0.547182,62.465398
3.3384,-0.002726,-0.014332,-0.034585,0.002097,0.01448,0.035308,-0.02061,-0.524078,-0.035308,-1.626871,-264.638908,-0.622303,62.465399
3.3589,-0.002451,-0.014316,-0.034274,0.002228,0.014418,0.034585,-0.020593,-0.524075,-0.035257,-1.626871,-264.638908,-0.622303,62.465399
3.3795,-0.002645,-0.014368,-0.033553,0.001959,0.014392,0.034274,-0.019927,-0.524016,-0.034274,-1.616095,-264.638912,-0.697186,62.465399
3.3984,-0.002635,-0.01452,-0.035306,0.002162,0.014449,0.033553,-0.019829,-0.524053,-0.033864,-1.616095,-264.638912,-0.697186,62.465399
3.4188,-0.002116,-0.014571,-0.035001,0.00212,0.014604,0.035306,-0.019829,-0.524053,-0.033864,-1.616095,-264.638912,-0.697186,62.465399
3.4386,-0.00276,-0.014285,-0.035619,0.001605,0.014636,0.035001,-0.019962,-0.524254,-0.034992,-1.633412,-264.638994,-0.772336,62.465416
3.4583,-0.002537,-0.014265,-0.034724,0.002249,0.014374,0.035619,-0.020024,-0.524235,-0.035033,-1.633412,-264.638994,-0.772336,62.465416
3.4785,-0.002174,-0.014496,-0.035239,0.002041,0.014344,0.034724,-0.020241,-0.523949,-0.034705,-1.629357,-264.639207,-0.847158,62.465458
3.4984,-0.002471,-0.014316,-0.033257,0.001662,0.014563,0.035239,-0.020185,-0.524079,-0.035006,-1.629357,-264.639207,-0.847158,62.465458
3.5184,-0.002704,-0.014315,-0.033976,0.001993,0.01439,0.033257,-0.020185,-0.524079,-0.035006,-1.629357,-264.639207,-0.847158,62.465458
3.5386,-0.002323,-0.014342,-0.035168,0.002216,0.014398,0.033976,-0.020019,-0.523985,-0.033894,-1.632975,-264.639912,-0.922272,62.465609
3.5584,-0.002471,-0.01427,-0.034788,0.001817,0.014415,0.035168,-0.020036,-0.523987,-0.033985,-1.632975,-264.639912,-0.922272,62.465609
3.5784,-0.00242,-0.014191,-0.034569,0.001973,0.014347,0.034788,-0.020187,-0.52386,-0.034559,-1.628172,-264.642432,-0.997274,62.466061
3.5984,-0.00262,-0.014379,-0.035419,0.001928,0.014267,0.034569,-0.020103,-0.523862,-0.034536,-1.628172,-264.642432,-0.997274,62.466061
3.6185,-0.002656,-0.014373,-0.033849,0.002109,0.014463,0.035419,-0.020103,-0.523862,-0.034536,-1.628172,-264.642432,-0.997274,62.466061
3.6384,-0.002718,-0.014164,-0.034734,0.002168,0.014455,0.033849,-0.019888,-0.52395,-0.033538,-1.62138,-264.645092,-1.072331,62.466601
3.6588,-0.002712,-0.014105,-0.033278,0.002225,0.01425,0.034734,-0.019925,-0.523939,-0.033615,-1.62138,-264.645092,-1.072331,62.466601
3.6786,-0.002822,-0.013961,-0.033311,0.002242,0.014188,0.033278,-0.019632,-0.52364,-0.032768,-1.629167,-264.650249,-1.147276,62.468044
3.6984,-0.003198,-0.01376,-0.033918,0.002356,0.014048,0.033311,-0.019727,-0.523639,-0.033015,-1.629167,-264.650249,-1.147276,62.468044
3.7185,-0.002913,-0.013664,-0.034597,0.002729,0.01386,0.033918,-0.019727,-0.523639,-0.033015,-1.629167,-264.650249,-1.147276,62.468044
3.7384,-0.003691,-0.013419,-0.031846,0.002439,0.013757,0.034597,-0.020465,-0.523034,-0.033616,-1.633451,-264.657908,-1.222274,62.470415
3.7589,-0.003516,-0.013497,-0.033227,0.003262,0.01353,0.031846,-0.020423,-0.523034,-0.033461,-1.633451,-264.657908,-1.222274,62.470415
3.7785,-0.003862,-0.01305,-0.030933,0.003066,0.013606,0.033227,-0.020357,-0.522859,-0.032213,-1.649563,-264.668066,-1.191942,62.473311
3.7986,-0.004304,-0.013233,-0.030548,0.003457,0.013163,0.030933,-0.019933,-0.522784,-0.031355,-1.649563,-264.668066,-1.191942,62.473311
3.8187,-0.004265,-0.013083,-0.032214,0.003897,0.013358,0.030548,-0.019933,-0.522784,-0.031355,-1.649563,-264.668066,-1.191942,62.473311
3.8383,-0.00458,-0.012443,-0.031372,0.003841,0.013213,0.032214,-0.020558,-0.522316,-0.031011,-1.669395,-264.678314,-1.116918,62.475402
3.8584,-0.004491,-0.01254,-0.029167,0.004188,0.012581,0.031372,-0.020556,-0.522295,-0.031004,-1.669395,-264.678314,-1.116918,62.475402
3.8783,-0.00442,-0.012147,-0.029638,0.004123,0.012666,0.029167,-0.019273,-0.522026,-0.028465,-1.691937,-264.685907,-1.042027,62.47695
3.8985,-0.00456,-0.011976,-0.028605,0.004058,0.012272,0.029638,-0.01941,-0.52193,-0.029047,-1.691937,-264.685907,-1.042027,62.47695
3.9186,-0.004595,-0.012126,-0.029904,0.004216,0.012101,0.028605,-0.01941,-0.52193,-0.029047,-1.691937,-264.685907,-1.042027,62.47695
3.9386,-0.005432,-0.012087,-0.028231,0.004231,0.012258,0.029904,-0.019651,-0.52145,-0.028649,-1.701969,-264.695984,-1.004032,62.479991
3.9583,-0.005391,-0.011648,-0.027461,0.005088,0.012236,0.028231,-0.019657,-0.521465,-0.028596,-1.701969,-264.695984,-1.004032,62.479991
3.9783,-0.005759,-0.011239,-0.026977,0.005069,0.011792,0.027461,-0.019247,-0.521062,-0.026515,-1.712395,-264.706232,-0.929127,62.482333
3.9984,-0.005542,-0.010842,-0.026287,0.005454,0.01139,0.026977,-0.019385,-0.521007,-0.026665,-1.712395,-264.706232,-0.929127,62.482333
4.0183,-0.00561,-0.01096,-0.025614,0.005255,0.010984,0.026287,-0.019385,-0.521007,-0.026665,-1.712395,-264.706232,-0.929127,62.482333
4.0385,-0.006437,-0.010754,-0.025037,0.005328,0.0111,0.025614,-0.018501,-0.520401,-0.024674,-1.74173,-264.714344,-0.853747,62.484268
4.0591,-0.005915,-0.010797,-0.027018,0.006166,0.010912,0.025037,-0.018547,-0.520404,-0.024674,-1.74173,-264.714344,-0.853747,62.484268
4.0791,-0.006093,-0.010566,-0.02624,0.005621,0.010953,0.027018,-0.019693,-0.520611,-0.027018,-1.667053,-264.714343,-0.77907,62.484269
4.0989,-0.006194,-0.010848,-0.02567,0.005813,0.010722,0.02624,-0.019567,-0.520484,-0.026572,-1.667053,-264.714343,-0.77907,62.484269
4.1193,-0.006123,-0.010542,-0.025967,0.005913,0.011003,0.02567,-0.019567,-0.520484,-0.026572,-1.667053,-264.714343,-0.77907,62.484269
4.1383,-0.005878,-0.010733,-0.024711,0.005847,0.010698,0.025967,-0.019364,-0.520371,-0.025967,-1.591783,-264.714342,-0.7038,62.484269
4.1584,-0.00617,-0.010972,-0.025436,0.005611,0.010875,0.024711,-0.019294,-0.520387,-0.025867,-1.591783,-264.714342,-0.7038,62.484269
4.1784,-0.006103,-0.010701,-0.026145,0.005889,0.011125,0.025436,-0.019141,-0.520807,-0.025436,-1.516694,-264.714341,-0.668922,62.484269
4.1988,-0.006253,-0.010607,-0.025379,0.005821,0.010857,0.026145,-0.019309,-0.520648,-0.025839,-1.516694,-264.714341,-0.668922,62.484269
4.219,-0.006233,-0.010856,-0.026738,0.005981,0.010762,0.025379,-0.019309,-0.520648,-0.025839,-1.516694,-264.714341,-0.668922,62.484269
4.2387,-0.005998,-0.010381,-0.026271,0.005941,0.011019,0.026738,-0.019868,-0.520674,-0.026738,-1.442117,-264.71434,-0.644527,62.484269
4.2588,-0.005688,-0.010807,-0.025325,0.005723,0.010535,0.026271,-0.019837,-0.520643,-0.026708,-1.442117,-264.71434,-0.644527,62.484269
4.2783,-0.006135,-0.011001,-0.025093,0.005412,0.010947,0.025325,-0.018602,-0.520643,-0.025325,-1.367109,-264.714339,-0.669942,62.48427
4.2985,-0.005957,-0.010337,-0.02725,0.005857,0.011152,0.025093,-0.018789,-0.520756,-0.025193,-1.367109,-264.714339,-0.669942,62.48427
4.3184,-0.006262,-0.010749,-0.025341,0.005674,0.010496,0.02725,-0.018789,-0.520756,-0.025193,-1.367109,-264.714339,-0.669942,62.48427
4.3384,-0.006117,-0.010845,-0.024994,0.005988,0.010904,0.025341,-0.019185,-0.520585,-0.025341,-1.292126,-264.714338,-0.744925,62.48427
4.3583,-0.006253,-0.01077,-0.02482,0.005844,0.010994,0.024994,-0.019162,-0.520592,-0.025317,-1.292126,-264.714338,-0.744925,62.48427
4.3786,-0.006093,-0.010895,-0.02694,0.005983,0.010921,0.02482,-0.018909,-0.520612,-0.02482,-1.217125,-264.714337,-0.819926,62.48427
4.3984,-0.006008,-0.010523,-0.025934,0.005797,0.011056,0.02694,-0.019432,-0.520668,-0.026023,-1.217125,-264.714337,-0.819926,62.48427
4.4183,-0.006132,-0.010378,-0.025211,0.005733,0.010675,0.025934,-0.019432,-0.520668,-0.026023,-1.217125,-264.714337,-0.819926,62.48427
4.4384,-0.005726,-0.010824,-0.025386,0.005869,0.010529,0.025211,-0.018988,-0.520216,-0.025211,-1.14212,-264.714337,-0.744921,62.48427
4.4589,-0.006153,-0.010627,-0.026241,0.005449,0.010966,0.025386,-0.018964,-0.52025,-0.025225,-1.14212,-264.714337,-0.744921,62.48427
4.4786,-0.005809,-0.010864,-0.026366,0.005872,0.010785,0.026241,-0.019535,-0.520452,-0.026241,-1.066733,-264.714336,-0.733196,62.484271
4.4984,-0.005998,-0.010605,-0.025089,0.00552,0.011013,0.026366,-0.019374,-0.520586,-0.026312,-1.066733,-264.714336,-0.733196,62.484271
4.5185,-0.006174,-0.010501,-0.025782,0.00573,0.010752,0.025089,-0.019374,-0.520586,-0.026312,-1.066733,-264.714336,-0.733196,62.484271
4.5388,-0.00552,-0.010876,-0.026142,0.005902,0.010656,0.025782,-0.019322,-0.520331,-0.025782,-0.992022,-264.714335,-0.694513,62.484271
4.5589,-0.006001,-0.010302,-0.025449,0.005234,0.011017,0.026142,-0.019291,-0.520355,-0.025805,-0.992022,-264.714335,-0.694513,62.484271
4.5789,-0.006353,-0.010393,-0.025411,0.005737,0.010451,0.025449,-0.018978,-0.520137,-0.025449,-0.917125,-264.714333,-0.673331,62.484271
4.5985,-0.005685,-0.010257,-0.024085,0.006087,0.010551,0.025411,-0.019169,-0.520189,-0.025427,-0.917125,-264.714333,-0.673331,62.484271
4.6191,-0.005866,-0.010535,-0.028255,0.005436,0.010391,0.024085,-0.019169,-0.520189,-0.025427,-0.917125,-264.714333,-0.673331,62.484271
4.6385,-0.006028,-0.010845,-0.0261,0.005566,0.010697,0.028255,-0.020274,-0.520332,-0.028255,-0.842062,-264.714333,-0.748394,62.484272
4.6592,-0.006222,-0.01066,-0.025651,0.005743,0.010999,0.0261,-0.020208,-0.520356,-0.028103,-0.842062,-264.714333,-0.748394,62.484272
4.6784,-0.005907,-0.01047,-0.025398,0.005946,0.010817,0.025651,-0.019302,-0.520493,-0.025651,-0.76712,-264.714332,-0.673453,62.484272
4.6983,-0.006071,-0.010378,-0.025983,0.00564,0.010617,0.025398,-0.019052,-0.520387,-0.025508,-0.76712,-264.714332,-0.673453,62.484272
4.7184,-0.005908,-0.010841,-0.02574,0.005799,0.010532,0.025983,-0.019052,-0.520387,-0.025508,-0.76712,-264.714332,-0.673453,62.484272
4.7384,-0.006158,-0.010642,-0.025728,0.005627,0.010989,0.02574,-0.019034,-0.520672,-0.02574,-0.692124,-264.714331,-0.710536,62.484272
4.7584,-0.005823,-0.01111,-0.025581,0.005882,0.010797,0.025728,-0.01905,-0.520659,-0.025739,-0.692124,-264.714331,-0.710536,62.484272
4.7784,-0.006121,-0.010629,-0.024814,0.005537,0.011255,0.025581,-0.018868,-0.520943,-0.025581,-0.61712,-264.714329,-0.743968,62.484272
4.7984,-0.006163,-0.010997,-0.026414,0.005855,0.010778,0.024814,-0.018815,-0.520674,-0.025143,-0.61712,-264.714329,-0.743968,62.484272
4.8193,-0.006129,-0.010458,-0.024472,0.00587,0.011156,0.026414,-0.018815,-0.520674,-0.025143,-0.61712,-264.714329,-0.743968,62.484272
4.8383,-0.00606,-0.01078,-0.025535,0.005871,0.010605,0.024472,-0.018608,-0.520305,-0.024472,-0.542072,-264.714328,-0.696217,62.484273
4.8587,-0.005972,-0.010649,-0.024645,0.005782,0.010931,0.025535,-0.018641,-0.520327,-0.024547,-0.542072,-264.714328,-0.696217,62.484273
4.8783,-0.005835,-0.010728,-0.025226,0.005708,0.010793,0.024645,-0.01854,-0.520494,-0.024645,-0.467124,-264.714327,-0.703194,62.484273
4.8983,-0.005767,-0.010542,-0.025724,0.005562,0.010871,0.025226,-0.01863,-0.520535,-0.024976,-0.467124,-264.714327,-0.703194,62.484273
4.9183,-0.006255,-0.010739,-0.026624,0.005494,0.010687,0.025724,-0.01863,-0.520535,-0.024976,-0.467124,-264.714327,-0.703194,62.484273
4.939,-0.005791,-0.010656,-0.025537,0.005967,0.010901,0.026624,-0.019831,-0.520558,-0.026624,-0.392127,-264.714326,-0.6788,62.484273
4.9584,-0.006319,-0.010559,-0.026341,0.005517,0.010801,0.025537,-0.01976,-0.520553,-0.026548,-0.392127,-264.714326,-0.6788,62.484273
4.9788,-0.005933,-0.010798,-0.025188,0.006038,0.010722,0.026341,-0.019751,-0.520382,-0.026341,-0.317078,-264.714325,-0.740723,62.484274
4.9984,-0.005965,-0.010665,-0.026307,0.005659,0.010944,0.025188,-0.019196,-0.520527,-0.025683,-0.317078,-264.714325,-0.740723,62.484274
5.0187,-0.005809,-0.010852,-0.02591,0.005682,0.010818,0.026307,-0.019196,-0.520527,-0.025683,-0.317078,-264.714325,-0.740723,62.484274
5.0387,-0.006036,-0.010384,-0.025915,0.005526,0.010999,0.02591,-0.019021,-0.520681,-0.02591,-0.241997,-264.714324,-0.715584,62.484274
5.0584,-0.00589,-0.010776,-0.025709,0.005765,0.010537,0.025915,-0.019036,-0.520652,-0.02591,-0.241997,-264.714324,-0.715584,62.484274
5.0785,-0.006084,-0.01082,-0.025215,0.005611,0.010924,0.025709,-0.019001,-0.520608,-0.025709,-0.167111,-264.714323,-0.745851,62.484274
5.0986,-0.005612,-0.010876,-0.027557,0.005809,0.01097,0.025215,-0.018967,-0.520637,-0.025423,-0.167111,-264.714323,-0.745851,62.484274
5.1184,-0.006242,-0.010696,-0.026387,0.00531,0.011026,0.027557,-0.018967,-0.520637,-0.025423,-0.167111,-264.714323,-0.745851,62.484274
5.1385,-0.006005,-0.01038,-0.025886,0.005957,0.010857,0.026387,-0.019697,-0.520518,-0.026387,-0.091766,-264.714322,-0.742448,62.484275
5.1588,-0.005982,-0.010466,-0.026831,0.005734,0.010532,0.025886,-0.019664,-0.520497,-0.026353,-0.091766,-264.714322,-0.742448,62.484275
5.1785,-0.006171,-0.011272,-0.025973,0.005699,0.010622,0.026831,-0.019664,-0.520282,-0.026831,-0.017132,-264.714321,-0.817083,62.484275
5.1984,-0.005903,-0.010634,-0.025838,0.005877,0.011429,0.025973,-0.019524,-0.520745,-0.026345,-0.017132,-264.714321,-0.817083,62.484275
5.2185,-0.006316,-0.010801,-0.024498,0.005627,0.010783,0.025838,-0.019524,-0.520745,-0.026345,-0.017132,-264.714321,-0.817083,62.484275
5.2383,-0.00587,-0.010364,-0.026475,0.00605,0.010953,0.024498,-0.018809,-0.520648,-0.024498,0.057865,-264.71432,-0.744001,62.484275
5.2583,-0.006063,-0.010612,-0.027344,0.005594,0.010516,0.026475,-0.018849,-0.520616,-0.024637,0.057865,-264.71432,-0.744001,62.484275
5.2783,-0.005894,-0.010918,-0.02579,0.00577,0.010774,0.027344,-0.020006,-0.520421,-0.027344,0.132983,-264.714319,-0.726235,62.484275
5.2984,-0.00582,-0.010631,-0.025377,0.005611,0.011066,0.02579,-0.019455,-0.520609,-0.026452,0.132983,-264.714319,-0.726235,62.484275
5.3185,-0.006113,-0.010751,-0.026051,0.005548,0.010776,0.025377,-0.019455,-0.520609,-0.026452,0.132983,-264.714319,-0.726235,62.484275
5.3383,-0.005922,-0.011409,-0.026047,0.005831,0.010906,0.026051,-0.019397,-0.520577,-0.026051,0.208016,-264.714318,-0.790712,62.484276
5.3586,-0.00616,-0.010388,-0.02705,0.005623,0.011559,0.026047,-0.01938,-0.520635,-0.026051,0.208016,-264.714318,-0.790712,62.484276
5.3789,-0.006333,-0.010985,-0.026886,0.005877,0.010551,0.02705,-0.019953,-0.520202,-0.02705,0.283419,-264.714317,-0.715308,62.484276
5.3984,-0.005874,-0.010751,-0.026628,0.006035,0.011151,0.026886,-0.020004,-0.520541,-0.026957,0.283419,-264.714317,-0.715308,62.484276
5.4184,-0.005867,-0.010828,-0.027118,0.005586,0.010904,0.026628,-0.020004,-0.520541,-0.026957,0.283419,-264.714317,-0.715308,62.484276
5.4386,-0.006021,-0.011058,-0.024162,0.005571,0.010983,0.027118,-0.019695,-0.52064,-0.027118,0.357832,-264.714316,-0.658303,62.484276
5.4583,-0.006365,-0.010595,-0.026599,0.005752,0.0112,0.024162,-0.019595,-0.52066,-0.0269,0.357832,-264.714316,-0.658303,62.484276
5.4787,-0.005921,-0.01095,-0.026542,0.006081,0.010761,0.026599,-0.019929,-0.520415,-0.026599,0.432991,-264.714315,-0.733462,62.484276
5.4987,-0.005992,-0.010864,-0.024975,0.005628,0.011103,0.026542,-0.019658,-0.520619,-0.026566,0.432991,-264.714315,-0.733462,62.484276
5.5189,-0.005711,-0.010602,-0.02422,0.005719,0.01101,0.024975,-0.019658,-0.520619,-0.026566,0.432991,-264.714315,-0.733462,62.484276
5.5383,-0.005833,-0.010915,-0.026288,0.005453,0.010738,0.02422,-0.018062,-0.520453,-0.02422,0.507997,-264.714314,-0.658456,62.484277
5.5586,-0.006077,-0.010885,-0.026243,0.005544,0.011065,0.026288,-0.018138,-0.520471,-0.024354,0.507997,-264.714314,-0.658456,62.484277
5.5785,-0.005922,-0.010779,-0.024593,0.005789,0.011041,0.026243,-0.019459,-0.52071,-0.026242,0.582863,-264.714313,-0.638377,62.484277
5.5986,-0.005849,-0.011166,-0.026524,0.005656,0.010922,0.024593,-0.018889,-0.520661,-0.025297,0.582863,-264.714313,-0.638377,62.484277
5.6186,-0.006111,-0.010649,-0.023475,0.005551,0.011317,0.026524,-0.018889,-0.520661,-0.025297,0.582863,-264.714313,-0.638377,62.484277
5.6383,-0.005799,-0.01071,-0.025537,0.005859,0.010789,0.023475,-0.018082,-0.520508,-0.023475,0.65799,-264.714312,-0.713504,62.484277
5.6584,-0.00633,-0.010812,-0.025396,0.005523,0.010854,0.025537,-0.018133,-0.520511,-0.023619,0.65799,-264.714312,-0.713504,62.484277
5.6784,-0.005915,-0.010784,-0.025212,0.006054,0.010969,0.025396,-0.019281,-0.520647,-0.025395,0.732996,-264.71431,-0.721434,62.484278
5.6986,-0.005891,-0.010581,-0.025111,0.005641,0.010929,0.025212,-0.018989,-0.520632,-0.02529,0.732996,-264.71431,-0.721434,62.484278
5.719,-0.005973,-0.010471,-0.025423,0.005624,0.010725,0.025111,-0.018989,-0.520632,-0.02529,0.732996,-264.71431,-0.721434,62.484278
5.7383,-0.006371,-0.010671,-0.026458,0.005705,0.01062,0.025423,-0.018937,-0.520306,-0.025422,0.808008,-264.714297,-0.709447,62.484281
5.7586,-0.005794,-0.010637,-0.025455,0.006087,0.010836,0.026458,-0.019002,-0.520319,-0.025496,0.808008,-264.714297,-0.709447,62.484281
5.7788,-0.006199,-0.010692,-0.024881,0.005521,0.010781,0.025455,-0.018772,-0.52047,-0.025451,0.882967,-264.714233,-0.686792,62.484299
5.7987,-0.006681,-0.010613,-0.025946,0.005931,0.010843,0.024881,-0.018838,-0.520506,-0.025122,0.882967,-264.714233,-0.686792,62.484299
5.8186,-0.006114,-0.01025,-0.025652,0.006403,0.010783,0.025946,-0.018838,-0.520506,-0.025122,0.882967,-264.714233,-0.686792,62.484299
5.8386,-0.005768,-0.010284,-0.025328,0.005849,0.010404,0.025652,-0.01918,-0.520072,-0.025623,0.958034,-264.713938,-0.718551,62.484385
5.8584,-0.005875,-0.011145,-0.025151,0.005506,0.010427,0.025328,-0.019148,-0.520074,-0.025603,0.958034,-264.713938,-0.718551,62.484385
5.8785,-0.00591,-0.010673,-0.02557,0.005593,0.01129,0.025151,-0.018663,-0.520951,-0.025066,1.032879,-264.712905,-0.669119,62.484693
5.8982,-0.005846,-0.011055,-0.025699,0.005635,0.010821,0.02557,-0.018823,-0.520691,-0.025346,1.032879,-264.712905,-0.669119,62.484693
5.9182,-0.006126,-0.010625,-0.025738,0.00556,0.011201,0.025699,-0.018823,-0.520691,-0.025346,1.032879,-264.712905,-0.669119,62.484693
5.9389,-0.006022,-0.010443,-0.024285,0.005851,0.010779,0.025738,-0.019183,-0.520386,-0.025557,1.108262,-264.711227,-0.741477,62.485166
5.9588,-0.005915,-0.010491,-0.025704,0.005767,0.010586,0.024285,-0.019117,-0.520376,-0.025448,1.108262,-264.711227,-0.741477,62.485166
5.9784,-0.00615,-0.010424,-0.025962,0.005643,0.010639,0.025704,-0.018922,-0.520197,-0.025405,1.183251,-264.70774,-0.679797,62.486074
5.9988,-0.006241,-0.009756,-0.024382,0.005878,0.01058,0.025962,-0.019177,-0.520212,-0.025686,1.183251,-264.70774,-0.679797,62.486074
6.0189,-0.006193,-0.010534,-0.025466,0.006001,0.009905,0.024382,-0.019177,-0.520212,-0.025686,1.183251,-264.70774,-0.679797,62.486074
6.0384,-0.006333,-0.009926,-0.02534,0.005923,0.010688,0.025466,-0.018973,-0.520092,-0.024792,1.258013,-264.701748,-0.634667,62.487869
6.0587,-0.006369,-0.009878,-0.025735,0.00608,0.010084,0.02534,-0.018986,-0.520062,-0.024812,1.258013,-264.701748,-0.634667,62.487869
6.0783,-0.006369,-0.009426,-0.025257,0.006113,0.010039,0.025735,-0.019289,-0.5194,-0.024948,1.333019,-264.693261,-0.69324,62.490565
6.0985,-0.006378,-0.009356,-0.02362,0.006129,0.009584,0.025257,-0.01924,-0.519282,-0.025025,1.333019,-264.693261,-0.69324,62.490565
6.1187,-0.006488,-0.009504,-0.023493,0.006155,0.009504,0.02362,-0.01924,-0.519282,-0.025025,1.333019,-264.693261,-0.69324,62.490565
6.1383,-0.006947,-0.009878,-0.02194,0.006263,0.009654,0.023493,-0.018168,-0.518889,-0.022283,1.337274,-264.68294,-0.7256,62.493757
6.1584,-0.007178,-0.009622,-0.023071,0.006729,0.010028,0.02194,-0.018158,-0.518935,-0.022228,1.337274,-264.68294,-0.7256,62.493757
6.1783,-0.007412,-0.008882,-0.019961,0.006954,0.009785,0.023071,-0.018708,-0.519141,-0.0222,1.319022,-264.673475,-0.674513,62.496776
6.1987,-0.007207,-0.008193,-0.021155,0.007233,0.009029,0.019961,-0.018032,-0.518889,-0.020794,1.319022,-264.673475,-0.674513,62.496776
6.2185,-0.006969,-0.008946,-0.021536,0.007032,0.008344,0.021155,-0.018032,-0.518889,-0.020794,1.319022,-264.673475,-0.674513,62.496776
6.2389,-0.007545,-0.008682,-0.020408,0.006775,0.009094,0.021536,-0.017795,-0.518605,-0.021003,1.291106,-264.668765,-0.599197,62.498231
6.2594,-0.007319,-0.008217,-0.022058,0.007367,0.008835,0.020408,-0.017801,-0.518598,-0.020952,1.291106,-264.668765,-0.599197,62.498231
6.2794,-0.007714,-0.00818,-0.01855,0.007136,0.008377,0.022058,-0.018321,-0.517853,-0.021375,1.251422,-264.661547,-0.576938,62.501477
6.2989,-0.007625,-0.007917,-0.019866,0.007561,0.008321,0.01855,-0.01764,-0.517958,-0.019689,1.251422,-264.661547,-0.576938,62.501477
6.319,-0.007497,-0.007912,-0.017319,0.007466,0.008067,0.019866,-0.01764,-0.517958,-0.019689,1.251422,-264.661547,-0.576938,62.501477
6.3387,-0.007394,-0.007962,-0.019157,0.007359,0.008041,0.017319,-0.016043,-0.517505,-0.01652,1.2378,-264.654361,-0.501935,62.504096
6.3588,-0.007648,-0.007529,-0.017007,0.00724,0.008102,0.019157,-0.01612,-0.517523,-0.016699,1.2378,-264.654361,-0.501935,62.504096
6.3789,-0.007538,-0.007589,-0.016679,0.007519,0.007658,0.017007,-0.016031,-0.517151,-0.016248,1.216786,-264.645844,-0.498687,62.507458
6.3984,-0.007071,-0.007672,-0.016915,0.00741,0.007714,0.016679,-0.016001,-0.517321,-0.016395,1.216786,-264.645844,-0.498687,62.507458
6.4185,-0.007289,-0.007251,-0.016276,0.00694,0.00779,0.016915,-0.016001,-0.517321,-0.016395,1.216786,-264.645844,-0.498687,62.507458
6.4386,-0.007652,-0.007417,-0.016425,0.00717,0.007369,0.016276,-0.015239,-0.516804,-0.015364,1.220284,-264.637599,-0.46124,62.510619
6.4584,-0.007635,-0.007213,-0.017412,0.007529,0.007542,0.016425,-0.015282,-0.51683,-0.015411,1.220284,-264.637599,-0.46124,62.510619
6.4792,-0.007855,-0.006749,-0.015465,0.007509,0.007345,0.017412,-0.016292,-0.516897,-0.01687,1.205048,-264.631229,-0.386244,62.513045
6.4988,-0.00778,-0.006839,-0.017531,0.00775,0.006869,0.015465,-0.015949,-0.516747,-0.015998,1.205048,-264.631229,-0.386244,62.513045
6.5184,-0.007704,-0.006814,-0.016336,0.007659,0.006975,0.017531,-0.015949,-0.516747,-0.015998,1.205048,-264.631229,-0.386244,62.513045
6.5384,-0.008052,-0.006519,-0.016507,0.007592,0.006939,0.016336,-0.015698,-0.516419,-0.015612,1.166019,-264.624291,-0.319345,62.515923
6.5586,-0.007808,-0.00627,-0.013939,0.007943,0.006651,0.016507,-0.015742,-0.516412,-0.015655,1.166019,-264.624291,-0.319345,62.515923
6.5784,-0.008097,-0.006009,-0.013521,0.00772,0.006378,0.013939,-0.01469,-0.516015,-0.013443,1.162043,-264.618518,-0.394244,62.518476
6.5983,-0.007822,-0.006226,-0.015115,0.008015,0.006118,0.013521,-0.014833,-0.515959,-0.013425,1.162043,-264.618518,-0.394244,62.518476
6.6185,-0.008034,-0.005989,-0.013657,0.008015,0.006118,0.013521,-0.014833,-0.515959,-0.013425,1.162043,-264.618518,-0.394244,62.518476
6.6387,-0.007742,-0.005789,-0.012264,7.9e-05,6.1e-05,0.0,-0.014616,-0.51563,-0.012871,1.127601,-264.61127,-0.407693,62.521862
6.6586,-0.00769,-0.005748,-0.013349,7.9e-05,6.1e-05,0.0,-0.014566,-0.51563,-0.012811,1.127601,-264.61127,-0.407693,62.521862
6.6785,-0.007528,-0.006025,-0.013124,7.9e-05,6.1e-05,0.0,-0.014294,-0.515556,-0.012992,1.062203,-264.60692,-0.332696,62.524054
6.6986,-0.008147,-0.005827,-0.012591,7.9e-05,6.1e-05,0.0,-0.014227,-0.51578,-0.013022,1.062203,-264.60692,-0.332696,62.524054
6.7182,-0.007805,-0.005556,-0.012929,7.9e-05,6.1e-05,0.0,-0.014227,-0.51578,-0.013022,1.062203,-264.60692,-0.332696,62.524054
6.7384,-0.008307,-0.005449,-0.013693,7.9e-05,6.1e-05,0.0,-0.014399,-0.515514,-0.012929,0.987207,-264.60692,-0.257699,62.524054
6.7588,-0.00789,-0.00536,-0.014023,7.9e-05,6.1e-05,0.0,-0.014461,-0.515506,-0.012983,0.987207,-264.60692,-0.257699,62.524054
6.7786,-0.007981,-0.005583,-0.012448,7.9e-05,6.1e-05,0.0,-0.015041,-0.515309,-0.014023,0.91221,-264.60692,-0.182702,62.524054
6.7984,-0.007576,-0.006084,-0.013188,7.9e-05,6.1e-05,0.0,-0.014637,-0.515442,-0.013129,0.91221,-264.60692,-0.182702,62.524054
6.8185,-0.007787,-0.005645,-0.01334,7.9e-05,6.1e-05,0.0,-0.014637,-0.515442,-0.013129,0.91221,-264.60692,-0.182702,62.524054
6.8388,-0.007666,-0.00552,-0.01271,0.0,0.0,1e-06,-0.014591,-0.515599,-0.01334,0.837201,-264.60692,-0.107694,62.524054
6.8583,-0.007731,-0.005756,-0.013604,0.001163,0.000892,0.001998,-0.01456,-0.515591,-0.013296,0.837201,-264.60692,-0.107694,62.524054
6.8783,-0.008206,-0.005592,-0.013005,0.002267,0.001739,0.003894,-0.01467,-0.515709,-0.013604,0.762197,-264.60692,-0.03269,62.524054
6.8985,-0.008144,-0.005622,-0.013979,0.003312,0.00254,0.005689,-0.014765,-0.515618,-0.013264,0.762197,-264.60692,-0.03269,62.524054
6.9184,-0.007756,-0.005704,-0.012206,0.004295,0.003294,0.007377,-0.014765,-0.515618,-0.013264,0.762197,-264.60692,-0.03269,62.524054
6.9388,-0.007849,-0.005709,-0.012623,0.005224,0.004006,0.008972,-0.013975,-0.515663,-0.0122,0.837189,-264.606838,-0.107681,62.524095
6.9583,-0.008108,-0.005798,-0.013492,0.006083,0.004665,0.010448,-0.013997,-0.515663,-0.012229,0.837189,-264.606838,-0.107681,62.524095
6.9783,-0.008302,-0.005246,-0.013371,0.006891,0.005285,0.011836,-0.014937,-0.515719,-0.013425,0.912211,-264.605873,-0.182704,62.524578
6.9983,-0.007795,-0.00541,-0.014315,0.007633,0.005854,0.01311,-0.015035,-0.51542,-0.013386,0.912211,-264.605873,-0.182704,62.524578
7.0191,-0.008105,-0.005516,-0.01354,0.00832,0.006381,0.01429,-0.015035,-0.51542,-0.013386,0.912211,-264.605873,-0.182704,62.524578
7.0389,-0.007795,-0.005466,-0.01226,0.008948,0.006862,0.015368,-0.01482,-0.515343,-0.013253,0.987195,-264.602885,-0.257688,62.526076
7.0589,-0.007446,-0.005447,-0.012199,0.009517,0.007299,0.016346,-0.014765,-0.515346,-0.013181,0.987195,-264.602885,-0.257688,62.526076
7.0784,-0.007674,-0.005559,-0.010393,0.010019,0.007684,0.017209,-0.013388,-0.515219,-0.011748,1.062209,-264.597396,-0.274935,62.52918
7.0983,-0.007701,-0.00515,-0.012084,0.010467,0.008027,0.017977,-0.013123,-0.51537,-0.010939,1.062209,-264.597396,-0.274935,62.52918
7.1186,-0.007497,-0.005027,-0.01252,0.010853,0.008323,0.018641,-0.013123,-0.51537,-0.010939,1.062209,-264.597396,-0.274935,62.52918
7.1384,-0.007634,-0.004795,-0.01213,0.011182,0.008576,0.019206,-0.013414,-0.514637,-0.011725,1.067419,-264.589498,-0.274935,62.533139
7.1587,-0.007569,-0.004931,-0.011377,0.01145,0.008781,0.019666,-0.01343,-0.514636,-0.011732,1.067419,-264.589498,-0.274935,62.533139
7.1785,-0.00755,-0.003884,-0.008977,0.011659,0.008941,0.020025,-0.012949,-0.514581,-0.010657,1.067419,-264.580493,-0.274935,62.537653
7.1985,-0.00761,-0.004227,-0.010683,0.011808,0.009056,0.020281,-0.012429,-0.514133,-0.009611,1.067419,-264.580493,-0.274935,62.537653
7.2186,-0.00732,-0.004379,-0.011082,0.011897,0.009124,0.020434,-0.012429,-0.514133,-0.009611,1.067419,-264.580493,-0.274935,62.537653
7.2383,-0.007035,-0.003697,-0.01057,0.011927,0.009147,0.020485,-0.012412,-0.513928,-0.010128,1.067419,-264.570963,-0.274935,62.542429
7.2588,-0.00749,-0.003926,-0.009408,0.011897,0.009124,0.020434,-0.012396,-0.513893,-0.010134,1.067419,-264.570963,-0.274935,62.542429
7.2783,-0.007626,-0.003309,-0.008523,0.011808,0.009056,0.02028,-0.011829,-0.513558,-0.008625,1.067419,-264.561134,-0.274935,62.547356
7.2982,-0.007529,-0.003388,-0.009568,0.011659,0.008941,0.020025,-0.011853,-0.513361,-0.008466,1.067419,-264.561134,-0.274935,62.547356
7.3184,-0.007601,-0.003562,-0.010054,0.01145,0.008781,0.019665,-0.011853,-0.513361,-0.008466,1.067419,-264.561134,-0.274935,62.547356
7.3382,-0.007443,-0.003071,-0.007994,0.011181,0.008575,0.019204,-0.012147,-0.513099,-0.009062,1.067419,-264.551269,-0.274935,62.5523
7.3583,-0.007573,-0.002964,-0.007946,0.010854,0.008324,0.018641,-0.012084,-0.513083,-0.008954,1.067419,-264.551269,-0.274935,62.5523
7.3786,-0.00738,-0.002229,-0.005977,0.010466,0.008026,0.017976,-0.011182,-0.512613,-0.007188,1.067419,-264.541792,-0.274935,62.55705
7.3983,-0.007331,-0.002588,-0.006389,0.010019,0.007684,0.017209,-0.010697,-0.512347,-0.006403,1.067419,-264.541792,-0.274935,62.55705
7.4185,-0.007475,-0.002588,-0.00686,0.009512,0.007295,0.016337,-0.010697,-0.512347,-0.006403,1.067419,-264.541792,-0.274935,62.55705
7.4385,-0.00731,-0.002299,-0.003153,0.008946,0.00686,0.015364,-0.010443,-0.512174,-0.005954,1.067419,-264.532792,-0.274935,62.561561
7.4586,-0.007382,-0.002458,-0.006811,0.008319,0.00638,0.014288,-0.010322,-0.512172,-0.005733,1.067419,-264.532792,-0.274935,62.561561
7.4787,-0.00719,-0.001618,-0.00604,0.007633,0.005853,0.013109,-0.010487,-0.512167,-0.006181,1.067419,-264.524905,-0.274935,62.565514
7.4984,-0.007388,-0.001531,-0.004955,0.006886,0.005281,0.011827,-0.010317,-0.511814,-0.00602,1.067419,-264.524905,-0.274935,62.565514
7.5185,-0.006879,-0.001704,-0.003223,0.006078,0.004662,0.01044,-0.010317,-0.511814,-0.00602,1.067419,-264.524905,-0.274935,62.565514
7.5384,-0.007038,-0.000995,-0.004496,0.005218,0.004002,0.008962,-0.008117,-0.511392,-0.002528,1.067419,-264.518006,-0.274935,62.568972
7.5589,-0.006977,-0.00164,-0.0034,0.004294,0.003293,0.007374,-0.008188,-0.511357,-0.002642,1.067419,-264.518006,-0.274935,62.568972
7.5783,-0.006943,-0.00126,-0.004587,0.003308,0.002537,0.005681,-0.008475,-0.511457,-0.002997,1.067419,-264.512956,-0.274935,62.571503
7.5986,-0.007349,-0.001486,-0.004396,0.002267,0.001738,0.003893,-0.008908,-0.511318,-0.003858,1.067419,-264.512956,-0.274935,62.571503
7.6185,-0.00712,-0.001338,-0.003077,0.001161,0.00089,0.001993,-0.008908,-0.511318,-0.003858,1.067419,-264.512956,-0.274935,62.571503
7.6384,-0.006979,-0.001198,-0.002617,0.0,0.0,0.0,-0.00848,-0.511176,-0.002718,1.067419,-264.509398,-0.274935,62.573286
7.6589,-0.007459,-0.001005,-0.00529,0.0,0.0,0.0,-0.008463,-0.511173,-0.002702,1.067419,-264.509398,-0.274935,62.573286
7.6788,-0.006743,-0.000766,-0.003123,0.0,0.0,0.0,-0.010112,-0.510964,-0.005213,1.067419,-264.508436,-0.274935,62.573768
7.6983,-0.007144,-0.000825,-0.004582,0.0,0.0,0.0,-0.00909,-0.510845,-0.004008,1.067419,-264.508436,-0.274935,62.573768
7.7185,-0.007057,-0.000727,-0.003696,0.0,0.0,0.0,-0.00909,-0.510845,-0.004008,1.067419,-264.508436,-0.274935,62.573768
7.7384,-0.00694,-0.000909,-0.001676,0.0,0.0,0.0,-0.008942,-0.510723,-0.003696,1.067419,-264.508436,-0.274935,62.573768
7.7585,-0.007166,-0.001022,-0.004407,0.0,0.0,0.0,-0.008846,-0.510739,-0.003527,1.067419,-264.508436,-0.274935,62.573768
7.7784,-0.007227,-0.000786,-0.004956,0.0,0.0,0.0,-0.009414,-0.511017,-0.004407,1.067419,-264.508436,-0.274935,62.573768
7.7984,-0.007081,-0.000706,-0.003024,0.0,0.0,0.0,-0.009609,-0.510881,-0.004721,1.067419,-264.508436,-0.274935,62.573768
7.8184,-0.007163,-0.001104,-0.002621,0.0,0.0,0.0,-0.009609,-0.510881,-0.004721,1.067419,-264.508436,-0.274935,62.573768
7.8388,-0.006634,-0.001199,-0.003706,0.0,0.0,0.0,-0.008499,-0.511103,-0.002621,1.067419,-264.508436,-0.274935,62.573768
7.8584,-0.006624,-0.001068,-0.003532,9.8e-05,1.8e-05,0.0,-0.008501,-0.51111,-0.002702,1.067419,-264.508436,-0.274935,62.573768
7.8783,-0.007079,-0.001001,-0.001577,9.8e-05,1.8e-05,0.0,-0.008425,-0.511064,-0.003532,1.067419,-264.508436,-0.274935,62.573768
7.8983,-0.007011,-0.000745,-0.003258,9.8e-05,1.8e-05,0.0,-0.008118,-0.511028,-0.002423,1.067419,-264.508436,-0.274935,62.573768
7.9185,-0.007225,-0.000828,-0.00234,9.8e-05,1.8e-05,0.0,-0.008118,-0.511028,-0.002423,1.067419,-264.508436,-0.274935,62.573768
7.9386,-0.006877,-0.001296,-0.00383,9.8e-05,1.8e-05,0.0,-0.008418,-0.510826,-0.00234,0.992538,-264.508436,-0.200055,62.573768
7.9583,-0.007025,-0.001228,-0.002549,9.8e-05,1.8e-05,0.0,-0.008446,-0.510858,-0.00244,0.992538,-264.508436,-0.200055,62.573768
7.9784,-0.007061,-0.001448,-0.002062,9.8e-05,1.8e-05,0.0,-0.008326,-0.511226,-0.002549,0.917539,-264.508436,-0.125055,62.573768
7.9985,-0.007339,-0.001234,-0.004027,9.8e-05,1.8e-05,0.0,-0.008204,-0.511352,-0.002272,0.917539,-264.508436,-0.125055,62.573768
8.0186,-0.006893,-0.00067,-0.004151,9.8e-05,1.8e-05,0.0,-0.008204,-0.511352,-0.002272,0.917539,-264.508436,-0.125055,62.573768
8.0383,-0.006623,-0.001039,-0.002296,9.8e-05,1.8e-05,0.0,-0.00901,-0.510666,-0.004151,0.842544,-264.508436,-0.050061,62.573768
8.0583,-0.007182,-0.001275,-0.001672,9.8e-05,1.8e-05,0.0,-0.008928,-0.510691,-0.004026,0.842544,-264.508436,-0.050061,62.573768
8.0785,-0.006908,-0.000905,-0.001486,0.00097,0.000179,0.000543,-0.008035,-0.511274,-0.001672,0.76754,-264.508436,0.024943,62.573768
8.0986,-0.006645,-0.001155,-0.003958,0.001888,0.000348,0.001056,-0.007825,-0.511064,-0.001566,0.76754,-264.508436,0.024943,62.573768
8.119,-0.007064,-0.001176,-0.003629,0.002763,0.00051,0.001544,-0.007825,-0.511064,-0.001566,0.76754,-264.508436,0.024943,62.573768
8.1386,-0.006899,-0.000774,-0.003449,0.003583,0.000661,0.002003,-0.008915,-0.511173,-0.003629,0.692545,-264.508436,0.099939,62.573768
8.1584,-0.007199,-0.00123,-0.004061,0.004355,0.000804,0.002435,-0.008896,-0.511143,-0.003616,0.692545,-264.508436,0.099939,62.573768
8.1785,-0.007009,-0.000712,-0.002722,0.005073,0.000936,0.002836,-0.009253,-0.51122,-0.004051,0.617207,-264.508221,0.024601,62.573961
8.1986,-0.007108,-0.001237,-0.003338,0.005747,0.00106,0.003212,-0.008758,-0.510926,-0.003285,0.617207,-264.508221,0.024601,62.573961
8.2188,-0.00702,-0.001341,-0.002569,0.00637,0.001175,0.003561,-0.008758,-0.510926,-0.003285,0.617207,-264.508221,0.024601,62.573961
8.2387,-0.006774,-0.001229,-0.00403,0.006941,0.001281,0.00388,-0.008236,-0.511314,-0.00252,0.542369,-264.507344,-0.050237,62.574746
8.2585,-0.007156,-0.001402,-0.004075,0.007461,0.001377,0.004171,-0.008271,-0.511308,-0.002613,0.542369,-264.507344,-0.050237,62.574746
8.2786,-0.007101,-0.001223,-0.002628,0.007933,0.001464,0.004435,-0.009038,-0.51136,-0.003971,0.48418,-264.50505,-0.125103,62.576802
8.2983,-0.006587,-0.000875,-0.001636,0.008354,0.001542,0.00467,-0.008668,-0.511275,-0.00318,0.48418,-264.50505,-0.125103,62.576802
8.3185,-0.006588,-0.000978,-0.003425,0.008727,0.00161,0.004879,-0.008668,-0.511275,-0.00318,0.48418,-264.50505,-0.125103,62.576802
8.3385,-0.00621,-0.001087,-0.002745,0.00905,0.00167,0.005059,-0.007979,-0.510911,-0.003227,0.48418,-264.501746,-0.155623,62.579762
8.3583,-0.006747,-0.000899,-0.002437,0.009323,0.00172,0.005212,-0.007944,-0.510921,-0.003188,0.48418,-264.501746,-0.155623,62.579762
8.3784,-0.006178,-0.00101,-0.003952,0.009547,0.001762,0.005337,-0.007653,-0.510837,-0.002248,0.48418,-264.497797,-0.155623,62.5833
8.3982,-0.006215,-0.00071,-0.002808,0.009721,0.001794,0.005434,-0.00792,-0.510926,-0.003199,0.48418,-264.497797,-0.155623,62.5833
8.4187,-0.006201,-0.00072,-0.001964,0.009845,0.001817,0.005504,-0.00792,-0.510926,-0.003199,0.48418,-264.497797,-0.155623,62.5833
8.4388,-0.006051,-0.000764,-0.0029,0.00992,0.00183,0.005545,-0.00675,-0.510637,-0.001711,0.48418,-264.493584,-0.155623,62.587074
8.4588,-0.006046,-0.000464,-0.003129,0.009945,0.001835,0.005559,-0.006794,-0.510644,-0.001791,0.48418,-264.493584,-0.155623,62.587074
8.4783,-0.005488,-0.000586,-0.002359,0.00992,0.00183,0.005545,-0.007261,-0.510392,-0.002916,0.48418,-264.489139,-0.155623,62.591056
8.4984,-0.00553,-0.000301,-0.00085,0.009845,0.001817,0.005504,-0.006889,-0.510493,-0.002573,0.48418,-264.489139,-0.155623,62.591056
8.5184,-0.00551,-0.000662,-0.003004,0.009721,0.001794,0.005434,-0.006889,-0.510493,-0.002573,0.48418,-264.489139,-0.155623,62.591056
8.5383,-0.005079,-0.00056,-0.00246,0.009547,0.001762,0.005337,-0.006558,-0.510571,-0.002734,0.48418,-264.484639,-0.155623,62.595088
8.5583,-0.005182,-0.000527,-0.001342,0.009323,0.00172,0.005212,-0.00653,-0.510568,-0.002708,0.48418,-264.484639,-0.155623,62.595088
8.5785,-0.004707,-0.000216,-0.002388,0.009049,0.00167,0.005059,-0.005492,-0.510458,-0.001132,0.48418,-264.480252,-0.155623,62.599018
8.5985,-0.004369,-0.000171,-0.001216,0.008724,0.00161,0.004877,-0.005691,-0.51031,-0.001821,0.48418,-264.480252,-0.155623,62.599018
8.6186,-0.004968,-0.000386,-0.002377,0.008354,0.001541,0.00467,-0.005691,-0.51031,-0.001821,0.48418,-264.480252,-0.155623,62.599018
8.6384,-0.004466,-0.000227,-0.002721,0.007931,0.001463,0.004433,-0.005726,-0.510302,-0.002123,0.48418,-264.476038,-0.155623,62.602794
8.6587,-0.004289,-0.000631,-0.001706,0.007459,0.001376,0.00417,-0.005723,-0.510294,-0.002159,0.48418,-264.476038,-0.155623,62.602794
8.6784,-0.004173,-0.000539,-0.000566,0.006935,0.00128,0.003877,-0.004836,-0.510571,-0.001526,0.48418,-264.472263,-0.155623,62.606176
8.6985,-0.003966,-0.000222,-0.00011,0.006366,0.001175,0.003558,-0.004582,-0.510545,-0.000957,0.48418,-264.472263,-0.155623,62.606176
8.7185,-0.003985,-0.000218,-0.001165,0.005743,0.00106,0.003211,-0.004582,-0.510545,-0.000957,0.48418,-264.472263,-0.155623,62.606176
8.7384,-0.004303,-0.000454,-0.001696,0.005072,0.000936,0.002835,-0.004217,-0.510151,-0.000963,0.48418,-264.468891,-0.155623,62.609196
8.7589,-0.003748,-0.000428,-0.000768,0.004351,0.000803,0.002432,-0.004273,-0.51017,-0.001009,0.48418,-264.468891,-0.155623,62.609196
8.7784,-0.003308,-0.000171,-0.00149,0.00358,0.000661,0.002001,-0.003916,-0.510387,-0.000644,0.48418,-264.466296,-0.155623,62.611521
8.7984,-0.003401,-0.000142,-0.001627,0.002759,0.000509,0.001542,-0.003974,-0.51026,-0.001105,0.48418,-264.466296,-0.155623,62.611521
8.8185,-0.00363,-0.000374,-9.7e-05,0.00189,0.000349,0.001056,-0.003974,-0.51026,-0.001105,0.48418,-264.466296,-0.155623,62.611521
8.8384,-0.003463,-0.000268,-0.001129,0.000969,0.000179,0.000542,-0.003468,-0.510334,2.1e-05,0.48418,-264.464329,-0.155623,62.613283
8.8584,-0.0038,-0.000506,-0.001242,0.0,0.0,0.0,-0.0035,-0.510329,-5.2e-05,0.48418,-264.464329,-0.155623,62.613283
8.8787,-0.003113,-0.000183,-0.002112,0.0,0.0,0.0,-0.00436,-0.510492,-0.001201,0.48418,-264.463475,-0.155623,62.614048
8.8983,-0.003816,-0.000438,-0.001628,0.0,0.0,0.0,-0.004254,-0.510314,-0.001715,0.48418,-264.463475,-0.155623,62.614048
8.9184,-0.003519,-0.000267,-0.00103,0.0,0.0,0.0,-0.004254,-0.510314,-0.001715,0.48418,-264.463475,-0.155623,62.614048
8.9383,-0.003219,6.4e-05,-0.000844,0.0,0.0,0.0,-0.004044,-0.510267,-0.00103,0.48418,-264.463475,-0.155623,62.614048
8.9583,-0.003446,-0.000311,-0.000439,0.0,0.0,0.0,-0.004017,-0.510244,-0.001017,0.48418,-264.463475,-0.155623,62.614048
8.9786,-0.003185,-0.000208,0.000625,0.0,0.0,0.0,-0.00367,-0.510311,-0.000439,0.48418,-264.463475,-0.155623,62.614048
8.9985,-0.003632,0.000115,0.000501,0.0,0.0,0.0,-0.003218,-0.510253,0.000159,0.48418,-264.463475,-0.155623,62.614048
9.0185,-0.003222,-0.000107,6.4e-05,0.0,0.0,0.0,-0.003218,-0.510253,0.000159,0.48418,-264.463475,-0.155623,62.614048
9.0389,-0.003378,-0.000245,0.000104,0.0,0.0,0.0,-0.003189,-0.510107,6.4e-05,0.48418,-264.463475,-0.155623,62.614048
9.0585,-0.003324,-0.000262,0.001303,0.0,0.0,0.0,-0.003198,-0.510115,6.6e-05,0.48418,-264.463475,-0.155623,62.614048
9.0786,-0.003381,-0.000363,0.000161,0.0001,8e-06,0.0,-0.00266,-0.510262,0.001303,0.48418,-264.463475,-0.155623,62.614048
9.0986,-0.003542,3e-05,-0.00178,0.0001,8e-06,0.0,-0.003024,-0.510319,0.000652,0.48418,-264.463475,-0.155623,62.614048
9.1186,-0.00325,5e-05,-0.00034,0.0001,8e-06,0.0,-0.003024,-0.510319,0.000652,0.48418,-264.463475,-0.155623,62.614048
9.1385,-0.003119,-0.000249,-0.000698,0.0001,8e-06,0.0,-0.003424,-0.50995,-0.00034,0.48418,-264.463475,-0.155623,62.614048
9.1586,-0.003169,-0.00025,-0.00194,0.0001,8e-06,0.0,-0.003427,-0.509971,-0.000365,0.48418,-264.463475,-0.155623,62.614048
9.1783,-0.003528,-0.000146,-0.000688,0.0001,8e-06,0.0,-0.004158,-0.510249,-0.00194,0.409247,-264.463474,-0.08069,62.614049
9.1983,-0.003715,-0.000278,0.001384,0.0001,8e-06,0.0,-0.004,-0.51019,-0.001228,0.409247,-264.463474,-0.08069,62.614049
9.2185,-0.00326,0.000126,-0.000685,0.0001,8e-06,0.0,-0.004,-0.51019,-0.001228,0.409247,-264.463474,-0.08069,62.614049
9.2386,-0.00371,4.3e-05,-0.000426,0.0001,8e-06,0.0,-0.003609,-0.509874,-0.000685,0.334239,-264.46347,-0.005681,62.614054
9.2588,-0.003623,-2.6e-05,-5.8e-05,0.0001,8e-06,0.0,-0.003631,-0.50988,-0.000667,0.334239,-264.46347,-0.005681,62.614054
9.2786,-0.003219,3.8e-05,-0.000334,0.0001,8e-06,0.0,-0.003651,-0.510026,-5.8e-05,0.259231,-264.463457,0.069326,62.614066
9.2984,-0.003611,0.000159,0.000966,0.000486,3.8e-05,-0.00019,-0.003501,-0.509989,-0.000216,0.259231,-264.463457,0.069326,62.614066
9.3192,-0.003345,-0.000306,0.000553,0.000945,7.3e-05,-0.00037,-0.003501,-0.509989,-0.000216,0.259231,-264.463457,0.069326,62.614066
9.3383,-0.003808,-5.8e-05,0.000406,0.001382,0.000107,-0.000542,-0.00306,-0.510305,0.000553,0.184147,-264.463434,0.077458,62.614089
9.3583,-0.003568,-3.4e-05,0.000484,0.001795,0.000139,-0.000703,-0.003097,-0.510288,0.000543,0.184147,-264.463434,0.077458,62.614089
9.3783,-0.003389,4.4e-05,-0.000224,0.002181,0.000169,-0.000855,-0.003319,-0.510034,0.000484,0.109241,-264.46341,0.152364,62.614114
9.3985,-0.003393,-1.5e-05,-0.001552,0.002542,0.000197,-0.000996,-0.003424,-0.50999,8.1e-05,0.109241,-264.46341,0.152364,62.614114
9.4185,-0.003446,-0.000206,-7.4e-05,0.002879,0.000223,-0.001129,-0.003424,-0.50999,8.1e-05,0.109241,-264.46341,0.152364,62.614114
9.4388,-0.003447,-0.000109,-6.8e-05,0.003191,0.000248,-0.001251,-0.003465,-0.510204,-7.7e-05,0.034235,-264.463258,0.22737,62.614272
9.459,-0.003503,-0.000183,-0.000167,0.003478,0.00027,-0.001363,-0.003466,-0.510197,-7.6e-05,0.034235,-264.463258,0.22737,62.614272
9.4786,-0.003544,-8e-05,-0.001871,0.00374,0.00029,-0.001466,-0.003533,-0.510175,-0.000182,-0.040763,-264.462682,0.302368,62.614868
9.4985,-0.003075,-0.000107,-0.000184,0.003976,0.000309,-0.001558,-0.004087,-0.510118,-0.001165,-0.040763,-264.462682,0.302368,62.614868
9.5184,-0.003114,-7.5e-05,-0.000166,0.004188,0.000325,-0.001642,-0.004087,-0.510118,-0.001165,-0.040763,-264.462682,0.302368,62.614868
9.5388,-0.003075,-9.7e-05,0.000824,0.004376,0.00034,-0.001715,-0.003064,-0.510062,-0.000213,-0.116134,-264.461566,0.306964,62.616023
9.5584,-0.002786,9.5e-05,-0.000848,0.004538,0.000352,-0.001778,-0.003031,-0.510064,-0.000139,-0.116134,-264.461566,0.306964,62.616023
