mach0312/omni-docking-bench/src/icros_test_setup/results/kinematic_sample/timeseries/trial_018.csv
t,x,y,yaw,vx,vy,wz,bl_x,bl_y,bl_yaw,front_steering_joint,front_wheel_joint,rear_steering_joint,rear_wheel_joint
0.0,-0.026892,0.019159,0.085962,0.008164,0.000925,0.003404,0.017326,-0.488946,0.087447,0.352627,-264.014966,-0.140377,63.185147
0.0004,-0.026376,0.019433,0.086653,0.005933,0.000672,0.002474,0.017041,-0.488949,0.086939,0.352627,-264.011486,-0.140377,63.188445
0.0007,-0.026412,0.019607,0.087582,0.005443,0.000617,0.00227,0.017041,-0.488949,0.086939,0.352627,-264.008304,-0.140377,63.191461
0.001,-0.026226,0.018993,0.087167,0.004912,0.000557,0.002048,0.017041,-0.488949,0.086939,0.352627,-264.005414,-0.140377,63.1942
0.0013,-0.026374,0.019031,0.087363,0.004338,0.000492,0.001809,0.017168,-0.488896,0.086781,0.352627,-264.003094,-0.140377,63.196399
0.0016,-0.026157,0.019326,0.086555,0.003721,0.000422,0.001551,0.017168,-0.488896,0.086781,0.352627,-264.001245,-0.140377,63.198152
0.0019,-0.026312,0.018908,0.087379,0.00306,0.000347,0.001276,0.017177,-0.488926,0.08674,0.352627,-264.000238,-0.140377,63.199106
0.0021,-0.026222,0.019543,0.086976,0.002359,0.000267,0.000984,0.017177,-0.488926,0.08674,0.352627,-264.000238,-0.140377,63.199106
0.0024,-0.025676,0.019191,0.087171,0.001608,0.000182,0.000671,0.017355,-0.488624,0.086862,0.352627,-264.000238,-0.140377,63.199106
0.0026,-0.026132,0.019113,0.086497,0.00083,9.4e-05,0.000346,0.017355,-0.488624,0.086862,0.352627,-264.000238,-0.140377,63.199106
0.0063,-0.0261,0.019443,0.088458,1e-06,0.0,1e-06,0.018016,-0.488962,0.086535,0.352627,-264.000238,-0.140377,63.199106
0.027,-0.025957,0.019411,0.088646,0.016001,-0.016,-0.029999,0.018567,-0.48873,0.087645,0.352627,-264.000238,-0.140377,63.199106
0.0469,-0.025746,0.019263,0.088716,0.024136,-0.021633,-0.05,0.018567,-0.48873,0.087645,0.352627,-264.000238,-0.140377,63.199106
0.0664,-0.026101,0.01923,0.087519,0.023938,-0.021468,-0.05,0.01948,-0.488723,0.088733,0.352627,-263.999883,-0.140377,63.199442
0.0876,-0.025833,0.019247,0.087548,0.02432,-0.021437,-0.05,0.019404,-0.48873,0.08864,0.352627,-263.999883,-0.140377,63.199442
0.1066,-0.025783,0.01924,0.087676,0.024051,-0.021432,-0.05,0.01876,-0.4888,0.087548,0.277493,-263.999883,-0.065244,63.199442
0.1267,-0.025969,0.019356,0.088497,0.024,-0.021423,-0.05,0.018824,-0.488801,0.087619,0.277493,-263.999883,-0.065244,63.199442
0.1466,-0.026202,0.01902,0.088237,0.024156,-0.021575,-0.05,0.018824,-0.488801,0.087619,0.277493,-263.999883,-0.065244,63.199442
0.1664,-0.025869,0.019397,0.089299,0.024424,-0.021255,-0.05,0.01874,-0.488996,0.088237,0.202792,-263.999883,0.009457,63.199442
0.1866,-0.025544,0.019218,0.088961,0.024036,-0.021627,-0.05,0.0188,-0.488966,0.08831,0.202792,-263.999883,0.009457,63.199442
0.2065,-0.025618,0.019483,0.089786,0.023736,-0.021411,-0.05,0.019766,-0.488765,0.088961,0.127783,-263.999883,0.084467,63.199443
0.2268,-0.026218,0.01951,0.087898,0.023768,-0.021701,-0.05,0.019963,-0.488593,0.08943,0.127783,-263.999883,0.084467,63.199443
0.2466,-0.026318,0.019218,0.086853,0.024404,-0.021736,-0.05,0.019963,-0.488593,0.08943,0.127783,-263.999883,0.084467,63.199443
0.267,-0.025929,0.019583,0.086548,0.024552,-0.021429,-0.05,0.017921,-0.488859,0.086853,0.052789,-263.999882,0.15946,63.199443
0.2869,-0.025988,0.019304,0.086317,0.024139,-0.021751,-0.05,0.017937,-0.488835,0.086832,0.052789,-263.999882,0.15946,63.199443
0.3066,-0.025314,0.019299,0.087612,0.024227,-0.021472,-0.05,0.017979,-0.488797,0.086317,-0.022211,-263.999881,0.234461,63.199443
0.3265,-0.025983,0.019158,0.088517,0.023528,-0.02144,-0.05,0.018737,-0.488768,0.087054,-0.022211,-263.999881,0.234461,63.199443
0.3466,-0.026091,0.019639,0.086984,0.024187,-0.02138,-0.05,0.018737,-0.488768,0.087054,-0.022211,-263.999881,0.234461,63.199443
0.3665,-0.026069,0.019309,0.087964,0.024287,-0.021831,-0.05,0.018215,-0.488433,0.086984,-0.097213,-263.999879,0.309463,63.199444
0.3867,-0.025804,0.01907,0.087108,0.024272,-0.021525,-0.05,0.01825,-0.488453,0.08705,-0.097213,-263.999879,0.309463,63.199444
0.407,-0.025764,0.019248,0.08731,0.024047,-0.021242,-0.05,0.018565,-0.488996,0.087108,-0.1723,-263.999877,0.361943,63.199445
0.4263,-0.025895,0.019117,0.086181,0.023987,-0.021421,-0.05,0.018646,-0.48889,0.087223,-0.1723,-263.999877,0.361943,63.199445
0.4464,-0.025693,0.019328,0.088259,0.024154,-0.021275,-0.05,0.018646,-0.48889,0.087223,-0.1723,-263.999877,0.361943,63.199445
0.4666,-0.026145,0.019488,0.086775,0.023889,-0.021518,-0.05,0.019261,-0.488687,0.088259,-0.247365,-263.999874,0.355535,63.199446
0.4866,-0.025588,0.019557,0.087489,0.024358,-0.021681,-0.05,0.019166,-0.488679,0.088142,-0.247365,-263.999874,0.355535,63.199446
0.5065,-0.025728,0.019203,0.087521,0.023781,-0.021718,-0.05,0.018975,-0.488493,0.087489,-0.322476,-263.999872,0.36619,63.199447
0.5264,-0.025931,0.01909,0.085676,0.023951,-0.021378,-0.05,0.018904,-0.488695,0.087507,-0.322476,-263.999872,0.36619,63.199447
0.5464,-0.025934,0.019357,0.088972,0.024202,-0.021239,-0.05,0.018904,-0.488695,0.087507,-0.322476,-263.999872,0.36619,63.199447
0.5664,-0.026245,0.019322,0.087326,0.024111,-0.021585,-0.05,0.019382,-0.488626,0.088972,-0.397358,-263.99987,0.348742,63.199448
0.5868,-0.025913,0.018926,0.087665,0.02446,-0.021537,-0.05,0.019298,-0.488634,0.088851,-0.397358,-263.99987,0.348742,63.199448
0.6067,-0.025928,0.019111,0.088809,0.024156,-0.021122,-0.05,0.01874,-0.489115,0.087665,-0.472303,-263.999866,0.366805,63.19945
0.6267,-0.02578,0.019216,0.086844,0.02413,-0.021336,-0.05,0.019063,-0.48898,0.088319,-0.472303,-263.999866,0.366805,63.19945
0.6472,-0.026139,0.018711,0.086221,0.024016,-0.02138,-0.05,0.019063,-0.48898,0.088319,-0.472303,-263.999866,0.366805,63.19945
0.6665,-0.026203,0.019386,0.088146,0.024431,-0.020892,-0.05,0.01778,-0.489395,0.08622,-0.547322,-263.999851,0.352583,63.199457
0.6867,-0.025861,0.01921,0.088384,0.024394,-0.021617,-0.05,0.017847,-0.489339,0.086361,-0.547322,-263.999851,0.352583,63.199457
0.7067,-0.025909,0.019173,0.086107,0.024065,-0.021418,-0.05,0.01916,-0.4888,0.08838,-0.622312,-263.999788,0.364293,63.199485
0.7268,-0.025714,0.019201,0.087028,0.024164,-0.02133,-0.05,0.018485,-0.488877,0.087109,-0.622312,-263.999788,0.364293,63.199485
0.7469,-0.026087,0.018928,0.085376,0.023947,-0.021364,-0.05,0.018485,-0.488877,0.087109,-0.622312,-263.999788,0.364293,63.199485
0.7666,-0.025859,0.018895,0.086516,0.024377,-0.021084,-0.05,0.017424,-0.489221,0.085353,-0.697233,-263.999497,0.350568,63.199616
0.7866,-0.025833,0.018952,0.086846,0.02413,-0.021059,-0.05,0.017477,-0.489219,0.08543,-0.697233,-263.999497,0.350568,63.199616
0.8067,-0.025531,0.019422,0.087432,0.024092,-0.021121,-0.05,0.018454,-0.489145,0.086784,-0.772221,-263.998588,0.365841,63.200024
0.8272,-0.025614,0.019259,0.08666,0.023737,-0.021577,-0.05,0.018772,-0.488855,0.087144,-0.772221,-263.998588,0.365841,63.200024
0.8468,-0.025508,0.019109,0.087424,0.023851,-0.021404,-0.05,0.018772,-0.488855,0.087144,-0.772221,-263.998588,0.365841,63.200024
0.8669,-0.025394,0.019386,0.087307,0.023742,-0.021263,-0.05,0.019207,-0.489023,0.087178,-0.847221,-263.995895,0.374307,63.20125
0.8867,-0.025268,0.019044,0.086774,0.023607,-0.021527,-0.05,0.019203,-0.489001,0.087181,-0.847221,-263.995895,0.374307,63.20125
0.907,-0.025002,0.01906,0.086616,0.023523,-0.021162,-0.05,0.019209,-0.48917,0.086374,-0.922222,-263.990699,0.365712,63.20378
0.9265,-0.025109,0.018954,0.08656,0.023259,-0.021151,-0.05,0.019192,-0.489107,0.086461,-0.922222,-263.990699,0.365712,63.20378
0.9466,-0.024594,0.019001,0.086091,0.023377,-0.021053,-0.05,0.019192,-0.489107,0.086461,-0.922222,-263.990699,0.365712,63.20378
0.967,-0.023698,0.018986,0.086644,0.022869,-0.021045,-0.05,0.019792,-0.48936,0.085287,-0.997289,-263.983005,0.36464,63.208311
0.9866,-0.023711,0.018484,0.086507,0.021966,-0.020966,-0.05,0.01985,-0.489349,0.085358,-0.997289,-263.983005,0.36464,63.208311
1.007,-0.02232,0.018597,0.085513,0.022026,-0.020464,-0.05,0.020928,-0.489866,0.085589,-1.072222,-263.972809,0.38542,63.215344
1.0269,-0.022763,0.017948,0.08511,0.02065,-0.020435,-0.05,0.021177,-0.489713,0.08543,-1.072222,-263.972809,0.38542,63.215344
1.0466,-0.02228,0.018194,0.083091,0.021154,-0.019818,-0.05,0.021177,-0.489713,0.08543,-1.072222,-263.972809,0.38542,63.215344
1.0666,-0.02058,0.018689,0.083076,0.020693,-0.01998,-0.05,0.02086,-0.490486,0.081613,-1.147272,-263.960117,0.410956,63.223538
1.0875,-0.021018,0.018165,0.082068,0.018958,-0.020332,-0.05,0.02094,-0.490435,0.081673,-1.147272,-263.960117,0.410956,63.223538
1.1065,-0.018791,0.017467,0.081637,0.019458,-0.019827,-0.05,0.021496,-0.490546,0.080639,-1.173082,-263.94492,0.469017,63.232432
1.1267,-0.018895,0.017836,0.080225,0.017304,-0.018941,-0.05,0.022324,-0.490764,0.081025,-1.173082,-263.94492,0.469017,63.232432
1.147,-0.018846,0.017804,0.082839,0.017405,-0.019293,-0.05,0.022324,-0.490764,0.081025,-1.173082,-263.94492,0.469017,63.232432
1.167,-0.017172,0.016737,0.078356,0.017308,-0.019303,-0.05,0.024235,-0.491146,0.080796,-1.214063,-263.927227,0.493846,63.240732
1.1876,-0.017299,0.017374,0.080339,0.015809,-0.01803,-0.05,0.024159,-0.4912,0.080584,-1.214063,-263.927227,0.493846,63.240732
1.2067,-0.014739,0.016306,0.077857,0.015849,-0.018706,-0.05,0.024296,-0.491612,0.078579,-1.234756,-263.908286,0.568797,63.248168
1.227,-0.015101,0.016222,0.075784,0.013426,-0.017403,-0.05,0.024728,-0.491987,0.077964,-1.234756,-263.908286,0.568797,63.248168
1.2467,-0.015269,0.016495,0.076258,0.01383,-0.017319,-0.05,0.024728,-0.491987,0.077964,-1.234756,-263.908286,0.568797,63.248168
1.2667,-0.013129,0.01588,0.075088,0.013968,-0.017611,-0.05,0.024296,-0.492721,0.074216,-1.256102,-263.891042,0.643849,63.254974
1.2869,-0.013128,0.015911,0.073732,0.0119,-0.01682,-0.05,0.024366,-0.492735,0.074222,-1.256102,-263.891042,0.643849,63.254974
1.3068,-0.011311,0.015037,0.074006,0.01192,-0.016835,-0.05,0.024906,-0.493204,0.072235,-1.28948,-263.875442,0.718791,63.260965
1.3267,-0.011866,0.015247,0.073273,0.010168,-0.015832,-0.05,0.025812,-0.493474,0.07305,-1.28948,-263.875442,0.718791,63.260965
1.3467,-0.011787,0.015093,0.073249,0.010718,-0.016075,-0.05,0.025812,-0.493474,0.07305,-1.28948,-263.875442,0.718791,63.260965
1.3666,-0.010333,0.014813,0.072118,0.010651,-0.015915,-0.05,0.026012,-0.494112,0.071512,-1.324607,-263.861303,0.793838,63.266223
1.3866,-0.01017,0.014474,0.071484,0.009239,-0.015519,-0.05,0.026053,-0.49411,0.071508,-1.324607,-263.861303,0.793838,63.266223
1.4075,-0.008992,0.014241,0.071186,0.009111,-0.015163,-0.05,0.026602,-0.494663,0.070093,-1.344793,-263.847375,0.868784,63.271465
1.4267,-0.008896,0.014214,0.068694,0.007957,-0.014845,-0.05,0.027033,-0.494607,0.07054,-1.344793,-263.847375,0.868784,63.271465
1.4466,-0.008805,0.013957,0.070302,0.007899,-0.014791,-0.05,0.027033,-0.494607,0.07054,-1.344793,-263.847375,0.868784,63.271465
1.4665,-0.007475,0.013381,0.067165,0.007803,-0.014541,-0.05,0.027382,-0.495289,0.068654,-1.372825,-263.834484,0.943851,63.276304
1.4865,-0.007901,0.013482,0.069376,0.00656,-0.013852,-0.05,0.027349,-0.495314,0.068511,-1.372825,-263.834484,0.943851,63.276304
1.5064,-0.006604,0.013288,0.065847,0.006948,-0.013997,-0.05,0.027693,-0.495656,0.068136,-1.398258,-263.822534,1.018786,63.28088
1.5265,-0.006513,0.013093,0.064925,0.005715,-0.013694,-0.05,0.027303,-0.495674,0.066677,-1.398258,-263.822534,1.018786,63.28088
1.547,-0.006689,0.013026,0.066278,0.005649,-0.013488,-0.05,0.027303,-0.495674,0.066677,-1.398258,-263.822534,1.018786,63.28088
1.5672,-0.005596,0.012788,0.065492,0.005811,-0.01344,-0.05,0.02733,-0.496252,0.064845,-1.424073,-263.811834,1.093831,63.285155
1.5875,-0.005518,0.013007,0.066223,0.004747,-0.013126,-0.05,0.027365,-0.496254,0.064851,-1.424073,-263.811834,1.093831,63.285155
1.6075,-0.004048,0.012484,0.061987,0.004645,-0.013343,-0.05,0.02842,-0.496224,0.064927,-1.443173,-263.799956,1.168792,63.289961
1.6268,-0.004557,0.012525,0.061848,0.003267,-0.012711,-0.05,0.027956,-0.496441,0.063129,-1.443173,-263.799956,1.168792,63.289961
1.6468,-0.004675,0.012573,0.062496,0.003774,-0.012783,-0.05,0.027956,-0.496441,0.063129,-1.443173,-263.799956,1.168792,63.289961
1.6669,-0.003318,0.011981,0.061284,0.00388,-0.01284,-0.05,0.027396,-0.496897,0.060708,-1.462496,-263.786968,1.243794,63.295298
1.6868,-0.003035,0.012057,0.061266,0.002578,-0.012162,-0.05,0.027437,-0.49692,0.0607,-1.462496,-263.786968,1.243794,63.295298
1.7069,-0.002038,0.011893,0.058893,0.002291,-0.01222,-0.05,0.028342,-0.497373,0.059735,-1.483903,-263.773136,1.318784,63.301071
1.7268,-0.002012,0.011712,0.058681,0.001334,-0.011992,-0.05,0.028155,-0.497337,0.059061,-1.483903,-263.773136,1.318784,63.301071
1.7468,-0.002196,0.012025,0.060433,0.001322,-0.01181,-0.05,0.028155,-0.497337,0.059061,-1.483903,-263.773136,1.318784,63.301071
1.7668,-0.000901,0.011234,0.056032,0.001465,-0.012135,-0.05,0.028749,-0.497516,0.058476,-1.510488,-263.75933,1.393788,63.30706
1.7865,-0.000925,0.011416,0.058342,0.000271,-0.011267,-0.05,0.028677,-0.49756,0.058251,-1.510488,-263.75933,1.393788,63.30706
1.8068,0.000259,0.010984,0.054609,0.000258,-0.011451,-0.05,0.028885,-0.498089,0.056752,-1.539585,-263.745391,1.468833,63.313237
1.8271,0.000229,0.01084,0.056848,-0.000858,-0.010953,-0.05,0.028449,-0.498231,0.055342,-1.539585,-263.745391,1.468833,63.313237
1.8472,0.00022,0.010765,0.055357,-0.000844,-0.010809,-0.05,0.028449,-0.498231,0.055342,-1.539585,-263.745391,1.468833,63.313237
1.8672,0.001357,0.010261,0.051814,-0.000816,-0.010737,-0.05,0.028481,-0.498932,0.053228,-1.564324,-263.730764,1.543805,63.31998
1.8866,0.001486,0.010378,0.053285,-0.001886,-0.010177,-0.05,0.028435,-0.498952,0.053081,-1.564324,-263.730764,1.543805,63.31998
1.907,0.002617,0.00993,0.051205,-0.002037,-0.010284,-0.05,0.028639,-0.499282,0.051516,-1.591217,-263.715636,1.613573,63.327203
1.9271,0.002483,0.009788,0.050018,-0.003121,-0.009783,-0.05,0.028683,-0.499398,0.051116,-1.591217,-263.715636,1.613573,63.327203
1.9468,0.002582,0.00963,0.050186,-0.002969,-0.009652,-0.05,0.028683,-0.499398,0.051116,-1.591217,-263.715636,1.613573,63.327203
1.9665,0.00407,0.009623,0.04823,-0.002969,-0.009652,-0.05,0.028103,-0.500202,0.047873,-1.617097,-263.700131,1.663185,63.334982
1.9865,0.003898,0.009437,0.049806,-4.3e-05,-9e-05,0.0,0.028138,-0.500186,0.047837,-1.617097,-263.700131,1.663185,63.334982
2.0074,0.004659,0.009027,0.047362,-4.3e-05,-9e-05,0.0,0.029197,-0.50029,0.047967,-1.644543,-263.684799,1.712017,63.343008
2.0266,0.004767,0.008985,0.045491,-4.3e-05,-9e-05,0.0,0.028963,-0.500399,0.04739,-1.644543,-263.684799,1.712017,63.343008
2.0465,0.004498,0.0092,0.045468,-4.3e-05,-9e-05,0.0,0.028963,-0.500399,0.04739,-1.644543,-263.684799,1.712017,63.343008
2.0665,0.004987,0.008342,0.045598,-4.3e-05,-9e-05,0.0,0.027694,-0.500595,0.04494,-1.569455,-263.679482,1.636929,63.343008
2.0866,0.004754,0.008978,0.044409,-4.3e-05,-9e-05,0.0,0.027731,-0.50064,0.044971,-1.569455,-263.679482,1.636929,63.343008
2.1064,0.005634,0.008968,0.046959,-4.3e-05,-9e-05,0.0,0.027395,-0.500519,0.044409,-1.494546,-263.679482,1.56202,63.343008
2.1265,0.005253,0.008353,0.04448,-4.3e-05,-9e-05,0.0,0.028644,-0.500491,0.04587,-1.494546,-263.679482,1.56202,63.343008
2.1471,0.005117,0.008806,0.04454,-4.3e-05,-9e-05,0.0,0.028644,-0.500491,0.04587,-1.494546,-263.679482,1.56202,63.343008
2.1667,0.005124,0.008697,0.046099,-4.3e-05,-9e-05,0.0,0.027825,-0.500688,0.04454,-1.41943,-263.679482,1.486904,63.343008
2.1864,0.005131,0.009058,0.045785,-0.0,-1e-06,-4e-06,0.027878,-0.500693,0.044643,-1.41943,-263.679482,1.486904,63.343008
2.2065,0.004948,0.00889,0.045507,-0.000662,-0.001376,-0.007051,0.028473,-0.500408,0.045785,-1.344553,-263.679482,1.412027,63.343008
2.2266,0.004699,0.008838,0.044857,-0.00129,-0.002681,-0.013734,0.028287,-0.500508,0.045625,-1.344553,-263.679482,1.412027,63.343008
2.2465,0.00509,0.008722,0.045101,-0.001884,-0.003918,-0.020068,0.028287,-0.500508,0.045625,-1.344553,-263.679482,1.412027,63.343008
2.2669,0.00504,0.008924,0.044734,-0.002445,-0.005083,-0.026037,0.028083,-0.500759,0.045101,-1.419656,-263.679482,1.336923,63.343008
2.2869,0.005154,0.008685,0.044764,-0.002971,-0.006177,-0.031644,0.028066,-0.500745,0.045073,-1.419656,-263.679482,1.336923,63.343008
2.3065,0.004998,0.008821,0.044853,-0.003464,-0.007202,-0.036894,0.027976,-0.500804,0.044764,-1.494706,-263.679482,1.261873,63.343008
2.327,0.005209,0.008963,0.045332,-0.003922,-0.008153,-0.041767,0.027913,-0.500725,0.044815,-1.494706,-263.679482,1.261873,63.343008
2.3467,0.004703,0.008785,0.045912,-0.004348,-0.009039,-0.046305,0.027913,-0.500725,0.044815,-1.494706,-263.679482,1.261873,63.343008
2.3672,0.00535,0.008551,0.046896,-0.004741,-0.009857,-0.050494,0.02811,-0.500678,0.045912,-1.569662,-263.679481,1.186917,63.343008
2.3875,0.005359,0.008945,0.044965,-0.005098,-0.010598,-0.05429,0.028189,-0.500693,0.04598,-1.569662,-263.679481,1.186917,63.343008
2.4069,0.004741,0.008709,0.045388,-0.005419,-0.011266,-0.057713,0.028283,-0.500539,0.044965,-1.644544,-263.67948,1.112035,63.343007
2.4266,0.004725,0.008767,0.044611,-0.005706,-0.011863,-0.060767,0.028054,-0.500668,0.045206,-1.644544,-263.67948,1.112035,63.343007
2.4468,0.005479,0.008724,0.044078,-0.005961,-0.012392,-0.063479,0.028054,-0.500668,0.045206,-1.644544,-263.67948,1.112035,63.343007
2.4667,0.005188,0.008764,0.044645,-0.006181,-0.012851,-0.065829,0.027952,-0.500781,0.044078,-1.686778,-263.679478,1.036931,63.343006
2.4865,0.00461,0.008446,0.045402,-0.006368,-0.01324,-0.067821,0.027952,-0.500777,0.044119,-1.686778,-263.679478,1.036931,63.343006
2.5067,0.005166,0.008876,0.045037,-0.006521,-0.013558,-0.069452,0.027757,-0.501029,0.045402,-1.686778,-263.679476,0.961977,63.343005
2.5266,0.005066,0.008853,0.046199,-0.00664,-0.013804,-0.070714,0.027969,-0.500787,0.045193,-1.686778,-263.679476,0.961977,63.343005
2.5463,0.004771,0.008456,0.044662,-0.006725,-0.013981,-0.07162,0.027969,-0.500787,0.045193,-1.686778,-263.679476,0.961977,63.343005
2.5665,0.005012,0.008514,0.04522,-0.006776,-0.014087,-0.072164,0.02754,-0.501035,0.044662,-1.686778,-263.679474,0.886895,63.343004
2.5867,0.00488,0.008792,0.044661,-0.006793,-0.014123,-0.072345,0.027579,-0.50103,0.044702,-1.686778,-263.679474,0.886895,63.343004
2.6073,0.004593,0.008915,0.044184,-0.006775,-0.014086,-0.072156,0.027649,-0.500699,0.044661,-1.686778,-263.679472,0.811948,63.343003
2.6265,0.005461,0.008847,0.042893,-0.006725,-0.013982,-0.071623,0.027346,-0.500635,0.044388,-1.686778,-263.679472,0.811948,63.343003
2.6464,0.005096,0.008756,0.04543,-0.00664,-0.013805,-0.07072,0.027346,-0.500635,0.044388,-1.686778,-263.679472,0.811948,63.343003
2.6665,0.005125,0.008531,0.04531,-0.006521,-0.013557,-0.069447,0.028257,-0.500718,0.04543,-1.686778,-263.679469,0.736934,63.343001
2.6868,0.005013,0.008856,0.045668,-0.006369,-0.01324,-0.067825,0.028255,-0.500734,0.045422,-1.686778,-263.679469,0.736934,63.343001
2.707,0.004914,0.008488,0.044555,-0.006182,-0.012852,-0.065835,0.028295,-0.500612,0.045668,-1.686778,-263.679467,0.662036,63.343
2.7265,0.00492,0.00861,0.044228,-0.00596,-0.012391,-0.063474,0.027917,-0.500836,0.045035,-1.686778,-263.679467,0.662036,63.343
2.7466,0.005292,0.008494,0.04638,-0.005706,-0.011864,-0.060773,0.027917,-0.500836,0.045035,-1.686778,-263.679467,0.662036,63.343
2.7667,0.004992,0.008796,0.04627,-0.005418,-0.011263,-0.057696,0.028937,-0.500957,0.04638,-1.686778,-263.679465,0.587031,63.342999
2.7868,0.00446,0.008781,0.044762,-0.005095,-0.010593,-0.054264,0.028913,-0.500937,0.046373,-1.686778,-263.679465,0.587031,63.342999
2.8065,0.005254,0.008622,0.044362,-0.004737,-0.009849,-0.050451,0.027281,-0.500708,0.044762,-1.686778,-263.679463,0.512035,63.342998
2.8265,0.005212,0.008582,0.044425,-0.004347,-0.009038,-0.046296,0.027617,-0.500804,0.044534,-1.686778,-263.679463,0.512035,63.342998
2.8466,0.004907,0.00863,0.044162,-0.003924,-0.008157,-0.041786,0.027617,-0.500804,0.044534,-1.686778,-263.679463,0.512035,63.342998
2.8672,0.005042,0.008849,0.045154,-0.003465,-0.007204,-0.036901,0.027422,-0.500873,0.044161,-1.686778,-263.679461,0.437023,63.342997
2.8867,0.005016,0.008704,0.04407,-0.002973,-0.006181,-0.031661,0.027469,-0.500855,0.044234,-1.686778,-263.679461,0.437023,63.342997
2.9065,0.005329,0.008567,0.045278,-0.002446,-0.005086,-0.026054,0.027485,-0.500801,0.04407,-1.686778,-263.67946,0.361948,63.342996
2.9265,0.004799,0.008636,0.045741,-0.001884,-0.003917,-0.020065,0.028016,-0.500864,0.044762,-1.686778,-263.67946,0.361948,63.342996
2.9465,0.005159,0.008477,0.044455,-0.001291,-0.002684,-0.013748,0.028016,-0.500864,0.044762,-1.686778,-263.67946,0.361948,63.342996
2.9664,0.005249,0.009019,0.045341,-0.000661,-0.001374,-0.00704,0.027823,-0.501019,0.044455,-1.686778,-263.679459,0.286942,63.342996
2.9869,0.005143,0.008588,0.045511,-0.0,-0.0,-1e-06,0.027864,-0.500977,0.044522,-1.686778,-263.679459,0.286942,63.342996
3.0067,0.005076,0.008954,0.046377,0.0,0.0,0.0,0.028346,-0.500884,0.045511,-1.686778,-263.679458,0.21182,63.342996
3.0267,0.005189,0.008965,0.04477,0.0,0.0,0.0,0.028557,-0.500665,0.046001,-1.686778,-263.679458,0.21182,63.342996
3.0467,0.004763,0.008893,0.044678,0.0,0.0,0.0,0.028557,-0.500665,0.046001,-1.686778,-263.679458,0.21182,63.342996
3.0665,0.005199,0.008831,0.044599,0.0,0.0,0.0,0.027541,-0.500598,0.044678,-1.686778,-263.679458,0.137021,63.342996
3.0869,0.004749,0.008689,0.046618,0.0,0.0,0.0,0.027568,-0.500602,0.044673,-1.686778,-263.679458,0.137021,63.342996
3.1065,0.005155,0.008538,0.044521,0.0,0.0,0.0,0.028515,-0.500757,0.046618,-1.686778,-263.679458,0.137021,63.342996
3.1266,0.004965,0.00879,0.046921,0.0,0.0,0.0,0.028139,-0.500871,0.045426,-1.686778,-263.679458,0.137021,63.342996
3.1464,0.005117,0.008366,0.045759,0.0,0.0,0.0,0.028139,-0.500871,0.045426,-1.686778,-263.679458,0.137021,63.342996
3.1664,0.005022,0.008919,0.044556,0.0,0.0,0.0,0.028446,-0.5011,0.045759,-1.686778,-263.679458,0.137021,63.342996
3.1868,0.005012,0.008798,0.046906,0.0,0.0,0.0,0.028397,-0.501064,0.045676,-1.686778,-263.679458,0.137021,63.342996
3.2065,0.005093,0.008852,0.046234,-5.4e-05,-8.4e-05,0.0,0.028926,-0.500641,0.046906,-1.686778,-263.679458,0.137021,63.342996
3.2264,0.004872,0.009061,0.045227,-5.4e-05,-8.4e-05,0.0,0.028776,-0.50062,0.046522,-1.686778,-263.679458,0.137021,63.342996
3.2465,0.005129,0.008409,0.045393,-5.4e-05,-8.4e-05,0.0,0.028776,-0.50062,0.046522,-1.686778,-263.679458,0.137021,63.342996
3.2665,0.004844,0.008821,0.044669,-5.4e-05,-8.4e-05,0.0,0.028272,-0.501066,0.045393,-1.686778,-263.679458,0.137021,63.342996
3.2869,0.005033,0.008848,0.043683,-5.4e-05,-8.4e-05,0.0,0.028226,-0.501038,0.045342,-1.686778,-263.679458,0.137021,63.342996
3.3067,0.005339,0.008763,0.044813,-5.4e-05,-8.4e-05,0.0,0.027304,-0.500665,0.043683,-1.611842,-263.679458,0.211957,63.342996
3.3263,0.005004,0.008887,0.043258,-5.4e-05,-8.4e-05,0.0,0.027806,-0.500699,0.044326,-1.611842,-263.679458,0.211957,63.342996
3.3465,0.004887,0.008664,0.045119,-5.4e-05,-8.4e-05,0.0,0.027806,-0.500699,0.044326,-1.611842,-263.679458,0.211957,63.342996
3.3665,0.005102,0.008455,0.045104,-5.4e-05,-8.4e-05,0.0,0.02789,-0.500817,0.045119,-1.536843,-263.679458,0.286956,63.342996
3.3864,0.005142,0.008847,0.045112,-5.4e-05,-8.4e-05,0.0,0.027905,-0.500831,0.045118,-1.536843,-263.679458,0.286956,63.342996
3.4066,0.005088,0.009087,0.045242,-1e-06,-1e-06,-5e-06,0.028141,-0.500634,0.045112,-1.461842,-263.679458,0.361957,63.342996
3.4264,0.004901,0.008841,0.044933,-0.000791,-0.001248,-0.006847,0.028148,-0.500495,0.045187,-1.461842,-263.679458,0.361957,63.342996
3.4466,0.00486,0.008895,0.044542,-0.001544,-0.002437,-0.013362,0.028148,-0.500495,0.045187,-1.461842,-263.679458,0.361957,63.342996
3.4665,0.004827,0.008687,0.046061,-0.002257,-0.003562,-0.019533,0.027568,-0.500599,0.044542,-1.386717,-263.679458,0.437082,63.342996
3.4867,0.004991,0.008992,0.043116,-0.002926,-0.004618,-0.025323,0.02762,-0.500611,0.044647,-1.386717,-263.679458,0.437082,63.342996
3.5064,0.004954,0.008684,0.045442,-0.003569,-0.005632,-0.030887,0.026974,-0.500535,0.043116,-1.461678,-263.679458,0.362121,63.342995
3.5265,0.004847,0.008967,0.045223,-0.004147,-0.006545,-0.035895,0.027625,-0.500679,0.044437,-1.461678,-263.679458,0.362121,63.342995
3.5465,0.005181,0.008765,0.044915,-0.004694,-0.007409,-0.04063,0.027625,-0.500679,0.044437,-1.461678,-263.679458,0.362121,63.342995
3.5665,0.004845,0.0089,0.044435,-0.005203,-0.008212,-0.045034,0.02808,-0.500721,0.044915,-1.536587,-263.679458,0.287212,63.342995
3.5873,0.00484,0.009011,0.04597,-0.00567,-0.008948,-0.049074,0.02804,-0.500712,0.044882,-1.536587,-263.679458,0.287212,63.342995
3.607,0.00502,0.008736,0.045094,-0.006097,-0.009622,-0.052771,0.028277,-0.50045,0.04597,-1.611593,-263.679457,0.212206,63.342995
3.6267,0.005017,0.008956,0.044519,-0.006485,-0.010234,-0.056127,0.028124,-0.50062,0.045469,-1.611593,-263.679457,0.212206,63.342995
3.6468,0.005353,0.008588,0.045519,-0.00683,-0.010779,-0.059114,0.028124,-0.50062,0.045469,-1.611593,-263.679457,0.212206,63.342995
3.6665,0.004989,0.008636,0.047096,-0.007135,-0.011261,-0.061757,0.028559,-0.500883,0.045519,-1.686694,-263.679456,0.137105,63.342994
3.6865,0.005144,0.008913,0.045163,-0.007398,-0.011675,-0.064029,0.028589,-0.500878,0.045624,-1.686694,-263.679456,0.137105,63.342994
3.7066,0.005141,0.00881,0.046205,-0.007621,-0.012028,-0.065964,0.028169,-0.500567,0.045162,-1.715454,-263.679454,0.062195,63.342993
3.7265,0.004992,0.008529,0.044682,-0.007804,-0.012316,-0.067544,0.02847,-0.500612,0.045758,-1.715454,-263.679454,0.062195,63.342993
3.7466,0.005029,0.00841,0.043529,-0.007946,-0.012541,-0.068778,0.02847,-0.500612,0.045758,-1.715454,-263.679454,0.062195,63.342993
3.7668,0.005153,0.008846,0.044545,-0.008048,-0.012701,-0.069655,0.027222,-0.501107,0.043529,-1.715454,-263.679452,-0.012932,63.342992
3.7865,0.004903,0.008801,0.046134,-0.008109,-0.012797,-0.070183,0.027268,-0.501074,0.043603,-1.715454,-263.679452,-0.012932,63.342992
3.8064,0.005251,0.008972,0.044116,-0.008129,-0.01283,-0.070359,0.028423,-0.500656,0.046133,-1.715454,-263.67945,-0.08789,63.342991
3.8263,0.005111,0.008913,0.043706,-0.008109,-0.012797,-0.070183,0.028032,-0.500585,0.044975,-1.715454,-263.67945,-0.08789,63.342991
3.8465,0.004892,0.008709,0.046018,-0.008048,-0.012701,-0.069656,0.028032,-0.500585,0.044975,-1.715454,-263.67945,-0.08789,63.342991
3.8665,0.0053,0.009153,0.045237,-0.007946,-0.01254,-0.068773,0.028353,-0.500751,0.046018,-1.715454,-263.679448,-0.162948,63.34299
3.8868,0.004944,0.008481,0.045633,-0.007804,-0.012316,-0.067545,0.028353,-0.500721,0.045964,-1.715454,-263.679448,-0.162948,63.34299
3.9067,0.00501,0.008823,0.045556,-0.007621,-0.012028,-0.065963,0.028209,-0.500988,0.045633,-1.715454,-263.679445,-0.237794,63.342988
3.9265,0.005056,0.008963,0.045042,-0.007396,-0.011673,-0.064018,0.028224,-0.500795,0.045589,-1.715454,-263.679445,-0.237794,63.342988
3.9465,0.005,0.00895,0.044947,-0.007133,-0.011258,-0.061742,0.028224,-0.500795,0.045589,-1.715454,-263.679445,-0.237794,63.342988
3.9665,0.005176,0.008587,0.045654,-0.006827,-0.010775,-0.059091,0.027915,-0.500535,0.044946,-1.715454,-263.679443,-0.31279,63.342987
3.9867,0.00484,0.008735,0.045395,-0.006483,-0.010232,-0.056112,0.027955,-0.50056,0.044998,-1.715454,-263.679443,-0.31279,63.342987
4.0067,0.005167,0.00874,0.04486,-0.006096,-0.009621,-0.052765,0.027984,-0.500739,0.045395,-1.715454,-263.679441,-0.387881,63.342986
4.0265,0.005089,0.009051,0.047156,-0.005671,-0.00895,-0.049083,0.028014,-0.500744,0.04509,-1.715454,-263.679441,-0.387881,63.342986
4.0465,0.004641,0.008754,0.044271,-0.005203,-0.008211,-0.045032,0.028014,-0.500744,0.04509,-1.715454,-263.679441,-0.387881,63.342986
4.0665,0.004893,0.008849,0.047066,-0.004695,-0.00741,-0.040637,0.027211,-0.500747,0.04427,-1.715454,-263.679439,-0.462789,63.342985
4.0864,0.00452,0.00877,0.045104,-0.004146,-0.006544,-0.035889,0.027324,-0.500736,0.044459,-1.715454,-263.679439,-0.462789,63.342985
4.1068,0.005078,0.008662,0.044222,-0.003556,-0.005613,-0.030781,0.027515,-0.500711,0.045104,-1.715454,-263.679438,-0.537787,63.342984
4.1265,0.005348,0.008791,0.045463,-0.002924,-0.004615,-0.025312,0.027577,-0.500784,0.044602,-1.715454,-263.679438,-0.537787,63.342984
4.1465,0.004914,0.008961,0.045609,-0.002256,-0.003561,-0.019528,0.027577,-0.500784,0.044602,-1.715454,-263.679438,-0.537787,63.342984
4.1667,0.00495,0.008781,0.045328,-0.001545,-0.002439,-0.013374,0.028166,-0.500508,0.045609,-1.715454,-263.679436,-0.612796,63.342983
4.1864,0.005452,0.00894,0.046082,-0.000794,-0.001253,-0.006874,0.028158,-0.500522,0.045588,-1.715454,-263.679436,-0.612796,63.342983
4.2065,0.004769,0.008781,0.04608,0.0,0.0,0.0,0.028945,-0.500518,0.046081,-1.715454,-263.679435,-0.688114,63.342982
4.2265,0.005356,0.00882,0.044926,0.0,0.0,0.0,0.028554,-0.500609,0.046081,-1.715454,-263.679435,-0.688114,63.342982
4.2465,0.004956,0.009084,0.045909,0.0,0.0,0.0,0.028554,-0.500609,0.046081,-1.715454,-263.679435,-0.688114,63.342982
4.2668,0.005068,0.0086,0.043903,0.0,0.0,0.0,0.028361,-0.500378,0.045909,-1.715454,-263.679431,-0.76288,63.34298
4.287,0.005154,0.008538,0.044922,0.0,0.0,0.0,0.028295,-0.500417,0.045763,-1.715454,-263.679431,-0.76288,63.34298
4.3065,0.005473,0.008682,0.045808,0.0,0.0,0.0,0.028057,-0.500947,0.044922,-1.715454,-263.679431,-0.76288,63.34298
4.3265,0.005009,0.00886,0.045182,0.0,0.0,0.0,0.028498,-0.500853,0.045429,-1.715454,-263.679431,-0.76288,63.34298
4.3466,0.005147,0.008634,0.044884,0.0,0.0,0.0,0.028498,-0.500853,0.045429,-1.715454,-263.679431,-0.76288,63.34298
4.3664,0.004831,0.008662,0.044078,0.0,0.0,0.0,0.02803,-0.500853,0.044884,-1.715454,-263.679431,-0.76288,63.34298
4.387,0.005172,0.008809,0.04623,0.0,0.0,0.0,0.027982,-0.500852,0.044831,-1.715454,-263.679431,-0.76288,63.34298
4.4072,0.004847,0.008687,0.044724,0.0,0.0,0.0,0.02874,-0.500647,0.04623,-1.715454,-263.679431,-0.76288,63.34298
4.4265,0.005155,0.008779,0.045758,-5.3e-05,-8.5e-05,0.0,0.02812,-0.500735,0.045374,-1.715454,-263.679431,-0.76288,63.34298
4.4467,0.004876,0.009125,0.045623,-5.3e-05,-8.5e-05,0.0,0.02812,-0.500735,0.045374,-1.715454,-263.679431,-0.76288,63.34298
4.4666,0.004911,0.0085,0.044071,-5.3e-05,-8.5e-05,0.0,0.028135,-0.500345,0.045623,-1.715454,-263.679431,-0.76288,63.34298
4.4867,0.00478,0.008402,0.045468,-5.3e-05,-8.5e-05,0.0,0.028084,-0.500389,0.045518,-1.715454,-263.679431,-0.76288,63.34298
4.5064,0.004865,0.008411,0.045077,-5.3e-05,-8.5e-05,0.0,0.027961,-0.501071,0.045468,-1.64046,-263.679431,-0.687886,63.34298
4.5267,0.005487,0.008737,0.045653,-5.3e-05,-8.5e-05,0.0,0.027895,-0.501071,0.045245,-1.64046,-263.679431,-0.687886,63.34298
4.5468,0.005304,0.008435,0.045464,-5.3e-05,-8.5e-05,0.0,0.027895,-0.501071,0.045245,-1.64046,-263.679431,-0.687886,63.34298
4.5664,0.005033,0.008447,0.046015,-5.3e-05,-8.5e-05,0.0,0.028482,-0.501038,0.045464,-1.565406,-263.679431,-0.612832,63.34298
4.587,0.00538,0.008546,0.044963,-5.3e-05,-8.5e-05,0.0,0.028483,-0.501037,0.045498,-1.565406,-263.679431,-0.612832,63.34298
4.6065,0.004997,0.008501,0.045319,-5.3e-05,-8.5e-05,0.0,0.028303,-0.500939,0.044963,-1.490467,-263.679431,-0.537893,63.34298
4.6265,0.004997,0.008707,0.045979,-0.0,-0.0,-2e-06,0.028188,-0.500959,0.045166,-1.490467,-263.679431,-0.537893,63.34298
4.6465,0.005127,0.008619,0.04509,-0.000765,-0.001237,-0.006539,0.028188,-0.500959,0.045166,-1.490467,-263.679431,-0.537893,63.34298
4.6669,0.005037,0.008612,0.045091,-0.001495,-0.002419,-0.012786,0.028116,-0.500863,0.04509,-1.415335,-263.679431,-0.462761,63.34298
4.6864,0.005099,0.008524,0.044804,-0.002179,-0.003525,-0.018632,0.02811,-0.500863,0.045091,-1.415335,-263.679431,-0.462761,63.34298
4.7065,0.004605,0.008681,0.043196,-0.002829,-0.004577,-0.024189,0.027942,-0.500964,0.044804,-1.490199,-263.679431,-0.537625,63.34298
4.7266,0.004779,0.008645,0.045898,-0.003435,-0.005558,-0.029375,0.027191,-0.500895,0.043885,-1.490199,-263.679431,-0.537625,63.34298
4.7465,0.005256,0.008466,0.044717,-0.004004,-0.006478,-0.034239,0.027191,-0.500895,0.043885,-1.490199,-263.679431,-0.537625,63.34298
4.7666,0.004985,0.008854,0.045164,-0.004531,-0.007331,-0.038744,0.028054,-0.501024,0.044717,-1.565302,-263.679431,-0.612728,63.34298
4.787,0.005065,0.008913,0.044884,-0.005029,-0.008137,-0.043005,0.028051,-0.500996,0.044749,-1.565302,-263.679431,-0.612728,63.34298
4.8065,0.005138,0.008796,0.044551,-0.005472,-0.008854,-0.046794,0.027948,-0.500574,0.044883,-1.640214,-263.679428,-0.68764,63.342979
4.8268,0.005109,0.008568,0.044577,-0.005885,-0.009522,-0.050325,0.027893,-0.500644,0.044695,-1.640214,-263.679428,-0.68764,63.342979
4.8466,0.005215,0.008726,0.045646,-0.006257,-0.010123,-0.053503,0.027893,-0.500644,0.044695,-1.640214,-263.679428,-0.68764,63.342979
4.8667,0.004879,0.008989,0.047147,-0.006591,-0.010664,-0.05636,0.028486,-0.500744,0.045643,-1.715208,-263.679406,-0.762634,63.342967
4.8864,0.005238,0.008918,0.04544,-0.006886,-0.011142,-0.058888,0.028513,-0.500724,0.04574,-1.715208,-263.679406,-0.762634,63.342967
4.9065,0.005171,0.009141,0.043605,-0.00714,-0.011553,-0.061059,0.028401,-0.500559,0.045425,-1.715954,-263.679271,-0.837633,63.342894
4.9268,0.005271,0.009011,0.044929,-0.007355,-0.0119,-0.062896,0.027832,-0.500455,0.044387,-1.715954,-263.679271,-0.837633,63.342894
4.9467,0.005373,0.008417,0.044668,-0.007531,-0.012186,-0.064403,0.027832,-0.500455,0.044387,-1.715954,-263.679271,-0.837633,63.342894
4.9665,0.0051,0.008665,0.044922,-0.007669,-0.012408,-0.065578,0.028132,-0.501094,0.044591,-1.715954,-263.678725,-0.912632,63.342598
4.987,0.005125,0.008852,0.045699,-0.007767,-0.012566,-0.066415,0.028122,-0.501075,0.044612,-1.715954,-263.678725,-0.912632,63.342598
5.0068,0.004721,0.00888,0.045625,-0.007826,-0.012662,-0.066919,0.028387,-0.500663,0.045497,-1.715954,-263.676956,-0.987634,63.341641
5.0268,0.005462,0.008751,0.046668,-0.007845,-0.012693,-0.067086,0.028153,-0.500628,0.045544,-1.715954,-263.676956,-0.987634,63.341641
5.0466,0.005079,0.00909,0.045899,-0.007826,-0.012661,-0.066918,0.028153,-0.500628,0.045544,-1.715954,-263.676956,-0.987634,63.341641
5.0665,0.005257,0.008339,0.042773,-0.007767,-0.012566,-0.066414,0.028378,-0.500508,0.045273,-1.715954,-263.672688,-1.062636,63.33927
5.0864,0.005177,0.008528,0.043957,-0.007668,-0.012407,-0.065575,0.028285,-0.500559,0.045085,-1.715954,-263.672688,-1.062636,63.33927
5.1066,0.005636,0.008232,0.041426,-0.007528,-0.01218,-0.064373,0.02745,-0.501103,0.043089,-1.715954,-263.665919,-1.137632,63.334565
5.1268,0.005692,0.008826,0.044572,-0.007354,-0.011898,-0.062883,0.027042,-0.501247,0.04204,-1.715954,-263.665919,-1.137632,63.334565
5.1467,0.005884,0.008087,0.045191,-0.007139,-0.01155,-0.061044,0.027042,-0.501247,0.04204,-1.715954,-263.665919,-1.137632,63.334565
5.1664,0.006294,0.007987,0.042774,-0.006884,-0.011138,-0.058866,0.028695,-0.50155,0.043604,-1.715954,-263.656651,-1.212627,63.327361
5.1868,0.006275,0.008485,0.042291,-0.00659,-0.010662,-0.056351,0.02865,-0.501554,0.04351,-1.715954,-263.656651,-1.212627,63.327361
5.2068,0.006819,0.008039,0.040031,-0.006255,-0.01012,-0.053488,0.027633,-0.501192,0.040654,-1.715954,-263.644882,-1.287638,63.317914
5.2266,0.007415,0.008174,0.039471,-0.005882,-0.009516,-0.050295,0.027378,-0.501414,0.040092,-1.715954,-263.644882,-1.287638,63.317914
5.2465,0.007444,0.008284,0.039932,-0.005472,-0.008853,-0.046791,0.027378,-0.501414,0.040092,-1.715954,-263.644882,-1.287638,63.317914
5.2667,0.007891,0.00781,0.03643,-0.005018,-0.008119,-0.04291,0.027529,-0.501602,0.037582,-1.715954,-263.630614,-1.300185,63.308079
5.2864,0.00823,0.007829,0.03449,-0.00453,-0.00733,-0.03874,0.027451,-0.501627,0.037445,-1.715954,-263.630614,-1.300185,63.308079
5.3066,0.008893,0.007683,0.032684,-0.004,-0.006472,-0.034208,0.025617,-0.502217,0.032683,-1.715954,-263.615483,-1.300185,63.299891
5.3265,0.009058,0.007356,0.033732,-0.003432,-0.005553,-0.029349,0.025559,-0.502164,0.032453,-1.715954,-263.615483,-1.300185,63.299891
5.3468,0.008786,0.00713,0.032905,-0.002823,-0.004567,-0.024139,0.025559,-0.502164,0.032453,-1.715954,-263.615483,-1.300185,63.299891
5.3664,0.009517,0.007232,0.03195,-0.002176,-0.003521,-0.01861,0.025356,-0.502958,0.031022,-1.715954,-263.602954,-1.300185,63.293112
5.3864,0.010069,0.00722,0.032044,-0.00149,-0.002411,-0.012742,0.025382,-0.502936,0.031036,-1.715954,-263.602954,-1.300185,63.293112
5.4066,0.010642,0.006896,0.03149,-0.000763,-0.001235,-0.006527,0.026305,-0.502698,0.031112,-1.715954,-263.595132,-1.300185,63.288879
5.4266,0.010085,0.006929,0.030741,0.0,0.0,0.0,0.026518,-0.502808,0.031211,-1.715954,-263.595132,-1.300185,63.288879
5.4465,0.009943,0.006735,0.031703,0.0,0.0,0.0,0.026518,-0.502808,0.031211,-1.715954,-263.595132,-1.300185,63.288879
5.4669,0.010858,0.006893,0.030556,0.0,0.0,0.0,0.02604,-0.503128,0.031084,-1.715954,-263.59102,-1.300185,63.286654
5.4867,0.011334,0.006264,0.031655,0.0,0.0,0.0,0.026065,-0.503114,0.031033,-1.715954,-263.59102,-1.300185,63.286654
5.5065,0.010586,0.007466,0.031023,0.0,0.0,0.0,0.027475,-0.50348,0.031655,-1.715954,-263.59102,-1.300185,63.286654
5.5265,0.01045,0.006813,0.029029,0.0,0.0,0.0,0.026863,-0.502798,0.031293,-1.715954,-263.59102,-1.300185,63.286654
5.5465,0.010659,0.00656,0.031067,0.0,0.0,0.0,0.026863,-0.502798,0.031293,-1.715954,-263.59102,-1.300185,63.286654
5.5665,0.010661,0.006815,0.031303,0.0,0.0,0.0,0.0265,-0.503194,0.031067,-1.715954,-263.59102,-1.300185,63.286654
5.5869,0.010719,0.006563,0.030508,0.0,0.0,0.0,0.026509,-0.503175,0.031084,-1.715954,-263.59102,-1.300185,63.286654
5.6069,0.010688,0.006691,0.031325,0.0,0.0,0.0,0.026275,-0.5032,0.030508,-1.715954,-263.59102,-1.300185,63.286654
5.6266,0.010361,0.006643,0.031252,0.0,0.0,0.0,0.026496,-0.503119,0.030976,-1.715954,-263.59102,-1.300185,63.286654
5.6466,0.010558,0.006491,0.030268,-8.6e-05,-5.1e-05,0.0,0.026496,-0.503119,0.030976,-1.715954,-263.59102,-1.300185,63.286654
5.6666,0.010685,0.006636,0.031136,-8.6e-05,-5.1e-05,0.0,0.025992,-0.503276,0.030268,-1.715954,-263.59102,-1.300185,63.286654
5.687,0.010568,0.006984,0.029731,-8.6e-05,-5.1e-05,0.0,0.026028,-0.503266,0.030322,-1.715954,-263.59102,-1.300185,63.286654
5.707,0.010562,0.006552,0.031614,-8.6e-05,-5.1e-05,0.0,0.025728,-0.50279,0.029731,-1.64106,-263.59102,-1.225291,63.286654
5.7266,0.010237,0.006838,0.030712,-8.6e-05,-5.1e-05,0.0,0.026272,-0.50302,0.030803,-1.64106,-263.59102,-1.225291,63.286654
5.7463,0.010617,0.006669,0.031378,-8.6e-05,-5.1e-05,0.0,0.026272,-0.50302,0.030803,-1.64106,-263.59102,-1.225291,63.286654
5.7666,0.010322,0.006942,0.030939,-8.6e-05,-5.1e-05,0.0,0.026617,-0.50308,0.031378,-1.565965,-263.59102,-1.150196,63.286654
5.7868,0.010395,0.00681,0.032657,-8.6e-05,-5.1e-05,0.0,0.026576,-0.503059,0.031344,-1.565965,-263.59102,-1.150196,63.286654
5.8069,0.010399,0.006931,0.032255,-8.6e-05,-5.1e-05,0.0,0.027047,-0.502918,0.032657,-1.490799,-263.59102,-1.07503,63.286654
5.8266,0.010355,0.006867,0.030565,-8.6e-05,-5.1e-05,0.0,0.026933,-0.502853,0.032428,-1.490799,-263.59102,-1.07503,63.286654
5.8464,0.010359,0.006806,0.030217,-8.6e-05,-5.1e-05,0.0,0.026933,-0.502853,0.032428,-1.490799,-263.59102,-1.07503,63.286654
5.8665,0.010753,0.006992,0.03009,-0.001539,-0.00092,-0.004554,0.025767,-0.502961,0.030217,-1.41606,-263.59102,-1.000291,63.286654
5.8864,0.010481,0.006526,0.032359,-0.003004,-0.001796,-0.008888,0.025791,-0.502948,0.030208,-1.41606,-263.59102,-1.000291,63.286654
5.9065,0.010578,0.006682,0.030652,-0.004392,-0.002626,-0.012992,0.026981,-0.503207,0.032359,-1.340954,-263.59102,-0.925185,63.286654
5.9267,0.010385,0.006767,0.030733,-0.005696,-0.003406,-0.016852,0.026541,-0.503134,0.031387,-1.340954,-263.59102,-0.925185,63.286654
5.9466,0.010865,0.007054,0.030781,-0.006931,-0.004144,-0.020504,0.026541,-0.503134,0.031387,-1.340954,-263.59102,-0.925185,63.286654
5.9664,0.010648,0.007047,0.031004,-0.008076,-0.004829,-0.023893,0.02656,-0.502704,0.030781,-1.266078,-263.59102,-0.879727,63.286654
5.9868,0.010627,0.006685,0.032048,-0.009147,-0.005469,-0.027062,0.026554,-0.502705,0.030795,-1.266078,-263.59102,-0.879727,63.286654
6.0066,0.010719,0.006822,0.031543,-0.010138,-0.006062,-0.029994,0.026968,-0.503053,0.032048,-1.19107,-263.591021,-0.879727,63.286653
6.0266,0.010448,0.00651,0.031407,-0.011048,-0.006605,-0.032684,0.026874,-0.50298,0.031761,-1.19107,-263.591021,-0.879727,63.286653
6.0466,0.010342,0.006544,0.030676,-0.011881,-0.007103,-0.035148,0.026874,-0.50298,0.031761,-1.19107,-263.591021,-0.879727,63.286653
6.0665,0.010741,0.006784,0.031435,-0.012635,-0.007554,-0.03738,0.025984,-0.503216,0.030676,-1.116053,-263.591022,-0.879727,63.286653
6.0869,0.010408,0.006582,0.031566,-0.013307,-0.007956,-0.039369,0.026038,-0.503199,0.030729,-1.116053,-263.591022,-0.879727,63.286653
6.1064,0.010658,0.00685,0.030727,-0.013902,-0.008312,-0.041128,0.026504,-0.503164,0.031566,-1.041084,-263.591023,-0.879727,63.286652
6.1268,0.010696,0.006937,0.031304,-0.014417,-0.008619,-0.042651,0.026403,-0.503019,0.031088,-1.041084,-263.591023,-0.879727,63.286652
6.1464,0.010694,0.006841,0.029961,-0.014854,-0.008881,-0.043944,0.026403,-0.503019,0.031088,-1.041084,-263.591023,-0.879727,63.286652
6.1667,0.010677,0.007158,0.030882,-0.01521,-0.009094,-0.044999,0.025971,-0.50293,0.029961,-0.966081,-263.591025,-0.879727,63.286651
6.1868,0.01029,0.00669,0.03124,-0.015488,-0.00926,-0.04582,0.026002,-0.502907,0.030024,-0.966081,-263.591025,-0.879727,63.286651
6.2065,0.01056,0.006848,0.030545,-0.015686,-0.009378,-0.046407,0.02622,-0.503061,0.03124,-0.891068,-263.591026,-0.879727,63.28665
6.2266,0.010792,0.006789,0.029743,-0.015805,-0.00945,-0.046759,0.026172,-0.502977,0.030845,-0.891068,-263.591026,-0.879727,63.28665
6.2468,0.010661,0.006478,0.031314,-0.015845,-0.009473,-0.046877,0.026172,-0.502977,0.030845,-0.891068,-263.591026,-0.879727,63.28665
6.267,0.010141,0.006754,0.031175,-0.015806,-0.00945,-0.046761,0.026629,-0.503272,0.031314,-0.81608,-263.591028,-0.879727,63.286649
6.2868,0.010793,0.007005,0.030124,-0.015688,-0.009379,-0.046411,0.026594,-0.503256,0.031306,-0.81608,-263.591028,-0.879727,63.286649
6.3067,0.010721,0.006463,0.02956,-0.015489,-0.009261,-0.045824,0.026154,-0.502764,0.030124,-0.741076,-263.59103,-0.879727,63.286648
6.3266,0.010637,0.006876,0.030782,-0.015213,-0.009096,-0.045008,0.02595,-0.503075,0.029805,-0.741076,-263.59103,-0.879727,63.286648
6.3466,0.010624,0.00672,0.030673,-0.014857,-0.008882,-0.043952,0.02595,-0.503075,0.029805,-0.741076,-263.59103,-0.879727,63.286648
6.3665,0.010339,0.006864,0.029799,-0.014421,-0.008622,-0.042664,0.026265,-0.50304,0.030673,-0.666078,-263.591031,-0.879727,63.286647
6.3867,0.010721,0.006833,0.031602,-0.013908,-0.008315,-0.041145,0.026216,-0.503031,0.030614,-0.666078,-263.591031,-0.879727,63.286647
6.4066,0.01075,0.006716,0.031539,-0.013304,-0.007954,-0.039359,0.026835,-0.502912,0.031602,-0.590974,-263.591033,-0.879727,63.286647
6.4265,0.010306,0.00675,0.031457,-0.012637,-0.007555,-0.037384,0.026834,-0.502979,0.031566,-0.590974,-263.591033,-0.879727,63.286647
6.4465,0.010432,0.006979,0.03075,-0.011887,-0.007107,-0.035168,0.026834,-0.502979,0.031566,-0.590974,-263.591033,-0.879727,63.286647
6.4665,0.010351,0.006854,0.030876,-0.011053,-0.006608,-0.0327,0.026112,-0.50278,0.03075,-0.516076,-263.591034,-0.879727,63.286646
6.4866,0.010469,0.006714,0.031662,-0.010147,-0.006066,-0.030018,0.026111,-0.502789,0.030759,-0.516076,-263.591034,-0.879727,63.286646
6.5064,0.010846,0.00697,0.029836,-0.009149,-0.00547,-0.027068,0.026614,-0.503031,0.031662,-0.441077,-263.591035,-0.879727,63.286645
6.5268,0.010978,0.006932,0.031752,-0.008082,-0.004832,-0.023909,0.026297,-0.502901,0.030617,-0.441077,-263.591035,-0.879727,63.286645
6.547,0.010566,0.006696,0.030543,-0.006936,-0.004147,-0.02052,0.026297,-0.502901,0.030617,-0.441077,-263.591035,-0.879727,63.286645
6.5667,0.010427,0.00729,0.031896,-0.005702,-0.003409,-0.016869,0.026141,-0.503066,0.030543,-0.365978,-263.591036,-0.879727,63.286644
6.5867,0.01076,0.006564,0.03093,-0.004403,-0.002633,-0.013026,0.026182,-0.50302,0.030645,-0.365978,-263.591036,-0.879727,63.286644
6.6066,0.010651,0.006855,0.030588,-0.003015,-0.001802,-0.008919,0.026532,-0.503192,0.03093,-0.290808,-263.591037,-0.879727,63.286644
6.6264,0.010452,0.006784,0.030351,-0.001553,-0.000928,-0.004594,0.026369,-0.503028,0.030734,-0.290808,-263.591037,-0.879727,63.286644
6.6469,0.010662,0.00687,0.029578,0.0,0.0,0.0,0.026369,-0.503028,0.030734,-0.290808,-263.591037,-0.879727,63.286644
6.6664,0.010529,0.007075,0.030878,0.0,0.0,0.0,0.025745,-0.502907,0.029578,-0.215931,-263.591038,-0.879727,63.286644
6.687,0.010581,0.006906,0.03021,0.0,0.0,0.0,0.025781,-0.502891,0.029668,-0.215931,-263.591038,-0.879727,63.286644
6.7067,0.010542,0.007053,0.03147,0.0,0.0,0.0,0.025985,-0.502862,0.03021,-0.215931,-263.591038,-0.879727,63.286644
6.727,0.010391,0.006996,0.031075,0.0,0.0,0.0,0.026336,-0.502764,0.030943,-0.215931,-263.591038,-0.879727,63.286644
6.7463,0.010791,0.006558,0.031899,0.0,0.0,0.0,0.026336,-0.502764,0.030943,-0.215931,-263.591038,-0.879727,63.286644
6.7664,0.010579,0.00668,0.029808,0.0,0.0,0.0,0.027057,-0.503183,0.031899,-0.215931,-263.591038,-0.879727,63.286644
6.7868,0.010632,0.007093,0.029918,0.0,0.0,0.0,0.026967,-0.503177,0.031752,-0.215931,-263.591038,-0.879727,63.286644
6.8064,0.010502,0.006427,0.0302,0.0,0.0,0.0,0.025888,-0.502678,0.029918,-0.215931,-263.591038,-0.879727,63.286644
6.8267,0.010671,0.00674,0.032027,0.0,0.0,0.0,0.025896,-0.503056,0.030079,-0.215931,-263.591038,-0.879727,63.286644
6.8468,0.010843,0.006824,0.031607,0.0,0.0,0.0,0.025896,-0.503056,0.030079,-0.215931,-263.591038,-0.879727,63.286644
6.8668,0.010416,0.006537,0.03108,0.0,0.0,0.0,0.026961,-0.502922,0.031607,-0.215931,-263.591038,-0.879727,63.286644
6.8873,0.01067,0.006925,0.030308,-8.6e-05,-5e-05,0.0,0.026915,-0.502941,0.031573,-0.215931,-263.591038,-0.879727,63.286644
6.9065,0.010575,0.007034,0.029871,-8.6e-05,-5e-05,0.0,0.026124,-0.502841,0.030308,-0.215931,-263.591038,-0.879727,63.286644
6.9268,0.010575,0.00703,0.031951,-8.6e-05,-5e-05,0.0,0.025947,-0.502784,0.030063,-0.215931,-263.591038,-0.879727,63.286644
6.9466,0.010523,0.006954,0.030851,-8.6e-05,-5e-05,0.0,0.025947,-0.502784,0.030063,-0.215931,-263.591038,-0.879727,63.286644
6.9664,0.010502,0.006224,0.031382,-8.6e-05,-5e-05,0.0,0.026255,-0.502804,0.030851,-0.140912,-263.591038,-0.804709,63.286644
6.987,0.010793,0.00683,0.031248,-8.6e-05,-5e-05,0.0,0.026272,-0.502855,0.030888,-0.140912,-263.591038,-0.804709,63.286644
7.0065,0.010598,0.006648,0.031667,-8.6e-05,-5e-05,0.0,0.026727,-0.502921,0.031248,-0.065917,-263.591038,-0.729714,63.286644
7.0268,0.010631,0.0066,0.032016,-8.6e-05,-5e-05,0.0,0.026738,-0.503022,0.031488,-0.065917,-263.591038,-0.729714,63.286644
7.0465,0.010597,0.006718,0.029821,-8.6e-05,-5e-05,0.0,0.026738,-0.503022,0.031488,-0.065917,-263.591038,-0.729714,63.286644
7.0666,0.010614,0.006893,0.030908,-8.6e-05,-5e-05,0.0,0.025803,-0.503055,0.029821,0.009179,-263.591038,-0.654618,63.286644
7.0868,0.010732,0.006765,0.031303,-8.6e-05,-5e-05,0.0,0.025842,-0.503042,0.029894,0.009179,-263.591038,-0.654618,63.286644
7.1068,0.010399,0.007034,0.029565,-0.001558,-0.000911,-0.004561,0.026694,-0.502985,0.031303,0.084072,-263.591038,-0.579725,63.286644
7.1265,0.010543,0.006701,0.031657,-0.003024,-0.001769,-0.008854,0.026005,-0.502849,0.03032,0.084072,-263.591038,-0.579725,63.286644
7.1467,0.010194,0.006875,0.032081,-0.004419,-0.002585,-0.012939,0.026005,-0.502849,0.03032,0.084072,-263.591038,-0.579725,63.286644
7.1666,0.010886,0.006936,0.030044,-0.005743,-0.00336,-0.016816,0.026553,-0.502863,0.032081,0.159082,-263.591038,-0.504715,63.286644
7.187,0.010431,0.006921,0.031215,-0.006965,-0.004075,-0.020396,0.026528,-0.502861,0.031937,0.159082,-263.591038,-0.504715,63.286644
7.2068,0.01056,0.00657,0.030559,-0.008121,-0.004751,-0.023779,0.026348,-0.502831,0.031215,0.234186,-263.591038,-0.579819,63.286644
7.2268,0.010444,0.006716,0.031762,-0.009193,-0.005378,-0.026917,0.02623,-0.503037,0.03084,0.234186,-263.591038,-0.579819,63.286644
7.2473,0.010519,0.006477,0.02899,-0.010192,-0.005963,-0.029843,0.02623,-0.503037,0.03084,0.234186,-263.591038,-0.579819,63.286644
7.2665,0.010938,0.006682,0.030265,-0.011105,-0.006497,-0.032517,0.025302,-0.503309,0.02899,0.309151,-263.591038,-0.654784,63.286643
7.2868,0.010836,0.006941,0.031434,-0.011942,-0.006987,-0.034967,0.025378,-0.503293,0.029081,0.309151,-263.591038,-0.654784,63.286643
7.3065,0.010549,0.00666,0.029433,-0.012698,-0.007429,-0.037181,0.026865,-0.502807,0.031434,0.384253,-263.591038,-0.729886,63.286643
7.3268,0.010628,0.006804,0.030941,-0.013375,-0.007825,-0.039163,0.026126,-0.502983,0.030304,0.384253,-263.591038,-0.729886,63.286643
7.3464,0.010622,0.007067,0.029079,-0.013972,-0.008175,-0.040911,0.026126,-0.502983,0.030304,0.384253,-263.591038,-0.729886,63.286643
7.3667,0.010497,0.006876,0.029467,-0.014489,-0.008477,-0.042425,0.02545,-0.502718,0.029079,0.459054,-263.591039,-0.804687,63.286643
7.3871,0.010711,0.006872,0.031201,-0.014926,-0.008733,-0.043706,0.025457,-0.502735,0.029115,0.459054,-263.591039,-0.804687,63.286643
7.4065,0.01029,0.006642,0.031738,-0.015287,-0.008944,-0.044762,0.026621,-0.50288,0.0312,0.5349,-263.591042,-0.877397,63.286641
7.4266,0.010388,0.006774,0.029815,-0.015563,-0.009106,-0.045571,0.026537,-0.503006,0.031505,0.5349,-263.591042,-0.877397,63.286641
7.4466,0.010667,0.006937,0.031427,-0.015762,-0.009222,-0.046154,0.026537,-0.503006,0.031505,0.5349,-263.591042,-0.877397,63.286641
7.4665,0.010833,0.006731,0.032149,-0.015882,-0.009292,-0.046504,0.026691,-0.502811,0.031425,0.609177,-263.591058,-0.877397,63.286631
7.4866,0.010607,0.00675,0.032155,-0.015922,-0.009315,-0.046621,0.026728,-0.502825,0.031474,0.609177,-263.591058,-0.877397,63.286631
7.5065,0.01062,0.0066,0.029794,-0.015882,-0.009292,-0.046504,0.026999,-0.502987,0.032148,0.684166,-263.591136,-0.877397,63.286584
7.5266,0.010883,0.006913,0.030545,-0.015762,-0.009222,-0.046154,0.026321,-0.503093,0.030805,0.684166,-263.591136,-0.877397,63.286584
7.5465,0.010367,0.006493,0.029734,-0.015564,-0.009106,-0.045572,0.026321,-0.503093,0.030805,0.684166,-263.591136,-0.877397,63.286584
7.5667,0.010239,0.006899,0.031393,-0.015285,-0.008943,-0.044756,0.025509,-0.503286,0.029698,0.759173,-263.591451,-0.877397,63.286392
7.5868,0.010492,0.006981,0.031823,-0.014927,-0.008733,-0.043708,0.02559,-0.503238,0.029886,0.759173,-263.591451,-0.877397,63.286392
7.6068,0.010384,0.007089,0.029998,-0.014488,-0.008477,-0.042423,0.026671,-0.502775,0.031733,0.835309,-263.592402,-0.877397,63.285815
7.6268,0.010399,0.006647,0.030963,-0.013967,-0.008172,-0.040898,0.026114,-0.502725,0.030756,0.835309,-263.592402,-0.877397,63.285815
7.6471,0.01054,0.006917,0.030824,-0.013375,-0.007825,-0.039163,0.026114,-0.502725,0.030756,0.835309,-263.592402,-0.877397,63.285815
7.6672,0.010827,0.006751,0.03106,-0.012694,-0.007427,-0.037169,0.026111,-0.502893,0.03052,0.909054,-263.594821,-0.877397,63.284345
7.687,0.010775,0.006646,0.029711,-0.011939,-0.006985,-0.034958,0.026141,-0.502901,0.030545,0.909054,-263.594821,-0.877397,63.284345
7.7065,0.010261,0.007009,0.029207,-0.011086,-0.006486,-0.03246,0.025721,-0.503215,0.029243,0.984088,-263.599315,-0.877397,63.281615
7.7264,0.010743,0.006836,0.028599,-0.010187,-0.00596,-0.02983,0.025379,-0.502979,0.029166,0.984088,-263.599315,-0.877397,63.281615
7.7466,0.010631,0.007184,0.030023,-0.009194,-0.005379,-0.026921,0.025379,-0.502979,0.029166,0.984088,-263.599315,-0.877397,63.281615
7.7666,0.011042,0.006543,0.028013,-0.008116,-0.004748,-0.023764,0.025573,-0.502768,0.029093,1.059073,-263.60628,-0.877397,63.277384
7.7867,0.010326,0.006461,0.027853,-0.006964,-0.004074,-0.02039,0.025549,-0.502804,0.029002,1.059073,-263.60628,-0.877397,63.277384
7.8065,0.010991,0.006162,0.027369,-0.00573,-0.003353,-0.016778,0.024229,-0.503514,0.02701,1.134072,-263.614012,-0.877397,63.272687
7.8263,0.010839,0.005902,0.028315,-0.004414,-0.002583,-0.012925,0.0246,-0.503611,0.027109,1.134072,-263.614012,-0.877397,63.272687
7.8466,0.011109,0.006184,0.027926,-0.003026,-0.001771,-0.008861,0.0246,-0.503611,0.027109,1.134072,-263.614012,-0.877397,63.272687
7.8665,0.011269,0.006167,0.027173,-0.001552,-0.000908,-0.004543,0.025025,-0.503819,0.02696,1.172037,-263.621009,-0.877397,63.268437
7.887,0.011135,0.006297,0.025861,0.0,0.0,0.0,0.025023,-0.503812,0.026949,1.172037,-263.621009,-0.877397,63.268437
7.9067,0.010908,0.006329,0.025998,0.0,0.0,0.0,0.024207,-0.503604,0.025518,1.172037,-263.624127,-0.877397,63.266542
7.9266,0.01078,0.006238,0.02665,0.0,0.0,0.0,0.024169,-0.503553,0.025748,1.172037,-263.624127,-0.877397,63.266542
7.9468,0.011054,0.00612,0.026895,0.0,0.0,0.0,0.024169,-0.503553,0.025748,1.172037,-263.624127,-0.877397,63.266542
7.9666,0.011484,0.006045,0.025468,0.0,0.0,0.0,0.024768,-0.503695,0.026895,1.172037,-263.624127,-0.877397,63.266542
7.9865,0.011201,0.005766,0.026904,0.0,0.0,0.0,0.024749,-0.503702,0.026801,1.172037,-263.624127,-0.877397,63.266542
8.0066,0.010724,0.005681,0.026049,0.0,0.0,0.0,0.02492,-0.504049,0.026904,1.172037,-263.624127,-0.877397,63.266542
8.0267,0.011199,0.006198,0.026773,0.0,0.0,0.0,0.024401,-0.504104,0.026417,1.172037,-263.624127,-0.877397,63.266542
8.0466,0.011198,0.005959,0.026057,0.0,0.0,0.0,0.024401,-0.504104,0.026417,1.172037,-263.624127,-0.877397,63.266542
8.0665,0.010924,0.005862,0.026958,0.0,0.0,0.0,0.024485,-0.503868,0.026057,1.172037,-263.624127,-0.877397,63.266542
8.0869,0.011308,0.005774,0.025524,0.0,0.0,0.0,0.024498,-0.503874,0.026116,1.172037,-263.624127,-0.877397,63.266542
8.1064,0.011238,0.006038,0.025925,-9e-05,-4.3e-05,0.0,0.024324,-0.504059,0.025524,1.172037,-263.624127,-0.877397,63.266542
8.127,0.011051,0.005669,0.025508,-9e-05,-4.3e-05,0.0,0.0244,-0.503906,0.025752,1.172037,-263.624127,-0.877397,63.266542
8.1464,0.011031,0.005943,0.025834,-9e-05,-4.3e-05,0.0,0.0244,-0.503906,0.025752,1.172037,-263.624127,-0.877397,63.266542
8.1665,0.011463,0.006328,0.026523,-9e-05,-4.3e-05,0.0,0.024205,-0.503887,0.025834,1.172037,-263.624127,-0.877397,63.266542
8.1864,0.011335,0.006042,0.025977,-9e-05,-4.3e-05,0.0,0.024259,-0.50386,0.025882,1.172037,-263.624127,-0.877397,63.266542
8.2071,0.010866,0.006081,0.02518,-9e-05,-4.3e-05,0.0,0.024582,-0.503786,0.025977,1.097034,-263.624127,-0.802394,63.266542
8.2271,0.011329,0.005593,0.023044,-9e-05,-4.3e-05,0.0,0.024084,-0.50377,0.025523,1.097034,-263.624127,-0.802394,63.266542
8.2466,0.011171,0.006118,0.024158,-9e-05,-4.3e-05,0.0,0.024084,-0.50377,0.025523,1.097034,-263.624127,-0.802394,63.266542
8.2664,0.010958,0.006181,0.025391,-9e-05,-4.3e-05,0.0,0.02349,-0.503733,0.024158,1.022044,-263.624127,-0.727404,63.266542
8.2865,0.011368,0.006332,0.025371,-9e-05,-4.3e-05,0.0,0.023521,-0.503727,0.02425,1.022044,-263.624127,-0.727404,63.266542
8.3069,0.011355,0.006375,0.026702,-9e-05,-4.3e-05,0.0,0.024306,-0.503504,0.025371,0.946897,-263.624127,-0.652258,63.266542
8.3265,0.011062,0.005842,0.025514,-0.001663,-0.000796,-0.003706,0.024684,-0.50347,0.026128,0.946897,-263.624127,-0.652258,63.266542
8.3466,0.010849,0.006015,0.025755,-0.003261,-0.001562,-0.007268,0.024684,-0.50347,0.026128,0.946897,-263.624127,-0.652258,63.266542
8.3664,0.010554,0.006082,0.026587,-0.004758,-0.002279,-0.010606,0.023983,-0.503816,0.025755,0.872036,-263.624127,-0.577397,63.266542
8.3868,0.011116,0.005758,0.025722,-0.006176,-0.002958,-0.013766,0.023992,-0.503811,0.025812,0.872036,-263.624127,-0.577397,63.266542
8.4067,0.011501,0.006142,0.026825,-0.00751,-0.003597,-0.01674,0.024179,-0.504095,0.025626,0.947037,-263.62514,-0.652398,63.265897
8.4266,0.011255,0.005993,0.025716,-0.008754,-0.004192,-0.019512,0.024742,-0.503859,0.026295,0.947037,-263.62514,-0.652398,63.265897
8.4465,0.011337,0.006199,0.027128,-0.009912,-0.004747,-0.022093,0.024742,-0.503859,0.026295,0.947037,-263.62514,-0.652398,63.265897
8.4664,0.011234,0.005802,0.026495,-0.010987,-0.005261,-0.024489,0.024954,-0.503707,0.026674,1.022038,-263.628654,-0.723017,63.263539
8.4867,0.01134,0.005885,0.025304,-0.011975,-0.005735,-0.026691,0.024934,-0.503731,0.02665,1.022038,-263.628654,-0.723017,63.263539
8.5065,0.010988,0.006107,0.024314,-0.012904,-0.006179,-0.028761,0.023932,-0.50406,0.024632,1.073018,-263.634667,-0.723017,63.258682
8.5266,0.01108,0.005902,0.02441,-0.013697,-0.006559,-0.030529,0.023582,-0.503893,0.024366,1.073018,-263.634667,-0.723017,63.258682
8.5464,0.011164,0.005456,0.024561,-0.014424,-0.006908,-0.03215,0.023582,-0.503893,0.024366,1.073018,-263.634667,-0.723017,63.258682
8.5668,0.011163,0.00557,0.023878,-0.015072,-0.007218,-0.033594,0.023155,-0.504601,0.023396,1.073018,-263.64318,-0.723017,63.252294
8.5869,0.011543,0.005467,0.02419,-0.015629,-0.007485,-0.034837,0.023154,-0.504584,0.023398,1.073018,-263.64318,-0.723017,63.252294
8.6065,0.011682,0.005377,0.021298,-0.016102,-0.007711,-0.03589,0.023351,-0.504618,0.02302,1.073018,-263.654194,-0.723017,63.244598
8.6267,0.011295,0.005194,0.021554,-0.016489,-0.007896,-0.036752,0.022827,-0.504585,0.021897,1.073018,-263.654194,-0.723017,63.244598
8.6468,0.01139,0.004963,0.021076,-0.016789,-0.00804,-0.037421,0.022827,-0.504585,0.021897,1.073018,-263.654194,-0.723017,63.244598
8.6664,0.011096,0.005192,0.01883,-0.017004,-0.008143,-0.037901,0.021385,-0.505304,0.01938,1.073018,-263.667287,-0.723017,63.236261
8.6866,0.011731,0.00497,0.020553,-0.017134,-0.008205,-0.03819,0.02132,-0.505275,0.019301,1.073018,-263.667287,-0.723017,63.236261
8.7072,0.011666,0.004683,0.015757,-0.017177,-0.008226,-0.038287,0.021569,-0.505246,0.019106,1.073018,-263.681353,-0.723017,63.227304
8.7271,0.011605,0.004784,0.0177,-0.017134,-0.008205,-0.038191,0.020436,-0.505292,0.017035,1.073018,-263.681353,-0.723017,63.227304
8.747,0.011649,0.004619,0.018654,-0.017005,-0.008144,-0.037903,0.020436,-0.505292,0.017035,1.073018,-263.681353,-0.723017,63.227304
8.7665,0.011629,0.003813,0.015971,-0.016791,-0.008041,-0.037425,0.020335,-0.505707,0.016795,1.073018,-263.695706,-0.723017,63.218164
8.7865,0.011541,0.004313,0.015703,-0.016492,-0.007898,-0.03676,0.020278,-0.505744,0.016695,1.073018,-263.695706,-0.723017,63.218164
8.8067,0.011557,0.003501,0.014893,-0.016107,-0.007713,-0.0359,0.018897,-0.505949,0.014238,1.073018,-263.709952,-0.723017,63.209092
8.8267,0.011563,0.003849,0.014167,-0.015635,-0.007488,-0.03485,0.018959,-0.50627,0.014425,1.073018,-263.709952,-0.723017,63.209092
8.8468,0.01209,0.003768,0.014934,-0.015077,-0.00722,-0.033604,0.018959,-0.50627,0.014425,1.073018,-263.709952,-0.723017,63.209092
8.8669,0.011717,0.003311,0.012875,-0.014431,-0.006911,-0.032165,0.018909,-0.50657,0.013145,1.073018,-263.723769,-0.723017,63.200294
8.8869,0.011906,0.003588,0.012449,-0.013703,-0.006562,-0.030543,0.018846,-0.506586,0.013081,1.073018,-263.723769,-0.723017,63.200294
8.9067,0.012206,0.002593,0.010922,-0.012885,-0.00617,-0.028719,0.017676,-0.506658,0.011153,1.073018,-263.736398,-0.723017,63.192251
8.9269,0.012267,0.002958,0.008485,-0.011978,-0.005736,-0.026699,0.01766,-0.507104,0.010857,1.073018,-263.736398,-0.723017,63.192251
8.9467,0.012295,0.002885,0.012871,-0.010998,-0.005267,-0.024514,0.01766,-0.507104,0.010857,1.073018,-263.736398,-0.723017,63.192251
8.9665,0.0122,0.002623,0.009955,-0.009925,-0.004753,-0.022121,0.018194,-0.507401,0.01138,1.073018,-263.747878,-0.723017,63.184941
8.9867,0.012324,0.002527,0.010366,-0.008769,-0.004199,-0.019545,0.018124,-0.507406,0.011261,1.073018,-263.747878,-0.723017,63.184941
9.0065,0.012304,0.002293,0.00847,-0.007521,-0.003602,-0.016764,0.017188,-0.507653,0.009419,1.073018,-263.757094,-0.723017,63.179072
9.0268,0.012443,0.002303,0.0077,-0.006187,-0.002963,-0.013791,0.016813,-0.5077,0.008758,1.073018,-263.757094,-0.723017,63.179072
9.0467,0.012143,0.002531,0.008626,-0.00477,-0.002284,-0.010632,0.016813,-0.5077,0.008758,1.073018,-263.757094,-0.723017,63.179072
9.067,0.011906,0.001982,0.008294,-0.00326,-0.001561,-0.007267,0.016117,-0.507658,0.007675,1.073018,-263.764439,-0.723017,63.174395
9.0869,0.012042,0.001983,0.007982,-0.001683,-0.000806,-0.00375,0.016108,-0.507686,0.007692,1.073018,-263.764439,-0.723017,63.174395
9.1064,0.01229,0.001957,0.006209,-9e-06,-4e-06,-1.9e-05,0.015929,-0.508091,0.007571,1.073018,-263.768434,-0.723017,63.171851
9.1265,0.012446,0.002052,0.006707,0.0,0.0,0.0,0.015637,-0.508069,0.006746,1.073018,-263.768434,-0.723017,63.171851
9.1467,0.012079,0.001911,0.006526,0.0,0.0,0.0,0.015637,-0.508069,0.006746,1.073018,-263.768434,-0.723017,63.171851
9.1669,0.012471,0.002031,0.007107,0.0,0.0,0.0,0.015326,-0.508118,0.006344,1.073018,-263.769844,-0.723017,63.170953
9.1871,0.01244,0.001929,0.005227,0.0,0.0,0.0,0.015375,-0.508109,0.00639,1.073018,-263.769844,-0.723017,63.170953
9.207,0.012418,0.002287,0.00496,0.0,0.0,0.0,0.015105,-0.508064,0.005227,1.073018,-263.769844,-0.723017,63.170953
9.227,0.012509,0.001946,0.008066,0.0,0.0,0.0,0.015014,-0.507858,0.005072,1.073018,-263.769844,-0.723017,63.170953
9.247,0.01222,0.00164,0.006204,0.0,0.0,0.0,0.015014,-0.507858,0.005072,1.073018,-263.769844,-0.723017,63.170953
9.2672,0.012392,0.00167,0.00852,0.0,0.0,0.0,0.015384,-0.50835,0.006204,1.073018,-263.769844,-0.723017,63.170953
9.2869,0.012217,0.00222,0.006819,0.0,0.0,0.0,0.015487,-0.508347,0.006381,1.073018,-263.769844,-0.723017,63.170953
9.3066,0.011904,0.002208,0.006898,0.0,0.0,0.0,0.015695,-0.507768,0.006819,1.073018,-263.769844,-0.723017,63.170953
9.3266,0.012401,0.002046,0.00686,0.0,0.0,0.0,0.015541,-0.507775,0.006863,1.073018,-263.769844,-0.723017,63.170953
9.3471,0.012077,0.001755,0.007572,-9.9e-05,-1.6e-05,0.0,0.015541,-0.507775,0.006863,1.073018,-263.769844,-0.723017,63.170953
9.3669,0.012309,0.002155,0.007549,-9.9e-05,-1.6e-05,0.0,0.015939,-0.508231,0.007572,1.073018,-263.769844,-0.723017,63.170953
9.387,0.012236,0.00202,0.005106,-9.9e-05,-1.6e-05,0.0,0.015955,-0.508202,0.007571,1.073018,-263.769844,-0.723017,63.170953
9.4076,0.012534,0.002026,0.006841,-9.9e-05,-1.6e-05,0.0,0.01484,-0.507973,0.005106,0.997929,-263.769844,-0.647929,63.170953
9.4264,0.012079,0.001826,0.005803,-9.9e-05,-1.6e-05,0.0,0.015511,-0.507967,0.00609,0.997929,-263.769844,-0.647929,63.170953
9.4466,0.012753,0.001914,0.005646,-9.9e-05,-1.6e-05,0.0,0.015511,-0.507967,0.00609,0.997929,-263.769844,-0.647929,63.170953
9.4665,0.012469,0.002088,0.007544,-9.9e-05,-1.6e-05,0.0,0.015632,-0.508078,0.005646,0.923016,-263.769844,-0.573016,63.170953
9.4867,0.012354,0.00185,0.006746,-9.9e-05,-1.6e-05,0.0,0.01568,-0.508065,0.005778,0.923016,-263.769844,-0.573016,63.170953
9.5067,0.012531,0.002136,0.007145,-9.9e-05,-1.6e-05,0.0,0.015795,-0.508138,0.006746,0.84803,-263.769844,-0.498029,63.170953
9.5264,0.012321,0.002259,0.005417,-9.9e-05,-1.6e-05,0.0,0.016011,-0.507975,0.006973,0.84803,-263.769844,-0.498029,63.170953
9.5468,0.012359,0.00168,0.005534,-9.9e-05,-1.6e-05,0.0,0.016011,-0.507975,0.006973,0.84803,-263.769844,-0.498029,63.170953
9.5665,0.012155,0.00194,0.008031,-0.001811,-0.000286,-0.001,0.015181,-0.508312,0.005534,0.773037,-263.769844,-0.423036,63.170953
9.5867,0.012334,0.00185,0.008631,-0.003533,-0.000558,-0.001952,0.015256,-0.508293,0.005709,0.773037,-263.769844,-0.423036,63.170953
9.6065,0.012519,0.002157,0.006022,-0.005165,-0.000816,-0.002854,0.016735,-0.508131,0.008631,0.698027,-263.769844,-0.348026,63.170953
9.6264,0.012333,0.002285,0.006633,-0.006698,-0.001058,-0.003701,0.016081,-0.507961,0.007141,0.698027,-263.769844,-0.348026,63.170953
9.6471,0.012437,0.001925,0.0065,-0.008144,-0.001287,-0.0045,0.016081,-0.507961,0.007141,0.698027,-263.769844,-0.348026,63.170953
9.6671,0.012423,0.001556,0.007287,-0.009494,-0.0015,-0.005246,0.015712,-0.508073,0.006468,0.622972,-263.77024,-0.272972,63.170593
9.6869,0.012281,0.002086,0.006229,-0.010756,-0.001699,-0.005944,0.015739,-0.508097,0.006521,0.622972,-263.77024,-0.272972,63.170593
9.7071,0.011898,0.002207,0.003895,-0.01195,-0.001888,-0.006603,0.015285,-0.507939,0.006115,0.548023,-263.77229,-0.198023,63.168727
9.7267,0.012547,0.001789,0.005561,-0.012991,-0.002052,-0.007178,0.014471,-0.507858,0.004846,0.548023,-263.77229,-0.198023,63.168727
9.7466,0.011938,0.001917,0.006052,-0.013964,-0.002206,-0.007716,0.014471,-0.507858,0.004846,0.548023,-263.77229,-0.198023,63.168727
9.7667,0.011792,0.00188,0.005521,-0.014852,-0.002346,-0.008207,0.014567,-0.508151,0.005793,0.473017,-263.776512,-0.177607,63.164883
9.7869,0.011446,0.001877,0.004906,-0.01564,-0.002471,-0.008642,0.014557,-0.508151,0.005766,0.473017,-263.776512,-0.177607,63.164883
9.8065,0.011175,0.001775,0.00643,-0.016343,-0.002582,-0.009031,0.013412,-0.508204,0.004609,0.460015,-263.782715,-0.177607,63.159236
9.8265,0.011449,0.001801,0.006557,-0.016948,-0.002678,-0.009365,0.013934,-0.508221,0.005603,0.460015,-263.782715,-0.177607,63.159236
9.8471,0.011804,0.001851,0.005925,-0.017457,-0.002758,-0.009646,0.013934,-0.508221,0.005603,0.460015,-263.782715,-0.177607,63.159236
9.8666,0.010492,0.001705,0.006168,-0.017876,-0.002824,-0.009878,0.014066,-0.508264,0.005505,0.460015,-263.789697,-0.177607,63.15288
9.887,0.011299,0.001362,0.005215,-0.018203,-0.002876,-0.010059,0.014017,-0.508269,0.005539,0.460015,-263.789697,-0.177607,63.15288
9.9066,0.010371,0.001433,0.007472,-0.018436,-0.002913,-0.010187,0.013285,-0.508741,0.004842,0.460015,-263.797502,-0.177607,63.145774
9.9266,0.010438,0.001616,0.005346,-0.018575,-0.002935,-0.010264,0.013715,-0.508647,0.006304,0.460015,-263.797502,-0.177607,63.145774
9.9466,0.010187,0.001691,0.005188,-0.018622,-0.002942,-0.01029,0.013715,-0.508647,0.006304,0.460015,-263.797502,-0.177607,63.145774
9.9667,0.009532,0.001285,0.003883,-0.018576,-0.002935,-0.010265,0.01195,-0.508446,0.0047,0.460015,-263.805626,-0.177607,63.138378
9.987,0.009767,0.001384,0.005454,-0.018437,-0.002913,-0.010188,0.011893,-0.50847,0.004626,0.460015,-263.805626,-0.177607,63.138378
10.0066,0.009301,0.001139,0.005429,-0.018204,-0.002876,-0.010059,0.011831,-0.508726,0.005057,0.460015,-263.813938,-0.177607,63.130811
10.0269,0.008258,0.001317,0.004334,-0.017879,-0.002825,-0.009879,0.011876,-0.508814,0.005219,0.460015,-263.813938,-0.177607,63.130811
10.0469,0.009023,0.000954,0.005505,-0.017458,-0.002758,-0.009647,0.011876,-0.508814,0.005219,0.460015,-263.813938,-0.177607,63.130811
10.0668,0.00819,0.001101,0.00327,-0.016948,-0.002678,-0.009365,0.010935,-0.509185,0.005009,0.460015,-263.822159,-0.177607,63.123328
10.0865,0.008259,0.001152,0.004202,-0.016344,-0.002582,-0.009031,0.010843,-0.50917,0.004885,0.460015,-263.822159,-0.177607,63.123328
10.1066,0.00738,0.000975,0.004313,-0.015644,-0.002472,-0.008644,0.009729,-0.508953,0.00383,0.460015,-263.829952,-0.177607,63.116233
10.1268,0.007436,0.001205,0.004527,-0.014854,-0.002347,-0.008208,0.009558,-0.509005,0.004057,0.460015,-263.829952,-0.177607,63.116233
10.1466,0.007422,0.001221,0.002083,-0.013969,-0.002207,-0.007719,0.009558,-0.509005,0.004057,0.460015,-263.829952,-0.177607,63.116233
10.1666,0.007219,0.00076,0.00378,-0.012991,-0.002052,-0.007179,0.00769,-0.508905,0.001644,0.460015,-263.837257,-0.177607,63.109583
10.1867,0.006949,0.000789,0.003403,-0.011921,-0.001883,-0.006587,0.007774,-0.508932,0.001787,0.460015,-263.837257,-0.177607,63.109583
10.2066,0.006132,0.000705,0.002395,-0.010757,-0.0017,-0.005944,0.008147,-0.509295,0.003106,0.460015,-263.843485,-0.177607,63.103913
10.2266,0.006657,0.000704,0.002199,-0.009503,-0.001501,-0.005251,0.007627,-0.509305,0.002663,0.460015,-263.843485,-0.177607,63.103913
10.2466,0.006423,0.000382,0.001222,-0.008152,-0.001288,-0.004505,0.007627,-0.509305,0.002663,0.460015,-263.843485,-0.177607,63.103913
10.2666,0.006148,0.000553,0.002858,-0.006708,-0.00106,-0.003707,0.006467,-0.50971,0.000901,0.460015,-263.848807,-0.177607,63.099068
10.2873,0.005727,0.000217,0.001003,-0.005173,-0.000817,-0.002859,0.006533,-0.509693,0.001033,0.460015,-263.848807,-0.177607,63.099068
10.3066,0.005807,0.000312,0.001277,-0.003537,-0.000559,-0.001955,0.005924,-0.509833,0.000829,0.460015,-263.852446,-0.177607,63.095756
10.3265,0.005458,0.000303,0.002965,-0.001818,-0.000287,-0.001005,0.006188,-0.509757,0.001062,0.460015,-263.852446,-0.177607,63.095756
10.3465,0.005801,0.000511,0.003064,-2e-06,-0.0,-1e-06,0.006188,-0.509757,0.001062,0.460015,-263.852446,-0.177607,63.095756
10.3666,0.005622,0.000155,0.002462,0.0,0.0,0.0,0.007112,-0.509527,0.002925,0.460015,-263.854755,-0.177607,63.093653
10.3864,0.005526,0.000454,0.003402,0.0,0.0,0.0,0.007089,-0.50955,0.002889,0.460015,-263.854755,-0.177607,63.093653
10.4068,0.005399,0.000415,0.000373,0.0,0.0,0.0,0.00726,-0.509543,0.003402,0.460015,-263.854756,-0.177607,63.093652
10.4265,0.005294,0.000435,0.003658,0.0,0.0,0.0,0.00631,-0.509567,0.001679,0.460015,-263.854756,-0.177607,63.093652
10.4467,0.005425,0.000299,0.00244,0.0,0.0,0.0,0.00631,-0.509567,0.001679,0.460015,-263.854756,-0.177607,63.093652
10.4665,0.005623,0.000663,0.000358,0.0,0.0,0.0,0.006669,-0.5097,0.00244,0.460015,-263.854756,-0.177607,63.093652
10.4866,0.005521,0.000248,0.001158,0.0,0.0,0.0,0.006613,-0.509676,0.002305,0.460015,-263.854756,-0.177607,63.093652
10.5065,0.005425,0.000392,-0.000486,0.0,0.0,0.0,0.006112,-0.509751,0.001158,0.460015,-263.854756,-0.177607,63.093652
10.5264,0.005696,0.000596,-0.000442,0.0,0.0,0.0,0.005579,-0.50967,0.000221,0.460015,-263.854756,-0.177607,63.093652
10.5464,0.006056,0.000709,0.000493,0.0,0.0,0.0,0.005579,-0.50967,0.000221,0.460015,-263.854756,-0.177607,63.093652
10.5668,0.005248,0.000428,0.002368,0.0,0.0,0.0,0.006308,-0.509291,0.000493,0.460015,-263.854756,-0.177607,63.093652
10.5868,0.005998,5e-05,0.001125,-0.0001,-8e-06,0.0,0.006318,-0.509311,0.000624,0.460015,-263.854756,-0.177607,63.093652
10.6074,0.005454,0.000398,0.000285,-0.0001,-8e-06,0.0,0.006572,-0.509949,0.001125,0.460015,-263.854756,-0.177607,63.093652
10.6265,0.005135,0.000557,0.002404,-0.0001,-8e-06,0.0,0.006017,-0.509751,0.000646,0.460015,-263.854756,-0.177607,63.093652
10.6466,0.005703,0.000543,0.000676,-0.0001,-8e-06,0.0,0.006017,-0.509751,0.000646,0.460015,-263.854756,-0.177607,63.093652
10.6665,0.005189,0.000745,0.001744,-0.0001,-8e-06,0.0,0.006048,-0.509457,0.000676,0.38487,-263.854757,-0.102462,63.093651
10.6868,0.005626,0.000304,0.000407,-0.0001,-8e-06,0.0,0.00605,-0.509443,0.000747,0.38487,-263.854757,-0.102462,63.093651
10.7072,0.00534,0.000361,0.00054,-0.0001,-8e-06,0.0,0.005833,-0.509696,0.000407,0.310018,-263.854762,-0.02761,63.093646
10.7266,0.005625,0.000412,0.000563,-0.0001,-8e-06,0.0,0.005708,-0.509663,0.000483,0.310018,-263.854762,-0.02761,63.093646
10.7465,0.00555,0.000823,0.002335,-0.0001,-8e-06,0.0,0.005708,-0.509663,0.000483,0.310018,-263.854762,-0.02761,63.093646
10.7667,0.005375,0.000317,0.001791,-0.0001,-8e-06,0.0,0.006739,-0.509176,0.002335,0.234896,-263.854777,0.047512,63.093632
10.787,0.005408,0.000232,0.000745,-2e-06,-0.0,-1e-06,0.006708,-0.509211,0.002297,0.234896,-263.854777,0.047512,63.093632
10.8065,0.005508,0.000147,0.001822,-0.000769,-6.1e-05,-0.000347,0.005785,-0.509768,0.000745,0.16001,-263.854803,0.078989,63.093605
10.8264,0.005504,0.00072,0.000744,-0.001496,-0.000118,-0.000675,0.006158,-0.509816,0.001362,0.16001,-263.854803,0.078989,63.093605
10.8465,0.005836,0.000351,0.00089,-0.002186,-0.000173,-0.000986,0.006158,-0.509816,0.001362,0.16001,-263.854803,0.078989,63.093605
10.8667,0.005826,0.000651,0.001707,-0.002835,-0.000224,-0.001279,0.00629,-0.509648,0.00089,0.235117,-263.854803,0.003882,63.093605
10.8865,0.00508,0.000203,0.000931,-0.003445,-0.000273,-0.001554,0.006317,-0.509628,0.000944,0.235117,-263.854803,0.003882,63.093605
10.9065,0.00581,0.000358,1.5e-05,-0.004017,-0.000318,-0.001812,0.005517,-0.509802,0.000919,0.310001,-263.855216,-0.071002,63.093208
10.927,0.00592,0.000139,0.002211,-0.004548,-0.00036,-0.002052,0.005683,-0.509711,0.000403,0.310001,-263.855216,-0.071002,63.093208
10.9465,0.005483,0.000754,0.000844,-0.005041,-0.000399,-0.002274,0.005683,-0.509711,0.000403,0.310001,-263.855216,-0.071002,63.093208
10.9668,0.005236,0.00053,0.001236,-0.005493,-0.000435,-0.002478,0.005783,-0.509259,0.000791,0.340833,-263.856346,-0.146056,63.092123
10.9872,0.005496,0.000582,0.000645,-0.005906,-0.000467,-0.002664,0.005786,-0.509274,0.00082,0.340833,-263.856346,-0.146056,63.092123
11.0068,0.005032,0.000594,0.002117,-0.00628,-0.000497,-0.002833,0.005635,-0.509433,0.000559,0.340833,-263.858411,-0.193899,63.090139
11.0267,0.005275,0.000581,0.001109,-0.006616,-0.000524,-0.002985,0.00588,-0.509419,0.001425,0.340833,-263.858411,-0.193899,63.090139
11.0466,0.005086,0.000683,0.002297,-0.006911,-0.000547,-0.003118,0.00588,-0.509419,0.001425,0.340833,-263.858411,-0.193899,63.090139
11.0668,0.005032,0.000323,0.002467,-0.007166,-0.000567,-0.003233,0.005971,-0.509339,0.002168,0.340833,-263.860928,-0.193899,63.087723
11.0869,0.004963,0.000354,0.000915,-0.007383,-0.000584,-0.003331,0.005988,-0.509366,0.002188,0.340833,-263.860928,-0.193899,63.087723
11.1064,0.004779,0.000352,0.000429,-0.007559,-0.000598,-0.00341,0.005164,-0.509667,0.000796,0.340833,-263.863846,-0.193899,63.084919
11.1265,0.004673,0.00018,0.001394,-0.007697,-0.000609,-0.003472,0.005036,-0.509659,0.000572,0.340833,-263.863846,-0.193899,63.084919
11.1465,0.00481,0.000258,0.001133,-0.007795,-0.000617,-0.003517,0.005036,-0.509659,0.000572,0.340833,-263.863846,-0.193899,63.084919
11.1665,0.00441,-6.9e-05,0.000514,-0.007854,-0.000622,-0.003543,0.00503,-0.509771,0.000971,0.340833,-263.866979,-0.193899,63.08191
11.1866,0.004133,0.00038,0.001473,-0.007874,-0.000623,-0.003552,0.004995,-0.509792,0.000935,0.340833,-263.866979,-0.193899,63.08191
11.2064,0.004172,0.0002,0.000593,-0.007854,-0.000622,-0.003543,0.004583,-0.509643,0.001337,0.340833,-263.870288,-0.193899,63.078733
11.2266,0.00422,-5.6e-05,0.001498,-0.007795,-0.000617,-0.003516,0.004483,-0.509736,0.000896,0.340833,-263.870288,-0.193899,63.078733
11.2467,0.003585,0.000476,0.001339,-0.007697,-0.000609,-0.003472,0.004483,-0.509736,0.000896,0.340833,-263.870288,-0.193899,63.078733
11.2668,0.003756,0.00042,0.000414,-0.007559,-0.000598,-0.00341,0.003885,-0.509554,0.001166,0.340833,-263.873629,-0.193899,63.075523
11.287,0.003946,0.000455,0.000161,-0.007382,-0.000584,-0.00333,0.00388,-0.509556,0.001111,0.340833,-263.873629,-0.193899,63.075523
11.3064,0.003476,-8.3e-05,0.000231,-0.007165,-0.000567,-0.003232,0.003731,-0.509568,2.7e-05,0.340833,-263.8769,-0.193899,63.072382
11.3268,0.003436,0.000186,-0.001237,-0.006908,-0.000547,-0.003116,0.003615,-0.509865,0.000126,0.340833,-263.8769,-0.193899,63.072382
11.3464,0.003296,0.000331,0.000765,-0.006613,-0.000523,-0.002983,0.003615,-0.509865,0.000126,0.340833,-263.8769,-0.193899,63.072382
11.3666,0.003268,7.7e-05,0.000141,-0.006279,-0.000497,-0.002833,0.003328,-0.509697,0.000603,0.340833,-263.880029,-0.193899,63.069376
11.3869,0.003399,0.000137,0.000114,-0.005905,-0.000467,-0.002664,0.003319,-0.509713,0.000566,0.340833,-263.880029,-0.193899,63.069376
11.4066,0.002874,0.000386,-0.000198,-0.005489,-0.000434,-0.002476,0.003202,-0.509884,-1e-06,0.340833,-263.882836,-0.193899,63.06668
11.4266,0.002975,0.000122,-0.000672,-0.005039,-0.000399,-0.002273,0.002926,-0.509733,-0.000128,0.340833,-263.882836,-0.193899,63.06668
