mach0312/omni-docking-bench/src/icros_test_setup/results/kinematic_sample/timeseries/trial_017.csv
t,x,y,yaw,vx,vy,wz,bl_x,bl_y,bl_yaw,front_steering_joint,front_wheel_joint,rear_steering_joint,rear_wheel_joint
0.0,0.0688,0.019038,-0.084655,-0.006476,0.000945,-0.002396,0.026064,-0.489222,-0.085633,0.079829,-263.440176,-0.356011,63.762653
0.0004,0.068615,0.018795,-0.085343,0.0,0.0,0.0,0.025896,-0.489194,-0.084937,0.079829,-263.443437,-0.356011,63.759185
0.0008,0.068794,0.018777,-0.085525,0.0,0.0,0.0,0.025896,-0.489194,-0.084937,0.079829,-263.44604,-0.356011,63.756417
0.001,0.068264,0.019049,-0.085928,0.0,0.0,0.0,0.026279,-0.489204,-0.084089,0.079829,-263.447461,-0.356011,63.754906
0.0013,0.068412,0.018571,-0.084278,0.0,0.0,0.0,0.026279,-0.489204,-0.084089,0.079829,-263.447954,-0.356011,63.754382
0.0016,0.068423,0.019302,-0.08494,0.0,0.0,0.0,0.026279,-0.489204,-0.084089,0.079829,-263.447954,-0.356011,63.754382
0.0019,0.06879,0.01926,-0.085321,0.0,0.0,0.0,0.02674,-0.489167,-0.082707,0.079829,-263.447954,-0.356011,63.754382
0.0021,0.068511,0.01931,-0.086139,0.0,0.0,0.0,0.02674,-0.489167,-0.082707,0.079829,-263.447954,-0.356011,63.754382
0.0024,0.068543,0.018932,-0.083971,0.0,0.0,0.0,0.026667,-0.48916,-0.082863,0.079829,-263.447954,-0.356011,63.754382
0.0026,0.068506,0.018988,-0.085062,0.0,0.0,0.0,0.026667,-0.48916,-0.082863,0.079829,-263.447954,-0.356011,63.754382
0.0175,0.068566,0.018955,-0.08486,-0.016,-0.016,0.03,0.025176,-0.489168,-0.085062,0.079829,-263.447954,-0.356011,63.754382
0.0375,0.068876,0.018982,-0.085884,-0.032,-0.024698,0.05,0.025269,-0.489192,-0.084948,0.079829,-263.447954,-0.356011,63.754382
0.0576,0.068677,0.019106,-0.085566,-0.048,-0.02482,0.05,0.025269,-0.489192,-0.084948,0.079829,-263.447954,-0.356011,63.754382
0.0773,0.068687,0.019068,-0.084619,-0.064,-0.024906,0.05,0.025091,-0.489028,-0.085566,0.079829,-263.447954,-0.356011,63.754382
0.0978,0.068706,0.01856,-0.085698,-0.066829,-0.024805,0.05,0.025125,-0.489033,-0.0855,0.079829,-263.447954,-0.356011,63.754382
0.1175,0.068847,0.019164,-0.086098,-0.066865,-0.024372,0.05,0.025053,-0.489569,-0.085698,0.004773,-263.447955,-0.280955,63.75438
0.1378,0.068626,0.018896,-0.084458,-0.066944,-0.025013,0.05,0.025018,-0.489215,-0.085926,0.004773,-263.447955,-0.280955,63.75438
0.1577,0.068477,0.019272,-0.086191,-0.066787,-0.024618,0.05,0.025018,-0.489215,-0.085926,0.004773,-263.447955,-0.280955,63.75438
0.1775,0.069008,0.01883,-0.084667,-0.066564,-0.025096,0.05,0.024573,-0.488834,-0.086191,-0.070225,-263.447957,-0.205957,63.754377
0.198,0.068476,0.019306,-0.085725,-0.067168,-0.024599,0.05,0.024664,-0.48887,-0.086085,-0.070225,-263.447957,-0.205957,63.754377
0.2174,0.068718,0.018448,-0.084727,-0.066571,-0.025098,0.05,0.024809,-0.488821,-0.085725,-0.088402,-263.44796,-0.130866,63.754373
0.2375,0.06831,0.018964,-0.08675,-0.06691,-0.024198,0.05,0.025235,-0.489333,-0.085158,-0.088402,-263.44796,-0.130866,63.754373
0.2574,0.068661,0.01874,-0.085434,-0.06641,-0.024811,0.05,0.025235,-0.489333,-0.085158,-0.088402,-263.44796,-0.130866,63.754373
0.278,0.068716,0.018784,-0.085844,-0.066812,-0.024531,0.05,0.025142,-0.4894,-0.085434,-0.088191,-263.447963,-0.055959,63.75437
0.2978,0.06853,0.018848,-0.085446,-0.066853,-0.024606,0.05,0.025132,-0.489396,-0.085461,-0.088191,-263.447963,-0.055959,63.75437
0.3177,0.068845,0.018853,-0.085182,-0.066672,-0.024628,0.05,0.025005,-0.489291,-0.085446,-0.086014,-263.447967,0.019037,63.754365
0.3377,0.068448,0.019006,-0.086693,-0.066991,-0.024641,0.05,0.025261,-0.489295,-0.085296,-0.086014,-263.447967,0.019037,63.754365
0.3579,0.068621,0.019049,-0.084556,-0.066545,-0.024861,0.05,0.025261,-0.489295,-0.085296,-0.086014,-263.447967,0.019037,63.754365
0.3775,0.068458,0.018804,-0.083926,-0.066767,-0.024776,0.05,0.025547,-0.489129,-0.084555,-0.088493,-263.44798,0.094043,63.754347
0.3978,0.068701,0.018727,-0.085178,-0.066641,-0.024477,0.05,0.025558,-0.489148,-0.084513,-0.088493,-263.44798,0.094043,63.754347
0.4177,0.06845,0.019185,-0.08596,-0.066859,-0.024504,0.05,0.025306,-0.489424,-0.085177,-0.085099,-263.44804,0.169095,63.75427
0.4375,0.068616,0.019125,-0.087273,-0.06655,-0.024991,0.05,0.024941,-0.489144,-0.085622,-0.085099,-263.44804,0.169095,63.75427
0.4575,0.068203,0.019417,-0.085195,-0.066688,-0.025033,0.05,0.024941,-0.489144,-0.085622,-0.085099,-263.44804,0.169095,63.75427
0.4773,0.068107,0.019053,-0.085879,-0.066304,-0.02515,0.05,0.024768,-0.488734,-0.085183,-0.090701,-263.448323,0.244038,63.753904
0.4974,0.068418,0.01884,-0.086291,-0.066222,-0.024824,0.05,0.024738,-0.488757,-0.085232,-0.090701,-263.448323,0.244038,63.753904
0.5176,0.068059,0.018716,-0.085796,-0.06654,-0.024667,0.05,0.024364,-0.489268,-0.086255,-0.08235,-263.449247,0.31904,63.752706
0.5374,0.068319,0.018759,-0.086415,-0.066205,-0.024479,0.05,0.024347,-0.489348,-0.085991,-0.08235,-263.449247,0.31904,63.752706
0.5577,0.068406,0.018654,-0.085687,-0.066445,-0.024586,0.05,0.024347,-0.489348,-0.085991,-0.08235,-263.449247,0.31904,63.752706
0.5775,0.068099,0.018913,-0.084891,-0.066559,-0.02444,0.05,0.024411,-0.48951,-0.085537,-0.086062,-263.451823,0.394036,63.74936
0.5978,0.06781,0.018943,-0.08487,-0.06625,-0.024619,0.05,0.024431,-0.489494,-0.085491,-0.086062,-263.451823,0.394036,63.74936
0.6175,0.067057,0.018706,-0.086013,-0.06596,-0.024623,0.05,0.024075,-0.489285,-0.084625,-0.089335,-263.456906,0.46904,63.743507
0.6373,0.067253,0.018783,-0.083852,-0.065202,-0.024398,0.05,0.023537,-0.489363,-0.085386,-0.089335,-263.456906,0.46904,63.743507
0.6574,0.067217,0.01883,-0.084836,-0.065444,-0.02435,0.05,0.023537,-0.489363,-0.085386,-0.089335,-263.456906,0.46904,63.743507
0.6777,0.065787,0.018753,-0.084576,-0.06538,-0.024458,0.05,0.023095,-0.489481,-0.084339,-0.089105,-263.464477,0.544139,63.735168
0.6978,0.066296,0.018641,-0.08631,-0.063968,-0.024243,0.05,0.023045,-0.489481,-0.084342,-0.089105,-263.464477,0.544139,63.735168
0.7174,0.064447,0.018756,-0.083499,-0.064442,-0.024286,0.05,0.021402,-0.48964,-0.085738,-0.094266,-263.474556,0.619051,63.72432
0.7373,0.064334,0.018574,-0.084585,-0.062658,-0.024066,0.05,0.021575,-0.489564,-0.084388,-0.094266,-263.474556,0.619051,63.72432
0.7572,0.064505,0.01859,-0.084469,-0.062535,-0.023943,0.05,0.021575,-0.489564,-0.084388,-0.094266,-263.474556,0.619051,63.72432
0.7773,0.062424,0.018326,-0.082483,-0.062706,-0.023966,0.05,0.020062,-0.489918,-0.083498,-0.09808,-263.487131,0.694098,63.710975
0.7974,0.062694,0.017989,-0.081752,-0.060702,-0.023407,0.05,0.020048,-0.489928,-0.083401,-0.09808,-263.487131,0.694098,63.710975
0.8175,0.060132,0.017925,-0.080379,-0.061016,-0.023048,0.05,0.019716,-0.490627,-0.080804,-0.105065,-263.502215,0.716675,63.695121
0.8374,0.06023,0.017649,-0.081307,-0.058498,-0.022695,0.05,0.019244,-0.490556,-0.080442,-0.105065,-263.502215,0.716675,63.695121
0.8573,0.060536,0.018011,-0.081666,-0.058598,-0.022483,0.05,0.019244,-0.490556,-0.080442,-0.105065,-263.502215,0.716675,63.695121
0.8779,0.056995,0.017585,-0.080483,-0.058865,-0.022889,0.05,0.016996,-0.49075,-0.08025,-0.116939,-263.519769,0.726521,63.676799
0.8975,0.057113,0.017566,-0.081094,-0.055397,-0.02211,0.05,0.016879,-0.490763,-0.080229,-0.116939,-263.519769,0.726521,63.676799
0.9173,0.054061,0.016852,-0.077855,-0.055502,-0.022134,0.05,0.014055,-0.491163,-0.079771,-0.136601,-263.539907,0.735469,63.655889
0.9373,0.05414,0.016944,-0.078697,-0.052587,-0.021006,0.05,0.01403,-0.491467,-0.078501,-0.136601,-263.539907,0.735469,63.655889
0.9573,0.054307,0.017178,-0.07938,-0.05264,-0.021148,0.05,0.01403,-0.491467,-0.078501,-0.136601,-263.539907,0.735469,63.655889
0.9778,0.050875,0.016211,-0.076082,-0.052774,-0.02143,0.05,0.011461,-0.491803,-0.077454,-0.15097,-263.561984,0.759961,63.632589
0.9973,0.050882,0.01676,-0.07729,-0.049496,-0.020031,0.05,0.011441,-0.491855,-0.077305,-0.15097,-263.561984,0.759961,63.632589
1.0173,0.046877,0.016165,-0.075559,-0.049436,-0.020639,0.05,0.009563,-0.492267,-0.075566,-0.176522,-263.583088,0.776246,63.606709
1.0373,0.046975,0.01542,-0.075756,-0.045523,-0.019657,0.05,0.00864,-0.492401,-0.075344,-0.176522,-263.583088,0.776246,63.606709
1.0577,0.047057,0.015891,-0.073697,-0.045673,-0.018931,0.05,0.00864,-0.492401,-0.075344,-0.176522,-263.583088,0.776246,63.606709
1.0773,0.043586,0.015011,-0.071007,-0.045759,-0.019313,0.05,0.007091,-0.493503,-0.071321,-0.209172,-263.602834,0.796118,63.579096
1.0979,0.043707,0.015221,-0.071897,-0.042411,-0.018065,0.05,0.007051,-0.493536,-0.071241,-0.209172,-263.602834,0.796118,63.579096
1.1175,0.040077,0.014484,-0.069941,-0.042501,-0.018321,0.05,0.005327,-0.494044,-0.070038,-0.248847,-263.620991,0.825274,63.553154
1.1374,0.039725,0.014815,-0.069148,-0.038967,-0.01725,0.05,0.004597,-0.494246,-0.069748,-0.248847,-263.620991,0.825274,63.553154
1.1576,0.039844,0.014651,-0.067699,-0.038606,-0.017524,0.05,0.004597,-0.494246,-0.069748,-0.248847,-263.620991,0.825274,63.553154
1.1775,0.036233,0.014284,-0.067087,-0.038762,-0.017313,0.05,0.003299,-0.494896,-0.06535,-0.28601,-263.638068,0.853322,63.528235
1.1976,0.036717,0.01404,-0.065724,-0.035194,-0.01668,0.05,0.003162,-0.494892,-0.065406,-0.28601,-263.638068,0.853322,63.528235
1.2172,0.033479,0.01312,-0.064892,-0.035715,-0.016421,0.05,0.001768,-0.495409,-0.063892,-0.325119,-263.653555,0.894064,63.504802
1.2374,0.033198,0.013186,-0.063496,-0.032558,-0.015263,0.05,0.000804,-0.495706,-0.064233,-0.325119,-263.653555,0.894064,63.504802
1.2574,0.03344,0.012995,-0.065024,-0.032294,-0.015266,0.05,0.000804,-0.495706,-0.064233,-0.325119,-263.653555,0.894064,63.504802
1.2773,0.030359,0.012317,-0.06118,-0.032525,-0.01514,0.05,-0.001354,-0.496586,-0.062737,-0.375091,-263.667769,0.930273,63.48267
1.2979,0.030704,0.012624,-0.062056,-0.029549,-0.01415,0.05,-0.001361,-0.496612,-0.062576,-0.375091,-263.667769,0.930273,63.48267
1.3178,0.028216,0.011986,-0.061855,-0.029862,-0.014504,0.05,-0.002107,-0.496867,-0.060274,-0.441715,-263.680952,0.956681,63.461989
1.3376,0.027907,0.012127,-0.05976,-0.027421,-0.013708,0.05,-0.002939,-0.497024,-0.060943,-0.441715,-263.680952,0.956681,63.461989
1.3574,0.027695,0.012,-0.057576,-0.027133,-0.013772,0.05,-0.002939,-0.497024,-0.060943,-0.441715,-263.680952,0.956681,63.461989
1.3772,0.025094,0.011473,-0.05831,-0.026959,-0.013574,0.05,-0.00301,-0.497713,-0.055336,-0.506366,-263.693408,0.986567,63.442239
1.3975,0.025362,0.011444,-0.057378,-0.024383,-0.012916,0.05,-0.003159,-0.497724,-0.055485,-0.506366,-263.693408,0.986567,63.442239
1.4176,0.022837,0.01106,-0.054779,-0.024663,-0.01288,0.05,-0.004904,-0.498164,-0.055549,-0.553473,-263.705469,1.02135,63.422591
1.4374,0.022536,0.011239,-0.055178,-0.022198,-0.012293,0.05,-0.005137,-0.498227,-0.054882,-0.553473,-263.705469,1.02135,63.422591
1.4579,0.022849,0.011145,-0.055954,-0.021882,-0.012465,0.05,-0.005137,-0.498227,-0.054882,-0.553473,-263.705469,1.02135,63.422591
1.4775,0.020595,0.010608,-0.052965,-0.02219,-0.012406,0.05,-0.006768,-0.498562,-0.053767,-0.625808,-263.716281,1.05945,63.404683
1.4974,0.020678,0.010683,-0.053234,-0.020005,-0.011684,0.05,-0.006772,-0.498583,-0.053658,-0.625808,-263.716281,1.05945,63.404683
1.5173,0.018076,0.01023,-0.050579,-0.02008,-0.011768,0.05,-0.007251,-0.498993,-0.051472,-0.690347,-263.726626,1.100096,63.387096
1.5373,0.01864,0.010074,-0.050415,-0.017535,-0.011131,0.05,-0.007612,-0.499115,-0.050741,-0.690347,-263.726626,1.100096,63.387096
1.5574,0.018304,0.010496,-0.051211,-0.018108,-0.011,0.05,-0.007612,-0.499115,-0.050741,-0.690347,-263.726626,1.100096,63.387096
1.5773,0.016473,0.00957,-0.048251,-0.017743,-0.011419,0.05,-0.008723,-0.499313,-0.048971,-0.755788,-263.73676,1.12832,63.369873
1.5974,0.016571,0.009793,-0.049283,-0.015993,-0.010354,0.048251,-0.008706,-0.499361,-0.048864,-0.755788,-263.73676,1.12832,63.369873
1.6173,0.013937,0.009042,-0.047053,-0.016069,-0.010598,0.049283,-0.009212,-0.499945,-0.047514,-0.823334,-263.746509,1.15969,63.353288
1.6381,0.014173,0.009004,-0.045906,-0.013496,-0.009688,0.047053,-0.009772,-0.500245,-0.047028,-0.823334,-263.746509,1.15969,63.353288
1.6582,0.0145,0.00928,-0.04506,-0.013744,-0.009645,0.045906,-0.009772,-0.500245,-0.047028,-0.823334,-263.746509,1.15969,63.353288
1.6775,0.011913,0.008539,-0.044012,-0.014068,-0.009924,0.04506,-0.009228,-0.500646,-0.04284,-0.874121,-263.755996,1.188923,63.336953
1.6978,0.012223,0.008952,-0.042992,-0.011526,-0.009055,0.044012,-0.009359,-0.500686,-0.042867,-0.874121,-263.755996,1.188923,63.336953
1.7178,0.010402,0.008558,-0.041793,-0.011827,-0.009469,0.042992,-0.010205,-0.500903,-0.041339,-0.929026,-263.764569,1.221044,63.321976
1.7379,0.010506,0.00841,-0.040854,-0.010035,-0.008986,0.041793,-0.01067,-0.500998,-0.041387,-0.929026,-263.764569,1.221044,63.321976
1.7576,0.010527,0.008693,-0.040235,-0.010154,-0.008832,0.040854,-0.01067,-0.500998,-0.041387,-0.929026,-263.764569,1.221044,63.321976
1.7774,0.008896,0.008541,-0.039467,-0.010169,-0.00911,0.040235,-0.01051,-0.501272,-0.038299,-0.996824,-263.77227,1.260429,63.308286
1.7972,0.008924,0.00819,-0.038474,-0.008552,-0.008885,0.039467,-0.010577,-0.501267,-0.03833,-0.996824,-263.77227,1.260429,63.308286
1.8173,0.007474,0.008096,-0.036861,-0.008603,-0.008527,0.038474,-0.011093,-0.501756,-0.036912,-1.008677,-263.779833,1.278836,63.294281
1.8375,0.007227,0.007692,-0.036334,-0.00717,-0.008365,0.036861,-0.011275,-0.501683,-0.036685,-1.008677,-263.779833,1.278836,63.294281
1.8573,0.007675,0.007687,-0.037529,-0.006943,-0.007949,0.036334,-0.011275,-0.501683,-0.036685,-1.008677,-263.779833,1.278836,63.294281
1.8778,0.006119,0.006941,-0.036069,-0.007381,-0.00797,0.037529,-0.011865,-0.502344,-0.03573,-1.058856,-263.786399,1.317148,63.281463
1.8979,0.005682,0.007694,-0.035411,-0.007381,-0.00797,0.037529,-0.011908,-0.502385,-0.035704,-1.058856,-263.786399,1.317148,63.281463
1.9178,0.004781,0.007274,-0.034677,-5.7e-05,-8.2e-05,0.0,-0.012633,-0.502263,-0.034105,-1.11717,-263.79232,1.34438,63.269904
1.9374,0.004582,0.006955,-0.034132,-5.7e-05,-8.2e-05,0.0,-0.01282,-0.502388,-0.034269,-1.11717,-263.79232,1.34438,63.269904
1.9574,0.004715,0.007165,-0.033856,-5.7e-05,-8.2e-05,0.0,-0.01282,-0.502388,-0.034269,-1.11717,-263.79232,1.34438,63.269904
1.9774,0.003431,0.006941,-0.029682,-5.7e-05,-8.2e-05,0.0,-0.012919,-0.502917,-0.032036,-1.112218,-263.798969,1.336246,63.257239
1.9978,0.003124,0.006735,-0.031524,-5.7e-05,-8.2e-05,0.0,-0.012846,-0.502921,-0.03183,-1.112218,-263.798969,1.336246,63.257239
2.0177,0.003323,0.006515,-0.031567,-5.7e-05,-8.2e-05,0.0,-0.012994,-0.503134,-0.031321,-1.037342,-263.798969,1.26137,63.254535
2.0375,0.002906,0.006444,-0.031479,-5.7e-05,-8.2e-05,0.0,-0.012873,-0.503206,-0.031437,-1.037342,-263.798969,1.26137,63.254535
2.0577,0.003268,0.007017,-0.032808,-5.7e-05,-8.2e-05,0.0,-0.012873,-0.503206,-0.031437,-1.037342,-263.798969,1.26137,63.254535
2.0774,0.003439,0.006249,-0.032109,-5.7e-05,-8.2e-05,0.0,-0.013461,-0.502708,-0.032808,-0.962285,-263.798969,1.186313,63.254535
2.0974,0.00364,0.006495,-0.031694,-5.7e-05,-8.2e-05,0.0,-0.013427,-0.502759,-0.032763,-0.962285,-263.798969,1.186313,63.254535
2.1177,0.003144,0.006883,-0.03148,-5.7e-05,-8.2e-05,0.0,-0.012521,-0.503249,-0.031694,-0.887439,-263.798969,1.111466,63.254535
2.1376,0.003285,0.006504,-0.03233,-0.000782,-0.001141,0.005122,-0.012741,-0.503031,-0.031572,-0.887439,-263.798969,1.111466,63.254535
2.158,0.003202,0.006462,-0.032395,-0.001533,-0.002238,0.010045,-0.012741,-0.503031,-0.031572,-0.887439,-263.798969,1.111466,63.254535
2.1775,0.003012,0.006993,-0.03231,-0.002243,-0.003274,0.014694,-0.013316,-0.50327,-0.032395,-0.812444,-263.798969,1.036472,63.254535
2.1977,0.003612,0.006346,-0.03062,-0.002912,-0.00425,0.019075,-0.013326,-0.503233,-0.032389,-0.812444,-263.798969,1.036472,63.254535
2.2173,0.003303,0.006549,-0.031738,-0.003541,-0.005169,0.023197,-0.012003,-0.503416,-0.030616,-0.887455,-263.798989,1.111482,63.254495
2.2377,0.003286,0.006681,-0.029631,-0.004129,-0.006027,0.027048,-0.012503,-0.50329,-0.031255,-0.887455,-263.798989,1.111482,63.254495
2.2573,0.003364,0.006833,-0.032862,-0.00468,-0.006831,0.030654,-0.012503,-0.50329,-0.031255,-0.887455,-263.798989,1.111482,63.254495
2.2773,0.003156,0.006801,-0.032948,-0.005185,-0.007569,0.033965,-0.013409,-0.502904,-0.03281,-0.962456,-263.799182,1.186484,63.254103
2.2974,0.003193,0.006671,-0.030987,-0.005651,-0.008248,0.037016,-0.013426,-0.502906,-0.032818,-0.962456,-263.799182,1.186484,63.254103
2.3179,0.00313,0.006643,-0.031606,-0.00608,-0.008875,0.039829,-0.012669,-0.503139,-0.030745,-1.037446,-263.800272,1.261474,63.251887
2.3377,0.002964,0.006753,-0.032122,-0.006464,-0.009435,0.042342,-0.012858,-0.503125,-0.031206,-1.037446,-263.800272,1.261474,63.251887
2.3582,0.002957,0.006962,-0.029209,-0.00681,-0.009939,0.044605,-0.012858,-0.503125,-0.031206,-1.037446,-263.800272,1.261474,63.251887
2.3778,0.002387,0.006345,-0.029243,-0.007115,-0.010385,0.046606,-0.012093,-0.502923,-0.028469,-1.112506,-263.803439,1.336534,63.24717
2.3979,0.002866,0.00663,-0.032392,-0.007378,-0.010769,0.048326,-0.012124,-0.502958,-0.0285,-1.112506,-263.803439,1.336534,63.24717
2.4176,0.001527,0.006102,-0.028564,-0.007601,-0.011095,0.04979,-0.013819,-0.503187,-0.031413,-1.187463,-263.809106,1.38966,63.239953
2.4375,0.001484,0.00644,-0.029173,-0.007783,-0.011361,0.050984,-0.013399,-0.503482,-0.029678,-1.187463,-263.809106,1.38966,63.239953
2.4579,0.001735,0.006284,-0.028882,-0.007926,-0.011568,0.051915,-0.013399,-0.503482,-0.029678,-1.187463,-263.809106,1.38966,63.239953
2.4774,0.000603,0.006204,-0.027635,-0.008027,-0.011717,0.052581,-0.013282,-0.503621,-0.027183,-1.195862,-263.817155,1.38966,63.230236
2.4975,7.5e-05,0.006076,-0.027328,-0.008088,-0.011806,0.052982,-0.013303,-0.503623,-0.02717,-1.195862,-263.817155,1.38966,63.230236
2.5174,-0.001404,0.006155,-0.025085,-0.008109,-0.011836,0.053116,-0.014126,-0.503918,-0.025736,-1.195862,-263.825812,1.38966,63.21802
2.538,-0.000947,0.006185,-0.025294,-0.008089,-0.011807,0.052984,-0.014199,-0.50381,-0.025167,-1.195862,-263.825812,1.38966,63.21802
2.5576,-0.001131,0.005867,-0.026048,-0.008028,-0.011718,0.052588,-0.014199,-0.50381,-0.025167,-1.195862,-263.825812,1.38966,63.21802
2.5775,-0.002858,0.005832,-0.023397,-0.007927,-0.01157,0.051924,-0.014782,-0.504332,-0.023785,-1.195862,-263.834647,1.38966,63.203303
2.5976,-0.00242,0.005729,-0.022571,-0.007785,-0.011364,0.050996,-0.014792,-0.504322,-0.023704,-1.195862,-263.834647,1.38966,63.203303
2.6173,-0.004311,0.005303,-0.021347,-0.007604,-0.011098,0.049806,-0.014245,-0.504561,-0.020577,-1.195862,-263.843428,1.38966,63.186063
2.6373,-0.004342,0.005138,-0.020584,-0.007382,-0.010775,0.048353,-0.014825,-0.504625,-0.020764,-1.195862,-263.843428,1.38966,63.186063
2.6574,-0.004345,0.005096,-0.019514,-0.007119,-0.010391,0.04663,-0.014825,-0.504625,-0.020764,-1.195862,-263.843428,1.38966,63.186063
2.6778,-0.006093,0.004892,-0.018114,-0.006813,-0.009944,0.044627,-0.014686,-0.505353,-0.017032,-1.195862,-263.851955,1.38966,63.168728
2.6978,-0.006017,0.004635,-0.018404,-0.006469,-0.009443,0.042375,-0.014744,-0.505344,-0.017042,-1.195862,-263.851955,1.38966,63.168728
2.7177,-0.007796,0.004007,-0.01568,-0.006085,-0.008882,0.039859,-0.015683,-0.505674,-0.01661,-1.195862,-263.8597,1.38966,63.152985
2.7377,-0.007417,0.004316,-0.014592,-0.005661,-0.008263,0.037082,-0.015781,-0.50587,-0.015853,-1.195862,-263.8597,1.38966,63.152985
2.7575,-0.007964,0.004714,-0.017102,-0.005195,-0.007583,0.034029,-0.015781,-0.50587,-0.015853,-1.195862,-263.8597,1.38966,63.152985
2.7776,-0.008793,0.003777,-0.014921,-0.004688,-0.006843,0.030711,-0.017007,-0.505664,-0.015043,-1.195862,-263.866764,1.38966,63.138624
2.7981,-0.008857,0.003675,-0.014794,-0.004142,-0.006046,0.027131,-0.016974,-0.505711,-0.014981,-1.195862,-263.866764,1.38966,63.138624
2.8172,-0.009731,0.003221,-0.012328,-0.003554,-0.005188,0.023282,-0.016606,-0.506559,-0.013478,-1.195862,-263.872444,1.38966,63.127077
2.8374,-0.009978,0.003382,-0.011459,-0.002927,-0.004272,0.019171,-0.016296,-0.5067,-0.012655,-1.195862,-263.872444,1.38966,63.127077
2.8575,-0.009946,0.003101,-0.012336,-0.002257,-0.003294,0.014783,-0.016296,-0.5067,-0.012655,-1.195862,-263.872444,1.38966,63.127077
2.8776,-0.010937,0.003502,-0.010734,-0.001548,-0.002259,0.01014,-0.016442,-0.507151,-0.011018,-1.195862,-263.876964,1.38966,63.117889
2.8979,-0.011152,0.002776,-0.010124,-0.000799,-0.001166,0.005234,-0.016445,-0.507112,-0.010964,-1.195862,-263.876964,1.38966,63.117889
2.918,-0.011265,0.002956,-0.010385,-9e-06,-1.4e-05,6.1e-05,-0.016404,-0.507325,-0.009552,-1.195862,-263.879431,1.38966,63.112875
2.9378,-0.011837,0.002535,-0.009523,0.0,0.0,0.0,-0.016505,-0.507165,-0.009955,-1.195862,-263.879431,1.38966,63.112875
2.9579,-0.011179,0.003082,-0.008879,0.0,0.0,0.0,-0.016505,-0.507165,-0.009955,-1.195862,-263.879431,1.38966,63.112875
2.9776,-0.012045,0.002941,-0.010264,0.0,0.0,0.0,-0.015747,-0.506955,-0.008624,-1.195862,-263.880303,1.38966,63.111102
2.9982,-0.011813,0.002654,-0.008796,0.0,0.0,0.0,-0.015847,-0.506961,-0.008724,-1.195862,-263.880303,1.38966,63.111102
3.0178,-0.011623,0.002623,-0.00963,0.0,0.0,0.0,-0.016299,-0.507326,-0.008796,-1.195862,-263.880303,1.38966,63.111102
3.0379,-0.011713,0.002691,-0.010627,0.0,0.0,0.0,-0.016433,-0.507342,-0.009272,-1.195862,-263.880303,1.38966,63.111102
3.058,-0.0119,0.002984,-0.00896,0.0,0.0,0.0,-0.016433,-0.507342,-0.009272,-1.195862,-263.880303,1.38966,63.111102
3.0774,-0.011358,0.002962,-0.010208,0.0,0.0,0.0,-0.01647,-0.506995,-0.00896,-1.195862,-263.880303,1.38966,63.111102
3.0974,-0.011418,0.003055,-0.00881,0.0,0.0,0.0,-0.016476,-0.506996,-0.009047,-1.195862,-263.880303,1.38966,63.111102
3.1173,-0.011549,0.002807,-0.008491,0.0,0.0,0.0,-0.015911,-0.506925,-0.00881,-1.195862,-263.880303,1.38966,63.111102
3.1372,-0.011678,0.002531,-0.00777,0.0,0.0,0.0,-0.015894,-0.507067,-0.008628,-1.195862,-263.880303,1.38966,63.111102
3.1574,-0.011989,0.002749,-0.008202,9.8e-05,-2e-05,0.0,-0.015894,-0.507067,-0.008628,-1.195862,-263.880303,1.38966,63.111102
3.1776,-0.011601,0.002935,-0.009756,9.8e-05,-2e-05,0.0,-0.016171,-0.507234,-0.008202,-1.195862,-263.880303,1.38966,63.111102
3.1978,-0.0117,0.002541,-0.009121,9.8e-05,-2e-05,0.0,-0.0162,-0.50722,-0.008311,-1.195862,-263.880303,1.38966,63.111102
3.2173,-0.011894,0.002852,-0.009611,9.8e-05,-2e-05,0.0,-0.016352,-0.507438,-0.009121,-1.120931,-263.880303,1.314729,63.111102
3.2376,-0.01189,0.003047,-0.007287,9.8e-05,-2e-05,0.0,-0.016604,-0.507259,-0.009399,-1.120931,-263.880303,1.314729,63.111102
3.2578,-0.01158,0.002929,-0.011133,9.8e-05,-2e-05,0.0,-0.016604,-0.507259,-0.009399,-1.120931,-263.880303,1.314729,63.111102
3.2774,-0.011836,0.003057,-0.010821,9.8e-05,-2e-05,0.0,-0.017258,-0.50704,-0.011133,-1.045924,-263.880303,1.239722,63.111102
3.2973,-0.011686,0.002795,-0.009711,9.8e-05,-2e-05,0.0,-0.017264,-0.507031,-0.011113,-1.045924,-263.880303,1.239722,63.111102
3.3174,-0.011718,0.002716,-0.009476,9.8e-05,-2e-05,0.0,-0.016639,-0.507181,-0.009711,-0.970932,-263.880303,1.16473,63.111102
3.3373,-0.011659,0.002826,-0.008856,9.8e-05,-2e-05,0.0,-0.016588,-0.507226,-0.009577,-0.970932,-263.880303,1.16473,63.111102
3.3576,-0.011815,0.002815,-0.01051,8e-06,-2e-06,6e-06,-0.016588,-0.507226,-0.009577,-0.970932,-263.880303,1.16473,63.111102
3.3777,-0.011503,0.003006,-0.009106,0.001718,-0.000358,0.001141,-0.017175,-0.507157,-0.01051,-0.895878,-263.880303,1.089676,63.111102
3.3975,-0.011313,0.003094,-0.009231,0.003332,-0.000695,0.002213,-0.017109,-0.507145,-0.01042,-0.895878,-263.880303,1.089676,63.111102
3.4175,-0.011712,0.002916,-0.008425,0.004867,-0.001015,0.003233,-0.016021,-0.506884,-0.009231,-0.820896,-263.880303,1.014694,63.111102
3.4377,-0.011728,0.002876,-0.009763,0.00631,-0.001316,0.004191,-0.016014,-0.506988,-0.00877,-0.820896,-263.880303,1.014694,63.111102
3.4578,-0.011918,0.00288,-0.009975,0.007671,-0.0016,0.005095,-0.016014,-0.506988,-0.00877,-0.820896,-263.880303,1.014694,63.111102
3.478,-0.011623,0.002459,-0.008867,0.008944,-0.001866,0.005941,-0.017005,-0.507094,-0.009975,-0.74581,-263.880303,0.939608,63.111102
3.4978,-0.011929,0.002765,-0.010033,0.010133,-0.002114,0.006731,-0.016949,-0.507122,-0.009903,-0.74581,-263.880303,0.939608,63.111102
3.5176,-0.011681,0.002498,-0.008909,0.011226,-0.002342,0.007457,-0.017046,-0.507209,-0.010033,-0.670935,-263.880303,0.864733,63.111102
3.5374,-0.011601,0.002837,-0.010995,0.012236,-0.002553,0.008128,-0.016584,-0.507363,-0.009401,-0.670935,-263.880303,0.864733,63.111102
3.5576,-0.011479,0.002984,-0.009634,0.013156,-0.002744,0.008739,-0.016584,-0.507363,-0.009401,-0.670935,-263.880303,0.864733,63.111102
3.5775,-0.011426,0.002823,-0.010191,0.013991,-0.002919,0.009293,-0.016392,-0.506992,-0.009634,-0.595935,-263.880303,0.789732,63.111102
3.5973,-0.012042,0.002749,-0.009743,0.014737,-0.003074,0.009789,-0.01641,-0.507005,-0.009678,-0.595935,-263.880303,0.789732,63.111102
3.6181,-0.011433,0.002614,-0.009015,0.015396,-0.003212,0.010227,-0.017011,-0.507227,-0.009743,-0.520662,-263.880303,0.71446,63.111102
3.6379,-0.011616,0.002728,-0.010017,0.015965,-0.00333,0.010604,-0.016456,-0.507306,-0.009331,-0.520662,-263.880303,0.71446,63.111102
3.6574,-0.011665,0.003194,-0.010993,0.016448,-0.003431,0.010925,-0.016456,-0.507306,-0.009331,-0.520662,-263.880303,0.71446,63.111102
3.6777,-0.011655,0.002726,-0.009857,0.016843,-0.003514,0.011188,-0.017271,-0.506775,-0.010993,-0.445919,-263.880303,0.639717,63.111102
3.6975,-0.011737,0.002408,-0.008118,0.017151,-0.003578,0.011393,-0.017231,-0.506808,-0.010915,-0.445919,-263.880303,0.639717,63.111102
3.7178,-0.011858,0.002678,-0.009798,0.017371,-0.003624,0.011538,-0.015877,-0.507575,-0.008118,-0.370931,-263.880303,0.564729,63.111102
3.7373,-0.011941,0.002719,-0.009069,0.017502,-0.003651,0.011625,-0.016432,-0.507418,-0.009071,-0.370931,-263.880303,0.564729,63.111102
3.7574,-0.011746,0.002913,-0.009234,0.017546,-0.00366,0.011655,-0.016432,-0.507418,-0.009071,-0.370931,-263.880303,0.564729,63.111102
3.7774,-0.011857,0.003067,-0.009098,0.017503,-0.003651,0.011626,-0.016455,-0.507065,-0.009234,-0.295898,-263.880303,0.489696,63.111102
3.7979,-0.011469,0.002748,-0.008998,0.017372,-0.003624,0.011539,-0.016458,-0.507054,-0.009223,-0.295898,-263.880303,0.489696,63.111102
3.8179,-0.011347,0.002613,-0.008352,0.017151,-0.003578,0.011393,-0.016058,-0.507231,-0.008998,-0.220702,-263.880303,0.4145,63.111102
3.8375,-0.011859,0.00306,-0.008414,0.016844,-0.003514,0.011189,-0.015801,-0.50731,-0.008631,-0.220702,-263.880303,0.4145,63.111102
3.8575,-0.011722,0.002604,-0.011368,0.016452,-0.003432,0.010928,-0.015801,-0.50731,-0.008631,-0.220702,-263.880303,0.4145,63.111102
3.8774,-0.011614,0.002644,-0.010052,0.015968,-0.003331,0.010607,-0.01752,-0.507363,-0.011368,-0.145807,-263.880303,0.339605,63.111102
3.8977,-0.011723,0.002945,-0.009633,0.0154,-0.003213,0.010229,-0.017467,-0.507361,-0.011278,-0.145807,-263.880303,0.339605,63.111102
3.9174,-0.011743,0.002737,-0.009775,0.01473,-0.003073,0.009784,-0.016636,-0.507031,-0.009633,-0.07093,-263.880303,0.264728,63.111102
3.9377,-0.011892,0.003222,-0.009054,0.013997,-0.00292,0.009297,-0.01669,-0.507153,-0.009716,-0.07093,-263.880303,0.264728,63.111102
3.9576,-0.011499,0.002333,-0.009264,0.013159,-0.002745,0.008741,-0.01669,-0.507153,-0.009716,-0.07093,-263.880303,0.264728,63.111102
3.9774,-0.011645,0.00297,-0.008032,0.012242,-0.002554,0.008132,-0.016224,-0.507645,-0.009264,0.00454,-263.880303,0.189258,63.111102
3.9973,-0.011596,0.002939,-0.010637,0.011234,-0.002344,0.007462,-0.016192,-0.507604,-0.009184,0.00454,-263.880303,0.189258,63.111102
4.0173,-0.011607,0.0028,-0.01153,0.010137,-0.002115,0.006733,-0.017021,-0.507032,-0.010637,0.079074,-263.880302,0.114724,63.111103
4.0374,-0.011606,0.002551,-0.009635,0.008956,-0.001868,0.005949,-0.017288,-0.507109,-0.011149,0.079074,-263.880302,0.114724,63.111103
4.0573,-0.01178,0.002608,-0.009277,0.007683,-0.001603,0.005103,-0.017288,-0.507109,-0.011149,0.079074,-263.880302,0.114724,63.111103
4.0776,-0.011727,0.002939,-0.00904,0.00632,-0.001318,0.004198,-0.016511,-0.50737,-0.009277,0.154212,-263.8803,0.039586,63.111105
4.0973,-0.011561,0.003181,-0.010766,0.004874,-0.001017,0.003238,-0.016498,-0.507346,-0.00926,0.154212,-263.8803,0.039586,63.111105
4.1174,-0.011848,0.002718,-0.00914,0.003338,-0.000696,0.002217,-0.017051,-0.50679,-0.010766,0.19458,-263.880292,-0.035393,63.111115
4.1378,-0.011996,0.003115,-0.010986,0.001709,-0.000356,0.001135,-0.016743,-0.507058,-0.009841,0.19458,-263.880292,-0.035393,63.111115
4.1576,-0.011437,0.00269,-0.009801,7e-06,-2e-06,5e-06,-0.016743,-0.507058,-0.009841,0.19458,-263.880292,-0.035393,63.111115
4.1779,-0.011789,0.002619,-0.009634,0.0,0.0,0.0,-0.016433,-0.507285,-0.009801,0.19458,-263.880268,-0.110276,63.111142
4.1982,-0.011806,0.002767,-0.009904,0.0,0.0,0.0,-0.016452,-0.50729,-0.009789,0.19458,-263.880268,-0.110276,63.111142
4.2173,-0.01159,0.002832,-0.010549,0.0,0.0,0.0,-0.016857,-0.507208,-0.009904,0.19458,-263.880268,-0.185366,63.111142
4.2374,-0.011751,0.00273,-0.009846,0.0,0.0,0.0,-0.016922,-0.507169,-0.010273,0.19458,-263.880268,-0.185366,63.111142
4.2573,-0.011523,0.002772,-0.009934,0.0,0.0,0.0,-0.016922,-0.507169,-0.010273,0.19458,-263.880268,-0.185366,63.111142
4.2774,-0.011854,0.00253,-0.009192,0.0,0.0,0.0,-0.016589,-0.507203,-0.009934,0.19458,-263.880268,-0.185366,63.111142
4.2973,-0.011658,0.002641,-0.008934,0.0,0.0,0.0,-0.016586,-0.507221,-0.00988,0.19458,-263.880268,-0.185366,63.111142
4.3177,-0.011654,0.00243,-0.009098,0.0,0.0,0.0,-0.016215,-0.507339,-0.008934,0.19458,-263.880268,-0.185366,63.111142
4.3373,-0.011538,0.003091,-0.00945,0.0,0.0,0.0,-0.01626,-0.507459,-0.009028,0.19458,-263.880268,-0.185366,63.111142
4.3574,-0.01192,0.003146,-0.009684,0.0,0.0,0.0,-0.01626,-0.507459,-0.009028,0.19458,-263.880268,-0.185366,63.111142
4.3775,-0.011689,0.002716,-0.008411,0.0,0.0,0.0,-0.016859,-0.50683,-0.009684,0.19458,-263.880268,-0.185366,63.111142
4.3976,-0.011426,0.002402,-0.009171,9.8e-05,-2.2e-05,0.0,-0.016792,-0.506864,-0.009587,0.19458,-263.880268,-0.185366,63.111142
4.4177,-0.01153,0.00293,-0.009242,9.8e-05,-2.2e-05,0.0,-0.016103,-0.507576,-0.009171,0.19458,-263.880268,-0.185366,63.111142
4.4377,-0.01166,0.002796,-0.010116,9.8e-05,-2.2e-05,0.0,-0.016184,-0.507273,-0.009212,0.19458,-263.880268,-0.185366,63.111142
4.4577,-0.011642,0.002796,-0.008687,9.8e-05,-2.2e-05,0.0,-0.016184,-0.507273,-0.009212,0.19458,-263.880268,-0.185366,63.111142
4.4775,-0.01143,0.002781,-0.011127,9.8e-05,-2.2e-05,0.0,-0.016072,-0.507185,-0.008687,0.119711,-263.880266,-0.219906,63.111144
4.4973,-0.011608,0.002716,-0.009253,9.8e-05,-2.2e-05,0.0,-0.016143,-0.507185,-0.008856,0.119711,-263.880266,-0.219906,63.111144
4.5173,-0.012159,0.002749,-0.011156,9.8e-05,-2.2e-05,0.0,-0.016327,-0.507262,-0.009253,0.044897,-263.88026,-0.219906,63.11115
4.5376,-0.011663,0.002858,-0.009625,9.8e-05,-2.2e-05,0.0,-0.017199,-0.507238,-0.010344,0.044897,-263.88026,-0.219906,63.11115
4.5573,-0.011699,0.002646,-0.010146,9.8e-05,-2.2e-05,0.0,-0.017199,-0.507238,-0.010344,0.044897,-263.88026,-0.219906,63.11115
4.5775,-0.011641,0.003015,-0.008104,9.8e-05,-2.2e-05,0.0,-0.016871,-0.507328,-0.010145,-0.030244,-263.880247,-0.219906,63.111163
4.5973,-0.011645,0.002775,-0.009553,1e-06,-0.0,1e-06,-0.016796,-0.507303,-0.010006,-0.030244,-263.880247,-0.219906,63.111163
4.6173,-0.011473,0.002417,-0.008526,0.001717,-0.000384,0.001233,-0.016514,-0.507202,-0.009553,-0.105111,-263.880225,-0.219906,63.111185
4.6374,-0.011644,0.002812,-0.010329,0.003346,-0.000748,0.002403,-0.016117,-0.50741,-0.008964,-0.105111,-263.880225,-0.219906,63.111185
4.6573,-0.011742,0.003053,-0.010992,0.004873,-0.001089,0.0035,-0.016117,-0.50741,-0.008964,-0.105111,-263.880225,-0.219906,63.111185
4.678,-0.011608,0.002795,-0.011016,0.006324,-0.001413,0.004542,-0.017347,-0.506916,-0.010992,-0.029968,-263.880225,-0.295049,63.111185
4.6979,-0.011886,0.003183,-0.010563,0.007689,-0.001719,0.005522,-0.017338,-0.506936,-0.010994,-0.029968,-263.880225,-0.295049,63.111185
4.7173,-0.011627,0.002803,-0.008666,0.008959,-0.002003,0.006434,-0.017253,-0.506792,-0.010556,0.045067,-263.880027,-0.370084,63.111417
4.7374,-0.011655,0.002721,-0.00838,0.01015,-0.002269,0.00729,-0.016566,-0.507012,-0.009483,0.045067,-263.880027,-0.370084,63.111417
4.7574,-0.011427,0.003038,-0.009273,0.011247,-0.002514,0.008078,-0.016566,-0.507012,-0.009483,0.045067,-263.880027,-0.370084,63.111417
4.7775,-0.01174,0.003119,-0.009321,0.012261,-0.002741,0.008806,-0.016037,-0.506964,-0.009213,0.119898,-263.87907,-0.444915,63.112539
4.798,-0.011527,0.002639,-0.009543,0.013175,-0.002945,0.009462,-0.016066,-0.506957,-0.009219,0.119898,-263.87907,-0.444915,63.112539
4.8176,-0.011406,0.002893,-0.009123,0.014012,-0.003132,0.010063,-0.01611,-0.507396,-0.009362,0.195016,-263.876138,-0.520033,63.115977
4.8374,-0.011259,0.002715,-0.008407,0.014762,-0.0033,0.010602,-0.016046,-0.507227,-0.009205,0.195016,-263.876138,-0.520033,63.115977
4.858,-0.011647,0.002493,-0.010012,0.015415,-0.003446,0.011071,-0.016046,-0.507227,-0.009205,0.195016,-263.876138,-0.520033,63.115977
4.8778,-0.011136,0.002788,-0.007746,0.015987,-0.003573,0.011481,-0.016158,-0.507621,-0.009584,0.211888,-263.871121,-0.584876,63.12186
4.8978,-0.011011,0.002404,-0.008071,0.016469,-0.003681,0.011828,-0.016069,-0.507595,-0.009446,0.211888,-263.871121,-0.584876,63.12186
4.9173,-0.010501,0.002226,-0.008197,0.016865,-0.00377,0.012113,-0.014534,-0.507716,-0.007644,0.211888,-263.864812,-0.584876,63.129257
4.9372,-0.010593,0.002689,-0.008562,0.017172,-0.003838,0.012333,-0.014543,-0.507757,-0.007907,0.211888,-263.864812,-0.584876,63.129257
4.9573,-0.010161,0.002598,-0.011048,0.017391,-0.003887,0.01249,-0.014543,-0.507757,-0.007907,0.211888,-263.864812,-0.584876,63.129257
4.9774,-0.009842,0.001961,-0.006171,0.017523,-0.003917,0.012585,-0.014997,-0.507559,-0.010473,0.211888,-263.858072,-0.584876,63.13716
4.9975,-0.010052,0.001587,-0.007541,0.017567,-0.003927,0.012617,-0.014837,-0.507596,-0.010161,0.211888,-263.858072,-0.584876,63.13716
5.0175,-0.009187,0.001885,-0.007585,0.017523,-0.003917,0.012585,-0.013229,-0.508553,-0.007059,0.211888,-263.850933,-0.584876,63.14553
5.0378,-0.009507,0.002104,-0.00694,0.017392,-0.003887,0.012491,-0.013043,-0.508309,-0.007305,0.211888,-263.850933,-0.584876,63.14553
5.0573,-0.009376,0.001959,-0.005482,0.017172,-0.003838,0.012333,-0.013043,-0.508309,-0.007305,0.211888,-263.850933,-0.584876,63.14553
5.0772,-0.008722,0.00166,-0.006605,0.016864,-0.00377,0.012112,-0.011324,-0.508227,-0.004872,0.211888,-263.843756,-0.584876,63.153946
5.0979,-0.008999,0.001807,-0.007365,0.016466,-0.003681,0.011826,-0.011359,-0.508241,-0.004991,0.211888,-263.843756,-0.584876,63.153946
5.1174,-0.008321,0.001664,-0.004886,0.015979,-0.003572,0.011476,-0.012095,-0.508332,-0.00689,0.211888,-263.836705,-0.584876,63.162213
5.1375,-0.008515,0.001532,-0.006279,0.015414,-0.003445,0.011071,-0.011262,-0.50835,-0.005657,0.211888,-263.836705,-0.584876,63.162213
5.1578,-0.008373,0.001465,-0.00602,0.014755,-0.003298,0.010597,-0.011262,-0.50835,-0.005657,0.211888,-263.836705,-0.584876,63.162213
5.1775,-0.007828,0.001617,-0.004517,0.01401,-0.003132,0.010062,-0.010649,-0.508708,-0.005449,0.211888,-263.829983,-0.584876,63.170096
5.1979,-0.007843,0.000987,-0.006194,0.013175,-0.002945,0.009462,-0.010583,-0.508687,-0.005356,0.211888,-263.829983,-0.584876,63.170096
5.2176,-0.007263,0.001193,-0.005525,0.012252,-0.002739,0.0088,-0.010436,-0.509133,-0.005787,0.211888,-263.823968,-0.584876,63.177148
5.2375,-0.007189,0.000802,-0.00484,0.011244,-0.002513,0.008075,-0.01016,-0.508958,-0.005585,0.211888,-263.823968,-0.584876,63.177148
5.2581,-0.007281,0.001599,-0.004012,0.010146,-0.002268,0.007287,-0.01016,-0.508958,-0.005585,0.211888,-263.823968,-0.584876,63.177148
5.2775,-0.006838,0.001102,-0.004518,0.008956,-0.002002,0.006432,-0.008688,-0.508542,-0.003552,0.211888,-263.818561,-0.584876,63.183488
5.2978,-0.007061,0.001262,-0.003803,0.007686,-0.001718,0.00552,-0.008705,-0.508574,-0.003615,0.211888,-263.818561,-0.584876,63.183488
5.3179,-0.006323,0.000963,-0.003899,0.006324,-0.001414,0.004542,-0.008611,-0.508823,-0.003523,0.211888,-263.814422,-0.584876,63.188341
5.3374,-0.006875,0.000926,-0.003461,0.004871,-0.001089,0.003499,-0.00839,-0.508955,-0.003703,0.211888,-263.814422,-0.584876,63.188341
5.3575,-0.006639,0.000978,-0.002815,0.003336,-0.000746,0.002396,-0.00839,-0.508955,-0.003703,0.211888,-263.814422,-0.584876,63.188341
5.3774,-0.006073,0.000962,-0.005063,0.001712,-0.000383,0.001229,-0.007701,-0.509104,-0.002547,0.211888,-263.811271,-0.584876,63.192035
5.3973,-0.006243,0.000807,-0.004521,0.0,0.0,0.0,-0.007764,-0.509101,-0.002732,0.211888,-263.811271,-0.584876,63.192035
5.4175,-0.006312,0.000711,-0.003715,0.0,0.0,0.0,-0.008421,-0.509217,-0.004429,0.211888,-263.809909,-0.584876,63.193632
5.4377,-0.00612,0.001168,-0.00331,0.0,0.0,0.0,-0.008282,-0.50926,-0.004009,0.211888,-263.809909,-0.584876,63.193632
5.4575,-0.006223,0.000845,-0.003996,0.0,0.0,0.0,-0.008282,-0.50926,-0.004009,0.211888,-263.809909,-0.584876,63.193632
5.4774,-0.005907,0.000825,-0.003596,0.0,0.0,0.0,-0.008261,-0.509151,-0.003996,0.211888,-263.809909,-0.584876,63.193632
5.4978,-0.006473,0.000682,-0.004872,0.0,0.0,0.0,-0.008223,-0.509153,-0.003966,0.211888,-263.809909,-0.584876,63.193632
5.5172,-0.006345,0.000895,-0.002564,0.0,0.0,0.0,-0.008958,-0.509312,-0.004872,0.211888,-263.809909,-0.584876,63.193632
5.5374,-0.006321,0.001097,-0.003669,0.0,0.0,0.0,-0.008209,-0.509193,-0.003548,0.211888,-263.809909,-0.584876,63.193632
5.5575,-0.005972,0.00123,-0.003087,0.0,0.0,0.0,-0.008209,-0.509193,-0.003548,0.211888,-263.809909,-0.584876,63.193632
5.5774,-0.006211,0.000392,-0.002454,0.0,0.0,0.0,-0.007546,-0.508767,-0.003087,0.211888,-263.809909,-0.584876,63.193632
5.5973,-0.006321,0.000882,-0.001806,0.0,0.0,0.0,-0.007539,-0.508834,-0.003036,0.211888,-263.809909,-0.584876,63.193632
5.6174,-0.006047,0.00094,-0.003418,9.9e-05,-1.4e-05,0.0,-0.007242,-0.509117,-0.001806,0.211888,-263.809909,-0.584876,63.193632
5.6374,-0.006197,0.000722,-0.003341,9.9e-05,-1.4e-05,0.0,-0.007557,-0.509082,-0.002731,0.211888,-263.809909,-0.584876,63.193632
5.6573,-0.006272,0.000511,-0.004307,9.9e-05,-1.4e-05,0.0,-0.007557,-0.509082,-0.002731,0.211888,-263.809909,-0.584876,63.193632
5.6776,-0.006402,0.000835,-0.002888,9.9e-05,-1.4e-05,0.0,-0.008469,-0.509484,-0.004307,0.211888,-263.809909,-0.584876,63.193632
5.6977,-0.006121,0.000612,-0.00369,9.9e-05,-1.4e-05,0.0,-0.008425,-0.50946,-0.004203,0.211888,-263.809909,-0.584876,63.193632
5.7175,-0.006281,0.000883,-0.003568,9.9e-05,-1.4e-05,0.0,-0.008003,-0.509385,-0.00369,0.136933,-263.809909,-0.509921,63.193633
5.7377,-0.006288,0.001015,-0.003458,9.9e-05,-1.4e-05,0.0,-0.008059,-0.50923,-0.00362,0.136933,-263.809909,-0.509921,63.193633
5.7572,-0.006266,0.000494,-0.003954,9.9e-05,-1.4e-05,0.0,-0.008059,-0.50923,-0.00362,0.136933,-263.809909,-0.509921,63.193633
5.7775,-0.005972,0.00078,-0.004708,9.9e-05,-1.4e-05,0.0,-0.008282,-0.509502,-0.003954,0.061831,-263.809908,-0.434819,63.193634
5.7978,-0.005801,0.000853,-0.004007,9.9e-05,-1.4e-05,0.0,-0.008288,-0.509482,-0.004006,0.061831,-263.809908,-0.434819,63.193634
5.8183,-0.00641,0.000854,-0.00265,1e-06,-0.0,0.0,-0.007844,-0.509143,-0.004006,-0.012979,-263.809903,-0.360009,63.193639
5.838,-0.006546,0.000808,-0.003724,0.000924,-0.000127,0.000264,-0.007797,-0.509144,-0.003227,-0.012979,-263.809903,-0.360009,63.193639
5.8579,-0.005966,0.000811,-0.003071,0.001801,-0.000248,0.000515,-0.007797,-0.509144,-0.003227,-0.012979,-263.809903,-0.360009,63.193639
5.8774,-0.005839,0.000715,-0.002981,0.002632,-0.000362,0.000752,-0.007531,-0.509187,-0.003071,-0.088189,-263.809889,-0.284798,63.193653
5.8978,-0.006504,0.001139,-0.003756,0.003413,-0.00047,0.000975,-0.007519,-0.509193,-0.003065,-0.088189,-263.809889,-0.284798,63.193653
5.9175,-0.006025,0.000648,-0.003734,0.004149,-0.000571,0.001186,-0.008366,-0.508866,-0.003743,-0.013398,-263.80933,-0.302611,63.194238
5.9374,-0.006574,0.00059,-0.004249,0.004837,-0.000666,0.001382,-0.008109,-0.509143,-0.003736,-0.013398,-263.80933,-0.302611,63.194238
5.9575,-0.005515,0.000796,-0.003821,0.00548,-0.000755,0.001566,-0.008109,-0.509143,-0.003736,-0.013398,-263.80933,-0.302611,63.194238
5.9774,-0.00609,0.000565,-0.002432,0.006069,-0.000836,0.001734,-0.007305,-0.509223,-0.003775,0.036793,-263.808013,-0.302611,63.195616
5.9973,-0.005685,0.000764,-0.003863,0.006614,-0.000911,0.00189,-0.007302,-0.50924,-0.00367,0.036793,-263.808013,-0.302611,63.195616
6.0173,-0.005711,0.001082,-0.003476,0.007112,-0.000979,0.002032,-0.007445,-0.509262,-0.003803,0.036793,-263.805831,-0.302611,63.197901
6.0377,-0.005786,0.000729,-0.002354,0.007562,-0.001041,0.002161,-0.00744,-0.509068,-0.003609,0.036793,-263.805831,-0.302611,63.197901
6.0575,-0.005428,0.000959,-0.002246,0.007965,-0.001097,0.002276,-0.00744,-0.509068,-0.003609,0.036793,-263.805831,-0.302611,63.197901
6.0774,-0.005615,0.000856,-0.004203,0.008321,-0.001146,0.002378,-0.006252,-0.509085,-0.002154,0.036793,-263.803184,-0.302611,63.200673
6.0977,-0.005411,0.001,-0.003607,0.00863,-0.001188,0.002466,-0.006341,-0.509089,-0.002284,0.036793,-263.803184,-0.302611,63.200673
6.1175,-0.004929,0.000513,-0.002195,0.00889,-0.001224,0.00254,-0.006943,-0.509041,-0.003519,0.036793,-263.799995,-0.302611,63.20401
6.1374,-0.005173,0.00058,-0.004609,0.009104,-0.001254,0.002601,-0.006395,-0.509299,-0.002754,0.036793,-263.799995,-0.302611,63.20401
6.1574,-0.005161,0.00098,-0.002749,0.00927,-0.001276,0.002649,-0.006395,-0.509299,-0.002754,0.036793,-263.799995,-0.302611,63.20401
6.1775,-0.005092,0.000712,-0.001563,0.009389,-0.001293,0.002683,-0.006144,-0.509077,-0.002629,0.036793,-263.796541,-0.302611,63.207626
6.1973,-0.005077,0.000321,-0.001988,0.00946,-0.001303,0.002703,-0.006115,-0.509093,-0.002552,0.036793,-263.796541,-0.302611,63.207626
6.2174,-0.004817,0.000247,-0.003168,0.009484,-0.001306,0.00271,-0.005733,-0.509728,-0.001886,0.036793,-263.79283,-0.302611,63.211512
6.2375,-0.004255,0.000786,-0.003083,0.00946,-0.001303,0.002703,-0.006088,-0.509747,-0.002605,0.036793,-263.79283,-0.302611,63.211512
6.2575,-0.003991,0.000772,-0.002971,0.009389,-0.001293,0.002683,-0.006088,-0.509747,-0.002605,0.036793,-263.79283,-0.302611,63.211512
6.2775,-0.00393,0.000402,-0.002383,0.00927,-0.001276,0.002649,-0.005045,-0.50929,-0.002839,0.036793,-263.789044,-0.302611,63.215475
6.2973,-0.003948,8.4e-05,-0.004939,0.009105,-0.001254,0.002601,-0.005041,-0.509312,-0.002807,0.036793,-263.789044,-0.302611,63.215475
6.3175,-0.003818,0.000722,-0.002717,0.008891,-0.001224,0.00254,-0.006105,-0.509962,-0.004835,0.036793,-263.785286,-0.302611,63.219409
6.3373,-0.003473,0.000699,-0.00208,0.008629,-0.001188,0.002466,-0.005545,-0.509578,-0.003615,0.036793,-263.785286,-0.302611,63.219409
6.3578,-0.003864,0.000609,-0.002323,0.008322,-0.001146,0.002378,-0.005545,-0.509578,-0.003615,0.036793,-263.785286,-0.302611,63.219409
6.3774,-0.002967,0.000363,-0.002666,0.007963,-0.001096,0.002275,-0.004606,-0.509452,-0.002196,0.036793,-263.781629,-0.302611,63.223238
6.3976,-0.002843,0.000373,-0.002426,0.007564,-0.001041,0.002161,-0.004571,-0.509468,-0.00223,0.036793,-263.781629,-0.302611,63.223238
