mach0312/omni-docking-bench/src/icros_test_setup/results/kinematic_sample/timeseries/trial_096.csv
t,x,y,yaw,vx,vy,wz,bl_x,bl_y,bl_yaw,front_steering_joint,front_wheel_joint,rear_steering_joint,rear_wheel_joint
0.0,0.040517,0.02848,-0.070442,0.0,0.0,0.0,0.004515,-0.480254,-0.070099,0.184687,-264.180772,-0.614589,62.603137
0.0004,0.04035,0.028239,-0.069569,0.0,0.0,0.0,0.004357,-0.480625,-0.070058,0.184687,-264.180772,-0.614589,62.603137
0.0007,0.040584,0.028309,-0.069841,-0.0001,-1e-06,0.0,0.004666,-0.480837,-0.069762,0.184687,-264.180772,-0.614589,62.603137
0.001,0.040341,0.028182,-0.0697,-0.0001,-1e-06,0.0,0.004666,-0.480837,-0.069762,0.184687,-264.180772,-0.614589,62.603137
0.0013,0.040103,0.02809,-0.068865,-0.0001,-1e-06,0.0,0.004666,-0.480837,-0.069762,0.184687,-264.180772,-0.614589,62.603137
0.0015,0.04061,0.028507,-0.068998,-0.0001,-1e-06,0.0,0.004967,-0.480475,-0.069097,0.109689,-264.180772,-0.539591,62.603137
0.0019,0.040294,0.028807,-0.067024,-0.0001,-1e-06,0.0,0.004967,-0.480475,-0.069097,0.03469,-264.180772,-0.464592,62.603137
0.0021,0.040706,0.028402,-0.067829,-0.0001,-1e-06,0.0,0.004984,-0.480504,-0.069057,0.03469,-264.180772,-0.464592,62.603137
0.0023,0.040072,0.028511,-0.068339,-0.0001,-1e-06,0.0,0.004984,-0.480504,-0.069057,0.03469,-264.180772,-0.464592,62.603137
0.0025,0.040386,0.028196,-0.069698,-0.0001,-1e-06,0.0,0.005975,-0.480397,-0.06719,0.03469,-264.180772,-0.464592,62.603137
0.018,0.040303,0.028397,-0.068893,-0.0161,-0.016001,0.03,0.004869,-0.480566,-0.069698,0.014345,-264.180773,-0.3896,62.603136
0.0379,0.040087,0.02836,-0.069798,-0.0321,-0.031104,0.05,0.005055,-0.480468,-0.06924,0.014345,-264.180773,-0.3896,62.603136
0.0581,0.040185,0.028613,-0.069136,-0.038011,-0.031086,0.05,0.005055,-0.480468,-0.06924,0.014345,-264.180773,-0.3896,62.603136
0.078,0.040479,0.028357,-0.070407,-0.038112,-0.03132,0.05,0.004953,-0.480169,-0.069136,0.014345,-264.180776,-0.314552,62.603134
0.0984,0.040393,0.028414,-0.068336,-0.038384,-0.031135,0.05,0.004929,-0.480183,-0.069224,0.014345,-264.180776,-0.314552,62.603134
0.118,0.039945,0.028194,-0.069106,-0.038358,-0.031106,0.05,0.005568,-0.480396,-0.068336,0.01444,-264.180777,-0.239588,62.603131
0.1382,0.040158,0.028076,-0.071246,-0.037903,-0.030885,0.05,0.005088,-0.480506,-0.068776,0.01444,-264.180777,-0.239588,62.603131
0.158,0.040094,0.028152,-0.070913,-0.038058,-0.030864,0.05,0.005088,-0.480506,-0.068776,0.01444,-264.180777,-0.239588,62.603131
0.1781,0.040442,0.028237,-0.068917,-0.037998,-0.030922,0.05,0.003958,-0.480567,-0.070913,0.015555,-264.180779,-0.16449,62.603128
0.1987,0.040328,0.028284,-0.069008,-0.038401,-0.030955,0.05,0.004053,-0.480566,-0.070774,0.015555,-264.180779,-0.16449,62.603128
0.218,0.040362,0.028208,-0.069458,-0.038282,-0.030998,0.05,0.005162,-0.480502,-0.069008,0.008573,-264.18078,-0.089594,62.603125
0.2379,0.040446,0.028297,-0.069275,-0.038307,-0.030941,0.05,0.00505,-0.480537,-0.069266,0.008573,-264.18078,-0.089594,62.603125
0.2579,0.04026,0.028326,-0.067717,-0.03839,-0.031028,0.05,0.00505,-0.480537,-0.069266,0.008573,-264.18078,-0.089594,62.603125
0.2781,0.040747,0.028333,-0.069916,-0.038251,-0.030985,0.05,0.00575,-0.480505,-0.067717,0.010861,-264.180782,-0.014469,62.603122
0.2978,0.040035,0.02822,-0.068744,-0.038668,-0.03111,0.05,0.005706,-0.480499,-0.067869,0.010861,-264.180782,-0.014469,62.603122
0.3182,0.040256,0.028211,-0.068785,-0.038002,-0.030904,0.05,0.005003,-0.480575,-0.068744,0.012784,-264.180783,0.060411,62.603119
0.3381,0.040442,0.028167,-0.069167,-0.038221,-0.030911,0.05,0.005117,-0.48058,-0.068767,0.012784,-264.180783,0.060411,62.603119
0.3578,0.040338,0.028217,-0.06851,-0.038399,-0.030895,0.05,0.005117,-0.48058,-0.068767,0.012784,-264.180783,0.060411,62.603119
0.3781,0.040397,0.028295,-0.070134,-0.038311,-0.030913,0.05,0.005424,-0.480586,-0.06851,0.014811,-264.180785,0.135466,62.603116
0.3978,0.040026,0.028319,-0.068547,-0.038315,-0.031057,0.05,0.005372,-0.480577,-0.068622,0.014811,-264.180785,0.135466,62.603116
0.4179,0.040301,0.028351,-0.069817,-0.037992,-0.030994,0.05,0.005094,-0.480483,-0.068547,0.00931,-264.180786,0.210416,62.603113
0.4382,0.040052,0.02801,-0.070026,-0.038225,-0.031094,0.05,0.004883,-0.480439,-0.069269,0.00931,-264.180786,0.210416,62.603113
0.4583,0.040214,0.02809,-0.06792,-0.037994,-0.030743,0.05,0.004883,-0.480439,-0.069269,0.00931,-264.180786,0.210416,62.603113
0.4782,0.040648,0.028547,-0.069566,-0.038214,-0.030754,0.05,0.005601,-0.480734,-0.06792,0.013546,-264.180788,0.285416,62.60311
0.4984,0.040093,0.028483,-0.069918,-0.038566,-0.031303,0.05,0.005573,-0.480699,-0.068032,0.013546,-264.180788,0.285416,62.60311
0.518,0.040153,0.028189,-0.07052,-0.038006,-0.031214,0.05,0.004464,-0.480271,-0.069918,0.005419,-264.180791,0.36042,62.603105
0.538,0.040231,0.028406,-0.068272,-0.038067,-0.030948,0.05,0.004324,-0.480426,-0.07026,0.005419,-264.180791,0.36042,62.603105
0.558,0.040104,0.027899,-0.070002,-0.0382,-0.031085,0.05,0.004324,-0.480426,-0.07026,0.005419,-264.180791,0.36042,62.603105
0.5781,0.040379,0.027792,-0.066691,-0.038055,-0.030635,0.05,0.004431,-0.480853,-0.070001,0.019858,-264.180802,0.43543,62.603084
0.5983,0.040022,0.028669,-0.068765,-0.038438,-0.030421,0.05,0.004559,-0.480867,-0.069785,0.019858,-264.180802,0.43543,62.603084
0.6178,0.040491,0.028181,-0.069018,-0.037958,-0.031351,0.05,0.004973,-0.480127,-0.068761,0.014321,-264.180853,0.510413,62.602986
0.638,0.04017,0.028209,-0.070003,-0.038451,-0.030906,0.05,0.005169,-0.480399,-0.068907,0.014321,-264.180853,0.510413,62.602986
0.6583,0.040462,0.028428,-0.070536,-0.038099,-0.03095,0.05,0.005169,-0.480399,-0.068907,0.014321,-264.180853,0.510413,62.602986
0.6779,0.040441,0.028244,-0.069916,-0.038358,-0.031209,0.05,0.004479,-0.480317,-0.07051,-0.003025,-264.181098,0.585402,62.602528
0.6982,0.040246,0.028272,-0.070252,-0.038369,-0.031,0.05,0.004501,-0.48033,-0.070469,-0.003025,-264.181098,0.585402,62.602528
0.718,0.040334,0.027966,-0.070365,-0.038162,-0.031027,0.05,0.004359,-0.480505,-0.070187,0.010814,-264.181808,0.660411,62.601181
0.7383,0.039656,0.028304,-0.069843,-0.038268,-0.030733,0.05,0.004414,-0.48066,-0.070279,0.010814,-264.181808,0.660411,62.601181
0.758,0.039793,0.02819,-0.069603,-0.037584,-0.031003,0.05,0.004414,-0.48066,-0.070279,0.010814,-264.181808,0.660411,62.601181
0.7778,0.04,0.027778,-0.068342,-0.037737,-0.030889,0.05,0.004021,-0.480711,-0.069352,0.012062,-264.183813,0.735409,62.597391
0.7978,0.039464,0.02778,-0.067345,-0.03801,-0.030445,0.05,0.00409,-0.480736,-0.069279,0.012062,-264.183813,0.735409,62.597391
0.8178,0.038883,0.027547,-0.069142,-0.037505,-0.030373,0.05,0.00473,-0.481259,-0.066989,0.012378,-264.187757,0.810408,62.591102
0.8378,0.039293,0.027615,-0.068132,-0.036887,-0.030168,0.05,0.004062,-0.48127,-0.068168,0.012378,-264.187757,0.810408,62.591102
0.8581,0.03841,0.027771,-0.069365,-0.037321,-0.030226,0.05,0.004062,-0.48127,-0.068168,0.012378,-264.187757,0.810408,62.591102
0.8779,0.037686,0.027526,-0.066226,-0.036393,-0.030367,0.05,0.002306,-0.481364,-0.068687,-0.002445,-264.194202,0.8854,62.582313
0.8982,0.037818,0.027464,-0.068928,-0.035782,-0.02996,0.05,0.0024,-0.481373,-0.068497,-0.002445,-264.194202,0.8854,62.582313
0.9182,0.036053,0.026869,-0.066208,-0.035836,-0.030004,0.05,0.00192,-0.481716,-0.068191,-0.008339,-264.203149,0.960409,62.571021
0.9379,0.035942,0.027002,-0.066136,-0.034196,-0.029195,0.05,0.002046,-0.481936,-0.066964,-0.008339,-264.203149,0.960409,62.571021
0.9581,0.035993,0.026756,-0.067527,-0.034078,-0.029319,0.05,0.002046,-0.481936,-0.066964,-0.008339,-264.203149,0.960409,62.571021
0.9779,0.03419,0.02617,-0.064252,-0.034105,-0.029124,0.05,0.000412,-0.482715,-0.066328,-0.016138,-264.214593,1.035463,62.557232
0.9981,0.034605,0.026501,-0.0657,-0.032439,-0.028311,0.05,0.000452,-0.482735,-0.066156,-0.016138,-264.214593,1.035463,62.557232
1.018,0.032151,0.026121,-0.063731,-0.032791,-0.028716,0.05,4.1e-05,-0.48299,-0.064543,-0.035755,-264.228084,1.053226,62.540939
1.038,0.032049,0.025484,-0.062935,-0.030423,-0.028115,0.05,-0.000307,-0.482982,-0.063933,-0.035755,-264.228084,1.053226,62.540939
1.0582,0.032375,0.025551,-0.062388,-0.030383,-0.02745,0.05,-0.000307,-0.482982,-0.063933,-0.035755,-264.228084,1.053226,62.540939
1.0785,0.029885,0.025127,-0.062137,-0.030719,-0.027519,0.05,-0.000803,-0.484322,-0.060663,-0.068531,-264.240827,1.067006,62.522152
1.0978,0.029628,0.024773,-0.063069,-0.028267,-0.026934,0.05,-0.000902,-0.484315,-0.060716,-0.068531,-264.240827,1.067006,62.522152
1.1182,0.027126,0.02408,-0.06074,-0.028008,-0.026591,0.05,-0.003617,-0.484999,-0.061482,-0.101284,-264.252749,1.088167,62.500863
1.1383,0.027103,0.024173,-0.059286,-0.025615,-0.025682,0.05,-0.003879,-0.485088,-0.060859,-0.101284,-264.252749,1.088167,62.500863
1.1581,0.027169,0.023894,-0.060179,-0.025623,-0.025737,0.05,-0.003879,-0.485088,-0.060859,-0.101284,-264.252749,1.088167,62.500863
1.178,0.024989,0.023059,-0.05779,-0.025683,-0.025485,0.05,-0.004886,-0.486317,-0.057911,-0.126799,-264.263911,1.113691,62.477075
1.1978,0.025116,0.023023,-0.057496,-0.023615,-0.024463,0.05,-0.004893,-0.48633,-0.057846,-0.126799,-264.263911,1.113691,62.477075
1.2182,0.022556,0.021657,-0.054399,-0.023752,-0.024428,0.05,-0.005165,-0.487009,-0.055694,-0.185218,-264.273645,1.143527,62.453987
1.2379,0.022547,0.021965,-0.055358,-0.021346,-0.022851,0.05,-0.005294,-0.48745,-0.054728,-0.185218,-264.273645,1.143527,62.453987
1.2579,0.022594,0.021631,-0.054629,-0.021297,-0.023179,0.05,-0.005294,-0.48745,-0.054728,-0.185218,-264.273645,1.143527,62.453987
1.2783,0.020076,0.020562,-0.053763,-0.02138,-0.022832,0.05,-0.006371,-0.488649,-0.052382,-0.251752,-264.282663,1.165241,62.431851
1.2978,0.019696,0.020891,-0.053372,-0.018942,-0.021612,0.05,-0.006468,-0.488681,-0.052418,-0.251752,-264.282663,1.165241,62.431851
1.3179,0.017874,0.019982,-0.051932,-0.018554,-0.021912,0.05,-0.008283,-0.489142,-0.051658,-0.326756,-264.290676,1.193342,62.411301
1.3377,0.017781,0.019802,-0.051081,-0.016813,-0.020883,0.05,-0.008561,-0.489345,-0.051595,-0.326756,-264.290676,1.193342,62.411301
1.3578,0.017934,0.019694,-0.050895,-0.016747,-0.020684,0.05,-0.008561,-0.489345,-0.051595,-0.326756,-264.290676,1.193342,62.411301
1.378,0.016387,0.019332,-0.048084,-0.016909,-0.020581,0.05,-0.008798,-0.490465,-0.048969,-0.401755,-264.297394,1.222381,62.3935
1.3985,0.016375,0.019053,-0.049616,-0.015439,-0.020097,0.048084,-0.008772,-0.49046,-0.048857,-0.401755,-264.297394,1.222381,62.3935
1.4184,0.014513,0.018442,-0.046677,-0.01541,-0.019841,0.049616,-0.00944,-0.490907,-0.04819,-0.476748,-264.303219,1.254797,62.377345
1.438,0.014462,0.018383,-0.04622,-0.013637,-0.019099,0.046677,-0.009418,-0.491036,-0.047149,-0.476748,-264.303219,1.254797,62.377345
1.4583,0.014849,0.018254,-0.046931,-0.013597,-0.019031,0.04622,-0.009418,-0.491036,-0.047149,-0.476748,-264.303219,1.254797,62.377345
1.4782,0.012482,0.017906,-0.044812,-0.013976,-0.01893,0.046931,-0.009804,-0.492024,-0.044815,-0.540752,-264.309945,1.268261,62.35869
1.4982,0.01265,0.017504,-0.045546,-0.011668,-0.018447,0.044812,-0.009863,-0.492016,-0.044758,-0.540752,-264.309945,1.268261,62.35869
1.518,0.01083,0.016627,-0.041316,-0.01184,-0.018062,0.045546,-0.011098,-0.49264,-0.043857,-0.594742,-264.316162,1.290654,62.340067
1.5379,0.010964,0.017121,-0.040543,-0.010134,-0.01706,0.041316,-0.010673,-0.492895,-0.042194,-0.594742,-264.316162,1.290654,62.340067
1.5578,0.010711,0.016691,-0.043046,-0.010261,-0.017551,0.040543,-0.010673,-0.492895,-0.042194,-0.594742,-264.316162,1.290654,62.340067
1.578,0.009338,0.015866,-0.039022,-0.009983,-0.017136,0.043046,-0.011799,-0.493651,-0.041012,-0.652815,-264.321645,1.321431,62.322418
1.5983,0.009049,0.015871,-0.041029,-0.008712,-0.016218,0.039022,-0.011729,-0.493679,-0.040821,-0.652815,-264.321645,1.321431,62.322418
1.6178,0.007748,0.015271,-0.036203,-0.00839,-0.016229,0.041029,-0.012283,-0.494345,-0.0395,-0.612571,-264.326522,1.332891,62.305485
1.6382,0.007598,0.015309,-0.037828,-0.00719,-0.015542,0.036203,-0.011444,-0.494454,-0.03744,-0.612571,-264.326522,1.332891,62.305485
1.658,0.00735,0.015221,-0.037663,-0.007014,-0.015585,0.037828,-0.011444,-0.494454,-0.03744,-0.612571,-264.326522,1.332891,62.305485
1.6781,0.006356,0.014181,-0.037437,-0.006771,-0.015487,0.037663,-0.012234,-0.495063,-0.036099,-0.687561,-264.330357,1.356607,62.291902
1.6979,0.006612,0.014373,-0.036282,-0.005821,-0.014409,0.037437,-0.012277,-0.495106,-0.036148,-0.687561,-264.330357,1.356607,62.291902
1.718,0.005524,0.013807,-0.036595,-0.006086,-0.014604,0.036282,-0.012111,-0.495735,-0.035209,-0.762568,-264.333405,1.391464,62.280244
1.7379,0.005286,0.01368,-0.034752,-0.005015,-0.014,0.036595,-0.012725,-0.495858,-0.035867,-0.762568,-264.333405,1.391464,62.280244
1.7583,0.005582,0.014006,-0.035584,-0.004807,-0.013855,0.034752,-0.012725,-0.495858,-0.035867,-0.762568,-264.333405,1.391464,62.280244
1.7781,0.00467,0.013368,-0.034679,-0.00508,-0.014196,0.035584,-0.012729,-0.496026,-0.034687,-0.837727,-264.335465,1.415884,62.272676
1.7981,0.004557,0.013647,-0.034558,-0.004204,-0.013522,0.034679,-0.012753,-0.496056,-0.034663,-0.837727,-264.335465,1.415884,62.272676
1.8179,0.003968,0.012927,-0.031399,-0.004082,-0.013796,0.034558,-0.013209,-0.49641,-0.033662,-0.912662,-264.337839,1.434609,62.263119
1.838,0.004017,0.012698,-0.03294,-0.00356,-0.013045,0.031399,-0.012563,-0.496691,-0.032259,-0.912662,-264.337839,1.434609,62.263119
1.8585,0.004024,0.01289,-0.03335,-0.003596,-0.012824,0.03294,-0.012563,-0.496691,-0.032259,-0.912662,-264.337839,1.434609,62.263119
1.8783,0.003695,0.012559,-0.031942,-0.003592,-0.013017,0.03335,-0.013144,-0.49727,-0.032224,-0.987557,-264.340192,1.450239,62.253705
1.898,0.003331,0.012748,-0.032136,-0.003292,-0.012671,0.031942,-0.01311,-0.497275,-0.032176,-0.987557,-264.340192,1.450239,62.253705
1.9179,0.002441,0.012338,-0.031012,-0.00292,-0.012848,0.032136,-0.013181,-0.497373,-0.031153,-1.062572,-264.342716,1.462059,62.243422
1.938,0.002069,0.011677,-0.029851,-0.002057,-0.012407,0.031012,-0.013305,-0.497447,-0.030948,-1.062572,-264.342716,1.462059,62.243422
1.9581,0.002199,0.011858,-0.030076,-0.001719,-0.011734,0.029851,-0.013305,-0.497447,-0.030948,-1.062572,-264.342716,1.462059,62.243422
1.9786,0.00159,0.011602,-0.02938,-0.001842,-0.011919,0.030076,-0.013305,-0.498489,-0.028609,-1.122061,-264.345582,1.468839,62.231204
1.9983,0.001513,0.011399,-0.030482,-0.001248,-0.011643,0.02938,-0.013316,-0.498483,-0.028623,-1.122061,-264.345582,1.468839,62.231204
2.0179,0.000853,0.011289,-0.029715,-0.001164,-0.01144,0.030482,-0.014082,-0.498611,-0.029861,-1.197054,-264.347038,1.513483,62.224705
2.0378,0.00121,0.011264,-0.029785,-0.000517,-0.011309,0.029715,-0.014212,-0.498571,-0.0297,-1.197054,-264.347038,1.513483,62.224705
2.0578,0.001117,0.011129,-0.029676,-0.000874,-0.011295,0.029785,-0.014212,-0.498571,-0.0297,-1.197054,-264.347038,1.513483,62.224705
2.0782,0.000654,0.011378,-0.028566,-0.000786,-0.011158,0.029676,-0.014071,-0.498986,-0.028825,-1.272051,-264.348574,1.528628,62.217623
2.0984,0.000455,0.011094,-0.027836,-0.000329,-0.011392,0.028566,-0.014062,-0.498956,-0.028785,-1.272051,-264.348574,1.528628,62.217623
2.1182,-2e-06,0.010413,-0.027871,-0.000146,-0.011103,0.027836,-0.013776,-0.498978,-0.027127,-1.347061,-264.350292,1.541149,62.210334
2.1382,0.000188,0.010548,-0.024974,0.000292,-0.010409,0.027871,-0.01403,-0.499246,-0.027461,-1.347061,-264.350292,1.541149,62.210334
2.1578,0.000229,0.010583,-0.025165,7.6e-05,-0.010549,0.024974,-0.01403,-0.499246,-0.027461,-1.347061,-264.350292,1.541149,62.210334
2.1785,-0.000431,0.010385,-0.024338,3.7e-05,-0.010585,0.025165,-0.012631,-0.499603,-0.024296,-1.422059,-264.351811,1.559396,62.203104
2.1979,-0.000356,0.010216,-0.025716,0.000684,-0.010371,0.024338,-0.012646,-0.499603,-0.024276,-1.422059,-264.351811,1.559396,62.203104
2.2184,-0.000776,0.010202,-0.025655,0.000619,-0.010204,0.025716,-0.01348,-0.499877,-0.025095,-1.497062,-264.353023,1.573723,62.196457
2.2382,-0.000655,0.009956,-0.026345,0.001037,-0.010179,0.025655,-0.013696,-0.49977,-0.025335,-1.497062,-264.353023,1.573723,62.196457
2.2586,-0.000865,0.00991,-0.024656,0.001037,-0.010179,0.025655,-0.013696,-0.49977,-0.025335,-1.497062,-264.353023,1.573723,62.196457
2.278,-0.001326,0.009706,-0.025962,1.1e-05,-9.9e-05,0.0,-0.013436,-0.500156,-0.024136,-1.572055,-264.35382,1.597895,62.192032
2.2983,-0.001018,0.010248,-0.025572,1.1e-05,-9.9e-05,0.0,-0.013512,-0.500159,-0.024245,-1.572055,-264.35382,1.597895,62.192032
2.318,-0.00108,0.00963,-0.024165,1.1e-05,-9.9e-05,0.0,-0.014059,-0.499586,-0.025572,-1.497057,-264.35382,1.610896,62.192031
2.338,-0.001134,0.009668,-0.026166,1.1e-05,-9.9e-05,0.0,-0.013685,-0.499948,-0.02477,-1.497057,-264.35382,1.610896,62.192031
2.3586,-0.00139,0.009544,-0.024881,1.1e-05,-9.9e-05,0.0,-0.013685,-0.499948,-0.02477,-1.497057,-264.35382,1.610896,62.192031
2.3779,-0.001325,0.010229,-0.026512,1.1e-05,-9.9e-05,0.0,-0.014078,-0.500302,-0.024881,-1.459116,-264.353784,1.682477,62.191995
2.3981,-0.001386,0.009804,-0.024994,1.1e-05,-9.9e-05,0.0,-0.014128,-0.500255,-0.024988,-1.459116,-264.353784,1.682477,62.191995
2.4178,-0.001068,0.00958,-0.024976,1.1e-05,-9.9e-05,0.0,-0.014131,-0.500041,-0.024994,-1.459116,-264.353744,1.682477,62.191955
2.4383,-0.001333,0.00954,-0.025469,1.1e-05,-9.9e-05,0.0,-0.013945,-0.500166,-0.024983,-1.459116,-264.353744,1.682477,62.191955
2.4582,-0.001084,0.00939,-0.025032,1.1e-05,-9.9e-05,0.0,-0.013945,-0.500166,-0.024983,-1.459116,-264.353744,1.682477,62.191955
2.4782,-0.001452,0.009755,-0.023781,1e-06,-6e-06,1.5e-05,-0.013848,-0.500455,-0.025032,-1.459116,-264.353704,1.682477,62.191915
2.4989,-0.001002,0.009828,-0.024325,0.000163,-0.001449,0.003615,-0.013828,-0.500428,-0.024936,-1.459116,-264.353704,1.682477,62.191915
2.5183,-0.000657,0.009718,-0.024858,0.000316,-0.00282,0.007032,-0.013406,-0.500025,-0.024325,-1.459116,-264.353664,1.682477,62.191875
2.5383,-0.001257,0.009994,-0.024532,0.000463,-0.004127,0.010294,-0.013365,-0.500081,-0.024624,-1.459116,-264.353664,1.682477,62.191875
2.5583,-0.001319,0.009587,-0.023933,0.000599,-0.005344,0.013327,-0.013365,-0.500081,-0.024624,-1.459116,-264.353664,1.682477,62.191875
2.578,-0.001183,0.009811,-0.024223,0.000728,-0.006493,0.016195,-0.013523,-0.500267,-0.023933,-1.384363,-264.353664,1.615212,62.191875
2.5981,-0.001122,0.009564,-0.023485,0.000848,-0.007563,0.018862,-0.013524,-0.500251,-0.023952,-1.384363,-264.353664,1.615212,62.191875
2.6182,-0.001359,0.009515,-0.025233,0.000961,-0.008565,0.021362,-0.013099,-0.500296,-0.023485,-1.309415,-264.353664,1.615212,62.191875
2.6383,-0.00137,0.009413,-0.022459,0.001064,-0.009489,0.023668,-0.01374,-0.500311,-0.024479,-1.309415,-264.353664,1.615212,62.191875
2.6579,-0.000905,0.009768,-0.025544,0.00116,-0.010342,0.025795,-0.01374,-0.500311,-0.024479,-1.309415,-264.353664,1.615212,62.191875
2.6781,-0.001191,0.009501,-0.023596,0.001247,-0.011123,0.027743,-0.013931,-0.500065,-0.025544,-1.234422,-264.353663,1.615212,62.191874
2.6982,-0.001445,0.009645,-0.024936,0.001326,-0.011825,0.029494,-0.013883,-0.500086,-0.02541,-1.234422,-264.353663,1.615212,62.191874
2.718,-0.001201,0.00973,-0.025222,0.001397,-0.012456,0.031066,-0.014161,-0.500197,-0.024936,-1.159415,-264.353663,1.615212,62.191873
2.738,-0.000845,0.009474,-0.023856,0.001459,-0.013012,0.032454,-0.014105,-0.500146,-0.025099,-1.159415,-264.353663,1.615212,62.191873
2.7583,-0.001183,0.009616,-0.025653,0.001513,-0.013494,0.033655,-0.014105,-0.500146,-0.025099,-1.159415,-264.353663,1.615212,62.191873
2.7779,-0.001459,0.009972,-0.024597,0.001559,-0.013902,0.034673,-0.014264,-0.500216,-0.025653,-1.084424,-264.353663,1.615212,62.191872
2.7983,-0.001432,0.00968,-0.024973,0.001596,-0.014236,0.035505,-0.014246,-0.500192,-0.02558,-1.084424,-264.353663,1.615212,62.191872
2.8181,-0.001172,0.009506,-0.023994,0.001626,-0.014495,0.036152,-0.014167,-0.500161,-0.024973,-1.009413,-264.353663,1.615212,62.19187
2.8378,-0.001096,0.0098,-0.024975,0.001646,-0.01468,0.036614,-0.013733,-0.500268,-0.024413,-1.009413,-264.353663,1.615212,62.19187
2.8579,-0.001283,0.009984,-0.023805,0.001659,-0.014791,0.036891,-0.013733,-0.500268,-0.024413,-1.009413,-264.353663,1.615212,62.19187
2.8779,-0.001239,0.009855,-0.02542,0.001663,-0.014828,0.036984,-0.013423,-0.499872,-0.023805,-0.934338,-264.353662,1.615212,62.191869
2.8983,-0.001483,0.009514,-0.02511,0.001659,-0.014791,0.036892,-0.013477,-0.49988,-0.023918,-0.934338,-264.353662,1.615212,62.191869
2.9179,-0.001379,0.009573,-0.024149,0.001646,-0.01468,0.036614,-0.014288,-0.500325,-0.02511,-0.859426,-264.353662,1.615212,62.191867
2.9378,-0.001451,0.009774,-0.025251,0.001626,-0.014495,0.036151,-0.013947,-0.500298,-0.024559,-0.859426,-264.353662,1.615212,62.191867
2.9579,-0.001269,0.009682,-0.024197,0.001596,-0.014235,0.035505,-0.013947,-0.500298,-0.024559,-0.859426,-264.353662,1.615212,62.191867
2.978,-0.00162,0.009386,-0.025815,0.001559,-0.013902,0.034672,-0.013609,-0.500168,-0.024197,-0.784296,-264.353662,1.615212,62.191866
2.9978,-0.001318,0.009624,-0.023766,0.001513,-0.013494,0.033655,-0.013696,-0.500189,-0.024317,-0.784296,-264.353662,1.615212,62.191866
3.0178,-0.000998,0.009629,-0.024183,0.001459,-0.013012,0.032453,-0.013437,-0.500232,-0.023766,-0.709298,-264.353661,1.615212,62.191864
3.0377,-0.001177,0.009803,-0.02429,0.001397,-0.012455,0.031063,-0.013376,-0.500226,-0.024005,-0.709298,-264.353661,1.615212,62.191864
3.0582,-0.001337,0.009955,-0.023334,0.001325,-0.011819,0.029477,-0.013376,-0.500226,-0.024005,-0.709298,-264.353661,1.615212,62.191864
3.0782,-0.001042,0.009647,-0.024932,0.001247,-0.011116,0.027725,-0.013236,-0.499906,-0.023334,-0.63429,-264.353661,1.615212,62.191863
3.0984,-0.000911,0.009476,-0.023988,0.00116,-0.01034,0.02579,-0.013269,-0.499925,-0.023435,-0.63429,-264.353661,1.615212,62.191863
3.1181,-0.00103,0.009946,-0.025698,0.001064,-0.009489,0.023666,-0.013144,-0.500378,-0.023988,-0.559384,-264.353661,1.615212,62.191862
3.1382,-0.001355,0.009684,-0.023001,0.00096,-0.008561,0.021353,-0.013711,-0.500096,-0.024966,-0.559384,-264.353661,1.615212,62.191862
3.1582,-0.00128,0.009947,-0.025957,0.000848,-0.007562,0.018861,-0.013711,-0.500096,-0.024966,-0.559384,-264.353661,1.615212,62.191862
3.1786,-0.001038,0.00976,-0.02367,0.000728,-0.006487,0.01618,-0.014517,-0.499881,-0.025957,-0.484272,-264.353661,1.615212,62.191861
3.1982,-0.000869,0.009582,-0.024874,0.000599,-0.005339,0.013316,-0.014403,-0.499898,-0.025773,-0.484272,-264.353661,1.615212,62.191861
3.2179,-0.001312,0.009978,-0.024628,0.000461,-0.004113,0.010259,-0.013554,-0.500261,-0.024874,-0.409064,-264.353661,1.615212,62.19186
3.2381,-0.001117,0.009882,-0.024177,0.000316,-0.002819,0.00703,-0.013737,-0.500033,-0.024731,-0.409064,-264.353661,1.615212,62.19186
3.258,-0.001243,0.009874,-0.024634,0.000162,-0.001446,0.003607,-0.013737,-0.500033,-0.024731,-0.409064,-264.353661,1.615212,62.19186
3.2779,-0.001356,0.009525,-0.025377,0.0,-0.0,1e-06,-0.013805,-0.499972,-0.024634,-0.334113,-264.35366,1.615212,62.191859
3.2981,-0.001531,0.009689,-0.023212,0.0,0.0,0.0,-0.013842,-0.499997,-0.024689,-0.334113,-264.35366,1.615212,62.191859
3.3179,-0.001109,0.009761,-0.026038,0.0,0.0,0.0,-0.013368,-0.500173,-0.023212,-0.25915,-264.35366,1.615212,62.191859
3.3379,-0.001491,0.009513,-0.026364,0.0,0.0,0.0,-0.013953,-0.500112,-0.024834,-0.25915,-264.35366,1.615212,62.191859
3.3588,-0.001163,0.009643,-0.025411,0.0,0.0,0.0,-0.013953,-0.500112,-0.024834,-0.25915,-264.35366,1.615212,62.191859
3.3779,-0.001267,0.009647,-0.025942,0.0,0.0,0.0,-0.014122,-0.500192,-0.025411,-0.25915,-264.35366,1.615212,62.191859
3.3982,-0.001006,0.009489,-0.023762,0.0,0.0,0.0,-0.014136,-0.500192,-0.025431,-0.25915,-264.35366,1.615212,62.191859
3.4178,-0.001297,0.009748,-0.026697,0.0,0.0,0.0,-0.013123,-0.500367,-0.023762,-0.25915,-264.35366,1.615212,62.191859
3.4379,-0.001137,0.009633,-0.026429,0.0,0.0,0.0,-0.014147,-0.500197,-0.025444,-0.25915,-264.35366,1.615212,62.191859
3.4581,-0.001238,0.009654,-0.024633,0.0,0.0,0.0,-0.014147,-0.500197,-0.025444,-0.25915,-264.35366,1.615212,62.191859
3.4779,-0.000672,0.009451,-0.024612,0.0,0.0,0.0,-0.013799,-0.500191,-0.024633,-0.25915,-264.35366,1.615212,62.191859
3.498,-0.001247,0.009395,-0.024994,1e-05,-0.0001,0.0,-0.013752,-0.500208,-0.024631,-0.25915,-264.35366,1.615212,62.191859
3.5179,-0.001389,0.009826,-0.024566,1e-05,-0.0001,0.0,-0.013992,-0.500446,-0.024994,-0.25915,-264.35366,1.615212,62.191859
3.5378,-0.001379,0.010092,-0.024635,1e-05,-0.0001,0.0,-0.013949,-0.500202,-0.024749,-0.25915,-264.35366,1.615212,62.191859
3.558,-0.00082,0.010074,-0.023626,1e-05,-0.0001,0.0,-0.013949,-0.500202,-0.024749,-0.25915,-264.35366,1.615212,62.191859
3.5779,-0.001171,0.009707,-0.026458,1e-05,-0.0001,0.0,-0.012868,-0.499783,-0.023626,-0.333927,-264.35366,1.666356,62.191859
3.5982,-0.001094,0.009823,-0.025611,1e-05,-0.0001,0.0,-0.012993,-0.499806,-0.023823,-0.333927,-264.35366,1.666356,62.191859
3.6181,-0.001086,0.009708,-0.02534,1e-05,-0.0001,0.0,-0.014154,-0.50001,-0.025611,-0.408798,-264.35366,1.666356,62.191859
3.638,-0.00129,0.009923,-0.024758,1e-05,-0.0001,0.0,-0.014071,-0.500078,-0.025457,-0.408798,-264.35366,1.666356,62.191859
3.6582,-0.001268,0.009608,-0.025755,1e-05,-0.0001,0.0,-0.014071,-0.500078,-0.025457,-0.408798,-264.35366,1.666356,62.191859
3.6782,-0.001295,0.009816,-0.024332,1e-05,-0.0001,0.0,-0.014401,-0.500222,-0.025755,-0.483813,-264.35366,1.666356,62.191859
3.6981,-0.001314,0.009573,-0.024883,0.0,-1e-06,2e-06,-0.014355,-0.50021,-0.02566,-0.483813,-264.35366,1.666356,62.191859
3.7178,-0.001197,0.009539,-0.025804,0.000132,-0.001381,0.003604,-0.014003,-0.500269,-0.024883,-0.558787,-264.35366,1.666356,62.191859
3.7378,-0.000886,0.009728,-0.025246,0.000258,-0.002688,0.007014,-0.014204,-0.500282,-0.025408,-0.558787,-264.35366,1.666356,62.191859
3.7579,-0.00102,0.010148,-0.024126,0.000376,-0.003926,0.010245,-0.014204,-0.500282,-0.025408,-0.558787,-264.35366,1.666356,62.191859
3.778,-0.001126,0.009918,-0.025777,0.000488,-0.005094,0.013293,-0.013323,-0.499704,-0.024126,-0.633823,-264.35366,1.607735,62.191859
3.7984,-0.001399,0.009645,-0.024208,0.000593,-0.006191,0.016154,-0.01339,-0.499718,-0.024243,-0.633823,-264.35366,1.607735,62.191859
3.818,-0.001452,0.009843,-0.026234,0.000695,-0.007246,0.018907,-0.013744,-0.500205,-0.024208,-0.708814,-264.35366,1.607735,62.191859
3.8378,-0.001287,0.009768,-0.024458,0.000783,-0.008171,0.021322,-0.014365,-0.500077,-0.025367,-0.708814,-264.35366,1.607735,62.191859
3.8579,-0.001453,0.009834,-0.023332,0.000868,-0.009056,0.02363,-0.014365,-0.500077,-0.025367,-0.708814,-264.35366,1.607735,62.191859
3.878,-0.001097,0.009947,-0.024019,0.000946,-0.00987,0.025755,-0.013351,-0.500027,-0.023331,-0.783946,-264.353661,1.607735,62.191858
3.8982,-0.001008,0.009449,-0.024436,0.001017,-0.010612,0.027691,-0.013351,-0.500018,-0.023381,-0.783946,-264.353661,1.607735,62.191858
3.9178,-0.001103,0.009894,-0.024811,0.001082,-0.01129,0.029461,-0.013469,-0.500399,-0.024436,-0.8589,-264.353661,1.607735,62.191857
3.9379,-0.001205,0.009887,-0.025246,0.001139,-0.011888,0.031021,-0.013633,-0.500141,-0.024651,-0.8589,-264.353661,1.607735,62.191857
3.9588,-0.00111,0.009487,-0.024443,0.00119,-0.012416,0.032398,-0.013633,-0.500141,-0.024651,-0.8589,-264.353661,1.607735,62.191857
3.9786,-0.001134,0.009634,-0.025825,0.001234,-0.012875,0.033597,-0.013574,-0.500361,-0.024443,-0.933929,-264.353661,1.607735,62.191856
3.9983,-0.001093,0.009481,-0.023483,0.001271,-0.013264,0.034612,-0.013606,-0.500354,-0.024504,-0.933929,-264.353661,1.607735,62.191856
4.0179,-0.001393,0.009742,-0.025641,0.001302,-0.013583,0.035444,-0.013068,-0.500378,-0.023483,-1.008795,-264.353661,1.607735,62.191855
4.0379,-0.000924,0.009657,-0.023413,0.001326,-0.01383,0.036087,-0.013868,-0.500214,-0.024715,-1.008795,-264.353661,1.607735,62.191855
4.058,-0.001261,0.009689,-0.024302,0.001343,-0.014007,0.03655,-0.013868,-0.500214,-0.024715,-1.008795,-264.353661,1.607735,62.191855
4.0778,-0.001102,0.009838,-0.024228,0.001353,-0.014113,0.036826,-0.013653,-0.500161,-0.024301,-1.083919,-264.353662,1.607735,62.191852
4.0985,-0.001084,0.009951,-0.024363,0.001356,-0.014148,0.036918,-0.01364,-0.500151,-0.024296,-1.083919,-264.353662,1.607735,62.191852
4.1179,-0.001068,0.009708,-0.023769,0.001353,-0.014112,0.036825,-0.013508,-0.499898,-0.024362,-1.158807,-264.353665,1.607735,62.19184
4.1379,-0.000805,0.009807,-0.023677,0.001343,-0.014006,0.036549,-0.013326,-0.50004,-0.024024,-1.158807,-264.353665,1.607735,62.19184
4.1579,-0.001337,0.009718,-0.025025,0.001325,-0.013828,0.036084,-0.013326,-0.50004,-0.024024,-1.158807,-264.353665,1.607735,62.19184
4.1779,-0.001128,0.009787,-0.024928,0.001302,-0.013582,0.03544,-0.014098,-0.500125,-0.025018,-1.233828,-264.353678,1.607735,62.191781
4.1981,-0.001038,0.009703,-0.024887,0.001271,-0.013263,0.03461,-0.01408,-0.50012,-0.025011,-1.233828,-264.353678,1.607735,62.191781
4.2182,-0.001482,0.009853,-0.024399,0.001234,-0.012874,0.033593,-0.01373,-0.500148,-0.024865,-1.308797,-264.353732,1.607735,62.191549
4.2379,-0.001036,0.009433,-0.025051,0.00119,-0.012415,0.032396,-0.013841,-0.500062,-0.024596,-1.308797,-264.353732,1.607735,62.191549
4.2583,-0.001396,0.009966,-0.024976,0.001139,-0.011882,0.031007,-0.013841,-0.500062,-0.024596,-1.308797,-264.353732,1.607735,62.191549
4.2783,-0.00105,0.009603,-0.024354,0.001081,-0.011282,0.029441,-0.014134,-0.499909,-0.024887,-1.383882,-264.353901,1.607735,62.19082
4.2982,-0.001251,0.00986,-0.023928,0.001017,-0.01061,0.027687,-0.014087,-0.499934,-0.024848,-1.383882,-264.353901,1.607735,62.19082
4.3178,-0.001129,0.009509,-0.024856,0.000946,-0.009866,0.025746,-0.013454,-0.500059,-0.023761,-1.458874,-264.354302,1.607735,62.189092
4.3379,-0.001225,0.009597,-0.024566,0.000868,-0.009052,0.023621,-0.013655,-0.500224,-0.024368,-1.458874,-264.354302,1.607735,62.189092
4.3581,-0.001171,0.009446,-0.026209,0.000783,-0.00817,0.02132,-0.013655,-0.500224,-0.024368,-1.458874,-264.354302,1.607735,62.189092
4.378,-0.001402,0.009515,-0.024789,0.000691,-0.007213,0.018821,-0.014535,-0.500534,-0.025803,-1.533928,-264.35507,1.607735,62.185777
4.3984,-0.001282,0.009255,-0.021873,0.000593,-0.006188,0.016148,-0.014501,-0.500524,-0.025723,-1.533928,-264.35507,1.607735,62.185777
4.4183,-0.002078,0.009145,-0.024426,0.000485,-0.005059,0.013202,-0.01243,-0.500791,-0.02143,-1.608803,-264.356122,1.607735,62.181236
4.4381,-0.002081,0.009051,-0.022368,0.000376,-0.003923,0.010237,-0.013614,-0.500763,-0.02306,-1.608803,-264.356122,1.607735,62.181236
4.4583,-0.001622,0.009144,-0.023792,0.000257,-0.002685,0.007005,-0.013614,-0.500763,-0.02306,-1.608803,-264.356122,1.607735,62.181236
4.4781,-0.002003,0.008561,-0.022583,0.000132,-0.001374,0.003586,-0.013741,-0.500949,-0.023171,-1.68379,-264.357294,1.607735,62.176177
4.4984,-0.00224,0.008937,-0.022757,0.0,0.0,0.0,-0.013726,-0.500979,-0.023118,-1.68379,-264.357294,1.607735,62.176177
4.5178,-0.002421,0.008778,-0.022993,0.0,0.0,0.0,-0.013838,-0.501032,-0.022493,-1.730858,-264.357918,1.607735,62.173484
4.5379,-0.002559,0.009046,-0.023097,0.0,0.0,0.0,-0.014011,-0.501076,-0.022742,-1.730858,-264.357918,1.607735,62.173484
4.5584,-0.001988,0.008806,-0.02358,0.0,0.0,0.0,-0.014011,-0.501076,-0.022742,-1.730858,-264.357918,1.607735,62.173484
4.5779,-0.002488,0.008391,-0.022851,0.0,0.0,0.0,-0.014013,-0.501052,-0.02358,-1.730858,-264.357918,1.607735,62.173484
4.5978,-0.002202,0.008925,-0.023162,0.0,0.0,0.0,-0.014022,-0.501085,-0.023523,-1.730858,-264.357918,1.607735,62.173484
4.6178,-0.00243,0.009202,-0.022241,0.0,0.0,0.0,-0.014014,-0.500938,-0.023162,-1.730858,-264.357918,1.607735,62.173484
4.638,-0.002333,0.008947,-0.022248,0.0,0.0,0.0,-0.013876,-0.500786,-0.022637,-1.730858,-264.357918,1.607735,62.173484
4.6578,-0.002175,0.008532,-0.020765,0.0,0.0,0.0,-0.013876,-0.500786,-0.022637,-1.730858,-264.357918,1.607735,62.173484
4.6784,-0.002425,0.008721,-0.023192,0.0,0.0,0.0,-0.012764,-0.501358,-0.020765,-1.730858,-264.357918,1.607735,62.173484
4.6983,-0.002185,0.008866,-0.023955,0.0,0.0,0.0,-0.012867,-0.501343,-0.020932,-1.730858,-264.357918,1.607735,62.173484
4.718,-0.00235,0.008807,-0.022786,2.6e-05,-9.6e-05,0.0,-0.014401,-0.500988,-0.023955,-1.730858,-264.357918,1.607735,62.173484
4.7381,-0.002088,0.009094,-0.022092,2.6e-05,-9.6e-05,0.0,-0.014156,-0.501029,-0.023291,-1.730858,-264.357918,1.607735,62.173484
4.758,-0.002553,0.008819,-0.022178,2.6e-05,-9.6e-05,0.0,-0.014156,-0.501029,-0.023291,-1.730858,-264.357918,1.607735,62.173484
4.7782,-0.002105,0.00866,-0.021641,2.6e-05,-9.6e-05,0.0,-0.013863,-0.501056,-0.022178,-1.730858,-264.357918,1.607735,62.173484
4.7993,-0.002429,0.008517,-0.021554,2.6e-05,-9.6e-05,0.0,-0.013813,-0.501067,-0.022141,-1.730858,-264.357918,1.607735,62.173484
4.8183,-0.002291,0.008926,-0.022753,2.6e-05,-9.6e-05,0.0,-0.013421,-0.501365,-0.021554,-1.655741,-264.357918,1.532618,62.173484
4.8377,-0.002092,0.008952,-0.023448,2.6e-05,-9.6e-05,0.0,-0.013685,-0.501129,-0.022222,-1.655741,-264.357918,1.532618,62.173484
4.8581,-0.002375,0.008695,-0.022537,2.6e-05,-9.6e-05,0.0,-0.013685,-0.501129,-0.022222,-1.655741,-264.357918,1.532618,62.173484
4.8779,-0.002381,0.008507,-0.022714,2.6e-05,-9.6e-05,0.0,-0.013868,-0.501175,-0.022537,-1.580815,-264.357918,1.457692,62.173484
4.8978,-0.002331,0.009108,-0.024237,2.6e-05,-9.6e-05,0.0,-0.013875,-0.501188,-0.022549,-1.580815,-264.357918,1.457692,62.173484
4.9178,-0.002308,0.008907,-0.021134,9e-06,-3.3e-05,9e-05,-0.01469,-0.500742,-0.024237,-1.505869,-264.357918,1.382746,62.173484
4.9381,-0.002563,0.008782,-0.023232,0.000351,-0.001292,0.003513,-0.013772,-0.500878,-0.022462,-1.505869,-264.357918,1.382746,62.173484
4.9583,-0.002485,0.008927,-0.023857,0.000685,-0.002517,0.006842,-0.013772,-0.500878,-0.022462,-1.505869,-264.357918,1.382746,62.173484
4.9781,-0.001987,0.008724,-0.022566,0.000998,-0.003669,0.009974,-0.014651,-0.500928,-0.023857,-1.430773,-264.357918,1.307649,62.173484
4.9978,-0.001945,0.00877,-0.022759,0.001294,-0.004756,0.012932,-0.014571,-0.500943,-0.023768,-1.430773,-264.357918,1.307649,62.173484
5.0183,-0.002329,0.009146,-0.022229,0.001573,-0.005781,0.015718,-0.013551,-0.501098,-0.022759,-1.355871,-264.357918,1.382551,62.173484
5.0383,-0.002421,0.008594,-0.021656,0.001833,-0.006738,0.018318,-0.013616,-0.500888,-0.022458,-1.355871,-264.357918,1.382551,62.173484
5.0582,-0.002349,0.008821,-0.021943,0.002078,-0.007639,0.020768,-0.013616,-0.500888,-0.022458,-1.355871,-264.357918,1.382551,62.173484
5.0778,-0.001913,0.009152,-0.022697,0.002301,-0.008458,0.022995,-0.013539,-0.501057,-0.021943,-1.280867,-264.357918,1.457555,62.173484
5.0978,-0.002115,0.008978,-0.021563,0.002508,-0.009219,0.025064,-0.013535,-0.501033,-0.021996,-1.280867,-264.357918,1.457555,62.173484
5.1178,-0.00206,0.009047,-0.021707,0.002696,-0.009912,0.026948,-0.013111,-0.500903,-0.021563,-1.20586,-264.357918,1.532562,62.173483
5.1381,-0.002166,0.008671,-0.021767,0.002867,-0.010538,0.028652,-0.013122,-0.500863,-0.021645,-1.20586,-264.357918,1.532562,62.173483
5.1587,-0.002403,0.00856,-0.020861,0.00302,-0.011101,0.030183,-0.013122,-0.500863,-0.021645,-1.20586,-264.357918,1.532562,62.173483
5.178,-0.00251,0.0089,-0.023633,0.003155,-0.011597,0.031529,-0.013041,-0.501329,-0.020861,-1.130802,-264.357918,1.607619,62.173483
5.1981,-0.002254,0.008773,-0.023279,0.003272,-0.012028,0.0327,-0.013116,-0.501311,-0.020996,-1.130802,-264.357918,1.607619,62.173483
5.2182,-0.002458,0.008764,-0.024441,0.003371,-0.01239,0.033686,-0.014126,-0.501089,-0.023279,-1.055863,-264.357918,1.672695,62.173482
5.2383,-0.002278,0.008949,-0.020949,0.003451,-0.012687,0.034494,-0.014578,-0.501086,-0.02394,-1.055863,-264.357918,1.672695,62.173482
5.2582,-0.002119,0.009018,-0.021881,0.003514,-0.012918,0.035122,-0.014578,-0.501086,-0.02394,-1.055863,-264.357918,1.672695,62.173482
5.278,-0.002177,0.008808,-0.021494,0.003559,-0.013084,0.035573,-0.013277,-0.50086,-0.02188,-0.980866,-264.357917,1.672695,62.17348
5.2981,-0.002501,0.00914,-0.022595,0.003586,-0.013183,0.035842,-0.013268,-0.500874,-0.021855,-0.980866,-264.357917,1.672695,62.17348
5.3181,-0.002183,0.009171,-0.022383,0.003595,-0.013216,0.035932,-0.014024,-0.50073,-0.022595,-0.905852,-264.357917,1.672695,62.173479
5.3379,-0.002113,0.008756,-0.022802,0.003586,-0.013183,0.035843,-0.013782,-0.500714,-0.022475,-0.905852,-264.357917,1.672695,62.173479
5.3579,-0.002461,0.008791,-0.020508,0.00356,-0.013084,0.035574,-0.013782,-0.500714,-0.022475,-0.905852,-264.357917,1.672695,62.173479
5.3779,-0.002259,0.008936,-0.023415,0.003514,-0.012918,0.035123,-0.01292,-0.501102,-0.020508,-0.830874,-264.357916,1.672695,62.173478
5.3982,-0.002105,0.008743,-0.021884,0.003452,-0.012688,0.034497,-0.013006,-0.50109,-0.020705,-0.830874,-264.357916,1.672695,62.173478
5.4183,-0.00235,0.009036,-0.021875,0.00337,-0.012389,0.033683,-0.013265,-0.501135,-0.021884,-0.755874,-264.357916,1.672695,62.173476
5.4381,-0.002351,0.009154,-0.022183,0.003271,-0.012025,0.032695,-0.013402,-0.500969,-0.021879,-0.755874,-264.357916,1.672695,62.173476
5.4579,-0.002494,0.009143,-0.021555,0.003155,-0.011598,0.031533,-0.013402,-0.500969,-0.021879,-0.755874,-264.357916,1.672695,62.173476
5.4781,-0.002013,0.00898,-0.022161,0.00302,-0.011102,0.030183,-0.013487,-0.500739,-0.021555,-0.680869,-264.357916,1.672695,62.173475
5.498,-0.001874,0.009082,-0.021498,0.002867,-0.010539,0.028653,-0.013475,-0.500749,-0.021597,-0.680869,-264.357916,1.672695,62.173475
5.5179,-0.002108,0.008879,-0.021884,0.002696,-0.009912,0.026948,-0.012837,-0.500801,-0.021498,-0.605863,-264.357915,1.672695,62.173474
5.5379,-0.002284,0.008852,-0.023864,0.002507,-0.009216,0.025056,-0.013082,-0.500913,-0.021717,-0.605863,-264.357915,1.672695,62.173474
5.5577,-0.002412,0.008949,-0.021554,0.002301,-0.00846,0.023001,-0.013082,-0.500913,-0.021717,-0.605863,-264.357915,1.672695,62.173474
5.578,-0.00213,0.008923,-0.022975,0.002076,-0.007631,0.020748,-0.013404,-0.500933,-0.021554,-0.53087,-264.357915,1.672695,62.173472
5.5978,-0.002046,0.008786,-0.0224,0.001834,-0.006742,0.01833,-0.013437,-0.500933,-0.021658,-0.53087,-264.357915,1.672695,62.173472
5.6179,-0.00219,0.009058,-0.022443,0.001573,-0.005783,0.015722,-0.01347,-0.501086,-0.0224,-0.455776,-264.357915,1.672695,62.173472
5.6379,-0.00235,0.008582,-0.023562,0.001294,-0.004758,0.012936,-0.013565,-0.50093,-0.022425,-0.455776,-264.357915,1.672695,62.173472
5.6579,-0.001991,0.009002,-0.022466,0.000998,-0.00367,0.009978,-0.013565,-0.50093,-0.022425,-0.455776,-264.357915,1.672695,62.173472
5.6782,-0.002442,0.00895,-0.022765,0.000684,-0.002513,0.006834,-0.013447,-0.50087,-0.022465,-0.380726,-264.357915,1.672695,62.173471
5.6982,-0.002077,0.008533,-0.021377,0.000351,-0.001289,0.003505,-0.013491,-0.500873,-0.022487,-0.380726,-264.357915,1.672695,62.173471
5.718,-0.002196,0.00899,-0.023137,0.0,-1e-06,3e-06,-0.012979,-0.501351,-0.021377,-0.305765,-264.357915,1.672695,62.17347
5.7381,-0.002412,0.008757,-0.023433,0.0,0.0,0.0,-0.013557,-0.501079,-0.022379,-0.305765,-264.357915,1.672695,62.17347
5.7582,-0.002607,0.008678,-0.022651,0.0,0.0,0.0,-0.013557,-0.501079,-0.022379,-0.305765,-264.357915,1.672695,62.17347
5.778,-0.002118,0.008854,-0.02297,0.0,0.0,0.0,-0.014159,-0.501191,-0.022651,-0.230776,-264.357914,1.672695,62.17347
5.7979,-0.002202,0.008902,-0.024155,0.0,0.0,0.0,-0.014137,-0.501179,-0.022673,-0.230776,-264.357914,1.672695,62.17347
5.8179,-0.002411,0.009161,-0.021204,0.0,0.0,0.0,-0.01452,-0.500949,-0.024155,-0.230776,-264.357914,1.672695,62.17347
5.8385,-0.002471,0.00871,-0.022235,0.0,0.0,0.0,-0.013781,-0.500821,-0.022471,-0.230776,-264.357914,1.672695,62.17347
5.8584,-0.002526,0.008808,-0.021445,0.0,0.0,0.0,-0.013781,-0.500821,-0.022471,-0.230776,-264.357914,1.672695,62.17347
5.8779,-0.002403,0.008769,-0.022017,0.0,0.0,0.0,-0.013462,-0.501075,-0.021445,-0.230776,-264.357914,1.672695,62.17347
5.8983,-0.002084,0.008888,-0.022296,0.0,0.0,0.0,-0.013473,-0.501077,-0.021485,-0.230776,-264.357914,1.672695,62.17347
5.9182,-0.002357,0.008822,-0.023191,0.0,0.0,0.0,-0.013455,-0.500985,-0.022296,-0.230776,-264.357914,1.672695,62.17347
5.9381,-0.002635,0.008905,-0.022183,2.8e-05,-9.6e-05,0.0,-0.013871,-0.501017,-0.022807,-0.230776,-264.357914,1.672695,62.17347
5.9579,-0.002503,0.008815,-0.023258,2.8e-05,-9.6e-05,0.0,-0.013871,-0.501017,-0.022807,-0.230776,-264.357914,1.672695,62.17347
5.9781,-0.0022,0.00851,-0.021817,2.8e-05,-9.6e-05,0.0,-0.014363,-0.501047,-0.023258,-0.230776,-264.357914,1.672695,62.17347
5.9978,-0.002326,0.008957,-0.021464,2.8e-05,-9.6e-05,0.0,-0.0143,-0.501067,-0.02317,-0.230776,-264.357914,1.672695,62.17347
6.0183,-0.00242,0.008689,-0.023056,2.8e-05,-9.6e-05,0.0,-0.013272,-0.500926,-0.021464,-0.305639,-264.357914,1.597831,62.17347
6.0381,-0.002156,0.008982,-0.020785,2.8e-05,-9.6e-05,0.0,-0.013788,-0.501068,-0.022371,-0.305639,-264.357914,1.597831,62.17347
6.0582,-0.002578,0.009289,-0.022468,2.8e-05,-9.6e-05,0.0,-0.013788,-0.501068,-0.022371,-0.305639,-264.357914,1.597831,62.17347
6.0781,-0.002176,0.008928,-0.021807,2.8e-05,-9.6e-05,0.0,-0.014036,-0.500582,-0.022468,-0.380651,-264.357914,1.52282,62.17347
6.0987,-0.002026,0.008777,-0.023839,2.8e-05,-9.6e-05,0.0,-0.013988,-0.500606,-0.022425,-0.380651,-264.357914,1.52282,62.17347
6.1184,-0.002654,0.008783,-0.022517,2.8e-05,-9.6e-05,0.0,-0.014183,-0.501078,-0.023839,-0.455661,-264.357914,1.44781,62.17347
6.1385,-0.002377,0.009211,-0.022363,2.8e-05,-9.6e-05,0.0,-0.014157,-0.501083,-0.023092,-0.455661,-264.357914,1.44781,62.17347
6.1583,-0.002306,0.008461,-0.022931,0.000372,-0.001272,0.003366,-0.014157,-0.501083,-0.023092,-0.455661,-264.357914,1.44781,62.17347
6.178,-0.002278,0.008943,-0.022035,0.000729,-0.002494,0.006599,-0.014,-0.501405,-0.022931,-0.530716,-264.357914,1.372754,62.17347
6.198,-0.002599,0.00889,-0.022203,0.001064,-0.003642,0.009636,-0.013968,-0.501374,-0.022872,-0.530716,-264.357914,1.372754,62.17347
6.2178,-0.002547,0.008618,-0.020964,0.00138,-0.004725,0.012502,-0.013921,-0.500984,-0.022203,-0.455774,-264.357914,1.447696,62.17347
6.2379,-0.002687,0.008493,-0.021885,0.001678,-0.005745,0.015199,-0.013534,-0.501146,-0.021501,-0.455774,-264.357914,1.447696,62.17347
6.2579,-0.002234,0.008712,-0.019804,0.001956,-0.006696,0.017716,-0.013534,-0.501146,-0.021501,-0.455774,-264.357914,1.447696,62.17347
6.278,-0.002328,0.008511,-0.022597,0.002216,-0.007584,0.020065,-0.012334,-0.501188,-0.019804,-0.380773,-264.357914,1.522697,62.17347
6.2983,-0.002303,0.008971,-0.022463,0.002456,-0.008406,0.022242,-0.012434,-0.501199,-0.019988,-0.380773,-264.357914,1.522697,62.17347
6.318,-0.002642,0.008671,-0.02099,0.002677,-0.009163,0.024243,-0.013758,-0.5009,-0.022463,-0.305791,-264.357914,1.597679,62.17347
6.3379,-0.002153,0.008958,-0.022657,0.002879,-0.009855,0.026076,-0.013522,-0.501081,-0.02162,-0.305791,-264.357914,1.597679,62.17347
6.3582,-0.002308,0.008819,-0.022677,0.003062,-0.01048,0.027729,-0.013522,-0.501081,-0.02162,-0.305791,-264.357914,1.597679,62.17347
6.3782,-0.002334,0.008823,-0.021206,0.003225,-0.011038,0.029204,-0.013872,-0.50105,-0.022677,-0.230672,-264.357914,1.672798,62.173469
6.3979,-0.001932,0.009144,-0.023136,0.003369,-0.011532,0.030511,-0.013825,-0.501051,-0.022581,-0.230672,-264.357914,1.672798,62.173469
6.418,-0.002147,0.009023,-0.023118,0.003494,-0.01196,0.031644,-0.01373,-0.50072,-0.023136,-0.155774,-264.357914,1.68202,62.173468
6.4381,-0.002168,0.008619,-0.021624,0.0036,-0.012323,0.032605,-0.013846,-0.500788,-0.023126,-0.155774,-264.357914,1.68202,62.173468
6.4586,-0.00223,0.008847,-0.021332,0.003687,-0.012619,0.033387,-0.013846,-0.500788,-0.023126,-0.155774,-264.357914,1.68202,62.173468
6.4784,-0.002437,0.008902,-0.023087,0.003754,-0.012849,0.033998,-0.013109,-0.501037,-0.021332,-0.080786,-264.357914,1.68202,62.173467
6.4988,-0.002017,0.008647,-0.022714,0.003802,-0.013015,0.034435,-0.013185,-0.501032,-0.021454,-0.080786,-264.357914,1.68202,62.173467
6.5179,-0.002087,0.008908,-0.022048,0.003831,-0.013114,0.034697,-0.0136,-0.501221,-0.022714,-0.005785,-264.357913,1.68202,62.173465
6.538,-0.002285,0.00879,-0.022938,0.003841,-0.013147,0.034786,-0.013448,-0.501078,-0.022339,-0.005785,-264.357913,1.68202,62.173465
6.558,-0.002508,0.009033,-0.020201,0.003832,-0.013115,0.0347,-0.013448,-0.501078,-0.022339,-0.005785,-264.357913,1.68202,62.173465
6.5783,-0.002376,0.008876,-0.021172,0.003803,-0.013017,0.034441,-0.012809,-0.500863,-0.020201,0.06927,-264.357913,1.68202,62.173464
6.5981,-0.002616,0.008597,-0.022538,0.003755,-0.012854,0.034009,-0.012831,-0.500872,-0.020259,0.06927,-264.357913,1.68202,62.173464
6.618,-0.002442,0.008741,-0.021382,0.003688,-0.012624,0.033401,-0.01411,-0.501273,-0.022538,0.144206,-264.357912,1.68202,62.173462
6.6381,-0.002162,0.008972,-0.022119,0.003602,-0.012329,0.032622,-0.013677,-0.501199,-0.021882,0.144206,-264.357912,1.68202,62.173462
6.6581,-0.002428,0.008521,-0.023423,0.003497,-0.011969,0.031667,-0.013677,-0.501199,-0.021882,0.144206,-264.357912,1.68202,62.173462
6.678,-0.002145,0.008638,-0.022455,0.003372,-0.011541,0.030536,-0.014373,-0.501339,-0.023423,0.219214,-264.357912,1.68202,62.173461
6.6982,-0.0024,0.008628,-0.023624,0.003228,-0.01105,0.029235,-0.014318,-0.501332,-0.023355,0.219214,-264.357912,1.68202,62.173461
6.7181,-0.002242,0.009064,-0.022094,0.003065,-0.010491,0.027757,-0.014447,-0.50123,-0.023624,0.294228,-264.357912,1.68202,62.17346
6.738,-0.00201,0.009025,-0.022048,0.002883,-0.009869,0.026112,-0.01391,-0.50099,-0.022747,0.294228,-264.357912,1.68202,62.17346
6.758,-0.001962,0.008837,-0.022624,0.002682,-0.009179,0.024285,-0.01391,-0.50099,-0.022747,0.294228,-264.357912,1.68202,62.17346
6.7779,-0.00267,0.008808,-0.023159,0.002461,-0.008423,0.022287,-0.013499,-0.501033,-0.022624,0.369336,-264.357911,1.68202,62.173459
6.7983,-0.002332,0.009008,-0.023346,0.002221,-0.007602,0.020114,-0.013564,-0.501034,-0.022659,0.369336,-264.357911,1.68202,62.173459
6.8185,-0.002626,0.009307,-0.024723,0.001962,-0.006714,0.017765,-0.014237,-0.500853,-0.023346,0.444214,-264.357911,1.68202,62.173457
6.8382,-0.001915,0.008795,-0.022062,0.001684,-0.005764,0.015251,-0.014795,-0.500676,-0.024118,0.444214,-264.357911,1.68202,62.173457
6.8579,-0.002296,0.00892,-0.02303,0.001386,-0.004746,0.012556,-0.014795,-0.500676,-0.024118,0.444214,-264.357911,1.68202,62.173457
6.8781,-0.002312,0.008932,-0.02224,0.001069,-0.003659,0.009681,-0.01404,-0.500945,-0.02303,0.519209,-264.35791,1.68202,62.173454
6.8982,-0.002492,0.009223,-0.02134,0.000734,-0.002511,0.006644,-0.014008,-0.500945,-0.022964,0.519209,-264.35791,1.68202,62.173454
6.9181,-0.00249,0.008606,-0.022334,0.000378,-0.001295,0.003426,-0.013374,-0.500662,-0.021339,0.594719,-264.357908,1.68202,62.173445
6.9379,-0.002403,0.008889,-0.021979,5e-06,-1.6e-05,4.1e-05,-0.013659,-0.501002,-0.021899,0.594719,-264.357908,1.68202,62.173445
6.9586,-0.002202,0.008591,-0.022588,0.0,0.0,0.0,-0.013659,-0.501002,-0.021899,0.594719,-264.357908,1.68202,62.173445
6.9786,-0.002212,0.008809,-0.022257,0.0,0.0,0.0,-0.013721,-0.50128,-0.022585,0.669217,-264.357902,1.68202,62.173423
6.9979,-0.002029,0.008814,-0.024071,0.0,0.0,0.0,-0.013715,-0.501272,-0.022574,0.669217,-264.357902,1.68202,62.173423
7.0178,-0.002043,0.008885,-0.023059,0.0,0.0,0.0,-0.014303,-0.501039,-0.024071,0.669217,-264.357902,1.68202,62.173423
7.0378,-0.002138,0.008825,-0.022978,0.0,0.0,0.0,-0.014018,-0.501005,-0.023495,0.669217,-264.357902,1.68202,62.173423
7.058,-0.002215,0.00884,-0.023078,0.0,0.0,0.0,-0.014018,-0.501005,-0.023495,0.669217,-264.357902,1.68202,62.173423
7.0781,-0.002403,0.00898,-0.021422,0.0,0.0,0.0,-0.013984,-0.501024,-0.023078,0.669217,-264.357902,1.68202,62.173423
7.0983,-0.002319,0.008713,-0.022897,0.0,0.0,0.0,-0.013941,-0.501016,-0.02297,0.669217,-264.357902,1.68202,62.173423
7.1179,-0.001966,0.008896,-0.023448,0.0,0.0,0.0,-0.013995,-0.501154,-0.022897,0.669217,-264.357902,1.68202,62.173423
7.138,-0.002802,0.008694,-0.022943,0.0,0.0,0.0,-0.013954,-0.501045,-0.023213,0.669217,-264.357902,1.68202,62.173423
7.1579,-0.002527,0.009194,-0.02207,0.0,0.0,0.0,-0.013954,-0.501045,-0.023213,0.669217,-264.357902,1.68202,62.173423
7.1778,-0.002728,0.008862,-0.022978,2.9e-05,-9.6e-05,0.0,-0.013782,-0.500682,-0.02207,0.669217,-264.357902,1.68202,62.173423
7.1981,-0.002657,0.008877,-0.023562,2.9e-05,-9.6e-05,0.0,-0.013828,-0.500705,-0.022133,0.669217,-264.357902,1.68202,62.173423
7.2182,-0.001895,0.009128,-0.021626,2.9e-05,-9.6e-05,0.0,-0.014673,-0.500981,-0.023562,0.669217,-264.357902,1.68202,62.173423
7.2379,-0.002222,0.008794,-0.021613,2.9e-05,-9.6e-05,0.0,-0.013678,-0.500851,-0.022461,0.669217,-264.357902,1.68202,62.173423
7.2581,-0.00231,0.0092,-0.023145,2.9e-05,-9.6e-05,0.0,-0.013678,-0.500851,-0.022461,0.669217,-264.357902,1.68202,62.173423
7.2781,-0.002225,0.009053,-0.022943,2.9e-05,-9.6e-05,0.0,-0.014112,-0.500663,-0.023145,0.594118,-264.357902,1.606921,62.173423
7.2987,-0.002373,0.009097,-0.022991,2.9e-05,-9.6e-05,0.0,-0.0141,-0.500674,-0.023131,0.594118,-264.357902,1.606921,62.173423
7.3178,-0.002303,0.008901,-0.021952,2.9e-05,-9.6e-05,0.0,-0.014097,-0.500768,-0.022991,0.519082,-264.357902,1.531884,62.173423
7.3384,-0.002086,0.008915,-0.022789,2.9e-05,-9.6e-05,0.0,-0.013759,-0.500885,-0.022405,0.519082,-264.357902,1.531884,62.173423
7.358,-0.00222,0.009077,-0.022203,2.9e-05,-9.6e-05,0.0,-0.013759,-0.500885,-0.022405,0.519082,-264.357902,1.531884,62.173423
7.3781,-0.002408,0.009065,-0.022067,2.9e-05,-9.6e-05,0.0,-0.013543,-0.500797,-0.022203,0.444103,-264.357902,1.456905,62.173423
7.3985,-0.002163,0.008819,-0.022711,0.000398,-0.001333,0.003221,-0.013551,-0.500798,-0.022193,0.444103,-264.357902,1.456905,62.173423
7.4183,-0.002275,0.008977,-0.021412,0.000778,-0.002603,0.00629,-0.013745,-0.50105,-0.022711,0.36909,-264.357902,1.381893,62.173423
7.4384,-0.002264,0.008824,-0.023263,0.001137,-0.003806,0.009194,-0.013432,-0.500968,-0.021973,0.36909,-264.357902,1.381893,62.173423
7.458,-0.002554,0.008674,-0.023557,0.001474,-0.004931,0.011914,-0.013432,-0.500968,-0.021973,0.36909,-264.357902,1.381893,62.173423
7.478,-0.002508,0.009074,-0.02143,0.001791,-0.005994,0.014482,-0.014567,-0.501185,-0.023557,0.44396,-264.357902,1.456763,62.173422
7.4989,-0.002512,0.008859,-0.021708,0.002088,-0.006987,0.016881,-0.014488,-0.501159,-0.023409,0.44396,-264.357902,1.456763,62.173422
7.5189,-0.002157,0.008821,-0.022977,0.002364,-0.007913,0.019117,-0.013583,-0.501021,-0.021707,0.518954,-264.3579,1.531756,62.173413
7.5381,-0.002347,0.008757,-0.022441,0.002621,-0.008772,0.021192,-0.013745,-0.501034,-0.022413,0.518954,-264.3579,1.531756,62.173413
7.5588,-0.00249,0.008809,-0.023402,0.002858,-0.009566,0.02311,-0.013745,-0.501034,-0.022413,0.518954,-264.3579,1.531756,62.173413
7.5779,-0.002211,0.008825,-0.022963,0.003071,-0.010277,0.024829,-0.014423,-0.501056,-0.023393,0.593957,-264.357881,1.60676,62.173329
7.5983,-0.001853,0.008743,-0.023242,0.003265,-0.010927,0.026398,-0.014384,-0.501055,-0.023359,0.593957,-264.357881,1.60676,62.173329
7.618,-0.002326,0.00855,-0.023335,0.003439,-0.01151,0.027807,-0.013699,-0.50114,-0.023198,0.669618,-264.35777,1.682421,62.172838
7.6379,-0.002479,0.009066,-0.021975,0.003593,-0.012024,0.029048,-0.014004,-0.501242,-0.023272,0.669618,-264.35777,1.682421,62.172838
7.658,-0.002341,0.008733,-0.020647,0.003726,-0.012469,0.030124,-0.014004,-0.501242,-0.023272,0.669618,-264.35777,1.682421,62.172838
7.6783,-0.002486,0.008791,-0.021755,0.003839,-0.012848,0.031039,-0.012843,-0.501243,-0.02046,0.744342,-264.357401,1.690918,62.171196
7.6983,-0.002507,0.008875,-0.021889,0.003931,-0.013155,0.031781,-0.012896,-0.501234,-0.02055,0.744342,-264.357401,1.690918,62.171196
7.7183,-0.002735,0.008844,-0.023163,0.004002,-0.013395,0.03236,-0.013621,-0.501163,-0.021526,0.819068,-264.356507,1.690918,62.167227
7.7379,-0.002679,0.008801,-0.02111,0.004054,-0.013566,0.032774,-0.014143,-0.501101,-0.022414,0.819068,-264.356507,1.690918,62.167227
7.758,-0.002525,0.008433,-0.022939,0.004084,-0.013669,0.033022,-0.014143,-0.501101,-0.022414,0.819068,-264.356507,1.690918,62.167227
7.7779,-0.002844,0.008039,-0.021209,0.004094,-0.013703,0.033105,-0.01412,-0.501749,-0.02217,0.893966,-264.354862,1.690918,62.160758
7.7984,-0.00301,0.007908,-0.021273,0.004084,-0.013669,0.033023,-0.014088,-0.501763,-0.02209,0.893966,-264.354862,1.690918,62.160758
7.8185,-0.003245,0.007725,-0.019637,0.004054,-0.013567,0.032775,-0.013745,-0.502313,-0.020401,0.968948,-264.352382,1.690918,62.151774
7.8381,-0.003242,0.007626,-0.020359,0.004002,-0.013395,0.032361,-0.013456,-0.502278,-0.01986,0.968948,-264.352382,1.690918,62.151774
7.8583,-0.003139,0.008062,-0.020089,0.003931,-0.013155,0.031781,-0.013456,-0.502278,-0.01986,0.968948,-264.352382,1.690918,62.151774
7.8784,-0.003864,0.007189,-0.017605,0.003839,-0.012847,0.031036,-0.013213,-0.502376,-0.018705,1.00975,-264.349393,1.690918,62.140305
7.8981,-0.003871,0.007552,-0.018576,0.003726,-0.012471,0.030127,-0.013182,-0.502416,-0.018589,1.00975,-264.349393,1.690918,62.140305
7.9178,-0.004376,0.006534,-0.017446,0.003593,-0.012025,0.029051,-0.013201,-0.50287,-0.017351,1.00975,-264.346438,1.690918,62.127182
7.9378,-0.004313,0.006422,-0.016142,0.00344,-0.011512,0.02781,-0.013224,-0.503232,-0.01725,1.00975,-264.346438,1.690918,62.127182
7.958,-0.004511,0.006727,-0.01749,0.003265,-0.010929,0.026402,-0.013224,-0.503232,-0.01725,1.00975,-264.346438,1.690918,62.127182
7.9785,-0.004815,0.005934,-0.015245,0.00307,-0.010276,0.024826,-0.013259,-0.503804,-0.016026,1.00975,-264.34364,1.690918,62.114758
7.9983,-0.005162,0.005877,-0.016019,0.002855,-0.009555,0.023082,-0.013209,-0.503833,-0.015935,1.00975,-264.34364,1.690918,62.114758
8.0178,-0.005445,0.005693,-0.014709,0.002619,-0.008766,0.021178,-0.013212,-0.504482,-0.014999,1.00975,-264.341185,1.690918,62.103859
8.038,-0.005251,0.005176,-0.014579,0.002363,-0.00791,0.019108,-0.013046,-0.504405,-0.014705,1.00975,-264.341185,1.690918,62.103859
8.058,-0.005733,0.005548,-0.012051,0.002089,-0.00699,0.016887,-0.013046,-0.504405,-0.014705,1.00975,-264.341185,1.690918,62.103859
8.0784,-0.00589,0.004845,-0.012554,0.001792,-0.005997,0.014488,-0.011745,-0.504881,-0.010928,1.00975,-264.339039,1.690918,62.094329
8.0984,-0.006087,0.004958,-0.012273,0.001475,-0.004936,0.011924,-0.011779,-0.504909,-0.011011,1.00975,-264.339039,1.690918,62.094329
8.1182,-0.006273,0.004827,-0.012094,0.001136,-0.003803,0.009188,-0.012269,-0.505274,-0.01162,1.00975,-264.337469,1.690918,62.087358
8.138,-0.006434,0.004736,-0.010387,0.000776,-0.002598,0.006275,-0.012357,-0.50523,-0.011807,1.00975,-264.337469,1.690918,62.087358
8.1586,-0.006487,0.004725,-0.012409,0.000399,-0.001335,0.003225,-0.012357,-0.50523,-0.011807,1.00975,-264.337469,1.690918,62.087358
8.178,-0.006859,0.004229,-0.011729,1e-06,-2e-06,4e-06,-0.012747,-0.505477,-0.011828,1.00975,-264.33636,1.690918,62.082435
8.198,-0.006488,0.004445,-0.010271,0.0,0.0,0.0,-0.012751,-0.505499,-0.011808,1.00975,-264.33636,1.690918,62.082435
8.2179,-0.006896,0.004362,-0.009997,0.0,0.0,0.0,-0.011711,-0.505579,-0.010147,1.00975,-264.33606,1.690918,62.081103
8.238,-0.006797,0.004368,-0.009821,0.0,0.0,0.0,-0.011871,-0.505605,-0.010046,1.00975,-264.33606,1.690918,62.081103
8.258,-0.006613,0.004219,-0.012072,0.0,0.0,0.0,-0.011871,-0.505605,-0.010046,1.00975,-264.33606,1.690918,62.081103
8.2782,-0.006569,0.004164,-0.010828,0.0,0.0,0.0,-0.012769,-0.505744,-0.012072,1.00975,-264.33606,1.690918,62.081103
8.2983,-0.006888,0.004229,-0.011333,0.0,0.0,0.0,-0.012722,-0.505748,-0.011984,1.00975,-264.33606,1.690918,62.081103
8.3178,-0.006495,0.004633,-0.009978,0.0,0.0,0.0,-0.012668,-0.505738,-0.011333,1.00975,-264.33606,1.690918,62.081103
8.3378,-0.006549,0.004309,-0.012214,0.0,0.0,0.0,-0.012048,-0.505512,-0.010559,1.00975,-264.33606,1.690918,62.081103
8.3582,-0.006704,0.004257,-0.011052,0.0,0.0,0.0,-0.012048,-0.505512,-0.010559,1.00975,-264.33606,1.690918,62.081103
8.3783,-0.006701,0.004531,-0.010562,0.0,0.0,0.0,-0.01234,-0.505712,-0.011052,1.00975,-264.33606,1.690918,62.081103
8.3982,-0.006687,0.004402,-0.011991,0.0,0.0,0.0,-0.012322,-0.505693,-0.011016,1.00975,-264.33606,1.690918,62.081103
8.4189,-0.006739,0.003943,-0.011,8.4e-05,-5.4e-05,0.0,-0.012803,-0.505561,-0.011991,1.00975,-264.33606,1.690918,62.081103
8.438,-0.006746,0.004489,-0.010363,8.4e-05,-5.4e-05,0.0,-0.012546,-0.505824,-0.011431,1.00975,-264.33606,1.690918,62.081103
8.4582,-0.006566,0.004405,-0.011211,8.4e-05,-5.4e-05,0.0,-0.012546,-0.505824,-0.011431,1.00975,-264.33606,1.690918,62.081103
8.4781,-0.006272,0.00415,-0.009128,8.4e-05,-5.4e-05,0.0,-0.012284,-0.505562,-0.011211,1.00975,-264.33606,1.690918,62.081103
8.4983,-0.006581,0.004412,-0.011612,8.4e-05,-5.4e-05,0.0,-0.012184,-0.505582,-0.011058,1.00975,-264.33606,1.690918,62.081103
8.5182,-0.006163,0.004374,-0.01202,8.4e-05,-5.4e-05,0.0,-0.012503,-0.505554,-0.011612,0.934545,-264.33606,1.615713,62.081103
8.5383,-0.00641,0.004217,-0.010644,8.4e-05,-5.4e-05,0.0,-0.012383,-0.505574,-0.011845,0.934545,-264.33606,1.615713,62.081103
8.558,-0.006849,0.004264,-0.011647,8.4e-05,-5.4e-05,0.0,-0.012383,-0.505574,-0.011845,0.934545,-264.33606,1.615713,62.081103
8.578,-0.006832,0.004707,-0.011301,8.4e-05,-5.4e-05,0.0,-0.012788,-0.505702,-0.011647,0.859585,-264.33606,1.540752,62.081103
8.5979,-0.006841,0.004304,-0.010967,8.4e-05,-5.4e-05,0.0,-0.012776,-0.505673,-0.011624,0.859585,-264.33606,1.540752,62.081103
8.6181,-0.006785,0.004523,-0.010757,2e-06,-2e-06,4e-06,-0.012433,-0.505665,-0.010967,0.784741,-264.33606,1.465908,62.081103
8.6383,-0.006565,0.004387,-0.009976,0.000989,-0.000634,0.00176,-0.012341,-0.505541,-0.010847,0.784741,-264.33606,1.465908,62.081103
8.6579,-0.006914,0.004592,-0.010862,0.00192,-0.001231,0.003417,-0.012341,-0.505541,-0.010847,0.784741,-264.33606,1.465908,62.081103
8.678,-0.006552,0.004439,-0.009989,0.002809,-0.001801,0.004997,-0.012453,-0.505377,-0.010862,0.709689,-264.33606,1.390856,62.081103
8.6981,-0.006339,0.004509,-0.010759,0.003639,-0.002333,0.006474,-0.012396,-0.505389,-0.010799,0.709689,-264.33606,1.390856,62.081103
8.718,-0.006876,0.004371,-0.01031,0.004422,-0.002836,0.007868,-0.011826,-0.505462,-0.010759,0.634638,-264.33606,1.315805,62.081103
8.738,-0.00655,0.004075,-0.011888,0.005155,-0.003305,0.009171,-0.012003,-0.505542,-0.0105,0.634638,-264.33606,1.315805,62.081103
8.7582,-0.006596,0.00448,-0.009683,0.005838,-0.003744,0.010388,-0.012003,-0.505542,-0.0105,0.634638,-264.33606,1.315805,62.081103
8.778,-0.006864,0.004168,-0.010725,0.00647,-0.004149,0.011512,-0.011535,-0.505496,-0.009683,0.559555,-264.33606,1.240723,62.081104
8.7979,-0.006818,0.004085,-0.01236,0.007052,-0.004522,0.012547,-0.011609,-0.505525,-0.009781,0.559555,-264.33606,1.240723,62.081104
8.818,-0.006832,0.004126,-0.010537,0.007582,-0.004862,0.01349,-0.013122,-0.505876,-0.01236,0.483981,-264.33606,1.165149,62.081104
8.8381,-0.006345,0.004499,-0.011303,0.008061,-0.005169,0.014343,-0.012598,-0.505858,-0.011319,0.483981,-264.33606,1.165149,62.081104
8.8586,-0.00673,0.004305,-0.00998,0.008491,-0.005445,0.015108,-0.012598,-0.505858,-0.011319,0.483981,-264.33606,1.165149,62.081104
8.8779,-0.006474,0.00435,-0.009947,0.008871,-0.005689,0.015784,-0.01182,-0.50567,-0.00998,0.419046,-264.336059,1.090814,62.081104
8.8981,-0.006413,0.004068,-0.010696,0.009199,-0.005899,0.016368,-0.011801,-0.505667,-0.009978,0.419046,-264.336059,1.090814,62.081104
8.9178,-0.006715,0.004381,-0.00969,0.009478,-0.006077,0.016863,-0.011868,-0.505903,-0.010696,0.419046,-264.336059,1.015793,62.081105
8.9379,-0.006501,0.004272,-0.010307,0.009705,-0.006223,0.017267,-0.011748,-0.505728,-0.010124,0.419046,-264.336059,1.015793,62.081105
8.9583,-0.006812,0.004543,-0.011216,0.009886,-0.006339,0.017589,-0.011748,-0.505728,-0.010124,0.419046,-264.336059,1.015793,62.081105
8.9779,-0.006851,0.004255,-0.011733,0.010009,-0.006418,0.017808,-0.012533,-0.505425,-0.011216,0.419046,-264.336059,0.94091,62.081106
8.9979,-0.00688,0.004443,-0.011679,0.010084,-0.006466,0.017942,-0.012556,-0.505447,-0.011257,0.419046,-264.336059,0.94091,62.081106
9.018,-0.006709,0.004165,-0.011264,0.010109,-0.006483,0.017987,-0.012836,-0.505522,-0.011679,0.419046,-264.336058,0.865581,62.081107
9.038,-0.006303,0.004421,-0.011351,0.010084,-0.006466,0.017942,-0.012615,-0.505684,-0.011439,0.419046,-264.336058,0.865581,62.081107
9.058,-0.006827,0.004427,-0.012414,0.010008,-0.006418,0.017807,-0.012615,-0.505684,-0.011439,0.419046,-264.336058,0.865581,62.081107
9.0784,-0.006559,0.004002,-0.010289,0.009882,-0.006337,0.017582,-0.013158,-0.505534,-0.012414,0.419046,-264.336058,0.790587,62.081107
9.098,-0.006516,0.004161,-0.012276,0.009704,-0.006222,0.017265,-0.013063,-0.505565,-0.012265,0.419046,-264.336058,0.790587,62.081107
9.118,-0.007087,0.004439,-0.010947,0.009476,-0.006077,0.016861,-0.012776,-0.505801,-0.012276,0.419046,-264.336057,0.715829,62.081108
9.1384,-0.006775,0.004265,-0.011581,0.009199,-0.005899,0.016367,-0.012716,-0.505647,-0.011523,0.419046,-264.336057,0.715829,62.081108
9.1585,-0.006823,0.00465,-0.012064,0.008868,-0.005687,0.015778,-0.012716,-0.505647,-0.011523,0.419046,-264.336057,0.715829,62.081108
9.178,-0.006712,0.004497,-0.011004,0.008492,-0.005445,0.015108,-0.012976,-0.505313,-0.012064,0.419046,-264.336057,0.640889,62.081109
9.1982,-0.006632,0.004651,-0.012502,0.008063,-0.00517,0.014345,-0.012937,-0.505322,-0.012001,0.419046,-264.336057,0.640889,62.081109
9.2183,-0.006839,0.004502,-0.010057,0.007582,-0.004862,0.01349,-0.013008,-0.505309,-0.012502,0.419046,-264.336057,0.565884,62.08111
9.2379,-0.006528,0.004363,-0.012328,0.007051,-0.004521,0.012545,-0.012417,-0.505402,-0.011113,0.419046,-264.336057,0.565884,62.08111
9.2579,-0.006783,0.004601,-0.012104,0.006467,-0.004147,0.011506,-0.012417,-0.505402,-0.011113,0.419046,-264.336057,0.565884,62.08111
9.2782,-0.006819,0.004662,-0.00971,0.005837,-0.003743,0.010385,-0.012955,-0.505361,-0.012104,0.419046,-264.336056,0.490909,62.08111
9.2981,-0.006473,0.004555,-0.012885,0.005158,-0.003307,0.009177,-0.01288,-0.505358,-0.011952,0.419046,-264.336056,0.490909,62.08111
9.3178,-0.00661,0.0046,-0.011947,0.004423,-0.002836,0.007869,-0.013044,-0.505403,-0.012885,0.419046,-264.336056,0.415895,62.081111
9.3385,-0.006593,0.004351,-0.012266,0.00364,-0.002334,0.006476,-0.01285,-0.505381,-0.012351,0.419046,-264.336056,0.415895,62.081111
9.3581,-0.006689,0.004332,-0.010832,0.002804,-0.001798,0.004989,-0.01285,-0.505381,-0.012351,0.419046,-264.336056,0.415895,62.081111
9.3784,-0.006396,0.004384,-0.011018,0.001921,-0.001232,0.003418,-0.012213,-0.505638,-0.010832,0.419046,-264.336056,0.340914,62.081111
9.3983,-0.006481,0.004228,-0.011308,0.000984,-0.000631,0.001751,-0.012197,-0.505633,-0.010847,0.419046,-264.336056,0.340914,62.081111
9.4184,-0.006551,0.004386,-0.01121,0.0,0.0,0.0,-0.012248,-0.505739,-0.011308,0.419046,-264.336056,0.265404,62.081111
9.4381,-0.007095,0.00403,-0.010362,0.0,0.0,0.0,-0.01226,-0.50565,-0.011253,0.419046,-264.336056,0.265404,62.081111
9.4579,-0.006614,0.004442,-0.009755,0.0,0.0,0.0,-0.01226,-0.50565,-0.011253,0.419046,-264.336056,0.265404,62.081111
9.478,-0.006757,0.004424,-0.010583,0.0,0.0,0.0,-0.011589,-0.505534,-0.009755,0.419046,-264.336056,0.190812,62.081112
9.4981,-0.006958,0.003992,-0.012654,0.0,0.0,0.0,-0.011626,-0.505535,-0.009809,0.419046,-264.336056,0.190812,62.081112
9.518,-0.006671,0.004272,-0.010409,0.0,0.0,0.0,-0.013411,-0.505967,-0.012654,0.419046,-264.336056,0.190812,62.081112
9.5379,-0.00643,0.004386,-0.012148,0.0,0.0,0.0,-0.012591,-0.505814,-0.011367,0.419046,-264.336056,0.190812,62.081112
9.5581,-0.007016,0.004318,-0.012212,0.0,0.0,0.0,-0.012591,-0.505814,-0.011367,0.419046,-264.336056,0.190812,62.081112
9.5781,-0.006968,0.003953,-0.011683,0.0,0.0,0.0,-0.013244,-0.505644,-0.012212,0.419046,-264.336056,0.190812,62.081112
9.5984,-0.00617,0.00433,-0.010852,0.0,0.0,0.0,-0.013221,-0.50567,-0.012174,0.419046,-264.336056,0.190812,62.081112
9.6179,-0.006785,0.004408,-0.010961,0.0,0.0,0.0,-0.011704,-0.50564,-0.010852,0.419046,-264.336056,0.190812,62.081112
9.6379,-0.006488,0.004213,-0.010745,8.4e-05,-5.4e-05,0.0,-0.012084,-0.505596,-0.010914,0.419046,-264.336056,0.190812,62.081112
9.6582,-0.006811,0.004591,-0.011722,8.4e-05,-5.4e-05,0.0,-0.012084,-0.505596,-0.010914,0.419046,-264.336056,0.190812,62.081112
9.678,-0.006494,0.004403,-0.012196,8.4e-05,-5.4e-05,0.0,-0.012789,-0.505374,-0.011722,0.419046,-264.336056,0.190812,62.081112
9.6986,-0.006509,0.004393,-0.010867,8.4e-05,-5.4e-05,0.0,-0.012785,-0.505386,-0.011752,0.419046,-264.336056,0.190812,62.081112
9.7178,-0.006739,0.003845,-0.01107,8.4e-05,-5.4e-05,0.0,-0.012051,-0.505576,-0.010867,0.344138,-264.336056,0.115903,62.081112
9.7384,-0.00683,0.004178,-0.011537,8.4e-05,-5.4e-05,0.0,-0.012242,-0.50589,-0.010983,0.344138,-264.336056,0.115903,62.081112
9.758,-0.006637,0.004267,-0.010865,8.4e-05,-5.4e-05,0.0,-0.012242,-0.50589,-0.010983,0.344138,-264.336056,0.115903,62.081112
9.778,-0.006762,0.004034,-0.009943,8.4e-05,-5.4e-05,0.0,-0.012178,-0.505703,-0.010865,0.269027,-264.336056,0.040793,62.081112
9.7982,-0.006781,0.004238,-0.010222,8.4e-05,-5.4e-05,0.0,-0.012154,-0.505719,-0.010801,0.269027,-264.336056,0.040793,62.081112
9.8184,-0.006529,0.004296,-0.011023,8.4e-05,-5.4e-05,0.0,-0.011994,-0.505735,-0.010222,0.194141,-264.336056,-0.034093,62.081112
9.8383,-0.006232,0.004394,-0.009631,2e-05,-1.3e-05,3.2e-05,-0.012083,-0.5057,-0.010677,0.194141,-264.336056,-0.034093,62.081112
9.8578,-0.006604,0.004338,-0.010872,0.000999,-0.000634,0.001603,-0.012083,-0.5057,-0.010677,0.194141,-264.336056,-0.034093,62.081112
9.8778,-0.006498,0.00444,-0.011721,0.001966,-0.001247,0.003154,-0.012148,-0.505631,-0.010872,0.119141,-264.336056,-0.109094,62.081112
9.898,-0.006575,0.004354,-0.010861,0.002849,-0.001807,0.004571,-0.012171,-0.505624,-0.010931,0.119141,-264.336056,-0.109094,62.081112
9.9182,-0.006687,0.00476,-0.010073,0.00369,-0.00234,0.00592,-0.012114,-0.505616,-0.010861,0.194141,-264.336056,-0.184094,62.081112
9.938,-0.006713,0.00433,-0.011632,0.004483,-0.002843,0.007192,-0.011949,-0.505388,-0.010413,0.194141,-264.336056,-0.184094,62.081112
9.9592,-0.006648,0.004556,-0.012833,0.005227,-0.003315,0.008386,-0.011949,-0.505388,-0.010413,0.194141,-264.336056,-0.184094,62.081112
9.9782,-0.006606,0.004239,-0.008422,0.00592,-0.003755,0.009497,-0.013193,-0.505402,-0.012833,0.269144,-264.336055,-0.259097,62.081112
9.9978,-0.006661,0.004481,-0.009863,0.00656,-0.00416,0.010523,-0.013131,-0.505411,-0.012714,0.269144,-264.336055,-0.259097,62.081112
10.0184,-0.00689,0.004338,-0.011562,0.007154,-0.004537,0.011476,-0.011691,-0.505494,-0.009863,0.332751,-264.336055,-0.334102,62.081112
10.0384,-0.006695,0.004782,-0.011343,0.007695,-0.00488,0.012344,-0.012316,-0.505571,-0.010832,0.332751,-264.336055,-0.334102,62.081112
10.0584,-0.006772,0.004307,-0.011252,0.008174,-0.005184,0.013113,-0.012316,-0.505571,-0.010832,0.332751,-264.336055,-0.334102,62.081112
10.078,-0.006622,0.003999,-0.010672,0.00861,-0.005461,0.013813,-0.01251,-0.50566,-0.011252,0.332751,-264.336054,-0.409223,62.081114
10.0984,-0.006926,0.004215,-0.011498,0.008994,-0.005704,0.014429,-0.012475,-0.505685,-0.011206,0.332751,-264.336054,-0.409223,62.081114
10.1181,-0.006814,0.004378,-0.010827,0.009327,-0.005915,0.014963,-0.012789,-0.505751,-0.011497,0.332751,-264.336047,-0.48444,62.081126
10.1381,-0.006562,0.004752,-0.009328,0.009611,-0.006095,0.015418,-0.012534,-0.505662,-0.01112,0.332751,-264.336047,-0.48444,62.081126
10.1583,-0.006414,0.004418,-0.011962,0.00984,-0.006241,0.015787,-0.012534,-0.505662,-0.01112,0.332751,-264.336047,-0.48444,62.081126
10.1779,-0.007125,0.004241,-0.011363,0.010019,-0.006354,0.016073,-0.012509,-0.505547,-0.011958,0.332751,-264.336014,-0.559117,62.081186
10.1978,-0.006299,0.004119,-0.011073,0.010147,-0.006435,0.016278,-0.01254,-0.505561,-0.011913,0.332751,-264.336014,-0.559117,62.081186
10.218,-0.006536,0.004131,-0.011043,0.010223,-0.006484,0.016401,-0.011931,-0.505855,-0.011058,0.332751,-264.335884,-0.634377,62.081419
10.2379,-0.00692,0.004099,-0.010784,0.010249,-0.0065,0.016442,-0.012064,-0.505846,-0.011048,0.332751,-264.335884,-0.634377,62.081419
10.2582,-0.006955,0.00421,-0.011567,0.010223,-0.006484,0.016401,-0.012064,-0.505846,-0.011048,0.332751,-264.335884,-0.634377,62.081419
10.2789,-0.006575,0.004441,-0.011571,0.010146,-0.006435,0.016277,-0.012799,-0.505777,-0.011508,0.332751,-264.335491,-0.709214,62.082124
10.2981,-0.006508,0.004397,-0.011041,0.010018,-0.006354,0.016072,-0.012775,-0.50576,-0.011511,0.332751,-264.335491,-0.709214,62.082124
10.3183,-0.006388,0.003953,-0.011437,0.009839,-0.00624,0.015784,-0.012039,-0.505616,-0.010923,0.332751,-264.334556,-0.784087,62.083803
10.338,-0.006665,0.004355,-0.010705,0.009609,-0.006094,0.015415,-0.012129,-0.505847,-0.0112,0.332751,-264.334556,-0.784087,62.083803
10.3579,-0.006533,0.004145,-0.009546,0.009327,-0.005915,0.014962,-0.012129,-0.505847,-0.0112,0.332751,-264.334556,-0.784087,62.083803
10.3777,-0.006625,0.004122,-0.011535,0.008992,-0.005703,0.014426,-0.011174,-0.505945,-0.009248,0.332751,-264.332776,-0.859088,62.086997
10.3978,-0.00671,0.00419,-0.010834,0.008609,-0.00546,0.013811,-0.011264,-0.505941,-0.009405,0.332751,-264.332776,-0.859088,62.086997
10.4178,-0.006301,0.003876,-0.009337,0.008173,-0.005183,0.013111,-0.011979,-0.505925,-0.010463,0.332751,-264.330119,-0.934199,62.091765
10.4378,-0.005966,0.003986,-0.010648,0.007685,-0.004874,0.012329,-0.01142,-0.506045,-0.009769,0.332751,-264.330119,-0.934199,62.091765
10.4579,-0.006493,0.003917,-0.009789,0.007148,-0.004534,0.011468,-0.01142,-0.506045,-0.009769,0.332751,-264.330119,-0.934199,62.091765
10.4784,-0.006318,0.003688,-0.011257,0.006559,-0.00416,0.010523,-0.01111,-0.506299,-0.009189,0.332751,-264.326853,-1.009254,62.097625
10.4984,-0.006183,0.003806,-0.011301,0.005919,-0.003754,0.009496,-0.011163,-0.506304,-0.009311,0.332751,-264.326853,-1.009254,62.097625
10.5183,-0.006552,0.003461,-0.0071,0.005222,-0.003312,0.008378,-0.011669,-0.506341,-0.010853,0.332751,-264.323826,-1.016107,62.103058
10.538,-0.006107,0.0036,-0.009044,0.004479,-0.00284,0.007185,-0.010793,-0.506468,-0.008685,0.332751,-264.323826,-1.016107,62.103058
10.5579,-0.006284,0.003591,-0.008416,0.003681,-0.002335,0.005906,-0.010793,-0.506468,-0.008685,0.332751,-264.323826,-1.016107,62.103058
10.5787,-0.00655,0.003163,-0.007317,0.002841,-0.001802,0.004558,-0.01029,-0.506576,-0.007955,0.332751,-264.321308,-1.016107,62.107577
10.5983,-0.006434,0.003342,-0.00924,0.001944,-0.001233,0.003118,-0.010281,-0.506603,-0.007886,0.332751,-264.321308,-1.016107,62.107577
10.6182,-0.00628,0.003272,-0.008587,0.000996,-0.000632,0.001598,-0.011006,-0.506727,-0.009014,0.332751,-264.319758,-1.016107,62.110359
10.6379,-0.005957,0.003593,-0.007685,0.0,0.0,0.0,-0.01079,-0.506728,-0.008741,0.332751,-264.319758,-1.016107,62.110359
10.6582,-0.006511,0.003178,-0.007764,0.0,0.0,0.0,-0.01079,-0.506728,-0.008741,0.332751,-264.319758,-1.016107,62.110359
10.6782,-0.006454,0.003233,-0.0095,0.0,0.0,0.0,-0.010377,-0.506868,-0.007613,0.332751,-264.318936,-1.016107,62.111833
10.6984,-0.00621,0.003275,-0.006766,0.0,0.0,0.0,-0.010438,-0.506861,-0.007739,0.332751,-264.318936,-1.016107,62.111833
10.7181,-0.006272,0.002931,-0.008268,0.0,0.0,0.0,-0.009661,-0.506714,-0.006766,0.332751,-264.318936,-1.016107,62.111833
10.738,-0.006188,0.002982,-0.008164,0.0,0.0,0.0,-0.010136,-0.506908,-0.007628,0.332751,-264.318936,-1.016107,62.111833
10.758,-0.006339,0.00307,-0.007872,0.0,0.0,0.0,-0.010136,-0.506908,-0.007628,0.332751,-264.318936,-1.016107,62.111833
10.7783,-0.006383,0.002871,-0.007748,0.0,0.0,0.0,-0.010353,-0.506914,-0.007872,0.332751,-264.318936,-1.016107,62.111833
10.7987,-0.006063,0.0031,-0.00837,0.0,0.0,0.0,-0.010352,-0.506929,-0.007863,0.332751,-264.318936,-1.016107,62.111833
10.818,-0.006425,0.00297,-0.007619,0.0,0.0,0.0,-0.010331,-0.506882,-0.00837,0.332751,-264.318936,-1.016107,62.111833
10.8379,-0.006326,0.003502,-0.007868,0.0,0.0,0.0,-0.01032,-0.506958,-0.007943,0.332751,-264.318936,-1.016107,62.111833
10.8579,-0.006312,0.003094,-0.009113,8.8e-05,-4.8e-05,0.0,-0.01032,-0.506958,-0.007943,0.332751,-264.318936,-1.016107,62.111833
10.8779,-0.006229,0.003126,-0.007006,8.8e-05,-4.8e-05,0.0,-0.01096,-0.506885,-0.009113,0.332751,-264.318936,-1.016107,62.111833
10.8982,-0.006357,0.002901,-0.008626,8.8e-05,-4.8e-05,0.0,-0.01088,-0.506883,-0.008967,0.332751,-264.318936,-1.016107,62.111833
10.9181,-0.006431,0.002806,-0.008754,8.8e-05,-4.8e-05,0.0,-0.010756,-0.50708,-0.008626,0.257738,-264.318936,-0.941094,62.111833
10.938,-0.006094,0.003234,-0.009054,8.8e-05,-4.8e-05,0.0,-0.010836,-0.507134,-0.008699,0.257738,-264.318936,-0.941094,62.111833
10.958,-0.006119,0.003158,-0.006202,8.8e-05,-4.8e-05,0.0,-0.010836,-0.507134,-0.008699,0.257738,-264.318936,-0.941094,62.111833
10.9782,-0.006009,0.003086,-0.008354,8.8e-05,-4.8e-05,0.0,-0.009282,-0.506832,-0.006202,0.182599,-264.318936,-0.865954,62.111833
10.9983,-0.005932,0.003297,-0.007551,8.8e-05,-4.8e-05,0.0,-0.00935,-0.506837,-0.006351,0.182599,-264.318936,-0.865954,62.111833
11.0183,-0.005976,0.0029,-0.007334,8.8e-05,-4.8e-05,0.0,-0.009783,-0.506689,-0.007551,0.10774,-264.318936,-0.791096,62.111833
11.0382,-0.006177,0.003082,-0.008561,8.8e-05,-4.8e-05,0.0,-0.009745,-0.506913,-0.007429,0.10774,-264.318936,-0.791096,62.111833
11.0583,-0.006561,0.003126,-0.007567,8.8e-05,-4.8e-05,0.0,-0.009745,-0.506913,-0.007429,0.10774,-264.318936,-0.791096,62.111833
11.0783,-0.006466,0.003025,-0.008025,0.000924,-0.000502,0.001144,-0.01042,-0.50686,-0.007567,0.032741,-264.318936,-0.716097,62.111833
11.0984,-0.006313,0.003089,-0.009056,0.001806,-0.000981,0.002236,-0.01043,-0.506867,-0.007601,0.032741,-264.318936,-0.716097,62.111833
11.1181,-0.005943,0.003026,-0.008541,0.002665,-0.001448,0.0033,-0.010931,-0.50689,-0.009056,-0.042356,-264.318936,-0.641,62.111833
11.1379,-0.005757,0.002951,-0.009491,0.00343,-0.001864,0.004248,-0.010569,-0.506928,-0.008761,-0.042356,-264.318936,-0.641,62.111833
11.1581,-0.006325,0.003499,-0.007828,0.00417,-0.002266,0.005164,-0.010569,-0.506928,-0.008761,-0.042356,-264.318936,-0.641,62.111833
11.1779,-0.005722,0.003188,-0.008219,0.004857,-0.002639,0.006014,-0.010307,-0.50649,-0.00782,0.032663,-264.318858,-0.716019,62.111958
11.1983,-0.006329,0.003316,-0.007321,0.0055,-0.002988,0.00681,-0.01028,-0.506511,-0.007846,0.032663,-264.318858,-0.716019,62.111958
11.218,-0.006007,0.002998,-0.008019,0.006099,-0.003314,0.007553,-0.010007,-0.506698,-0.007267,0.107548,-264.318314,-0.790904,62.11283
11.2378,-0.005989,0.003237,-0.006803,0.006644,-0.00361,0.008227,-0.010051,-0.506865,-0.007688,0.107548,-264.318314,-0.790904,62.11283
11.2582,-0.006454,0.003395,-0.007566,0.007145,-0.003882,0.008847,-0.010051,-0.506865,-0.007688,0.107548,-264.318314,-0.790904,62.11283
11.2786,-0.006037,0.00304,-0.007308,0.007599,-0.004129,0.00941,-0.010131,-0.506685,-0.007358,0.182544,-264.316827,-0.8659,62.115216
11.2987,-0.006334,0.002942,-0.007127,0.008005,-0.004349,0.009913,-0.0101,-0.506706,-0.007349,0.182544,-264.316827,-0.8659,62.115216
11.3182,-0.00617,0.002735,-0.006928,0.008361,-0.004543,0.010353,-0.009707,-0.507189,-0.006802,0.209836,-264.314052,-0.914971,62.119666
11.3386,-0.005735,0.00285,-0.008347,0.008672,-0.004712,0.010739,-0.009672,-0.507244,-0.006833,0.209836,-264.314052,-0.914971,62.119666
11.3583,-0.006136,0.002685,-0.007181,0.008933,-0.004854,0.011062,-0.009672,-0.507244,-0.006833,0.209836,-264.314052,-0.914971,62.119666
11.3779,-0.005519,0.002605,-0.005374,0.009148,-0.004971,0.011328,-0.00941,-0.507517,-0.006698,0.209836,-264.310772,-0.914971,62.124926
11.398,-0.005347,0.002382,-0.007518,0.009315,-0.005061,0.011535,-0.00932,-0.507513,-0.006593,0.209836,-264.310772,-0.914971,62.124926
11.4178,-0.005541,0.002319,-0.006748,0.009435,-0.005126,0.011683,-0.008839,-0.507793,-0.007092,0.209836,-264.30712,-0.914971,62.130784
11.4384,-0.005666,0.002429,-0.006863,0.009507,-0.005165,0.011772,-0.008878,-0.507746,-0.00684,0.209836,-264.30712,-0.914971,62.130784
11.458,-0.005812,0.002321,-0.005671,0.009531,-0.005178,0.011802,-0.008878,-0.507746,-0.00684,0.209836,-264.30712,-0.914971,62.130784
11.478,-0.005403,0.002165,-0.004823,0.009507,-0.005166,0.011773,-0.008252,-0.507919,-0.00511,0.209836,-264.303316,-0.914971,62.136886
11.4984,-0.005569,0.002181,-0.006147,0.009435,-0.005127,0.011684,-0.008215,-0.507919,-0.005077,0.209836,-264.303316,-0.914971,62.136886
11.518,-0.005448,0.001876,-0.005644,0.009317,-0.005062,0.011538,-0.008337,-0.508011,-0.005691,0.209836,-264.299413,-0.914971,62.143146
11.538,-0.005259,0.001785,-0.005756,0.00915,-0.004972,0.011331,-0.008285,-0.508097,-0.005606,0.209836,-264.299413,-0.914971,62.143146
11.558,-0.004947,0.001908,-0.00609,0.008935,-0.004855,0.011065,-0.008285,-0.508097,-0.005606,0.209836,-264.299413,-0.914971,62.143146
11.5783,-0.004904,0.001241,-0.004269,0.008675,-0.004713,0.010742,-0.007597,-0.508334,-0.005524,0.209836,-264.295559,-0.914971,62.149327
11.5983,-0.004819,0.001393,-0.003585,0.008365,-0.004545,0.010359,-0.007549,-0.50837,-0.005421,0.209836,-264.295559,-0.914971,62.149327
11.6187,-0.004665,0.001686,-0.005463,0.008001,-0.004348,0.009908,-0.006303,-0.508792,-0.003157,0.209836,-264.291897,-0.914971,62.1552
11.6381,-0.005006,0.001269,-0.003501,0.007603,-0.004131,0.009415,-0.00692,-0.508536,-0.00443,0.209836,-264.291897,-0.914971,62.1552
11.658,-0.004697,0.001492,-0.003296,0.007151,-0.003886,0.008856,-0.00692,-0.508536,-0.00443,0.209836,-264.291897,-0.914971,62.1552
11.678,-0.004769,0.000606,-0.003962,0.006649,-0.003613,0.008233,-0.005973,-0.508727,-0.002794,0.209836,-264.288478,-0.914971,62.160684
11.6984,-0.0049,0.001279,-0.004307,0.006104,-0.003316,0.007558,-0.006022,-0.508782,-0.002866,0.209836,-264.288478,-0.914971,62.160684
11.7182,-0.004647,0.000615,-0.003214,0.005504,-0.002991,0.006816,-0.006822,-0.508867,-0.003966,0.209836,-264.285554,-0.914971,62.165374
11.7381,-0.004811,0.000988,-0.003208,0.004865,-0.002644,0.006025,-0.00648,-0.509182,-0.003491,0.209836,-264.285554,-0.914971,62.165374
11.7582,-0.004912,0.001117,-0.003367,0.004173,-0.002268,0.005168,-0.00648,-0.509182,-0.003491,0.209836,-264.285554,-0.914971,62.165374
11.7778,-0.004372,0.000507,-0.003368,0.003436,-0.001867,0.004255,-0.006334,-0.509042,-0.003,0.209836,-264.283052,-0.914971,62.169386
11.7978,-0.004395,0.000849,-0.001883,0.00265,-0.00144,0.003282,-0.006306,-0.509082,-0.003018,0.209836,-264.283052,-0.914971,62.169386
11.8182,-0.004598,0.000348,-0.002529,0.001816,-0.000986,0.002248,-0.005195,-0.509238,-0.001685,0.209836,-264.281349,-0.914971,62.172118
11.8382,-0.004521,0.000595,-0.002344,0.000933,-0.000507,0.001155,-0.005571,-0.509485,-0.002142,0.209836,-264.281349,-0.914971,62.172118
11.8586,-0.004523,0.000111,-0.001169,7e-06,-4e-06,8e-06,-0.005571,-0.509485,-0.002142,0.209836,-264.281349,-0.914971,62.172118
11.8784,-0.004214,0.00066,-0.004551,0.0,0.0,0.0,-0.00499,-0.509959,-0.00101,0.209836,-264.280267,-0.914971,62.173854
11.8983,-0.004553,0.000579,-0.003658,0.0,0.0,0.0,-0.005088,-0.50992,-0.001236,0.209836,-264.280267,-0.914971,62.173854
11.9178,-0.004311,0.000612,-0.002514,0.0,0.0,0.0,-0.006418,-0.509418,-0.003658,0.209836,-264.280264,-0.914971,62.173858
11.938,-0.004578,0.000573,-0.003309,0.0,0.0,0.0,-0.005948,-0.5094,-0.003006,0.209836,-264.280264,-0.914971,62.173858
11.958,-0.004257,0.00039,-0.001959,0.0,0.0,0.0,-0.005948,-0.5094,-0.003006,0.209836,-264.280264,-0.914971,62.173858
11.9781,-0.004327,0.000693,-0.00215,0.0,0.0,0.0,-0.005256,-0.509609,-0.001959,0.209836,-264.280264,-0.914971,62.173858
11.998,-0.004704,0.000116,-0.002134,0.0,0.0,0.0,-0.005268,-0.509588,-0.001972,0.209836,-264.280264,-0.914971,62.173858
12.0182,-0.004685,-7.1e-05,-0.003705,0.0,0.0,0.0,-0.005792,-0.509883,-0.002134,0.209836,-264.280264,-0.914971,62.173858
12.0379,-0.004432,0.000729,-0.002306,0.0,0.0,0.0,-0.00624,-0.509989,-0.003033,0.209836,-264.280264,-0.914971,62.173858
12.058,-0.004524,0.000536,-0.002472,0.0,0.0,0.0,-0.00624,-0.509989,-0.003033,0.209836,-264.280264,-0.914971,62.173858
12.0779,-0.004644,0.000469,-0.002511,9.9e-05,-1.2e-05,0.0,-0.005785,-0.509462,-0.002472,0.209836,-264.280264,-0.914971,62.173858
12.0985,-0.004384,0.000676,-0.001998,9.9e-05,-1.2e-05,0.0,-0.005793,-0.509466,-0.002474,0.209836,-264.280264,-0.914971,62.173858
12.1179,-0.004275,0.000504,-0.001731,9.9e-05,-1.2e-05,0.0,-0.005403,-0.509323,-0.001998,0.209836,-264.280264,-0.914971,62.173858
12.138,-0.004698,0.000224,-0.001949,9.9e-05,-1.2e-05,0.0,-0.005265,-0.50942,-0.001847,0.209836,-264.280264,-0.914971,62.173858
12.1581,-0.004479,0.000646,-0.00253,9.9e-05,-1.2e-05,0.0,-0.005265,-0.50942,-0.001847,0.209836,-264.280264,-0.914971,62.173858
12.178,-0.00485,0.00034,-0.0033,9.9e-05,-1.2e-05,0.0,-0.00577,-0.509353,-0.00253,0.134707,-264.280264,-0.839842,62.173858
12.1978,-0.004908,0.000297,-0.001534,9.9e-05,-1.2e-05,0.0,-0.005825,-0.509375,-0.002586,0.134707,-264.280264,-0.839842,62.173858
12.2181,-0.004477,0.000715,-0.001624,9.9e-05,-1.2e-05,0.0,-0.00569,-0.509702,-0.001534,0.05976,-264.280264,-0.764895,62.173858
12.2381,-0.00471,0.000743,-0.001719,9.9e-05,-1.2e-05,0.0,-0.00547,-0.509463,-0.001586,0.05976,-264.280264,-0.764895,62.173858
12.2578,-0.004284,0.000227,-0.003627,9.9e-05,-1.2e-05,0.0,-0.00547,-0.509463,-0.001586,0.05976,-264.280264,-0.764895,62.173858
12.2778,-0.004687,0.000584,-0.001883,3e-06,-0.0,2e-06,-0.006133,-0.50977,-0.003627,-0.015243,-264.280264,-0.689893,62.173858
12.2981,-0.004586,0.000771,-0.001875,0.000662,-7.7e-05,0.000362,-0.006096,-0.509742,-0.003493,-0.015243,-264.280264,-0.689893,62.173858
12.3181,-0.004514,0.000589,-0.001389,0.0013,-0.000151,0.00071,-0.005542,-0.509228,-0.001875,-0.09037,-264.280264,-0.614765,62.173859
12.3379,-0.004754,0.000562,-0.002963,0.001889,-0.000219,0.001031,-0.00536,-0.509332,-0.001599,-0.09037,-264.280264,-0.614765,62.173859
12.358,-0.004415,0.00032,-0.002758,0.002445,-0.000284,0.001335,-0.00536,-0.509332,-0.001599,-0.09037,-264.280264,-0.614765,62.173859
12.378,-0.004415,0.000604,-0.003189,0.002971,-0.000345,0.001623,-0.005818,-0.50968,-0.002756,-0.015592,-264.280231,-0.539987,62.173894
12.3984,-0.004497,0.000266,-0.001718,0.003462,-0.000402,0.001891,-0.005832,-0.509661,-0.002784,-0.015592,-264.280231,-0.539987,62.173894
12.4183,-0.004697,0.00035,-0.002763,0.003921,-0.000455,0.002141,-0.005341,-0.50974,-0.001704,0.05942,-264.279888,-0.464974,62.174261
12.4383,-0.004517,0.000314,-0.001975,0.004346,-0.000504,0.002373,-0.00577,-0.509689,-0.002301,0.05942,-264.279888,-0.464974,62.174261
12.4581,-0.004645,0.000421,-0.001863,0.004736,-0.000549,0.002586,-0.00577,-0.509689,-0.002301,0.05942,-264.279888,-0.464974,62.174261
12.4782,-0.004085,0.000548,-0.00151,0.005093,-0.000591,0.002781,-0.005483,-0.509596,-0.001809,0.134533,-264.278951,-0.422484,62.175265
12.4983,-0.003979,0.000406,-0.003177,0.005414,-0.000628,0.002956,-0.005437,-0.509586,-0.001788,0.134533,-264.278951,-0.422484,62.175265
12.518,-0.00417,0.000458,-0.002371,0.00571,-0.000662,0.003118,-0.005434,-0.509611,-0.003087,0.209527,-264.277199,-0.422484,62.177142
12.5381,-0.004042,0.000549,-0.002124,0.005957,-0.000691,0.003253,-0.005382,-0.509574,-0.002666,0.209527,-264.277199,-0.422484,62.177142
12.5579,-0.004007,0.000219,-0.001315,0.006178,-0.000717,0.003374,-0.005382,-0.509574,-0.002666,0.209527,-264.277199,-0.422484,62.177142
12.5782,-0.003868,0.000498,-0.001696,0.006364,-0.000738,0.003476,-0.004415,-0.509812,-0.001172,0.214174,-264.274973,-0.422484,62.179526
12.5991,-0.003629,0.000566,-0.001435,0.006518,-0.000756,0.003559,-0.004433,-0.509787,-0.001211,0.214174,-264.274973,-0.422484,62.179526
12.6185,-0.003878,0.00041,-0.003204,0.006637,-0.00077,0.003625,-0.004123,-0.509461,-0.001305,0.214174,-264.272461,-0.422484,62.182218
12.6381,-0.003899,0.000264,-0.001971,0.006721,-0.00078,0.003671,-0.00487,-0.509535,-0.002351,0.214174,-264.272461,-0.422484,62.182218
12.6581,-0.003876,-3.6e-05,-0.003621,0.006772,-0.000786,0.003698,-0.00487,-0.509535,-0.002351,0.214174,-264.272461,-0.422484,62.182218
12.678,-0.003681,0.000609,-0.00182,0.006789,-0.000788,0.003707,-0.005406,-0.51007,-0.003448,0.214174,-264.269793,-0.422484,62.185077
12.6983,-0.003708,0.000488,-0.000714,0.006772,-0.000786,0.003698,-0.005341,-0.510023,-0.003328,0.214174,-264.269793,-0.422484,62.185077
12.7182,-0.003237,0.000441,-0.002038,0.006721,-0.00078,0.00367,-0.00381,-0.509542,-0.000571,0.214174,-264.26702,-0.422484,62.188047
12.738,-0.003297,0.000285,-0.000368,0.006636,-0.00077,0.003624,-0.004042,-0.509555,-0.001387,0.214174,-264.26702,-0.422484,62.188047
12.7578,-0.003341,0.000237,-0.001063,0.006517,-0.000756,0.003559,-0.004042,-0.509555,-0.001387,0.214174,-264.26702,-0.422484,62.188047
12.7777,-0.002735,0.000193,-0.001571,0.006362,-0.000738,0.003475,-0.003554,-0.509801,-0.000883,0.214174,-264.264248,-0.422484,62.191017
12.7981,-0.002894,0.000346,-0.000354,0.006178,-0.000717,0.003374,-0.003544,-0.509803,-0.000927,0.214174,-264.264248,-0.422484,62.191017
