mach0312/omni-docking-bench/src/icros_test_setup/results/kinematic_sample/timeseries/trial_093.csv
t,x,y,yaw,vx,vy,wz,bl_x,bl_y,bl_yaw,front_steering_joint,front_wheel_joint,rear_steering_joint,rear_wheel_joint
0.0,-0.021143,0.027669,0.032303,0.002809,0.002281,0.001696,-0.004334,-0.482362,0.032173,0.868079,-264.470508,0.417249,62.255907
0.0004,-0.02059,0.02746,0.032863,0.0,0.0,0.0,-0.004069,-0.482326,0.032909,0.868079,-264.468043,0.417249,62.25765
0.0007,-0.020558,0.027291,0.03083,0.0,0.0,0.0,-0.004886,-0.482294,0.031645,0.868079,-264.466301,0.417249,62.258882
0.001,-0.021164,0.027767,0.032311,0.0,0.0,0.0,-0.004886,-0.482294,0.031645,0.868079,-264.46583,0.417249,62.259215
0.0013,-0.020729,0.027694,0.031385,0.0,0.0,0.0,-0.004886,-0.482294,0.031645,0.868079,-264.46583,0.417249,62.259215
0.0016,-0.020851,0.027607,0.032191,0.0,0.0,0.0,-0.004402,-0.482438,0.032245,0.868079,-264.46583,0.417249,62.259215
0.002,-0.021183,0.027702,0.033516,0.0,0.0,0.0,-0.004402,-0.482438,0.032245,0.868079,-264.46583,0.417249,62.259215
0.0022,-0.020908,0.027319,0.031722,0.0,0.0,0.0,-0.004341,-0.482399,0.032364,0.868079,-264.46583,0.417249,62.259215
0.0025,-0.020712,0.027534,0.032212,0.0,0.0,0.0,-0.004341,-0.482399,0.032364,0.868079,-264.46583,0.417249,62.259215
0.0027,-0.021056,0.027888,0.033094,0.0,0.0,0.0,-0.004429,-0.482403,0.032546,0.868079,-264.46583,0.417249,62.259215
0.0181,-0.020676,0.027728,0.032945,0.016082,-0.015943,-0.03,-0.004182,-0.481833,0.033094,0.868079,-264.46583,0.417249,62.259215
0.0383,-0.020728,0.027746,0.031372,0.019751,-0.028394,-0.032945,-0.004009,-0.481925,0.033009,0.868079,-264.46583,0.417249,62.259215
0.0577,-0.021009,0.027779,0.032282,0.019847,-0.028382,-0.031372,-0.004009,-0.481925,0.033009,0.868079,-264.46583,0.417249,62.259215
0.0784,-0.020465,0.027558,0.03357,0.020101,-0.028443,-0.032282,-0.004547,-0.481954,0.032282,0.793083,-264.465823,0.492245,62.259222
0.0982,-0.020806,0.027649,0.031765,0.019528,-0.02823,-0.03357,-0.004464,-0.481968,0.032371,0.793083,-264.465823,0.492245,62.259222
0.118,-0.020599,0.027792,0.031225,0.019918,-0.028296,-0.031765,-0.004609,-0.482094,0.031765,0.718083,-264.465823,0.417244,62.259222
0.1379,-0.020662,0.027323,0.031519,0.019721,-0.028421,-0.031225,-0.004647,-0.482018,0.031459,0.718083,-264.465823,0.417244,62.259222
0.1578,-0.020994,0.027435,0.030713,0.01979,-0.027961,-0.031519,-0.004647,-0.482018,0.031459,0.718083,-264.465823,0.417244,62.259222
0.1781,-0.020833,0.027605,0.031977,0.020142,-0.028067,-0.030713,-0.005333,-0.482325,0.030713,0.643075,-264.465823,0.342237,62.259222
0.1984,-0.020727,0.027486,0.032953,0.019939,-0.028257,-0.031977,-0.005277,-0.482311,0.030801,0.643075,-264.465823,0.342237,62.259222
0.2179,-0.020691,0.027068,0.031665,0.01981,-0.028154,-0.032953,-0.003923,-0.482237,0.032953,0.568084,-264.465823,0.267246,62.259222
0.2377,-0.020758,0.027602,0.031207,0.019823,-0.027709,-0.031665,-0.004275,-0.482486,0.032224,0.568084,-264.465823,0.267246,62.259222
0.258,-0.021259,0.027358,0.031166,0.019887,-0.028236,-0.031207,-0.004275,-0.482486,0.032224,0.568084,-264.465823,0.267246,62.259222
0.2778,-0.021004,0.02798,0.030476,0.020397,-0.028007,-0.031166,-0.005367,-0.482394,0.031166,0.492872,-264.465823,0.192033,62.259222
0.2986,-0.020611,0.027753,0.031868,0.020141,-0.028607,-0.030476,-0.005374,-0.482349,0.031115,0.492872,-264.465823,0.192033,62.259222
0.3184,-0.020517,0.02744,0.033545,0.019716,-0.028395,-0.031868,-0.004361,-0.481988,0.031868,0.417927,-264.465823,0.117088,62.259222
0.3379,-0.020989,0.027142,0.032129,0.019585,-0.028113,-0.033545,-0.003817,-0.482152,0.032829,0.417927,-264.465823,0.117088,62.259222
0.3577,-0.020839,0.027713,0.031501,0.020106,-0.027802,-0.032129,-0.003817,-0.482152,0.032829,0.417927,-264.465823,0.117088,62.259222
0.3778,-0.021003,0.027419,0.032441,0.019956,-0.028355,-0.031501,-0.004777,-0.482034,0.031501,0.342954,-264.465823,0.042115,62.259222
0.3979,-0.020825,0.027496,0.031103,0.020103,-0.028086,-0.032441,-0.004755,-0.482054,0.031566,0.342954,-264.465823,0.042115,62.259222
0.4181,-0.020614,0.02727,0.031232,0.01996,-0.02813,-0.031103,-0.004965,-0.482258,0.031103,0.26809,-264.465823,-0.032749,62.259222
0.4381,-0.021126,0.027459,0.031855,0.019752,-0.027901,-0.031232,-0.004806,-0.482386,0.031177,0.26809,-264.465823,-0.032749,62.259222
0.4581,-0.020912,0.027608,0.033129,0.020241,-0.028118,-0.031855,-0.004806,-0.482386,0.031177,0.26809,-264.465823,-0.032749,62.259222
0.4784,-0.020958,0.027636,0.031549,0.019986,-0.028286,-0.033129,-0.004019,-0.482112,0.033129,0.192937,-264.465822,-0.107901,62.259222
0.4986,-0.020878,0.027264,0.032486,0.020076,-0.028283,-0.031549,-0.004079,-0.482112,0.033017,0.192937,-264.465822,-0.107901,62.259222
0.5178,-0.020673,0.027957,0.033068,0.019981,-0.027928,-0.032486,-0.004313,-0.482467,0.032486,0.118065,-264.465822,-0.182774,62.259222
0.5383,-0.020999,0.027505,0.03178,0.019738,-0.028625,-0.033068,-0.004026,-0.482065,0.032819,0.118065,-264.465822,-0.182774,62.259222
0.5584,-0.020812,0.027791,0.03175,0.020115,-0.028158,-0.03178,-0.004026,-0.482065,0.032819,0.118065,-264.465822,-0.182774,62.259222
0.5781,-0.020947,0.027857,0.031374,0.019919,-0.028438,-0.03175,-0.004622,-0.481952,0.03175,0.042987,-264.465821,-0.257852,62.259223
0.5982,-0.020492,0.027443,0.033647,0.020063,-0.0285,-0.031374,-0.004649,-0.481947,0.031719,0.042987,-264.465821,-0.257852,62.259223
0.6179,-0.020718,0.02784,0.034048,0.019557,-0.028117,-0.033647,-0.003335,-0.482268,0.033647,-0.032376,-264.46582,-0.333214,62.259223
0.6379,-0.021131,0.02744,0.032366,0.019758,-0.028529,-0.034048,-0.003347,-0.482037,0.033876,-0.032376,-264.46582,-0.333214,62.259223
0.6579,-0.02101,0.027472,0.031884,0.020232,-0.028109,-0.032366,-0.003347,-0.482037,0.033876,-0.032376,-264.46582,-0.333214,62.259223
0.6777,-0.020778,0.027776,0.033846,0.020123,-0.028127,-0.031884,-0.004751,-0.482269,0.031884,-0.107037,-264.465818,-0.407876,62.259224
0.6983,-0.020842,0.027917,0.032141,0.019826,-0.028463,-0.033846,-0.004662,-0.482245,0.032027,-0.107037,-264.465818,-0.407876,62.259224
0.7181,-0.020758,0.027602,0.032374,0.019935,-0.028572,-0.032141,-0.004453,-0.48182,0.032141,-0.182036,-264.465816,-0.391059,62.259225
0.7378,-0.021072,0.027481,0.032937,0.019854,-0.02826,-0.032374,-0.004338,-0.481996,0.032274,-0.182036,-264.465816,-0.391059,62.259225
0.758,-0.020753,0.027771,0.03179,0.020156,-0.02816,-0.032937,-0.004338,-0.481996,0.032274,-0.182036,-264.465816,-0.391059,62.259225
0.7782,-0.020618,0.027859,0.034815,0.019859,-0.028416,-0.03179,-0.004542,-0.481972,0.03179,-0.256948,-264.465814,-0.374463,62.259226
0.7979,-0.020955,0.027694,0.032691,0.019636,-0.02856,-0.034815,-0.004426,-0.481962,0.032,-0.256948,-264.465814,-0.374463,62.259226
0.8181,-0.020718,0.027366,0.031672,0.020038,-0.028364,-0.032691,-0.004285,-0.482033,0.032691,-0.331922,-264.465812,-0.3797,62.259227
0.8378,-0.020986,0.028,0.031509,0.019841,-0.028008,-0.031672,-0.004447,-0.482231,0.032108,-0.331922,-264.465812,-0.3797,62.259227
0.8582,-0.020888,0.027379,0.032378,0.020093,-0.028648,-0.031509,-0.004447,-0.482231,0.032108,-0.331922,-264.465812,-0.3797,62.259227
0.8779,-0.020868,0.027696,0.032795,0.019991,-0.028041,-0.032378,-0.004378,-0.482354,0.032378,-0.407046,-264.465809,-0.355782,62.259228
0.8981,-0.021088,0.0277,0.031342,0.019949,-0.028365,-0.032795,-0.004362,-0.482332,0.032406,-0.407046,-264.465809,-0.355782,62.259228
0.9181,-0.020912,0.027371,0.032038,0.02021,-0.028347,-0.031342,-0.005106,-0.48205,0.031342,-0.48206,-264.465807,-0.430796,62.259229
0.9384,-0.020848,0.02773,0.032252,0.020024,-0.028027,-0.032038,-0.004803,-0.482231,0.031739,-0.48206,-264.465807,-0.430796,62.259229
0.958,-0.021126,0.027517,0.032103,0.019943,-0.028388,-0.032252,-0.004803,-0.482231,0.031739,-0.48206,-264.465807,-0.430796,62.259229
0.978,-0.020742,0.027794,0.031558,0.020232,-0.028181,-0.032103,-0.004756,-0.48222,0.032103,-0.557037,-264.465801,-0.395802,62.259231
0.9979,-0.02105,0.027496,0.031444,0.019855,-0.028435,-0.031558,-0.004749,-0.482203,0.032068,-0.557037,-264.465801,-0.395802,62.259231
1.0178,-0.020534,0.027651,0.030599,0.020176,-0.028144,-0.031444,-0.005015,-0.482253,0.031443,-0.631948,-264.465771,-0.410955,62.259244
1.038,-0.02121,0.02759,0.032083,0.019679,-0.028266,-0.030599,-0.004966,-0.482171,0.030953,-0.631948,-264.465771,-0.410955,62.259244
1.058,-0.021071,0.027379,0.031096,0.020314,-0.028257,-0.032083,-0.004966,-0.482171,0.030953,-0.631948,-264.465771,-0.410955,62.259244
1.0784,-0.020638,0.027422,0.031966,0.02021,-0.028021,-0.031096,-0.005205,-0.482381,0.031089,-0.707358,-264.465631,-0.432284,62.259303
1.0979,-0.021067,0.027618,0.032671,0.019751,-0.028067,-0.031966,-0.005149,-0.482378,0.031145,-0.707358,-264.465631,-0.432284,62.259303
1.1179,-0.020593,0.027444,0.033178,0.020153,-0.028292,-0.032671,-0.004375,-0.482134,0.032645,-0.781934,-264.465037,-0.403043,62.259555
1.1378,-0.020666,0.027681,0.033121,0.019671,-0.028112,-0.033178,-0.003974,-0.482217,0.032944,-0.781934,-264.465037,-0.403043,62.259555
1.1584,-0.020699,0.027383,0.032232,0.019738,-0.02835,-0.033121,-0.003974,-0.482217,0.032944,-0.781934,-264.465037,-0.403043,62.259555
1.1784,-0.020602,0.026999,0.03154,0.019805,-0.028036,-0.032232,-0.004161,-0.482437,0.03214,-0.856941,-264.463451,-0.408281,62.260217
1.1984,-0.020601,0.027347,0.032261,0.01974,-0.027635,-0.03154,-0.004188,-0.482466,0.032086,-0.856941,-264.463451,-0.408281,62.260217
1.2183,-0.020536,0.027137,0.031366,0.019708,-0.027998,-0.032261,-0.003978,-0.482547,0.032077,-0.932429,-264.459859,-0.390355,62.26168
1.2378,-0.020174,0.027264,0.030592,0.019675,-0.027767,-0.031366,-0.004276,-0.482605,0.031649,-0.932429,-264.459859,-0.390355,62.26168
1.2581,-0.020442,0.027553,0.031127,0.01933,-0.027868,-0.030592,-0.004276,-0.482605,0.031649,-0.932429,-264.459859,-0.390355,62.26168
1.2779,-0.019531,0.02708,0.02946,0.019575,-0.028176,-0.031127,-0.00417,-0.482582,0.030745,-1.006918,-264.453756,-0.401111,62.265057
1.298,-0.019766,0.02701,0.032143,0.018725,-0.027644,-0.02946,-0.004183,-0.482599,0.03065,-1.006918,-264.453756,-0.401111,62.265057
1.318,-0.018529,0.026582,0.030574,0.018888,-0.027631,-0.032143,-0.002939,-0.483187,0.03172,-1.081958,-264.44515,-0.44353,62.270278
1.3383,-0.018905,0.026052,0.031149,0.017708,-0.027136,-0.030574,-0.002884,-0.483241,0.03101,-1.081958,-264.44515,-0.44353,62.270278
1.3585,-0.018862,0.026482,0.031676,0.018084,-0.026628,-0.031149,-0.002884,-0.483241,0.03101,-1.081958,-264.44515,-0.44353,62.270278
1.378,-0.017731,0.025589,0.031118,0.018014,-0.027066,-0.031676,-0.002033,-0.484054,0.030988,-1.157027,-264.434046,-0.475921,62.277349
1.3982,-0.017593,0.025149,0.030541,0.016926,-0.026129,-0.031118,-0.002002,-0.484085,0.030978,-1.157027,-264.434046,-0.475921,62.277349
1.4179,-0.016792,0.024473,0.030114,0.016817,-0.025675,-0.030541,-0.001448,-0.485336,0.029759,-1.19363,-264.420462,-0.400913,62.284309
1.4377,-0.016334,0.02447,0.030191,0.016047,-0.024967,-0.030114,-0.001368,-0.485406,0.02986,-1.19363,-264.420462,-0.400913,62.284309
1.4579,-0.016064,0.024466,0.029907,0.015588,-0.024952,-0.030191,-0.001368,-0.485406,0.02986,-1.19363,-264.420462,-0.400913,62.284309
1.4778,-0.01508,0.023273,0.028713,0.015325,-0.024935,-0.029907,-2.6e-05,-0.486376,0.028685,-1.212013,-264.404363,-0.398366,62.291614
1.4986,-0.014708,0.023373,0.029046,0.014405,-0.023696,-0.028713,-3.3e-05,-0.486409,0.028658,-1.212013,-264.404363,-0.398366,62.291614
1.5183,-0.013497,0.022159,0.025124,0.014023,-0.02379,-0.029046,0.000736,-0.487364,0.027873,-1.225919,-264.385952,-0.395773,62.29836
1.5386,-0.013599,0.02249,0.026945,0.012936,-0.022491,-0.025124,1.3e-05,-0.487661,0.026177,-1.225919,-264.385952,-0.395773,62.29836
1.5582,-0.013505,0.022517,0.028567,0.012988,-0.022848,-0.026945,1.3e-05,-0.487661,0.026177,-1.225919,-264.385952,-0.395773,62.29836
1.5781,-0.011915,0.021357,0.025365,0.012856,-0.022894,-0.028567,0.001792,-0.488403,0.027176,-1.234687,-264.368547,-0.40409,62.304603
1.598,-0.011647,0.021302,0.024449,0.01137,-0.021653,-0.025365,0.001758,-0.488438,0.027017,-1.234687,-264.368547,-0.40409,62.304603
1.6178,-0.010737,0.020024,0.024635,0.011123,-0.02158,-0.024449,0.001319,-0.489375,0.023457,-1.251647,-264.352774,-0.457312,62.310119
1.638,-0.010815,0.020057,0.023771,0.01024,-0.020283,-0.024635,0.001672,-0.489735,0.024007,-1.251647,-264.352774,-0.457312,62.310119
1.6582,-0.010565,0.020177,0.023306,0.010336,-0.020309,-0.023771,0.001672,-0.489735,0.024007,-1.251647,-264.352774,-0.457312,62.310119
1.6779,-0.009489,0.019179,0.02208,0.010091,-0.020418,-0.023306,0.001877,-0.490688,0.022115,-1.273756,-264.337729,-0.49658,62.315127
1.6979,-0.009502,0.019028,0.024045,0.009063,-0.019384,-0.02208,0.001885,-0.490718,0.022078,-1.273756,-264.337729,-0.49658,62.315127
1.7179,-0.008333,0.017775,0.022291,0.009042,-0.019251,-0.024045,0.003174,-0.491594,0.023133,-1.282305,-264.32327,-0.510665,62.319842
1.738,-0.008468,0.017798,0.021226,0.007934,-0.017956,-0.022291,0.003147,-0.491981,0.022535,-1.282305,-264.32327,-0.510665,62.319842
1.7584,-0.008174,0.017852,0.019514,0.008088,-0.017973,-0.021226,0.003147,-0.491981,0.022535,-1.282305,-264.32327,-0.510665,62.319842
1.7778,-0.007289,0.017485,0.020934,0.007825,-0.018008,-0.019514,0.002203,-0.492919,0.018517,-1.301761,-264.310528,-0.57698,62.323883
1.7978,-0.00702,0.016883,0.020425,0.006921,-0.017634,-0.020934,0.002315,-0.492902,0.018688,-1.301761,-264.310528,-0.57698,62.323883
1.8177,-0.006571,0.016227,0.01837,0.006674,-0.017023,-0.020425,0.003714,-0.493683,0.019625,-1.315075,-264.297979,-0.554528,62.327617
1.838,-0.006456,0.016613,0.01754,0.006272,-0.016345,-0.01837,0.003229,-0.493771,0.018803,-1.315075,-264.297979,-0.554528,62.327617
1.8583,-0.006414,0.016283,0.018519,0.006163,-0.016723,-0.01754,0.003229,-0.493771,0.018803,-1.315075,-264.297979,-0.554528,62.327617
1.8781,-0.005951,0.015586,0.017687,0.006111,-0.016399,-0.018519,0.003362,-0.494433,0.017559,-1.347083,-264.286334,-0.611138,62.330771
1.8978,-0.005637,0.015485,0.018559,0.005675,-0.015688,-0.017687,0.003354,-0.494442,0.017549,-1.347083,-264.286334,-0.611138,62.330771
1.9186,-0.005395,0.015323,0.01728,0.005349,-0.015587,-0.018559,0.003997,-0.49484,0.018103,-1.34982,-264.27894,-0.686015,62.333035
1.9384,-0.005008,0.015233,0.017959,0.005129,-0.015413,-0.01728,0.003694,-0.49476,0.017581,-1.34982,-264.27894,-0.686015,62.333035
1.9582,-0.005172,0.014783,0.018171,0.004734,-0.01532,-0.017959,0.003694,-0.49476,0.017581,-1.34982,-264.27894,-0.686015,62.333035
1.9779,-0.004619,0.014737,0.016735,0.004903,-0.014874,-0.018171,0.004369,-0.495833,0.017401,-1.359771,-264.269065,-0.710887,62.335992
1.9978,-0.004221,0.014518,0.01612,0.004371,-0.014812,-0.016735,0.004346,-0.495809,0.017338,-1.359771,-264.269065,-0.710887,62.335992
2.0182,-0.003869,0.013489,0.014812,0.003986,-0.014584,-0.01612,0.004186,-0.495985,0.015449,-1.392622,-264.258739,-0.74334,62.338478
2.038,-0.004123,0.013633,0.015368,0.003668,-0.013545,-0.014812,0.003924,-0.496325,0.015001,-1.392622,-264.258739,-0.74334,62.338478
2.0578,-0.004175,0.01326,0.015779,0.003913,-0.013694,-0.015368,0.003924,-0.496325,0.015001,-1.392622,-264.258739,-0.74334,62.338478
2.078,-0.003165,0.012631,0.013935,0.003965,-0.013324,-0.015779,0.004081,-0.497344,0.015021,-1.397918,-264.249274,-0.809916,62.340839
2.0977,-0.003015,0.012942,0.017614,0.002989,-0.012674,-0.013935,0.004077,-0.49736,0.014927,-1.397918,-264.249274,-0.809916,62.340839
2.1181,-0.002465,0.012144,0.013148,0.002787,-0.012993,-0.017614,0.006126,-0.4975,0.017026,-1.402866,-264.239997,-0.833473,62.343146
2.1379,-0.002321,0.012085,0.013168,0.002305,-0.012175,-0.013148,0.005072,-0.497744,0.014741,-1.402866,-264.239997,-0.833473,62.343146
2.1579,-0.002375,0.011944,0.015435,0.002162,-0.012115,-0.013168,0.005072,-0.497744,0.014741,-1.402866,-264.239997,-0.833473,62.343146
2.1778,-0.00185,0.011364,0.013503,0.00219,-0.011979,-0.015435,0.005624,-0.498485,0.014889,-1.430646,-264.233152,-0.908471,62.344785
2.1978,-0.002133,0.011712,0.0136,0.001696,-0.011388,-0.013503,0.005589,-0.498504,0.014786,-1.430646,-264.233152,-0.908471,62.344785
2.2177,-0.001916,0.011306,0.012004,0.001974,-0.01174,-0.0136,0.004861,-0.49852,0.013289,-1.463959,-264.228261,-0.983457,62.345898
2.2378,-0.001787,0.011429,0.013857,0.001781,-0.011328,-0.012004,0.004493,-0.498634,0.012514,-1.463959,-264.228261,-0.983457,62.345898
2.2578,-0.001802,0.011286,0.013714,0.001628,-0.011452,-0.013857,0.004493,-0.498634,0.012514,-1.463959,-264.228261,-0.983457,62.345898
2.2781,-0.001946,0.010867,0.012422,0.001647,-0.01131,-0.013714,0.005271,-0.499143,0.013145,-1.484614,-264.221436,-1.058554,62.347134
2.2983,-0.001315,0.011045,0.012652,0.00181,-0.010891,-0.012422,0.005211,-0.499153,0.013079,-1.484614,-264.221436,-1.058554,62.347134
2.3179,-0.001236,0.010474,0.011087,0.001176,-0.01106,-0.012652,0.005205,-0.499355,0.012119,-1.489212,-264.213468,-1.071985,62.348491
2.3379,-0.001039,0.010153,0.012726,0.00112,-0.010487,-0.011087,0.004764,-0.49949,0.011462,-1.489212,-264.213468,-1.071985,62.348491
2.3581,-0.001101,0.010574,0.00988,0.000909,-0.010165,-0.012726,0.004764,-0.49949,0.011462,-1.489212,-264.213468,-1.071985,62.348491
2.3778,-0.000856,0.009332,0.012366,0.000996,-0.010584,-0.00988,0.004031,-0.499928,0.009279,-1.47313,-264.206031,-1.069504,62.35
2.3978,-0.00044,0.009915,0.011969,0.000996,-0.010584,-0.00988,0.004152,-0.500002,0.009517,-1.47313,-264.206031,-1.069504,62.35
2.4178,-0.000584,0.009297,0.010588,3e-06,-0.0001,0.0,0.005695,-0.500324,0.011622,-1.520148,-264.200951,-1.144928,62.350724
2.4377,-0.000337,0.009507,0.009771,3e-06,-0.0001,0.0,0.005196,-0.500559,0.010986,-1.520148,-264.200951,-1.144928,62.350724
2.4578,-0.000238,0.009256,0.012529,3e-06,-0.0001,0.0,0.005196,-0.500559,0.010986,-1.520148,-264.200951,-1.144928,62.350724
2.4779,-0.000234,0.009303,0.010065,3e-06,-0.0001,0.0,0.006185,-0.500953,0.012291,-1.510937,-264.197697,-1.219573,62.351635
2.4982,-0.000169,0.009285,0.010542,3e-06,-0.0001,0.0,0.006101,-0.500941,0.012137,-1.510937,-264.197697,-1.219573,62.351635
2.5183,7.8e-05,0.009248,0.010736,3e-06,-0.0001,0.0,0.005208,-0.500688,0.010542,-1.538465,-264.19769,-1.29446,62.351642
2.538,-2.6e-05,0.009351,0.010967,3e-06,-0.0001,0.0,0.005406,-0.500708,0.010653,-1.538465,-264.19769,-1.29446,62.351642
2.5583,2e-05,0.009284,0.011302,3e-06,-0.0001,0.0,0.005406,-0.500708,0.010653,-1.538465,-264.19769,-1.29446,62.351642
2.578,-0.000276,0.008698,0.012128,3e-06,-0.0001,0.0,0.005784,-0.500686,0.011302,-1.538465,-264.197674,-1.369585,62.351658
2.5984,-0.00025,0.009373,0.010261,3e-06,-0.0001,0.0,0.005794,-0.500731,0.011367,-1.538465,-264.197674,-1.369585,62.351658
2.6184,-0.000837,0.008824,0.01055,0.0,-3e-06,-3e-06,0.004983,-0.500603,0.010261,-1.538465,-264.197649,-1.444848,62.351683
2.6384,-0.000235,0.010017,0.010964,4.7e-05,-0.001452,-0.001752,0.004731,-0.500916,0.010427,-1.538465,-264.197649,-1.444848,62.351683
2.6581,-0.000668,0.009325,0.011792,9.1e-05,-0.002828,-0.003413,0.004731,-0.500916,0.010427,-1.538465,-264.197649,-1.444848,62.351683
2.6778,-0.000262,0.009136,0.011497,0.000134,-0.004131,-0.004985,0.005346,-0.500644,0.011792,-1.538465,-264.197614,-1.519647,62.351718
2.6984,-1.6e-05,0.009142,0.011169,0.000173,-0.005358,-0.006465,0.005363,-0.500657,0.011772,-1.538465,-264.197614,-1.519647,62.351718
2.7179,-0.000239,0.009168,0.011462,0.000211,-0.006512,-0.007858,0.005684,-0.500926,0.011048,-1.552178,-264.195807,-1.448455,62.351993
2.7381,-3.8e-05,0.008817,0.01196,0.000246,-0.007591,-0.00916,0.00564,-0.500866,0.011269,-1.552178,-264.195807,-1.448455,62.351993
2.7579,-7.9e-05,0.008871,0.009618,0.000278,-0.008595,-0.010371,0.00564,-0.500866,0.011269,-1.552178,-264.195807,-1.448455,62.351993
2.7778,0.000583,0.008873,0.009585,0.000308,-0.009527,-0.011496,0.004837,-0.501366,0.009304,-1.552178,-264.192086,-1.448455,62.352561
2.7982,0.00017,0.008578,0.008875,0.000336,-0.010386,-0.012533,0.00488,-0.501355,0.009315,-1.552178,-264.192086,-1.448455,62.352561
2.8182,0.000555,0.008111,0.010481,0.000361,-0.011162,-0.013468,0.00471,-0.501734,0.008475,-1.552178,-264.186111,-1.448455,62.353472
2.838,0.000514,0.008211,0.009645,0.000384,-0.011869,-0.014321,0.005392,-0.501848,0.009572,-1.552178,-264.186111,-1.448455,62.353472
2.8583,0.000239,0.008315,0.010641,0.000404,-0.012498,-0.015081,0.005392,-0.501848,0.009572,-1.552178,-264.186111,-1.448455,62.353472
2.8778,0.000476,0.007681,0.008488,0.000422,-0.013057,-0.015755,0.005687,-0.50216,0.010032,-1.552178,-264.178905,-1.448455,62.354572
2.8981,0.000669,0.007756,0.009631,0.000438,-0.013542,-0.01634,0.005628,-0.502183,0.009912,-1.552178,-264.178905,-1.448455,62.354572
2.9178,0.000918,0.007127,0.009043,0.000451,-0.013952,-0.016835,0.0056,-0.502704,0.009047,-1.552178,-264.170218,-1.448455,62.355897
2.938,0.001193,0.007048,0.009771,0.000462,-0.014287,-0.017239,0.005563,-0.502849,0.008971,-1.552178,-264.170218,-1.448455,62.355897
2.9584,0.000806,0.007409,0.008838,0.00047,-0.014545,-0.017551,0.005563,-0.502849,0.008971,-1.552178,-264.170218,-1.448455,62.355897
2.9782,0.001572,0.006675,0.007879,0.000476,-0.014732,-0.017776,0.005341,-0.503231,0.008041,-1.552178,-264.160809,-1.448455,62.357332
2.9981,0.001502,0.006109,0.006808,0.00048,-0.014843,-0.01791,0.005356,-0.503251,0.008013,-1.552178,-264.160809,-1.448455,62.357332
3.0179,0.002126,0.006197,0.006669,0.000481,-0.014879,-0.017954,0.004995,-0.504441,0.006129,-1.552178,-264.150686,-1.448455,62.358877
3.0382,0.002039,0.005577,0.006434,0.00048,-0.014842,-0.017909,0.005302,-0.50414,0.006352,-1.552178,-264.150686,-1.448455,62.358877
3.0583,0.00232,0.005704,0.006555,0.000476,-0.01473,-0.017774,0.005302,-0.50414,0.006352,-1.552178,-264.150686,-1.448455,62.358877
3.078,0.00271,0.004976,0.005078,0.00047,-0.014543,-0.017548,0.005691,-0.505009,0.005682,-1.552178,-264.140388,-1.448455,62.360448
3.0979,0.002443,0.00478,0.005476,0.000462,-0.014283,-0.017234,0.005669,-0.505025,0.005628,-1.552178,-264.140388,-1.448455,62.360448
3.1183,0.002946,0.004369,0.003776,0.000451,-0.013948,-0.016831,0.005257,-0.505782,0.004788,-1.552178,-264.130151,-1.448455,62.362009
3.1383,0.003009,0.004432,0.00398,0.000438,-0.013538,-0.016335,0.005041,-0.505767,0.004127,-1.552178,-264.130151,-1.448455,62.362009
3.158,0.003038,0.00455,0.005119,0.000422,-0.013049,-0.015745,0.005041,-0.505767,0.004127,-1.552178,-264.130151,-1.448455,62.362009
3.1778,0.003406,0.00359,0.004929,0.000404,-0.012495,-0.015077,0.005674,-0.506139,0.004279,-1.552178,-264.120227,-1.448455,62.363523
3.1982,0.003492,0.003654,0.004844,0.000384,-0.011865,-0.014316,0.00569,-0.506172,0.004299,-1.552178,-264.120227,-1.448455,62.363523
3.2182,0.003865,0.002914,0.003227,0.000361,-0.011158,-0.013463,0.005981,-0.50685,0.004228,-1.552178,-264.111149,-1.448455,62.364908
3.238,0.003883,0.002916,0.002822,0.000335,-0.010367,-0.012509,0.00572,-0.507044,0.003591,-1.552178,-264.111149,-1.448455,62.364908
3.2579,0.003737,0.002955,0.00243,0.000308,-0.009521,-0.011489,0.00572,-0.507044,0.003591,-1.552178,-264.111149,-1.448455,62.364908
3.278,0.004375,0.002517,0.001809,0.000278,-0.008591,-0.010366,0.004996,-0.507621,0.001733,-1.552178,-264.102903,-1.448455,62.366166
3.2978,0.004469,0.00241,0.002574,0.000245,-0.007587,-0.009155,0.005017,-0.507627,0.00172,-1.552178,-264.102903,-1.448455,62.366166
3.3178,0.004755,0.001602,0.001396,0.00021,-0.006506,-0.007851,0.005794,-0.507956,0.002131,-1.552178,-264.096287,-1.448455,62.367176
3.3381,0.004737,0.001538,0.001787,0.000173,-0.005343,-0.006448,0.005608,-0.508255,0.001654,-1.552178,-264.096287,-1.448455,62.367176
3.358,0.004605,0.001784,0.001629,0.000133,-0.004128,-0.004981,0.005608,-0.508255,0.001654,-1.552178,-264.096287,-1.448455,62.367176
3.3778,0.004712,0.001738,0.000743,9.1e-05,-0.002818,-0.003401,0.005448,-0.508584,0.001184,-1.552178,-264.091021,-1.448455,62.367979
3.398,0.004715,0.001339,0.001294,4.7e-05,-0.001449,-0.001749,0.005425,-0.508573,0.001144,-1.552178,-264.091021,-1.448455,62.367979
3.4182,0.005039,0.001659,0.001992,0.0,0.0,0.0,0.00538,-0.50882,0.001101,-1.552178,-264.088152,-1.448455,62.368417
3.438,0.005173,0.001518,0.000956,0.0,0.0,0.0,0.005765,-0.508567,0.001583,-1.552178,-264.088152,-1.448455,62.368417
3.458,0.00485,0.001123,0.001338,0.0,0.0,0.0,0.005765,-0.508567,0.001583,-1.552178,-264.088152,-1.448455,62.368417
3.478,0.005203,0.001241,0.001575,0.0,0.0,0.0,0.005535,-0.508947,0.001253,-1.552178,-264.087139,-1.448455,62.368571
3.4983,0.004655,0.001242,0.000105,0.0,0.0,0.0,0.005574,-0.508933,0.001277,-1.552178,-264.087139,-1.448455,62.368571
3.5181,0.005165,0.001241,0.001476,0.0,0.0,0.0,0.004709,-0.508758,0.000105,-1.552178,-264.087139,-1.448455,62.368571
3.5385,0.005028,0.000931,6e-05,0.0,0.0,0.0,0.005394,-0.508758,0.000882,-1.552178,-264.087139,-1.448455,62.368571
3.558,0.00461,0.00113,0.001805,0.0,0.0,0.0,0.005394,-0.508758,0.000882,-1.552178,-264.087139,-1.448455,62.368571
3.5783,0.005063,0.001155,0.000931,0.0,0.0,0.0,0.005531,-0.508869,0.001805,-1.552178,-264.087139,-1.448455,62.368571
3.5979,0.005293,0.00129,0.001461,0.0,0.0,0.0,0.005531,-0.508868,0.001755,-1.552178,-264.087139,-1.448455,62.368571
3.618,0.00497,0.000944,0.000299,0.0,0.0,0.0,0.006038,-0.508709,0.001461,-1.552178,-264.087139,-1.448455,62.368571
3.6385,0.005016,0.001238,0.001456,-9.8e-05,-1.9e-05,0.0,0.005517,-0.508907,0.000799,-1.552178,-264.087139,-1.448455,62.368571
3.6584,0.005078,0.001304,0.001516,-9.8e-05,-1.9e-05,0.0,0.005517,-0.508907,0.000799,-1.552178,-264.087139,-1.448455,62.368571
3.6779,0.004944,0.00129,0.000146,-9.8e-05,-1.9e-05,0.0,0.005851,-0.508696,0.001516,-1.552178,-264.087139,-1.448455,62.368571
3.6983,0.004805,0.001268,0.00087,-9.8e-05,-1.9e-05,0.0,0.005781,-0.508697,0.001401,-1.552178,-264.087139,-1.448455,62.368571
3.7187,0.005148,0.001336,0.001128,-9.8e-05,-1.9e-05,0.0,0.005249,-0.508732,0.00087,-1.476712,-264.087139,-1.372989,62.368571
3.7383,0.00476,0.001407,7.9e-05,-9.8e-05,-1.9e-05,0.0,0.005521,-0.508693,0.001018,-1.476712,-264.087139,-1.372989,62.368571
3.7585,0.00493,0.001305,0.001989,-9.8e-05,-1.9e-05,0.0,0.005521,-0.508693,0.001018,-1.476712,-264.087139,-1.372989,62.368571
3.7779,0.005011,0.001131,0.000388,-9.8e-05,-1.9e-05,0.0,0.005945,-0.508694,0.001989,-1.402081,-264.087139,-1.298358,62.368571
3.7981,0.005139,0.001266,0.001196,-9.8e-05,-1.9e-05,0.0,0.005902,-0.508704,0.001897,-1.402081,-264.087139,-1.298358,62.368571
3.8179,0.005384,0.001151,0.001162,-9.8e-05,-1.9e-05,0.0,0.005749,-0.508734,0.001196,-1.327211,-264.087139,-1.223489,62.368571
3.8385,0.005336,0.001061,0.00269,-9.8e-05,-1.9e-05,0.0,0.005878,-0.508799,0.001177,-1.327211,-264.087139,-1.223489,62.368571
3.8584,0.004957,0.00094,0.0015,-0.000722,-0.000137,-4.3e-05,0.005878,-0.508799,0.001177,-1.327211,-264.087139,-1.223489,62.368571
3.8782,0.004838,0.001057,0.000971,-0.00143,-0.000271,-8.6e-05,0.005722,-0.509059,0.0015,-1.252218,-264.087139,-1.148495,62.368571
3.8982,0.004995,0.001403,0.00178,-0.002066,-0.000392,-0.000124,0.005699,-0.509052,0.001468,-1.252218,-264.087139,-1.148495,62.368571
3.9177,0.005109,0.001208,-0.000696,-0.002694,-0.000511,-0.000162,0.005902,-0.508597,0.00178,-1.177204,-264.087139,-1.073481,62.368571
3.938,0.005013,0.001294,0.002036,-0.003261,-0.000618,-0.000196,0.005257,-0.508706,0.000388,-1.177204,-264.087139,-1.073481,62.368571
3.9582,0.004885,0.001166,-9e-06,-0.003799,-0.00072,-0.000228,0.005257,-0.508706,0.000388,-1.177204,-264.087139,-1.073481,62.368571
3.9781,0.005132,0.001053,0.001863,-0.004303,-0.000816,-0.000259,0.004881,-0.508834,-9e-06,-1.102207,-264.087139,-0.998484,62.368571
3.9989,0.004682,0.001159,0.002645,-0.004768,-0.000904,-0.000287,0.004956,-0.508841,0.000109,-1.102207,-264.087139,-0.998484,62.368571
4.0181,0.005063,0.000935,0.001264,-0.005198,-0.000986,-0.000313,0.006031,-0.508839,0.002645,-1.027207,-264.087139,-0.923485,62.368571
4.0382,0.004896,0.001336,0.000947,-0.00559,-0.00106,-0.000336,0.005847,-0.508967,0.00186,-1.027207,-264.087139,-0.923485,62.368571
4.058,0.004714,0.001028,0.000212,-0.005944,-0.001127,-0.000357,0.005847,-0.508967,0.00186,-1.027207,-264.087139,-0.923485,62.368571
4.0779,0.00501,0.00132,0.001033,-0.006261,-0.001187,-0.000376,0.004822,-0.508972,0.000212,-0.952092,-264.087139,-0.84837,62.368571
4.0981,0.005295,0.001279,0.001046,-0.00654,-0.00124,-0.000393,0.004871,-0.508952,0.000268,-0.952092,-264.087139,-0.84837,62.368571
4.118,0.005415,0.001171,0.001923,-0.006783,-0.001286,-0.000408,0.005829,-0.50872,0.001046,-0.877194,-264.087139,-0.773471,62.368571
4.1385,0.004906,0.001051,0.001602,-0.006989,-0.001325,-0.00042,0.006152,-0.508782,0.001546,-0.877194,-264.087139,-0.773471,62.368571
4.1583,0.004797,0.001491,0.000644,-0.007156,-0.001357,-0.00043,0.006152,-0.508782,0.001546,-0.877194,-264.087139,-0.773471,62.368571
4.178,0.004866,0.001113,0.001509,-0.007286,-0.001382,-0.000438,0.005125,-0.508509,0.000644,-0.802083,-264.087139,-0.69836,62.368571
4.1984,0.005052,0.001197,0.000188,-0.00738,-0.001399,-0.000444,0.005167,-0.50854,0.000715,-0.802083,-264.087139,-0.69836,62.368571
4.2183,0.004991,0.001139,0.000911,-0.007436,-0.00141,-0.000447,0.005148,-0.508803,0.000188,-0.726787,-264.087139,-0.623065,62.368571
4.2386,0.004969,0.00107,0.002376,-0.007455,-0.001414,-0.000448,0.005323,-0.508836,0.000599,-0.726787,-264.087139,-0.623065,62.368571
4.2581,0.00501,0.001376,0.000608,-0.007436,-0.00141,-0.000447,0.005323,-0.508836,0.000599,-0.726787,-264.087139,-0.623065,62.368571
4.278,0.00514,0.001015,-0.000151,-0.00738,-0.001399,-0.000444,0.005321,-0.508624,0.000608,-0.652206,-264.087139,-0.548483,62.368571
4.2986,0.005092,0.001395,0.003083,-0.007288,-0.001382,-0.000438,0.005303,-0.508649,0.000556,-0.652206,-264.087139,-0.548483,62.368571
4.318,0.004981,0.001157,0.000598,-0.007157,-0.001357,-0.00043,0.006664,-0.508603,0.003083,-0.577206,-264.087139,-0.473483,62.368571
4.3378,0.004835,0.000976,-0.000783,-0.006989,-0.001325,-0.00042,0.005887,-0.508739,0.001681,-0.577206,-264.087139,-0.473483,62.368571
4.3581,0.005155,0.001238,0.0031,-0.006785,-0.001287,-0.000408,0.005887,-0.508739,0.001681,-0.577206,-264.087139,-0.473483,62.368571
4.3781,0.00531,0.001021,0.001008,-0.006542,-0.00124,-0.000393,0.006736,-0.50876,0.0031,-0.502078,-264.087139,-0.398355,62.368571
4.3982,0.00499,0.001441,0.001016,-0.006264,-0.001188,-0.000377,0.006679,-0.508773,0.00297,-0.502078,-264.087139,-0.398355,62.368571
4.4179,0.004866,0.001034,0.000911,-0.005936,-0.001125,-0.000357,0.005508,-0.508559,0.001016,-0.427202,-264.087139,-0.323479,62.368571
4.438,0.005187,0.001018,0.001219,-0.005591,-0.00106,-0.000336,0.005407,-0.508791,0.000956,-0.427202,-264.087139,-0.323479,62.368571
4.4579,0.005119,0.001102,0.001848,-0.005202,-0.000986,-0.000313,0.005407,-0.508791,0.000956,-0.427202,-264.087139,-0.323479,62.368571
4.478,0.00513,0.001308,0.001665,-0.004771,-0.000905,-0.000287,0.006061,-0.508897,0.001848,-0.352205,-264.087139,-0.248483,62.368571
4.498,0.005224,0.000928,0.00075,-0.004308,-0.000817,-0.000259,0.006056,-0.508882,0.001835,-0.352205,-264.087139,-0.248483,62.368571
4.518,0.00488,0.001074,0.002552,-0.003805,-0.000721,-0.000229,0.005607,-0.509072,0.00075,-0.277085,-264.087139,-0.173363,62.368571
4.5383,0.004849,0.001486,0.000809,-0.003265,-0.000619,-0.000196,0.005933,-0.508988,0.001771,-0.277085,-264.087139,-0.173363,62.368571
4.5578,0.005304,0.001378,0.000892,-0.002687,-0.000509,-0.000162,0.005933,-0.508988,0.001771,-0.277085,-264.087139,-0.173363,62.368571
4.5779,0.004755,0.001301,0.001168,-0.002072,-0.000393,-0.000125,0.005758,-0.508622,0.000892,-0.2021,-264.087144,-0.098377,62.368566
4.5987,0.005519,0.001246,0.001646,-0.001421,-0.000269,-8.5e-05,0.00573,-0.508627,0.000911,-0.2021,-264.087144,-0.098377,62.368566
4.6178,0.005101,0.001223,0.001075,-0.000725,-0.000138,-4.4e-05,0.006357,-0.508753,0.001647,-0.12708,-264.087165,-0.023357,62.368546
4.6379,0.004783,0.00183,0.000634,-4e-06,-1e-06,-0.0,0.005961,-0.508766,0.001327,-0.12708,-264.087165,-0.023357,62.368546
4.6578,0.005316,0.001023,4.3e-05,0.0,0.0,0.0,0.005961,-0.508766,0.001327,-0.12708,-264.087165,-0.023357,62.368546
4.6779,0.005111,0.001486,0.00085,0.0,0.0,0.0,0.005332,-0.508977,4.4e-05,-0.052204,-264.087213,0.051519,62.368498
4.6981,0.004979,0.001111,0.002328,0.0,0.0,0.0,0.005347,-0.508944,0.0001,-0.052204,-264.087213,0.051519,62.368498
4.7178,0.005118,0.001181,0.001585,0.0,0.0,0.0,0.006166,-0.508888,0.002328,-0.052204,-264.087213,0.051519,62.368498
4.7378,0.004943,0.001036,0.002125,0.0,0.0,0.0,0.00603,-0.508849,0.001906,-0.052204,-264.087213,0.051519,62.368498
4.7583,0.005387,0.001359,0.000277,0.0,0.0,0.0,0.00603,-0.508849,0.001906,-0.052204,-264.087213,0.051519,62.368498
4.7779,0.005489,0.001058,0.001056,0.0,0.0,0.0,0.005528,-0.508641,0.000277,-0.052204,-264.087213,0.051519,62.368498
4.7981,0.004841,0.000967,0.000615,0.0,0.0,0.0,0.005557,-0.508659,0.000322,-0.052204,-264.087213,0.051519,62.368498
4.8179,0.005347,0.001382,0.000884,0.0,0.0,0.0,0.005154,-0.509033,0.000615,-0.052204,-264.087213,0.051519,62.368498
4.838,0.005356,0.001158,0.001579,0.0,0.0,0.0,0.005521,-0.508796,0.000769,-0.052204,-264.087213,0.051519,62.368498
4.8578,0.005005,0.001251,0.001057,0.0,0.0,0.0,0.005521,-0.508796,0.000769,-0.052204,-264.087213,0.051519,62.368498
4.8781,0.005018,0.001169,-0.000289,-9.7e-05,-2.4e-05,0.0,0.005544,-0.508748,0.001057,-0.052204,-264.087213,0.051519,62.368498
4.8989,0.004866,0.001128,0.000564,-9.7e-05,-2.4e-05,0.0,0.005497,-0.508754,0.000963,-0.052204,-264.087213,0.051519,62.368498
4.9187,0.004984,0.001188,0.002711,-9.7e-05,-2.4e-05,0.0,0.005154,-0.508872,0.000564,-0.052204,-264.087213,0.051519,62.368498
4.9392,0.005278,0.001507,0.002398,-9.7e-05,-2.4e-05,0.0,0.005831,-0.508837,0.001763,-0.052204,-264.087213,0.051519,62.368498
4.9584,0.004974,0.001423,0.001937,-9.7e-05,-2.4e-05,0.0,0.005831,-0.508837,0.001763,-0.052204,-264.087213,0.051519,62.368498
4.9782,0.005093,0.001433,0.002586,-9.7e-05,-2.4e-05,0.0,0.005961,-0.508576,0.001937,0.022903,-264.087218,0.126626,62.368493
4.9984,0.005316,0.001362,0.000998,-9.7e-05,-2.4e-05,0.0,0.005994,-0.508575,0.001985,0.022903,-264.087218,0.126626,62.368493
5.0184,0.005009,0.001451,0.001882,-9.7e-05,-2.4e-05,0.0,0.005824,-0.508638,0.000998,0.097946,-264.087233,0.201669,62.368478
5.038,0.004869,0.001269,0.00165,-9.7e-05,-2.4e-05,0.0,0.005906,-0.508587,0.001497,0.097946,-264.087233,0.201669,62.368478
5.058,0.00525,0.001063,0.000871,-9.7e-05,-2.4e-05,0.0,0.005906,-0.508587,0.001497,0.097946,-264.087233,0.201669,62.368478
5.0779,0.004793,0.001271,0.00031,-9.7e-05,-2.4e-05,0.0,0.005691,-0.508937,0.000871,0.172796,-264.08726,0.243962,62.368451
5.0984,0.005011,0.001245,0.001346,-0.00074,-0.000184,-0.000156,0.00564,-0.508923,0.000832,0.172796,-264.08726,0.243962,62.368451
5.1183,0.004743,0.001273,0.00211,-0.001428,-0.000355,-0.000301,0.005694,-0.508755,0.001346,0.243962,-264.087297,0.243962,62.368414
5.1382,0.004855,0.001059,0.000157,-0.002085,-0.000519,-0.00044,0.005764,-0.508739,0.001774,0.243962,-264.087297,0.243962,62.368414
5.1579,0.004719,0.001045,0.002249,-0.002703,-0.000673,-0.000571,0.005764,-0.508739,0.001774,0.243962,-264.087297,0.243962,62.368414
5.1778,0.005117,0.001539,0.001972,-0.003285,-0.000818,-0.000694,0.005844,-0.508959,0.002246,0.318965,-264.087495,0.168959,62.368227
5.1977,0.004546,0.001345,0.00165,-0.003829,-0.000953,-0.000808,0.005861,-0.508927,0.002229,0.318965,-264.087495,0.168959,62.368227
5.2178,0.004834,0.001198,0.002033,-0.004338,-0.00108,-0.000916,0.00529,-0.508679,0.001629,0.361282,-264.088575,0.119402,62.36721
5.2383,0.004927,0.000915,5.7e-05,-0.004809,-0.001197,-0.001015,0.005607,-0.508751,0.001856,0.361282,-264.088575,0.119402,62.36721
5.2581,0.00462,0.001263,0.00075,-0.005238,-0.001304,-0.001106,0.005607,-0.508751,0.001856,0.361282,-264.088575,0.119402,62.36721
5.2782,0.004683,0.001473,-4.1e-05,-0.005632,-0.001402,-0.001189,0.004817,-0.508783,0.000711,0.361282,-264.090224,0.119402,62.365656
5.2977,0.00465,0.001086,0.000427,-0.005988,-0.00149,-0.001264,0.004798,-0.508763,0.000647,0.361282,-264.090224,0.119402,62.365656
5.3179,0.004654,0.000956,0.000737,-0.006307,-0.00157,-0.001332,0.004667,-0.508964,0.000385,0.361282,-264.092448,0.119402,62.363561
5.3384,0.004587,0.001072,0.003003,-0.006589,-0.00164,-0.001391,0.004848,-0.509016,0.00058,0.361282,-264.092448,0.119402,62.363561
5.3582,0.004422,0.001317,0.000633,-0.006834,-0.001701,-0.001443,0.004848,-0.509016,0.00058,0.361282,-264.092448,0.119402,62.363561
5.3782,0.004124,0.001335,0.00061,-0.00704,-0.001752,-0.001486,0.004454,-0.508756,0.000572,0.361282,-264.095012,0.119402,62.361146
5.3984,0.004401,0.001082,0.000142,-0.007209,-0.001794,-0.001522,0.004444,-0.508751,0.000573,0.361282,-264.095012,0.119402,62.361146
5.4182,0.004419,0.000873,0.001296,-0.007341,-0.001827,-0.00155,0.004209,-0.508983,8.6e-05,0.361282,-264.09793,0.119402,62.358396
5.4385,0.004254,0.000566,0.00123,-0.007434,-0.001851,-0.00157,0.004672,-0.509073,0.000768,0.361282,-264.09793,0.119402,62.358396
5.4579,0.003584,0.000952,0.000474,-0.007491,-0.001865,-0.001582,0.004672,-0.509073,0.000768,0.361282,-264.09793,0.119402,62.358396
5.4784,0.003985,0.000796,0.001388,-0.00751,-0.001869,-0.001585,0.003475,-0.509136,0.0004,0.361282,-264.101018,0.119402,62.355487
5.4981,0.003291,0.000792,0.001325,-0.007491,-0.001865,-0.001582,0.003553,-0.509143,0.000469,0.361282,-264.101018,0.119402,62.355487
5.518,0.003145,0.000441,0.001296,-0.007434,-0.001851,-0.00157,0.003678,-0.50928,0.001264,0.361282,-264.104219,0.119402,62.352471
5.538,0.002802,0.000663,0.001064,-0.007341,-0.001827,-0.00155,0.003714,-0.509449,0.001274,0.361282,-264.104219,0.119402,62.352471
5.5585,0.003031,0.00059,-1.8e-05,-0.007209,-0.001795,-0.001522,0.003714,-0.509449,0.001274,0.361282,-264.104219,0.119402,62.352471
5.5783,0.003222,0.000412,0.000273,-0.00704,-0.001752,-0.001486,0.002657,-0.509501,-9.5e-05,0.361282,-264.107422,0.119402,62.349453
5.5979,0.002775,0.0005,0.001398,-0.006834,-0.001701,-0.001443,0.002697,-0.509509,-7.2e-05,0.361282,-264.107422,0.119402,62.349453
