mach0312/omni-docking-bench/src/icros_test_setup/results/kinematic_sample/timeseries/trial_108.csv
t,x,y,yaw,vx,vy,wz,bl_x,bl_y,bl_yaw,front_steering_joint,front_wheel_joint,rear_steering_joint,rear_wheel_joint
0.0,-0.068297,0.018369,0.083099,0.009687,0.000517,0.002513,-0.025919,-0.489423,0.085385,0.208743,-264.7411,-0.104651,62.356794
0.0004,-0.068592,0.01848,0.085489,0.004393,0.000235,0.00114,-0.026083,-0.489668,0.084603,0.208743,-264.73714,-0.104651,62.36069
0.0007,-0.068589,0.018917,0.085962,0.003392,0.000181,0.00088,-0.026083,-0.489668,0.084603,0.208743,-264.733953,-0.104651,62.363824
0.001,-0.068335,0.01872,0.086843,0.002331,0.000124,0.000605,-0.026083,-0.489668,0.084603,0.208743,-264.731419,-0.104651,62.366317
0.0013,-0.06815,0.018491,0.087471,0.001211,6.5e-05,0.000314,-0.025327,-0.489729,0.085275,0.208743,-264.730032,-0.104651,62.367682
0.0016,-0.068183,0.018271,0.086179,2.9e-05,2e-06,8e-06,-0.025281,-0.489743,0.085309,0.208743,-264.729537,-0.104651,62.368169
0.0019,-0.068149,0.01857,0.085897,0.0,0.0,0.0,-0.025281,-0.489743,0.085309,0.208743,-264.729537,-0.104651,62.368169
0.0022,-0.06809,0.018443,0.084892,0.0,0.0,0.0,-0.024925,-0.489586,0.084977,0.208743,-264.729537,-0.104651,62.368169
0.0025,-0.068196,0.018712,0.086826,0.0,0.0,0.0,-0.024925,-0.489586,0.084977,0.208743,-264.729537,-0.104651,62.368169
0.0027,-0.067575,0.018783,0.085565,0.0,0.0,0.0,-0.025483,-0.489744,0.083912,0.208743,-264.729537,-0.104651,62.368169
0.0072,-0.067736,0.018369,0.085044,0.0,0.0,0.0,-0.02399,-0.489351,0.085565,0.208743,-264.729537,-0.104651,62.368169
0.0268,-0.068087,0.019051,0.084494,0.016,-0.016,-0.03,-0.024234,-0.489602,0.085266,0.208743,-264.729537,-0.104651,62.368169
0.0469,-0.067954,0.018797,0.085944,0.032,-0.024729,-0.05,-0.024234,-0.489602,0.085266,0.208743,-264.729537,-0.104651,62.368169
0.0671,-0.068129,0.018722,0.084471,0.048,-0.02456,-0.05,-0.024176,-0.489321,0.085944,0.208743,-264.729537,-0.104651,62.368169
0.0871,-0.068263,0.018417,0.087348,0.064,-0.024403,-0.05,-0.024254,-0.489332,0.08582,0.208743,-264.729537,-0.104651,62.368169
0.1068,-0.068029,0.018628,0.086274,0.066396,-0.024302,-0.05,-0.023772,-0.489639,0.087348,0.133407,-264.729536,-0.029314,62.368169
0.1269,-0.068049,0.01873,0.0854,0.066171,-0.02442,-0.05,-0.023949,-0.489546,0.08674,0.133407,-264.729536,-0.029314,62.368169
0.1469,-0.067862,0.01857,0.085597,0.066203,-0.024466,-0.05,-0.023949,-0.489546,0.08674,0.133407,-264.729536,-0.029314,62.368169
0.167,-0.067734,0.018771,0.085519,0.066026,-0.024303,-0.05,-0.024261,-0.489563,0.085597,0.058852,-264.729534,0.045241,62.368171
0.1876,-0.068213,0.018405,0.085615,0.065883,-0.024488,-0.05,-0.024255,-0.48955,0.085592,0.058852,-264.729534,0.045241,62.368171
0.207,-0.067786,0.01843,0.086909,0.06639,-0.024171,-0.05,-0.024603,-0.489727,0.085615,-0.016282,-264.729529,0.091454,62.368175
0.227,-0.068179,0.01869,0.08593,0.06593,-0.024244,-0.05,-0.023991,-0.489681,0.086345,-0.016282,-264.729529,0.091454,62.368175
0.247,-0.06782,0.018663,0.085455,0.066324,-0.024472,-0.05,-0.023991,-0.489681,0.086345,-0.016282,-264.729529,0.091454,62.368175
0.2666,-0.067782,0.018623,0.08594,0.06598,-0.024383,-0.05,-0.02429,-0.489476,0.085455,-0.091279,-264.729514,0.091566,62.368186
0.2867,-0.068118,0.018387,0.086502,0.065934,-0.024372,-0.05,-0.024271,-0.489477,0.085487,-0.091279,-264.729514,0.091566,62.368186
0.3067,-0.067898,0.018907,0.086203,0.066275,-0.024203,-0.05,-0.02405,-0.489706,0.0865,-0.166104,-264.729439,0.091196,62.368244
0.3267,-0.068283,0.018352,0.085413,0.066018,-0.024683,-0.05,-0.024015,-0.489416,0.08633,-0.166104,-264.729439,0.091196,62.368244
0.3469,-0.068274,0.018506,0.086032,0.066468,-0.02411,-0.05,-0.024015,-0.489416,0.08633,-0.166104,-264.729439,0.091196,62.368244
0.3666,-0.067718,0.018311,0.085147,0.066431,-0.024304,-0.05,-0.024418,-0.489608,0.086022,-0.241223,-264.729121,0.093238,62.36849
0.3872,-0.067995,0.01887,0.085446,0.065916,-0.024004,-0.05,-0.024412,-0.489624,0.085961,-0.241223,-264.729121,0.093238,62.36849
0.407,-0.068063,0.018717,0.084147,0.066137,-0.024604,-0.05,-0.024365,-0.489275,0.085407,-0.316202,-264.72786,0.0964,62.369469
0.4271,-0.067675,0.018327,0.084327,0.066249,-0.024372,-0.05,-0.024831,-0.489392,0.084678,-0.316202,-264.72786,0.0964,62.369469
0.4472,-0.067645,0.018903,0.084101,0.065891,-0.023962,-0.05,-0.024831,-0.489392,0.084678,-0.316202,-264.72786,0.0964,62.369469
0.4668,-0.067112,0.018461,0.085825,0.065818,-0.024518,-0.05,-0.024448,-0.489328,0.083945,-0.391273,-264.724443,0.098798,62.372114
0.4871,-0.067687,0.018822,0.085463,0.065283,-0.024146,-0.05,-0.024366,-0.489353,0.084072,-0.391273,-264.724443,0.098798,62.372114
0.5071,-0.066527,0.018647,0.086308,0.065833,-0.024531,-0.05,-0.023647,-0.489377,0.085213,-0.466364,-264.718528,0.099471,62.377259
0.5268,-0.066314,0.018423,0.085321,0.064672,-0.024312,-0.05,-0.022957,-0.48943,0.085814,-0.466364,-264.718528,0.099471,62.377259
0.5473,-0.06637,0.018153,0.085281,0.064502,-0.024007,-0.05,-0.022957,-0.48943,0.085814,-0.466364,-264.718528,0.099471,62.377259
0.5669,-0.065433,0.018278,0.084148,0.064583,-0.02374,-0.05,-0.022018,-0.490134,0.084777,-0.541401,-264.710143,0.097595,62.384876
0.5871,-0.065103,0.018345,0.085738,0.063666,-0.023713,-0.05,-0.022032,-0.490123,0.08472,-0.541401,-264.710143,0.097595,62.384876
0.607,-0.063424,0.018243,0.085196,0.063293,-0.023852,-0.05,-0.020496,-0.489958,0.08516,-0.616109,-264.699223,0.100902,62.395025
0.6267,-0.063897,0.018351,0.083962,0.061642,-0.023573,-0.05,-0.020108,-0.489951,0.085107,-0.616109,-264.699223,0.100902,62.395025
0.6468,-0.063771,0.018034,0.08534,0.062133,-0.023645,-0.05,-0.020108,-0.489951,0.085107,-0.616109,-264.699223,0.100902,62.395025
0.667,-0.061712,0.018033,0.081732,0.062002,-0.023404,-0.05,-0.018878,-0.490428,0.084356,-0.69124,-264.685755,0.106791,62.407719
0.6871,-0.062191,0.018224,0.08393,0.060034,-0.023011,-0.05,-0.018932,-0.490424,0.084111,-0.69124,-264.685755,0.106791,62.407719
0.7069,-0.059277,0.01741,0.081162,0.060444,-0.023374,-0.05,-0.018109,-0.490292,0.082978,-0.717149,-264.669924,0.110488,62.422784
0.7268,-0.059243,0.017643,0.081439,0.057671,-0.022158,-0.05,-0.017838,-0.490685,0.081823,-0.717149,-264.669924,0.110488,62.422784
0.7468,-0.059353,0.017765,0.081395,0.057611,-0.022403,-0.05,-0.017838,-0.490685,0.081823,-0.717149,-264.669924,0.110488,62.422784
0.7668,-0.056665,0.017396,0.080722,0.057712,-0.022532,-0.05,-0.015946,-0.491003,0.079957,-0.728368,-264.651439,0.124713,62.440496
0.7868,-0.056438,0.016859,0.07948,0.055078,-0.021909,-0.05,-0.015854,-0.491012,0.079975,-0.728368,-264.651439,0.124713,62.440496
0.8071,-0.053575,0.016658,0.07683,0.054921,-0.021287,-0.05,-0.01421,-0.491941,0.078146,-0.743179,-264.630584,0.140262,62.460584
0.8268,-0.053177,0.016816,0.076839,0.052139,-0.020721,-0.05,-0.014116,-0.491934,0.077223,-0.743179,-264.630584,0.140262,62.460584
0.8471,-0.053468,0.016268,0.078328,0.05173,-0.020848,-0.05,-0.014116,-0.491934,0.077223,-0.743179,-264.630584,0.140262,62.460584
0.8668,-0.050063,0.015724,0.076403,0.052031,-0.020401,-0.05,-0.01115,-0.492758,0.07638,-0.760923,-264.607131,0.155404,62.482731
0.8869,-0.049862,0.015941,0.076114,0.048717,-0.019499,-0.05,-0.011083,-0.492776,0.076328,-0.760923,-264.607131,0.155404,62.482731
0.9067,-0.046538,0.015229,0.073411,0.048505,-0.019686,-0.05,-0.009174,-0.493138,0.074376,-0.782064,-264.581302,0.185157,62.503272
0.927,-0.046099,0.015328,0.075507,0.045296,-0.018601,-0.05,-0.008908,-0.493356,0.073607,-0.782064,-264.581302,0.185157,62.503272
0.9471,-0.045891,0.01559,0.073003,0.044811,-0.018761,-0.05,-0.008908,-0.493356,0.073607,-0.782064,-264.581302,0.185157,62.503272
0.9669,-0.042712,0.014486,0.071792,0.044632,-0.018895,-0.05,-0.006324,-0.493808,0.070634,-0.798759,-264.554116,0.222823,62.522717
0.987,-0.04244,0.015157,0.071737,0.041563,-0.017512,-0.05,-0.006251,-0.493853,0.070651,-0.798759,-264.554116,0.222823,62.522717
1.0071,-0.038893,0.013797,0.069798,0.041244,-0.01816,-0.05,-0.004173,-0.49411,0.069877,-0.833045,-264.528403,0.256984,62.5406
1.0274,-0.039287,0.01435,0.069949,0.037837,-0.016476,-0.05,-0.00347,-0.494672,0.069596,-0.833045,-264.528403,0.256984,62.5406
1.0468,-0.03937,0.014041,0.069259,0.038188,-0.01706,-0.05,-0.00347,-0.494672,0.069596,-0.833045,-264.528403,0.256984,62.5406
1.0667,-0.036192,0.013597,0.067506,0.038304,-0.016732,-0.05,-0.002093,-0.495417,0.066934,-0.857659,-264.504103,0.303685,62.557259
1.0872,-0.036111,0.013475,0.067155,0.035193,-0.016008,-0.05,-0.00202,-0.495423,0.066912,-0.857659,-264.504103,0.303685,62.557259
1.1068,-0.033004,0.012711,0.065501,0.035125,-0.015868,-0.05,-0.000427,-0.495915,0.065294,-0.894653,-264.480573,0.339272,62.572874
1.1273,-0.03263,0.012992,0.065073,0.032101,-0.014844,-0.05,0.000221,-0.496144,0.065184,-0.894653,-264.480573,0.339272,62.572874
1.1472,-0.033047,0.013049,0.064519,0.031717,-0.015086,-0.05,0.000221,-0.496144,0.065184,-0.894653,-264.480573,0.339272,62.572874
1.1672,-0.030032,0.012499,0.060742,0.032137,-0.015152,-0.05,0.001483,-0.496517,0.062239,-0.923404,-264.458652,0.391542,62.587177
1.187,-0.029855,0.012363,0.062462,0.029218,-0.014299,-0.05,0.001488,-0.496538,0.062068,-0.923404,-264.458652,0.391542,62.587177
1.2068,-0.027541,0.012117,0.058147,0.029025,-0.014202,-0.05,0.003138,-0.497109,0.060684,-0.963316,-264.438262,0.453328,62.600123
1.2269,-0.027497,0.011457,0.060069,0.02679,-0.013697,-0.05,0.002691,-0.497117,0.059018,-0.963316,-264.438262,0.453328,62.600123
1.2471,-0.026925,0.011698,0.06068,0.026759,-0.013087,-0.05,0.002691,-0.497117,0.059018,-0.963316,-264.438262,0.453328,62.600123
1.2669,-0.024639,0.011256,0.058717,0.026166,-0.013309,-0.05,0.005374,-0.497936,0.058397,-0.993254,-264.418099,0.507258,62.612718
1.2868,-0.025106,0.011297,0.056674,0.023936,-0.012683,-0.05,0.005407,-0.497947,0.058355,-0.993254,-264.418099,0.507258,62.612718
1.307,-0.022679,0.010931,0.054125,0.024426,-0.012701,-0.05,0.004746,-0.498291,0.054917,-1.020586,-264.399393,0.577862,62.624394
1.3269,-0.022181,0.010847,0.054826,0.022055,-0.012142,-0.05,0.004964,-0.498361,0.054236,-1.020586,-264.399393,0.577862,62.624394
1.3471,-0.022645,0.010802,0.056153,0.021553,-0.012046,-0.05,0.004964,-0.498361,0.054236,-1.020586,-264.399393,0.577862,62.624394
1.3667,-0.019741,0.010433,0.052738,0.022003,-0.012056,-0.05,0.00706,-0.498893,0.053955,-1.065023,-264.381479,0.640884,62.635222
1.387,-0.020127,0.010349,0.053124,0.019164,-0.011459,-0.05,0.007097,-0.498904,0.053804,-1.065023,-264.381479,0.640884,62.635222
1.4067,-0.017674,0.010129,0.049858,0.019549,-0.011403,-0.05,0.007729,-0.499313,0.051375,-1.102251,-264.364145,0.709099,62.645536
1.427,-0.017831,0.009709,0.050625,0.017148,-0.010998,-0.049858,0.007835,-0.499318,0.050283,-1.102251,-264.364145,0.709099,62.645536
1.4468,-0.017872,0.010231,0.049925,0.017317,-0.010598,-0.05,0.007835,-0.499318,0.050283,-1.102251,-264.364145,0.709099,62.645536
1.4668,-0.015552,0.009357,0.048659,0.017339,-0.01111,-0.049925,0.008434,-0.499589,0.047757,-1.142696,-264.347671,0.783158,62.655186
1.4871,-0.0158,0.009398,0.047846,0.015079,-0.010103,-0.048659,0.008513,-0.499633,0.047762,-1.142696,-264.347671,0.783158,62.655186
1.5068,-0.014087,0.009101,0.047587,0.015332,-0.010143,-0.047846,0.009217,-0.500361,0.046093,-1.172353,-264.331491,0.855675,62.66476
1.5268,-0.013657,0.008875,0.046602,0.013638,-0.009761,-0.047587,0.00984,-0.500382,0.046724,-1.172353,-264.331491,0.855675,62.66476
1.5468,-0.013717,0.009149,0.046801,0.013229,-0.009501,-0.046602,0.00984,-0.500382,0.046724,-1.172353,-264.331491,0.855675,62.66476
1.5675,-0.012204,0.008765,0.045329,0.013274,-0.00978,-0.046801,0.01084,-0.500715,0.044615,-1.208823,-264.315771,0.915436,62.673895
1.5871,-0.011926,0.008785,0.045268,0.011794,-0.009309,-0.045329,0.010862,-0.500726,0.044607,-1.208823,-264.315771,0.915436,62.673895
1.6069,-0.010075,0.008546,0.041129,0.011517,-0.009316,-0.045268,0.011659,-0.501023,0.043537,-1.235497,-264.30038,0.961631,62.682745
1.6268,-0.01049,0.008729,0.041768,0.009715,-0.008953,-0.041129,0.011286,-0.501064,0.041949,-1.235497,-264.30038,0.961631,62.682745
1.6467,-0.010095,0.008143,0.041947,0.010116,-0.00916,-0.041768,0.011286,-0.501064,0.041949,-1.235497,-264.30038,0.961631,62.682745
1.6669,-0.008551,0.008217,0.039898,0.009745,-0.00856,-0.041947,0.011861,-0.501821,0.039824,-1.262162,-264.285389,1.000158,62.691175
1.6874,-0.009095,0.007912,0.040757,0.008217,-0.008552,-0.039898,0.011872,-0.5018,0.03977,-1.262162,-264.285389,1.000158,62.691175
1.7069,-0.007223,0.007596,0.037024,0.008765,-0.008276,-0.040757,0.012084,-0.501998,0.039165,-1.286894,-264.271138,1.016731,62.698762
1.7275,-0.00692,0.007568,0.038513,0.006937,-0.007858,-0.037024,0.011889,-0.502072,0.037739,-1.286894,-264.271138,1.016731,62.698762
1.747,-0.006936,0.007411,0.037119,0.006623,-0.007829,-0.038513,0.011889,-0.502072,0.037739,-1.286894,-264.271138,1.016731,62.698762
1.7668,-0.005762,0.00738,0.034034,0.006656,-0.007663,-0.037119,0.01236,-0.502595,0.03539,-1.326195,-264.25906,1.091646,62.705106
1.7868,-0.005812,0.007001,0.036916,0.006656,-0.007663,-0.037119,0.01232,-0.502587,0.035261,-1.326195,-264.25906,1.091646,62.705106
1.8069,-0.004671,0.0069,0.033008,6.1e-05,-7.9e-05,0.0,0.013248,-0.502911,0.035601,-1.362595,-264.247714,1.166486,62.711138
1.8271,-0.004804,0.006691,0.033586,6.1e-05,-7.9e-05,0.0,0.012657,-0.502894,0.033954,-1.362595,-264.247714,1.166486,62.711138
1.847,-0.00458,0.006872,0.034447,6.1e-05,-7.9e-05,0.0,0.012657,-0.502894,0.033954,-1.362595,-264.247714,1.166486,62.711138
1.8669,-0.003038,0.006706,0.032536,6.1e-05,-7.9e-05,0.0,0.013318,-0.503185,0.032651,-1.354786,-264.235355,1.153333,62.717671
1.887,-0.003217,0.006474,0.032776,6.1e-05,-7.9e-05,0.0,0.013343,-0.503183,0.032596,-1.354786,-264.235355,1.153333,62.717671
1.9071,-0.003408,0.00646,0.033004,6.1e-05,-7.9e-05,0.0,0.013532,-0.503362,0.032595,-1.279893,-264.232961,1.07844,62.717671
1.9275,-0.002743,0.006422,0.030846,6.1e-05,-7.9e-05,0.0,0.013473,-0.503318,0.032806,-1.279893,-264.232961,1.07844,62.717671
1.9471,-0.002946,0.00698,0.030202,6.1e-05,-7.9e-05,0.0,0.013473,-0.503318,0.032806,-1.279893,-264.232961,1.07844,62.717671
1.9672,-0.003177,0.006571,0.030426,6.1e-05,-7.9e-05,0.0,0.012455,-0.502787,0.030202,-1.204749,-264.232961,1.003296,62.717671
1.9873,-0.002616,0.006322,0.030919,6.1e-05,-7.9e-05,0.0,0.012448,-0.502814,0.030217,-1.204749,-264.232961,1.003296,62.717671
2.0068,-0.002725,0.006346,0.031628,6.1e-05,-7.9e-05,0.0,0.01315,-0.503434,0.030919,-1.12988,-264.232961,0.928427,62.717671
2.0271,-0.003255,0.006437,0.031661,0.000787,-0.001023,-0.005239,0.013295,-0.503414,0.031325,-1.12988,-264.232961,0.928427,62.717671
2.0474,-0.003139,0.006537,0.032344,0.001559,-0.002025,-0.010368,0.013295,-0.503414,0.031325,-1.12988,-264.232961,0.928427,62.717671
2.0669,-0.003214,0.00664,0.031476,0.00229,-0.002976,-0.015237,0.013354,-0.503196,0.032344,-1.05475,-264.232961,0.853297,62.717671
2.087,-0.003055,0.006577,0.030994,0.002976,-0.003867,-0.019799,0.01332,-0.50319,0.032289,-1.05475,-264.232961,0.853297,62.717671
2.1069,-0.002999,0.006522,0.031914,0.003623,-0.004708,-0.024103,0.012752,-0.503179,0.030988,-1.129626,-264.232901,0.928173,62.717704
2.1269,-0.003272,0.006301,0.031459,0.004229,-0.005494,-0.02813,0.013049,-0.503201,0.031513,-1.129626,-264.232901,0.928173,62.717704
2.1472,-0.002812,0.007053,0.032638,0.004796,-0.006231,-0.031902,0.013049,-0.503201,0.031513,-1.129626,-264.232901,0.928173,62.717704
2.1673,-0.002985,0.006095,0.031112,0.005313,-0.006904,-0.035346,0.013852,-0.50269,0.032563,-1.204608,-264.23236,1.003155,62.717995
2.1874,-0.002866,0.006399,0.031199,0.005795,-0.00753,-0.038552,0.013789,-0.502754,0.032466,-1.204608,-264.23236,1.003155,62.717995
2.207,-0.00294,0.006507,0.031006,0.00623,-0.008095,-0.041446,0.013119,-0.503417,0.030878,-1.279616,-264.229555,1.078163,62.719507
2.2269,-0.002619,0.006414,0.030342,0.006626,-0.008609,-0.044078,0.01299,-0.50333,0.03091,-1.279616,-264.229555,1.078163,62.719507
2.247,-0.002619,0.006611,0.034061,0.006982,-0.009072,-0.046448,0.01299,-0.50333,0.03091,-1.279616,-264.229555,1.078163,62.719507
2.2674,-0.002093,0.00653,0.030995,0.007296,-0.00948,-0.048535,0.01492,-0.50318,0.03318,-1.3546,-264.22425,1.153147,62.723517
2.2867,-0.001685,0.006356,0.031542,0.007567,-0.009832,-0.05034,0.014842,-0.503185,0.033007,-1.3546,-264.22425,1.153147,62.723517
2.3068,-0.001312,0.006272,0.029412,0.007797,-0.010132,-0.051872,0.014577,-0.50346,0.030451,-1.386427,-264.216433,1.223609,62.730038
2.3268,-0.001264,0.006078,0.029231,0.007986,-0.010376,-0.053124,0.014089,-0.503496,0.029717,-1.386427,-264.216433,1.223609,62.730038
2.3469,-0.000962,0.006193,0.030092,0.008133,-0.010567,-0.054102,0.014089,-0.503496,0.029717,-1.386427,-264.216433,1.223609,62.730038
2.3669,9.5e-05,0.005926,0.025852,0.008238,-0.010704,-0.054802,0.014683,-0.503675,0.028255,-1.386427,-264.206124,1.223609,62.738935
2.3873,0.000302,0.006289,0.02732,0.008302,-0.010787,-0.055227,0.014588,-0.503695,0.028025,-1.386427,-264.206124,1.223609,62.738935
2.4071,0.002108,0.006071,0.02427,0.008324,-0.010816,-0.055374,0.014509,-0.503687,0.025616,-1.386427,-264.193316,1.223609,62.748494
2.4275,0.002108,0.005881,0.024915,0.008304,-0.01079,-0.055244,0.01453,-0.503761,0.024629,-1.386427,-264.193316,1.223609,62.748494
2.4473,0.001695,0.00579,0.023498,0.008243,-0.010711,-0.054836,0.01453,-0.503761,0.024629,-1.386427,-264.193316,1.223609,62.748494
2.4671,0.003081,0.005784,0.021048,0.00814,-0.010576,-0.054148,0.014058,-0.504418,0.021091,-1.386427,-264.178024,1.223609,62.758243
2.4871,0.003177,0.005731,0.022114,0.007996,-0.010389,-0.053192,0.014051,-0.504405,0.021024,-1.386427,-264.178024,1.223609,62.758243
2.5067,0.005203,0.004755,0.020739,0.00781,-0.010147,-0.051953,0.01478,-0.504543,0.020011,-1.386427,-264.160221,1.223609,62.767932
2.5268,0.005551,0.005426,0.019408,0.007581,-0.009851,-0.050434,0.01539,-0.504931,0.020158,-1.386427,-264.160221,1.223609,62.767932
2.5475,0.005274,0.005269,0.018744,0.007313,-0.009502,-0.048649,0.01539,-0.504931,0.020158,-1.386427,-264.160221,1.223609,62.767932
2.5669,0.007014,0.004939,0.016709,0.007002,-0.009098,-0.046582,0.01523,-0.50514,0.016156,-1.386427,-264.142775,1.223609,62.777331
2.5868,0.006655,0.004446,0.017427,0.006649,-0.00864,-0.044234,0.015261,-0.505142,0.016127,-1.386427,-264.142775,1.223609,62.777331
2.607,0.008722,0.004167,0.015343,0.006255,-0.008128,-0.041612,0.015831,-0.50584,0.015547,-1.386427,-264.126817,1.223609,62.78593
2.6268,0.008204,0.004146,0.014588,0.005818,-0.00756,-0.038707,0.016276,-0.505848,0.015193,-1.386427,-264.126817,1.223609,62.78593
2.6468,0.008403,0.004456,0.01478,0.005343,-0.006942,-0.035541,0.016276,-0.505848,0.015193,-1.386427,-264.126817,1.223609,62.78593
2.6673,0.009958,0.004062,0.01261,0.004821,-0.006265,-0.032074,0.01627,-0.505904,0.012628,-1.386427,-264.112312,1.223609,62.793745
2.6874,0.01038,0.004227,0.012557,0.004263,-0.00554,-0.028362,0.016286,-0.505914,0.012573,-1.386427,-264.112312,1.223609,62.793745
2.7068,0.011257,0.003467,0.010004,0.003661,-0.004756,-0.024351,0.016993,-0.505998,0.011183,-1.386427,-264.100652,1.223609,62.800027
2.7271,0.011304,0.003462,0.011647,0.003017,-0.00392,-0.020067,0.016659,-0.506322,0.010337,-1.386427,-264.100652,1.223609,62.800027
2.747,0.011521,0.003468,0.011031,0.002331,-0.003029,-0.015506,0.016659,-0.506322,0.010337,-1.386427,-264.100652,1.223609,62.800027
2.7673,0.012042,0.00313,0.008591,0.001605,-0.002085,-0.010677,0.017356,-0.506768,0.009652,-1.386427,-264.091352,1.223609,62.805038
2.7873,0.012412,0.0033,0.009084,0.000835,-0.001085,-0.005555,0.017299,-0.506781,0.009544,-1.386427,-264.091352,1.223609,62.805038
2.8068,0.012309,0.003282,0.010221,3e-06,-4e-06,-1.8e-05,0.017136,-0.506795,0.008484,-1.386427,-264.086266,1.223609,62.807778
2.8267,0.013089,0.002896,0.008359,0.0,0.0,0.0,0.017366,-0.506751,0.009393,-1.386427,-264.086266,1.223609,62.807778
2.8468,0.012746,0.003201,0.009026,0.0,0.0,0.0,0.017366,-0.506751,0.009393,-1.386427,-264.086266,1.223609,62.807778
2.867,0.012921,0.002686,0.008283,0.0,0.0,0.0,0.017391,-0.506831,0.008756,-1.386427,-264.084445,1.223609,62.808759
2.8873,0.012845,0.003049,0.009294,0.0,0.0,0.0,0.017375,-0.506864,0.008717,-1.386427,-264.084445,1.223609,62.808759
2.9071,0.012672,0.002769,0.009026,0.0,0.0,0.0,0.017585,-0.506929,0.009294,-1.386427,-264.084445,1.223609,62.808759
2.9267,0.013104,0.002606,0.008328,0.0,0.0,0.0,0.017413,-0.507085,0.009145,-1.386427,-264.084445,1.223609,62.808759
2.9468,0.012926,0.003185,0.007558,0.0,0.0,0.0,0.017413,-0.507085,0.009145,-1.386427,-264.084445,1.223609,62.808759
2.967,0.012629,0.00291,0.009554,0.0,0.0,0.0,0.01678,-0.5068,0.007558,-1.386427,-264.084445,1.223609,62.808759
2.9872,0.012844,0.002784,0.008159,0.0,0.0,0.0,0.016827,-0.506817,0.007687,-1.386427,-264.084445,1.223609,62.808759
3.007,0.012911,0.002965,0.008307,0.0,0.0,0.0,0.017005,-0.507199,0.008159,-1.386427,-264.084445,1.223609,62.808759
3.0267,0.013281,0.002981,0.00736,0.0,0.0,0.0,0.017087,-0.507095,0.008244,-1.386427,-264.084445,1.223609,62.808759
3.047,0.012973,0.003084,0.00838,-9.8e-05,-2.1e-05,0.0,0.017087,-0.507095,0.008244,-1.386427,-264.084445,1.223609,62.808759
3.0669,0.01293,0.002831,0.00877,-9.8e-05,-2.1e-05,0.0,0.017246,-0.506898,0.00838,-1.386427,-264.084445,1.223609,62.808759
3.0873,0.012398,0.003218,0.007568,-9.8e-05,-2.1e-05,0.0,0.017257,-0.506915,0.008406,-1.386427,-264.084445,1.223609,62.808759
3.1068,0.012939,0.003153,0.006009,-9.8e-05,-2.1e-05,0.0,0.016258,-0.506767,0.007568,-1.311525,-264.084445,1.148707,62.808759
3.1268,0.012941,0.002766,0.007904,-9.8e-05,-2.1e-05,0.0,0.016114,-0.506807,0.006686,-1.311525,-264.084445,1.148707,62.808759
3.1469,0.01274,0.002872,0.008452,-9.8e-05,-2.1e-05,0.0,0.016114,-0.506807,0.006686,-1.311525,-264.084445,1.148707,62.808759
3.1667,0.012744,0.003262,0.008038,-9.8e-05,-2.1e-05,0.0,0.017051,-0.50711,0.008452,-1.236474,-264.084445,1.073656,62.808759
3.1868,0.013256,0.003276,0.008458,-9.8e-05,-2.1e-05,0.0,0.017037,-0.507084,0.008425,-1.236474,-264.084445,1.073656,62.808759
3.2068,0.012831,0.002647,0.007339,-9.8e-05,-2.1e-05,0.0,0.01757,-0.506706,0.008458,-1.16153,-264.084445,0.998712,62.808759
3.2268,0.012512,0.002676,0.007313,-9.8e-05,-2.1e-05,0.0,0.017001,-0.507067,0.007819,-1.16153,-264.084445,0.998712,62.808759
3.247,0.012767,0.003324,0.009189,-9.8e-05,-2.1e-05,0.0,0.017001,-0.507067,0.007819,-1.16153,-264.084445,0.998712,62.808759
3.2674,0.013093,0.003269,0.006317,-0.001943,-0.000421,-0.001075,0.017453,-0.506654,0.009189,-1.086484,-264.084445,0.923665,62.808759
3.2873,0.013022,0.002644,0.00713,-0.00379,-0.000822,-0.002097,0.017374,-0.506659,0.008988,-1.086484,-264.084445,0.923665,62.808759
3.3068,0.012958,0.002688,0.008836,-0.005544,-0.001202,-0.003068,0.016659,-0.507343,0.00713,-1.011536,-264.084445,0.848717,62.808759
3.3268,0.012576,0.00269,0.008416,-0.007185,-0.001557,-0.003975,0.017117,-0.507314,0.008101,-1.011536,-264.084445,0.848717,62.808759
3.3474,0.012716,0.002698,0.00795,-0.008729,-0.001892,-0.004829,0.017117,-0.507314,0.008101,-1.011536,-264.084445,0.848717,62.808759
3.3668,0.012754,0.002922,0.007715,-0.010176,-0.002206,-0.00563,0.01677,-0.507286,0.00795,-0.936529,-264.084445,0.77371,62.808759
3.3872,0.012896,0.002912,0.009918,-0.011523,-0.002498,-0.006376,0.016765,-0.50727,0.007934,-0.936529,-264.084445,0.77371,62.808759
3.4074,0.012814,0.002821,0.008825,-0.012772,-0.002768,-0.007066,0.017954,-0.507062,0.009918,-0.86153,-264.084445,0.698712,62.808759
3.4268,0.013052,0.00322,0.009203,-0.013924,-0.003018,-0.007704,0.017594,-0.507117,0.009302,-0.86153,-264.084445,0.698712,62.808759
3.4468,0.012813,0.002754,0.007315,-0.014968,-0.003244,-0.008281,0.017594,-0.507117,0.009302,-0.86153,-264.084445,0.698712,62.808759
3.4667,0.01317,0.00271,0.007915,-0.015913,-0.003449,-0.008804,0.016543,-0.507232,0.007315,-0.786538,-264.084445,0.623719,62.808759
3.4873,0.012819,0.00332,0.008437,-0.016764,-0.003634,-0.009275,0.016589,-0.507235,0.007357,-0.786538,-264.084445,0.623719,62.808759
3.5075,0.013053,0.00285,0.00782,-0.017515,-0.003797,-0.009691,0.017122,-0.506662,0.008437,-0.711541,-264.084445,0.548722,62.808759
3.5274,0.012754,0.00281,0.007868,-0.018166,-0.003938,-0.010051,0.017077,-0.506924,0.008095,-0.711541,-264.084445,0.548722,62.808759
3.547,0.012986,0.002969,0.00734,-0.018711,-0.004056,-0.010352,0.017077,-0.506924,0.008095,-0.711541,-264.084445,0.548722,62.808759
3.567,0.012637,0.002808,0.008022,-0.019159,-0.004153,-0.0106,0.016729,-0.507018,0.00734,-0.636516,-264.084445,0.473698,62.808759
3.5874,0.012978,0.003053,0.008018,-0.019508,-0.004228,-0.010793,0.016729,-0.507028,0.007383,-0.636516,-264.084445,0.473698,62.808759
3.6074,0.01325,0.002812,0.008258,-0.019756,-0.004282,-0.01093,0.017067,-0.506931,0.008018,-0.561511,-264.084445,0.398692,62.808759
3.6272,0.012949,0.002929,0.008513,-0.019907,-0.004315,-0.011014,0.01729,-0.507066,0.008153,-0.561511,-264.084445,0.398692,62.808759
3.647,0.012959,0.002991,0.009707,-0.019954,-0.004325,-0.01104,0.01729,-0.507066,0.008153,-0.561511,-264.084445,0.398692,62.808759
3.6672,0.013026,0.00315,0.007913,-0.019904,-0.004314,-0.011012,0.017909,-0.506985,0.009707,-0.486515,-264.084445,0.323697,62.808759
3.6871,0.012822,0.002884,0.008687,-0.019754,-0.004282,-0.010929,0.017845,-0.506973,0.00957,-0.486515,-264.084445,0.323697,62.808759
3.7071,0.013174,0.002893,0.008051,-0.019505,-0.004228,-0.010792,0.017252,-0.507097,0.008687,-0.411189,-264.084445,0.248371,62.808759
3.7275,0.012752,0.003013,0.009956,-0.019157,-0.004152,-0.010599,0.017268,-0.507093,0.008324,-0.411189,-264.084445,0.248371,62.808759
3.7468,0.012971,0.003051,0.008128,-0.018707,-0.004055,-0.01035,0.017268,-0.507093,0.008324,-0.411189,-264.084445,0.248371,62.808759
3.7673,0.012859,0.002812,0.007833,-0.018158,-0.003936,-0.010046,0.017116,-0.506932,0.008128,-0.336404,-264.084445,0.173586,62.808759
3.7869,0.012902,0.00313,0.008138,-0.017509,-0.003795,-0.009687,0.017095,-0.506952,0.008104,-0.336404,-264.084445,0.173586,62.808759
3.8069,0.012785,0.002894,0.009195,-0.016761,-0.003633,-0.009273,0.017052,-0.506853,0.008138,-0.261133,-264.084445,0.098314,62.808759
3.8271,0.012794,0.003056,0.007136,-0.015913,-0.003449,-0.008804,0.01729,-0.506984,0.008734,-0.261133,-264.084445,0.098314,62.808759
3.8469,0.012939,0.00308,0.007658,-0.014966,-0.003244,-0.00828,0.01729,-0.506984,0.008734,-0.261133,-264.084445,0.098314,62.808759
3.8672,0.012799,0.003076,0.010291,-0.013916,-0.003016,-0.0077,0.016844,-0.506905,0.007658,-0.186552,-264.084445,0.023733,62.808759
3.8869,0.012944,0.002939,0.007847,-0.01277,-0.002768,-0.007065,0.016927,-0.506905,0.007839,-0.186552,-264.084445,0.023733,62.808759
3.9067,0.012792,0.002982,0.009003,-0.011522,-0.002498,-0.006375,0.016945,-0.507046,0.007847,-0.111536,-264.084447,-0.051282,62.808757
3.9271,0.012988,0.003061,0.00938,-0.010177,-0.002206,-0.005631,0.017195,-0.507018,0.008505,-0.111536,-264.084447,-0.051282,62.808757
3.947,0.012915,0.002716,0.008959,-0.008715,-0.001889,-0.004822,0.017195,-0.507018,0.008505,-0.111536,-264.084447,-0.051282,62.808757
3.9674,0.012747,0.003245,0.009973,-0.007162,-0.001552,-0.003963,0.017483,-0.507264,0.008959,-0.036526,-264.084455,-0.120564,62.80875
3.9869,0.012625,0.003107,0.00779,-0.005521,-0.001197,-0.003055,0.017507,-0.507227,0.009028,-0.036526,-264.084455,-0.120564,62.80875
4.0067,0.012373,0.002641,0.007268,-0.003789,-0.000821,-0.002096,0.016596,-0.506877,0.00779,0.038475,-264.084484,-0.120564,62.808725
4.0271,0.0126,0.003043,0.009337,-0.001947,-0.000422,-0.001077,0.016296,-0.507149,0.007487,0.038475,-264.084484,-0.120564,62.808725
4.0468,0.012932,0.003446,0.011378,-5e-06,-1e-06,-3e-06,0.016296,-0.507149,0.007487,0.038475,-264.084484,-0.120564,62.808725
4.0668,0.01276,0.003105,0.007853,0.0,0.0,0.0,0.018727,-0.506521,0.011376,0.113847,-264.08455,-0.120564,62.808667
4.0867,0.012498,0.002854,0.006905,0.0,0.0,0.0,0.018583,-0.506547,0.011118,0.113847,-264.08455,-0.120564,62.808667
4.1072,0.013079,0.003128,0.007428,0.0,0.0,0.0,0.01602,-0.507134,0.006905,0.188585,-264.08455,-0.120564,62.808667
4.1271,0.013006,0.003253,0.009321,0.0,0.0,0.0,0.016506,-0.506975,0.007205,0.188585,-264.08455,-0.120564,62.808667
4.1472,0.012606,0.002948,0.007388,0.0,0.0,0.0,0.016506,-0.506975,0.007205,0.188585,-264.08455,-0.120564,62.808667
4.1667,0.012731,0.002615,0.008411,0.0,0.0,0.0,0.016374,-0.507038,0.007388,0.188585,-264.08455,-0.120564,62.808667
4.1867,0.012661,0.003165,0.008047,0.0,0.0,0.0,0.016424,-0.507063,0.007467,0.188585,-264.08455,-0.120564,62.808667
4.2068,0.012763,0.003305,0.008151,0.0,0.0,0.0,0.016765,-0.506818,0.008047,0.188585,-264.08455,-0.120564,62.808667
4.2268,0.012474,0.002986,0.00815,0.0,0.0,0.0,0.016854,-0.506738,0.008106,0.188585,-264.08455,-0.120564,62.808667
4.2473,0.013103,0.003175,0.007913,0.0,0.0,0.0,0.016854,-0.506738,0.008106,0.188585,-264.08455,-0.120564,62.808667
4.2671,0.012986,0.003063,0.00795,-9.7e-05,-2.3e-05,0.0,0.017138,-0.506809,0.007913,0.188585,-264.08455,-0.120564,62.808667
4.2871,0.01304,0.002932,0.007406,-9.7e-05,-2.3e-05,0.0,0.017132,-0.506816,0.007915,0.188585,-264.08455,-0.120564,62.808667
4.3067,0.012601,0.003234,0.008284,-9.7e-05,-2.3e-05,0.0,0.016817,-0.507054,0.007406,0.188585,-264.08455,-0.120564,62.808667
4.3276,0.012777,0.002992,0.008675,-9.7e-05,-2.3e-05,0.0,0.016822,-0.506883,0.007898,0.188585,-264.08455,-0.120564,62.808667
4.3467,0.012654,0.002964,0.008788,-9.7e-05,-2.3e-05,0.0,0.016822,-0.506883,0.007898,0.188585,-264.08455,-0.120564,62.808667
4.3668,0.012712,0.003098,0.007806,-9.7e-05,-2.3e-05,0.0,0.017135,-0.507016,0.008788,0.229854,-264.084555,-0.045571,62.808661
4.3871,0.012688,0.002967,0.007371,-9.7e-05,-2.3e-05,0.0,0.017104,-0.507007,0.008719,0.229854,-264.084555,-0.045571,62.808661
4.4066,0.012559,0.003053,0.006712,-9.7e-05,-2.3e-05,0.0,0.016446,-0.507019,0.007371,0.229854,-264.084567,0.029425,62.80865
4.4269,0.012712,0.003152,0.008347,-9.7e-05,-2.3e-05,0.0,0.016183,-0.506972,0.006998,0.229854,-264.084567,0.029425,62.80865
4.4469,0.012529,0.003046,0.006058,-9.7e-05,-2.3e-05,0.0,0.016183,-0.506972,0.006998,0.229854,-264.084567,0.029425,62.80865
4.467,0.012691,0.003004,0.009139,-9.7e-05,-2.3e-05,0.0,0.015616,-0.506945,0.006057,0.229854,-264.084588,0.104426,62.808629
4.4876,0.012963,0.003283,0.00965,-0.001915,-0.000448,-0.001155,0.015729,-0.506947,0.006258,0.229854,-264.084588,0.104426,62.808629
4.5068,0.012438,0.003257,0.008617,-0.003737,-0.000875,-0.002253,0.017881,-0.506694,0.00965,0.229854,-264.084619,0.179423,62.808598
4.5268,0.012982,0.003194,0.010751,-0.00546,-0.001278,-0.003291,0.017292,-0.506711,0.009069,0.229854,-264.084619,0.179423,62.808598
4.5468,0.0127,0.00303,0.008817,-0.00709,-0.001659,-0.004274,0.017292,-0.506711,0.009069,0.229854,-264.084619,0.179423,62.808598
4.5667,0.012703,0.002713,0.007644,-0.008613,-0.002015,-0.005191,0.017192,-0.506951,0.008817,0.304903,-264.084656,0.104374,62.808565
4.5871,0.012618,0.002796,0.007172,-0.010044,-0.00235,-0.006054,0.017151,-0.506973,0.008734,0.304903,-264.084656,0.104374,62.808565
4.6071,0.012904,0.0031,0.006975,-0.011376,-0.002662,-0.006857,0.016229,-0.507201,0.007157,0.379861,-264.085192,0.029416,62.808102
4.6269,0.013001,0.003059,0.008644,-0.012608,-0.00295,-0.0076,0.016355,-0.507025,0.007052,0.379861,-264.085192,0.029416,62.808102
4.6469,0.012735,0.002791,0.010109,-0.013731,-0.003213,-0.008277,0.016355,-0.507025,0.007052,0.379861,-264.085192,0.029416,62.808102
4.6667,0.012505,0.002677,0.006271,-0.014767,-0.003455,-0.008901,0.017676,-0.507234,0.010014,0.454863,-264.087199,-0.045586,62.806367
4.6869,0.01252,0.00307,0.00848,-0.015701,-0.003674,-0.009464,0.017537,-0.50724,0.009758,0.454863,-264.087199,-0.045586,62.806367
4.7067,0.012522,0.002788,0.007884,-0.016539,-0.00387,-0.009969,0.016455,-0.507,0.00826,0.52986,-264.091712,-0.120583,62.802127
4.7267,0.012016,0.002899,0.007772,-0.01728,-0.004043,-0.010416,0.016456,-0.507124,0.008017,0.52986,-264.091712,-0.120583,62.802127
4.7467,0.012459,0.003232,0.006988,-0.017918,-0.004193,-0.0108,0.016456,-0.507124,0.008017,0.52986,-264.091712,-0.120583,62.802127
4.767,0.011321,0.00275,0.00724,-0.018459,-0.004319,-0.011126,0.01528,-0.506929,0.006545,0.541979,-264.098723,-0.133349,62.795821
4.7872,0.012006,0.00278,0.006357,-0.018903,-0.004423,-0.011394,0.01524,-0.506957,0.006583,0.541979,-264.098723,-0.133349,62.795821
4.8069,0.010755,0.002375,0.007286,-0.019248,-0.004504,-0.011602,0.014557,-0.507375,0.00594,0.541979,-264.107095,-0.133349,62.788585
4.8268,0.011212,0.002574,0.006209,-0.019497,-0.004562,-0.011752,0.01442,-0.507532,0.006658,0.541979,-264.107095,-0.133349,62.788585
4.847,0.011009,0.002497,0.008228,-0.019642,-0.004596,-0.011839,0.01442,-0.507532,0.006658,0.541979,-264.107095,-0.133349,62.788585
4.8673,0.010309,0.002049,0.005415,-0.019691,-0.004608,-0.011869,0.014286,-0.507709,0.007673,0.541979,-264.115905,-0.133349,62.78097
4.8878,0.010722,0.002432,0.006391,-0.019642,-0.004596,-0.01184,0.014191,-0.507728,0.007524,0.541979,-264.115905,-0.133349,62.78097
4.9071,0.00975,0.001972,0.006016,-0.019494,-0.004561,-0.01175,0.013216,-0.507741,0.005928,0.541979,-264.125122,-0.133349,62.773003
4.9269,0.009742,0.002387,0.00467,-0.019249,-0.004504,-0.011602,0.012895,-0.507923,0.005922,0.541979,-264.125122,-0.133349,62.773003
4.947,0.009613,0.002418,0.00459,-0.018905,-0.004424,-0.011395,0.012895,-0.507923,0.005922,0.541979,-264.125122,-0.133349,62.773003
4.9669,0.009168,0.002274,0.003433,-0.018458,-0.004319,-0.011126,0.011004,-0.507803,0.004016,0.541979,-264.134293,-0.133349,62.765076
4.9871,0.008945,0.001697,0.006661,-0.017916,-0.004192,-0.010799,0.010969,-0.507803,0.003953,0.541979,-264.134293,-0.133349,62.765076
5.0072,0.00862,0.001687,0.004267,-0.017278,-0.004043,-0.010415,0.011617,-0.508466,0.006223,0.541979,-264.143095,-0.133349,62.757468
5.0273,0.008465,0.001617,0.00411,-0.016539,-0.00387,-0.009969,0.011055,-0.508398,0.005047,0.541979,-264.143095,-0.133349,62.757468
5.047,0.008605,0.001331,0.004652,-0.015703,-0.003674,-0.009465,0.011055,-0.508398,0.005047,0.541979,-264.143095,-0.133349,62.757468
5.0669,0.007757,0.001341,0.004642,-0.014768,-0.003456,-0.008902,0.010108,-0.508871,0.004128,0.541979,-264.151442,-0.133349,62.750253
5.0873,0.00768,0.001435,0.004227,-0.013731,-0.003213,-0.008276,0.010087,-0.508862,0.004149,0.541979,-264.151442,-0.133349,62.750253
5.1068,0.007257,0.001029,0.002936,-0.012601,-0.002949,-0.007595,0.009227,-0.508705,0.00386,0.541979,-264.158775,-0.133349,62.743915
5.1271,0.006985,0.001255,0.00239,-0.011366,-0.00266,-0.006851,0.008883,-0.508873,0.003291,0.541979,-264.158775,-0.133349,62.743915
5.147,0.007245,0.00101,0.003428,-0.010045,-0.00235,-0.006055,0.008883,-0.508873,0.003291,0.541979,-264.158775,-0.133349,62.743915
5.1671,0.006403,0.00102,0.004047,-0.008614,-0.002016,-0.005192,0.008325,-0.509146,0.003025,0.541979,-264.165226,-0.133349,62.738338
5.1873,0.007211,0.001113,0.002788,-0.007093,-0.00166,-0.004275,0.008316,-0.509137,0.003095,0.541979,-264.165226,-0.133349,62.738338
5.207,0.006286,0.000403,0.002677,-0.005468,-0.001279,-0.003296,0.008249,-0.508976,0.002557,0.541979,-264.169886,-0.133349,62.73431
5.2269,0.006605,0.000953,0.003344,-0.003748,-0.000877,-0.002259,0.00786,-0.509339,0.002595,0.541979,-264.169886,-0.133349,62.73431
5.2469,0.0063,0.00063,0.003363,-0.001919,-0.000449,-0.001157,0.00786,-0.509339,0.002595,0.541979,-264.169886,-0.133349,62.73431
5.2666,0.006064,0.000762,0.003106,0.0,0.0,0.0,0.00767,-0.509449,0.003155,0.541979,-264.173197,-0.133349,62.731448
5.2871,0.006209,0.000738,0.001551,0.0,0.0,0.0,0.00766,-0.509438,0.003146,0.541979,-264.173197,-0.133349,62.731448
5.307,0.006565,0.0008,0.004424,0.0,0.0,0.0,0.006926,-0.509279,0.001506,0.541979,-264.174093,-0.133349,62.730674
5.3268,0.00602,0.000778,0.003198,0.0,0.0,0.0,0.007989,-0.509234,0.003152,0.541979,-264.174093,-0.133349,62.730674
5.3468,0.006178,0.000488,0.003227,0.0,0.0,0.0,0.007989,-0.509234,0.003152,0.541979,-264.174093,-0.133349,62.730674
5.367,0.006264,0.000562,0.002808,0.0,0.0,0.0,0.007824,-0.509509,0.003227,0.541979,-264.174093,-0.133349,62.730674
5.3871,0.005884,0.000904,0.002515,0.0,0.0,0.0,0.007815,-0.509504,0.003199,0.541979,-264.174093,-0.133349,62.730674
5.4067,0.00555,0.000722,0.003623,0.0,0.0,0.0,0.007167,-0.509095,0.002515,0.541979,-264.174093,-0.133349,62.730674
5.4274,0.005972,0.001016,0.002047,0.0,0.0,0.0,0.007299,-0.509197,0.003148,0.541979,-264.174093,-0.133349,62.730674
5.4469,0.006529,0.000521,0.001435,0.0,0.0,0.0,0.007299,-0.509197,0.003148,0.541979,-264.174093,-0.133349,62.730674
5.467,0.006028,0.001025,0.004489,0.0,0.0,0.0,0.007261,-0.509479,0.001435,0.541979,-264.174093,-0.133349,62.730674
5.4872,0.00603,0.000739,0.003106,0.0,0.0,0.0,0.007343,-0.509439,0.001672,0.541979,-264.174093,-0.133349,62.730674
5.5067,0.006197,0.000956,0.002399,-9.9e-05,-1.2e-05,0.0,0.007614,-0.509258,0.003106,0.541979,-264.174093,-0.133349,62.730674
5.5268,0.006285,0.000914,0.002217,-9.9e-05,-1.2e-05,0.0,0.007504,-0.509135,0.002704,0.541979,-264.174093,-0.133349,62.730674
5.5469,0.006189,0.00093,0.002551,-9.9e-05,-1.2e-05,0.0,0.007504,-0.509135,0.002704,0.541979,-264.174093,-0.133349,62.730674
5.5667,0.005633,0.000642,0.002524,-9.9e-05,-1.2e-05,0.0,0.00749,-0.509068,0.002551,0.541979,-264.174093,-0.133349,62.730674
5.587,0.005994,0.000197,0.002659,-9.9e-05,-1.2e-05,0.0,0.00745,-0.509088,0.002549,0.541979,-264.174093,-0.133349,62.730674
5.6074,0.006199,0.00076,0.003165,-9.9e-05,-1.2e-05,0.0,0.007351,-0.509802,0.002659,0.466982,-264.174094,-0.058351,62.730673
5.627,0.006105,0.000779,0.003373,-9.9e-05,-1.2e-05,0.0,0.007612,-0.509483,0.002945,0.466982,-264.174094,-0.058351,62.730673
5.6469,0.006179,0.000756,0.001973,-9.9e-05,-1.2e-05,0.0,0.007612,-0.509483,0.002945,0.466982,-264.174094,-0.058351,62.730673
5.6669,0.006855,0.000498,0.002432,-9.9e-05,-1.2e-05,0.0,0.007185,-0.509243,0.001973,0.391972,-264.174097,0.016659,62.73067
5.6872,0.005987,0.000339,0.001155,-9.9e-05,-1.2e-05,0.0,0.00725,-0.509261,0.002006,0.391972,-264.174097,0.016659,62.73067
5.7068,0.006113,0.001014,0.001715,-3.2e-05,-4e-06,-1.7e-05,0.006575,-0.50966,0.001154,0.316889,-264.174107,0.091742,62.73066
5.7267,0.006197,0.000827,0.003447,-0.000881,-0.000105,-0.000454,0.00681,-0.509277,0.001473,0.316889,-264.174107,0.091742,62.73066
5.7469,0.005982,0.000874,0.003146,-0.001719,-0.000205,-0.000885,0.00681,-0.509277,0.001473,0.316889,-264.174107,0.091742,62.73066
5.7674,0.006223,0.000757,0.000713,-0.002511,-0.0003,-0.001293,0.007585,-0.509124,0.003146,0.241946,-264.174129,0.118858,62.730639
5.7871,0.006227,0.001025,0.000685,-0.00327,-0.00039,-0.001684,0.007506,-0.509133,0.002954,0.241946,-264.174129,0.118858,62.730639
5.807,0.00594,0.000918,0.002049,-0.003962,-0.000473,-0.00204,0.006568,-0.508977,0.000683,0.317181,-264.174227,0.043622,62.730547
5.8272,0.005873,0.000549,0.002008,-0.004614,-0.000551,-0.002376,0.006806,-0.509036,0.001465,0.317181,-264.174227,0.043622,62.730547
5.8473,0.006352,0.000711,0.003526,-0.005225,-0.000624,-0.00269,0.006806,-0.509036,0.001465,0.317181,-264.174227,0.043622,62.730547
5.8671,0.006391,0.000546,0.003357,-0.005791,-0.000692,-0.002982,0.008094,-0.509297,0.003505,0.392039,-264.174731,-0.031235,62.730076
5.8871,0.006145,0.000293,0.001114,-0.006311,-0.000754,-0.00325,0.008093,-0.509308,0.003494,0.392039,-264.174731,-0.031235,62.730076
5.9073,0.005865,0.000269,0.001735,-0.006787,-0.000811,-0.003495,0.00658,-0.509728,0.001055,0.409386,-264.176222,-0.106094,62.728682
5.9269,0.006101,0.000557,0.00271,-0.007216,-0.000862,-0.003715,0.00666,-0.509732,0.001434,0.409386,-264.176222,-0.106094,62.728682
5.947,0.00595,0.000515,0.001482,-0.007601,-0.000908,-0.003914,0.00666,-0.509732,0.001434,0.409386,-264.176222,-0.106094,62.728682
5.9669,0.005417,0.000248,0.003317,-0.007944,-0.000949,-0.004091,0.006433,-0.509519,0.001345,0.409386,-264.178667,-0.181102,62.726397
5.987,0.00601,0.000549,0.001946,-0.008236,-0.000984,-0.004241,0.006475,-0.509537,0.001485,0.409386,-264.178667,-0.181102,62.726397
6.0067,0.005703,0.000332,0.002497,-0.008484,-0.001013,-0.004368,0.00671,-0.509486,0.001795,0.409386,-264.181969,-0.192641,62.723311
6.0273,0.005197,0.000555,0.001666,-0.008688,-0.001038,-0.004474,0.006823,-0.509593,0.002173,0.409386,-264.181969,-0.192641,62.723311
6.047,0.005338,0.000652,0.003434,-0.008845,-0.001056,-0.004554,0.006823,-0.509593,0.002173,0.409386,-264.181969,-0.192641,62.723311
6.0676,0.005145,0.000639,0.00157,-0.008958,-0.00107,-0.004613,0.006689,-0.509395,0.003227,0.409386,-264.18556,-0.192641,62.719954
6.087,0.005284,0.000252,0.00084,-0.009026,-0.001078,-0.004648,0.006628,-0.509394,0.00311,0.409386,-264.18556,-0.192641,62.719954
6.1068,0.004605,0.000454,0.001541,-0.009049,-0.001081,-0.004659,0.00537,-0.509788,0.000664,0.409386,-264.189417,-0.192641,62.71635
6.1267,0.004863,0.000566,-0.000437,-0.009026,-0.001078,-0.004648,0.005339,-0.509656,0.001139,0.409386,-264.189417,-0.192641,62.71635
6.1468,0.00512,0.000932,0.001218,-0.008958,-0.00107,-0.004613,0.005339,-0.509656,0.001139,0.409386,-264.189417,-0.192641,62.71635
6.1673,0.004411,0.000928,0.001848,-0.008845,-0.001056,-0.004554,0.005302,-0.509121,0.000991,0.409386,-264.193352,-0.192641,62.712671
6.1871,0.004505,0.000205,0.001803,-0.008686,-0.001037,-0.004473,0.005294,-0.509119,0.001042,0.409386,-264.193352,-0.192641,62.712671
6.2069,0.003938,0.000802,0.002944,-0.008483,-0.001013,-0.004368,0.005077,-0.509836,0.001624,0.409386,-264.197258,-0.192641,62.70902
6.2271,0.003821,0.000389,0.00051,-0.008233,-0.000983,-0.004239,0.005238,-0.509479,0.002349,0.409386,-264.197258,-0.192641,62.70902
6.2482,0.004353,0.000645,0.002247,-0.007939,-0.000948,-0.004088,0.005238,-0.509479,0.002349,0.409386,-264.197258,-0.192641,62.70902
6.267,0.004183,0.000687,0.001592,-0.007599,-0.000907,-0.003913,0.005072,-0.509405,0.002027,0.409386,-264.201046,-0.192641,62.70548
6.2868,0.003577,0.000338,0.001863,-0.007215,-0.000862,-0.003715,0.005062,-0.509402,0.002004,0.409386,-264.201046,-0.192641,62.70548
6.3071,0.003378,0.000188,-0.000193,-0.006785,-0.00081,-0.003494,0.00422,-0.509698,0.001705,0.409386,-264.204508,-0.192641,62.702245
6.3272,0.003697,0.000123,0.000163,-0.006312,-0.000754,-0.00325,0.003649,-0.509767,0.000611,0.409386,-264.204508,-0.192641,62.702245
6.3471,0.003482,0.000469,0.002064,-0.005792,-0.000692,-0.002982,0.003649,-0.509767,0.000611,0.409386,-264.204508,-0.192641,62.702245
6.3674,0.003113,0.000511,0.00093,-0.005224,-0.000624,-0.00269,0.004184,-0.509573,0.001883,0.409386,-264.207673,-0.192641,62.699287
6.3868,0.003246,0.000263,0.000237,-0.004614,-0.000551,-0.002376,0.004124,-0.509567,0.001799,0.409386,-264.207673,-0.192641,62.699287
6.4072,0.003223,1.5e-05,0.000442,-0.003957,-0.000473,-0.002038,0.003144,-0.509764,0.000123,0.409386,-264.210183,-0.192641,62.696941
6.4269,0.003205,0.000457,-0.001385,-0.003256,-0.000389,-0.001676,0.003289,-0.509893,0.00029,0.409386,-264.210183,-0.192641,62.696941
6.4468,0.003135,0.00041,0.000948,-0.002509,-0.0003,-0.001292,0.003289,-0.509893,0.00029,0.409386,-264.210183,-0.192641,62.696941
6.4669,0.002395,0.000234,0.000427,-0.001714,-0.000205,-0.000882,0.003393,-0.509617,0.000832,0.409386,-264.212194,-0.192641,62.69506
6.4867,0.002829,0.000212,0.001605,-0.000877,-0.000105,-0.000452,0.003335,-0.509627,0.000802,0.409386,-264.212194,-0.192641,62.69506
