mach0312/omni-docking-bench/src/icros_test_setup/results/kinematic_sample/timeseries/trial_133.csv
t,x,y,yaw,vx,vy,wz,bl_x,bl_y,bl_yaw,front_steering_joint,front_wheel_joint,rear_steering_joint,rear_wheel_joint
0.0,-0.038401,-0.030564,0.068678,0.008478,-0.001859,0.002348,-0.004378,-0.539584,0.068089,-0.05013,-264.658301,-0.37047,62.024625
0.0004,-0.038327,-0.031117,0.068297,0.006625,-0.001453,0.001834,-0.004378,-0.539584,0.068089,-0.05013,-264.654799,-0.37047,62.028377
0.0007,-0.038424,-0.030995,0.068375,0.006161,-0.001351,0.001706,-0.004047,-0.539903,0.069292,-0.05013,-264.651483,-0.37047,62.031931
0.0011,-0.038409,-0.030943,0.068461,0.005652,-0.001239,0.001565,-0.004047,-0.539903,0.069292,-0.05013,-264.648378,-0.37047,62.035257
0.0014,-0.037927,-0.030901,0.068401,0.005098,-0.001118,0.001412,-0.004016,-0.539887,0.069273,-0.05013,-264.645725,-0.37047,62.0381
0.0017,-0.037958,-0.03099,0.068004,0.0045,-0.000987,0.001246,-0.004016,-0.539887,0.069273,-0.05013,-264.643461,-0.37047,62.040525
0.002,-0.037847,-0.031333,0.068693,0.003864,-0.000847,0.00107,-0.002797,-0.539733,0.069809,-0.05013,-264.641911,-0.37047,62.042186
0.0022,-0.037548,-0.030857,0.069606,0.003177,-0.000697,0.00088,-0.003067,-0.539787,0.069637,-0.05013,-264.641911,-0.37047,62.042186
0.0025,-0.037537,-0.031372,0.069266,0.002452,-0.000538,0.000679,-0.003067,-0.539787,0.069637,-0.05013,-264.641911,-0.37047,62.042186
0.0027,-0.037233,-0.031121,0.06728,0.001678,-0.000368,0.000465,-0.003067,-0.539787,0.069637,-0.05013,-264.641911,-0.37047,62.042186
0.0183,-0.037899,-0.030877,0.066762,0.016862,0.015811,-0.029761,-0.002087,-0.539937,0.069433,-0.05013,-264.641911,-0.37047,62.042186
0.0383,-0.037358,-0.031462,0.069865,0.032862,0.02828,-0.05,-0.003756,-0.539759,0.066795,-0.05013,-264.640931,-0.37047,62.043236
0.0586,-0.037282,-0.031006,0.069234,0.039463,0.028778,-0.05,-0.003613,-0.539792,0.06701,-0.05013,-264.640931,-0.37047,62.043236
0.0783,-0.037146,-0.030953,0.069552,0.039338,0.028353,-0.05,-0.002001,-0.539785,0.069234,-0.125006,-264.64093,-0.295594,62.043237
0.0984,-0.037169,-0.030779,0.069287,0.039207,0.028297,-0.05,-0.00183,-0.539748,0.069416,-0.125006,-264.64093,-0.295594,62.043237
0.1183,-0.037049,-0.031408,0.069018,0.039211,0.028132,-0.05,-0.00183,-0.539748,0.069416,-0.125006,-264.64093,-0.295594,62.043237
0.1385,-0.037367,-0.031278,0.067583,0.039127,0.028778,-0.05,-0.001878,-0.540194,0.069018,-0.049877,-264.640929,-0.220464,62.04324
0.1586,-0.037144,-0.031447,0.069294,0.039394,0.028683,-0.05,-0.001955,-0.540188,0.068912,-0.049877,-264.640929,-0.220464,62.04324
0.1789,-0.037302,-0.030988,0.068604,0.039232,0.0288,-0.05,-0.001833,-0.540223,0.069294,-0.061274,-264.640927,-0.145505,62.043243
0.1989,-0.037596,-0.031299,0.06847,0.039339,0.028358,-0.05,-0.002123,-0.539975,0.0689,-0.061274,-264.640927,-0.145505,62.043243
0.2185,-0.037626,-0.031345,0.070119,0.039649,0.028654,-0.05,-0.002123,-0.539975,0.0689,-0.061274,-264.640927,-0.145505,62.043243
0.2386,-0.037317,-0.031109,0.067751,0.039729,0.028632,-0.05,-0.001894,-0.540092,0.070119,-0.04705,-264.640926,-0.070601,62.043246
0.2585,-0.037483,-0.031065,0.068884,0.039337,0.028512,-0.05,-0.001954,-0.540082,0.06996,-0.04705,-264.640926,-0.070601,62.043246
0.2783,-0.037451,-0.031241,0.069397,0.039532,0.028412,-0.05,-0.002379,-0.539856,0.068884,-0.047478,-264.640924,0.004412,62.043248
0.2983,-0.037538,-0.030974,0.070438,0.039527,0.028569,-0.05,-0.002213,-0.539946,0.069176,-0.047478,-264.640924,0.004412,62.043248
0.3186,-0.037121,-0.030986,0.069262,0.039625,0.028255,-0.05,-0.002213,-0.539946,0.069176,-0.047478,-264.640924,0.004412,62.043248
0.3386,-0.037562,-0.03105,0.068415,0.039176,0.028343,-0.05,-0.001825,-0.539763,0.069262,-0.051456,-264.640923,0.079416,62.043251
0.3587,-0.037438,-0.030823,0.067026,0.039597,0.02841,-0.05,-0.001894,-0.539771,0.069195,-0.051456,-264.640923,0.079416,62.043251
0.3783,-0.037262,-0.031294,0.069268,0.039419,0.028246,-0.05,-0.003281,-0.539677,0.067026,-0.05754,-264.640921,0.154733,62.043254
0.3985,-0.037196,-0.031161,0.068171,0.039339,0.02864,-0.05,-0.002526,-0.539903,0.068311,-0.05754,-264.640921,0.154733,62.043254
0.4183,-0.037534,-0.030857,0.069751,0.039232,0.028555,-0.05,-0.002526,-0.539903,0.068311,-0.05754,-264.640921,0.154733,62.043254
0.4382,-0.037226,-0.030965,0.070028,0.039593,0.028166,-0.05,-0.001989,-0.539617,0.069751,-0.05368,-264.640919,0.229512,62.043257
0.4583,-0.037399,-0.031104,0.070224,0.039302,0.028284,-0.05,-0.001958,-0.539624,0.069771,-0.05368,-264.640919,0.229512,62.043257
0.4793,-0.037309,-0.031347,0.06872,0.039489,0.028403,-0.05,-0.001614,-0.539847,0.070224,-0.05049,-264.640917,0.304406,62.043261
0.4983,-0.03735,-0.030994,0.069194,0.039373,0.028712,-0.05,-0.001998,-0.540015,0.069369,-0.05049,-264.640917,0.304406,62.043261
0.5182,-0.03761,-0.031093,0.071016,0.039404,0.028337,-0.05,-0.001998,-0.540015,0.069369,-0.05049,-264.640917,0.304406,62.043261
0.5384,-0.037613,-0.031123,0.069163,0.039722,0.028346,-0.05,-0.001421,-0.539807,0.071016,-0.057279,-264.64091,0.379418,62.043273
0.5587,-0.037141,-0.031338,0.068368,0.039674,0.028449,-0.05,-0.001487,-0.539814,0.070887,-0.057279,-264.64091,0.379418,62.043273
0.5787,-0.037444,-0.031193,0.068232,0.039195,0.028728,-0.05,-0.002296,-0.540145,0.068366,-0.05578,-264.640876,0.454402,62.043335
0.5987,-0.037244,-0.030816,0.069256,0.039484,0.028567,-0.05,-0.002517,-0.540063,0.068287,-0.05578,-264.640876,0.454402,62.043335
0.6187,-0.037071,-0.031124,0.069382,0.039287,0.028164,-0.05,-0.002517,-0.540063,0.068287,-0.05578,-264.640876,0.454402,62.043335
0.6383,-0.037491,-0.031207,0.06735,0.03914,0.028479,-0.05,-0.001691,-0.539887,0.069367,-0.052585,-264.640719,0.530093,62.043616
0.6593,-0.037481,-0.03113,0.069023,0.039506,0.028613,-0.05,-0.001789,-0.539898,0.069233,-0.052585,-264.640719,0.530093,62.043616
0.679,-0.037206,-0.031039,0.069313,0.039538,0.02847,-0.05,-0.002244,-0.539886,0.068977,-0.060333,-264.640177,0.604432,62.044588
0.6984,-0.037227,-0.031233,0.068251,0.039267,0.028388,-0.05,-0.002036,-0.539842,0.069158,-0.060333,-264.640177,0.604432,62.044588
0.7185,-0.03751,-0.031034,0.06831,0.039271,0.028622,-0.05,-0.002036,-0.539842,0.069158,-0.060333,-264.640177,0.604432,62.044588
0.7383,-0.036709,-0.031211,0.068045,0.03954,0.028401,-0.05,-0.002484,-0.539729,0.068131,-0.048668,-264.638652,0.679457,62.047331
0.7588,-0.036868,-0.030779,0.069423,0.038746,0.028643,-0.05,-0.002449,-0.539746,0.068121,-0.048668,-264.638652,0.679457,62.047331
0.7786,-0.036105,-0.03057,0.069078,0.038914,0.028147,-0.05,-0.00115,-0.53936,0.069124,-0.048743,-264.635192,0.754408,62.052581
0.7989,-0.036353,-0.030448,0.068857,0.038129,0.028005,-0.05,-0.000968,-0.539332,0.069061,-0.048743,-264.635192,0.754408,62.052581
0.8183,-0.036154,-0.030627,0.068104,0.038362,0.027875,-0.05,-0.000968,-0.539332,0.069061,-0.048743,-264.635192,0.754408,62.052581
0.8387,-0.035544,-0.029696,0.067292,0.038155,0.028095,-0.05,-0.000794,-0.539071,0.067508,-0.048849,-264.629218,0.829539,62.060346
0.8587,-0.035386,-0.030191,0.068963,0.03746,0.027239,-0.05,-0.000811,-0.539017,0.067472,-0.048849,-264.629218,0.829539,62.060346
0.8786,-0.033734,-0.029617,0.066169,0.037382,0.02768,-0.05,0.000442,-0.538571,0.068282,-0.069305,-264.62077,0.904724,62.070579
0.8986,-0.034116,-0.029553,0.067221,0.035618,0.027322,-0.05,0.000269,-0.538479,0.066987,-0.069305,-264.62077,0.904724,62.070579
0.9186,-0.033654,-0.029979,0.065373,0.036024,0.027195,-0.05,0.000269,-0.538479,0.066987,-0.069305,-264.62077,0.904724,62.070579
0.9384,-0.032316,-0.029083,0.06501,0.035541,0.027716,-0.05,0.000717,-0.538235,0.064224,-0.087832,-264.609832,0.979572,62.083299
0.9583,-0.032117,-0.029108,0.065866,0.034137,0.026922,-0.05,0.00075,-0.538204,0.064247,-0.087832,-264.609832,0.979572,62.083299
0.9784,-0.030188,-0.028078,0.063872,0.033963,0.026931,-0.05,0.002447,-0.537372,0.064746,-0.092533,-264.59636,1.012929,62.09856
0.9983,-0.029899,-0.028117,0.06401,0.031918,0.026094,-0.05,0.002526,-0.537101,0.064103,-0.092533,-264.59636,1.012929,62.09856
1.0185,-0.030264,-0.028006,0.062247,0.031636,0.026147,-0.05,0.002526,-0.537101,0.064103,-0.092533,-264.59636,1.012929,62.09856
1.0384,-0.027737,-0.027043,0.062088,0.031948,0.026069,-0.05,0.002777,-0.536097,0.060589,-0.105514,-264.582787,1.034723,62.116283
1.0585,-0.028235,-0.027013,0.061919,0.029362,0.02527,-0.05,0.002891,-0.53607,0.060649,-0.105514,-264.582787,1.034723,62.116283
1.0789,-0.026074,-0.025772,0.060199,0.029852,0.025214,-0.05,0.004344,-0.535201,0.060387,-0.137892,-264.570369,1.061746,62.136527
1.0984,-0.025494,-0.025936,0.061022,0.027578,0.024157,-0.05,0.004625,-0.534894,0.060085,-0.137892,-264.570369,1.061746,62.136527
1.1185,-0.025985,-0.026122,0.06082,0.027029,0.024333,-0.05,0.004625,-0.534894,0.060085,-0.137892,-264.570369,1.061746,62.136527
1.1389,-0.023328,-0.025016,0.057312,0.027525,0.024494,-0.05,0.00628,-0.534001,0.058613,-0.17752,-264.558847,1.086463,62.159268
1.1585,-0.023188,-0.024746,0.057796,0.024723,0.023639,-0.05,0.006286,-0.533983,0.058472,-0.17752,-264.558847,1.086463,62.159268
1.1785,-0.020932,-0.02384,0.057285,0.024579,0.023365,-0.05,0.007214,-0.532944,0.055956,-0.225657,-264.54828,1.113093,62.182576
1.1983,-0.020806,-0.023366,0.054844,0.022263,0.022603,-0.05,0.007933,-0.532857,0.056478,-0.225657,-264.54828,1.113093,62.182576
1.2183,-0.020931,-0.02381,0.055067,0.022056,0.022191,-0.05,0.007933,-0.532857,0.056478,-0.225657,-264.54828,1.113093,62.182576
1.2382,-0.018366,-0.022084,0.05319,0.02221,0.022621,-0.05,0.008222,-0.531882,0.052753,-0.272123,-264.538492,1.142685,62.205285
1.2586,-0.018236,-0.02184,0.053705,0.019514,0.021076,-0.05,0.00829,-0.531813,0.052721,-0.272123,-264.538492,1.142685,62.205285
1.2782,-0.016355,-0.021462,0.051596,0.019382,0.020829,-0.05,0.009839,-0.530321,0.052046,-0.347173,-264.53034,1.174617,62.225042
1.2981,-0.01678,-0.021172,0.051081,0.01744,0.02059,-0.05,0.009989,-0.530485,0.051579,-0.347173,-264.53034,1.174617,62.225042
1.3182,-0.016624,-0.021119,0.050643,0.017839,0.020288,-0.05,0.009989,-0.530485,0.051579,-0.347173,-264.53034,1.174617,62.225042
1.3382,-0.014505,-0.02005,0.04859,0.017671,0.02025,-0.05,0.009937,-0.529571,0.048659,-0.422116,-264.523156,1.209334,62.24332
1.3582,-0.014408,-0.019941,0.049561,0.015462,0.019321,-0.04859,0.009987,-0.529533,0.048592,-0.422116,-264.523156,1.209334,62.24332
1.3783,-0.013132,-0.01911,0.047664,0.015378,0.019203,-0.049561,0.011407,-0.528622,0.04795,-0.497502,-264.516232,1.23325,62.26145
1.3983,-0.013065,-0.018662,0.048174,0.014027,0.018462,-0.047664,0.011341,-0.528482,0.047581,-0.497502,-264.516232,1.23325,62.26145
1.4184,-0.012944,-0.019173,0.047255,0.013949,0.018011,-0.048174,0.011341,-0.528482,0.047581,-0.497502,-264.516232,1.23325,62.26145
1.4385,-0.011447,-0.018174,0.045289,0.013835,0.01854,-0.047255,0.011758,-0.527762,0.045237,-0.572106,-264.509837,1.265121,62.279105
1.4585,-0.011104,-0.018031,0.045522,0.012258,0.017638,-0.045289,0.011767,-0.527731,0.045186,-0.572106,-264.509837,1.265121,62.279105
1.4783,-0.00947,-0.017375,0.043548,0.011913,0.017507,-0.045522,0.012523,-0.526909,0.044024,-0.647247,-264.504013,1.284789,62.295084
1.4984,-0.009517,-0.017642,0.042643,0.010217,0.016946,-0.043548,0.012694,-0.526826,0.043568,-0.647247,-264.504013,1.284789,62.295084
1.5183,-0.009791,-0.017806,0.043968,0.010261,0.01722,-0.042643,0.012694,-0.526826,0.043568,-0.647247,-264.504013,1.284789,62.295084
1.5383,-0.008298,-0.016258,0.040286,0.010565,0.017359,-0.043968,0.013166,-0.526459,0.041837,-0.685393,-264.497881,1.306512,62.313255
1.5582,-0.007936,-0.016646,0.040544,0.008946,0.015911,-0.040286,0.013116,-0.526394,0.041674,-0.685393,-264.497881,1.306512,62.313255
1.5782,-0.006861,-0.015842,0.037775,0.008604,0.01631,-0.040544,0.013096,-0.525564,0.038939,-0.710281,-264.492604,1.337931,62.330595
1.5983,-0.006683,-0.015986,0.039034,0.007455,0.015572,-0.037775,0.012745,-0.525431,0.038072,-0.710281,-264.492604,1.337931,62.330595
1.6184,-0.006487,-0.015526,0.039696,0.007302,0.015713,-0.039034,0.012745,-0.525431,0.038072,-0.710281,-264.492604,1.337931,62.330595
1.6387,-0.004704,-0.014675,0.036341,0.007098,0.015256,-0.039696,0.014133,-0.524383,0.037858,-0.771117,-264.487921,1.353475,62.346169
1.6588,-0.005126,-0.014926,0.037025,0.005234,0.014495,-0.036341,0.014121,-0.524359,0.037699,-0.771117,-264.487921,1.353475,62.346169
1.6789,-0.004084,-0.014101,0.03345,0.005675,0.014726,-0.037025,0.013989,-0.524015,0.035652,-0.838829,-264.483932,1.388238,62.360855
1.6983,-0.004308,-0.013913,0.034404,0.004554,0.013957,-0.03345,0.013436,-0.52383,0.034216,-0.838829,-264.483932,1.388238,62.360855
1.7184,-0.003951,-0.014121,0.035219,0.004784,0.013757,-0.034404,0.013436,-0.52383,0.034216,-0.838829,-264.483932,1.388238,62.360855
1.7383,-0.002836,-0.013841,0.033359,0.004446,0.013973,-0.035219,0.014182,-0.523281,0.033948,-0.913862,-264.481226,1.429088,62.371623
1.7586,-0.003294,-0.013487,0.034163,0.003296,0.013738,-0.033359,0.014186,-0.523287,0.033869,-0.913862,-264.481226,1.429088,62.371623
1.7784,-0.001934,-0.012714,0.032211,0.003753,0.013366,-0.034163,0.01428,-0.522694,0.032937,-0.987824,-264.478042,1.434048,62.384481
1.7988,-0.002153,-0.013162,0.033486,0.002342,0.012645,-0.032211,0.014419,-0.522494,0.032375,-0.987824,-264.478042,1.434048,62.384481
1.8185,-0.002306,-0.012668,0.032394,0.002592,0.013083,-0.033486,0.014419,-0.522494,0.032375,-0.987824,-264.478042,1.434048,62.384481
1.8384,-0.001285,-0.012234,0.032685,0.002715,0.012587,-0.032394,0.014324,-0.521883,0.031157,-1.062836,-264.475768,1.474485,62.395
1.8586,-0.001584,-0.012374,0.031591,0.001684,0.012186,-0.032685,0.014405,-0.521874,0.031234,-1.062836,-264.475768,1.474485,62.395
1.8783,-0.000779,-0.012195,0.029502,0.001974,0.012317,-0.031591,0.014585,-0.521798,0.030789,-1.137831,-264.473814,1.493654,62.403413
1.8987,-0.000738,-0.011986,0.028958,0.001138,0.012167,-0.029502,0.014409,-0.521858,0.02995,-1.137831,-264.473814,1.493654,62.403413
1.9182,-0.000822,-0.011899,0.029084,0.001085,0.011959,-0.028958,0.014409,-0.521858,0.02995,-1.137831,-264.473814,1.493654,62.403413
1.9383,-7.5e-05,-0.011602,0.029811,0.001168,0.01187,-0.029084,0.01405,-0.521409,0.028368,-1.212826,-264.47237,1.518461,62.409257
1.9589,-0.000423,-0.011577,0.029606,0.000421,0.011595,-0.029811,0.014121,-0.5214,0.028444,-1.212826,-264.47237,1.518461,62.409257
1.9789,-4e-05,-0.010894,0.027952,0.000765,0.01156,-0.029606,0.014699,-0.521061,0.028905,-1.287713,-264.470914,1.534222,62.416666
1.9987,0.00042,-0.011053,0.028407,0.000345,0.010888,-0.027952,0.014427,-0.520817,0.028279,-1.287713,-264.470914,1.534222,62.416666
2.0186,0.000793,-0.011086,0.02923,-0.000106,0.011061,-0.028407,0.014427,-0.520817,0.028279,-1.287713,-264.470914,1.534222,62.416666
2.0383,0.000271,-0.010805,0.028303,-0.000468,0.011104,-0.02923,0.01571,-0.520609,0.028572,-1.362892,-264.469709,1.556687,62.422087
2.0586,0.000172,-0.011119,0.027569,3.5e-05,0.010809,-0.028303,0.015646,-0.520602,0.028539,-1.362892,-264.469709,1.556687,62.422087
2.0785,0.001251,-0.010523,0.027768,0.000135,0.01112,-0.027569,0.014231,-0.520736,0.027086,-1.437707,-264.4686,1.574534,62.427096
2.0986,0.000935,-0.01075,0.027718,-0.000958,0.010554,-0.027768,0.014906,-0.520478,0.027415,-1.437707,-264.4686,1.574534,62.427096
2.1187,0.000751,-0.010337,0.02697,-0.000637,0.010772,-0.027718,0.014906,-0.520478,0.027415,-1.437707,-264.4686,1.574534,62.427096
2.1385,0.00149,-0.010491,0.025833,-0.000472,0.010354,-0.02697,0.014503,-0.519817,0.026025,-1.512848,-264.466607,1.569564,62.434604
2.1595,0.001389,-0.010483,0.025477,-0.001218,0.010525,-0.025833,0.014514,-0.519843,0.025986,-1.512848,-264.466607,1.569564,62.434604
2.1783,0.001946,-0.009974,0.025606,-0.001121,0.010515,-0.025477,0.014364,-0.520044,0.024771,-1.587881,-264.46499,1.593785,62.441839
2.1984,0.002149,-0.009879,0.025599,-0.00169,0.010021,-0.025606,0.014722,-0.519877,0.025154,-1.587881,-264.46499,1.593785,62.441839
2.2185,0.002379,-0.009751,0.025415,-0.001896,0.00993,-0.025599,0.014722,-0.519877,0.025154,-1.587881,-264.46499,1.593785,62.441839
2.2383,0.002075,-0.01002,0.025232,-0.002131,0.009808,-0.025415,0.01534,-0.519586,0.025415,-1.512912,-264.46499,1.617086,62.44184
2.2585,0.001617,-0.009834,0.024991,-0.001821,0.010069,-0.025232,0.015312,-0.519605,0.025402,-1.512912,-264.46499,1.617086,62.44184
2.2783,0.001897,-0.009497,0.023874,-0.001821,0.010069,-0.025232,0.014361,-0.519675,0.02499,-1.437856,-264.464991,1.644815,62.441841
2.2986,0.001922,-0.009672,0.024528,-1.7e-05,9.9e-05,0.0,0.014195,-0.51949,0.024352,-1.437856,-264.464991,1.644815,62.441841
2.3183,0.00187,-0.009923,0.025857,-1.7e-05,9.9e-05,0.0,0.014195,-0.51949,0.024352,-1.437856,-264.464991,1.644815,62.441841
2.3383,0.001827,-0.010058,0.026404,-1.7e-05,9.9e-05,0.0,0.015055,-0.519752,0.025857,-1.362954,-264.464991,1.642158,62.441842
2.3587,0.001945,-0.009572,0.024877,-1.7e-05,9.9e-05,0.0,0.015072,-0.519762,0.025896,-1.362954,-264.464991,1.642158,62.441842
2.3784,0.002198,-0.009511,0.025981,-1.7e-05,9.9e-05,0.0,0.01463,-0.519411,0.024877,-1.397557,-264.465024,1.717163,62.441875
2.3985,0.001936,-0.009635,0.024939,-1.7e-05,9.9e-05,0.0,0.015095,-0.51937,0.025506,-1.397557,-264.465024,1.717163,62.441875
2.4183,0.001909,-0.010045,0.024577,-1.7e-05,9.9e-05,0.0,0.015095,-0.51937,0.025506,-1.397557,-264.465024,1.717163,62.441875
2.4383,0.001718,-0.009973,0.025361,-1.7e-05,9.9e-05,0.0,0.014441,-0.519886,0.024577,-1.397557,-264.465064,1.744036,62.441915
2.4583,0.001649,-0.009796,0.026335,-1.7e-05,9.9e-05,0.0,0.014455,-0.519881,0.02463,-1.397557,-264.465064,1.744036,62.441915
2.4782,0.001697,-0.009782,0.025382,-1.7e-05,9.9e-05,0.0,0.015078,-0.519616,0.026335,-1.397557,-264.465104,1.744036,62.441955
2.4983,0.001941,-0.010091,0.02465,-1.7e-05,9.9e-05,0.0,0.014829,-0.519616,0.025793,-1.397557,-264.465104,1.744036,62.441955
2.5187,0.001642,-0.010051,0.024275,-0.000244,0.001395,-0.00349,0.014829,-0.519616,0.025793,-1.397557,-264.465104,1.744036,62.441955
2.5383,0.00198,-0.010264,0.024454,-0.000476,0.00272,-0.006806,0.014021,-0.519896,0.024275,-1.397557,-264.465144,1.744036,62.441995
2.5584,0.001509,-0.009734,0.026334,-0.000695,0.003972,-0.009941,0.014056,-0.519913,0.02429,-1.397557,-264.465144,1.744036,62.441995
2.5784,0.001578,-0.010111,0.024808,-0.000902,0.005153,-0.012896,0.014938,-0.519557,0.026334,-1.322172,-264.465144,1.668651,62.441995
2.5985,0.001814,-0.009878,0.025039,-0.001096,0.006262,-0.015671,0.014533,-0.519783,0.025463,-1.322172,-264.465144,1.668651,62.441995
2.6183,0.001451,-0.009956,0.024762,-0.001277,0.007299,-0.018265,0.014533,-0.519783,0.025463,-1.322172,-264.465144,1.668651,62.441995
2.6383,0.001896,-0.009643,0.025464,-0.001446,0.008265,-0.020683,0.014079,-0.519799,0.024762,-1.247455,-264.465144,1.639896,62.441996
2.6583,0.001892,-0.010037,0.024634,-0.001603,0.009162,-0.022929,0.014134,-0.519777,0.02481,-1.247455,-264.465144,1.639896,62.441996
2.6783,0.001675,-0.009728,0.024842,-0.001747,0.009982,-0.024981,0.014454,-0.519882,0.024634,-1.172554,-264.465144,1.639896,62.441996
2.6984,0.002019,-0.009931,0.025179,-0.001878,0.010733,-0.02686,0.014391,-0.519705,0.024752,-1.172554,-264.465144,1.639896,62.441996
2.7184,0.001706,-0.010069,0.025895,-0.001998,0.011416,-0.028568,0.014391,-0.519705,0.024752,-1.172554,-264.465144,1.639896,62.441996
2.7383,0.001817,-0.009717,0.025014,-0.002104,0.012026,-0.030095,0.014911,-0.519897,0.025895,-1.097543,-264.465144,1.639896,62.441997
2.7586,0.001838,-0.009775,0.026948,-0.002198,0.012559,-0.03143,0.014888,-0.519874,0.025834,-1.097543,-264.465144,1.639896,62.441997
2.7783,0.001436,-0.009659,0.024792,-0.002279,0.013022,-0.032589,0.01558,-0.51959,0.026948,-1.022539,-264.465145,1.639896,62.441998
2.7983,0.001636,-0.010065,0.024767,-0.002348,0.013419,-0.033581,0.014721,-0.51954,0.025714,-1.022539,-264.465145,1.639896,62.441998
2.8185,0.001662,-0.00997,0.02395,-0.002404,0.013738,-0.034381,0.014721,-0.51954,0.025714,-1.022539,-264.465145,1.639896,62.441998
2.8388,0.001562,-0.009656,0.025476,-0.002448,0.013989,-0.035008,0.013875,-0.519824,0.02395,-0.947414,-264.465145,1.639896,62.442
2.8587,0.00178,-0.009709,0.025269,-0.002479,0.014168,-0.035456,0.013916,-0.519804,0.024041,-0.947414,-264.465145,1.639896,62.442
2.8784,0.001827,-0.009871,0.022997,-0.002498,0.014274,-0.035722,0.014666,-0.519546,0.025269,-0.87254,-264.465145,1.639896,62.442001
2.8984,0.001977,-0.009992,0.02574,-0.002504,0.01431,-0.035812,0.014036,-0.519654,0.023982,-0.87254,-264.465145,1.639896,62.442001
2.9186,0.001823,-0.009836,0.02552,-0.002498,0.014274,-0.035722,0.014036,-0.519654,0.023982,-0.87254,-264.465145,1.639896,62.442001
2.9383,0.001748,-0.009834,0.023558,-0.002479,0.014167,-0.035453,0.014836,-0.519669,0.02552,-0.797548,-264.465145,1.639896,62.442002
2.9587,0.001683,-0.010135,0.026473,-0.002448,0.013988,-0.035006,0.014766,-0.519671,0.025392,-0.797548,-264.465145,1.639896,62.442002
2.979,0.001746,-0.00972,0.024896,-0.002404,0.013737,-0.034379,0.015183,-0.519957,0.026473,-0.722559,-264.465146,1.639896,62.442004
2.9984,0.001838,-0.010022,0.025534,-0.002348,0.013416,-0.033575,0.014759,-0.519731,0.025572,-0.722559,-264.465146,1.639896,62.442004
3.0184,0.001628,-0.010157,0.025652,-0.002279,0.013022,-0.032589,0.014759,-0.519731,0.025572,-0.722559,-264.465146,1.639896,62.442004
3.0383,0.002248,-0.009937,0.025011,-0.002197,0.012557,-0.031425,0.014709,-0.519989,0.025652,-0.647447,-264.465146,1.639896,62.442005
3.0591,0.001733,-0.010165,0.024497,-0.002104,0.012021,-0.030082,0.014731,-0.519974,0.025605,-0.647447,-264.465146,1.639896,62.442005
3.0786,0.001983,-0.010047,0.025432,-0.001997,0.011411,-0.028557,0.014226,-0.520012,0.024497,-0.572456,-264.465146,1.639896,62.442007
3.0984,0.001675,-0.009656,0.024968,-0.001878,0.010733,-0.026861,0.014643,-0.519937,0.025034,-0.572456,-264.465146,1.639896,62.442007
3.1187,0.00168,-0.010047,0.025092,-0.001747,0.009982,-0.02498,0.014643,-0.519937,0.025034,-0.572456,-264.465146,1.639896,62.442007
3.1388,0.002104,-0.00996,0.025567,-0.001603,0.009158,-0.022918,0.014475,-0.519887,0.025092,-0.497367,-264.465147,1.639896,62.442008
3.1583,0.001824,-0.009653,0.025595,-0.001446,0.008261,-0.020673,0.014527,-0.519879,0.025129,-0.497367,-264.465147,1.639896,62.442008
3.1783,0.001816,-0.009891,0.025598,-0.001277,0.007297,-0.018262,0.014876,-0.519486,0.025595,-0.422161,-264.465147,1.639896,62.442009
3.1983,0.001683,-0.009593,0.025735,-0.001095,0.006259,-0.015663,0.014873,-0.519622,0.025597,-0.422161,-264.465147,1.639896,62.442009
3.2187,0.002089,-0.00975,0.02529,-0.000902,0.005152,-0.012892,0.014873,-0.519622,0.025597,-0.422161,-264.465147,1.639896,62.442009
3.2385,0.002003,-0.009718,0.024792,-0.000695,0.003971,-0.009937,0.014985,-0.519587,0.02529,-0.347397,-264.465147,1.639896,62.44201
3.2586,0.001746,-0.009632,0.024084,-0.000476,0.002719,-0.006805,0.014965,-0.519586,0.02526,-0.347397,-264.465147,1.639896,62.44201
3.2786,0.00189,-0.009931,0.02465,-0.000244,0.001393,-0.003486,0.014028,-0.519484,0.024084,-0.272537,-264.465147,1.639896,62.44201
3.2987,0.002207,-0.009996,0.025466,0.0,0.0,0.0,0.014273,-0.519649,0.024405,-0.272537,-264.465147,1.639896,62.44201
3.3182,0.001584,-0.010103,0.025089,0.0,0.0,0.0,0.014273,-0.519649,0.024405,-0.272537,-264.465147,1.639896,62.44201
3.3384,0.001811,-0.01017,0.024632,0.0,0.0,0.0,0.014378,-0.519943,0.025089,-0.197541,-264.465147,1.639896,62.442011
3.3582,0.001608,-0.009928,0.025341,0.0,0.0,0.0,0.014378,-0.51995,0.025046,-0.197541,-264.465147,1.639896,62.442011
3.3784,0.001937,-0.009904,0.024633,0.0,0.0,0.0,0.01453,-0.519764,0.025341,-0.197541,-264.465147,1.639896,62.442011
3.3987,0.00185,-0.010048,0.024197,0.0,0.0,0.0,0.014512,-0.519755,0.024938,-0.197541,-264.465147,1.639896,62.442011
3.4185,0.001691,-0.009834,0.026162,0.0,0.0,0.0,0.014512,-0.519755,0.024938,-0.197541,-264.465147,1.639896,62.442011
3.4384,0.001796,-0.009909,0.02525,0.0,0.0,0.0,0.015032,-0.519659,0.026162,-0.197541,-264.465147,1.639896,62.442011
3.4588,0.002097,-0.009766,0.024442,0.0,0.0,0.0,0.015008,-0.519665,0.026103,-0.197541,-264.465147,1.639896,62.442011
3.4782,0.00201,-0.010096,0.026387,0.0,0.0,0.0,0.014561,-0.519613,0.024442,-0.197541,-264.465147,1.639896,62.442011
3.4982,0.001888,-0.009766,0.025147,0.0,0.0,0.0,0.015076,-0.519787,0.025549,-0.197541,-264.465147,1.639896,62.442011
3.5183,0.001773,-0.009725,0.024973,-1.7e-05,9.9e-05,0.0,0.015076,-0.519787,0.025549,-0.197541,-264.465147,1.639896,62.442011
3.5388,0.001949,-0.009837,0.023885,-1.7e-05,9.9e-05,0.0,0.014509,-0.519566,0.024973,-0.197541,-264.465147,1.639896,62.442011
3.5583,0.001761,-0.00986,0.025247,-1.7e-05,9.9e-05,0.0,0.014482,-0.519574,0.024898,-0.197541,-264.465147,1.639896,62.442011
3.5783,0.001817,-0.009679,0.02694,-1.7e-05,9.9e-05,0.0,0.014635,-0.519698,0.025247,-0.272627,-264.465147,1.714982,62.442011
3.5985,0.001853,-0.009902,0.026335,-1.7e-05,9.9e-05,0.0,0.015155,-0.519582,0.026204,-0.272627,-264.465147,1.714982,62.442011
3.6184,0.002102,-0.010227,0.025579,-1.7e-05,9.9e-05,0.0,0.015155,-0.519582,0.026204,-0.272627,-264.465147,1.714982,62.442011
3.6384,0.001736,-0.010218,0.026037,-1.7e-05,9.9e-05,0.0,0.015146,-0.52006,0.025579,-0.347537,-264.465147,1.73657,62.442011
3.6585,0.001924,-0.00995,0.025975,-1.7e-05,9.9e-05,0.0,0.015137,-0.520059,0.02561,-0.347537,-264.465147,1.73657,62.442011
3.6786,0.001702,-0.009938,0.025747,-1.7e-05,9.9e-05,0.0,0.01517,-0.519778,0.025975,-0.422539,-264.465147,1.73657,62.442011
3.6983,0.001625,-0.010195,0.02764,-1.7e-05,9.9e-05,0.0,0.014978,-0.519773,0.025846,-0.422539,-264.465147,1.73657,62.442011
3.7184,0.001931,-0.010052,0.02577,-1e-06,3e-06,-8e-06,0.014978,-0.519773,0.025846,-0.422539,-264.465147,1.73657,62.442011
3.7387,0.001745,-0.009548,0.023187,-0.00024,0.001437,-0.003683,0.015072,-0.519882,0.02577,-0.497573,-264.465147,1.73657,62.442011
3.7582,0.001698,-0.009515,0.024896,-0.000468,0.002799,-0.007176,0.014967,-0.519849,0.02559,-0.497573,-264.465147,1.73657,62.442011
3.7784,0.001181,-0.009741,0.026608,-0.000684,0.004086,-0.010474,0.014394,-0.519356,0.024896,-0.42262,-264.465147,1.661617,62.442011
3.7984,0.0016,-0.009796,0.025928,-0.000887,0.005299,-0.013583,0.014596,-0.519473,0.025871,-0.42262,-264.465147,1.661617,62.442011
3.8183,0.001613,-0.00996,0.025519,-0.001077,0.006438,-0.016504,0.014596,-0.519473,0.025871,-0.42262,-264.465147,1.661617,62.442011
3.8385,0.001629,-0.010157,0.027015,-0.001256,0.007506,-0.01924,0.014626,-0.519794,0.025519,-0.347612,-264.465147,1.635918,62.442011
3.8584,0.002057,-0.010155,0.027005,-0.001422,0.008499,-0.021786,0.014686,-0.519807,0.025635,-0.347612,-264.465147,1.635918,62.442011
3.8788,0.002158,-0.010035,0.023487,-0.00158,0.009445,-0.02421,0.015828,-0.519969,0.027005,-0.272376,-264.465147,1.635918,62.442011
3.8986,0.001617,-0.010068,0.025977,-0.001717,0.010265,-0.026312,0.014874,-0.519927,0.025023,-0.272376,-264.465147,1.635918,62.442011
3.9185,0.001765,-0.009629,0.025422,-0.001847,0.011037,-0.028293,0.014874,-0.519927,0.025023,-0.272376,-264.465147,1.635918,62.442011
3.9386,0.001741,-0.010204,0.025081,-0.001964,0.011736,-0.030084,0.014729,-0.519464,0.025422,-0.197613,-264.465148,1.635918,62.442012
3.9585,0.001771,-0.010107,0.024473,-0.002068,0.012361,-0.031686,0.014715,-0.519505,0.025398,-0.197613,-264.465148,1.635918,62.442012
3.9784,0.001908,-0.009872,0.026063,-0.002161,0.012915,-0.033105,0.014251,-0.519955,0.024473,-0.122581,-264.465148,1.635918,62.442013
3.9983,0.001668,-0.009973,0.024885,-0.00224,0.013391,-0.034326,0.014794,-0.519808,0.025385,-0.122581,-264.465148,1.635918,62.442013
4.0183,0.00179,-0.009655,0.025698,-0.002308,0.013796,-0.035365,0.014794,-0.519808,0.025385,-0.122581,-264.465148,1.635918,62.442013
4.0384,0.001543,-0.00998,0.025979,-0.002364,0.014127,-0.036213,0.014894,-0.519487,0.025697,-0.047481,-264.465148,1.635918,62.442015
4.0584,0.001917,-0.009912,0.024357,-0.002407,0.014385,-0.036874,0.014888,-0.519507,0.025715,-0.047481,-264.465148,1.635918,62.442015
4.079,0.001675,-0.00985,0.025997,-0.002437,0.014569,-0.037344,0.014338,-0.519761,0.024357,0.027381,-264.465149,1.635918,62.442016
4.0983,0.001759,-0.010015,0.024934,-0.002456,0.014679,-0.037626,0.014678,-0.519713,0.025297,0.027381,-264.465149,1.635918,62.442016
4.1185,0.001885,-0.009915,0.025722,-0.002462,0.014715,-0.037721,0.014678,-0.519713,0.025297,0.027381,-264.465149,1.635918,62.442016
4.1384,0.00179,-0.010119,0.024412,-0.002456,0.014679,-0.037626,0.015002,-0.519746,0.025722,0.102492,-264.465149,1.635918,62.442018
4.1586,0.001503,-0.009764,0.024357,-0.002437,0.014568,-0.037343,0.014952,-0.51976,0.025636,0.102492,-264.465149,1.635918,62.442018
4.1787,0.001602,-0.010316,0.02629,-0.002406,0.014383,-0.036869,0.013923,-0.519613,0.024356,0.177377,-264.465149,1.635918,62.442019
4.1984,0.001704,-0.009819,0.025292,-0.002363,0.014126,-0.036209,0.014541,-0.519913,0.025457,0.177377,-264.465149,1.635918,62.442019
4.2184,0.001762,-0.009949,0.02552,-0.002308,0.013795,-0.035362,0.014541,-0.519913,0.025457,0.177377,-264.465149,1.635918,62.442019
4.2385,0.00162,-0.009834,0.024283,-0.00224,0.013389,-0.034321,0.014776,-0.519783,0.02552,0.252481,-264.46515,1.635918,62.442021
4.2586,0.002019,-0.010087,0.02643,-0.00216,0.012912,-0.033099,0.014726,-0.519777,0.02544,0.252481,-264.46515,1.635918,62.442021
4.2785,0.001682,-0.009788,0.023923,-0.002068,0.01236,-0.031684,0.015497,-0.519908,0.02643,0.327378,-264.46515,1.635918,62.442022
4.2984,0.0017,-0.009444,0.024516,-0.001964,0.011736,-0.030083,0.01458,-0.519757,0.025008,0.327378,-264.46515,1.635918,62.442022
4.3185,0.001816,-0.010024,0.025746,-0.001846,0.011036,-0.028288,0.01458,-0.519757,0.025008,0.327378,-264.46515,1.635918,62.442022
4.3387,0.002257,-0.010027,0.025702,-0.001717,0.010264,-0.026309,0.014945,-0.519855,0.025746,0.402378,-264.46515,1.635918,62.442023
4.3587,0.001803,-0.009991,0.025292,-0.001576,0.009418,-0.02414,0.014971,-0.519855,0.025743,0.402378,-264.46515,1.635918,62.442023
4.3784,0.001793,-0.009808,0.025443,-0.00142,0.008486,-0.021752,0.014701,-0.519828,0.025292,0.477387,-264.46515,1.635918,62.442025
4.3982,0.001988,-0.010072,0.025581,-0.001255,0.007503,-0.019232,0.014739,-0.519721,0.025379,0.477387,-264.46515,1.635918,62.442025
4.4183,0.001758,-0.009906,0.026562,-0.001077,0.006438,-0.016502,0.014739,-0.519721,0.025379,0.477387,-264.46515,1.635918,62.442025
4.4384,0.001219,-0.010134,0.025005,-0.000886,0.005295,-0.013572,0.015303,-0.519726,0.026562,0.552552,-264.465151,1.635918,62.442026
4.4587,0.001499,-0.010023,0.025688,-0.000683,0.004084,-0.010468,0.015206,-0.519744,0.026448,0.552552,-264.465151,1.635918,62.442026
4.4788,0.001433,-0.010033,0.026078,-0.000468,0.002795,-0.007165,0.014598,-0.519855,0.025687,0.627478,-264.465151,1.635918,62.442027
4.4988,0.001664,-0.01005,0.026007,-0.00024,0.001434,-0.003676,0.014674,-0.519858,0.025912,0.627478,-264.465151,1.635918,62.442027
4.5184,0.001937,-0.009549,0.024411,0.0,0.0,0.0,0.014674,-0.519858,0.025912,0.627478,-264.465151,1.635918,62.442027
4.5383,0.001422,-0.009857,0.025919,0.0,0.0,0.0,0.014385,-0.519397,0.02441,0.702489,-264.465152,1.635918,62.44203
4.5588,0.002099,-0.010063,0.02553,0.0,0.0,0.0,0.014403,-0.519417,0.024515,0.702489,-264.465152,1.635918,62.44203
4.5784,0.002163,-0.009896,0.025731,0.0,0.0,0.0,0.015118,-0.519897,0.02553,0.702489,-264.465152,1.635918,62.44203
4.5989,0.00186,-0.009935,0.025729,0.0,0.0,0.0,0.015212,-0.519801,0.025644,0.702489,-264.465152,1.635918,62.44203
4.6186,0.00193,-0.009823,0.026518,0.0,0.0,0.0,0.015212,-0.519801,0.025644,0.702489,-264.465152,1.635918,62.44203
4.6385,0.001942,-0.009871,0.02523,0.0,0.0,0.0,0.015452,-0.519644,0.026518,0.702489,-264.465152,1.635918,62.44203
4.6588,0.001963,-0.010314,0.025745,0.0,0.0,0.0,0.015408,-0.519648,0.026429,0.702489,-264.465152,1.635918,62.44203
4.6783,0.002203,-0.009999,0.026122,0.0,0.0,0.0,0.015091,-0.520145,0.025745,0.702489,-264.465152,1.635918,62.44203
4.6982,0.001556,-0.01016,0.024625,0.0,0.0,0.0,0.015334,-0.519966,0.025957,0.702489,-264.465152,1.635918,62.44203
4.7183,0.002127,-0.009719,0.024865,0.0,0.0,0.0,0.015334,-0.519966,0.025957,0.702489,-264.465152,1.635918,62.44203
4.7384,0.001816,-0.010244,0.023541,-1.9e-05,9.8e-05,0.0,0.014807,-0.519562,0.024865,0.702489,-264.465152,1.635918,62.44203
4.7588,0.001729,-0.009717,0.02428,-1.9e-05,9.8e-05,0.0,0.014738,-0.519599,0.024773,0.702489,-264.465152,1.635918,62.44203
4.7788,0.00151,-0.009597,0.024585,-1.9e-05,9.8e-05,0.0,0.01411,-0.519567,0.02428,0.702489,-264.465152,1.635918,62.44203
4.7985,0.002038,-0.009753,0.025161,-1.9e-05,9.8e-05,0.0,0.014075,-0.519496,0.024453,0.702489,-264.465152,1.635918,62.44203
4.8186,0.001666,-0.010007,0.026305,-1.9e-05,9.8e-05,0.0,0.014075,-0.519496,0.024453,0.702489,-264.465152,1.635918,62.44203
4.8385,0.001777,-0.010189,0.02482,-1.9e-05,9.8e-05,0.0,0.015079,-0.519831,0.026305,0.627475,-264.465152,1.560904,62.44203
4.8588,0.001809,-0.009541,0.025647,-1.9e-05,9.8e-05,0.0,0.015038,-0.519844,0.02621,0.627475,-264.465152,1.560904,62.44203
4.8785,0.001865,-0.010211,0.025636,-1.9e-05,9.8e-05,0.0,0.014887,-0.519373,0.025647,0.552479,-264.465152,1.485908,62.44203
4.8991,0.002034,-0.009599,0.024834,-1.9e-05,9.8e-05,0.0,0.014916,-0.519754,0.025641,0.552479,-264.465152,1.485908,62.44203
4.9185,0.002069,-0.009862,0.023652,-1.9e-05,9.8e-05,0.0,0.014916,-0.519754,0.025641,0.552479,-264.465152,1.485908,62.44203
4.9384,0.001896,-0.009519,0.025479,-0.0,0.0,-1e-06,0.01413,-0.519719,0.023652,0.477494,-264.465152,1.410923,62.44203
4.9587,0.001828,-0.009885,0.025366,-0.000276,0.001428,-0.003635,0.014183,-0.519694,0.023779,0.477494,-264.465152,1.410923,62.44203
4.9786,0.001501,-0.010142,0.025816,-0.000537,0.002785,-0.007087,0.014763,-0.519721,0.025366,0.402488,-264.465152,1.335917,62.44203
4.9985,0.001522,-0.009866,0.025115,-0.000784,0.004065,-0.010345,0.014708,-0.519864,0.025622,0.402488,-264.465152,1.335917,62.44203
5.0185,0.001598,-0.009939,0.024547,-0.001018,0.005275,-0.013426,0.014708,-0.519864,0.025622,0.402488,-264.465152,1.335917,62.44203
5.0383,0.001652,-0.01,0.025733,-0.001237,0.006411,-0.016318,0.014115,-0.519786,0.024547,0.477475,-264.465152,1.410904,62.44203
5.0586,0.001761,-0.010126,0.02558,-0.001442,0.007473,-0.019021,0.014162,-0.519789,0.024631,0.477475,-264.465152,1.410904,62.44203
5.0782,0.002134,-0.009887,0.023739,-0.001633,0.008464,-0.021542,0.014806,-0.519959,0.02558,0.552479,-264.465152,1.485908,62.44203
5.0983,0.00208,-0.009835,0.025296,-0.001809,0.009378,-0.023868,0.014482,-0.519835,0.024525,0.552479,-264.465152,1.485908,62.44203
5.119,0.0018,-0.010003,0.025484,-0.001972,0.010221,-0.026015,0.014482,-0.519835,0.024525,0.552479,-264.465152,1.485908,62.44203
5.1383,0.001609,-0.00974,0.025332,-0.00212,0.010991,-0.027974,0.014795,-0.519837,0.025484,0.627596,-264.465152,1.561025,62.442032
5.1593,0.001714,-0.009961,0.025204,-0.002257,0.011701,-0.029781,0.014777,-0.51982,0.025474,0.627596,-264.465152,1.561025,62.442032
5.1788,0.002141,-0.009668,0.026351,-0.002376,0.012315,-0.031344,0.014566,-0.519798,0.025203,0.702492,-264.465156,1.635921,62.44205
5.1987,0.001696,-0.0099,0.024582,-0.002481,0.012859,-0.032729,0.015133,-0.519626,0.025846,0.702492,-264.465156,1.635921,62.44205
5.2184,0.001685,-0.009978,0.02527,-0.002572,0.013335,-0.033941,0.015133,-0.519626,0.025846,0.702492,-264.465156,1.635921,62.44205
5.2383,0.001977,-0.009807,0.023982,-0.00265,0.013738,-0.034967,0.01457,-0.51981,0.025259,0.777594,-264.465179,1.64617,62.44215
5.2587,0.001686,-0.010374,0.024911,-0.002714,0.014068,-0.035805,0.014546,-0.5198,0.025174,0.777594,-264.465179,1.64617,62.44215
5.2782,0.002215,-0.010086,0.025145,-0.002763,0.014326,-0.036462,0.014385,-0.520199,0.024873,0.85249,-264.465275,1.64617,62.442569
5.2983,0.001614,-0.009737,0.024831,-0.002799,0.014507,-0.036924,0.014756,-0.520041,0.025023,0.85249,-264.465275,1.64617,62.442569
5.3183,0.001726,-0.009943,0.027316,-0.00282,0.014617,-0.037204,0.014756,-0.520041,0.025023,0.85249,-264.465275,1.64617,62.442569
5.3386,0.00203,-0.009999,0.023738,-0.002827,0.014654,-0.037297,0.015636,-0.519689,0.027164,0.927485,-264.465571,1.64617,62.443859
5.3586,0.001926,-0.009703,0.023976,-0.00282,0.014617,-0.037203,0.015532,-0.519699,0.026922,0.927485,-264.465571,1.64617,62.443859
5.3785,0.001728,-0.009646,0.024706,-0.002798,0.014507,-0.036923,0.014119,-0.519432,0.023673,1.002488,-264.466301,1.64617,62.447044
5.3984,0.00192,-0.00985,0.024798,-0.002763,0.014323,-0.036456,0.014232,-0.51945,0.024217,1.002488,-264.466301,1.64617,62.447044
5.4184,0.001936,-0.00945,0.024392,-0.002714,0.014068,-0.035805,0.014232,-0.51945,0.024217,1.002488,-264.466301,1.64617,62.447044
5.4386,0.002713,-0.00926,0.023479,-0.00265,0.013736,-0.034962,0.014302,-0.519032,0.023704,1.07753,-264.467726,1.64617,62.45274
5.4588,0.002753,-0.009289,0.022837,-0.002572,0.013335,-0.03394,0.014328,-0.519031,0.023668,1.07753,-264.467726,1.64617,62.45274
5.4784,0.002879,-0.009269,0.02315,-0.00248,0.012859,-0.032728,0.014319,-0.518858,0.022026,1.152616,-264.469929,1.64617,62.460916
5.4985,0.002751,-0.009091,0.022264,-0.002374,0.012307,-0.031325,0.014514,-0.518975,0.022556,1.152616,-264.469929,1.64617,62.460916
5.5183,0.002401,-0.008957,0.021971,-0.002254,0.011687,-0.029746,0.014514,-0.518975,0.022556,1.152616,-264.469929,1.64617,62.460916
5.5382,0.00367,-0.008481,0.021462,-0.00212,0.01099,-0.027973,0.013489,-0.518349,0.020649,1.227487,-264.47273,1.64617,62.471601
5.5586,0.003145,-0.008558,0.01958,-0.001972,0.010221,-0.026013,0.013564,-0.518337,0.020671,1.227487,-264.47273,1.64617,62.471601
5.5788,0.003887,-0.007318,0.020256,-0.001805,0.009355,-0.023811,0.013034,-0.518011,0.018432,1.235994,-264.475471,1.64617,62.483564
5.5985,0.003802,-0.007972,0.019521,-0.001632,0.008458,-0.021528,0.013695,-0.5175,0.019324,1.235994,-264.475471,1.64617,62.483564
5.6188,0.004573,-0.008259,0.020073,-0.001442,0.007474,-0.019023,0.013695,-0.5175,0.019324,1.235994,-264.475471,1.64617,62.483564
5.6383,0.00449,-0.007237,0.019062,-0.001236,0.006406,-0.016304,0.014704,-0.517662,0.018809,1.235994,-264.477871,1.64617,62.494036
5.6585,0.004422,-0.007403,0.017997,-0.001017,0.005271,-0.013417,0.014667,-0.517613,0.018793,1.235994,-264.477871,1.64617,62.494036
5.6782,0.004789,-0.006719,0.016888,-0.000779,0.004036,-0.010274,0.013539,-0.517033,0.017262,1.235994,-264.479626,1.64617,62.501694
5.6982,0.005065,-0.007018,0.018334,-0.000537,0.002784,-0.007086,0.013453,-0.516777,0.016956,1.235994,-264.479626,1.64617,62.501694
5.7184,0.005074,-0.00682,0.017069,-0.000276,0.001429,-0.003636,0.013453,-0.516777,0.016956,1.235994,-264.479626,1.64617,62.501694
5.7387,0.004895,-0.006532,0.015995,0.0,0.0,0.0,0.013725,-0.516491,0.016417,1.235994,-264.480864,1.64617,62.507096
5.7588,0.005595,-0.006477,0.017582,0.0,0.0,0.0,0.013677,-0.516482,0.016371,1.235994,-264.480864,1.64617,62.507096
5.7787,0.005205,-0.006452,0.018154,0.0,0.0,0.0,0.01455,-0.516343,0.017442,1.235994,-264.4812,1.64617,62.508561
5.7983,0.00543,-0.006936,0.01656,0.0,0.0,0.0,0.014499,-0.51635,0.01783,1.235994,-264.4812,1.64617,62.508561
5.8187,0.005063,-0.006507,0.017577,0.0,0.0,0.0,0.014499,-0.51635,0.01783,1.235994,-264.4812,1.64617,62.508561
5.8384,0.005041,-0.00665,0.017098,0.0,0.0,0.0,0.014027,-0.516428,0.017577,1.235994,-264.4812,1.64617,62.508561
5.8586,0.005513,-0.006484,0.01704,0.0,0.0,0.0,0.014007,-0.51644,0.017541,1.235994,-264.4812,1.64617,62.508561
5.8788,0.005454,-0.006462,0.017083,0.0,0.0,0.0,0.014203,-0.51641,0.01704,1.235994,-264.4812,1.64617,62.508561
5.8985,0.004711,-0.006631,0.016829,0.0,0.0,0.0,0.014182,-0.516397,0.017064,1.235994,-264.4812,1.64617,62.508561
5.9186,0.005204,-0.006507,0.017669,0.0,0.0,0.0,0.014182,-0.516397,0.017064,1.235994,-264.4812,1.64617,62.508561
5.9384,0.005586,-0.006455,0.016233,0.0,0.0,0.0,0.014215,-0.516427,0.017669,1.235994,-264.4812,1.64617,62.508561
5.9582,0.005265,-0.00616,0.015242,-6.4e-05,7.7e-05,0.0,0.014188,-0.516424,0.017556,1.235994,-264.4812,1.64617,62.508561
5.9784,0.005275,-0.006682,0.017649,-6.4e-05,7.7e-05,0.0,0.013038,-0.516101,0.015242,1.235994,-264.4812,1.64617,62.508561
5.9984,0.005291,-0.006846,0.015644,-6.4e-05,7.7e-05,0.0,0.013748,-0.516389,0.016624,1.235994,-264.4812,1.64617,62.508561
6.0184,0.005552,-0.006755,0.017291,-6.4e-05,7.7e-05,0.0,0.013748,-0.516389,0.016624,1.235994,-264.4812,1.64617,62.508561
6.0385,0.005305,-0.006289,0.017091,-6.4e-05,7.7e-05,0.0,0.01437,-0.516679,0.017291,1.161241,-264.4812,1.571416,62.508561
6.0582,0.005442,-0.006321,0.017474,-6.4e-05,7.7e-05,0.0,0.014344,-0.516644,0.017276,1.161241,-264.4812,1.571416,62.508561
6.0785,0.005613,-0.006502,0.016059,-6.4e-05,7.7e-05,0.0,0.014353,-0.516243,0.017474,1.086267,-264.4812,1.496443,62.508561
6.0986,0.005284,-0.007047,0.01685,-6.4e-05,7.7e-05,0.0,0.01404,-0.516353,0.016669,1.086267,-264.4812,1.496443,62.508561
6.1189,0.00529,-0.006566,0.017453,-6.4e-05,7.7e-05,0.0,0.01404,-0.516353,0.016669,1.086267,-264.4812,1.496443,62.508561
6.1386,0.005044,-0.006399,0.017873,-6.4e-05,7.7e-05,0.0,0.014191,-0.516488,0.017453,1.011403,-264.4812,1.421578,62.508561
6.1585,0.00548,-0.006265,0.017086,-6.4e-05,7.7e-05,0.0,0.014189,-0.516477,0.017481,1.011403,-264.4812,1.421578,62.508561
6.1782,0.005384,-0.006625,0.016802,-0.000825,0.000985,-0.002443,0.014194,-0.516191,0.017086,0.936406,-264.4812,1.346581,62.508561
6.1984,0.005466,-0.006459,0.016336,-0.001562,0.001866,-0.004628,0.014056,-0.516397,0.016924,0.936406,-264.4812,1.346581,62.508561
6.2185,0.005578,-0.006578,0.017067,-0.002279,0.002722,-0.006751,0.014056,-0.516397,0.016924,0.936406,-264.4812,1.346581,62.508561
6.2387,0.005503,-0.006342,0.015847,-0.00296,0.003535,-0.008767,0.014282,-0.516504,0.017067,0.861347,-264.4812,1.271523,62.508561
6.2587,0.005503,-0.006792,0.017552,-0.003595,0.004293,-0.010649,0.014233,-0.516488,0.016981,0.861347,-264.4812,1.271523,62.508561
6.2784,0.005528,-0.006792,0.015685,-0.004191,0.005005,-0.012415,0.014454,-0.516713,0.017552,0.786271,-264.4812,1.196446,62.50856
6.2986,0.005335,-0.006785,0.017251,-0.004746,0.005667,-0.014057,0.013927,-0.516722,0.01649,0.786271,-264.4812,1.196446,62.50856
6.3188,0.005164,-0.006866,0.018067,-0.00526,0.006281,-0.01558,0.013927,-0.516722,0.01649,0.786271,-264.4812,1.196446,62.50856
6.3388,0.005196,-0.00666,0.015155,-0.005733,0.006846,-0.016981,0.014378,-0.516783,0.018067,0.711387,-264.4812,1.121562,62.50856
6.3585,0.005619,-0.006497,0.017212,-0.006164,0.007361,-0.018258,0.014278,-0.51677,0.017867,0.711387,-264.4812,1.121562,62.50856
6.3784,0.005678,-0.006691,0.016094,-0.006556,0.007829,-0.019418,0.014397,-0.516421,0.017212,0.636387,-264.4812,1.046562,62.50856
6.3983,0.005244,-0.006702,0.01746,-0.00691,0.008252,-0.020468,0.014103,-0.516538,0.01657,0.636387,-264.4812,1.046562,62.50856
6.4183,0.005045,-0.006507,0.016804,-0.007213,0.008613,-0.021364,0.014103,-0.516538,0.01657,0.636387,-264.4812,1.046562,62.50856
6.4384,0.004988,-0.00662,0.017921,-0.00748,0.008932,-0.022156,0.013614,-0.516435,0.016804,0.561231,-264.481201,0.971407,62.508559
6.4583,0.005192,-0.006748,0.015361,-0.007707,0.009203,-0.022827,0.013649,-0.516442,0.016879,0.561231,-264.481201,0.971407,62.508559
6.4783,0.005464,-0.006363,0.016346,-0.007891,0.009424,-0.023375,0.013026,-0.516688,0.015361,0.5513,-264.481201,0.896568,62.508558
6.4984,0.005255,-0.006783,0.015428,-0.008035,0.009596,-0.023801,0.01347,-0.516462,0.015926,0.5513,-264.481201,0.896568,62.508558
6.5184,0.004979,-0.006691,0.015965,-0.008138,0.009718,-0.024105,0.01347,-0.516462,0.015926,0.5513,-264.481201,0.896568,62.508558
6.5383,0.005015,-0.007048,0.017119,-0.0082,0.009792,-0.024288,0.013121,-0.516626,0.015966,0.5513,-264.481201,0.821426,62.508557
6.5588,0.00512,-0.006761,0.017104,-0.00822,0.009817,-0.02435,0.013162,-0.516649,0.016042,0.5513,-264.481201,0.821426,62.508557
6.5787,0.005223,-0.006706,0.018174,-0.008199,0.009791,-0.024286,0.013843,-0.516687,0.017104,0.5513,-264.481202,0.746573,62.508556
6.5985,0.005287,-0.006842,0.01574,-0.008139,0.009719,-0.024107,0.014212,-0.51665,0.017713,0.5513,-264.481202,0.746573,62.508556
6.6186,0.004895,-0.006482,0.015414,-0.008036,0.009596,-0.023802,0.014212,-0.51665,0.017713,0.5513,-264.481202,0.746573,62.508556
6.6386,0.004997,-0.006447,0.01651,-0.007892,0.009425,-0.023377,0.012755,-0.516422,0.015414,0.5513,-264.481202,0.671518,62.508555
6.6586,0.005274,-0.006553,0.015411,-0.007707,0.009203,-0.022828,0.0128,-0.516419,0.015488,0.5513,-264.481202,0.671518,62.508555
6.6786,0.005426,-0.006228,0.016414,-0.007481,0.008934,-0.02216,0.013134,-0.516492,0.015411,0.5513,-264.481202,0.596562,62.508554
6.6983,0.00534,-0.006455,0.016939,-0.007215,0.008616,-0.02137,0.013511,-0.516303,0.015982,0.5513,-264.481202,0.596562,62.508554
6.7182,0.005122,-0.006603,0.016944,-0.006906,0.008247,-0.020457,0.013511,-0.516303,0.015982,0.5513,-264.481202,0.596562,62.508554
6.7384,0.005214,-0.006555,0.017692,-0.006557,0.00783,-0.019422,0.013762,-0.51653,0.016944,0.5513,-264.481203,0.521522,62.508553
6.7586,0.005105,-0.006837,0.016602,-0.006167,0.007364,-0.018266,0.013795,-0.516526,0.016996,0.5513,-264.481203,0.521522,62.508553
6.7783,0.005507,-0.006298,0.017034,-0.005735,0.006848,-0.016987,0.013571,-0.516767,0.016602,0.5513,-264.481203,0.446574,62.508552
6.7983,0.005452,-0.006784,0.017837,-0.005262,0.006283,-0.015585,0.013926,-0.516458,0.016848,0.5513,-264.481203,0.446574,62.508552
6.8185,0.005556,-0.006422,0.016971,-0.004749,0.005671,-0.014067,0.013926,-0.516458,0.016848,0.5513,-264.481203,0.446574,62.508552
6.8385,0.005319,-0.006469,0.015168,-0.004192,0.005006,-0.012416,0.014211,-0.516348,0.016971,0.5513,-264.481203,0.371528,62.508552
6.8586,0.005213,-0.006554,0.016069,-0.003597,0.004296,-0.010655,0.014131,-0.516353,0.016847,0.5513,-264.481203,0.371528,62.508552
6.8786,0.005734,-0.006611,0.016184,-0.002961,0.003536,-0.008771,0.013408,-0.516488,0.016069,0.5513,-264.481204,0.296557,62.508551
6.8989,0.005228,-0.006398,0.016748,-0.002278,0.00272,-0.006746,0.013739,-0.51652,0.016135,0.5513,-264.481204,0.296557,62.508551
6.9183,0.005295,-0.006584,0.016093,-0.001564,0.001868,-0.004633,0.013739,-0.51652,0.016135,0.5513,-264.481204,0.296557,62.508551
6.9383,0.005398,-0.006367,0.015908,-0.000804,0.00096,-0.002382,0.013502,-0.516518,0.016093,0.5513,-264.481204,0.221466,62.50855
6.9585,0.005492,-0.006674,0.016495,0.0,0.0,0.0,0.013502,-0.516504,0.016081,0.5513,-264.481204,0.221466,62.50855
6.9786,0.005125,-0.006654,0.016412,0.0,0.0,0.0,0.013904,-0.516604,0.016495,0.5513,-264.481204,0.146563,62.50855
6.9983,0.005357,-0.006471,0.015982,0.0,0.0,0.0,0.013671,-0.516594,0.016448,0.5513,-264.481204,0.146563,62.50855
7.0183,0.004528,-0.006607,0.017479,0.0,0.0,0.0,0.013671,-0.516594,0.016448,0.5513,-264.481204,0.146563,62.50855
7.0384,0.005338,-0.006929,0.017844,0.0,0.0,0.0,0.013442,-0.516529,0.017479,0.5513,-264.481204,0.146563,62.50855
7.0584,0.005434,-0.006572,0.016659,0.0,0.0,0.0,0.013512,-0.516552,0.017505,0.5513,-264.481204,0.146563,62.50855
7.0784,0.005209,-0.006255,0.016416,0.0,0.0,0.0,0.013929,-0.516501,0.016659,0.5513,-264.481204,0.146563,62.50855
7.0983,0.005271,-0.006667,0.017092,0.0,0.0,0.0,0.013732,-0.516323,0.016521,0.5513,-264.481204,0.146563,62.50855
7.1184,0.005201,-0.006418,0.014936,0.0,0.0,0.0,0.013732,-0.516323,0.016521,0.5513,-264.481204,0.146563,62.50855
7.1383,0.005279,-0.006649,0.017138,0.0,0.0,0.0,0.012818,-0.516361,0.014936,0.5513,-264.481204,0.146563,62.50855
7.1587,0.005484,-0.006724,0.016168,0.0,0.0,0.0,0.012904,-0.516376,0.015093,0.5513,-264.481204,0.146563,62.50855
7.1785,0.005486,-0.006486,0.01685,0.0,0.0,0.0,0.013729,-0.516658,0.016168,0.5513,-264.481204,0.146563,62.50855
7.1984,0.005165,-0.006764,0.016414,-6.3e-05,7.7e-05,0.0,0.013927,-0.516519,0.016554,0.5513,-264.481204,0.146563,62.50855
7.219,0.005062,-0.006663,0.016986,-6.3e-05,7.7e-05,0.0,0.013927,-0.516519,0.016554,0.5513,-264.481204,0.146563,62.50855
7.2387,0.005479,-0.006447,0.01621,-6.3e-05,7.7e-05,0.0,0.013725,-0.516589,0.016986,0.5513,-264.481204,0.146563,62.50855
7.2587,0.005546,-0.006614,0.018201,-6.3e-05,7.7e-05,0.0,0.013726,-0.516576,0.016935,0.5513,-264.481204,0.146563,62.50855
7.2788,0.005019,-0.006195,0.016258,-6.3e-05,7.7e-05,0.0,0.014828,-0.516529,0.018201,0.476349,-264.481204,0.071612,62.50855
7.2985,0.005524,-0.006627,0.015939,-6.3e-05,7.7e-05,0.0,0.013968,-0.516302,0.017101,0.476349,-264.481204,0.071612,62.50855
7.3185,0.005306,-0.006699,0.015919,-6.3e-05,7.7e-05,0.0,0.013968,-0.516302,0.017101,0.476349,-264.481204,0.071612,62.50855
7.3384,0.005297,-0.006239,0.017076,-6.3e-05,7.7e-05,0.0,0.013425,-0.516634,0.015919,0.401311,-264.481204,-0.003427,62.50855
7.3585,0.005418,-0.006685,0.016206,-6.3e-05,7.7e-05,0.0,0.013464,-0.516603,0.015998,0.401311,-264.481204,-0.003427,62.50855
7.3785,0.005166,-0.006511,0.015758,-6.3e-05,7.7e-05,0.0,0.013682,-0.516618,0.016206,0.326354,-264.481204,-0.078383,62.50855
7.3985,0.005093,-0.007044,0.016872,-6.3e-05,7.7e-05,0.0,0.013399,-0.516517,0.015942,0.326354,-264.481204,-0.078383,62.50855
7.4186,0.005092,-0.006529,0.016528,-0.000785,0.00096,-0.00246,0.013399,-0.516517,0.015942,0.326354,-264.481204,-0.078383,62.50855
7.4389,0.005435,-0.006774,0.01654,-0.001531,0.001874,-0.0048,0.013521,-0.51646,0.016528,0.250605,-264.481204,-0.154132,62.50855
7.4588,0.005225,-0.006802,0.016547,-0.002236,0.002736,-0.007009,0.013549,-0.51648,0.016529,0.250605,-264.481204,-0.154132,62.50855
7.4786,0.005396,-0.006545,0.01661,-0.002901,0.00355,-0.009094,0.013663,-0.516733,0.016547,0.325466,-264.481204,-0.228993,62.50855
7.4983,0.005134,-0.006385,0.016594,-0.003527,0.004315,-0.011055,0.013779,-0.516586,0.016583,0.325466,-264.481204,-0.228993,62.50855
7.5182,0.005418,-0.006464,0.015781,-0.004113,0.005033,-0.012893,0.013779,-0.516586,0.016583,0.325466,-264.481204,-0.228993,62.50855
7.5389,0.005563,-0.00679,0.016855,-0.004655,0.005696,-0.014593,0.013466,-0.516401,0.015781,0.399979,-264.481204,-0.303506,62.50855
7.5584,0.005025,-0.006539,0.017058,-0.00516,0.006314,-0.016176,0.013513,-0.516422,0.015854,0.399979,-264.481204,-0.303506,62.50855
7.5785,0.005289,-0.006718,0.01781,-0.005624,0.006881,-0.017628,0.013724,-0.516464,0.017058,0.474862,-264.481204,-0.378389,62.50855
7.5984,0.005144,-0.006653,0.016801,-0.006048,0.007401,-0.018959,0.01409,-0.516562,0.017483,0.474862,-264.481204,-0.378389,62.50855
7.6184,0.005603,-0.006698,0.016996,-0.00643,0.007868,-0.020157,0.01409,-0.516562,0.017483,0.474862,-264.481204,-0.378389,62.50855
7.639,0.005756,-0.006799,0.016961,-0.006773,0.008288,-0.021231,0.014271,-0.516625,0.016996,0.549854,-264.481204,-0.45338,62.508549
7.659,0.005356,-0.006737,0.016133,-0.007075,0.008657,-0.022177,0.014279,-0.516631,0.016994,0.549854,-264.481204,-0.45338,62.508549
7.6784,0.005078,-0.006179,0.017995,-0.00734,0.008981,-0.023007,0.013584,-0.51667,0.016133,0.604571,-264.481204,-0.528413,62.508549
7.6989,0.005083,-0.006726,0.015917,-0.007559,0.009249,-0.023694,0.013968,-0.516342,0.0172,0.604571,-264.481204,-0.528413,62.508549
7.7204,0.005152,-0.006448,0.016365,-0.007742,0.009473,-0.024267,0.013968,-0.516342,0.0172,0.604571,-264.481204,-0.528413,62.508549
7.7388,0.005244,-0.006825,0.015926,-0.007882,0.009644,-0.024707,0.013497,-0.51638,0.016365,0.604571,-264.481205,-0.603629,62.508547
7.7583,0.005274,-0.00689,0.017505,-0.007983,0.009767,-0.025022,0.013489,-0.516403,0.016337,0.604571,-264.481205,-0.603629,62.508547
7.7784,0.005283,-0.007269,0.016334,-0.008043,0.009841,-0.025211,0.014201,-0.516812,0.017505,0.604571,-264.481207,-0.67839,62.50854
7.7983,0.005824,-0.006589,0.017832,-0.008063,0.009866,-0.025275,0.013867,-0.517033,0.01684,0.604571,-264.481207,-0.67839,62.50854
7.8186,0.005288,-0.006408,0.01761,-0.008043,0.009841,-0.025212,0.013867,-0.517033,0.01684,0.604571,-264.481207,-0.67839,62.50854
7.8389,0.005186,-0.006815,0.018949,-0.007983,0.009767,-0.025022,0.014266,-0.516328,0.017607,0.604571,-264.48122,-0.753435,62.508507
7.8584,0.005066,-0.006354,0.016729,-0.007882,0.009644,-0.024705,0.014297,-0.516348,0.017677,0.604571,-264.48122,-0.753435,62.508507
7.8789,0.00484,-0.006425,0.01719,-0.007741,0.009472,-0.024265,0.013591,-0.516279,0.016719,0.604571,-264.481271,-0.828383,62.508368
7.8983,0.005292,-0.006342,0.017207,-0.00756,0.00925,-0.023696,0.013599,-0.516319,0.016983,0.604571,-264.481271,-0.828383,62.508368
7.9182,0.005148,-0.006666,0.015687,-0.007338,0.008979,-0.023001,0.013599,-0.516319,0.016983,0.604571,-264.481271,-0.828383,62.508368
7.9386,0.005124,-0.006521,0.016275,-0.007077,0.008659,-0.022182,0.013121,-0.516587,0.015641,0.604571,-264.481442,-0.903384,62.507904
7.9583,0.005689,-0.006418,0.016321,-0.006774,0.008288,-0.021232,0.013143,-0.516577,0.015687,0.604571,-264.481442,-0.903384,62.507904
7.9787,0.005473,-0.006363,0.015489,-0.00643,0.007868,-0.020156,0.013963,-0.516316,0.016225,0.604571,-264.481875,-0.978603,62.506733
7.9989,0.005071,-0.006373,0.01698,-0.006048,0.007401,-0.018959,0.013624,-0.516304,0.015797,0.604571,-264.481875,-0.978603,62.506733
8.0189,0.005343,-0.006505,0.015897,-0.005626,0.006883,-0.017634,0.013624,-0.516304,0.015797,0.604571,-264.481875,-0.978603,62.506733
8.0383,0.00502,-0.006501,0.015814,-0.005159,0.006312,-0.016171,0.013331,-0.516345,0.015637,0.604571,-264.48277,-1.053376,62.504306
8.0585,0.005481,-0.006593,0.015323,-0.004657,0.005698,-0.014598,0.013309,-0.516349,0.015643,0.604571,-264.48277,-1.053376,62.504306
8.0786,0.005236,-0.006053,0.016367,-0.004112,0.005031,-0.012889,0.013165,-0.516412,0.015001,0.604571,-264.484118,-1.128652,62.500652
8.0983,0.005734,-0.006136,0.014029,-0.003529,0.004318,-0.011063,0.013384,-0.516155,0.015732,0.604571,-264.484118,-1.128652,62.500652
8.1186,0.005144,-0.006161,0.015372,-0.002903,0.003553,-0.009101,0.013384,-0.516155,0.015732,0.604571,-264.484118,-1.128652,62.500652
8.1389,0.005457,-0.006257,0.016442,-0.002239,0.00274,-0.007019,0.012794,-0.515901,0.014847,0.604571,-264.485825,-1.203402,62.496029
8.1584,0.005493,-0.006113,0.015497,-0.001533,0.001876,-0.004806,0.012868,-0.515917,0.014953,0.604571,-264.485825,-1.203402,62.496029
8.1788,0.00546,-0.005881,0.01371,-0.000787,0.000963,-0.002468,0.013288,-0.515924,0.015166,0.604571,-264.487155,-1.262298,62.492425
8.1986,0.005971,-0.006029,0.014075,-3e-06,4e-06,-9e-06,0.012801,-0.515856,0.0143,0.604571,-264.487155,-1.262298,62.492425
8.2185,0.005771,-0.00607,0.015397,0.0,0.0,0.0,0.012801,-0.515856,0.0143,0.604571,-264.487155,-1.262298,62.492425
8.2389,0.005619,-0.005835,0.015578,0.0,0.0,0.0,0.013547,-0.515919,0.015163,0.604571,-264.4879,-1.262298,62.490405
8.2589,0.005464,-0.005565,0.01525,0.0,0.0,0.0,0.013546,-0.515907,0.015184,0.604571,-264.4879,-1.262298,62.490405
8.2783,0.005738,-0.00618,0.015537,0.0,0.0,0.0,0.013241,-0.515506,0.01525,0.604571,-264.4879,-1.262298,62.490405
8.2983,0.005412,-0.005688,0.014288,0.0,0.0,0.0,0.01348,-0.515853,0.015413,0.604571,-264.4879,-1.262298,62.490405
8.3185,0.005262,-0.005604,0.012987,0.0,0.0,0.0,0.01348,-0.515853,0.015413,0.604571,-264.4879,-1.262298,62.490405
8.3384,0.005161,-0.006153,0.015142,0.0,0.0,0.0,0.011886,-0.515561,0.012987,0.604571,-264.4879,-1.262298,62.490405
8.3583,0.005643,-0.005483,0.015206,0.0,0.0,0.0,0.011968,-0.515606,0.013166,0.604571,-264.4879,-1.262298,62.490405
8.3786,0.005544,-0.005928,0.015976,0.0,0.0,0.0,0.013398,-0.515425,0.015206,0.604571,-264.4879,-1.262298,62.490405
8.3994,0.005429,-0.005853,0.015068,0.0,0.0,0.0,0.013565,-0.515673,0.015643,0.604571,-264.4879,-1.262298,62.490405
8.4188,0.005552,-0.00573,0.01618,0.0,0.0,0.0,0.013565,-0.515673,0.015643,0.604571,-264.4879,-1.262298,62.490405
8.4393,0.00561,-0.005513,0.014788,-6.8e-05,7.3e-05,0.0,0.013803,-0.515664,0.01618,0.604571,-264.4879,-1.262298,62.490405
8.4588,0.006071,-0.006072,0.013865,-6.8e-05,7.3e-05,0.0,0.013755,-0.515648,0.016076,0.604571,-264.4879,-1.262298,62.490405
8.4782,0.005845,-0.006079,0.015531,-6.8e-05,7.3e-05,0.0,0.013142,-0.516023,0.013865,0.604571,-264.4879,-1.262298,62.490405
8.4986,0.005528,-0.005709,0.014359,-6.8e-05,7.3e-05,0.0,0.013499,-0.51602,0.014818,0.604571,-264.4879,-1.262298,62.490405
8.5183,0.005767,-0.005436,0.015459,-6.8e-05,7.3e-05,0.0,0.013499,-0.51602,0.014818,0.604571,-264.4879,-1.262298,62.490405
8.5387,0.005345,-0.00585,0.014071,-6.8e-05,7.3e-05,0.0,0.013651,-0.515375,0.015459,0.529888,-264.4879,-1.187615,62.490405
8.5594,0.005293,-0.006398,0.013949,-6.8e-05,7.3e-05,0.0,0.013568,-0.515406,0.015357,0.529888,-264.4879,-1.187615,62.490405
8.5782,0.005258,-0.00568,0.014954,-6.8e-05,7.3e-05,0.0,0.012407,-0.516348,0.013949,0.45492,-264.4879,-1.112646,62.490405
8.5982,0.005399,-0.005864,0.012614,-6.8e-05,7.3e-05,0.0,0.012679,-0.515935,0.014522,0.45492,-264.4879,-1.112646,62.490405
8.6184,0.005747,-0.00547,0.015408,-6.8e-05,7.3e-05,0.0,0.012679,-0.515935,0.014522,0.45492,-264.4879,-1.112646,62.490405
8.6384,0.005627,-0.005848,0.014505,-6.8e-05,7.3e-05,0.0,0.013604,-0.515409,0.015408,0.379941,-264.4879,-1.037668,62.490405
8.6587,0.005472,-0.006093,0.016524,-0.000794,0.000846,-0.002353,0.013564,-0.515436,0.015345,0.379941,-264.4879,-1.037668,62.490405
8.6784,0.005432,-0.006103,0.014797,-0.001553,0.001655,-0.004602,0.013899,-0.516023,0.016524,0.305046,-264.4879,-0.962773,62.490405
8.6985,0.005521,-0.005538,0.014889,-0.002268,0.002418,-0.006722,0.013371,-0.516037,0.015534,0.305046,-264.4879,-0.962773,62.490405
8.7186,0.005575,-0.006015,0.014853,-0.002946,0.00314,-0.008731,0.013371,-0.516037,0.015534,0.305046,-264.4879,-0.962773,62.490405
8.7383,0.005506,-0.00594,0.01506,-0.003578,0.003815,-0.010607,0.013147,-0.515957,0.014849,0.380166,-264.487919,-1.037893,62.490359
8.7587,0.005489,-0.005532,0.01608,-0.004174,0.004449,-0.012371,0.01315,-0.515951,0.014866,0.380166,-264.487919,-1.037893,62.490359
8.7789,0.005566,-0.005906,0.013983,-0.004734,0.005046,-0.014031,0.013664,-0.515444,0.016026,0.455593,-264.488179,-1.11332,62.489724
8.7984,0.005422,-0.005802,0.015897,-0.005237,0.005584,-0.015524,0.013112,-0.515675,0.014859,0.455593,-264.488179,-1.11332,62.489724
8.8182,0.005727,-0.005681,0.013559,-0.005708,0.006086,-0.016919,0.013112,-0.515675,0.014859,0.455593,-264.488179,-1.11332,62.489724
8.8392,0.005554,-0.005476,0.012793,-0.006147,0.006553,-0.018219,0.012539,-0.515534,0.013298,0.530028,-264.489125,-1.187755,62.487413
8.8587,0.005709,-0.005832,0.013483,-0.006529,0.00696,-0.019352,0.012504,-0.515524,0.013256,0.530028,-264.489125,-1.187755,62.487413
8.8783,0.005756,-0.00549,0.014933,-0.006876,0.007331,-0.020382,0.012416,-0.51563,0.013021,0.605056,-264.491387,-1.23621,62.482597
8.8985,0.005586,-0.005604,0.014824,-0.007184,0.007659,-0.021294,0.012939,-0.515498,0.014051,0.605056,-264.491387,-1.23621,62.482597
8.9192,0.00603,-0.005454,0.014911,-0.007451,0.007944,-0.022086,0.012939,-0.515498,0.014051,0.605056,-264.491387,-1.23621,62.482597
8.9387,0.006171,-0.005169,0.01166,-0.007675,0.008183,-0.02275,0.013328,-0.515098,0.014033,0.63978,-264.494592,-1.23621,62.475253
8.9583,0.006089,-0.005065,0.012658,-0.007859,0.008379,-0.023296,0.013227,-0.515092,0.013827,0.63978,-264.494592,-1.23621,62.475253
8.9783,0.005878,-0.004907,0.012119,-0.008003,0.008532,-0.023721,0.012254,-0.514722,0.011809,0.63978,-264.498296,-1.23621,62.466207
8.9983,0.005982,-0.004854,0.012367,-0.008106,0.008642,-0.024026,0.012106,-0.514768,0.011879,0.63978,-264.498296,-1.23621,62.466207
9.0184,0.005871,-0.00485,0.011968,-0.008167,0.008707,-0.024209,0.012106,-0.514768,0.011879,0.63978,-264.498296,-1.23621,62.466207
9.0383,0.006358,-0.004235,0.011286,-0.008188,0.008729,-0.024269,0.011589,-0.514411,0.010837,0.63978,-264.502208,-1.23621,62.456649
9.0582,0.00638,-0.004262,0.010437,-0.008168,0.008708,-0.02421,0.011615,-0.514386,0.010838,0.63978,-264.502208,-1.23621,62.456649
9.0784,0.00633,-0.003806,0.009636,-0.008106,0.008642,-0.024028,0.011384,-0.513901,0.009502,0.63978,-264.506288,-1.23621,62.44668
9.0985,0.00653,-0.003891,0.008847,-0.008005,0.008534,-0.023726,0.011264,-0.513791,0.009461,0.63978,-264.506288,-1.23621,62.44668
9.1182,0.00642,-0.003968,0.009748,-0.007862,0.008381,-0.023302,0.011264,-0.513791,0.009461,0.63978,-264.506288,-1.23621,62.44668
9.1384,0.006909,-0.003233,0.007224,-0.007678,0.008185,-0.022757,0.010992,-0.513525,0.008574,0.63978,-264.510358,-1.23621,62.436739
9.1587,0.007019,-0.003237,0.006198,-0.007453,0.007945,-0.02209,0.010952,-0.513491,0.008443,0.63978,-264.510358,-1.23621,62.436739
9.1783,0.00694,-0.003111,0.006917,-0.007186,0.007661,-0.0213,0.009875,-0.512906,0.0053,0.63978,-264.51428,-1.23621,62.427157
9.1987,0.006569,-0.002658,0.005929,-0.00688,0.007334,-0.020392,0.010175,-0.512975,0.006111,0.63978,-264.51428,-1.23621,62.427157
9.2186,0.006769,-0.002983,0.008654,-0.006531,0.006962,-0.019358,0.010175,-0.512975,0.006111,0.63978,-264.51428,-1.23621,62.427157
9.2382,0.006813,-0.002654,0.006718,-0.006141,0.006547,-0.018203,0.010818,-0.512581,0.007581,0.63978,-264.518006,-1.23621,62.418053
9.2584,0.006987,-0.002511,0.005085,-0.005714,0.006092,-0.016936,0.010761,-0.512575,0.007481,0.63978,-264.518006,-1.23621,62.418053
9.2784,0.007246,-0.002396,0.004623,-0.005233,0.005579,-0.01551,0.009329,-0.512238,0.004342,0.63978,-264.521252,-1.23621,62.410123
9.2985,0.006893,-0.002099,0.003188,-0.004725,0.005038,-0.014007,0.009454,-0.512291,0.004408,0.63978,-264.521252,-1.23621,62.410123
9.3185,0.006928,-0.001982,0.004928,-0.004176,0.004452,-0.012379,0.009454,-0.512291,0.004408,0.63978,-264.521252,-1.23621,62.410123
9.3383,0.006933,-0.002035,0.003578,-0.003584,0.003821,-0.010625,0.009163,-0.511681,0.004106,0.63978,-264.524117,-1.23621,62.403124
9.3582,0.007308,-0.002238,0.005138,-0.002952,0.003147,-0.00875,0.009119,-0.511702,0.004034,0.63978,-264.524117,-1.23621,62.403124
9.3784,0.007039,-0.001521,0.002487,-0.002273,0.002423,-0.006736,0.009768,-0.512062,0.004665,0.63978,-264.526186,-1.23621,62.398071
9.3982,0.00729,-0.001732,0.003579,-0.001561,0.001664,-0.004626,0.008914,-0.511731,0.003361,0.63978,-264.526186,-1.23621,62.398071
9.4183,0.007568,-0.001371,0.003516,-0.000802,0.000855,-0.002377,0.008914,-0.511731,0.003361,0.63978,-264.526186,-1.23621,62.398071
9.4384,0.00769,-0.001249,0.003132,-5e-06,5e-06,-1.5e-05,0.009218,-0.511216,0.003092,0.63978,-264.527657,-1.23621,62.394477
9.4587,0.007314,-0.001536,0.002955,0.0,0.0,0.0,0.009219,-0.511214,0.003083,0.63978,-264.527657,-1.23621,62.394477
9.4789,0.007971,-0.001368,0.00107,0.0,0.0,0.0,0.00879,-0.5115,0.002863,0.63978,-264.528057,-1.23621,62.3935
9.4983,0.007521,-0.001701,0.002009,0.0,0.0,0.0,0.00863,-0.511421,0.001833,0.63978,-264.528057,-1.23621,62.3935
9.5184,0.007733,-0.001651,0.002962,0.0,0.0,0.0,0.00863,-0.511421,0.001833,0.63978,-264.528057,-1.23621,62.3935
9.5386,0.007479,-0.001622,0.003715,0.0,0.0,0.0,0.009244,-0.511649,0.002962,0.63978,-264.528057,-1.23621,62.3935
9.5584,0.007626,-0.001706,0.001883,0.0,0.0,0.0,0.009253,-0.511647,0.003012,0.63978,-264.528057,-1.23621,62.3935
9.5786,0.007558,-0.001704,0.002759,0.0,0.0,0.0,0.008586,-0.511705,0.001883,0.63978,-264.528057,-1.23621,62.3935
9.5984,0.007209,-0.001605,0.001122,0.0,0.0,0.0,0.008801,-0.511703,0.00238,0.63978,-264.528057,-1.23621,62.3935
9.6187,0.007287,-0.00184,0.002985,0.0,0.0,0.0,0.008801,-0.511703,0.00238,0.63978,-264.528057,-1.23621,62.3935
9.6385,0.007551,-0.001578,0.003009,0.0,0.0,0.0,0.008809,-0.511837,0.002985,0.63978,-264.528057,-1.23621,62.3935
9.6599,0.007568,-0.001508,0.004169,-9.8e-05,2.1e-05,0.0,0.00883,-0.511818,0.002986,0.63978,-264.528057,-1.23621,62.3935
9.6788,0.007575,-0.001255,0.002846,-9.8e-05,2.1e-05,0.0,0.009694,-0.511503,0.004169,0.63978,-264.528057,-1.23621,62.3935
9.699,0.007254,-0.001563,0.004901,-9.8e-05,2.1e-05,0.0,0.009325,-0.511365,0.003437,0.63978,-264.528057,-1.23621,62.3935
9.7194,0.007544,-0.001655,0.002796,-9.8e-05,2.1e-05,0.0,0.009325,-0.511365,0.003437,0.63978,-264.528057,-1.23621,62.3935
9.7388,0.007331,-0.001599,0.002943,-9.8e-05,2.1e-05,0.0,0.00897,-0.511653,0.002796,0.565023,-264.528057,-1.161453,62.3935
9.7585,0.007655,-0.001813,0.000568,-9.8e-05,2.1e-05,0.0,0.008963,-0.511651,0.002803,0.565023,-264.528057,-1.161453,62.3935
9.7788,0.007534,-0.001369,0.00334,-9.8e-05,2.1e-05,0.0,0.007945,-0.511813,0.000568,0.490093,-264.528057,-1.086524,62.3935
9.7985,0.007665,-0.001535,0.002251,-9.8e-05,2.1e-05,0.0,0.008681,-0.511559,0.002147,0.490093,-264.528057,-1.086524,62.3935
9.8187,0.007543,-0.00188,0.002318,-9.8e-05,2.1e-05,0.0,0.008681,-0.511559,0.002147,0.490093,-264.528057,-1.086524,62.3935
9.8384,0.007343,-0.001631,0.003309,-9.8e-05,2.1e-05,0.0,0.008726,-0.511878,0.002318,0.41497,-264.528057,-1.011401,62.3935
9.8586,0.007606,-0.001255,0.003405,-9.8e-05,2.1e-05,0.0,0.008747,-0.511861,0.002387,0.41497,-264.528057,-1.011401,62.3935
9.8786,0.007493,-0.001589,0.00144,-0.001097,0.000233,-0.000437,0.009342,-0.511252,0.003405,0.339787,-264.528057,-0.936217,62.3935
9.8985,0.007132,-0.001574,0.003689,-0.002143,0.000455,-0.000854,0.008705,-0.511445,0.002281,0.339787,-264.528057,-0.936217,62.3935
9.9187,0.007877,-0.001299,0.002516,-0.003133,0.000665,-0.001249,0.008705,-0.511445,0.002281,0.339787,-264.528057,-0.936217,62.3935
9.9385,0.007333,-0.001563,0.002067,-0.004068,0.000863,-0.001622,0.00916,-0.511298,0.002516,0.265001,-264.528057,-0.861432,62.3935
9.9588,0.007818,-0.001687,0.002678,-0.004945,0.001049,-0.001972,0.009103,-0.511317,0.002483,0.265001,-264.528057,-0.861432,62.3935
9.9782,0.00801,-0.001472,0.003523,-0.005768,0.001224,-0.0023,0.009182,-0.511684,0.002676,0.189972,-264.52808,-0.786402,62.393474
9.9982,0.007498,-0.00164,0.002437,-0.006531,0.001385,-0.002604,0.00954,-0.511561,0.003162,0.189972,-264.52808,-0.786402,62.393474
10.0183,0.007177,-0.001866,0.002005,-0.00724,0.001536,-0.002887,0.00954,-0.511561,0.003162,0.189972,-264.52808,-0.786402,62.393474
10.0383,0.007516,-0.001458,0.004212,-0.007891,0.001674,-0.003146,0.008182,-0.511859,0.001992,0.114966,-264.528241,-0.711397,62.393298
10.0584,0.00736,-0.001482,0.002536,-0.008485,0.0018,-0.003384,0.008282,-0.511831,0.002142,0.114966,-264.528241,-0.711397,62.393298
10.0784,0.007317,-0.001536,0.002244,-0.009027,0.001915,-0.003599,0.008589,-0.51146,0.002497,0.040103,-264.528943,-0.636533,62.392526
10.0985,0.006896,-0.001465,0.003446,-0.009508,0.002017,-0.003791,0.008508,-0.5115,0.002348,0.040103,-264.528943,-0.636533,62.392526
10.1184,0.007694,-0.001684,0.002878,-0.00993,0.002107,-0.003959,0.008508,-0.5115,0.002348,0.040103,-264.528943,-0.636533,62.392526
10.1388,0.00747,-0.001442,0.003112,-0.010298,0.002185,-0.004106,0.008965,-0.511626,0.002775,0.031383,-264.530617,-0.56137,62.390687
10.1586,0.007107,-0.001146,0.001828,-0.01061,0.002251,-0.004231,0.008966,-0.511613,0.002795,0.031383,-264.530617,-0.56137,62.390687
10.1785,0.007032,-0.001257,0.001804,-0.010866,0.002305,-0.004333,0.007755,-0.511076,0.001699,0.031383,-264.533599,-0.486539,62.387413
10.1985,0.006977,-0.001503,0.00193,-0.011064,0.002347,-0.004412,0.00783,-0.511169,0.001742,0.031383,-264.533599,-0.486539,62.387413
10.2188,0.006848,-0.001357,0.003383,-0.011206,0.002377,-0.004468,0.00783,-0.511169,0.001742,0.031383,-264.533599,-0.486539,62.387413
10.2388,0.006313,-0.001415,0.001928,-0.011291,0.002395,-0.004502,0.008085,-0.511252,0.003188,0.031383,-264.537614,-0.427566,62.383002
10.2586,0.006637,-0.001425,0.002098,-0.01132,0.002401,-0.004514,0.008022,-0.51126,0.003102,0.031383,-264.537614,-0.427566,62.383002
10.2789,0.005582,-0.001041,0.002024,-0.011292,0.002395,-0.004503,0.007274,-0.511333,0.001926,0.031383,-264.542105,-0.427566,62.37807
10.2984,0.00612,-0.001498,0.002133,-0.011207,0.002378,-0.004469,0.006842,-0.511154,0.00196,0.031383,-264.542105,-0.427566,62.37807
10.3183,0.006408,-0.001232,0.001621,-0.011066,0.002348,-0.004413,0.006842,-0.511154,0.00196,0.031383,-264.542105,-0.427566,62.37807
10.3384,0.005663,-0.001142,0.003243,-0.010868,0.002306,-0.004334,0.006685,-0.511116,0.001402,0.031383,-264.546634,-0.427566,62.373094
10.3587,0.0054,-0.00119,0.001713,-0.010615,0.002252,-0.004233,0.006714,-0.511114,0.001524,0.031383,-264.546634,-0.427566,62.373094
10.3785,0.005412,-0.001206,0.001906,-0.010304,0.002186,-0.004109,0.005846,-0.5111,0.001543,0.031383,-264.551058,-0.427566,62.368236
10.3983,0.005155,-0.000702,0.001408,-0.009937,0.002108,-0.003962,0.006098,-0.511148,0.001728,0.031383,-264.551058,-0.427566,62.368236
10.4183,0.005178,-0.000819,0.000657,-0.009512,0.002018,-0.003793,0.006098,-0.511148,0.001728,0.031383,-264.551058,-0.427566,62.368236
10.4383,0.005364,-0.001052,0.000432,-0.009031,0.001916,-0.003601,0.004996,-0.510709,0.000451,0.031383,-264.555305,-0.427566,62.36357
10.4585,0.004863,-0.001063,0.001464,-0.008494,0.001802,-0.003387,0.005022,-0.510729,0.000444,0.031383,-264.555305,-0.427566,62.36357
10.4783,0.004394,-0.00087,0.001834,-0.0079,0.001676,-0.00315,0.005242,-0.510985,0.001318,0.031383,-264.559113,-0.427566,62.359388
10.4985,0.00459,-0.000708,0.001139,-0.007242,0.001536,-0.002888,0.005246,-0.510909,0.001594,0.031383,-264.559113,-0.427566,62.359388
10.5183,0.004825,-0.000257,0.001838,-0.006542,0.001388,-0.002609,0.005246,-0.510909,0.001594,0.031383,-264.559113,-0.427566,62.359388
10.5383,0.004211,-0.000551,0.001576,-0.005778,0.001226,-0.002304,0.005349,-0.51017,0.001673,0.031383,-264.562511,-0.427566,62.355656
10.5589,0.003974,-0.000701,0.000238,-0.004956,0.001051,-0.001976,0.005316,-0.510193,0.001663,0.031383,-264.562511,-0.427566,62.355656
10.5786,0.003722,-0.000622,0.00162,-0.004083,0.000866,-0.001628,0.003843,-0.510647,0.000137,0.031383,-264.565134,-0.427566,62.352775
10.5983,0.003847,-0.000501,0.002694,-0.003149,0.000668,-0.001256,0.004213,-0.510626,0.00097,0.031383,-264.565134,-0.427566,62.352775
10.6184,0.004217,-0.00055,0.000336,-0.002157,0.000458,-0.00086,0.004213,-0.510626,0.00097,0.031383,-264.565134,-0.427566,62.352775
10.6387,0.003639,-0.000207,0.001677,-0.00111,0.000236,-0.000443,0.004148,-0.510499,0.000241,0.031383,-264.567125,-0.427566,62.350588
10.6587,0.003462,-0.000654,0.002073,-8e-06,2e-06,-3e-06,0.004169,-0.510473,0.000358,0.031383,-264.567125,-0.427566,62.350588
10.6787,0.003616,-0.000324,0.002139,0.0,0.0,0.0,0.004436,-0.510635,0.00204,0.031383,-264.567985,-0.427566,62.349643
10.699,0.003596,-0.00071,0.000582,0.0,0.0,0.0,0.004581,-0.510454,0.002093,0.031383,-264.567985,-0.427566,62.349643
10.7183,0.003624,-0.000568,0.002373,0.0,0.0,0.0,0.004581,-0.510454,0.002093,0.031383,-264.567985,-0.427566,62.349643
10.7384,0.003528,-0.00036,-0.000753,0.0,0.0,0.0,0.004834,-0.510567,0.002373,0.031383,-264.567989,-0.427566,62.349639
10.7586,0.00395,-0.000393,-0.00082,0.0,0.0,0.0,0.004716,-0.510552,0.002156,0.031383,-264.567989,-0.427566,62.349639
10.7787,0.003622,-0.000446,0.000221,0.0,0.0,0.0,0.003531,-0.510393,-0.00082,0.031383,-264.567989,-0.427566,62.349639
10.7986,0.003584,-0.000616,0.000374,0.0,0.0,0.0,0.003648,-0.510423,-0.000224,0.031383,-264.567989,-0.427566,62.349639
10.8188,0.003295,-0.000537,0.000316,0.0,0.0,0.0,0.003648,-0.510423,-0.000224,0.031383,-264.567989,-0.427566,62.349639
10.8387,0.003745,-0.000112,0.001142,0.0,0.0,0.0,0.003457,-0.510537,0.000316,0.031383,-264.567989,-0.427566,62.349639
10.8586,0.003456,-0.000135,0.000781,0.0,0.0,0.0,0.003519,-0.510507,0.000375,0.031383,-264.567989,-0.427566,62.349639
10.8787,0.003865,-0.000511,0.001417,0.0,0.0,0.0,0.003854,-0.510135,0.000781,0.031383,-264.567989,-0.427566,62.349639
10.8983,0.00331,-0.000724,0.001243,-9.9e-05,1.3e-05,0.0,0.004269,-0.510347,0.00114,0.031383,-264.567989,-0.427566,62.349639
10.9184,0.003757,-0.000331,0.001528,-9.9e-05,1.3e-05,0.0,0.004269,-0.510347,0.00114,0.031383,-264.567989,-0.427566,62.349639
10.9382,0.003526,-0.00057,0.000921,-9.9e-05,1.3e-05,0.0,0.004537,-0.510331,0.001528,0.031383,-264.567989,-0.427566,62.349639
10.9585,0.003603,-0.000334,-0.000365,-9.9e-05,1.3e-05,0.0,0.004499,-0.510347,0.001486,0.031383,-264.567989,-0.427566,62.349639
10.9783,0.003858,-0.000697,8.9e-05,-9.9e-05,1.3e-05,0.0,0.003416,-0.510334,-0.000365,-0.043607,-264.567995,-0.352576,62.349633
10.999,0.003727,-0.000697,-0.000101,-9.9e-05,1.3e-05,0.0,0.003694,-0.510541,-0.000106,-0.043607,-264.567995,-0.352576,62.349633
11.0183,0.003539,-0.000645,0.000336,-9.9e-05,1.3e-05,0.0,0.003694,-0.510541,-0.000106,-0.043607,-264.567995,-0.352576,62.349633
11.0383,0.003751,-0.000782,0.000984,-9.9e-05,1.3e-05,0.0,0.003709,-0.510644,0.000336,-0.118598,-264.568011,-0.277586,62.349617
11.0585,0.003981,-0.000713,-7.8e-05,-9.9e-05,1.3e-05,0.0,0.003746,-0.510654,0.00038,-0.118598,-264.568011,-0.277586,62.349617
11.0785,0.003296,-0.000737,0.002475,-9.9e-05,1.3e-05,0.0,0.003939,-0.510712,-7.8e-05,-0.132814,-264.568039,-0.202585,62.349588
11.0982,0.003973,-0.00022,0.000609,-1e-06,0.0,-0.0,0.004292,-0.510725,0.001381,-0.132814,-264.568039,-0.202585,62.349588
11.1184,0.003515,-0.000363,0.000876,-0.000565,7.6e-05,-0.000207,0.004292,-0.510725,0.001381,-0.132814,-264.568039,-0.202585,62.349588
11.1386,0.003529,-0.000284,0.001499,-0.001102,0.000147,-0.000404,0.003957,-0.510362,0.000876,-0.132814,-264.568076,-0.132814,62.349551
11.1586,0.003561,-0.000465,0.001995,-0.001608,0.000215,-0.00059,0.003981,-0.510357,0.00092,-0.132814,-264.568076,-0.132814,62.349551
11.1787,0.003809,-0.000668,0.000748,-0.002087,0.000279,-0.000765,0.004573,-0.510464,0.001994,-0.057816,-264.568126,-0.207813,62.349498
11.1984,0.003538,-7.7e-05,0.001452,-0.002537,0.000339,-0.00093,0.004353,-0.510581,0.00128,-0.057816,-264.568126,-0.207813,62.349498
11.22,0.003531,-0.00019,0.001728,-0.002957,0.000395,-0.001084,0.004353,-0.510581,0.00128,-0.057816,-264.568126,-0.207813,62.349498
11.2383,0.003911,-0.00018,0.000443,-0.003348,0.000447,-0.001227,0.004371,-0.510183,0.001717,0.017247,-264.568464,-0.282875,62.349141
11.2588,0.00367,-0.000407,0.000858,-0.00371,0.000496,-0.00136,0.004361,-0.510183,0.00167,0.017247,-264.568464,-0.282875,62.349141
11.2783,0.003273,-0.00043,0.00026,-0.004043,0.00054,-0.001482,0.004009,-0.510394,0.000821,0.090056,-264.569496,-0.343342,62.34805
11.2983,0.003155,-0.000246,0.000632,-0.004348,0.000581,-0.001594,0.003648,-0.510413,0.000493,0.090056,-264.569496,-0.343342,62.34805
11.3183,0.003201,-0.00038,0.001212,-0.004623,0.000618,-0.001695,0.003648,-0.510413,0.000493,0.090056,-264.569496,-0.343342,62.34805
11.3383,0.003374,-0.000335,0.000672,-0.004873,0.000651,-0.001786,0.003639,-0.510355,0.001146,0.090056,-264.570983,-0.343342,62.346477
11.3587,0.003141,-0.000766,0.000819,-0.005086,0.00068,-0.001865,0.00364,-0.510353,0.001109,0.090056,-264.570983,-0.343342,62.346477
11.3785,0.00261,-0.000458,-0.000214,-0.005275,0.000705,-0.001934,0.00338,-0.510742,0.000754,0.090056,-264.57284,-0.343342,62.344513
11.3986,0.002848,-0.000544,-0.000812,-0.005434,0.000726,-0.001992,0.002853,-0.510576,0.00019,0.090056,-264.57284,-0.343342,62.344513
