mach0312/omni-docking-bench/src/icros_test_setup/results/kinematic_sample/timeseries/trial_075.csv
t,x,y,yaw,vx,vy,wz,bl_x,bl_y,bl_yaw,front_steering_joint,front_wheel_joint,rear_steering_joint,rear_wheel_joint
0.0,0.009342,-0.000575,0.035472,0.009262,-0.000882,0.004329,0.026506,-0.509765,0.035341,0.187996,-263.934605,-0.363784,62.278833
0.0005,0.009141,-0.000206,0.03675,0.006726,-0.000641,0.003144,0.026222,-0.509989,0.034842,0.187996,-263.930833,-0.363784,62.282797
0.0008,0.008955,-0.000428,0.03483,0.006168,-0.000587,0.002883,0.026222,-0.509989,0.034842,0.187996,-263.927385,-0.363784,62.286422
0.0012,0.00949,-0.000355,0.035317,0.005569,-0.00053,0.002603,0.026222,-0.509989,0.034842,0.187996,-263.924258,-0.363784,62.289709
0.0015,0.00955,-0.000199,0.036434,0.004919,-0.000469,0.0023,0.026875,-0.510153,0.035224,0.187996,-263.921744,-0.363784,62.292352
0.0019,0.009501,-0.000465,0.036686,0.00422,-0.000402,0.001972,0.026875,-0.510153,0.035224,0.187996,-263.919743,-0.363784,62.294455
0.0022,0.009398,-0.000434,0.036632,0.003473,-0.000331,0.001623,0.026852,-0.510163,0.035239,0.187996,-263.918653,-0.363784,62.295601
0.0025,0.009816,-0.000746,0.036775,0.002678,-0.000255,0.001252,0.026852,-0.510163,0.035239,0.187996,-263.918653,-0.363784,62.295601
0.0027,0.009943,-0.000658,0.036851,0.001833,-0.000175,0.000857,0.028264,-0.50985,0.037154,0.187996,-263.918653,-0.363784,62.295601
0.0031,0.009578,-0.000579,0.035947,0.000941,-9e-05,0.00044,0.028264,-0.50985,0.037154,0.187996,-263.918653,-0.363784,62.295601
0.0066,0.009829,-0.000591,0.037266,0.0,0.0,0.0,0.028011,-0.510255,0.035995,0.187996,-263.918653,-0.363784,62.295601
0.0262,0.009681,-0.000595,0.036686,0.0,0.0,0.0,0.028478,-0.510246,0.036705,0.187996,-263.918653,-0.363784,62.295601
0.0462,0.00969,-0.000681,0.036107,-0.0001,1e-05,0.0,0.028478,-0.510246,0.036705,0.187996,-263.918653,-0.363784,62.295601
0.0662,0.00986,-0.000526,0.036445,-0.0001,1e-05,0.0,0.028147,-0.510351,0.036129,0.187996,-263.918267,-0.363784,62.296006
0.0866,0.009502,-0.00061,0.036511,-0.0001,1e-05,0.0,0.028173,-0.510338,0.036155,0.187996,-263.918267,-0.363784,62.296006
0.1062,0.009702,-0.000887,0.036476,-0.0001,1e-05,0.0,0.028119,-0.51027,0.036511,0.112502,-263.91827,-0.28829,62.296003
0.1262,0.009581,-0.000631,0.036133,-0.0001,1e-05,0.0,0.028223,-0.510429,0.036491,0.112502,-263.91827,-0.28829,62.296003
0.1462,0.009756,-0.00058,0.036819,-0.0001,1e-05,0.0,0.028223,-0.510429,0.036491,0.112502,-263.91827,-0.28829,62.296003
0.1663,0.009822,-0.000218,0.035115,-0.0001,1e-05,0.0,0.028528,-0.510235,0.036818,0.037893,-263.918281,-0.213681,62.295992
0.1866,0.010228,-0.000538,0.034439,-0.0001,1e-05,0.0,0.028473,-0.510212,0.0367,0.037893,-263.918281,-0.213681,62.295992
0.2061,0.009957,-0.00037,0.035731,-0.0001,1e-05,0.0,0.027786,-0.510235,0.034439,-0.036999,-263.918305,-0.138789,62.295968
0.2262,0.009724,-0.00084,0.036695,-0.0001,1e-05,0.0,0.028008,-0.510127,0.035175,-0.036999,-263.918305,-0.138789,62.295968
0.2464,0.009671,-0.000782,0.036406,-0.0001,1e-05,0.0,0.028008,-0.510127,0.035175,-0.036999,-263.918305,-0.138789,62.295968
0.2663,0.009939,-0.000669,0.036446,-0.001412,0.000139,-0.005364,0.028229,-0.510444,0.036406,-0.098036,-263.918342,-0.098036,62.295931
0.2866,0.009858,-0.000614,0.035847,-0.002756,0.000271,-0.010474,0.028249,-0.510436,0.036409,-0.098036,-263.918342,-0.098036,62.295931
0.3062,0.009826,-0.000494,0.036053,-0.004019,0.000395,-0.015274,0.028132,-0.510286,0.035847,-0.098036,-263.918382,-0.098036,62.295891
0.3263,0.009716,-0.000758,0.036083,-0.005228,0.000514,-0.019868,0.028175,-0.510217,0.035963,-0.098036,-263.918382,-0.098036,62.295891
0.3463,0.009983,-0.000508,0.036178,-0.006335,0.000623,-0.024077,0.028175,-0.510217,0.035963,-0.098036,-263.918382,-0.098036,62.295891
0.3662,0.00985,-0.000582,0.037122,-0.007385,0.000726,-0.028065,0.02843,-0.510175,0.036178,-0.023019,-263.918382,-0.173052,62.295891
0.3869,0.010107,-0.000883,0.036187,-0.008362,0.000822,-0.031781,0.028454,-0.510178,0.036242,-0.023019,-263.918382,-0.173052,62.295891
0.4063,0.009573,-0.000744,0.035636,-0.009268,0.000912,-0.035223,0.028558,-0.510549,0.036187,0.051992,-263.918382,-0.248063,62.295891
0.4263,0.009847,-0.00062,0.036361,-0.010105,0.000994,-0.038405,0.028095,-0.510476,0.035874,0.051992,-263.918382,-0.248063,62.295891
0.4462,0.009759,-0.000121,0.035991,-0.010864,0.001068,-0.041287,0.028095,-0.510476,0.035874,0.051992,-263.918382,-0.248063,62.295891
0.4662,0.009669,-0.00061,0.03524,-0.011549,0.001136,-0.043891,0.02811,-0.509791,0.035991,0.126982,-263.918382,-0.323053,62.295891
0.4864,0.009927,-0.000485,0.037011,-0.012163,0.001196,-0.046226,0.028078,-0.509826,0.035938,0.126982,-263.918382,-0.323053,62.295891
0.5063,0.009827,-0.00096,0.037509,-0.012708,0.00125,-0.048296,0.028798,-0.510135,0.037011,0.201989,-263.918382,-0.39806,62.295891
0.5264,0.010059,-0.000751,0.03419,-0.013176,0.001296,-0.050077,0.028885,-0.5104,0.037294,0.201989,-263.918382,-0.39806,62.295891
0.5462,0.009589,-0.000619,0.036404,-0.013574,0.001335,-0.051589,0.028885,-0.5104,0.037294,0.201989,-263.918382,-0.39806,62.295891
0.5665,0.009571,-0.000519,0.036014,-0.013902,0.001367,-0.052835,0.028151,-0.510281,0.036404,0.27698,-263.918382,-0.473051,62.295891
0.5861,0.009812,-0.000249,0.036049,-0.014154,0.001392,-0.053791,0.028136,-0.510275,0.036377,0.27698,-263.918382,-0.473051,62.295891
0.6063,0.009979,-0.001157,0.035448,-0.014335,0.00141,-0.054479,0.028193,-0.509918,0.036049,0.351988,-263.918382,-0.548059,62.295891
0.6262,0.009954,-0.00045,0.037108,-0.014443,0.001421,-0.054892,0.028114,-0.510439,0.035708,0.351988,-263.918382,-0.548059,62.295891
0.6465,0.009487,-0.001093,0.036156,-0.014479,0.001424,-0.055029,0.028114,-0.510439,0.035708,0.351988,-263.918382,-0.548059,62.295891
0.6661,0.00941,-0.000632,0.036601,-0.014443,0.001421,-0.054892,0.027923,-0.51076,0.036156,0.426989,-263.918382,-0.623061,62.295891
0.6867,0.009776,-0.000817,0.036128,-0.014334,0.00141,-0.054478,0.027933,-0.510727,0.036188,0.426989,-263.918382,-0.623061,62.295891
0.7062,0.009591,-0.000212,0.036148,-0.014153,0.001392,-0.05379,0.028198,-0.510484,0.036128,0.501983,-263.918382,-0.698055,62.295891
0.7263,0.009379,-0.000308,0.037442,-0.013901,0.001367,-0.05283,0.028097,-0.510137,0.03614,0.501983,-263.918382,-0.698055,62.295891
0.747,0.009597,-0.000481,0.036547,-0.013574,0.001335,-0.051588,0.028097,-0.510137,0.03614,0.501983,-263.918382,-0.698055,62.295891
0.7663,0.009573,-0.000763,0.035373,-0.013175,0.001296,-0.05007,0.028232,-0.51014,0.036547,0.577119,-263.918382,-0.77319,62.295891
0.7867,0.009807,-0.000548,0.035051,-0.012705,0.00125,-0.048287,0.028188,-0.510161,0.036465,0.577119,-263.918382,-0.77319,62.295891
0.8061,0.009611,-0.000653,0.036468,-0.012163,0.001196,-0.046226,0.027679,-0.510235,0.03505,0.651998,-263.918386,-0.848069,62.295887
0.8262,0.009816,-0.000567,0.03572,-0.011548,0.001136,-0.043887,0.02798,-0.51028,0.03586,0.651998,-263.918386,-0.848069,62.295887
0.8465,0.009618,-0.000707,0.037019,-0.010859,0.001068,-0.041269,0.02798,-0.51028,0.03586,0.651998,-263.918386,-0.848069,62.295887
0.8661,0.009454,-0.000804,0.034708,-0.010097,0.000993,-0.038374,0.028491,-0.510357,0.037013,0.727079,-263.91842,-0.92315,62.29585
0.8861,0.010185,-0.000762,0.036515,-0.009267,0.000911,-0.035219,0.028398,-0.510367,0.036854,0.727079,-263.91842,-0.92315,62.29585
0.9062,0.009805,-0.000573,0.03526,-0.008356,0.000822,-0.031758,0.028791,-0.510421,0.036489,0.802331,-263.918617,-0.998402,62.295639
0.9261,0.009698,-0.000759,0.036806,-0.00738,0.000726,-0.028047,0.028218,-0.510327,0.035789,0.802331,-263.918617,-0.998402,62.295639
0.9462,0.009907,-0.000551,0.035304,-0.006335,0.000623,-0.024076,0.028218,-0.510327,0.035789,0.802331,-263.918617,-0.998402,62.295639
0.9664,0.010028,-0.000485,0.03576,-0.005206,0.000512,-0.019784,0.027854,-0.510227,0.035174,0.876994,-263.919376,-1.073066,62.294823
0.9861,0.009698,-0.000517,0.035359,-0.004018,0.000395,-0.015272,0.02788,-0.510222,0.035209,0.876994,-263.919376,-1.073066,62.294823
1.0062,0.010105,-0.0008,0.035696,-0.002751,0.000271,-0.010454,0.027649,-0.510189,0.035136,0.951993,-263.920946,-1.148064,62.293138
1.0265,0.009745,-0.000586,0.034346,-0.001402,0.000138,-0.005327,0.028011,-0.510349,0.035424,0.951993,-263.920946,-1.148064,62.293138
1.0462,0.010009,-0.000329,0.036082,0.0,0.0,0.0,0.028011,-0.510349,0.035424,0.951993,-263.920946,-1.148064,62.293138
1.0662,0.010004,-0.000738,0.036447,0.0,0.0,0.0,0.028289,-0.509984,0.0357,1.026983,-263.923026,-1.178869,62.290903
1.0867,0.009683,-0.000472,0.035583,0.0,0.0,0.0,0.028308,-0.510014,0.035744,1.026983,-263.923026,-1.178869,62.290903
1.1061,0.009982,-0.000582,0.035782,0.0,0.0,0.0,0.027826,-0.510149,0.035583,1.026983,-263.923026,-1.178869,62.290903
1.1262,0.009701,-0.000494,0.036436,0.0,0.0,0.0,0.028054,-0.51021,0.035696,1.026983,-263.923026,-1.178869,62.290903
1.1461,0.009964,-0.000581,0.034994,0.0,0.0,0.0,0.028054,-0.51021,0.035696,1.026983,-263.923026,-1.178869,62.290903
1.1663,0.009842,-0.000542,0.035256,0.0,0.0,0.0,0.027808,-0.510269,0.034994,1.026983,-263.923026,-1.178869,62.290903
1.1871,0.010069,-0.000311,0.036275,0.0,0.0,0.0,0.027809,-0.510266,0.035013,1.026983,-263.923026,-1.178869,62.290903
1.2062,0.009666,-0.000668,0.033519,0.0,0.0,0.0,0.028566,-0.509976,0.036275,1.026983,-263.923026,-1.178869,62.290903
1.2261,0.010125,-0.000599,0.036765,0.0,0.0,0.0,0.027539,-0.510206,0.03471,1.026983,-263.923026,-1.178869,62.290903
1.2462,0.010014,-0.000617,0.034708,0.0,0.0,0.0,0.027539,-0.510206,0.03471,1.026983,-263.923026,-1.178869,62.290903
1.2662,0.01006,-0.000359,0.034591,-0.0001,1e-05,0.0,0.027712,-0.510309,0.034708,1.026983,-263.923026,-1.178869,62.290903
1.2867,0.009841,-0.000145,0.036732,-0.0001,1e-05,0.0,0.027711,-0.510292,0.0347,1.026983,-263.923026,-1.178869,62.290903
1.3066,0.010108,-0.000652,0.034647,-0.0001,1e-05,0.0,0.02857,-0.509801,0.036732,1.026983,-263.923026,-1.178869,62.290903
1.3261,0.010104,-0.000829,0.034948,-0.0001,1e-05,0.0,0.028117,-0.510111,0.035545,1.026983,-263.923026,-1.178869,62.290903
1.3465,0.009538,-0.000321,0.03426,-0.0001,1e-05,0.0,0.028117,-0.510111,0.035545,1.026983,-263.923026,-1.178869,62.290903
1.3662,0.00977,-0.00053,0.036207,-0.0001,1e-05,0.0,0.027007,-0.510022,0.03426,0.951976,-263.923026,-1.103862,62.290903
1.3862,0.010466,-0.000344,0.034918,-0.0001,1e-05,0.0,0.02709,-0.510034,0.034391,0.951976,-263.923026,-1.103862,62.290903
1.4063,0.010171,-0.000327,0.034436,-0.0001,1e-05,0.0,0.028271,-0.510033,0.034918,0.876978,-263.923026,-1.028865,62.290903
1.4262,0.01016,-0.000556,0.035312,-0.0001,1e-05,0.0,0.027963,-0.510028,0.034644,0.876978,-263.923026,-1.028865,62.290903
1.4462,0.009836,-0.000791,0.035571,-0.0001,1e-05,0.0,0.027963,-0.510028,0.034644,0.876978,-263.923026,-1.028865,62.290903
1.4661,0.009921,-0.000728,0.036319,-0.0001,1e-05,0.0,0.027973,-0.510469,0.035571,0.801981,-263.923026,-0.953868,62.290903
1.4864,0.009702,-0.000616,0.034823,-0.001458,0.000141,-0.005067,0.028006,-0.510463,0.035623,0.801981,-263.923026,-0.953868,62.290903
1.5064,0.009294,-0.000494,0.035157,-0.002852,0.000275,-0.009911,0.027458,-0.510306,0.034823,0.726976,-263.923026,-0.878862,62.290903
1.5266,0.010222,-0.00061,0.035225,-0.004163,0.000402,-0.014467,0.027323,-0.510234,0.035013,0.726976,-263.923026,-0.878862,62.290903
1.5463,0.009698,-0.000697,0.035339,-0.005391,0.00052,-0.018737,0.027323,-0.510234,0.035013,0.726976,-263.923026,-0.878862,62.290903
1.5664,0.009693,-0.000249,0.0343,-0.006556,0.000633,-0.022785,0.027715,-0.510378,0.035333,0.801974,-263.923062,-0.953861,62.290865
1.5864,0.010256,-0.000203,0.035034,-0.007638,0.000737,-0.026545,0.027678,-0.510349,0.035262,0.801974,-263.923062,-0.953861,62.290865
1.6062,0.009967,-0.000866,0.037365,-0.00865,0.000835,-0.030063,0.028088,-0.509887,0.03496,0.876976,-263.923619,-1.028862,62.290265
1.6262,0.010089,-0.000365,0.034511,-0.009589,0.000925,-0.033326,0.028614,-0.510242,0.036321,0.876976,-263.923619,-1.028862,62.290265
1.646,0.010229,-0.000596,0.03482,-0.010446,0.001008,-0.036306,0.028614,-0.510242,0.036321,0.876976,-263.923619,-1.028862,62.290265
1.6666,0.009931,-0.000547,0.033669,-0.011235,0.001084,-0.039047,0.027838,-0.510272,0.034423,0.952085,-263.925867,-1.103971,62.287842
1.6861,0.010242,-0.000551,0.034154,-0.011949,0.001153,-0.041529,0.027783,-0.51027,0.03436,0.952085,-263.925867,-1.103971,62.287842
1.7063,0.010275,-0.000342,0.03412,-0.012583,0.001214,-0.04373,0.02744,-0.51024,0.033478,1.026957,-263.930625,-1.147419,62.282911
1.7262,0.009971,-0.000471,0.034074,-0.013174,0.001271,-0.045784,0.027547,-0.510126,0.033762,1.026957,-263.930625,-1.147419,62.282911
1.7461,0.010113,-0.00086,0.033089,-0.013631,0.001315,-0.047375,0.027547,-0.510126,0.033762,1.026957,-263.930625,-1.147419,62.282911
1.7662,0.010873,-0.000232,0.031982,-0.014043,0.001355,-0.048807,0.026602,-0.510575,0.031775,1.102145,-263.937873,-1.147419,62.275489
1.7867,0.010352,-0.000522,0.03181,-0.014381,0.001388,-0.04998,0.026633,-0.510531,0.031753,1.102145,-263.937873,-1.147419,62.275489
1.8062,0.010691,-0.000349,0.030976,-0.014643,0.001413,-0.05089,0.026167,-0.510262,0.030406,1.112321,-263.947612,-1.147419,62.265576
1.8263,0.0106,-0.000191,0.03131,-0.01483,0.001431,-0.05154,0.026298,-0.510172,0.030553,1.112321,-263.947612,-1.147419,62.265576
1.8465,0.010908,-0.000472,0.030562,-0.014943,0.001442,-0.051933,0.026298,-0.510172,0.030553,1.112321,-263.947612,-1.147419,62.265576
1.8662,0.011063,-0.000509,0.02788,-0.01498,0.001445,-0.052062,0.025853,-0.510232,0.028342,1.112321,-263.959876,-1.147419,62.253138
1.8867,0.011249,-0.000604,0.029733,-0.014942,0.001442,-0.051931,0.025793,-0.510237,0.028247,1.112321,-263.959876,-1.147419,62.253138
1.9066,0.012023,-0.000512,0.025893,-0.01483,0.001431,-0.05154,0.025832,-0.510339,0.027727,1.112321,-263.973366,-1.147419,62.238606
1.9263,0.011757,-0.000279,0.024781,-0.014643,0.001413,-0.05089,0.025415,-0.510336,0.026431,1.112321,-263.973366,-1.147419,62.238606
1.9462,0.011858,-0.000328,0.025922,-0.014381,0.001388,-0.049982,0.025415,-0.510336,0.026431,1.112321,-263.973366,-1.147419,62.238606
1.9663,0.012085,-9.7e-05,0.022072,-0.014044,0.001355,-0.04881,0.024349,-0.510105,0.023398,1.112321,-263.986886,-1.147419,62.224041
1.9863,0.012616,-0.000162,0.023429,-0.013632,0.001315,-0.047379,0.024256,-0.510094,0.023234,1.112321,-263.986886,-1.147419,62.224041
2.0061,0.013412,-0.000217,0.021872,-0.013134,0.001267,-0.045645,0.024009,-0.509981,0.021503,1.112321,-263.999869,-1.147419,62.210056
2.0261,0.012959,-0.000216,0.021869,-0.012583,0.001214,-0.043732,0.024256,-0.510041,0.021468,1.112321,-263.999869,-1.147419,62.210056
2.0463,0.01297,-0.000357,0.019013,-0.011947,0.001153,-0.04152,0.024256,-0.510041,0.021468,1.112321,-263.999869,-1.147419,62.210056
2.066,0.013819,3e-05,0.018626,-0.011225,0.001083,-0.039011,0.022002,-0.510213,0.016709,1.112321,-264.012186,-1.147419,62.196786
2.0865,0.01373,-0.000398,0.017326,-0.01045,0.001008,-0.036317,0.022074,-0.510189,0.016779,1.112321,-264.012186,-1.147419,62.196786
2.1065,0.014158,0.000352,0.016983,-0.009588,0.000925,-0.033321,0.022098,-0.510284,0.015704,1.112321,-264.023,-1.147419,62.185137
2.1266,0.01418,0.000323,0.015937,-0.008653,0.000835,-0.030073,0.022448,-0.509879,0.016227,1.112321,-264.023,-1.147419,62.185137
2.1465,0.013769,-0.000192,0.015895,-0.007641,0.000737,-0.026557,0.022448,-0.509879,0.016227,1.112321,-264.023,-1.147419,62.185137
2.1666,0.014182,0.000564,0.014724,-0.006551,0.000632,-0.022767,0.021368,-0.510087,0.014133,1.112321,-264.03243,-1.147419,62.174979
2.1865,0.014509,-0.000113,0.014946,-0.005394,0.00052,-0.018747,0.021377,-0.510037,0.014127,1.112321,-264.03243,-1.147419,62.174979
2.2063,0.014688,0.000283,0.013954,-0.004157,0.000401,-0.014449,0.021835,-0.510032,0.013916,1.112321,-264.039355,-1.147419,62.167518
2.2263,0.01492,4.2e-05,0.013668,-0.002835,0.000274,-0.009853,0.02178,-0.509819,0.013809,1.112321,-264.039355,-1.147419,62.167518
2.2462,0.014654,0.000312,0.012137,-0.001463,0.000141,-0.005085,0.02178,-0.509819,0.013809,1.112321,-264.039355,-1.147419,62.167518
2.2662,0.014922,0.000172,0.01173,-2e-06,0.0,-7e-06,0.020582,-0.509628,0.011229,1.112321,-264.044217,-1.147419,62.162281
2.2865,0.014855,-3.1e-05,0.012157,0.0,0.0,0.0,0.020598,-0.509639,0.01124,1.112321,-264.044217,-1.147419,62.162281
2.3061,0.014828,5.8e-05,0.011383,0.0,0.0,0.0,0.020998,-0.509989,0.01196,1.112321,-264.045542,-1.147419,62.160854
2.3262,0.01515,0.000429,0.01137,0.0,0.0,0.0,0.020782,-0.509942,0.011604,1.112321,-264.045542,-1.147419,62.160854
2.3467,0.015223,-5.9e-05,0.011929,0.0,0.0,0.0,0.020782,-0.509942,0.011604,1.112321,-264.045542,-1.147419,62.160854
2.3662,0.015059,0.000313,0.010965,0.0,0.0,0.0,0.021307,-0.510023,0.011929,1.112321,-264.045542,-1.147419,62.160854
2.3862,0.015284,0.000139,0.012264,0.0,0.0,0.0,0.021259,-0.509996,0.011858,1.112321,-264.045542,-1.147419,62.160854
2.4063,0.01504,0.000135,0.01182,0.0,0.0,0.0,0.021539,-0.509823,0.012264,1.112321,-264.045542,-1.147419,62.160854
2.4261,0.015553,0.000553,0.010368,0.0,0.0,0.0,0.021271,-0.509827,0.012012,1.112321,-264.045542,-1.147419,62.160854
2.4461,0.01447,0.000123,0.011877,0.0,0.0,0.0,0.021271,-0.509827,0.012012,1.112321,-264.045542,-1.147419,62.160854
2.466,0.015238,0.000331,0.011809,0.0,0.0,0.0,0.020528,-0.509841,0.011877,1.112321,-264.045542,-1.147419,62.160854
2.4868,0.015119,0.000356,0.012261,0.0,0.0,0.0,0.020579,-0.509826,0.011872,1.112321,-264.045542,-1.147419,62.160854
2.5066,0.014975,0.000356,0.012312,-0.0001,-1e-06,0.0,0.021372,-0.509605,0.012261,1.112321,-264.045542,-1.147419,62.160854
2.5263,0.014959,0.000318,0.01215,-0.0001,-1e-06,0.0,0.021306,-0.509605,0.01229,1.112321,-264.045542,-1.147419,62.160854
2.5467,0.015265,0.000366,0.0129,-0.0001,-1e-06,0.0,0.021306,-0.509605,0.01229,1.112321,-264.045542,-1.147419,62.160854
2.5666,0.014791,0.000319,0.012796,-0.0001,-1e-06,0.0,0.021844,-0.509592,0.0129,1.112321,-264.045542,-1.147419,62.160854
2.5866,0.015106,0.000273,0.011989,-0.0001,-1e-06,0.0,0.021801,-0.509596,0.012892,1.112321,-264.045542,-1.147419,62.160854
2.6061,0.015004,0.000249,0.011539,-0.0001,-1e-06,0.0,0.021221,-0.50969,0.011989,1.037175,-264.045542,-1.072273,62.160854
2.6266,0.014908,0.000281,0.011986,-0.0001,-1e-06,0.0,0.02103,-0.509706,0.011731,1.037175,-264.045542,-1.072273,62.160854
2.6462,0.014967,-0.000111,0.01108,-0.0001,-1e-06,0.0,0.02103,-0.509706,0.011731,1.037175,-264.045542,-1.072273,62.160854
2.6664,0.014826,0.000405,0.012646,-0.0001,-1e-06,0.0,0.020618,-0.51008,0.01108,0.962276,-264.045542,-0.997374,62.160854
2.6867,0.015145,0.000261,0.010899,-0.0001,-1e-06,0.0,0.020662,-0.510045,0.011184,0.962276,-264.045542,-0.997374,62.160854
2.7062,0.015041,0.00035,0.011695,-0.0001,-1e-06,0.0,0.020704,-0.509709,0.010899,0.887438,-264.045542,-0.922536,62.160854
2.7264,0.015169,0.000617,0.012351,-0.002198,-2.5e-05,-0.001782,0.020874,-0.509656,0.011349,0.887438,-264.045542,-0.922536,62.160854
2.7461,0.01505,0.000173,0.012435,-0.004299,-4.9e-05,-0.003486,0.020874,-0.509656,0.011349,0.887438,-264.045542,-0.922536,62.160854
2.7667,0.014865,0.000146,0.011896,-0.006283,-7.1e-05,-0.005094,0.021392,-0.509787,0.012435,0.812442,-264.045542,-0.84754,62.160854
2.7872,0.01505,0.00044,0.012728,-0.008157,-9.2e-05,-0.006614,0.021362,-0.509789,0.0124,0.812442,-264.045542,-0.84754,62.160854
2.8067,0.014867,0.000351,0.011687,-0.009939,-0.000112,-0.008059,0.021539,-0.509519,0.012725,0.737487,-264.045563,-0.772585,62.160833
2.8266,0.015086,0.000131,0.011527,-0.011562,-0.000131,-0.009374,0.021143,-0.509572,0.012147,0.737487,-264.045563,-0.772585,62.160833
2.8464,0.015125,0.000612,0.012499,-0.013092,-0.000148,-0.010615,0.021143,-0.509572,0.012147,0.737487,-264.045563,-0.772585,62.160833
2.8661,0.015301,9.2e-05,0.009062,-0.01451,-0.000164,-0.011764,0.021479,-0.509348,0.012473,0.662438,-264.045773,-0.697536,62.160625
2.8865,0.014741,6e-06,0.01388,-0.015814,-0.000179,-0.012822,0.021369,-0.509386,0.012232,0.662438,-264.045773,-0.697536,62.160625
2.9065,0.014878,-5.7e-05,0.011146,-0.017007,-0.000192,-0.013789,0.021724,-0.509944,0.013773,0.587463,-264.046972,-0.622561,62.159437
2.9264,0.014869,-0.000206,0.012962,-0.018085,-0.000204,-0.014663,0.021051,-0.509991,0.012264,0.587463,-264.046972,-0.622561,62.159437
2.947,0.014926,0.000197,0.012709,-0.019049,-0.000215,-0.015445,0.021051,-0.509991,0.012264,0.587463,-264.046972,-0.622561,62.159437
2.9662,0.014735,-0.000164,0.011113,-0.019901,-0.000225,-0.016135,0.02104,-0.50976,0.012357,0.512382,-264.050484,-0.54748,62.155955
2.9865,0.015,0.000347,0.010196,-0.020638,-0.000233,-0.016733,0.020989,-0.509785,0.012267,0.512382,-264.050484,-0.54748,62.155955
3.0065,0.014363,0.000437,0.009579,-0.021263,-0.00024,-0.01724,0.019684,-0.509631,0.009766,0.468821,-264.056537,-0.472573,62.149934
3.0262,0.014324,0.000324,0.010827,-0.021773,-0.000246,-0.017653,0.019364,-0.509578,0.009603,0.468821,-264.056537,-0.472573,62.149934
3.0464,0.014447,0.000116,0.010356,-0.022171,-0.000251,-0.017976,0.019364,-0.509578,0.009603,0.468821,-264.056537,-0.472573,62.149934
3.0665,0.013886,1.6e-05,0.009724,-0.022456,-0.000254,-0.018207,0.018806,-0.509875,0.009609,0.468821,-264.065032,-0.450667,62.141471
3.0862,0.014137,-6.5e-05,0.009143,-0.022626,-0.000256,-0.018345,0.018784,-0.509882,0.009596,0.468821,-264.065032,-0.450667,62.141471
3.1061,0.013613,-0.000384,0.008787,-0.022684,-0.000256,-0.018391,0.017945,-0.510061,0.00845,0.468821,-264.07495,-0.450667,62.131642
3.1262,0.013263,2.9e-05,0.008698,-0.022628,-0.000256,-0.018346,0.017921,-0.510235,0.008553,0.468821,-264.07495,-0.450667,62.131642
3.1469,0.013103,0.00011,0.009298,-0.022458,-0.000254,-0.018209,0.017921,-0.510235,0.008553,0.468821,-264.07495,-0.450667,62.131642
3.1663,0.012026,-5.9e-05,0.006866,-0.022175,-0.000251,-0.017979,0.016745,-0.50989,0.008406,0.468821,-264.085112,-0.450667,62.121571
3.1861,0.012692,7e-06,0.008593,-0.021779,-0.000246,-0.017658,0.016625,-0.509902,0.008268,0.468821,-264.085112,-0.450667,62.121571
3.2068,0.011857,0.000441,0.006256,-0.021269,-0.00024,-0.017244,0.016208,-0.509991,0.007891,0.468821,-264.09518,-0.450667,62.111593
3.2262,0.012076,0.000544,0.007018,-0.020647,-0.000233,-0.01674,0.015433,-0.509739,0.006865,0.468821,-264.09518,-0.450667,62.111593
3.2463,0.012065,-5.5e-05,0.007498,-0.019911,-0.000225,-0.016143,0.015433,-0.509739,0.006865,0.468821,-264.09518,-0.450667,62.111593
3.2662,0.011339,4.3e-05,0.007476,-0.019058,-0.000215,-0.015452,0.014832,-0.510061,0.006641,0.468821,-264.104949,-0.450667,62.101911
3.2861,0.011319,0.00032,0.00765,-0.018096,-0.000205,-0.014672,0.014826,-0.510052,0.006679,0.468821,-264.104949,-0.450667,62.101911
3.3062,0.010465,-9.2e-05,0.005281,-0.017019,-0.000192,-0.013798,0.014454,-0.509679,0.007028,0.468821,-264.113876,-0.450667,62.093064
3.3261,0.010833,0.000447,0.006096,-0.015826,-0.000179,-0.012831,0.013617,-0.509913,0.005953,0.468821,-264.113876,-0.450667,62.093064
3.3464,0.010285,-0.00017,0.004737,-0.014512,-0.000164,-0.011766,0.013617,-0.509913,0.005953,0.468821,-264.113876,-0.450667,62.093064
3.3665,0.010035,-0.000223,0.004337,-0.013108,-0.000148,-0.010627,0.011823,-0.510178,0.004025,0.468821,-264.121988,-0.450667,62.085024
3.3861,0.010258,0.000133,0.005715,-0.011564,-0.000131,-0.009375,0.01183,-0.510181,0.004028,0.468821,-264.121988,-0.450667,62.085024
3.4068,0.009585,-7e-06,0.004679,-0.009932,-0.000112,-0.008052,0.012613,-0.509868,0.005261,0.468821,-264.128496,-0.450667,62.078575
3.4261,0.009408,-0.000381,0.005751,-0.008174,-9.2e-05,-0.006627,0.012174,-0.509945,0.00487,0.468821,-264.128496,-0.450667,62.078575
3.4467,0.009609,-7.1e-05,0.003771,-0.006306,-7.1e-05,-0.005113,0.012174,-0.509945,0.00487,0.468821,-264.128496,-0.450667,62.078575
3.4667,0.009567,-0.000251,0.002724,-0.00432,-4.9e-05,-0.003503,0.01097,-0.510075,0.003316,0.468821,-264.133672,-0.450667,62.073445
3.4868,0.009207,6.2e-05,0.003611,-0.002224,-2.5e-05,-0.001804,0.010955,-0.510087,0.003264,0.468821,-264.133672,-0.450667,62.073445
3.5065,0.009147,-2.3e-05,0.00283,-1.3e-05,-0.0,-1.1e-05,0.010805,-0.509938,0.003414,0.468821,-264.136503,-0.450667,62.07064
3.5262,0.008967,0.000198,0.003424,0.0,0.0,0.0,0.010652,-0.509986,0.003055,0.468821,-264.136503,-0.450667,62.07064
3.5462,0.009289,-6.2e-05,0.002403,0.0,0.0,0.0,0.010652,-0.509986,0.003055,0.468821,-264.136503,-0.450667,62.07064
3.5664,0.008845,-0.000686,0.002481,0.0,0.0,0.0,0.010406,-0.510062,0.002316,0.468821,-264.137499,-0.450667,62.069652
3.5871,0.009282,-5.3e-05,0.004037,0.0,0.0,0.0,0.010384,-0.510103,0.002324,0.468821,-264.137499,-0.450667,62.069652
3.6065,0.008969,0.000139,0.004044,0.0,0.0,0.0,0.011341,-0.510049,0.004037,0.468821,-264.137499,-0.450667,62.069652
3.6261,0.008969,-7e-06,0.003077,0.0,0.0,0.0,0.011166,-0.50994,0.004041,0.468821,-264.137499,-0.450667,62.069652
3.646,0.008819,-4.9e-05,0.001604,0.0,0.0,0.0,0.011166,-0.50994,0.004041,0.468821,-264.137499,-0.450667,62.069652
3.6665,0.009194,0.000217,0.002309,0.0,0.0,0.0,0.009637,-0.510048,0.001604,0.468821,-264.137499,-0.450667,62.069652
3.6861,0.008833,-2.4e-05,0.002805,0.0,0.0,0.0,0.009695,-0.510027,0.00166,0.468821,-264.137499,-0.450667,62.069652
3.706,0.008953,-0.000164,0.002856,0.0,0.0,0.0,0.010263,-0.510022,0.002805,0.468821,-264.137499,-0.450667,62.069652
3.726,0.008959,6.4e-05,0.00452,0.0,0.0,0.0,0.010347,-0.510102,0.002834,0.468821,-264.137499,-0.450667,62.069652
3.7464,0.008953,0.000165,0.002927,-0.0001,-0.0,0.0,0.010347,-0.510102,0.002834,0.468821,-264.137499,-0.450667,62.069652
3.7662,0.008819,-0.000183,0.003294,-0.0001,-0.0,0.0,0.010446,-0.509833,0.002927,0.468821,-264.137499,-0.450667,62.069652
3.786,0.009062,-0.000159,0.00327,-0.0001,-0.0,0.0,0.01045,-0.509858,0.002953,0.468821,-264.137499,-0.450667,62.069652
3.8061,0.008913,0.000158,0.004489,-0.0001,-0.0,0.0,0.010729,-0.510156,0.00327,0.393816,-264.137499,-0.375662,62.069652
3.8261,0.008962,6.1e-05,0.004616,-0.0001,-0.0,0.0,0.011001,-0.509973,0.00397,0.393816,-264.137499,-0.375662,62.069652
3.8464,0.008996,1.6e-05,0.004509,-0.0001,-0.0,0.0,0.011001,-0.509973,0.00397,0.393816,-264.137499,-0.375662,62.069652
3.8663,0.009229,-0.000149,0.002796,-0.0001,-0.0,0.0,0.011296,-0.509979,0.004509,0.31878,-264.1375,-0.300626,62.069652
3.8863,0.008838,-0.00018,0.004844,-0.0001,-0.0,0.0,0.01124,-0.509994,0.00436,0.31878,-264.1375,-0.300626,62.069652
3.9062,0.009107,-1e-06,0.003705,-0.0001,-0.0,0.0,0.011308,-0.510174,0.004844,0.243312,-264.137501,-0.225158,62.06965
3.9263,0.009089,-0.00017,0.002351,-0.0001,-0.0,0.0,0.011131,-0.510074,0.004196,0.243312,-264.137501,-0.225158,62.06965
3.9462,0.00887,0.000232,0.002728,-0.0001,-0.0,0.0,0.011131,-0.510074,0.004196,0.243312,-264.137501,-0.225158,62.06965
3.9663,0.009148,0.000275,0.005191,-0.001316,-3e-06,-0.000664,0.01026,-0.509766,0.002728,0.168825,-264.137508,-0.150671,62.069643
3.986,0.008946,4e-06,0.003053,-0.002552,-7e-06,-0.001288,0.010373,-0.509763,0.002908,0.168825,-264.137508,-0.150671,62.069643
4.0065,0.009216,-8.1e-05,0.003997,-0.00373,-1e-05,-0.001882,0.010502,-0.509993,0.003053,0.09362,-264.137526,-0.075465,62.069626
4.0263,0.009246,0.000153,0.003477,-0.004836,-1.3e-05,-0.00244,0.010934,-0.510041,0.003596,0.09362,-264.137526,-0.075465,62.069626
4.0465,0.008799,-9.9e-05,0.002936,-0.005878,-1.5e-05,-0.002966,0.010934,-0.510041,0.003596,0.09362,-264.137526,-0.075465,62.069626
4.0661,0.008927,-2.2e-05,0.004059,-0.006857,-1.8e-05,-0.00346,0.010267,-0.510097,0.002928,0.168461,-264.137768,-0.150306,62.069384
4.0866,0.009237,-0.000138,0.002796,-0.00776,-2e-05,-0.003915,0.01032,-0.510091,0.003011,0.168461,-264.137768,-0.150306,62.069384
4.1061,0.008748,0.000125,0.003424,-0.00862,-2.3e-05,-0.004349,0.010539,-0.510138,0.002747,0.243398,-264.139084,-0.225244,62.06807
4.1262,0.008947,5.8e-05,0.002817,-0.009373,-2.5e-05,-0.004729,0.010498,-0.509986,0.003129,0.243398,-264.139084,-0.225244,62.06807
4.1461,0.008778,-0.000154,0.00398,-0.010082,-2.7e-05,-0.005087,0.010498,-0.509986,0.003129,0.243398,-264.139084,-0.225244,62.06807
4.166,0.008621,-0.000576,0.002906,-0.01072,-2.8e-05,-0.005409,0.010478,-0.510152,0.003814,0.301321,-264.141919,-0.296517,62.065239
4.1861,0.008793,0.000431,0.002915,-0.011287,-3e-05,-0.005695,0.010443,-0.510182,0.003746,0.301321,-264.141919,-0.296517,62.065239
4.2063,0.008598,-0.000187,0.002319,-0.011793,-3.1e-05,-0.00595,0.009891,-0.509569,0.002718,0.301321,-264.146142,-0.296517,62.061022
4.2263,0.007991,0.000112,0.002439,-0.012228,-3.2e-05,-0.00617,0.009778,-0.50992,0.002466,0.301321,-264.146142,-0.296517,62.061022
4.2462,0.008141,0.000215,0.002541,-0.012598,-3.3e-05,-0.006356,0.009778,-0.50992,0.002466,0.301321,-264.146142,-0.296517,62.061022
4.2661,0.00772,0.00039,0.004094,-0.012901,-3.4e-05,-0.006509,0.008889,-0.509786,0.002264,0.301321,-264.15087,-0.296517,62.056301
4.2861,0.007853,-0.000106,0.000659,-0.013136,-3.5e-05,-0.006628,0.008938,-0.509774,0.002384,0.301321,-264.15087,-0.296517,62.056301
4.3062,0.00703,0.000111,0.002154,-0.013304,-3.5e-05,-0.006712,0.007702,-0.510107,0.000413,0.301321,-264.156161,-0.296517,62.051018
4.3261,0.007084,-0.00015,0.001521,-0.013404,-3.5e-05,-0.006763,0.007886,-0.509981,0.001386,0.301321,-264.156161,-0.296517,62.051018
4.3466,0.007088,0.000146,0.002473,-0.013438,-3.5e-05,-0.00678,0.007886,-0.509981,0.001386,0.301321,-264.156161,-0.296517,62.051018
4.3663,0.006942,0.000149,0.001581,-0.013404,-3.5e-05,-0.006763,0.007712,-0.509856,0.002151,0.301321,-264.161647,-0.296517,62.04554
4.3868,0.006885,-0.000196,0.002017,-0.013304,-3.5e-05,-0.006712,0.007698,-0.509856,0.002105,0.301321,-264.161647,-0.296517,62.04554
4.4062,0.006436,-0.00026,0.001465,-0.013136,-3.5e-05,-0.006628,0.007394,-0.510197,0.001755,0.301321,-264.167288,-0.296517,62.039907
4.4262,0.006454,-7.9e-05,0.002457,-0.012901,-3.4e-05,-0.006509,0.007207,-0.510233,0.001556,0.301321,-264.167288,-0.296517,62.039907
4.4464,0.006672,0.000341,8e-06,-0.012598,-3.3e-05,-0.006357,0.007207,-0.510233,0.001556,0.301321,-264.167288,-0.296517,62.039907
4.4662,0.005976,-0.000608,0.002085,-0.012229,-3.2e-05,-0.00617,0.006031,-0.50966,-0.000317,0.301321,-264.17285,-0.296517,62.034353
4.4865,0.005679,3.6e-05,0.001575,-0.011791,-3.1e-05,-0.005949,0.006084,-0.509726,-0.000158,0.301321,-264.17285,-0.296517,62.034353
4.5066,0.005211,0.000235,0.000645,-0.011287,-3e-05,-0.005695,0.00599,-0.509965,0.001327,0.301321,-264.178127,-0.296517,62.029084
4.5263,0.005673,-0.000146,-0.000596,-0.010715,-2.8e-05,-0.005406,0.005678,-0.509853,0.000916,0.301321,-264.178127,-0.296517,62.029084
4.5463,0.005294,-0.00014,0.000691,-0.010079,-2.7e-05,-0.005086,0.005678,-0.509853,0.000916,0.301321,-264.178127,-0.296517,62.029084
4.5661,0.005077,-9.3e-05,0.000714,-0.009373,-2.5e-05,-0.004729,0.005073,-0.510142,0.000402,0.301321,-264.183074,-0.296517,62.024145
4.5866,0.005226,-0.000118,0.002534,-0.008601,-2.3e-05,-0.00434,0.005084,-0.510139,0.000417,0.301321,-264.183074,-0.296517,62.024145
4.606,0.004521,0.000349,-0.00076,-0.007756,-2e-05,-0.003913,0.00613,-0.510119,0.002338,0.301321,-264.187294,-0.296517,62.019931
4.6261,0.004545,-6.5e-05,0.000402,-0.006852,-1.8e-05,-0.003457,0.00494,-0.509852,0.000543,0.301321,-264.187294,-0.296517,62.019931
4.6461,0.004642,0.000154,0.001518,-0.00588,-1.5e-05,-0.002967,0.00494,-0.509852,0.000543,0.301321,-264.187294,-0.296517,62.019931
4.6661,0.004178,-9.5e-05,0.001362,-0.004837,-1.3e-05,-0.00244,0.004999,-0.509848,0.001307,0.301321,-264.190892,-0.296517,62.016338
4.6869,0.004199,-0.000206,0.000336,-0.003728,-1e-05,-0.001881,0.004979,-0.509865,0.001306,0.301321,-264.190892,-0.296517,62.016338
4.706,0.004474,0.000161,-0.000439,-0.002553,-7e-06,-0.001288,0.004142,-0.510207,0.000221,0.301321,-264.193361,-0.296517,62.013873
4.7269,0.004089,0.000287,-0.000834,-0.001308,-3e-06,-0.00066,0.004175,-0.509998,-0.000169,0.301321,-264.193361,-0.296517,62.013873
4.7466,0.00396,-0.0002,-0.001279,-0.0,-0.0,-0.0,0.004175,-0.509998,-0.000169,0.301321,-264.193361,-0.296517,62.013873
4.7664,0.004307,0.000369,-0.0002,0.0,0.0,0.0,0.003126,-0.5102,-0.00137,0.301321,-264.194927,-0.296517,62.01231
4.7863,0.004175,8.6e-05,0.001083,0.0,0.0,0.0,0.003204,-0.510156,-0.001283,0.301321,-264.194927,-0.296517,62.01231
4.8063,0.003578,7.3e-05,0.000918,0.0,0.0,0.0,0.004728,-0.509914,0.001083,0.301321,-264.194927,-0.296517,62.01231
4.8262,0.003961,8e-06,0.00097,0.0,0.0,0.0,0.00434,-0.509921,0.000989,0.301321,-264.194927,-0.296517,62.01231
4.8465,0.003991,-0.000221,0.000715,0.0,0.0,0.0,0.00434,-0.509921,0.000989,0.301321,-264.194927,-0.296517,62.01231
4.866,0.003908,0.000149,-0.000281,0.0,0.0,0.0,0.004356,-0.510221,0.000715,0.301321,-264.194927,-0.296517,62.01231
4.886,0.004026,0.000206,-0.000308,0.0,0.0,0.0,0.004306,-0.51019,0.000631,0.301321,-264.194927,-0.296517,62.01231
4.9065,0.00403,4.9e-05,-8.2e-05,0.0,0.0,0.0,0.003869,-0.509794,-0.000308,0.301321,-264.194927,-0.296517,62.01231
4.9263,0.004075,-0.000207,-0.000485,0.0,0.0,0.0,0.003937,-0.509884,-0.000179,0.301321,-264.194927,-0.296517,62.01231
4.9466,0.00386,5.9e-05,-0.001366,0.0,0.0,0.0,0.003937,-0.509884,-0.000179,0.301321,-264.194927,-0.296517,62.01231
4.9661,0.003355,-0.000122,-0.001352,0.0,0.0,0.0,0.003164,-0.509941,-0.001366,0.301321,-264.194927,-0.296517,62.01231
4.9866,0.003742,9e-06,-0.000102,-0.0001,3e-06,0.0,0.003128,-0.509954,-0.001365,0.301321,-264.194927,-0.296517,62.01231
5.0065,0.004156,-3.5e-05,1.6e-05,-0.0001,3e-06,0.0,0.00369,-0.509991,-0.000102,0.301321,-264.194927,-0.296517,62.01231
5.0261,0.004159,-0.000553,5.5e-05,-0.0001,3e-06,0.0,0.003962,-0.510017,-3.4e-05,0.301321,-264.194927,-0.296517,62.01231
5.0464,0.004101,-4.8e-05,-0.000253,-0.0001,3e-06,0.0,0.003962,-0.510017,-3.4e-05,0.301321,-264.194927,-0.296517,62.01231
5.0667,0.003691,-0.000345,-0.000175,-0.0001,3e-06,0.0,0.003972,-0.510048,-0.000253,0.22632,-264.194929,-0.221516,62.012307
5.087,0.003989,-8.7e-05,-0.001052,-0.0001,3e-06,0.0,0.003945,-0.51007,-0.000247,0.22632,-264.194929,-0.221516,62.012307
5.1064,0.004125,-0.000431,0.000526,-0.0001,3e-06,0.0,0.003452,-0.510086,-0.001052,0.151342,-264.194936,-0.146539,62.0123
5.1265,0.004134,-7e-05,0.000439,-0.0001,3e-06,0.0,0.003991,-0.510284,-0.000149,0.151342,-264.194936,-0.146539,62.0123
5.1461,0.003931,-7.1e-05,-0.000318,-0.0001,3e-06,0.0,0.003991,-0.510284,-0.000149,0.151342,-264.194936,-0.146539,62.0123
5.1661,0.003906,-0.000321,-0.000764,-0.0001,3e-06,0.0,0.003767,-0.510071,-0.000318,0.076364,-264.194955,-0.07156,62.012281
5.1861,0.003658,-0.000123,-0.00112,-0.0001,3e-06,0.0,0.003749,-0.510088,-0.000349,0.076364,-264.194955,-0.07156,62.012281
5.2065,0.004221,0.000339,0.000738,-0.000504,1.8e-05,0.000203,0.003084,-0.510123,-0.00112,0.001482,-264.194987,-0.03489,62.012249
5.2265,0.003802,-8.9e-05,-5.5e-05,-0.000958,3.3e-05,0.000386,0.003955,-0.509857,-5e-05,0.001482,-264.194987,-0.03489,62.012249
5.2463,0.003878,-5.7e-05,0.000211,-0.001396,4.9e-05,0.000563,0.003955,-0.509857,-5e-05,0.001482,-264.194987,-0.03489,62.012249
5.2662,0.004021,0.000314,0.000238,-0.001812,6.3e-05,0.00073,0.003981,-0.510057,0.000211,-0.03489,-264.195027,-0.03489,62.01221
5.2869,0.003862,-0.000125,0.001043,-0.002202,7.7e-05,0.000887,0.003994,-0.510027,0.000213,-0.03489,-264.195027,-0.03489,62.01221
5.3063,0.003901,0.000376,-0.000422,-0.002567,9e-05,0.001035,0.004385,-0.510125,0.001044,-0.109972,-264.195115,0.040191,62.012123
5.3264,0.003796,0.000164,0.00053,-0.002908,0.000101,0.001172,0.003986,-0.50984,0.000209,-0.109972,-264.195115,0.040191,62.012123
5.3465,0.003587,-0.000184,-0.0003,-0.003221,0.000112,0.001298,0.003986,-0.50984,0.000209,-0.109972,-264.195115,0.040191,62.012123
5.3661,0.003697,-7.6e-05,0.000403,-0.003512,0.000123,0.001415,0.003389,-0.510182,-0.000289,-0.184685,-264.195493,0.114904,62.011751
5.3865,0.003696,0.000109,-0.00031,-0.003775,0.000132,0.001521,0.003425,-0.510174,-0.000238,-0.184685,-264.195493,0.114904,62.011751
5.4062,0.003902,0.000186,0.000914,-0.004014,0.00014,0.001618,0.003443,-0.509887,-0.000274,-0.259853,-264.196515,0.190073,62.010745
5.4262,0.003463,-0.000305,0.000664,-0.004228,0.000148,0.001704,0.003958,-0.509845,0.000407,-0.259853,-264.196515,0.190073,62.010745
5.4461,0.003764,-0.000115,-0.000443,-0.004417,0.000154,0.00178,0.003958,-0.509845,0.000407,-0.259853,-264.196515,0.190073,62.010745
5.4664,0.003765,-0.000186,0.000765,-0.00458,0.00016,0.001846,0.003356,-0.510109,-0.00037,-0.273979,-264.198079,0.208177,62.009207
5.486,0.003404,-0.000186,0.001568,-0.004719,0.000165,0.001902,0.003417,-0.510115,-0.000274,-0.273979,-264.198079,0.208177,62.009207
5.5066,0.003538,3.9e-05,0.000798,-0.004832,0.000169,0.001947,0.004034,-0.51018,0.001637,-0.273979,-264.199905,0.208177,62.007409
5.5262,0.00318,-0.000232,0.000483,-0.004921,0.000172,0.001983,0.003962,-0.510054,0.001167,-0.273979,-264.199905,0.208177,62.007409
5.5468,0.003278,0.00015,0.001649,-0.004983,0.000174,0.002008,0.003962,-0.510054,0.001167,-0.273979,-264.199905,0.208177,62.007409
5.5666,0.003142,0.000201,-0.000381,-0.005021,0.000175,0.002023,0.00389,-0.509842,0.001741,-0.273979,-264.201865,0.208177,62.005481
5.5865,0.002891,0.000392,0.000293,-0.005033,0.000176,0.002028,0.003819,-0.509838,0.001598,-0.273979,-264.201865,0.208177,62.005481
