mach0312/omni-docking-bench/src/icros_test_setup/results/kinematic_sample/timeseries/trial_014.csv
t,x,y,yaw,vx,vy,wz,bl_x,bl_y,bl_yaw,front_steering_joint,front_wheel_joint,rear_steering_joint,rear_wheel_joint
0.0,-0.008446,0.019833,0.051756,0.007091,0.000998,0.003857,0.016674,-0.489114,0.051778,0.441757,-263.332048,-0.189138,63.374077
0.0005,-0.008721,0.020095,0.052043,0.003891,0.000548,0.002116,0.016665,-0.489068,0.050902,0.441757,-263.328595,-0.189138,63.377256
0.0009,-0.008292,0.020174,0.0533,0.003203,0.000451,0.001742,0.017223,-0.489037,0.051374,0.441757,-263.325457,-0.189138,63.380144
0.0013,-0.008323,0.020263,0.052633,0.002469,0.000347,0.001343,0.017223,-0.489037,0.051374,0.441757,-263.322938,-0.189138,63.382462
0.0016,-0.008973,0.020281,0.052428,0.001691,0.000238,0.000919,0.017223,-0.489037,0.051374,0.441757,-263.320931,-0.189138,63.38431
0.002,-0.008328,0.020377,0.0526,0.000869,0.000122,0.000473,0.017547,-0.489107,0.051948,0.441757,-263.319838,-0.189138,63.385315
0.0024,-0.008243,0.020215,0.052367,2e-06,0.0,1e-06,0.017547,-0.489107,0.051948,0.441757,-263.319454,-0.189138,63.385669
0.0027,-0.00797,0.020247,0.051654,0.0,0.0,0.0,0.017578,-0.489112,0.051993,0.441757,-263.319454,-0.189138,63.385669
0.003,-0.008353,0.020324,0.051463,0.0,0.0,0.0,0.017578,-0.489112,0.051993,0.441757,-263.319454,-0.189138,63.385669
0.0033,-0.008153,0.020187,0.052006,0.0,0.0,0.0,0.018348,-0.488721,0.05336,0.441757,-263.319454,-0.189138,63.385669
0.0179,-0.008395,0.020038,0.052865,0.007093,-0.016,-0.03,0.018358,-0.489124,0.052006,0.441757,-263.319454,-0.189138,63.385669
0.0379,-0.008321,0.020637,0.053309,0.007324,-0.020454,-0.05,0.018469,-0.489195,0.052494,0.441757,-263.319454,-0.189138,63.385669
0.058,-0.008236,0.020392,0.053163,0.00721,-0.021051,-0.05,0.018469,-0.489195,0.052494,0.441757,-263.319454,-0.189138,63.385669
0.0778,-0.00829,0.020231,0.053124,0.00714,-0.020801,-0.05,0.018865,-0.488888,0.053163,0.441757,-263.319454,-0.189138,63.385669
0.0983,-0.008297,0.020288,0.051721,0.007204,-0.020642,-0.05,0.01886,-0.488898,0.053161,0.441757,-263.319454,-0.189138,63.385669
0.1178,-0.008102,0.02042,0.053034,0.007237,-0.020689,-0.05,0.018069,-0.48903,0.051721,0.51671,-263.319454,-0.114185,63.385669
0.1378,-0.008286,0.019998,0.052017,0.007009,-0.020821,-0.05,0.01856,-0.488935,0.052468,0.51671,-263.319454,-0.114185,63.385669
0.1582,-0.008494,0.020273,0.050865,0.007235,-0.020402,-0.05,0.01856,-0.488935,0.052468,0.51671,-263.319454,-0.114185,63.385669
0.1784,-0.00815,0.020269,0.053235,0.007452,-0.020679,-0.05,0.017436,-0.489067,0.050865,0.591782,-263.319454,-0.039112,63.385669
0.1983,-0.008449,0.020418,0.052763,0.00706,-0.020674,-0.05,0.017545,-0.489063,0.05103,0.591782,-263.319454,-0.039112,63.385669
0.2178,-0.008369,0.020169,0.051907,0.00736,-0.020835,-0.05,0.018448,-0.488872,0.052763,0.667084,-263.319454,0.036189,63.385669
0.2378,-0.008312,0.020056,0.052767,0.007311,-0.020576,-0.05,0.018245,-0.489027,0.052274,0.667084,-263.319454,0.036189,63.385669
0.2582,-0.008234,0.020214,0.052815,0.007243,-0.020466,-0.05,0.018245,-0.489027,0.052274,0.667084,-263.319454,0.036189,63.385669
0.2784,-0.008324,0.0203,0.051265,0.007156,-0.02062,-0.05,0.018689,-0.489075,0.052815,0.741809,-263.319454,0.110914,63.385669
0.2983,-0.008404,0.020071,0.051835,0.007273,-0.020699,-0.05,0.018633,-0.489072,0.052716,0.741809,-263.319454,0.110914,63.385669
0.3178,-0.008295,0.020185,0.051204,0.007353,-0.02048,-0.05,0.01802,-0.489244,0.051835,0.81672,-263.319454,0.185825,63.385669
0.3379,-0.008288,0.020241,0.051546,0.007251,-0.020583,-0.05,0.0179,-0.489189,0.05148,0.81672,-263.319454,0.185825,63.385669
0.3577,-0.008227,0.020374,0.052671,0.007234,-0.020641,-0.05,0.0179,-0.489189,0.05148,0.81672,-263.319454,0.185825,63.385669
0.378,-0.008085,0.019968,0.052439,0.007143,-0.020779,-0.05,0.018622,-0.488919,0.052671,0.891714,-263.319454,0.26082,63.385669
0.3984,-0.00851,0.020548,0.051169,0.007027,-0.020364,-0.05,0.018624,-0.488948,0.052655,0.891714,-263.319454,0.26082,63.385669
0.418,-0.008572,0.019923,0.052047,0.007448,-0.020957,-0.05,0.017575,-0.488784,0.051169,0.966707,-263.319454,0.335813,63.385669
0.4381,-0.008263,0.020353,0.053331,0.007524,-0.020342,-0.05,0.017792,-0.489125,0.051666,0.966707,-263.319454,0.335813,63.385669
0.4585,-0.008492,0.020393,0.052248,0.007167,-0.020765,-0.05,0.017792,-0.489125,0.051666,0.966707,-263.319454,0.335813,63.385669
0.479,-0.008097,0.020431,0.052589,0.007416,-0.020808,-0.05,0.018142,-0.488912,0.052248,1.041698,-263.319454,0.410804,63.385669
0.4981,-0.008113,0.019972,0.05147,0.007012,-0.020828,-0.05,0.01818,-0.488908,0.052271,1.041698,-263.319454,0.410804,63.385669
0.5181,-0.008145,0.02026,0.053225,0.007074,-0.020363,-0.05,0.018126,-0.489352,0.05147,1.116712,-263.319454,0.485818,63.385669
0.5378,-0.008234,0.020517,0.050842,0.007056,-0.020664,-0.05,0.018615,-0.489163,0.052467,1.116712,-263.319454,0.485818,63.385669
0.5579,-0.008462,0.020379,0.053614,0.007181,-0.020909,-0.05,0.018615,-0.489163,0.052467,1.116712,-263.319454,0.485818,63.385669
0.5783,-0.008171,0.020263,0.054235,0.007357,-0.020803,-0.05,0.018868,-0.488889,0.053614,1.191699,-263.319455,0.560804,63.38567
0.5981,-0.008407,0.020791,0.053026,0.007061,-0.020676,-0.05,0.018908,-0.488895,0.053654,1.191699,-263.319455,0.560804,63.38567
0.6182,-0.008127,0.020291,0.052255,0.007293,-0.021207,-0.05,0.018624,-0.488493,0.053024,1.26672,-263.31948,0.635826,63.385675
0.6379,-0.008137,0.020416,0.052921,0.007057,-0.020687,-0.05,0.018559,-0.488789,0.052587,1.26672,-263.31948,0.635826,63.385675
0.6578,-0.008456,0.020439,0.051733,0.007046,-0.020818,-0.05,0.018559,-0.488789,0.052587,1.26672,-263.31948,0.635826,63.385675
0.6779,-0.008397,0.020151,0.052695,0.007388,-0.020849,-0.05,0.017916,-0.488887,0.051715,1.341706,-263.319647,0.710812,63.385715
0.6981,-0.008127,0.02021,0.051444,0.007324,-0.020565,-0.05,0.017954,-0.488905,0.051782,1.341706,-263.319647,0.710812,63.385715
0.7183,-0.008331,0.020247,0.053123,0.007077,-0.020601,-0.05,0.0181,-0.489154,0.051355,1.416699,-263.320619,0.785805,63.38594
0.7377,-0.008123,0.019966,0.053351,0.007244,-0.020661,-0.05,0.01847,-0.48909,0.052353,1.416699,-263.320619,0.785805,63.38594
0.7579,-0.00859,0.019982,0.052017,0.007046,-0.020371,-0.05,0.01847,-0.48909,0.052353,1.416699,-263.320619,0.785805,63.38594
0.778,-0.008036,0.019619,0.05211,0.00754,-0.020402,-0.05,0.017951,-0.489497,0.051615,1.491756,-263.324043,0.860862,63.38676
0.7983,-0.007752,0.020417,0.05123,0.007003,-0.020011,-0.05,0.017992,-0.489514,0.051639,1.491756,-263.324043,0.860862,63.38676
0.8184,-0.007513,0.019853,0.051242,0.006697,-0.020787,-0.05,0.018429,-0.489121,0.050637,1.566702,-263.329968,0.935808,63.388714
0.838,-0.00796,0.020002,0.051228,0.006486,-0.020212,-0.05,0.01854,-0.48935,0.050907,1.566702,-263.329968,0.935808,63.388714
0.8578,-0.00789,0.01976,0.052236,0.006926,-0.020383,-0.05,0.01854,-0.48935,0.050907,1.566702,-263.329968,0.935808,63.388714
0.8779,-0.00695,0.019552,0.050316,0.006847,-0.020145,-0.05,0.018911,-0.489869,0.051106,1.641753,-263.338391,0.983758,63.392243
0.8983,-0.007131,0.019381,0.051065,0.005958,-0.019877,-0.05,0.018901,-0.489872,0.051026,1.641753,-263.338391,0.983758,63.392243
0.9178,-0.005393,0.019176,0.048138,0.006132,-0.01972,-0.05,0.019114,-0.490283,0.049909,1.705977,-263.349318,0.972211,63.396836
0.938,-0.005789,0.019154,0.04826,0.004464,-0.019413,-0.048138,0.019161,-0.490296,0.048753,1.705977,-263.349318,0.972211,63.396836
0.9586,-0.005858,0.019261,0.0496,0.004858,-0.019411,-0.04826,0.019161,-0.490296,0.048753,1.705977,-263.349318,0.972211,63.396836
0.9779,-0.004876,0.018312,0.046743,0.004896,-0.019528,-0.0496,0.019683,-0.490687,0.0479,1.688425,-263.36274,1.047253,63.401117
0.9983,-0.004545,0.01836,0.04649,0.004015,-0.01852,-0.046743,0.019644,-0.490728,0.047789,1.688425,-263.36274,1.047253,63.401117
1.0182,-0.003334,0.017768,0.044998,0.003687,-0.018551,-0.04649,0.019345,-0.491669,0.044948,1.669852,-263.378663,1.12106,63.405191
1.0383,-0.003238,0.018143,0.04467,0.002531,-0.0179,-0.044998,0.019518,-0.491769,0.044781,1.669852,-263.378663,1.12106,63.405191
1.0581,-0.003203,0.0177,0.045833,0.002425,-0.01827,-0.04467,0.019518,-0.491769,0.044781,1.669852,-263.378663,1.12106,63.405191
1.078,-0.00191,0.016913,0.043961,0.002389,-0.017828,-0.045833,0.020381,-0.492589,0.04373,1.655902,-263.396121,1.189937,63.409183
1.0982,-0.002056,0.01707,0.042115,0.001165,-0.01698,-0.043961,0.020395,-0.49261,0.043692,1.655902,-263.396121,1.189937,63.409183
1.1183,-0.000851,0.016409,0.040055,0.001336,-0.017142,-0.042115,0.019518,-0.493031,0.04076,1.623975,-263.410477,1.264948,63.41212
1.1383,-0.000987,0.016381,0.038131,0.000194,-0.01643,-0.040055,0.019561,-0.493187,0.040187,1.623975,-263.410477,1.264948,63.41212
1.1578,-0.00136,0.01654,0.040641,0.000362,-0.016406,-0.038131,0.019561,-0.493187,0.040187,1.623975,-263.410477,1.264948,63.41212
1.1783,-1.5e-05,0.016236,0.039593,0.000687,-0.016582,-0.040641,0.019426,-0.493501,0.039451,1.597363,-263.420269,1.339958,63.41434
1.1979,-9.6e-05,0.01602,0.040217,-0.000628,-0.016224,-0.039593,0.019478,-0.493503,0.03943,1.597363,-263.420269,1.339958,63.41434
1.218,0.000147,0.015566,0.037954,-0.000548,-0.016011,-0.040217,0.020441,-0.493946,0.03934,1.579909,-263.429753,1.414954,63.415986
1.2378,0.000354,0.015495,0.040226,-0.000738,-0.015549,-0.037954,0.019907,-0.494063,0.038437,1.579909,-263.429753,1.414954,63.415986
1.2579,0.000246,0.015259,0.037737,-0.000977,-0.015469,-0.040226,0.019907,-0.494063,0.038437,1.579909,-263.429753,1.414954,63.415986
1.2786,0.000811,0.015156,0.037399,-0.000822,-0.015238,-0.037737,0.0195,-0.494699,0.036954,1.555261,-263.436326,1.490037,63.417284
1.2984,0.000815,0.015163,0.036931,-0.001377,-0.015115,-0.037399,0.019526,-0.494693,0.036964,1.555261,-263.436326,1.490037,63.417284
1.3181,0.001691,0.014779,0.036107,-0.001375,-0.015122,-0.036931,0.019648,-0.494827,0.03605,1.546407,-263.4454,1.564945,63.419358
1.3381,0.001272,0.015143,0.036863,-0.002223,-0.014708,-0.036107,0.019906,-0.494905,0.035971,1.546407,-263.4454,1.564945,63.419358
1.358,0.001446,0.014674,0.035758,-0.001829,-0.015086,-0.036863,0.019906,-0.494905,0.035971,1.546407,-263.4454,1.564945,63.419358
1.3779,0.001385,0.014955,0.036374,-0.00197,-0.014613,-0.035758,0.019679,-0.495,0.035758,1.534534,-263.445401,1.489948,63.419358
1.3982,0.001473,0.014659,0.035899,-0.001928,-0.014895,-0.036374,0.019696,-0.494981,0.035799,1.534534,-263.445401,1.489948,63.419358
1.4179,0.001108,0.014882,0.036918,-0.001998,-0.014597,-0.035899,0.019778,-0.495012,0.035899,1.522184,-263.445403,1.414944,63.419357
1.4382,0.001002,0.014867,0.036149,-0.001656,-0.014831,-0.036918,0.019864,-0.494877,0.03647,1.522184,-263.445403,1.414944,63.419357
1.4584,0.001289,0.014748,0.036546,-0.001539,-0.014821,-0.036149,0.019864,-0.494877,0.03647,1.522184,-263.445403,1.414944,63.419357
1.4778,0.001253,0.014884,0.03539,-0.001827,-0.014691,-0.036546,0.019924,-0.494911,0.036546,1.518898,-263.445404,1.339847,63.419357
1.4982,0.001209,0.014891,0.035502,-0.001779,-0.014831,-0.03539,0.019873,-0.494902,0.036452,1.518898,-263.445404,1.339847,63.419357
1.5179,0.001293,0.014937,0.035556,-0.001737,-0.014839,-0.035502,0.019311,-0.494788,0.035502,1.529111,-263.445406,1.264482,63.419357
1.5379,0.001363,0.014623,0.036849,-0.001823,-0.014882,-0.035556,0.019375,-0.494761,0.035533,1.529111,-263.445406,1.264482,63.419357
1.558,0.001542,0.014631,0.038414,-0.001901,-0.014563,-0.036849,0.019375,-0.494761,0.035533,1.529111,-263.445406,1.264482,63.419357
1.5778,0.001454,0.014381,0.035412,-0.002103,-0.014561,-0.038414,0.021129,-0.494993,0.038414,1.522016,-263.445407,1.189826,63.419356
1.5984,0.001652,0.014841,0.03656,-0.001962,-0.014321,-0.035412,0.02101,-0.495015,0.038194,1.522016,-263.445407,1.189826,63.419356
1.6183,0.001546,0.014861,0.037147,-0.002193,-0.014771,-0.03656,0.020293,-0.494818,0.03656,1.519557,-263.445409,1.114846,63.419356
1.6379,0.000955,0.014673,0.036742,-0.002097,-0.014793,-0.037147,0.020402,-0.494801,0.036891,1.519557,-263.445409,1.114846,63.419356
1.6578,0.001291,0.014697,0.036954,-0.001493,-0.014628,-0.036742,0.020402,-0.494801,0.036891,1.519557,-263.445409,1.114846,63.419356
1.678,0.001474,0.014781,0.037085,-0.001834,-0.014639,-0.036954,0.020134,-0.494955,0.036954,1.516272,-263.44541,1.039953,63.419356
1.6987,0.001376,0.014783,0.036328,-0.002021,-0.014716,-0.037085,0.02015,-0.494949,0.036963,1.516272,-263.44541,1.039953,63.419356
1.7181,0.000922,0.014554,0.036599,-0.001912,-0.014724,-0.036328,0.0199,-0.49488,0.036328,1.530535,-263.445412,0.964956,63.419355
1.738,0.00138,0.014811,0.036746,-0.001454,-0.014511,-0.036599,0.019721,-0.495007,0.036482,1.530535,-263.445412,0.964956,63.419355
1.7585,0.001242,0.014394,0.03663,-0.001923,-0.01475,-0.036746,0.019721,-0.495007,0.036482,1.530535,-263.445412,0.964956,63.419355
1.7778,0.001524,0.014702,0.035566,-0.001768,-0.014339,-0.03663,0.019919,-0.495264,0.03663,1.516749,-263.445413,0.889786,63.419355
1.7983,0.001485,0.014659,0.035841,-0.002046,-0.014638,-0.035566,0.019902,-0.495246,0.036562,1.516749,-263.445413,0.889786,63.419355
1.8179,0.001195,0.014747,0.036045,-0.00201,-0.014597,-0.035841,0.019761,-0.495013,0.035841,1.519136,-263.445415,0.814916,63.419355
1.8379,0.001502,0.014524,0.035946,-0.001726,-0.014694,-0.036045,0.019654,-0.494961,0.035957,1.519136,-263.445415,0.814916,63.419355
1.858,0.001124,0.014759,0.035122,-0.002023,-0.014461,-0.035946,0.019654,-0.494961,0.035957,1.519136,-263.445415,0.814916,63.419355
1.8778,0.001293,0.014665,0.036315,-0.001642,-0.014711,-0.035122,0.019032,-0.494926,0.035121,1.514588,-263.445416,0.739916,63.419354
1.8983,0.001236,0.014766,0.035224,-0.001824,-0.014608,-0.036315,0.019083,-0.494931,0.0352,1.514588,-263.445416,0.739916,63.419354
1.9179,0.001391,0.014488,0.034929,-0.001755,-0.014713,-0.035224,0.019196,-0.494918,0.035224,1.515307,-263.445417,0.664939,63.419354
1.9379,0.001184,0.014246,0.035334,-0.001896,-0.014431,-0.034929,0.019199,-0.495079,0.035056,1.515307,-263.445417,0.664939,63.419354
1.9578,0.001562,0.0149,0.038374,-0.001687,-0.014195,-0.035334,0.019199,-0.495079,0.035056,1.515307,-263.445417,0.664939,63.419354
1.9778,0.000963,0.014881,0.035815,-0.002132,-0.014829,-0.038374,0.021127,-0.494725,0.038374,1.521242,-263.445419,0.589837,63.419354
1.9985,0.001135,0.014692,0.036328,-0.001495,-0.014837,-0.035815,0.020996,-0.49473,0.038197,1.521242,-263.445419,0.589837,63.419354
2.018,0.001403,0.014516,0.03733,-0.001668,-0.014641,-0.036328,0.019658,-0.494972,0.036328,1.523689,-263.44542,0.514841,63.419354
2.0383,0.001304,0.014717,0.036448,-0.001944,-0.014453,-0.03733,0.020103,-0.495062,0.0369,1.523689,-263.44542,0.514841,63.419354
2.0583,0.001667,0.01456,0.036988,-0.00184,-0.01466,-0.036448,0.020103,-0.495062,0.0369,1.523689,-263.44542,0.514841,63.419354
2.0779,0.001413,0.014601,0.03631,-0.002205,-0.014489,-0.036988,0.020527,-0.495091,0.036988,1.5301,-263.445422,0.439857,63.419353
2.0978,0.001294,0.014584,0.03722,-0.001942,-0.01454,-0.03631,0.020483,-0.495089,0.036938,1.5301,-263.445422,0.439857,63.419353
2.1183,0.001347,0.014831,0.03904,-0.001836,-0.014526,-0.03722,0.020272,-0.495063,0.03722,1.521007,-263.445423,0.364836,63.419353
2.1379,0.001262,0.014549,0.035555,-0.001924,-0.014767,-0.03904,0.020829,-0.494902,0.038255,1.521007,-263.445423,0.364836,63.419353
2.158,0.001187,0.014569,0.035421,-0.001778,-0.014495,-0.035555,0.020829,-0.494902,0.038255,1.521007,-263.445423,0.364836,63.419353
2.1787,0.000996,0.014622,0.035025,-0.001702,-0.014518,-0.035421,0.019248,-0.495111,0.035421,1.517945,-263.445425,0.289959,63.419353
2.1982,0.001278,0.014602,0.036461,-0.001508,-0.014578,-0.035025,0.019222,-0.495108,0.035395,1.517945,-263.445425,0.289959,63.419353
2.2177,0.001488,0.014647,0.036913,-0.001809,-0.014545,-0.036461,0.019869,-0.49506,0.036461,1.521722,-263.445426,0.214945,63.419352
2.2377,0.001463,0.014699,0.035733,-0.002027,-0.014583,-0.036913,0.020119,-0.495029,0.036718,1.521722,-263.445426,0.214945,63.419352
2.2578,0.001455,0.015194,0.037085,-0.001987,-0.014637,-0.035733,0.020119,-0.495029,0.036718,1.521722,-263.445426,0.214945,63.419352
2.2779,0.001458,0.014589,0.037147,-0.002018,-0.015129,-0.037085,0.020364,-0.494456,0.037085,1.528907,-263.445428,0.139948,63.419352
2.2977,0.001267,0.014563,0.03753,-0.001999,-0.014525,-0.037147,0.020367,-0.494497,0.03709,1.528907,-263.445428,0.139948,63.419352
2.3177,0.001489,0.014708,0.037119,-0.001812,-0.014506,-0.03753,0.020402,-0.495078,0.03753,1.516347,-263.445429,0.064944,63.419352
2.3377,0.001676,0.015146,0.03531,-0.002034,-0.014643,-0.037119,0.02041,-0.495,0.037295,1.516347,-263.445429,0.064944,63.419352
2.3583,0.001665,0.014792,0.036478,-0.00221,-0.015077,-0.03531,0.02041,-0.495,0.037295,1.516347,-263.445429,0.064944,63.419352
2.3778,0.001333,0.014733,0.038141,-0.002203,-0.014721,-0.036478,0.020264,-0.494869,0.036478,1.517126,-263.445431,-0.010045,63.419351
2.3978,0.001492,0.014802,0.035857,-0.001893,-0.014671,-0.038141,0.020299,-0.494871,0.03659,1.517126,-263.445431,-0.010045,63.419351
2.4184,0.00104,0.014366,0.037442,-0.002022,-0.014739,-0.035857,0.019775,-0.494871,0.035857,1.510557,-263.445432,-0.085065,63.419351
2.4382,0.001349,0.014618,0.036857,-0.001577,-0.014317,-0.037442,0.019978,-0.495102,0.036759,1.510557,-263.445432,-0.085065,63.419351
2.4577,0.001348,0.014857,0.036318,-0.001887,-0.014558,-0.036857,0.019978,-0.495102,0.036759,1.510557,-263.445432,-0.085065,63.419351
2.4781,0.001339,0.014982,0.038368,-0.001887,-0.014798,-0.036318,0.019866,-0.494807,0.036317,1.520967,-263.445434,-0.160055,63.419351
2.4978,0.001393,0.014619,0.035846,-0.001912,-0.01492,-0.038368,0.019938,-0.494795,0.03646,1.520967,-263.445434,-0.160055,63.419351
2.518,0.001476,0.014423,0.036586,-0.001916,-0.014559,-0.035846,0.01967,-0.495054,0.035846,1.519947,-263.445435,-0.235058,63.41935
2.5379,0.001164,0.014554,0.03597,-0.002003,-0.01436,-0.036586,0.019934,-0.495158,0.036269,1.519947,-263.445435,-0.235058,63.41935
2.5582,0.001543,0.015192,0.037408,-0.001686,-0.014503,-0.03597,0.019934,-0.495158,0.036269,1.519947,-263.445435,-0.235058,63.41935
2.5788,0.001394,0.014674,0.034216,-0.00211,-0.015124,-0.037408,0.020617,-0.494451,0.037408,1.520974,-263.445437,-0.310156,63.41935
2.5979,0.001168,0.014887,0.036536,-0.001895,-0.014618,-0.034216,0.020493,-0.494491,0.037186,1.520974,-263.445437,-0.310156,63.41935
2.6182,0.001277,0.014798,0.03706,-0.001711,-0.014834,-0.036536,0.019797,-0.494773,0.036536,1.524596,-263.445438,-0.385189,63.41935
2.6379,0.001387,0.014848,0.034415,-0.001824,-0.01474,-0.03706,0.020012,-0.494818,0.036836,1.524596,-263.445438,-0.385189,63.41935
2.6582,0.001562,0.014811,0.035911,-0.001897,-0.014791,-0.034415,0.020012,-0.494818,0.036836,1.524596,-263.445438,-0.385189,63.41935
2.6779,0.00167,0.014977,0.036516,-0.002092,-0.014745,-0.035911,0.019872,-0.494861,0.035911,1.517494,-263.445439,-0.460192,63.41935
2.6978,0.001505,0.014913,0.036859,-0.002216,-0.014906,-0.036516,0.019905,-0.494847,0.035958,1.517494,-263.445439,-0.460192,63.41935
2.7177,0.000975,0.01502,0.036944,-0.002053,-0.014848,-0.036859,0.020299,-0.49474,0.036859,1.517862,-263.445441,-0.53536,63.419349
2.7379,0.001224,0.014551,0.036105,-0.001529,-0.014974,-0.036944,0.020022,-0.494679,0.036907,1.517862,-263.445441,-0.53536,63.419349
2.7579,0.001467,0.014856,0.036581,-0.001749,-0.014497,-0.036105,0.020022,-0.494679,0.036907,1.517862,-263.445441,-0.53536,63.419349
2.7778,0.001301,0.014884,0.0365,-0.002009,-0.014792,-0.036581,0.020119,-0.494803,0.036581,1.511306,-263.445443,-0.610051,63.419349
2.7981,0.001284,0.01483,0.035161,-0.001843,-0.014827,-0.0365,0.020104,-0.494801,0.036575,1.511306,-263.445443,-0.610051,63.419349
2.8179,0.001331,0.014942,0.037708,-0.001804,-0.014776,-0.035161,0.019212,-0.494855,0.03516,1.522982,-263.445446,-0.685188,63.419348
2.8378,0.001861,0.014612,0.036599,-0.001893,-0.014881,-0.037708,0.019977,-0.494764,0.036608,1.522982,-263.445446,-0.685188,63.419348
2.8578,0.001481,0.014494,0.035735,-0.002394,-0.014534,-0.036599,0.019977,-0.494764,0.036608,1.522982,-263.445446,-0.685188,63.419348
2.8778,0.001269,0.014648,0.036398,-0.001998,-0.014432,-0.035735,0.019702,-0.495181,0.035733,1.521179,-263.445459,-0.760049,63.419346
2.8978,0.001159,0.014531,0.036313,-0.001802,-0.014592,-0.036398,0.019713,-0.495167,0.035788,1.521179,-263.445459,-0.760049,63.419346
2.9177,0.001324,0.014786,0.036814,-0.001686,-0.01448,-0.036313,0.019673,-0.49514,0.036297,1.50598,-263.445636,-0.835442,63.419306
2.9377,0.001404,0.014899,0.036211,-0.001867,-0.014728,-0.036814,0.019913,-0.494986,0.036589,1.50598,-263.445636,-0.835442,63.419306
2.9578,0.001237,0.0147,0.035647,-0.001943,-0.014839,-0.036211,0.019913,-0.494986,0.036589,1.50598,-263.445636,-0.835442,63.419306
2.978,0.001451,0.015125,0.037608,-0.00176,-0.014647,-0.035647,0.019411,-0.494987,0.035622,1.521908,-263.445848,-0.910064,63.419261
2.9978,0.000963,0.014924,0.037971,-0.002019,-0.01506,-0.037608,0.019494,-0.494955,0.035757,1.521908,-263.445848,-0.910064,63.419261
3.0184,0.001236,0.014832,0.036538,-0.001529,-0.014877,-0.037971,0.020317,-0.494752,0.037872,1.51828,-263.446915,-0.985052,63.419044
3.0388,0.001645,0.014357,0.038758,-0.001777,-0.014777,-0.036538,0.02006,-0.4948,0.037102,1.51828,-263.446915,-0.985052,63.419044
3.0582,0.001576,0.014693,0.03609,-0.0022,-0.014283,-0.038758,0.02006,-0.4948,0.037102,1.51828,-263.446915,-0.985052,63.419044
3.0777,0.001605,0.014691,0.035374,-0.002105,-0.014627,-0.03609,0.019959,-0.495095,0.035804,1.517758,-263.44934,-1.060048,63.418524
3.0978,0.001685,0.014609,0.035801,-0.002124,-0.014625,-0.035374,0.019936,-0.495091,0.035765,1.517758,-263.44934,-1.060048,63.418524
3.1183,0.001788,0.014616,0.03572,-0.002207,-0.014539,-0.035801,0.019911,-0.495222,0.03539,1.512897,-263.453573,-1.135215,63.417451
3.1385,0.001739,0.014352,0.034831,-0.002309,-0.014543,-0.03572,0.019959,-0.49515,0.035524,1.512897,-263.453573,-1.135215,63.417451
3.1584,0.001658,0.01473,0.034519,-0.002238,-0.014283,-0.034831,0.019959,-0.49515,0.035524,1.512897,-263.453573,-1.135215,63.417451
3.1782,0.002317,0.014167,0.0341,-0.002165,-0.014664,-0.034519,0.019199,-0.495257,0.03365,1.512244,-263.460306,-1.210078,63.415323
3.199,0.00203,0.014421,0.033921,-0.002798,-0.01408,-0.0341,0.01923,-0.495282,0.033657,1.512244,-263.460306,-1.210078,63.415323
3.2182,0.002711,0.013738,0.032841,-0.002517,-0.014344,-0.033921,0.019266,-0.495607,0.032968,1.507935,-263.469541,-1.260929,63.412507
3.2383,0.002607,0.014124,0.033046,-0.003161,-0.013642,-0.032841,0.019366,-0.495858,0.03278,1.507935,-263.469541,-1.260929,63.412507
3.2579,0.002922,0.013849,0.033717,-0.003072,-0.01403,-0.033046,0.019366,-0.495858,0.03278,1.507935,-263.469541,-1.260929,63.412507
3.2784,0.003121,0.01304,0.031737,-0.003388,-0.013743,-0.033717,0.020017,-0.49643,0.032311,1.490796,-263.481276,-1.18593,63.409905
3.2985,0.003444,0.013033,0.032072,-0.003533,-0.012934,-0.031737,0.019968,-0.496462,0.032238,1.490796,-263.481276,-1.18593,63.409905
3.318,0.003586,0.012493,0.031778,-0.00386,-0.012916,-0.032072,0.019706,-0.497199,0.030914,1.481233,-263.493713,-1.11092,63.407415
3.3382,0.003701,0.012655,0.031221,-0.003981,-0.012373,-0.031778,0.019741,-0.49729,0.031253,1.481233,-263.493713,-1.11092,63.407415
3.3583,0.00392,0.012413,0.031265,-0.004094,-0.012533,-0.031221,0.019741,-0.49729,0.031253,1.481233,-263.493713,-1.11092,63.407415
3.3779,0.004659,0.01197,0.030098,-0.004306,-0.012284,-0.031265,0.019715,-0.497952,0.029771,1.46191,-263.506291,-1.069605,63.40457
3.3979,0.004459,0.012066,0.027563,-0.005017,-0.011824,-0.030098,0.019731,-0.497957,0.029754,1.46191,-263.506291,-1.069605,63.40457
3.4178,0.005194,0.011527,0.029569,-0.00479,-0.011939,-0.027563,0.018378,-0.4982,0.026426,1.441957,-263.518281,-1.011141,63.401669
3.4378,0.005224,0.011343,0.027313,-0.005533,-0.011368,-0.029569,0.019434,-0.498287,0.028063,1.441957,-263.518281,-1.011141,63.401669
3.4579,0.005398,0.011319,0.027463,-0.005532,-0.011196,-0.027313,0.019434,-0.498287,0.028063,1.441957,-263.518281,-1.011141,63.401669
3.4778,0.005699,0.010781,0.027992,-0.005707,-0.011167,-0.027463,0.01921,-0.498982,0.026213,1.406199,-263.528715,-0.936142,63.398855
3.4984,0.005507,0.010749,0.026422,-0.005999,-0.010617,-0.027992,0.019257,-0.498997,0.026301,1.406199,-263.528715,-0.936142,63.398855
3.5179,0.006368,0.010418,0.024353,-0.00579,-0.0106,-0.026422,0.018851,-0.49936,0.025707,1.37489,-263.536334,-0.861141,63.396766
3.538,0.005826,0.010822,0.023874,-0.00662,-0.010259,-0.024353,0.018798,-0.499437,0.024841,1.37489,-263.536334,-0.861141,63.396766
3.5583,0.005856,0.010194,0.025748,-0.006083,-0.01068,-0.023874,0.018798,-0.499437,0.024841,1.37489,-263.536334,-0.861141,63.396766
3.578,0.006279,0.010052,0.024221,-0.006117,-0.010039,-0.025748,0.018726,-0.500091,0.024513,1.357638,-263.546427,-0.82388,63.393334
3.5983,0.006308,0.009565,0.024507,-0.00652,-0.009897,-0.024221,0.018713,-0.500084,0.024464,1.357638,-263.546427,-0.82388,63.393334
3.6178,0.006431,0.009787,0.023935,-0.00654,-0.009408,-0.024507,0.018732,-0.500421,0.024173,1.334494,-263.550066,-0.749004,63.392323
3.6377,0.006541,0.009992,0.023246,-0.006663,-0.009631,-0.023935,0.018668,-0.500237,0.023995,1.334494,-263.550066,-0.749004,63.392323
3.6578,0.006296,0.010138,0.023127,-0.006771,-0.009837,-0.023246,0.018668,-0.500237,0.023995,1.334494,-263.550066,-0.749004,63.392323
3.6781,0.006825,0.009709,0.022317,-0.006529,-0.00999,-0.023127,0.017872,-0.499988,0.022368,1.312602,-263.556204,-0.674007,63.38961
3.6978,0.006382,0.009492,0.023618,-0.00704,-0.009555,-0.022317,0.017889,-0.500008,0.022344,1.312602,-263.556204,-0.674007,63.38961
3.7181,0.006791,0.008911,0.020756,-0.006605,-0.009339,-0.023618,0.018215,-0.500688,0.022856,1.296197,-263.564624,-0.599009,63.386894
3.7378,0.006902,0.009145,0.022762,-0.006975,-0.008768,-0.020756,0.017711,-0.500895,0.021564,1.296197,-263.564624,-0.599009,63.386894
3.7579,0.006861,0.008855,0.022048,-0.007108,-0.008986,-0.022762,0.017711,-0.500895,0.021564,1.296197,-263.564624,-0.599009,63.386894
3.7779,0.007117,0.008429,0.02058,-0.007055,-0.008702,-0.022048,0.017803,-0.50145,0.021061,1.276017,-263.57344,-0.524803,63.383935
3.7983,0.007158,0.008613,0.020157,-0.007289,-0.008281,-0.02058,0.017781,-0.501462,0.021002,1.276017,-263.57344,-0.524803,63.383935
3.818,0.007595,0.007979,0.019097,-0.00733,-0.008467,-0.020157,0.017195,-0.501602,0.019365,1.269678,-263.58208,-0.599804,63.380819
3.838,0.007244,0.008415,0.018371,-0.007746,-0.007832,-0.019097,0.017243,-0.501828,0.019112,1.269678,-263.58208,-0.599804,63.380819
3.8579,0.007551,0.0082,0.020074,-0.007398,-0.00828,-0.018371,0.017243,-0.501828,0.019112,1.269678,-263.58208,-0.599804,63.380819
3.8778,0.007488,0.008048,0.019906,-0.007714,-0.008047,-0.020074,0.017473,-0.50207,0.019163,1.234479,-263.59013,-0.531749,63.377737
3.8982,0.007722,0.007847,0.01753,-0.007646,-0.007898,-0.019906,0.017476,-0.502064,0.019192,1.234479,-263.59013,-0.531749,63.377737
3.9182,0.007555,0.007727,0.018131,-0.007858,-0.007711,-0.01753,0.016475,-0.502287,0.017038,1.208205,-263.595809,-0.456656,63.375569
3.938,0.007873,0.007372,0.017871,-0.007693,-0.007589,-0.018131,0.016642,-0.502256,0.017615,1.208205,-263.595809,-0.456656,63.375569
3.9578,0.007563,0.007877,0.017056,-0.008004,-0.00723,-0.017871,0.016642,-0.502256,0.017615,1.208205,-263.595809,-0.456656,63.375569
3.9778,0.007627,0.007202,0.017523,-0.007697,-0.007746,-0.017056,0.015915,-0.502417,0.016141,1.206552,-263.603932,-0.508276,63.372231
3.9982,0.007665,0.007502,0.017229,-0.007752,-0.007068,-0.017523,0.015953,-0.502449,0.016216,1.206552,-263.603932,-0.508276,63.372231
4.0178,0.007837,0.007263,0.01638,-0.007794,-0.007369,-0.017229,0.016186,-0.50267,0.016626,1.155371,-263.610851,-0.433645,63.369157
4.0381,0.007626,0.006559,0.016136,-0.007955,-0.007134,-0.01638,0.016155,-0.502701,0.016409,1.155371,-263.610851,-0.433645,63.369157
4.0578,0.007547,0.007038,0.016098,-0.007731,-0.006436,-0.016136,0.016155,-0.502701,0.016409,1.155371,-263.610851,-0.433645,63.369157
4.0781,0.007586,0.00656,0.016136,-0.00766,-0.006916,-0.016098,0.015386,-0.503244,0.015248,1.159467,-263.618592,-0.438464,63.365738
4.0981,0.007818,0.006946,0.015323,-0.007691,-0.006436,-0.016136,0.015406,-0.503263,0.015287,1.159467,-263.618592,-0.438464,63.365738
4.1181,0.00809,0.006437,0.013972,-0.007923,-0.006826,-0.015323,0.015344,-0.503241,0.014714,1.127691,-263.625647,-0.416408,63.362431
4.1382,0.007822,0.006225,0.014814,-0.008179,-0.006323,-0.013972,0.015234,-0.503429,0.014211,1.127691,-263.625647,-0.416408,63.362431
4.1584,0.00791,0.006155,0.013456,-0.008179,-0.006323,-0.013972,0.015234,-0.503429,0.014211,1.127691,-263.625647,-0.416408,63.362431
4.178,0.007976,0.006081,0.013797,-8e-05,-6e-05,0.0,0.014403,-0.504117,0.012672,1.129722,-263.632839,-0.418297,63.359071
4.1983,0.007384,0.006143,0.013863,-8e-05,-6e-05,0.0,0.014433,-0.504109,0.012725,1.129722,-263.632839,-0.418297,63.359071
4.2181,0.0081,0.005523,0.013677,-8e-05,-6e-05,0.0,0.014256,-0.503959,0.013504,1.067536,-263.63719,-0.343435,63.356897
4.238,0.008339,0.005913,0.014448,-8e-05,-6e-05,0.0,0.014698,-0.504247,0.013557,1.067536,-263.63719,-0.343435,63.356897
4.2581,0.007735,0.005901,0.013061,-8e-05,-6e-05,0.0,0.014698,-0.504247,0.013557,1.067536,-263.63719,-0.343435,63.356897
4.2781,0.00819,0.00577,0.012857,-8e-05,-6e-05,0.0,0.014396,-0.504056,0.013061,0.99248,-263.63719,-0.268379,63.356897
4.2983,0.007952,0.005935,0.014733,-8e-05,-6e-05,0.0,0.014422,-0.504065,0.013046,0.99248,-263.63719,-0.268379,63.356897
4.318,0.007709,0.005789,0.013184,-8e-05,-6e-05,0.0,0.015466,-0.50401,0.014733,0.917452,-263.63719,-0.193351,63.356897
4.3378,0.007445,0.005848,0.01518,-8e-05,-6e-05,0.0,0.014874,-0.5041,0.013845,0.917452,-263.63719,-0.193351,63.356897
4.358,0.007759,0.005661,0.014586,-8e-05,-6e-05,0.0,0.014874,-0.5041,0.013845,0.917452,-263.63719,-0.193351,63.356897
4.3779,0.007835,0.005776,0.013557,-0.0,-0.0,-0.0,0.015198,-0.504285,0.014586,0.842452,-263.63719,-0.118351,63.356897
4.3978,0.007987,0.005549,0.013457,-0.001168,-0.000884,-0.001967,0.015164,-0.504277,0.014508,0.842452,-263.63719,-0.118351,63.356897
4.418,0.007567,0.00562,0.012588,-0.002278,-0.001724,-0.003836,0.01485,-0.504404,0.013457,0.767405,-263.63719,-0.043304,63.356897
4.4382,0.007787,0.005729,0.013554,-0.003325,-0.002516,-0.005599,0.014359,-0.504367,0.012963,0.767405,-263.63719,-0.043304,63.356897
4.458,0.007854,0.006008,0.013569,-0.004314,-0.003265,-0.007264,0.014359,-0.504367,0.012963,0.767405,-263.63719,-0.043304,63.356897
4.4778,0.007414,0.005549,0.014416,-0.005246,-0.00397,-0.008832,0.014767,-0.50395,0.013561,0.842245,-263.637297,-0.118143,63.356843
4.4983,0.008007,0.005574,0.014402,-0.006113,-0.004626,-0.010292,0.014767,-0.503981,0.01362,0.842245,-263.637297,-0.118143,63.356843
4.5177,0.007823,0.005839,0.012413,-0.006922,-0.005238,-0.011655,0.01529,-0.504413,0.01432,0.917236,-263.638458,-0.193134,63.356255
4.5384,0.007428,0.005649,0.012481,-0.007671,-0.005805,-0.012915,0.014632,-0.504251,0.013218,0.917236,-263.638458,-0.193134,63.356255
4.5579,0.00793,0.005686,0.0128,-0.00836,-0.006327,-0.014076,0.014632,-0.504251,0.013218,0.917236,-263.638458,-0.193134,63.356255
4.5778,0.007523,0.006003,0.011677,-0.008991,-0.006804,-0.015138,0.014251,-0.504417,0.01248,0.992328,-263.641775,-0.265184,63.354575
4.598,0.007839,0.005684,0.012246,-0.009562,-0.007236,-0.016099,0.014192,-0.504389,0.012415,0.992328,-263.641775,-0.265184,63.354575
4.6183,0.007917,0.005305,0.013034,-0.010073,-0.007623,-0.01696,0.013799,-0.504486,0.011778,1.060157,-263.647629,-0.265184,63.351335
4.6385,0.007538,0.005763,0.011544,-0.010519,-0.007961,-0.017712,0.014212,-0.504609,0.012454,1.060157,-263.647629,-0.265184,63.351335
4.658,0.007146,0.005527,0.012705,-0.010909,-0.008255,-0.018368,0.014212,-0.504609,0.012454,1.060157,-263.647629,-0.265184,63.351335
4.6778,0.007349,0.005047,0.01255,-0.011239,-0.008505,-0.018923,0.013169,-0.504786,0.011929,1.060157,-263.655403,-0.265184,63.347398
4.6978,0.007565,0.004973,0.012227,-0.011508,-0.008709,-0.019377,0.013198,-0.504805,0.011953,1.060157,-263.655403,-0.265184,63.347398
4.7182,0.007753,0.004395,0.009538,-0.011724,-0.008872,-0.01974,0.013384,-0.505312,0.011519,1.060157,-263.66432,-0.265184,63.342882
4.7384,0.007472,0.004297,0.010193,-0.011868,-0.008981,-0.019983,0.012895,-0.505506,0.010303,1.060157,-263.66432,-0.265184,63.342882
4.7579,0.007411,0.004558,0.010345,-0.011958,-0.009049,-0.020134,0.012895,-0.505506,0.010303,1.060157,-263.66432,-0.265184,63.342882
4.7778,0.007005,0.004441,0.009341,-0.011988,-0.009072,-0.020185,0.01213,-0.505845,0.009401,1.060157,-263.673771,-0.265184,63.338096
4.7984,0.007553,0.003982,0.008793,-0.011958,-0.009049,-0.020134,0.012088,-0.505834,0.00937,1.060157,-263.673771,-0.265184,63.338096
4.8184,0.007332,0.003712,0.009359,-0.011868,-0.008981,-0.019983,0.011581,-0.50635,0.008019,1.060157,-263.683541,-0.265184,63.333148
4.838,0.007473,0.003796,0.009015,-0.011718,-0.008868,-0.01973,0.011822,-0.506347,0.008685,1.060157,-263.683541,-0.265184,63.333148
4.8577,0.007612,0.003966,0.007615,-0.011509,-0.008709,-0.019378,0.011822,-0.506347,0.008685,1.060157,-263.683541,-0.265184,63.333148
4.8779,0.007034,0.003051,0.008013,-0.011239,-0.008505,-0.018923,0.010918,-0.506463,0.006638,1.060157,-263.693347,-0.265184,63.328182
4.8978,0.007258,0.003256,0.007566,-0.01091,-0.008256,-0.018369,0.010917,-0.506513,0.006717,1.060157,-263.693347,-0.265184,63.328182
4.9177,0.007535,0.002907,0.006091,-0.01052,-0.007961,-0.017712,0.010677,-0.507067,0.006822,1.060157,-263.702747,-0.265184,63.323421
4.9377,0.007214,0.002962,0.004916,-0.010069,-0.00762,-0.016954,0.0106,-0.507119,0.006308,1.060157,-263.702747,-0.265184,63.323421
4.9577,0.007071,0.002765,0.004374,-0.009556,-0.007232,-0.01609,0.0106,-0.507119,0.006308,1.060157,-263.702747,-0.265184,63.323421
4.9779,0.007483,0.002707,0.004883,-0.00899,-0.006803,-0.015136,0.008774,-0.507633,0.003482,1.060157,-263.711672,-0.265184,63.318901
4.9981,0.007524,0.002425,0.005362,-0.008364,-0.00633,-0.014083,0.008847,-0.507619,0.00356,1.060157,-263.711672,-0.265184,63.318901
5.018,0.007025,0.001972,0.004081,-0.007673,-0.005806,-0.012918,0.009888,-0.507851,0.004735,1.060157,-263.719493,-0.265184,63.31494
5.0378,0.007173,0.001868,0.00605,-0.006921,-0.005238,-0.011654,0.009401,-0.507984,0.004289,1.060157,-263.719493,-0.265184,63.31494
5.0581,0.006928,0.001818,0.004722,-0.006112,-0.004625,-0.010291,0.009401,-0.507984,0.004289,1.060157,-263.719493,-0.265184,63.31494
5.0777,0.007146,0.001735,0.003284,-0.005243,-0.003967,-0.008827,0.00893,-0.508486,0.004037,1.060157,-263.72635,-0.265184,63.311468
5.098,0.00696,0.001522,0.004123,-0.004317,-0.003267,-0.007268,0.008911,-0.508478,0.003963,1.060157,-263.72635,-0.265184,63.311468
5.1181,0.007335,0.001222,0.00471,-0.003327,-0.002518,-0.005602,0.008826,-0.508654,0.003724,1.060157,-263.731338,-0.265184,63.308942
5.1381,0.007178,0.001463,0.004069,-0.002273,-0.00172,-0.003827,0.009307,-0.508743,0.004226,1.060157,-263.731338,-0.265184,63.308942
5.1586,0.006757,0.001412,0.004586,-0.001162,-0.000879,-0.001957,0.009307,-0.508743,0.004226,1.060157,-263.731338,-0.265184,63.308942
5.1783,0.006759,0.001493,0.003055,0.0,0.0,0.0,0.008887,-0.508743,0.004232,1.060157,-263.734871,-0.265184,63.307152
5.1982,0.007036,0.001452,0.003697,0.0,0.0,0.0,0.008844,-0.508731,0.004147,1.060157,-263.734871,-0.265184,63.307152
5.2183,0.00702,0.001205,0.004739,0.0,0.0,0.0,0.008877,-0.508579,0.003621,1.060157,-263.735822,-0.265184,63.306671
5.2385,0.007126,0.001563,0.004613,0.0,0.0,0.0,0.009184,-0.508701,0.004237,1.060157,-263.735822,-0.265184,63.306671
5.2589,0.006866,0.001197,0.005416,0.0,0.0,0.0,0.009184,-0.508701,0.004237,1.060157,-263.735822,-0.265184,63.306671
5.278,0.006857,0.001636,0.003981,0.0,0.0,0.0,0.009628,-0.508795,0.005416,1.060157,-263.735822,-0.265184,63.306671
5.2985,0.00672,0.001311,0.002985,0.0,0.0,0.0,0.009591,-0.508773,0.005344,1.060157,-263.735822,-0.265184,63.306671
5.318,0.007232,0.001618,0.004503,0.0,0.0,0.0,0.008242,-0.508686,0.002985,1.060157,-263.735822,-0.265184,63.306671
5.3382,0.006977,0.001394,0.004035,0.0,0.0,0.0,0.00897,-0.508511,0.003844,1.060157,-263.735822,-0.265184,63.306671
5.3583,0.006748,0.001202,0.0022,0.0,0.0,0.0,0.00897,-0.508511,0.003844,1.060157,-263.735822,-0.265184,63.306671
5.3786,0.007052,0.001129,0.003529,0.0,0.0,0.0,0.00787,-0.508797,0.0022,1.060157,-263.735822,-0.265184,63.306671
5.3981,0.006986,0.001286,0.002688,0.0,0.0,0.0,0.007939,-0.508802,0.002294,1.060157,-263.735822,-0.265184,63.306671
5.4179,0.007228,0.001122,0.00387,-9.8e-05,-1.8e-05,0.0,0.008357,-0.508712,0.002688,1.060157,-263.735822,-0.265184,63.306671
5.4381,0.006918,0.001531,0.005252,-9.8e-05,-1.8e-05,0.0,0.008837,-0.508804,0.00336,1.060157,-263.735822,-0.265184,63.306671
5.4577,0.006992,0.001435,0.001813,-9.8e-05,-1.8e-05,0.0,0.008837,-0.508804,0.00336,1.060157,-263.735822,-0.265184,63.306671
5.4779,0.00671,0.001331,0.002991,-9.8e-05,-1.8e-05,0.0,0.007917,-0.508564,0.001813,1.060157,-263.735822,-0.265184,63.306671
5.4978,0.006857,0.001254,0.003636,-9.8e-05,-1.8e-05,0.0,0.007939,-0.508571,0.001895,1.060157,-263.735822,-0.265184,63.306671
5.5178,0.007253,0.001832,0.002788,-9.8e-05,-1.8e-05,0.0,0.008712,-0.508743,0.003636,0.985161,-263.735822,-0.190188,63.306671
5.5379,0.007069,0.001307,0.002795,-9.8e-05,-1.8e-05,0.0,0.008691,-0.508416,0.003155,0.985161,-263.735822,-0.190188,63.306671
5.5579,0.006865,0.001682,0.00477,-9.8e-05,-1.8e-05,0.0,0.008691,-0.508416,0.003155,0.985161,-263.735822,-0.190188,63.306671
5.578,0.007076,0.001418,0.002588,-9.8e-05,-1.8e-05,0.0,0.009298,-0.508312,0.00477,0.910161,-263.735822,-0.115188,63.306671
5.5981,0.0071,0.001215,0.001431,-9.8e-05,-1.8e-05,0.0,0.009236,-0.50833,0.004621,0.910161,-263.735822,-0.115188,63.306671
5.6183,0.006749,0.001257,0.004543,-0.0,-0.0,-0.0,0.00783,-0.508785,0.001431,0.835151,-263.735822,-0.040178,63.30667
5.6379,0.007134,0.00125,0.002421,-0.00102,-0.000185,-0.000392,0.008537,-0.508758,0.003212,0.835151,-263.735822,-0.040178,63.30667
5.658,0.00681,0.00111,0.002276,-0.002,-0.000363,-0.000769,0.008537,-0.508758,0.003212,0.835151,-263.735822,-0.040178,63.30667
5.6779,0.007052,0.001268,0.002165,-0.00291,-0.000528,-0.001119,0.007971,-0.508889,0.002276,0.760008,-263.735822,0.034965,63.30667
5.6984,0.006773,0.001273,0.003127,-0.003778,-0.000685,-0.001453,0.007983,-0.508879,0.002269,0.760008,-263.735822,0.034965,63.30667
5.7181,0.00703,0.001617,0.002348,-0.004591,-0.000833,-0.001766,0.00836,-0.508727,0.003123,0.685145,-263.735909,-0.039897,63.306591
5.738,0.006582,0.00098,0.002774,-0.005347,-0.00097,-0.002056,0.008282,-0.508525,0.00267,0.685145,-263.735909,-0.039897,63.306591
5.7581,0.007085,0.001299,0.003438,-0.006054,-0.001098,-0.002328,0.008282,-0.508525,0.00267,0.685145,-263.735909,-0.039897,63.306591
5.7782,0.00721,0.001434,0.004042,-0.00671,-0.001217,-0.002581,0.008795,-0.508711,0.003413,0.609634,-263.73632,-0.053452,63.30621
5.798,0.006839,0.001255,0.002476,-0.007315,-0.001327,-0.002813,0.008828,-0.5087,0.003458,0.609634,-263.73632,-0.053452,63.30621
5.8181,0.007294,0.0012,0.003594,-0.007864,-0.001426,-0.003024,0.007994,-0.508771,0.00242,0.535048,-263.737561,-0.053452,63.305063
5.838,0.006781,0.001939,0.00396,-0.008361,-0.001516,-0.003215,0.008619,-0.508789,0.003075,0.535048,-263.737561,-0.053452,63.305063
5.858,0.006869,0.00109,0.003491,-0.008806,-0.001597,-0.003387,0.008619,-0.508789,0.003075,0.535048,-263.737561,-0.053452,63.305063
5.8779,0.006585,0.001198,0.002015,-0.009199,-0.001669,-0.003538,0.008394,-0.508963,0.003378,0.460151,-263.739876,-0.053452,63.302922
5.898,0.006649,0.001367,0.002936,-0.00954,-0.00173,-0.003669,0.008326,-0.508952,0.003269,0.460151,-263.739876,-0.053452,63.302922
5.9178,0.006071,0.000959,0.002354,-0.009829,-0.001783,-0.00378,0.007831,-0.508689,0.002815,0.394444,-263.743425,-0.053452,63.299642
5.9382,0.006542,0.001378,0.002421,-0.010064,-0.001825,-0.00387,0.007472,-0.508896,0.002537,0.394444,-263.743425,-0.053452,63.299642
5.958,0.006412,0.001208,0.003591,-0.010248,-0.001859,-0.003941,0.007472,-0.508896,0.002537,0.394444,-263.743425,-0.053452,63.299642
5.978,0.006113,0.001219,0.002429,-0.010379,-0.001882,-0.003991,0.007779,-0.508875,0.003412,0.394444,-263.747559,-0.053452,63.29582
5.9981,0.005999,0.000896,0.003844,-0.010458,-0.001897,-0.004022,0.007739,-0.508871,0.003343,0.394444,-263.747559,-0.053452,63.29582
6.0184,0.005496,0.000654,0.00253,-0.010484,-0.001902,-0.004032,0.007564,-0.509173,0.003692,0.394444,-263.752,-0.053452,63.291714
6.0381,0.00561,0.000596,0.002609,-0.010458,-0.001897,-0.004022,0.007072,-0.50928,0.003012,0.394444,-263.752,-0.053452,63.291714
6.058,0.005634,0.000582,0.002044,-0.010379,-0.001883,-0.003992,0.007072,-0.50928,0.003012,0.394444,-263.752,-0.053452,63.291714
6.0779,0.005066,0.000728,0.001882,-0.010248,-0.001859,-0.003941,0.006169,-0.509511,0.001849,0.394444,-263.756536,-0.053452,63.28752
6.0983,0.005237,0.000676,0.002383,-0.010065,-0.001826,-0.003871,0.006144,-0.509496,0.001846,0.394444,-263.756536,-0.053452,63.28752
6.1181,0.004882,0.000785,0.001693,-0.009829,-0.001783,-0.00378,0.006053,-0.509396,0.002229,0.394444,-263.761034,-0.053452,63.283362
6.138,0.004882,0.000922,0.002152,-0.009541,-0.00173,-0.003669,0.005826,-0.509301,0.001902,0.394444,-263.761034,-0.053452,63.283362
6.158,0.004981,0.000446,0.002449,-0.0092,-0.001669,-0.003538,0.005826,-0.509301,0.001902,0.394444,-263.761034,-0.053452,63.283362
6.1785,0.004368,0.00058,0.001615,-0.008807,-0.001597,-0.003387,0.005742,-0.509642,0.002261,0.394444,-263.765395,-0.053452,63.279329
6.1982,0.004272,0.000862,0.001052,-0.008361,-0.001517,-0.003216,0.005687,-0.509628,0.002208,0.394444,-263.765395,-0.053452,63.279329
6.2179,0.004105,0.000218,0.002237,-0.007853,-0.001424,-0.00302,0.004454,-0.509203,0.000915,0.394444,-263.76938,-0.053452,63.275646
6.2379,0.003518,0.000619,0.001794,-0.007311,-0.001326,-0.002812,0.004863,-0.509542,0.001655,0.394444,-263.76938,-0.053452,63.275646
6.2579,0.003904,0.000625,0.002715,-0.006708,-0.001217,-0.00258,0.004863,-0.509542,0.001655,0.394444,-263.76938,-0.053452,63.275646
6.2778,0.003515,-1.2e-05,0.001079,-0.006054,-0.001098,-0.002328,0.004883,-0.509447,0.002558,0.394444,-263.773002,-0.053452,63.272297
6.2982,0.003363,0.000269,0.000456,-0.005347,-0.00097,-0.002056,0.004813,-0.50949,0.002448,0.394444,-263.773002,-0.053452,63.272297
6.3181,0.002883,0.000251,0.002666,-0.004588,-0.000832,-0.001764,0.003337,-0.509778,0.000356,0.394444,-263.77591,-0.053452,63.269608
6.3378,0.003411,0.000337,0.001256,-0.003774,-0.000684,-0.001451,0.003822,-0.509767,0.001665,0.394444,-263.77591,-0.053452,63.269608
6.3579,0.003167,0.00063,0.00164,-0.00291,-0.000528,-0.001119,0.003822,-0.509767,0.001665,0.394444,-263.77591,-0.053452,63.269608
6.3781,0.003253,0.000457,0.002294,-0.001992,-0.000361,-0.000766,0.003745,-0.509417,0.001541,0.394444,-263.778222,-0.053452,63.26747
6.3984,0.002986,0.000672,0.001294,-0.001023,-0.000186,-0.000393,0.003785,-0.509427,0.00159,0.394444,-263.778222,-0.053452,63.26747
6.4182,0.002678,0.000493,-0.000839,-1e-06,-0.0,-0.0,0.003534,-0.509348,0.00125,0.394444,-263.779485,-0.053452,63.266303
6.4383,0.003028,0.000615,0.000829,0.0,0.0,0.0,0.002789,-0.509441,5.5e-05,0.394444,-263.779485,-0.053452,63.266303
6.4581,0.002881,-2.7e-05,0.000938,0.0,0.0,0.0,0.002789,-0.509441,5.5e-05,0.394444,-263.779485,-0.053452,63.266303
