mach0312/omni-docking-bench/src/icros_test_setup/results/kinematic_sample/timeseries/trial_123.csv
t,x,y,yaw,vx,vy,wz,bl_x,bl_y,bl_yaw,front_steering_joint,front_wheel_joint,rear_steering_joint,rear_wheel_joint
0.0,0.017244,-0.022415,-0.06785,-0.007841,-0.000974,-0.002084,-0.016839,-0.530989,-0.068407,0.279085,-264.364603,-0.038011,62.416581
0.0004,0.017272,-0.022612,-0.068236,-0.006388,-0.000794,-0.001698,-0.016839,-0.530989,-0.068407,0.279085,-264.367937,-0.038011,62.413373
0.0007,0.01737,-0.022317,-0.069028,-0.006002,-0.000746,-0.001595,-0.016295,-0.53108,-0.068136,0.279085,-264.371195,-0.038011,62.410239
0.001,0.016953,-0.02237,-0.068158,-0.005594,-0.000695,-0.001487,-0.016668,-0.531305,-0.068466,0.279085,-264.374237,-0.038011,62.407313
0.0012,0.017036,-0.02227,-0.068033,-0.005134,-0.000638,-0.001364,-0.016668,-0.531305,-0.068466,0.279085,-264.377046,-0.038011,62.404611
0.0014,0.016795,-0.022891,-0.069175,-0.00463,-0.000575,-0.00123,-0.016668,-0.531305,-0.068466,0.279085,-264.37937,-0.038011,62.402375
0.0017,0.016614,-0.022417,-0.068907,-0.004091,-0.000508,-0.001087,-0.017209,-0.531444,-0.067775,0.279085,-264.381298,-0.038011,62.400521
0.0019,0.016781,-0.022248,-0.067517,-0.003509,-0.000436,-0.000932,-0.017238,-0.531441,-0.067846,0.279085,-264.381298,-0.038011,62.400521
0.0021,0.016332,-0.022576,-0.068912,-0.002888,-0.000359,-0.000768,-0.017238,-0.531441,-0.067846,0.279085,-264.381298,-0.038011,62.400521
0.0023,0.016849,-0.022751,-0.068577,-0.002227,-0.000277,-0.000592,-0.016602,-0.531052,-0.067109,0.279085,-264.381298,-0.038011,62.400521
0.0184,0.016296,-0.02235,-0.068751,-0.017525,0.01581,0.029595,-0.018211,-0.531558,-0.068607,0.279085,-264.382498,-0.038011,62.399365
0.0385,0.01672,-0.022382,-0.069936,-0.017793,0.021178,0.05,-0.018525,-0.531325,-0.068692,0.279085,-264.382498,-0.038011,62.399365
0.0584,0.01625,-0.022815,-0.069614,-0.018243,0.021159,0.05,-0.018525,-0.531325,-0.068692,0.279085,-264.382498,-0.038011,62.399365
0.0789,0.016303,-0.022639,-0.06882,-0.017797,0.02163,0.05,-0.019299,-0.531584,-0.069633,0.279085,-264.383131,-0.038011,62.398756
0.0986,0.016584,-0.022645,-0.068403,-0.017821,0.021464,0.05,-0.019266,-0.531574,-0.06958,0.279085,-264.383131,-0.038011,62.398756
0.1187,0.016461,-0.022686,-0.067956,-0.018093,0.021458,0.05,-0.018274,-0.531452,-0.068403,0.204286,-264.383131,0.036787,62.398756
0.1385,0.016562,-0.022582,-0.067174,-0.017964,0.021516,0.05,-0.018215,-0.531484,-0.068149,0.204286,-264.383131,0.036787,62.398756
0.1584,0.016144,-0.022548,-0.06813,-0.018041,0.02142,0.05,-0.018215,-0.531484,-0.068149,0.204286,-264.383131,0.036787,62.398756
0.1787,0.016306,-0.02274,-0.068194,-0.017642,0.021397,0.05,-0.018575,-0.531365,-0.06813,0.129226,-264.383131,0.111848,62.398756
0.1988,0.01612,-0.022458,-0.068278,-0.017818,0.021576,0.05,-0.018566,-0.531378,-0.068135,0.129226,-264.383131,0.111848,62.398756
0.2186,0.016602,-0.022557,-0.069194,-0.017615,0.021306,0.05,-0.018674,-0.53127,-0.068278,0.054227,-264.383132,0.186846,62.398756
0.2388,0.016168,-0.022914,-0.068432,-0.018122,0.021355,0.05,-0.018665,-0.531307,-0.068789,0.054227,-264.383132,0.186846,62.398756
0.2586,0.016143,-0.022506,-0.069211,-0.017697,0.021755,0.05,-0.018665,-0.531307,-0.068789,0.054227,-264.383132,0.186846,62.398756
0.2786,0.016421,-0.022179,-0.068087,-0.01766,0.021336,0.05,-0.019127,-0.531285,-0.069211,-0.02077,-264.383132,0.261843,62.398756
0.2994,0.016456,-0.022828,-0.067149,-0.017891,0.02101,0.05,-0.019067,-0.531265,-0.069133,-0.02077,-264.383132,0.261843,62.398756
0.3189,0.01627,-0.022582,-0.070133,-0.017951,0.021672,0.05,-0.017764,-0.531678,-0.067149,-0.09577,-264.383134,0.336843,62.398756
0.3385,0.01623,-0.022792,-0.069645,-0.017813,0.021386,0.05,-0.018726,-0.531481,-0.068834,-0.09577,-264.383134,0.336843,62.398756
0.3584,0.016292,-0.022293,-0.067912,-0.017777,0.021608,0.05,-0.018726,-0.531481,-0.068834,-0.09577,-264.383134,0.336843,62.398756
0.3786,0.01642,-0.022425,-0.068745,-0.017768,0.021136,0.05,-0.018316,-0.531118,-0.067912,-0.170766,-264.383135,0.411839,62.398755
0.3989,0.01661,-0.022492,-0.069106,-0.017921,0.021244,0.05,-0.018337,-0.531125,-0.067972,-0.170766,-264.383135,0.411839,62.398755
0.4187,0.016224,-0.022814,-0.068555,-0.018124,0.021292,0.05,-0.018606,-0.531275,-0.069106,-0.245821,-264.383137,0.465506,62.398754
0.4387,0.016751,-0.022328,-0.066989,-0.017749,0.021649,0.05,-0.018666,-0.531469,-0.068793,-0.245821,-264.383137,0.465506,62.398754
0.4586,0.016413,-0.022559,-0.067882,-0.018208,0.021156,0.05,-0.018666,-0.531469,-0.068793,-0.245821,-264.383137,0.465506,62.398754
0.4787,0.016341,-0.02237,-0.068848,-0.017906,0.021394,0.05,-0.01818,-0.531384,-0.067882,-0.320772,-264.383139,0.47837,62.398754
0.4985,0.016393,-0.022817,-0.070084,-0.017842,0.021193,0.05,-0.018219,-0.531369,-0.067949,-0.320772,-264.383139,0.47837,62.398754
0.5183,0.016201,-0.022646,-0.068086,-0.017951,0.021613,0.05,-0.019321,-0.531565,-0.070084,-0.395778,-264.383142,0.475742,62.398753
0.5387,0.016395,-0.022574,-0.069287,-0.017704,0.021491,0.05,-0.018854,-0.531508,-0.068954,-0.395778,-264.383142,0.475742,62.398753
0.5588,0.016424,-0.022673,-0.069553,-0.017918,0.021385,0.05,-0.018854,-0.531508,-0.068954,-0.395778,-264.383142,0.475742,62.398753
0.5784,0.016389,-0.022224,-0.067675,-0.01796,0.021477,0.05,-0.019019,-0.53144,-0.069553,-0.470712,-264.383144,0.482485,62.398752
0.5984,0.016515,-0.022557,-0.069504,-0.017854,0.021064,0.05,-0.018955,-0.531414,-0.069422,-0.470712,-264.383144,0.482485,62.398752
0.6185,0.016149,-0.022142,-0.068071,-0.018042,0.021356,0.05,-0.018904,-0.531326,-0.069504,-0.545778,-264.383147,0.472252,62.398751
0.6385,0.016436,-0.022531,-0.068416,-0.017618,0.020992,0.05,-0.018696,-0.531117,-0.068686,-0.545778,-264.383147,0.472252,62.398751
0.6587,0.016275,-0.022817,-0.068463,-0.017938,0.021355,0.05,-0.018696,-0.531117,-0.068686,-0.545778,-264.383147,0.472252,62.398751
0.6785,0.016821,-0.022332,-0.070166,-0.017797,0.02165,0.05,-0.018615,-0.531622,-0.068463,-0.620821,-264.383154,0.487818,62.398748
0.6984,0.016716,-0.022744,-0.068301,-0.018345,0.021098,0.05,-0.018638,-0.531583,-0.068585,-0.620821,-264.383154,0.487818,62.398748
0.7184,0.016317,-0.022699,-0.068892,-0.018229,0.021551,0.05,-0.018092,-0.531554,-0.068298,-0.695834,-264.383188,0.473137,62.398736
0.7385,0.01663,-0.022338,-0.068322,-0.017841,0.021522,0.05,-0.01849,-0.531517,-0.068636,-0.695834,-264.383188,0.473137,62.398736
0.7585,0.016522,-0.022558,-0.068945,-0.018116,0.021151,0.05,-0.01849,-0.531517,-0.068636,-0.695834,-264.383188,0.473137,62.398736
0.7785,0.016606,-0.022506,-0.069214,-0.018037,0.021366,0.05,-0.018623,-0.53134,-0.068929,-0.770767,-264.383372,0.475206,62.398666
0.7989,0.016321,-0.022699,-0.068539,-0.018123,0.021304,0.05,-0.018626,-0.531336,-0.068948,-0.770767,-264.383372,0.475206,62.398666
0.8184,0.016127,-0.022871,-0.068363,-0.017837,0.021528,0.05,-0.018635,-0.531482,-0.068493,-0.845774,-264.383997,0.47806,62.398434
0.8389,0.016264,-0.022773,-0.068977,-0.017652,0.021716,0.05,-0.018682,-0.531592,-0.068414,-0.845774,-264.383997,0.47806,62.398434
0.8586,0.016217,-0.022463,-0.068366,-0.017795,0.021598,0.05,-0.018682,-0.531592,-0.068414,-0.845774,-264.383997,0.47806,62.398434
0.8785,0.015881,-0.022203,-0.068563,-0.017714,0.021303,0.05,-0.018722,-0.531195,-0.06819,-0.920767,-264.385833,0.471212,62.397754
0.8987,0.016,-0.022325,-0.06681,-0.017365,0.021063,0.05,-0.018747,-0.53118,-0.06821,-0.920767,-264.385833,0.471212,62.397754
0.9185,0.015617,-0.021939,-0.067389,-0.017455,0.021207,0.05,-0.01821,-0.531042,-0.066485,-0.995779,-264.38994,0.46556,62.396269
0.9386,0.015567,-0.021963,-0.067429,-0.017059,0.020837,0.05,-0.018524,-0.530875,-0.066958,-0.995779,-264.38994,0.46556,62.396269
0.9588,0.01596,-0.021991,-0.068115,-0.017011,0.020864,0.05,-0.018524,-0.530875,-0.066958,-0.995779,-264.38994,0.46556,62.396269
0.9785,0.015164,-0.022065,-0.066551,-0.01742,0.020854,0.05,-0.019076,-0.530515,-0.067403,-1.07077,-264.396547,0.499468,62.393451
0.9986,0.015134,-0.022141,-0.068391,-0.016598,0.021008,0.05,-0.019063,-0.530536,-0.067328,-1.07077,-264.396547,0.499468,62.393451
1.0186,0.013963,-0.021555,-0.067208,-0.016612,0.021055,0.05,-0.020075,-0.530632,-0.067549,-1.145771,-264.405656,0.517046,62.388838
1.0386,0.014,-0.021557,-0.065986,-0.015379,0.020568,0.05,-0.020239,-0.530463,-0.067251,-1.145771,-264.405656,0.517046,62.388838
1.0584,0.014007,-0.02098,-0.067157,-0.01539,0.020587,0.05,-0.020239,-0.530463,-0.067251,-1.145771,-264.405656,0.517046,62.388838
1.0785,0.012481,-0.020637,-0.065931,-0.015383,0.019993,0.05,-0.020754,-0.529319,-0.065765,-1.220828,-264.417262,0.521172,62.382615
1.099,0.012974,-0.020778,-0.064747,-0.013813,0.01977,0.05,-0.020794,-0.52932,-0.065739,-1.220828,-264.417262,0.521172,62.382615
1.1186,0.011392,-0.019854,-0.063385,-0.014292,0.019895,0.05,-0.020458,-0.529203,-0.063394,-1.278384,-264.431369,0.573959,62.375966
1.1384,0.011093,-0.020011,-0.062404,-0.012627,0.019093,0.05,-0.020772,-0.528926,-0.063217,-1.278384,-264.431369,0.573959,62.375966
1.1586,0.011063,-0.02026,-0.062768,-0.01232,0.01928,0.05,-0.020772,-0.528926,-0.063217,-1.278384,-264.431369,0.573959,62.375966
1.1785,0.009646,-0.019418,-0.062086,-0.012312,0.019527,0.05,-0.021444,-0.528475,-0.060807,-1.302822,-264.447976,0.648952,62.36984
1.1988,0.009579,-0.019271,-0.059499,-0.010832,0.018782,0.05,-0.021497,-0.528451,-0.060844,-1.302822,-264.447976,0.648952,62.36984
1.2185,0.008061,-0.018179,-0.059137,-0.010708,0.018668,0.05,-0.021124,-0.527698,-0.057833,-1.328364,-264.465748,0.723953,62.364061
1.2385,0.008348,-0.018022,-0.060305,-0.009121,0.017671,0.05,-0.021717,-0.527379,-0.058363,-1.328364,-264.465748,0.723953,62.364061
1.2584,0.008179,-0.018127,-0.058276,-0.009419,0.017486,0.05,-0.021717,-0.527379,-0.058363,-1.328364,-264.465748,0.723953,62.364061
1.2785,0.00641,-0.017451,-0.057567,-0.009221,0.01762,0.05,-0.021926,-0.526468,-0.056254,-1.354596,-264.482636,0.798983,62.358714
1.2988,0.006419,-0.017549,-0.056637,-0.007404,0.017053,0.05,-0.022008,-0.526457,-0.056292,-1.354596,-264.482636,0.798983,62.358714
1.3185,0.005301,-0.016627,-0.054243,-0.007402,0.017157,0.05,-0.022691,-0.526233,-0.055298,-1.377126,-264.496379,0.873952,62.354194
1.3385,0.005453,-0.016804,-0.054928,-0.006195,0.016315,0.05,-0.022527,-0.525967,-0.054527,-1.377126,-264.496379,0.873952,62.354194
1.3587,0.005486,-0.017226,-0.054897,-0.006367,0.016479,0.05,-0.022527,-0.525967,-0.054527,-1.377126,-264.496379,0.873952,62.354194
1.3788,0.004829,-0.01657,-0.052086,-0.006423,0.016899,0.05,-0.022684,-0.525994,-0.053629,-1.416465,-264.506584,0.94895,62.350935
1.399,0.004559,-0.016382,-0.053578,-0.005685,0.016296,0.05,-0.022624,-0.525975,-0.053492,-1.416465,-264.506584,0.94895,62.350935
1.4186,0.003774,-0.015875,-0.05159,-0.00543,0.016115,0.05,-0.022882,-0.525295,-0.052562,-1.436196,-264.516702,1.023959,62.347644
1.4384,0.003797,-0.015842,-0.05227,-0.004587,0.01566,0.05,-0.022697,-0.525194,-0.051882,-1.436196,-264.516702,1.023959,62.347644
1.4589,0.003546,-0.015738,-0.051478,-0.00462,0.015622,0.05,-0.022697,-0.525194,-0.051882,-1.436196,-264.516702,1.023959,62.347644
1.4784,0.002618,-0.015282,-0.050597,-0.004351,0.015534,0.05,-0.022867,-0.524536,-0.049936,-1.449992,-264.528717,1.098968,62.343739
1.499,0.002983,-0.015198,-0.052164,-0.003388,0.01513,0.05,-0.022888,-0.52453,-0.04994,-1.449992,-264.528717,1.098968,62.343739
1.5185,0.002098,-0.014861,-0.047501,-0.003771,0.015022,0.05,-0.023717,-0.524118,-0.050976,-1.471051,-264.540197,1.173962,62.339875
1.5388,0.002431,-0.014561,-0.049043,-0.002801,0.014745,0.047501,-0.022824,-0.524164,-0.048857,-1.471051,-264.540197,1.173962,62.339875
1.5587,0.001999,-0.014754,-0.049494,-0.003142,0.014424,0.049043,-0.022824,-0.524164,-0.048857,-1.471051,-264.540197,1.173962,62.339875
1.5791,0.000949,-0.013998,-0.049497,-0.002727,0.014637,0.049494,-0.02333,-0.523685,-0.048076,-1.496751,-264.550948,1.248957,62.336171
1.5991,0.0014,-0.014321,-0.046547,-0.001641,0.013934,0.049497,-0.023397,-0.523653,-0.048134,-1.496751,-264.550948,1.248957,62.336171
1.6193,-9.9e-05,-0.013338,-0.046424,-0.002065,0.01424,0.046547,-0.022416,-0.52336,-0.045121,-1.500117,-264.564168,1.324075,62.331192
1.6393,-0.000145,-0.013758,-0.045794,-0.00052,0.013328,0.046424,-0.023188,-0.522986,-0.045673,-1.500117,-264.564168,1.324075,62.331192
1.6592,-0.000157,-0.013487,-0.044847,-0.000485,0.01375,0.045794,-0.023188,-0.522986,-0.045673,-1.500117,-264.564168,1.324075,62.331192
1.6791,-0.000915,-0.012837,-0.043796,-0.000448,0.01348,0.044847,-0.023075,-0.522496,-0.043174,-1.533666,-264.576463,1.398972,62.326636
1.6992,-0.001316,-0.013287,-0.04335,0.000352,0.012864,0.043796,-0.023087,-0.522475,-0.043172,-1.533666,-264.576463,1.398972,62.326636
1.7189,-0.002001,-0.012821,-0.041575,0.000739,0.013332,0.04335,-0.023428,-0.522418,-0.042057,-1.559175,-264.58874,1.473916,62.322449
1.7389,-0.001881,-0.012473,-0.041628,0.001466,0.012893,0.041575,-0.023294,-0.522347,-0.041614,-1.559175,-264.58874,1.473916,62.322449
1.759,-0.001988,-0.012297,-0.043346,0.00136,0.012541,0.041628,-0.023294,-0.522347,-0.041614,-1.559175,-264.58874,1.473916,62.322449
1.7787,-0.002194,-0.012115,-0.041074,0.001453,0.012371,0.043346,-0.024066,-0.521331,-0.041688,-1.579684,-264.601034,1.549521,62.318139
1.7985,-0.002823,-0.012109,-0.039754,0.001695,0.012195,0.041074,-0.024009,-0.521342,-0.041612,-1.579684,-264.601034,1.549521,62.318139
1.8185,-0.0032,-0.011632,-0.039815,0.002339,0.012211,0.039754,-0.023047,-0.521337,-0.038521,-1.606613,-264.612656,1.623958,62.314176
1.8385,-0.003579,-0.011364,-0.03999,0.002735,0.01175,0.039815,-0.0233,-0.521228,-0.039102,-1.606613,-264.612656,1.623958,62.314176
1.8585,-0.003582,-0.011488,-0.039537,0.003122,0.011498,0.03999,-0.0233,-0.521228,-0.039102,-1.606613,-264.612656,1.623958,62.314176
1.8786,-0.003954,-0.010835,-0.036835,0.003125,0.011621,0.039537,-0.023646,-0.520555,-0.037727,-1.616218,-264.62619,1.699018,62.309461
1.8988,-0.004591,-0.010968,-0.038681,0.003553,0.010974,0.036835,-0.023582,-0.520537,-0.037619,-1.616218,-264.62619,1.699018,62.309461
1.9186,-0.004461,-0.010867,-0.036985,0.004163,0.011137,0.038681,-0.024292,-0.520416,-0.038402,-1.657486,-264.629736,1.624086,62.309461
1.9387,-0.004663,-0.010699,-0.036677,0.004056,0.011025,0.036985,-0.023735,-0.520453,-0.037559,-1.657486,-264.629736,1.624086,62.309461
1.9586,-0.004373,-0.010768,-0.03591,0.004268,0.010863,0.036677,-0.023735,-0.520453,-0.037559,-1.657486,-264.629736,1.624086,62.309461
1.9785,-0.004441,-0.010837,-0.037494,0.003984,0.010918,0.03591,-0.022684,-0.520439,-0.03591,-1.676541,-264.629738,1.549084,62.309462
1.9989,-0.004223,-0.010529,-0.035845,0.004031,0.010996,0.037494,-0.022742,-0.520442,-0.036016,-1.676541,-264.629738,1.549084,62.309462
2.0188,-0.004279,-0.010837,-0.035783,0.003843,0.010673,0.035845,-0.0225,-0.520201,-0.035845,-1.698407,-264.629739,1.474087,62.309462
2.0389,-0.004418,-0.01056,-0.037779,0.003888,0.010983,0.035783,-0.022514,-0.520377,-0.03581,-1.698407,-264.629739,1.474087,62.309462
2.059,-0.004348,-0.010723,-0.037259,0.004016,0.010719,0.037779,-0.022514,-0.520377,-0.03581,-1.698407,-264.629739,1.474087,62.309462
2.0784,-0.00393,-0.010579,-0.037902,0.003945,0.010877,0.037259,-0.023345,-0.520369,-0.037259,-1.689175,-264.62974,1.399051,62.309463
2.0984,-0.004597,-0.010766,-0.037039,0.003527,0.01072,0.037902,-0.023339,-0.520358,-0.037303,-1.689175,-264.62974,1.399051,62.309463
2.1184,-0.004239,-0.010305,-0.038184,0.004195,0.010928,0.037039,-0.023482,-0.520416,-0.037039,-1.689097,-264.629742,1.324082,62.309463
2.1385,-0.00468,-0.010908,-0.036307,0.003842,0.010459,0.038184,-0.023611,-0.520141,-0.037691,-1.689097,-264.629742,1.324082,62.309463
2.1585,-0.004445,-0.010617,-0.036631,0.004281,0.011071,0.036307,-0.023611,-0.520141,-0.037691,-1.689097,-264.629742,1.324082,62.309463
2.1783,-0.004237,-0.010799,-0.037207,0.004053,0.010773,0.036631,-0.023123,-0.520275,-0.036631,-1.674552,-264.629743,1.249073,62.309464
2.199,-0.00439,-0.010317,-0.037354,0.003832,0.01095,0.037207,-0.023128,-0.520286,-0.03667,-1.674552,-264.629743,1.249073,62.309464
2.2184,-0.00503,-0.011205,-0.035771,0.004002,0.010474,0.037354,-0.023436,-0.519961,-0.037354,-1.698864,-264.629744,1.174086,62.309464
2.2387,-0.004641,-0.010413,-0.039271,0.004626,0.011378,0.035771,-0.023341,-0.520483,-0.036453,-1.698864,-264.629744,1.174086,62.309464
2.2592,-0.004821,-0.010516,-0.03708,0.004229,0.010588,0.039271,-0.023341,-0.520483,-0.036453,-1.698864,-264.629744,1.174086,62.309464
2.2792,-0.004366,-0.010833,-0.036324,0.004428,0.010687,0.03708,-0.023727,-0.520165,-0.037079,-1.684111,-264.629746,1.099081,62.309465
2.2988,-0.004644,-0.010813,-0.037026,0.00397,0.010985,0.036324,-0.023672,-0.520187,-0.03703,-1.684111,-264.629746,1.099081,62.309465
2.3185,-0.004477,-0.010831,-0.037868,0.00424,0.010978,0.037026,-0.023523,-0.520464,-0.037026,-1.692502,-264.629747,1.024076,62.309465
2.3385,-0.004643,-0.010646,-0.038102,0.004063,0.010992,0.037868,-0.023672,-0.520464,-0.037506,-1.692502,-264.629747,1.024076,62.309465
2.3585,-0.004799,-0.010791,-0.035578,0.004234,0.010815,0.038102,-0.023672,-0.520464,-0.037506,-1.692502,-264.629747,1.024076,62.309465
2.3784,-0.004559,-0.010943,-0.038189,0.004412,0.010954,0.035578,-0.02294,-0.520468,-0.035578,-1.689918,-264.629748,0.949086,62.309466
2.399,-0.004437,-0.010499,-0.037388,0.004138,0.011109,0.038189,-0.023011,-0.520474,-0.035748,-1.689918,-264.629748,0.949086,62.309466
2.4187,-0.004583,-0.010572,-0.03767,0.004042,0.010657,0.037388,-0.023501,-0.520142,-0.037388,-1.69439,-264.62975,0.874083,62.309466
2.4388,-0.004544,-0.011177,-0.036241,0.004182,0.010737,0.03767,-0.023665,-0.52018,-0.037548,-1.69439,-264.62975,0.874083,62.309466
2.4586,-0.004763,-0.010901,-0.037635,0.004136,0.011334,0.036241,-0.023665,-0.52018,-0.037548,-1.69439,-264.62975,0.874083,62.309466
2.4787,-0.004568,-0.01069,-0.036855,0.004349,0.011072,0.037635,-0.023952,-0.52054,-0.037635,-1.690402,-264.629751,0.799136,62.309467
2.4987,-0.00458,-0.010287,-0.036966,0.004171,0.010851,0.036855,-0.023911,-0.520526,-0.03758,-1.690402,-264.629751,0.799136,62.309467
2.5187,-0.004444,-0.010757,-0.037272,0.004197,0.01045,0.036966,-0.023428,-0.519939,-0.036965,-1.693763,-264.629753,0.724081,62.309467
2.5384,-0.004381,-0.01073,-0.036872,0.00404,0.010915,0.037272,-0.02344,-0.520198,-0.037137,-1.693763,-264.629753,0.724081,62.309467
2.5589,-0.004289,-0.010696,-0.03636,0.003983,0.010884,0.036872,-0.02344,-0.520198,-0.037137,-1.693763,-264.629753,0.724081,62.309467
2.5787,-0.004301,-0.010876,-0.037369,0.003897,0.010845,0.03636,-0.022828,-0.520359,-0.03636,-1.695173,-264.629754,0.649077,62.309468
2.5984,-0.004375,-0.010717,-0.037735,0.003892,0.011029,0.037369,-0.022864,-0.52037,-0.036428,-1.695173,-264.629754,0.649077,62.309468
2.6185,-0.004658,-0.01055,-0.037242,0.003967,0.010874,0.037735,-0.023615,-0.520354,-0.037735,-1.689466,-264.629755,0.574075,62.309468
2.6389,-0.004024,-0.0104,-0.037262,0.004262,0.010716,0.037242,-0.023633,-0.520264,-0.037453,-1.689466,-264.629755,0.574075,62.309468
2.6587,-0.004974,-0.011211,-0.037097,0.003634,0.010542,0.037262,-0.023633,-0.520264,-0.037453,-1.689466,-264.629755,0.574075,62.309468
2.6786,-0.004707,-0.010784,-0.036787,0.004555,0.011388,0.037097,-0.023889,-0.52086,-0.037097,-1.685251,-264.629757,0.498981,62.309469
2.699,-0.004281,-0.010637,-0.036797,0.004308,0.01095,0.036787,-0.023862,-0.520833,-0.037077,-1.685251,-264.629757,0.498981,62.309469
2.7183,-0.004539,-0.010763,-0.036908,0.003887,0.010787,0.036797,-0.023043,-0.520292,-0.036797,-1.67949,-264.629758,0.424082,62.309469
2.7386,-0.004647,-0.01128,-0.038086,0.004139,0.010923,0.036908,-0.023223,-0.520362,-0.03686,-1.67949,-264.629758,0.424082,62.309469
2.759,-0.004418,-0.010483,-0.038798,0.004214,0.011448,0.038086,-0.023223,-0.520362,-0.03686,-1.67949,-264.629758,0.424082,62.309469
2.7786,-0.004523,-0.010427,-0.035092,0.004008,0.010646,0.038798,-0.024199,-0.520099,-0.038798,-1.698988,-264.629759,0.349087,62.30947
2.7987,-0.004452,-0.010558,-0.037888,0.004154,0.010579,0.035092,-0.02408,-0.5201,-0.038549,-1.698988,-264.629759,0.349087,62.30947
2.8188,-0.004505,-0.010724,-0.035093,0.004048,0.010719,0.037888,-0.02377,-0.520192,-0.037888,-1.691613,-264.629761,0.273995,62.30947
2.8385,-0.004327,-0.010377,-0.037928,0.004126,0.010876,0.035093,-0.022985,-0.520317,-0.036288,-1.691613,-264.629761,0.273995,62.30947
2.8584,-0.004395,-0.010783,-0.035117,0.00393,0.010533,0.037928,-0.022985,-0.520317,-0.036288,-1.691613,-264.629761,0.273995,62.30947
2.8787,-0.004371,-0.010673,-0.037523,0.004014,0.01093,0.035117,-0.022301,-0.520468,-0.035117,-1.69985,-264.629762,0.19899,62.309471
2.8988,-0.004476,-0.010694,-0.036063,0.003968,0.01083,0.037523,-0.022384,-0.520458,-0.035283,-1.69985,-264.629762,0.19899,62.309471
2.9186,-0.004369,-0.010619,-0.037137,0.004088,0.010848,0.036063,-0.022865,-0.520362,-0.036063,-1.686895,-264.629763,0.124075,62.309471
2.9386,-0.004401,-0.010697,-0.037066,0.003972,0.010774,0.037137,-0.023117,-0.520308,-0.036679,-1.686895,-264.629763,0.124075,62.309471
2.9584,-0.004171,-0.010499,-0.036996,0.004002,0.010853,0.037066,-0.023117,-0.520308,-0.036679,-1.686895,-264.629763,0.124075,62.309471
2.9785,-0.004223,-0.01075,-0.036351,0.00378,0.010646,0.036996,-0.023034,-0.52015,-0.036995,-1.687827,-264.629765,0.048956,62.309472
2.999,-0.004406,-0.010817,-0.036493,0.00383,0.010896,0.036351,-0.023015,-0.520168,-0.036951,-1.687827,-264.629765,0.048956,62.309472
3.0186,-0.0044,-0.01119,-0.0352,0.004009,0.010971,0.036493,-0.023014,-0.520478,-0.036493,-1.689726,-264.629766,-0.026054,62.309472
3.0385,-0.004521,-0.010754,-0.037428,0.004003,0.011338,0.0352,-0.022632,-0.520705,-0.035752,-1.689726,-264.629766,-0.026054,62.309472
3.0585,-0.004262,-0.010214,-0.037171,0.004115,0.010915,0.037428,-0.022632,-0.520705,-0.035752,-1.689726,-264.629766,-0.026054,62.309472
3.0785,-0.004376,-0.01098,-0.038538,0.00388,0.010365,0.037171,-0.023215,-0.519861,-0.037171,-1.685989,-264.629767,-0.101014,62.309473
3.099,-0.004659,-0.010823,-0.036204,0.00395,0.01114,0.038538,-0.023271,-0.519913,-0.037265,-1.685989,-264.629767,-0.101014,62.309473
3.1184,-0.004541,-0.010713,-0.035938,0.004264,0.010985,0.036204,-0.023118,-0.520489,-0.036203,-1.692037,-264.629769,-0.175915,62.309473
3.1386,-0.004607,-0.010612,-0.035937,0.004153,0.010869,0.035938,-0.022973,-0.520429,-0.036051,-1.692037,-264.629769,-0.175915,62.309473
3.1587,-0.00414,-0.01064,-0.038557,0.004222,0.010771,0.035937,-0.022973,-0.520429,-0.036051,-1.692037,-264.629769,-0.175915,62.309473
3.1787,-0.00466,-0.010635,-0.037107,0.003727,0.010792,0.038557,-0.023799,-0.520261,-0.038557,-1.684214,-264.62977,-0.251051,62.309474
3.1988,-0.004398,-0.010525,-0.036869,0.004262,0.010801,0.037107,-0.023783,-0.520263,-0.038452,-1.684214,-264.62977,-0.251051,62.309474
3.2185,-0.004567,-0.010507,-0.037472,0.004008,0.01068,0.036869,-0.023197,-0.520178,-0.036869,-1.699136,-264.629771,-0.326019,62.309474
3.2383,-0.004958,-0.010732,-0.036498,0.00417,0.010671,0.037472,-0.02347,-0.520162,-0.037214,-1.699136,-264.629771,-0.326019,62.309474
3.2586,-0.004163,-0.01096,-0.038261,0.004563,0.010906,0.036498,-0.02347,-0.520162,-0.037214,-1.699136,-264.629771,-0.326019,62.309474
3.2785,-0.004519,-0.010573,-0.03703,0.003741,0.011112,0.038261,-0.023671,-0.520587,-0.03826,-1.697481,-264.629773,-0.401066,62.309475
3.2987,-0.004434,-0.010534,-0.037113,0.004125,0.010733,0.03703,-0.023652,-0.520562,-0.038174,-1.697481,-264.629773,-0.401066,62.309475
3.3184,-0.004534,-0.010892,-0.037335,0.00404,0.010692,0.037113,-0.023358,-0.520183,-0.037113,-1.707391,-264.629774,-0.475917,62.309475
3.3387,-0.004694,-0.010349,-0.037324,0.004124,0.011053,0.037335,-0.023477,-0.520381,-0.037238,-1.707391,-264.629774,-0.475917,62.309475
3.3586,-0.00458,-0.010725,-0.037712,0.004305,0.010517,0.037324,-0.023477,-0.520381,-0.037238,-1.707391,-264.629774,-0.475917,62.309475
3.3785,-0.004331,-0.010386,-0.036154,0.004172,0.01089,0.037712,-0.023808,-0.520363,-0.037712,-1.69386,-264.629776,-0.550928,62.309476
3.3988,-0.004532,-0.010676,-0.03597,0.003952,0.010536,0.036154,-0.02374,-0.520342,-0.037611,-1.69386,-264.629776,-0.550928,62.309476
3.419,-0.004186,-0.010625,-0.038245,0.004145,0.010832,0.03597,-0.022872,-0.520346,-0.035969,-1.699302,-264.629781,-0.625924,62.309478
3.4385,-0.004093,-0.010512,-0.036489,0.003777,0.010777,0.038245,-0.023339,-0.520292,-0.037273,-1.699302,-264.629781,-0.625924,62.309478
3.4585,-0.004353,-0.010877,-0.038072,0.003706,0.010654,0.036489,-0.023339,-0.520292,-0.037273,-1.699302,-264.629781,-0.625924,62.309478
3.4785,-0.004718,-0.010633,-0.037886,0.003935,0.011034,0.038072,-0.023764,-0.520506,-0.038069,-1.691385,-264.629803,-0.701123,62.309486
3.4987,-0.004719,-0.010565,-0.036607,0.004312,0.010804,0.037886,-0.023783,-0.52049,-0.038057,-1.691385,-264.629803,-0.701123,62.309486
3.519,-0.004608,-0.010689,-0.037488,0.004329,0.010731,0.036607,-0.023383,-0.520221,-0.0366,-1.682843,-264.629868,-0.775933,62.30951
3.5386,-0.004375,-0.010448,-0.03691,0.004204,0.010854,0.037488,-0.023577,-0.520284,-0.037107,-1.682843,-264.629868,-0.775933,62.30951
3.5591,-0.004603,-0.011013,-0.036238,0.003986,0.010602,0.03691,-0.023577,-0.520284,-0.037107,-1.682843,-264.629868,-0.775933,62.30951
3.5785,-0.004843,-0.010298,-0.037616,0.004201,0.011173,0.036238,-0.02307,-0.520661,-0.036185,-1.697147,-264.630284,-0.851014,62.309669
3.5988,-0.00438,-0.010739,-0.036925,0.004452,0.010473,0.037616,-0.023132,-0.520613,-0.036277,-1.697147,-264.630284,-0.851014,62.309669
3.6184,-0.004434,-0.010461,-0.037978,0.003981,0.010894,0.036925,-0.02319,-0.520359,-0.036824,-1.690485,-264.631278,-0.925944,62.310043
3.6385,-0.004782,-0.010925,-0.036544,0.004033,0.010622,0.037978,-0.023536,-0.520203,-0.037472,-1.690485,-264.631278,-0.925944,62.310043
3.6585,-0.004503,-0.010359,-0.039196,0.004379,0.011093,0.036544,-0.023536,-0.520203,-0.037472,-1.690485,-264.631278,-0.925944,62.310043
3.6787,-0.004892,-0.010386,-0.035092,0.004093,0.010528,0.039196,-0.024419,-0.519849,-0.038797,-1.703129,-264.634314,-1.001007,62.311238
3.6984,-0.004379,-0.010127,-0.037685,0.004525,0.010551,0.035092,-0.024297,-0.519862,-0.038514,-1.703129,-264.634314,-1.001007,62.311238
3.7186,-0.004939,-0.010118,-0.033841,0.003994,0.010284,0.037685,-0.023494,-0.519612,-0.037074,-1.701123,-264.639876,-1.076038,62.313815
3.7387,-0.004869,-0.01028,-0.035536,0.004594,0.01028,0.033841,-0.022721,-0.519719,-0.035103,-1.701123,-264.639876,-1.076038,62.313815
3.7584,-0.005041,-0.010319,-0.034729,0.0045,0.010447,0.035536,-0.022721,-0.519719,-0.035103,-1.701123,-264.639876,-1.076038,62.313815
3.7784,-0.005394,-0.010071,-0.034192,0.00468,0.010488,0.034729,-0.022575,-0.519757,-0.033581,-1.711336,-264.647899,-1.151428,62.317802
3.7985,-0.005222,-0.010016,-0.033604,0.005047,0.010249,0.034192,-0.022589,-0.519751,-0.033595,-1.711336,-264.647899,-1.151428,62.317802
3.8186,-0.005701,-0.009859,-0.033921,0.004882,0.010186,0.033604,-0.022192,-0.519443,-0.032436,-1.709872,-264.658421,-1.190468,62.322526
3.8384,-0.005894,-0.009408,-0.032444,0.005364,0.010047,0.033921,-0.022634,-0.519477,-0.03314,-1.709872,-264.658421,-1.190468,62.322526
3.8592,-0.006137,-0.009641,-0.033321,0.005586,0.009595,0.032444,-0.022634,-0.519477,-0.03314,-1.709872,-264.658421,-1.190468,62.322526
3.8785,-0.006489,-0.009177,-0.03058,0.005813,0.00984,0.033321,-0.022884,-0.518902,-0.031774,-1.731516,-264.670205,-1.127649,62.326924
3.8989,-0.006581,-0.009104,-0.031486,0.006205,0.009371,0.03058,-0.022815,-0.518891,-0.031635,-1.731516,-264.670205,-1.127649,62.326924
3.9185,-0.006805,-0.008643,-0.029854,0.006291,0.009306,0.031486,-0.022627,-0.518768,-0.031351,-1.656341,-264.671932,-1.070638,62.326924
3.9387,-0.006572,-0.008996,-0.031125,0.006544,0.008842,0.029854,-0.022282,-0.518556,-0.030474,-1.656341,-264.671932,-1.070638,62.326924
3.9587,-0.006468,-0.009191,-0.031167,0.006289,0.009196,0.031125,-0.022282,-0.518556,-0.030474,-1.656341,-264.671932,-1.070638,62.326924
3.9787,-0.006543,-0.009157,-0.032312,0.006179,0.009388,0.031167,-0.022361,-0.518944,-0.031168,-1.581503,-264.671931,-0.9958,62.326925
3.9993,-0.006521,-0.008938,-0.031476,0.006244,0.009363,0.032312,-0.022407,-0.51894,-0.031247,-1.581503,-264.671931,-0.9958,62.326925
4.0184,-0.006676,-0.008829,-0.031525,0.006237,0.009139,0.031476,-0.022571,-0.518686,-0.031477,-1.506513,-264.67193,-1.00087,62.326925
4.0388,-0.006403,-0.008787,-0.030825,0.006394,0.009035,0.031525,-0.022675,-0.518623,-0.031505,-1.506513,-264.67193,-1.00087,62.326925
4.0586,-0.006544,-0.009078,-0.029532,0.006129,0.00898,0.030825,-0.022675,-0.518623,-0.031505,-1.506513,-264.67193,-1.00087,62.326925
4.0784,-0.00648,-0.009084,-0.032094,0.006273,0.009267,0.029532,-0.021603,-0.518856,-0.029532,-1.4315,-264.671929,-1.028904,62.326926
4.0984,-0.006448,-0.008996,-0.031305,0.006185,0.009287,0.032094,-0.021692,-0.518853,-0.029715,-1.4315,-264.671929,-1.028904,62.326926
4.1186,-0.006298,-0.009008,-0.031024,0.006163,0.009193,0.031305,-0.022411,-0.518746,-0.031305,-1.356583,-264.671928,-1.013998,62.326926
4.1384,-0.006791,-0.009369,-0.032064,0.006015,0.009199,0.031024,-0.022243,-0.518755,-0.031144,-1.356583,-264.671928,-1.013998,62.326926
4.1584,-0.006425,-0.008711,-0.032768,0.006487,0.009582,0.032064,-0.022243,-0.518755,-0.031144,-1.356583,-264.671928,-1.013998,62.326926
4.1785,-0.006326,-0.008926,-0.031584,0.006137,0.008916,0.032768,-0.023134,-0.518437,-0.032768,-1.281533,-264.671927,-1.030629,62.326927
4.1985,-0.00637,-0.008876,-0.032253,0.006041,0.009121,0.031584,-0.023085,-0.518453,-0.032686,-1.281533,-264.671927,-1.030629,62.326927
4.2189,-0.006659,-0.008611,-0.031388,0.00608,0.009077,0.032253,-0.022816,-0.518611,-0.032253,-1.206544,-264.671925,-0.995429,62.326927
4.2389,-0.006512,-0.008666,-0.030154,0.006385,0.008816,0.031388,-0.022728,-0.518466,-0.031755,-1.206544,-264.671925,-0.995429,62.326927
4.2585,-0.006908,-0.008726,-0.031611,0.006248,0.008858,0.030154,-0.022728,-0.518466,-0.031755,-1.206544,-264.671925,-0.995429,62.326927
4.2792,-0.006924,-0.009146,-0.031786,0.006629,0.00894,0.031611,-0.023027,-0.518472,-0.031611,-1.131436,-264.671924,-1.034715,62.326928
4.2988,-0.006967,-0.008772,-0.029851,0.00663,0.009362,0.031786,-0.023034,-0.518499,-0.031622,-1.131436,-264.671924,-1.034715,62.326928
4.3186,-0.006214,-0.008734,-0.031329,0.006702,0.008976,0.029851,-0.022189,-0.518545,-0.029851,-1.056645,-264.671923,-0.991821,62.326928
4.3392,-0.006605,-0.009044,-0.03034,0.005937,0.008925,0.031329,-0.022189,-0.51851,-0.030702,-1.056645,-264.671923,-0.991821,62.326928
4.359,-0.006337,-0.009036,-0.030507,0.006327,0.009241,0.03034,-0.022189,-0.51851,-0.030702,-1.056645,-264.671923,-0.991821,62.326928
4.3786,-0.006144,-0.009368,-0.03059,0.006058,0.009226,0.030507,-0.021893,-0.518799,-0.030507,-0.981453,-264.671922,-0.987719,62.326929
4.399,-0.006711,-0.00888,-0.03142,0.005855,0.009551,0.03059,-0.021881,-0.518825,-0.030514,-0.981453,-264.671922,-0.987719,62.326929
4.4191,-0.006851,-0.008866,-0.032968,0.006429,0.009087,0.03142,-0.022733,-0.518629,-0.03142,-0.906367,-264.671921,-0.972866,62.326929
4.4385,-0.006556,-0.008597,-0.030743,0.006555,0.009087,0.032968,-0.023264,-0.518606,-0.032305,-0.906367,-264.671921,-0.972866,62.326929
4.4587,-0.006577,-0.008943,-0.0307,0.006288,0.008795,0.030743,-0.023264,-0.518606,-0.032305,-0.906367,-264.671921,-0.972866,62.326929
4.4792,-0.006826,-0.009052,-0.031514,0.006299,0.009141,0.0307,-0.022231,-0.518703,-0.0307,-0.831475,-264.67192,-1.000661,62.326929
4.4991,-0.006508,-0.009047,-0.031612,0.006537,0.009262,0.031514,-0.022274,-0.518709,-0.030751,-0.831475,-264.67192,-1.000661,62.326929
4.5187,-0.006702,-0.009105,-0.031031,0.006219,0.009248,0.031612,-0.022627,-0.518792,-0.031612,-0.756647,-264.671919,-1.008628,62.32693
4.5385,-0.006323,-0.009196,-0.030837,0.006416,0.009308,0.031031,-0.022569,-0.51883,-0.031282,-0.756647,-264.671919,-1.008628,62.32693
4.5586,-0.006346,-0.009387,-0.031281,0.006036,0.009387,0.030837,-0.022569,-0.51883,-0.031282,-0.756647,-264.671919,-1.008628,62.32693
4.5788,-0.006407,-0.009054,-0.030738,0.006049,0.009581,0.031281,-0.022297,-0.519137,-0.031281,-0.68151,-264.671917,-0.991097,62.32693
4.5987,-0.006222,-0.009231,-0.032477,0.006126,0.009247,0.030738,-0.022279,-0.519111,-0.031237,-0.68151,-264.671917,-0.991097,62.32693
4.6184,-0.006556,-0.009148,-0.030192,0.005919,0.009428,0.032477,-0.022783,-0.518962,-0.032477,-0.606289,-264.671916,-1.002237,62.326931
4.6385,-0.00649,-0.009042,-0.031024,0.006277,0.009341,0.030192,-0.022305,-0.518935,-0.031164,-0.606289,-264.671916,-1.002237,62.326931
4.6585,-0.006717,-0.008768,-0.030292,0.006206,0.009239,0.031024,-0.022305,-0.518935,-0.031164,-0.606289,-264.671916,-1.002237,62.326931
4.6788,-0.006712,-0.008611,-0.031157,0.006448,0.008968,0.030292,-0.022163,-0.518534,-0.030292,-0.531447,-264.671915,-0.999328,62.326931
4.6987,-0.006391,-0.008799,-0.0311,0.00644,0.008816,0.031157,-0.022193,-0.518523,-0.030351,-0.531447,-264.671915,-0.999328,62.326931
4.7188,-0.006561,-0.008997,-0.031541,0.006114,0.008993,0.0311,-0.022249,-0.518552,-0.0311,-0.456644,-264.671914,-1.002042,62.326932
4.7385,-0.006524,-0.009023,-0.031885,0.006274,0.0092,0.031541,-0.022474,-0.518661,-0.031351,-0.456644,-264.671914,-1.002042,62.326932
4.7585,-0.006549,-0.009035,-0.029585,0.006233,0.009227,0.031885,-0.022474,-0.518661,-0.031351,-0.456644,-264.671914,-1.002042,62.326932
4.7788,-0.006659,-0.008952,-0.031624,0.006279,0.009224,0.029585,-0.021635,-0.518811,-0.029585,-0.381646,-264.671913,-1.008203,62.326932
4.7989,-0.006358,-0.008728,-0.030707,0.006372,0.009158,0.031624,-0.021714,-0.518804,-0.029726,-0.381646,-264.671913,-1.008203,62.326932
4.8188,-0.00663,-0.009186,-0.031515,0.006087,0.008919,0.030707,-0.022016,-0.518487,-0.030707,-0.306643,-264.671912,-1.024338,62.326933
4.8386,-0.006688,-0.008961,-0.030073,0.006337,0.009391,0.031515,-0.022405,-0.518741,-0.031166,-0.306643,-264.671912,-1.024338,62.326933
4.8588,-0.006707,-0.008732,-0.03017,0.006416,0.009158,0.030073,-0.022405,-0.518741,-0.031166,-0.306643,-264.671912,-1.024338,62.326933
4.8784,-0.006594,-0.008935,-0.030311,0.006441,0.00893,0.03017,-0.022092,-0.5185,-0.03017,-0.231606,-264.67191,-1.010438,62.326933
4.8989,-0.00654,-0.009205,-0.029308,0.00632,0.009131,0.030311,-0.022089,-0.518512,-0.030178,-0.231606,-264.67191,-1.010438,62.326933
4.9186,-0.006393,-0.008859,-0.032048,0.006268,0.009393,0.029308,-0.021485,-0.518986,-0.029308,-0.156646,-264.671909,-0.962322,62.326934
4.9392,-0.006355,-0.008823,-0.03016,0.006106,0.009059,0.032048,-0.022196,-0.518764,-0.030867,-0.156646,-264.671909,-0.962322,62.326934
4.9586,-0.006598,-0.008969,-0.031286,0.006086,0.00901,0.03016,-0.022196,-0.518764,-0.030867,-0.156646,-264.671909,-0.962322,62.326934
4.9785,-0.006813,-0.00934,-0.030742,0.006314,0.009171,0.031286,-0.022551,-0.518719,-0.031286,-0.081652,-264.671908,-0.977993,62.326934
4.9984,-0.00649,-0.009207,-0.030094,0.006523,0.009545,0.030742,-0.022547,-0.518746,-0.031248,-0.081652,-264.671908,-0.977993,62.326934
5.0184,-0.006658,-0.008959,-0.032235,0.00621,0.009398,0.030094,-0.021836,-0.518976,-0.030094,-0.006595,-264.671907,-0.996715,62.326935
5.0383,-0.006453,-0.009158,-0.030917,0.006366,0.009168,0.032235,-0.02255,-0.518816,-0.031309,-0.006595,-264.671907,-0.996715,62.326935
5.0585,-0.006744,-0.008759,-0.031118,0.006167,0.009354,0.030917,-0.02255,-0.518816,-0.031309,-0.006595,-264.671907,-0.996715,62.326935
5.0784,-0.00633,-0.008648,-0.030204,0.006469,0.008964,0.031118,-0.022612,-0.518512,-0.031117,0.068343,-264.671906,-0.955577,62.326935
5.0991,-0.006515,-0.008916,-0.03265,0.006065,0.008835,0.030204,-0.02255,-0.518505,-0.031054,0.068343,-264.671906,-0.955577,62.326935
5.1184,-0.006381,-0.009188,-0.030527,0.00622,0.009124,0.03265,-0.023163,-0.518644,-0.03265,0.143354,-264.671905,-0.996402,62.326935
5.1386,-0.006535,-0.008636,-0.031348,0.006098,0.009378,0.030527,-0.022485,-0.518815,-0.031466,0.143354,-264.671905,-0.996402,62.326935
5.1586,-0.00682,-0.008918,-0.032937,0.006261,0.008837,0.031348,-0.022485,-0.518815,-0.031466,0.143354,-264.671905,-0.996402,62.326935
5.1786,-0.006675,-0.009116,-0.029994,0.006522,0.009138,0.032937,-0.023614,-0.518642,-0.032937,0.218357,-264.671904,-1.007885,62.326936
5.1984,-0.00663,-0.008989,-0.03054,0.006398,0.009312,0.029994,-0.0235,-0.518659,-0.032731,0.218357,-264.671904,-1.007885,62.326936
5.2187,-0.006632,-0.009373,-0.030054,0.006352,0.009187,0.03054,-0.022203,-0.518751,-0.03054,0.293354,-264.671903,-1.025001,62.326936
5.2391,-0.00651,-0.009001,-0.030347,0.006347,0.009568,0.030054,-0.022063,-0.518974,-0.030263,0.293354,-264.671903,-1.025001,62.326936
5.2587,-0.00668,-0.008934,-0.029996,0.006234,0.009194,0.030347,-0.022063,-0.518974,-0.030263,0.293354,-264.671903,-1.025001,62.326936
5.2789,-0.006539,-0.008901,-0.030973,0.006409,0.00913,0.029996,-0.021976,-0.518704,-0.029996,0.368378,-264.671902,-0.953164,62.326937
5.2988,-0.006881,-0.008822,-0.029741,0.00626,0.009099,0.030973,-0.022,-0.518701,-0.030061,0.368378,-264.671902,-0.953164,62.326937
5.3184,-0.006408,-0.009307,-0.0297,0.006616,0.009023,0.029741,-0.022047,-0.518597,-0.029741,0.443359,-264.6719,-0.982229,62.326937
5.3384,-0.006437,-0.008986,-0.03068,0.006129,0.009493,0.0297,-0.021764,-0.518875,-0.029718,0.443359,-264.6719,-0.982229,62.326937
5.3584,-0.006937,-0.008832,-0.030575,0.006158,0.009179,0.03068,-0.021764,-0.518875,-0.029718,0.443359,-264.6719,-0.982229,62.326937
5.3784,-0.006803,-0.00893,-0.030132,0.006663,0.00904,0.030575,-0.022527,-0.518593,-0.030575,0.518457,-264.671899,-1.003155,62.326938
5.3988,-0.006197,-0.009019,-0.031403,0.006531,0.009131,0.030132,-0.022501,-0.518601,-0.030543,0.518457,-264.671899,-1.003155,62.326938
5.4188,-0.00652,-0.008897,-0.03128,0.005911,0.009209,0.031403,-0.02221,-0.518768,-0.031403,0.593471,-264.671898,-0.998483,62.326938
5.4389,-0.006557,-0.008835,-0.031864,0.006238,0.009097,0.03128,-0.022358,-0.518699,-0.031333,0.593471,-264.671898,-0.998483,62.326938
5.4584,-0.006525,-0.008784,-0.030062,0.006272,0.009039,0.031864,-0.022358,-0.518699,-0.031333,0.593471,-264.671898,-0.998483,62.326938
5.4786,-0.006519,-0.009077,-0.030289,0.006258,0.008976,0.030062,-0.021855,-0.518554,-0.030062,0.668354,-264.671896,-0.957153,62.326939
5.4984,-0.006779,-0.008645,-0.031504,0.006241,0.009271,0.030289,-0.021862,-0.518573,-0.030077,0.668354,-264.671896,-0.957153,62.326939
5.5187,-0.006635,-0.008905,-0.032862,0.006504,0.008854,0.031504,-0.022844,-0.518392,-0.031504,0.743357,-264.671892,-1.029014,62.326941
5.5386,-0.006669,-0.00909,-0.031768,0.006339,0.009119,0.032862,-0.023155,-0.518527,-0.032276,0.743357,-264.671892,-1.029014,62.326941
5.5587,-0.006317,-0.009041,-0.031995,0.006377,0.009298,0.031768,-0.023155,-0.518527,-0.032276,0.743357,-264.671892,-1.029014,62.326941
5.5786,-0.006362,-0.009225,-0.03216,0.006025,0.009238,0.031995,-0.022631,-0.518779,-0.031992,0.818347,-264.671871,-0.976164,62.326949
5.599,-0.006512,-0.009278,-0.030334,0.006062,0.009425,0.03216,-0.02264,-0.518792,-0.032004,0.818347,-264.671871,-0.976164,62.326949
5.6189,-0.006816,-0.008991,-0.032421,0.006228,0.009471,0.030334,-0.021976,-0.519041,-0.030325,0.893354,-264.671774,-1.007814,62.326988
5.6384,-0.006531,-0.009468,-0.031782,0.006521,0.009207,0.032421,-0.022764,-0.518858,-0.031528,0.893354,-264.671774,-1.007814,62.326988
5.6584,-0.006295,-0.009178,-0.029209,0.006226,0.009671,0.031782,-0.022764,-0.518858,-0.031528,0.893354,-264.671774,-1.007814,62.326988
5.6785,-0.005898,-0.009357,-0.031169,0.006025,0.009358,0.029209,-0.021176,-0.518953,-0.029176,0.968505,-264.671484,-1.035286,62.327104
5.699,-0.006401,-0.008684,-0.032188,0.005604,0.009536,0.031169,-0.02122,-0.518964,-0.029319,0.968505,-264.671484,-1.035286,62.327104
5.7188,-0.006446,-0.008981,-0.031671,0.006118,0.008886,0.032188,-0.022781,-0.518397,-0.032099,1.043447,-264.67054,-1.002007,62.327471
5.7386,-0.006621,-0.008762,-0.029512,0.006158,0.00918,0.031671,-0.022671,-0.51858,-0.031845,1.043447,-264.67054,-1.002007,62.327471
5.7586,-0.00664,-0.008914,-0.032526,0.00636,0.008953,0.029512,-0.022671,-0.51858,-0.031845,1.043447,-264.67054,-1.002007,62.327471
5.7786,-0.006599,-0.008983,-0.030257,0.006347,0.009125,0.032526,-0.023153,-0.518582,-0.0323,1.118461,-264.668687,-1.037888,62.328173
5.7986,-0.006592,-0.008676,-0.032089,0.006324,0.009179,0.030257,-0.023074,-0.518592,-0.032154,1.118461,-264.668687,-1.037888,62.328173
5.8189,-0.007096,-0.008293,-0.030064,0.006311,0.008883,0.032089,-0.022823,-0.518295,-0.031651,1.193356,-264.664338,-0.962993,62.329999
5.8385,-0.006566,-0.008625,-0.029781,0.006843,0.008502,0.030064,-0.022582,-0.518148,-0.030696,1.193356,-264.664338,-0.962993,62.329999
5.8587,-0.006665,-0.008879,-0.030268,0.006306,0.008817,0.029781,-0.022582,-0.518148,-0.030696,1.193356,-264.664338,-0.962993,62.329999
5.8786,-0.007072,-0.008446,-0.02945,0.006393,0.009076,0.030268,-0.021862,-0.518409,-0.02936,1.268285,-264.657483,-0.973659,62.33309
5.8984,-0.007214,-0.008373,-0.028733,0.00682,0.00865,0.02945,-0.021871,-0.518391,-0.029344,1.268285,-264.657483,-0.973659,62.33309
5.9187,-0.007324,-0.008449,-0.027402,0.006971,0.008577,0.028733,-0.021644,-0.517895,-0.027741,1.341396,-264.648117,-0.978505,62.337242
5.9387,-0.007486,-0.008098,-0.027706,0.00709,0.008647,0.027402,-0.021417,-0.518069,-0.027421,1.341396,-264.648117,-0.978505,62.337242
5.9586,-0.007337,-0.008033,-0.029355,0.007259,0.008302,0.027706,-0.021417,-0.518069,-0.027421,1.341396,-264.648117,-0.978505,62.337242
5.9785,-0.007485,-0.007809,-0.025748,0.007098,0.008245,0.029355,-0.021973,-0.517415,-0.027967,1.32014,-264.637436,-0.939891,62.341733
5.999,-0.007544,-0.007686,-0.026604,0.007282,0.007999,0.025748,-0.021863,-0.517421,-0.027764,1.32014,-264.637436,-0.939891,62.341733
6.0183,-0.008091,-0.007037,-0.02475,0.007336,0.007884,0.026604,-0.020848,-0.517221,-0.025631,1.290581,-264.627865,-0.87086,62.345842
6.0385,-0.008234,-0.007448,-0.025714,0.007914,0.007235,0.02475,-0.020737,-0.51699,-0.025003,1.290581,-264.627865,-0.87086,62.345842
6.0586,-0.008273,-0.007592,-0.025864,0.008039,0.007657,0.025714,-0.020737,-0.51699,-0.025003,1.290581,-264.627865,-0.87086,62.345842
6.0786,-0.00837,-0.006844,-0.02189,0.008074,0.007804,0.025864,-0.021118,-0.517062,-0.02468,1.273001,-264.618464,-0.815043,62.349864
6.0993,-0.008325,-0.006666,-0.023036,0.008218,0.007025,0.02189,-0.020996,-0.517028,-0.024449,1.273001,-264.618464,-0.815043,62.349864
6.1189,-0.008469,-0.00625,-0.021496,0.008169,0.006856,0.023036,-0.019761,-0.516247,-0.02206,1.239368,-264.608894,-0.785915,62.35427
6.139,-0.008366,-0.00647,-0.022762,0.008333,0.00643,0.021496,-0.01954,-0.516148,-0.021627,1.239368,-264.608894,-0.785915,62.35427
6.1586,-0.00861,-0.006734,-0.023267,0.008216,0.006659,0.022762,-0.01954,-0.516148,-0.021627,1.239368,-264.608894,-0.785915,62.35427
6.1785,-0.008523,-0.006384,-0.022077,0.008451,0.006932,0.023267,-0.020182,-0.516359,-0.022473,1.187768,-264.602434,-0.710916,62.35732
6.1988,-0.008495,-0.006334,-0.022081,0.00838,0.006571,0.022077,-0.020147,-0.516346,-0.022425,1.187768,-264.602434,-0.710916,62.35732
6.2185,-0.008902,-0.006069,-0.019141,0.008353,0.00652,0.022081,-0.019433,-0.515959,-0.021204,1.190612,-264.593584,-0.722526,62.361698
6.2388,-0.009212,-0.006049,-0.020424,0.008784,0.006238,0.019141,-0.018952,-0.515937,-0.019912,1.190612,-264.593584,-0.722526,62.361698
6.2586,-0.00898,-0.005928,-0.020272,0.009086,0.006236,0.020424,-0.018952,-0.515937,-0.019912,1.190612,-264.593584,-0.722526,62.361698
6.2787,-0.00896,-0.005637,-0.018482,0.008858,0.006109,0.020272,-0.018914,-0.515519,-0.019223,1.174976,-264.585073,-0.689728,62.365952
6.2994,-0.008861,-0.005363,-0.021221,0.008854,0.005801,0.018482,-0.018864,-0.515513,-0.01914,1.174976,-264.585073,-0.689728,62.365952
6.3186,-0.008982,-0.005351,-0.018086,0.008746,0.00555,0.021221,-0.019383,-0.515052,-0.020549,1.118703,-264.578091,-0.614764,62.369652
6.3387,-0.009001,-0.005379,-0.017412,0.008884,0.005512,0.018086,-0.018685,-0.515149,-0.019084,1.118703,-264.578091,-0.614764,62.369652
6.3587,-0.009119,-0.005449,-0.017565,0.008905,0.005534,0.017412,-0.018685,-0.515149,-0.019084,1.118703,-264.578091,-0.614764,62.369652
6.3784,-0.009149,-0.005104,-0.016611,0.009022,0.005609,0.017565,-0.01767,-0.515114,-0.016725,1.092778,-264.570896,-0.554778,62.373546
6.3989,-0.009064,-0.004897,-0.017996,0.009063,0.005255,0.016611,-0.017656,-0.515102,-0.016695,1.092778,-264.570896,-0.554778,62.373546
6.4186,-0.009282,-0.004746,-0.018247,0.008974,0.005059,0.017996,-0.017905,-0.514613,-0.017345,1.067347,-264.563729,-0.520057,62.37753
6.4387,-0.009208,-0.004991,-0.016384,0.009193,0.004915,0.018247,-0.018253,-0.514615,-0.017779,1.067347,-264.563729,-0.520057,62.37753
6.4586,-0.008882,-0.004804,-0.017051,0.009125,0.005141,0.016384,-0.018253,-0.514615,-0.017779,1.067347,-264.563729,-0.520057,62.37753
6.4791,-0.00875,-0.004581,-0.016648,0.008799,0.004955,0.017051,-0.017143,-0.514488,-0.016263,1.038876,-264.556746,-0.494777,62.381554
6.4988,-0.008682,-0.004577,-0.016644,0.008799,0.004955,0.017051,-0.017138,-0.514483,-0.016269,1.038876,-264.556746,-0.494777,62.381554
6.5189,-0.008759,-0.004265,-0.014838,8.8e-05,4.8e-05,0.0,-0.016816,-0.514314,-0.016014,1.02861,-264.549698,-0.4898,62.385676
6.5391,-0.009279,-0.004171,-0.016948,8.8e-05,4.8e-05,0.0,-0.016493,-0.51423,-0.015265,1.02861,-264.549698,-0.4898,62.385676
6.5586,-0.008949,-0.004372,-0.014529,8.8e-05,4.8e-05,0.0,-0.016493,-0.51423,-0.015265,1.02861,-264.549698,-0.4898,62.385676
6.5789,-0.009055,-0.00422,-0.014096,8.8e-05,4.8e-05,0.0,-0.015959,-0.5141,-0.013761,1.050832,-264.54309,-0.555312,62.38954
6.5989,-0.008969,-0.003708,-0.014349,8.8e-05,4.8e-05,0.0,-0.015971,-0.514099,-0.013765,1.050832,-264.54309,-0.555312,62.38954
6.6185,-0.008924,-0.004387,-0.014318,8.8e-05,4.8e-05,0.0,-0.016287,-0.513656,-0.014349,0.975281,-264.54309,-0.479762,62.38954
6.6391,-0.00849,-0.004181,-0.015546,8.8e-05,4.8e-05,0.0,-0.016252,-0.514046,-0.014331,0.975281,-264.54309,-0.479762,62.38954
6.6593,-0.008935,-0.004265,-0.014052,8.8e-05,4.8e-05,0.0,-0.016252,-0.514046,-0.014331,0.975281,-264.54309,-0.479762,62.38954
6.6789,-0.009067,-0.004084,-0.014057,8.8e-05,4.8e-05,0.0,-0.016101,-0.514214,-0.014052,0.90069,-264.54309,-0.40517,62.38954
6.6989,-0.008588,-0.004025,-0.013124,8.8e-05,4.8e-05,0.0,-0.01611,-0.514202,-0.014052,0.90069,-264.54309,-0.40517,62.38954
6.7189,-0.009044,-0.004339,-0.016061,8.8e-05,4.8e-05,0.0,-0.015281,-0.513981,-0.013124,0.82585,-264.54309,-0.33033,62.38954
6.7385,-0.008907,-0.003957,-0.016278,0.001255,0.000689,0.002428,-0.016392,-0.514147,-0.014794,0.82585,-264.54309,-0.33033,62.38954
6.7584,-0.008917,-0.004363,-0.01565,0.002453,0.001346,0.004745,-0.016392,-0.514147,-0.014794,0.82585,-264.54309,-0.33033,62.38954
6.7786,-0.008901,-0.004146,-0.016401,0.003581,0.001964,0.006926,-0.016898,-0.514301,-0.01565,0.750851,-264.54309,-0.255332,62.38954
6.7989,-0.008903,-0.004202,-0.014366,0.004645,0.002548,0.008984,-0.016925,-0.514284,-0.015706,0.750851,-264.54309,-0.255332,62.38954
6.8184,-0.00903,-0.004213,-0.015297,0.005644,0.003097,0.010917,-0.016224,-0.514147,-0.014359,0.825998,-264.542989,-0.330478,62.389599
6.8389,-0.008894,-0.00372,-0.013941,0.006584,0.003612,0.012734,-0.016572,-0.51415,-0.014896,0.825998,-264.542989,-0.330478,62.389599
6.8593,-0.008841,-0.004126,-0.01449,0.007455,0.00409,0.014419,-0.016572,-0.51415,-0.014896,0.825998,-264.542989,-0.330478,62.389599
6.8786,-0.008501,-0.004179,-0.014439,0.00826,0.004531,0.015976,-0.01618,-0.51405,-0.014419,0.901018,-264.542288,-0.405498,62.390015
6.8994,-0.008507,-0.00381,-0.013735,0.009001,0.004938,0.017411,-0.016155,-0.514055,-0.014418,0.901018,-264.542288,-0.405498,62.390015
6.9185,-0.008906,-0.003965,-0.014948,0.00968,0.005311,0.018724,-0.015363,-0.513689,-0.01349,0.976107,-264.539465,-0.480587,62.391687
6.9386,-0.009004,-0.004064,-0.013606,0.010292,0.005646,0.019907,-0.016013,-0.513805,-0.014296,0.976107,-264.539465,-0.480587,62.391687
6.9592,-0.008663,-0.004299,-0.013329,0.010841,0.005947,0.020969,-0.016013,-0.513805,-0.014296,0.976107,-264.539465,-0.480587,62.391687
6.9785,-0.008862,-0.003856,-0.011363,0.011325,0.006213,0.021906,-0.015115,-0.514091,-0.012686,1.04667,-264.534142,-0.555478,62.395204
6.9988,-0.009012,-0.003779,-0.014277,0.011745,0.006443,0.022718,-0.015073,-0.514068,-0.012575,1.04667,-264.534142,-0.555478,62.395204
7.0185,-0.00884,-0.003288,-0.012377,0.012101,0.006638,0.023405,-0.015893,-0.513538,-0.013526,1.04667,-264.526317,-0.564138,62.40033
7.0384,-0.009168,-0.003463,-0.01191,0.012391,0.006798,0.023966,-0.015418,-0.513348,-0.012773,1.04667,-264.526317,-0.564138,62.40033
7.0587,-0.008673,-0.003513,-0.012728,0.012617,0.006922,0.024404,-0.015418,-0.513348,-0.012773,1.04667,-264.526317,-0.564138,62.40033
7.0784,-0.00897,-0.003017,-0.012245,0.012778,0.00701,0.024716,-0.01459,-0.513166,-0.011625,1.04667,-264.516879,-0.564138,62.40592
7.0988,-0.008638,-0.003232,-0.010753,0.012875,0.007063,0.024904,-0.014626,-0.51314,-0.011643,1.04667,-264.516879,-0.564138,62.40592
7.1186,-0.008679,-0.003066,-0.010484,0.012908,0.007081,0.024966,-0.013636,-0.512943,-0.009818,1.04667,-264.506849,-0.564138,62.41186
7.1386,-0.008774,-0.002998,-0.010933,0.012875,0.007064,0.024904,-0.013797,-0.512964,-0.01008,1.04667,-264.506849,-0.564138,62.41186
7.1586,-0.008924,-0.002416,-0.010986,0.012779,0.007011,0.024717,-0.013797,-0.512964,-0.01008,1.04667,-264.506849,-0.564138,62.41186
7.1784,-0.008917,-0.00246,-0.008355,0.012618,0.006922,0.024405,-0.013899,-0.512049,-0.009778,1.04667,-264.49656,-0.564138,62.417953
7.1989,-0.008773,-0.002616,-0.007222,0.012392,0.006798,0.023968,-0.013828,-0.512069,-0.00964,1.04667,-264.49656,-0.564138,62.417953
7.2186,-0.008987,-0.002355,-0.008971,0.012102,0.006639,0.023407,-0.011962,-0.512336,-0.006269,1.04667,-264.486345,-0.564138,62.424002
7.2391,-0.008864,-0.002429,-0.008371,0.011747,0.006444,0.022721,-0.012818,-0.512301,-0.0077,1.04667,-264.486345,-0.564138,62.424002
7.2593,-0.009055,-0.002175,-0.007677,0.011327,0.006214,0.02191,-0.012818,-0.512301,-0.0077,1.04667,-264.486345,-0.564138,62.424002
7.2792,-0.00849,-0.001676,-0.007201,0.010843,0.005949,0.020974,-0.012365,-0.511833,-0.006512,1.04667,-264.47644,-0.564138,62.429868
7.2992,-0.009017,-0.00172,-0.00623,0.010295,0.005648,0.019914,-0.012335,-0.511813,-0.006529,1.04667,-264.47644,-0.564138,62.429868
7.3185,-0.008885,-0.001479,-0.006985,0.009682,0.005312,0.018727,-0.011756,-0.511473,-0.005384,1.04667,-264.467379,-0.564138,62.435235
7.3385,-0.008879,-0.001295,-0.004776,0.009005,0.00494,0.017417,-0.012098,-0.51144,-0.006197,1.04667,-264.467379,-0.564138,62.435235
7.3588,-0.008955,-0.001325,-0.006472,0.008262,0.004533,0.015981,-0.012098,-0.51144,-0.006197,1.04667,-264.467379,-0.564138,62.435235
7.3788,-0.008941,-0.001251,-0.003449,0.007456,0.00409,0.014422,-0.011754,-0.511043,-0.005505,1.04667,-264.459169,-0.564138,62.440097
7.3991,-0.008795,-0.001015,-0.0057,0.006585,0.003613,0.012737,-0.011674,-0.51105,-0.005349,1.04667,-264.459169,-0.564138,62.440097
7.4189,-0.008596,-0.000991,-0.002276,0.005648,0.003099,0.010925,-0.011379,-0.510831,-0.005076,1.04667,-264.452556,-0.564138,62.444013
7.4385,-0.008962,-0.000814,-0.004439,0.004647,0.002549,0.008988,-0.010425,-0.510899,-0.003421,1.04667,-264.452556,-0.564138,62.444013
7.4587,-0.00869,-0.001014,-0.002105,0.003581,0.001965,0.006927,-0.010425,-0.510899,-0.003421,1.04667,-264.452556,-0.564138,62.444013
7.4785,-0.008902,-0.001016,-0.003055,0.002449,0.001344,0.004737,-0.009443,-0.510837,-0.001485,1.04667,-264.447301,-0.564138,62.447125
7.4985,-0.008951,-0.000658,-0.003698,0.00126,0.000691,0.002436,-0.0095,-0.510844,-0.001569,1.04667,-264.447301,-0.564138,62.447125
7.5189,-0.009217,-0.000439,-0.003854,2e-06,1e-06,4e-06,-0.010698,-0.510579,-0.00343,1.04667,-264.444433,-0.564138,62.448824
7.5387,-0.008436,-0.001027,-0.003753,0.0,0.0,0.0,-0.010958,-0.510487,-0.003639,1.04667,-264.444433,-0.564138,62.448824
7.5589,-0.009088,-0.000899,-0.002373,0.0,0.0,0.0,-0.010958,-0.510487,-0.003639,1.04667,-264.444433,-0.564138,62.448824
7.5786,-0.008584,-0.000398,-0.002614,0.0,0.0,0.0,-0.010237,-0.510864,-0.002254,1.04667,-264.443426,-0.564138,62.44942
7.5989,-0.008969,-0.000836,-0.003796,0.0,0.0,0.0,-0.010215,-0.510833,-0.002274,1.04667,-264.443426,-0.564138,62.44942
7.6184,-0.008732,-0.000859,-0.002705,0.0,0.0,0.0,-0.010905,-0.510832,-0.003796,1.04667,-264.443426,-0.564138,62.44942
7.6383,-0.008565,-0.000212,-0.002652,0.0,0.0,0.0,-0.010456,-0.510846,-0.003179,1.04667,-264.443426,-0.564138,62.44942
7.6585,-0.008851,-0.000868,-0.002483,0.0,0.0,0.0,-0.010456,-0.510846,-0.003179,1.04667,-264.443426,-0.564138,62.44942
7.6787,-0.008686,-0.000524,-0.001733,0.0,0.0,0.0,-0.010117,-0.510867,-0.002483,1.04667,-264.443426,-0.564138,62.44942
7.6985,-0.009052,-0.000615,-0.003512,0.0,0.0,0.0,-0.010077,-0.510841,-0.002428,1.04667,-264.443426,-0.564138,62.44942
7.7186,-0.008619,-0.000442,-0.002564,0.0,0.0,0.0,-0.010843,-0.510612,-0.003512,1.04667,-264.443426,-0.564138,62.44942
7.7389,-0.009157,-0.000682,-0.000662,0.0,0.0,0.0,-0.010314,-0.510513,-0.002965,1.04667,-264.443426,-0.564138,62.44942
7.7587,-0.008561,-0.00071,-0.003518,0.0001,7e-06,0.0,-0.010314,-0.510513,-0.002965,1.04667,-264.443426,-0.564138,62.44942
7.7788,-0.008947,-0.000662,-0.000871,0.0001,7e-06,0.0,-0.010355,-0.510707,-0.003518,1.04667,-264.443426,-0.564138,62.44942
7.7989,-0.008793,-0.00074,-0.004137,0.0001,7e-06,0.0,-0.010272,-0.510703,-0.003289,1.04667,-264.443426,-0.564138,62.44942
7.8187,-0.008872,-0.000381,-0.003761,0.0001,7e-06,0.0,-0.010903,-0.510736,-0.004137,0.971513,-264.443426,-0.488981,62.44942
7.8388,-0.008688,-0.00045,-0.001652,0.0001,7e-06,0.0,-0.01084,-0.510536,-0.003928,0.971513,-264.443426,-0.488981,62.44942
7.8589,-0.008832,-0.000548,-0.002866,0.0001,7e-06,0.0,-0.01084,-0.510536,-0.003928,0.971513,-264.443426,-0.488981,62.44942
7.8786,-0.008454,-0.000884,-0.000901,0.0001,7e-06,0.0,-0.010294,-0.510546,-0.002866,0.897052,-264.443426,-0.41452,62.44942
7.8985,-0.008733,-0.000394,-0.002606,0.0001,7e-06,0.0,-0.0102,-0.510569,-0.002732,0.897052,-264.443426,-0.41452,62.44942
7.9187,-0.009222,-0.000614,-0.003067,0.0001,7e-06,0.0,-0.010062,-0.510392,-0.002606,0.822056,-264.443426,-0.339524,62.44942
7.9385,-0.008818,-0.000658,-0.001962,0.0001,7e-06,0.0,-0.010479,-0.510518,-0.002872,0.822056,-264.443426,-0.339524,62.44942
7.9586,-0.008651,-0.000826,-0.002993,0.0001,7e-06,0.0,-0.010479,-0.510518,-0.002872,0.822056,-264.443426,-0.339524,62.44942
7.9785,-0.008834,-0.000866,-0.002829,0.001327,0.0001,9.6e-05,-0.010178,-0.510824,-0.002993,0.746846,-264.443426,-0.264315,62.44942
7.999,-0.008766,-0.00043,-0.002184,0.002597,0.000195,0.000188,-0.010185,-0.510827,-0.002981,0.746846,-264.443426,-0.264315,62.44942
8.0188,-0.008826,-0.000423,-0.002948,0.003801,0.000286,0.000275,-0.00988,-0.510429,-0.002184,0.671941,-264.443426,-0.189409,62.44942
8.0384,-0.008482,-0.000659,-0.00315,0.004936,0.000371,0.000357,-0.010137,-0.510424,-0.002621,0.671941,-264.443426,-0.189409,62.44942
8.0585,-0.008771,-0.000866,-0.002609,0.005998,0.000451,0.000434,-0.010137,-0.510424,-0.002621,0.671941,-264.443426,-0.189409,62.44942
8.0786,-0.008309,-0.00049,-0.003389,0.006995,0.000526,0.000506,-0.010101,-0.510864,-0.002609,0.596898,-264.443424,-0.114366,62.449423
8.0985,-0.008747,-0.000789,-0.002233,0.007922,0.000595,0.000573,-0.010097,-0.510838,-0.002662,0.596898,-264.443424,-0.114366,62.449423
8.1186,-0.008966,-0.000851,-0.002375,0.008782,0.00066,0.000635,-0.009883,-0.510787,-0.002231,0.522051,-264.443385,-0.039519,62.449461
8.1387,-0.008847,-0.000819,-0.00359,0.009573,0.000719,0.000692,-0.01005,-0.510823,-0.002313,0.522051,-264.443385,-0.039519,62.449461
8.1591,-0.008756,-0.000628,-0.002625,0.010294,0.000774,0.000744,-0.01005,-0.510823,-0.002313,0.522051,-264.443385,-0.039519,62.449461
8.1791,-0.008631,-0.000726,-0.00388,0.010948,0.000823,0.000791,-0.010071,-0.51062,-0.002617,0.447032,-264.443182,0.030994,62.449663
8.1994,-0.008777,-0.000613,-0.00308,0.011531,0.000867,0.000833,-0.010113,-0.510628,-0.002716,0.447032,-264.443182,0.030994,62.449663
8.2189,-0.008735,-0.000799,-0.00281,0.012048,0.000905,0.000871,-0.010282,-0.510597,-0.003062,0.371745,-264.442468,0.030994,62.450372
8.2384,-0.008208,-0.000578,-0.003432,0.012494,0.000939,0.000903,-0.010208,-0.51071,-0.002915,0.371745,-264.442468,0.030994,62.450372
8.2588,-0.008954,-0.000933,-0.004437,0.012873,0.000967,0.00093,-0.010208,-0.51071,-0.002915,0.371745,-264.442468,0.030994,62.450372
8.2787,-0.008438,-0.000709,-0.003406,0.013183,0.000991,0.000953,-0.011022,-0.510896,-0.004395,0.296923,-264.440813,0.030994,62.452016
8.299,-0.008275,-0.000622,-0.001511,0.013424,0.001009,0.00097,-0.010946,-0.51088,-0.004312,0.296923,-264.440813,0.030994,62.452016
8.3186,-0.008209,-0.000439,-0.00155,0.013595,0.001022,0.000983,-0.008752,-0.510585,-0.001465,0.221673,-264.437709,0.030994,62.4551
8.3386,-0.008002,-0.000232,-0.003859,0.013699,0.001029,0.00099,-0.008856,-0.510496,-0.001508,0.221673,-264.437709,0.030994,62.4551
8.3585,-0.008023,-0.000457,-0.00388,0.013734,0.001032,0.000993,-0.008856,-0.510496,-0.001508,0.221673,-264.437709,0.030994,62.4551
8.3784,-0.007497,-0.000317,-0.003996,0.0137,0.00103,0.00099,-0.009454,-0.510407,-0.003828,0.146841,-264.433159,0.030994,62.45962
8.3989,-0.007808,-0.000764,-0.003217,0.013598,0.001022,0.000983,-0.009445,-0.510399,-0.003839,0.146841,-264.433159,0.030994,62.45962
8.4184,-0.006733,-0.000797,-0.004477,0.013427,0.001009,0.000971,-0.008924,-0.510723,-0.003179,0.118735,-264.427695,0.030994,62.465048
8.4388,-0.007099,-0.000136,-0.002684,0.013187,0.000991,0.000953,-0.00891,-0.510758,-0.003911,0.118735,-264.427695,0.030994,62.465048
8.4587,-0.006907,-0.000212,-0.001977,0.012879,0.000968,0.000931,-0.00891,-0.510758,-0.003911,0.118735,-264.427695,0.030994,62.465048
8.4783,-0.00623,-0.0003,-0.001569,0.012502,0.00094,0.000904,-0.007254,-0.510163,-0.001929,0.118735,-264.422218,0.030994,62.470489
8.4984,-0.006037,-0.000501,-7.9e-05,0.012057,0.000906,0.000871,-0.007221,-0.510171,-0.001903,0.118735,-264.422218,0.030994,62.470489
8.5186,-0.005955,-0.000609,-0.001589,0.011542,0.000867,0.000834,-0.00558,-0.510464,-4.3e-05,0.118735,-264.417005,0.030994,62.475668
8.5387,-0.005347,-0.000235,-0.001062,0.010958,0.000823,0.000792,-0.006203,-0.510543,-0.000934,0.118735,-264.417005,0.030994,62.475668
8.5588,-0.005636,-0.000174,-0.004041,0.010307,0.000775,0.000745,-0.006203,-0.510543,-0.000934,0.118735,-264.417005,0.030994,62.475668
8.5789,-0.005327,-0.000374,-0.001868,0.009584,0.00072,0.000693,-0.007113,-0.510128,-0.003999,0.118735,-264.412171,0.030994,62.48047
8.5991,-0.005053,-0.000579,-0.00297,0.008797,0.000661,0.000636,-0.007041,-0.510144,-0.003852,0.118735,-264.412171,0.030994,62.48047
8.6189,-0.004463,-0.000143,-0.003541,0.007934,0.000596,0.000573,-0.006169,-0.510548,-0.002941,0.118735,-264.408018,0.030994,62.484595
8.6388,-0.004654,-0.000214,-0.00356,0.007015,0.000527,0.000507,-0.006175,-0.510312,-0.003279,0.118735,-264.408018,0.030994,62.484595
8.6586,-0.004445,-7.5e-05,-0.002593,0.006019,0.000452,0.000435,-0.006175,-0.510312,-0.003279,0.118735,-264.408018,0.030994,62.484595
8.6786,-0.004207,-0.000247,-0.001838,0.004955,0.000372,0.000358,-0.00534,-0.510042,-0.002562,0.118735,-264.404456,0.030994,62.488135
8.6994,-0.004563,-0.000801,-0.003096,0.003824,0.000287,0.000276,-0.00531,-0.510058,-0.002501,0.118735,-264.404456,0.030994,62.488135
8.7184,-0.003943,5.3e-05,-0.003702,0.002621,0.000197,0.000189,-0.005908,-0.510781,-0.003079,0.118735,-264.402041,0.030994,62.490534
8.739,-0.004047,-0.000269,-0.002779,0.001341,0.000101,9.7e-05,-0.005836,-0.51031,-0.003426,0.118735,-264.402041,0.030994,62.490534
8.759,-0.003975,-4.9e-05,-0.002143,4e-06,0.0,0.0,-0.005836,-0.51031,-0.003426,0.118735,-264.402041,0.030994,62.490534
8.7792,-0.003439,-0.000374,-0.003372,0.0,0.0,0.0,-0.004882,-0.510034,-0.00213,0.118735,-264.400492,0.030994,62.492073
8.799,-0.003582,-3e-05,-0.003107,0.0,0.0,0.0,-0.004899,-0.510062,-0.002232,0.118735,-264.400492,0.030994,62.492073
8.8188,-0.003501,-0.000308,-0.002569,0.0,0.0,0.0,-0.005167,-0.510027,-0.003107,0.118735,-264.40049,0.030994,62.492074
8.8385,-0.003767,-0.000246,-0.003255,0.0,0.0,0.0,-0.004965,-0.510186,-0.002801,0.118735,-264.40049,0.030994,62.492074
8.8595,-0.004035,-0.000201,-0.002499,0.0,0.0,0.0,-0.004965,-0.510186,-0.002801,0.118735,-264.40049,0.030994,62.492074
8.8789,-0.003865,-0.000379,-0.002188,0.0,0.0,0.0,-0.00531,-0.510199,-0.002499,0.118735,-264.40049,0.030994,62.492074
8.8989,-0.003653,2.2e-05,-0.001623,0.0,0.0,0.0,-0.005285,-0.510212,-0.002476,0.118735,-264.40049,0.030994,62.492074
8.9185,-0.003328,-0.000274,-0.002303,0.0,0.0,0.0,-0.004481,-0.509978,-0.001623,0.118735,-264.40049,0.030994,62.492074
8.9384,-0.003654,-0.00012,-0.000568,0.0,0.0,0.0,-0.004493,-0.510148,-0.002015,0.118735,-264.40049,0.030994,62.492074
8.9584,-0.003597,-1e-05,-0.004451,0.0,0.0,0.0,-0.004493,-0.510148,-0.002015,0.118735,-264.40049,0.030994,62.492074
8.9788,-0.003632,-0.000311,-0.003699,0.0,0.0,0.0,-0.005867,-0.510005,-0.004451,0.118735,-264.40049,0.030994,62.492074
8.9985,-0.003589,-0.00047,-0.004201,0.0001,9e-06,0.0,-0.005844,-0.510025,-0.004401,0.118735,-264.40049,0.030994,62.492074
9.0184,-0.003759,-0.000518,-0.002649,0.0001,9e-06,0.0,-0.005732,-0.510465,-0.004201,0.118735,-264.40049,0.030994,62.492074
9.0383,-0.003791,-0.00045,-0.002308,0.0001,9e-06,0.0,-0.005376,-0.510494,-0.003314,0.118735,-264.40049,0.030994,62.492074
9.0585,-0.003361,-0.000283,-0.001551,0.0001,9e-06,0.0,-0.005376,-0.510494,-0.003314,0.118735,-264.40049,0.030994,62.492074
9.0789,-0.004068,-0.000111,-0.001095,0.0001,9e-06,0.0,-0.004147,-0.510282,-0.001551,0.089015,-264.400453,0.089015,62.492112
9.0987,-0.003759,9e-06,-0.002781,0.0001,9e-06,0.0,-0.00418,-0.51027,-0.001519,0.089015,-264.400453,0.089015,62.492112
9.1187,-0.00385,-0.000294,-0.00104,0.0001,9e-06,0.0,-0.005173,-0.509988,-0.002781,0.089015,-264.400413,0.089015,62.492152
9.139,-0.004026,-0.00033,-0.003585,0.0001,9e-06,0.0,-0.004726,-0.51016,-0.0018,0.089015,-264.400413,0.089015,62.492152
9.1588,-0.003315,-4e-06,-0.001941,0.0001,9e-06,0.0,-0.004726,-0.51016,-0.0018,0.089015,-264.400413,0.089015,62.492152
9.1789,-0.003485,-0.000141,-0.002601,0.0001,9e-06,0.0,-0.004299,-0.510002,-0.001941,0.089015,-264.400373,0.089015,62.492192
9.1991,-0.003887,-0.000121,-0.001517,1e-06,0.0,1e-06,-0.004333,-0.510011,-0.001984,0.089015,-264.400373,0.089015,62.492192
9.2189,-0.003603,-0.000329,-0.001468,0.000532,4.7e-05,0.000542,-0.004656,-0.51012,-0.001517,0.089015,-264.400333,0.089015,62.492232
9.2384,-0.003748,-0.000334,-0.00226,0.001036,9.2e-05,0.001056,-0.00448,-0.51024,-0.001489,0.089015,-264.400333,0.089015,62.492232
9.2587,-0.003542,-6e-05,-0.002631,0.001514,0.000135,0.001543,-0.00448,-0.51024,-0.001489,0.089015,-264.400333,0.089015,62.492232
9.2784,-0.003701,-6.6e-05,-0.002569,0.001962,0.000175,0.001999,-0.004883,-0.510059,-0.002631,0.164314,-264.400333,0.013716,62.492232
9.2985,-0.003778,-0.000169,-0.002684,0.002384,0.000213,0.002428,-0.004891,-0.510059,-0.002627,0.164314,-264.400333,0.013716,62.492232
9.3192,-0.003502,-0.000485,-0.003024,0.002781,0.000248,0.002833,-0.005147,-0.510167,-0.002684,0.239023,-264.400332,-0.060994,62.492232
9.3391,-0.00348,0.000172,-0.00174,0.003147,0.000281,0.003206,-0.005089,-0.510345,-0.002876,0.239023,-264.400332,-0.060994,62.492232
9.3588,-0.003457,-4.2e-05,-0.003136,0.003487,0.000311,0.003552,-0.005089,-0.510345,-0.002876,0.239023,-264.400332,-0.060994,62.492232
9.3799,-0.003259,-0.000264,-0.001179,0.0038,0.000339,0.003871,-0.005056,-0.510039,-0.003136,0.314038,-264.400327,-0.136009,62.492237
9.3991,-0.003822,-0.000488,-0.001133,0.004089,0.000365,0.004165,-0.00498,-0.510054,-0.003011,0.314038,-264.400327,-0.136009,62.492237
9.4188,-0.003845,-0.000251,-0.002406,0.004345,0.000388,0.004426,-0.004395,-0.510488,-0.001131,0.389018,-264.400278,-0.210989,62.492282
9.439,-0.003827,-0.000245,-0.002108,0.004576,0.000408,0.004662,-0.00478,-0.510352,-0.001857,0.389018,-264.400278,-0.210989,62.492282
9.459,-0.003336,-0.000103,-0.00283,0.00478,0.000427,0.00487,-0.00478,-0.510352,-0.001857,0.389018,-264.400278,-0.210989,62.492282
9.4791,-0.0036,-0.000365,-0.002955,0.004957,0.000442,0.00505,-0.004753,-0.510098,-0.002813,0.464126,-264.400034,-0.286097,62.492507
9.4989,-0.003811,-0.000337,-0.001948,0.005107,0.000456,0.005203,-0.004775,-0.510115,-0.002822,0.464126,-264.400034,-0.286097,62.492507
9.5186,-0.003703,-0.000492,-0.001906,0.005229,0.000467,0.005327,-0.004736,-0.510329,-0.001893,0.53901,-264.399213,-0.360981,62.493265
9.5387,-0.00365,-0.000367,-0.002423,0.005325,0.000475,0.005424,-0.004693,-0.51042,-0.001893,0.53901,-264.399213,-0.360981,62.493265
9.5588,-0.003394,-0.000294,-0.002723,0.005392,0.000481,0.005493,-0.004693,-0.51042,-0.001893,0.53901,-264.399213,-0.360981,62.493265
9.5789,-0.003377,-0.000159,-0.001719,0.005433,0.000485,0.005535,-0.004608,-0.510273,-0.002556,0.61404,-264.397476,-0.436011,62.494869
9.599,-0.003341,-0.000241,-0.002875,0.005447,0.000486,0.005549,-0.00458,-0.510265,-0.002496,0.61404,-264.397476,-0.436011,62.494869
9.6191,-0.003334,-0.000445,3.7e-05,0.005433,0.000485,0.005535,-0.004608,-0.510221,-0.002672,0.61837,-264.394944,-0.489659,62.497207
9.6391,-0.003493,5.1e-05,-0.001556,0.005392,0.000481,0.005493,-0.00385,-0.510346,-0.001112,0.61837,-264.394944,-0.489659,62.497207
9.6588,-0.003247,-9.9e-05,-0.001835,0.005324,0.000475,0.005423,-0.00385,-0.510346,-0.001112,0.61837,-264.394944,-0.489659,62.497207
9.6787,-0.003273,0.000136,-0.002199,0.005228,0.000467,0.005326,-0.003918,-0.510075,-0.001565,0.61837,-264.392275,-0.489659,62.499671
9.6988,-0.003234,-0.000405,-0.001542,0.005106,0.000456,0.005201,-0.003942,-0.510061,-0.001598,0.61837,-264.392275,-0.489659,62.499671
9.7186,-0.003309,-3.6e-05,-0.000742,0.004951,0.000442,0.005044,-0.003814,-0.510386,-0.001332,0.61837,-264.389662,-0.489659,62.502084
9.7385,-0.003351,-0.00028,-0.000971,0.004778,0.000426,0.004868,-0.003717,-0.510187,-0.000973,0.61837,-264.389662,-0.489659,62.502084
9.7591,-0.003312,0.00033,-0.001263,0.004574,0.000408,0.00466,-0.003717,-0.510187,-0.000973,0.61837,-264.389662,-0.489659,62.502084
9.779,-0.002974,-1.6e-05,-0.000761,0.004341,0.000387,0.004423,-0.003707,-0.509648,-0.001009,0.61837,-264.387143,-0.489659,62.50441
9.799,-0.002963,-0.00014,9.8e-05,0.004082,0.000364,0.004159,-0.003675,-0.509674,-0.000984,0.61837,-264.387143,-0.489659,62.50441
