mach0312/omni-docking-bench/src/icros_test_setup/results/kinematic_sample/timeseries/trial_130.csv
t,x,y,yaw,vx,vy,wz,bl_x,bl_y,bl_yaw,front_steering_joint,front_wheel_joint,rear_steering_joint,rear_wheel_joint
0.0,0.03142,-0.029727,-0.049429,-0.001785,-0.000859,-0.001311,0.005493,-0.538708,-0.049694,0.749065,-264.218044,0.03228,62.382156
0.0004,0.030965,-0.029547,-0.048514,0.0,0.0,0.0,0.005664,-0.5386,-0.049651,0.749065,-264.219019,0.03228,62.381442
0.0008,0.031031,-0.02993,-0.050357,0.0,0.0,0.0,0.005664,-0.5386,-0.049651,0.749065,-264.219019,0.03228,62.381442
0.0011,0.030928,-0.029723,-0.048953,0.0,0.0,0.0,0.005664,-0.5386,-0.049651,0.749065,-264.219019,0.03228,62.381442
0.0014,0.031166,-0.029867,-0.048632,0.0,0.0,0.0,0.006077,-0.539102,-0.049149,0.749065,-264.219019,0.03228,62.381442
0.0017,0.03121,-0.029807,-0.048402,0.0,0.0,0.0,0.006059,-0.539112,-0.049206,0.749065,-264.219019,0.03228,62.381442
0.002,0.030928,-0.029757,-0.050338,0.0,0.0,0.0,0.006059,-0.539112,-0.049206,0.674088,-264.21902,0.107257,62.381442
0.0023,0.031168,-0.029647,-0.050586,-9.6e-05,-2.7e-05,0.0,0.005198,-0.538959,-0.050282,0.674088,-264.21902,0.107257,62.381442
0.0025,0.030877,-0.029472,-0.049682,-9.6e-05,-2.7e-05,0.0,0.005198,-0.538959,-0.050282,0.674088,-264.21902,0.107257,62.381442
0.0028,0.031241,-0.029611,-0.050491,-9.6e-05,-2.7e-05,0.0,0.005778,-0.539041,-0.049799,0.674088,-264.21902,0.107257,62.381442
0.0068,0.03132,-0.029637,-0.048993,-9.6e-05,-2.7e-05,0.0,0.005501,-0.538961,-0.050491,0.674088,-264.21902,0.107257,62.381442
0.0268,0.031121,-0.029713,-0.049444,-0.016096,0.015973,0.03,0.005981,-0.538997,-0.049638,0.674088,-264.21902,0.107257,62.381442
0.0465,0.030864,-0.029294,-0.050151,-0.032096,0.028138,0.049444,0.005981,-0.538997,-0.049638,0.674088,-264.21902,0.107257,62.381442
0.0665,0.031215,-0.029719,-0.048934,-0.032294,0.02771,0.05,0.005298,-0.538652,-0.050151,0.599093,-264.219021,0.182253,62.38144
0.087,0.030991,-0.029929,-0.049012,-0.032632,0.028156,0.048934,0.005379,-0.53869,-0.05005,0.599093,-264.219021,0.182253,62.38144
0.1066,0.030968,-0.029912,-0.047872,-0.03242,0.028375,0.049012,0.006005,-0.539316,-0.049012,0.523646,-264.219023,0.106806,62.381439
0.1267,0.030861,-0.029575,-0.048894,-0.032363,0.028395,0.047872,0.006323,-0.539323,-0.048362,0.523646,-264.219023,0.106806,62.381439
0.1465,0.031209,-0.02959,-0.048841,-0.03227,0.028031,0.048894,0.006323,-0.539323,-0.048362,0.523646,-264.219023,0.106806,62.381439
0.1664,0.030921,-0.029701,-0.049287,-0.032617,0.028031,0.048841,0.00631,-0.538982,-0.048841,0.448948,-264.219026,0.052983,62.381438
0.1864,0.031356,-0.029707,-0.0481,-0.032347,0.028141,0.049287,0.006275,-0.538988,-0.048872,0.448948,-264.219026,0.052983,62.381438
0.2067,0.031291,-0.029707,-0.050328,-0.032748,0.028165,0.0481,0.006834,-0.539117,-0.0481,0.374106,-264.219029,0.056671,62.381436
0.2263,0.031143,-0.03008,-0.05008,-0.032746,0.028095,0.05,0.006146,-0.539085,-0.049378,0.374106,-264.219029,0.056671,62.381436
0.2463,0.031218,-0.029494,-0.047888,-0.03261,0.028483,0.05,0.006146,-0.539085,-0.049378,0.374106,-264.219029,0.056671,62.381436
0.2663,0.030719,-0.029464,-0.049011,-0.032594,0.027966,0.047888,0.006804,-0.538909,-0.047888,0.298982,-264.219031,0.060551,62.381435
0.2863,0.03095,-0.030127,-0.048184,-0.032126,0.027923,0.049011,0.006726,-0.538905,-0.047971,0.298982,-264.219031,0.060551,62.381435
0.3064,0.030949,-0.029529,-0.049823,-0.032365,0.028601,0.048184,0.006385,-0.539535,-0.048184,0.224002,-264.219034,0.062926,62.381434
0.3263,0.030792,-0.029757,-0.050567,-0.032381,0.027951,0.049823,0.005905,-0.539168,-0.049125,0.224002,-264.219034,0.062926,62.381434
0.3464,0.031217,-0.029472,-0.051064,-0.032257,0.028162,0.05,0.005905,-0.539168,-0.049125,0.224002,-264.219034,0.062926,62.381434
0.3664,0.031054,-0.029577,-0.050357,-0.03268,0.02784,0.05,0.005185,-0.538807,-0.051064,0.148962,-264.219037,0.062487,62.381433
0.3866,0.031033,-0.029692,-0.048395,-0.032503,0.027977,0.05,0.0052,-0.538816,-0.051012,0.148962,-264.219037,0.062487,62.381433
0.4071,0.031505,-0.029699,-0.049332,-0.032433,0.028156,0.048395,0.006361,-0.539095,-0.048395,0.073999,-264.219039,0.073504,62.381431
0.4266,0.030816,-0.029504,-0.049511,-0.032932,0.028109,0.049332,0.006358,-0.539086,-0.048932,0.073999,-264.219039,0.073504,62.381431
0.4469,0.030918,-0.029783,-0.048709,-0.032238,0.027943,0.049511,0.006358,-0.539086,-0.048932,0.073999,-264.219039,0.073504,62.381431
0.4664,0.031071,-0.029562,-0.048667,-0.032331,0.028242,0.048709,0.006086,-0.539178,-0.048709,-0.001043,-264.219042,0.078622,62.38143
0.4868,0.031038,-0.02957,-0.048345,-0.032472,0.028015,0.048667,0.006097,-0.539164,-0.048706,-0.001043,-264.219042,0.078622,62.38143
0.5064,0.031068,-0.029389,-0.049484,-0.032431,0.028036,0.048345,0.006392,-0.538974,-0.048345,-0.075903,-264.219045,0.071087,62.381429
0.5264,0.031166,-0.02982,-0.049152,-0.032484,0.027816,0.049484,0.006079,-0.538855,-0.048992,-0.075903,-264.219045,0.071087,62.381429
0.5474,0.030747,-0.030236,-0.050141,-0.032594,0.028252,0.049152,0.006079,-0.538855,-0.048992,-0.075903,-264.219045,0.071087,62.381429
0.5669,0.031239,-0.029653,-0.049316,-0.032224,0.028657,0.05,0.005186,-0.539595,-0.050141,-0.151061,-264.219047,0.052554,62.381427
0.5866,0.031143,-0.029746,-0.048646,-0.032663,0.028077,0.049316,0.005222,-0.539573,-0.050108,-0.151061,-264.219047,0.052554,62.381427
0.607,0.031095,-0.02979,-0.04905,-0.032553,0.028196,0.048646,0.006344,-0.539142,-0.048646,-0.225933,-264.21905,0.054161,62.381426
0.6264,0.031244,-0.029307,-0.04815,-0.032518,0.02823,0.04905,0.006199,-0.539162,-0.048875,-0.225933,-264.21905,0.054161,62.381426
0.647,0.03097,-0.029764,-0.049013,-0.032618,0.027769,0.04815,0.006199,-0.539162,-0.048875,-0.225933,-264.21905,0.054161,62.381426
0.6664,0.031347,-0.029431,-0.049194,-0.032391,0.028211,0.049013,0.005983,-0.539152,-0.049013,-0.300892,-264.219053,0.06245,62.381425
0.6868,0.030801,-0.029867,-0.048416,-0.032756,0.027854,0.049194,0.006008,-0.539122,-0.049029,-0.300892,-264.219053,0.06245,62.381425
0.7066,0.031015,-0.029529,-0.049549,-0.03221,0.028342,0.048416,0.006118,-0.53927,-0.048416,-0.376414,-264.219056,0.0502,62.381423
0.7266,0.030839,-0.029801,-0.049349,-0.03244,0.027956,0.049549,0.005913,-0.539061,-0.049058,-0.376414,-264.219056,0.0502,62.381423
0.7464,0.031265,-0.029983,-0.049913,-0.032272,0.028243,0.049349,0.005913,-0.539061,-0.049058,-0.376414,-264.219056,0.0502,62.381423
0.7664,0.031084,-0.029397,-0.04874,-0.032722,0.028386,0.049913,0.005819,-0.539348,-0.049912,-0.45091,-264.219068,0.066797,62.381417
0.7864,0.030934,-0.029675,-0.048762,-0.032479,0.027848,0.04874,0.005847,-0.539311,-0.049833,-0.45091,-264.219068,0.066797,62.381417
0.8065,0.031126,-0.029705,-0.048196,-0.032343,0.028131,0.048762,0.006072,-0.539067,-0.04876,-0.526013,-264.219111,0.058707,62.381396
0.8264,0.030804,-0.029526,-0.048367,-0.032521,0.02817,0.048196,0.006348,-0.539093,-0.048438,-0.526013,-264.219111,0.058707,62.381396
0.8472,0.031355,-0.029452,-0.049364,-0.032196,0.028003,0.048367,0.006348,-0.539093,-0.048438,-0.526013,-264.219111,0.058707,62.381396
0.8666,0.030876,-0.029323,-0.049686,-0.03277,0.027869,0.049364,0.006172,-0.538822,-0.04935,-0.601002,-264.219342,0.059053,62.381283
0.8869,0.031146,-0.029319,-0.049695,-0.032294,0.027753,0.049686,0.006135,-0.538815,-0.049369,-0.601002,-264.219342,0.059053,62.381283
0.9065,0.030892,-0.029901,-0.049474,-0.032564,0.027736,0.049695,0.005764,-0.538664,-0.049654,-0.675919,-264.220135,0.047715,62.380895
0.9269,0.030907,-0.029775,-0.048412,-0.032333,0.028337,0.049474,0.005706,-0.539005,-0.049548,-0.675919,-264.220135,0.047715,62.380895
0.9467,0.031361,-0.029684,-0.048625,-0.032312,0.028244,0.048412,0.005706,-0.539005,-0.049548,-0.675919,-264.220135,0.047715,62.380895
0.9666,0.030684,-0.029223,-0.049515,-0.032767,0.028124,0.048625,0.006413,-0.538986,-0.048466,-0.751193,-264.222347,0.080108,62.379817
0.9869,0.030679,-0.02964,-0.048651,-0.032093,0.027669,0.049515,0.006347,-0.538959,-0.048529,-0.751193,-264.222347,0.080108,62.379817
1.0064,0.029792,-0.029393,-0.04754,-0.032084,0.028113,0.048651,0.005602,-0.53886,-0.048368,-0.825889,-264.227077,0.040932,62.377161
1.0265,0.030449,-0.029461,-0.048562,-0.031155,0.027944,0.04754,0.005541,-0.538813,-0.047854,-0.825889,-264.227077,0.040932,62.377161
1.0465,0.029882,-0.029494,-0.049273,-0.031843,0.027948,0.048562,0.005541,-0.538813,-0.047854,-0.825889,-264.227077,0.040932,62.377161
1.0664,0.029137,-0.028886,-0.049675,-0.031298,0.027987,0.049273,0.004207,-0.538529,-0.048672,-0.901233,-264.234278,0.080002,62.372176
1.0866,0.029027,-0.028612,-0.048456,-0.030535,0.027404,0.049675,0.004162,-0.5385,-0.048729,-0.901233,-264.234278,0.080002,62.372176
1.1067,0.027902,-0.02844,-0.047996,-0.030378,0.027173,0.048456,0.003719,-0.537616,-0.047789,-0.976005,-264.243994,0.053688,62.364683
1.1264,0.028012,-0.028108,-0.048454,-0.029234,0.027069,0.047996,0.003479,-0.537701,-0.047823,-0.976005,-264.243994,0.053688,62.364683
1.1464,0.028137,-0.028603,-0.047549,-0.029341,0.026718,0.048454,0.003479,-0.537701,-0.047823,-0.976005,-264.243994,0.053688,62.364683
1.1668,0.026182,-0.027419,-0.044675,-0.029465,0.027233,0.047549,0.002959,-0.537395,-0.046401,-1.051047,-264.256263,0.095845,62.354761
1.1865,0.026626,-0.027928,-0.045884,-0.02738,0.026223,0.044675,0.002967,-0.537336,-0.046223,-1.051047,-264.256263,0.095845,62.354761
1.2065,0.024411,-0.02673,-0.045285,-0.027879,0.026677,0.045884,0.002387,-0.536781,-0.044772,-1.090457,-264.270919,0.097664,62.343314
1.2265,0.024315,-0.027073,-0.045585,-0.025596,0.025597,0.045285,0.001671,-0.536375,-0.044922,-1.090457,-264.270919,0.097664,62.343314
1.2466,0.024501,-0.026504,-0.044299,-0.025523,0.025937,0.045585,0.001671,-0.536375,-0.044922,-1.090457,-264.270919,0.097664,62.343314
1.2665,0.022556,-0.025693,-0.042914,-0.025651,0.025393,0.044299,0.000849,-0.535048,-0.042731,-1.097832,-264.288112,0.0388,62.332967
1.2868,0.022726,-0.025546,-0.043261,-0.023638,0.024702,0.042914,0.000814,-0.535037,-0.042705,-1.097832,-264.288112,0.0388,62.332967
1.3067,0.020546,-0.024628,-0.040395,-0.023809,0.02454,0.043261,-0.000179,-0.534209,-0.041796,-1.127676,-264.307824,0.07445,62.323077
1.3272,0.020675,-0.024837,-0.040731,-0.021523,0.023778,0.040395,-0.000214,-0.534101,-0.040812,-1.127676,-264.307824,0.07445,62.323077
1.3471,0.020786,-0.024852,-0.040572,-0.02167,0.023974,0.040731,-0.000214,-0.534101,-0.040812,-1.127676,-264.307824,0.07445,62.323077
1.3667,0.01834,-0.023555,-0.040001,-0.021777,0.023988,0.040572,-0.000994,-0.533201,-0.038509,-1.136118,-264.330034,0.0637,62.313631
1.3875,0.018237,-0.023169,-0.037607,-0.019267,0.022803,0.040001,-0.001097,-0.533164,-0.038557,-1.136118,-264.330034,0.0637,62.313631
1.407,0.016617,-0.022136,-0.036231,-0.019095,0.022467,0.037607,-0.001742,-0.531851,-0.036032,-1.15329,-264.351145,0.04162,62.305064
1.4272,0.016345,-0.022394,-0.037296,-0.017408,0.02152,0.036231,-0.001905,-0.531705,-0.035946,-1.15329,-264.351145,0.04162,62.305064
1.4471,0.01658,-0.021755,-0.034506,-0.017169,0.021768,0.037296,-0.001905,-0.531705,-0.035946,-1.15329,-264.351145,0.04162,62.305064
1.4669,0.014444,-0.020708,-0.03564,-0.01732,0.02117,0.034506,-0.001879,-0.530357,-0.032637,-1.183489,-264.370677,0.084281,62.29766
1.4869,0.014642,-0.020453,-0.033304,-0.015173,0.02018,0.03564,-0.002008,-0.530333,-0.032772,-1.183489,-264.370677,0.084281,62.29766
1.5067,0.012704,-0.019806,-0.032184,-0.015315,0.019954,0.033304,-0.002966,-0.529322,-0.031885,-1.202928,-264.389484,0.058761,62.290885
1.5264,0.012608,-0.019984,-0.033475,-0.013335,0.019387,0.032184,-0.003466,-0.529339,-0.031874,-1.202928,-264.389484,0.058761,62.290885
1.5466,0.01307,-0.02008,-0.033723,-0.01327,0.019551,0.033475,-0.003466,-0.529339,-0.031874,-1.202928,-264.389484,0.058761,62.290885
1.5668,0.011258,-0.018831,-0.030296,-0.01374,0.019628,0.033723,-0.004802,-0.528825,-0.032059,-1.223726,-264.406717,0.104249,62.284991
1.587,0.011214,-0.01859,-0.032695,-0.011823,0.018482,0.030296,-0.004773,-0.528776,-0.03186,-1.223726,-264.406717,0.104249,62.284991
1.6066,0.009875,-0.018148,-0.030802,-0.011815,0.018214,0.032695,-0.005927,-0.527577,-0.031453,-1.250434,-264.423004,0.067295,62.279851
1.6267,0.009747,-0.017596,-0.030481,-0.010429,0.017835,0.030802,-0.005932,-0.527673,-0.030919,-1.250434,-264.423004,0.067295,62.279851
1.6464,0.009772,-0.017695,-0.029631,-0.010279,0.017291,0.030481,-0.005932,-0.527673,-0.030919,-1.250434,-264.423004,0.067295,62.279851
1.6675,0.008567,-0.016673,-0.029863,-0.010292,0.017398,0.029631,-0.005845,-0.526624,-0.028265,-1.261382,-264.437398,0.001852,62.275468
1.6872,0.008937,-0.017074,-0.030064,-0.009061,0.01641,0.029863,-0.005914,-0.526589,-0.028338,-1.261382,-264.437398,0.001852,62.275468
1.7066,0.007516,-0.016155,-0.025825,-0.009447,0.016798,0.030064,-0.006684,-0.526313,-0.029171,-1.29198,-264.448815,0.076429,62.2723
1.7268,0.007868,-0.016195,-0.026635,-0.007931,0.015955,0.025825,-0.006133,-0.526061,-0.027158,-1.29198,-264.448815,0.076429,62.2723
1.7474,0.007494,-0.015976,-0.027195,-0.008297,0.01598,0.026635,-0.006133,-0.526061,-0.027158,-1.29198,-264.448815,0.076429,62.2723
1.7672,0.006861,-0.01521,-0.024599,-0.007926,0.015766,0.027195,-0.006701,-0.525149,-0.026078,-1.315018,-264.459941,0.15163,62.269428
1.787,0.006978,-0.015304,-0.027098,-0.007233,0.015036,0.024599,-0.006645,-0.525128,-0.025959,-1.315018,-264.459941,0.15163,62.269428
1.8068,0.006045,-0.014789,-0.026232,-0.00739,0.015109,0.027098,-0.007085,-0.524619,-0.026262,-1.318977,-264.470631,0.076836,62.266763
1.8269,0.005473,-0.015203,-0.02373,-0.006431,0.014625,0.026232,-0.007255,-0.524553,-0.026139,-1.318977,-264.470631,0.076836,62.266763
1.8473,0.005513,-0.014762,-0.024704,-0.005832,0.015069,0.02373,-0.007255,-0.524553,-0.026139,-1.318977,-264.470631,0.076836,62.266763
1.867,0.005157,-0.014489,-0.023057,-0.005876,0.014621,0.024704,-0.00739,-0.523931,-0.02361,-1.33468,-264.481886,0.001832,62.26413
1.887,0.004683,-0.014263,-0.026234,-0.00549,0.014366,0.023057,-0.007349,-0.523941,-0.023551,-1.33468,-264.481886,0.001832,62.26413
1.9066,0.004055,-0.013629,-0.02186,-0.005056,0.014135,0.026234,-0.008868,-0.523607,-0.025478,-1.376024,-264.491781,-0.073819,62.262205
1.9269,0.004043,-0.013744,-0.022044,-0.004352,0.013537,0.02186,-0.007889,-0.523489,-0.023341,-1.376024,-264.491781,-0.073819,62.262205
1.9465,0.004062,-0.013633,-0.022881,-0.004345,0.013652,0.022044,-0.007889,-0.523489,-0.023341,-1.376024,-264.491781,-0.073819,62.262205
1.9668,0.003343,-0.012713,-0.023077,-0.004373,0.013537,0.022881,-0.007856,-0.522799,-0.021766,-1.380174,-264.50336,-0.051662,62.260009
1.9867,0.003239,-0.013008,-0.021477,-0.003636,0.012633,0.023077,-0.007909,-0.52276,-0.021837,-1.380174,-264.50336,-0.051662,62.260009
2.0064,0.002604,-0.012015,-0.019966,-0.003517,0.012935,0.021477,-0.007866,-0.522373,-0.020646,-1.411892,-264.514078,-0.043315,62.258311
2.0268,0.002631,-0.012069,-0.020161,-0.002844,0.011961,0.019966,-0.007723,-0.522047,-0.020155,-1.411892,-264.514078,-0.043315,62.258311
2.0465,0.002488,-0.011972,-0.018588,-0.002873,0.012014,0.020161,-0.007723,-0.522047,-0.020155,-1.411892,-264.514078,-0.043315,62.258311
2.0665,0.002686,-0.011604,-0.019748,-0.002711,0.011924,0.018588,-0.007002,-0.521831,-0.018502,-1.435591,-264.514948,0.031135,62.258233
2.0871,0.002393,-0.01247,-0.021417,-0.002915,0.011549,0.019748,-0.007028,-0.521808,-0.018584,-1.435591,-264.514948,0.031135,62.258233
2.1066,0.002101,-0.01178,-0.021195,-0.002659,0.012415,0.021417,-0.008596,-0.522195,-0.021143,-1.453225,-264.518324,0.10396,62.257175
2.1264,0.002513,-0.012226,-0.019124,-0.00235,0.011733,0.021195,-0.008668,-0.521873,-0.021138,-1.453225,-264.518324,0.10396,62.257175
2.1471,0.002333,-0.0123,-0.021303,-0.002747,0.012176,0.019124,-0.008668,-0.521873,-0.021138,-1.453225,-264.518324,0.10396,62.257175
2.1672,0.001606,-0.011567,-0.019966,-0.002595,0.012247,0.021303,-0.008633,-0.521838,-0.020702,-1.447951,-264.524236,0.173785,62.256074
2.1868,0.001932,-0.011433,-0.019125,-0.001837,0.011532,0.019966,-0.008631,-0.521799,-0.020626,-1.447951,-264.524236,0.173785,62.256074
2.2066,0.001967,-0.011421,-0.020097,-0.00215,0.011394,0.019125,-0.007834,-0.521281,-0.019025,-1.456172,-264.525486,0.098293,62.255928
2.2265,0.001832,-0.011041,-0.019651,-0.002196,0.011379,0.020097,-0.00809,-0.521294,-0.019622,-1.456172,-264.525486,0.098293,62.255928
2.2464,0.001718,-0.011684,-0.019236,-0.002049,0.011003,0.019651,-0.00809,-0.521294,-0.019622,-1.456172,-264.525486,0.098293,62.255928
2.2673,0.001428,-0.010951,-0.019801,-0.001942,0.011649,0.019236,-0.008121,-0.521383,-0.018888,-1.493535,-264.52894,0.172718,62.255645
2.2871,0.001791,-0.011216,-0.019458,-0.001645,0.01092,0.019801,-0.008157,-0.521343,-0.018938,-1.493535,-264.52894,0.172718,62.255645
2.3066,0.00185,-0.01099,-0.020085,-0.002009,0.011179,0.019458,-0.008152,-0.520999,-0.019251,-1.481975,-264.531504,0.247679,62.255392
2.3268,0.001498,-0.011012,-0.018912,-0.00207,0.01095,0.020085,-0.008292,-0.52092,-0.019699,-1.481975,-264.531504,0.247679,62.255392
2.3466,0.001044,-0.011,-0.019077,-0.001706,0.010982,0.018912,-0.008292,-0.52092,-0.019699,-1.481975,-264.531504,0.247679,62.255392
2.3665,0.001166,-0.010566,-0.019595,-0.001254,0.010979,0.019077,-0.008692,-0.520852,-0.01898,-1.499453,-264.532458,0.3227,62.255308
2.3866,0.001434,-0.010871,-0.019729,-0.001372,0.010541,0.019595,-0.008703,-0.52082,-0.019025,-1.499453,-264.532458,0.3227,62.255308
2.4072,0.00108,-0.010693,-0.017979,-0.001649,0.01084,0.019729,-0.008669,-0.520615,-0.019439,-1.495207,-264.535903,0.321735,62.254592
2.4266,0.001037,-0.010712,-0.019667,-0.001272,0.010672,0.017979,-0.008346,-0.520593,-0.018576,-1.495207,-264.535903,0.321735,62.254592
2.4471,0.00092,-0.010939,-0.020546,-0.001248,0.010689,0.019667,-0.008346,-0.520593,-0.018576,-1.495207,-264.535903,0.321735,62.254592
2.4671,0.000877,-0.010418,-0.018295,-0.001145,0.010918,0.020546,-0.009559,-0.520821,-0.020527,-1.509902,-264.536088,0.396476,62.254576
2.4865,0.001146,-0.011045,-0.020262,-0.001068,0.0104,0.018295,-0.00949,-0.52079,-0.020388,-1.509902,-264.536088,0.396476,62.254576
2.5063,0.001258,-0.010687,-0.018464,-0.001369,0.01102,0.020262,-0.00919,-0.520917,-0.02022,-1.515884,-264.536599,0.47143,62.254535
2.5263,0.000801,-0.010821,-0.018858,-0.001456,0.010662,0.018464,-0.008606,-0.520735,-0.019221,-1.515884,-264.536599,0.47143,62.254535
2.547,0.001116,-0.010868,-0.020424,-0.001005,0.010804,0.018858,-0.008606,-0.520735,-0.019221,-1.515884,-264.536599,0.47143,62.254535
2.5665,0.001215,-0.010617,-0.018346,-0.001338,0.010843,0.020424,-0.009324,-0.52059,-0.020106,-1.521347,-264.53961,0.546448,62.254177
2.5866,0.00108,-0.01032,-0.018536,-0.001409,0.010593,0.018346,-0.00925,-0.520582,-0.019988,-1.521347,-264.53961,0.546448,62.254177
2.6065,0.000593,-0.009907,-0.016611,-0.001271,0.010299,0.018536,-0.008398,-0.519979,-0.018079,-1.525816,-264.545122,0.617666,62.253723
2.6267,0.000507,-0.010289,-0.017325,-0.001271,0.010299,0.018536,-0.008104,-0.519865,-0.017182,-1.525816,-264.545122,0.617666,62.253723
2.6467,0.000569,-0.010393,-0.018515,-7e-06,0.0001,0.0,-0.008104,-0.519865,-0.017182,-1.525816,-264.545122,0.617666,62.253723
2.6669,-0.000236,-0.010122,-0.018629,-7e-06,0.0001,0.0,-0.008902,-0.520052,-0.018071,-1.506237,-264.549443,0.542527,62.253419
2.6866,0.000205,-0.009449,-0.017108,-7e-06,0.0001,0.0,-0.008958,-0.520044,-0.018097,-1.506237,-264.549443,0.542527,62.253419
2.7067,7e-06,-0.009754,-0.017937,-7e-06,0.0001,0.0,-0.008519,-0.519374,-0.017108,-1.504248,-264.549444,0.617381,62.253419
2.7264,0.000287,-0.010118,-0.017025,-7e-06,0.0001,0.0,-0.008867,-0.519541,-0.017572,-1.504248,-264.549444,0.617381,62.253419
2.7466,0.000647,-0.009842,-0.016722,-7e-06,0.0001,0.0,-0.008867,-0.519541,-0.017572,-1.504248,-264.549444,0.617381,62.253419
2.7667,-0.000195,-0.010009,-0.017825,-7e-06,0.0001,0.0,-0.007881,-0.519771,-0.016722,-1.504248,-264.549444,0.692384,62.253419
2.7864,0.000123,-0.010311,-0.017376,-7e-06,0.0001,0.0,-0.007965,-0.51978,-0.016788,-1.504248,-264.549444,0.692384,62.253419
2.8064,0.000228,-0.0102,-0.019,-7e-06,0.0001,0.0,-0.008738,-0.520234,-0.017376,-1.504248,-264.549444,0.767388,62.253419
2.8264,0.000184,-0.010415,-0.017774,-7e-06,0.0001,0.0,-0.009164,-0.52016,-0.018333,-1.504248,-264.549444,0.767388,62.253419
2.8465,9.3e-05,-0.009801,-0.016372,-7e-06,0.0001,0.0,-0.009164,-0.52016,-0.018333,-1.504248,-264.549444,0.767388,62.253419
2.8666,0.000292,-0.009952,-0.017503,-0.000101,0.001513,0.002549,-0.008256,-0.519733,-0.016372,-1.504248,-264.549444,0.843092,62.253419
2.8871,0.000335,-0.009951,-0.015889,-0.000196,0.002936,0.004949,-0.008281,-0.519742,-0.016447,-1.504248,-264.549444,0.843092,62.253419
2.907,-0.000127,-0.009988,-0.016912,-0.000285,0.004284,0.00722,-0.007768,-0.519887,-0.015889,-1.504248,-264.549444,0.917413,62.253419
2.9265,0.000323,-0.009675,-0.01749,-0.00037,0.005549,0.009353,-0.008334,-0.519903,-0.016478,-1.504248,-264.549444,0.917413,62.253419
2.9464,0.000345,-0.010092,-0.018622,-0.00045,0.006746,0.01137,-0.008334,-0.519903,-0.016478,-1.504248,-264.549444,0.917413,62.253419
2.9663,0.000202,-0.010143,-0.016639,-0.000524,0.007863,0.013254,-0.009152,-0.520002,-0.018619,-1.537968,-264.549478,0.841984,62.253418
2.9865,0.000598,-0.009794,-0.016665,-0.000594,0.00891,0.015018,-0.009092,-0.520007,-0.018482,-1.537968,-264.549478,0.841984,62.253418
3.0069,0.000447,-0.010219,-0.016466,-0.000658,0.009866,0.01663,-0.007901,-0.51971,-0.016642,-1.537968,-264.549752,0.767435,62.253408
3.0265,-0.000104,-0.010004,-0.016722,-0.000717,0.010752,0.018123,-0.007929,-0.519958,-0.016539,-1.537968,-264.549752,0.767435,62.253408
3.0465,0.000291,-0.009707,-0.016672,-0.000771,0.011564,0.019491,-0.007929,-0.519958,-0.016539,-1.537968,-264.549752,0.767435,62.253408
3.0668,2.9e-05,-0.00997,-0.016337,-0.00082,0.012296,0.020726,-0.008214,-0.51958,-0.016574,-1.537968,-264.550712,0.692451,62.253373
3.0868,0.000348,-0.009768,-0.017274,-0.000863,0.012951,0.021829,-0.00822,-0.519602,-0.016554,-1.537968,-264.550712,0.692451,62.253373
3.1065,-0.000117,-0.009536,-0.015964,-0.000902,0.013529,0.022804,-0.008467,-0.519564,-0.017055,-1.537968,-264.553428,0.61732,62.253276
3.1271,6e-06,-0.0094,-0.015812,-0.000935,0.01403,0.023647,-0.008348,-0.519495,-0.0164,-1.537968,-264.553428,0.61732,62.253276
3.1465,-0.000174,-0.00971,-0.016668,-0.000963,0.014453,0.024361,-0.008348,-0.519495,-0.0164,-1.537968,-264.553428,0.61732,62.253276
3.1665,-0.000468,-0.009277,-0.016241,-0.000986,0.014801,0.024947,-0.008689,-0.519329,-0.016139,-1.537968,-264.558642,0.542279,62.25308
3.1869,-0.000262,-0.00947,-0.015346,-0.001004,0.015071,0.025402,-0.008694,-0.519312,-0.016132,-1.537968,-264.558642,0.542279,62.25308
3.2064,-0.000744,-0.009214,-0.015664,-0.001017,0.015264,0.025727,-0.008109,-0.519045,-0.014726,-1.537968,-264.566357,0.467338,62.252754
3.2264,-0.000745,-0.008501,-0.016376,-0.001025,0.015379,0.025922,-0.008469,-0.51906,-0.015185,-1.537968,-264.566357,0.467338,62.252754
3.2467,-0.000844,-0.008778,-0.014474,-0.001028,0.015418,0.025988,-0.008469,-0.51906,-0.015185,-1.537968,-264.566357,0.467338,62.252754
3.2664,-0.001261,-0.008361,-0.0163,-0.001025,0.01538,0.025923,-0.00826,-0.518115,-0.013443,-1.537968,-264.576569,0.415793,62.252333
3.287,-0.0014,-0.008483,-0.015931,-0.001017,0.015264,0.025728,-0.008358,-0.518111,-0.013624,-1.537968,-264.576569,0.415793,62.252333
3.3064,-0.002123,-0.00709,-0.01302,-0.001004,0.015071,0.025403,-0.009555,-0.517818,-0.014918,-1.537968,-264.589097,0.415793,62.251884
3.3264,-0.002061,-0.007316,-0.013082,-0.000987,0.014802,0.024949,-0.009111,-0.517308,-0.01372,-1.537968,-264.589097,0.415793,62.251884
3.3465,-0.001804,-0.007519,-0.011858,-0.000963,0.014455,0.024365,-0.009111,-0.517308,-0.01372,-1.537968,-264.589097,0.415793,62.251884
3.3664,-0.002779,-0.006655,-0.011623,-0.000935,0.01403,0.023648,-0.007892,-0.51674,-0.010608,-1.537968,-264.601474,0.415793,62.25144
3.3872,-0.002672,-0.006459,-0.012367,-0.000902,0.013531,0.022806,-0.007946,-0.516714,-0.010642,-1.537968,-264.601474,0.415793,62.25144
3.4067,-0.003116,-0.005937,-0.010073,-0.000862,0.012937,0.021806,-0.00901,-0.515862,-0.011426,-1.537968,-264.61324,0.415793,62.251017
3.427,-0.003425,-0.006069,-0.010403,-0.00082,0.012297,0.020727,-0.008579,-0.515819,-0.01053,-1.537968,-264.61324,0.415793,62.251017
3.4465,-0.003088,-0.005988,-0.011456,-0.000771,0.011566,0.019495,-0.008579,-0.515819,-0.01053,-1.537968,-264.61324,0.415793,62.251017
3.4666,-0.004197,-0.005136,-0.009106,-0.000717,0.010756,0.018129,-0.008967,-0.515297,-0.010348,-1.537968,-264.624222,0.415793,62.250623
3.4869,-0.004201,-0.005239,-0.009611,-0.000658,0.009867,0.016631,-0.00896,-0.515267,-0.010234,-1.537968,-264.624222,0.415793,62.250623
3.5063,-0.004467,-0.004598,-0.007896,-0.000593,0.008905,0.015009,-0.009128,-0.514769,-0.008858,-1.537968,-264.633603,0.415793,62.250287
3.5266,-0.004257,-0.004671,-0.010087,-0.000524,0.007865,0.013257,-0.008771,-0.514606,-0.008216,-1.537968,-264.633603,0.415793,62.250287
3.5465,-0.00468,-0.004626,-0.007365,-0.00045,0.006747,0.011373,-0.008771,-0.514606,-0.008216,-1.537968,-264.633603,0.415793,62.250287
3.5663,-0.004814,-0.004399,-0.005892,-0.00037,0.005553,0.00936,-0.008464,-0.514132,-0.006556,-1.537968,-264.64164,0.415793,62.249998
3.5863,-0.005015,-0.004748,-0.008579,-0.000285,0.004282,0.007218,-0.008417,-0.514137,-0.006483,-1.537968,-264.64164,0.415793,62.249998
3.6067,-0.005512,-0.003857,-0.006225,-0.000195,0.002933,0.004944,-0.009405,-0.51447,-0.008141,-1.537968,-264.647113,0.415793,62.249802
3.6264,-0.005004,-0.004163,-0.005794,-0.000101,0.001509,0.002543,-0.008994,-0.514079,-0.006985,-1.537968,-264.647113,0.415793,62.249802
3.6464,-0.005295,-0.0038,-0.006545,-0.0,4e-06,7e-06,-0.008994,-0.514079,-0.006985,-1.537968,-264.647113,0.415793,62.249802
3.6662,-0.005333,-0.004007,-0.006263,0.0,0.0,0.0,-0.008646,-0.513581,-0.006195,-1.537968,-264.650589,0.415793,62.249677
3.6863,-0.005348,-0.003743,-0.007553,0.0,0.0,0.0,-0.008637,-0.513605,-0.00619,-1.537968,-264.650589,0.415793,62.249677
3.7068,-0.005332,-0.003411,-0.005299,0.0,0.0,0.0,-0.0092,-0.513728,-0.007552,-1.537968,-264.650593,0.415793,62.249677
3.7263,-0.005475,-0.003383,-0.006597,0.0,0.0,0.0,-0.008532,-0.513542,-0.00626,-1.537968,-264.650593,0.415793,62.249677
3.7465,-0.005322,-0.003771,-0.008035,0.0,0.0,0.0,-0.008532,-0.513542,-0.00626,-1.537968,-264.650593,0.415793,62.249677
3.7666,-0.005529,-0.003458,-0.006742,0.0,0.0,0.0,-0.00942,-0.513755,-0.008035,-1.537968,-264.650593,0.415793,62.249677
3.7866,-0.005217,-0.003564,-0.007179,0.0,0.0,0.0,-0.009388,-0.513733,-0.007944,-1.537968,-264.650593,0.415793,62.249677
3.8066,-0.005671,-0.003893,-0.006286,0.0,0.0,0.0,-0.008878,-0.513551,-0.007179,-1.537968,-264.650593,0.415793,62.249677
3.8269,-0.005573,-0.00366,-0.005828,0.0,0.0,0.0,-0.008877,-0.513741,-0.006668,-1.537968,-264.650593,0.415793,62.249677
3.8466,-0.005465,-0.003378,-0.007873,0.0,0.0,0.0,-0.008877,-0.513741,-0.006668,-1.537968,-264.650593,0.415793,62.249677
3.8667,-0.005169,-0.003755,-0.005978,0.0,0.0,0.0,-0.00948,-0.513362,-0.007873,-1.537968,-264.650593,0.415793,62.249677
3.8867,-0.005326,-0.004006,-0.006808,8.1e-05,5.9e-05,0.0,-0.009398,-0.513387,-0.00775,-1.537968,-264.650593,0.415793,62.249677
3.9063,-0.005523,-0.003444,-0.005687,8.1e-05,5.9e-05,0.0,-0.008798,-0.513994,-0.006808,-1.537968,-264.650593,0.415793,62.249677
3.9266,-0.005531,-0.003752,-0.007319,8.1e-05,5.9e-05,0.0,-0.008586,-0.513678,-0.006174,-1.537968,-264.650593,0.415793,62.249677
3.9465,-0.005623,-0.003849,-0.006515,8.1e-05,5.9e-05,0.0,-0.008586,-0.513678,-0.006174,-1.537968,-264.650593,0.415793,62.249677
3.9664,-0.005567,-0.003498,-0.006571,8.1e-05,5.9e-05,0.0,-0.008945,-0.513838,-0.006515,-1.462791,-264.650593,0.49097,62.249677
3.987,-0.005185,-0.003582,-0.005818,8.1e-05,5.9e-05,0.0,-0.008943,-0.513815,-0.006519,-1.462791,-264.650593,0.49097,62.249677
4.0065,-0.005586,-0.003661,-0.00682,8.1e-05,5.9e-05,0.0,-0.008152,-0.513574,-0.005818,-1.387975,-264.650593,0.565785,62.249677
4.0263,-0.005455,-0.003799,-0.006103,8.1e-05,5.9e-05,0.0,-0.008668,-0.513616,-0.006385,-1.387975,-264.650593,0.565785,62.249677
4.0463,-0.005495,-0.003843,-0.006878,8.1e-05,5.9e-05,0.0,-0.008668,-0.513616,-0.006385,-1.387975,-264.650593,0.565785,62.249677
4.0664,-0.00564,-0.003565,-0.005035,8.1e-05,5.9e-05,0.0,-0.009003,-0.513831,-0.006878,-1.312945,-264.650593,0.63422,62.249677
4.0869,-0.005583,-0.00371,-0.00685,8.1e-05,5.9e-05,0.0,-0.008949,-0.513813,-0.006753,-1.312945,-264.650593,0.63422,62.249677
4.1064,-0.005721,-0.003533,-0.005736,0.000762,0.00056,0.000885,-0.009076,-0.513698,-0.00685,-1.237964,-264.650593,0.63422,62.249677
4.1268,-0.005181,-0.003468,-0.00723,0.001468,0.00108,0.001705,-0.008829,-0.513598,-0.00621,-1.237964,-264.650593,0.63422,62.249677
4.1466,-0.005433,-0.003934,-0.006405,0.002142,0.001576,0.002489,-0.008829,-0.513598,-0.00621,-1.237964,-264.650593,0.63422,62.249677
4.1665,-0.005512,-0.003541,-0.006513,0.002779,0.002044,0.003228,-0.0087,-0.513924,-0.006405,-1.162806,-264.650593,0.63422,62.249677
4.1864,-0.005413,-0.003492,-0.007681,0.003377,0.002484,0.003923,-0.008709,-0.513896,-0.006413,-1.162806,-264.650593,0.63422,62.249677
4.2064,-0.005308,-0.003213,-0.006148,0.00394,0.002898,0.004577,-0.00933,-0.513477,-0.007681,-1.087964,-264.650593,0.559378,62.249677
4.2264,-0.005659,-0.003612,-0.006396,0.004462,0.003282,0.005183,-0.008821,-0.51332,-0.006801,-1.087964,-264.650593,0.559378,62.249677
4.2465,-0.005765,-0.003691,-0.005926,0.004941,0.003635,0.005739,-0.008821,-0.51332,-0.006801,-1.087964,-264.650593,0.559378,62.249677
4.2674,-0.005375,-0.003795,-0.006419,0.005387,0.003963,0.006258,-0.008788,-0.513682,-0.005926,-1.012802,-264.650593,0.484216,62.249677
4.2867,-0.005216,-0.00336,-0.007829,0.00579,0.004259,0.006726,-0.008778,-0.513688,-0.005959,-1.012802,-264.650593,0.484216,62.249677
4.3064,-0.005024,-0.003664,-0.00691,0.006157,0.004529,0.007153,-0.009209,-0.513344,-0.007829,-0.93796,-264.650593,0.409374,62.249677
4.3265,-0.005409,-0.003877,-0.007794,0.006486,0.004771,0.007535,-0.008829,-0.513521,-0.007301,-0.93796,-264.650593,0.409374,62.249677
4.3464,-0.005331,-0.003595,-0.006493,0.006774,0.004983,0.007869,-0.008829,-0.513521,-0.007301,-0.93796,-264.650593,0.409374,62.249677
4.3663,-0.005285,-0.00366,-0.006065,0.007025,0.005168,0.008161,-0.008642,-0.513584,-0.006493,-0.86283,-264.650593,0.334244,62.249677
4.3863,-0.005485,-0.003787,-0.0077,0.007238,0.005325,0.008408,-0.008624,-0.513589,-0.006464,-0.86283,-264.650593,0.334244,62.249677
4.4069,-0.005466,-0.003567,-0.004651,0.007412,0.005452,0.00861,-0.009412,-0.513772,-0.0077,-0.787971,-264.650593,0.259385,62.249677
4.4264,-0.0053,-0.003883,-0.005892,0.007547,0.005551,0.008766,-0.008512,-0.513652,-0.005956,-0.787971,-264.650593,0.259385,62.249677
4.4466,-0.005994,-0.003423,-0.004988,0.007643,0.005622,0.008878,-0.008512,-0.513652,-0.005956,-0.787971,-264.650593,0.259385,62.249677
4.4666,-0.005052,-0.003795,-0.006975,0.007701,0.005665,0.008945,-0.008538,-0.513417,-0.004988,-0.712873,-264.650592,0.184287,62.249677
4.4869,-0.005983,-0.003628,-0.005912,0.00772,0.005679,0.008968,-0.008543,-0.513441,-0.005121,-0.712873,-264.650592,0.184287,62.249677
4.5067,-0.005409,-0.003466,-0.005982,0.007701,0.005665,0.008945,-0.008998,-0.513619,-0.005912,-0.637965,-264.650592,0.109378,62.249678
4.5264,-0.005539,-0.003927,-0.007845,0.007643,0.005622,0.008878,-0.008691,-0.513526,-0.005952,-0.637965,-264.650592,0.109378,62.249678
4.5466,-0.005372,-0.003342,-0.008124,0.007546,0.005551,0.008766,-0.008691,-0.513526,-0.005952,-0.637965,-264.650592,0.109378,62.249678
4.5665,-0.005619,-0.003705,-0.008149,0.007411,0.005451,0.008609,-0.009515,-0.513325,-0.008124,-0.562861,-264.650592,0.034275,62.249678
4.5865,-0.005869,-0.003903,-0.007749,0.007236,0.005323,0.008405,-0.009533,-0.51335,-0.008125,-0.562861,-264.650592,0.034275,62.249678
4.6069,-0.005344,-0.003703,-0.006383,0.007024,0.005167,0.00816,-0.009821,-0.513888,-0.007749,-0.487965,-264.650591,0.026142,62.249678
4.6268,-0.005387,-0.003868,-0.005757,0.006773,0.004982,0.007868,-0.009125,-0.513777,-0.006971,-0.487965,-264.650591,0.026142,62.249678
4.6465,-0.005422,-0.003673,-0.007672,0.006485,0.00477,0.007533,-0.009125,-0.513777,-0.006971,-0.487965,-264.650591,0.026142,62.249678
4.6665,-0.005577,-0.003562,-0.007284,0.006156,0.004528,0.007151,-0.009335,-0.513658,-0.007672,-0.412837,-264.65059,0.026142,62.249679
4.6869,-0.00564,-0.003869,-0.006435,0.00579,0.004259,0.006726,-0.009332,-0.51365,-0.007645,-0.412837,-264.65059,0.026142,62.249679
4.7067,-0.005282,-0.003752,-0.005869,0.005385,0.003961,0.006255,-0.008922,-0.513859,-0.006435,-0.337969,-264.65059,0.026142,62.249679
4.7267,-0.005313,-0.003833,-0.006683,0.00494,0.003634,0.005738,-0.008552,-0.513792,-0.006111,-0.337969,-264.65059,0.026142,62.249679
4.7469,-0.005628,-0.003944,-0.004662,0.004458,0.003279,0.005178,-0.008552,-0.513792,-0.006111,-0.337969,-264.65059,0.026142,62.249679
4.7666,-0.005065,-0.003742,-0.007658,0.003937,0.002896,0.004573,-0.008006,-0.513939,-0.004662,-0.26288,-264.65059,0.026142,62.249679
4.7868,-0.005738,-0.003846,-0.00737,0.003378,0.002485,0.003923,-0.008072,-0.513924,-0.004869,-0.26288,-264.65059,0.026142,62.249679
4.8067,-0.005451,-0.00384,-0.006391,0.002778,0.002044,0.003227,-0.009496,-0.513832,-0.00737,-0.187854,-264.650589,0.026142,62.249679
4.8267,-0.005564,-0.003881,-0.005852,0.002143,0.001576,0.002489,-0.009049,-0.513831,-0.006812,-0.187854,-264.650589,0.026142,62.249679
4.8466,-0.005636,-0.003718,-0.007826,0.001466,0.001079,0.001703,-0.009049,-0.513831,-0.006812,-0.187854,-264.650589,0.026142,62.249679
4.8667,-0.005445,-0.003446,-0.00513,0.000752,0.000553,0.000874,-0.009628,-0.513702,-0.007826,-0.112901,-264.650589,0.026142,62.249679
4.8868,-0.005455,-0.003318,-0.00627,0.0,0.0,0.0,-0.009514,-0.513683,-0.007631,-0.112901,-264.650589,0.026142,62.249679
4.9064,-0.005166,-0.003682,-0.005453,0.0,0.0,0.0,-0.008652,-0.513308,-0.00627,-0.037869,-264.650589,0.026142,62.249679
4.9265,-0.004961,-0.003707,-0.005013,0.0,0.0,0.0,-0.008255,-0.513514,-0.00581,-0.037869,-264.650589,0.026142,62.249679
4.9472,-0.005384,-0.003612,-0.006952,0.0,0.0,0.0,-0.008255,-0.513514,-0.00581,-0.037869,-264.650589,0.026142,62.249679
4.9665,-0.005312,-0.004175,-0.006184,0.0,0.0,0.0,-0.008929,-0.513599,-0.006952,-0.037869,-264.650589,0.026142,62.249679
4.9866,-0.005576,-0.003598,-0.006133,0.0,0.0,0.0,-0.008895,-0.513641,-0.006895,-0.037869,-264.650589,0.026142,62.249679
5.0067,-0.005439,-0.003759,-0.006748,0.0,0.0,0.0,-0.008704,-0.513589,-0.006133,-0.037869,-264.650589,0.026142,62.249679
5.0265,-0.005249,-0.003717,-0.006529,0.0,0.0,0.0,-0.008804,-0.513678,-0.006482,-0.037869,-264.650589,0.026142,62.249679
5.0465,-0.005594,-0.003803,-0.006428,0.0,0.0,0.0,-0.008804,-0.513678,-0.006482,-0.037869,-264.650589,0.026142,62.249679
5.0667,-0.005377,-0.003304,-0.005046,0.0,0.0,0.0,-0.008872,-0.513793,-0.006428,-0.037869,-264.650589,0.026142,62.249679
5.0867,-0.005176,-0.003831,-0.006484,0.0,0.0,0.0,-0.008805,-0.513757,-0.006327,-0.037869,-264.650589,0.026142,62.249679
5.1067,-0.005238,-0.003901,-0.007433,0.0,0.0,0.0,-0.008482,-0.51382,-0.006484,-0.037869,-264.650589,0.026142,62.249679
5.1264,-0.005423,-0.003629,-0.006777,8e-05,6e-05,0.0,-0.008801,-0.513859,-0.007036,-0.037869,-264.650589,0.026142,62.249679
5.1467,-0.005494,-0.003759,-0.007456,8e-05,6e-05,0.0,-0.008801,-0.513859,-0.007036,-0.037869,-264.650589,0.026142,62.249679
5.1667,-0.005625,-0.003833,-0.006872,8e-05,6e-05,0.0,-0.009296,-0.513745,-0.007456,-0.037869,-264.650589,0.026142,62.249679
5.1867,-0.005325,-0.00342,-0.005695,8e-05,6e-05,0.0,-0.009282,-0.513752,-0.007405,-0.037869,-264.650589,0.026142,62.249679
5.2066,-0.005747,-0.003609,-0.005392,8e-05,6e-05,0.0,-0.008229,-0.513412,-0.005695,0.037243,-264.650589,0.101253,62.249679
5.2267,-0.00563,-0.003347,-0.006262,8e-05,6e-05,0.0,-0.008381,-0.513519,-0.005524,0.037243,-264.650589,0.101253,62.249679
5.2465,-0.005147,-0.003688,-0.00485,8e-05,6e-05,0.0,-0.008381,-0.513519,-0.005524,0.037243,-264.650589,0.101253,62.249679
5.2664,-0.005531,-0.003468,-0.005287,8e-05,6e-05,0.0,-0.00762,-0.513682,-0.00485,0.111718,-264.650589,0.175728,62.249679
5.2863,-0.005639,-0.003589,-0.007251,8e-05,6e-05,0.0,-0.007661,-0.513668,-0.004879,0.111718,-264.650589,0.175728,62.249679
5.3066,-0.005006,-0.003627,-0.006526,8e-05,6e-05,0.0,-0.009337,-0.513576,-0.007251,0.186725,-264.650589,0.250736,62.249679
5.3266,-0.005521,-0.003886,-0.006886,8e-05,6e-05,0.0,-0.008766,-0.513599,-0.006838,0.186725,-264.650589,0.250736,62.249679
5.3464,-0.005309,-0.004099,-0.006189,0.000764,0.000578,0.00109,-0.008766,-0.513599,-0.006838,0.186725,-264.650589,0.250736,62.249679
5.3663,-0.005389,-0.004016,-0.006347,0.001484,0.001122,0.002117,-0.008465,-0.514089,-0.006189,0.261717,-264.650589,0.325728,62.24968
5.3863,-0.00532,-0.003723,-0.005821,0.002167,0.001639,0.003092,-0.008477,-0.514083,-0.006201,0.261717,-264.650589,0.325728,62.24968
5.4067,-0.005581,-0.004203,-0.005971,0.002812,0.002127,0.004013,-0.008289,-0.513714,-0.005821,0.336821,-264.650589,0.250624,62.24968
5.4263,-0.005743,-0.00372,-0.006064,0.003419,0.002586,0.004878,-0.008483,-0.51399,-0.005908,0.336821,-264.650589,0.250624,62.24968
5.4466,-0.005442,-0.003707,-0.00732,0.003984,0.003014,0.005685,-0.008483,-0.51399,-0.005908,0.336821,-264.650589,0.250624,62.24968
5.4666,-0.005084,-0.003696,-0.006027,0.004512,0.003413,0.006438,-0.009175,-0.513694,-0.00732,0.4119,-264.650589,0.175545,62.24968
5.4871,-0.0056,-0.003588,-0.007628,0.005001,0.003783,0.007136,-0.009108,-0.513693,-0.007235,0.4119,-264.650589,0.175545,62.24968
5.5063,-0.005411,-0.00409,-0.00694,0.005451,0.004123,0.007778,-0.00949,-0.513573,-0.007628,0.486724,-264.650587,0.100721,62.24968
5.5262,-0.005697,-0.003943,-0.006245,0.005862,0.004434,0.008365,-0.009183,-0.51386,-0.007236,0.486724,-264.650587,0.100721,62.24968
5.5465,-0.005617,-0.003563,-0.006769,0.006231,0.004713,0.008892,-0.009183,-0.51386,-0.007236,0.486724,-264.650587,0.100721,62.24968
5.567,-0.005724,-0.003579,-0.004886,0.006563,0.004964,0.009365,-0.009068,-0.51355,-0.006768,0.561733,-264.650572,0.025712,62.249688
5.5866,-0.005495,-0.003247,-0.00625,0.006856,0.005186,0.009783,-0.009008,-0.513552,-0.006635,0.561733,-264.650572,0.025712,62.249688
5.6064,-0.005786,-0.003563,-0.00723,0.00711,0.005378,0.010146,-0.008676,-0.513234,-0.006245,0.636722,-264.650465,-0.049278,62.249745
5.6265,-0.00569,-0.003567,-0.005661,0.007325,0.005541,0.010452,-0.009129,-0.513413,-0.006805,0.636722,-264.650465,-0.049278,62.249745
5.6465,-0.005365,-0.003749,-0.006118,0.007501,0.005674,0.010704,-0.009129,-0.513413,-0.006805,0.636722,-264.650465,-0.049278,62.249745
5.6663,-0.005471,-0.003562,-0.005997,0.007638,0.005777,0.010899,-0.00845,-0.513724,-0.006087,0.711715,-264.650026,-0.114597,62.249976
5.6867,-0.005451,-0.003794,-0.005497,0.007736,0.005851,0.011038,-0.008455,-0.513712,-0.00608,0.711715,-264.650026,-0.114597,62.249976
5.7064,-0.0055,-0.003442,-0.006154,0.007794,0.005896,0.011122,-0.008181,-0.513748,-0.005422,0.786722,-264.648801,-0.114597,62.250621
5.7264,-0.005513,-0.00384,-0.006601,0.007814,0.00591,0.01115,-0.008434,-0.513562,-0.005833,0.786722,-264.648801,-0.114597,62.250621
5.747,-0.005315,-0.003475,-0.005442,0.007794,0.005895,0.011122,-0.008434,-0.513562,-0.005833,0.786722,-264.648801,-0.114597,62.250621
5.7671,-0.005136,-0.003442,-0.007157,0.007736,0.005851,0.011038,-0.007915,-0.513364,-0.005242,0.861841,-264.646349,-0.114597,62.251913
5.7867,-0.005679,-0.003283,-0.005472,0.007638,0.005777,0.010899,-0.00797,-0.513366,-0.005369,0.861841,-264.646349,-0.114597,62.251913
5.8065,-0.005305,-0.003339,-0.004878,0.007501,0.005674,0.010704,-0.008254,-0.513133,-0.005199,0.936718,-264.642357,-0.114597,62.254017
5.8264,-0.005122,-0.003435,-0.005243,0.007325,0.00554,0.010452,-0.007963,-0.51323,-0.00498,0.936718,-264.642357,-0.114597,62.254017
5.8466,-0.0054,-0.003275,-0.004777,0.007111,0.005379,0.010147,-0.007963,-0.51323,-0.00498,0.936718,-264.642357,-0.114597,62.254017
5.8667,-0.005505,-0.002873,-0.005992,0.006856,0.005186,0.009783,-0.007501,-0.513021,-0.004306,1.011878,-264.637123,-0.114597,62.256775
5.8876,-0.005114,-0.003049,-0.004672,0.006563,0.004964,0.009365,-0.007573,-0.513001,-0.004422,1.011878,-264.637123,-0.114597,62.256775
5.9067,-0.00507,-0.002311,-0.005261,0.00623,0.004713,0.00889,-0.007222,-0.512838,-0.004281,1.019942,-264.631715,-0.114597,62.259624
5.9267,-0.00486,-0.002313,-0.004452,0.005849,0.004424,0.008346,-0.007488,-0.51251,-0.004786,1.019942,-264.631715,-0.114597,62.259624
5.9466,-0.005116,-0.002692,-0.004206,0.005449,0.004122,0.007776,-0.007488,-0.51251,-0.004786,1.019942,-264.631715,-0.114597,62.259624
5.967,-0.004678,-0.002617,-0.004272,0.004999,0.003781,0.007134,-0.00694,-0.512447,-0.00375,1.019942,-264.626663,-0.114597,62.262285
5.9874,-0.005135,-0.002691,-0.004902,0.004509,0.003411,0.006434,-0.006923,-0.512453,-0.003779,1.019942,-264.626663,-0.114597,62.262285
6.0064,-0.004792,-0.002362,-0.004197,0.003981,0.003011,0.005681,-0.007423,-0.512525,-0.0046,1.019942,-264.622529,-0.114597,62.264464
6.0264,-0.005057,-0.00239,-0.002536,0.003419,0.002586,0.004879,-0.007124,-0.512412,-0.004339,1.019942,-264.622529,-0.114597,62.264464
6.0465,-0.004811,-0.00206,-0.004088,0.002814,0.002128,0.004015,-0.007124,-0.512412,-0.004339,1.019942,-264.622529,-0.114597,62.264464
6.0665,-0.00474,-0.002095,-0.003187,0.002169,0.00164,0.003095,-0.006677,-0.511891,-0.003776,1.019942,-264.619083,-0.114597,62.266279
6.0866,-0.005198,-0.002206,-0.004368,0.001485,0.001123,0.002119,-0.006649,-0.5119,-0.003726,1.019942,-264.619083,-0.114597,62.266279
6.1066,-0.004485,-0.002149,-0.003036,0.000761,0.000576,0.001087,-0.007316,-0.51212,-0.004213,1.019942,-264.616932,-0.114597,62.267412
6.1264,-0.004765,-0.001789,-0.004391,0.0,0.0,0.0,-0.006573,-0.512125,-0.003524,1.019942,-264.616932,-0.114597,62.267412
6.1464,-0.004497,-0.001857,-0.004362,0.0,0.0,0.0,-0.006573,-0.512125,-0.003524,1.019942,-264.616932,-0.114597,62.267412
6.1664,-0.00439,-0.00196,-0.003326,0.0,0.0,0.0,-0.006649,-0.511797,-0.004259,1.019942,-264.615798,-0.114597,62.26801
6.1866,-0.004852,-0.002098,-0.00355,0.0,0.0,0.0,-0.00661,-0.511807,-0.004195,1.019942,-264.615798,-0.114597,62.26801
6.2064,-0.004838,-0.00254,-0.005168,0.0,0.0,0.0,-0.006662,-0.512094,-0.00355,1.019942,-264.615798,-0.114597,62.26801
6.2263,-0.004734,-0.001869,-0.00273,0.0,0.0,0.0,-0.007124,-0.512344,-0.004471,1.019942,-264.615798,-0.114597,62.26801
6.2463,-0.004705,-0.002207,-0.001844,0.0,0.0,0.0,-0.007124,-0.512344,-0.004471,1.019942,-264.615798,-0.114597,62.26801
6.2664,-0.004809,-0.002077,-0.002843,0.0,0.0,0.0,-0.005645,-0.512206,-0.001844,1.019942,-264.615798,-0.114597,62.26801
6.287,-0.004665,-0.002102,-0.002929,0.0,0.0,0.0,-0.005688,-0.512197,-0.001914,1.019942,-264.615798,-0.114597,62.26801
6.3065,-0.004717,-0.002118,-0.003297,0.0,0.0,0.0,-0.006159,-0.512099,-0.002929,1.019942,-264.615798,-0.114597,62.26801
6.3265,-0.004605,-0.001995,-0.004369,0.0,0.0,0.0,-0.006295,-0.512109,-0.003138,1.019942,-264.615798,-0.114597,62.26801
6.3464,-0.004707,-0.001987,-0.002298,9.2e-05,4e-05,0.0,-0.006295,-0.512109,-0.003138,1.019942,-264.615798,-0.114597,62.26801
6.3664,-0.004532,-0.001593,-0.002958,9.2e-05,4e-05,0.0,-0.00588,-0.511985,-0.002298,1.019942,-264.615798,-0.114597,62.26801
6.3863,-0.004814,-0.001809,-0.003547,9.2e-05,4e-05,0.0,-0.00589,-0.511959,-0.002343,1.019942,-264.615798,-0.114597,62.26801
6.4063,-0.004799,-0.001941,-0.003194,9.2e-05,4e-05,0.0,-0.006623,-0.511806,-0.003547,0.944998,-264.615798,-0.039653,62.26801
6.4269,-0.004661,-0.00232,-0.004466,9.2e-05,4e-05,0.0,-0.006511,-0.511882,-0.003345,0.944998,-264.615798,-0.039653,62.26801
6.4466,-0.004654,-0.001925,-0.002883,9.2e-05,4e-05,0.0,-0.006511,-0.511882,-0.003345,0.944998,-264.615798,-0.039653,62.26801
6.4668,-0.00476,-0.002037,-0.003105,9.2e-05,4e-05,0.0,-0.006124,-0.511923,-0.002883,0.869899,-264.615798,0.035446,62.26801
6.4868,-0.004527,-0.001888,-0.002417,9.2e-05,4e-05,0.0,-0.006139,-0.51193,-0.002898,0.869899,-264.615798,0.035446,62.26801
6.5066,-0.004729,-0.001983,-0.002431,9.2e-05,4e-05,0.0,-0.00576,-0.511887,-0.002417,0.794987,-264.615798,0.110358,62.26801
6.5271,-0.0046,-0.002176,-0.004067,9.2e-05,4e-05,0.0,-0.005879,-0.511941,-0.002425,0.794987,-264.615798,0.110358,62.26801
6.5468,-0.004437,-0.001983,-0.002671,1e-06,1e-06,1e-06,-0.005879,-0.511941,-0.002425,0.794987,-264.615798,0.110358,62.26801
6.5665,-0.004719,-0.001925,-0.003475,0.000673,0.000295,0.00064,-0.005799,-0.511981,-0.002671,0.719989,-264.615797,0.185356,62.268011
6.5868,-0.005026,-0.002058,-0.002982,0.001313,0.000576,0.001248,-0.005841,-0.511977,-0.002721,0.719989,-264.615797,0.185356,62.268011
6.6068,-0.004837,-0.001818,-0.003033,0.001915,0.000839,0.00182,-0.006547,-0.512055,-0.002982,0.794736,-264.615797,0.110351,62.268011
6.6265,-0.004529,-0.001789,-0.003784,0.002484,0.001089,0.00236,-0.006454,-0.511919,-0.003011,0.794736,-264.615797,0.110351,62.268011
6.6466,-0.004793,-0.001996,-0.004415,0.003017,0.001322,0.002867,-0.006454,-0.511919,-0.003011,0.794736,-264.615797,0.110351,62.268011
6.6665,-0.004617,-0.001759,-0.003084,0.003517,0.001542,0.003342,-0.007022,-0.511979,-0.004396,0.794736,-264.615527,0.035237,62.268201
6.6863,-0.005124,-0.002135,-0.004114,0.003983,0.001746,0.003785,-0.006963,-0.511964,-0.004305,0.794736,-264.615527,0.035237,62.268201
6.7066,-0.004525,-0.002022,-0.005038,0.004417,0.001936,0.004198,-0.007152,-0.512097,-0.004053,0.794736,-264.614483,-0.039634,62.26894
6.7267,-0.004538,-0.001688,-0.002225,0.00481,0.002109,0.004571,-0.00711,-0.512046,-0.004607,0.794736,-264.614483,-0.039634,62.26894
6.7465,-0.004655,-0.002123,-0.001537,0.005171,0.002267,0.004915,-0.00711,-0.512046,-0.004607,0.794736,-264.614483,-0.039634,62.26894
6.767,-0.004698,-0.002045,-0.003698,0.005499,0.002411,0.005226,-0.005274,-0.512049,-0.001385,0.794736,-264.612556,-0.114693,62.270304
6.7864,-0.004785,-0.001767,-0.002221,0.005792,0.002539,0.005505,-0.005357,-0.512046,-0.001535,0.794736,-264.612556,-0.114693,62.270304
6.8066,-0.004425,-0.001763,-0.003125,0.006051,0.002653,0.005751,-0.005719,-0.51168,-0.002033,0.794736,-264.609635,-0.141132,62.27237
6.8268,-0.004159,-0.001324,-0.00169,0.006274,0.002751,0.005963,-0.005864,-0.511715,-0.002629,0.794736,-264.609635,-0.141132,62.27237
6.8467,-0.004546,-0.002,-0.001677,0.006465,0.002834,0.006145,-0.005864,-0.511715,-0.002629,0.794736,-264.609635,-0.141132,62.27237
6.8664,-0.004332,-0.00159,-0.001937,0.006619,0.002902,0.006291,-0.005118,-0.511876,-0.001407,0.794736,-264.606328,-0.141132,62.27471
6.8868,-0.004135,-0.001855,-0.00201,0.00674,0.002955,0.006406,-0.005123,-0.511857,-0.001431,0.794736,-264.606328,-0.141132,62.27471
6.9071,-0.003979,-0.001261,-0.000907,0.006826,0.002992,0.006488,-0.00491,-0.511745,-0.001772,0.794736,-264.602636,-0.141132,62.277322
6.9265,-0.003989,-0.001754,-0.002803,0.006878,0.003015,0.006536,-0.004614,-0.511458,-0.001255,0.794736,-264.602636,-0.141132,62.277322
6.9465,-0.003951,-0.001606,-0.003791,0.006895,0.003023,0.006553,-0.004614,-0.511458,-0.001255,0.794736,-264.602636,-0.141132,62.277322
6.9664,-0.00385,-0.001039,-0.001104,0.006877,0.003015,0.006536,-0.005556,-0.511459,-0.003479,0.794736,-264.598787,-0.141132,62.280046
6.9863,-0.004081,-0.001153,-0.002338,0.006826,0.002992,0.006487,-0.005474,-0.511429,-0.003319,0.794736,-264.598787,-0.141132,62.280046
7.0067,-0.003952,-0.0015,-0.002951,0.006739,0.002954,0.006405,-0.005007,-0.511036,-0.002085,0.794736,-264.59485,-0.141132,62.282831
7.0264,-0.00376,-0.000959,-0.001759,0.006618,0.002901,0.00629,-0.005229,-0.511284,-0.002545,0.794736,-264.59485,-0.141132,62.282831
7.0465,-0.003942,-0.000995,-0.001771,0.006464,0.002834,0.006143,-0.005229,-0.511284,-0.002545,0.794736,-264.59485,-0.141132,62.282831
7.0665,-0.003629,-0.00093,-0.000963,0.006274,0.00275,0.005963,-0.004513,-0.510849,-0.001455,0.794736,-264.590952,-0.141132,62.285589
7.0867,-0.003458,-0.000889,-0.000652,0.00605,0.002652,0.00575,-0.004478,-0.510851,-0.001414,0.794736,-264.590952,-0.141132,62.285589
7.1063,-0.003438,-0.000953,-0.002538,0.00579,0.002538,0.005503,-0.00354,-0.510779,-0.000415,0.794736,-264.58726,-0.141132,62.288201
7.1265,-0.003253,-0.000753,-0.001643,0.005498,0.00241,0.005226,-0.004188,-0.510864,-0.001594,0.794736,-264.58726,-0.141132,62.288201
7.1465,-0.00338,-0.001099,0.000678,0.00517,0.002267,0.004914,-0.004188,-0.510864,-0.001594,0.794736,-264.58726,-0.141132,62.288201
7.1663,-0.003322,-0.000872,0.001181,0.004809,0.002108,0.00457,-0.002741,-0.510969,0.000957,0.794736,-264.583806,-0.141132,62.290644
7.1864,-0.003404,-0.000738,0.000198,0.004412,0.001934,0.004194,-0.002731,-0.510959,0.00098,0.794736,-264.583806,-0.141132,62.290644
7.2063,-0.003,-0.001184,-0.000521,0.003978,0.001744,0.003781,-0.003103,-0.51065,0.000388,0.794736,-264.580851,-0.141132,62.292735
7.2264,-0.002875,-0.000586,-0.000447,0.003517,0.001542,0.003342,-0.003171,-0.510945,-0.000108,0.794736,-264.580851,-0.141132,62.292735
7.2464,-0.003059,-0.000835,-0.000491,0.003016,0.001322,0.002867,-0.003171,-0.510945,-0.000108,0.794736,-264.580851,-0.141132,62.292735
7.2664,-0.00311,-0.000651,-0.000375,0.002478,0.001086,0.002355,-0.003095,-0.510741,-0.000287,0.794736,-264.578304,-0.141132,62.294537
7.2867,-0.003086,-0.000554,-0.000738,0.001913,0.000839,0.001818,-0.003107,-0.510729,-0.000288,0.794736,-264.578304,-0.141132,62.294537
7.3064,-0.002581,-0.000509,0.000165,0.001309,0.000574,0.001244,-0.003348,-0.510504,-0.000629,0.794736,-264.576596,-0.141132,62.295746
7.3264,-0.003156,-0.000129,0.000846,0.000672,0.000295,0.000639,-0.002842,-0.5105,-0.000157,0.794736,-264.576596,-0.141132,62.295746
7.3464,-0.003045,-0.0004,-0.000949,0.0,0.0,0.0,-0.002842,-0.5105,-0.000157,0.794736,-264.576596,-0.141132,62.295746
7.3666,-0.00254,-0.00048,-0.000736,0.0,0.0,0.0,-0.003436,-0.510359,-0.00086,0.794736,-264.575506,-0.141132,62.296517
7.3869,-0.002883,-0.000135,-0.000363,0.0,0.0,0.0,-0.003395,-0.510367,-0.000849,0.794736,-264.575506,-0.141132,62.296517
