mach0312/omni-docking-bench/src/icros_test_setup/results/kinematic_sample/timeseries/trial_142.csv
t,x,y,yaw,vx,vy,wz,bl_x,bl_y,bl_yaw,front_steering_joint,front_wheel_joint,rear_steering_joint,rear_wheel_joint
0.0,-0.017195,-0.022511,0.067037,0.008731,-0.000476,0.000232,0.01598,-0.53099,0.067994,-0.038258,-264.339003,-0.070612,61.923923
0.0004,-0.017508,-0.02198,0.066942,0.00682,-0.000372,0.000181,0.016899,-0.5312,0.068343,-0.038258,-264.335362,-0.070612,61.92757
0.0009,-0.017204,-0.022282,0.068018,0.006335,-0.000345,0.000168,0.016899,-0.5312,0.068343,-0.038258,-264.331882,-0.070612,61.931056
0.0012,-0.017079,-0.022402,0.068083,0.005807,-0.000317,0.000154,0.016904,-0.531147,0.068337,-0.038258,-264.328569,-0.070612,61.934375
0.0015,-0.016986,-0.022255,0.067278,0.005252,-0.000286,0.00014,0.016904,-0.531147,0.068337,-0.038258,-264.325666,-0.070612,61.937283
0.0018,-0.016725,-0.021774,0.067953,0.004639,-0.000253,0.000123,0.016261,-0.53124,0.067203,-0.038258,-264.323131,-0.070612,61.939823
0.0021,-0.016888,-0.022224,0.066455,0.003979,-0.000217,0.000106,0.016391,-0.531206,0.067125,-0.038258,-264.321274,-0.070612,61.941683
0.0024,-0.016174,-0.022065,0.067026,0.003275,-0.000178,8.7e-05,0.016391,-0.531206,0.067125,-0.038258,-264.319963,-0.070612,61.942997
0.0026,-0.016548,-0.02207,0.067052,0.002524,-0.000138,6.7e-05,0.016391,-0.531206,0.067125,-0.038258,-264.319963,-0.070612,61.942997
0.0029,-0.016373,-0.022104,0.068584,0.001727,-9.4e-05,4.6e-05,0.016391,-0.531206,0.067125,-0.038258,-264.319963,-0.070612,61.942997
0.018,-0.016593,-0.02207,0.068383,0.016887,0.015952,-0.029976,0.018737,-0.530902,0.068588,-0.038258,-264.319963,-0.070612,61.942997
0.0387,-0.016227,-0.021733,0.067007,0.018062,0.020884,-0.05,0.01871,-0.530901,0.068575,-0.038258,-264.319963,-0.070612,61.942997
0.058,-0.016454,-0.021857,0.066886,0.017646,0.020598,-0.05,0.017956,-0.530588,0.067008,-0.038258,-264.319608,-0.070612,61.943352
0.078,-0.016258,-0.022068,0.067006,0.017878,0.020708,-0.05,0.017779,-0.53066,0.066939,-0.038258,-264.319608,-0.070612,61.943352
0.0979,-0.016313,-0.022108,0.067809,0.017699,0.02093,-0.05,0.017779,-0.53066,0.066939,-0.038258,-264.319608,-0.070612,61.943352
0.1179,-0.016611,-0.021734,0.066763,0.017774,0.020952,-0.05,0.018243,-0.530936,0.067809,-0.113254,-264.319608,0.004384,61.943352
0.1386,-0.01653,-0.022627,0.066561,0.018024,0.020578,-0.05,0.018182,-0.530911,0.067732,-0.113254,-264.319608,0.004384,61.943352
0.1579,-0.01636,-0.022345,0.066814,0.017998,0.021477,-0.05,0.017392,-0.531498,0.066561,-0.188345,-264.319608,0.079475,61.943353
0.1779,-0.016323,-0.022364,0.065938,0.017816,0.021203,-0.05,0.017562,-0.531331,0.066706,-0.188345,-264.319608,0.079475,61.943353
0.1981,-0.016213,-0.022417,0.068172,0.017761,0.02124,-0.05,0.017562,-0.531331,0.066706,-0.188345,-264.319608,0.079475,61.943353
0.2179,-0.01618,-0.021792,0.069631,0.017702,0.02126,-0.05,0.018528,-0.531232,0.068172,-0.263341,-264.319607,0.154471,61.943353
0.2382,-0.016089,-0.022194,0.066743,0.017657,0.020614,-0.05,0.018583,-0.531184,0.068276,-0.263341,-264.319607,0.154471,61.943353
0.258,-0.015815,-0.022017,0.065564,0.017533,0.021072,-0.05,0.017925,-0.531059,0.066743,-0.338365,-264.319607,0.229495,61.943354
0.2779,-0.016527,-0.021922,0.067284,0.017223,0.020934,-0.05,0.017738,-0.53098,0.066069,-0.338365,-264.319607,0.229495,61.943354
0.2979,-0.015972,-0.021955,0.068552,0.017963,0.020761,-0.05,0.017738,-0.53098,0.066069,-0.338365,-264.319607,0.229495,61.943354
0.318,-0.016355,-0.022206,0.066904,0.017438,0.020809,-0.05,0.018962,-0.530757,0.068552,-0.41338,-264.319607,0.30451,61.943355
0.3383,-0.016209,-0.022147,0.06906,0.017803,0.021062,-0.05,0.018873,-0.53078,0.068432,-0.41338,-264.319607,0.30451,61.943355
0.3579,-0.016505,-0.022104,0.066484,0.017699,0.020975,-0.05,0.018984,-0.530931,0.06906,-0.488353,-264.319606,0.379483,61.943357
0.3785,-0.016441,-0.022006,0.068343,0.017937,0.020959,-0.05,0.018069,-0.530958,0.067594,-0.488353,-264.319606,0.379483,61.943357
0.398,-0.016064,-0.022281,0.067444,0.017905,0.020832,-0.05,0.018069,-0.530958,0.067594,-0.488353,-264.319606,0.379483,61.943357
0.4184,-0.016236,-0.022014,0.066824,0.017529,0.021148,-0.05,0.018306,-0.531121,0.067444,-0.489085,-264.319605,0.45438,61.94336
0.4381,-0.016212,-0.021954,0.066858,0.01767,0.020881,-0.05,0.018273,-0.531105,0.067402,-0.489085,-264.319605,0.45438,61.94336
0.4583,-0.01614,-0.02208,0.066455,0.017642,0.020822,-0.05,0.017861,-0.530814,0.066858,-0.496727,-264.319604,0.529391,61.943362
0.4782,-0.016186,-0.022225,0.067005,0.01757,0.02096,-0.05,0.017785,-0.530894,0.066629,-0.496727,-264.319604,0.529391,61.943362
0.4978,-0.016241,-0.022062,0.067209,0.017638,0.021091,-0.05,0.017785,-0.530894,0.066629,-0.496727,-264.319604,0.529391,61.943362
0.5184,-0.016257,-0.021828,0.066446,0.017686,0.020921,-0.05,0.01801,-0.53091,0.067208,-0.500163,-264.319602,0.604487,61.943367
0.5383,-0.016159,-0.022404,0.067859,0.01767,0.0207,-0.05,0.017973,-0.530891,0.06714,-0.500163,-264.319602,0.604487,61.943367
0.5579,-0.016231,-0.02235,0.067228,0.017641,0.021256,-0.05,0.018424,-0.531229,0.067857,-0.4917,-264.319594,0.680102,61.943389
0.5785,-0.016059,-0.022285,0.067243,0.017695,0.021209,-0.05,0.018198,-0.531211,0.067497,-0.4917,-264.319594,0.680102,61.943389
0.598,-0.01625,-0.022115,0.067818,0.01752,0.021156,-0.05,0.018198,-0.531211,0.067497,-0.4917,-264.319594,0.680102,61.943389
0.6179,-0.016123,-0.021947,0.067766,0.017711,0.020963,-0.05,0.018317,-0.530938,0.067808,-0.507986,-264.319552,0.754498,61.943502
0.6379,-0.016222,-0.021998,0.066786,0.017572,0.020805,-0.05,0.018324,-0.530926,0.067805,-0.507986,-264.319552,0.754498,61.943502
0.6585,-0.016292,-0.021784,0.069253,0.017653,0.020866,-0.05,0.017832,-0.530849,0.066757,-0.49163,-264.319406,0.829481,61.943902
0.6782,-0.01619,-0.021969,0.066567,0.017761,0.020604,-0.05,0.018501,-0.530683,0.06818,-0.49163,-264.319406,0.829481,61.943902
0.698,-0.016274,-0.022601,0.067523,0.017615,0.020844,-0.05,0.018501,-0.530683,0.06818,-0.49163,-264.319406,0.829481,61.943902
0.7182,-0.015828,-0.022384,0.066326,0.017762,0.021452,-0.05,0.018209,-0.531385,0.067396,-0.505808,-264.318915,0.904508,61.945229
0.7379,-0.016261,-0.021968,0.06718,0.017277,0.021286,-0.05,0.018194,-0.531375,0.067318,-0.505808,-264.318915,0.904508,61.945229
0.7584,-0.015584,-0.021918,0.067152,0.017699,0.020827,-0.05,0.018115,-0.5307,0.066905,-0.503085,-264.317639,0.979373,61.948678
0.7783,-0.015864,-0.022196,0.068924,0.01702,0.020823,-0.05,0.018431,-0.530724,0.067011,-0.503085,-264.317639,0.979373,61.948678
0.7981,-0.015432,-0.02176,0.06699,0.017355,0.021051,-0.05,0.018431,-0.530724,0.067011,-0.503085,-264.317639,0.979373,61.948678
0.8182,-0.014952,-0.021546,0.065704,0.016854,0.020679,-0.05,0.018997,-0.530351,0.066363,-0.491656,-264.315233,1.054515,61.954619
0.8384,-0.015336,-0.021613,0.06475,0.016335,0.020517,-0.05,0.018974,-0.530351,0.066302,-0.491656,-264.315233,1.054515,61.954619
0.8578,-0.014228,-0.020951,0.066006,0.016702,0.020575,-0.05,0.018005,-0.530254,0.063981,-0.500244,-264.310858,1.12941,61.963072
0.8778,-0.014243,-0.020624,0.064736,0.015579,0.019967,-0.05,0.018852,-0.529981,0.065042,-0.500244,-264.310858,1.12941,61.963072
0.8982,-0.014048,-0.021551,0.065879,0.015548,0.019659,-0.05,0.018852,-0.529981,0.065042,-0.500244,-264.310858,1.12941,61.963072
0.9184,-0.012863,-0.020793,0.063379,0.015436,0.02058,-0.05,0.020023,-0.529968,0.064572,-0.550231,-264.305246,1.204486,61.974095
0.9383,-0.013047,-0.020189,0.064314,0.014155,0.019937,-0.05,0.019988,-0.529935,0.064424,-0.550231,-264.305246,1.204486,61.974095
0.9578,-0.011438,-0.020034,0.061647,0.014318,0.019309,-0.05,0.020154,-0.528676,0.063009,-0.610504,-264.298614,1.270434,61.987465
0.9779,-0.011375,-0.019849,0.061735,0.012651,0.019291,-0.05,0.02011,-0.52884,0.062063,-0.610504,-264.298614,1.270434,61.987465
0.9982,-0.011592,-0.019785,0.060832,0.012578,0.01911,-0.05,0.02011,-0.52884,0.062063,-0.610504,-264.298614,1.270434,61.987465
1.018,-0.009758,-0.019472,0.059113,0.012774,0.019044,-0.05,0.019966,-0.528126,0.058897,-0.642811,-264.291746,1.297389,62.003394
1.0384,-0.009833,-0.019291,0.059444,0.010891,0.018862,-0.05,0.020009,-0.528138,0.058861,-0.642811,-264.291746,1.297389,62.003394
1.058,-0.008346,-0.018421,0.059116,0.010962,0.018673,-0.05,0.020849,-0.52773,0.057794,-0.717692,-264.285912,1.322662,62.020976
1.078,-0.00814,-0.018086,0.05799,0.00942,0.017896,-0.05,0.02143,-0.527532,0.058334,-0.717692,-264.285912,1.322662,62.020976
1.0984,-0.008265,-0.018205,0.057782,0.009175,0.017584,-0.05,0.02143,-0.527532,0.058334,-0.717692,-264.285912,1.322662,62.020976
1.1182,-0.006957,-0.017444,0.055541,0.009302,0.017698,-0.05,0.02159,-0.526562,0.055773,-0.792804,-264.280603,1.353788,62.037794
1.1383,-0.006645,-0.017127,0.054716,0.007914,0.017031,-0.05,0.021585,-0.526547,0.055704,-0.792804,-264.280603,1.353788,62.037794
1.1578,-0.005545,-0.01696,0.053428,0.007571,0.016738,-0.05,0.021465,-0.5259,0.053481,-0.867696,-264.276487,1.382401,62.050497
1.1777,-0.005629,-0.016724,0.054313,0.006443,0.01664,-0.05,0.021621,-0.52603,0.053294,-0.867696,-264.276487,1.382401,62.050497
1.1979,-0.006009,-0.016359,0.056445,0.006528,0.016393,-0.05,0.021621,-0.52603,0.053294,-0.867696,-264.276487,1.382401,62.050497
1.218,-0.004795,-0.016055,0.053626,0.006922,0.015994,-0.05,0.022988,-0.525013,0.054975,-0.942696,-264.272654,1.405925,62.062304
1.2383,-0.004884,-0.016233,0.051526,0.005649,0.015775,-0.05,0.022965,-0.52502,0.054849,-0.942696,-264.272654,1.405925,62.062304
1.2585,-0.003778,-0.015831,0.051654,0.005713,0.01596,-0.05,0.021517,-0.525202,0.05051,-1.017694,-264.269325,1.432581,62.072431
1.2782,-0.003841,-0.015681,0.053111,0.004591,0.015615,-0.05,0.022125,-0.525128,0.051033,-1.017694,-264.269325,1.432581,62.072431
1.2979,-0.004223,-0.015441,0.053374,0.004669,0.015455,-0.05,0.022125,-0.525128,0.051033,-1.017694,-264.269325,1.432581,62.072431
1.3185,-0.003265,-0.014557,0.048419,0.005041,0.015194,-0.05,0.023138,-0.524264,0.05202,-1.092809,-264.265755,1.449422,62.082969
1.3382,-0.002884,-0.015111,0.049955,0.003966,0.014382,-0.048419,0.023018,-0.52423,0.051722,-1.092809,-264.265755,1.449422,62.082969
1.3578,-0.002141,-0.014902,0.048008,0.003635,0.014948,-0.049955,0.02269,-0.524106,0.048812,-1.167796,-264.26198,1.469637,62.094021
1.378,-0.002154,-0.01469,0.048199,0.002853,0.014782,-0.048008,0.0225,-0.524179,0.048207,-1.167796,-264.26198,1.469637,62.094021
1.3984,-0.002249,-0.014899,0.05041,0.002859,0.014569,-0.048199,0.0225,-0.524179,0.048207,-1.167796,-264.26198,1.469637,62.094021
1.4182,-0.001358,-0.014092,0.046846,0.002997,0.014766,-0.05,0.023579,-0.523747,0.048766,-1.242867,-264.257572,1.480819,62.106411
1.4383,-0.000811,-0.01392,0.046503,0.002017,0.014013,-0.046846,0.023512,-0.52372,0.048596,-1.242867,-264.257572,1.480819,62.106411
1.4579,3e-05,-0.013834,0.046021,0.001458,0.013867,-0.046503,0.022971,-0.522951,0.045149,-1.317698,-264.253149,1.505914,62.119295
1.4778,-0.000264,-0.013554,0.045955,0.000606,0.013821,-0.046021,0.023277,-0.523093,0.045472,-1.317698,-264.253149,1.505914,62.119295
1.4982,-0.000148,-0.013503,0.043849,0.000886,0.013528,-0.045955,0.023277,-0.523093,0.045472,-1.317698,-264.253149,1.505914,62.119295
1.5181,0.000604,-0.012797,0.044811,0.00074,0.013484,-0.043849,0.022275,-0.522461,0.042024,-1.392826,-264.24842,1.523515,62.132989
1.5382,0.001012,-0.013042,0.043259,-3e-05,0.012811,-0.044811,0.022355,-0.522435,0.042164,-1.392826,-264.24842,1.523515,62.132989
1.5579,0.001833,-0.012344,0.04133,-0.000447,0.013073,-0.043259,0.023087,-0.522145,0.04184,-1.467795,-264.243794,1.549488,62.146202
1.5779,0.001628,-0.012444,0.04101,-0.001321,0.012409,-0.04133,0.022987,-0.52196,0.041377,-1.467795,-264.243794,1.549488,62.146202
1.5982,0.001688,-0.012309,0.042457,-0.001117,0.0125,-0.04101,0.022987,-0.52196,0.041377,-1.467795,-264.243794,1.549488,62.146202
1.6183,0.002957,-0.011456,0.040172,-0.001164,0.01237,-0.042457,0.023321,-0.521332,0.040646,-1.5428,-264.238959,1.571542,62.159545
1.6383,0.002631,-0.011646,0.041275,-0.002495,0.011565,-0.040172,0.023328,-0.5213,0.040569,-1.5428,-264.238959,1.571542,62.159545
1.6584,0.003444,-0.011065,0.037037,-0.002148,0.011745,-0.041275,0.023634,-0.520831,0.040018,-1.6177,-264.234958,1.600526,62.171477
1.6784,0.003621,-0.011467,0.038239,-0.003031,0.011185,-0.037037,0.022882,-0.520716,0.038153,-1.6177,-264.234958,1.600526,62.171477
1.698,0.003595,-0.011292,0.036986,-0.00318,0.011597,-0.038239,0.022882,-0.520716,0.038153,-1.6177,-264.234958,1.600526,62.171477
1.7186,0.003509,-0.011234,0.036695,-0.003175,0.011417,-0.036986,0.022441,-0.520829,0.036798,-1.542569,-264.234959,1.639793,62.173369
1.738,0.003431,-0.011124,0.036856,-0.003095,0.011355,-0.036695,0.022426,-0.52083,0.036787,-1.542569,-264.234959,1.639793,62.173369
1.7583,0.003992,-0.010886,0.038304,-0.003019,0.011242,-0.036856,0.022224,-0.520777,0.036856,-1.467699,-264.234959,1.661541,62.173371
1.778,0.003219,-0.011162,0.037264,-0.003572,0.011031,-0.038304,0.022958,-0.520627,0.037675,-1.467699,-264.234959,1.661541,62.173371
1.7983,0.003429,-0.01116,0.038349,-0.002801,0.011274,-0.037264,0.022958,-0.520627,0.037675,-1.467699,-264.234959,1.661541,62.173371
1.8185,0.003454,-0.011272,0.037358,-0.002999,0.011284,-0.038349,0.022983,-0.520785,0.038349,-1.392702,-264.234959,1.66219,62.173372
1.8381,0.003504,-0.011338,0.036523,-0.003031,0.011394,-0.037358,0.022951,-0.520794,0.038285,-1.392702,-264.234959,1.66219,62.173372
1.8585,0.003741,-0.011145,0.037538,-0.003088,0.011459,-0.036523,0.022126,-0.520998,0.036523,-1.317692,-264.23496,1.652923,62.173373
1.8785,0.003698,-0.010782,0.039056,-0.003321,0.011278,-0.037538,0.022561,-0.520876,0.037107,-1.317692,-264.23496,1.652923,62.173373
1.8982,0.003289,-0.011256,0.0369,-0.003274,0.010918,-0.039056,0.022561,-0.520876,0.037107,-1.317692,-264.23496,1.652923,62.173373
1.918,0.003646,-0.010944,0.038606,-0.002871,0.01137,-0.0369,0.022103,-0.520909,0.0369,-1.242388,-264.23496,1.659168,62.173375
1.9382,0.002971,-0.011233,0.038918,-0.003221,0.011076,-0.038606,0.022182,-0.520887,0.037009,-1.242388,-264.23496,1.659168,62.173375
1.9579,0.003613,-0.011142,0.037603,-0.002531,0.01134,-0.038918,0.022814,-0.520847,0.038918,-1.167688,-264.234961,1.664687,62.173376
1.9779,0.003468,-0.010866,0.037575,-0.003191,0.01127,-0.037603,0.022798,-0.52081,0.038164,-1.167688,-264.234961,1.664687,62.173376
1.9981,0.003845,-0.011054,0.037173,-0.003057,0.010989,-0.037575,0.022798,-0.52081,0.038164,-1.167688,-264.234961,1.664687,62.173376
2.0182,0.003661,-0.011304,0.036893,-0.003431,0.011189,-0.037173,0.022798,-0.520702,0.037172,-1.092571,-264.234961,1.663478,62.173378
2.0385,0.003336,-0.010593,0.037573,-0.003242,0.011431,-0.036893,0.022776,-0.520719,0.037153,-1.092571,-264.234961,1.663478,62.173378
2.0584,0.003555,-0.011195,0.039428,-0.002935,0.01071,-0.037573,0.022493,-0.520233,0.037573,-1.017699,-264.234962,1.660638,62.173379
2.0785,0.003632,-0.011196,0.038227,-0.003111,0.011327,-0.039428,0.023156,-0.520555,0.038628,-1.017699,-264.234962,1.660638,62.173379
2.0985,0.003721,-0.011424,0.038352,-0.003202,0.011326,-0.038227,0.023156,-0.520555,0.038628,-1.017699,-264.234962,1.660638,62.173379
2.1179,0.003534,-0.011188,0.038121,-0.00328,0.011558,-0.038352,0.023276,-0.521049,0.038352,-0.942692,-264.234962,1.665951,62.17338
2.1383,0.003643,-0.011027,0.038601,-0.003105,0.011315,-0.038121,0.023253,-0.521031,0.038335,-0.942692,-264.234962,1.665951,62.17338
2.1585,0.00306,-0.011376,0.038209,-0.003214,0.01116,-0.038601,0.023324,-0.520647,0.038601,-0.867355,-264.234963,1.66287,62.173382
2.1784,0.003492,-0.01086,0.038033,-0.002623,0.011484,-0.038209,0.022882,-0.520848,0.038379,-0.867355,-264.234963,1.66287,62.173382
2.1985,0.003545,-0.011363,0.037006,-0.003076,0.010985,-0.038033,0.022882,-0.520848,0.038379,-0.867355,-264.234963,1.66287,62.173382
2.2183,0.003799,-0.01107,0.038792,-0.003122,0.011486,-0.037006,0.022413,-0.521014,0.037006,-0.792668,-264.234963,1.660307,62.173383
2.2381,0.003685,-0.011049,0.037548,-0.003367,0.011209,-0.038792,0.022496,-0.52099,0.037133,-0.792668,-264.234963,1.660307,62.173383
2.2582,0.003101,-0.011178,0.03797,-0.003267,0.01118,-0.037548,0.02283,-0.52069,0.037548,-0.71753,-264.234964,1.66047,62.173384
2.2781,0.003336,-0.011268,0.039351,-0.002674,0.011288,-0.03797,0.022619,-0.520759,0.037789,-0.71753,-264.234964,1.66047,62.173384
2.2979,0.003316,-0.011361,0.037327,-0.00289,0.01139,-0.039351,0.022619,-0.520759,0.037789,-0.71753,-264.234964,1.66047,62.173384
2.3181,0.00361,-0.011166,0.038686,-0.00289,0.011477,-0.037327,0.022348,-0.521006,0.037327,-0.642559,-264.234964,1.666964,62.173386
2.3387,0.003568,-0.011136,0.036948,-0.003176,0.011297,-0.038686,0.022417,-0.52099,0.037422,-0.642559,-264.234964,1.666964,62.173386
2.3584,0.003613,-0.011064,0.037922,-0.003154,0.01126,-0.036948,0.022407,-0.520788,0.036948,-0.567663,-264.234965,1.652211,62.173387
2.3782,0.003573,-0.011176,0.03787,-0.003191,0.011193,-0.037922,0.022715,-0.520737,0.037501,-0.567663,-264.234965,1.652211,62.173387
2.3985,0.003462,-0.010651,0.038735,-0.003147,0.011303,-0.03787,0.022715,-0.520737,0.037501,-0.567663,-264.234965,1.652211,62.173387
2.418,0.003663,-0.011012,0.037343,-0.003047,0.010778,-0.038735,0.023212,-0.520269,0.038735,-0.492673,-264.234965,1.661475,62.173389
2.4383,0.003407,-0.01116,0.038009,-0.003249,0.011142,-0.037343,0.02318,-0.520293,0.038648,-0.492673,-264.234965,1.661475,62.173389
2.4584,0.003415,-0.010849,0.03675,-0.002981,0.011282,-0.038009,0.022787,-0.520792,0.038009,-0.417696,-264.234966,1.661949,62.17339
2.4782,0.003412,-0.011244,0.037187,-0.003014,0.010967,-0.03675,0.022427,-0.520629,0.037295,-0.417696,-264.234966,1.661949,62.17339
2.4983,0.003389,-0.011193,0.037771,-0.002991,0.011363,-0.037187,0.022427,-0.520629,0.037295,-0.417696,-264.234966,1.661949,62.17339
2.5181,0.003512,-0.010986,0.037134,-0.002963,0.011313,-0.037771,0.022647,-0.520829,0.037771,-0.342692,-264.234966,1.66622,62.173391
2.5379,0.0038,-0.011439,0.037682,-0.003102,0.011109,-0.037134,0.022633,-0.520816,0.037728,-0.342692,-264.234966,1.66622,62.173391
2.5585,0.003517,-0.01075,0.038177,-0.003367,0.011574,-0.037682,0.023014,-0.521077,0.037682,-0.267687,-264.234967,1.658361,62.173393
2.579,0.003304,-0.010835,0.036838,-0.003104,0.010877,-0.038177,0.022996,-0.52068,0.037963,-0.267687,-264.234967,1.658361,62.173393
2.5987,0.003678,-0.011144,0.038006,-0.002903,0.010949,-0.036838,0.022996,-0.52068,0.037963,-0.267687,-264.234967,1.658361,62.173393
2.6182,0.00361,-0.010995,0.038412,-0.003252,0.011276,-0.038006,0.023056,-0.520776,0.038006,-0.192683,-264.234967,1.662341,62.173394
2.6383,0.003501,-0.011067,0.03809,-0.003185,0.011125,-0.038412,0.023065,-0.520766,0.038032,-0.192683,-264.234967,1.662341,62.173394
2.6584,0.003453,-0.011179,0.037964,-0.003077,0.011192,-0.03809,0.022922,-0.520697,0.03809,-0.117683,-264.234968,1.657361,62.173395
2.6782,0.003354,-0.010843,0.037772,-0.003026,0.011302,-0.037964,0.022858,-0.520762,0.038019,-0.117683,-264.234968,1.657361,62.173395
2.6979,0.00332,-0.010843,0.037401,-0.002942,0.010962,-0.037772,0.022858,-0.520762,0.038019,-0.117683,-264.234968,1.657361,62.173395
2.7185,0.003802,-0.01088,0.037952,-0.002912,0.01096,-0.037401,0.02239,-0.520487,0.037401,-0.042667,-264.234968,1.662619,62.173397
2.7387,0.003603,-0.010967,0.03792,-0.003386,0.011016,-0.037952,0.022441,-0.520488,0.037438,-0.042667,-264.234968,1.662619,62.173397
2.7584,0.003542,-0.011012,0.036578,-0.003184,0.011096,-0.03792,0.022937,-0.5206,0.03792,0.032305,-264.234969,1.657022,62.173398
2.7782,0.003456,-0.01097,0.037975,-0.003136,0.011134,-0.036578,0.022516,-0.52064,0.037162,0.032305,-264.234969,1.657022,62.173398
2.7985,0.003443,-0.011189,0.03777,-0.003037,0.011093,-0.037975,0.022516,-0.52064,0.037162,0.032305,-264.234969,1.657022,62.173398
2.8183,0.003522,-0.011551,0.037044,-0.003018,0.011311,-0.03777,0.022701,-0.520825,0.03777,0.107316,-264.234969,1.669505,62.1734
2.8385,0.00334,-0.011019,0.037996,-0.003092,0.011673,-0.037044,0.022682,-0.52085,0.037722,0.107316,-264.234969,1.669505,62.1734
2.858,0.003412,-0.011391,0.038927,-0.002919,0.011138,-0.037996,0.022713,-0.52065,0.037996,0.182318,-264.23497,1.659152,62.173401
2.8785,0.003478,-0.011136,0.038183,-0.002966,0.011515,-0.038927,0.023022,-0.52085,0.038522,0.182318,-264.23497,1.659152,62.173401
2.8983,0.003709,-0.010844,0.039285,-0.00305,0.011261,-0.038183,0.023022,-0.52085,0.038522,0.182318,-264.23497,1.659152,62.173401
2.9182,0.003592,-0.010947,0.038556,-0.00328,0.010981,-0.039285,0.023739,-0.52045,0.039285,0.257323,-264.23497,1.660695,62.173402
2.9385,0.00409,-0.011104,0.037302,-0.003167,0.011077,-0.038556,0.023707,-0.520458,0.039238,0.257323,-264.23497,1.660695,62.173402
2.9579,0.003473,-0.011294,0.039458,-0.003673,0.011249,-0.037302,0.02311,-0.520749,0.037302,0.332298,-264.234971,1.658769,62.173404
2.9783,0.003697,-0.010749,0.036454,-0.003025,0.011423,-0.039458,0.023385,-0.520834,0.038535,0.332298,-264.234971,1.658769,62.173404
2.9984,0.00412,-0.011058,0.038627,-0.003303,0.010877,-0.036454,0.023385,-0.520834,0.038535,0.332298,-264.234971,1.658769,62.173404
3.018,0.003531,-0.010946,0.03853,-0.00369,0.011209,-0.038627,0.023815,-0.520677,0.038627,0.407421,-264.234971,1.662012,62.173405
3.038,0.003521,-0.011224,0.037674,-0.003107,0.011074,-0.03853,0.023773,-0.52067,0.038621,0.407421,-264.234971,1.662012,62.173405
3.0582,0.003229,-0.011016,0.038803,-0.003096,0.011349,-0.037674,0.022731,-0.520862,0.037674,0.482321,-264.234972,1.670128,62.173406
3.0781,0.003415,-0.011125,0.037625,-0.002799,0.011133,-0.038803,0.022891,-0.520731,0.038316,0.482321,-264.234972,1.670128,62.173406
3.098,0.003547,-0.010969,0.037992,-0.002994,0.011246,-0.037625,0.022891,-0.520731,0.038316,0.482321,-264.234972,1.670128,62.173406
3.118,0.003285,-0.011393,0.038781,-0.003128,0.011096,-0.037992,0.022918,-0.520601,0.037992,0.557313,-264.234972,1.660334,62.173408
3.1379,0.003242,-0.011174,0.039198,-0.002841,0.011512,-0.038781,0.022927,-0.520626,0.03804,0.557313,-264.234972,1.660334,62.173408
3.1579,0.003238,-0.010929,0.03916,-0.002801,0.011293,-0.039198,0.023227,-0.520782,0.039197,0.632307,-264.234973,1.658067,62.17341
3.178,0.003657,-0.010728,0.037983,-0.002808,0.011048,-0.03916,0.023214,-0.520641,0.039176,0.632307,-264.234973,1.658067,62.17341
3.1981,0.00342,-0.011104,0.037304,-0.003247,0.010859,-0.037983,0.023214,-0.520641,0.039176,0.632307,-264.234973,1.658067,62.17341
3.218,0.003366,-0.011224,0.038365,-0.003004,0.011223,-0.037304,0.022441,-0.520749,0.037304,0.707647,-264.234974,1.651339,62.173413
3.2387,0.003984,-0.011103,0.040464,-0.002933,0.011345,-0.038365,0.022474,-0.520756,0.037377,0.707647,-264.234974,1.651339,62.173413
3.2581,0.003307,-0.011107,0.039111,-0.003532,0.011255,-0.040464,0.024615,-0.520685,0.040462,0.78232,-264.234984,1.665841,62.17344
3.2779,0.003566,-0.011215,0.037839,-0.00287,0.011228,-0.039111,0.023843,-0.520703,0.039698,0.78232,-264.234984,1.665841,62.17344
3.298,0.00367,-0.011031,0.037107,-0.003139,0.011342,-0.037839,0.023843,-0.520703,0.039698,0.78232,-264.234984,1.665841,62.17344
3.3179,0.003526,-0.011014,0.036566,-0.003258,0.01116,-0.037107,0.022588,-0.520676,0.037096,0.857428,-264.235015,1.654929,62.173526
3.3381,0.003188,-0.011125,0.037999,-0.003121,0.011135,-0.036566,0.022553,-0.520676,0.037051,0.857428,-264.235015,1.654929,62.173526
3.3582,0.003886,-0.011136,0.037737,-0.002763,0.011238,-0.037999,0.022556,-0.520741,0.037953,0.932872,-264.235177,1.661668,62.173986
3.3781,0.003565,-0.011095,0.038472,-0.003463,0.011275,-0.037737,0.022881,-0.520758,0.037823,0.932872,-264.235177,1.661668,62.173986
3.3982,0.003705,-0.011166,0.038126,-0.003136,0.011224,-0.038472,0.022881,-0.520758,0.037823,0.932872,-264.235177,1.661668,62.173986
3.418,0.00364,-0.010956,0.037686,-0.003277,0.011299,-0.038126,0.023117,-0.520733,0.037935,1.007447,-264.235694,1.663783,62.175482
3.4382,0.004268,-0.010685,0.039077,-0.003224,0.011086,-0.037686,0.023098,-0.520721,0.037912,1.007447,-264.235694,1.663783,62.175482
3.4578,0.00382,-0.011077,0.037125,-0.003847,0.010844,-0.039077,0.024153,-0.520205,0.038783,1.082304,-264.236723,1.66087,62.178313
3.478,0.003746,-0.011105,0.038151,-0.003406,0.011211,-0.037125,0.023345,-0.520491,0.037798,1.082304,-264.236723,1.66087,62.178313
3.498,0.004057,-0.010704,0.036732,-0.00332,0.011239,-0.038151,0.023345,-0.520491,0.037798,1.082304,-264.236723,1.66087,62.178313
3.5179,0.004226,-0.010757,0.036587,-0.003661,0.010846,-0.036732,0.022695,-0.520163,0.036006,1.157445,-264.238909,1.665064,62.183635
3.5383,0.003813,-0.010449,0.037206,-0.00383,0.010904,-0.036587,0.022706,-0.520175,0.036027,1.157445,-264.238909,1.665064,62.183635
3.5578,0.004775,-0.010173,0.036176,-0.003421,0.010584,-0.037206,0.022682,-0.519886,0.036324,1.232283,-264.242488,1.666625,62.191472
3.5779,0.004199,-0.010369,0.034301,-0.004404,0.010339,-0.036176,0.022978,-0.519833,0.036127,1.232283,-264.242488,1.666625,62.191472
3.5978,0.004591,-0.010288,0.034441,-0.003841,0.010507,-0.034301,0.022978,-0.519833,0.036127,1.232283,-264.242488,1.666625,62.191472
3.618,0.004611,-0.009732,0.032987,-0.004234,0.01044,-0.034441,0.021977,-0.519644,0.032972,1.247783,-264.24727,1.685475,62.201804
3.6384,0.005157,-0.010173,0.033946,-0.004288,0.009879,-0.032987,0.021932,-0.51962,0.032931,1.247783,-264.24727,1.685475,62.201804
3.6582,0.005818,-0.009428,0.032117,-0.004809,0.010342,-0.033946,0.022307,-0.519484,0.032639,1.21835,-264.251657,1.692297,62.214301
3.6782,0.005558,-0.008944,0.032214,-0.005512,0.00961,-0.032117,0.022223,-0.519252,0.032176,1.21835,-264.251657,1.692297,62.214301
3.6981,0.005904,-0.009842,0.031491,-0.005267,0.009118,-0.032214,0.022223,-0.519252,0.032176,1.21835,-264.251657,1.692297,62.214301
3.7184,0.006524,-0.00855,0.031328,-0.005592,0.010023,-0.031491,0.021748,-0.519133,0.029948,1.17523,-264.255954,1.71264,62.226013
3.7384,0.006197,-0.008904,0.030494,-0.006253,0.00875,-0.031328,0.0218,-0.519055,0.03001,1.17523,-264.255954,1.71264,62.226013
3.7582,0.00646,-0.00891,0.030252,-0.005922,0.009089,-0.030494,0.021738,-0.518587,0.030361,1.108027,-264.255955,1.637533,62.227695
3.7781,0.006684,-0.008792,0.030322,-0.006187,0.009102,-0.030252,0.021822,-0.518628,0.030282,1.108027,-264.255955,1.637533,62.227695
3.7979,0.006413,-0.008813,0.02978,-0.006414,0.008991,-0.030322,0.021822,-0.518628,0.030282,1.108027,-264.255955,1.637533,62.227695
3.8182,0.006485,-0.008814,0.031341,-0.006148,0.009,-0.02978,0.021598,-0.518587,0.02978,1.033172,-264.255955,1.562678,62.227694
3.8387,0.00644,-0.008916,0.029689,-0.006206,0.009012,-0.031341,0.021658,-0.518586,0.029887,1.033172,-264.255955,1.562678,62.227694
3.8583,0.005944,-0.009,0.030643,-0.006173,0.009103,-0.029689,0.021579,-0.518691,0.029689,0.978329,-264.255956,1.487779,62.227693
3.878,0.006744,-0.008945,0.030964,-0.005666,0.009178,-0.030643,0.021574,-0.518731,0.030236,0.978329,-264.255956,1.487779,62.227693
3.898,0.006821,-0.008818,0.029661,-0.006464,0.009149,-0.030964,0.021574,-0.518731,0.030236,0.978329,-264.255956,1.487779,62.227693
3.9179,0.00611,-0.008618,0.029692,-0.006557,0.009017,-0.029661,0.021946,-0.518594,0.029661,1.021084,-264.255956,1.41262,62.227691
3.9384,0.0064,-0.009067,0.030124,-0.005851,0.008795,-0.029692,0.021889,-0.518578,0.029663,1.021084,-264.255956,1.41262,62.227691
3.9583,0.006389,-0.008923,0.031171,-0.006124,0.009256,-0.030124,0.021761,-0.518836,0.030124,0.98592,-264.255957,1.337229,62.22769
3.9779,0.006614,-0.008788,0.029835,-0.006108,0.009118,-0.031171,0.022059,-0.518744,0.03072,0.98592,-264.255957,1.337229,62.22769
3.9982,0.00664,-0.008992,0.029579,-0.006349,0.008982,-0.029835,0.022059,-0.518744,0.03072,0.98592,-264.255957,1.337229,62.22769
4.0179,0.00651,-0.009144,0.031179,-0.006371,0.009184,-0.029579,0.021723,-0.518769,0.029579,1.011087,-264.255957,1.262677,62.227689
4.0379,0.006713,-0.008989,0.030228,-0.006222,0.009342,-0.031179,0.021773,-0.518778,0.029696,1.011087,-264.255957,1.262677,62.227689
4.0582,0.006425,-0.008765,0.028785,-0.006438,0.009188,-0.030228,0.022126,-0.518756,0.030228,0.968759,-264.255957,1.187693,62.227688
4.0778,0.006573,-0.008655,0.031055,-0.006171,0.008946,-0.028785,0.021544,-0.518641,0.029407,0.968759,-264.255957,1.187693,62.227688
4.0981,0.006746,-0.008995,0.030544,-0.006301,0.008855,-0.031055,0.021544,-0.518641,0.029407,0.968759,-264.255957,1.187693,62.227688
4.1178,0.006295,-0.008939,0.030319,-0.006468,0.009196,-0.030544,0.022321,-0.518757,0.030544,1.000511,-264.255958,1.112779,62.227687
4.1384,0.006174,-0.009026,0.030127,-0.006021,0.009126,-0.030319,0.022282,-0.518753,0.030529,1.000511,-264.255958,1.112779,62.227687
4.1584,0.006733,-0.009258,0.03106,-0.0059,0.009208,-0.030127,0.021537,-0.518795,0.030127,1.013523,-264.255958,1.037797,62.227686
4.178,0.006509,-0.008791,0.031836,-0.006443,0.009463,-0.03106,0.022128,-0.518919,0.03066,1.013523,-264.255958,1.037797,62.227686
4.1978,0.0064,-0.009038,0.030877,-0.006226,0.008993,-0.031836,0.022128,-0.518919,0.03066,1.013523,-264.255958,1.037797,62.227686
4.2177,0.006653,-0.009009,0.032369,-0.006118,0.009231,-0.030877,0.022145,-0.518795,0.030877,1.000677,-264.255959,0.96265,62.227685
4.2379,0.006127,-0.008884,0.030268,-0.006358,0.009219,-0.032369,0.022215,-0.518791,0.03098,1.000677,-264.255959,0.96265,62.227685
4.2578,0.006451,-0.009048,0.02954,-0.005855,0.009065,-0.030268,0.021561,-0.518651,0.030268,1.033472,-264.255959,0.887668,62.227684
4.2782,0.006498,-0.008982,0.030225,-0.006181,0.009235,-0.02954,0.021535,-0.51875,0.029854,1.033472,-264.255959,0.887668,62.227684
4.2981,0.006265,-0.009311,0.031496,-0.006224,0.009174,-0.030225,0.021535,-0.51875,0.029854,1.033472,-264.255959,0.887668,62.227684
4.3179,0.006574,-0.008831,0.030622,-0.005969,0.009503,-0.031496,0.022325,-0.519058,0.031496,1.028449,-264.25596,0.812793,62.227682
4.3379,0.006572,-0.008837,0.029784,-0.0063,0.009028,-0.030622,0.022316,-0.519026,0.031435,1.028449,-264.25596,0.812793,62.227682
4.358,0.006435,-0.00856,0.029891,-0.006306,0.009029,-0.029784,0.021759,-0.518611,0.029784,0.980325,-264.25596,0.737788,62.227681
4.3778,0.006679,-0.008536,0.029213,-0.006176,0.008749,-0.029891,0.021712,-0.518452,0.029845,0.980325,-264.25596,0.737788,62.227681
4.3987,0.006507,-0.008891,0.030607,-0.006427,0.008727,-0.029213,0.021712,-0.518452,0.029845,0.980325,-264.25596,0.737788,62.227681
4.4183,0.006228,-0.009145,0.030416,-0.006232,0.009086,-0.030607,0.022114,-0.518652,0.030607,0.993574,-264.255961,0.662786,62.22768
4.4384,0.006246,-0.008855,0.030624,-0.005947,0.00933,-0.030416,0.022085,-0.518672,0.030592,0.993574,-264.255961,0.662786,62.22768
4.4587,0.00638,-0.008839,0.02923,-0.005972,0.009042,-0.030624,0.021861,-0.518616,0.030624,0.956622,-264.255961,0.587426,62.227679
4.4786,0.006129,-0.008974,0.030264,-0.006119,0.009021,-0.02923,0.021528,-0.518619,0.029817,0.956622,-264.255961,0.587426,62.227679
4.4979,0.006285,-0.008809,0.031132,-0.005854,0.009156,-0.030264,0.021528,-0.518619,0.029817,0.956622,-264.255961,0.587426,62.227679
4.5184,0.006332,-0.008889,0.028849,-0.006008,0.009,-0.031132,0.02216,-0.518562,0.031132,0.99927,-264.255962,0.51245,62.227678
4.5381,0.006332,-0.008903,0.030113,-0.006073,0.009068,-0.028849,0.022087,-0.518569,0.030983,0.99927,-264.255962,0.51245,62.227678
4.5584,0.00633,-0.008511,0.031315,-0.006062,0.00909,-0.030113,0.021688,-0.518672,0.030113,1.010312,-264.255962,0.437796,62.227677
4.5784,0.006379,-0.009044,0.029581,-0.00606,0.008705,-0.031315,0.022035,-0.518438,0.030797,1.010312,-264.255962,0.437796,62.227677
4.5978,0.006462,-0.009064,0.031073,-0.006109,0.009228,-0.029581,0.022035,-0.518438,0.030797,1.010312,-264.255962,0.437796,62.227677
4.6181,0.006941,-0.008944,0.029299,-0.006178,0.009261,-0.031073,0.022307,-0.518818,0.031073,0.953346,-264.255962,0.362792,62.227676
4.6382,0.006663,-0.00883,0.029266,-0.006676,0.009144,-0.029299,0.022276,-0.518812,0.030945,0.953346,-264.255962,0.362792,62.227676
4.6583,0.006387,-0.008682,0.02975,-0.006402,0.009021,-0.029266,0.021587,-0.518611,0.029266,0.966,-264.255963,0.287696,62.227675
4.6781,0.006181,-0.008502,0.030105,-0.006126,0.008868,-0.02975,0.02157,-0.518523,0.029543,0.966,-264.255963,0.287696,62.227675
4.6982,0.00622,-0.008725,0.028889,-0.005922,0.008684,-0.030105,0.02157,-0.518523,0.029543,0.966,-264.255963,0.287696,62.227675
4.718,0.006864,-0.008629,0.030845,-0.005965,0.008901,-0.028889,0.020951,-0.518512,0.028889,0.919115,-264.255963,0.212669,62.227674
4.7382,0.005836,-0.009069,0.030109,-0.006595,0.008837,-0.030845,0.021064,-0.518503,0.029024,0.919115,-264.255963,0.212669,62.227674
4.7581,0.006341,-0.008818,0.031354,-0.00556,0.009241,-0.030109,0.021189,-0.518838,0.030109,0.993982,-264.255964,0.137802,62.227673
4.7778,0.006227,-0.008781,0.030073,-0.006062,0.009012,-0.031354,0.021837,-0.518684,0.030817,0.993982,-264.255964,0.137802,62.227673
4.7979,0.006608,-0.008736,0.029428,-0.005961,0.008964,-0.030073,0.021837,-0.518684,0.030817,0.993982,-264.255964,0.137802,62.227673
4.8179,0.006855,-0.008972,0.030795,-0.006348,0.008927,-0.029428,0.021614,-0.518516,0.029428,0.987898,-264.255964,0.062791,62.227672
4.8382,0.006464,-0.008557,0.029745,-0.006576,0.009179,-0.030795,0.021684,-0.518532,0.02953,0.987898,-264.255964,0.062791,62.227672
4.8578,0.006431,-0.0088,0.030201,-0.006207,0.008745,-0.029745,0.021632,-0.518331,0.029745,1.005817,-264.255965,-0.012358,62.22767
4.878,0.00647,-0.009001,0.02847,-0.006163,0.00899,-0.030201,0.021746,-0.518466,0.030005,1.005817,-264.255965,-0.012358,62.22767
4.8982,0.006508,-0.008914,0.030699,-0.006211,0.009182,-0.02847,0.021746,-0.518466,0.030005,1.005817,-264.255965,-0.012358,62.22767
4.9182,0.006815,-0.009019,0.029425,-0.006232,0.00911,-0.030699,0.022162,-0.518674,0.030699,0.971671,-264.255965,-0.087311,62.227669
4.9385,0.006415,-0.008948,0.030081,-0.006547,0.009215,-0.029425,0.022139,-0.518683,0.03061,0.971671,-264.255965,-0.087311,62.227669
4.9582,0.006621,-0.008559,0.02952,-0.006143,0.009137,-0.030081,0.021755,-0.518717,0.030081,0.922915,-264.255965,-0.162336,62.227668
4.9789,0.006398,-0.009039,0.031087,-0.006366,0.008751,-0.02952,0.02171,-0.518504,0.029767,0.922915,-264.255965,-0.162336,62.227668
4.9983,0.006884,-0.009025,0.029237,-0.006114,0.009234,-0.031087,0.02171,-0.518504,0.029767,0.922915,-264.255965,-0.162336,62.227668
5.018,0.006649,-0.008786,0.03081,-0.006617,0.009223,-0.029237,0.021792,-0.518807,0.029237,0.928789,-264.255966,-0.237252,62.227667
5.0379,0.006721,-0.008297,0.030178,-0.006376,0.008987,-0.03081,0.021837,-0.518787,0.02936,0.928789,-264.255966,-0.237252,62.227667
5.058,0.006233,-0.008915,0.029683,-0.006468,0.008496,-0.030178,0.02211,-0.518064,0.030178,1.004088,-264.255966,-0.312551,62.227666
5.0779,0.006618,-0.008886,0.028704,-0.005966,0.009096,-0.029683,0.021684,-0.518423,0.029894,1.004088,-264.255966,-0.312551,62.227666
5.098,0.006794,-0.008624,0.030414,-0.006361,0.009073,-0.028704,0.021684,-0.518423,0.029894,1.004088,-264.255966,-0.312551,62.227666
5.1182,0.006669,-0.008412,0.030171,-0.006528,0.008827,-0.030414,0.022302,-0.518389,0.030414,0.995451,-264.255967,-0.387389,62.227665
5.1379,0.006568,-0.008484,0.03059,-0.006412,0.008609,-0.030171,0.022286,-0.518375,0.030398,0.995451,-264.255967,-0.387389,62.227665
5.158,0.006463,-0.008813,0.031504,-0.006305,0.008681,-0.03059,0.022167,-0.518245,0.03059,0.926013,-264.255967,-0.462212,62.227664
5.1779,0.00688,-0.008651,0.030689,-0.006183,0.009012,-0.031504,0.022372,-0.518424,0.031109,0.926013,-264.255967,-0.462212,62.227664
5.1979,0.006825,-0.008645,0.031729,-0.006611,0.008858,-0.030689,0.022372,-0.518424,0.031109,0.926013,-264.255967,-0.462212,62.227664
5.218,0.006464,-0.008654,0.030045,-0.006547,0.008858,-0.031729,0.023004,-0.518389,0.031729,0.992217,-264.255968,-0.537208,62.227663
5.2382,0.006511,-0.008907,0.029039,-0.006201,0.008844,-0.030045,0.022919,-0.518391,0.031611,0.992217,-264.255968,-0.537208,62.227663
5.2582,0.006533,-0.008937,0.030607,-0.00625,0.009092,-0.029039,0.021319,-0.518692,0.029039,0.981321,-264.255968,-0.612208,62.227662
5.2781,0.006526,-0.008859,0.030736,-0.006256,0.009133,-0.030607,0.021788,-0.518696,0.029935,0.981321,-264.255968,-0.612208,62.227662
5.2981,0.006309,-0.008612,0.030516,-0.00625,0.009056,-0.030736,0.021788,-0.518696,0.029935,0.981321,-264.255968,-0.612208,62.227662
5.3179,0.006205,-0.008813,0.031553,-0.006043,0.0088,-0.030516,0.02187,-0.518374,0.030516,0.99278,-264.255969,-0.687324,62.22766
5.338,0.006461,-0.008968,0.031004,-0.005924,0.009004,-0.031553,0.021897,-0.518386,0.030584,0.99278,-264.255969,-0.687324,62.22766
5.358,0.006559,-0.008874,0.029921,-0.00618,0.009164,-0.031004,0.022271,-0.518723,0.031004,0.999167,-264.255972,-0.762205,62.227653
5.3783,0.006318,-0.008954,0.030495,-0.006291,0.009067,-0.029921,0.022011,-0.518679,0.030385,0.999167,-264.255972,-0.762205,62.227653
5.398,0.006685,-0.009194,0.030408,-0.006042,0.009143,-0.030495,0.022011,-0.518679,0.030385,0.999167,-264.255972,-0.762205,62.227653
5.418,0.006595,-0.008658,0.029544,-0.006402,0.009393,-0.030408,0.02219,-0.518958,0.030406,1.047447,-264.255981,-0.837334,62.227629
5.4378,0.006382,-0.008482,0.030361,-0.006336,0.008849,-0.029544,0.022154,-0.518923,0.030348,1.047447,-264.255981,-0.837334,62.227629
5.458,0.006293,-0.00853,0.030142,-0.006121,0.008672,-0.030361,0.021859,-0.518245,0.030351,1.003468,-264.256029,-0.912222,62.227509
5.478,0.006379,-0.008831,0.02874,-0.006033,0.008716,-0.030142,0.021748,-0.518275,0.030232,1.003468,-264.256029,-0.912222,62.227509
5.498,0.006436,-0.008575,0.029325,-0.006123,0.009011,-0.02874,0.021748,-0.518275,0.030232,1.003468,-264.256029,-0.912222,62.227509
5.5181,0.005924,-0.008911,0.030946,-0.006182,0.00876,-0.029325,0.021364,-0.51834,0.029263,0.967403,-264.256244,-0.987209,62.226976
5.5381,0.006708,-0.008549,0.030319,-0.005646,0.00909,-0.030946,0.021386,-0.518361,0.029373,0.967403,-264.256244,-0.987209,62.226976
5.558,0.006738,-0.008758,0.030705,-0.006446,0.008749,-0.030319,0.022121,-0.51828,0.030193,0.948879,-264.256764,-1.062215,62.225627
5.578,0.006461,-0.008603,0.030387,-0.006466,0.00896,-0.030705,0.022272,-0.518412,0.030471,0.948879,-264.256764,-1.062215,62.225627
5.598,0.006264,-0.008641,0.029393,-0.006196,0.008795,-0.030387,0.022272,-0.518412,0.030471,0.948879,-264.256764,-1.062215,62.225627
5.618,0.006549,-0.008969,0.029863,-0.006008,0.008822,-0.029393,0.021173,-0.518352,0.029139,1.023987,-264.257577,-1.137323,62.223578
5.6385,0.006611,-0.00905,0.031787,-0.006278,0.009161,-0.029863,0.021211,-0.518377,0.029181,1.023987,-264.257577,-1.137323,62.223578
5.6584,0.00677,-0.008812,0.028354,-0.00632,0.009255,-0.031787,0.022681,-0.518683,0.0313,1.00528,-264.259829,-1.212291,62.219022
5.678,0.00669,-0.008223,0.030561,-0.006517,0.009,-0.028354,0.021829,-0.518625,0.029546,1.00528,-264.259829,-1.212291,62.219022
5.698,0.00716,-0.008367,0.028608,-0.006436,0.008423,-0.030561,0.021829,-0.518625,0.029546,1.00528,-264.259829,-1.212291,62.219022
5.7181,0.006816,-0.00827,0.027092,-0.006918,0.008569,-0.028608,0.02151,-0.517916,0.02767,0.965743,-264.263061,-1.287447,62.21198
5.7385,0.006649,-0.008672,0.028473,-0.006589,0.008451,-0.027092,0.021444,-0.517921,0.027607,0.965743,-264.263061,-1.287447,62.21198
5.7579,0.007421,-0.007997,0.028141,-0.0064,0.008858,-0.028473,0.020939,-0.518208,0.027439,1.009785,-264.267561,-1.337542,62.202443
5.7786,0.007292,-0.00814,0.025648,-0.007193,0.008203,-0.028141,0.021384,-0.51794,0.027707,1.009785,-264.267561,-1.337542,62.202443
5.7983,0.007164,-0.007527,0.025409,-0.007081,0.008324,-0.025648,0.021384,-0.51794,0.027707,1.009785,-264.267561,-1.337542,62.202443
5.818,0.007363,-0.007792,0.026164,-0.006971,0.007706,-0.025409,0.019871,-0.517053,0.024372,0.93488,-264.270815,-1.313065,62.194384
5.8385,0.007485,-0.007353,0.026758,-0.007157,0.007982,-0.026164,0.019921,-0.517084,0.024467,0.93488,-264.270815,-1.313065,62.194384
5.8579,0.007723,-0.007219,0.025586,-0.007286,0.00755,-0.026758,0.020926,-0.51694,0.026008,0.859878,-264.273868,-1.28375,62.186899
5.8781,0.007661,-0.007569,0.025147,-0.007535,0.007414,-0.025586,0.020811,-0.516975,0.025672,0.859878,-264.273868,-1.28375,62.186899
5.8981,0.007647,-0.007353,0.024456,-0.007468,0.007759,-0.025147,0.020811,-0.516975,0.025672,0.859878,-264.273868,-1.28375,62.186899
5.9178,0.008261,-0.006711,0.021806,-0.007465,0.007537,-0.024456,0.019763,-0.516823,0.023192,0.840807,-264.278129,-1.280543,62.176968
5.9383,0.008119,-0.006819,0.023198,-0.008113,0.006889,-0.021806,0.019728,-0.516798,0.023066,0.840807,-264.278129,-1.280543,62.176968
5.9578,0.008317,-0.006359,0.021792,-0.007958,0.007005,-0.023198,0.019666,-0.516401,0.022267,0.794153,-264.282213,-1.258332,62.167657
5.978,0.008509,-0.006329,0.021715,-0.008176,0.006538,-0.021792,0.019496,-0.516272,0.021879,0.794153,-264.282213,-1.258332,62.167657
5.9978,0.008525,-0.006463,0.023463,-0.00837,0.006512,-0.021715,0.019496,-0.516272,0.021879,0.794153,-264.282213,-1.258332,62.167657
6.0179,0.008729,-0.006296,0.022601,-0.008371,0.006661,-0.023463,0.020206,-0.516094,0.022685,0.719164,-264.285223,-1.188998,62.161326
6.0383,0.008591,-0.005778,0.022663,-0.008584,0.006492,-0.022601,0.020201,-0.516092,0.022654,0.719164,-264.285223,-1.188998,62.161326
6.058,0.008584,-0.005868,0.02056,-0.008458,0.005972,-0.022663,0.019832,-0.515412,0.021856,0.678695,-264.289368,-1.170393,62.153049
6.078,0.00872,-0.005849,0.02121,-0.008462,0.006043,-0.02056,0.019357,-0.51558,0.021015,0.678695,-264.289368,-1.170393,62.153049
6.0979,0.008101,-0.005764,0.020683,-0.008594,0.006032,-0.02121,0.019357,-0.51558,0.021015,0.678695,-264.289368,-1.170393,62.153049
6.1182,0.008981,-0.005563,0.020471,-0.008594,0.006032,-0.02121,0.018229,-0.515351,0.019596,0.705504,-264.293826,-1.170642,62.144336
6.138,0.008678,-0.00571,0.020497,-8.4e-05,5.4e-05,0.0,0.018298,-0.51535,0.019626,0.705504,-264.293826,-1.170642,62.144336
6.1579,0.00859,-0.005656,0.01834,-8.4e-05,5.4e-05,0.0,0.018802,-0.515382,0.019696,0.678038,-264.298151,-1.145739,62.136168
6.1781,0.008596,-0.005458,0.018489,-8.4e-05,5.4e-05,0.0,0.018267,-0.515462,0.018816,0.678038,-264.298151,-1.145739,62.136168
6.1982,0.008984,-0.004918,0.019254,-8.4e-05,5.4e-05,0.0,0.018267,-0.515462,0.018816,0.678038,-264.298151,-1.145739,62.136168
6.2181,0.008785,-0.00513,0.019242,-8.4e-05,5.4e-05,0.0,0.018803,-0.514824,0.019254,0.602887,-264.298151,-1.070588,62.136168
6.2386,0.008809,-0.005567,0.018044,-8.4e-05,5.4e-05,0.0,0.01879,-0.514837,0.019253,0.602887,-264.298151,-1.070588,62.136168
6.2582,0.008573,-0.005396,0.01719,-8.4e-05,5.4e-05,0.0,0.018011,-0.515484,0.018044,0.528028,-264.298151,-0.995728,62.136168
6.2786,0.008422,-0.005519,0.018143,-8.4e-05,5.4e-05,0.0,0.017635,-0.515393,0.017566,0.528028,-264.298151,-0.995728,62.136168
6.2982,0.009157,-0.005391,0.018742,-8.4e-05,5.4e-05,0.0,0.017635,-0.515393,0.017566,0.528028,-264.298151,-0.995728,62.136168
6.3181,0.008934,-0.005137,0.017987,-8.4e-05,5.4e-05,0.0,0.018715,-0.515301,0.018742,0.452964,-264.298151,-0.920665,62.136168
6.3384,0.008993,-0.005154,0.020528,-1e-06,0.0,-1e-06,0.018676,-0.515285,0.018693,0.452964,-264.298151,-0.920665,62.136168
6.3579,0.008892,-0.005372,0.017575,-0.001302,0.000844,-0.003006,0.019461,-0.515047,0.020528,0.378033,-264.298151,-0.845734,62.136168
6.3781,0.008805,-0.005032,0.016699,-0.002535,0.001643,-0.005852,0.018547,-0.515187,0.018847,0.378033,-264.298151,-0.845734,62.136168
6.3982,0.008756,-0.00532,0.018771,-0.003693,0.002393,-0.008527,0.018547,-0.515187,0.018847,0.378033,-264.298151,-0.845734,62.136168
6.4181,0.008898,-0.005532,0.018485,-0.004795,0.003107,-0.011071,0.018328,-0.515231,0.018771,0.453094,-264.298151,-0.920794,62.136168
6.4385,0.008914,-0.005376,0.019634,-0.005822,0.003773,-0.013443,0.018328,-0.515245,0.018752,0.453094,-264.298151,-0.920794,62.136168
6.4583,0.009077,-0.005551,0.019236,-0.006789,0.0044,-0.015677,0.018879,-0.515252,0.019549,0.528035,-264.298677,-0.995736,62.135211
6.478,0.0092,-0.005505,0.01793,-0.007689,0.004984,-0.017755,0.018877,-0.515365,0.019361,0.528035,-264.298677,-0.995736,62.135211
6.4983,0.008767,-0.005384,0.018422,-0.008511,0.005516,-0.019653,0.018877,-0.515365,0.019361,0.528035,-264.298677,-0.995736,62.135211
6.5182,0.008624,-0.00555,0.018262,-0.009278,0.006013,-0.021423,0.017974,-0.515188,0.018033,0.603041,-264.30048,-1.070742,62.13193
6.5383,0.009213,-0.005051,0.01811,-0.009974,0.006464,-0.023031,0.017967,-0.515204,0.018038,0.603041,-264.30048,-1.070742,62.13193
6.5578,0.008828,-0.005282,0.01781,-0.010607,0.006874,-0.024492,0.018172,-0.514837,0.017509,0.651239,-264.304468,-1.118561,62.126131
6.578,0.009086,-0.005075,0.01728,-0.011171,0.00724,-0.025795,0.017986,-0.515031,0.017607,0.651239,-264.304468,-1.118561,62.126131
6.5981,0.008709,-0.005156,0.01827,-0.011669,0.007563,-0.026945,0.017986,-0.515031,0.017607,0.651239,-264.304468,-1.118561,62.126131
6.6182,0.008857,-0.004659,0.016173,-0.012104,0.007845,-0.027949,0.01756,-0.514812,0.017228,0.651239,-264.309471,-1.118561,62.117864
6.6385,0.009009,-0.004902,0.015573,-0.012467,0.00808,-0.028788,0.017517,-0.51479,0.017129,0.651239,-264.309471,-1.118561,62.117864
6.6579,0.009045,-0.004056,0.014692,-0.012767,0.008274,-0.02948,0.016497,-0.514556,0.014535,0.651239,-264.315332,-1.118561,62.107196
6.6781,0.009305,-0.004491,0.015263,-0.013,0.008426,-0.030018,0.016462,-0.514203,0.014492,0.651239,-264.315332,-1.118561,62.107196
6.6984,0.008838,-0.004259,0.013968,-0.013165,0.008533,-0.0304,0.016462,-0.514203,0.014492,0.651239,-264.315332,-1.118561,62.107196
6.7179,0.008989,-0.003814,0.012427,-0.013265,0.008598,-0.030631,0.015351,-0.513825,0.012569,0.651239,-264.321603,-1.118561,62.095784
6.7382,0.00884,-0.004029,0.014253,-0.013298,0.008619,-0.030707,0.015333,-0.513811,0.012522,0.651239,-264.321603,-1.118561,62.095784
6.7579,0.009208,-0.003738,0.011253,-0.013265,0.008597,-0.03063,0.015595,-0.513654,0.013079,0.651239,-264.328235,-1.118561,62.083712
6.778,0.009571,-0.003178,0.012544,-0.013165,0.008532,-0.030399,0.015159,-0.513643,0.011884,0.651239,-264.328235,-1.118561,62.083712
6.7986,0.009512,-0.003475,0.012805,-0.012994,0.008422,-0.030004,0.015159,-0.513643,0.011884,0.651239,-264.328235,-1.118561,62.083712
6.8187,0.009583,-0.00305,0.00964,-0.012762,0.008271,-0.029469,0.01539,-0.513022,0.01131,0.651239,-264.334913,-1.118561,62.071558
6.8383,0.009299,-0.003323,0.008546,-0.012463,0.008077,-0.028778,0.015319,-0.513012,0.01117,0.651239,-264.334913,-1.118561,62.071558
6.8586,0.009722,-0.002628,0.008541,-0.012098,0.007841,-0.027936,0.013152,-0.512982,0.007385,0.651239,-264.341447,-1.118561,62.059665
6.8784,0.009235,-0.002554,0.007819,-0.011666,0.007561,-0.026937,0.013609,-0.512731,0.007888,0.651239,-264.341447,-1.118561,62.059665
6.8981,0.009194,-0.002542,0.008271,-0.01117,0.00724,-0.025793,0.013609,-0.512731,0.007888,0.651239,-264.341447,-1.118561,62.059665
6.9183,0.009549,-0.002494,0.007141,-0.010604,0.006873,-0.024487,0.012803,-0.512136,0.00687,0.651239,-264.347715,-1.118561,62.048257
6.9379,0.009508,-0.002211,0.007342,-0.009971,0.006463,-0.023025,0.012813,-0.512148,0.006852,0.651239,-264.347715,-1.118561,62.048257
6.958,0.009741,-0.00152,0.006557,-0.009264,0.006004,-0.021392,0.012819,-0.511921,0.006344,0.651239,-264.353333,-1.118561,62.038032
6.9783,0.009716,-0.001657,0.005219,-0.008508,0.005514,-0.019645,0.012914,-0.511652,0.006338,0.651239,-264.353333,-1.118561,62.038032
6.9984,0.009885,-0.002113,0.006561,-0.007679,0.004977,-0.017732,0.012914,-0.511652,0.006338,0.651239,-264.353333,-1.118561,62.038032
7.0182,0.00999,-0.001538,0.004271,-0.006779,0.004394,-0.015654,0.012743,-0.51179,0.005439,0.651239,-264.358348,-1.118561,62.028904
7.0384,0.009621,-0.001393,0.004597,-0.005816,0.00377,-0.01343,0.012696,-0.511766,0.00534,0.651239,-264.358348,-1.118561,62.028904
7.0578,0.009996,-0.001273,0.002117,-0.004782,0.003099,-0.011042,0.011667,-0.511197,0.003911,0.651239,-264.36221,-1.118561,62.021875
7.0778,0.009796,-0.001509,0.003274,-0.003681,0.002386,-0.0085,0.011293,-0.511216,0.002804,0.651239,-264.36221,-1.118561,62.021875
7.0979,0.0096,-0.001421,0.004248,-0.002522,0.001635,-0.005824,0.011293,-0.511216,0.002804,0.651239,-264.36221,-1.118561,62.021875
7.118,0.010226,-0.0017,0.002937,-0.001296,0.00084,-0.002993,0.011482,-0.511234,0.003594,0.651239,-264.365135,-1.118561,62.016551
7.1384,0.010179,-0.000743,0.003561,-1e-06,0.0,-1e-06,0.011491,-0.511259,0.003535,0.651239,-264.365135,-1.118561,62.016551
7.158,0.010267,-0.00113,0.002611,0.0,0.0,0.0,0.011897,-0.510677,0.003334,0.651239,-264.366404,-1.118561,62.014242
7.1781,0.009905,-0.001067,0.002478,0.0,0.0,0.0,0.011717,-0.510923,0.002899,0.651239,-264.366404,-1.118561,62.014242
7.198,0.01022,-0.001137,0.003382,0.0,0.0,0.0,0.011717,-0.510923,0.002899,0.651239,-264.366404,-1.118561,62.014242
7.2179,0.00981,-0.001003,0.003636,0.0,0.0,0.0,0.011945,-0.511134,0.003382,0.651239,-264.366404,-1.118561,62.014241
7.2379,0.0098,-0.001138,0.002068,0.0,0.0,0.0,0.011924,-0.511124,0.003401,0.651239,-264.366404,-1.118561,62.014241
7.2578,0.009784,-0.001029,0.003619,0.0,0.0,0.0,0.010855,-0.511137,0.002068,0.651239,-264.366404,-1.118561,62.014241
7.2778,0.009888,-0.001056,0.003499,0.0,0.0,0.0,0.011294,-0.511074,0.002947,0.651239,-264.366404,-1.118561,62.014241
7.2979,0.01029,-0.000942,0.002871,0.0,0.0,0.0,0.011294,-0.511074,0.002947,0.651239,-264.366404,-1.118561,62.014241
7.3186,0.010172,-0.000868,0.002747,0.0,0.0,0.0,0.011754,-0.51094,0.002871,0.651239,-264.366404,-1.118561,62.014241
7.3379,0.009937,-0.000715,0.003104,0.0,0.0,0.0,0.011742,-0.510935,0.002863,0.651239,-264.366404,-1.118561,62.014241
7.3581,0.009644,-0.001264,0.003816,-0.0001,7e-06,0.0,0.01152,-0.510713,0.003104,0.651239,-264.366404,-1.118561,62.014241
7.3782,0.010004,-0.000924,0.002145,-0.0001,7e-06,0.0,0.01156,-0.511024,0.003509,0.651239,-264.366404,-1.118561,62.014241
7.3979,0.009747,-0.000775,0.000888,-0.0001,7e-06,0.0,0.01156,-0.511024,0.003509,0.651239,-264.366404,-1.118561,62.014241
7.418,0.009701,-0.000759,0.003761,-0.0001,7e-06,0.0,0.010199,-0.510775,0.000888,0.651239,-264.366404,-1.118561,62.014241
7.4384,0.009798,-0.000811,0.003539,-0.0001,7e-06,0.0,0.010293,-0.510774,0.001077,0.651239,-264.366404,-1.118561,62.014241
7.4583,0.010128,-0.001095,0.003646,-0.0001,7e-06,0.0,0.011603,-0.510808,0.003539,0.576266,-264.366404,-1.043587,62.014241
7.4779,0.00994,-0.000943,0.003377,-0.0001,7e-06,0.0,0.011819,-0.510967,0.003599,0.576266,-264.366404,-1.043587,62.014241
7.498,0.009883,-0.00096,0.000887,-0.0001,7e-06,0.0,0.011819,-0.510967,0.003599,0.576266,-264.366404,-1.043587,62.014241
7.5183,0.009935,-0.000962,0.002445,-0.0001,7e-06,0.0,0.010336,-0.51096,0.000887,0.501233,-264.366404,-0.968554,62.014241
7.5384,0.009986,-0.001011,0.002787,-0.0001,7e-06,0.0,0.010391,-0.51096,0.00099,0.501233,-264.366404,-0.968554,62.014241
7.5584,0.010204,-0.001337,0.004882,-0.0001,7e-06,0.0,0.011407,-0.511009,0.002787,0.426231,-264.366404,-0.893553,62.014241
7.578,0.010318,-0.001307,0.00303,-0.001414,0.000106,-0.000442,0.012145,-0.511194,0.003988,0.426231,-264.366404,-0.893553,62.014241
7.5985,0.009949,-0.001126,0.003426,-0.002797,0.00021,-0.000874,0.012145,-0.511194,0.003988,0.426231,-264.366404,-0.893553,62.014241
7.618,0.009873,-0.001087,0.004003,-0.004103,0.000308,-0.001282,0.011696,-0.511123,0.003426,0.351098,-264.366404,-0.818419,62.014241
7.6382,0.009877,-0.000886,0.002812,-0.005333,0.0004,-0.001666,0.011711,-0.511121,0.003467,0.351098,-264.366404,-0.818419,62.014241
7.6582,0.009837,-0.000822,0.003921,-0.006491,0.000487,-0.002028,0.011311,-0.510884,0.002812,0.276227,-264.366407,-0.743549,62.014239
7.6779,0.00977,-0.001157,0.003147,-0.007575,0.000569,-0.002366,0.011611,-0.510846,0.003445,0.276227,-264.366407,-0.743549,62.014239
7.6985,0.00983,-0.000962,0.004032,-0.008579,0.000644,-0.00268,0.011611,-0.510846,0.003445,0.276227,-264.366407,-0.743549,62.014239
7.7182,0.010199,-0.000747,0.002973,-0.009514,0.000714,-0.002972,0.011883,-0.510957,0.004029,0.20117,-264.366436,-0.668492,62.014209
7.7383,0.009722,-0.000947,0.002948,-0.010373,0.000779,-0.00324,0.011872,-0.510943,0.003963,0.20117,-264.366436,-0.668492,62.014209
7.758,0.009904,-0.001146,0.002241,-0.011158,0.000838,-0.003486,0.011208,-0.51094,0.002937,0.126237,-264.366632,-0.593559,62.014007
7.778,0.009576,-0.000442,0.00233,-0.011867,0.000891,-0.003707,0.011115,-0.511055,0.002543,0.126237,-264.366632,-0.593559,62.014007
7.7979,0.009879,-0.00109,0.002599,-0.012503,0.000939,-0.003906,0.011115,-0.511055,0.002543,0.126237,-264.366632,-0.593559,62.014007
7.8181,0.00998,-0.000609,0.003598,-0.013065,0.000981,-0.004081,0.011127,-0.511072,0.002557,0.11519,-264.367311,-0.518503,62.013309
7.8379,0.009784,-0.000888,0.002434,-0.01355,0.001017,-0.004233,0.011175,-0.511037,0.002632,0.11519,-264.367311,-0.518503,62.013309
7.8583,0.009702,-0.000812,0.004247,-0.013962,0.001048,-0.004362,0.010867,-0.51086,0.002359,0.11519,-264.369013,-0.443428,62.011559
7.8784,0.009642,-0.000832,0.002247,-0.014298,0.001074,-0.004467,0.011416,-0.510827,0.003423,0.11519,-264.369013,-0.443428,62.011559
7.8981,0.009952,-0.000796,0.003225,-0.014561,0.001093,-0.004549,0.011416,-0.510827,0.003423,0.11519,-264.369013,-0.443428,62.011559
7.918,0.009476,-0.001029,0.002207,-0.01475,0.001108,-0.004608,0.01122,-0.510745,0.003072,0.11519,-264.372186,-0.368545,62.008299
7.9384,0.009367,-0.00105,0.002208,-0.014863,0.001116,-0.004643,0.011169,-0.510763,0.00301,0.11519,-264.372186,-0.368545,62.008299
7.9582,0.009129,-0.000969,0.001844,-0.014903,0.001119,-0.004656,0.01003,-0.511007,0.002049,0.11519,-264.377037,-0.29355,62.003312
7.9781,0.009007,-0.000791,0.002037,-0.014868,0.001116,-0.004645,0.009993,-0.510979,0.001912,0.11519,-264.377037,-0.29355,62.003312
7.9979,0.008757,-0.000761,0.002686,-0.014757,0.001108,-0.00461,0.009993,-0.510979,0.001912,0.11519,-264.377037,-0.29355,62.003312
8.0182,0.008209,-0.000999,0.00071,-0.014573,0.001094,-0.004553,0.009417,-0.510707,0.002464,0.11519,-264.382915,-0.259875,61.99727
8.0381,0.008488,-0.000883,0.003581,-0.014315,0.001075,-0.004472,0.00934,-0.510726,0.002338,0.11519,-264.382915,-0.259875,61.99727
8.0581,0.007972,-0.001082,0.002047,-0.01398,0.00105,-0.004367,0.009744,-0.510839,0.003403,0.11519,-264.388857,-0.259875,61.991163
8.078,0.007871,-0.00082,0.002092,-0.013575,0.001019,-0.004241,0.009258,-0.510971,0.002609,0.11519,-264.388857,-0.259875,61.991163
8.098,0.007937,-0.000408,0.003015,-0.013091,0.000983,-0.00409,0.009258,-0.510971,0.002609,0.11519,-264.388857,-0.259875,61.991163
8.1182,0.007182,-0.000885,0.000857,-0.012534,0.000941,-0.003916,0.008778,-0.510356,0.002797,0.11519,-264.394621,-0.259875,61.985238
8.1384,0.007251,-0.000729,0.000415,-0.011904,0.000894,-0.003719,0.008681,-0.510391,0.002659,0.11519,-264.394621,-0.259875,61.985238
8.1578,0.006598,-0.000516,0.001021,-0.011183,0.00084,-0.003494,0.006957,-0.510691,0.000257,0.11519,-264.399892,-0.259875,61.97982
8.178,0.006805,-0.000787,0.000639,-0.010417,0.000782,-0.003254,0.006985,-0.510586,0.000672,0.11519,-264.399892,-0.259875,61.97982
8.1978,0.006536,-0.000737,0.002024,-0.009563,0.000718,-0.002987,0.006985,-0.510586,0.000672,0.11519,-264.399892,-0.259875,61.97982
8.2181,0.006156,-0.000563,0.00051,-0.008631,0.000648,-0.002696,0.00699,-0.510694,0.001844,0.11519,-264.404685,-0.259875,61.974893
8.2385,0.005924,-0.000705,0.002385,-0.007629,0.000573,-0.002383,0.006935,-0.510684,0.001746,0.11519,-264.404685,-0.259875,61.974893
8.258,0.005932,-0.000607,-0.00089,-0.006549,0.000492,-0.002046,0.00677,-0.510677,0.002269,0.11519,-264.408536,-0.259875,61.970934
8.2789,0.005839,-0.000731,0.001267,-0.0054,0.000405,-0.001687,0.005989,-0.510634,0.000459,0.11519,-264.408536,-0.259875,61.970934
8.2984,0.005674,-0.000794,0.001062,-0.004169,0.000313,-0.001302,0.005989,-0.510634,0.000459,0.11519,-264.408536,-0.259875,61.970934
8.3181,0.005678,-0.000599,0.000788,-0.002865,0.000215,-0.000895,0.005844,-0.510766,0.000946,0.11519,-264.411606,-0.259875,61.967779
8.3383,0.005036,-0.000494,0.001396,-0.001493,0.000112,-0.000466,0.00585,-0.510755,0.000933,0.11519,-264.411606,-0.259875,61.967779
8.3578,0.004911,-0.000243,0.000666,-3.6e-05,3e-06,-1.1e-05,0.005587,-0.510481,0.001345,0.11519,-264.413288,-0.259875,61.96605
8.3784,0.005221,-0.000669,0.001454,0.0,0.0,0.0,0.005374,-0.510343,0.00095,0.11519,-264.413288,-0.259875,61.96605
8.3984,0.005114,-0.000396,0.00104,0.0,0.0,0.0,0.005374,-0.510343,0.00095,0.11519,-264.413288,-0.259875,61.96605
8.4181,0.004964,-0.000427,0.0013,0.0,0.0,0.0,0.005571,-0.51039,0.001017,0.11519,-264.413888,-0.259875,61.965433
8.4384,0.005184,-0.000693,0.000314,0.0,0.0,0.0,0.005573,-0.510392,0.001035,0.11519,-264.413888,-0.259875,61.965433
8.4579,0.004811,-0.000809,0.000716,0.0,0.0,0.0,0.005344,-0.510693,0.000314,0.11519,-264.413888,-0.259875,61.965433
8.478,0.005327,-0.000427,0.002475,0.0,0.0,0.0,0.005249,-0.510759,0.000543,0.11519,-264.413888,-0.259875,61.965433
8.4981,0.005066,-0.000601,0.001791,0.0,0.0,0.0,0.005249,-0.510759,0.000543,0.11519,-264.413888,-0.259875,61.965433
8.5181,0.005129,-0.00062,0.000577,0.0,0.0,0.0,0.005979,-0.5106,0.001791,0.11519,-264.413888,-0.259875,61.965433
8.5383,0.005029,-0.000231,0.00086,0.0,0.0,0.0,0.005941,-0.510601,0.001709,0.11519,-264.413888,-0.259875,61.965433
8.5581,0.005112,-0.000356,0.001223,0.0,0.0,0.0,0.005468,-0.510231,0.00086,0.11519,-264.413888,-0.259875,61.965433
8.578,0.004743,-0.0005,-0.000201,0.0,0.0,0.0,0.005621,-0.510302,0.001068,0.11519,-264.413888,-0.259875,61.965433
8.5979,0.005189,-0.00034,-0.001033,-9.9e-05,1e-05,0.0,0.005621,-0.510302,0.001068,0.11519,-264.413888,-0.259875,61.965433
8.6182,0.005581,-0.000527,0.002383,-9.9e-05,1e-05,0.0,0.004662,-0.51034,-0.001033,0.11519,-264.413888,-0.259875,61.965433
8.6379,0.005212,-0.000404,0.00162,-9.9e-05,1e-05,0.0,0.004812,-0.510353,-0.000794,0.11519,-264.413888,-0.259875,61.965433
8.658,0.005151,-0.000414,0.001808,-9.9e-05,1e-05,0.0,0.006037,-0.510403,0.00162,0.040283,-264.413901,-0.184968,61.96542
8.678,0.005318,-0.000807,0.000367,-9.9e-05,1e-05,0.0,0.006057,-0.510409,0.001727,0.040283,-264.413901,-0.184968,61.96542
8.698,0.004911,-0.000571,0.000676,-9.9e-05,1e-05,0.0,0.006057,-0.510409,0.001727,0.040283,-264.413901,-0.184968,61.96542
8.718,0.004895,-0.000493,0.001101,-9.9e-05,1e-05,0.0,0.005253,-0.510571,0.000676,-0.034843,-264.413927,-0.109842,61.965395
8.7386,0.004885,-0.000658,0.000405,-9.9e-05,1e-05,0.0,0.005267,-0.510565,0.000706,-0.034843,-264.413927,-0.109842,61.965395
8.7579,0.005121,-0.000494,-0.001456,-9.9e-05,1e-05,0.0,0.005088,-0.510658,0.000405,-0.104864,-264.413964,-0.104864,61.965358
8.7779,0.00515,-0.000702,-0.000101,-9.9e-05,1e-05,0.0,0.004681,-0.510563,-0.000662,-0.104864,-264.413964,-0.104864,61.965358
8.798,0.004664,-0.000421,-3e-05,-3e-06,0.0,0.0,0.004681,-0.510563,-0.000662,-0.104864,-264.413964,-0.104864,61.965358
8.818,0.004946,-0.000725,0.000555,-0.000696,7.3e-05,2.9e-05,0.004644,-0.510421,-3e-05,-0.104864,-264.414004,-0.104864,61.965318
8.8384,0.005007,-0.000293,-0.000475,-0.001353,0.000142,5.7e-05,0.004686,-0.510443,1.2e-05,-0.104864,-264.414004,-0.104864,61.965318
8.8579,0.004878,-0.000419,-9.7e-05,-0.001975,0.000208,8.4e-05,0.004764,-0.510293,-0.000475,-0.130396,-264.414005,-0.079193,61.965316
8.8783,0.005312,-0.000712,0.000438,-0.002561,0.00027,0.000109,0.004801,-0.510365,-0.000259,-0.130396,-264.414005,-0.079193,61.965316
8.8985,0.005118,-0.000517,0.000695,-0.003113,0.000328,0.000132,0.004801,-0.510365,-0.000259,-0.130396,-264.414005,-0.079193,61.965316
8.9183,0.005205,-0.000623,-0.000289,-0.003631,0.000382,0.000154,0.005407,-0.51051,0.000698,-0.130396,-264.41455,-0.079193,61.964774
8.9383,0.004739,-0.000309,0.001001,-0.004109,0.000432,0.000174,0.005382,-0.510517,0.000634,-0.130396,-264.41455,-0.079193,61.964774
8.9582,0.004881,-0.000218,0.001947,-0.004554,0.000479,0.000193,0.005129,-0.510297,0.001006,-0.130396,-264.415806,-0.079193,61.963525
8.978,0.004859,-0.00059,-0.000207,-0.004964,0.000523,0.00021,0.005537,-0.51025,0.001542,-0.130396,-264.415806,-0.079193,61.963525
8.998,0.004589,-0.00083,0.000835,-0.005337,0.000562,0.000226,0.005537,-0.51025,0.001542,-0.130396,-264.415806,-0.079193,61.963525
9.018,0.004745,-0.000575,0.000808,-0.005677,0.000598,0.000241,0.004815,-0.510809,0.000843,-0.130396,-264.417464,-0.079193,61.961876
9.0384,0.004645,-0.000253,0.000403,-0.005977,0.000629,0.000253,0.004833,-0.510793,0.000841,-0.130396,-264.417464,-0.079193,61.961876
9.058,0.004128,-0.0005,0.000942,-0.006243,0.000657,0.000265,0.004644,-0.510232,0.000411,-0.130396,-264.419619,-0.079193,61.959732
9.078,0.004307,-0.000455,0.000363,-0.006474,0.000681,0.000274,0.004597,-0.510383,0.000716,-0.130396,-264.419619,-0.079193,61.959732
9.0982,0.004188,-0.000447,0.000118,-0.00667,0.000702,0.000283,0.004597,-0.510383,0.000716,-0.130396,-264.419619,-0.079193,61.959732
9.1179,0.004027,-0.000939,0.001071,-0.00683,0.000719,0.00029,0.003957,-0.510417,0.00013,-0.130396,-264.422027,-0.079193,61.957337
9.1384,0.004061,-0.00031,0.000904,-0.006954,0.000732,0.000295,0.00399,-0.51045,0.000192,-0.130396,-264.422027,-0.079193,61.957337
9.158,0.00333,-0.000346,0.002395,-0.007044,0.000741,0.000299,0.004265,-0.510283,0.000915,-0.130396,-264.424722,-0.079193,61.954657
9.1781,0.003501,-0.000193,0.001438,-0.007097,0.000747,0.000301,0.004397,-0.510315,0.001765,-0.130396,-264.424722,-0.079193,61.954657
9.198,0.00331,-0.00016,0.001443,-0.007115,0.000749,0.000302,0.004397,-0.510315,0.001765,-0.130396,-264.424722,-0.079193,61.954657
9.2182,0.003328,-0.000679,0.000688,-0.007097,0.000747,0.000301,0.003708,-0.510125,0.001457,-0.130396,-264.427526,-0.079193,61.951868
9.2384,0.003079,-0.000231,0.000583,-0.007043,0.000741,0.000299,0.003697,-0.510164,0.001402,-0.130396,-264.427526,-0.079193,61.951868
9.2579,0.003117,-0.00018,0.001291,-0.006954,0.000732,0.000295,0.003099,-0.510202,0.000595,-0.130396,-264.430393,-0.079193,61.949016
9.2779,0.003016,-0.000423,0.000925,-0.006829,0.000719,0.00029,0.003444,-0.510186,0.000986,-0.130396,-264.430393,-0.079193,61.949016
9.298,0.002753,-0.000102,0.00162,-0.00667,0.000702,0.000283,0.003444,-0.510186,0.000986,-0.130396,-264.430393,-0.079193,61.949016
