mach0312/omni-docking-bench/src/icros_test_setup/results/kinematic_sample/timeseries/trial_027.csv
t,x,y,yaw,vx,vy,wz,bl_x,bl_y,bl_yaw,front_steering_joint,front_wheel_joint,rear_steering_joint,rear_wheel_joint
0.0,-0.047081,0.027398,0.087976,0.008635,0.000757,0.002752,-0.00434,-0.48096,0.08651,0.275216,-264.337932,-0.106557,62.74026
0.0006,-0.047877,0.027453,0.085973,0.004737,0.000415,0.00151,-0.004941,-0.480862,0.084511,0.275216,-264.333983,-0.106557,62.744082
0.0011,-0.047398,0.027903,0.08528,0.003897,0.000342,0.001242,-0.004941,-0.480862,0.084511,0.275216,-264.330395,-0.106557,62.747555
0.0016,-0.04688,0.027648,0.085704,0.003005,0.000264,0.000958,-0.004358,-0.480652,0.085427,0.275216,-264.327514,-0.106557,62.750343
0.0019,-0.04733,0.027892,0.086217,0.002056,0.00018,0.000655,-0.004358,-0.480652,0.085427,0.275216,-264.325219,-0.106557,62.752564
0.0023,-0.046845,0.027944,0.085348,0.001056,9.3e-05,0.000337,-0.004358,-0.480652,0.085427,0.275216,-264.32397,-0.106557,62.753773
0.0027,-0.046986,0.027782,0.08784,0.0,0.0,0.0,-0.003203,-0.480424,0.087109,0.275216,-264.323531,-0.106557,62.754198
0.003,-0.047038,0.027386,0.085312,0.0,0.0,0.0,-0.003231,-0.480448,0.086991,0.275216,-264.323531,-0.106557,62.754198
0.0033,-0.047021,0.027666,0.087102,0.0,0.0,0.0,-0.003231,-0.480448,0.086991,0.275216,-264.323531,-0.106557,62.754198
0.0035,-0.046803,0.027509,0.085003,0.0,0.0,0.0,-0.003461,-0.480419,0.087028,0.275216,-264.323531,-0.106557,62.754198
0.0184,-0.046858,0.027321,0.08656,0.016,-0.016,-0.03,-0.003503,-0.480649,0.085003,0.275216,-264.323531,-0.106557,62.754198
0.038,-0.04675,0.027597,0.087662,0.032,-0.031269,-0.05,-0.003095,-0.480716,0.085867,0.275216,-264.323531,-0.106557,62.754198
0.058,-0.04691,0.027671,0.084984,0.044154,-0.031584,-0.05,-0.003095,-0.480716,0.085867,0.275216,-264.323531,-0.106557,62.754198
0.0779,-0.046757,0.027576,0.086558,0.044392,-0.031553,-0.05,-0.003621,-0.480488,0.084984,0.275216,-264.323531,-0.106557,62.754198
0.0983,-0.047008,0.027446,0.086363,0.044198,-0.031515,-0.05,-0.003548,-0.48049,0.085103,0.275216,-264.323531,-0.106557,62.754198
0.1181,-0.046845,0.027791,0.087649,0.044465,-0.031398,-0.05,-0.003017,-0.480653,0.086363,0.199938,-264.323528,-0.031279,62.7542
0.1384,-0.046668,0.027558,0.086343,0.044232,-0.031785,-0.05,-0.002553,-0.480425,0.087094,0.199938,-264.323528,-0.031279,62.7542
0.158,-0.04679,0.027666,0.085617,0.044118,-0.03148,-0.05,-0.002553,-0.480425,0.087094,0.199938,-264.323528,-0.031279,62.7542
0.178,-0.046999,0.027416,0.086027,0.044253,-0.031566,-0.05,-0.003178,-0.480466,0.085617,0.125125,-264.323525,-0.022121,62.754201
0.198,-0.046855,0.027391,0.086249,0.04447,-0.031352,-0.05,-0.003178,-0.480481,0.085644,0.125125,-264.323525,-0.022121,62.754201
0.2179,-0.046705,0.027744,0.086719,0.044321,-0.031326,-0.05,-0.002922,-0.480713,0.086249,0.050221,-264.323522,-0.021354,62.754203
0.238,-0.046473,0.027629,0.085252,0.044126,-0.031685,-0.05,-0.002703,-0.480502,0.086514,0.050221,-264.323522,-0.021354,62.754203
0.2581,-0.046968,0.027416,0.085978,0.043951,-0.031485,-0.05,-0.002703,-0.480502,0.086514,0.050221,-264.323522,-0.021354,62.754203
0.2779,-0.047166,0.027022,0.085056,0.04444,-0.031348,-0.05,-0.003173,-0.4807,0.085978,-0.024779,-264.323519,-0.018322,62.754205
0.2984,-0.046777,0.027759,0.086398,0.0447,-0.030932,-0.05,-0.003217,-0.480728,0.085918,-0.024779,-264.323519,-0.018322,62.754205
0.3183,-0.046713,0.027906,0.08499,0.044207,-0.031692,-0.05,-0.002768,-0.480339,0.086398,-0.099763,-264.323516,-0.021564,62.754207
0.3379,-0.047091,0.02755,0.085502,0.044176,-0.031771,-0.05,-0.003136,-0.48029,0.085604,-0.099763,-264.323516,-0.021564,62.754207
0.3584,-0.046805,0.02759,0.085292,0.044567,-0.031471,-0.05,-0.003136,-0.48029,0.085604,-0.099763,-264.323516,-0.021564,62.754207
0.3783,-0.046827,0.027624,0.088109,0.044284,-0.031477,-0.05,-0.003358,-0.480556,0.085292,-0.174792,-264.323513,-0.008816,62.754208
0.3991,-0.046752,0.027711,0.088035,0.044215,-0.031637,-0.05,-0.003277,-0.480547,0.085454,-0.174792,-264.323513,-0.008816,62.754208
0.418,-0.046873,0.027349,0.08623,0.044135,-0.031714,-0.05,-0.001912,-0.480314,0.088035,-0.249781,-264.323509,-0.020943,62.754211
0.4381,-0.04735,0.027727,0.086887,0.044343,-0.031285,-0.05,-0.002487,-0.480559,0.087035,-0.249781,-264.323509,-0.020943,62.754211
0.4581,-0.046857,0.02784,0.08603,0.044766,-0.031732,-0.05,-0.002487,-0.480559,0.087035,-0.249781,-264.323509,-0.020943,62.754211
0.4785,-0.046886,0.027867,0.087354,0.044291,-0.031763,-0.05,-0.003035,-0.480274,0.08603,-0.324778,-264.323501,-0.02487,62.754215
0.4983,-0.04679,0.02757,0.086316,0.044276,-0.031851,-0.05,-0.002992,-0.480268,0.086119,-0.324778,-264.323501,-0.02487,62.754215
0.5179,-0.046922,0.027844,0.08568,0.044239,-0.031502,-0.05,-0.002821,-0.480531,0.086314,-0.399777,-264.323459,-0.02667,62.75424
0.5379,-0.046754,0.02759,0.086234,0.044367,-0.031758,-0.05,-0.00308,-0.480392,0.085955,-0.399777,-264.323459,-0.02667,62.75424
0.558,-0.046694,0.027126,0.085993,0.044204,-0.031514,-0.05,-0.00308,-0.480392,0.085955,-0.399777,-264.323459,-0.02667,62.75424
0.5781,-0.046573,0.027263,0.086459,0.044191,-0.031036,-0.05,-0.002876,-0.480994,0.085985,-0.474833,-264.323284,-0.029667,62.754341
0.5978,-0.046831,0.027773,0.086383,0.044045,-0.031183,-0.05,-0.002855,-0.480984,0.086013,-0.474833,-264.323284,-0.029667,62.754341
0.6182,-0.046794,0.027811,0.086957,0.044261,-0.03171,-0.05,-0.002781,-0.480339,0.086355,-0.549779,-264.322593,-0.022096,62.754743
0.6383,-0.04683,0.02755,0.085962,0.044202,-0.031769,-0.05,-0.002617,-0.480298,0.086693,-0.549779,-264.322593,-0.022096,62.754743
0.6583,-0.04654,0.027428,0.087877,0.044291,-0.031469,-0.05,-0.002617,-0.480298,0.086693,-0.549779,-264.322593,-0.022096,62.754743
0.6782,-0.046366,0.027495,0.08691,0.043953,-0.031406,-0.05,-0.001593,-0.480666,0.087754,-0.624774,-264.320447,-0.014648,62.755989
0.6982,-0.046674,0.027427,0.085003,0.043804,-0.031415,-0.05,-0.00162,-0.480662,0.087697,-0.624774,-264.320447,-0.014648,62.755989
0.7182,-0.046067,0.027348,0.084953,0.044177,-0.031291,-0.05,-0.003038,-0.480852,0.08477,-0.699784,-264.3158,-0.021036,62.759131
0.7381,-0.046131,0.027754,0.086022,0.04358,-0.031158,-0.05,-0.002858,-0.480845,0.084844,-0.699784,-264.3158,-0.021036,62.759131
0.7583,-0.045868,0.027698,0.08685,0.043576,-0.031615,-0.05,-0.002858,-0.480845,0.084844,-0.699784,-264.3158,-0.021036,62.759131
0.7786,-0.044947,0.027483,0.084073,0.043292,-0.031572,-0.05,-0.000952,-0.480633,0.086364,-0.774784,-264.308654,-0.020037,62.764773
0.798,-0.045088,0.027438,0.085003,0.042481,-0.03116,-0.05,-0.001013,-0.480645,0.086196,-0.774784,-264.308654,-0.020037,62.764773
0.8179,-0.04367,0.026687,0.084334,0.042595,-0.031167,-0.05,-0.001058,-0.48102,0.084444,-0.849795,-264.299008,-0.024717,62.772915
0.8378,-0.043645,0.026769,0.085081,0.041267,-0.030271,-0.05,-0.00077,-0.481329,0.084311,-0.849795,-264.299008,-0.024717,62.772915
0.8581,-0.04387,0.026899,0.083735,0.041213,-0.030381,-0.05,-0.00077,-0.481329,0.084311,-0.849795,-264.299008,-0.024717,62.772915
0.8782,-0.041911,0.026052,0.084258,0.041467,-0.030474,-0.05,-7.7e-05,-0.481821,0.082785,-0.924781,-264.286861,-0.01466,62.783556
0.8981,-0.04218,0.02588,0.082671,0.039569,-0.029487,-0.05,2.6e-05,-0.481855,0.08286,-0.924781,-264.286861,-0.01466,62.783556
0.9184,-0.039739,0.025832,0.082805,0.039899,-0.029275,-0.05,0.00101,-0.482875,0.081707,-0.976004,-264.272214,0.003792,62.796699
0.9383,-0.039842,0.025654,0.081402,0.037466,-0.029031,-0.05,0.00196,-0.48268,0.082208,-0.976004,-264.272214,0.003792,62.796699
0.9581,-0.040035,0.025346,0.082829,0.037624,-0.028809,-0.05,0.00196,-0.48268,0.082208,-0.976004,-264.272214,0.003792,62.796699
0.9777,-0.037888,0.024983,0.080997,0.0378,-0.028572,-0.05,0.003748,-0.483622,0.081363,-0.987967,-264.255063,0.026538,62.812345
0.9981,-0.037664,0.025386,0.081445,0.035742,-0.027967,-0.05,0.003764,-0.483622,0.081299,-0.987967,-264.255063,0.026538,62.812345
1.0183,-0.035194,0.024307,0.078479,0.035474,-0.028366,-0.05,0.00511,-0.48359,0.080079,-1.005771,-264.235423,0.045919,62.82724
1.038,-0.034964,0.024112,0.079651,0.03318,-0.026991,-0.05,0.005091,-0.483978,0.078996,-1.005771,-264.235423,0.045919,62.82724
1.0581,-0.035002,0.024414,0.07921,0.032934,-0.026818,-0.05,0.005091,-0.483978,0.078996,-1.005771,-264.235423,0.045919,62.82724
1.0783,-0.032302,0.023188,0.075815,0.03296,-0.027107,-0.05,0.007,-0.484954,0.077219,-1.022378,-264.213277,0.071802,62.841358
1.0979,-0.032341,0.023215,0.077836,0.030453,-0.025568,-0.05,0.006997,-0.484998,0.077096,-1.022378,-264.213277,0.071802,62.841358
1.1178,-0.029466,0.022659,0.074082,0.030438,-0.025659,-0.05,0.008593,-0.486111,0.076029,-1.049548,-264.188631,0.112473,62.854117
1.1383,-0.029235,0.022351,0.07471,0.027708,-0.024778,-0.05,0.008579,-0.486126,0.074699,-1.049548,-264.188631,0.112473,62.854117
1.1578,-0.029785,0.022333,0.074502,0.027485,-0.024471,-0.05,0.008579,-0.486126,0.074699,-1.049548,-264.188631,0.112473,62.854117
1.1777,-0.026805,0.021241,0.072944,0.02804,-0.024488,-0.05,0.009672,-0.487332,0.072183,-1.073512,-264.164133,0.161764,62.865958
1.1978,-0.026686,0.021305,0.072723,0.025186,-0.023139,-0.05,0.009776,-0.487371,0.072174,-1.073512,-264.164133,0.161764,62.865958
1.218,-0.023934,0.020612,0.069849,0.025068,-0.023188,-0.05,0.011415,-0.488151,0.070931,-1.107426,-264.141301,0.217246,62.876409
1.2377,-0.024352,0.020786,0.068588,0.022437,-0.022232,-0.05,0.011687,-0.48825,0.070088,-1.107426,-264.141301,0.217246,62.876409
1.2577,-0.02423,0.020669,0.06987,0.02287,-0.022406,-0.05,0.011687,-0.48825,0.070088,-1.107426,-264.141301,0.217246,62.876409
1.2778,-0.021648,0.019772,0.066933,0.022728,-0.02231,-0.05,0.012568,-0.489041,0.067636,-1.132079,-264.119516,0.28574,62.886054
1.2978,-0.022047,0.019357,0.068022,0.020277,-0.021176,-0.05,0.012592,-0.489068,0.067531,-1.132079,-264.119516,0.28574,62.886054
1.318,-0.019525,0.018808,0.066519,0.02068,-0.020811,-0.05,0.013499,-0.490218,0.066211,-1.163035,-264.097854,0.3416,62.895171
1.3381,-0.019533,0.018496,0.06564,0.018232,-0.020064,-0.05,0.01411,-0.490226,0.066156,-1.163035,-264.097854,0.3416,62.895171
1.3583,-0.019353,0.018298,0.065114,0.018278,-0.019738,-0.05,0.01411,-0.490226,0.066156,-1.163035,-264.097854,0.3416,62.895171
1.3781,-0.017687,0.017747,0.063316,0.018122,-0.019519,-0.05,0.014735,-0.491455,0.063039,-1.197106,-264.078798,0.416779,62.902833
1.3982,-0.017425,0.017664,0.062913,0.016529,-0.018831,-0.05,0.014749,-0.491461,0.063003,-1.197106,-264.078798,0.416779,62.902833
1.4186,-0.015755,0.017066,0.061912,0.01628,-0.018724,-0.05,0.015248,-0.491912,0.061389,-1.222095,-264.061783,0.491599,62.909586
1.4383,-0.015767,0.017305,0.061348,0.014669,-0.018008,-0.05,0.015633,-0.492011,0.061487,-1.222095,-264.061783,0.491599,62.909586
1.4579,-0.016024,0.017136,0.061337,0.014676,-0.018239,-0.05,0.015633,-0.492011,0.061487,-1.222095,-264.061783,0.491599,62.909586
1.4781,-0.013884,0.016693,0.059724,0.014944,-0.018086,-0.05,0.015911,-0.492588,0.059486,-1.247721,-264.045722,0.566609,62.915834
1.4987,-0.014122,0.016255,0.06035,0.012863,-0.017492,-0.05,0.015972,-0.492593,0.059455,-1.247721,-264.045722,0.566609,62.915834
1.5178,-0.012275,0.015662,0.05722,0.013116,-0.017077,-0.05,0.017111,-0.493338,0.058899,-1.278526,-264.030481,0.641627,62.921564
1.5381,-0.012265,0.015916,0.056901,0.011359,-0.016339,-0.05,0.017047,-0.493492,0.057796,-1.278526,-264.030481,0.641627,62.921564
1.5581,-0.012465,0.015761,0.05626,0.01134,-0.016588,-0.05,0.017047,-0.493492,0.057796,-1.278526,-264.030481,0.641627,62.921564
1.5783,-0.010952,0.015236,0.055392,0.011559,-0.016437,-0.05,0.016688,-0.494004,0.054626,-1.309129,-264.016883,0.716592,62.926574
1.5984,-0.011171,0.015591,0.055156,0.010091,-0.015819,-0.05,0.016742,-0.494018,0.054634,-1.309129,-264.016883,0.716592,62.926574
1.6181,-0.010011,0.014677,0.055063,0.010295,-0.016183,-0.05,0.017252,-0.494027,0.053986,-1.334652,-264.004918,0.791596,62.931012
1.638,-0.009936,0.014725,0.053564,0.009188,-0.015206,-0.05,0.017751,-0.494375,0.054454,-1.334652,-264.004918,0.791596,62.931012
1.6581,-0.010144,0.014634,0.052813,0.009134,-0.015236,-0.05,0.017751,-0.494375,0.054454,-1.334652,-264.004918,0.791596,62.931012
1.6779,-0.008942,0.014603,0.053589,0.009357,-0.015149,-0.05,0.017115,-0.495111,0.051394,-1.356455,-263.993637,0.866751,62.935255
1.6978,-0.009004,0.014614,0.051958,0.008147,-0.015061,-0.05,0.017211,-0.495093,0.051508,-1.356455,-263.993637,0.866751,62.935255
1.7179,-0.00753,0.01392,0.051215,0.008233,-0.015062,-0.05,0.017744,-0.495072,0.050739,-1.373839,-263.98169,0.941612,62.939816
1.7382,-0.007522,0.014274,0.052033,0.006808,-0.014287,-0.05,0.018253,-0.495313,0.050857,-1.373839,-263.98169,0.941612,62.939816
1.7579,-0.007834,0.013694,0.049824,0.006769,-0.014646,-0.05,0.018253,-0.495313,0.050857,-1.373839,-263.98169,0.941612,62.939816
1.7779,-0.006138,0.013438,0.048324,0.007142,-0.014068,-0.049824,0.01789,-0.496187,0.048117,-1.393993,-263.968527,1.016674,62.944786
1.7983,-0.006475,0.013422,0.049184,0.005481,-0.013719,-0.048324,0.017943,-0.496185,0.048084,-1.393993,-263.968527,1.016674,62.944786
1.818,-0.005247,0.01306,0.047697,0.005807,-0.013725,-0.049184,0.018812,-0.496345,0.047876,-1.42208,-263.956059,1.091708,62.9495
1.8378,-0.005156,0.013043,0.047181,0.004619,-0.013296,-0.047697,0.018985,-0.496402,0.047609,-1.42208,-263.956059,1.091708,62.9495
1.858,-0.005216,0.012959,0.047157,0.004535,-0.013271,-0.047181,0.018985,-0.496402,0.047609,-1.42208,-263.956059,1.091708,62.9495
1.8781,-0.004186,0.012657,0.045738,0.004599,-0.01319,-0.047157,0.019054,-0.496942,0.045509,-1.444682,-263.943731,1.166666,62.954229
1.8977,-0.00434,0.012764,0.045764,0.003603,-0.012835,-0.045738,0.019066,-0.496946,0.045481,-1.444682,-263.943731,1.166666,62.954229
1.9182,-0.003018,0.011783,0.043993,0.003752,-0.012949,-0.045764,0.019159,-0.497102,0.044333,-1.463446,-263.93038,1.24159,62.959337
1.9377,-0.002692,0.012267,0.044837,0.002497,-0.011905,-0.043993,0.019323,-0.497505,0.043958,-1.463446,-263.93038,1.24159,62.959337
1.9578,-0.002928,0.012245,0.044871,0.002139,-0.012375,-0.044837,0.019323,-0.497505,0.043958,-1.463446,-263.93038,1.24159,62.959337
1.9777,-0.00153,0.011759,0.042137,0.002376,-0.012364,-0.044871,0.020129,-0.497773,0.042961,-1.482653,-263.916276,1.316594,62.964686
1.9984,-0.002162,0.011403,0.043113,0.001033,-0.011813,-0.042137,0.020121,-0.497789,0.042847,-1.482653,-263.916276,1.316594,62.964686
2.0178,-0.001013,0.011157,0.04136,0.001668,-0.011486,-0.043113,0.01991,-0.498503,0.041731,-1.517049,-263.903543,1.391695,62.969534
2.0377,-0.000868,0.01138,0.040471,0.00055,-0.01119,-0.04136,0.020015,-0.498496,0.041344,-1.517049,-263.903543,1.391695,62.969534
2.0579,-0.000499,0.011172,0.040152,0.000407,-0.011405,-0.040471,0.020015,-0.498496,0.041344,-1.517049,-263.903543,1.391695,62.969534
2.078,0.000108,0.010913,0.039088,5e-05,-0.011183,-0.040152,0.020041,-0.498891,0.038456,-1.543292,-263.891078,1.466599,62.974167
2.0977,-0.000116,0.01075,0.03868,-0.000535,-0.010901,-0.039088,0.020043,-0.49889,0.038455,-1.543292,-263.891078,1.466599,62.974167
2.1181,0.001041,0.010064,0.036611,-0.000299,-0.010746,-0.03868,0.019635,-0.49927,0.037255,-1.559539,-263.877903,1.540258,62.979024
2.1378,0.001171,0.010253,0.037178,-0.001408,-0.010019,-0.036611,0.01968,-0.499505,0.036708,-1.559539,-263.877903,1.540258,62.979024
2.1578,0.00087,0.010212,0.039281,-0.001551,-0.010202,-0.037178,0.01968,-0.499505,0.036708,-1.559539,-263.877903,1.540258,62.979024
2.1778,0.002204,0.009729,0.036761,-0.00127,-0.01017,-0.039281,0.020893,-0.499879,0.037548,-1.586169,-263.865237,1.611984,62.983753
2.1981,0.002212,0.009972,0.036527,-0.00127,-0.01017,-0.039281,0.020896,-0.499894,0.037452,-1.586169,-263.865237,1.611984,62.983753
2.2186,0.002924,0.009088,0.031985,-2.5e-05,-9.7e-05,0.0,0.020797,-0.500039,0.035251,-1.617885,-263.853599,1.686974,62.988204
2.2379,0.002591,0.009626,0.032998,-2.5e-05,-9.7e-05,0.0,0.019908,-0.500429,0.033244,-1.617885,-263.853599,1.686974,62.988204
2.258,0.002625,0.009403,0.033476,-2.5e-05,-9.7e-05,0.0,0.019908,-0.500429,0.033244,-1.617885,-263.853599,1.686974,62.988204
2.2778,0.003708,0.008634,0.031663,-2.5e-05,-9.7e-05,0.0,0.01965,-0.500802,0.031588,-1.607963,-263.840044,1.662443,62.993707
2.2981,0.00363,0.008869,0.032371,-2.5e-05,-9.7e-05,0.0,0.019664,-0.500839,0.03154,-1.607963,-263.840044,1.662443,62.993707
2.3179,0.004112,0.008397,0.032034,-2.5e-05,-9.7e-05,0.0,0.020148,-0.501033,0.032093,-1.532789,-263.836555,1.587269,62.993707
2.3386,0.00386,0.008442,0.032584,-2.5e-05,-9.7e-05,0.0,0.020317,-0.501227,0.032025,-1.532789,-263.836555,1.587269,62.993707
2.3583,0.003603,0.008455,0.032356,-2.5e-05,-9.7e-05,0.0,0.020317,-0.501227,0.032025,-1.532789,-263.836555,1.587269,62.993707
2.3778,0.003505,0.008617,0.033091,-2.5e-05,-9.7e-05,0.0,0.020102,-0.501278,0.032356,-1.457991,-263.836555,1.51247,62.993707
2.3984,0.003929,0.008468,0.032978,-2.5e-05,-9.7e-05,0.0,0.02012,-0.501267,0.032404,-1.457991,-263.836555,1.51247,62.993707
2.4183,0.00405,0.008625,0.031584,-1e-06,-2e-06,-8e-06,0.020745,-0.501255,0.032978,-1.382991,-263.836555,1.437471,62.993707
2.4384,0.003741,0.008595,0.03024,-0.000377,-0.001448,-0.005351,0.020415,-0.50118,0.032198,-1.382991,-263.836555,1.437471,62.993707
2.4582,0.003979,0.008203,0.030453,-0.000734,-0.002818,-0.010415,0.020415,-0.50118,0.032198,-1.382991,-263.836555,1.437471,62.993707
2.4777,0.003879,0.008387,0.031857,-0.001073,-0.004119,-0.015222,0.019507,-0.501561,0.030453,-1.307957,-263.836555,1.362437,62.993707
2.4981,0.003971,0.008433,0.030545,-0.00139,-0.005337,-0.019723,0.019547,-0.501548,0.030542,-1.307957,-263.836555,1.362437,62.993707
2.5177,0.003788,0.009045,0.032339,-0.001689,-0.006487,-0.02397,0.019547,-0.501329,0.030545,-1.38294,-263.836555,1.287454,62.993707
2.5378,0.00389,0.00869,0.030834,-0.001969,-0.007561,-0.027939,0.019962,-0.500965,0.031564,-1.38294,-263.836555,1.287454,62.993707
2.5579,0.004233,0.008678,0.030838,-0.00223,-0.008562,-0.031639,0.019962,-0.500965,0.031564,-1.38294,-263.836555,1.287454,62.993707
2.578,0.004225,0.008631,0.029442,-0.002472,-0.009492,-0.035075,0.019958,-0.50108,0.030838,-1.457928,-263.836555,1.212466,62.993707
2.5977,0.003717,0.008602,0.031067,-0.002694,-0.010342,-0.038218,0.019908,-0.501084,0.03074,-1.457928,-263.836555,1.212466,62.993707
2.6178,0.003698,0.008587,0.030693,-0.002896,-0.011121,-0.041094,0.019558,-0.501152,0.031067,-1.532928,-263.836554,1.137466,62.993707
2.6378,0.003848,0.008766,0.031795,-0.003079,-0.011824,-0.043692,0.019439,-0.501164,0.030854,-1.532928,-263.836554,1.137466,62.993707
2.6578,0.004048,0.008366,0.030399,-0.003244,-0.012454,-0.046022,0.019439,-0.501164,0.030854,-1.532928,-263.836554,1.137466,62.993707
2.6779,0.003569,0.008342,0.031204,-0.003389,-0.013011,-0.048078,0.019549,-0.501398,0.030399,-1.607929,-263.836553,1.062466,62.993707
2.6982,0.00401,0.009284,0.029304,-0.003514,-0.013493,-0.049858,0.019544,-0.501399,0.030456,-1.607929,-263.836553,1.062466,62.993707
2.7179,0.003383,0.008555,0.030284,-0.00362,-0.013901,-0.051367,0.018953,-0.500497,0.029304,-1.650592,-263.836552,0.987468,62.993706
2.7381,0.004072,0.008654,0.031373,-0.003707,-0.014234,-0.052597,0.018881,-0.500903,0.029861,-1.650592,-263.836552,0.987468,62.993706
2.7581,0.004023,0.008785,0.032306,-0.003775,-0.014494,-0.053557,0.018881,-0.500903,0.029861,-1.650592,-263.836552,0.987468,62.993706
2.7783,0.004082,0.00885,0.030462,-0.003823,-0.014679,-0.054243,0.020497,-0.500949,0.032306,-1.650592,-263.83655,0.912464,62.993705
2.7982,0.003475,0.008559,0.029699,-0.003852,-0.01479,-0.054654,0.020434,-0.500947,0.032175,-1.650592,-263.83655,0.912464,62.993705
2.8179,0.003827,0.008701,0.030439,-0.003862,-0.014827,-0.054791,0.018619,-0.501216,0.029699,-1.650592,-263.836548,0.837429,62.993705
2.8378,0.00368,0.00835,0.033572,-0.003852,-0.01479,-0.054653,0.019034,-0.501129,0.030119,-1.650592,-263.836548,0.837429,62.993705
2.8579,0.003883,0.008805,0.031641,-0.003823,-0.014679,-0.054243,0.019034,-0.501129,0.030119,-1.650592,-263.836548,0.837429,62.993705
2.8778,0.003885,0.008762,0.032279,-0.003775,-0.014494,-0.053558,0.020018,-0.50094,0.031641,-1.650592,-263.836546,0.76247,62.993704
2.8981,0.003806,0.00845,0.032915,-0.003707,-0.014234,-0.052599,0.020041,-0.500942,0.031687,-1.650592,-263.836546,0.76247,62.993704
2.9183,0.003851,0.0087,0.032104,-0.00362,-0.013898,-0.051358,0.020589,-0.501274,0.032915,-1.650592,-263.836544,0.687412,62.993703
2.9379,0.004089,0.008373,0.032801,-0.003514,-0.013493,-0.049861,0.020381,-0.50114,0.032457,-1.650592,-263.836544,0.687412,62.993703
2.9585,0.00394,0.008366,0.0294,-0.003389,-0.013011,-0.04808,0.020381,-0.50114,0.032457,-1.650592,-263.836544,0.687412,62.993703
2.9778,0.003895,0.008579,0.030526,-0.003244,-0.012455,-0.046023,0.018932,-0.501414,0.0294,-1.650592,-263.836542,0.612462,62.993702
2.9977,0.003651,0.009041,0.031476,-0.00308,-0.011825,-0.043698,0.018968,-0.501398,0.029477,-1.650592,-263.836542,0.612462,62.993702
3.0177,0.004367,0.008155,0.030768,-0.002896,-0.011121,-0.041095,0.019701,-0.500706,0.031475,-1.650592,-263.836541,0.537453,62.993702
3.0376,0.003925,0.008385,0.030254,-0.002693,-0.010341,-0.038214,0.019903,-0.501216,0.031073,-1.650592,-263.836541,0.537453,62.993702
3.0577,0.003823,0.00868,0.03103,-0.00247,-0.009486,-0.035053,0.019903,-0.501216,0.031073,-1.650592,-263.836541,0.537453,62.993702
3.078,0.004425,0.008549,0.031771,-0.00223,-0.008563,-0.031642,0.019645,-0.501075,0.031029,-1.650592,-263.836539,0.462441,62.993701
3.0983,0.004094,0.008289,0.031854,-0.001969,-0.007562,-0.027942,0.019729,-0.501085,0.031093,-1.650592,-263.836539,0.462441,62.993701
3.1177,0.003662,0.008717,0.031963,-0.001689,-0.006487,-0.023971,0.020337,-0.501452,0.031854,-1.650592,-263.836538,0.386955,62.9937
3.1377,0.003777,0.008396,0.032151,-0.001389,-0.005332,-0.019703,0.020123,-0.501208,0.031916,-1.650592,-263.836538,0.386955,62.9937
3.1577,0.003738,0.008263,0.03086,-0.001072,-0.004116,-0.01521,0.020123,-0.501208,0.031916,-1.650592,-263.836538,0.386955,62.9937
3.1777,0.004253,0.008672,0.030911,-0.000734,-0.002817,-0.010409,0.019475,-0.501495,0.03086,-1.650592,-263.836537,0.312442,62.9937
3.1977,0.003807,0.008861,0.031958,-0.000377,-0.001447,-0.005347,0.019511,-0.501467,0.030864,-1.650592,-263.836537,0.312442,62.9937
3.2178,0.004016,0.008573,0.031457,0.0,0.0,0.0,0.020103,-0.500878,0.031958,-1.650592,-263.836536,0.237468,62.9937
3.2379,0.003714,0.008709,0.030897,0.0,0.0,0.0,0.020077,-0.501047,0.031673,-1.650592,-263.836536,0.237468,62.9937
3.2581,0.003722,0.008634,0.03086,0.0,0.0,0.0,0.020077,-0.501047,0.031673,-1.650592,-263.836536,0.237468,62.9937
3.2781,0.004251,0.00845,0.031745,0.0,0.0,0.0,0.019458,-0.501123,0.03086,-1.650592,-263.836536,0.162478,62.9937
3.2984,0.003948,0.008816,0.031405,0.0,0.0,0.0,0.019536,-0.501137,0.030931,-1.650592,-263.836536,0.162478,62.9937
3.3178,0.003636,0.009163,0.031507,0.0,0.0,0.0,0.019961,-0.500933,0.031405,-1.650592,-263.836536,0.162478,62.9937
3.3384,0.003986,0.008748,0.03012,0.0,0.0,0.0,0.019813,-0.500734,0.031463,-1.650592,-263.836536,0.162478,62.9937
3.3579,0.003998,0.008768,0.031227,0.0,0.0,0.0,0.019813,-0.500734,0.031463,-1.650592,-263.836536,0.162478,62.9937
3.3781,0.004189,0.008621,0.031834,0.0,0.0,0.0,0.019921,-0.500983,0.031227,-1.650592,-263.836536,0.162478,62.9937
3.3982,0.003925,0.008977,0.030711,0.0,0.0,0.0,0.019958,-0.500993,0.031272,-1.650592,-263.836536,0.162478,62.9937
3.4184,0.003706,0.008994,0.029879,0.0,0.0,0.0,0.019585,-0.500783,0.030711,-1.650592,-263.836536,0.162478,62.9937
3.4379,0.003753,0.008695,0.03167,0.0,0.0,0.0,0.019217,-0.50078,0.030235,-1.650592,-263.836536,0.162478,62.9937
3.4577,0.004041,0.008522,0.029793,-4.3e-05,-9.1e-05,0.0,0.019217,-0.50078,0.030235,-1.650592,-263.836536,0.162478,62.9937
3.4777,0.003635,0.008836,0.031873,-4.3e-05,-9.1e-05,0.0,0.019232,-0.501252,0.029793,-1.650592,-263.836536,0.162478,62.9937
3.498,0.004132,0.008354,0.031204,-4.3e-05,-9.1e-05,0.0,0.019278,-0.501228,0.029937,-1.650592,-263.836536,0.162478,62.9937
3.518,0.004231,0.008745,0.029921,-4.3e-05,-9.1e-05,0.0,0.020043,-0.501398,0.031204,-1.575718,-263.836536,0.237353,62.9937
3.5377,0.003944,0.008632,0.03172,-4.3e-05,-9.1e-05,0.0,0.019725,-0.501185,0.030468,-1.575718,-263.836536,0.237353,62.9937
3.5578,0.003786,0.008763,0.032248,-4.3e-05,-9.1e-05,0.0,0.019725,-0.501185,0.030468,-1.575718,-263.836536,0.237353,62.9937
3.5782,0.004256,0.008667,0.031928,-4.3e-05,-9.1e-05,0.0,0.020229,-0.500972,0.032248,-1.500561,-263.836536,0.312509,62.9937
3.5981,0.004236,0.008746,0.030283,-4.3e-05,-9.1e-05,0.0,0.020252,-0.50098,0.032224,-1.500561,-263.836536,0.312509,62.9937
3.6178,0.00385,0.008568,0.031832,-4.3e-05,-9.1e-05,0.0,0.019677,-0.50102,0.030283,-1.425481,-263.836536,0.387589,62.9937
3.6382,0.003856,0.008743,0.030531,-4.3e-05,-9.1e-05,0.0,0.019906,-0.501107,0.03116,-1.425481,-263.836536,0.387589,62.9937
3.6578,0.003967,0.008618,0.030603,-4.3e-05,-9.1e-05,0.0,0.019906,-0.501107,0.03116,-1.425481,-263.836536,0.387589,62.9937
3.678,0.003596,0.008426,0.031211,-0.000591,-0.001258,-0.004646,0.019573,-0.501143,0.030603,-1.350676,-263.836536,0.462394,62.9937
3.698,0.004126,0.00874,0.030585,-0.001147,-0.002443,-0.009025,0.019568,-0.501156,0.030647,-1.350676,-263.836536,0.462394,62.9937
3.7179,0.003904,0.008919,0.030609,-0.001677,-0.003569,-0.013189,0.019722,-0.501022,0.030585,-1.275628,-263.836536,0.537443,62.9937
3.7378,0.003849,0.008729,0.032228,-0.002174,-0.004629,-0.017104,0.019602,-0.500919,0.030599,-1.275628,-263.836536,0.537443,62.9937
3.7579,0.003611,0.0088,0.030432,-0.002642,-0.005625,-0.020783,0.019602,-0.500919,0.030599,-1.275628,-263.836536,0.537443,62.9937
3.778,0.003858,0.009097,0.032044,-0.003081,-0.006559,-0.024234,0.019129,-0.500964,0.030432,-1.3507,-263.836536,0.46237,62.9937
3.7977,0.004204,0.008912,0.030574,-0.003488,-0.007426,-0.027439,0.019208,-0.500941,0.030551,-1.3507,-263.836536,0.46237,62.9937
3.8179,0.004093,0.0085,0.029851,-0.003865,-0.008229,-0.030403,0.019794,-0.500849,0.030574,-1.425667,-263.836536,0.387403,62.9937
3.838,0.004132,0.008471,0.031645,-0.004212,-0.008967,-0.033132,0.01952,-0.501092,0.03016,-1.425667,-263.836536,0.387403,62.9937
3.8585,0.003831,0.008414,0.032137,-0.00453,-0.009643,-0.035628,0.01952,-0.501092,0.03016,-1.425667,-263.836536,0.387403,62.9937
3.8782,0.003729,0.008737,0.030968,-0.004817,-0.010254,-0.037886,0.020218,-0.501322,0.032137,-1.500646,-263.836536,0.312424,62.9937
3.8981,0.004218,0.008753,0.032064,-0.005073,-0.0108,-0.039903,0.020166,-0.5013,0.032048,-1.500646,-263.836536,0.312424,62.9937
3.9177,0.004073,0.008725,0.031846,-0.0053,-0.011282,-0.041686,0.020568,-0.500985,0.032064,-1.575823,-263.836535,0.237248,62.993699
3.9377,0.004178,0.008608,0.031188,-0.005496,-0.0117,-0.043228,0.020421,-0.501003,0.031939,-1.575823,-263.836535,0.237248,62.993699
3.9577,0.004009,0.008309,0.031756,-0.005662,-0.012054,-0.044535,0.020421,-0.501003,0.031939,-1.575823,-263.836535,0.237248,62.993699
3.9778,0.004098,0.00895,0.031161,-0.005798,-0.012343,-0.045605,0.020202,-0.501434,0.031756,-1.650705,-263.836534,0.162365,62.993699
3.9977,0.00417,0.008548,0.032439,-0.005904,-0.012569,-0.04644,0.020186,-0.501387,0.031712,-1.650705,-263.836534,0.162365,62.993699
4.0178,0.003948,0.008894,0.031874,-0.005979,-0.012729,-0.04703,0.020711,-0.501183,0.032439,-1.71405,-263.836533,0.087319,62.993698
4.0378,0.003782,0.008684,0.030796,-0.006025,-0.012825,-0.047387,0.020418,-0.500991,0.032115,-1.71405,-263.836533,0.087319,62.993698
4.058,0.003683,0.008559,0.029619,-0.00604,-0.012857,-0.047505,0.020418,-0.500991,0.032115,-1.71405,-263.836533,0.087319,62.993698
4.0779,0.003895,0.00856,0.031309,-0.006024,-0.012825,-0.047386,0.018786,-0.501218,0.029619,-1.71405,-263.836531,0.012409,62.993698
4.0978,0.003687,0.008663,0.030593,-0.005979,-0.012729,-0.04703,0.018862,-0.501216,0.029737,-1.71405,-263.836531,0.012409,62.993698
4.1177,0.003936,0.008333,0.030782,-0.005904,-0.012568,-0.046436,0.019287,-0.501099,0.030593,-1.71405,-263.836529,-0.062593,62.993697
4.1377,0.004068,0.008776,0.030343,-0.005798,-0.012343,-0.045606,0.019485,-0.501286,0.030701,-1.71405,-263.836529,-0.062593,62.993697
4.1577,0.003973,0.008728,0.031702,-0.005662,-0.012054,-0.044537,0.019485,-0.501286,0.030701,-1.71405,-263.836529,-0.062593,62.993697
4.1779,0.003805,0.008455,0.030631,-0.005496,-0.0117,-0.043229,0.020138,-0.501016,0.031702,-1.71405,-263.836528,-0.137627,62.993696
4.198,0.004158,0.008609,0.029884,-0.0053,-0.011283,-0.041688,0.02008,-0.50104,0.031614,-1.71405,-263.836528,-0.137627,62.993696
4.2181,0.004072,0.008864,0.030245,-0.005073,-0.010799,-0.039899,0.019397,-0.501163,0.029884,-1.71405,-263.836526,-0.212855,62.993696
4.2385,0.003664,0.008442,0.030187,-0.004816,-0.010253,-0.037882,0.019453,-0.501014,0.030091,-1.71405,-263.836526,-0.212855,62.993696
4.2584,0.003495,0.008762,0.029829,-0.00453,-0.009643,-0.03563,0.019453,-0.501014,0.030091,-1.71405,-263.836526,-0.212855,62.993696
4.2777,0.004143,0.00868,0.030716,-0.004212,-0.008968,-0.033134,0.018705,-0.501011,0.029829,-1.71405,-263.836525,-0.287648,62.993695
4.2977,0.004172,0.008678,0.031288,-0.003865,-0.008229,-0.030404,0.018782,-0.501016,0.029891,-1.71405,-263.836525,-0.287648,62.993695
4.3182,0.00425,0.008244,0.030604,-0.003488,-0.007425,-0.027433,0.020127,-0.501072,0.031288,-1.71405,-263.836523,-0.362476,62.993695
4.3381,0.004178,0.008532,0.030625,-0.003081,-0.006558,-0.024232,0.019971,-0.501328,0.030895,-1.71405,-263.836523,-0.362476,62.993695
4.358,0.004204,0.008532,0.031516,-0.002643,-0.005626,-0.020786,0.019971,-0.501328,0.030895,-1.71405,-263.836523,-0.362476,62.993695
4.3778,0.003999,0.008712,0.03275,-0.002173,-0.004626,-0.017093,0.020274,-0.501214,0.031516,-1.71405,-263.836522,-0.437671,62.993694
4.3983,0.003865,0.008592,0.030733,-0.001677,-0.003569,-0.013187,0.020307,-0.501199,0.031611,-1.71405,-263.836522,-0.437671,62.993694
4.418,0.003992,0.00836,0.031343,-0.001129,-0.002404,-0.008881,0.019537,-0.501167,0.030733,-1.71405,-263.836521,-0.512812,62.993694
4.4381,0.003649,0.008725,0.032722,-0.000589,-0.001254,-0.004633,0.019782,-0.501292,0.031075,-1.71405,-263.836521,-0.512812,62.993694
4.4583,0.003839,0.008555,0.031207,0.0,0.0,0.0,0.019782,-0.501292,0.031075,-1.71405,-263.836521,-0.512812,62.993694
4.4778,0.004026,0.008552,0.03187,0.0,0.0,0.0,0.019751,-0.501197,0.031206,-1.71405,-263.83652,-0.587491,62.993693
4.4983,0.00365,0.008872,0.028763,0.0,0.0,0.0,0.019784,-0.501196,0.031248,-1.71405,-263.83652,-0.587491,62.993693
4.5179,0.003776,0.008602,0.030736,0.0,0.0,0.0,0.018317,-0.500917,0.028763,-1.71405,-263.83652,-0.587491,62.993693
4.5384,0.003841,0.008493,0.030575,0.0,0.0,0.0,0.018965,-0.501055,0.029892,-1.71405,-263.83652,-0.587491,62.993693
4.5579,0.004274,0.008909,0.029662,0.0,0.0,0.0,0.018965,-0.501055,0.029892,-1.71405,-263.83652,-0.587491,62.993693
4.5777,0.0039,0.008545,0.030179,0.0,0.0,0.0,0.0194,-0.500867,0.029662,-1.71405,-263.83652,-0.587491,62.993693
4.5984,0.003635,0.00882,0.03018,0.0,0.0,0.0,0.01939,-0.500896,0.029706,-1.71405,-263.83652,-0.587491,62.993693
4.6179,0.003682,0.008647,0.032935,0.0,0.0,0.0,0.019024,-0.500948,0.03018,-1.71405,-263.83652,-0.587491,62.993693
4.6378,0.003801,0.008583,0.031335,0.0,0.0,0.0,0.019844,-0.50102,0.031736,-1.71405,-263.83652,-0.587491,62.993693
4.658,0.004054,0.008685,0.029921,0.0,0.0,0.0,0.019844,-0.50102,0.031736,-1.71405,-263.83652,-0.587491,62.993693
4.6778,0.003925,0.008471,0.029947,0.0,0.0,0.0,0.019311,-0.501087,0.029921,-1.71405,-263.83652,-0.587491,62.993693
4.6977,0.003878,0.008427,0.03024,-4.5e-05,-8.9e-05,0.0,0.019301,-0.501105,0.029923,-1.71405,-263.83652,-0.587491,62.993693
4.7178,0.003419,0.008287,0.031008,-4.5e-05,-8.9e-05,0.0,0.019299,-0.50134,0.03024,-1.71405,-263.83652,-0.587491,62.993693
4.738,0.003947,0.00861,0.030997,-4.5e-05,-8.9e-05,0.0,0.01926,-0.501413,0.03068,-1.71405,-263.83652,-0.587491,62.993693
4.7579,0.003875,0.008799,0.030991,-4.5e-05,-8.9e-05,0.0,0.01926,-0.501413,0.03068,-1.71405,-263.83652,-0.587491,62.993693
4.7782,0.004243,0.008834,0.030739,-4.5e-05,-8.9e-05,0.0,0.019678,-0.500956,0.030991,-1.639479,-263.83652,-0.51292,62.993693
4.7984,0.003594,0.008917,0.032116,-4.5e-05,-8.9e-05,0.0,0.019695,-0.500954,0.030974,-1.639479,-263.83652,-0.51292,62.993693
4.8179,0.003567,0.008593,0.029759,-4.5e-05,-8.9e-05,0.0,0.019971,-0.50082,0.032116,-1.564578,-263.83652,-0.438019,62.993693
4.8379,0.003906,0.008944,0.030895,-4.5e-05,-8.9e-05,0.0,0.019272,-0.501025,0.030775,-1.564578,-263.83652,-0.438019,62.993693
4.8579,0.003755,0.00864,0.031298,-4.5e-05,-8.9e-05,0.0,0.019272,-0.501025,0.030775,-1.564578,-263.83652,-0.438019,62.993693
4.8778,0.003873,0.008395,0.030872,-4.5e-05,-8.9e-05,0.0,0.019714,-0.50111,0.031298,-1.489583,-263.83652,-0.363024,62.993693
4.8981,0.004008,0.008363,0.031661,-4.5e-05,-8.9e-05,0.0,0.019708,-0.501126,0.03127,-1.489583,-263.83652,-0.363024,62.993693
4.9177,0.003922,0.008525,0.030173,-0.000612,-0.001223,-0.004387,0.020153,-0.501382,0.031661,-1.414581,-263.83652,-0.288022,62.993693
4.9378,0.00391,0.008772,0.030032,-0.00119,-0.002379,-0.008533,0.019671,-0.501303,0.030814,-1.414581,-263.83652,-0.288022,62.993693
4.9578,0.003662,0.008553,0.032083,-0.001739,-0.003476,-0.012465,0.019671,-0.501303,0.030814,-1.414581,-263.83652,-0.288022,62.993693
4.9777,0.003705,0.008627,0.031789,-0.002262,-0.004522,-0.016218,0.020021,-0.501184,0.032083,-1.339573,-263.83652,-0.213014,62.993693
4.9981,0.003759,0.00848,0.03132,-0.002741,-0.00548,-0.019654,0.020013,-0.501179,0.032062,-1.339573,-263.83652,-0.213014,62.993693
5.018,0.004072,0.008596,0.031537,-0.003195,-0.006388,-0.02291,0.01973,-0.50127,0.03132,-1.414571,-263.83652,-0.288012,62.993693
5.0378,0.003845,0.008388,0.029749,-0.003619,-0.007235,-0.025948,0.019972,-0.501201,0.031444,-1.414571,-263.83652,-0.288012,62.993693
5.0578,0.003971,0.008344,0.030413,-0.00401,-0.008016,-0.028749,0.019972,-0.501201,0.031444,-1.414571,-263.83652,-0.288012,62.993693
5.0782,0.003886,0.008468,0.031253,-0.004374,-0.008743,-0.031358,0.019479,-0.50142,0.030413,-1.489669,-263.83652,-0.36311,62.993693
5.0982,0.003762,0.008698,0.031453,-0.004699,-0.009394,-0.033691,0.019508,-0.501408,0.030483,-1.489669,-263.83652,-0.36311,62.993693
5.1181,0.004212,0.008653,0.0299,-0.004997,-0.009989,-0.035825,0.019801,-0.50105,0.031453,-1.565015,-263.836519,-0.438455,62.993693
5.1379,0.003911,0.008691,0.032733,-0.005263,-0.01052,-0.037731,0.019607,-0.501089,0.030572,-1.565015,-263.836519,-0.438455,62.993693
5.1579,0.003994,0.009107,0.031236,-0.005498,-0.01099,-0.039417,0.019607,-0.501089,0.030572,-1.565015,-263.836519,-0.438455,62.993693
5.178,0.003764,0.008237,0.031919,-0.005702,-0.011398,-0.040879,0.019922,-0.500644,0.031236,-1.639576,-263.836518,-0.513016,62.993692
5.1983,0.003636,0.008816,0.031249,-0.005874,-0.011742,-0.042114,0.019931,-0.500714,0.031291,-1.639576,-263.836518,-0.513016,62.993692
5.2177,0.003457,0.00854,0.031053,-0.006015,-0.012024,-0.043125,0.01957,-0.500935,0.031248,-1.715087,-263.83651,-0.588528,62.993689
5.2379,0.003742,0.008432,0.031106,-0.006124,-0.012243,-0.04391,0.019413,-0.501093,0.031138,-1.715087,-263.83651,-0.588528,62.993689
5.2578,0.003784,0.008387,0.03166,-0.006203,-0.0124,-0.044472,0.019413,-0.501093,0.031138,-1.715087,-263.83651,-0.588528,62.993689
5.2779,0.004191,0.00837,0.030344,-0.00625,-0.012494,-0.044809,0.019927,-0.501359,0.031655,-1.726318,-263.836463,-0.663143,62.993671
5.2984,0.003706,0.00863,0.030626,-0.006265,-0.012525,-0.044921,0.019909,-0.501362,0.031563,-1.726318,-263.836463,-0.663143,62.993671
5.3178,0.003836,0.009051,0.030781,-0.00625,-0.012493,-0.044808,0.019318,-0.501138,0.030606,-1.726318,-263.836256,-0.738021,62.993588
5.3379,0.00389,0.008704,0.030467,-0.006203,-0.0124,-0.044472,0.019439,-0.500894,0.030703,-1.726318,-263.836256,-0.738021,62.993588
5.3578,0.003852,0.008488,0.029921,-0.006124,-0.012243,-0.043911,0.019439,-0.500894,0.030703,-1.726318,-263.836256,-0.738021,62.993588
5.3778,0.004032,0.008841,0.031844,-0.006014,-0.012023,-0.043123,0.019092,-0.501314,0.029831,-1.726318,-263.835547,-0.813006,62.993304
5.3982,0.003893,0.009079,0.031387,-0.005874,-0.011742,-0.042114,0.019174,-0.501286,0.029969,-1.726318,-263.835547,-0.813006,62.993304
5.4184,0.003648,0.008209,0.032033,-0.005701,-0.011397,-0.040877,0.019862,-0.500733,0.031192,-1.726318,-263.83365,-0.888003,62.992545
5.438,0.003901,0.008607,0.030885,-0.005497,-0.010988,-0.039409,0.019926,-0.501194,0.031646,-1.726318,-263.83365,-0.888003,62.992545
5.4581,0.004133,0.008631,0.030659,-0.005263,-0.010521,-0.037733,0.019926,-0.501194,0.031646,-1.726318,-263.83365,-0.888003,62.992545
5.4777,0.004106,0.008595,0.031266,-0.004996,-0.009988,-0.035822,0.019677,-0.501295,0.030125,-1.726318,-263.82959,-0.963009,62.990922
5.4981,0.004478,0.008119,0.031123,-0.004699,-0.009393,-0.03369,0.019696,-0.501291,0.030179,-1.726318,-263.82959,-0.963009,62.990922
5.5181,0.004426,0.007597,0.028908,-0.00437,-0.008735,-0.031329,0.02024,-0.501839,0.030429,-1.726318,-263.823029,-1.038018,62.988253
5.5381,0.004459,0.007839,0.030503,-0.00401,-0.008016,-0.02875,0.019615,-0.502065,0.029475,-1.726318,-263.823029,-1.038018,62.988253
5.5581,0.004345,0.008003,0.029425,-0.003618,-0.007233,-0.025941,0.019615,-0.502065,0.029475,-1.726318,-263.823029,-1.038018,62.988253
5.5777,0.005072,0.00785,0.027008,-0.003194,-0.006385,-0.0229,0.019177,-0.502128,0.028212,-1.726318,-263.813973,-1.113015,62.984632
5.5983,0.005382,0.007977,0.026995,-0.002741,-0.005479,-0.019652,0.019149,-0.502126,0.028096,-1.726318,-263.813973,-1.113015,62.984632
5.618,0.005437,0.007867,0.028225,-0.002255,-0.004507,-0.016166,0.019023,-0.502104,0.02605,-1.726318,-263.805152,-1.173011,62.981105
5.6379,0.005453,0.007517,0.027436,-0.001733,-0.003465,-0.012426,0.019467,-0.502039,0.027168,-1.726318,-263.805152,-1.173011,62.981105
5.658,0.005627,0.007582,0.025784,-0.00119,-0.002379,-0.008534,0.019467,-0.502039,0.027168,-1.726318,-263.805152,-1.173011,62.981105
5.6779,0.005682,0.007116,0.025881,-0.00061,-0.00122,-0.004376,0.018648,-0.502519,0.024828,-1.726318,-263.798064,-1.173011,62.978271
5.6977,0.005477,0.007062,0.02443,0.0,0.0,0.0,0.018662,-0.50254,0.024878,-1.726318,-263.798064,-1.173011,62.978271
5.7179,0.005988,0.007022,0.025275,0.0,0.0,0.0,0.017891,-0.502879,0.024101,-1.726318,-263.794995,-1.173011,62.977044
5.738,0.005888,0.007332,0.025566,0.0,0.0,0.0,0.018447,-0.502855,0.024728,-1.726318,-263.794995,-1.173011,62.977044
5.7581,0.00588,0.007125,0.025498,0.0,0.0,0.0,0.018447,-0.502855,0.024728,-1.726318,-263.794995,-1.173011,62.977044
5.7777,0.006162,0.006988,0.025521,0.0,0.0,0.0,0.018883,-0.502709,0.025498,-1.726318,-263.794995,-1.173011,62.977044
5.7984,0.00591,0.007116,0.026605,0.0,0.0,0.0,0.018902,-0.502718,0.0255,-1.726318,-263.794995,-1.173011,62.977044
5.8177,0.005681,0.007108,0.025879,0.0,0.0,0.0,0.019477,-0.502703,0.026605,-1.726318,-263.794995,-1.173011,62.977044
5.838,0.006067,0.007144,0.024961,0.0,0.0,0.0,0.019134,-0.502714,0.026189,-1.726318,-263.794995,-1.173011,62.977044
5.858,0.005862,0.00698,0.025447,0.0,0.0,0.0,0.019134,-0.502714,0.026189,-1.726318,-263.794995,-1.173011,62.977044
5.8777,0.006003,0.007143,0.026274,0.0,0.0,0.0,0.018839,-0.502855,0.025447,-1.726318,-263.794995,-1.173011,62.977044
5.8977,0.005887,0.00668,0.02604,0.0,0.0,0.0,0.018877,-0.502843,0.025504,-1.726318,-263.794995,-1.173011,62.977044
5.9179,0.005945,0.007294,0.024517,-6.8e-05,-7.3e-05,0.0,0.019166,-0.503147,0.02604,-1.726318,-263.794995,-1.173011,62.977044
5.9377,0.005739,0.006914,0.026889,-6.8e-05,-7.3e-05,0.0,0.018756,-0.502808,0.02517,-1.726318,-263.794995,-1.173011,62.977044
5.9579,0.005899,0.00731,0.025179,-6.8e-05,-7.3e-05,0.0,0.018756,-0.502808,0.02517,-1.726318,-263.794995,-1.173011,62.977044
5.9779,0.005988,0.007184,0.023438,-6.8e-05,-7.3e-05,0.0,0.01874,-0.502528,0.025179,-1.726318,-263.794995,-1.173011,62.977044
5.9983,0.005851,0.00726,0.025273,-6.8e-05,-7.3e-05,0.0,0.018689,-0.502538,0.025068,-1.726318,-263.794995,-1.173011,62.977044
6.0182,0.00612,0.007034,0.026745,-6.8e-05,-7.3e-05,0.0,0.018739,-0.502577,0.025273,-1.651422,-263.794995,-1.098115,62.977044
6.038,0.006071,0.007019,0.025462,-6.8e-05,-7.3e-05,0.0,0.01932,-0.502694,0.026111,-1.651422,-263.794995,-1.098115,62.977044
6.0578,0.006164,0.006871,0.026757,-6.8e-05,-7.3e-05,0.0,0.01932,-0.502694,0.026111,-1.651422,-263.794995,-1.098115,62.977044
6.078,0.005523,0.006782,0.025095,-6.8e-05,-7.3e-05,0.0,0.019809,-0.502947,0.026757,-1.576424,-263.794995,-1.023117,62.977044
6.0978,0.006534,0.006682,0.025999,-6.8e-05,-7.3e-05,0.0,0.019706,-0.502955,0.026642,-1.576424,-263.794995,-1.023117,62.977044
6.1177,0.006032,0.007425,0.025654,-1e-06,-1e-06,-4e-06,0.019792,-0.503146,0.025999,-1.501428,-263.794995,-0.948121,62.977044
6.1376,0.005806,0.006748,0.02673,-0.000885,-0.000953,-0.003802,0.019406,-0.502726,0.025803,-1.501428,-263.794995,-0.948121,62.977044
6.1578,0.006149,0.006951,0.025142,-0.001728,-0.001861,-0.007427,0.019406,-0.502726,0.025803,-1.501428,-263.794995,-0.948121,62.977044
6.1778,0.005841,0.006943,0.025026,-0.002522,-0.002716,-0.010838,0.01897,-0.502888,0.025142,-1.426418,-263.794995,-0.873111,62.977044
6.1977,0.006079,0.006896,0.024389,-0.003272,-0.003523,-0.01406,0.018944,-0.502889,0.025134,-1.426418,-263.794995,-0.873111,62.977044
6.2179,0.005891,0.006846,0.025427,-0.003976,-0.004282,-0.017087,0.018516,-0.502952,0.024389,-1.351426,-263.794995,-0.948103,62.977043
6.2377,0.005888,0.006766,0.025847,-0.004637,-0.004993,-0.019926,0.01871,-0.502973,0.02498,-1.351426,-263.794995,-0.948103,62.977043
6.2578,0.005834,0.006852,0.025734,-0.005248,-0.005651,-0.022554,0.01871,-0.502973,0.02498,-1.351426,-263.794995,-0.948103,62.977043
6.2778,0.00608,0.007195,0.024579,-0.005817,-0.006264,-0.025001,0.018957,-0.502979,0.025734,-1.276424,-263.794996,-0.997212,62.977043
6.298,0.006124,0.007056,0.025001,-0.00634,-0.006827,-0.027246,0.018933,-0.502956,0.025653,-1.276424,-263.794996,-0.997212,62.977043
6.3179,0.006132,0.007096,0.024355,-0.006817,-0.00734,-0.029295,0.018873,-0.502785,0.025001,-1.201428,-263.794996,-0.997212,62.977043
6.3377,0.00589,0.006963,0.026242,-0.007247,-0.007804,-0.031145,0.01869,-0.502767,0.024633,-1.201428,-263.794996,-0.997212,62.977043
6.3581,0.006066,0.006807,0.023792,-0.007634,-0.008221,-0.032808,0.01869,-0.502767,0.024633,-1.201428,-263.794996,-0.997212,62.977043
6.3783,0.005841,0.006909,0.023698,-0.007976,-0.008589,-0.034276,0.018198,-0.503049,0.023792,-1.126427,-263.794997,-0.997212,62.977042
6.3983,0.005976,0.006989,0.025304,-0.008271,-0.008906,-0.035544,0.018181,-0.503042,0.023786,-1.126427,-263.794997,-0.997212,62.977042
6.4183,0.00572,0.006925,0.026406,-0.008521,-0.009176,-0.036619,0.018879,-0.502848,0.025304,-1.051426,-263.794998,-0.997212,62.977042
6.4381,0.005736,0.007185,0.024941,-0.008726,-0.009396,-0.037499,0.019052,-0.502876,0.025926,-1.051426,-263.794998,-0.997212,62.977042
6.4581,0.00591,0.007157,0.025485,-0.008885,-0.009568,-0.038183,0.019052,-0.502876,0.025926,-1.051426,-263.794998,-0.997212,62.977042
6.4778,0.005907,0.006623,0.024883,-0.008998,-0.009689,-0.038669,0.018906,-0.502677,0.025485,-0.976424,-263.795,-0.997212,62.977041
6.4982,0.0061,0.007283,0.025257,-0.009066,-0.009763,-0.038962,0.018886,-0.502711,0.025447,-0.976424,-263.795,-0.997212,62.977041
6.5177,0.006335,0.007204,0.025704,-0.009089,-0.009787,-0.03906,0.01898,-0.502554,0.025257,-0.901408,-263.795001,-0.997212,62.977041
6.5377,0.005644,0.006781,0.024643,-0.009066,-0.009763,-0.038963,0.019242,-0.502596,0.025511,-0.901408,-263.795001,-0.997212,62.977041
6.5579,0.005967,0.006969,0.025205,-0.008998,-0.009689,-0.03867,0.019242,-0.502596,0.025511,-0.901408,-263.795001,-0.997212,62.977041
6.5777,0.005966,0.006866,0.025463,-0.008885,-0.009567,-0.038182,0.01882,-0.502869,0.025205,-0.826419,-263.795002,-0.997212,62.97704
6.5983,0.005838,0.007087,0.024755,-0.008726,-0.009396,-0.037499,0.018829,-0.502876,0.025224,-0.826419,-263.795002,-0.997212,62.97704
6.6183,0.006194,0.007069,0.026111,-0.008521,-0.009176,-0.036619,0.018462,-0.502756,0.024755,-0.751422,-263.795004,-0.997212,62.977039
6.6379,0.005596,0.006973,0.025687,-0.008271,-0.008906,-0.035545,0.019057,-0.502757,0.025525,-0.751422,-263.795004,-0.997212,62.977039
6.6579,0.006392,0.007133,0.02474,-0.007976,-0.008589,-0.034278,0.019057,-0.502757,0.025525,-0.751422,-263.795004,-0.997212,62.977039
6.6777,0.006046,0.006973,0.024495,-0.007632,-0.008218,-0.032798,0.019009,-0.502711,0.02474,-0.676427,-263.795005,-0.997212,62.977039
6.6977,0.006198,0.007148,0.024234,-0.007249,-0.007806,-0.031152,0.018977,-0.502721,0.024724,-0.676427,-263.795005,-0.997212,62.977039
6.7179,0.006065,0.007033,0.025573,-0.006817,-0.00734,-0.029295,0.018556,-0.502702,0.024234,-0.601426,-263.795006,-0.997212,62.977038
6.7379,0.00606,0.006916,0.026361,-0.006341,-0.006828,-0.02725,0.018869,-0.502758,0.024997,-0.601426,-263.795006,-0.997212,62.977038
6.7577,0.006175,0.00707,0.026169,-0.005818,-0.006265,-0.025002,0.018869,-0.502758,0.024997,-0.601426,-263.795006,-0.997212,62.977038
6.7778,0.005969,0.007116,0.026017,-0.00525,-0.005653,-0.022561,0.019519,-0.502756,0.026169,-0.526418,-263.795008,-0.997212,62.977037
6.7982,0.005922,0.00686,0.0262,-0.004637,-0.004993,-0.019927,0.019499,-0.502752,0.026158,-0.526418,-263.795008,-0.997212,62.977037
6.8178,0.005882,0.007186,0.027373,-0.003977,-0.004282,-0.017091,0.019282,-0.502965,0.0262,-0.451428,-263.795008,-0.997212,62.977037
6.8378,0.0061,0.006921,0.026489,-0.003271,-0.003523,-0.014058,0.019594,-0.502774,0.026856,-0.451428,-263.795008,-0.997212,62.977037
6.8579,0.005931,0.00716,0.025958,-0.00252,-0.002714,-0.010831,0.019594,-0.502774,0.026856,-0.451428,-263.795008,-0.997212,62.977037
6.8778,0.006089,0.007184,0.025833,-0.001727,-0.00186,-0.007422,0.019168,-0.502668,0.025958,-0.376433,-263.795009,-0.997212,62.977037
6.8978,0.005968,0.006968,0.026151,-0.000887,-0.000955,-0.003811,0.019175,-0.502667,0.02595,-0.376433,-263.795009,-0.997212,62.977037
6.9178,0.006107,0.006943,0.026586,-0.0,-0.0,-0.0,0.019303,-0.502858,0.026151,-0.301433,-263.79501,-0.997212,62.977036
6.9379,0.005798,0.007038,0.026106,0.0,0.0,0.0,0.019508,-0.502869,0.026398,-0.301433,-263.79501,-0.997212,62.977036
6.9581,0.005784,0.007198,0.025253,0.0,0.0,0.0,0.019508,-0.502869,0.026398,-0.301433,-263.79501,-0.997212,62.977036
6.9778,0.00598,0.007108,0.026396,0.0,0.0,0.0,0.018662,-0.502639,0.025253,-0.226425,-263.79501,-0.997212,62.977036
6.998,0.005757,0.006957,0.02479,0.0,0.0,0.0,0.018717,-0.502644,0.025333,-0.226425,-263.79501,-0.997212,62.977036
7.0177,0.00586,0.007156,0.026122,0.0,0.0,0.0,0.018398,-0.502886,0.02479,-0.226425,-263.79501,-0.997212,62.977036
7.038,0.006032,0.00694,0.026658,0.0,0.0,0.0,0.018846,-0.502762,0.025552,-0.226425,-263.79501,-0.997212,62.977036
7.0578,0.005617,0.007114,0.024277,0.0,0.0,0.0,0.018846,-0.502762,0.025552,-0.226425,-263.79501,-0.997212,62.977036
7.0785,0.005879,0.007056,0.025883,0.0,0.0,0.0,0.017997,-0.502735,0.024277,-0.226425,-263.79501,-0.997212,62.977036
7.0981,0.006159,0.007241,0.022698,0.0,0.0,0.0,0.018073,-0.502738,0.02439,-0.226425,-263.79501,-0.997212,62.977036
7.1183,0.006211,0.007275,0.02621,0.0,0.0,0.0,0.017734,-0.502628,0.022698,-0.226425,-263.79501,-0.997212,62.977036
7.1378,0.006406,0.006915,0.024836,0.0,0.0,0.0,0.01878,-0.502584,0.024691,-0.226425,-263.79501,-0.997212,62.977036
7.158,0.005804,0.007158,0.026066,-7e-05,-7.2e-05,0.0,0.01878,-0.502584,0.024691,-0.226425,-263.79501,-0.997212,62.977036
7.1778,0.005858,0.006864,0.026231,-7e-05,-7.2e-05,0.0,0.019096,-0.502669,0.026066,-0.226425,-263.79501,-0.997212,62.977036
7.1981,0.005792,0.007012,0.025571,-7e-05,-7.2e-05,0.0,0.019105,-0.502688,0.026077,-0.226425,-263.79501,-0.997212,62.977036
7.2181,0.005965,0.007129,0.02454,-7e-05,-7.2e-05,0.0,0.018831,-0.502821,0.025571,-0.151424,-263.79501,-0.92221,62.977036
7.2379,0.00611,0.006868,0.024137,-7e-05,-7.2e-05,0.0,0.018631,-0.502762,0.024984,-0.151424,-263.79501,-0.92221,62.977036
7.258,0.006093,0.006469,0.027414,-7e-05,-7.2e-05,0.0,0.018631,-0.502762,0.024984,-0.151424,-263.79501,-0.92221,62.977036
7.2778,0.006093,0.006677,0.024605,-7e-05,-7.2e-05,0.0,0.020073,-0.503339,0.027414,-0.07643,-263.79501,-0.847217,62.977036
7.2983,0.005744,0.006897,0.024279,-7e-05,-7.2e-05,0.0,0.019977,-0.503328,0.027227,-0.07643,-263.79501,-0.847217,62.977036
7.3185,0.005878,0.007144,0.025799,-7e-05,-7.2e-05,0.0,0.018126,-0.502953,0.024279,-0.001435,-263.79501,-0.772222,62.977036
7.3382,0.006241,0.007278,0.02493,-7e-05,-7.2e-05,0.0,0.018634,-0.502803,0.025131,-0.001435,-263.79501,-0.772222,62.977036
7.3579,0.006229,0.007405,0.025477,-1e-06,-1e-06,-4e-06,0.018634,-0.502803,0.025131,-0.001435,-263.79501,-0.772222,62.977036
7.3778,0.005815,0.007275,0.024175,-0.000963,-0.000989,-0.003636,0.019221,-0.502429,0.025477,0.073566,-263.79501,-0.69722,62.977036
7.3982,0.005732,0.00671,0.025356,-0.001876,-0.001927,-0.007087,0.019145,-0.50244,0.025386,0.073566,-263.79501,-0.69722,62.977036
7.4181,0.005868,0.006872,0.025104,-0.002739,-0.002813,-0.010343,0.018662,-0.503126,0.025356,0.148568,-263.79501,-0.772222,62.977036
7.4383,0.006164,0.006924,0.026903,-0.003554,-0.00365,-0.013424,0.018667,-0.503035,0.025212,0.148568,-263.79501,-0.772222,62.977036
7.4583,0.005747,0.00731,0.024133,-0.004316,-0.004433,-0.016302,0.018667,-0.503035,0.025212,0.148568,-263.79501,-0.772222,62.977036
7.4779,0.006149,0.006775,0.023522,-0.005032,-0.005168,-0.019004,0.018053,-0.502542,0.024133,0.223663,-263.79501,-0.847317,62.977036
7.4982,0.005624,0.006852,0.025806,-0.005703,-0.005857,-0.021539,0.01806,-0.502579,0.024091,0.223663,-263.79501,-0.847317,62.977036
7.518,0.006082,0.006951,0.026233,-0.006316,-0.006487,-0.023854,0.018783,-0.502978,0.025806,0.298724,-263.79501,-0.907461,62.977036
7.5378,0.006157,0.007217,0.024997,-0.006879,-0.007066,-0.025983,0.01917,-0.502918,0.026051,0.298724,-263.79501,-0.907461,62.977036
7.5582,0.005729,0.007227,0.025776,-0.007398,-0.007599,-0.027942,0.01917,-0.502918,0.026051,0.298724,-263.79501,-0.907461,62.977036
7.5777,0.005906,0.007313,0.025674,-0.007866,-0.00808,-0.02971,0.018873,-0.502604,0.025775,0.373706,-263.795011,-0.907461,62.977036
7.5982,0.00611,0.007128,0.024285,-0.008285,-0.00851,-0.031294,0.018883,-0.502597,0.025768,0.373706,-263.795011,-0.907461,62.977036
7.6178,0.005727,0.006969,0.025415,-0.008656,-0.008891,-0.032693,0.018494,-0.502722,0.024285,0.448857,-263.795012,-0.907461,62.977035
7.6382,0.00605,0.007597,0.025422,-0.008977,-0.00922,-0.033905,0.018605,-0.502804,0.024933,0.448857,-263.795012,-0.907461,62.977035
7.6577,0.00589,0.007275,0.026326,-0.009248,-0.009498,-0.034928,0.018605,-0.502804,0.024933,0.448857,-263.795012,-0.907461,62.977035
7.6782,0.005984,0.006842,0.024917,-0.009469,-0.009726,-0.035764,0.019314,-0.502548,0.026326,0.523709,-263.795013,-0.907461,62.977035
7.6982,0.00576,0.006797,0.02576,-0.009642,-0.009903,-0.036416,0.019271,-0.502579,0.026229,0.523709,-263.795013,-0.907461,62.977035
7.718,0.005795,0.006817,0.023934,-0.009765,-0.01003,-0.036881,0.018896,-0.503034,0.02576,0.598599,-263.795015,-0.907461,62.977034
7.7376,0.006116,0.007093,0.02552,-0.009839,-0.010105,-0.03716,0.018387,-0.503036,0.024722,0.598599,-263.795015,-0.907461,62.977034
7.7577,0.006288,0.00657,0.025134,-0.009863,-0.010131,-0.037253,0.018387,-0.503036,0.024722,0.598599,-263.795015,-0.907461,62.977034
7.7781,0.005906,0.006869,0.024825,-0.009839,-0.010105,-0.03716,0.019105,-0.503269,0.025134,0.673585,-263.795021,-0.907461,62.977031
7.7981,0.006411,0.007219,0.025727,-0.009765,-0.010029,-0.03688,0.019066,-0.503248,0.025111,0.673585,-263.795021,-0.907461,62.977031
7.8179,0.005722,0.007278,0.027305,-0.009641,-0.009903,-0.036415,0.01953,-0.502613,0.025725,0.748624,-263.795048,-0.907461,62.977019
7.8378,0.006315,0.007118,0.025533,-0.009468,-0.009724,-0.035758,0.019596,-0.502567,0.02663,0.748624,-263.795048,-0.907461,62.977019
7.858,0.0062,0.006746,0.025586,-0.009246,-0.009497,-0.034923,0.019596,-0.502567,0.02663,0.748624,-263.795048,-0.907461,62.977019
7.8778,0.005897,0.00694,0.026796,-0.008975,-0.009219,-0.0339,0.019241,-0.50309,0.025573,0.823682,-263.795168,-0.907461,62.976962
7.8981,0.005771,0.007207,0.026425,-0.008655,-0.00889,-0.032689,0.019262,-0.503076,0.025655,0.823682,-263.795168,-0.907461,62.976962
7.9178,0.005613,0.006891,0.024786,-0.008285,-0.00851,-0.031292,0.019228,-0.502623,0.026388,0.898564,-263.79558,-0.907461,62.97677
7.9378,0.006176,0.00694,0.026529,-0.007864,-0.008077,-0.0297,0.018669,-0.502812,0.025468,0.898564,-263.79558,-0.907461,62.97677
7.9578,0.005887,0.007048,0.026358,-0.007398,-0.007598,-0.02794,0.018669,-0.502812,0.025468,0.898564,-263.79558,-0.907461,62.97677
7.9779,0.006109,0.007081,0.025367,-0.00688,-0.007066,-0.025984,0.019271,-0.502808,0.026226,0.973682,-263.796695,-0.907461,62.97625
7.9981,0.005882,0.007172,0.024534,-0.006312,-0.006484,-0.023841,0.019254,-0.502805,0.026163,0.973682,-263.796695,-0.907461,62.97625
8.018,0.005922,0.006608,0.02506,-0.005696,-0.00585,-0.021513,0.018309,-0.502731,0.024314,1.048559,-263.798951,-0.907461,62.975197
8.0379,0.006207,0.006584,0.026457,-0.005029,-0.005166,-0.018996,0.018523,-0.503024,0.024713,1.048559,-263.798951,-0.907461,62.975197
8.058,0.006483,0.00662,0.023756,-0.004315,-0.004432,-0.016297,0.018523,-0.503024,0.024713,1.048559,-263.798951,-0.907461,62.975197
8.0779,0.00609,0.006942,0.024671,-0.00355,-0.003646,-0.013408,0.018438,-0.503361,0.023287,1.123684,-263.802669,-0.907461,62.973463
8.0982,0.006285,0.006821,0.023964,-0.002736,-0.00281,-0.010334,0.01845,-0.503332,0.023371,1.123684,-263.802669,-0.907461,62.973463
8.1178,0.006102,0.006902,0.024509,-0.001872,-0.001923,-0.007071,0.01838,-0.503146,0.023547,1.198671,-263.806733,-0.907461,62.971566
8.1379,0.006106,0.006486,0.023905,-0.000956,-0.000982,-0.003612,0.01849,-0.503045,0.024044,1.198671,-263.806733,-0.907461,62.971566
8.1581,0.006283,0.006646,0.023615,0.0,0.0,0.0,0.01849,-0.503045,0.024044,1.198671,-263.806733,-0.907461,62.971566
8.1782,0.006497,0.006347,0.024629,0.0,0.0,0.0,0.018207,-0.503337,0.023162,1.273627,-263.810168,-0.907461,62.969963
8.1983,0.006152,0.006543,0.023096,0.0,0.0,0.0,0.018263,-0.503352,0.023252,1.273627,-263.810168,-0.907461,62.969963
8.2178,0.006502,0.006542,0.024649,0.0,0.0,0.0,0.01793,-0.503321,0.023096,1.273627,-263.810168,-0.907461,62.969963
8.2376,0.006176,0.006633,0.023489,0.0,0.0,0.0,0.018585,-0.503311,0.023987,1.273627,-263.810168,-0.907461,62.969963
8.2577,0.006538,0.006676,0.023926,0.0,0.0,0.0,0.018585,-0.503311,0.023987,1.273627,-263.810168,-0.907461,62.969963
8.2779,0.006289,0.006576,0.024897,0.0,0.0,0.0,0.018739,-0.503178,0.023926,1.273627,-263.810168,-0.907461,62.969963
8.2982,0.006829,0.006774,0.023653,0.0,0.0,0.0,0.018756,-0.503184,0.023994,1.273627,-263.810168,-0.907461,62.969963
8.3177,0.006547,0.006691,0.023026,0.0,0.0,0.0,0.018892,-0.503083,0.023653,1.273627,-263.810168,-0.907461,62.969963
8.3379,0.006421,0.006763,0.023321,0.0,0.0,0.0,0.018547,-0.503135,0.023294,1.273627,-263.810168,-0.907461,62.969963
8.3581,0.006002,0.00631,0.024449,0.0,0.0,0.0,0.018547,-0.503135,0.023294,1.273627,-263.810168,-0.907461,62.969963
8.3779,0.006248,0.006549,0.02323,0.0,0.0,0.0,0.018469,-0.503537,0.024449,1.273627,-263.810168,-0.907461,62.969963
8.3983,0.006614,0.006543,0.024422,-7.1e-05,-7.1e-05,0.0,0.018438,-0.503519,0.024347,1.273627,-263.810168,-0.907461,62.969963
8.4183,0.006202,0.006827,0.023423,-7.1e-05,-7.1e-05,0.0,0.019068,-0.503305,0.024422,1.273627,-263.810168,-0.907461,62.969963
8.4383,0.006331,0.006687,0.023027,-7.1e-05,-7.1e-05,0.0,0.018545,-0.503151,0.023855,1.273627,-263.810168,-0.907461,62.969963
8.4582,0.006363,0.006817,0.022276,-7.1e-05,-7.1e-05,0.0,0.018545,-0.503151,0.023855,1.273627,-263.810168,-0.907461,62.969963
8.4788,0.006203,0.006637,0.024954,-7.1e-05,-7.1e-05,0.0,0.017723,-0.503057,0.022276,1.198895,-263.810168,-0.832728,62.969963
8.4983,0.006268,0.006224,0.023088,-7.1e-05,-7.1e-05,0.0,0.017796,-0.503066,0.022438,1.198895,-263.810168,-0.832728,62.969963
8.5177,0.006493,0.006128,0.024431,-7.1e-05,-7.1e-05,0.0,0.018042,-0.50364,0.023088,1.12402,-263.810168,-0.757853,62.969963
8.538,0.005994,0.006311,0.024565,-7.1e-05,-7.1e-05,0.0,0.01856,-0.503685,0.023853,1.12402,-263.810168,-0.757853,62.969963
8.558,0.006456,0.006396,0.024267,-7.1e-05,-7.1e-05,0.0,0.01856,-0.503685,0.023853,1.12402,-263.810168,-0.757853,62.969963
8.5782,0.006748,0.006469,0.023239,-7.1e-05,-7.1e-05,0.0,0.018831,-0.503454,0.024267,1.048983,-263.810168,-0.682817,62.969963
8.5982,0.006544,0.006511,0.022749,-1e-06,-1e-06,-2e-06,0.018814,-0.50345,0.024194,1.048983,-263.810168,-0.682817,62.969963
8.618,0.006165,0.006294,0.024311,-0.000936,-0.000937,-0.003399,0.018145,-0.503357,0.022749,0.973978,-263.810168,-0.607812,62.969963
8.6384,0.00658,0.006424,0.023694,-0.001825,-0.001826,-0.006626,0.018383,-0.50347,0.023639,0.973978,-263.810168,-0.607812,62.969963
8.6585,0.006466,0.006534,0.02342,-0.002663,-0.002665,-0.00967,0.018383,-0.50347,0.023639,0.973978,-263.810168,-0.607812,62.969963
8.6779,0.006168,0.006719,0.023424,-0.003456,-0.003458,-0.012546,0.018409,-0.503326,0.02342,1.048963,-263.810168,-0.682796,62.969963
8.6981,0.006165,0.006647,0.02372,-0.004199,-0.004202,-0.015246,0.018389,-0.503313,0.023421,1.048963,-263.810168,-0.682796,62.969963
8.7178,0.006221,0.006088,0.023043,-0.004896,-0.004899,-0.017775,0.018229,-0.503235,0.023637,1.124033,-263.811028,-0.757866,62.969562
8.7384,0.006525,0.006602,0.022063,-0.005546,-0.00555,-0.020137,0.018078,-0.503549,0.023285,1.124033,-263.811028,-0.757866,62.969562
8.7577,0.006701,0.006775,0.022027,-0.006142,-0.006146,-0.0223,0.018078,-0.503549,0.023285,1.124033,-263.811028,-0.757866,62.969562
8.778,0.006601,0.006536,0.020704,-0.006695,-0.006699,-0.024308,0.017807,-0.503216,0.021629,1.19907,-263.814157,-0.832903,62.968099
8.798,0.006877,0.006512,0.021825,-0.007198,-0.007203,-0.026135,0.017759,-0.503229,0.021554,1.19907,-263.814157,-0.832903,62.968099
8.8178,0.006897,0.006257,0.021613,-0.007654,-0.007659,-0.027791,0.017823,-0.503502,0.021189,1.269507,-263.819795,-0.882896,62.964661
8.8379,0.006469,0.006004,0.022698,-0.008063,-0.008067,-0.029272,0.017855,-0.503588,0.02135,1.269507,-263.819795,-0.882896,62.964661
8.8585,0.006546,0.006289,0.022036,-0.008422,-0.008427,-0.030578,0.017855,-0.503588,0.02135,1.269507,-263.819795,-0.882896,62.964661
8.8777,0.006884,0.00567,0.021473,-0.008734,-0.008739,-0.03171,0.017468,-0.503853,0.020916,1.269507,-263.827929,-0.882896,62.960125
8.8982,0.006918,0.005658,0.018743,-0.008998,-0.009003,-0.032668,0.017486,-0.503887,0.020926,1.269507,-263.827929,-0.882896,62.960125
8.9177,0.007152,0.006142,0.020158,-0.009214,-0.009219,-0.033452,0.016168,-0.50455,0.017619,1.269507,-263.83856,-0.882896,62.954821
8.9377,0.00747,0.005433,0.019767,-0.009381,-0.009387,-0.034061,0.016853,-0.504132,0.01893,1.269507,-263.83856,-0.882896,62.954821
8.9578,0.007099,0.005929,0.01983,-0.009502,-0.009507,-0.034497,0.016853,-0.504132,0.01893,1.269507,-263.83856,-0.882896,62.954821
8.9782,0.007734,0.005185,0.017158,-0.009574,-0.00958,-0.034759,0.016783,-0.504416,0.018242,1.269507,-263.850688,-0.882896,62.949152
8.9981,0.007507,0.004777,0.018735,-0.009598,-0.009603,-0.034845,0.016751,-0.504451,0.018124,1.269507,-263.850688,-0.882896,62.949152
9.0181,0.008227,0.004428,0.016216,-0.009573,-0.009579,-0.034758,0.016702,-0.505507,0.017404,1.269507,-263.86348,-0.882896,62.943174
9.0379,0.007873,0.004503,0.017271,-0.009501,-0.009507,-0.034495,0.016539,-0.505553,0.016559,1.269507,-263.86348,-0.882896,62.943174
9.0576,0.008068,0.004776,0.016994,-0.009382,-0.009387,-0.034061,0.016539,-0.505553,0.016559,1.269507,-263.86348,-0.882896,62.943174
9.0777,0.008562,0.003485,0.013385,-0.009214,-0.009219,-0.033451,0.016276,-0.505625,0.0153,1.269507,-263.876417,-0.882896,62.937127
9.0981,0.008065,0.004262,0.013935,-0.008998,-0.009003,-0.032667,0.016202,-0.505696,0.015122,1.269507,-263.876417,-0.882896,62.937127
9.1179,0.008838,0.003763,0.012347,-0.008733,-0.008738,-0.031707,0.014814,-0.506056,0.012619,1.269507,-263.889063,-0.882896,62.931217
9.1379,0.008738,0.003648,0.012397,-0.008422,-0.008427,-0.030577,0.014951,-0.506183,0.012297,1.269507,-263.889063,-0.882896,62.931217
9.1578,0.008663,0.003719,0.012227,-0.008062,-0.008067,-0.029269,0.014951,-0.506183,0.012297,1.269507,-263.889063,-0.882896,62.931217
9.1778,0.009742,0.003271,0.010884,-0.007652,-0.007657,-0.027783,0.014466,-0.506686,0.010637,1.269507,-263.901216,-0.882896,62.925536
9.1979,0.009031,0.003271,0.010227,-0.007198,-0.007202,-0.026133,0.014513,-0.506699,0.010611,1.269507,-263.901216,-0.882896,62.925536
9.2179,0.009635,0.003391,0.009376,-0.006693,-0.006697,-0.024299,0.013939,-0.507016,0.009099,1.269507,-263.91206,-0.882896,62.920468
9.2377,0.00965,0.003115,0.010079,-0.006139,-0.006143,-0.022289,0.014173,-0.506811,0.009114,1.269507,-263.91206,-0.882896,62.920468
9.2576,0.009591,0.002994,0.011696,-0.005543,-0.005546,-0.020123,0.014173,-0.506811,0.009114,1.269507,-263.91206,-0.882896,62.920468
9.2782,0.01003,0.002518,0.008558,-0.004894,-0.004897,-0.017769,0.01521,-0.507325,0.010426,1.269507,-263.921763,-0.882896,62.915933
9.298,0.010032,0.002469,0.008227,-0.004199,-0.004201,-0.015244,0.015144,-0.507344,0.010261,1.269507,-263.921763,-0.882896,62.915933
9.3179,0.010221,0.002019,0.006267,-0.003451,-0.003453,-0.012529,0.014015,-0.50773,0.007449,1.269507,-263.929234,-0.882896,62.912441
9.3381,0.010256,0.002556,0.00834,-0.002662,-0.002664,-0.009665,0.013649,-0.507894,0.006679,1.269507,-263.929234,-0.882896,62.912441
9.3579,0.009949,0.002465,0.007277,-0.001822,-0.001823,-0.006614,0.013649,-0.507894,0.006679,1.269507,-263.929234,-0.882896,62.912441
9.378,0.010371,0.002174,0.006399,-0.000936,-0.000936,-0.003397,0.013457,-0.507727,0.006535,1.269507,-263.934893,-0.882896,62.909796
9.3983,0.01021,0.002127,0.006958,0.0,0.0,0.0,0.013464,-0.507739,0.006507,1.269507,-263.934893,-0.882896,62.909796
9.4186,0.010564,0.001728,0.00656,0.0,0.0,0.0,0.013689,-0.507933,0.0067,1.269507,-263.937348,-0.882896,62.908649
9.438,0.010348,0.001849,0.004508,0.0,0.0,0.0,0.013803,-0.508126,0.00659,1.269507,-263.937348,-0.882896,62.908649
9.4578,0.010479,0.001961,0.004895,0.0,0.0,0.0,0.013803,-0.508126,0.00659,1.269507,-263.937348,-0.882896,62.908649
9.4782,0.010507,0.001837,0.005583,0.0,0.0,0.0,0.012975,-0.508033,0.004895,1.269507,-263.937348,-0.882896,62.908649
9.4985,0.010198,0.001726,0.007326,0.0,0.0,0.0,0.013002,-0.508042,0.004943,1.269507,-263.937348,-0.882896,62.908649
9.5181,0.010432,0.001986,0.007938,0.0,0.0,0.0,0.013934,-0.508261,0.007326,1.269507,-263.937348,-0.882896,62.908649
9.5381,0.01021,0.00209,0.006304,0.0,0.0,0.0,0.014244,-0.508111,0.007673,1.269507,-263.937348,-0.882896,62.908649
9.5583,0.010562,0.001997,0.005502,0.0,0.0,0.0,0.014244,-0.508111,0.007673,1.269507,-263.937348,-0.882896,62.908649
9.5781,0.010524,0.001976,0.006623,0.0,0.0,0.0,0.013368,-0.507996,0.005502,1.269507,-263.937348,-0.882896,62.908649
9.5984,0.010555,0.002158,0.005486,0.0,0.0,0.0,0.013405,-0.507997,0.00558,1.269507,-263.937348,-0.882896,62.908649
9.618,0.010484,0.002079,0.00607,-9.8e-05,-1.9e-05,0.0,0.013353,-0.507834,0.005486,1.269507,-263.937348,-0.882896,62.908649
9.638,0.010009,0.001988,0.005699,-9.8e-05,-1.9e-05,0.0,0.01348,-0.507878,0.005814,1.269507,-263.937348,-0.882896,62.908649
9.6582,0.010213,0.001822,0.005446,-9.8e-05,-1.9e-05,0.0,0.01348,-0.507878,0.005814,1.269507,-263.937348,-0.882896,62.908649
9.678,0.010758,0.001938,0.006407,-9.8e-05,-1.9e-05,0.0,0.012991,-0.508171,0.005446,1.269507,-263.937348,-0.882896,62.908649
9.6988,0.010336,0.001806,0.005447,-9.8e-05,-1.9e-05,0.0,0.01307,-0.508162,0.00552,1.269507,-263.937348,-0.882896,62.908649
9.7184,0.010075,0.00178,0.004274,-9.8e-05,-1.9e-05,0.0,0.013114,-0.508187,0.005447,1.194217,-263.937348,-0.807605,62.908649
9.7384,0.010103,0.002256,0.005595,-9.8e-05,-1.9e-05,0.0,0.012626,-0.508203,0.004781,1.194217,-263.937348,-0.807605,62.908649
9.758,0.010454,0.002241,0.006273,-9.8e-05,-1.9e-05,0.0,0.012626,-0.508203,0.004781,1.194217,-263.937348,-0.807605,62.908649
9.7779,0.0103,0.001602,0.006394,-9.8e-05,-1.9e-05,0.0,0.013653,-0.507749,0.006273,1.119507,-263.937348,-0.732895,62.908649
9.7985,0.010401,0.001852,0.004694,-9.8e-05,-1.9e-05,0.0,0.013647,-0.507795,0.006282,1.119507,-263.937348,-0.732895,62.908649
9.8182,0.010659,0.001993,0.008069,-1e-06,-0.0,-0.0,0.012795,-0.508142,0.004694,1.044465,-263.937348,-0.657853,62.908649
9.8377,0.010695,0.001801,0.005554,-0.001546,-0.000307,-0.000803,0.013907,-0.508057,0.006589,1.044465,-263.937348,-0.657853,62.908649
9.8585,0.010709,0.001883,0.006573,-0.003012,-0.000599,-0.001564,0.013907,-0.508057,0.006589,1.044465,-263.937348,-0.657853,62.908649
9.8778,0.010454,0.001964,0.007264,-0.0044,-0.000875,-0.002285,0.014062,-0.508106,0.006573,0.969512,-263.937348,-0.5829,62.908649
9.8983,0.010649,0.002239,0.005741,-0.005705,-0.001134,-0.002962,0.014069,-0.5081,0.006622,0.969512,-263.937348,-0.5829,62.908649
9.9177,0.010456,0.002151,0.004665,-0.006934,-0.001378,-0.0036,0.013577,-0.507753,0.005741,0.894511,-263.937349,-0.507899,62.908648
9.9377,0.010223,0.002091,0.005934,-0.008087,-0.001608,-0.004199,0.013152,-0.507805,0.005124,0.894511,-263.937349,-0.507899,62.908648
9.9581,0.010428,0.002023,0.006636,-0.009156,-0.00182,-0.004754,0.013152,-0.507805,0.005124,0.894511,-263.937349,-0.507899,62.908648
9.9779,0.010459,0.002058,0.005065,-0.010144,-0.002016,-0.005267,0.013811,-0.507966,0.006635,0.819396,-263.937361,-0.432784,62.908637
9.9982,0.010345,0.001912,0.006036,-0.011055,-0.002198,-0.00574,0.013757,-0.507964,0.006525,0.819396,-263.937361,-0.432784,62.908637
10.018,0.010357,0.00168,0.006481,-0.011888,-0.002363,-0.006172,0.013414,-0.508081,0.006026,0.744525,-263.937481,-0.357914,62.90853
10.0379,0.010329,0.00185,0.00704,-0.012641,-0.002513,-0.006563,0.013556,-0.508212,0.006286,0.744525,-263.937481,-0.357914,62.90853
10.0579,0.010361,0.002224,0.006086,-0.013316,-0.002647,-0.006914,0.013556,-0.508212,0.006286,0.744525,-263.937481,-0.357914,62.90853
10.0779,0.010442,0.001906,0.005124,-0.013908,-0.002765,-0.007221,0.013404,-0.50778,0.006033,0.669356,-263.938091,-0.282744,62.907984
10.0978,0.010185,0.002117,0.007534,-0.014424,-0.002867,-0.007489,0.013376,-0.507803,0.005965,0.669356,-263.938091,-0.282744,62.907984
10.1182,0.01013,0.001708,0.005416,-0.01486,-0.002954,-0.007716,0.013853,-0.507908,0.00741,0.594399,-263.940214,-0.207788,62.906084
10.1383,0.010206,0.002212,0.006376,-0.015216,-0.003025,-0.0079,0.013281,-0.508129,0.006251,0.594399,-263.940214,-0.207788,62.906084
10.1585,0.0101,0.00182,0.006256,-0.015493,-0.00308,-0.008044,0.013281,-0.508129,0.006251,0.594399,-263.940214,-0.207788,62.906084
10.1778,0.009737,0.001548,0.00604,-0.015692,-0.003119,-0.008147,0.012806,-0.508277,0.005978,0.51938,-263.944765,-0.132769,62.902011
10.1977,0.009722,0.0017,0.005642,-0.015811,-0.003143,-0.008209,0.012794,-0.508291,0.005975,0.51938,-263.944765,-0.132769,62.902011
10.2178,0.009384,0.001445,0.005341,-0.01585,-0.003151,-0.00823,0.012021,-0.50841,0.005342,0.476276,-263.95151,-0.117771,62.895975
10.2387,0.00926,0.001394,0.005557,-0.015811,-0.003143,-0.008209,0.011997,-0.508503,0.005303,0.476276,-263.95151,-0.117771,62.895975
10.2578,0.00955,0.001683,0.005628,-0.015692,-0.003119,-0.008147,0.011997,-0.508503,0.005303,0.476276,-263.95151,-0.117771,62.895975
10.2778,0.00876,0.001186,0.007334,-0.015494,-0.00308,-0.008044,0.011652,-0.508465,0.005229,0.476276,-263.958626,-0.117771,62.889607
10.2982,0.008439,0.001176,0.004996,-0.015216,-0.003025,-0.0079,0.011691,-0.508493,0.005364,0.476276,-263.958626,-0.117771,62.889607
10.3179,0.00814,0.001262,0.004222,-0.01486,-0.002954,-0.007715,0.01038,-0.508941,0.004681,0.476276,-263.9657,-0.117771,62.883277
10.3378,0.008286,0.001351,0.003347,-0.014425,-0.002867,-0.007489,0.010254,-0.508838,0.004379,0.476276,-263.9657,-0.117771,62.883277
10.3585,0.007982,0.001512,0.004975,-0.013909,-0.002765,-0.007222,0.010254,-0.508838,0.004379,0.476276,-263.9657,-0.117771,62.883277
10.3779,0.007527,0.00134,0.004027,-0.013315,-0.002647,-0.006913,0.00978,-0.508632,0.00459,0.476276,-263.972539,-0.117771,62.877157
10.3986,0.008007,0.001357,0.004096,-0.012641,-0.002513,-0.006563,0.009748,-0.508637,0.004544,0.476276,-263.972539,-0.117771,62.877157
10.4177,0.007091,0.00086,0.004823,-0.01186,-0.002357,-0.006158,0.009559,-0.508747,0.003817,0.476276,-263.978806,-0.117771,62.871548
10.438,0.007121,0.000875,0.003936,-0.011056,-0.002198,-0.00574,0.009486,-0.508983,0.004357,0.476276,-263.978806,-0.117771,62.871548
10.4581,0.007209,0.000947,0.004017,-0.010143,-0.002016,-0.005267,0.009486,-0.508983,0.004357,0.476276,-263.978806,-0.117771,62.871548
10.4785,0.006684,0.000919,0.00239,-0.009146,-0.001818,-0.004749,0.008644,-0.509173,0.003698,0.476276,-263.98449,-0.117771,62.866462
10.4983,0.006693,0.000931,0.003012,-0.008078,-0.001606,-0.004194,0.008579,-0.50917,0.003602,0.476276,-263.98449,-0.117771,62.866462
10.5184,0.006168,0.000742,0.003828,-0.006931,-0.001378,-0.003599,0.007837,-0.509146,0.002809,0.476276,-263.989056,-0.117771,62.862375
10.5379,0.005808,0.00067,0.001855,-0.005697,-0.001132,-0.002958,0.007948,-0.509218,0.003362,0.476276,-263.989056,-0.117771,62.862375
10.558,0.006188,0.000843,0.003236,-0.004389,-0.000872,-0.002279,0.007948,-0.509218,0.003362,0.476276,-263.989056,-0.117771,62.862375
10.5784,0.006084,0.000465,0.002387,-0.003006,-0.000598,-0.001561,0.007446,-0.509234,0.003032,0.476276,-263.992691,-0.117771,62.859122
10.5989,0.005998,0.000601,0.003052,-0.001543,-0.000307,-0.000801,0.007426,-0.509256,0.002984,0.476276,-263.992691,-0.117771,62.859122
10.6184,0.005914,0.000442,0.00205,0.0,0.0,0.0,0.007385,-0.509431,0.002964,0.476276,-263.994669,-0.117771,62.857352
10.6381,0.005723,0.000535,0.002621,0.0,0.0,0.0,0.007121,-0.509507,0.002432,0.476276,-263.994669,-0.117771,62.857352
10.6578,0.00572,0.00043,0.003335,0.0,0.0,0.0,0.007121,-0.509507,0.002432,0.476276,-263.994669,-0.117771,62.857352
10.6783,0.005639,0.000609,0.00358,0.0,0.0,0.0,0.007346,-0.509582,0.003296,0.476276,-263.995368,-0.117771,62.856726
10.6979,0.006166,0.000766,0.003419,0.0,0.0,0.0,0.007353,-0.509566,0.003318,0.476276,-263.995368,-0.117771,62.856726
10.7183,0.005522,0.000312,0.0039,0.0,0.0,0.0,0.00791,-0.509231,0.003419,0.476276,-263.995368,-0.117771,62.856726
10.738,0.005562,0.000943,0.004723,0.0,0.0,0.0,0.007683,-0.509488,0.003692,0.476276,-263.995368,-0.117771,62.856726
10.7582,0.006048,0.000343,0.003717,0.0,0.0,0.0,0.007683,-0.509488,0.003692,0.476276,-263.995368,-0.117771,62.856726
10.7783,0.005851,0.000661,0.002995,0.0,0.0,0.0,0.007943,-0.509653,0.003717,0.476276,-263.995368,-0.117771,62.856726
10.7978,0.005728,0.000911,0.002632,0.0,0.0,0.0,0.007906,-0.509632,0.003669,0.476276,-263.995368,-0.117771,62.856726
10.8178,0.005311,0.000878,0.00303,0.0,0.0,0.0,0.00707,-0.509088,0.002632,0.476276,-263.995368,-0.117771,62.856726
10.8378,0.00539,0.000711,0.003326,-9.9e-05,-1.6e-05,0.0,0.006949,-0.509106,0.002858,0.476276,-263.995368,-0.117771,62.856726
10.8583,0.005908,0.000541,0.002136,-9.9e-05,-1.6e-05,0.0,0.006949,-0.509106,0.002858,0.476276,-263.995368,-0.117771,62.856726
10.878,0.005914,0.001234,0.002838,-9.9e-05,-1.6e-05,0.0,0.006997,-0.509457,0.002136,0.476276,-263.995368,-0.117771,62.856726
10.8985,0.005484,0.000525,0.002655,-9.9e-05,-1.6e-05,0.0,0.007026,-0.509402,0.002192,0.476276,-263.995368,-0.117771,62.856726
10.9178,0.00567,0.000728,0.002798,-9.9e-05,-1.6e-05,0.0,0.006838,-0.509473,0.002655,0.400902,-263.995371,-0.042397,62.856724
10.938,0.005949,0.00034,0.004983,-9.9e-05,-1.6e-05,0.0,0.006989,-0.509355,0.002738,0.400902,-263.995371,-0.042397,62.856724
10.9581,0.005705,0.000527,0.003085,-9.9e-05,-1.6e-05,0.0,0.006989,-0.509355,0.002738,0.400902,-263.995371,-0.042397,62.856724
10.9784,0.005917,0.000701,0.0024,-9.9e-05,-1.6e-05,0.0,0.007278,-0.50947,0.003085,0.325737,-263.995379,0.032768,62.856716
10.9981,0.005752,0.000695,0.003132,-9.9e-05,-1.6e-05,0.0,0.007269,-0.50946,0.003042,0.325737,-263.995379,0.032768,62.856716
11.0178,0.005518,0.000339,0.002213,-9.9e-05,-1.6e-05,0.0,0.007348,-0.509303,0.003132,0.251269,-263.995399,0.107236,62.856696
11.0385,0.005662,0.000907,0.00336,-9.9e-05,-1.6e-05,0.0,0.006949,-0.509506,0.002609,0.251269,-263.995399,0.107236,62.856696
11.0579,0.005867,0.000712,0.003211,-0.000778,-0.000126,-0.000444,0.006949,-0.509506,0.002609,0.251269,-263.995399,0.107236,62.856696
11.0778,0.005711,0.000663,0.004689,-0.001518,-0.000246,-0.000866,0.0075,-0.509286,0.003211,0.17627,-263.995432,0.160799,62.856662
11.0981,0.005684,0.00064,0.002577,-0.002214,-0.000359,-0.001263,0.00754,-0.509289,0.003308,0.17627,-263.995432,0.160799,62.856662
11.118,0.005478,0.000547,0.003299,-0.002881,-0.000467,-0.001643,0.006997,-0.509358,0.002576,0.251266,-263.995444,0.085802,62.856651
11.138,0.005864,0.000603,0.002223,-0.003486,-0.000565,-0.001988,0.00709,-0.50941,0.002988,0.251266,-263.995444,0.085802,62.856651
11.158,0.005514,0.000392,0.002611,-0.00406,-0.000659,-0.002316,0.00709,-0.50941,0.002988,0.251266,-263.995444,0.085802,62.856651
11.1781,0.005795,0.000661,0.004103,-0.004602,-0.000746,-0.002625,0.00683,-0.509609,0.002606,0.326302,-263.995583,0.010766,62.856525
11.198,0.005849,0.000914,0.002882,-0.005097,-0.000827,-0.002907,0.006903,-0.50959,0.002711,0.326302,-263.995583,0.010766,62.856525
11.2178,0.005099,0.000671,0.003246,-0.005559,-0.000902,-0.00317,0.007257,-0.509095,0.002857,0.401258,-263.996287,-0.06419,62.855888
11.2378,0.005769,0.000702,0.002502,-0.005977,-0.000969,-0.003409,0.006963,-0.509228,0.003075,0.401258,-263.996287,-0.06419,62.855888
11.2579,0.006018,0.000577,0.002794,-0.006356,-0.001031,-0.003625,0.006963,-0.509228,0.003075,0.401258,-263.996287,-0.06419,62.855888
11.2779,0.00546,0.000527,0.003834,-0.006693,-0.001086,-0.003817,0.007261,-0.509455,0.002697,0.47201,-263.997965,-0.139184,62.854367
11.2977,0.005404,3e-05,0.003545,-0.006992,-0.001134,-0.003987,0.007266,-0.509457,0.002773,0.47201,-263.997965,-0.139184,62.854367
11.318,0.005763,0.000123,0.002844,-0.007251,-0.001176,-0.004135,0.006975,-0.510006,0.003409,0.47201,-264.00073,-0.183995,62.851863
11.3381,0.005195,0.000472,0.003091,-0.007471,-0.001212,-0.00426,0.00708,-0.509937,0.00307,0.47201,-264.00073,-0.183995,62.851863
11.358,0.005178,0.000906,0.002757,-0.00765,-0.001241,-0.004363,0.00708,-0.509937,0.00307,0.47201,-264.00073,-0.183995,62.851863
11.3778,0.004885,0.001003,0.003179,-0.00779,-0.001264,-0.004442,0.006243,-0.509148,0.002563,0.47201,-264.00387,-0.183995,62.849018
11.3981,0.005024,0.000725,0.001761,-0.00789,-0.00128,-0.004499,0.006252,-0.50914,0.002598,0.47201,-264.00387,-0.183995,62.849018
11.4178,0.004708,0.000589,0.00162,-0.00795,-0.001289,-0.004534,0.005627,-0.509322,0.001593,0.47201,-264.007305,-0.183995,62.845906
11.438,0.004682,0.000351,0.002914,-0.00797,-0.001293,-0.004545,0.005537,-0.509378,0.001587,0.47201,-264.007305,-0.183995,62.845906
11.4581,0.004849,0.000489,0.001261,-0.00795,-0.00129,-0.004534,0.005537,-0.509378,0.001587,0.47201,-264.007305,-0.183995,62.845906
11.4784,0.004601,0.000404,0.002523,-0.007891,-0.00128,-0.0045,0.005108,-0.509573,0.001042,0.47201,-264.010849,-0.183995,62.842696
11.4984,0.004069,0.000416,0.001144,-0.007791,-0.001264,-0.004443,0.005152,-0.509576,0.001138,0.47201,-264.010849,-0.183995,62.842696
11.5179,0.004034,0.000224,0.002582,-0.007652,-0.001241,-0.004364,0.004345,-0.509634,0.000969,0.47201,-264.014419,-0.183995,62.839461
11.5384,0.004789,0.000285,0.000565,-0.007474,-0.001212,-0.004262,0.004878,-0.50972,0.001863,0.47201,-264.014419,-0.183995,62.839461
11.5585,0.004411,0.000522,0.001889,-0.007255,-0.001177,-0.004137,0.004878,-0.50972,0.001863,0.47201,-264.014419,-0.183995,62.839461
11.5784,0.003534,0.000176,0.000989,-0.006996,-0.001135,-0.00399,0.004996,-0.50954,0.001673,0.47201,-264.017919,-0.183995,62.836291
11.5977,0.004043,0.000376,0.003214,-0.006697,-0.001086,-0.003819,0.004919,-0.509561,0.00162,0.47201,-264.017919,-0.183995,62.836291
11.6181,0.003513,0.000336,0.001814,-0.006358,-0.001031,-0.003626,0.005402,-0.509668,0.003055,0.47201,-264.021177,-0.183995,62.833339
11.638,0.003623,0.000226,0.000763,-0.005978,-0.00097,-0.003409,0.004819,-0.509671,0.00233,0.47201,-264.021177,-0.183995,62.833339
11.6583,0.003844,0.000261,0.001307,-0.005562,-0.000902,-0.003172,0.004819,-0.509671,0.00233,0.47201,-264.021177,-0.183995,62.833339
11.678,0.003298,0.000131,0.00135,-0.005092,-0.000826,-0.002904,0.004185,-0.509792,0.001121,0.47201,-264.024184,-0.183995,62.830614
11.6978,0.003544,2.1e-05,0.000894,-0.004607,-0.000747,-0.002627,0.004164,-0.509799,0.001131,0.47201,-264.024184,-0.183995,62.830614
11.7179,0.002948,9e-06,0.000301,-0.004067,-0.00066,-0.002319,0.003785,-0.510013,0.000772,0.47201,-264.026683,-0.183995,62.828351
11.7385,0.003241,0.000384,0.001472,-0.003487,-0.000566,-0.001989,0.003369,-0.510005,0.000489,0.47201,-264.026683,-0.183995,62.828351
11.7579,0.003133,9.1e-05,0.00051,-0.002874,-0.000466,-0.001639,0.003369,-0.510005,0.000489,0.47201,-264.026683,-0.183995,62.828351
11.7779,0.003433,0.000111,6.8e-05,-0.002216,-0.000359,-0.001264,0.003169,-0.509945,0.000382,0.47201,-264.028755,-0.183995,62.826474
11.7983,0.003162,0.000107,0.000615,-0.00152,-0.000246,-0.000867,0.003183,-0.509942,0.000357,0.47201,-264.028755,-0.183995,62.826474
11.8179,0.002935,0.000247,0.002111,-0.000781,-0.000127,-0.000445,0.003365,-0.509911,0.000551,0.47201,-264.030043,-0.183995,62.825306
11.8384,0.002754,-8.1e-05,0.002077,-6e-06,-1e-06,-3e-06,0.003715,-0.509823,0.001421,0.47201,-264.030043,-0.183995,62.825306
