mach0312/omni-docking-bench/src/icros_test_setup/results/kinematic_sample/timeseries/trial_144.csv
t,x,y,yaw,vx,vy,wz,bl_x,bl_y,bl_yaw,front_steering_joint,front_wheel_joint,rear_steering_joint,rear_wheel_joint
0.0,-0.025979,-0.023126,0.085587,0.007486,-0.000374,0.002976,0.017422,-0.531314,0.086979,0.190475,-264.277555,-0.284894,61.941929
0.0004,-0.026336,-0.023007,0.087574,0.003599,-0.00018,0.001431,0.017422,-0.531314,0.086979,0.190475,-264.27414,-0.284894,61.945423
0.0008,-0.026249,-0.022574,0.087445,0.002771,-0.000139,0.001102,0.018048,-0.531411,0.087709,0.190475,-264.271304,-0.284894,61.948325
0.0011,-0.025865,-0.023091,0.085747,0.001905,-9.5e-05,0.000758,0.018048,-0.531411,0.087709,0.190475,-264.268955,-0.284894,61.950729
0.0014,-0.026125,-0.022764,0.086044,0.000977,-4.9e-05,0.000388,0.018083,-0.531406,0.087657,0.190475,-264.267487,-0.284894,61.952231
0.0017,-0.025789,-0.022513,0.086889,7e-06,-0.0,3e-06,0.018083,-0.531406,0.087657,0.190475,-264.266711,-0.284894,61.953024
0.002,-0.02554,-0.022871,0.086434,0.0,0.0,0.0,0.018267,-0.530956,0.086597,0.190475,-264.266711,-0.284894,61.953024
0.0023,-0.025973,-0.023089,0.08894,0.0,0.0,0.0,0.018267,-0.530956,0.086597,0.190475,-264.266711,-0.284894,61.953024
0.0025,-0.025845,-0.022895,0.086532,0.0,0.0,0.0,0.018324,-0.531185,0.086924,0.190475,-264.266711,-0.284894,61.953024
0.0028,-0.025312,-0.022589,0.089424,0.0,0.0,0.0,0.018324,-0.531185,0.086924,0.190475,-264.266711,-0.284894,61.953024
0.0177,-0.026197,-0.022991,0.088999,0.016,0.016,-0.03,0.018712,-0.531025,0.087589,0.190475,-264.266711,-0.284894,61.953024
0.0377,-0.025876,-0.022901,0.086565,0.028136,0.020572,-0.05,0.019133,-0.530972,0.088999,0.190475,-264.266711,-0.284894,61.953024
0.058,-0.025689,-0.023201,0.086601,0.027759,0.020578,-0.05,0.019069,-0.530974,0.08883,0.190475,-264.266711,-0.284894,61.953024
0.0777,-0.025992,-0.02273,0.086895,0.0276,0.020892,-0.05,0.018422,-0.531289,0.086601,0.115482,-264.266711,-0.209901,61.953024
0.0982,-0.025712,-0.023379,0.087352,0.027866,0.020388,-0.05,0.018335,-0.531014,0.086768,0.115482,-264.266711,-0.209901,61.953024
0.1178,-0.025836,-0.023113,0.087073,0.027653,0.021047,-0.05,0.018335,-0.531014,0.086768,0.115482,-264.266711,-0.209901,61.953024
0.1378,-0.026254,-0.023113,0.086615,0.027748,0.020778,-0.05,0.018515,-0.531181,0.087073,0.040488,-264.266711,-0.134906,61.953024
0.1583,-0.025937,-0.022961,0.086385,0.028155,0.020755,-0.05,0.01847,-0.531182,0.087042,0.040488,-264.266711,-0.134906,61.953024
0.1776,-0.025752,-0.023001,0.08746,0.027821,0.020637,-0.05,0.018065,-0.531059,0.086385,-0.034529,-264.266711,-0.05989,61.953025
0.1981,-0.025838,-0.022738,0.087032,0.027663,0.020664,-0.05,0.018481,-0.531055,0.086997,-0.034529,-264.266711,-0.05989,61.953025
0.2183,-0.025531,-0.022938,0.088003,0.027717,0.020406,-0.05,0.018481,-0.531055,0.086997,-0.034529,-264.266711,-0.05989,61.953025
0.2386,-0.025747,-0.02314,0.08765,0.027448,0.020606,-0.05,0.019293,-0.530965,0.088003,-0.109531,-264.266711,0.015112,61.953025
0.2577,-0.025807,-0.023095,0.08599,0.027674,0.020798,-0.05,0.019265,-0.53098,0.087979,-0.109531,-264.266711,0.015112,61.953025
0.2777,-0.025898,-0.023094,0.087139,0.027695,0.020793,-0.05,0.017994,-0.53121,0.08599,-0.184528,-264.26671,0.090109,61.953026
0.2976,-0.02594,-0.022807,0.087528,0.02781,0.020752,-0.05,0.018274,-0.531181,0.086644,-0.184528,-264.26671,0.090109,61.953026
0.3176,-0.025553,-0.023182,0.088079,0.027834,0.020452,-0.05,0.018274,-0.531181,0.086644,-0.184528,-264.26671,0.090109,61.953026
0.3375,-0.025873,-0.02304,0.089902,0.027493,0.020845,-0.05,0.01931,-0.531205,0.088079,-0.259519,-264.26671,0.1651,61.953028
0.3582,-0.025934,-0.022757,0.087085,0.027837,0.020624,-0.05,0.019352,-0.531189,0.088207,-0.259519,-264.26671,0.1651,61.953028
0.3778,-0.025986,-0.023417,0.08648,0.027815,0.020415,-0.05,0.018423,-0.530824,0.087085,-0.334524,-264.266709,0.240105,61.95303
0.3978,-0.025715,-0.023476,0.088268,0.027911,0.021085,-0.05,0.01822,-0.531214,0.086742,-0.334524,-264.266709,0.240105,61.95303
0.4177,-0.025949,-0.023052,0.08673,0.027684,0.021118,-0.05,0.01822,-0.531214,0.086742,-0.334524,-264.266709,0.240105,61.95303
0.4378,-0.025322,-0.02327,0.08822,0.027848,0.020717,-0.05,0.018228,-0.531135,0.08673,-0.342114,-264.266707,0.315108,61.953032
0.4579,-0.025504,-0.023222,0.088338,0.027274,0.020948,-0.05,0.018325,-0.531145,0.086834,-0.342114,-264.266707,0.315108,61.953032
0.4781,-0.025964,-0.02298,0.087361,0.027453,0.020882,-0.05,0.01949,-0.531234,0.088338,-0.327959,-264.266706,0.390097,61.953035
0.498,-0.025898,-0.02298,0.087787,0.02787,0.020627,-0.05,0.018948,-0.531121,0.087784,-0.327959,-264.266706,0.390097,61.953035
0.5178,-0.02559,-0.02298,0.087866,0.027813,0.020621,-0.05,0.018948,-0.531121,0.087784,-0.327959,-264.266706,0.390097,61.953035
0.5376,-0.025773,-0.023094,0.086363,0.027508,0.020646,-0.05,0.019164,-0.531013,0.087866,-0.338099,-264.266702,0.465105,61.953043
0.5583,-0.025733,-0.023103,0.087711,0.027669,0.020785,-0.05,0.019099,-0.531025,0.087761,-0.338099,-264.266702,0.465105,61.953043
0.5779,-0.02546,-0.023547,0.086549,0.027658,0.02076,-0.05,0.018945,-0.531142,0.087709,-0.342496,-264.26668,0.540125,61.953087
0.5978,-0.026062,-0.023179,0.086884,0.0274,0.021258,-0.05,0.018764,-0.531424,0.08705,-0.342496,-264.26668,0.540125,61.953087
0.6176,-0.025633,-0.023024,0.088669,0.027975,0.02083,-0.05,0.018764,-0.531424,0.08705,-0.342496,-264.26668,0.540125,61.953087
0.6378,-0.025587,-0.022986,0.088405,0.027571,0.020664,-0.05,0.019543,-0.531015,0.088656,-0.338883,-264.266586,0.615173,61.953273
0.6575,-0.025734,-0.022975,0.087092,0.027516,0.020637,-0.05,0.019536,-0.531013,0.088638,-0.338883,-264.266586,0.615173,61.953273
0.6782,-0.025482,-0.02303,0.088248,0.027635,0.020649,-0.05,0.018669,-0.531021,0.087045,-0.334015,-264.266215,0.690112,61.954006
0.6976,-0.025727,-0.023124,0.088832,0.027413,0.020694,-0.05,0.019126,-0.531032,0.087721,-0.334015,-264.266215,0.690112,61.954006
0.7175,-0.025314,-0.022786,0.086621,0.027677,0.02075,-0.05,0.019126,-0.531032,0.087721,-0.334015,-264.266215,0.690112,61.954006
0.7378,-0.025146,-0.022548,0.087855,0.02719,0.02051,-0.05,0.018945,-0.530799,0.086452,-0.345372,-264.265221,0.765096,61.955982
0.758,-0.025645,-0.022608,0.086724,0.027028,0.020255,-0.05,0.018995,-0.530782,0.086545,-0.345372,-264.265221,0.765096,61.955982
0.7778,-0.025216,-0.022664,0.086624,0.027507,0.020301,-0.05,0.018772,-0.530548,0.086397,-0.33989,-264.262784,0.840107,61.960457
0.7978,-0.024757,-0.022774,0.08727,0.027082,0.020397,-0.05,0.01888,-0.530645,0.086484,-0.33989,-264.262784,0.840107,61.960457
0.8176,-0.024766,-0.022888,0.088578,0.026647,0.02053,-0.05,0.01888,-0.530645,0.086484,-0.33989,-264.262784,0.840107,61.960457
0.8375,-0.023809,-0.022066,0.08624,0.026694,0.020608,-0.05,0.020838,-0.530605,0.08787,-0.363541,-264.258324,0.915106,61.967433
0.8577,-0.02395,-0.022672,0.085951,0.025621,0.019934,-0.05,0.020801,-0.530568,0.087738,-0.363541,-264.258324,0.915106,61.967433
0.8781,-0.022881,-0.021881,0.085313,0.025808,0.020532,-0.05,0.020374,-0.530477,0.085129,-0.359271,-264.251364,0.990103,61.976909
0.898,-0.022701,-0.022093,0.084871,0.024662,0.019852,-0.05,0.020557,-0.530183,0.085128,-0.359271,-264.251364,0.990103,61.976909
0.918,-0.022748,-0.02195,0.086942,0.024492,0.020089,-0.05,0.020557,-0.530183,0.085128,-0.359271,-264.251364,0.990103,61.976909
0.9376,-0.02094,-0.021718,0.082887,0.024568,0.019892,-0.05,0.022354,-0.529521,0.085555,-0.392405,-264.242418,1.065119,61.988884
0.9578,-0.020529,-0.021453,0.083409,0.022666,0.019909,-0.05,0.022307,-0.529537,0.085358,-0.392405,-264.242418,1.065119,61.988884
0.978,-0.019848,-0.020674,0.08237,0.022245,0.019668,-0.05,0.022676,-0.529182,0.082065,-0.403216,-264.232291,1.120205,62.003359
0.9984,-0.019285,-0.020857,0.081154,0.021481,0.018971,-0.05,0.022447,-0.528984,0.082068,-0.403216,-264.232291,1.120205,62.003359
1.0183,-0.019303,-0.020577,0.080356,0.020913,0.019225,-0.05,0.022447,-0.528984,0.082068,-0.403216,-264.232291,1.120205,62.003359
1.0381,-0.017474,-0.01976,0.08156,0.020892,0.018961,-0.05,0.022535,-0.528165,0.078402,-0.438456,-264.2226,1.148518,62.020335
1.058,-0.017558,-0.019951,0.079574,0.019026,0.018271,-0.05,0.022656,-0.528139,0.078557,-0.438456,-264.2226,1.148518,62.020335
1.0777,-0.015404,-0.01916,0.077166,0.019089,0.018492,-0.05,0.023672,-0.527618,0.077816,-0.495846,-264.213664,1.172961,62.039811
1.0977,-0.015257,-0.019025,0.078098,0.016835,0.017915,-0.05,0.023895,-0.527541,0.077225,-0.495846,-264.213664,1.172961,62.039811
1.1182,-0.015715,-0.018625,0.077459,0.016695,0.017776,-0.05,0.023895,-0.527541,0.077225,-0.495846,-264.213664,1.172961,62.039811
1.1382,-0.013454,-0.017944,0.075296,0.017109,0.017353,-0.05,0.02452,-0.526233,0.075269,-0.570846,-264.205516,1.199112,62.058666
1.1582,-0.013638,-0.017857,0.075562,0.014766,0.016881,-0.05,0.024565,-0.526228,0.075216,-0.570846,-264.205516,1.199112,62.058666
1.1777,-0.011864,-0.016924,0.073544,0.014947,0.016776,-0.05,0.025383,-0.525756,0.073869,-0.64584,-264.198146,1.23809,62.076594
1.1984,-0.011976,-0.016991,0.071457,0.013076,0.016006,-0.05,0.025578,-0.525555,0.07347,-0.64584,-264.198146,1.23809,62.076594
1.218,-0.01222,-0.016834,0.0736,0.013158,0.016093,-0.05,0.025578,-0.525555,0.07347,-0.64584,-264.198146,1.23809,62.076594
1.2379,-0.010411,-0.016056,0.071021,0.013425,0.01589,-0.05,0.025838,-0.524716,0.071578,-0.720873,-264.191409,1.268923,62.09323
1.258,-0.010139,-0.015814,0.072091,0.011524,0.015277,-0.05,0.025849,-0.524701,0.071486,-0.720873,-264.191409,1.268923,62.09323
1.2776,-0.00858,-0.015026,0.069253,0.011252,0.015043,-0.05,0.026979,-0.523949,0.070536,-0.795843,-264.185069,1.295767,62.10895
1.2976,-0.008591,-0.015359,0.069223,0.009599,0.014396,-0.05,0.026874,-0.523798,0.069607,-0.795843,-264.185069,1.295767,62.10895
1.3178,-0.008575,-0.015378,0.06851,0.009633,0.014728,-0.05,0.026874,-0.523798,0.069607,-0.795843,-264.185069,1.295767,62.10895
1.3379,-0.007266,-0.014967,0.067507,0.009607,0.014755,-0.05,0.026737,-0.523579,0.066688,-0.870887,-264.179263,1.324369,62.123293
1.3577,-0.007249,-0.014614,0.06712,0.008259,0.014443,-0.05,0.026778,-0.523578,0.066697,-0.870887,-264.179263,1.324369,62.123293
1.3782,-0.006114,-0.01399,0.065146,0.008213,0.014095,-0.05,0.027196,-0.523056,0.065838,-0.945927,-264.174286,1.361117,62.135736
1.3978,-0.006022,-0.014379,0.065607,0.007011,0.013562,-0.05,0.027165,-0.52292,0.065282,-0.945927,-264.174286,1.361117,62.135736
1.4177,-0.006068,-0.014103,0.065706,0.006952,0.013953,-0.05,0.027165,-0.52292,0.065282,-0.945927,-264.174286,1.361117,62.135736
1.4378,-0.005107,-0.013537,0.064448,0.006981,0.013674,-0.05,0.027681,-0.522491,0.064057,-1.020888,-264.169327,1.389197,62.148272
1.4581,-0.004395,-0.013463,0.065381,0.005968,0.01318,-0.05,0.027691,-0.522478,0.064041,-1.020888,-264.169327,1.389197,62.148272
1.4777,-0.003725,-0.012621,0.061627,0.005265,0.013147,-0.05,0.029103,-0.521983,0.064067,-1.095824,-264.164444,1.4158,62.160498
1.4977,-0.003729,-0.012824,0.06101,0.004495,0.012367,-0.05,0.028333,-0.52175,0.062542,-1.095824,-264.164444,1.4158,62.160498
1.5184,-0.004053,-0.013184,0.061749,0.004504,0.012572,-0.05,0.028333,-0.52175,0.062542,-1.095824,-264.164444,1.4158,62.160498
1.5381,-0.002666,-0.012364,0.058951,0.004859,0.012908,-0.05,0.027618,-0.521733,0.060024,-1.170834,-264.159209,1.435126,62.173084
1.5583,-0.002233,-0.012545,0.061357,0.00339,0.012185,-0.05,0.027608,-0.521705,0.059915,-1.170834,-264.159209,1.435126,62.173084
1.5782,-0.001831,-0.01172,0.059671,0.002998,0.012385,-0.05,0.029155,-0.521246,0.060067,-1.245835,-264.154226,1.466694,62.184746
1.5982,-0.00156,-0.011581,0.057549,0.002527,0.01159,-0.05,0.028842,-0.520955,0.059678,-1.245835,-264.154226,1.466694,62.184746
1.6183,-0.001638,-0.012093,0.059959,0.002224,0.011472,-0.05,0.028842,-0.520955,0.059678,-1.245835,-264.154226,1.466694,62.184746
1.6381,-0.000665,-0.011343,0.055881,0.002359,0.011973,-0.05,0.029037,-0.520741,0.058227,-1.321019,-264.148898,1.491617,62.196982
1.6584,-0.000931,-0.011446,0.055981,0.001297,0.011288,-0.05,0.028964,-0.520718,0.05804,-1.321019,-264.148898,1.491617,62.196982
1.6782,0.0005,-0.010797,0.056015,0.00157,0.011376,-0.05,0.027666,-0.520309,0.054539,-1.395842,-264.143188,1.517909,62.209497
1.6978,0.000469,-0.011113,0.055467,0.000106,0.010808,-0.05,0.028449,-0.520092,0.055182,-1.395842,-264.143188,1.517909,62.209497
1.7179,0.000659,-0.010865,0.055207,0.000148,0.011122,-0.05,0.028449,-0.520092,0.055182,-1.395842,-264.143188,1.517909,62.209497
1.7377,0.001,-0.010322,0.05173,-5.9e-05,0.010885,-0.05,0.02884,-0.519632,0.053204,-1.470998,-264.13684,1.539788,62.223264
1.7577,0.001277,-0.010323,0.051639,-0.000465,0.01036,-0.05,0.028751,-0.519622,0.053065,-1.470998,-264.13684,1.539788,62.223264
1.7777,0.002186,-0.00999,0.049664,-0.000743,0.010376,-0.05,0.027593,-0.519273,0.049972,-1.54582,-264.13013,1.567245,62.237661
1.7981,0.002909,-0.009504,0.050419,-0.001687,0.010086,-0.049664,0.027541,-0.519277,0.049585,-1.54582,-264.13013,1.567245,62.237661
1.8179,0.002675,-0.009776,0.050022,-0.001687,0.010086,-0.049664,0.027541,-0.519277,0.049585,-1.54582,-264.13013,1.567245,62.237661
1.8377,0.003459,-0.009321,0.048285,-2.2e-05,9.8e-05,0.0,0.02813,-0.518658,0.047694,-1.593824,-264.122365,1.582159,62.253398
1.8581,0.003507,-0.00937,0.049393,-2.2e-05,9.8e-05,0.0,0.028125,-0.518649,0.047671,-1.593824,-264.122365,1.582159,62.253398
1.878,0.004739,-0.008845,0.046553,-2.2e-05,9.8e-05,0.0,0.02861,-0.518391,0.047618,-1.653945,-264.114811,1.612519,62.26844
1.8978,0.004449,-0.008818,0.046791,-2.2e-05,9.8e-05,0.0,0.02852,-0.518288,0.046778,-1.653945,-264.114811,1.612519,62.26844
1.9177,0.004583,-0.008929,0.046892,-2.2e-05,9.8e-05,0.0,0.02852,-0.518288,0.046778,-1.653945,-264.114811,1.612519,62.26844
1.9378,0.004958,-0.008005,0.046731,-2.2e-05,9.8e-05,0.0,0.028485,-0.518063,0.046391,-1.578981,-264.114811,1.537554,62.273491
1.9582,0.005028,-0.008553,0.044503,-2.2e-05,9.8e-05,0.0,0.028508,-0.518006,0.046403,-1.578981,-264.114811,1.537554,62.273491
1.9778,0.004841,-0.008316,0.045743,-2.2e-05,9.8e-05,0.0,0.027717,-0.518048,0.044503,-1.503994,-264.114811,1.462568,62.273491
1.9978,0.00525,-0.008291,0.045603,-2.2e-05,9.8e-05,0.0,0.027973,-0.517896,0.045215,-1.503994,-264.114811,1.462568,62.273491
2.0178,0.004839,-0.0083,0.046396,-2.2e-05,9.8e-05,0.0,0.027973,-0.517896,0.045215,-1.503994,-264.114811,1.462568,62.273491
2.0378,0.004849,-0.008128,0.045887,-0.0,0.0,-0.0,0.028492,-0.517752,0.046396,-1.429075,-264.114811,1.387648,62.273491
2.0581,0.005038,-0.007873,0.043965,-0.000318,0.001442,-0.007289,0.028474,-0.51774,0.046358,-1.429075,-264.114811,1.387648,62.273491
2.0777,0.005465,-0.008241,0.045694,-0.000621,0.002817,-0.014235,0.027453,-0.51738,0.043965,-1.354126,-264.114811,1.312699,62.273491
2.0978,0.004822,-0.008246,0.046562,-0.000907,0.004114,-0.020792,0.028197,-0.517567,0.044949,-1.354126,-264.114811,1.312699,62.273491
2.1178,0.004904,-0.008424,0.045003,-0.001178,0.00534,-0.026987,0.028197,-0.517567,0.044949,-1.354126,-264.114811,1.312699,62.273491
2.1375,0.004785,-0.008501,0.047073,-0.001431,0.006491,-0.032805,0.027849,-0.517905,0.044989,-1.429035,-264.114765,1.387609,62.273581
2.1581,0.005171,-0.008253,0.046017,-0.001669,0.007567,-0.038244,0.027918,-0.517907,0.045142,-1.429035,-264.114765,1.387609,62.273581
2.1776,0.004777,-0.008131,0.045912,-0.00189,0.008571,-0.043318,0.02864,-0.517682,0.045861,-1.504136,-264.114091,1.462709,62.274895
2.1979,0.005156,-0.008647,0.047072,-0.002094,0.009497,-0.047996,0.028379,-0.517627,0.04587,-1.504136,-264.114091,1.462709,62.274895
2.2176,0.005133,-0.008486,0.044157,-0.002283,0.010354,-0.052327,0.028379,-0.517627,0.04587,-1.504136,-264.114091,1.462709,62.274895
2.238,0.005435,-0.008284,0.046282,-0.002455,0.011132,-0.056261,0.027649,-0.517915,0.043521,-1.579159,-264.111506,1.537733,62.278703
2.2578,0.005573,-0.007927,0.045562,-0.00261,0.011837,-0.059824,0.027746,-0.5179,0.043697,-1.579159,-264.111506,1.537733,62.278703
2.2783,0.005882,-0.007972,0.043222,-0.00275,0.012469,-0.063017,0.028766,-0.51734,0.044663,-1.65403,-264.106401,1.612603,62.285039
2.2979,0.006075,-0.008353,0.043606,-0.002873,0.013027,-0.065835,0.028273,-0.517422,0.043719,-1.65403,-264.106401,1.612603,62.285039
2.3177,0.005868,-0.008009,0.044142,-0.002979,0.013509,-0.068274,0.028273,-0.517422,0.043719,-1.65403,-264.106401,1.612603,62.285039
2.3379,0.00664,-0.008346,0.041017,-0.003069,0.013919,-0.070344,0.028293,-0.51744,0.042522,-1.676088,-264.098785,1.624705,62.293884
2.358,0.00657,-0.008147,0.04171,-0.003143,0.014253,-0.072033,0.028226,-0.517479,0.042338,-1.676088,-264.098785,1.624705,62.293884
2.3779,0.007887,-0.007757,0.039409,-0.0032,0.014512,-0.073341,0.027754,-0.517646,0.040036,-1.676088,-264.088737,1.624705,62.305152
2.3976,0.007655,-0.007988,0.039722,-0.003241,0.014698,-0.074281,0.027873,-0.517475,0.039463,-1.676088,-264.088737,1.624705,62.305152
2.4177,0.007776,-0.008119,0.040758,-0.003266,0.01481,-0.074844,0.027873,-0.517475,0.039463,-1.676088,-264.088737,1.624705,62.305152
2.4379,0.009104,-0.007513,0.03828,-0.003274,0.014847,-0.075033,0.028431,-0.517585,0.038206,-1.676088,-264.076772,1.624705,62.31897
2.4582,0.009191,-0.007677,0.03782,-0.003266,0.01481,-0.074846,0.028441,-0.51755,0.038141,-1.676088,-264.076772,1.624705,62.31897
2.4778,0.010292,-0.007352,0.034195,-0.003241,0.014699,-0.074285,0.028362,-0.517127,0.035557,-1.676088,-264.064364,1.624705,62.335256
2.4978,0.010435,-0.007635,0.033089,-0.003201,0.014514,-0.073351,0.027988,-0.517062,0.034497,-1.676088,-264.064364,1.624705,62.335256
2.5179,0.010529,-0.007509,0.033844,-0.003143,0.014255,-0.072039,0.027988,-0.517062,0.034497,-1.676088,-264.064364,1.624705,62.335256
2.5381,0.011835,-0.0066,0.030801,-0.00307,0.01392,-0.07035,0.027633,-0.51683,0.030738,-1.676088,-264.051934,1.624705,62.354066
2.5581,0.011932,-0.006933,0.031812,-0.00298,0.013512,-0.068287,0.027623,-0.51679,0.030666,-1.676088,-264.051934,1.624705,62.354066
2.5779,0.013472,-0.006397,0.027255,-0.002873,0.01303,-0.065852,0.028024,-0.516225,0.029189,-1.676088,-264.039923,1.624705,62.375461
2.5979,0.013346,-0.006141,0.027277,-0.00275,0.01247,-0.063021,0.027631,-0.516158,0.027742,-1.676088,-264.039923,1.624705,62.375461
2.6178,0.013242,-0.006121,0.027583,-0.002611,0.011842,-0.059844,0.027631,-0.516158,0.027742,-1.676088,-264.039923,1.624705,62.375461
2.6377,0.014869,-0.005539,0.021017,-0.002453,0.011126,-0.056228,0.027146,-0.515276,0.024276,-1.676088,-264.028627,1.624705,62.397493
2.6577,0.014803,-0.005434,0.024735,-0.002284,0.010358,-0.052347,0.027037,-0.515269,0.023972,-1.676088,-264.028627,1.624705,62.397493
2.6781,0.016133,-0.005145,0.020025,-0.002096,0.009504,-0.048031,0.027305,-0.514823,0.022422,-1.676088,-264.018677,1.624705,62.416901
2.6977,0.016708,-0.005421,0.021795,-0.001892,0.008578,-0.043351,0.026742,-0.514891,0.020758,-1.676088,-264.018677,1.624705,62.416901
2.7179,0.016311,-0.0055,0.022916,-0.001671,0.007577,-0.038291,0.026742,-0.514891,0.020758,-1.676088,-264.018677,1.624705,62.416901
2.7385,0.017758,-0.004833,0.018428,-0.001433,0.006499,-0.032846,0.027875,-0.514866,0.020375,-1.676088,-264.009994,1.624705,62.433837
2.7577,0.017655,-0.004324,0.019224,-0.00118,0.005349,-0.027032,0.027822,-0.514845,0.020173,-1.676088,-264.009994,1.624705,62.433837
2.7778,0.018055,-0.004011,0.015838,-0.000909,0.004124,-0.02084,0.027388,-0.513939,0.017744,-1.676088,-264.003627,1.624705,62.446256
2.7978,0.018642,-0.00371,0.016306,-0.000623,0.002827,-0.014285,0.02666,-0.513907,0.016466,-1.676088,-264.003627,1.624705,62.446256
2.8178,0.018288,-0.004182,0.017089,-0.00032,0.001451,-0.007332,0.02666,-0.513907,0.016466,-1.676088,-264.003627,1.624705,62.446256
2.838,0.018919,-0.004159,0.014435,-1e-06,6e-06,-3.2e-05,0.026942,-0.513848,0.015776,-1.676088,-263.999142,1.624705,62.455003
2.8578,0.018905,-0.003567,0.015988,0.0,0.0,0.0,0.026895,-0.513859,0.015651,-1.676088,-263.999142,1.624705,62.455003
2.8778,0.018988,-0.003819,0.014335,0.0,0.0,0.0,0.027045,-0.513446,0.015705,-1.676088,-263.997925,1.624705,62.457377
2.8976,0.019447,-0.003899,0.016558,0.0,0.0,0.0,0.026619,-0.513621,0.014891,-1.676088,-263.997925,1.624705,62.457377
2.9178,0.019213,-0.003791,0.014751,0.0,0.0,0.0,0.026619,-0.513621,0.014891,-1.676088,-263.997925,1.624705,62.457377
2.938,0.019084,-0.003681,0.013721,0.0,0.0,0.0,0.026736,-0.513736,0.014751,-1.676088,-263.997925,1.624705,62.457377
2.9584,0.019158,-0.003784,0.015487,0.0,0.0,0.0,0.026683,-0.513727,0.014668,-1.676088,-263.997925,1.624705,62.457377
2.9778,0.018858,-0.00373,0.016061,0.0,0.0,0.0,0.027056,-0.513723,0.015487,-1.676088,-263.997925,1.624705,62.457377
2.9981,0.019094,-0.004208,0.01516,0.0,0.0,0.0,0.027052,-0.51369,0.015811,-1.676088,-263.997925,1.624705,62.457377
3.0178,0.019002,-0.003551,0.015304,0.0,0.0,0.0,0.027052,-0.51369,0.015811,-1.676088,-263.997925,1.624705,62.457377
3.0378,0.01917,-0.003819,0.014948,0.0,0.0,0.0,0.026807,-0.513491,0.015304,-1.676088,-263.997925,1.624705,62.457377
3.0581,0.019261,-0.003828,0.015125,0.0,0.0,0.0,0.026806,-0.51351,0.01528,-1.676088,-263.997925,1.624705,62.457377
3.0779,0.01941,-0.003499,0.013538,-9.8e-05,2.1e-05,0.0,0.026974,-0.513769,0.015125,-1.676088,-263.997925,1.624705,62.457377
3.0978,0.019412,-0.003671,0.014194,-9.8e-05,2.1e-05,0.0,0.026592,-0.513586,0.014207,-1.676088,-263.997925,1.624705,62.457377
3.1176,0.019095,-0.003601,0.014209,-9.8e-05,2.1e-05,0.0,0.026592,-0.513586,0.014207,-1.676088,-263.997925,1.624705,62.457377
3.138,0.019573,-0.003385,0.015355,-9.8e-05,2.1e-05,0.0,0.026341,-0.513549,0.014209,-1.676088,-263.997925,1.624705,62.457377
3.158,0.019375,-0.003451,0.015341,-9.8e-05,2.1e-05,0.0,0.026415,-0.513533,0.014289,-1.676088,-263.997925,1.624705,62.457377
3.1779,0.019264,-0.003649,0.015101,-9.8e-05,2.1e-05,0.0,0.027199,-0.513391,0.015341,-1.601364,-263.997925,1.549981,62.457377
3.1977,0.019357,-0.003674,0.014544,-9.8e-05,2.1e-05,0.0,0.027066,-0.513505,0.015205,-1.601364,-263.997925,1.549981,62.457377
3.2176,0.019279,-0.003863,0.014659,-9.8e-05,2.1e-05,0.0,0.027066,-0.513505,0.015205,-1.601364,-263.997925,1.549981,62.457377
3.2376,0.019141,-0.003815,0.015522,-9.8e-05,2.1e-05,0.0,0.026754,-0.513808,0.014659,-1.526366,-263.997925,1.474983,62.457377
3.258,0.019222,-0.003751,0.014135,-9.8e-05,2.1e-05,0.0,0.026776,-0.513804,0.014721,-1.526366,-263.997925,1.474983,62.457377
3.2778,0.019168,-0.003705,0.014928,-1.1e-05,2e-06,-9e-06,0.026431,-0.5137,0.014135,-1.451341,-263.997925,1.399958,62.457377
3.2978,0.01936,-0.003625,0.014913,-0.002822,0.000605,-0.002223,0.02663,-0.51367,0.014586,-1.451341,-263.997925,1.399958,62.457377
3.3177,0.01941,-0.003637,0.016897,-0.005468,0.001173,-0.004308,0.02663,-0.51367,0.014586,-1.451341,-263.997925,1.399958,62.457377
3.3379,0.019123,-0.003618,0.014269,-0.007989,0.001714,-0.006293,0.028027,-0.513565,0.016897,-1.376372,-263.997925,1.324989,62.457377
3.3578,0.01943,-0.003949,0.015882,-0.010379,0.002226,-0.008176,0.027908,-0.513565,0.016706,-1.376372,-263.997925,1.324989,62.457377
3.378,0.019214,-0.003863,0.01434,-0.012602,0.002703,-0.009927,0.02753,-0.513885,0.015882,-1.301278,-263.997925,1.249895,62.457377
3.3983,0.019585,-0.003936,0.01521,-0.014699,0.003153,-0.011579,0.026963,-0.513843,0.01501,-1.301278,-263.997925,1.249895,62.457377
3.4178,0.019087,-0.003832,0.015523,-0.01663,0.003567,-0.0131,0.026963,-0.513843,0.01501,-1.301278,-263.997925,1.249895,62.457377
3.4381,0.019173,-0.003958,0.014478,-0.018441,0.003956,-0.014526,0.027003,-0.513771,0.015523,-1.226358,-263.997925,1.174975,62.457377
3.4583,0.019388,-0.003766,0.015516,-0.020086,0.004309,-0.015823,0.026972,-0.51378,0.01545,-1.226358,-263.997925,1.174975,62.457377
3.4781,0.019466,-0.003997,0.014657,-0.021606,0.004635,-0.01702,0.027301,-0.513704,0.015516,-1.151238,-263.997925,1.099855,62.457377
3.498,0.019164,-0.003742,0.016936,-0.022967,0.004926,-0.018092,0.027094,-0.513841,0.015023,-1.151238,-263.997925,1.099855,62.457377
3.5177,0.01937,-0.003699,0.015571,-0.024201,0.005191,-0.019064,0.027094,-0.513841,0.015023,-1.151238,-263.997925,1.099855,62.457377
3.5378,0.018967,-0.00331,0.015185,-0.025275,0.005422,-0.01991,0.02731,-0.513637,0.015571,-1.076174,-263.997925,1.024791,62.457377
3.5582,0.019217,-0.003501,0.013075,-0.02621,0.005622,-0.020646,0.027269,-0.51361,0.015544,-1.076174,-263.997925,1.024791,62.457377
3.5776,0.019326,-0.003622,0.014462,-0.027001,0.005792,-0.02127,0.025885,-0.513458,0.013075,-1.00136,-263.997925,0.949977,62.457377
3.598,0.019383,-0.003798,0.015543,-0.027648,0.005931,-0.021779,0.026349,-0.513521,0.013864,-1.00136,-263.997925,0.949977,62.457377
3.6178,0.019218,-0.00377,0.014331,-0.028152,0.006039,-0.022176,0.026349,-0.513521,0.013864,-1.00136,-263.997925,0.949977,62.457377
3.638,0.019089,-0.003648,0.014461,-0.028513,0.006116,-0.022461,0.026527,-0.513718,0.014331,-0.926318,-263.997925,0.874935,62.457377
3.6576,0.018995,-0.003396,0.013251,-0.028729,0.006162,-0.022631,0.026522,-0.513709,0.01434,-0.926318,-263.997925,0.874935,62.457377
3.6776,0.019134,-0.003823,0.016049,-0.028801,0.006178,-0.022688,0.025752,-0.513351,0.013251,-0.851366,-263.997925,0.799983,62.457377
3.6978,0.019105,-0.00403,0.015493,-0.028729,0.006162,-0.022631,0.026642,-0.513582,0.014841,-0.851366,-263.997925,0.799983,62.457377
3.7179,0.019323,-0.003493,0.015646,-0.028513,0.006116,-0.022461,0.026642,-0.513582,0.014841,-0.851366,-263.997925,0.799983,62.457377
3.7377,0.019034,-0.003817,0.015273,-0.028153,0.006039,-0.022177,0.027302,-0.513431,0.015646,-0.776372,-263.997925,0.724989,62.457377
3.758,0.019068,-0.003629,0.015956,-0.027649,0.005931,-0.02178,0.02727,-0.513453,0.01562,-0.776372,-263.997925,0.724989,62.457377
3.7777,0.018627,-0.003996,0.014256,-0.027,0.005792,-0.021269,0.027205,-0.513564,0.015956,-0.701367,-263.997925,0.649984,62.457377
3.7977,0.019199,-0.00386,0.015389,-0.02621,0.005622,-0.020647,0.026454,-0.513783,0.014979,-0.701367,-263.997925,0.649984,62.457377
3.8177,0.019707,-0.003634,0.01636,-0.025272,0.005421,-0.019908,0.026454,-0.513783,0.014979,-0.701367,-263.997925,0.649984,62.457377
3.8378,0.019034,-0.003482,0.01365,-0.024194,0.00519,-0.019059,0.02805,-0.513566,0.01636,-0.626168,-263.997925,0.574785,62.457377
3.8577,0.019167,-0.003853,0.014541,-0.022971,0.004927,-0.018095,0.027902,-0.513556,0.016165,-0.626168,-263.997925,0.574785,62.457377
3.8776,0.018917,-0.003619,0.015629,-0.021593,0.004632,-0.01701,0.026582,-0.513799,0.014541,-0.551255,-263.997925,0.499872,62.457377
3.8977,0.019562,-0.003707,0.015838,-0.020084,0.004308,-0.015821,0.026757,-0.51366,0.015164,-0.551255,-263.997925,0.499872,62.457377
3.9178,0.019423,-0.003778,0.015509,-0.018435,0.003954,-0.014522,0.026757,-0.51366,0.015164,-0.551255,-263.997925,0.499872,62.457377
3.9377,0.019161,-0.003564,0.01504,-0.016623,0.003566,-0.013094,0.027332,-0.513717,0.015509,-0.476281,-263.997925,0.424898,62.457377
3.9576,0.019222,-0.003868,0.01473,-0.01469,0.003151,-0.011572,0.027293,-0.513701,0.015472,-0.476281,-263.997925,0.424898,62.457377
3.9777,0.018999,-0.003777,0.014062,-0.012555,0.002693,-0.00989,0.026734,-0.513813,0.01473,-0.401126,-263.997925,0.349743,62.457377
3.9985,0.018965,-0.003398,0.016413,-0.010373,0.002225,-0.008171,0.026411,-0.513763,0.014347,-0.401126,-263.997925,0.349743,62.457377
4.0179,0.019152,-0.003744,0.014278,-0.007995,0.001715,-0.006298,0.026411,-0.513763,0.014347,-0.401126,-263.997925,0.349743,62.457377
4.0378,0.019626,-0.003673,0.015432,-0.005471,0.001174,-0.00431,0.026434,-0.513692,0.014278,-0.326255,-263.997925,0.274872,62.457377
4.0581,0.01938,-0.003608,0.015593,-0.002795,0.0006,-0.002202,0.026513,-0.513686,0.014364,-0.326255,-263.997925,0.274872,62.457377
4.0778,0.019176,-0.003886,0.014896,0.0,0.0,0.0,0.027332,-0.513546,0.015593,-0.251212,-263.997925,0.199829,62.457377
4.0977,0.01891,-0.003443,0.016561,0.0,0.0,0.0,0.027016,-0.513706,0.015199,-0.251212,-263.997925,0.199829,62.457377
4.1177,0.019175,-0.003901,0.014941,0.0,0.0,0.0,0.027016,-0.513706,0.015199,-0.251212,-263.997925,0.199829,62.457377
4.1377,0.018966,-0.00359,0.016294,0.0,0.0,0.0,0.026794,-0.513844,0.014941,-0.176355,-263.997925,0.124972,62.457377
4.1577,0.019053,-0.003956,0.015364,0.0,0.0,0.0,0.026827,-0.513822,0.015033,-0.176355,-263.997925,0.124972,62.457377
4.1778,0.019213,-0.004,0.015405,0.0,0.0,0.0,0.026888,-0.513896,0.015364,-0.176355,-263.997925,0.124972,62.457377
4.1982,0.019057,-0.003784,0.01555,0.0,0.0,0.0,0.026991,-0.513921,0.015387,-0.176355,-263.997925,0.124972,62.457377
4.2179,0.019017,-0.003799,0.014711,0.0,0.0,0.0,0.026991,-0.513921,0.015387,-0.176355,-263.997925,0.124972,62.457377
4.2378,0.01915,-0.003335,0.015565,0.0,0.0,0.0,0.026519,-0.513744,0.014711,-0.176355,-263.997925,0.124972,62.457377
4.2579,0.019383,-0.004143,0.015174,0.0,0.0,0.0,0.026558,-0.513712,0.014769,-0.176355,-263.997925,0.124972,62.457377
4.2783,0.019111,-0.003811,0.015082,0.0,0.0,0.0,0.027122,-0.514084,0.015174,-0.176355,-263.997925,0.124972,62.457377
4.298,0.01923,-0.003753,0.014647,-9.8e-05,2.1e-05,0.0,0.02694,-0.513896,0.015122,-0.176355,-263.997925,0.124972,62.457377
4.3178,0.019014,-0.003211,0.014583,-9.8e-05,2.1e-05,0.0,0.02694,-0.513896,0.015122,-0.176355,-263.997925,0.124972,62.457377
4.3377,0.019147,-0.003686,0.015347,-9.8e-05,2.1e-05,0.0,0.026451,-0.513157,0.014583,-0.176355,-263.997925,0.124972,62.457377
4.3581,0.019117,-0.003681,0.015604,-9.8e-05,2.1e-05,0.0,0.026487,-0.513189,0.014636,-0.176355,-263.997925,0.124972,62.457377
4.3776,0.019293,-0.003731,0.015517,-9.8e-05,2.1e-05,0.0,0.027074,-0.513618,0.015604,-0.2119,-263.997931,0.049976,62.457371
4.3976,0.019765,-0.003324,0.014099,-9.8e-05,2.1e-05,0.0,0.027149,-0.513648,0.015554,-0.2119,-263.997931,0.049976,62.457371
4.4175,0.0188,-0.003811,0.016371,-9.8e-05,2.1e-05,0.0,0.027149,-0.513648,0.015554,-0.2119,-263.997931,0.049976,62.457371
4.4378,0.01902,-0.003791,0.014447,-9.8e-05,2.1e-05,0.0,0.027147,-0.513743,0.016372,-0.2119,-263.997944,-0.025088,62.457358
4.4579,0.019219,-0.003186,0.013687,-9.8e-05,2.1e-05,0.0,0.027094,-0.513742,0.016237,-0.2119,-263.997944,-0.025088,62.457358
4.4776,0.019226,-0.003658,0.015399,-9.8e-05,2.1e-05,0.0,0.026197,-0.513138,0.013688,-0.2119,-263.997967,-0.100021,62.457335
4.4975,0.019347,-0.003689,0.013805,-1.1e-05,2e-06,-9e-06,0.026699,-0.513399,0.014661,-0.2119,-263.997967,-0.100021,62.457335
4.5176,0.01909,-0.003736,0.01588,-0.002789,0.0006,-0.002208,0.026699,-0.513399,0.014661,-0.2119,-263.997967,-0.100021,62.457335
4.5377,0.019109,-0.003845,0.014779,-0.005438,0.00117,-0.004305,0.027184,-0.513671,0.01588,-0.2119,-263.998,-0.175021,62.457302
4.5578,0.019031,-0.004285,0.01508,-0.007954,0.001711,-0.006297,0.027147,-0.513679,0.015805,-0.2119,-263.998,-0.175021,62.457302
4.5777,0.019247,-0.003523,0.016346,-0.010292,0.002214,-0.008148,0.026721,-0.514227,0.01508,-0.136897,-263.998001,-0.250025,62.457301
4.5976,0.019529,-0.003621,0.015821,-0.012504,0.00269,-0.009899,0.027211,-0.513788,0.0158,-0.136897,-263.998001,-0.250025,62.457301
4.6176,0.019542,-0.003747,0.014629,-0.014578,0.003136,-0.011541,0.027211,-0.513788,0.0158,-0.136897,-263.998001,-0.250025,62.457301
4.6376,0.019523,-0.003879,0.01553,-0.016505,0.003551,-0.013066,0.026999,-0.513692,0.014628,-0.061848,-263.99803,-0.325074,62.457267
4.6581,0.019301,-0.003648,0.015495,-0.018291,0.003935,-0.01448,0.027029,-0.5137,0.01469,-0.061848,-263.99803,-0.325074,62.457267
4.6778,0.019459,-0.003695,0.016202,-0.019936,0.004289,-0.015782,0.027174,-0.513581,0.015484,0.013109,-263.998323,-0.40003,62.456922
4.6982,0.01946,-0.004125,0.014245,-0.021442,0.004613,-0.016975,0.027481,-0.513607,0.01589,0.013109,-263.998323,-0.40003,62.456922
4.7181,0.019346,-0.003993,0.014917,-0.022791,0.004903,-0.018043,0.027481,-0.513607,0.01589,0.013109,-263.998323,-0.40003,62.456922
4.7382,0.018454,-0.003326,0.014935,-0.024046,0.005173,-0.019036,0.026784,-0.513902,0.014832,0.08811,-263.999688,-0.475031,62.455313
4.758,0.018614,-0.003537,0.014659,-0.025076,0.005394,-0.019852,0.02673,-0.513857,0.014837,0.08811,-263.999688,-0.475031,62.455313
4.7777,0.01881,-0.00384,0.013182,-0.026012,0.005596,-0.020593,0.025735,-0.513413,0.014439,0.163103,-264.003554,-0.550024,62.451204
4.798,0.018816,-0.003722,0.015535,-0.026791,0.005763,-0.021209,0.025575,-0.513621,0.013699,0.163103,-264.003554,-0.550024,62.451204
4.8177,0.018963,-0.003779,0.015282,-0.027436,0.005902,-0.02172,0.025575,-0.513621,0.013699,0.163103,-264.003554,-0.550024,62.451204
4.8378,0.018296,-0.003411,0.014186,-0.027934,0.006009,-0.022114,0.026049,-0.513591,0.014756,0.238102,-264.00992,-0.609814,62.444595
4.8584,0.018082,-0.003764,0.014634,-0.028291,0.006086,-0.022397,0.025994,-0.513572,0.014702,0.238102,-264.00992,-0.609814,62.444595
4.8777,0.017558,-0.003394,0.011739,-0.028506,0.006132,-0.022567,0.024769,-0.513579,0.01404,0.262204,-264.018785,-0.609814,62.435486
4.8978,0.017823,-0.003506,0.013528,-0.028577,0.006148,-0.022624,0.023974,-0.513437,0.012656,0.262204,-264.018785,-0.609814,62.435486
4.9178,0.017602,-0.003062,0.012994,-0.028505,0.006132,-0.022567,0.023974,-0.513437,0.012656,0.262204,-264.018785,-0.609814,62.435486
4.9383,0.017133,-0.00311,0.012494,-0.028291,0.006086,-0.022397,0.022981,-0.51281,0.012039,0.262204,-264.03015,-0.609814,62.423878
4.9586,0.016749,-0.003505,0.012331,-0.027932,0.006009,-0.022113,0.022984,-0.512822,0.012045,0.262204,-264.03015,-0.609814,62.423878
4.9781,0.016221,-0.00295,0.012898,-0.027432,0.005901,-0.021717,0.021913,-0.513238,0.011442,0.262204,-264.041956,-0.609814,62.409968
4.9979,0.016325,-0.002833,0.010702,-0.02679,0.005763,-0.021209,0.022267,-0.513028,0.01214,0.262204,-264.041956,-0.609814,62.409968
5.018,0.015777,-0.003066,0.010496,-0.026003,0.005594,-0.020586,0.022267,-0.513028,0.01214,0.262204,-264.041956,-0.609814,62.409968
5.0378,0.015206,-0.002689,0.010639,-0.025075,0.005394,-0.019851,0.019767,-0.512759,0.009419,0.262204,-264.053525,-0.609814,62.396338
5.0583,0.01535,-0.00276,0.010203,-0.024001,0.005163,-0.019,0.01979,-0.512745,0.009473,0.262204,-264.053525,-0.609814,62.396338
5.0776,0.014247,-0.002198,0.008749,-0.022785,0.004902,-0.018038,0.019544,-0.512526,0.009406,0.262204,-264.064294,-0.609814,62.383651
5.0977,0.014489,-0.002194,0.009151,-0.02143,0.00461,-0.016965,0.018943,-0.512303,0.008933,0.262204,-264.064294,-0.609814,62.383651
5.1176,0.014205,-0.002054,0.00979,-0.01993,0.004287,-0.015778,0.018943,-0.512303,0.008933,0.262204,-264.064294,-0.609814,62.383651
5.138,0.013531,-0.002026,0.008005,-0.018285,0.003934,-0.014476,0.018027,-0.511789,0.008865,0.262204,-264.074234,-0.609814,62.371939
5.1581,0.013777,-0.001851,0.008489,-0.016501,0.00355,-0.013064,0.01797,-0.511797,0.008784,0.262204,-264.074234,-0.609814,62.371939
5.178,0.013625,-0.001529,0.007125,-0.014572,0.003135,-0.011536,0.017335,-0.511673,0.007879,0.262204,-264.082508,-0.609814,62.362191
5.1979,0.012878,-0.001957,0.007011,-0.012505,0.00269,-0.009899,0.017193,-0.511563,0.007369,0.262204,-264.082508,-0.609814,62.362191
5.2178,0.012828,-0.001974,0.008212,-0.010288,0.002213,-0.008145,0.017193,-0.511563,0.007369,0.262204,-264.082508,-0.609814,62.362191
5.2382,0.012931,-0.001648,0.008002,-0.007929,0.001706,-0.006277,0.016214,-0.51179,0.007578,0.262204,-264.089336,-0.609814,62.354146
5.2579,0.013054,-0.001498,0.005419,-0.005402,0.001162,-0.004277,0.016249,-0.511774,0.007591,0.262204,-264.089336,-0.609814,62.354146
5.278,0.012391,-0.001671,0.006847,-0.002786,0.000599,-0.002206,0.015421,-0.511407,0.005105,0.262204,-264.09359,-0.609814,62.349134
5.2979,0.012245,-0.001438,0.004176,-3e-06,1e-06,-2e-06,0.015633,-0.51154,0.006056,0.262204,-264.09359,-0.609814,62.349134
5.318,0.01209,-0.001349,0.006686,0.0,0.0,0.0,0.015633,-0.51154,0.006056,0.262204,-264.09359,-0.609814,62.349134
5.3379,0.012014,-0.001262,0.004143,0.0,0.0,0.0,0.015237,-0.511283,0.006478,0.262204,-264.095827,-0.609814,62.346498
5.3581,0.012058,-0.001471,0.007039,0.0,0.0,0.0,0.015155,-0.51128,0.006315,0.262204,-264.095827,-0.609814,62.346498
5.3777,0.012357,-0.001443,0.004545,0.0,0.0,0.0,0.015648,-0.511459,0.007039,0.262204,-264.095827,-0.609814,62.346498
5.3979,0.012328,-0.001334,0.005997,0.0,0.0,0.0,0.015091,-0.511447,0.005613,0.262204,-264.095827,-0.609814,62.346498
5.4178,0.012093,-0.001406,0.006121,0.0,0.0,0.0,0.015091,-0.511447,0.005613,0.262204,-264.095827,-0.609814,62.346498
5.4381,0.011911,-0.00183,0.005827,0.0,0.0,0.0,0.015215,-0.511397,0.006121,0.262204,-264.095827,-0.609814,62.346498
5.4581,0.011588,-0.00138,0.004605,0.0,0.0,0.0,0.01519,-0.511428,0.006099,0.262204,-264.095827,-0.609814,62.346498
5.4777,0.012078,-0.001332,0.005822,0.0,0.0,0.0,0.013937,-0.511374,0.004605,0.262204,-264.095827,-0.609814,62.346498
5.4977,0.012399,-0.001213,0.005808,0.0,0.0,0.0,0.014573,-0.511345,0.005302,0.262204,-264.095827,-0.609814,62.346498
5.5177,0.012343,-0.001578,0.005765,-9.9e-05,1e-05,0.0,0.014573,-0.511345,0.005302,0.262204,-264.095827,-0.609814,62.346498
5.5379,0.012022,-0.001838,0.005149,-9.9e-05,1e-05,0.0,0.015283,-0.51157,0.005765,0.262204,-264.095827,-0.609814,62.346498
5.5581,0.012266,-0.001262,0.006071,-9.9e-05,1e-05,0.0,0.01524,-0.511588,0.005722,0.262204,-264.095827,-0.609814,62.346498
5.5778,0.012054,-0.001377,0.007809,-9.9e-05,1e-05,0.0,0.015362,-0.511253,0.006071,0.187325,-264.095827,-0.534935,62.346498
5.5976,0.0123,-0.001349,0.005632,-9.9e-05,1e-05,0.0,0.015746,-0.511314,0.00706,0.187325,-264.095827,-0.534935,62.346498
5.6184,0.012155,-0.001259,0.006662,-9.9e-05,1e-05,0.0,0.015746,-0.511314,0.00706,0.187325,-264.095827,-0.534935,62.346498
5.6377,0.012385,-0.001703,0.006,-9.9e-05,1e-05,0.0,0.015553,-0.511248,0.006662,0.112327,-264.095828,-0.459937,62.346497
5.6583,0.012381,-0.001384,0.006106,-9.9e-05,1e-05,0.0,0.015545,-0.511279,0.006616,0.112327,-264.095828,-0.459937,62.346497
5.6778,0.011953,-0.001379,0.004753,-9.9e-05,1e-05,0.0,0.015495,-0.511374,0.006106,0.037206,-264.09583,-0.384817,62.346495
5.6979,0.012198,-0.001546,0.007249,-9.9e-05,1e-05,0.0,0.014862,-0.511374,0.00534,0.037206,-264.09583,-0.384817,62.346495
5.7181,0.011903,-0.00137,0.005656,-1.3e-05,1e-06,-6e-06,0.014862,-0.511374,0.00534,0.037206,-264.09583,-0.384817,62.346495
5.7379,0.011981,-0.001719,0.004966,-0.001828,0.000189,-0.000857,0.014787,-0.511362,0.005655,-0.037716,-264.095838,-0.309894,62.346487
5.7577,0.011925,-0.0013,0.005901,-0.003538,0.000367,-0.001658,0.014763,-0.511393,0.005595,-0.037716,-264.095838,-0.309894,62.346487
5.7777,0.012067,-0.001642,0.007161,-0.005163,0.000535,-0.00242,0.014935,-0.511291,0.005901,0.037799,-264.095841,-0.371785,62.346485
5.7976,0.012218,-0.001418,0.006047,-0.006693,0.000694,-0.003137,0.015384,-0.511485,0.006624,0.037799,-264.095841,-0.371785,62.346485
5.8179,0.011967,-0.001425,0.006955,-0.008145,0.000844,-0.003817,0.015384,-0.511485,0.006624,0.037799,-264.095841,-0.371785,62.346485
5.838,0.012179,-0.001351,0.005182,-0.009481,0.000983,-0.004444,0.01539,-0.511396,0.006904,0.112445,-264.096876,-0.371785,62.345391
5.8581,0.012045,-0.001527,0.006047,-0.010737,0.001113,-0.005032,0.015347,-0.511392,0.006782,0.112445,-264.096876,-0.371785,62.345391
5.8783,0.01184,-0.00104,0.006403,-0.011898,0.001233,-0.005576,0.014837,-0.511489,0.00591,0.180604,-264.099947,-0.371785,62.342149
5.8984,0.010897,-0.000922,0.005653,-0.012967,0.001344,-0.006078,0.014952,-0.511224,0.006172,0.180604,-264.099947,-0.371785,62.342149
5.918,0.011634,-0.001317,0.005972,-0.013942,0.001445,-0.006534,0.014952,-0.511224,0.006172,0.180604,-264.099947,-0.371785,62.342149
5.9376,0.011682,-0.001811,0.0045,-0.014825,0.001537,-0.006949,0.014157,-0.511257,0.005727,0.180604,-264.104318,-0.371785,62.337534
5.9582,0.011371,-0.001642,0.004754,-0.015614,0.001619,-0.007318,0.01413,-0.511296,0.005631,0.180604,-264.104318,-0.371785,62.337534
5.9779,0.01079,-0.0013,0.005184,-0.016312,0.001691,-0.007645,0.013257,-0.511583,0.004502,0.180604,-264.10998,-0.371785,62.331555
5.9978,0.011065,-0.001376,0.004313,-0.016919,0.001754,-0.00793,0.013289,-0.511412,0.004856,0.180604,-264.10998,-0.371785,62.331555
6.0181,0.010765,-0.001223,0.004563,-0.017426,0.001806,-0.008168,0.013289,-0.511412,0.004856,0.180604,-264.10998,-0.371785,62.331555
6.0379,0.01025,-0.001081,0.006091,-0.017846,0.00185,-0.008364,0.012333,-0.511142,0.004207,0.180604,-264.116328,-0.371785,62.324853
6.058,0.010206,-0.001115,0.005887,-0.01817,0.001884,-0.008516,0.012383,-0.511136,0.004328,0.180604,-264.116328,-0.371785,62.324853
6.0778,0.009512,-0.000946,0.003003,-0.018402,0.001908,-0.008625,0.012534,-0.511041,0.005571,0.180604,-264.123426,-0.371785,62.317358
6.0978,0.009438,-0.001065,0.005408,-0.018542,0.001922,-0.00869,0.011601,-0.510977,0.004071,0.180604,-264.123426,-0.371785,62.317358
6.1182,0.009644,-0.001447,0.004779,-0.018588,0.001927,-0.008712,0.011601,-0.510977,0.004071,0.180604,-264.123426,-0.371785,62.317358
6.1378,0.008686,-0.001048,0.003351,-0.018542,0.001922,-0.00869,0.011199,-0.511354,0.004366,0.180604,-264.130802,-0.371785,62.30957
6.1576,0.008994,-0.000946,0.003937,-0.018402,0.001908,-0.008625,0.01112,-0.51133,0.004285,0.180604,-264.130802,-0.371785,62.30957
6.1779,0.008124,-0.001037,0.003924,-0.01817,0.001884,-0.008516,0.010284,-0.51087,0.003601,0.180604,-264.13836,-0.371785,62.30159
6.1978,0.008081,-0.000866,0.002701,-0.017842,0.00185,-0.008363,0.010103,-0.510954,0.003742,0.180604,-264.13836,-0.371785,62.30159
6.2177,0.008227,-0.000783,0.002899,-0.017427,0.001806,-0.008168,0.010103,-0.510954,0.003742,0.180604,-264.13836,-0.371785,62.30159
6.2376,0.007179,-0.000769,0.003852,-0.016915,0.001753,-0.007928,0.00881,-0.51069,0.002479,0.180604,-264.145843,-0.371785,62.293689
6.2575,0.007611,-0.000958,0.003589,-0.016312,0.001691,-0.007645,0.00881,-0.510693,0.002563,0.180604,-264.145843,-0.371785,62.293689
6.2778,0.006861,-0.000491,0.004481,-0.015613,0.001619,-0.007318,0.008768,-0.510887,0.003274,0.180604,-264.152929,-0.371785,62.286207
6.2982,0.006976,-0.000948,0.002165,-0.014825,0.001537,-0.006948,0.008898,-0.510651,0.00392,0.180604,-264.152929,-0.371785,62.286207
6.3177,0.007003,-0.000639,0.003705,-0.013938,0.001445,-0.006533,0.008898,-0.510651,0.00392,0.180604,-264.152929,-0.371785,62.286207
6.3379,0.006321,-0.000941,0.001416,-0.012965,0.001344,-0.006076,0.008099,-0.510556,0.003333,0.180604,-264.159569,-0.371785,62.279196
6.3576,0.006222,-0.000756,0.002309,-0.011885,0.001232,-0.00557,0.008003,-0.510581,0.003189,0.180604,-264.159569,-0.371785,62.279196
6.3777,0.005356,-0.000396,0.00212,-0.010733,0.001113,-0.005031,0.006861,-0.5107,0.002056,0.180604,-264.165229,-0.371785,62.273219
6.3982,0.005486,-0.000341,0.001779,-0.009481,0.000983,-0.004444,0.006552,-0.51052,0.002061,0.180604,-264.165229,-0.371785,62.273219
6.4179,0.005753,-0.000458,0.000858,-0.008129,0.000843,-0.00381,0.006552,-0.51052,0.002061,0.180604,-264.165229,-0.371785,62.273219
6.4382,0.005249,-0.000338,0.001843,-0.006692,0.000694,-0.003136,0.005613,-0.510398,0.000588,0.180604,-264.170067,-0.371785,62.268112
6.4578,0.005229,-0.000371,0.002172,-0.005151,0.000534,-0.002414,0.005639,-0.510392,0.00067,0.180604,-264.170067,-0.371785,62.268112
6.4776,0.004959,-0.000429,0.000969,-0.00353,0.000366,-0.001654,0.006023,-0.510337,0.002025,0.180604,-264.173372,-0.371785,62.264621
6.4975,0.004386,-0.000482,0.001318,-0.001813,0.000188,-0.00085,0.005658,-0.510386,0.001403,0.180604,-264.173372,-0.371785,62.264621
6.5177,0.004699,-0.000456,0.001035,0.0,0.0,0.0,0.005658,-0.510386,0.001403,0.180604,-264.173372,-0.371785,62.264621
6.5379,0.004521,-0.000169,0.001218,0.0,0.0,0.0,0.004976,-0.51043,0.000918,0.180604,-264.175467,-0.371785,62.262409
6.5588,0.004644,-0.000345,0.000466,0.0,0.0,0.0,0.004981,-0.51041,0.000936,0.180604,-264.175467,-0.371785,62.262409
6.5779,0.004479,-0.000735,0.001186,0.0,0.0,0.0,0.004882,-0.510345,0.000466,0.180604,-264.175467,-0.371785,62.262409
6.5977,0.004189,-0.000724,0.001182,0.0,0.0,0.0,0.004998,-0.510568,0.000879,0.180604,-264.175467,-0.371785,62.262409
6.6181,0.00482,-8.8e-05,0.001936,0.0,0.0,0.0,0.004998,-0.510568,0.000879,0.180604,-264.175467,-0.371785,62.262409
6.6377,0.004798,-0.000379,0.002612,0.0,0.0,0.0,0.005807,-0.510087,0.001936,0.180604,-264.175467,-0.371785,62.262409
6.6577,0.004465,-0.000614,0.001681,0.0,0.0,0.0,0.005828,-0.510105,0.001978,0.180604,-264.175467,-0.371785,62.262409
6.6781,0.004725,-0.000525,0.001995,0.0,0.0,0.0,0.005322,-0.510613,0.001681,0.180604,-264.175467,-0.371785,62.262409
6.6976,0.004232,-0.000141,0.001454,0.0,0.0,0.0,0.005563,-0.510562,0.001861,0.180604,-264.175467,-0.371785,62.262409
6.7178,0.004756,-0.000279,0.002227,0.0,0.0,0.0,0.005563,-0.510562,0.001861,0.180604,-264.175467,-0.371785,62.262409
6.738,0.00455,-0.000392,0.001117,0.0,0.0,0.0,0.005892,-0.510278,0.002227,0.180604,-264.175467,-0.371785,62.262409
6.7577,0.004667,-0.000212,0.001861,-0.0001,9e-06,0.0,0.005839,-0.510286,0.00215,0.180604,-264.175467,-0.371785,62.262409
6.778,0.004997,-0.000377,0.002752,-0.0001,9e-06,0.0,0.005616,-0.510211,0.001861,0.180604,-264.175467,-0.371785,62.262409
6.7979,0.004592,-9.6e-05,0.000775,-0.0001,9e-06,0.0,0.006072,-0.510306,0.002379,0.180604,-264.175467,-0.371785,62.262409
6.8177,0.004828,-6.9e-05,0.001271,-0.0001,9e-06,0.0,0.006072,-0.510306,0.002379,0.180604,-264.175467,-0.371785,62.262409
6.8377,0.004774,-0.000509,0.001507,-0.0001,9e-06,0.0,0.005476,-0.510069,0.001271,0.105215,-264.175471,-0.296396,62.262406
6.8576,0.004659,-0.000632,0.001464,-0.0001,9e-06,0.0,0.005481,-0.510101,0.001288,0.105215,-264.175471,-0.296396,62.262406
6.8782,0.004638,-0.000399,0.000811,-0.0001,9e-06,0.0,0.005405,-0.510631,0.001463,0.030503,-264.175481,-0.221683,62.262395
6.8981,0.004173,-0.000385,0.001808,-0.0001,9e-06,0.0,0.005204,-0.510499,0.001092,0.030503,-264.175481,-0.221683,62.262395
6.918,0.004829,-0.000193,0.001402,-0.0001,9e-06,0.0,0.005204,-0.510499,0.001092,0.030503,-264.175481,-0.221683,62.262395
6.9378,0.004579,-0.000565,0.001012,-0.0001,9e-06,0.0,0.005541,-0.510192,0.001402,-0.044389,-264.175505,-0.146791,62.262371
6.9582,0.004633,-0.000503,0.001597,-0.0001,9e-06,0.0,0.005511,-0.510217,0.001376,-0.044389,-264.175505,-0.146791,62.262371
6.9785,0.004549,-0.000443,0.001017,-0.000666,5.8e-05,-0.000163,0.005444,-0.510502,0.001597,-0.08697,-264.175542,-0.08697,62.262334
6.9976,0.004682,-0.000725,0.002081,-0.001297,0.000113,-0.000318,0.005229,-0.510468,0.001267,-0.08697,-264.175542,-0.08697,62.262334
7.0178,0.0046,-0.000273,0.000224,-0.001896,0.000165,-0.000465,0.005229,-0.510468,0.001267,-0.08697,-264.175542,-0.08697,62.262334
7.0377,0.004703,-0.000463,0.002073,-0.002457,0.000214,-0.000603,0.004709,-0.510272,0.000224,-0.08697,-264.175582,-0.08697,62.262294
7.0579,0.004925,-0.00068,0.003452,-0.002986,0.00026,-0.000733,0.004782,-0.510286,0.000353,-0.08697,-264.175582,-0.08697,62.262294
7.078,0.00477,-0.000273,-0.000152,-0.003481,0.000304,-0.000854,0.006649,-0.510673,0.003447,-0.012075,-264.17596,-0.161866,62.261907
7.0979,0.004627,-0.000466,0.000805,-0.003942,0.000344,-0.000968,0.005529,-0.510445,0.001395,-0.012075,-264.17596,-0.161866,62.261907
7.1178,0.005081,-0.000219,0.001479,-0.004368,0.000381,-0.001072,0.005529,-0.510445,0.001395,-0.012075,-264.17596,-0.161866,62.261907
7.1377,0.004356,-9.3e-05,0.001593,-0.004761,0.000415,-0.001169,0.005712,-0.510208,0.001449,0.062635,-264.176969,-0.232798,62.260872
7.1577,0.004623,0.000159,0.002005,-0.005119,0.000446,-0.001256,0.00567,-0.5102,0.001458,0.062635,-264.176969,-0.232798,62.260872
7.178,0.004138,0.000196,0.002384,-0.005443,0.000475,-0.001336,0.005477,-0.509825,0.001964,0.062635,-264.178717,-0.232798,62.259079
7.1978,0.004638,-0.000593,0.0021,-0.005733,0.0005,-0.001407,0.005386,-0.509811,0.002197,0.062635,-264.178717,-0.232798,62.259079
7.2177,0.004584,-7.9e-05,0.001923,-0.005989,0.000522,-0.00147,0.005386,-0.509811,0.002197,0.062635,-264.178717,-0.232798,62.259079
7.2377,0.003947,-0.000434,0.000886,-0.00621,0.000541,-0.001524,0.005316,-0.510057,0.001862,0.062635,-264.180769,-0.232798,62.256974
7.2579,0.004164,-0.00037,0.001486,-0.006398,0.000558,-0.00157,0.005245,-0.510082,0.001792,0.062635,-264.180769,-0.232798,62.256974
7.2778,0.003808,-0.000725,0.001019,-0.006552,0.000571,-0.001608,0.004691,-0.51035,0.001429,0.062635,-264.183173,-0.232798,62.254508
7.2979,0.003819,7e-06,0.002219,-0.006671,0.000582,-0.001637,0.004453,-0.510563,0.001187,0.062635,-264.183173,-0.232798,62.254508
7.3178,0.004053,-0.00032,0.000465,-0.006756,0.000589,-0.001658,0.004453,-0.510563,0.001187,0.062635,-264.183173,-0.232798,62.254508
7.3377,0.003749,-0.00028,0.003185,-0.006808,0.000594,-0.001671,0.003979,-0.510293,0.000388,0.062635,-264.185733,-0.232798,62.251883
7.3582,0.003654,-0.000215,0.00174,-0.006825,0.000595,-0.001675,0.004062,-0.510292,0.000569,0.062635,-264.185733,-0.232798,62.251883
7.3781,0.003187,-0.000292,0.000772,-0.006808,0.000594,-0.001671,0.004278,-0.510192,0.001675,0.062635,-264.188441,-0.232798,62.249105
7.398,0.002962,-0.000696,0.001548,-0.006756,0.000589,-0.001658,0.003855,-0.510245,0.001162,0.062635,-264.188441,-0.232798,62.249105
7.418,0.003307,-0.000471,0.000132,-0.006671,0.000582,-0.001637,0.003855,-0.510245,0.001162,0.062635,-264.188441,-0.232798,62.249105
7.4378,0.003102,-0.000239,0.001694,-0.006551,0.000571,-0.001608,0.003042,-0.510442,5e-05,0.062635,-264.191176,-0.232798,62.2463
7.4576,0.002931,-0.000146,0.000235,-0.006398,0.000558,-0.00157,0.003096,-0.510428,0.00016,0.062635,-264.191176,-0.232798,62.2463
