mach0312/omni-docking-bench/src/icros_test_setup/results/kinematic_sample/timeseries/trial_132.csv
t,x,y,yaw,vx,vy,wz,bl_x,bl_y,bl_yaw,front_steering_joint,front_wheel_joint,rear_steering_joint,rear_wheel_joint
0.0,0.039188,-0.031143,-0.067968,-0.006245,-0.00095,-0.001682,0.004242,-0.539739,-0.069753,0.306616,-264.289059,-0.012384,62.334696
0.0004,0.039012,-0.031583,-0.069527,-0.006862,-0.001044,-0.001848,0.004253,-0.539785,-0.069709,0.306616,-264.291477,-0.012384,62.332391
0.0008,0.03923,-0.031061,-0.068484,-0.006845,-0.001041,-0.001843,0.004253,-0.539785,-0.069709,0.306616,-264.294097,-0.012384,62.329892
0.0011,0.038942,-0.031133,-0.069884,-0.006793,-0.001033,-0.00183,0.004513,-0.540083,-0.068844,0.306616,-264.296912,-0.012384,62.327209
0.0014,0.038529,-0.031286,-0.068139,-0.006708,-0.00102,-0.001807,0.004513,-0.540083,-0.068844,0.306616,-264.299787,-0.012384,62.324468
0.0017,0.038402,-0.031234,-0.069552,-0.006588,-0.001002,-0.001774,0.004513,-0.540083,-0.068844,0.306616,-264.302648,-0.012384,62.32174
0.002,0.038573,-0.031449,-0.068782,-0.006432,-0.000978,-0.001732,0.003848,-0.540184,-0.069794,0.306616,-264.305417,-0.012384,62.3191
0.0022,0.038677,-0.031347,-0.069809,-0.006245,-0.00095,-0.001682,0.003931,-0.540188,-0.069657,0.306616,-264.305417,-0.012384,62.3191
0.0025,0.038341,-0.031173,-0.068569,-0.006022,-0.000916,-0.001622,0.003931,-0.540188,-0.069657,0.306616,-264.305417,-0.012384,62.3191
0.0027,0.038531,-0.031238,-0.070054,-0.005765,-0.000877,-0.001553,0.003933,-0.539912,-0.069087,0.306616,-264.305417,-0.012384,62.3191
0.0179,0.038339,-0.031501,-0.069931,-0.021471,0.015168,0.028526,0.0026,-0.540005,-0.070116,0.306616,-264.307927,-0.012384,62.316707
0.0381,0.03818,-0.031445,-0.068816,-0.037471,0.028745,0.05,0.002629,-0.540149,-0.070019,0.306616,-264.307927,-0.012384,62.316707
0.0579,0.038279,-0.031511,-0.06839,-0.040252,0.028746,0.05,0.002629,-0.540149,-0.070019,0.306616,-264.307927,-0.012384,62.316707
0.0778,0.037832,-0.031568,-0.068764,-0.040343,0.028821,0.05,0.003159,-0.540341,-0.068461,0.306616,-264.310222,-0.012384,62.314518
0.0983,0.037804,-0.031147,-0.068146,-0.039912,0.028894,0.05,0.003129,-0.540343,-0.068483,0.306616,-264.310222,-0.012384,62.314518
0.1177,0.037711,-0.031283,-0.071053,-0.039837,0.028501,0.05,0.003077,-0.539963,-0.068146,0.23161,-264.310225,0.044485,62.314517
0.1376,0.037827,-0.03139,-0.070199,-0.039837,0.028527,0.05,0.002171,-0.539982,-0.06982,0.23161,-264.310225,0.044485,62.314517
0.1578,0.037722,-0.031244,-0.070511,-0.039935,0.028659,0.05,0.002171,-0.539982,-0.06982,0.23161,-264.310225,0.044485,62.314517
0.178,0.037895,-0.031658,-0.069625,-0.03983,0.028509,0.05,0.001791,-0.539977,-0.070511,0.156327,-264.310228,0.04115,62.314515
0.1982,0.037771,-0.031726,-0.06934,-0.040006,0.028945,0.05,0.001834,-0.540008,-0.07045,0.156327,-264.310228,0.04115,62.314515
0.2185,0.037728,-0.031454,-0.069248,-0.039879,0.029032,0.05,0.002436,-0.5405,-0.06934,0.081599,-264.310231,0.046992,62.314514
0.2382,0.037749,-0.031587,-0.068988,-0.039814,0.028768,0.05,0.002438,-0.540349,-0.069288,0.081599,-264.310231,0.046992,62.314514
0.258,0.037794,-0.03131,-0.070786,-0.039837,0.02891,0.05,0.002438,-0.540349,-0.069288,0.081599,-264.310231,0.046992,62.314514
0.2777,0.037924,-0.031132,-0.070163,-0.039914,0.028559,0.05,0.001723,-0.540033,-0.070786,0.006601,-264.310234,0.039782,62.314512
0.2982,0.0379,-0.031359,-0.0695,-0.040013,0.028397,0.05,0.001753,-0.540023,-0.070744,0.006601,-264.310234,0.039782,62.314512
0.3178,0.037827,-0.031809,-0.070066,-0.039986,0.028651,0.05,0.002483,-0.540128,-0.0695,-0.068384,-264.310236,0.040837,62.314511
0.3382,0.03751,-0.031064,-0.070551,-0.039961,0.029082,0.05,0.002273,-0.540378,-0.06983,-0.068384,-264.310236,0.040837,62.314511
0.3582,0.037704,-0.031616,-0.069333,-0.039606,0.028342,0.05,0.002273,-0.540378,-0.06983,-0.068384,-264.310236,0.040837,62.314511
0.3779,0.037764,-0.031223,-0.069281,-0.039804,0.028928,0.05,0.002373,-0.54039,-0.069333,-0.143864,-264.310239,0.053451,62.314509
0.3977,0.037708,-0.031198,-0.069821,-0.039834,0.028534,0.05,0.002379,-0.540364,-0.069329,-0.143864,-264.310239,0.053451,62.314509
0.4177,0.03801,-0.031242,-0.069595,-0.039793,0.028491,0.05,0.002129,-0.539955,-0.069821,-0.218386,-264.310242,0.055371,62.314507
0.438,0.03786,-0.031595,-0.069284,-0.04009,0.028523,0.05,0.002364,-0.539984,-0.069693,-0.218386,-264.310242,0.055371,62.314507
0.4579,0.03743,-0.031782,-0.069014,-0.039957,0.028898,0.05,0.002364,-0.539984,-0.069693,-0.218386,-264.310242,0.055371,62.314507
0.4778,0.037825,-0.031539,-0.068644,-0.039532,0.029126,0.05,0.00226,-0.540568,-0.069014,-0.293378,-264.310246,0.050262,62.314505
0.4982,0.037373,-0.031113,-0.069008,-0.0399,0.02887,0.05,0.002305,-0.54055,-0.068985,-0.293378,-264.310246,0.050262,62.314505
0.518,0.038026,-0.031201,-0.069968,-0.039429,0.028462,0.05,0.002206,-0.539899,-0.069008,-0.368633,-264.310257,0.041014,62.314499
0.5379,0.037873,-0.031121,-0.070197,-0.040114,0.028467,0.05,0.002301,-0.53993,-0.069559,-0.368633,-264.310257,0.041014,62.314499
0.5579,0.038264,-0.031396,-0.06957,-0.039962,0.028388,0.05,0.002301,-0.53993,-0.069559,-0.368633,-264.310257,0.041014,62.314499
0.578,0.0378,-0.031093,-0.069012,-0.040354,0.02866,0.05,0.002808,-0.540161,-0.069567,-0.443555,-264.310308,0.041757,62.314471
0.598,0.037632,-0.031313,-0.069641,-0.039855,0.028413,0.05,0.002796,-0.540142,-0.06953,-0.443555,-264.310308,0.041757,62.314471
0.6181,0.03806,-0.031472,-0.068775,-0.03972,0.028618,0.05,0.002127,-0.54007,-0.069631,-0.518362,-264.310557,0.053738,62.314331
0.6378,0.037704,-0.031723,-0.067869,-0.040133,0.028782,0.05,0.002628,-0.54018,-0.069143,-0.518362,-264.310557,0.053738,62.314331
0.6577,0.03772,-0.031531,-0.068436,-0.039768,0.029093,0.05,0.002628,-0.54018,-0.069143,-0.518362,-264.310557,0.053738,62.314331
0.6778,0.03766,-0.031729,-0.068088,-0.039788,0.028878,0.05,0.002773,-0.540304,-0.068384,-0.59338,-264.311435,0.053262,62.313838
0.6978,0.03752,-0.03148,-0.07023,-0.039732,0.029093,0.05,0.002784,-0.54032,-0.068363,-0.59338,-264.311435,0.053262,62.313838
0.7179,0.037177,-0.030845,-0.067782,-0.039637,0.028769,0.05,0.001584,-0.540143,-0.07011,-0.668378,-264.313806,0.036297,62.312522
0.7379,0.037447,-0.031011,-0.06933,-0.039181,0.028257,0.05,0.002161,-0.539867,-0.068774,-0.668378,-264.313806,0.036297,62.312522
0.7582,0.037386,-0.031005,-0.070363,-0.039506,0.028342,0.05,0.002161,-0.539867,-0.068774,-0.668378,-264.313806,0.036297,62.312522
0.7781,0.036712,-0.030955,-0.067753,-0.039474,0.0283,0.05,0.001135,-0.539522,-0.070023,-0.743413,-264.318679,0.036341,62.309347
0.7983,0.036584,-0.030924,-0.069465,-0.038724,0.028399,0.05,0.001197,-0.539534,-0.069856,-0.743413,-264.318679,0.036341,62.309347
0.8179,0.035686,-0.030767,-0.067627,-0.038642,0.02831,0.05,0.000686,-0.539414,-0.069015,-0.818444,-264.326048,0.055517,62.303675
0.8381,0.035474,-0.030601,-0.069056,-0.037683,0.028285,0.05,0.000924,-0.539484,-0.068175,-0.818444,-264.326048,0.055517,62.303675
0.8581,0.035259,-0.030586,-0.068241,-0.037501,0.028081,0.05,0.000924,-0.539484,-0.068175,-0.818444,-264.326048,0.055517,62.303675
0.8782,0.034259,-0.030048,-0.066376,-0.037262,0.028111,0.05,-0.000359,-0.5389,-0.067429,-0.893394,-264.335918,0.055176,62.295502
0.898,0.034497,-0.030149,-0.066642,-0.036177,0.027709,0.05,-0.00033,-0.538889,-0.067343,-0.893394,-264.335918,0.055176,62.295502
0.9179,0.032992,-0.029359,-0.066271,-0.036428,0.027785,0.05,-0.000289,-0.538501,-0.065777,-0.968388,-264.348291,0.065416,62.284827
0.9379,0.032909,-0.029104,-0.067326,-0.034864,0.02711,0.05,-0.00067,-0.538289,-0.065946,-0.968388,-264.348291,0.065416,62.284827
0.9578,0.032878,-0.029204,-0.067149,-0.034793,0.026824,0.05,-0.00067,-0.538289,-0.065946,-0.968388,-264.348291,0.065416,62.284827
0.9776,0.030839,-0.028802,-0.065405,-0.034763,0.026932,0.05,-0.002568,-0.537266,-0.065789,-1.015008,-264.363159,0.078021,62.271656
0.9981,0.030716,-0.028754,-0.065738,-0.032655,0.026725,0.05,-0.002595,-0.537276,-0.065728,-1.015008,-264.363159,0.078021,62.271656
1.0177,0.028548,-0.02748,-0.062637,-0.032539,0.026674,0.05,-0.00384,-0.536936,-0.064448,-1.02557,-264.380578,0.106337,62.257825
1.0376,0.028437,-0.027597,-0.062484,-0.030212,0.02564,0.05,-0.003707,-0.536583,-0.063244,-1.02557,-264.380578,0.106337,62.257825
1.0577,0.028721,-0.027446,-0.062965,-0.030104,0.025767,0.05,-0.003707,-0.536583,-0.063244,-1.02557,-264.380578,0.106337,62.257825
1.0783,0.02642,-0.026295,-0.059643,-0.030391,0.025585,0.05,-0.004686,-0.535398,-0.061104,-1.052521,-264.400401,0.116229,62.244882
1.0982,0.026248,-0.026262,-0.06011,-0.027941,0.024674,0.05,-0.004672,-0.535369,-0.060953,-1.052521,-264.400401,0.116229,62.244882
1.1178,0.02391,-0.025052,-0.058716,-0.027778,0.024638,0.05,-0.005405,-0.534416,-0.058406,-1.0798,-264.422796,0.157157,62.233141
1.1377,0.024072,-0.024996,-0.058643,-0.025339,0.023606,0.05,-0.005885,-0.53416,-0.058367,-1.0798,-264.422796,0.157157,62.233141
1.1579,0.023814,-0.025239,-0.059302,-0.025496,0.023543,0.05,-0.005885,-0.53416,-0.058367,-1.0798,-264.422796,0.157157,62.233141
1.1777,0.021555,-0.023626,-0.056615,-0.025268,0.023784,0.05,-0.007637,-0.533128,-0.056987,-1.102302,-264.446407,0.206866,62.222247
1.198,0.021394,-0.02417,-0.057252,-0.022857,0.022369,0.05,-0.007647,-0.53307,-0.056896,-1.102302,-264.446407,0.206866,62.222247
1.2179,0.019095,-0.022694,-0.053805,-0.022742,0.022906,0.05,-0.008655,-0.53244,-0.055458,-1.130256,-264.468631,0.267768,62.21242
1.2377,0.019389,-0.022855,-0.055636,-0.020287,0.021635,0.05,-0.008582,-0.532051,-0.054289,-1.130256,-264.468631,0.267768,62.21242
1.2577,0.019247,-0.022862,-0.053279,-0.020629,0.021741,0.05,-0.008582,-0.532051,-0.054289,-1.130256,-264.468631,0.267768,62.21242
1.2779,0.01656,-0.021455,-0.053343,-0.020438,0.021805,0.05,-0.008858,-0.531111,-0.051097,-1.16299,-264.489318,0.342686,62.203707
1.298,0.016822,-0.021586,-0.05345,-0.01768,0.020542,0.05,-0.009001,-0.531059,-0.051192,-1.16299,-264.489318,0.342686,62.203707
1.3182,0.015077,-0.019871,-0.049392,-0.017951,0.020657,0.05,-0.011122,-0.530041,-0.051658,-1.194949,-264.510229,0.403052,62.195363
1.3377,0.014745,-0.020614,-0.05011,-0.01604,0.019102,0.049392,-0.010623,-0.529482,-0.050126,-1.194949,-264.510229,0.403052,62.195363
1.3578,0.015067,-0.020213,-0.049321,-0.015759,0.01985,0.05,-0.010623,-0.529482,-0.050126,-1.194949,-264.510229,0.403052,62.195363
1.3779,0.01358,-0.019666,-0.048206,-0.016045,0.019445,0.049321,-0.010727,-0.528754,-0.04741,-1.237572,-264.52739,0.47825,62.188915
1.3982,0.012916,-0.019467,-0.047391,-0.014512,0.018989,0.048206,-0.010761,-0.528754,-0.047414,-1.237572,-264.52739,0.47825,62.188915
1.4179,0.011665,-0.018434,-0.046575,-0.013824,0.018833,0.047391,-0.011702,-0.528257,-0.045885,-1.26768,-264.544079,0.553036,62.182895
1.4381,0.011813,-0.018794,-0.046517,-0.01251,0.017871,0.046575,-0.011976,-0.527961,-0.046088,-1.26768,-264.544079,0.553036,62.182895
1.4578,0.0118,-0.018382,-0.045881,-0.012674,0.018224,0.046517,-0.011976,-0.527961,-0.046088,-1.26768,-264.544079,0.553036,62.182895
1.4777,0.010031,-0.017218,-0.044401,-0.01263,0.017821,0.045881,-0.012201,-0.526969,-0.043728,-1.279665,-264.562773,0.624207,62.176283
1.4983,0.010089,-0.017173,-0.04386,-0.010785,0.016756,0.044401,-0.012255,-0.526919,-0.043716,-1.279665,-264.562773,0.624207,62.176283
1.5179,0.008284,-0.016618,-0.041905,-0.010833,0.016714,0.04386,-0.012706,-0.525997,-0.042159,-1.305439,-264.580989,0.676999,62.170154
1.5377,0.008162,-0.016647,-0.043953,-0.008973,0.016257,0.041905,-0.012973,-0.52601,-0.041802,-1.305439,-264.580989,0.676999,62.170154
1.558,0.00861,-0.016927,-0.042151,-0.008885,0.016273,0.043953,-0.012973,-0.52601,-0.041802,-1.305439,-264.580989,0.676999,62.170154
1.5779,0.00644,-0.01555,-0.041408,-0.009315,0.016549,0.042151,-0.013311,-0.525743,-0.040276,-1.329759,-264.596767,0.751682,62.16493
1.598,0.007272,-0.01588,-0.037866,-0.007079,0.01527,0.041408,-0.013423,-0.525676,-0.040306,-1.329759,-264.596767,0.751682,62.16493
1.6177,0.005724,-0.015082,-0.037464,-0.007867,0.015594,0.037866,-0.01229,-0.525012,-0.036562,-1.367567,-264.610419,0.826589,62.160648
1.638,0.005993,-0.015447,-0.038476,-0.006285,0.014857,0.037464,-0.012946,-0.524783,-0.036914,-1.367567,-264.610419,0.826589,62.160648
1.6581,0.005426,-0.015425,-0.037529,-0.006583,0.015205,0.038476,-0.012946,-0.524783,-0.036914,-1.367567,-264.610419,0.826589,62.160648
1.6777,0.004529,-0.014725,-0.037259,-0.006001,0.015211,0.037529,-0.013957,-0.524491,-0.036026,-1.398018,-264.622834,0.901609,62.156949
1.6977,0.004754,-0.014649,-0.03435,-0.005074,0.014546,0.037259,-0.014001,-0.524466,-0.036073,-1.398018,-264.622834,0.901609,62.156949
1.7178,0.003178,-0.013807,-0.034381,-0.005254,0.014477,0.03435,-0.01299,-0.523792,-0.032927,-1.402322,-264.637759,0.899896,62.152712
1.7379,0.003003,-0.013514,-0.033506,-0.003651,0.01369,0.034381,-0.013801,-0.523557,-0.033581,-1.402322,-264.637759,0.899896,62.152712
1.7578,0.003274,-0.013513,-0.033207,-0.003454,0.013406,0.033506,-0.013801,-0.523557,-0.033581,-1.402322,-264.637759,0.899896,62.152712
1.778,0.002021,-0.013275,-0.032547,-0.003721,0.013397,0.033207,-0.013841,-0.522665,-0.031789,-1.435603,-264.649597,0.974942,62.149677
1.7979,0.002661,-0.013143,-0.032172,-0.002452,0.013202,0.032547,-0.013895,-0.522673,-0.031803,-1.435603,-264.649597,0.974942,62.149677
1.8182,0.0016,-0.012884,-0.032485,-0.003083,0.013051,0.032172,-0.013833,-0.522503,-0.031253,-1.469174,-264.659339,1.049815,62.147428
1.8378,0.001756,-0.01273,-0.032018,-0.002018,0.012826,0.032485,-0.014489,-0.522519,-0.031838,-1.469174,-264.659339,1.049815,62.147428
1.8578,0.001769,-0.012778,-0.03139,-0.002162,0.012667,0.032018,-0.014489,-0.522519,-0.031838,-1.469174,-264.659339,1.049815,62.147428
1.878,0.001138,-0.01226,-0.032945,-0.00217,0.012716,0.03139,-0.014308,-0.52212,-0.030409,-1.496805,-264.667609,1.124932,62.145655
1.898,0.000821,-0.012332,-0.031105,-0.001541,0.012216,0.032945,-0.014399,-0.5221,-0.030552,-1.496805,-264.667609,1.124932,62.145655
1.9178,0.000461,-0.011573,-0.029283,-0.001204,0.012301,0.031105,-0.015096,-0.521727,-0.030213,-1.503794,-264.676974,1.199783,62.143562
1.9379,0.000745,-0.01233,-0.029139,-0.000799,0.011555,0.029283,-0.014746,-0.521468,-0.029568,-1.503794,-264.676974,1.199783,62.143562
1.9583,0.000576,-0.012159,-0.028684,-0.001104,0.012303,0.029139,-0.014746,-0.521468,-0.029568,-1.503794,-264.676974,1.199783,62.143562
1.9777,-0.000159,-0.011367,-0.026673,-0.000925,0.012138,0.028684,-0.014097,-0.521592,-0.027735,-1.523183,-264.684669,1.274932,62.141647
1.9982,-0.000263,-0.011507,-0.028224,-0.000144,0.011367,0.026673,-0.014077,-0.521557,-0.027644,-1.523183,-264.684669,1.274932,62.141647
2.0179,-0.001123,-0.010737,-0.027215,-6.2e-05,0.01151,0.028224,-0.014683,-0.520901,-0.027269,-1.534148,-264.694892,1.349785,62.139723
2.0377,-0.000654,-0.010965,-0.028576,0.000831,0.010764,0.027215,-0.014869,-0.520647,-0.027117,-1.534148,-264.694892,1.349785,62.139723
2.0578,-0.000693,-0.010732,-0.02681,0.00034,0.010979,0.028576,-0.014869,-0.520647,-0.027117,-1.534148,-264.694892,1.349785,62.139723
2.0783,-0.000974,-0.010603,-0.028198,0.000405,0.010746,0.02681,-0.014368,-0.520247,-0.026106,-1.565573,-264.700907,1.424963,62.138652
2.0982,-0.001331,-0.010608,-0.02709,0.000674,0.010626,0.028198,-0.014433,-0.520249,-0.026226,-1.565573,-264.700907,1.424963,62.138652
2.1177,-0.001161,-0.010543,-0.027496,0.001043,0.01064,0.02709,-0.015141,-0.520196,-0.026506,-1.582753,-264.706923,1.499807,62.13728
2.1382,-0.001499,-0.010424,-0.025165,0.000871,0.01057,0.027496,-0.015164,-0.520255,-0.026998,-1.582753,-264.706923,1.499807,62.13728
2.158,-0.001639,-0.010075,-0.025794,0.001237,0.010458,0.025165,-0.015164,-0.520255,-0.026998,-1.582753,-264.706923,1.499807,62.13728
2.1781,-0.002327,-0.009849,-0.023986,0.001379,0.010114,0.025794,-0.014774,-0.519588,-0.024947,-1.595,-264.713794,1.574941,62.135645
2.1986,-0.00184,-0.009939,-0.023446,0.00209,0.009902,0.023986,-0.014759,-0.519587,-0.02486,-1.595,-264.713794,1.574941,62.135645
2.2179,-0.002018,-0.009744,-0.025284,0.001606,0.009979,0.023446,-0.013796,-0.519799,-0.023446,-1.618643,-264.713795,1.49999,62.135645
2.238,-0.002269,-0.009888,-0.026616,0.001606,0.009979,0.023446,-0.014432,-0.519675,-0.024495,-1.618643,-264.713795,1.49999,62.135645
2.2583,-0.001854,-0.009645,-0.0262,2e-05,9.8e-05,0.0,-0.014432,-0.519675,-0.024495,-1.618643,-264.713795,1.49999,62.135645
2.278,-0.002,-0.009423,-0.025036,2e-05,9.8e-05,0.0,-0.015214,-0.519469,-0.026199,-1.655723,-264.713796,1.424981,62.135645
2.298,-0.001953,-0.009948,-0.024938,2e-05,9.8e-05,0.0,-0.015183,-0.519455,-0.026119,-1.655723,-264.713796,1.424981,62.135645
2.3179,-0.001729,-0.009867,-0.024368,2e-05,9.8e-05,0.0,-0.014671,-0.519789,-0.024938,-1.580826,-264.713796,1.371848,62.135645
2.3377,-0.002049,-0.010135,-0.023739,2e-05,9.8e-05,0.0,-0.014375,-0.519747,-0.024611,-1.580826,-264.713796,1.371848,62.135645
2.3579,-0.001871,-0.010128,-0.026044,2e-05,9.8e-05,0.0,-0.014375,-0.519747,-0.024611,-1.580826,-264.713796,1.371848,62.135645
2.378,-0.002009,-0.010245,-0.024649,2e-05,9.8e-05,0.0,-0.015152,-0.519956,-0.026044,-1.505652,-264.713796,1.371848,62.135645
2.3982,-0.002162,-0.009715,-0.026155,2e-05,9.8e-05,0.0,-0.01511,-0.519965,-0.025942,-1.505652,-264.713796,1.371848,62.135645
2.4176,-0.001642,-0.010031,-0.025662,2e-05,9.8e-05,0.0,-0.015499,-0.51954,-0.026155,-1.430728,-264.713796,1.371848,62.135645
2.4381,-0.001781,-0.009839,-0.024831,2e-05,9.8e-05,0.0,-0.015052,-0.519728,-0.025869,-1.430728,-264.713796,1.371848,62.135645
2.4577,-0.002305,-0.00974,-0.024805,2e-05,9.8e-05,0.0,-0.015052,-0.519728,-0.025869,-1.430728,-264.713796,1.371848,62.135645
2.4784,-0.002026,-0.009501,-0.025613,0.000294,0.001459,0.003906,-0.014954,-0.519583,-0.024805,-1.355484,-264.713796,1.371848,62.135645
2.4981,-0.001971,-0.009821,-0.025689,0.000571,0.002834,0.007584,-0.014963,-0.519567,-0.024856,-1.355484,-264.713796,1.371848,62.135645
2.5179,-0.001868,-0.009796,-0.024774,0.000835,0.004141,0.011083,-0.015071,-0.519653,-0.025689,-1.280827,-264.713796,1.371848,62.135646
2.5378,-0.002416,-0.009668,-0.026405,0.001082,0.005368,0.014368,-0.014746,-0.519646,-0.025168,-1.280827,-264.713796,1.371848,62.135646
2.5579,-0.002064,-0.009744,-0.026345,0.001316,0.006527,0.017468,-0.014746,-0.519646,-0.025168,-1.280827,-264.713796,1.371848,62.135646
2.5777,-0.001931,-0.009646,-0.025521,0.001534,0.007608,0.020363,-0.015499,-0.519567,-0.026345,-1.355816,-264.713796,1.296859,62.135646
2.598,-0.001598,-0.009977,-0.026406,0.001737,0.008615,0.023056,-0.015463,-0.519561,-0.026292,-1.355816,-264.713796,1.296859,62.135646
2.6176,-0.00197,-0.009764,-0.024569,0.001925,0.009548,0.025553,-0.015064,-0.519799,-0.026406,-1.430824,-264.713796,1.221852,62.135646
2.6376,-0.002235,-0.009766,-0.024612,0.002101,0.010421,0.02789,-0.014741,-0.519691,-0.025356,-1.430824,-264.713796,1.221852,62.135646
2.6576,-0.002067,-0.009976,-0.024272,0.002257,0.011195,0.029962,-0.014741,-0.519691,-0.025356,-1.430824,-264.713796,1.221852,62.135646
2.6779,-0.001557,-0.009846,-0.02647,0.002399,0.011897,0.03184,-0.014445,-0.519826,-0.024272,-1.505876,-264.713797,1.1468,62.135646
2.6981,-0.001846,-0.009803,-0.025354,0.002526,0.012531,0.033537,-0.014487,-0.519815,-0.024426,-1.505876,-264.713797,1.1468,62.135646
2.7177,-0.001718,-0.010013,-0.025579,0.002642,0.013105,0.035075,-0.014776,-0.519639,-0.025354,-1.58082,-264.713797,1.071856,62.135646
2.7378,-0.00179,-0.009748,-0.025626,0.002737,0.013576,0.036335,-0.014768,-0.519756,-0.025482,-1.58082,-264.713797,1.071856,62.135646
2.7578,-0.001914,-0.010032,-0.024806,0.00282,0.013985,0.037429,-0.014768,-0.519756,-0.025482,-1.58082,-264.713797,1.071856,62.135646
2.7778,-0.001879,-0.009879,-0.02503,0.002887,0.014321,0.038329,-0.014564,-0.519875,-0.024806,-1.647173,-264.713799,0.996853,62.135646
2.7986,-0.001966,-0.010084,-0.025012,0.00294,0.014582,0.039028,-0.014569,-0.519865,-0.024821,-1.647173,-264.713799,0.996853,62.135646
2.818,-0.00185,-0.009851,-0.023803,0.002978,0.014768,0.039526,-0.014721,-0.519925,-0.025012,-1.647173,-264.7138,0.921849,62.135647
2.8379,-0.001835,-0.009811,-0.026049,0.003,0.01488,0.039826,-0.014309,-0.519802,-0.024333,-1.647173,-264.7138,0.921849,62.135647
2.8578,-0.001714,-0.01039,-0.024142,0.003008,0.014917,0.039925,-0.014309,-0.519802,-0.024333,-1.647173,-264.7138,0.921849,62.135647
2.8777,-0.001962,-0.01003,-0.025116,0.003,0.01488,0.039825,-0.014025,-0.520241,-0.024142,-1.647173,-264.713802,0.84671,62.135647
2.8982,-0.001834,-0.009987,-0.024662,0.002977,0.014768,0.039525,-0.014077,-0.520215,-0.02421,-1.647173,-264.713802,0.84671,62.135647
2.9179,-0.001942,-0.009661,-0.026351,0.00294,0.014582,0.039026,-0.01441,-0.519832,-0.024662,-1.647173,-264.713803,0.771844,62.135647
2.9378,-0.00182,-0.00994,-0.025808,0.002887,0.01432,0.038327,-0.01496,-0.519635,-0.02562,-1.647173,-264.713803,0.771844,62.135647
2.9576,-0.001728,-0.009718,-0.025814,0.00282,0.013985,0.03743,-0.01496,-0.519635,-0.02562,-1.647173,-264.713803,0.771844,62.135647
2.9779,-0.002044,-0.009941,-0.025419,0.002737,0.013575,0.036332,-0.014891,-0.519548,-0.025814,-1.647173,-264.713805,0.696856,62.135648
2.9981,-0.002041,-0.009847,-0.025846,0.002639,0.01309,0.035034,-0.014899,-0.519564,-0.025787,-1.647173,-264.713805,0.696856,62.135648
3.018,-0.002183,-0.010166,-0.0252,0.002525,0.012526,0.033525,-0.01522,-0.519677,-0.025846,-1.647173,-264.713806,0.621857,62.135648
3.0377,-0.002268,-0.009891,-0.024914,0.002399,0.011897,0.03184,-0.015113,-0.519865,-0.025475,-1.647173,-264.713806,0.621857,62.135648
3.0578,-0.002077,-0.0098,-0.024456,0.002256,0.011189,0.029945,-0.015113,-0.519865,-0.025475,-1.647173,-264.713806,0.621857,62.135648
3.0779,-0.001792,-0.009997,-0.025427,0.002098,0.010405,0.027848,-0.014548,-0.519648,-0.024456,-1.647173,-264.713808,0.546687,62.135648
3.098,-0.00187,-0.009887,-0.025178,0.001925,0.009548,0.025553,-0.014563,-0.51966,-0.024522,-1.647173,-264.713808,0.546687,62.135648
3.1177,-0.002124,-0.010076,-0.025337,0.001732,0.00859,0.02299,-0.01471,-0.519725,-0.025178,-1.647173,-264.713809,0.471859,62.135649
3.138,-0.00212,-0.009724,-0.024465,0.001533,0.007605,0.020355,-0.0149,-0.519831,-0.025268,-1.647173,-264.713809,0.471859,62.135649
3.1583,-0.001475,-0.009447,-0.025301,0.001316,0.006526,0.017467,-0.0149,-0.519831,-0.025268,-1.647173,-264.713809,0.471859,62.135649
3.1778,-0.001741,-0.010037,-0.024815,0.001083,0.00537,0.014372,-0.014377,-0.519283,-0.025301,-1.647173,-264.71381,0.396857,62.135649
3.1981,-0.002295,-0.009866,-0.027118,0.000835,0.00414,0.011079,-0.014378,-0.519325,-0.025267,-1.647173,-264.71381,0.396857,62.135649
3.2179,-0.002006,-0.009923,-0.02605,0.000571,0.002833,0.007583,-0.016124,-0.519679,-0.027118,-1.647173,-264.713811,0.321858,62.135649
3.2377,-0.002215,-0.010164,-0.025265,0.000294,0.001456,0.003897,-0.015646,-0.51972,-0.026506,-1.647173,-264.713811,0.321858,62.135649
3.2577,-0.001863,-0.010099,-0.025426,0.0,1e-06,3e-06,-0.015646,-0.51972,-0.026506,-1.647173,-264.713811,0.321858,62.135649
3.2782,-0.001913,-0.009849,-0.025361,0.0,0.0,0.0,-0.014829,-0.519935,-0.025426,-1.647173,-264.713811,0.246736,62.135649
3.298,-0.001772,-0.009904,-0.025793,0.0,0.0,0.0,-0.01483,-0.519917,-0.025421,-1.647173,-264.713811,0.246736,62.135649
3.3179,-0.002104,-0.009903,-0.026216,0.0,0.0,0.0,-0.014925,-0.519735,-0.025793,-1.647173,-264.713811,0.171856,62.135649
3.3377,-0.002081,-0.010109,-0.026349,0.0,0.0,0.0,-0.015237,-0.51973,-0.026034,-1.647173,-264.713811,0.171856,62.135649
3.3577,-0.001834,-0.009518,-0.024629,0.0,0.0,0.0,-0.015237,-0.51973,-0.026034,-1.647173,-264.713811,0.171856,62.135649
3.3782,-0.002208,-0.009837,-0.026179,0.0,0.0,0.0,-0.014394,-0.519364,-0.024629,-1.647173,-264.713811,0.171856,62.135649
3.3982,-0.001911,-0.009672,-0.025335,0.0,0.0,0.0,-0.014475,-0.519385,-0.024737,-1.647173,-264.713811,0.171856,62.135649
3.4178,-0.001889,-0.009718,-0.025359,0.0,0.0,0.0,-0.01483,-0.519508,-0.025335,-1.647173,-264.713811,0.171856,62.135649
3.4378,-0.001895,-0.010458,-0.024132,0.0,0.0,0.0,-0.014825,-0.519534,-0.025349,-1.647173,-264.713811,0.171856,62.135649
3.4578,-0.002238,-0.009597,-0.024601,0.0,0.0,0.0,-0.014825,-0.519534,-0.025349,-1.647173,-264.713811,0.171856,62.135649
3.4778,-0.001947,-0.010109,-0.025844,2e-05,9.8e-05,0.0,-0.014783,-0.519443,-0.024601,-1.647173,-264.713811,0.171856,62.135649
3.4985,-0.001967,-0.009647,-0.025538,2e-05,9.8e-05,0.0,-0.014806,-0.519476,-0.024685,-1.647173,-264.713811,0.171856,62.135649
3.5178,-0.002166,-0.01022,-0.025872,2e-05,9.8e-05,0.0,-0.01499,-0.519481,-0.025538,-1.647173,-264.713811,0.171856,62.135649
3.5377,-0.002068,-0.009727,-0.023293,2e-05,9.8e-05,0.0,-0.015198,-0.519802,-0.025726,-1.647173,-264.713811,0.171856,62.135649
3.5577,-0.001757,-0.009974,-0.023413,2e-05,9.8e-05,0.0,-0.015198,-0.519802,-0.025726,-1.647173,-264.713811,0.171856,62.135649
3.5777,-0.002201,-0.010041,-0.024431,2e-05,9.8e-05,0.0,-0.013696,-0.519834,-0.023413,-1.572064,-264.713811,0.246965,62.135649
3.5982,-0.001865,-0.009989,-0.026561,2e-05,9.8e-05,0.0,-0.013767,-0.519838,-0.023488,-1.572064,-264.713811,0.246965,62.135649
3.6179,-0.002045,-0.01021,-0.026512,2e-05,9.8e-05,0.0,-0.01541,-0.519809,-0.026561,-1.497064,-264.713811,0.321965,62.135649
3.6378,-0.001943,-0.009827,-0.024357,2e-05,9.8e-05,0.0,-0.015498,-0.519936,-0.026533,-1.497064,-264.713811,0.321965,62.135649
3.6581,-0.00159,-0.009658,-0.024966,2e-05,9.8e-05,0.0,-0.015498,-0.519936,-0.026533,-1.497064,-264.713811,0.321965,62.135649
3.6777,-0.001985,-0.009714,-0.024403,1e-06,3e-06,8e-06,-0.014321,-0.519499,-0.024966,-1.422052,-264.713811,0.396977,62.135649
3.6984,-0.001889,-0.010018,-0.025722,0.000293,0.001412,0.0036,-0.014329,-0.519503,-0.024925,-1.422052,-264.713811,0.396977,62.135649
3.7178,-0.002122,-0.009817,-0.025704,0.000571,0.002753,0.007018,-0.015006,-0.519849,-0.025722,-1.346945,-264.713811,0.472084,62.135649
3.738,-0.002139,-0.0098,-0.025232,0.000833,0.004018,0.010244,-0.015134,-0.519734,-0.025712,-1.346945,-264.713811,0.472084,62.135649
3.7583,-0.002137,-0.010296,-0.025871,0.001082,0.005216,0.013297,-0.015134,-0.519734,-0.025712,-1.346945,-264.713811,0.472084,62.135649
3.7782,-0.00178,-0.009937,-0.02389,0.001314,0.006336,0.016154,-0.015329,-0.520125,-0.025871,-1.421807,-264.713811,0.397223,62.135649
3.7983,-0.001837,-0.009803,-0.024126,0.001532,0.007384,0.018824,-0.015245,-0.520104,-0.025748,-1.421807,-264.713811,0.397223,62.135649
3.8183,-0.001773,-0.010037,-0.024319,0.001734,0.008362,0.021319,-0.01414,-0.519654,-0.024126,-1.496719,-264.713811,0.32231,62.135649
3.8381,-0.001845,-0.009861,-0.025683,0.001921,0.009263,0.023616,-0.01416,-0.519786,-0.024236,-1.496719,-264.713811,0.32231,62.135649
3.8578,-0.001874,-0.009927,-0.025316,0.002095,0.010099,0.025746,-0.01416,-0.519786,-0.024236,-1.496719,-264.713811,0.32231,62.135649
3.8778,-0.002098,-0.009759,-0.025651,0.002252,0.010856,0.027677,-0.014784,-0.519764,-0.025316,-1.57181,-264.713812,0.247219,62.135649
3.8981,-0.002014,-0.010086,-0.024813,0.002394,0.011543,0.029429,-0.014811,-0.519752,-0.02534,-1.57181,-264.713812,0.247219,62.135649
3.9181,-0.001857,-0.010123,-0.026207,0.002523,0.012162,0.031006,-0.014667,-0.519929,-0.024813,-1.646769,-264.713813,0.17226,62.13565
3.9376,-0.002036,-0.009732,-0.024481,0.002635,0.012704,0.032388,-0.014984,-0.51994,-0.025611,-1.646769,-264.713813,0.17226,62.13565
3.9581,-0.001759,-0.009625,-0.026984,0.002732,0.013171,0.03358,-0.014984,-0.51994,-0.025611,-1.646769,-264.713813,0.17226,62.13565
3.9777,-0.002077,-0.010041,-0.025562,0.002815,0.01357,0.034595,-0.015519,-0.519439,-0.026983,-1.651735,-264.713814,0.097235,62.13565
3.9983,-0.001644,-0.010122,-0.023888,0.002882,0.013895,0.035425,-0.015492,-0.519467,-0.026891,-1.651735,-264.713814,0.097235,62.13565
4.018,-0.002095,-0.009856,-0.024708,0.002935,0.014149,0.036072,-0.013826,-0.519976,-0.023888,-1.651735,-264.713815,0.022326,62.13565
4.0378,-0.002189,-0.009638,-0.025045,0.002972,0.014329,0.036532,-0.014322,-0.519818,-0.024357,-1.651735,-264.713815,0.022326,62.13565
4.0579,-0.002077,-0.010279,-0.026015,0.002995,0.014438,0.036809,-0.014322,-0.519818,-0.024357,-1.651735,-264.713815,0.022326,62.13565
4.0777,-0.001835,-0.010039,-0.024075,0.003002,0.014474,0.036901,-0.015343,-0.520107,-0.026015,-1.651735,-264.713817,-0.052773,62.135651
4.0981,-0.00187,-0.009664,-0.027874,0.002995,0.014438,0.036808,-0.015258,-0.520092,-0.02588,-1.651735,-264.713817,-0.052773,62.135651
4.1178,-0.001613,-0.010038,-0.024417,0.002972,0.014329,0.036531,-0.016084,-0.519465,-0.027874,-1.651735,-264.713818,-0.127669,62.135651
4.1377,-0.001935,-0.01007,-0.025204,0.002935,0.014148,0.036069,-0.014933,-0.519705,-0.025903,-1.651735,-264.713818,-0.127669,62.135651
4.1579,-0.001909,-0.010342,-0.024471,0.002882,0.013895,0.035424,-0.014933,-0.519705,-0.025903,-1.651735,-264.713818,-0.127669,62.135651
4.1776,-0.00194,-0.01004,-0.024965,0.002814,0.013568,0.034591,-0.014388,-0.52019,-0.024471,-1.651735,-264.71382,-0.202819,62.135651
4.1977,-0.002044,-0.009493,-0.026168,0.002731,0.013169,0.033573,-0.014406,-0.52017,-0.024503,-1.651735,-264.71382,-0.202819,62.135651
4.2177,-0.001843,-0.010157,-0.024459,0.002634,0.0127,0.032379,-0.015388,-0.519318,-0.026168,-1.651735,-264.713821,-0.277677,62.135652
4.2377,-0.001883,-0.010064,-0.026078,0.002522,0.012159,0.030998,-0.014775,-0.519711,-0.02519,-1.651735,-264.713821,-0.277677,62.135652
4.2577,-0.002036,-0.009674,-0.025327,0.002394,0.011543,0.029428,-0.014775,-0.519711,-0.02519,-1.651735,-264.713821,-0.277677,62.135652
4.2778,-0.001678,-0.009371,-0.025772,0.002252,0.010855,0.027674,-0.014951,-0.51951,-0.025327,-1.651735,-264.713822,-0.352784,62.135652
4.2982,-0.001756,-0.009788,-0.025206,0.002094,0.010094,0.025735,-0.014942,-0.519489,-0.025358,-1.651735,-264.713822,-0.352784,62.135652
4.3181,-0.001802,-0.009802,-0.022812,0.001921,0.009262,0.023614,-0.01461,-0.519626,-0.025206,-1.651735,-264.713824,-0.427665,62.135652
4.3382,-0.002015,-0.009909,-0.026246,0.001734,0.008359,0.021312,-0.013942,-0.51965,-0.023845,-1.651735,-264.713824,-0.427665,62.135652
4.3582,-0.002141,-0.009653,-0.025959,0.001529,0.007372,0.018795,-0.013942,-0.51965,-0.023845,-1.651735,-264.713824,-0.427665,62.135652
4.3781,-0.001766,-0.010034,-0.024373,0.001313,0.006331,0.01614,-0.015378,-0.519481,-0.025958,-1.651735,-264.713825,-0.502689,62.135652
4.398,-0.001768,-0.009958,-0.025473,0.00108,0.005209,0.013279,-0.015293,-0.51951,-0.025845,-1.651735,-264.713825,-0.502689,62.135652
4.4179,-0.002174,-0.009568,-0.026118,0.000833,0.004015,0.010236,-0.014757,-0.519793,-0.025473,-1.651735,-264.713827,-0.577782,62.135653
4.4381,-0.001876,-0.010121,-0.024753,0.000569,0.002744,0.006996,-0.015178,-0.519565,-0.025842,-1.651735,-264.713827,-0.577782,62.135653
4.4579,-0.001862,-0.00984,-0.025502,0.000292,0.00141,0.003595,-0.015178,-0.519565,-0.025842,-1.651735,-264.713827,-0.577782,62.135653
4.4777,-0.001949,-0.009922,-0.025478,0.0,0.0,0.0,-0.014867,-0.519674,-0.025501,-1.651735,-264.713832,-0.652757,62.135654
4.4981,-0.002041,-0.009932,-0.025135,0.0,0.0,0.0,-0.014872,-0.519679,-0.0255,-1.651735,-264.713832,-0.652757,62.135654
4.5177,-0.002474,-0.009935,-0.02466,0.0,0.0,0.0,-0.014858,-0.519771,-0.025134,-1.651735,-264.713839,-0.727674,62.135656
4.5377,-0.002035,-0.009586,-0.025629,0.0,0.0,0.0,-0.014967,-0.519776,-0.024865,-1.651735,-264.713839,-0.727674,62.135656
4.5577,-0.001633,-0.009737,-0.02694,0.0,0.0,0.0,-0.014967,-0.519776,-0.024865,-1.651735,-264.713839,-0.727674,62.135656
4.5777,-0.002077,-0.010051,-0.025416,0.0,0.0,0.0,-0.01537,-0.519552,-0.02694,-1.651735,-264.713839,-0.727674,62.135656
4.598,-0.002193,-0.009576,-0.024509,0.0,0.0,0.0,-0.015346,-0.519576,-0.02683,-1.651735,-264.713839,-0.727674,62.135656
4.618,-0.001719,-0.009861,-0.026372,0.0,0.0,0.0,-0.014691,-0.519423,-0.024509,-1.651735,-264.713839,-0.727674,62.135656
4.6383,-0.001815,-0.009508,-0.026376,0.0,0.0,0.0,-0.014964,-0.519573,-0.025578,-1.651735,-264.713839,-0.727674,62.135656
4.658,-0.001612,-0.009645,-0.025513,0.0,0.0,0.0,-0.014964,-0.519573,-0.025578,-1.651735,-264.713839,-0.727674,62.135656
4.6778,-0.002179,-0.009758,-0.025497,0.0,0.0,0.0,-0.014622,-0.519479,-0.025513,-1.651735,-264.713839,-0.727674,62.135656
4.698,-0.001969,-0.009926,-0.026359,1.9e-05,9.8e-05,0.0,-0.014661,-0.519487,-0.025512,-1.651735,-264.713839,-0.727674,62.135656
4.7179,-0.002328,-0.009714,-0.025732,1.9e-05,9.8e-05,0.0,-0.015411,-0.519748,-0.026359,-1.651735,-264.713839,-0.727674,62.135656
4.7377,-0.001745,-0.010239,-0.022871,1.9e-05,9.8e-05,0.0,-0.015433,-0.519633,-0.026003,-1.651735,-264.713839,-0.727674,62.135656
4.7577,-0.002287,-0.01007,-0.024748,1.9e-05,9.8e-05,0.0,-0.015433,-0.519633,-0.026003,-1.651735,-264.713839,-0.727674,62.135656
4.778,-0.002359,-0.00973,-0.023571,1.9e-05,9.8e-05,0.0,-0.014907,-0.519914,-0.024748,-1.576708,-264.713839,-0.652647,62.135656
4.7977,-0.001867,-0.009912,-0.025288,1.9e-05,9.8e-05,0.0,-0.014871,-0.519892,-0.024667,-1.576708,-264.713839,-0.652647,62.135656
4.8183,-0.002058,-0.010085,-0.025729,1.9e-05,9.8e-05,0.0,-0.014762,-0.519749,-0.025288,-1.501719,-264.713839,-0.577659,62.135656
4.8377,-0.001929,-0.010254,-0.024975,1.9e-05,9.8e-05,0.0,-0.014998,-0.519844,-0.025538,-1.501719,-264.713839,-0.577659,62.135656
4.8577,-0.002118,-0.009992,-0.025369,1.9e-05,9.8e-05,0.0,-0.014998,-0.519844,-0.025538,-1.501719,-264.713839,-0.577659,62.135656
4.878,-0.001691,-0.009981,-0.025315,1.9e-05,9.8e-05,0.0,-0.015055,-0.519828,-0.025369,-1.426734,-264.713839,-0.502674,62.135656
4.8982,-0.002147,-0.010099,-0.023563,0.0,0.0,0.0,-0.015025,-0.519827,-0.025366,-1.426734,-264.713839,-0.502674,62.135656
4.9179,-0.002135,-0.009894,-0.023974,0.000282,0.001435,0.00373,-0.014163,-0.519958,-0.023563,-1.351736,-264.713839,-0.427675,62.135656
4.9378,-0.002155,-0.010308,-0.025675,0.000551,0.0028,0.007278,-0.014275,-0.519838,-0.023796,-1.351736,-264.713839,-0.427675,62.135656
4.9577,-0.002065,-0.010095,-0.025772,0.000803,0.004082,0.01061,-0.014275,-0.519838,-0.023796,-1.351736,-264.713839,-0.427675,62.135656
4.9778,-0.002238,-0.009887,-0.024282,0.001043,0.0053,0.013773,-0.015207,-0.519926,-0.025772,-1.426704,-264.713839,-0.502643,62.135656
4.9981,-0.001988,-0.010307,-0.024949,0.001266,0.006437,0.016729,-0.015168,-0.519913,-0.025671,-1.426704,-264.713839,-0.502643,62.135656
5.0178,-0.002061,-0.009432,-0.025195,0.001476,0.007504,0.019503,-0.014711,-0.520149,-0.024949,-1.501664,-264.713839,-0.577604,62.135656
5.0376,-0.001923,-0.009835,-0.024963,0.001672,0.008499,0.022087,-0.014823,-0.519649,-0.025089,-1.501664,-264.713839,-0.577604,62.135656
5.0577,-0.00148,-0.010061,-0.023782,0.001853,0.009417,0.024474,-0.014823,-0.519649,-0.025089,-1.501664,-264.713839,-0.577604,62.135656
5.0777,-0.002133,-0.010003,-0.024933,0.002019,0.010265,0.026679,-0.013608,-0.519917,-0.023782,-1.576741,-264.713842,-0.652681,62.135656
5.0981,-0.002117,-0.009361,-0.025208,0.002171,0.011036,0.028681,-0.013692,-0.519912,-0.02386,-1.576741,-264.713842,-0.652681,62.135656
5.1176,-0.001692,-0.009942,-0.025397,0.002309,0.011736,0.0305,-0.014972,-0.519198,-0.025206,-1.646685,-264.713864,-0.72768,62.135662
5.1377,-0.002106,-0.009825,-0.024771,0.002432,0.012362,0.032128,-0.014785,-0.519528,-0.025314,-1.646685,-264.713864,-0.72768,62.135662
5.1576,-0.001985,-0.009938,-0.024691,0.00254,0.012913,0.033559,-0.014785,-0.519528,-0.025314,-1.646685,-264.713864,-0.72768,62.135662
5.1778,-0.002091,-0.00985,-0.026212,0.002634,0.013391,0.034803,-0.014575,-0.519777,-0.024677,-1.646685,-264.713988,-0.802677,62.135691
5.198,-0.001945,-0.010171,-0.026192,0.002714,0.013796,0.035854,-0.014637,-0.519769,-0.024784,-1.646685,-264.713988,-0.802677,62.135691
5.2176,-0.0021,-0.009603,-0.025563,0.002779,0.014128,0.036716,-0.015295,-0.519976,-0.026145,-1.646685,-264.714495,-0.877674,62.135812
5.238,-0.001902,-0.009564,-0.025589,0.00283,0.014387,0.037391,-0.015203,-0.519665,-0.025806,-1.646685,-264.714495,-0.877674,62.135812
5.2579,-0.001985,-0.00995,-0.024646,0.002866,0.014569,0.037862,-0.015203,-0.519665,-0.025806,-1.646685,-264.714495,-0.877674,62.135812
5.2779,-0.002159,-0.009599,-0.02549,0.002888,0.014679,0.03815,-0.014531,-0.519722,-0.024466,-1.646685,-264.716017,-0.952787,62.136176
5.2981,-0.002281,-0.009403,-0.024737,0.002895,0.014716,0.038245,-0.014576,-0.519699,-0.024536,-1.646685,-264.716017,-0.952787,62.136176
5.3176,-0.002129,-0.010055,-0.023119,0.002888,0.014679,0.038149,-0.014857,-0.519107,-0.024388,-1.646685,-264.719704,-1.027783,62.137056
5.3378,-0.002604,-0.009536,-0.025456,0.002866,0.014568,0.037861,-0.014315,-0.519553,-0.023618,-1.646685,-264.719704,-1.027783,62.137056
5.3578,-0.002423,-0.009598,-0.022989,0.00283,0.014384,0.037383,-0.014315,-0.519553,-0.023618,-1.646685,-264.719704,-1.027783,62.137056
5.3777,-0.002436,-0.009401,-0.024241,0.002779,0.014127,0.036715,-0.014065,-0.519181,-0.022227,-1.646685,-264.725882,-1.102772,62.138726
5.3981,-0.002271,-0.009266,-0.02361,0.002714,0.013796,0.035855,-0.014111,-0.519178,-0.02234,-1.646685,-264.725882,-1.102772,62.138726
5.4176,-0.003305,-0.008723,-0.02196,0.002634,0.013391,0.034803,-0.014226,-0.518821,-0.02274,-1.646685,-264.734567,-1.177677,62.141271
5.4382,-0.002874,-0.008832,-0.022508,0.00254,0.012913,0.033558,-0.014373,-0.518657,-0.022185,-1.646685,-264.734567,-1.177677,62.141271
5.458,-0.003088,-0.008857,-0.022978,0.002432,0.01236,0.032123,-0.014373,-0.518657,-0.022185,-1.646685,-264.734567,-1.177677,62.141271
5.4779,-0.003378,-0.008575,-0.021705,0.002309,0.011737,0.030502,-0.014681,-0.518228,-0.021565,-1.646685,-264.745738,-1.247568,62.144428
5.498,-0.003631,-0.008452,-0.020942,0.002171,0.011038,0.028686,-0.014665,-0.51823,-0.021542,-1.646685,-264.745738,-1.247568,62.144428
5.518,-0.00402,-0.007642,-0.017488,0.002019,0.010265,0.026677,-0.014208,-0.517864,-0.0197,-1.646685,-264.758579,-1.247568,62.147493
5.538,-0.004228,-0.00758,-0.019271,0.001853,0.009419,0.024479,-0.013472,-0.517633,-0.018284,-1.646685,-264.758579,-1.247568,62.147493
5.5582,-0.004143,-0.007366,-0.020291,0.001672,0.008498,0.022086,-0.013472,-0.517633,-0.018284,-1.646685,-264.758579,-1.247568,62.147493
5.5778,-0.005219,-0.006887,-0.020335,0.001476,0.007505,0.019504,-0.014375,-0.516726,-0.018896,-1.646685,-264.770036,-1.247568,62.150227
5.598,-0.004435,-0.007441,-0.016905,0.001267,0.006438,0.016732,-0.014458,-0.516716,-0.01896,-1.646685,-264.770036,-1.247568,62.150227
5.6182,-0.005576,-0.007235,-0.01668,0.001033,0.00525,0.013645,-0.012986,-0.517042,-0.016053,-1.646685,-264.778855,-1.247568,62.152333
5.6381,-0.005299,-0.006399,-0.015199,0.000801,0.004071,0.01058,-0.013601,-0.51707,-0.016302,-1.646685,-264.778855,-1.247568,62.152333
5.658,-0.005506,-0.007051,-0.016469,0.00055,0.002796,0.007267,-0.013601,-0.51707,-0.016302,-1.646685,-264.778855,-1.247568,62.152333
5.6778,-0.005788,-0.005818,-0.017231,0.000282,0.001432,0.003722,-0.013838,-0.51667,-0.015654,-1.646685,-264.785537,-1.247568,62.153928
5.6981,-0.005844,-0.006573,-0.017197,0.0,0.0,0.0,-0.013884,-0.516601,-0.015736,-1.646685,-264.785537,-1.247568,62.153928
5.7177,-0.00615,-0.006338,-0.014257,0.0,0.0,0.0,-0.014591,-0.51639,-0.016916,-1.646685,-264.788443,-1.247568,62.154621
5.7385,-0.006049,-0.006223,-0.016235,0.0,0.0,0.0,-0.013919,-0.516317,-0.01536,-1.646685,-264.788443,-1.247568,62.154621
5.7577,-0.005926,-0.006719,-0.016372,0.0,0.0,0.0,-0.013919,-0.516317,-0.01536,-1.646685,-264.788443,-1.247568,62.154621
5.778,-0.005375,-0.006352,-0.01489,0.0,0.0,0.0,-0.014275,-0.51665,-0.016372,-1.646685,-264.788443,-1.247568,62.154621
5.7982,-0.006083,-0.006044,-0.015527,0.0,0.0,0.0,-0.014181,-0.516625,-0.016266,-1.646685,-264.788443,-1.247568,62.154621
5.8179,-0.006221,-0.006336,-0.014981,0.0,0.0,0.0,-0.014001,-0.515983,-0.015527,-1.646685,-264.788443,-1.247568,62.154621
5.8379,-0.006038,-0.006393,-0.01602,0.0,0.0,0.0,-0.013922,-0.516151,-0.015218,-1.646685,-264.788443,-1.247568,62.154621
5.858,-0.00613,-0.00645,-0.015302,0.0,0.0,0.0,-0.013922,-0.516151,-0.015218,-1.646685,-264.788443,-1.247568,62.154621
5.8777,-0.00601,-0.006503,-0.014973,0.0,0.0,0.0,-0.013934,-0.51639,-0.015302,-1.646685,-264.788443,-1.247568,62.154621
5.8982,-0.005866,-0.006285,-0.015389,0.0,0.0,0.0,-0.013914,-0.516394,-0.01528,-1.646685,-264.788443,-1.247568,62.154621
5.9181,-0.005779,-0.006397,-0.016972,6.7e-05,7.4e-05,0.0,-0.013715,-0.516225,-0.015389,-1.646685,-264.788443,-1.247568,62.154621
5.9378,-0.0062,-0.006331,-0.015552,6.7e-05,7.4e-05,0.0,-0.014119,-0.51628,-0.016279,-1.646685,-264.788443,-1.247568,62.154621
5.9576,-0.005934,-0.006505,-0.01433,6.7e-05,7.4e-05,0.0,-0.014119,-0.51628,-0.016279,-1.646685,-264.788443,-1.247568,62.154621
5.9777,-0.006215,-0.006695,-0.016103,6.7e-05,7.4e-05,0.0,-0.013243,-0.516453,-0.01433,-1.646685,-264.788443,-1.247568,62.154621
5.9981,-0.0059,-0.006323,-0.016639,6.7e-05,7.4e-05,0.0,-0.013332,-0.516466,-0.014463,-1.646685,-264.788443,-1.247568,62.154621
6.0179,-0.005821,-0.006322,-0.014602,6.7e-05,7.4e-05,0.0,-0.014386,-0.516252,-0.016639,-1.5715,-264.788443,-1.172383,62.154621
6.0377,-0.006115,-0.006388,-0.014666,6.7e-05,7.4e-05,0.0,-0.013745,-0.516261,-0.015473,-1.5715,-264.788443,-1.172383,62.154621
6.0578,-0.005913,-0.006332,-0.01676,6.7e-05,7.4e-05,0.0,-0.013745,-0.516261,-0.015473,-1.5715,-264.788443,-1.172383,62.154621
6.0779,-0.00583,-0.00654,-0.014468,6.7e-05,7.4e-05,0.0,-0.01446,-0.516261,-0.01676,-1.496549,-264.788443,-1.097431,62.154621
6.0982,-0.005834,-0.006065,-0.016206,6.7e-05,7.4e-05,0.0,-0.014378,-0.516275,-0.016609,-1.496549,-264.788443,-1.097431,62.154621
6.1184,-0.005799,-0.006142,-0.013559,3e-06,3e-06,8e-06,-0.014099,-0.515998,-0.016206,-1.421676,-264.788443,-1.022559,62.154621
6.1377,-0.006329,-0.006135,-0.014802,0.000843,0.000932,0.002249,-0.013316,-0.516053,-0.01471,-1.421676,-264.788443,-1.022559,62.154621
6.158,-0.006145,-0.005946,-0.015125,0.001644,0.001816,0.004385,-0.013316,-0.516053,-0.01471,-1.421676,-264.788443,-1.022559,62.154621
6.1777,-0.006037,-0.006366,-0.014055,0.002401,0.002653,0.006405,-0.013858,-0.515888,-0.015125,-1.34666,-264.788443,-0.947542,62.154621
6.198,-0.00602,-0.005934,-0.015267,0.003115,0.003441,0.008308,-0.013817,-0.515915,-0.015058,-1.34666,-264.788443,-0.947542,62.154621
6.2179,-0.006378,-0.006071,-0.015606,0.003786,0.004183,0.010099,-0.013806,-0.515874,-0.015267,-1.271672,-264.788443,-0.872554,62.154621
6.2381,-0.005872,-0.006492,-0.015991,0.004412,0.004875,0.01177,-0.014108,-0.515951,-0.01546,-1.271672,-264.788443,-0.872554,62.154621
6.2579,-0.005857,-0.006065,-0.016254,0.004999,0.005523,0.013334,-0.014108,-0.515951,-0.01546,-1.271672,-264.788443,-0.872554,62.154621
6.2779,-0.005553,-0.006,-0.015259,0.005539,0.006121,0.014777,-0.014146,-0.515998,-0.016254,-1.196673,-264.788443,-0.797556,62.154621
6.298,-0.006109,-0.006094,-0.015567,0.006035,0.006669,0.016099,-0.014092,-0.515994,-0.016188,-1.196673,-264.788443,-0.797556,62.154621
6.3177,-0.006036,-0.005941,-0.016178,0.00649,0.007171,0.017312,-0.014048,-0.516033,-0.015567,-1.121681,-264.788443,-0.722563,62.154621
6.3378,-0.005908,-0.006761,-0.015665,0.006901,0.007626,0.018409,-0.014183,-0.515943,-0.015913,-1.121681,-264.788443,-0.722563,62.154621
6.3577,-0.00571,-0.006356,-0.016288,0.007268,0.008031,0.019389,-0.014183,-0.515943,-0.015913,-1.121681,-264.788443,-0.722563,62.154621
6.3776,-0.005707,-0.006545,-0.014935,0.007593,0.00839,0.020255,-0.014016,-0.516289,-0.016288,-1.046678,-264.788442,-0.64756,62.154621
6.3976,-0.005829,-0.005939,-0.017176,0.007874,0.008701,0.021005,-0.013968,-0.516302,-0.016195,-1.046678,-264.788442,-0.64756,62.154621
6.4178,-0.006064,-0.006435,-0.015046,0.008113,0.008964,0.021641,-0.014588,-0.515864,-0.017176,-0.971667,-264.788442,-0.57255,62.154622
6.4379,-0.005828,-0.006104,-0.015352,0.008307,0.009179,0.02216,-0.014104,-0.516156,-0.015964,-0.971667,-264.788442,-0.57255,62.154622
6.4579,-0.006075,-0.006255,-0.015211,0.008459,0.009347,0.022564,-0.014104,-0.516156,-0.015964,-0.971667,-264.788442,-0.57255,62.154622
6.4778,-0.005809,-0.006506,-0.016774,0.008567,0.009466,0.022853,-0.013832,-0.516197,-0.015211,-0.896655,-264.788441,-0.497538,62.154622
6.4982,-0.005664,-0.006179,-0.01692,0.008632,0.009538,0.023026,-0.013866,-0.516212,-0.015311,-0.896655,-264.788441,-0.497538,62.154622
6.5179,-0.006165,-0.006462,-0.015578,0.008653,0.009562,0.023084,-0.014293,-0.516106,-0.01692,-0.821664,-264.78844,-0.482853,62.154622
6.5378,-0.00585,-0.006351,-0.016408,0.008632,0.009538,0.023026,-0.014189,-0.516273,-0.01616,-0.821664,-264.78844,-0.482853,62.154622
6.5578,-0.005721,-0.006188,-0.016895,0.008567,0.009466,0.022853,-0.014189,-0.516273,-0.01616,-0.821664,-264.78844,-0.482853,62.154622
6.5779,-0.006125,-0.006089,-0.016551,0.008459,0.009346,0.022564,-0.014337,-0.516115,-0.016895,-0.746539,-264.788439,-0.482853,62.154623
6.5979,-0.006173,-0.006389,-0.015284,0.008308,0.00918,0.022161,-0.014353,-0.516108,-0.016871,-0.746539,-264.788439,-0.482853,62.154623
6.6177,-0.005957,-0.005938,-0.015197,0.008113,0.008965,0.021642,-0.013967,-0.516329,-0.015284,-0.671682,-264.788438,-0.482853,62.154623
6.638,-0.005703,-0.006151,-0.014539,0.007875,0.008702,0.021007,-0.013819,-0.516073,-0.015234,-0.671682,-264.788438,-0.482853,62.154623
6.658,-0.005742,-0.006229,-0.016581,0.007594,0.008391,0.020258,-0.013819,-0.516073,-0.015234,-0.671682,-264.788438,-0.482853,62.154623
6.6779,-0.00616,-0.006412,-0.017396,0.007268,0.008031,0.019389,-0.014198,-0.516158,-0.016581,-0.596535,-264.788437,-0.482853,62.154623
6.6981,-0.006281,-0.006151,-0.016316,0.006902,0.007626,0.018411,-0.014257,-0.516171,-0.016639,-0.596535,-264.788437,-0.482853,62.154623
6.7177,-0.005915,-0.006267,-0.014224,0.00649,0.007171,0.017311,-0.014601,-0.516083,-0.016316,-0.52158,-264.788436,-0.482853,62.154624
6.7378,-0.00581,-0.006309,-0.015701,0.006035,0.006668,0.016098,-0.013782,-0.516159,-0.015119,-0.52158,-264.788436,-0.482853,62.154624
6.7577,-0.006036,-0.006863,-0.015189,0.005539,0.00612,0.014774,-0.013782,-0.516159,-0.015119,-0.52158,-264.788436,-0.482853,62.154624
6.7779,-0.006071,-0.006443,-0.01531,0.004998,0.005523,0.013334,-0.013782,-0.516804,-0.015189,-0.446536,-264.788435,-0.482853,62.154624
6.7981,-0.005847,-0.005982,-0.014811,0.004414,0.004878,0.011775,-0.013789,-0.516774,-0.015198,-0.446536,-264.788435,-0.482853,62.154624
6.8184,-0.005945,-0.00622,-0.016293,0.003786,0.004183,0.010098,-0.0134,-0.515926,-0.014811,-0.371673,-264.788435,-0.482853,62.154624
6.8385,-0.005827,-0.006227,-0.015279,0.003114,0.00344,0.008306,-0.01389,-0.516056,-0.015661,-0.371673,-264.788435,-0.482853,62.154624
6.8584,-0.006082,-0.006429,-0.016998,0.002403,0.002655,0.00641,-0.01389,-0.516056,-0.015661,-0.371673,-264.788435,-0.482853,62.154624
6.8781,-0.005836,-0.006564,-0.015089,0.001642,0.001815,0.004381,-0.01475,-0.516355,-0.016998,-0.296517,-264.788434,-0.482853,62.154624
6.8978,-0.005716,-0.006167,-0.018462,0.000846,0.000935,0.002257,-0.014666,-0.516366,-0.016865,-0.296517,-264.788434,-0.482853,62.154624
6.9178,-0.006159,-0.006149,-0.015051,1e-06,1e-06,2e-06,-0.015131,-0.51608,-0.018462,-0.221532,-264.788434,-0.482853,62.154625
6.9379,-0.006136,-0.006234,-0.016299,0.0,0.0,0.0,-0.014386,-0.516086,-0.016502,-0.221532,-264.788434,-0.482853,62.154625
6.9577,-0.006189,-0.006324,-0.015802,0.0,0.0,0.0,-0.014386,-0.516086,-0.016502,-0.221532,-264.788434,-0.482853,62.154625
6.9779,-0.006035,-0.006283,-0.014605,0.0,0.0,0.0,-0.014247,-0.51626,-0.015802,-0.146496,-264.788434,-0.482853,62.154625
6.9977,-0.005906,-0.006243,-0.015654,0.0,0.0,0.0,-0.014194,-0.516258,-0.015718,-0.146496,-264.788434,-0.482853,62.154625
7.0178,-0.005689,-0.006457,-0.016138,0.0,0.0,0.0,-0.013889,-0.516181,-0.015654,-0.146496,-264.788434,-0.482853,62.154625
7.0381,-0.005816,-0.005844,-0.016058,0.0,0.0,0.0,-0.013906,-0.516301,-0.015931,-0.146496,-264.788434,-0.482853,62.154625
7.0581,-0.006046,-0.006487,-0.01517,0.0,0.0,0.0,-0.013906,-0.516301,-0.015931,-0.146496,-264.788434,-0.482853,62.154625
7.0783,-0.00579,-0.006299,-0.015531,0.0,0.0,0.0,-0.013783,-0.516428,-0.01517,-0.146496,-264.788434,-0.482853,62.154625
7.098,-0.00582,-0.006199,-0.014948,0.0,0.0,0.0,-0.013778,-0.516415,-0.015196,-0.146496,-264.788434,-0.482853,62.154625
7.1179,-0.005715,-0.006091,-0.015342,0.0,0.0,0.0,-0.013443,-0.516142,-0.014948,-0.146496,-264.788434,-0.482853,62.154625
7.1383,-0.006101,-0.006259,-0.013564,0.0,0.0,0.0,-0.013499,-0.516078,-0.015174,-0.146496,-264.788434,-0.482853,62.154625
7.1579,-0.005714,-0.00625,-0.0166,6.9e-05,7.3e-05,0.0,-0.013499,-0.516078,-0.015174,-0.146496,-264.788434,-0.482853,62.154625
7.1777,-0.006069,-0.005987,-0.016797,6.9e-05,7.3e-05,0.0,-0.014179,-0.51618,-0.0166,-0.146496,-264.788434,-0.482853,62.154625
7.1982,-0.006043,-0.006362,-0.014825,6.9e-05,7.3e-05,0.0,-0.014211,-0.516161,-0.016613,-0.146496,-264.788434,-0.482853,62.154625
7.2177,-0.005956,-0.006293,-0.015656,6.9e-05,7.3e-05,0.0,-0.013603,-0.516306,-0.014825,-0.071453,-264.788434,-0.40781,62.154625
7.2377,-0.005627,-0.006028,-0.015487,6.9e-05,7.3e-05,0.0,-0.013796,-0.516263,-0.0153,-0.071453,-264.788434,-0.40781,62.154625
7.258,-0.005677,-0.006323,-0.015975,6.9e-05,7.3e-05,0.0,-0.013796,-0.516263,-0.0153,-0.071453,-264.788434,-0.40781,62.154625
7.2777,-0.005452,-0.006083,-0.01623,6.9e-05,7.3e-05,0.0,-0.013824,-0.516258,-0.015975,0.00348,-264.788434,-0.332878,62.154625
7.2977,-0.005775,-0.006133,-0.014324,6.9e-05,7.3e-05,0.0,-0.013818,-0.516242,-0.015993,0.00348,-264.788434,-0.332878,62.154625
7.3177,-0.005698,-0.006317,-0.015991,6.9e-05,7.3e-05,0.0,-0.01308,-0.516081,-0.014324,0.078412,-264.788434,-0.257945,62.154625
7.3377,-0.006309,-0.006311,-0.016669,6.9e-05,7.3e-05,0.0,-0.013523,-0.516179,-0.015279,0.078412,-264.788434,-0.257945,62.154625
7.358,-0.00556,-0.006017,-0.015034,0.0,0.0,1e-06,-0.013523,-0.516179,-0.015279,0.078412,-264.788434,-0.257945,62.154625
7.378,-0.005904,-0.006192,-0.015374,0.00088,0.000928,0.001985,-0.013227,-0.51596,-0.015034,0.153531,-264.788434,-0.182826,62.154625
7.3981,-0.00578,-0.006033,-0.015984,0.001716,0.001808,0.003868,-0.013265,-0.515972,-0.015059,0.153531,-264.788434,-0.182826,62.154625
7.4179,-0.006036,-0.006293,-0.01682,0.002505,0.00264,0.005648,-0.013932,-0.515968,-0.015984,0.228534,-264.788434,-0.257828,62.154625
7.4379,-0.005795,-0.006286,-0.015609,0.003249,0.003424,0.007325,-0.014322,-0.516113,-0.016463,0.228534,-264.788434,-0.257828,62.154625
7.458,-0.005657,-0.006337,-0.015903,0.003948,0.004162,0.008902,-0.014322,-0.516113,-0.016463,0.228534,-264.788434,-0.257828,62.154625
7.478,-0.005931,-0.006272,-0.015014,0.004605,0.004854,0.010383,-0.013767,-0.516273,-0.015903,0.303519,-264.788434,-0.312428,62.154625
7.4984,-0.006049,-0.006721,-0.016646,0.005213,0.005494,0.011753,-0.013756,-0.516269,-0.015844,0.303519,-264.788434,-0.312428,62.154625
7.5179,-0.005621,-0.006646,-0.016713,0.005776,0.006088,0.013023,-0.014538,-0.516651,-0.016646,0.378401,-264.788433,-0.312428,62.154625
7.5377,-0.006397,-0.006654,-0.015488,0.006295,0.006635,0.014194,-0.014312,-0.516607,-0.016685,0.378401,-264.788433,-0.312428,62.154625
7.5577,-0.005951,-0.006278,-0.015606,0.006768,0.007134,0.01526,-0.014312,-0.516607,-0.016685,0.378401,-264.788433,-0.312428,62.154625
7.5776,-0.006245,-0.006224,-0.015589,0.007202,0.007591,0.016238,-0.01391,-0.516216,-0.015606,0.453529,-264.788433,-0.312428,62.154625
7.5982,-0.005896,-0.006182,-0.015611,0.00758,0.00799,0.017091,-0.01393,-0.516212,-0.015604,0.453529,-264.788433,-0.312428,62.154625
7.6178,-0.005815,-0.006226,-0.016105,0.007919,0.008346,0.017854,-0.013858,-0.51612,-0.015611,0.528393,-264.788431,-0.312428,62.154626
7.6379,-0.005772,-0.006317,-0.016455,0.008212,0.008656,0.018516,-0.013956,-0.516143,-0.015895,0.528393,-264.788431,-0.312428,62.154626
7.6579,-0.006114,-0.006318,-0.017298,0.00846,0.008917,0.019075,-0.013956,-0.516143,-0.015895,0.528393,-264.788431,-0.312428,62.154626
7.6778,-0.005578,-0.006324,-0.01605,0.008664,0.009132,0.019533,-0.014935,-0.516242,-0.017297,0.603528,-264.788425,-0.312428,62.154628
7.6977,-0.005684,-0.00643,-0.015985,0.008821,0.009298,0.019889,-0.014856,-0.516243,-0.017214,0.603528,-264.788425,-0.312428,62.154628
7.7182,-0.005815,-0.005895,-0.015752,0.008934,0.009416,0.020143,-0.013834,-0.516364,-0.015983,0.67841,-264.788393,-0.312428,62.154641
7.7379,-0.005474,-0.006164,-0.017066,0.009001,0.009488,0.020295,-0.013842,-0.516061,-0.015852,0.67841,-264.788393,-0.312428,62.154641
7.7578,-0.005996,-0.006432,-0.015277,0.009024,0.009511,0.020346,-0.013842,-0.516061,-0.015852,0.67841,-264.788393,-0.312428,62.154641
7.7782,-0.005934,-0.00615,-0.015142,0.009001,0.009488,0.020295,-0.013778,-0.516368,-0.015266,0.753408,-264.788255,-0.312428,62.154696
7.7982,-0.005971,-0.006417,-0.016926,0.008933,0.009416,0.020142,-0.013767,-0.516344,-0.015255,0.753408,-264.788255,-0.312428,62.154696
7.8179,-0.005865,-0.006076,-0.015475,0.00882,0.009297,0.019887,-0.014579,-0.516331,-0.016895,0.828971,-264.787792,-0.312428,62.154881
7.8378,-0.006175,-0.006082,-0.014433,0.008662,0.009129,0.019528,-0.014115,-0.516152,-0.016094,0.828971,-264.787792,-0.312428,62.154881
7.8577,-0.006032,-0.006437,-0.016298,0.00846,0.008917,0.019074,-0.014115,-0.516152,-0.016094,0.828971,-264.787792,-0.312428,62.154881
7.8781,-0.005859,-0.006217,-0.015946,0.008207,0.00865,0.018504,-0.014267,-0.51632,-0.016185,0.903412,-264.786546,-0.312428,62.155379
7.8981,-0.005751,-0.006382,-0.016583,0.007918,0.008345,0.017851,-0.014247,-0.516308,-0.016167,0.903412,-264.786546,-0.312428,62.155379
7.9181,-0.005493,-0.006037,-0.01464,0.00758,0.007989,0.01709,-0.01409,-0.516226,-0.016389,0.978382,-264.783985,-0.312428,62.156403
7.9381,-0.005694,-0.006109,-0.01473,0.007197,0.007586,0.016227,-0.013434,-0.516077,-0.015373,0.978382,-264.783985,-0.312428,62.156403
7.9581,-0.005847,-0.006017,-0.015144,0.006768,0.007133,0.015259,-0.013434,-0.516077,-0.015373,0.978382,-264.783985,-0.312428,62.156403
7.9778,-0.005452,-0.005818,-0.015284,0.006293,0.006633,0.014189,-0.013338,-0.515766,-0.014718,1.053433,-264.779677,-0.312428,62.158125
7.9978,-0.006203,-0.005917,-0.016052,0.005776,0.006087,0.013022,-0.013326,-0.515761,-0.014744,1.053433,-264.779677,-0.312428,62.158125
8.0178,-0.005866,-0.00564,-0.013596,0.005211,0.005493,0.01175,-0.014171,-0.515647,-0.015605,1.128392,-264.774186,-0.312428,62.16032
8.0378,-0.005738,-0.00527,-0.01385,0.004602,0.004851,0.010377,-0.013365,-0.515591,-0.014409,1.128392,-264.774186,-0.312428,62.16032
8.0585,-0.006161,-0.005865,-0.014723,0.003945,0.004158,0.008894,-0.013365,-0.515591,-0.014409,1.128392,-264.774186,-0.312428,62.16032
8.0778,-0.006437,-0.005433,-0.013575,0.003246,0.003422,0.00732,-0.013396,-0.515529,-0.014116,1.180544,-264.76836,-0.312428,62.16265
8.0981,-0.006244,-0.005557,-0.012791,0.002504,0.002639,0.005645,-0.013386,-0.515512,-0.014062,1.180544,-264.76836,-0.312428,62.16265
8.1178,-0.005977,-0.005205,-0.012935,0.001714,0.001807,0.003865,-0.012613,-0.515356,-0.012448,1.180544,-264.764212,-0.312428,62.164308
8.1381,-0.005841,-0.004839,-0.012296,0.000876,0.000924,0.001976,-0.012571,-0.515225,-0.012683,1.180544,-264.764212,-0.312428,62.164308
8.158,-0.005849,-0.005064,-0.013912,0.0,0.0,0.0,-0.012571,-0.515225,-0.012683,1.180544,-264.764212,-0.312428,62.164308
8.1778,-0.00566,-0.005041,-0.012815,0.0,0.0,0.0,-0.01282,-0.514888,-0.013638,1.180544,-264.761582,-0.312428,62.165359
8.1976,-0.005628,-0.005342,-0.012517,0.0,0.0,0.0,-0.012771,-0.514893,-0.01357,1.180544,-264.761582,-0.312428,62.165359
8.2176,-0.005839,-0.005203,-0.013297,0.0,0.0,0.0,-0.012012,-0.515302,-0.012517,1.180544,-264.761582,-0.312428,62.165359
8.2376,-0.005885,-0.005143,-0.012628,0.0,0.0,0.0,-0.012363,-0.515219,-0.012968,1.180544,-264.761582,-0.312428,62.165359
8.2576,-0.005611,-0.005337,-0.013204,0.0,0.0,0.0,-0.012363,-0.515219,-0.012968,1.180544,-264.761582,-0.312428,62.165359
8.2777,-0.00558,-0.005274,-0.013218,0.0,0.0,0.0,-0.012345,-0.515292,-0.013204,1.180544,-264.761582,-0.312428,62.165359
8.2976,-0.005977,-0.004505,-0.014136,0.0,0.0,0.0,-0.012343,-0.515288,-0.013205,1.180544,-264.761582,-0.312428,62.165359
8.3177,-0.005928,-0.004962,-0.011809,0.0,0.0,0.0,-0.013186,-0.514454,-0.014136,1.180544,-264.761582,-0.312428,62.165359
8.3379,-0.005846,-0.005374,-0.01255,0.0,0.0,0.0,-0.012477,-0.514725,-0.012802,1.180544,-264.761582,-0.312428,62.165359
8.3578,-0.006138,-0.004767,-0.013005,0.0,0.0,0.0,-0.012477,-0.514725,-0.012802,1.180544,-264.761582,-0.312428,62.165359
8.378,-0.005683,-0.00526,-0.013986,7.8e-05,6.2e-05,0.0,-0.01277,-0.514723,-0.013005,1.180544,-264.761582,-0.312428,62.165359
8.3979,-0.006169,-0.004895,-0.01307,7.8e-05,6.2e-05,0.0,-0.012773,-0.514757,-0.013073,1.180544,-264.761582,-0.312428,62.165359
8.418,-0.005888,-0.004967,-0.013031,7.8e-05,6.2e-05,0.0,-0.012834,-0.514852,-0.01307,1.180544,-264.761582,-0.312428,62.165359
8.4376,-0.005965,-0.004795,-0.012396,7.8e-05,6.2e-05,0.0,-0.012662,-0.514893,-0.013048,1.180544,-264.761582,-0.312428,62.165359
8.4576,-0.006079,-0.005211,-0.014881,7.8e-05,6.2e-05,0.0,-0.012662,-0.514893,-0.013048,1.180544,-264.761582,-0.312428,62.165359
8.4778,-0.005706,-0.004946,-0.010606,7.8e-05,6.2e-05,0.0,-0.013668,-0.515154,-0.014881,1.105452,-264.761582,-0.237336,62.165359
8.4981,-0.005754,-0.005151,-0.013539,7.8e-05,6.2e-05,0.0,-0.013494,-0.515138,-0.014589,1.105452,-264.761582,-0.237336,62.165359
8.5178,-0.00554,-0.005138,-0.010928,7.8e-05,6.2e-05,0.0,-0.012659,-0.515104,-0.013539,1.03054,-264.761582,-0.162424,62.165359
8.5382,-0.006056,-0.005008,-0.01347,7.8e-05,6.2e-05,0.0,-0.01178,-0.515106,-0.012055,1.03054,-264.761582,-0.162424,62.165359
8.558,-0.005948,-0.005105,-0.011098,7.8e-05,6.2e-05,0.0,-0.01178,-0.515106,-0.012055,1.03054,-264.761582,-0.162424,62.165359
8.5782,-0.005805,-0.004912,-0.012312,7.8e-05,6.2e-05,0.0,-0.011608,-0.515074,-0.011098,0.955551,-264.761582,-0.087435,62.165359
8.5985,-0.006059,-0.004964,-0.013072,0.000881,0.000702,0.001885,-0.01164,-0.51506,-0.011181,0.955551,-264.761582,-0.087435,62.165359
8.6178,-0.005982,-0.00519,-0.013721,0.001724,0.001375,0.00369,-0.012726,-0.514921,-0.013072,0.880537,-264.761582,-0.012421,62.165359
8.6379,-0.005777,-0.00475,-0.012265,0.002521,0.002011,0.005397,-0.012869,-0.515046,-0.01344,0.880537,-264.761582,-0.012421,62.165359
8.6579,-0.006232,-0.00491,-0.012634,0.003276,0.002613,0.007012,-0.012869,-0.515046,-0.01344,0.880537,-264.761582,-0.012421,62.165359
8.6779,-0.005884,-0.004797,-0.013434,0.003983,0.003177,0.008525,-0.012674,-0.514869,-0.012633,0.955729,-264.761573,-0.087613,62.165364
8.6982,-0.005963,-0.005032,-0.012237,0.004642,0.003702,0.009936,-0.012678,-0.514861,-0.012684,0.955729,-264.761573,-0.087613,62.165364
8.7181,-0.005858,-0.005269,-0.012908,0.005258,0.004194,0.011255,-0.012196,-0.514988,-0.012225,1.030527,-264.761403,-0.162411,62.165445
8.7388,-0.005675,-0.004771,-0.012732,0.00583,0.00465,0.01248,-0.012332,-0.51512,-0.012604,1.030527,-264.761403,-0.162411,62.165445
8.7578,-0.005998,-0.005048,-0.011939,0.006351,0.005066,0.013596,-0.012332,-0.51512,-0.012604,1.030527,-264.761403,-0.162411,62.165445
8.778,-0.005765,-0.004836,-0.013141,0.006831,0.005449,0.014622,-0.012043,-0.514975,-0.01186,1.105539,-264.760614,-0.237423,62.165825
8.798,-0.006239,-0.004958,-0.014482,0.007264,0.005794,0.015549,-0.012073,-0.514961,-0.011951,1.105539,-264.760614,-0.237423,62.165825
8.8176,-0.005816,-0.004679,-0.012268,0.007653,0.006104,0.016382,-0.01352,-0.514818,-0.014281,1.127299,-264.758187,-0.312521,62.166994
8.838,-0.005893,-0.004761,-0.012916,0.007995,0.006377,0.017114,-0.012676,-0.514705,-0.0131,1.127299,-264.758187,-0.312521,62.166994
8.8582,-0.005516,-0.004762,-0.012384,0.008291,0.006613,0.017747,-0.012676,-0.514705,-0.0131,1.127299,-264.758187,-0.312521,62.166994
8.8779,-0.006038,-0.004816,-0.013383,0.008541,0.006813,0.018284,-0.011587,-0.514527,-0.011893,1.127299,-264.753681,-0.387562,62.169165
8.8986,-0.005886,-0.004641,-0.011628,0.008747,0.006977,0.018723,-0.011645,-0.514535,-0.011956,1.127299,-264.753681,-0.387562,62.169165
8.9178,-0.006035,-0.004358,-0.010769,0.008907,0.007104,0.019066,-0.011526,-0.51438,-0.011017,1.127299,-264.746765,-0.46243,62.172496
8.9382,-0.006058,-0.00445,-0.010544,0.009021,0.007195,0.01931,-0.01149,-0.514321,-0.010797,1.127299,-264.746765,-0.46243,62.172496
8.9581,-0.006334,-0.004516,-0.010811,0.00909,0.00725,0.019457,-0.01149,-0.514321,-0.010797,1.127299,-264.746765,-0.46243,62.172496
8.9778,-0.006029,-0.004077,-0.010467,0.009113,0.007269,0.019507,-0.01142,-0.514152,-0.009903,1.127299,-264.738634,-0.471393,62.176412
8.9978,-0.006024,-0.003926,-0.00999,0.009091,0.007251,0.019459,-0.011405,-0.514136,-0.009918,1.127299,-264.738634,-0.471393,62.176412
9.0181,-0.005913,-0.00319,-0.009622,0.009022,0.007197,0.019313,-0.010765,-0.513623,-0.009237,1.127299,-264.730161,-0.471393,62.180493
9.0377,-0.006043,-0.003703,-0.009212,0.008909,0.007106,0.019071,-0.01075,-0.51333,-0.009359,1.127299,-264.730161,-0.471393,62.180493
9.0582,-0.005942,-0.00364,-0.009576,0.00875,0.00698,0.018731,-0.01075,-0.51333,-0.009359,1.127299,-264.730161,-0.471393,62.180493
9.0778,-0.006044,-0.003465,-0.009836,0.008545,0.006816,0.018292,-0.010379,-0.513268,-0.008628,1.127299,-264.721687,-0.471393,62.184574
9.0981,-0.005889,-0.003359,-0.006899,0.008296,0.006617,0.017758,-0.010413,-0.513271,-0.008683,1.127299,-264.721687,-0.471393,62.184574
9.1182,-0.005867,-0.003036,-0.007688,0.008,0.006381,0.017124,-0.009068,-0.51308,-0.006176,1.127299,-264.713515,-0.471393,62.18851
9.1379,-0.006105,-0.003217,-0.009515,0.007659,0.006109,0.016395,-0.009438,-0.513012,-0.006953,1.127299,-264.713515,-0.471393,62.18851
9.1578,-0.006035,-0.002991,-0.007349,0.007271,0.005799,0.015563,-0.009438,-0.513012,-0.006953,1.127299,-264.713515,-0.471393,62.18851
9.1781,-0.006006,-0.00258,-0.007967,0.006838,0.005454,0.014637,-0.009379,-0.512659,-0.006488,1.127299,-264.705795,-0.471393,62.192228
9.1979,-0.006179,-0.002773,-0.007052,0.006361,0.005074,0.013617,-0.009416,-0.512644,-0.006568,1.127299,-264.705795,-0.471393,62.192228
9.2181,-0.006498,-0.002652,-0.006374,0.005837,0.004656,0.012495,-0.009493,-0.512538,-0.006451,1.127299,-264.699008,-0.471393,62.195497
9.2383,-0.005952,-0.002362,-0.006109,0.005269,0.004202,0.011278,-0.009604,-0.512569,-0.006331,1.127299,-264.699008,-0.471393,62.195497
9.2584,-0.005934,-0.002769,-0.006904,0.004654,0.003712,0.009963,-0.009604,-0.512569,-0.006331,1.127299,-264.699008,-0.471393,62.195497
9.2778,-0.005952,-0.001746,-0.006519,0.003992,0.003184,0.008544,-0.009144,-0.512512,-0.006243,1.127299,-264.69308,-0.471393,62.198352
9.2982,-0.005825,-0.00224,-0.004529,0.003288,0.002622,0.007037,-0.009145,-0.512449,-0.006245,1.127299,-264.69308,-0.471393,62.198352
9.3181,-0.006355,-0.001961,-0.006083,0.002536,0.002022,0.005428,-0.007954,-0.512092,-0.004144,1.127299,-264.688746,-0.471393,62.200439
9.3378,-0.006068,-0.00199,-0.004684,0.00174,0.001388,0.003725,-0.008784,-0.511995,-0.005196,1.127299,-264.688746,-0.471393,62.200439
9.3577,-0.006096,-0.001859,-0.003843,0.000894,0.000713,0.001914,-0.008784,-0.511995,-0.005196,1.127299,-264.688746,-0.471393,62.200439
9.3778,-0.006262,-0.001838,-0.003139,8e-06,7e-06,1.8e-05,-0.007896,-0.511729,-0.003501,1.127299,-264.685678,-0.471393,62.201917
9.3979,-0.006233,-0.001786,-0.004092,0.0,0.0,0.0,-0.007889,-0.511733,-0.003465,1.127299,-264.685678,-0.471393,62.201917
9.4177,-0.006307,-0.001776,-0.002939,0.0,0.0,0.0,-0.008285,-0.511754,-0.004019,1.127299,-264.684845,-0.471393,62.202318
9.4381,-0.00645,-0.001491,-0.004374,0.0,0.0,0.0,-0.008007,-0.511762,-0.003393,1.127299,-264.684845,-0.471393,62.202318
9.4579,-0.006247,-0.001891,-0.004489,0.0,0.0,0.0,-0.008007,-0.511762,-0.003393,1.127299,-264.684845,-0.471393,62.202318
9.4776,-0.006068,-0.001524,-0.004641,0.0,0.0,0.0,-0.008536,-0.511886,-0.004489,1.127299,-264.684845,-0.471393,62.202318
9.4983,-0.005871,-0.001696,-0.005662,0.0,0.0,0.0,-0.008529,-0.511861,-0.004499,1.127299,-264.684845,-0.471393,62.202318
9.5179,-0.005963,-0.001614,-0.004084,0.0,0.0,0.0,-0.008759,-0.511687,-0.005662,1.127299,-264.684845,-0.471393,62.202318
9.538,-0.00611,-0.00153,-0.003737,0.0,0.0,0.0,-0.008349,-0.511643,-0.004755,1.127299,-264.684845,-0.471393,62.202318
9.5581,-0.006255,-0.00122,-0.003674,0.0,0.0,0.0,-0.008349,-0.511643,-0.004755,1.127299,-264.684845,-0.471393,62.202318
9.5778,-0.006382,-0.001811,-0.006378,0.0,0.0,0.0,-0.008128,-0.511217,-0.003674,1.127299,-264.684845,-0.471393,62.202318
9.5981,-0.00632,-0.001513,-0.004336,0.0,0.0,0.0,-0.008238,-0.511259,-0.003871,1.127299,-264.684845,-0.471393,62.202318
9.6185,-0.006263,-0.00175,-0.003769,9.7e-05,2.4e-05,0.0,-0.008531,-0.511508,-0.004336,1.127299,-264.684845,-0.471393,62.202318
9.6379,-0.006178,-0.001757,-0.003626,9.7e-05,2.4e-05,0.0,-0.008333,-0.511645,-0.004011,1.127299,-264.684845,-0.471393,62.202318
9.6579,-0.006244,-0.001499,-0.005006,9.7e-05,2.4e-05,0.0,-0.008333,-0.511645,-0.004011,1.127299,-264.684845,-0.471393,62.202318
9.678,-0.006342,-0.001637,-0.003956,9.7e-05,2.4e-05,0.0,-0.008797,-0.511493,-0.005006,1.127299,-264.684845,-0.471393,62.202318
9.698,-0.006077,-0.001546,-0.002715,9.7e-05,2.4e-05,0.0,-0.008768,-0.511502,-0.004938,1.127299,-264.684845,-0.471393,62.202318
9.7177,-0.006258,-0.001762,-0.005181,9.7e-05,2.4e-05,0.0,-0.007462,-0.511544,-0.002715,1.052327,-264.684845,-0.396422,62.202318
9.7379,-0.006151,-0.00177,-0.00373,9.7e-05,2.4e-05,0.0,-0.008297,-0.511666,-0.004146,1.052327,-264.684845,-0.396422,62.202318
9.7577,-0.006036,-0.002077,-0.003005,9.7e-05,2.4e-05,0.0,-0.008297,-0.511666,-0.004146,1.052327,-264.684845,-0.396422,62.202318
9.7777,-0.006278,-0.001624,-0.004422,9.7e-05,2.4e-05,0.0,-0.007568,-0.512075,-0.003005,0.977067,-264.684845,-0.321161,62.202318
9.7977,-0.005887,-0.001698,-0.004972,9.7e-05,2.4e-05,0.0,-0.007634,-0.512044,-0.003102,0.977067,-264.684845,-0.321161,62.202318
9.8182,-0.006163,-0.001703,-0.004352,4e-06,1e-06,3e-06,-0.008423,-0.511692,-0.004972,0.902446,-264.684845,-0.246541,62.202318
9.8376,-0.006328,-0.001847,-0.002787,0.00092,0.000224,0.000632,-0.008399,-0.511696,-0.00461,0.902446,-264.684845,-0.246541,62.202318
9.8578,-0.005971,-0.001536,-0.003696,0.001799,0.000439,0.001236,-0.008399,-0.511696,-0.00461,0.902446,-264.684845,-0.246541,62.202318
9.8776,-0.006335,-0.001817,-0.005088,0.002625,0.000641,0.001803,-0.007856,-0.511533,-0.003696,0.82692,-264.684845,-0.171014,62.202318
9.8977,-0.006431,-0.002057,-0.004067,0.003409,0.000832,0.002341,-0.007927,-0.511551,-0.003787,0.82692,-264.684845,-0.171014,62.202318
9.918,-0.006635,-0.001787,-0.003639,0.004149,0.001012,0.00285,-0.008479,-0.512044,-0.004045,0.752441,-264.684507,-0.173682,62.202604
9.9377,-0.006346,-0.001757,-0.003937,0.004834,0.00118,0.00332,-0.008483,-0.511894,-0.00381,0.752441,-264.684507,-0.173682,62.202604
9.9577,-0.006522,-0.001508,-0.005498,0.005466,0.001334,0.003754,-0.008483,-0.511894,-0.00381,0.752441,-264.684507,-0.173682,62.202604
9.9777,-0.00606,-0.002033,-0.002411,0.006059,0.001478,0.004161,-0.009224,-0.511471,-0.005418,0.677302,-264.683462,-0.173682,62.203488
9.9981,-0.006081,-0.001915,-0.004986,0.006603,0.001611,0.004535,-0.00909,-0.511508,-0.005212,0.677302,-264.683462,-0.173682,62.203488
10.0179,-0.005972,-0.001796,-0.004519,0.007101,0.001733,0.004877,-0.00844,-0.511863,-0.004857,0.602446,-264.681168,-0.173682,62.205429
10.0379,-0.006067,-0.001648,-0.003484,0.007552,0.001843,0.005187,-0.008324,-0.511816,-0.004648,0.602446,-264.681168,-0.173682,62.205429
10.0582,-0.005943,-0.001649,-0.003564,0.007955,0.001941,0.005464,-0.008324,-0.511816,-0.004648,0.602446,-264.681168,-0.173682,62.205429
10.0779,-0.005905,-0.00177,-0.00322,0.008309,0.002027,0.005707,-0.007439,-0.511568,-0.003343,0.58579,-264.678012,-0.173682,62.208099
10.0982,-0.006185,-0.001437,-0.004589,0.008618,0.002103,0.005919,-0.007439,-0.511579,-0.00333,0.58579,-264.678012,-0.173682,62.208099
10.1178,-0.005773,-0.001574,-0.00181,0.008879,0.002167,0.006098,-0.008218,-0.511358,-0.004378,0.58579,-264.67419,-0.173682,62.211332
10.1377,-0.005654,-0.001404,-0.003896,0.00909,0.002218,0.006243,-0.007313,-0.511471,-0.002889,0.58579,-264.67419,-0.173682,62.211332
10.158,-0.005772,-0.001354,-0.003703,0.009257,0.002259,0.006358,-0.007313,-0.511471,-0.002889,0.58579,-264.67419,-0.173682,62.211332
10.178,-0.005079,-0.001262,-0.001717,0.009375,0.002288,0.006439,-0.007241,-0.51125,-0.003415,0.58579,-264.669994,-0.173682,62.214882
10.1977,-0.005369,-0.001342,-0.002582,0.009446,0.002305,0.006488,-0.007089,-0.511247,-0.003225,0.58579,-264.669994,-0.173682,62.214882
10.2177,-0.004915,-0.001544,-0.002362,0.00947,0.002311,0.006504,-0.006336,-0.511256,-0.002342,0.58579,-264.665612,-0.173682,62.21859
10.2378,-0.005024,-0.001449,-0.002748,0.009446,0.002305,0.006488,-0.006167,-0.511408,-0.002322,0.58579,-264.665612,-0.173682,62.21859
10.2579,-0.004927,-0.001064,-0.001644,0.009376,0.002288,0.006439,-0.006167,-0.511408,-0.002322,0.58579,-264.665612,-0.173682,62.21859
10.2776,-0.004814,-0.00089,-0.003618,0.009257,0.002259,0.006358,-0.005306,-0.510952,-0.001328,0.58579,-264.661083,-0.173682,62.222421
10.2979,-0.004566,-0.001514,-0.001636,0.009092,0.002219,0.006244,-0.005387,-0.510945,-0.001477,0.58579,-264.661083,-0.173682,62.222421
10.3176,-0.004494,-0.001052,-0.002046,0.008879,0.002167,0.006098,-0.005038,-0.511425,-0.001387,0.58579,-264.656583,-0.173682,62.226228
10.3383,-0.00461,-0.000863,-0.001231,0.008618,0.002103,0.005919,-0.005276,-0.511201,-0.001729,0.58579,-264.656583,-0.173682,62.226228
10.3583,-0.004326,-0.001185,-0.003277,0.008311,0.002028,0.005708,-0.005276,-0.511201,-0.001729,0.58579,-264.656583,-0.173682,62.226228
10.378,-0.00416,-0.000851,-0.001878,0.007955,0.001941,0.005463,-0.005555,-0.511076,-0.002973,0.58579,-264.652218,-0.173682,62.229921
10.3983,-0.004049,-0.000352,-0.0003,0.007551,0.001843,0.005186,-0.005514,-0.511058,-0.002892,0.58579,-264.652218,-0.173682,62.229921
10.4182,-0.003905,-0.000574,-0.002717,0.0071,0.001732,0.004876,-0.00388,-0.510273,-7.9e-05,0.58579,-264.648229,-0.173682,62.233296
10.4377,-0.0039,-0.000726,-0.001676,0.006604,0.001611,0.004536,-0.004636,-0.510432,-0.001541,0.58579,-264.648229,-0.173682,62.233296
10.458,-0.003703,-0.000467,-0.001374,0.006059,0.001479,0.004161,-0.004636,-0.510432,-0.001541,0.58579,-264.648229,-0.173682,62.233296
10.4781,-0.003704,-0.000528,-0.001913,0.005468,0.001334,0.003755,-0.004036,-0.510378,-0.001122,0.58579,-264.644604,-0.173682,62.236362
10.498,-0.003129,-0.000667,-0.000633,0.004826,0.001178,0.003315,-0.004069,-0.510385,-0.001167,0.58579,-264.644604,-0.173682,62.236362
10.5182,-0.003479,-0.000521,-0.001828,0.004143,0.001011,0.002845,-0.003218,-0.51061,-0.000472,0.58579,-264.641695,-0.173682,62.238823
10.5377,-0.002984,-0.000766,0.000358,0.00341,0.000832,0.002342,-0.003866,-0.510552,-0.001221,0.58579,-264.641695,-0.173682,62.238823
10.5578,-0.002979,-0.000596,0.000279,0.002631,0.000642,0.001807,-0.003866,-0.510552,-0.001221,0.58579,-264.641695,-0.173682,62.238823
10.5783,-0.003212,-0.000243,0.000628,0.001802,0.00044,0.001238,-0.002601,-0.510539,0.000441,0.58579,-264.639366,-0.173682,62.240793
10.5983,-0.003173,-0.000729,-0.001836,0.000927,0.000226,0.000637,-0.002616,-0.510515,0.00046,0.58579,-264.639366,-0.173682,62.240793
10.6182,-0.002834,-0.000504,-0.000288,0.0,0.0,0.0,-0.004008,-0.510704,-0.001766,0.58579,-264.638108,-0.173682,62.241858
10.6379,-0.002898,-0.000287,-0.001095,0.0,0.0,0.0,-0.003409,-0.510586,-0.000914,0.58579,-264.638108,-0.173682,62.241858
