mach0312/omni-docking-bench/src/icros_test_setup/results/kinematic_sample/timeseries/trial_021.csv
t,x,y,yaw,vx,vy,wz,bl_x,bl_y,bl_yaw,front_steering_joint,front_wheel_joint,rear_steering_joint,rear_wheel_joint
0.0,-0.021623,0.027431,0.032019,0.004377,0.002437,0.004381,-0.004905,-0.481924,0.032748,0.862789,-264.262234,-0.054402,63.000562
0.0003,-0.021383,0.027932,0.033158,0.0013,0.000724,0.001301,-0.004905,-0.481924,0.032748,0.862789,-264.259079,-0.054402,63.002617
0.0006,-0.021498,0.027892,0.033203,0.000667,0.000372,0.000668,-0.004162,-0.482133,0.033868,0.862789,-264.25665,-0.054402,63.004199
0.0008,-0.021371,0.028149,0.034066,1e-06,1e-06,1e-06,-0.004162,-0.482133,0.033868,0.862789,-264.254802,-0.054402,63.005403
0.0011,-0.021365,0.027914,0.032471,0.0,0.0,0.0,-0.004195,-0.482113,0.033852,0.862789,-264.254006,-0.054402,63.005921
0.0013,-0.021484,0.027917,0.033794,0.0,0.0,0.0,-0.004195,-0.482113,0.033852,0.862789,-264.254005,-0.054402,63.005922
0.0015,-0.021581,0.027832,0.033305,0.0,0.0,0.0,-0.005632,-0.481811,0.031439,0.862789,-264.254005,-0.054402,63.005922
0.0018,-0.021242,0.027745,0.033939,0.0,0.0,0.0,-0.005632,-0.481811,0.031439,0.862789,-264.254005,-0.054402,63.005922
0.002,-0.021296,0.027784,0.03282,0.0,0.0,0.0,-0.005273,-0.481721,0.031452,0.862789,-264.254005,-0.054402,63.005922
0.0022,-0.021415,0.028204,0.033822,0.0,0.0,0.0,-0.005273,-0.481721,0.031452,0.862789,-264.254005,-0.054402,63.005922
0.0181,-0.021179,0.027906,0.032761,0.016,-0.016,-0.03,-0.004293,-0.48195,0.033301,0.862789,-264.254005,-0.054402,63.005922
0.0378,-0.02114,0.027669,0.032481,0.020253,-0.028585,-0.032761,-0.004474,-0.48182,0.032761,0.862789,-264.254005,-0.054402,63.005922
0.058,-0.021163,0.027794,0.033495,0.02023,-0.028341,-0.032481,-0.004481,-0.481836,0.032742,0.862789,-264.254005,-0.054402,63.005922
0.0776,-0.02157,0.02805,0.032026,0.02022,-0.028487,-0.033495,-0.004083,-0.48192,0.033495,0.787907,-264.254005,0.02048,63.005922
0.0977,-0.020906,0.027822,0.031629,0.020661,-0.028726,-0.032026,-0.004749,-0.481787,0.032649,0.787907,-264.254005,0.02048,63.005922
0.1178,-0.021288,0.027796,0.035031,0.020016,-0.028469,-0.031629,-0.004749,-0.481787,0.032649,0.787907,-264.254005,0.02048,63.005922
0.1378,-0.021075,0.027865,0.032495,0.020301,-0.028525,-0.035031,-0.003425,-0.481891,0.035031,0.712726,-264.254004,-0.054702,63.005922
0.158,-0.021055,0.028073,0.033058,0.020159,-0.028535,-0.032495,-0.003493,-0.481889,0.034874,0.712726,-264.254004,-0.054702,63.005922
0.1782,-0.021419,0.027804,0.032887,0.020116,-0.028754,-0.033058,-0.004199,-0.481648,0.033058,0.637923,-264.254004,-0.129505,63.005922
0.198,-0.021376,0.028235,0.032861,0.020493,-0.028494,-0.032887,-0.004457,-0.481804,0.03296,0.637923,-264.254004,-0.129505,63.005922
0.2181,-0.020968,0.027632,0.033202,0.020437,-0.028922,-0.032861,-0.004457,-0.481804,0.03296,0.637923,-264.254004,-0.129505,63.005922
0.2378,-0.021125,0.027945,0.032678,0.020039,-0.028313,-0.033202,-0.004038,-0.482087,0.033202,0.562801,-264.254004,-0.204627,63.005922
0.2583,-0.021326,0.02819,0.033592,0.020201,-0.028621,-0.032678,-0.004067,-0.482066,0.033166,0.562801,-264.254004,-0.204627,63.005922
0.2782,-0.020898,0.027874,0.031778,0.020367,-0.02889,-0.033592,-0.004197,-0.481522,0.033592,0.487814,-264.254003,-0.279614,63.005923
0.2979,-0.02105,0.027926,0.032086,0.020002,-0.028524,-0.031778,-0.004482,-0.48172,0.032553,0.487814,-264.254003,-0.279614,63.005923
0.3178,-0.021401,0.027977,0.033267,0.020144,-0.028587,-0.032086,-0.004482,-0.48172,0.032553,0.487814,-264.254003,-0.279614,63.005923
0.3378,-0.021388,0.02812,0.032917,0.020459,-0.028673,-0.033267,-0.004438,-0.481741,0.033267,0.412801,-264.254001,-0.354627,63.005924
0.3581,-0.021481,0.028058,0.032713,0.020451,-0.028809,-0.032917,-0.00445,-0.481731,0.033242,0.412801,-264.254001,-0.354627,63.005924
0.3778,-0.021236,0.02798,0.034037,0.020552,-0.028746,-0.032713,-0.0048,-0.481669,0.032713,0.337837,-264.253999,-0.419798,63.005924
0.3983,-0.021104,0.027395,0.030649,0.020271,-0.028687,-0.034037,-0.004269,-0.481701,0.033477,0.337837,-264.253999,-0.419798,63.005924
0.4176,-0.021421,0.027595,0.035235,0.020254,-0.028028,-0.030649,-0.004269,-0.481701,0.033477,0.337837,-264.253999,-0.419798,63.005924
0.4379,-0.021358,0.027589,0.032578,0.020435,-0.028332,-0.035235,-0.003454,-0.482089,0.035235,0.262664,-264.253997,-0.402423,63.005925
0.4585,-0.021038,0.027886,0.032613,0.020448,-0.02827,-0.032578,-0.00355,-0.482092,0.035039,0.262664,-264.253997,-0.402423,63.005925
0.4782,-0.021194,0.028168,0.032403,0.020118,-0.028557,-0.032613,-0.004408,-0.481843,0.032613,0.187835,-264.253995,-0.430847,63.005926
0.498,-0.021124,0.027856,0.032451,0.020271,-0.02884,-0.032403,-0.004558,-0.481684,0.032494,0.187835,-264.253995,-0.430847,63.005926
0.5179,-0.021372,0.027797,0.032962,0.020209,-0.028526,-0.032451,-0.004558,-0.481684,0.032494,0.187835,-264.253995,-0.430847,63.005926
0.5379,-0.021134,0.027978,0.032611,0.020444,-0.028486,-0.032962,-0.004564,-0.481926,0.032962,0.112784,-264.253993,-0.388653,63.005927
0.5582,-0.021254,0.0277,0.032958,0.02021,-0.028652,-0.032611,-0.00456,-0.481912,0.032935,0.112784,-264.253993,-0.388653,63.005927
0.5778,-0.021316,0.02801,0.03295,0.02033,-0.028385,-0.032958,-0.004449,-0.482023,0.032958,0.037537,-264.253991,-0.406804,63.005928
0.598,-0.021142,0.028114,0.034119,0.020382,-0.028697,-0.03295,-0.004486,-0.481849,0.032953,0.037537,-264.253991,-0.406804,63.005928
0.6178,-0.021243,0.027823,0.033978,0.020171,-0.028818,-0.034119,-0.004486,-0.481849,0.032953,0.037537,-264.253991,-0.406804,63.005928
0.6377,-0.021146,0.027757,0.033006,0.020286,-0.028529,-0.033978,-0.003918,-0.481882,0.033978,-0.037059,-264.253989,-0.407939,63.005929
0.6582,-0.021017,0.027926,0.033729,0.020219,-0.02844,-0.033006,-0.003945,-0.481888,0.033911,-0.037059,-264.253989,-0.407939,63.005929
0.6779,-0.021345,0.028039,0.03212,0.020064,-0.028619,-0.033729,-0.003819,-0.481784,0.033729,-0.112067,-264.253986,-0.376736,63.00593
0.6981,-0.021439,0.027895,0.032623,0.020433,-0.02871,-0.03212,-0.004476,-0.481734,0.032807,-0.112067,-264.253986,-0.376736,63.00593
0.7178,-0.02142,0.028082,0.032397,0.020518,-0.028579,-0.032623,-0.004476,-0.481734,0.032807,-0.112067,-264.253986,-0.376736,63.00593
0.7379,-0.020989,0.028086,0.032551,0.020499,-0.028761,-0.032397,-0.0049,-0.481651,0.032397,-0.187171,-264.253984,-0.388758,63.00593
0.7579,-0.021304,0.028191,0.03307,0.020063,-0.028754,-0.032551,-0.004863,-0.48165,0.032408,-0.187171,-264.253984,-0.388758,63.00593
0.7778,-0.02118,0.027998,0.034126,0.02036,-0.02888,-0.03307,-0.004441,-0.48153,0.03307,-0.262185,-264.253982,-0.399151,63.005931
0.7978,-0.021482,0.028079,0.032842,0.020213,-0.028704,-0.034126,-0.004063,-0.48163,0.033674,-0.262185,-264.253982,-0.399151,63.005931
0.8184,-0.021476,0.027784,0.031479,0.020548,-0.028769,-0.032842,-0.004063,-0.48163,0.033674,-0.262185,-264.253982,-0.399151,63.005931
0.8383,-0.021197,0.028058,0.033852,0.020591,-0.028446,-0.031479,-0.005424,-0.481964,0.031479,-0.337189,-264.25398,-0.416404,63.005932
0.8577,-0.021034,0.028065,0.03409,0.020235,-0.028759,-0.033852,-0.005328,-0.481944,0.031632,-0.337189,-264.25398,-0.416404,63.005932
0.8778,-0.021202,0.027704,0.033525,0.020065,-0.028765,-0.03409,-0.003651,-0.481639,0.03409,-0.412052,-264.253978,-0.40094,63.005933
0.8981,-0.021088,0.027766,0.033103,0.020262,-0.028399,-0.033525,-0.003912,-0.481851,0.033767,-0.412052,-264.253978,-0.40094,63.005933
0.9179,-0.021086,0.027925,0.034333,0.020158,-0.028449,-0.033103,-0.003912,-0.481851,0.033767,-0.412052,-264.253978,-0.40094,63.005933
0.938,-0.02125,0.027642,0.033283,0.020115,-0.028633,-0.034333,-0.003579,-0.481774,0.034333,-0.487165,-264.253975,-0.380089,63.005934
0.9586,-0.021248,0.028059,0.033807,0.020318,-0.028334,-0.033283,-0.003625,-0.481794,0.034263,-0.487165,-264.253975,-0.380089,63.005934
0.9777,-0.021175,0.027812,0.031728,0.020288,-0.028761,-0.033807,-0.00401,-0.48165,0.033807,-0.56217,-264.253968,-0.38768,63.005937
0.9979,-0.021125,0.027852,0.032598,0.020282,-0.02847,-0.031728,-0.004564,-0.481808,0.03264,-0.56217,-264.253968,-0.38768,63.005937
1.0185,-0.020902,0.028132,0.032931,0.020206,-0.028525,-0.032598,-0.004564,-0.481808,0.03264,-0.56217,-264.253968,-0.38768,63.005937
1.0382,-0.021148,0.028135,0.033132,0.019964,-0.028805,-0.032931,-0.004108,-0.481593,0.032929,-0.637198,-264.253932,-0.375361,63.005952
1.059,-0.02154,0.027904,0.032514,0.020205,-0.02882,-0.033132,-0.004118,-0.481593,0.032943,-0.637198,-264.253932,-0.375361,63.005952
1.078,-0.021042,0.027731,0.032053,0.020622,-0.028589,-0.032514,-0.004952,-0.481833,0.032508,-0.71214,-264.253773,-0.403079,63.006019
1.0979,-0.021027,0.028055,0.033588,0.020142,-0.028391,-0.032053,-0.004808,-0.481932,0.032251,-0.71214,-264.253773,-0.403079,63.006019
1.1178,-0.021491,0.028004,0.03276,0.020073,-0.028745,-0.033588,-0.004808,-0.481932,0.032251,-0.71214,-264.253773,-0.403079,63.006019
1.1377,-0.021133,0.027629,0.035948,0.020562,-0.028693,-0.03276,-0.004748,-0.48175,0.03273,-0.787179,-264.253216,-0.401761,63.006249
1.1577,-0.021028,0.027899,0.031496,0.020126,-0.02837,-0.035948,-0.004615,-0.481771,0.032948,-0.787179,-264.253216,-0.401761,63.006249
1.1789,-0.02075,0.027364,0.031687,0.020139,-0.028548,-0.031496,-0.004886,-0.481916,0.031419,-0.862056,-264.251618,-0.389158,63.006901
1.1977,-0.021224,0.027755,0.032014,0.019873,-0.028008,-0.031687,-0.004709,-0.482188,0.031562,-0.862056,-264.251618,-0.389158,63.006901
1.2178,-0.020859,0.027758,0.034387,0.020324,-0.02842,-0.032014,-0.004709,-0.482188,0.031562,-0.862056,-264.251618,-0.389158,63.006901
1.2378,-0.020627,0.027607,0.032483,0.019892,-0.028459,-0.034387,-0.003121,-0.482123,0.034157,-0.937066,-264.248247,-0.314148,63.008215
1.2581,-0.020748,0.027466,0.030989,0.01972,-0.028262,-0.032483,-0.003179,-0.482128,0.03404,-0.937066,-264.248247,-0.314148,63.008215
1.2779,-0.020017,0.027504,0.03233,0.019887,-0.028096,-0.030989,-0.004645,-0.482578,0.03069,-1.012065,-264.242374,-0.389148,63.011387
1.298,-0.020079,0.027116,0.031613,0.019118,-0.028136,-0.03233,-0.003972,-0.482416,0.031587,-1.012065,-264.242374,-0.389148,63.011387
1.3182,-0.019949,0.027028,0.030972,0.019212,-0.027737,-0.031613,-0.003972,-0.482416,0.031587,-1.012065,-264.242374,-0.389148,63.011387
1.3383,-0.019409,0.026582,0.031345,0.019102,-0.027632,-0.030972,-0.003601,-0.48329,0.030445,-1.08708,-264.234002,-0.403686,63.016767
1.3583,-0.019151,0.026894,0.02989,0.018566,-0.027177,-0.031345,-0.003574,-0.483296,0.030494,-1.08708,-264.234002,-0.403686,63.016767
1.3779,-0.018135,0.025693,0.030205,0.018339,-0.027454,-0.02989,-0.003363,-0.483485,0.029331,-1.162073,-264.22313,-0.413476,63.023995
1.3981,-0.018052,0.025945,0.029926,0.01735,-0.026229,-0.030205,-0.002935,-0.483897,0.029757,-1.162073,-264.22313,-0.413476,63.023995
1.4178,-0.018141,0.026268,0.032357,0.017268,-0.026473,-0.029926,-0.002935,-0.483897,0.029757,-1.162073,-264.22313,-0.413476,63.023995
1.4378,-0.017052,0.02472,0.028622,0.017282,-0.026841,-0.032357,-0.000865,-0.484388,0.031438,-1.189584,-264.209751,-0.408351,63.031991
1.4581,-0.016833,0.02511,0.028674,0.016338,-0.025198,-0.028622,-0.000957,-0.484462,0.031212,-1.189584,-264.209751,-0.408351,63.031991
1.4781,-0.015727,0.023579,0.029225,0.016107,-0.025582,-0.028674,-0.001586,-0.485532,0.027757,-1.202538,-264.193868,-0.44316,63.039474
1.4977,-0.015304,0.023784,0.028744,0.015031,-0.024029,-0.029225,-0.001072,-0.486023,0.028475,-1.202538,-264.193868,-0.44316,63.039474
1.5179,-0.015541,0.024045,0.029118,0.014614,-0.024214,-0.028744,-0.001072,-0.486023,0.028475,-1.202538,-264.193868,-0.44316,63.039474
1.5378,-0.013802,0.022803,0.026784,0.014835,-0.024487,-0.029118,0.000134,-0.486939,0.02773,-1.205194,-264.175589,-0.441279,63.046701
1.5577,-0.014073,0.022554,0.02742,0.013186,-0.023164,-0.026784,0.000137,-0.486978,0.027621,-1.205194,-264.175589,-0.441279,63.046701
1.5784,-0.012621,0.02161,0.026705,0.01345,-0.022931,-0.02742,0.000488,-0.488157,0.02633,-1.234238,-264.158182,-0.427521,63.053019
1.5982,-0.012386,0.021686,0.026301,0.01204,-0.021939,-0.026705,0.000851,-0.488302,0.026403,-1.234238,-264.158182,-0.427521,63.053019
1.6182,-0.012487,0.021708,0.025063,0.011811,-0.022004,-0.026301,0.000851,-0.488302,0.026403,-1.234238,-264.158182,-0.427521,63.053019
1.6381,-0.011063,0.020226,0.023045,0.011939,-0.022014,-0.025063,0.000937,-0.4892,0.02381,-1.24878,-264.142216,-0.476501,63.058705
1.6581,-0.010685,0.020048,0.025066,0.010594,-0.020476,-0.023045,0.000937,-0.489249,0.023738,-1.24878,-264.142216,-0.476501,63.058705
1.678,-0.010017,0.019358,0.023246,0.010179,-0.02031,-0.025066,0.00257,-0.490622,0.02406,-1.269943,-264.126395,-0.46602,63.063953
1.6979,-0.009914,0.018944,0.023643,0.009564,-0.019586,-0.023246,0.00221,-0.49066,0.023465,-1.269943,-264.126395,-0.46602,63.063953
1.7177,-0.009558,0.019387,0.023611,0.009464,-0.019173,-0.023643,0.00221,-0.49066,0.023465,-1.269943,-264.126395,-0.46602,63.063953
1.7379,-0.008592,0.018517,0.022664,0.009098,-0.019607,-0.023611,0.00297,-0.491362,0.022594,-1.273261,-264.113283,-0.541126,63.068444
1.7583,-0.009111,0.018478,0.023225,0.00817,-0.018707,-0.022664,0.002983,-0.491385,0.022572,-1.273261,-264.113283,-0.541126,63.068444
1.778,-0.007734,0.017733,0.021316,0.008679,-0.018685,-0.023225,0.003077,-0.492044,0.022403,-1.296351,-264.1007,-0.466229,63.072257
1.798,-0.007963,0.017327,0.021349,0.007355,-0.017894,-0.021316,0.003155,-0.492189,0.021684,-1.296351,-264.1007,-0.466229,63.072257
1.8177,-0.007823,0.017168,0.021313,0.007592,-0.017493,-0.021349,0.003155,-0.492189,0.021684,-1.296351,-264.1007,-0.466229,63.072257
1.8377,-0.006802,0.016872,0.018924,0.007455,-0.017331,-0.021313,0.003425,-0.493536,0.02031,-1.324878,-264.088434,-0.537108,63.075732
1.8583,-0.00705,0.016937,0.020742,0.006482,-0.016997,-0.018924,0.003392,-0.493522,0.020173,-1.324878,-264.088434,-0.537108,63.075732
1.8783,-0.005424,0.015722,0.019314,0.006697,-0.017079,-0.020742,0.003834,-0.493621,0.01992,-1.327095,-264.075881,-0.530586,63.079244
1.898,-0.00603,0.015851,0.017991,0.005119,-0.015824,-0.019314,0.004211,-0.494027,0.01947,-1.327095,-264.075881,-0.530586,63.079244
1.9184,-0.006051,0.016099,0.01938,0.005744,-0.015957,-0.017991,0.004211,-0.494027,0.01947,-1.327095,-264.075881,-0.530586,63.079244
1.9377,-0.005562,0.01509,0.019565,0.005738,-0.016213,-0.01938,0.004048,-0.494313,0.018784,-1.347583,-264.068487,-0.605455,63.081381
1.9582,-0.005038,0.015093,0.017737,0.005266,-0.015196,-0.019565,0.004079,-0.494361,0.018822,-1.347583,-264.068487,-0.605455,63.081381
1.9777,-0.004828,0.014789,0.017711,0.00477,-0.01518,-0.017737,0.004202,-0.495331,0.017156,-1.360779,-264.059354,-0.680315,63.083898
1.9982,-0.004522,0.014628,0.019347,0.004565,-0.014872,-0.017711,0.004228,-0.49528,0.0174,-1.360779,-264.059354,-0.680315,63.083898
2.0181,-0.004838,0.014367,0.019067,0.004238,-0.014713,-0.019347,0.004228,-0.49528,0.0174,-1.360779,-264.059354,-0.680315,63.083898
2.0384,-0.004234,0.01423,0.015838,0.004563,-0.014457,-0.019067,0.005089,-0.49611,0.018344,-1.379182,-264.050869,-0.605206,63.085797
2.0589,-0.004141,0.014114,0.016519,0.004008,-0.014295,-0.015838,0.005014,-0.496098,0.018165,-1.379182,-264.050869,-0.605206,63.085797
2.0784,-0.003562,0.014016,0.01586,0.003908,-0.01418,-0.016519,0.004453,-0.496375,0.015781,-1.412383,-264.040339,-0.599515,63.087809
2.0979,-0.003419,0.013347,0.016831,0.003339,-0.014071,-0.01586,0.004516,-0.496187,0.015735,-1.412383,-264.040339,-0.599515,63.087809
2.1181,-0.003618,0.013656,0.017124,0.003194,-0.013403,-0.016831,0.004516,-0.496187,0.015735,-1.412383,-264.040339,-0.599515,63.087809
2.1381,-0.00313,0.013139,0.015796,0.003384,-0.013716,-0.017124,0.005191,-0.496499,0.016849,-1.405115,-264.037008,-0.674371,63.088647
2.158,-0.00361,0.013355,0.016305,0.002922,-0.013186,-0.015796,0.005176,-0.496525,0.016771,-1.405115,-264.037008,-0.674371,63.088647
2.1779,-0.002782,0.01271,0.014583,0.003392,-0.013412,-0.016305,0.004802,-0.496907,0.015926,-1.436737,-264.031176,-0.749206,63.090146
2.1979,-0.003213,0.012742,0.014965,0.002597,-0.012749,-0.014583,0.004731,-0.497133,0.015123,-1.436737,-264.031176,-0.749206,63.090146
2.2185,-0.003028,0.012801,0.01657,0.003022,-0.012789,-0.014965,0.004731,-0.497133,0.015123,-1.436737,-264.031176,-0.749206,63.090146
2.2382,-0.002731,0.012392,0.014305,0.002815,-0.012849,-0.01657,0.005542,-0.49761,0.015982,-1.443509,-264.02419,-0.824223,63.091539
2.2577,-0.00221,0.011902,0.015297,0.002554,-0.012429,-0.014305,0.005476,-0.49762,0.015848,-1.443509,-264.02419,-0.824223,63.091539
2.2779,-0.001682,0.011584,0.014621,0.002028,-0.011934,-0.015297,0.005709,-0.498506,0.014748,-1.433833,-264.015765,-0.879056,63.093342
2.2978,-0.00182,0.011511,0.012793,0.001513,-0.011608,-0.014621,0.005761,-0.498482,0.014606,-1.433833,-264.015765,-0.879056,63.093342
2.3179,-0.002026,0.011467,0.014928,0.001673,-0.011534,-0.012793,0.005761,-0.498482,0.014606,-1.433833,-264.015765,-0.879056,63.093342
2.3379,-0.00148,0.01095,0.012108,0.001854,-0.011496,-0.014928,0.005706,-0.499008,0.014313,-1.450733,-264.008238,-0.954058,63.094927
2.3582,-0.00162,0.011221,0.012633,0.001347,-0.010968,-0.012108,0.00564,-0.499022,0.014146,-1.450733,-264.008238,-0.954058,63.094927
2.3782,-0.001374,0.010917,0.012159,0.001478,-0.011241,-0.012633,0.004864,-0.498973,0.012365,-1.484547,-264.004086,-1.029047,63.0958
2.3978,-0.001481,0.011021,0.013325,0.001241,-0.010933,-0.012159,0.004848,-0.499044,0.012214,-1.484547,-264.004086,-1.029047,63.0958
2.4179,-0.001202,0.011192,0.012169,0.001334,-0.01104,-0.013325,0.004848,-0.499044,0.012214,-1.484547,-264.004086,-1.029047,63.0958
2.4378,-0.000926,0.010713,0.010257,0.001066,-0.011206,-0.012169,0.005051,-0.499081,0.011818,-1.497572,-263.999759,-1.104001,63.096697
2.458,-0.001034,0.010459,0.012695,0.000816,-0.010722,-0.010257,0.005004,-0.4991,0.011708,-1.497572,-263.999759,-1.104001,63.096697
2.478,-0.000708,0.009705,0.013675,0.000901,-0.010471,-0.012695,0.005494,-0.499885,0.012244,-1.501356,-263.99293,-1.139903,63.097948
2.498,-0.000627,0.010211,0.012085,0.000901,-0.010471,-0.012695,0.005937,-0.500138,0.012997,-1.501356,-263.99293,-1.139903,63.097948
2.518,-0.000342,0.010061,0.011743,5e-06,-0.0001,0.0,0.005937,-0.500138,0.012997,-1.501356,-263.99293,-1.139903,63.097948
2.5376,-0.000652,0.010229,0.012103,5e-06,-0.0001,0.0,0.00567,-0.500091,0.011559,-1.522813,-263.990469,-1.214941,63.098604
2.5583,-0.000125,0.009652,0.011989,5e-06,-0.0001,0.0,0.00566,-0.500071,0.011592,-1.522813,-263.990469,-1.214941,63.098604
2.5783,-0.000213,0.009625,0.01207,5e-06,-0.0001,0.0,0.005989,-0.500312,0.011989,-1.521558,-263.99046,-1.28998,63.098612
2.5977,-0.000486,0.009805,0.011928,5e-06,-0.0001,0.0,0.005963,-0.500327,0.012035,-1.521558,-263.99046,-1.28998,63.098612
2.6185,-0.000585,0.009964,0.01247,5e-06,-0.0001,0.0,0.005963,-0.500327,0.012035,-1.521558,-263.99046,-1.28998,63.098612
2.6377,-0.000716,0.01032,0.011323,5e-06,-0.0001,0.0,0.005775,-0.499998,0.01247,-1.521558,-263.990444,-1.364991,63.098629
2.6582,-0.000323,0.009705,0.010862,5e-06,-0.0001,0.0,0.005725,-0.499974,0.01239,-1.521558,-263.990444,-1.364991,63.098629
2.6783,-0.00058,0.009916,0.011255,5e-06,-0.0001,0.0,0.005217,-0.500268,0.010862,-1.521558,-263.990417,-1.439903,63.098656
2.6981,-0.000417,0.009589,0.011316,5e-06,-0.0001,0.0,0.005185,-0.500145,0.011086,-1.521558,-263.990417,-1.439903,63.098656
2.7177,-0.000598,0.009864,0.012526,0.0,-2e-06,-2e-06,0.005185,-0.500145,0.011086,-1.521558,-263.990417,-1.439903,63.098656
2.7378,-0.000688,0.010058,0.013042,7.4e-05,-0.001495,-0.001769,0.005791,-0.5001,0.012526,-1.521558,-263.990381,-1.514932,63.098692
2.758,-0.000619,0.009912,0.011032,0.000143,-0.002911,-0.003442,0.005803,-0.500086,0.012564,-1.521558,-263.990381,-1.514932,63.098692
2.7779,-0.000385,0.0097,0.011065,0.00021,-0.004255,-0.005032,0.005007,-0.500057,0.011032,-1.542193,-263.99038,-1.439856,63.098692
2.7978,-0.000755,0.009709,0.012685,0.000272,-0.005527,-0.006537,0.005151,-0.500179,0.011051,-1.542193,-263.99038,-1.439856,63.098692
2.8178,-0.000663,0.009689,0.01281,0.00033,-0.006706,-0.007931,0.005151,-0.500179,0.011051,-1.542193,-263.99038,-1.439856,63.098692
2.8378,-0.00065,0.009914,0.012606,0.000385,-0.007822,-0.009251,0.005878,-0.500406,0.012648,-1.542193,-263.988441,-1.395148,63.09901
2.8578,-0.000247,0.009554,0.012798,0.000436,-0.008855,-0.010473,0.005872,-0.500386,0.012641,-1.542193,-263.988441,-1.395148,63.09901
2.878,-0.000317,0.009423,0.010116,0.000484,-0.009813,-0.011606,0.006296,-0.500655,0.012507,-1.542193,-263.984004,-1.395148,63.099766
2.8977,-4.5e-05,0.009198,0.011264,0.000527,-0.010697,-0.012651,0.00547,-0.500627,0.011109,-1.542193,-263.984004,-1.395148,63.099766
2.9179,-8.9e-05,0.00954,0.009874,0.000567,-0.011498,-0.013599,0.00547,-0.500627,0.011109,-1.542193,-263.984004,-1.395148,63.099766
2.9377,-2.7e-05,0.009012,0.009898,0.000602,-0.012224,-0.014458,0.004972,-0.500866,0.009365,-1.542193,-263.977892,-1.395148,63.100766
2.9585,0.00023,0.008833,0.010144,0.000634,-0.012875,-0.015228,0.004976,-0.500885,0.009389,-1.542193,-263.977892,-1.395148,63.100766
2.9777,0.000585,0.00858,0.009331,0.000663,-0.013452,-0.01591,0.00543,-0.501587,0.009616,-1.542193,-263.969966,-1.395148,63.102064
2.9977,0.000566,0.008635,0.009046,0.000687,-0.013948,-0.016496,0.005384,-0.501536,0.009389,-1.542193,-263.969966,-1.395148,63.102064
3.0177,0.000764,0.008188,0.011012,0.000708,-0.014369,-0.016995,0.005384,-0.501536,0.009389,-1.542193,-263.969966,-1.395148,63.102064
3.0376,0.000706,0.007784,0.009116,0.000725,-0.014714,-0.017403,0.006418,-0.502407,0.010272,-1.542193,-263.961109,-1.395148,63.103513
3.058,0.000854,0.007838,0.011,0.000738,-0.014982,-0.01772,0.00635,-0.502409,0.010179,-1.542193,-263.961109,-1.395148,63.103513
3.0776,0.001907,0.006857,0.007972,0.000748,-0.015174,-0.017947,0.006497,-0.502685,0.010343,-1.542193,-263.951184,-1.395148,63.105137
3.0977,0.001453,0.007299,0.006765,0.000753,-0.015289,-0.018082,0.0062,-0.503009,0.008897,-1.542193,-263.951184,-1.395148,63.105137
3.1179,0.001149,0.00689,0.009486,0.000755,-0.015327,-0.018127,0.0062,-0.503009,0.008897,-1.542193,-263.951184,-1.395148,63.105137
3.1377,0.002085,0.006368,0.007314,0.000753,-0.015289,-0.018082,0.00603,-0.503815,0.008625,-1.542193,-263.94088,-1.395148,63.106824
3.1582,0.001993,0.006369,0.007686,0.000748,-0.015174,-0.017946,0.006017,-0.50382,0.008519,-1.542193,-263.94088,-1.395148,63.106824
3.1778,0.001902,0.005643,0.006543,0.000738,-0.014982,-0.017719,0.005947,-0.504208,0.006986,-1.542193,-263.930316,-1.395148,63.108553
3.198,0.002564,0.005171,0.006398,0.000725,-0.014714,-0.017403,0.005551,-0.504362,0.006646,-1.542193,-263.930316,-1.395148,63.108553
3.218,0.002386,0.00551,0.007832,0.000708,-0.014369,-0.016995,0.005551,-0.504362,0.006646,-1.542193,-263.930316,-1.395148,63.108553
3.2379,0.002733,0.004882,0.00559,0.000687,-0.013946,-0.016494,0.006422,-0.505211,0.00696,-1.542193,-263.919858,-1.395148,63.110264
3.2584,0.002904,0.004573,0.004789,0.000663,-0.013449,-0.015906,0.006364,-0.505224,0.00684,-1.542193,-263.919858,-1.395148,63.110264
3.2782,0.003375,0.004099,0.00493,0.000634,-0.012874,-0.015226,0.005376,-0.505977,0.004132,-1.542193,-263.909917,-1.395148,63.111891
3.2979,0.003184,0.00397,0.003834,0.000602,-0.01222,-0.014453,0.005677,-0.505999,0.00451,-1.542193,-263.909917,-1.395148,63.111891
3.3179,0.003306,0.003723,0.004815,0.000566,-0.011493,-0.013593,0.005677,-0.505999,0.00451,-1.542193,-263.909917,-1.395148,63.111891
3.3381,0.004032,0.003308,0.002137,0.000527,-0.01069,-0.012643,0.005797,-0.506922,0.004045,-1.542193,-263.900683,-1.395148,63.113403
3.3581,0.003512,0.003517,0.003329,0.000483,-0.009809,-0.011601,0.005751,-0.506923,0.003891,-1.542193,-263.900683,-1.395148,63.113403
3.3778,0.004164,0.002664,0.002953,0.000436,-0.00885,-0.010467,0.005232,-0.506924,0.002804,-1.542193,-263.892762,-1.395148,63.114699
3.3981,0.003871,0.002472,0.002583,0.000385,-0.007808,-0.009235,0.005485,-0.507214,0.002822,-1.542193,-263.892762,-1.395148,63.114699
3.4179,0.003937,0.003164,0.003673,0.00033,-0.006706,-0.007931,0.005485,-0.507214,0.002822,-1.542193,-263.892762,-1.395148,63.114699
3.438,0.00448,0.002378,0.004666,0.000272,-0.005517,-0.006525,0.005836,-0.50731,0.003108,-1.542193,-263.886001,-1.395148,63.115806
3.4582,0.004323,0.001865,0.002676,0.00021,-0.004252,-0.005029,0.005903,-0.507342,0.003194,-1.542193,-263.886001,-1.395148,63.115806
3.4781,0.004554,0.00183,0.00367,0.000143,-0.00291,-0.003442,0.005701,-0.508392,0.00237,-1.542193,-263.881371,-1.395148,63.116563
3.4978,0.005313,0.002357,0.000853,7.3e-05,-0.00149,-0.001762,0.006118,-0.508296,0.003076,-1.542193,-263.881371,-1.395148,63.116563
3.5179,0.004642,0.001925,0.002633,0.0,0.0,0.0,0.006118,-0.508296,0.003076,-1.542193,-263.881371,-1.395148,63.116563
3.538,0.004851,0.00184,0.003525,0.0,0.0,0.0,0.005995,-0.508279,0.002389,-1.542193,-263.878446,-1.395148,63.117042
3.5581,0.004859,0.001703,0.002309,0.0,0.0,0.0,0.006041,-0.508276,0.002462,-1.542193,-263.878446,-1.395148,63.117042
3.5783,0.004706,0.001628,0.001941,0.0,0.0,0.0,0.006037,-0.508295,0.002309,-1.542193,-263.878446,-1.395148,63.117042
3.5982,0.005162,0.001867,0.002736,0.0,0.0,0.0,0.005843,-0.508338,0.0021,-1.542193,-263.878446,-1.395148,63.117042
3.6181,0.004741,0.001893,0.002415,0.0,0.0,0.0,0.005843,-0.508338,0.0021,-1.542193,-263.878446,-1.395148,63.117042
3.6381,0.00488,0.001781,0.002154,0.0,0.0,0.0,0.005972,-0.508106,0.002415,-1.542193,-263.878446,-1.395148,63.117042
3.6582,0.004555,0.001129,0.003684,0.0,0.0,0.0,0.005973,-0.508113,0.002398,-1.542193,-263.878446,-1.395148,63.117042
3.6777,0.004756,0.002108,0.002415,0.0,0.0,0.0,0.006434,-0.508868,0.003684,-1.542193,-263.878446,-1.395148,63.117042
3.6978,0.004961,0.00179,0.001495,0.0,0.0,0.0,0.006181,-0.508313,0.002964,-1.542193,-263.878446,-1.395148,63.117042
3.7178,0.004735,0.001536,0.002791,0.0,0.0,0.0,0.006181,-0.508313,0.002964,-1.542193,-263.878446,-1.395148,63.117042
3.7379,0.004994,0.002067,0.002629,0.0,0.0,0.0,0.006159,-0.508462,0.002791,-1.542193,-263.878446,-1.395148,63.117042
3.7583,0.004787,0.002009,0.00332,-9.3e-05,-3.8e-05,0.0,0.006171,-0.508423,0.002779,-1.542193,-263.878446,-1.395148,63.117042
3.778,0.004949,0.002041,0.002922,-9.3e-05,-3.8e-05,0.0,0.00648,-0.507988,0.00332,-1.542193,-263.878446,-1.395148,63.117042
3.7978,0.004633,0.00173,0.002951,-9.3e-05,-3.8e-05,0.0,0.006456,-0.50797,0.003092,-1.542193,-263.878446,-1.395148,63.117042
3.8179,0.004802,0.001672,0.003603,-9.3e-05,-3.8e-05,0.0,0.006456,-0.50797,0.003092,-1.542193,-263.878446,-1.395148,63.117042
3.8378,0.004967,0.001453,0.002289,-9.3e-05,-3.8e-05,0.0,0.00664,-0.508324,0.003603,-1.467167,-263.878446,-1.320122,63.117042
3.8587,0.005012,0.001681,0.000676,-9.3e-05,-3.8e-05,0.0,0.006605,-0.508339,0.003513,-1.467167,-263.878446,-1.320122,63.117042
3.878,0.004357,0.001743,0.002891,-9.3e-05,-3.8e-05,0.0,0.005357,-0.508319,0.000676,-1.392171,-263.878446,-1.245126,63.117042
3.8979,0.004652,0.001894,0.003687,-9.3e-05,-3.8e-05,0.0,0.005627,-0.508282,0.001937,-1.392171,-263.878446,-1.245126,63.117042
3.9181,0.005155,0.001519,0.003176,-9.3e-05,-3.8e-05,0.0,0.005627,-0.508282,0.001937,-1.392171,-263.878446,-1.245126,63.117042
3.9377,0.0048,0.001978,0.002283,-9.3e-05,-3.8e-05,0.0,0.006775,-0.508478,0.003176,-1.31727,-263.878446,-1.170225,63.117042
3.9583,0.004677,0.002075,0.003468,-0.0,-0.0,-0.0,0.006719,-0.508447,0.003115,-1.31727,-263.878446,-1.170225,63.117042
3.9777,0.004434,0.001948,0.002884,-0.000732,-0.000301,-0.000385,0.006446,-0.507922,0.003468,-1.242135,-263.878446,-1.09509,63.117042
3.9976,0.004856,0.001609,0.001542,-0.001424,-0.000585,-0.000749,0.006134,-0.507995,0.003132,-1.242135,-263.878446,-1.09509,63.117042
4.018,0.004962,0.001963,0.003413,-0.002084,-0.000856,-0.001096,0.006134,-0.507995,0.003132,-1.242135,-263.878446,-1.09509,63.117042
4.0377,0.004781,0.001786,0.003022,-0.002701,-0.00111,-0.00142,0.006703,-0.508034,0.003413,-1.167021,-263.878446,-1.019976,63.117042
4.0583,0.004718,0.001943,0.002753,-0.003281,-0.001348,-0.001725,0.006675,-0.508047,0.003384,-1.167021,-263.878446,-1.019976,63.117042
4.0779,0.004809,0.002037,0.001402,-0.003826,-0.001571,-0.002011,0.006121,-0.508055,0.002753,-1.092178,-263.878446,-0.945133,63.117042
4.0978,0.004946,0.001669,0.002688,-0.004332,-0.001779,-0.002277,0.005779,-0.508002,0.001977,-1.092178,-263.878446,-0.945133,63.117042
4.1179,0.004544,0.001922,0.001521,-0.0048,-0.001971,-0.002523,0.005779,-0.508002,0.001977,-1.092178,-263.878446,-0.945133,63.117042
4.1381,0.004937,0.001986,0.002237,-0.005232,-0.002149,-0.002751,0.00532,-0.508077,0.001521,-1.017155,-263.878446,-0.87011,63.117042
4.1577,0.004985,0.001603,0.003184,-0.005625,-0.00231,-0.002957,0.005368,-0.508073,0.001567,-1.017155,-263.878446,-0.87011,63.117042
4.1784,0.004704,0.001755,0.002179,-0.005982,-0.002457,-0.003145,0.006608,-0.508395,0.003184,-0.942284,-263.878446,-0.795239,63.117042
4.1979,0.004752,0.001684,0.002142,-0.006302,-0.002588,-0.003313,0.006157,-0.508309,0.002612,-0.942284,-263.878446,-0.795239,63.117042
4.218,0.004653,0.001901,0.003141,-0.006581,-0.002703,-0.00346,0.006157,-0.508309,0.002612,-0.942284,-263.878446,-0.795239,63.117042
4.2381,0.004937,0.001575,0.002172,-0.006825,-0.002803,-0.003588,0.006255,-0.508097,0.003141,-0.867145,-263.878446,-0.7201,63.117042
4.2578,0.004895,0.001764,0.002366,-0.007031,-0.002888,-0.003697,0.006241,-0.508118,0.003078,-0.867145,-263.878446,-0.7201,63.117042
4.2778,0.005061,0.002164,0.002771,-0.0072,-0.002957,-0.003785,0.006102,-0.508235,0.002366,-0.792278,-263.878446,-0.645233,63.117042
4.2979,0.004861,0.001615,0.001909,-0.007331,-0.003011,-0.003854,0.006313,-0.508008,0.002596,-0.792278,-263.878446,-0.645233,63.117042
4.3178,0.004584,0.001814,0.002696,-0.007425,-0.003049,-0.003903,0.006313,-0.508008,0.002596,-0.792278,-263.878446,-0.645233,63.117042
4.3378,0.004727,0.001699,0.002518,-0.007481,-0.003072,-0.003933,0.005959,-0.508184,0.002696,-0.71728,-263.878446,-0.570235,63.117042
4.3577,0.00504,0.002128,0.002074,-0.0075,-0.00308,-0.003943,0.005963,-0.508192,0.002683,-0.71728,-263.878446,-0.570235,63.117042
4.3778,0.005122,0.001757,0.001326,-0.00748,-0.003072,-0.003933,0.006097,-0.507871,0.002074,-0.642282,-263.878446,-0.495237,63.117042
4.3978,0.00494,0.001678,0.002204,-0.007424,-0.003049,-0.003903,0.005927,-0.508082,0.001648,-0.642282,-263.878446,-0.495237,63.117042
4.4178,0.005194,0.001808,0.002211,-0.007331,-0.003011,-0.003854,0.005927,-0.508082,0.001648,-0.642282,-263.878446,-0.495237,63.117042
4.4378,0.004758,0.002269,0.001589,-0.007199,-0.002957,-0.003785,0.006322,-0.508191,0.002211,-0.567279,-263.878446,-0.420234,63.117042
4.4581,0.004547,0.002028,0.00266,-0.007031,-0.002888,-0.003696,0.006272,-0.50816,0.002169,-0.567279,-263.878446,-0.420234,63.117042
4.4784,0.004629,0.00149,0.00265,-0.006823,-0.002802,-0.003587,0.005904,-0.50797,0.00266,-0.492279,-263.878446,-0.345234,63.117042
4.4979,0.004709,0.001646,0.00097,-0.00658,-0.002703,-0.00346,0.005946,-0.508268,0.002655,-0.492279,-263.878446,-0.345234,63.117042
4.5181,0.004465,0.001562,0.001777,-0.006298,-0.002587,-0.003311,0.005946,-0.508268,0.002655,-0.492279,-263.878446,-0.345234,63.117042
4.538,0.005088,0.00182,0.00341,-0.005979,-0.002455,-0.003143,0.005371,-0.508437,0.001777,-0.417265,-263.878446,-0.27022,63.117042
4.558,0.004727,0.001767,0.003885,-0.005624,-0.00231,-0.002957,0.005478,-0.508418,0.001897,-0.417265,-263.878446,-0.27022,63.117042
4.578,0.004296,0.001734,0.001854,-0.00523,-0.002148,-0.00275,0.006708,-0.508229,0.003885,-0.341985,-263.878446,-0.19494,63.117042
4.5977,0.004728,0.001864,0.002372,-0.0048,-0.001971,-0.002523,0.005867,-0.50825,0.002721,-0.341985,-263.878446,-0.19494,63.117042
4.6179,0.004749,0.001845,0.001806,-0.004328,-0.001777,-0.002275,0.005867,-0.50825,0.002721,-0.341985,-263.878446,-0.19494,63.117042
4.6379,0.004789,0.001694,0.002001,-0.003823,-0.00157,-0.00201,0.00567,-0.508154,0.001806,-0.267177,-263.878446,-0.120132,63.117042
4.658,0.004928,0.001694,0.002063,-0.003281,-0.001347,-0.001725,0.00568,-0.508165,0.00182,-0.267177,-263.878446,-0.120132,63.117042
4.6778,0.005199,0.001982,0.002136,-0.002684,-0.001103,-0.001411,0.00598,-0.508305,0.002063,-0.19214,-263.878446,-0.045095,63.117042
4.6978,0.004557,0.001903,0.002408,-0.002076,-0.000853,-0.001092,0.006156,-0.50814,0.002105,-0.19214,-263.878446,-0.045095,63.117042
4.718,0.005032,0.001591,0.00199,-0.001425,-0.000585,-0.000749,0.006156,-0.50814,0.002105,-0.19214,-263.878446,-0.045095,63.117042
4.7378,0.004869,0.001738,0.002446,-0.000731,-0.0003,-0.000384,0.006047,-0.508408,0.00199,-0.117179,-263.878446,0.029866,63.117042
4.7583,0.004684,0.001891,0.001424,0.0,0.0,0.0,0.006052,-0.508397,0.002022,-0.117179,-263.878446,0.029866,63.117042
4.7779,0.00442,0.001819,0.003039,0.0,0.0,0.0,0.00541,-0.508108,0.001424,-0.042168,-263.878446,0.089374,63.117042
4.798,0.004722,0.00196,0.002515,0.0,0.0,0.0,0.005732,-0.508149,0.00235,-0.042168,-263.878446,0.089374,63.117042
4.8181,0.004937,0.001809,0.001491,0.0,0.0,0.0,0.005732,-0.508149,0.00235,-0.042168,-263.878446,0.089374,63.117042
4.8379,0.004709,0.001983,0.001454,0.0,0.0,0.0,0.005698,-0.508191,0.001491,-0.042168,-263.878446,0.089374,63.117042
4.8586,0.004987,0.001682,0.00284,0.0,0.0,0.0,0.005681,-0.508179,0.001488,-0.042168,-263.878446,0.089374,63.117042
4.8779,0.004662,0.001964,0.001368,0.0,0.0,0.0,0.006435,-0.508316,0.00284,-0.042168,-263.878446,0.089374,63.117042
4.8978,0.004636,0.002008,0.002044,0.0,0.0,0.0,0.00582,-0.508156,0.001997,-0.042168,-263.878446,0.089374,63.117042
4.918,0.004968,0.001882,0.003806,0.0,0.0,0.0,0.00582,-0.508156,0.001997,-0.042168,-263.878446,0.089374,63.117042
4.9378,0.004994,0.001871,0.001281,0.0,0.0,0.0,0.006909,-0.508114,0.003806,-0.042168,-263.878446,0.089374,63.117042
4.958,0.004801,0.001647,0.002578,0.0,0.0,0.0,0.006817,-0.508115,0.00362,-0.042168,-263.878446,0.089374,63.117042
4.9778,0.004836,0.001825,0.003413,-9.5e-05,-3.2e-05,0.0,0.006116,-0.508351,0.002578,-0.042168,-263.878446,0.089374,63.117042
4.9977,0.00484,0.002013,0.003712,-9.5e-05,-3.2e-05,0.0,0.006377,-0.50825,0.003051,-0.042168,-263.878446,0.089374,63.117042
5.0177,0.004839,0.002079,0.002276,-9.5e-05,-3.2e-05,0.0,0.006377,-0.50825,0.003051,-0.042168,-263.878446,0.089374,63.117042
5.0379,0.005063,0.001682,0.002811,-9.5e-05,-3.2e-05,0.0,0.005999,-0.50792,0.002276,-0.042168,-263.878446,0.089374,63.117042
5.0582,0.004982,0.001247,0.002737,-9.5e-05,-3.2e-05,0.0,0.00604,-0.507952,0.00232,-0.042168,-263.878446,0.089374,63.117042
5.0777,0.004706,0.001796,0.001202,-9.5e-05,-3.2e-05,0.0,0.006378,-0.508751,0.002737,0.033077,-263.878448,0.164618,63.11704
5.098,0.004831,0.002129,0.002111,-9.5e-05,-3.2e-05,0.0,0.005769,-0.508436,0.001855,0.033077,-263.878448,0.164618,63.11704
5.1181,0.004967,0.002074,0.003934,-9.5e-05,-3.2e-05,0.0,0.005769,-0.508436,0.001855,0.033077,-263.878448,0.164618,63.11704
5.1383,0.004603,0.002043,0.001083,-9.5e-05,-3.2e-05,0.0,0.006972,-0.507922,0.003934,0.107866,-263.878454,0.239408,63.117034
5.158,0.004669,0.001896,0.001461,-9.5e-05,-3.2e-05,0.0,0.006845,-0.507924,0.003734,0.107866,-263.878454,0.239408,63.117034
5.1778,0.004917,0.001711,0.001299,-1e-06,-0.0,-0.0,0.005413,-0.508104,0.001461,0.182717,-263.87847,0.314258,63.117017
5.1979,0.00463,0.001703,0.002305,-0.000702,-0.000239,-0.000377,0.005508,-0.50821,0.001368,0.182717,-263.87847,0.314258,63.117017
5.2178,0.004656,0.001971,0.002443,-0.001369,-0.000466,-0.000735,0.005508,-0.50821,0.001368,0.182717,-263.87847,0.314258,63.117017
5.2378,0.004782,0.00208,0.001321,-0.002002,-0.000681,-0.001074,0.005899,-0.508029,0.002444,0.257896,-263.878499,0.327895,63.116989
5.2581,0.004787,0.001617,0.000913,-0.002595,-0.000883,-0.001392,0.005868,-0.508021,0.002365,0.257896,-263.878499,0.327895,63.116989
5.2781,0.004235,0.001621,0.003158,-0.003155,-0.001073,-0.001692,0.00525,-0.508384,0.000913,0.332718,-263.878521,0.253074,63.116971
5.2982,0.005039,0.001654,0.001644,-0.003679,-0.001252,-0.001974,0.005591,-0.50838,0.002198,0.332718,-263.878521,0.253074,63.116971
5.3178,0.00475,0.001972,0.001559,-0.004163,-0.001416,-0.002233,0.005591,-0.50838,0.002198,0.332718,-263.878521,0.253074,63.116971
5.3377,0.004681,0.001732,0.001789,-0.004613,-0.001569,-0.002475,0.005527,-0.508033,0.001554,0.407831,-263.87869,0.177961,63.11683
5.3581,0.004877,0.001457,0.000276,-0.005028,-0.00171,-0.002697,0.005531,-0.508048,0.00157,0.407831,-263.87869,0.177961,63.11683
5.3778,0.004663,0.001465,0.002012,-0.005407,-0.001839,-0.002901,0.004955,-0.508563,0.000253,0.482716,-263.879453,0.103076,63.116196
5.3978,0.004563,0.001785,0.003291,-0.00575,-0.001956,-0.003084,0.005368,-0.508549,0.001259,0.482716,-263.879453,0.103076,63.116196
5.418,0.004762,0.001552,0.000627,-0.006055,-0.00206,-0.003248,0.005368,-0.508549,0.001259,0.482716,-263.879453,0.103076,63.116196
5.4379,0.004529,0.002009,0.001157,-0.006325,-0.002152,-0.003393,0.004902,-0.508507,0.000538,0.557853,-263.88122,0.027939,63.114726
5.458,0.004616,0.001687,0.002656,-0.00656,-0.002231,-0.003519,0.004912,-0.508473,0.000579,0.557853,-263.88122,0.027939,63.114726
5.478,0.00437,0.001761,0.002077,-0.006758,-0.002299,-0.003625,0.005741,-0.50839,0.002533,0.588785,-263.884082,0.012552,63.112346
5.4979,0.004443,0.001152,0.001859,-0.00692,-0.002354,-0.003712,0.005533,-0.508313,0.002256,0.588785,-263.884082,0.012552,63.112346
5.5182,0.004346,0.001582,0.002584,-0.007046,-0.002397,-0.00378,0.005533,-0.508313,0.002256,0.588785,-263.884082,0.012552,63.112346
5.5381,0.003759,0.001699,0.000555,-0.007136,-0.002428,-0.003828,0.005346,-0.508525,0.002413,0.588785,-263.887233,0.012552,63.109725
5.558,0.004084,0.001443,0.003271,-0.00719,-0.002446,-0.003857,0.005246,-0.508512,0.002278,0.588785,-263.887233,0.012552,63.109725
5.5781,0.004248,0.001231,0.002246,-0.007208,-0.002452,-0.003867,0.00548,-0.508648,0.003125,0.588785,-263.890627,0.012552,63.106902
5.5977,0.004048,0.001346,0.001644,-0.00719,-0.002446,-0.003857,0.005396,-0.508728,0.002603,0.588785,-263.890627,0.012552,63.106902
5.6177,0.004039,0.001349,0.002055,-0.007136,-0.002427,-0.003828,0.005396,-0.508728,0.002603,0.588785,-263.890627,0.012552,63.106902
5.6377,0.003635,0.001303,0.001009,-0.007046,-0.002397,-0.00378,0.004739,-0.50877,0.001868,0.588785,-263.89408,0.012552,63.10403
5.6581,0.003638,0.001535,0.00044,-0.00692,-0.002354,-0.003712,0.004688,-0.508768,0.001802,0.588785,-263.89408,0.012552,63.10403
5.6778,0.003421,0.001095,0.000776,-0.006754,-0.002298,-0.003623,0.003587,-0.508559,0.000292,0.588785,-263.897519,0.012552,63.10117
5.6977,0.003078,0.001277,0.001215,-0.006558,-0.002231,-0.003518,0.003684,-0.50877,0.000552,0.588785,-263.897519,0.012552,63.10117
5.7178,0.003476,0.000968,0.001792,-0.006325,-0.002152,-0.003393,0.003684,-0.50877,0.000552,0.588785,-263.897519,0.012552,63.10117
5.7377,0.002975,0.000829,0.001515,-0.006055,-0.00206,-0.003248,0.004054,-0.509146,0.001612,0.588785,-263.900841,0.012552,63.098407
5.7581,0.002787,0.00078,0.000553,-0.005748,-0.001955,-0.003084,0.004024,-0.50915,0.0016,0.588785,-263.900841,0.012552,63.098407
