mach0312/omni-docking-bench/src/icros_test_setup/results/kinematic_sample/timeseries/trial_117.csv
t,x,y,yaw,vx,vy,wz,bl_x,bl_y,bl_yaw,front_steering_joint,front_wheel_joint,rear_steering_joint,rear_wheel_joint
0.0,-0.079219,-0.002696,0.064238,-0.015432,0.0002,0.057899,-0.043863,-0.511302,0.056352,-1.161375,-264.700175,1.157223,62.204781
0.0005,-0.079212,-0.002897,0.065124,-0.014505,0.000188,0.054423,-0.044026,-0.511483,0.059515,-1.161375,-264.713789,1.157223,62.191177
0.0008,-0.079024,-0.002377,0.065809,-0.01408,0.000183,0.052828,-0.044026,-0.511483,0.059515,-1.161375,-264.729376,1.157223,62.175738
0.0011,-0.081354,-0.002736,0.069747,-0.013578,0.000176,0.050943,-0.044217,-0.511469,0.059693,-1.161375,-264.744695,1.157223,62.160564
0.0014,-0.081186,-0.003098,0.069276,-0.012998,0.000169,0.048767,-0.044217,-0.511469,0.059693,-1.161375,-264.759618,1.157223,62.145782
0.0017,-0.083481,-0.00304,0.072257,-0.012341,0.00016,0.046302,-0.044217,-0.511469,0.059693,-1.161375,-264.773262,1.157223,62.132267
0.002,-0.083423,-0.003176,0.071025,-0.011606,0.000151,0.043545,-0.045096,-0.511125,0.062632,-1.161375,-264.785658,1.157223,62.119988
0.0024,-0.083189,-0.003132,0.069222,-0.010796,0.00014,0.040505,-0.045096,-0.511125,0.062632,-1.161375,-264.785658,1.157223,62.119988
0.0026,-0.085293,-0.002971,0.073233,-0.009906,0.000129,0.037165,-0.045113,-0.511161,0.062765,-1.161375,-264.785658,1.157223,62.119988
0.0028,-0.084635,-0.003249,0.075171,-0.008938,0.000116,0.033536,-0.045113,-0.511161,0.062765,-1.161375,-264.785658,1.157223,62.119988
0.0181,-0.086496,-0.003155,0.074467,0.008105,-0.003116,-0.000379,-0.046715,-0.511833,0.076605,-1.161375,-264.795611,1.157223,62.11013
0.0377,-0.086705,-0.002795,0.075599,0.024105,-0.003289,-0.030379,-0.047817,-0.511784,0.075561,-1.161375,-264.795611,1.157223,62.11013
0.0578,-0.086578,-0.003038,0.075281,0.040105,-0.003761,-0.05,-0.047817,-0.511784,0.075561,-1.161375,-264.795611,1.157223,62.11013
0.0777,-0.087982,-0.003394,0.077964,0.056105,-0.003482,-0.05,-0.048603,-0.511618,0.076718,-1.161375,-264.803563,1.157223,62.102253
0.0976,-0.087682,-0.003124,0.075699,0.072105,-0.003469,-0.05,-0.048587,-0.511637,0.076861,-1.161375,-264.803563,1.157223,62.102253
0.1177,-0.087781,-0.003037,0.076958,0.087667,-0.003516,-0.05,-0.049112,-0.511663,0.075699,-1.086221,-264.80356,1.082069,62.102256
0.138,-0.087551,-0.003115,0.075697,0.087754,-0.00372,-0.05,-0.048805,-0.511586,0.076414,-1.086221,-264.80356,1.082069,62.102256
0.1577,-0.087744,-0.003165,0.0766,0.087536,-0.003515,-0.05,-0.048805,-0.511586,0.076414,-1.086221,-264.80356,1.082069,62.102256
0.1777,-0.087858,-0.00333,0.077945,0.087729,-0.003559,-0.05,-0.048716,-0.511669,0.0766,-1.011498,-264.80356,1.007346,62.102256
0.1976,-0.087519,-0.002916,0.077688,0.08785,-0.003521,-0.05,-0.048674,-0.511677,0.076699,-1.011498,-264.80356,1.007346,62.102256
0.2179,-0.08791,-0.003224,0.07652,0.087482,-0.003885,-0.05,-0.047938,-0.511378,0.077688,-0.936402,-264.80356,0.93225,62.102256
0.238,-0.087448,-0.003062,0.074545,0.087899,-0.003506,-0.05,-0.048504,-0.511581,0.077017,-0.936402,-264.80356,0.93225,62.102256
0.258,-0.08762,-0.003269,0.076324,0.087434,-0.003459,-0.05,-0.048504,-0.511581,0.077017,-0.936402,-264.80356,0.93225,62.102256
0.2779,-0.08755,-0.003222,0.076919,0.087614,-0.003422,-0.05,-0.048732,-0.511784,0.076324,-0.86133,-264.80356,0.857178,62.102256
0.2981,-0.087698,-0.003015,0.077058,0.087539,-0.003515,-0.05,-0.048708,-0.511779,0.076363,-0.86133,-264.80356,0.857178,62.102256
0.3178,-0.087534,-0.002983,0.076401,0.08767,-0.003745,-0.05,-0.048437,-0.511501,0.077058,-0.786516,-264.803556,0.782364,62.102259
0.3376,-0.087903,-0.002932,0.078075,0.087507,-0.003707,-0.05,-0.048535,-0.511498,0.076682,-0.786516,-264.803556,0.782364,62.102259
0.3578,-0.087714,-0.003054,0.075661,0.087864,-0.003933,-0.05,-0.048535,-0.511498,0.076682,-0.786516,-264.803556,0.782364,62.102259
0.378,-0.087588,-0.002923,0.076406,0.087694,-0.003585,-0.05,-0.04916,-0.511594,0.075656,-0.711385,-264.803511,0.707232,62.102303
0.3977,-0.087653,-0.003063,0.076216,0.087556,-0.003772,-0.05,-0.049123,-0.511583,0.07571,-0.711385,-264.803511,0.707232,62.102303
0.4183,-0.087884,-0.00287,0.076765,0.087631,-0.00362,-0.05,-0.048793,-0.511581,0.076184,-0.636328,-264.803158,0.632175,62.102646
0.4377,-0.087614,-0.002846,0.077592,0.087846,-0.003878,-0.05,-0.048778,-0.511458,0.076514,-0.636328,-264.803158,0.632175,62.102646
0.4578,-0.087744,-0.0033,0.076156,0.087571,-0.003954,-0.05,-0.048778,-0.511458,0.076514,-0.636328,-264.803158,0.632175,62.102646
0.4781,-0.087195,-0.0035,0.075671,0.087741,-0.003385,-0.05,-0.048744,-0.511809,0.075952,-0.561337,-264.8012,0.557184,62.104553
0.4977,-0.087844,-0.002829,0.077122,0.08721,-0.003102,-0.05,-0.048731,-0.511826,0.075926,-0.561337,-264.8012,0.557184,62.104553
0.5177,-0.08672,-0.003384,0.075694,0.087801,-0.003947,-0.05,-0.048174,-0.511286,0.076796,-0.486364,-264.796744,0.482212,62.108957
0.5376,-0.08649,-0.003009,0.076683,0.086728,-0.003184,-0.05,-0.048114,-0.511647,0.076124,-0.486364,-264.796744,0.482212,62.108957
0.5576,-0.086773,-0.00342,0.075543,0.086466,-0.003626,-0.05,-0.048114,-0.511647,0.076124,-0.486364,-264.796744,0.482212,62.108957
0.5783,-0.085483,-0.002861,0.074319,0.086784,-0.003139,-0.05,-0.047513,-0.51191,0.074995,-0.411407,-264.789796,0.407254,62.115854
0.5977,-0.085689,-0.002742,0.075839,0.085459,-0.003494,-0.05,-0.0475,-0.511877,0.074933,-0.411407,-264.789796,0.407254,62.115854
0.6176,-0.08386,-0.002905,0.074916,0.08565,-0.003758,-0.05,-0.046194,-0.511232,0.075322,-0.376279,-264.780331,0.332362,62.125267
0.6378,-0.084282,-0.00279,0.073553,0.083842,-0.00338,-0.05,-0.045797,-0.511365,0.075024,-0.376279,-264.780331,0.332362,62.125267
0.6577,-0.084043,-0.00305,0.073817,0.084259,-0.003411,-0.05,-0.045797,-0.511365,0.075024,-0.376279,-264.780331,0.332362,62.125267
0.6782,-0.082321,-0.002755,0.075647,0.084039,-0.003156,-0.05,-0.045068,-0.511612,0.073021,-0.378974,-264.768367,0.306473,62.137179
0.6981,-0.082353,-0.002536,0.072045,0.082294,-0.003475,-0.05,-0.044933,-0.511587,0.073195,-0.378974,-264.768367,0.306473,62.137179
0.7178,-0.080217,-0.002958,0.072029,0.082322,-0.003398,-0.05,-0.044336,-0.511167,0.071271,-0.38301,-264.753934,0.311462,62.15156
0.7379,-0.079782,-0.002857,0.072816,0.080222,-0.002822,-0.05,-0.043702,-0.511429,0.071605,-0.38301,-264.753934,0.311462,62.15156
0.7584,-0.079953,-0.003014,0.072411,0.079779,-0.002955,-0.05,-0.043702,-0.511429,0.071605,-0.38301,-264.753934,0.311462,62.15156
0.7777,-0.077537,-0.002672,0.072785,0.079962,-0.002778,-0.05,-0.041127,-0.511612,0.071241,-0.391919,-264.736983,0.317714,62.16846
0.7983,-0.077545,-0.002436,0.0714,0.077526,-0.002973,-0.05,-0.041031,-0.511591,0.071315,-0.391919,-264.736983,0.317714,62.16846
0.8182,-0.074399,-0.002648,0.071314,0.077522,-0.003102,-0.05,-0.039407,-0.511071,0.070302,-0.397469,-264.7175,0.332877,62.187891
0.8381,-0.07443,-0.002957,0.070086,0.074399,-0.00266,-0.05,-0.038417,-0.511222,0.070739,-0.397469,-264.7175,0.332877,62.187891
0.8586,-0.074622,-0.002616,0.069895,0.074454,-0.002263,-0.05,-0.038417,-0.511222,0.070739,-0.397469,-264.7175,0.332877,62.187891
0.8777,-0.071267,-0.00256,0.070561,0.074623,-0.002601,-0.05,-0.036526,-0.511283,0.068298,-0.408,-264.695498,0.341609,62.209841
0.8984,-0.070978,-0.002731,0.068763,0.07127,-0.002471,-0.05,-0.036367,-0.511281,0.06842,-0.408,-264.695498,0.341609,62.209841
0.9177,-0.067361,-0.00228,0.067981,0.070998,-0.002152,-0.05,-0.033742,-0.511435,0.067289,-0.414959,-264.671081,0.362938,62.234207
0.938,-0.067191,-0.002344,0.065964,0.06736,-0.002301,-0.05,-0.032892,-0.511236,0.067497,-0.414959,-264.671081,0.362938,62.234207
0.9579,-0.06751,-0.002277,0.068372,0.067199,-0.00209,-0.05,-0.032892,-0.511236,0.067497,-0.414959,-264.671081,0.362938,62.234207
0.9779,-0.063356,-0.001602,0.064607,0.067508,-0.00234,-0.05,-0.029665,-0.510973,0.066267,-0.43373,-264.644171,0.37516,62.261065
0.9982,-0.063348,-0.001839,0.064057,0.063327,-0.002491,-0.05,-0.029639,-0.51094,0.066097,-0.43373,-264.644171,0.37516,62.261065
1.0184,-0.058088,-0.001772,0.063016,0.063336,-0.00222,-0.05,-0.028147,-0.510712,0.062156,-0.452004,-264.614673,0.400461,62.28988
1.0379,-0.058972,-0.001949,0.061547,0.058084,-0.001889,-0.05,-0.026569,-0.510729,0.062411,-0.452004,-264.614673,0.400461,62.28988
1.058,-0.058425,-0.001804,0.061342,0.05898,-0.001682,-0.05,-0.026569,-0.510729,0.062411,-0.452004,-264.614673,0.400461,62.28988
1.078,-0.054451,-0.00161,0.060369,0.058426,-0.001782,-0.05,-0.024136,-0.510781,0.058955,-0.480745,-264.586486,0.416915,62.317214
1.0982,-0.054184,-0.001647,0.059666,0.054449,-0.001678,-0.05,-0.024006,-0.510771,0.058998,-0.480745,-264.586486,0.416915,62.317214
1.118,-0.050399,-0.001392,0.056393,0.054186,-0.001587,-0.05,-0.021581,-0.510674,0.057808,-0.499975,-264.560552,0.455008,62.342552
1.138,-0.050031,-0.001823,0.056627,0.050398,-0.001451,-0.05,-0.021337,-0.510613,0.056769,-0.499975,-264.560552,0.455008,62.342552
1.1582,-0.049952,-0.00176,0.057049,0.050054,-0.001011,-0.05,-0.021337,-0.510613,0.056769,-0.499975,-264.560552,0.455008,62.342552
1.1781,-0.046283,-0.001228,0.05429,0.049971,-0.001091,-0.05,-0.018319,-0.510866,0.054703,-0.534276,-264.536131,0.487375,62.366339
1.1982,-0.046527,-0.001143,0.056228,0.046282,-0.001286,-0.05,-0.018271,-0.510837,0.054612,-0.534276,-264.536131,0.487375,62.366339
1.2176,-0.042649,-0.001141,0.051465,0.046517,-0.001473,-0.05,-0.016003,-0.510272,0.054367,-0.562393,-264.5135,0.53295,62.388567
1.2378,-0.042505,-0.000855,0.053344,0.042652,-0.001055,-0.05,-0.016004,-0.510373,0.052497,-0.562393,-264.5135,0.53295,62.388567
1.2577,-0.042734,-0.00096,0.051656,0.04249,-0.001413,-0.05,-0.016004,-0.510373,0.052497,-0.562393,-264.5135,0.53295,62.388567
1.2782,-0.039363,-0.00138,0.049112,0.042727,-0.001248,-0.05,-0.014241,-0.51023,0.049322,-0.602351,-264.491918,0.563648,62.409605
1.2984,-0.039219,-0.000919,0.050208,0.039384,-0.000554,-0.049112,-0.014189,-0.510266,0.049245,-0.602351,-264.491918,0.563648,62.409605
1.3178,-0.036029,-0.001007,0.047157,0.039216,-0.00105,-0.05,-0.012048,-0.510252,0.048355,-0.644739,-264.471745,0.600893,62.429152
1.3379,-0.035924,-0.00096,0.049009,0.036036,-0.000693,-0.047157,-0.01182,-0.510354,0.047457,-0.644739,-264.471745,0.600893,62.429152
1.3578,-0.035523,-0.001095,0.046741,0.035928,-0.000801,-0.049009,-0.01182,-0.510354,0.047457,-0.644739,-264.471745,0.600893,62.429152
1.3777,-0.032983,-0.001309,0.045756,0.035536,-0.000566,-0.046741,-0.009833,-0.510479,0.04442,-0.659741,-264.452408,0.64192,62.448229
1.3977,-0.032459,-0.000803,0.044587,0.033008,-0.000201,-0.045756,-0.009777,-0.510496,0.044448,-0.659741,-264.452408,0.64192,62.448229
1.4176,-0.029979,-0.000634,0.042146,0.032462,-0.000645,-0.044587,-0.008421,-0.510268,0.042805,-0.707625,-264.434597,0.681313,62.465654
1.4376,-0.029925,-0.000626,0.042456,0.029979,-0.00063,-0.042146,-0.008296,-0.510215,0.042203,-0.707625,-264.434597,0.681313,62.465654
1.458,-0.029784,-0.000828,0.043345,0.029925,-0.000645,-0.042456,-0.008296,-0.510215,0.042203,-0.707625,-264.434597,0.681313,62.465654
1.4777,-0.027156,-0.001284,0.039786,0.029791,-0.000463,-0.043345,-0.006092,-0.510292,0.041136,-0.706063,-264.41736,0.698976,62.482788
1.4982,-0.027327,-0.000741,0.042818,0.027185,0.000203,-0.039786,-0.006104,-0.510331,0.040982,-0.706063,-264.41736,0.698976,62.482788
1.518,-0.024309,-0.000953,0.03868,0.027334,-0.000429,-0.042818,-0.004349,-0.510251,0.041189,-0.726186,-264.401456,0.701559,62.498356
1.5381,-0.024497,-0.000547,0.037824,0.024328,1.2e-05,-0.03868,-0.004336,-0.510429,0.039563,-0.726186,-264.401456,0.701559,62.498356
1.5582,-0.024289,-0.000492,0.036999,0.0245,-0.00038,-0.037824,-0.004336,-0.510429,0.039563,-0.726186,-264.401456,0.701559,62.498356
1.5781,-0.022513,-0.000532,0.037816,0.024291,-0.000407,-0.036999,-0.004122,-0.510086,0.035092,-0.725237,-264.387161,0.733539,62.512758
1.5979,-0.022472,-0.00041,0.03728,0.022517,-0.000319,-0.037816,-0.004033,-0.51009,0.03522,-0.725237,-264.387161,0.733539,62.512758
1.6176,-0.020317,-0.000239,0.034069,0.022472,-0.000428,-0.03728,-0.002543,-0.510036,0.03586,-0.764167,-264.373955,0.747735,62.52576
1.6378,-0.020014,-0.00072,0.034887,0.020314,-0.000453,-0.034069,-0.002656,-0.509981,0.034659,-0.764167,-264.373955,0.747735,62.52576
1.658,-0.019792,-0.000516,0.036046,0.020026,2.1e-05,-0.034887,-0.002656,-0.509981,0.034659,-0.764167,-264.373955,0.747735,62.52576
1.6778,-0.017964,-0.000456,0.03354,0.019797,-0.000198,-0.036046,-0.000378,-0.510163,0.034309,-0.804966,-264.361624,0.79114,62.537918
1.6981,-0.018103,-0.000332,0.03231,0.01797,-0.000146,-0.03354,-0.000385,-0.510163,0.034195,-0.804966,-264.361624,0.79114,62.537918
1.7177,-0.016051,-0.000487,0.032168,0.018104,-0.000253,-0.03231,-0.000859,-0.51004,0.030971,-0.815884,-264.35013,0.816868,62.549424
1.7377,-0.016357,-0.000293,0.031593,0.016058,-3e-05,-0.032168,-8.7e-05,-0.510139,0.031474,-0.815884,-264.35013,0.816868,62.549424
1.7577,-0.016188,-0.00049,0.031329,0.016358,-0.000224,-0.031593,-8.7e-05,-0.510139,0.031474,-0.815884,-264.35013,0.816868,62.549424
1.7777,-0.014852,-0.00018,0.030208,0.016195,-1.7e-05,-0.031329,0.000629,-0.510221,0.029759,-0.854238,-264.339597,0.847154,62.559872
1.798,-0.014477,-0.000415,0.030441,0.014851,-0.000269,-0.030208,0.000645,-0.510202,0.029748,-0.854238,-264.339597,0.847154,62.559872
1.8177,-0.013116,-0.000527,0.0285,0.014483,-2.6e-05,-0.030441,0.001671,-0.510169,0.029233,-0.873289,-264.329492,0.861832,62.569841
1.8377,-0.01299,-0.000567,0.027803,0.013126,0.000153,-0.0285,0.001605,-0.510254,0.02866,-0.873289,-264.329492,0.861832,62.569841
1.8579,-0.013023,-0.000204,0.028187,0.013,0.000206,-0.027803,0.001605,-0.510254,0.02866,-0.873289,-264.329492,0.861832,62.569841
1.8783,-0.011447,-0.000283,0.026457,0.013023,-0.000163,-0.028187,0.00206,-0.509995,0.026746,-0.900102,-264.320141,0.885854,62.579028
1.8986,-0.011518,-0.000175,0.027098,0.01145,-2e-05,-0.026457,0.002076,-0.510001,0.026694,-0.900102,-264.320141,0.885854,62.579028
1.9177,-0.010407,-0.000268,0.024677,0.011519,-0.000137,-0.027098,0.002789,-0.509967,0.02605,-0.911489,-264.311844,0.923196,62.587453
1.9379,-0.01019,-0.00018,0.024348,0.010411,1.1e-05,-0.024677,0.002501,-0.510048,0.025131,-0.911489,-264.311844,0.923196,62.587453
1.9582,-0.009883,-0.000367,0.025175,0.010192,-6.8e-05,-0.024348,0.002501,-0.510048,0.025131,-0.911489,-264.311844,0.923196,62.587453
1.9784,-0.008893,-0.000263,0.024187,0.010192,-6.8e-05,-0.024348,0.003488,-0.510193,0.023942,-0.954881,-264.304236,0.953704,62.595048
1.9977,-0.0091,-0.00024,0.023206,0.0001,1e-06,0.0,0.003499,-0.510187,0.023926,-0.954881,-264.304236,0.953704,62.595048
2.0178,-0.008216,4.3e-05,0.022519,0.0001,1e-06,0.0,0.003122,-0.510097,0.02228,-0.972109,-264.297098,0.967824,62.602142
2.0378,-0.007852,-8e-06,0.021947,0.0001,1e-06,0.0,0.003254,-0.509944,0.022295,-0.972109,-264.297098,0.967824,62.602142
2.0579,-0.008129,0.000133,0.022991,0.0001,1e-06,0.0,0.003254,-0.509944,0.022295,-0.972109,-264.297098,0.967824,62.602142
2.0778,-0.007769,0.000138,0.021449,0.0001,1e-06,0.0,0.003595,-0.509733,0.022991,-0.897512,-264.297098,0.893227,62.602142
2.0983,-0.00794,-7.9e-05,0.023267,0.0001,1e-06,0.0,0.003568,-0.509733,0.022891,-0.897512,-264.297098,0.893227,62.602142
2.1182,-0.008075,-0.000214,0.022911,0.0001,1e-06,0.0,0.003925,-0.509941,0.023267,-0.822517,-264.297098,0.818232,62.602142
2.1378,-0.00805,-0.000167,0.02227,0.0001,1e-06,0.0,0.003745,-0.51002,0.023064,-0.822517,-264.297098,0.818232,62.602142
2.158,-0.007967,-0.000149,0.023494,0.0001,1e-06,0.0,0.003745,-0.51002,0.023064,-0.822517,-264.297098,0.818232,62.602142
2.1782,-0.007837,-6.5e-05,0.023788,0.0001,1e-06,0.0,0.004013,-0.510008,0.023494,-0.747511,-264.297098,0.743226,62.602142
2.1983,-0.007966,0.00028,0.024231,0.0001,1e-06,0.0,0.004034,-0.510002,0.023515,-0.747511,-264.297098,0.743226,62.602142
2.2178,-0.007836,-0.000276,0.023024,0.001328,7e-06,-0.00361,0.004391,-0.50957,0.024231,-0.672413,-264.297098,0.668128,62.602142
2.2382,-0.008051,5.3e-05,0.023531,0.002539,1.4e-05,-0.006901,0.004113,-0.509896,0.023542,-0.672413,-264.297098,0.668128,62.602142
2.2578,-0.007913,-0.000238,0.02306,0.003714,2e-05,-0.010098,0.004113,-0.509896,0.023542,-0.672413,-264.297098,0.668128,62.602142
2.2778,-0.008022,-6.4e-05,0.023047,0.004807,2.6e-05,-0.013068,0.003847,-0.510102,0.02306,-0.597411,-264.297098,0.593126,62.602142
2.2976,-0.007864,-0.000187,0.023604,0.005838,3.1e-05,-0.015872,0.003838,-0.510089,0.023059,-0.597411,-264.297098,0.593126,62.602142
2.3176,-0.008284,-6.9e-05,0.021719,0.00681,3.7e-05,-0.018515,0.004173,-0.510045,0.023604,-0.672658,-264.297092,0.668374,62.602148
2.3378,-0.007835,-0.000335,0.024241,0.007711,4.2e-05,-0.020964,0.003382,-0.50999,0.022524,-0.672658,-264.297092,0.668374,62.602148
2.3577,-0.008023,-0.000185,0.022625,0.008541,4.6e-05,-0.02322,0.003382,-0.50999,0.022524,-0.672658,-264.297092,0.668374,62.602148
2.3778,-0.008032,-0.000595,0.023774,0.009311,5e-05,-0.025313,0.00352,-0.510054,0.022616,-0.747417,-264.297024,0.743132,62.602216
2.3977,-0.008097,7.8e-05,0.021321,0.010011,5.4e-05,-0.027216,0.00356,-0.510082,0.022695,-0.747417,-264.297024,0.743132,62.602216
2.4179,-0.007966,-0.000308,0.022849,0.010644,5.7e-05,-0.028936,0.002808,-0.509805,0.021265,-0.822395,-264.296537,0.81811,62.602705
2.4378,-0.007774,-0.000415,0.024225,0.011212,6e-05,-0.030482,0.003313,-0.510016,0.022161,-0.822395,-264.296537,0.81811,62.602705
2.4579,-0.007792,-0.00014,0.023733,0.01171,6.3e-05,-0.031836,0.003313,-0.510016,0.022161,-0.822395,-264.296537,0.81811,62.602705
2.4777,-0.007349,8e-05,0.021826,0.012145,6.5e-05,-0.033018,0.004456,-0.509993,0.023436,-0.89737,-264.294632,0.893085,62.60462
2.4983,-0.00724,-0.000207,0.022696,0.012511,6.7e-05,-0.034013,0.004415,-0.50998,0.023321,-0.89737,-264.294632,0.893085,62.60462
2.5182,-0.006737,-0.000215,0.020105,0.012812,6.9e-05,-0.034831,0.004574,-0.51007,0.022121,-0.972305,-264.290228,0.96802,62.609033
2.5383,-0.006877,0.000204,0.020967,0.013045,7e-05,-0.035465,0.004003,-0.510093,0.020901,-0.972305,-264.290228,0.96802,62.609033
2.5581,-0.006939,-0.000564,0.021903,0.013212,7.1e-05,-0.035919,0.004003,-0.510093,0.020901,-0.972305,-264.290228,0.96802,62.609033
2.578,-0.005703,1.5e-05,0.019635,0.013312,7.2e-05,-0.036191,0.004664,-0.510431,0.020725,-1.027274,-264.283323,1.030144,62.615947
2.5985,-0.006093,-0.000518,0.021993,0.013345,7.2e-05,-0.036281,0.004651,-0.510394,0.020618,-1.027274,-264.283323,1.030144,62.615947
2.6178,-0.004148,4.9e-05,0.017598,0.013312,7.2e-05,-0.03619,0.005591,-0.510384,0.02072,-1.027274,-264.273919,1.030144,62.625361
2.6378,-0.004418,-0.000204,0.018173,0.013212,7.1e-05,-0.035919,0.005215,-0.510091,0.018779,-1.027274,-264.273919,1.030144,62.625361
2.6578,-0.004171,-0.000226,0.020304,0.013045,7e-05,-0.035465,0.005215,-0.510091,0.018779,-1.027274,-264.273919,1.030144,62.625361
2.6784,-0.002939,-0.000262,0.017354,0.01281,6.9e-05,-0.034824,0.006832,-0.510105,0.018538,-1.027274,-264.263564,1.030144,62.635765
2.6981,-0.002809,-0.000155,0.018255,0.012511,6.7e-05,-0.034014,0.006782,-0.510111,0.018399,-1.027274,-264.263564,1.030144,62.635765
