mach0312/omni-docking-bench/src/icros_test_setup/results/kinematic_sample/timeseries/trial_098.csv
t,x,y,yaw,vx,vy,wz,bl_x,bl_y,bl_yaw,front_steering_joint,front_wheel_joint,rear_steering_joint,rear_wheel_joint
0.0,0.051947,0.026322,-0.084447,-0.0149,0.002025,-0.006251,0.011089,-0.482127,-0.082373,0.119733,-263.975574,-0.373729,62.599783
0.0004,0.051802,0.026772,-0.084741,-0.0149,0.002025,-0.006251,0.010985,-0.482073,-0.082529,0.119733,-263.981475,-0.373729,62.59349
0.0007,0.051248,0.026967,-0.083616,-0.014634,0.001989,-0.006139,0.010985,-0.482073,-0.082529,0.119733,-263.987548,-0.373729,62.587014
0.0011,0.051377,0.026771,-0.083236,-0.014291,0.001943,-0.005996,0.009016,-0.481676,-0.085368,0.119733,-263.993679,-0.373729,62.580475
0.0014,0.051315,0.027074,-0.082993,-0.013871,0.001885,-0.005819,0.009016,-0.481676,-0.085368,0.119733,-263.999677,-0.373729,62.574079
0.0017,0.050866,0.026904,-0.085848,-0.013377,0.001818,-0.005612,0.009765,-0.481852,-0.08379,0.119733,-264.005265,-0.373729,62.568119
0.002,0.050465,0.026694,-0.085566,-0.012806,0.001741,-0.005373,0.009765,-0.481852,-0.08379,0.119733,-264.010425,-0.373729,62.562617
0.0022,0.050348,0.026631,-0.085035,-0.012156,0.001652,-0.0051,0.009765,-0.481852,-0.08379,0.119733,-264.010425,-0.373729,62.562617
0.0025,0.049792,0.027081,-0.084972,-0.011429,0.001554,-0.004795,0.009442,-0.481722,-0.083739,0.119733,-264.010425,-0.373729,62.562617
0.0027,0.049936,0.02703,-0.085916,-0.010634,0.001445,-0.004461,0.009342,-0.481709,-0.083886,0.119733,-264.010425,-0.373729,62.562617
0.0182,0.049388,0.027193,-0.085818,-0.025752,-0.014674,0.025909,0.005898,-0.480949,-0.085289,0.119733,-264.010425,-0.373729,62.562617
0.0381,0.049473,0.026916,-0.085336,-0.041752,-0.030674,0.05,0.00527,-0.48084,-0.08599,0.119733,-264.014715,-0.373729,62.558041
0.0586,0.049403,0.027393,-0.084746,-0.046999,-0.031035,0.05,0.005638,-0.48105,-0.085639,0.119733,-264.014715,-0.373729,62.558041
0.0781,0.049029,0.027402,-0.086132,-0.046907,-0.031476,0.05,0.005638,-0.48105,-0.085639,0.119733,-264.014715,-0.373729,62.558041
0.0987,0.049119,0.027357,-0.085081,-0.04649,-0.031518,0.05,0.005155,-0.480707,-0.086132,0.044657,-264.014716,-0.298653,62.55804
0.1181,0.04941,0.027066,-0.086362,-0.046616,-0.031432,0.05,0.005196,-0.480713,-0.086064,0.044657,-264.014716,-0.298653,62.55804
0.1381,0.049311,0.027166,-0.084633,-0.046892,-0.031227,0.05,0.005421,-0.481034,-0.086362,0.020015,-264.014718,-0.223769,62.558037
0.1581,0.049591,0.027345,-0.085743,-0.046838,-0.031237,0.05,0.00586,-0.48102,-0.085386,0.020015,-264.014718,-0.223769,62.558037
0.1782,0.049302,0.027596,-0.0837,-0.047067,-0.031491,0.05,0.00586,-0.48102,-0.085386,0.020015,-264.014718,-0.223769,62.558037
0.1982,0.049707,0.027291,-0.085146,-0.046823,-0.031621,0.05,0.006665,-0.480618,-0.0837,0.019186,-264.014719,-0.14875,62.558034
0.2186,0.049326,0.02712,-0.087027,-0.047206,-0.03142,0.05,0.00664,-0.480637,-0.083811,0.019186,-264.014719,-0.14875,62.558034
0.2379,0.049612,0.027229,-0.084113,-0.046782,-0.031305,0.05,0.004998,-0.48095,-0.087027,0.020262,-264.014721,-0.073475,62.558031
0.2584,0.049166,0.027432,-0.085059,-0.047149,-0.031301,0.05,0.00605,-0.48096,-0.085292,0.020262,-264.014721,-0.073475,62.558031
0.2783,0.049614,0.027228,-0.086281,-0.046658,-0.031509,0.05,0.00605,-0.48096,-0.085292,0.020262,-264.014721,-0.073475,62.558031
0.2983,0.049651,0.027136,-0.085817,-0.047083,-0.031402,0.05,0.005665,-0.480875,-0.086281,0.018683,-264.014723,0.002075,62.558028
0.3185,0.049403,0.027512,-0.085097,-0.047143,-0.031292,0.05,0.005687,-0.480884,-0.086244,0.018683,-264.014723,0.002075,62.558028
0.3385,0.049352,0.027171,-0.084846,-0.046886,-0.031611,0.05,0.006056,-0.480643,-0.085097,0.020827,-264.014725,0.076721,62.558025
0.3582,0.049655,0.027188,-0.085341,-0.046872,-0.031255,0.05,0.006099,-0.480844,-0.084953,0.020827,-264.014725,0.076721,62.558025
0.3786,0.049152,0.026951,-0.086821,-0.047157,-0.031321,0.05,0.006099,-0.480844,-0.084953,0.020827,-264.014725,0.076721,62.558025
0.3987,0.049369,0.027356,-0.086013,-0.04663,-0.031111,0.05,0.004928,-0.481128,-0.086821,0.016008,-264.014727,0.151491,62.558021
0.4181,0.049443,0.027221,-0.085635,-0.046836,-0.031496,0.05,0.004982,-0.481097,-0.086752,0.016008,-264.014727,0.151491,62.558021
0.4389,0.049363,0.027495,-0.085457,-0.046934,-0.03135,0.05,0.005822,-0.48091,-0.085635,0.016622,-264.014729,0.226877,62.558018
0.458,0.049578,0.027398,-0.084037,-0.046836,-0.031608,0.05,0.005828,-0.48076,-0.085535,0.016622,-264.014729,0.226877,62.558018
0.4784,0.048968,0.026971,-0.084807,-0.047104,-0.031463,0.05,0.005828,-0.48076,-0.085535,0.016622,-264.014729,0.226877,62.558018
0.498,0.049515,0.027463,-0.084733,-0.046507,-0.031022,0.05,0.005767,-0.481196,-0.084807,0.020453,-264.014735,0.301255,62.558008
0.5179,0.04972,0.027157,-0.084817,-0.047013,-0.031555,0.05,0.005804,-0.481165,-0.084802,0.020453,-264.014735,0.301255,62.558008
0.5379,0.049086,0.027465,-0.085238,-0.04724,-0.031272,0.05,0.006512,-0.48101,-0.084816,0.019653,-264.014763,0.376234,62.557962
0.5581,0.049631,0.027296,-0.085266,-0.046569,-0.031544,0.05,0.006032,-0.480825,-0.085055,0.019653,-264.014763,0.376234,62.557962
0.5783,0.049117,0.027467,-0.085173,-0.047126,-0.031423,0.05,0.006032,-0.480825,-0.085055,0.019653,-264.014763,0.376234,62.557962
0.5986,0.049112,0.027677,-0.084687,-0.046602,-0.031546,0.05,0.005712,-0.480688,-0.085164,0.021647,-264.014886,0.451248,62.557757
0.6182,0.049152,0.02726,-0.085748,-0.046595,-0.031732,0.05,0.005729,-0.480675,-0.085132,0.021647,-264.014886,0.451248,62.557757
0.6385,0.049349,0.027466,-0.08483,-0.046637,-0.03137,0.05,0.005416,-0.480881,-0.085717,0.018793,-264.015372,0.526241,62.556956
0.6581,0.049187,0.027224,-0.086543,-0.046845,-0.031549,0.05,0.005817,-0.48078,-0.085211,0.018793,-264.015372,0.526241,62.556956
0.6786,0.049358,0.026726,-0.084796,-0.04665,-0.031374,0.05,0.005817,-0.48078,-0.085211,0.018793,-264.015372,0.526241,62.556956
0.6981,0.048848,0.027452,-0.0857,-0.046917,-0.03081,0.05,0.00597,-0.481502,-0.084677,0.025638,-264.016674,0.601251,62.554783
0.718,0.049239,0.026879,-0.085002,-0.046319,-0.031532,0.05,0.005915,-0.481451,-0.084739,0.025638,-264.016674,0.601251,62.554783
0.7379,0.048196,0.027249,-0.085786,-0.046779,-0.030963,0.05,0.005589,-0.481394,-0.084775,0.017928,-264.020052,0.676259,62.55011
0.7579,0.04853,0.02698,-0.085499,-0.045684,-0.031279,0.05,0.004928,-0.481115,-0.085318,0.017928,-264.020052,0.676259,62.55011
0.7781,0.048482,0.027046,-0.08341,-0.046048,-0.031026,0.05,0.004928,-0.481115,-0.085318,0.017928,-264.020052,0.676259,62.55011
0.7983,0.047725,0.026494,-0.084597,-0.04606,-0.030991,0.05,0.005293,-0.48143,-0.082935,0.021473,-264.02593,0.751248,62.542937
0.8181,0.047499,0.02632,-0.08524,-0.045316,-0.030432,0.05,0.005232,-0.481453,-0.083031,0.021473,-264.02593,0.751248,62.542937
0.8383,0.045641,0.026941,-0.083476,-0.045086,-0.030269,0.05,0.00333,-0.482114,-0.084683,0.0106,-264.034346,0.826247,62.53322
0.8584,0.046142,0.026198,-0.084047,-0.043236,-0.030653,0.05,0.003113,-0.481673,-0.08392,0.0106,-264.034346,0.826247,62.53322
0.8782,0.046148,0.02666,-0.083747,-0.04378,-0.029979,0.05,0.003113,-0.481673,-0.08392,0.0106,-264.034346,0.826247,62.53322
0.8986,0.04435,0.026513,-0.083423,-0.043756,-0.030426,0.05,0.002323,-0.482036,-0.082796,-0.002338,-264.045185,0.901596,62.521091
0.9185,0.044347,0.025583,-0.082455,-0.041987,-0.030116,0.05,0.002266,-0.482028,-0.082812,-0.002338,-264.045185,0.901596,62.521091
0.9382,0.042363,0.025381,-0.082002,-0.04209,-0.029148,0.05,0.001238,-0.483162,-0.0815,-0.012761,-264.058611,0.944515,62.506366
0.958,0.042068,0.02522,-0.081464,-0.040142,-0.028766,0.05,0.000725,-0.483075,-0.081668,-0.012761,-264.058611,0.944515,62.506366
0.9785,0.04255,0.025423,-0.081767,-0.039876,-0.02856,0.05,0.000725,-0.483075,-0.081668,-0.012761,-264.058611,0.944515,62.506366
0.9985,0.039849,0.02497,-0.079554,-0.040331,-0.028813,0.05,-0.000725,-0.483591,-0.080349,-0.010039,-264.07444,0.965297,62.489246
1.0183,0.040102,0.02469,-0.079594,-0.037738,-0.028058,0.05,-0.000763,-0.483598,-0.080261,-0.010039,-264.07444,0.965297,62.489246
1.0379,0.037001,0.023938,-0.077638,-0.038012,-0.0278,0.05,-0.001787,-0.484344,-0.078241,-0.049562,-264.089981,0.977212,62.469572
1.0589,0.036907,0.023905,-0.077941,-0.035033,-0.026736,0.05,-0.002391,-0.484529,-0.077728,-0.049562,-264.089981,0.977212,62.469572
1.0782,0.037414,0.02401,-0.075599,-0.034933,-0.026706,0.05,-0.002391,-0.484529,-0.077728,-0.049562,-264.089981,0.977212,62.469572
1.098,0.034541,0.023207,-0.076706,-0.035494,-0.026767,0.05,-0.002819,-0.485483,-0.073644,-0.065608,-264.104937,0.998616,62.447399
1.118,0.034972,0.023136,-0.075124,-0.032661,-0.025786,0.05,-0.002976,-0.485494,-0.073797,-0.065608,-264.104937,0.998616,62.447399
1.1379,0.031713,0.021974,-0.073157,-0.033137,-0.025696,0.05,-0.004642,-0.486276,-0.073339,-0.109242,-264.118444,1.02287,62.422726
1.1586,0.031591,0.022104,-0.07531,-0.030022,-0.024233,0.05,-0.005334,-0.486602,-0.07301,-0.109242,-264.118444,1.02287,62.422726
1.1789,0.031808,0.022043,-0.075532,-0.029839,-0.024419,0.05,-0.005334,-0.486602,-0.07301,-0.109242,-264.118444,1.02287,62.422726
1.1981,0.02851,0.020396,-0.071432,-0.030054,-0.024381,0.05,-0.008312,-0.487608,-0.07316,-0.144468,-264.131282,1.045305,62.3974
1.2191,0.028731,0.021228,-0.071379,-0.026982,-0.022379,0.05,-0.008325,-0.487676,-0.072999,-0.144468,-264.131282,1.045305,62.3974
1.2382,0.02589,0.020554,-0.068203,-0.027144,-0.023223,0.05,-0.00878,-0.488278,-0.069571,-0.202262,-264.142686,1.073376,62.373987
1.258,0.026212,0.019818,-0.070074,-0.024429,-0.02227,0.05,-0.008974,-0.488371,-0.068565,-0.202262,-264.142686,1.073376,62.373987
1.2779,0.02614,0.019904,-0.069515,-0.02476,-0.021605,0.05,-0.008974,-0.488371,-0.068565,-0.202262,-264.142686,1.073376,62.373987
1.2982,0.023997,0.019568,-0.067649,-0.024694,-0.021672,0.05,-0.010486,-0.489736,-0.067424,-0.277264,-264.152472,1.099267,62.353366
1.3185,0.02354,0.019493,-0.066829,-0.022619,-0.021146,0.05,-0.010519,-0.489726,-0.067383,-0.277264,-264.152472,1.099267,62.353366
1.3381,0.021353,0.018509,-0.06433,-0.022186,-0.021021,0.05,-0.011438,-0.490071,-0.065068,-0.346239,-264.162116,1.127459,62.332218
1.3581,0.021859,0.018436,-0.06404,-0.020119,-0.019843,0.05,-0.011552,-0.490371,-0.064419,-0.346239,-264.162116,1.127459,62.332218
1.3783,0.021311,0.018568,-0.0656,-0.020634,-0.019797,0.05,-0.011552,-0.490371,-0.064419,-0.346239,-264.162116,1.127459,62.332218
1.3987,0.019138,0.017687,-0.062069,-0.020048,-0.019925,0.05,-0.013224,-0.49124,-0.063296,-0.393551,-264.171387,1.158262,62.310862
1.4191,0.019074,0.017432,-0.062891,-0.018004,-0.01884,0.05,-0.013204,-0.491269,-0.063158,-0.393551,-264.171387,1.158262,62.310862
1.4385,0.016869,0.016481,-0.059397,-0.017941,-0.018596,0.05,-0.01374,-0.492206,-0.061161,-0.468246,-264.179572,1.181753,62.291721
1.4583,0.016988,0.016855,-0.061349,-0.015861,-0.017453,0.05,-0.013647,-0.492511,-0.059984,-0.468246,-264.179572,1.181753,62.291721
1.4783,0.017198,0.017169,-0.061355,-0.015922,-0.017865,0.05,-0.013647,-0.492511,-0.059984,-0.468246,-264.179572,1.181753,62.291721
1.4986,0.015321,0.016348,-0.057984,-0.016113,-0.018191,0.05,-0.014839,-0.492585,-0.059393,-0.543278,-264.186521,1.221163,62.274711
1.5181,0.014925,0.016158,-0.057403,-0.014348,-0.017208,0.05,-0.014824,-0.49261,-0.059284,-0.543278,-264.186521,1.221163,62.274711
1.538,0.013912,0.01551,-0.057529,-0.013973,-0.016988,0.05,-0.014837,-0.493507,-0.055969,-0.61825,-264.192653,1.252993,62.259357
1.558,0.013546,0.01544,-0.057247,-0.012997,-0.016284,0.05,-0.015227,-0.49365,-0.056673,-0.61825,-264.192653,1.252993,62.259357
1.578,0.013459,0.015717,-0.054722,-0.01264,-0.01619,0.05,-0.015227,-0.49365,-0.056673,-0.61825,-264.192653,1.252993,62.259357
1.5984,0.011842,0.01456,-0.055411,-0.012579,-0.01643,0.05,-0.015008,-0.494134,-0.052916,-0.693238,-264.198552,1.278877,62.244338
1.6184,0.012027,0.014805,-0.055126,-0.011017,-0.015194,0.05,-0.015121,-0.494187,-0.053043,-0.693238,-264.198552,1.278877,62.244338
1.638,0.01047,0.014381,-0.053673,-0.011193,-0.015445,0.05,-0.016438,-0.494835,-0.053851,-0.76824,-264.203678,1.306615,62.231361
1.6585,0.011077,0.014865,-0.053764,-0.009683,-0.014922,0.05,-0.01674,-0.494916,-0.053589,-0.76824,-264.203678,1.306615,62.231361
1.6781,0.010856,0.014322,-0.053155,-0.010263,-0.015439,0.05,-0.01674,-0.494916,-0.053589,-0.76824,-264.203678,1.306615,62.231361
1.6978,0.009709,0.014105,-0.05173,-0.01008,-0.014879,0.05,-0.016599,-0.49539,-0.051757,-0.84324,-264.208113,1.334392,62.220318
1.7181,0.009464,0.014192,-0.052846,-0.008967,-0.014588,0.05,-0.016613,-0.495389,-0.051718,-0.84324,-264.208113,1.334392,62.220318
1.738,0.00819,0.01343,-0.050303,-0.008701,-0.014672,0.05,-0.017802,-0.495505,-0.051454,-0.91824,-264.213642,1.351183,62.206776
1.7587,0.008016,0.013528,-0.049499,-0.007504,-0.013825,0.05,-0.017644,-0.495796,-0.050621,-0.91824,-264.213642,1.351183,62.206776
1.7783,0.008185,0.013712,-0.049534,-0.007336,-0.013908,0.049499,-0.017644,-0.495796,-0.050621,-0.91824,-264.213642,1.351183,62.206776
1.7979,0.007102,0.01316,-0.047933,-0.007496,-0.0141,0.049534,-0.017426,-0.496172,-0.047787,-0.993236,-264.218928,1.374644,62.193483
1.8185,0.006789,0.013072,-0.049255,-0.006464,-0.013485,0.047933,-0.017429,-0.496188,-0.047757,-0.993236,-264.218928,1.374644,62.193483
1.8379,0.005876,0.012612,-0.046752,-0.006137,-0.013391,0.049255,-0.018544,-0.496666,-0.047991,-1.068239,-264.223713,1.406089,62.18152
1.8578,0.006205,0.0128,-0.046862,-0.005281,-0.012873,0.046752,-0.01824,-0.496805,-0.047126,-1.068239,-264.223713,1.406089,62.18152
1.8783,0.005985,0.012763,-0.045585,-0.005599,-0.013076,0.046862,-0.01824,-0.496805,-0.047126,-1.068239,-264.223713,1.406089,62.18152
1.8979,0.00471,0.012327,-0.043352,-0.005397,-0.013023,0.045585,-0.017545,-0.497231,-0.043706,-1.143237,-264.229234,1.420775,62.167525
1.9178,0.0045,0.012299,-0.043273,-0.004171,-0.012519,0.043352,-0.017542,-0.497242,-0.043634,-1.143237,-264.229234,1.420775,62.167525
1.9383,0.003173,0.011915,-0.04165,-0.003964,-0.012482,0.043273,-0.017776,-0.497667,-0.041656,-1.218236,-264.235144,1.437321,62.152476
1.958,0.003078,0.011773,-0.043103,-0.002674,-0.012037,0.04165,-0.017966,-0.49771,-0.041446,-1.218236,-264.235144,1.437321,62.152476
1.9783,0.003235,0.011438,-0.042579,-0.002568,-0.011895,0.043103,-0.017966,-0.49771,-0.041446,-1.218236,-264.235144,1.437321,62.152476
1.998,0.001757,0.011388,-0.039855,-0.002745,-0.011565,0.042579,-0.018685,-0.498658,-0.040619,-1.280427,-264.240558,1.464244,62.1379
2.0185,0.00184,0.01119,-0.040035,-0.001302,-0.011449,0.039855,-0.018683,-0.498642,-0.040517,-1.280427,-264.240558,1.464244,62.1379
2.0383,0.001103,0.010674,-0.037165,-0.00139,-0.011255,0.040035,-0.018674,-0.498763,-0.038717,-1.355437,-264.245196,1.503718,62.125781
2.0583,0.000726,0.010546,-0.039252,-0.000705,-0.010707,0.037165,-0.018218,-0.498929,-0.037671,-1.355437,-264.245196,1.503718,62.125781
2.0782,0.000762,0.011018,-0.038007,-0.000312,-0.010566,0.039252,-0.018218,-0.498929,-0.037671,-1.355437,-264.245196,1.503718,62.125781
2.0982,-0.0002,0.010134,-0.038691,-0.000343,-0.011039,0.038007,-0.018694,-0.499056,-0.036462,-1.430435,-264.24933,1.534434,62.114355
2.1183,0.00011,0.0103,-0.037615,0.000592,-0.010119,0.038691,-0.018779,-0.499096,-0.036572,-1.430435,-264.24933,1.534434,62.114355
2.1381,-0.000575,0.009977,-0.035343,0.000277,-0.010297,0.037615,-0.019099,-0.499662,-0.036415,-1.505436,-264.253583,1.561775,62.1034
2.1581,-0.000612,0.00991,-0.035401,0.000277,-0.010297,0.037615,-0.018816,-0.499727,-0.035651,-1.505436,-264.253583,1.561775,62.1034
2.1784,-0.000899,0.01017,-0.0363,1e-05,-0.0001,0.0,-0.018816,-0.499727,-0.035651,-1.505436,-264.253583,1.561775,62.1034
2.1979,-0.001573,0.009201,-0.033947,1e-05,-0.0001,0.0,-0.019408,-0.499898,-0.034753,-1.580432,-264.258002,1.588322,62.09237
2.2179,-0.00163,0.009595,-0.03363,1e-05,-0.0001,0.0,-0.01938,-0.49994,-0.034677,-1.580432,-264.258002,1.588322,62.09237
2.238,-0.001799,0.009323,-0.033857,1e-05,-0.0001,0.0,-0.018775,-0.500168,-0.033551,-1.50543,-264.257972,1.663324,62.091341
2.258,-0.001709,0.009064,-0.035038,1e-05,-0.0001,0.0,-0.018938,-0.500298,-0.033715,-1.50543,-264.257972,1.663324,62.091341
2.2784,-0.001807,0.009323,-0.034661,1e-05,-0.0001,0.0,-0.018938,-0.500298,-0.033715,-1.50543,-264.257972,1.663324,62.091341
2.2983,-0.001818,0.009519,-0.032862,1e-05,-0.0001,0.0,-0.019481,-0.500376,-0.034661,-1.473746,-264.257933,1.667846,62.091301
2.3179,-0.001529,0.009251,-0.034641,1e-05,-0.0001,0.0,-0.019417,-0.500364,-0.034535,-1.473746,-264.257933,1.667846,62.091301
2.3385,-0.001346,0.009173,-0.032583,1e-05,-0.0001,0.0,-0.019192,-0.500447,-0.034641,-1.473746,-264.257893,1.667846,62.091261
2.3586,-0.001637,0.009623,-0.033397,1e-05,-0.0001,0.0,-0.018492,-0.500509,-0.03347,-1.473746,-264.257893,1.667846,62.091261
2.378,-0.001522,0.009389,-0.035884,0.0,-1e-06,4e-06,-0.018492,-0.500509,-0.03347,-1.473746,-264.257893,1.667846,62.091261
2.3985,-0.001401,0.009279,-0.034507,0.000143,-0.001466,0.00525,-0.019819,-0.500288,-0.035884,-1.473746,-264.257853,1.667846,62.091221
2.4186,-0.001698,0.009276,-0.034951,0.000275,-0.002822,0.010109,-0.01976,-0.500297,-0.035785,-1.473746,-264.257853,1.667846,62.091221
2.4382,-0.001561,0.009007,-0.033466,0.000401,-0.00412,0.01476,-0.019519,-0.500412,-0.034951,-1.54878,-264.257853,1.601325,62.091221
2.4583,-0.0015,0.009358,-0.034309,0.000523,-0.005367,0.019229,-0.019017,-0.500578,-0.034117,-1.54878,-264.257853,1.601325,62.091221
2.4781,-0.001399,0.009248,-0.034283,0.000632,-0.006493,0.02326,-0.019017,-0.500578,-0.034117,-1.54878,-264.257853,1.601325,62.091221
2.4978,-0.001604,0.009116,-0.034441,0.000736,-0.007564,0.027098,-0.018874,-0.500536,-0.033921,-1.623774,-264.258985,1.601325,62.08872
2.5184,-0.001851,0.009376,-0.032036,0.000834,-0.008562,0.030673,-0.018893,-0.500541,-0.033946,-1.623774,-264.258985,1.601325,62.08872
2.5382,-0.002268,0.00925,-0.031285,0.000924,-0.009489,0.033995,-0.01817,-0.500457,-0.0314,-1.652565,-264.262039,1.601325,62.083719
2.5581,-0.001939,0.009184,-0.031309,0.001007,-0.010339,0.037037,-0.018197,-0.500494,-0.031254,-1.652565,-264.262039,1.601325,62.083719
2.578,-0.001976,0.009394,-0.03196,0.001082,-0.011119,0.039832,-0.018197,-0.500494,-0.031254,-1.652565,-264.262039,1.601325,62.083719
2.5982,-0.002397,0.008853,-0.031416,0.001151,-0.011822,0.042351,-0.018245,-0.500555,-0.030809,-1.652565,-264.266122,1.601325,62.076219
2.6181,-0.002654,0.008851,-0.032328,0.001212,-0.012451,0.044605,-0.018256,-0.500584,-0.030821,-1.652565,-264.266122,1.601325,62.076219
2.6382,-0.002868,0.008632,-0.03085,0.001266,-0.013007,0.046598,-0.01911,-0.501111,-0.031119,-1.652565,-264.271423,1.601325,62.066219
2.6581,-0.003795,0.009117,-0.030167,0.001313,-0.013488,0.04832,-0.018816,-0.501148,-0.030813,-1.652565,-264.271423,1.601325,62.066219
2.6781,-0.00346,0.009148,-0.029271,0.001353,-0.013897,0.049784,-0.018816,-0.501148,-0.030813,-1.652565,-264.271423,1.601325,62.066219
2.6978,-0.00433,0.008483,-0.027943,0.001385,-0.01423,0.050979,-0.018345,-0.501034,-0.02744,-1.652565,-264.27736,1.601325,62.053718
2.7179,-0.004355,0.008223,-0.027763,0.001411,-0.01449,0.051911,-0.018361,-0.501065,-0.027426,-1.652565,-264.27736,1.601325,62.053718
2.7379,-0.005663,0.008038,-0.027436,0.001429,-0.014675,0.052571,-0.018475,-0.501987,-0.026056,-1.652565,-264.283985,1.601325,62.038719
2.7579,-0.005641,0.008075,-0.025286,0.001439,-0.014786,0.052969,-0.01914,-0.501915,-0.026624,-1.652565,-264.283985,1.601325,62.038719
2.7779,-0.005381,0.007723,-0.026564,0.001443,-0.014823,0.053102,-0.01914,-0.501915,-0.026624,-1.652565,-264.283985,1.601325,62.038719
2.7979,-0.006861,0.007547,-0.023518,0.001439,-0.014786,0.052969,-0.018877,-0.502743,-0.024139,-1.652565,-264.290894,1.601325,62.021218
2.8179,-0.006589,0.007441,-0.023164,0.001429,-0.014675,0.052571,-0.018874,-0.50273,-0.024031,-1.652565,-264.290894,1.601325,62.021218
2.8379,-0.007991,0.006596,-0.018277,0.001411,-0.014489,0.051905,-0.018358,-0.502996,-0.021113,-1.652565,-264.297961,1.601325,62.002308
2.8581,-0.007717,0.006831,-0.020377,0.001385,-0.014228,0.050972,-0.017757,-0.503252,-0.019239,-1.652565,-264.297961,1.601325,62.002308
2.878,-0.008559,0.006543,-0.019071,0.001353,-0.013896,0.049783,-0.017757,-0.503252,-0.019239,-1.652565,-264.297961,1.601325,62.002308
2.8986,-0.009241,0.005633,-0.018336,0.001313,-0.013489,0.048323,-0.018228,-0.50408,-0.016511,-1.652565,-264.304957,1.601325,61.983587
2.9183,-0.009191,0.006001,-0.017386,0.001266,-0.013007,0.046596,-0.01825,-0.504111,-0.016565,-1.652565,-264.304957,1.601325,61.983587
2.9385,-0.010621,0.0054,-0.014199,0.001212,-0.012451,0.044603,-0.018013,-0.50446,-0.01546,-1.652565,-264.311594,1.601325,61.965827
2.9583,-0.010359,0.00534,-0.015019,0.001151,-0.011822,0.042351,-0.017922,-0.504579,-0.014497,-1.652565,-264.311594,1.601325,61.965827
2.9784,-0.010298,0.005274,-0.013756,0.001082,-0.011117,0.039825,-0.017922,-0.504579,-0.014497,-1.652565,-264.311594,1.601325,61.965827
2.9983,-0.011587,0.004263,-0.013236,0.001006,-0.010336,0.037027,-0.01726,-0.50531,-0.011494,-1.652565,-264.317793,1.601325,61.94924
3.0179,-0.011634,0.00439,-0.013565,0.000924,-0.009486,0.033985,-0.017335,-0.505355,-0.011556,-1.652565,-264.317793,1.601325,61.94924
3.0378,-0.012637,0.00394,-0.011388,0.000833,-0.008557,0.030653,-0.018516,-0.505992,-0.012028,-1.652565,-264.323106,1.601325,61.935024
3.0578,-0.012393,0.004165,-0.010401,0.000736,-0.007557,0.027071,-0.01847,-0.506067,-0.011464,-1.652565,-264.323106,1.601325,61.935024
3.0787,-0.012463,0.004154,-0.010774,0.000631,-0.006485,0.023232,-0.01847,-0.506067,-0.011464,-1.652565,-264.323106,1.601325,61.935024
3.0985,-0.013222,0.003412,-0.010676,0.000519,-0.005335,0.019112,-0.017917,-0.506277,-0.009127,-1.652565,-264.327612,1.601325,61.922966
3.1179,-0.013113,0.003379,-0.007939,0.0004,-0.004113,0.014734,-0.017966,-0.506307,-0.009188,-1.652565,-264.327612,1.601325,61.922966
3.1381,-0.013629,0.003171,-0.010057,0.000273,-0.002806,0.010052,-0.017139,-0.506856,-0.007041,-1.652565,-264.330705,1.601325,61.914691
3.1581,-0.013679,0.002896,-0.008055,0.000141,-0.001445,0.005178,-0.018057,-0.506858,-0.008643,-1.652565,-264.330705,1.601325,61.914691
3.178,-0.013839,0.003401,-0.010351,0.0,0.0,0.0,-0.018057,-0.506858,-0.008643,-1.652565,-264.330705,1.601325,61.914691
3.1983,-0.014304,0.003007,-0.007871,0.0,0.0,0.0,-0.019101,-0.506772,-0.009635,-1.652565,-264.332675,1.601325,61.909419
3.2181,-0.014226,0.002876,-0.00747,0.0,0.0,0.0,-0.019036,-0.506795,-0.009469,-1.652565,-264.332675,1.601325,61.909419
3.2381,-0.014167,0.003275,-0.007886,0.0,0.0,0.0,-0.018036,-0.507109,-0.00747,-1.652565,-264.332675,1.601325,61.909419
3.2582,-0.014259,0.002815,-0.008411,0.0,0.0,0.0,-0.018123,-0.506881,-0.007708,-1.652565,-264.332675,1.601325,61.909419
3.2782,-0.014353,0.003405,-0.008891,0.0,0.0,0.0,-0.018123,-0.506881,-0.007708,-1.652565,-264.332675,1.601325,61.909419
3.2978,-0.014481,0.003469,-0.007122,0.0,0.0,0.0,-0.018887,-0.506575,-0.008891,-1.652565,-264.332675,1.601325,61.909419
3.3179,-0.014602,0.002644,-0.006012,0.0,0.0,0.0,-0.018822,-0.506571,-0.008743,-1.652565,-264.332675,1.601325,61.909419
3.3379,-0.01449,0.002937,-0.00679,0.0,0.0,0.0,-0.017668,-0.507347,-0.006012,-1.652565,-264.332675,1.601325,61.909419
3.3581,-0.014448,0.003075,-0.007974,0.0,0.0,0.0,-0.017831,-0.507178,-0.006457,-1.652565,-264.332675,1.601325,61.909419
3.378,-0.014438,0.003026,-0.006907,0.0,0.0,0.0,-0.017831,-0.507178,-0.006457,-1.652565,-264.332675,1.601325,61.909419
3.398,-0.014609,0.002959,-0.007907,9.8e-05,-2e-05,0.0,-0.017961,-0.506962,-0.006907,-1.652565,-264.332675,1.601325,61.909419
3.4184,-0.014225,0.003138,-0.008291,9.8e-05,-2e-05,0.0,-0.018009,-0.506967,-0.006977,-1.652565,-264.332675,1.601325,61.909419
3.4385,-0.014353,0.003118,-0.00725,9.8e-05,-2e-05,0.0,-0.018453,-0.506844,-0.008291,-1.652565,-264.332675,1.601325,61.909419
3.4579,-0.014011,0.002846,-0.007169,9.8e-05,-2e-05,0.0,-0.018227,-0.506858,-0.007707,-1.652565,-264.332675,1.601325,61.909419
3.4782,-0.014273,0.003009,-0.007587,9.8e-05,-2e-05,0.0,-0.018227,-0.506858,-0.007707,-1.652565,-264.332675,1.601325,61.909419
3.4981,-0.014126,0.003016,-0.008423,9.8e-05,-2e-05,0.0,-0.018142,-0.506977,-0.007587,-1.577421,-264.332675,1.526181,61.909419
3.5182,-0.014481,0.00308,-0.008359,9.8e-05,-2e-05,0.0,-0.01816,-0.506976,-0.007641,-1.577421,-264.332675,1.526181,61.909419
3.538,-0.014271,0.003027,-0.00644,9.8e-05,-2e-05,0.0,-0.018744,-0.506903,-0.008359,-1.502575,-264.332675,1.451335,61.909419
3.559,-0.014457,0.003001,-0.006801,9.8e-05,-2e-05,0.0,-0.018067,-0.506937,-0.007267,-1.502575,-264.332675,1.451335,61.909419
3.578,-0.014381,0.003147,-0.00875,9.8e-05,-2e-05,0.0,-0.018067,-0.506937,-0.007267,-1.502575,-264.332675,1.451335,61.909419
3.5982,-0.014293,0.002978,-0.007545,1.2e-05,-2e-06,6e-06,-0.018844,-0.506833,-0.00875,-1.427547,-264.332675,1.376307,61.909419
3.618,-0.014381,0.003008,-0.008319,0.002113,-0.000428,0.001009,-0.018795,-0.506845,-0.008666,-1.427547,-264.332675,1.376307,61.909419
3.638,-0.014519,0.002862,-0.006453,0.004122,-0.000834,0.001969,-0.018624,-0.506975,-0.008319,-1.352527,-264.332675,1.301288,61.909419
3.6582,-0.014811,0.003033,-0.008262,0.006024,-0.001219,0.002878,-0.018161,-0.507062,-0.007257,-1.352527,-264.332675,1.301288,61.909419
3.678,-0.01429,0.002885,-0.007944,0.007806,-0.00158,0.003729,-0.018161,-0.507062,-0.007257,-1.352527,-264.332675,1.301288,61.909419
3.6981,-0.014201,0.002883,-0.007852,0.009501,-0.001923,0.004539,-0.018341,-0.507099,-0.007944,-1.27755,-264.332675,1.22631,61.909419
3.7184,-0.014457,0.002873,-0.004785,0.01106,-0.002238,0.005283,-0.018332,-0.507099,-0.007937,-1.27755,-264.332675,1.22631,61.909419
3.7381,-0.013879,0.002863,-0.00765,0.012526,-0.002535,0.005983,-0.016897,-0.507122,-0.004785,-1.202444,-264.332675,1.151204,61.909419
3.758,-0.014372,0.002965,-0.007341,0.013878,-0.002808,0.00663,-0.017398,-0.507122,-0.006411,-1.202444,-264.332675,1.151204,61.909419
3.7782,-0.014258,0.003013,-0.005638,0.015127,-0.003061,0.007226,-0.017398,-0.507122,-0.006411,-1.202444,-264.332675,1.151204,61.909419
3.798,-0.014281,0.002912,-0.005993,0.016266,-0.003291,0.00777,-0.017134,-0.506979,-0.005638,-1.127571,-264.332675,1.076331,61.909419
3.8192,-0.014167,0.002452,-0.007713,0.017296,-0.0035,0.008262,-0.017148,-0.506986,-0.005663,-1.127571,-264.332675,1.076331,61.909419
3.8379,-0.014262,0.002697,-0.005331,0.018218,-0.003686,0.008703,-0.018101,-0.507533,-0.007713,-1.052533,-264.332675,1.001294,61.909419
3.8579,-0.014528,0.003131,-0.007853,0.019032,-0.003851,0.009091,-0.017476,-0.5074,-0.006385,-1.052533,-264.332675,1.001294,61.909419
3.8781,-0.014247,0.003251,-0.007442,0.019737,-0.003994,0.009428,-0.017476,-0.5074,-0.006385,-1.052533,-264.332675,1.001294,61.909419
3.8979,-0.014234,0.003173,-0.005887,0.020333,-0.004114,0.009713,-0.018043,-0.506735,-0.007442,-0.977566,-264.332675,0.926326,61.909419
3.9184,-0.014461,0.002787,-0.008402,0.020821,-0.004213,0.009946,-0.017987,-0.506741,-0.007335,-0.977566,-264.332675,0.926326,61.909419
3.9385,-0.01459,0.003007,-0.007823,0.0212,-0.00429,0.010127,-0.018746,-0.507195,-0.008402,-0.902546,-264.332675,0.851306,61.909419
3.9579,-0.014231,0.002973,-0.008344,0.021472,-0.004345,0.010257,-0.018652,-0.507072,-0.008075,-0.902546,-264.332675,0.851306,61.909419
3.9779,-0.014037,0.003303,-0.007401,0.021634,-0.004378,0.010334,-0.018652,-0.507072,-0.008075,-0.902546,-264.332675,0.851306,61.909419
3.9978,-0.014803,0.002841,-0.006879,0.021688,-0.004389,0.01036,-0.017811,-0.506683,-0.007401,-0.827572,-264.332675,0.776332,61.909419
4.0179,-0.014503,0.003225,-0.007968,0.021633,-0.004378,0.010334,-0.017846,-0.506716,-0.007365,-0.827572,-264.332675,0.776332,61.909419
4.0382,-0.014288,0.002991,-0.007408,0.02147,-0.004345,0.010256,-0.018567,-0.506758,-0.007968,-0.752574,-264.332675,0.701335,61.909419
4.0582,-0.014047,0.003308,-0.007714,0.021199,-0.00429,0.010127,-0.018281,-0.506894,-0.007648,-0.752574,-264.332675,0.701335,61.909419
4.0779,-0.014125,0.00274,-0.006859,0.020821,-0.004213,0.009946,-0.018281,-0.506894,-0.007648,-0.752574,-264.332675,0.701335,61.909419
4.0988,-0.014468,0.003224,-0.006633,0.020333,-0.004114,0.009713,-0.017623,-0.507248,-0.006859,-0.677446,-264.332675,0.626206,61.909419
4.1183,-0.014579,0.002855,-0.007296,0.019725,-0.003991,0.009422,-0.017639,-0.507213,-0.006843,-0.677446,-264.332675,0.626206,61.909419
4.1381,-0.014099,0.002925,-0.006771,0.019031,-0.003851,0.009091,-0.0183,-0.507132,-0.007296,-0.602475,-264.332675,0.551235,61.909419
4.158,-0.014438,0.003276,-0.008189,0.018218,-0.003687,0.008703,-0.017876,-0.507093,-0.006998,-0.602475,-264.332675,0.551235,61.909419
4.1781,-0.014499,0.003265,-0.007443,0.017297,-0.0035,0.008263,-0.017876,-0.507093,-0.006998,-0.602475,-264.332675,0.551235,61.909419
4.1979,-0.014555,0.002828,-0.008888,0.016265,-0.003291,0.00777,-0.018295,-0.506721,-0.007443,-0.527571,-264.332675,0.476331,61.909419
4.2184,-0.014594,0.002763,-0.00814,0.015128,-0.003061,0.007226,-0.018348,-0.50675,-0.00754,-0.527571,-264.332675,0.476331,61.909419
4.2382,-0.013985,0.003123,-0.007404,0.013879,-0.002808,0.00663,-0.018745,-0.50722,-0.00814,-0.452573,-264.332675,0.401334,61.909419
4.258,-0.014467,0.003219,-0.007533,0.012527,-0.002535,0.005984,-0.018181,-0.507015,-0.007718,-0.452573,-264.332675,0.401334,61.909419
4.2781,-0.014151,0.003065,-0.008037,0.011063,-0.002239,0.005285,-0.018181,-0.507015,-0.007718,-0.452573,-264.332675,0.401334,61.909419
4.2983,-0.014192,0.003406,-0.008026,0.009489,-0.00192,0.004533,-0.01825,-0.506918,-0.008037,-0.377435,-264.332675,0.326195,61.909419
4.3185,-0.014392,0.003036,-0.005577,0.007809,-0.00158,0.00373,-0.018252,-0.506895,-0.008037,-0.377435,-264.332675,0.326195,61.909419
4.3384,-0.014424,0.003013,-0.007596,0.006019,-0.001218,0.002875,-0.017236,-0.506956,-0.005577,-0.302483,-264.332675,0.251243,61.909419
4.3578,-0.014404,0.002991,-0.007159,0.004109,-0.000832,0.001963,-0.017844,-0.506965,-0.006733,-0.302483,-264.332675,0.251243,61.909419
4.3788,-0.014659,0.003182,-0.007138,0.002085,-0.000422,0.000996,-0.017844,-0.506965,-0.006733,-0.302483,-264.332675,0.251243,61.909419
4.3986,-0.014066,0.002839,-0.007652,3e-06,-1e-06,1e-06,-0.0183,-0.506805,-0.007138,-0.22744,-264.332675,0.1762,61.909419
4.4185,-0.014028,0.003271,-0.006372,0.0,0.0,0.0,-0.018274,-0.506832,-0.007179,-0.22744,-264.332675,0.1762,61.909419
4.4385,-0.014463,0.003446,-0.005939,0.0,0.0,0.0,-0.017277,-0.506719,-0.006372,-0.152102,-264.332675,0.100862,61.909419
4.4581,-0.01404,0.003468,-0.008005,0.0,0.0,0.0,-0.017399,-0.506621,-0.006127,-0.152102,-264.332675,0.100862,61.909419
4.4781,-0.014257,0.003019,-0.007749,0.0,0.0,0.0,-0.017399,-0.506621,-0.006127,-0.152102,-264.332675,0.100862,61.909419
4.498,-0.014299,0.003286,-0.008361,0.0,0.0,0.0,-0.018209,-0.506966,-0.007749,-0.152102,-264.332675,0.100862,61.909419
4.5184,-0.014609,0.002723,-0.00674,0.0,0.0,0.0,-0.018237,-0.506945,-0.007797,-0.152102,-264.332675,0.100862,61.909419
4.538,-0.014446,0.003118,-0.007152,0.0,0.0,0.0,-0.018047,-0.507265,-0.00674,-0.152102,-264.332675,0.100862,61.909419
4.5581,-0.013925,0.002692,-0.006831,0.0,0.0,0.0,-0.018074,-0.507039,-0.006976,-0.152102,-264.332675,0.100862,61.909419
4.578,-0.014424,0.002725,-0.007175,0.0,0.0,0.0,-0.018074,-0.507039,-0.006976,-0.152102,-264.332675,0.100862,61.909419
4.5983,-0.014661,0.003195,-0.006324,0.0,0.0,0.0,-0.018083,-0.507262,-0.007175,-0.152102,-264.332675,0.100862,61.909419
4.6184,-0.014075,0.003088,-0.009243,9.8e-05,-2.1e-05,0.0,-0.018069,-0.507228,-0.007113,-0.152102,-264.332675,0.100862,61.909419
4.6384,-0.014401,0.002976,-0.008581,9.8e-05,-2.1e-05,0.0,-0.018789,-0.50689,-0.009243,-0.152102,-264.332675,0.100862,61.909419
4.6578,-0.014339,0.003245,-0.008113,9.8e-05,-2.1e-05,0.0,-0.018783,-0.506956,-0.008863,-0.152102,-264.332675,0.100862,61.909419
4.6781,-0.013957,0.003017,-0.008734,9.8e-05,-2.1e-05,0.0,-0.018783,-0.506956,-0.008863,-0.152102,-264.332675,0.100862,61.909419
4.6979,-0.014792,0.003005,-0.008279,9.8e-05,-2.1e-05,0.0,-0.01841,-0.506963,-0.008734,-0.208277,-264.332667,0.025828,61.909427
4.7184,-0.014312,0.00323,-0.007658,9.8e-05,-2.1e-05,0.0,-0.018452,-0.506964,-0.008703,-0.208277,-264.332667,0.025828,61.909427
4.7383,-0.01443,0.003166,-0.007932,9.8e-05,-2.1e-05,0.0,-0.018216,-0.506756,-0.007658,-0.208277,-264.33265,-0.049032,61.909443
4.7582,-0.014098,0.003051,-0.008422,9.8e-05,-2.1e-05,0.0,-0.018362,-0.50679,-0.007812,-0.208277,-264.33265,-0.049032,61.909443
4.7781,-0.014613,0.00298,-0.007826,9.8e-05,-2.1e-05,0.0,-0.018362,-0.50679,-0.007812,-0.208277,-264.33265,-0.049032,61.909443
4.7979,-0.014192,0.003018,-0.007035,9.8e-05,-2.1e-05,0.0,-0.018601,-0.507005,-0.007826,-0.208277,-264.332624,-0.12406,61.90947
4.8185,-0.014294,0.002729,-0.008719,9.8e-05,-2.1e-05,0.0,-0.018543,-0.507002,-0.00777,-0.208277,-264.332624,-0.12406,61.90947
4.8383,-0.014185,0.002699,-0.008127,0.002149,-0.000454,0.000926,-0.018737,-0.507252,-0.008719,-0.208277,-264.332588,-0.199048,61.909506
4.8582,-0.014249,0.00288,-0.007849,0.004181,-0.000884,0.001801,-0.018503,-0.507271,-0.008379,-0.208277,-264.332588,-0.199048,61.909506
4.878,-0.014435,0.003109,-0.007517,0.00611,-0.001291,0.002632,-0.018503,-0.507271,-0.008379,-0.208277,-264.332588,-0.199048,61.909506
4.8979,-0.014354,0.002862,-0.006348,0.00793,-0.001676,0.003416,-0.018264,-0.506878,-0.007517,-0.208277,-264.332548,-0.208277,61.909546
4.9186,-0.014509,0.003086,-0.006276,0.009632,-0.002036,0.00415,-0.018217,-0.506895,-0.007434,-0.208277,-264.332548,-0.208277,61.909546
4.9386,-0.014115,0.002657,-0.006641,0.011232,-0.002374,0.004839,-0.017677,-0.506911,-0.006272,-0.133394,-264.332211,-0.28316,61.909918
4.9585,-0.013932,0.003133,-0.006916,0.012715,-0.002687,0.005478,-0.017574,-0.507149,-0.006479,-0.133394,-264.332211,-0.28316,61.909918
4.9784,-0.014308,0.003242,-0.006797,0.014091,-0.002978,0.00607,-0.017574,-0.507149,-0.006479,-0.133394,-264.332211,-0.28316,61.909918
4.9979,-0.01402,0.002934,-0.008727,0.015362,-0.003247,0.006618,-0.017592,-0.506787,-0.006749,-0.058287,-264.330738,-0.358267,61.911546
5.0185,-0.014229,0.002945,-0.007632,0.016514,-0.00349,0.007114,-0.017652,-0.506807,-0.006892,-0.058287,-264.330738,-0.358267,61.911546
5.0381,-0.013535,0.002911,-0.006481,0.017568,-0.003713,0.007568,-0.017748,-0.507123,-0.007489,0.016681,-264.326764,-0.433235,61.915676
5.0586,-0.013665,0.003036,-0.00529,0.018502,-0.00391,0.007971,-0.017184,-0.507108,-0.006897,0.016681,-264.326764,-0.433235,61.915676
5.0786,-0.013633,0.002686,-0.007831,0.019323,-0.004084,0.008325,-0.017184,-0.507108,-0.006897,0.016681,-264.326764,-0.433235,61.915676
5.098,-0.013053,0.002493,-0.005899,0.020039,-0.004235,0.008633,-0.016872,-0.507456,-0.007515,0.051726,-264.3203,-0.443005,61.922295
5.1183,-0.012866,0.002772,-0.006749,0.020644,-0.004363,0.008894,-0.016796,-0.507463,-0.007395,0.051726,-264.3203,-0.443005,61.922295
5.1381,-0.012322,0.002204,-0.006837,0.021142,-0.004468,0.009108,-0.015562,-0.507379,-0.006427,0.051726,-264.312559,-0.443005,61.930852
5.1586,-0.01252,0.002481,-0.006967,0.021528,-0.00455,0.009274,-0.015608,-0.50763,-0.00662,0.051726,-264.312559,-0.443005,61.930852
5.1782,-0.012251,0.002495,-0.008121,0.021801,-0.004607,0.009392,-0.015608,-0.50763,-0.00662,0.051726,-264.312559,-0.443005,61.930852
5.1981,-0.01198,0.002292,-0.005795,0.021966,-0.004642,0.009463,-0.01539,-0.507708,-0.007688,0.051726,-264.304246,-0.443005,61.94004
5.2179,-0.011669,0.002271,-0.005266,0.022021,-0.004654,0.009487,-0.015322,-0.507714,-0.007521,0.051726,-264.304246,-0.443005,61.94004
5.2381,-0.010559,0.001664,-0.004822,0.021966,-0.004642,0.009463,-0.013518,-0.507903,-0.004905,0.051726,-264.295561,-0.443005,61.94964
5.2584,-0.010665,0.001991,-0.005477,0.0218,-0.004607,0.009392,-0.013128,-0.508168,-0.004812,0.051726,-264.295561,-0.443005,61.94964
5.2781,-0.010587,0.002445,-0.005973,0.021526,-0.004549,0.009273,-0.013128,-0.508168,-0.004812,0.051726,-264.295561,-0.443005,61.94964
5.2983,-0.009855,0.002486,-0.005919,0.02114,-0.004468,0.009107,-0.012561,-0.507779,-0.005511,0.051726,-264.286701,-0.443005,61.959434
5.3185,-0.009678,0.001705,-0.004565,0.020645,-0.004363,0.008894,-0.012554,-0.507766,-0.005528,0.051726,-264.286701,-0.443005,61.959434
5.3389,-0.009152,0.001359,-0.004418,0.02004,-0.004235,0.008633,-0.011181,-0.508467,-0.004209,0.051726,-264.278109,-0.443005,61.968931
5.3582,-0.008694,0.001717,-0.005426,0.019324,-0.004084,0.008325,-0.011204,-0.508587,-0.004283,0.051726,-264.278109,-0.443005,61.968931
5.3784,-0.008902,0.001693,-0.004395,0.018493,-0.003908,0.007967,-0.011204,-0.508587,-0.004283,0.051726,-264.278109,-0.443005,61.968931
5.3987,-0.008189,0.001354,-0.005364,0.017556,-0.00371,0.007563,-0.01014,-0.508518,-0.003962,0.051726,-264.2698,-0.443005,61.978116
5.419,-0.00817,0.000874,-0.005276,0.01651,-0.003489,0.007113,-0.010173,-0.508535,-0.004063,0.051726,-264.2698,-0.443005,61.978116
5.4385,-0.007668,0.001396,-0.004756,0.015361,-0.003246,0.006618,-0.010151,-0.509273,-0.00497,0.051726,-264.262436,-0.443005,61.986255
5.4579,-0.00734,0.001257,-0.003691,0.014092,-0.002978,0.006071,-0.010028,-0.508911,-0.00481,0.051726,-264.262436,-0.443005,61.986255
5.4781,-0.007749,0.001325,-0.003062,0.012716,-0.002687,0.005478,-0.010028,-0.508911,-0.00481,0.051726,-264.262436,-0.443005,61.986255
5.498,-0.006999,0.000657,-0.002685,0.011231,-0.002374,0.004839,-0.008508,-0.508845,-0.002716,0.051726,-264.255824,-0.443005,61.993564
5.518,-0.006676,0.000799,-0.004452,0.009632,-0.002036,0.00415,-0.008478,-0.508883,-0.002705,0.051726,-264.255824,-0.443005,61.993564
5.5381,-0.006416,0.000839,-0.002633,0.007924,-0.001675,0.003414,-0.008455,-0.509302,-0.00424,0.051726,-264.250695,-0.443005,61.999233
5.558,-0.006042,0.000517,-0.002218,0.006109,-0.001291,0.002632,-0.00799,-0.509233,-0.003283,0.051726,-264.250695,-0.443005,61.999233
5.5781,-0.006492,0.000608,-0.002894,0.004178,-0.000883,0.0018,-0.00799,-0.509233,-0.003283,0.051726,-264.250695,-0.443005,61.999233
5.5984,-0.005997,0.001085,-0.003012,0.002138,-0.000452,0.000921,-0.007502,-0.50949,-0.002693,0.051726,-264.246865,-0.443005,62.003468
5.6186,-0.005736,0.00065,-0.002869,0.0,0.0,0.0,-0.007492,-0.509455,-0.002709,0.051726,-264.246865,-0.443005,62.003468
5.638,-0.005913,0.000674,-0.003955,0.0,0.0,0.0,-0.007038,-0.509383,-0.0028,0.051726,-264.245191,-0.443005,62.005318
5.6583,-0.005779,0.000806,-0.00274,0.0,0.0,0.0,-0.007522,-0.509352,-0.003445,0.051726,-264.245191,-0.443005,62.005318
5.6782,-0.0059,0.000506,-0.004285,0.0,0.0,0.0,-0.007522,-0.509352,-0.003445,0.051726,-264.245191,-0.443005,62.005318
5.6983,-0.005957,0.000693,-0.002127,0.0,0.0,0.0,-0.008085,-0.509489,-0.004285,0.051726,-264.245191,-0.443005,62.005318
5.7181,-0.005766,0.000489,-0.002744,0.0,0.0,0.0,-0.008016,-0.509477,-0.004142,0.051726,-264.245191,-0.443005,62.005318
5.7383,-0.005636,0.000704,-0.002857,0.0,0.0,0.0,-0.007165,-0.509509,-0.002744,0.051726,-264.245191,-0.443005,62.005318
5.7583,-0.005839,0.000985,-0.003336,0.0,0.0,0.0,-0.007124,-0.509387,-0.002808,0.051726,-264.245191,-0.443005,62.005318
5.7779,-0.005765,0.000827,-0.00182,0.0,0.0,0.0,-0.007124,-0.509387,-0.002808,0.051726,-264.245191,-0.443005,62.005318
5.7979,-0.00606,0.000647,-0.004019,0.0,0.0,0.0,-0.006694,-0.509172,-0.00182,0.051726,-264.245191,-0.443005,62.005318
5.8182,-0.005854,0.000423,-0.003384,0.0,0.0,0.0,-0.006793,-0.509184,-0.001975,0.051726,-264.245191,-0.443005,62.005318
5.8379,-0.006048,0.000498,-0.002357,0.0,0.0,0.0,-0.00758,-0.509574,-0.003384,0.051726,-264.245191,-0.443005,62.005318
5.8579,-0.005758,0.000639,-0.002368,0.0001,-8e-06,0.0,-0.007392,-0.509532,-0.002798,0.051726,-264.245191,-0.443005,62.005318
5.8781,-0.006037,0.000706,-0.002275,0.0001,-8e-06,0.0,-0.007392,-0.509532,-0.002798,0.051726,-264.245191,-0.443005,62.005318
5.8979,-0.00594,0.000585,-0.002981,0.0001,-8e-06,0.0,-0.007197,-0.509293,-0.002275,0.051726,-264.245191,-0.443005,62.005318
5.9178,-0.006163,0.000599,-0.002445,0.0001,-8e-06,0.0,-0.007214,-0.509301,-0.00232,0.051726,-264.245191,-0.443005,62.005318
5.9381,-0.005998,0.00082,-0.002633,0.0001,-8e-06,0.0,-0.00741,-0.5094,-0.002445,-0.023268,-264.245187,-0.36801,62.005321
5.9579,-0.005651,0.000774,-0.003965,0.0001,-8e-06,0.0,-0.00737,-0.509273,-0.002553,-0.023268,-264.245187,-0.36801,62.005321
5.9782,-0.00536,0.000839,-0.001905,0.0001,-8e-06,0.0,-0.00737,-0.509273,-0.002553,-0.023268,-264.245187,-0.36801,62.005321
5.9983,-0.005542,0.000466,-0.003376,0.0001,-8e-06,0.0,-0.00633,-0.50916,-0.001905,-0.079818,-264.245178,-0.292664,62.005331
6.0184,-0.005624,0.000965,-0.003334,0.0001,-8e-06,0.0,-0.006375,-0.509178,-0.001975,-0.079818,-264.245178,-0.292664,62.005331
6.0378,-0.006035,0.000753,-0.001669,0.0001,-8e-06,0.0,-0.007323,-0.509033,-0.003334,-0.079818,-264.245158,-0.217996,62.00535
6.058,-0.005614,0.00093,-0.002352,0.0,-0.0,0.0,-0.007074,-0.509155,-0.002385,-0.079818,-264.245158,-0.217996,62.00535
6.0783,-0.006217,0.000781,-0.004076,0.000886,-7.1e-05,0.000345,-0.007074,-0.509155,-0.002385,-0.079818,-264.245158,-0.217996,62.00535
6.0981,-0.005702,0.000555,-0.003699,0.001726,-0.000138,0.000672,-0.008292,-0.509215,-0.004076,-0.079818,-264.245129,-0.142895,62.00538
6.1182,-0.005934,0.000917,-0.001973,0.002519,-0.000201,0.000981,-0.008247,-0.509229,-0.004052,-0.079818,-264.245129,-0.142895,62.00538
6.1378,-0.005919,0.000815,-0.003389,0.003268,-0.000261,0.001273,-0.006931,-0.509083,-0.001971,-0.00493,-264.245035,-0.217783,62.005477
6.1581,-0.005516,0.000522,-0.002625,0.003971,-0.000318,0.001547,-0.007334,-0.509139,-0.002771,-0.00493,-264.245035,-0.217783,62.005477
6.178,-0.005911,0.000886,-0.003519,0.004631,-0.00037,0.001804,-0.007334,-0.509139,-0.002771,-0.00493,-264.245035,-0.217783,62.005477
6.1983,-0.005735,0.000934,-0.003695,0.005241,-0.000419,0.002042,-0.007634,-0.509119,-0.003498,0.070194,-264.244447,-0.292906,62.006086
6.2184,-0.005431,0.00081,-0.002815,0.005808,-0.000465,0.002263,-0.007631,-0.509116,-0.003511,0.070194,-264.244447,-0.292906,62.006086
6.2385,-0.005287,0.000914,-0.00347,0.006331,-0.000506,0.002467,-0.006708,-0.509202,-0.002755,0.145077,-264.242783,-0.307817,62.007811
6.2579,-0.006055,0.000892,-0.00151,0.006806,-0.000544,0.002651,-0.00689,-0.509135,-0.003162,0.145077,-264.242783,-0.307817,62.007811
6.2779,-0.005623,0.000793,-0.002604,0.007239,-0.000579,0.00282,-0.00689,-0.509135,-0.003162,0.145077,-264.242783,-0.307817,62.007811
6.2984,-0.005658,0.000404,-0.002435,0.007623,-0.00061,0.00297,-0.00667,-0.509229,-0.002494,0.156653,-264.240445,-0.307817,62.010234
6.3184,-0.005342,0.000642,-0.001047,0.007963,-0.000637,0.003102,-0.006678,-0.509254,-0.002487,0.156653,-264.240445,-0.307817,62.010234
6.3381,-0.00502,0.000586,-0.002746,0.008258,-0.000661,0.003217,-0.005596,-0.509381,-0.000938,0.156653,-264.237514,-0.307817,62.013273
6.3585,-0.004999,0.000717,-0.003353,0.008507,-0.00068,0.003314,-0.006029,-0.509401,-0.001952,0.156653,-264.237514,-0.307817,62.013273
6.3779,-0.005135,0.000541,-0.003053,0.008711,-0.000697,0.003393,-0.006029,-0.509401,-0.001952,0.156653,-264.237514,-0.307817,62.013273
6.398,-0.004429,0.000679,-0.002647,0.008869,-0.000709,0.003455,-0.006305,-0.509489,-0.002903,0.156653,-264.234289,-0.307817,62.016615
6.4179,-0.005117,0.000631,-0.001856,0.008983,-0.000719,0.0035,-0.006258,-0.509478,-0.002881,0.156653,-264.234289,-0.307817,62.016615
6.4381,-0.00445,0.000685,-0.001966,0.009051,-0.000724,0.003526,-0.005727,-0.509396,-0.001725,0.156653,-264.230757,-0.307817,62.020276
6.4586,-0.004554,0.00064,-0.002477,0.009073,-0.000726,0.003535,-0.005528,-0.509353,-0.001845,0.156653,-264.230757,-0.307817,62.020276
6.4782,-0.004632,0.000723,-0.003237,0.00905,-0.000724,0.003526,-0.005528,-0.509353,-0.001845,0.156653,-264.230757,-0.307817,62.020276
6.4982,-0.003559,0.00017,-0.001212,0.008982,-0.000718,0.003499,-0.005846,-0.50931,-0.003066,0.156653,-264.227123,-0.307817,62.024042
6.5184,-0.003926,0.000602,-0.002819,0.008869,-0.000709,0.003455,-0.005727,-0.509345,-0.002942,0.156653,-264.227123,-0.307817,62.024042
6.5382,-0.003416,0.000668,-0.002011,0.00871,-0.000697,0.003393,-0.005015,-0.509425,-0.002683,0.156653,-264.223458,-0.307817,62.027841
6.558,-0.003587,0.00021,-0.00324,0.008506,-0.00068,0.003314,-0.004644,-0.509375,-0.002282,0.156653,-264.223458,-0.307817,62.027841
6.578,-0.003566,0.000543,-0.002142,0.008256,-0.00066,0.003216,-0.004644,-0.509375,-0.002282,0.156653,-264.223458,-0.307817,62.027841
6.5983,-0.003295,0.000648,-0.000919,0.007961,-0.000637,0.003102,-0.004228,-0.509492,-0.001974,0.156653,-264.219868,-0.307817,62.031562
6.6179,-0.003124,0.000523,-0.001542,0.007621,-0.00061,0.002969,-0.004184,-0.509483,-0.001896,0.156653,-264.219868,-0.307817,62.031562
6.6378,-0.003166,-5e-05,-0.001239,0.007235,-0.000579,0.002819,-0.003592,-0.509503,-0.001417,0.156653,-264.216524,-0.307817,62.035028
6.6578,-0.002474,0.000363,-0.001412,0.006805,-0.000544,0.002651,-0.003669,-0.509819,-0.0013,0.156653,-264.216524,-0.307817,62.035028
6.6779,-0.003187,0.000458,-0.001448,0.006328,-0.000506,0.002465,-0.003669,-0.509819,-0.0013,0.156653,-264.216524,-0.307817,62.035028
6.6979,-0.002905,0.000294,0.000152,0.005804,-0.000464,0.002261,-0.003556,-0.509572,-0.001304,0.156653,-264.213438,-0.307817,62.038226
6.7184,-0.002721,0.000448,-0.00142,0.005239,-0.000419,0.002041,-0.003495,-0.509582,-0.001198,0.156653,-264.213438,-0.307817,62.038226
