mach0312/omni-docking-bench/src/icros_test_setup/results/kinematic_sample/timeseries/trial_089.csv
t,x,y,yaw,vx,vy,wz,bl_x,bl_y,bl_yaw,front_steering_joint,front_wheel_joint,rear_steering_joint,rear_wheel_joint
0.0,0.068852,0.019075,-0.086918,-0.008795,0.000599,-9e-06,0.024606,-0.489177,-0.08767,-0.067364,-263.912304,-0.068574,62.56521
0.0004,0.06762,0.019029,-0.087286,-0.006874,0.000468,-7e-06,0.024606,-0.489177,-0.08767,-0.067364,-263.91594,-0.068574,62.561574
0.0007,0.068098,0.018862,-0.086265,-0.006392,0.000435,-6e-06,0.024606,-0.489177,-0.08767,-0.067364,-263.91939,-0.068574,62.558125
0.001,0.067731,0.019419,-0.086875,-0.005863,0.000399,-6e-06,0.024829,-0.489055,-0.086644,-0.067364,-263.922606,-0.068574,62.554908
0.0013,0.067697,0.019124,-0.085992,-0.005294,0.00036,-5e-06,0.02477,-0.489053,-0.086709,-0.067364,-263.925362,-0.068574,62.552152
0.0016,0.067921,0.019178,-0.085069,-0.004677,0.000318,-5e-06,0.02477,-0.489053,-0.086709,-0.067364,-263.927712,-0.068574,62.549801
0.0019,0.067276,0.019148,-0.087633,-0.004003,0.000272,-4e-06,0.02477,-0.489053,-0.086709,-0.067364,-263.929318,-0.068574,62.548196
0.0022,0.06724,0.019165,-0.087538,-0.0033,0.000225,-3e-06,0.02426,-0.489321,-0.086957,-0.067364,-263.929318,-0.068574,62.548196
0.0024,0.067515,0.019064,-0.084419,-0.002543,0.000173,-3e-06,0.024257,-0.489299,-0.087002,-0.067364,-263.929318,-0.068574,62.548196
0.0026,0.067348,0.018974,-0.086155,-0.001744,0.000119,-2e-06,0.024257,-0.489299,-0.087002,-0.067364,-263.929318,-0.068574,62.548196
0.0188,0.067333,0.019415,-0.086662,-0.01689,-0.015939,0.029999,0.023612,-0.489002,-0.085784,-0.067364,-263.929318,-0.068574,62.548196
0.0383,0.067129,0.019043,-0.086533,-0.03289,-0.02517,0.05,0.023068,-0.488652,-0.086662,-0.067364,-263.930345,-0.068574,62.547169
0.0589,0.067323,0.019112,-0.087855,-0.04889,-0.024773,0.05,0.023063,-0.488686,-0.086651,-0.067364,-263.930345,-0.068574,62.547169
0.0788,0.067334,0.019178,-0.086822,-0.06489,-0.024946,0.05,0.022574,-0.488921,-0.087855,-0.140136,-263.930346,0.006955,62.547167
0.0984,0.067481,0.019097,-0.087136,-0.065417,-0.024944,0.05,0.022877,-0.48891,-0.087272,-0.140136,-263.930346,0.006955,62.547167
0.1186,0.067055,0.019196,-0.086536,-0.065563,-0.024897,0.05,0.022877,-0.48891,-0.087272,-0.140136,-263.930346,0.006955,62.547167
0.1386,0.067183,0.019118,-0.088352,-0.065145,-0.02492,0.05,0.022976,-0.488896,-0.086536,-0.117361,-263.930348,0.081367,62.547164
0.1589,0.066996,0.019334,-0.086562,-0.065234,-0.024971,0.05,0.022925,-0.488895,-0.086652,-0.117361,-263.930348,0.081367,62.547164
0.1784,0.067119,0.018813,-0.086312,-0.065074,-0.025054,0.05,0.022901,-0.488757,-0.086561,-0.085818,-263.930385,0.156368,62.547115
0.1994,0.067171,0.018928,-0.086902,-0.065248,-0.024529,0.05,0.023044,-0.489056,-0.08642,-0.085818,-263.930385,0.156368,62.547115
0.2189,0.06685,0.019054,-0.086181,-0.065274,-0.024687,0.05,0.023044,-0.489056,-0.08642,-0.085818,-263.930385,0.156368,62.547115
0.2383,0.067295,0.019111,-0.086447,-0.064962,-0.024737,0.05,0.022929,-0.489054,-0.086175,-0.08512,-263.93055,0.23137,62.546899
0.2589,0.067056,0.019262,-0.08883,-0.065394,-0.02485,0.05,0.02295,-0.489049,-0.086193,-0.08512,-263.93055,0.23137,62.546899
0.2786,0.067262,0.018944,-0.086267,-0.065082,-0.025135,0.05,0.02174,-0.48873,-0.088805,-0.089392,-263.931209,0.306369,62.54604
0.2986,0.067137,0.019251,-0.088006,-0.06538,-0.024668,0.05,0.022625,-0.488974,-0.087367,-0.089392,-263.931209,0.306369,62.54604
0.3188,0.067034,0.01903,-0.087279,-0.065185,-0.025077,0.05,0.022625,-0.488974,-0.087367,-0.089392,-263.931209,0.306369,62.54604
0.3386,0.06677,0.019022,-0.086846,-0.06512,-0.0248,0.05,0.022308,-0.489054,-0.087166,-0.086755,-263.933206,0.381366,62.543432
0.3588,0.066561,0.018942,-0.087155,-0.064869,-0.024742,0.05,0.022318,-0.489055,-0.087137,-0.086755,-263.933206,0.381366,62.543432
0.3789,0.066128,0.019379,-0.086026,-0.06466,-0.024664,0.05,0.021728,-0.489174,-0.086949,-0.083573,-263.937678,0.456871,62.538358
0.3986,0.066161,0.019174,-0.086383,-0.064219,-0.024989,0.05,0.022002,-0.488931,-0.086398,-0.083573,-263.937678,0.456871,62.538358
0.4188,0.065841,0.019201,-0.086598,-0.06426,-0.024811,0.05,0.022002,-0.488931,-0.086398,-0.083573,-263.937678,0.456871,62.538358
0.4385,0.06493,0.018897,-0.085562,-0.063933,-0.024823,0.05,0.020896,-0.489013,-0.086153,-0.089104,-263.944663,0.531424,62.530767
0.4593,0.064648,0.018598,-0.086166,-0.063078,-0.024377,0.05,0.020905,-0.489031,-0.086102,-0.089104,-263.944663,0.531424,62.530767
0.4784,0.06343,0.01857,-0.087237,-0.062808,-0.024092,0.05,0.019882,-0.489673,-0.085643,-0.088882,-263.954147,0.606365,62.520676
0.4986,0.06359,0.019167,-0.086301,-0.061571,-0.024026,0.05,0.019269,-0.489591,-0.08648,-0.088882,-263.954147,0.606365,62.520676
0.5186,0.06324,0.018735,-0.085948,-0.061701,-0.024576,0.05,0.019269,-0.489591,-0.08648,-0.088882,-263.954147,0.606365,62.520676
0.539,0.061496,0.018532,-0.085413,-0.061398,-0.024094,0.05,0.018111,-0.48968,-0.085044,-0.097358,-263.966207,0.681415,62.508006
0.5589,0.061533,0.018169,-0.08381,-0.059691,-0.023711,0.05,0.018058,-0.489683,-0.085046,-0.097358,-263.966207,0.681415,62.508006
0.5786,0.059544,0.018273,-0.082742,-0.059796,-0.023256,0.05,0.017577,-0.490353,-0.082911,-0.096315,-263.980616,0.729067,62.492995
0.5988,0.059248,0.018501,-0.081659,-0.057831,-0.023132,0.05,0.017312,-0.490182,-0.0827,-0.096315,-263.980616,0.729067,62.492995
0.6186,0.058766,0.018103,-0.083198,-0.057542,-0.023273,0.05,0.017312,-0.490182,-0.0827,-0.096315,-263.980616,0.729067,62.492995
0.6385,0.056463,0.018013,-0.08308,-0.057058,-0.022924,0.05,0.014522,-0.490583,-0.081828,-0.113872,-263.997681,0.737667,62.475321
0.6583,0.056635,0.017325,-0.0811,-0.054774,-0.022637,0.05,0.014437,-0.490568,-0.081886,-0.113872,-263.997681,0.737667,62.475321
0.6786,0.053986,0.017786,-0.079014,-0.055046,-0.021856,0.05,0.013647,-0.491408,-0.079828,-0.125589,-264.017086,0.751898,62.455312
0.6985,0.053851,0.017323,-0.078981,-0.052414,-0.021991,0.05,0.013481,-0.491015,-0.079204,-0.125589,-264.017086,0.751898,62.455312
0.7188,0.053633,0.017393,-0.079092,-0.052317,-0.021518,0.05,0.013481,-0.491015,-0.079204,-0.125589,-264.017086,0.751898,62.455312
0.739,0.050056,0.016716,-0.078277,-0.052091,-0.021576,0.05,0.010972,-0.4916,-0.077207,-0.143253,-264.03899,0.770584,62.432721
0.7595,0.050456,0.016286,-0.077831,-0.048595,-0.020579,0.05,0.010872,-0.49162,-0.077227,-0.143253,-264.03899,0.770584,62.432721
0.7788,0.047084,0.016165,-0.076566,-0.049037,-0.02016,0.05,0.008878,-0.492715,-0.076131,-0.170729,-264.059918,0.782892,62.407632
0.7988,0.046656,0.016234,-0.075626,-0.04571,-0.019719,0.05,0.008192,-0.492573,-0.076164,-0.170729,-264.059918,0.782892,62.407632
0.8193,0.046366,0.016122,-0.075082,-0.045296,-0.019712,0.05,0.008192,-0.492573,-0.076164,-0.170729,-264.059918,0.782892,62.407632
0.8385,0.042968,0.015447,-0.074111,-0.045026,-0.019555,0.05,0.005745,-0.493242,-0.072717,-0.202121,-264.07921,0.810682,62.380203
0.8584,0.042656,0.015409,-0.074082,-0.041707,-0.018586,0.05,0.005648,-0.493257,-0.072749,-0.202121,-264.07921,0.810682,62.380203
0.8785,0.03936,0.014659,-0.070561,-0.041399,-0.018524,0.05,0.003152,-0.493809,-0.072197,-0.234582,-264.097322,0.837196,62.353892
0.8986,0.039517,0.014644,-0.073028,-0.038229,-0.017398,0.05,0.003073,-0.494035,-0.071035,-0.234582,-264.097322,0.837196,62.353892
0.9184,0.039317,0.014649,-0.071075,-0.038343,-0.017488,0.05,0.003073,-0.494035,-0.071035,-0.234582,-264.097322,0.837196,62.353892
0.9385,0.036112,0.014127,-0.068652,-0.038177,-0.017404,0.05,0.001106,-0.494789,-0.068753,-0.279077,-264.1139,0.866874,62.329269
0.9593,0.036234,0.01388,-0.070451,-0.035058,-0.016571,0.05,0.001055,-0.494801,-0.068684,-0.279077,-264.1139,0.866874,62.329269
0.9789,0.033667,0.013412,-0.065499,-0.035167,-0.016397,0.05,-0.001112,-0.495397,-0.068619,-0.328034,-264.12927,0.897043,62.305948
0.9984,0.032964,0.013429,-0.066313,-0.032717,-0.015587,0.05,-0.000495,-0.495521,-0.066604,-0.328034,-264.12927,0.897043,62.305948
1.0183,0.032961,0.013189,-0.065891,-0.032002,-0.015584,0.05,-0.000495,-0.495521,-0.066604,-0.328034,-264.12927,0.897043,62.305948
1.0383,0.030259,0.01271,-0.065784,-0.032021,-0.015331,0.05,-0.002266,-0.496356,-0.063606,-0.37912,-264.143477,0.931021,62.283841
1.0582,0.030417,0.01271,-0.063371,-0.029358,-0.014671,0.05,-0.002381,-0.496362,-0.063697,-0.37912,-264.143477,0.931021,62.283841
1.0783,0.027615,0.012184,-0.062397,-0.029551,-0.01461,0.05,-0.003064,-0.496754,-0.061573,-0.437121,-264.156631,0.964199,62.262936
1.0984,0.027421,0.012277,-0.061327,-0.026802,-0.013883,0.05,-0.003853,-0.496855,-0.061814,-0.437121,-264.156631,0.964199,62.262936
1.1185,0.027593,0.012125,-0.0611,-0.026617,-0.013934,0.05,-0.003853,-0.496855,-0.061814,-0.437121,-264.156631,0.964199,62.262936
1.1384,0.024821,0.012037,-0.060471,-0.026801,-0.013787,0.05,-0.004919,-0.497509,-0.058828,-0.495469,-264.169099,0.994846,62.242797
1.1583,0.024867,0.011567,-0.058965,-0.024048,-0.013515,0.05,-0.005029,-0.497491,-0.058881,-0.495469,-264.169099,0.994846,62.242797
1.1788,0.022338,0.011374,-0.057017,-0.024142,-0.013012,0.05,-0.006159,-0.497986,-0.057191,-0.557721,-264.180648,1.031469,62.223716
1.1984,0.022566,0.011555,-0.056891,-0.021654,-0.012628,0.05,-0.006607,-0.497933,-0.056867,-0.557721,-264.180648,1.031469,62.223716
1.2186,0.022227,0.011416,-0.057668,-0.021872,-0.012819,0.05,-0.006607,-0.497933,-0.056867,-0.557721,-264.180648,1.031469,62.223716
1.2387,0.020541,0.010966,-0.054655,-0.021532,-0.012678,0.05,-0.008277,-0.49828,-0.055429,-0.615987,-264.191589,1.071107,62.20508
1.2587,0.020179,0.010611,-0.054824,-0.019911,-0.012071,0.05,-0.00823,-0.498297,-0.055287,-0.615987,-264.191589,1.071107,62.20508
1.2789,0.01782,0.010285,-0.053573,-0.019567,-0.011701,0.05,-0.008569,-0.499036,-0.053045,-0.680858,-264.201882,1.10358,62.187322
1.2983,0.018033,0.010325,-0.050983,-0.017244,-0.011224,0.05,-0.009185,-0.499058,-0.053119,-0.680858,-264.201882,1.10358,62.187322
1.3184,0.01786,0.010268,-0.051064,-0.017484,-0.011231,0.05,-0.009185,-0.499058,-0.053119,-0.680858,-264.201882,1.10358,62.187322
1.3393,0.015851,0.010034,-0.049439,-0.017313,-0.011167,0.05,-0.009083,-0.499559,-0.048838,-0.747752,-264.211832,1.133644,62.170089
1.3591,0.015888,0.009743,-0.049385,-0.015336,-0.010805,0.049439,-0.009127,-0.499557,-0.04882,-0.747752,-264.211832,1.133644,62.170089
1.3784,0.013819,0.009057,-0.048636,-0.015387,-0.010516,0.049385,-0.0099,-0.499988,-0.047703,-0.822636,-264.220815,1.174364,62.154473
1.3981,0.014265,0.009294,-0.048995,-0.013363,-0.009718,0.048636,-0.010574,-0.500228,-0.048017,-0.822636,-264.220815,1.174364,62.154473
1.4188,0.014053,0.0093,-0.048559,-0.013793,-0.009982,0.048995,-0.010574,-0.500228,-0.048017,-0.822636,-264.220815,1.174364,62.154473
1.4385,0.012341,0.008918,-0.04564,-0.013585,-0.009971,0.048559,-0.011384,-0.500533,-0.046436,-0.897632,-264.229553,1.212861,62.139001
1.4582,0.012241,0.009023,-0.045214,-0.011921,-0.009472,0.04564,-0.011371,-0.500546,-0.046326,-0.897632,-264.229553,1.212861,62.139001
1.4782,0.01009,0.008517,-0.042392,-0.01182,-0.009567,0.045214,-0.011315,-0.500789,-0.043475,-0.965694,-264.238483,1.238014,62.123451
1.4982,0.010707,0.008985,-0.042886,-0.00972,-0.008937,0.042392,-0.011498,-0.500966,-0.042633,-0.965694,-264.238483,1.238014,62.123451
1.5182,0.010648,0.00872,-0.044668,-0.010312,-0.009436,0.042886,-0.011498,-0.500966,-0.042633,-0.965694,-264.238483,1.238014,62.123451
1.5382,0.008882,0.008288,-0.040665,-0.010248,-0.009187,0.044668,-0.01271,-0.501195,-0.042506,-0.995959,-264.247053,1.261811,62.108128
1.5583,0.008764,0.00859,-0.041479,-0.008538,-0.008642,0.040665,-0.012662,-0.501214,-0.042305,-0.995959,-264.247053,1.261811,62.108128
1.5782,0.006967,0.007512,-0.039199,-0.0084,-0.008946,0.041479,-0.012788,-0.501312,-0.039859,-1.01914,-264.254785,1.289057,62.093553
1.5983,0.007078,0.007683,-0.039588,-0.006668,-0.00778,0.039199,-0.012973,-0.50181,-0.039271,-1.01914,-264.254785,1.289057,62.093553
1.6182,0.006879,0.007773,-0.039288,-0.006769,-0.007957,0.039588,-0.012973,-0.50181,-0.039271,-1.01914,-264.254785,1.289057,62.093553
1.6384,0.005855,0.00743,-0.037869,-0.006568,-0.008037,0.039288,-0.013546,-0.502202,-0.037486,-1.085619,-264.261462,1.321094,62.080951
1.6586,0.00553,0.007318,-0.037493,-0.006568,-0.008037,0.039288,-0.01355,-0.502212,-0.037464,-1.085619,-264.261462,1.321094,62.080951
1.6782,0.004718,0.007404,-0.036565,-5.7e-05,-8.2e-05,0.0,-0.013824,-0.50258,-0.036188,-1.160238,-264.267466,1.363204,62.069734
1.6996,0.004377,0.007249,-0.035608,-5.7e-05,-8.2e-05,0.0,-0.013912,-0.502428,-0.036237,-1.160238,-264.267466,1.363204,62.069734
1.7186,0.004594,0.007151,-0.036254,-5.7e-05,-8.2e-05,0.0,-0.013912,-0.502428,-0.036237,-1.160238,-264.267466,1.363204,62.069734
1.7389,0.002886,0.006627,-0.033666,-5.7e-05,-8.2e-05,0.0,-0.014223,-0.502891,-0.034355,-1.180349,-264.274329,1.368553,62.056729
1.7589,0.003303,0.006794,-0.033955,-5.7e-05,-8.2e-05,0.0,-0.014236,-0.502914,-0.034257,-1.180349,-264.274329,1.368553,62.056729
1.7788,0.002855,0.006641,-0.033766,-5.7e-05,-8.2e-05,0.0,-0.014054,-0.503049,-0.033729,-1.105243,-264.274329,1.293448,62.053757
1.7991,0.00296,0.006711,-0.034857,-5.7e-05,-8.2e-05,0.0,-0.014234,-0.503078,-0.033721,-1.105243,-264.274329,1.293448,62.053757
1.8191,0.00312,0.006591,-0.032286,-5.7e-05,-8.2e-05,0.0,-0.014234,-0.503078,-0.033721,-1.105243,-264.274329,1.293448,62.053757
1.8385,0.003218,0.006823,-0.033866,-5.7e-05,-8.2e-05,0.0,-0.013343,-0.503143,-0.032286,-1.03027,-264.274329,1.218475,62.053757
1.8584,0.002993,0.006856,-0.034308,-5.7e-05,-8.2e-05,0.0,-0.013389,-0.503127,-0.032389,-1.03027,-264.274329,1.218475,62.053757
1.8791,0.003173,0.00687,-0.033155,-5e-06,-7e-06,3.6e-05,-0.0145,-0.502844,-0.034308,-0.955345,-264.274329,1.14355,62.053757
1.8986,0.002964,0.006573,-0.033393,-0.000775,-0.00111,0.005533,-0.014065,-0.502847,-0.033654,-0.955345,-264.274329,1.14355,62.053757
1.9191,0.002864,0.006695,-0.03338,-0.001501,-0.002149,0.010715,-0.014065,-0.502847,-0.033654,-0.955345,-264.274329,1.14355,62.053757
1.9385,0.002969,0.007263,-0.032178,-0.002188,-0.003133,0.01562,-0.014157,-0.503021,-0.03338,-0.88026,-264.274329,1.068464,62.053757
1.9585,0.003187,0.006747,-0.033682,-0.002838,-0.004064,0.020261,-0.014112,-0.502987,-0.033304,-0.88026,-264.274329,1.068464,62.053757
1.9788,0.003094,0.006629,-0.033508,-0.003448,-0.004937,0.024615,-0.013991,-0.502965,-0.033675,-0.955195,-264.274366,1.143399,62.053687
1.9986,0.003353,0.006744,-0.033725,-0.004022,-0.005759,0.028715,-0.013992,-0.503034,-0.033579,-0.955195,-264.274366,1.143399,62.053687
2.0185,0.00264,0.00717,-0.032751,-0.00455,-0.006516,0.032487,-0.013992,-0.503034,-0.033579,-0.955195,-264.274366,1.143399,62.053687
2.0384,0.002725,0.006864,-0.033644,-0.005045,-0.007225,0.036021,-0.014083,-0.502574,-0.032667,-1.030192,-264.274686,1.218396,62.05308
2.0587,0.002703,0.00656,-0.032664,-0.005498,-0.007873,0.039254,-0.014107,-0.502592,-0.03273,-1.030192,-264.274686,1.218396,62.05308
2.0785,0.002852,0.006613,-0.034387,-0.005909,-0.008462,0.04219,-0.014031,-0.503238,-0.032317,-1.105192,-264.276297,1.293396,62.05002
2.0983,0.002659,0.007075,-0.034685,-0.006282,-0.008995,0.044848,-0.014407,-0.503161,-0.033438,-1.105192,-264.276297,1.293396,62.05002
2.1184,0.002446,0.006792,-0.032903,-0.006617,-0.009475,0.047239,-0.014407,-0.503161,-0.033438,-1.105192,-264.276297,1.293396,62.05002
2.1383,0.001652,0.006519,-0.03194,-0.006912,-0.009898,0.049352,-0.014498,-0.503027,-0.031983,-1.180189,-264.280408,1.368393,62.04446
2.1583,0.002155,0.006638,-0.03177,-0.007168,-0.010264,0.051176,-0.014512,-0.503042,-0.031956,-1.180189,-264.280408,1.368393,62.04446
2.1787,0.001025,0.005811,-0.030249,-0.007385,-0.010575,0.052724,-0.014217,-0.503181,-0.030648,-1.241745,-264.287019,1.399843,62.0364
2.1987,0.001036,0.006458,-0.029162,-0.007562,-0.010828,0.053986,-0.014343,-0.503631,-0.030279,-1.241745,-264.287019,1.399843,62.0364
2.2189,0.001233,0.006388,-0.030252,-0.0077,-0.011026,0.054976,-0.014343,-0.503631,-0.030279,-1.241745,-264.287019,1.399843,62.0364
2.2387,-0.000167,0.00621,-0.028845,-0.007798,-0.011167,0.055678,-0.014481,-0.503493,-0.028371,-1.241745,-264.295891,1.399843,62.02584
2.2586,-0.00045,0.006226,-0.028415,-0.007857,-0.011251,0.056098,-0.01451,-0.5035,-0.028357,-1.241745,-264.295891,1.399843,62.02584
2.2787,-0.00202,0.006406,-0.026047,-0.007877,-0.01128,0.056239,-0.015201,-0.503747,-0.026685,-1.241745,-264.305425,1.399843,62.012777
2.2985,-0.001752,0.006099,-0.024734,-0.007857,-0.011251,0.056098,-0.015292,-0.503587,-0.026103,-1.241745,-264.305425,1.399843,62.012777
2.3183,-0.001861,0.006087,-0.028796,-0.007798,-0.011167,0.055677,-0.015292,-0.503587,-0.026103,-1.241745,-264.305425,1.399843,62.012777
2.3384,-0.003524,0.006231,-0.024334,-0.007699,-0.011025,0.054969,-0.016907,-0.504064,-0.026351,-1.241745,-264.315148,1.399843,61.997219
2.3585,-0.003652,0.00598,-0.024792,-0.007562,-0.010829,0.053991,-0.016853,-0.504044,-0.026159,-1.241745,-264.315148,1.399843,61.997219
2.3789,-0.005373,0.004835,-0.0194,-0.007385,-0.010575,0.052724,-0.016603,-0.504275,-0.022661,-1.241745,-264.324803,1.399843,61.979157
2.3984,-0.005157,0.005618,-0.021595,-0.007168,-0.010264,0.051174,-0.01588,-0.50478,-0.020532,-1.241745,-264.324803,1.399843,61.979157
2.4185,-0.005316,0.005054,-0.020625,-0.006913,-0.009899,0.049353,-0.01588,-0.50478,-0.020532,-1.241745,-264.324803,1.399843,61.979157
2.4385,-0.006746,0.004546,-0.017768,-0.006617,-0.009476,0.047245,-0.016212,-0.505356,-0.018003,-1.241745,-264.334162,1.399843,61.961379
2.4582,-0.006708,0.004855,-0.02007,-0.006282,-0.008996,0.044854,-0.016193,-0.505371,-0.017916,-1.241745,-264.334162,1.399843,61.961379
2.4789,-0.008517,0.004465,-0.017757,-0.005906,-0.008457,0.042166,-0.017218,-0.505419,-0.018164,-1.241745,-264.342731,1.399843,61.945102
2.4988,-0.008709,0.004403,-0.015453,-0.005494,-0.007868,0.039228,-0.017455,-0.505487,-0.017689,-1.241745,-264.342731,1.399843,61.945102
2.5183,-0.008641,0.004264,-0.014485,-0.005042,-0.00722,0.035998,-0.017455,-0.505487,-0.017689,-1.241745,-264.342731,1.399843,61.945102
2.5388,-0.010436,0.003837,-0.012309,-0.00455,-0.006515,0.032483,-0.016339,-0.506115,-0.012307,-1.241745,-264.350497,1.399843,61.930351
2.5589,-0.01,0.004053,-0.01408,-0.004018,-0.005754,0.028688,-0.016373,-0.506127,-0.01225,-1.241745,-264.350497,1.399843,61.930351
2.5782,-0.011455,0.003709,-0.010563,-0.003446,-0.004934,0.0246,-0.017379,-0.506173,-0.012689,-1.241745,-264.356746,1.399843,61.918481
2.5984,-0.011324,0.003657,-0.011676,-0.002837,-0.004062,0.020253,-0.017097,-0.506259,-0.011297,-1.241745,-264.356746,1.399843,61.918481
2.6186,-0.010881,0.003855,-0.010662,-0.002185,-0.003129,0.0156,-0.017097,-0.506259,-0.011297,-1.241745,-264.356746,1.399843,61.918481
2.6385,-0.012085,0.003496,-0.010782,-0.001497,-0.002144,0.010691,-0.016516,-0.506393,-0.009269,-1.241745,-264.361713,1.399843,61.909045
2.6586,-0.012169,0.003137,-0.008658,-0.000769,-0.001101,0.005489,-0.016595,-0.506406,-0.009336,-1.241745,-264.361713,1.399843,61.909045
2.6783,-0.012646,0.003211,-0.010451,-1e-06,-1e-06,4e-06,-0.01667,-0.506964,-0.008056,-1.241745,-264.364425,1.399843,61.903895
2.6985,-0.01226,0.002935,-0.00967,0.0,0.0,0.0,-0.017432,-0.506862,-0.009358,-1.241745,-264.364425,1.399843,61.903895
2.7185,-0.012571,0.003154,-0.009669,0.0,0.0,0.0,-0.017432,-0.506862,-0.009358,-1.241745,-264.364425,1.399843,61.903895
2.7384,-0.012805,0.003127,-0.009007,0.0,0.0,0.0,-0.01754,-0.506875,-0.009403,-1.241745,-264.365374,1.399843,61.902092
2.7585,-0.013035,0.003078,-0.008926,0.0,0.0,0.0,-0.017531,-0.506875,-0.009368,-1.241745,-264.365374,1.399843,61.902092
2.7782,-0.012672,0.003203,-0.010539,0.0,0.0,0.0,-0.017587,-0.506902,-0.008926,-1.241745,-264.365374,1.399843,61.902092
2.799,-0.012793,0.003335,-0.008474,0.0,0.0,0.0,-0.01785,-0.506826,-0.009849,-1.241745,-264.365374,1.399843,61.902092
2.8189,-0.012768,0.003008,-0.008528,0.0,0.0,0.0,-0.01785,-0.506826,-0.009849,-1.241745,-264.365374,1.399843,61.902092
2.8385,-0.012944,0.002993,-0.011138,0.0,0.0,0.0,-0.017117,-0.506974,-0.008528,-1.241745,-264.365374,1.399843,61.902092
2.8589,-0.012558,0.003327,-0.008444,0.0,0.0,0.0,-0.017221,-0.506974,-0.008708,-1.241745,-264.365374,1.399843,61.902092
2.8785,-0.01303,0.002964,-0.007957,0.0,0.0,0.0,-0.016865,-0.506654,-0.008444,-1.241745,-264.365374,1.399843,61.902092
2.8988,-0.012815,0.003453,-0.00766,0.0,0.0,0.0,-0.016993,-0.506864,-0.008165,-1.241745,-264.365374,1.399843,61.902092
2.9185,-0.013212,0.00353,-0.009191,9.7e-05,-2.5e-05,0.0,-0.016993,-0.506864,-0.008165,-1.241745,-264.365374,1.399843,61.902092
2.9384,-0.012861,0.002835,-0.009251,9.7e-05,-2.5e-05,0.0,-0.017899,-0.506448,-0.009191,-1.241745,-264.365374,1.399843,61.902092
2.9582,-0.012736,0.00318,-0.010255,9.7e-05,-2.5e-05,0.0,-0.017878,-0.506495,-0.009195,-1.241745,-264.365374,1.399843,61.902092
2.9782,-0.012815,0.003006,-0.008861,9.7e-05,-2.5e-05,0.0,-0.017966,-0.506793,-0.010255,-1.166853,-264.365374,1.324951,61.902092
2.9983,-0.013109,0.002809,-0.009407,9.7e-05,-2.5e-05,0.0,-0.017603,-0.506897,-0.009455,-1.166853,-264.365374,1.324951,61.902092
3.0184,-0.013078,0.002863,-0.008589,9.7e-05,-2.5e-05,0.0,-0.017603,-0.506897,-0.009455,-1.166853,-264.365374,1.324951,61.902092
3.0383,-0.013224,0.00316,-0.009318,9.7e-05,-2.5e-05,0.0,-0.017458,-0.507118,-0.008589,-1.091722,-264.365374,1.24982,61.902092
3.0584,-0.012735,0.003019,-0.009212,9.7e-05,-2.5e-05,0.0,-0.017494,-0.507097,-0.00864,-1.091722,-264.365374,1.24982,61.902092
3.0783,-0.013148,0.002568,-0.010539,9.7e-05,-2.5e-05,0.0,-0.017433,-0.506959,-0.009212,-1.016863,-264.365374,1.174961,61.902092
3.0986,-0.012582,0.003046,-0.010868,9.7e-05,-2.5e-05,0.0,-0.018057,-0.507214,-0.009971,-1.016863,-264.365374,1.174961,61.902092
3.1184,-0.013018,0.003451,-0.010283,9.7e-05,-2.5e-05,0.0,-0.018057,-0.507214,-0.009971,-1.016863,-264.365374,1.174961,61.902092
3.1384,-0.012968,0.002823,-0.009787,0.001877,-0.00049,0.00112,-0.018262,-0.506522,-0.010283,-0.941775,-264.365374,1.099873,61.902092
3.1589,-0.012987,0.003477,-0.009985,0.003658,-0.000956,0.002182,-0.018239,-0.506568,-0.010246,-0.941775,-264.365374,1.099873,61.902092
3.1782,-0.012865,0.002973,-0.009574,0.005342,-0.001396,0.003187,-0.018079,-0.506497,-0.009985,-0.86673,-264.365374,1.024828,61.902092
3.1983,-0.012907,0.003141,-0.008785,0.006942,-0.001814,0.004141,-0.017889,-0.506787,-0.00975,-0.86673,-264.365374,1.024828,61.902092
3.2188,-0.012632,0.002762,-0.007627,0.008427,-0.002202,0.005026,-0.017889,-0.506787,-0.00975,-0.86673,-264.365374,1.024828,61.902092
3.2385,-0.012824,0.002944,-0.008352,0.009823,-0.002566,0.005859,-0.016522,-0.507224,-0.007627,-0.791725,-264.365374,0.949824,61.902092
3.2587,-0.012371,0.003145,-0.010237,0.011123,-0.002906,0.006635,-0.016567,-0.507209,-0.007686,-0.791725,-264.365374,0.949824,61.902092
3.279,-0.013227,0.002756,-0.008464,0.012327,-0.003221,0.007353,-0.017592,-0.506828,-0.010237,-0.716292,-264.365374,0.87439,61.902092
3.2985,-0.013159,0.003249,-0.009231,0.013433,-0.00351,0.008013,-0.017564,-0.507056,-0.009222,-0.716292,-264.365374,0.87439,61.902092
3.3185,-0.012789,0.00306,-0.010126,0.014445,-0.003774,0.008616,-0.017564,-0.507056,-0.009222,-0.716292,-264.365374,0.87439,61.902092
3.3386,-0.013059,0.003012,-0.010218,0.01536,-0.004013,0.009162,-0.017953,-0.506914,-0.010126,-0.641746,-264.365374,0.799844,61.902092
3.3588,-0.012749,0.003265,-0.009949,0.016179,-0.004227,0.009651,-0.017975,-0.506917,-0.010133,-0.641746,-264.365374,0.799844,61.902092
3.3783,-0.012633,0.003322,-0.010585,0.016901,-0.004416,0.010082,-0.017823,-0.50671,-0.009949,-0.566764,-264.365374,0.724862,61.902092
3.3983,-0.012847,0.003416,-0.008578,0.017526,-0.004579,0.010455,-0.017941,-0.506675,-0.01031,-0.566764,-264.365374,0.724862,61.902092
3.4183,-0.012499,0.002987,-0.009544,0.018057,-0.004718,0.010771,-0.017941,-0.506675,-0.01031,-0.566764,-264.365374,0.724862,61.902092
3.4384,-0.013126,0.002704,-0.008882,0.018491,-0.004831,0.01103,-0.017366,-0.50699,-0.009544,-0.491863,-264.365374,0.649961,61.902092
3.4589,-0.013252,0.003082,-0.009094,0.018828,-0.004919,0.011231,-0.017386,-0.50701,-0.009497,-0.491863,-264.365374,0.649961,61.902092
3.4783,-0.012766,0.003251,-0.008725,0.019069,-0.004982,0.011374,-0.01789,-0.506897,-0.009094,-0.416869,-264.365374,0.574968,61.902092
3.4982,-0.012881,0.003255,-0.010141,0.019213,-0.00502,0.011461,-0.017504,-0.506801,-0.008883,-0.416869,-264.365374,0.574968,61.902092
3.5184,-0.012754,0.003373,-0.008333,0.019261,-0.005033,0.011489,-0.017504,-0.506801,-0.008883,-0.416869,-264.365374,0.574968,61.902092
3.5384,-0.012919,0.002779,-0.008367,0.019213,-0.00502,0.011461,-0.017004,-0.50661,-0.008333,-0.341762,-264.365374,0.49986,61.902092
3.5586,-0.012609,0.003079,-0.010268,0.019069,-0.004982,0.011375,-0.017016,-0.506651,-0.008335,-0.341762,-264.365374,0.49986,61.902092
3.5785,-0.012805,0.003251,-0.009264,0.018828,-0.004919,0.011231,-0.017846,-0.506894,-0.010268,-0.266858,-264.365374,0.424956,61.902092
3.5985,-0.012671,0.002833,-0.009964,0.018492,-0.004831,0.01103,-0.017664,-0.506799,-0.009693,-0.266858,-264.365374,0.424956,61.902092
3.6185,-0.012806,0.002817,-0.009098,0.018057,-0.004718,0.010771,-0.017664,-0.506799,-0.009693,-0.266858,-264.365374,0.424956,61.902092
3.6383,-0.012844,0.003184,-0.009278,0.017529,-0.00458,0.010456,-0.017446,-0.507162,-0.009098,-0.191749,-264.365374,0.349848,61.902092
3.6585,-0.013177,0.003154,-0.011366,0.016902,-0.004416,0.010082,-0.017454,-0.507137,-0.009109,-0.191749,-264.365374,0.349848,61.902092
3.6786,-0.012624,0.003294,-0.010069,0.01616,-0.004222,0.009639,-0.018973,-0.506813,-0.011366,-0.116866,-264.365374,0.274964,61.902092
3.6986,-0.013251,0.002804,-0.011363,0.015362,-0.004014,0.009163,-0.018282,-0.506737,-0.010628,-0.116866,-264.365374,0.274964,61.902092
3.7187,-0.012702,0.002899,-0.009612,0.014447,-0.003775,0.008618,-0.018282,-0.506737,-0.010628,-0.116866,-264.365374,0.274964,61.902092
3.7386,-0.013131,0.00299,-0.010676,0.013436,-0.00351,0.008014,-0.017604,-0.507077,-0.009612,-0.041868,-264.365374,0.199967,61.902092
3.7589,-0.012942,0.00316,-0.008814,0.012329,-0.003221,0.007354,-0.017686,-0.507069,-0.009702,-0.041868,-264.365374,0.199967,61.902092
3.7787,-0.012684,0.002976,-0.008575,0.011123,-0.002906,0.006635,-0.017437,-0.50682,-0.008814,0.033577,-264.365373,0.124522,61.902093
3.7988,-0.012756,0.003127,-0.010362,0.009825,-0.002567,0.005861,-0.01722,-0.506926,-0.008678,0.033577,-264.365373,0.124522,61.902093
3.8184,-0.012813,0.00288,-0.009549,0.008423,-0.002201,0.005025,-0.01722,-0.506926,-0.008678,0.033577,-264.365373,0.124522,61.902093
3.8388,-0.012828,0.003114,-0.009792,0.006927,-0.00181,0.004132,-0.017683,-0.507096,-0.009549,0.102674,-264.365371,0.049867,61.902095
3.8583,-0.012638,0.00327,-0.009687,0.005346,-0.001397,0.003189,-0.017692,-0.507081,-0.009565,0.102674,-264.365371,0.049867,61.902095
3.8786,-0.012867,0.002944,-0.009,0.003659,-0.000956,0.002183,-0.017577,-0.506706,-0.009687,0.102674,-264.365365,-0.025051,61.902102
3.8988,-0.012803,0.002991,-0.011418,0.001882,-0.000492,0.001122,-0.017509,-0.506894,-0.009295,0.102674,-264.365365,-0.025051,61.902102
3.9189,-0.012607,0.003047,-0.009765,2e-06,-1e-06,1e-06,-0.017509,-0.506894,-0.009295,0.102674,-264.365365,-0.025051,61.902102
3.9382,-0.012487,0.002854,-0.010361,0.0,0.0,0.0,-0.017585,-0.506929,-0.009765,0.102674,-264.365347,-0.10015,61.902123
3.9582,-0.01281,0.003151,-0.010291,0.0,0.0,0.0,-0.017599,-0.506943,-0.009808,0.102674,-264.365347,-0.10015,61.902123
3.9787,-0.012648,0.003088,-0.007168,0.0,0.0,0.0,-0.018058,-0.506822,-0.010291,0.102674,-264.365347,-0.175144,61.902123
3.9984,-0.013125,0.002961,-0.010372,0.0,0.0,0.0,-0.017053,-0.506866,-0.008502,0.102674,-264.365347,-0.175144,61.902123
4.0184,-0.013052,0.002905,-0.008907,0.0,0.0,0.0,-0.017053,-0.506866,-0.008502,0.102674,-264.365347,-0.175144,61.902123
4.0385,-0.01243,0.002732,-0.010269,0.0,0.0,0.0,-0.017595,-0.507075,-0.008907,0.102674,-264.365347,-0.175144,61.902123
4.0583,-0.01293,0.00302,-0.009282,0.0,0.0,0.0,-0.0176,-0.507087,-0.009007,0.102674,-264.365347,-0.175144,61.902123
4.0785,-0.01297,0.00315,-0.009186,0.0,0.0,0.0,-0.017663,-0.506958,-0.009282,0.102674,-264.365347,-0.175144,61.902123
4.0985,-0.012649,0.003231,-0.008994,0.0,0.0,0.0,-0.017658,-0.506884,-0.009227,0.102674,-264.365347,-0.175144,61.902123
4.1186,-0.012626,0.002753,-0.009992,0.0,0.0,0.0,-0.017658,-0.506884,-0.009227,0.102674,-264.365347,-0.175144,61.902123
4.1383,-0.012655,0.003196,-0.010078,9.8e-05,-2e-05,0.0,-0.017722,-0.507221,-0.009992,0.102674,-264.365347,-0.175144,61.902123
4.1588,-0.013132,0.003195,-0.009735,9.8e-05,-2e-05,0.0,-0.017727,-0.507189,-0.009998,0.102674,-264.365347,-0.175144,61.902123
4.1785,-0.012961,0.002943,-0.008904,9.8e-05,-2e-05,0.0,-0.018096,-0.506781,-0.009735,0.102674,-264.365347,-0.175144,61.902123
4.1984,-0.012475,0.003143,-0.010423,9.8e-05,-2e-05,0.0,-0.017755,-0.506928,-0.009258,0.102674,-264.365347,-0.175144,61.902123
4.2184,-0.012838,0.003057,-0.009125,9.8e-05,-2e-05,0.0,-0.017755,-0.506928,-0.009258,0.102674,-264.365347,-0.175144,61.902123
4.2385,-0.012846,0.002742,-0.009499,9.8e-05,-2e-05,0.0,-0.017491,-0.506921,-0.009125,0.027658,-264.365339,-0.204695,61.902132
4.2587,-0.01271,0.003185,-0.008385,9.8e-05,-2e-05,0.0,-0.017504,-0.506943,-0.009151,0.027658,-264.365339,-0.204695,61.902132
4.2782,-0.012871,0.002944,-0.00815,9.8e-05,-2e-05,0.0,-0.016984,-0.506797,-0.008384,-0.0472,-264.365322,-0.204695,61.902149
4.2988,-0.013095,0.003016,-0.009179,9.8e-05,-2e-05,0.0,-0.017009,-0.506935,-0.008251,-0.0472,-264.365322,-0.204695,61.902149
4.3185,-0.01273,0.003162,-0.009942,9.8e-05,-2e-05,0.0,-0.017009,-0.506935,-0.008251,-0.0472,-264.365322,-0.204695,61.902149
4.3387,-0.012728,0.003045,-0.009368,9.8e-05,-2e-05,0.0,-0.017797,-0.506814,-0.009942,-0.122222,-264.365295,-0.204695,61.902175
4.3587,-0.012857,0.003082,-0.008907,0.001848,-0.000384,0.001459,-0.017778,-0.506821,-0.009905,-0.122222,-264.365295,-0.204695,61.902175
4.3783,-0.012828,0.003352,-0.009373,0.003604,-0.000748,0.002846,-0.017395,-0.506898,-0.008907,-0.197187,-264.365259,-0.204695,61.902211
4.3983,-0.012797,0.003025,-0.01087,0.005266,-0.001093,0.004159,-0.017516,-0.506743,-0.009173,-0.197187,-264.365259,-0.204695,61.902211
4.419,-0.012881,0.0029,-0.008572,0.006831,-0.001418,0.005394,-0.017516,-0.506743,-0.009173,-0.197187,-264.365259,-0.204695,61.902211
4.4384,-0.012963,0.003364,-0.010563,0.008305,-0.001724,0.006558,-0.017252,-0.507081,-0.008572,-0.122069,-264.365257,-0.279812,61.902213
4.4583,-0.012668,0.00322,-0.010013,0.009677,-0.002009,0.007641,-0.017313,-0.507055,-0.008682,-0.122069,-264.365257,-0.279812,61.902213
4.4782,-0.012312,0.002863,-0.008727,0.010959,-0.002275,0.008654,-0.017771,-0.506755,-0.010012,-0.047179,-264.365215,-0.354703,61.902263
4.4984,-0.013345,0.003187,-0.010168,0.012148,-0.002522,0.009593,-0.017193,-0.506963,-0.009277,-0.047179,-264.365215,-0.354703,61.902263
4.5187,-0.012682,0.002916,-0.00932,0.013238,-0.002748,0.010453,-0.017193,-0.506963,-0.009277,-0.047179,-264.365215,-0.354703,61.902263
4.5384,-0.012742,0.002867,-0.008481,0.014236,-0.002955,0.011242,-0.017399,-0.507071,-0.009305,0.02795,-264.364924,-0.429832,61.902604
4.5583,-0.012384,0.00275,-0.008841,0.015137,-0.003142,0.011953,-0.017376,-0.507074,-0.009249,0.02795,-264.364924,-0.429832,61.902604
4.5786,-0.012587,0.00306,-0.009016,0.015943,-0.00331,0.012589,-0.016764,-0.507262,-0.00877,0.10283,-264.363595,-0.504712,61.904161
4.5984,-0.012397,0.003122,-0.009215,0.016656,-0.003458,0.013152,-0.016988,-0.50707,-0.008902,0.10283,-264.363595,-0.504712,61.904161
4.6185,-0.01282,0.002677,-0.010119,0.017271,-0.003585,0.013638,-0.016988,-0.50707,-0.008902,0.10283,-264.363595,-0.504712,61.904161
4.6383,-0.012557,0.002648,-0.009145,0.017796,-0.003694,0.014052,-0.01757,-0.507398,-0.009838,0.177914,-264.360136,-0.579795,61.908212
4.6586,-0.012498,0.003338,-0.007574,0.01822,-0.003783,0.014388,-0.017533,-0.507396,-0.009779,0.177914,-264.360136,-0.579795,61.908212
4.6786,-0.011912,0.00273,-0.008297,0.018552,-0.003851,0.014649,-0.015819,-0.50676,-0.007159,0.252915,-264.354174,-0.603901,61.914768
4.699,-0.011919,0.002871,-0.009953,0.01879,-0.003901,0.014837,-0.015936,-0.507053,-0.007752,0.252915,-264.354174,-0.603901,61.914768
4.7184,-0.011851,0.002822,-0.009004,0.018932,-0.00393,0.01495,-0.015936,-0.507053,-0.007752,0.252915,-264.354174,-0.603901,61.914768
4.7385,-0.011471,0.002685,-0.006821,0.01898,-0.00394,0.014987,-0.015563,-0.507348,-0.008307,0.268064,-264.34666,-0.603901,61.92357
4.7582,-0.011826,0.00299,-0.008938,0.018933,-0.00393,0.01495,-0.015502,-0.50735,-0.008195,0.268064,-264.34666,-0.603901,61.92357
4.7786,-0.010655,0.002672,-0.006475,0.01879,-0.003901,0.014837,-0.015654,-0.507148,-0.008361,0.268064,-264.338795,-0.603901,61.932784
4.7983,-0.011026,0.002454,-0.007049,0.018553,-0.003852,0.01465,-0.014587,-0.507265,-0.007205,0.268064,-264.338795,-0.603901,61.932784
4.8185,-0.010957,0.002495,-0.006674,0.018222,-0.003783,0.014389,-0.014587,-0.507265,-0.007205,0.268064,-264.338795,-0.603901,61.932784
4.8385,-0.009622,0.002052,-0.005491,0.017794,-0.003694,0.014051,-0.013443,-0.50769,-0.005949,0.268064,-264.330914,-0.603901,61.942017
4.8583,-0.01043,0.002602,-0.007124,0.017272,-0.003586,0.013639,-0.013331,-0.507717,-0.005889,0.268064,-264.330914,-0.603901,61.942017
4.8785,-0.009906,0.002285,-0.005588,0.016656,-0.003458,0.013152,-0.013365,-0.507535,-0.006572,0.268064,-264.323392,-0.603901,61.950829
4.8984,-0.00979,0.002006,-0.006177,0.015943,-0.00331,0.012589,-0.012928,-0.507652,-0.00594,0.268064,-264.323392,-0.603901,61.950829
4.9183,-0.009934,0.001928,-0.005381,0.015136,-0.003142,0.011952,-0.012928,-0.507652,-0.00594,0.268064,-264.323392,-0.603901,61.950829
4.9384,-0.009635,0.001893,-0.00479,0.014236,-0.002955,0.011241,-0.01184,-0.508243,-0.004718,0.268064,-264.316217,-0.603901,61.959235
4.9585,-0.00912,0.002113,-0.004203,0.01324,-0.002749,0.010455,-0.011834,-0.508238,-0.004705,0.268064,-264.316217,-0.603901,61.959235
4.9783,-0.008766,0.001455,-0.004269,0.012148,-0.002522,0.009593,-0.010681,-0.508006,-0.003742,0.268064,-264.309939,-0.603901,61.966589
4.9985,-0.00859,0.001598,-0.003706,0.010958,-0.002275,0.008653,-0.010757,-0.508328,-0.003986,0.268064,-264.309939,-0.603901,61.966589
5.0189,-0.008957,0.00197,-0.002891,0.009678,-0.002009,0.007642,-0.010757,-0.508328,-0.003986,0.268064,-264.309939,-0.603901,61.966589
5.0392,-0.008567,0.001786,-0.002226,0.008305,-0.001724,0.006558,-0.009788,-0.508163,-0.002384,0.268064,-264.304455,-0.603901,61.973014
5.0593,-0.008685,0.00147,-0.004095,0.006835,-0.001419,0.005398,-0.009766,-0.50817,-0.002359,0.268064,-264.304455,-0.603901,61.973014
5.0785,-0.008046,0.001241,-0.003222,0.005268,-0.001094,0.00416,-0.0104,-0.508605,-0.0038,0.268064,-264.300433,-0.603901,61.977725
5.0985,-0.008501,0.001409,-0.003039,0.003608,-0.000749,0.002849,-0.009945,-0.508702,-0.003431,0.268064,-264.300433,-0.603901,61.977725
5.1182,-0.007664,0.001653,-0.005217,0.001854,-0.000385,0.001464,-0.009945,-0.508702,-0.003431,0.268064,-264.300433,-0.603901,61.977725
5.1386,-0.007644,0.001095,-0.001754,2e-06,-0.0,1e-06,-0.009994,-0.508411,-0.004955,0.268064,-264.297603,-0.603901,61.981041
5.1585,-0.007996,0.001459,-0.002964,0.0,0.0,0.0,-0.009882,-0.508448,-0.004723,0.268064,-264.297603,-0.603901,61.981041
5.1785,-0.008221,0.001418,-0.003888,0.0,0.0,0.0,-0.009436,-0.508554,-0.002907,0.268064,-264.296832,-0.603901,61.981944
5.1987,-0.007843,0.001075,-0.003078,0.0,0.0,0.0,-0.009867,-0.50857,-0.003462,0.268064,-264.296832,-0.603901,61.981944
5.2187,-0.007675,0.001347,-0.003803,0.0,0.0,0.0,-0.009867,-0.50857,-0.003462,0.268064,-264.296832,-0.603901,61.981944
5.2385,-0.007907,0.001343,-0.002317,0.0,0.0,0.0,-0.009615,-0.50865,-0.003803,0.268064,-264.296832,-0.603901,61.981944
5.2588,-0.007916,0.001572,-0.003659,0.0,0.0,0.0,-0.009578,-0.50865,-0.0037,0.268064,-264.296832,-0.603901,61.981944
5.2783,-0.007815,0.001052,-0.004108,0.0,0.0,0.0,-0.009782,-0.508425,-0.003659,0.268064,-264.296832,-0.603901,61.981944
5.2985,-0.007417,0.001903,-0.002671,0.0,0.0,0.0,-0.009855,-0.508721,-0.003916,0.268064,-264.296832,-0.603901,61.981944
5.3183,-0.008001,0.001527,-0.003723,0.0,0.0,0.0,-0.009855,-0.508721,-0.003916,0.268064,-264.296832,-0.603901,61.981944
5.3384,-0.007956,0.001188,-0.003862,0.0,0.0,0.0,-0.0099,-0.50847,-0.003723,0.268064,-264.296832,-0.603901,61.981944
5.3588,-0.007931,0.001289,-0.004559,9.9e-05,-1.4e-05,0.0,-0.009902,-0.508498,-0.003735,0.268064,-264.296832,-0.603901,61.981944
5.3783,-0.008074,0.001378,-0.003026,9.9e-05,-1.4e-05,0.0,-0.010256,-0.508705,-0.004559,0.268064,-264.296832,-0.603901,61.981944
5.3984,-0.007855,0.001319,-0.002171,9.9e-05,-1.4e-05,0.0,-0.009889,-0.508656,-0.003678,0.268064,-264.296832,-0.603901,61.981944
5.4184,-0.007908,0.001243,-0.001596,9.9e-05,-1.4e-05,0.0,-0.009889,-0.508656,-0.003678,0.268064,-264.296832,-0.603901,61.981944
5.4383,-0.007959,0.001458,-0.0031,9.9e-05,-1.4e-05,0.0,-0.008722,-0.508756,-0.001596,0.193329,-264.296832,-0.529167,61.981944
5.4589,-0.0081,0.001076,-0.000405,9.9e-05,-1.4e-05,0.0,-0.008778,-0.508741,-0.0017,0.193329,-264.296832,-0.529167,61.981944
5.4783,-0.00791,0.00142,-0.001336,9.9e-05,-1.4e-05,0.0,-0.008306,-0.508924,-0.000405,0.118486,-264.296832,-0.454324,61.981944
5.4985,-0.007851,0.001518,-0.001682,9.9e-05,-1.4e-05,0.0,-0.008468,-0.508728,-0.000934,0.118486,-264.296832,-0.454324,61.981944
5.5184,-0.007862,0.001456,-0.004381,9.9e-05,-1.4e-05,0.0,-0.008468,-0.508728,-0.000934,0.118486,-264.296832,-0.454324,61.981944
5.5386,-0.00776,0.00109,-0.002136,9.9e-05,-1.4e-05,0.0,-0.010097,-0.508539,-0.004381,0.043386,-264.296829,-0.379224,61.981947
5.5583,-0.008614,0.001288,-0.00362,4e-06,-1e-06,2e-06,-0.010014,-0.508563,-0.004232,0.043386,-264.296829,-0.379224,61.981947
5.5783,-0.007698,0.00136,-0.002532,0.001165,-0.000169,0.000565,-0.01046,-0.508709,-0.00362,-0.031517,-264.29682,-0.304321,61.981956
5.5985,-0.007867,0.001408,-0.004642,0.00227,-0.00033,0.001101,-0.009623,-0.508669,-0.003001,-0.031517,-264.29682,-0.304321,61.981956
5.6184,-0.007628,0.001165,-0.005089,0.003316,-0.000482,0.001609,-0.009623,-0.508669,-0.003001,-0.031517,-264.29682,-0.304321,61.981956
5.6385,-0.007958,0.001117,-0.002018,0.004301,-0.000625,0.002087,-0.010223,-0.508828,-0.005089,0.043482,-264.296819,-0.379319,61.981957
5.6583,-0.007749,0.001153,-0.004702,0.005225,-0.00076,0.002535,-0.010121,-0.508833,-0.004834,0.043482,-264.296819,-0.379319,61.981957
5.6784,-0.007674,0.001607,-0.003633,0.006091,-0.000886,0.002955,-0.010043,-0.508858,-0.004655,0.119047,-264.29573,-0.415941,61.983134
5.6984,-0.00751,0.001541,-0.00295,0.006896,-0.001003,0.003345,-0.009734,-0.508593,-0.004064,0.119047,-264.29573,-0.415941,61.983134
5.7184,-0.007687,0.001376,-0.002082,0.007643,-0.001111,0.003708,-0.009734,-0.508593,-0.004064,0.119047,-264.29573,-0.415941,61.983134
5.7383,-0.007575,0.001359,-0.002355,0.008332,-0.001212,0.004042,-0.008499,-0.508659,-0.001961,0.149734,-264.293651,-0.415941,61.985382
5.7596,-0.007702,0.001178,-0.002136,0.008956,-0.001302,0.004345,-0.008511,-0.508659,-0.001985,0.149734,-264.293651,-0.415941,61.985382
5.7786,-0.0073,0.000858,-0.004168,0.009526,-0.001385,0.004621,-0.008492,-0.508865,-0.00199,0.149734,-264.290555,-0.415941,61.988729
5.799,-0.007384,0.001366,-0.002023,0.010033,-0.001459,0.004867,-0.008973,-0.509022,-0.003181,0.149734,-264.290555,-0.415941,61.988729
5.8186,-0.007291,0.000994,-0.00288,0.010479,-0.001524,0.005083,-0.008973,-0.509022,-0.003181,0.149734,-264.290555,-0.415941,61.988729
5.8388,-0.007116,0.00112,-0.003612,0.010867,-0.00158,0.005272,-0.008324,-0.509069,-0.002669,0.149734,-264.286937,-0.415941,61.99264
5.8587,-0.006573,0.0012,-0.002971,0.011195,-0.001628,0.005431,-0.008354,-0.509058,-0.002724,0.149734,-264.286937,-0.415941,61.99264
5.8785,-0.006171,0.001029,-0.003019,0.011464,-0.001667,0.005562,-0.007684,-0.508858,-0.002775,0.149734,-264.282698,-0.415941,61.997222
5.8983,-0.006257,0.0012,-0.002264,0.011672,-0.001697,0.005662,-0.007648,-0.508929,-0.002889,0.149734,-264.282698,-0.415941,61.997222
5.9184,-0.006752,0.001258,-0.001876,0.011822,-0.001719,0.005735,-0.007648,-0.508929,-0.002889,0.149734,-264.282698,-0.415941,61.997222
5.9387,-0.006079,0.001104,-0.002617,0.011911,-0.001732,0.005778,-0.007164,-0.508821,-0.001612,0.149734,-264.278169,-0.415941,62.002117
5.9586,-0.00634,0.000701,-0.001443,0.011941,-0.001736,0.005793,-0.007167,-0.508828,-0.001673,0.149734,-264.278169,-0.415941,62.002117
5.9789,-0.005587,0.000918,-0.000558,0.011911,-0.001732,0.005778,-0.006617,-0.509365,-0.00122,0.149734,-264.273387,-0.415941,62.007287
5.9983,-0.005587,0.000546,-0.002517,0.011821,-0.001719,0.005735,-0.00614,-0.509214,-0.000819,0.149734,-264.273387,-0.415941,62.007287
6.0187,-0.005785,0.001184,-0.001203,0.011672,-0.001697,0.005662,-0.00614,-0.509214,-0.000819,0.149734,-264.273387,-0.415941,62.007287
6.0383,-0.005067,0.000873,-0.001262,0.011463,-0.001667,0.005561,-0.005816,-0.508901,-0.00092,0.149734,-264.268556,-0.415941,62.012508
6.0583,-0.00468,0.001324,-0.000548,0.011194,-0.001628,0.005431,-0.005796,-0.508917,-0.000935,0.149734,-264.268556,-0.415941,62.012508
6.0783,-0.004932,0.000603,-0.002063,0.010864,-0.00158,0.00527,-0.004508,-0.508742,-0.000329,0.149734,-264.263827,-0.415941,62.017621
6.0986,-0.004499,0.000522,-0.001479,0.010477,-0.001524,0.005083,-0.005298,-0.509125,-0.001296,0.149734,-264.263827,-0.415941,62.017621
6.1183,-0.005095,0.000742,-0.000653,0.01003,-0.001459,0.004866,-0.005298,-0.509125,-0.001296,0.149734,-264.263827,-0.415941,62.017621
6.1385,-0.00447,0.001003,-0.000549,0.009522,-0.001385,0.004619,-0.004885,-0.509337,-0.000389,0.149734,-264.259298,-0.415941,62.022516
6.1584,-0.004466,0.000584,0.00054,0.008955,-0.001302,0.004344,-0.00486,-0.509314,-0.000394,0.149734,-264.259298,-0.415941,62.022516
6.1786,-0.004284,0.000363,8.4e-05,0.008328,-0.001211,0.00404,-0.003805,-0.509472,0.000727,0.149734,-264.255238,-0.415941,62.026905
6.1985,-0.003882,0.000699,-0.001921,0.00764,-0.001111,0.003706,-0.004006,-0.509574,0.000382,0.149734,-264.255238,-0.415941,62.026905
6.2191,-0.003731,0.000406,-0.000489,0.006894,-0.001002,0.003344,-0.004006,-0.509574,0.000382,0.149734,-264.255238,-0.415941,62.026905
6.2388,-0.00354,0.000366,-0.000269,0.006087,-0.000885,0.002953,-0.003546,-0.509657,-0.000278,0.149734,-264.251599,-0.415941,62.030839
6.2591,-0.003712,0.000632,0.000691,0.00522,-0.000759,0.002532,-0.003543,-0.509657,-0.000271,0.149734,-264.251599,-0.415941,62.030839
6.2788,-0.003637,0.000383,-0.001267,0.004295,-0.000625,0.002084,-0.003095,-0.509406,0.000819,0.149734,-264.248827,-0.415941,62.033836
6.299,-0.003579,0.000572,0.000427,0.003313,-0.000482,0.001607,-0.003737,-0.509531,-0.000351,0.149734,-264.248827,-0.415941,62.033836
6.3192,-0.003246,4.6e-05,-0.000202,0.002268,-0.00033,0.0011,-0.003737,-0.509531,-0.000351,0.149734,-264.248827,-0.415941,62.033836
6.3385,-0.003201,0.000516,0.000486,0.00116,-0.000169,0.000563,-0.003095,-0.509991,-7.8e-05,0.149734,-264.246718,-0.415941,62.036115
6.3583,-0.003467,0.000298,0.001258,0.0,0.0,0.0,-0.003079,-0.509959,-3.9e-05,0.149734,-264.246718,-0.415941,62.036115
6.3788,-0.00274,0.000211,-0.001326,0.0,0.0,0.0,-0.002737,-0.509714,0.001301,0.149734,-264.245799,-0.415941,62.037109
6.3984,-0.002797,0.000436,-0.000174,0.0,0.0,0.0,-0.003115,-0.509758,-0.000196,0.149734,-264.245799,-0.415941,62.037109
