mach0312/omni-docking-bench/src/icros_test_setup/results/kinematic_sample/timeseries/trial_052.csv
t,x,y,yaw,vx,vy,wz,bl_x,bl_y,bl_yaw,front_steering_joint,front_wheel_joint,rear_steering_joint,rear_wheel_joint
0.0,-0.060412,-0.022868,0.068898,0.00802,-0.001349,0.005298,-0.026438,-0.531071,0.068542,0.230999,-264.760716,-0.519352,62.082466
0.0004,-0.060457,-0.022059,0.068722,0.007537,-0.001268,0.004979,-0.026091,-0.531049,0.069309,0.230999,-264.757549,-0.519352,62.086018
0.0009,-0.059985,-0.022411,0.070043,0.007316,-0.001231,0.004833,-0.026015,-0.531057,0.06944,0.230999,-264.754247,-0.519352,62.08972
0.0012,-0.060425,-0.022564,0.069679,0.007055,-0.001187,0.00466,-0.026015,-0.531057,0.06944,0.230999,-264.750959,-0.519352,62.093408
0.0015,-0.060379,-0.02268,0.070334,0.006752,-0.001136,0.00446,-0.02575,-0.531181,0.068761,0.230999,-264.747782,-0.519352,62.096969
0.0019,-0.059983,-0.02202,0.071557,0.006412,-0.001079,0.004236,-0.02575,-0.531181,0.068761,0.230999,-264.744775,-0.519352,62.100341
0.0022,-0.060343,-0.022023,0.069102,0.006029,-0.001014,0.003982,-0.025637,-0.531016,0.069261,0.230999,-264.742141,-0.519352,62.103294
0.0025,-0.060104,-0.022369,0.069451,0.005608,-0.000944,0.003704,-0.025637,-0.531016,0.069261,0.230999,-264.739832,-0.519352,62.105883
0.0027,-0.059907,-0.022229,0.070513,0.005143,-0.000865,0.003397,-0.025637,-0.531016,0.069261,0.230999,-264.739832,-0.519352,62.105883
0.003,-0.059793,-0.022468,0.070788,0.00464,-0.000781,0.003065,-0.02639,-0.531125,0.067308,0.230999,-264.739832,-0.519352,62.105883
0.0185,-0.059868,-0.022793,0.070484,0.020101,0.01531,-0.027291,-0.023447,-0.531217,0.070968,0.230999,-264.739832,-0.519352,62.105883
0.0384,-0.059434,-0.022523,0.070525,0.036101,0.01852,-0.05,-0.023478,-0.531242,0.070936,0.230999,-264.739832,-0.519352,62.105883
0.0584,-0.059581,-0.022537,0.069562,0.052101,0.018279,-0.05,-0.023337,-0.531271,0.070629,0.230999,-264.738146,-0.519352,62.107774
0.0785,-0.059468,-0.022555,0.070553,0.061004,0.018341,-0.05,-0.023777,-0.531292,0.070025,0.230999,-264.738146,-0.519352,62.107774
0.0985,-0.059376,-0.022528,0.071688,0.06091,0.018307,-0.05,-0.023777,-0.531292,0.070025,0.230999,-264.738146,-0.519352,62.107774
0.118,-0.05933,-0.022368,0.071894,0.060837,0.018217,-0.05,-0.022846,-0.531218,0.071688,0.155931,-264.738146,-0.444284,62.107774
0.1383,-0.059378,-0.022571,0.070126,0.060783,0.018049,-0.05,-0.022836,-0.531207,0.071702,0.155931,-264.738146,-0.444284,62.107774
0.158,-0.059561,-0.02254,0.069717,0.060813,0.018355,-0.05,-0.023642,-0.531317,0.070126,0.081248,-264.738146,-0.3696,62.107774
0.1781,-0.059551,-0.022518,0.06983,0.060987,0.018336,-0.05,-0.02387,-0.531308,0.069888,0.081248,-264.738146,-0.3696,62.107774
0.1984,-0.059261,-0.022244,0.069529,0.060978,0.018308,-0.05,-0.02387,-0.531308,0.069888,0.081248,-264.738146,-0.3696,62.107774
0.2181,-0.059273,-0.022861,0.070093,0.060664,0.018073,-0.05,-0.02383,-0.531012,0.069529,0.005898,-264.738145,-0.294251,62.107775
0.238,-0.059351,-0.022832,0.071363,0.060729,0.018654,-0.05,-0.023811,-0.531052,0.069568,0.005898,-264.738145,-0.294251,62.107775
0.2581,-0.059577,-0.022647,0.070085,0.060828,0.018542,-0.05,-0.022987,-0.531534,0.071363,-0.068741,-264.738144,-0.219611,62.107777
0.2782,-0.059496,-0.022398,0.069538,0.061017,0.018419,-0.05,-0.023488,-0.531454,0.070632,-0.068741,-264.738144,-0.219611,62.107777
0.2982,-0.059709,-0.02259,0.070312,0.060909,0.01821,-0.05,-0.023488,-0.531454,0.070632,-0.068741,-264.738144,-0.219611,62.107777
0.3181,-0.059542,-0.022332,0.070961,0.061148,0.01834,-0.05,-0.023879,-0.53133,0.070312,-0.143853,-264.738142,-0.144499,62.107779
0.3384,-0.05947,-0.022827,0.068086,0.060976,0.018055,-0.05,-0.023844,-0.531311,0.070357,-0.143853,-264.738142,-0.144499,62.107779
0.3581,-0.059759,-0.022298,0.070746,0.060886,0.018729,-0.05,-0.024773,-0.531646,0.068086,-0.199689,-264.738139,-0.069638,62.107782
0.3781,-0.059291,-0.022218,0.072152,0.061186,0.018018,-0.05,-0.024162,-0.531287,0.069614,-0.199689,-264.738139,-0.069638,62.107782
0.3981,-0.059424,-0.022529,0.070731,0.060739,0.017886,-0.05,-0.024162,-0.531287,0.069614,-0.199689,-264.738139,-0.069638,62.107782
0.4184,-0.059686,-0.022456,0.069837,0.060868,0.018273,-0.05,-0.023381,-0.531254,0.070731,-0.20193,-264.738136,0.005522,62.107787
0.4386,-0.059665,-0.022506,0.071602,0.061107,0.018236,-0.05,-0.023434,-0.53125,0.070665,-0.20193,-264.738136,0.005522,62.107787
0.458,-0.059475,-0.022379,0.070118,0.061122,0.01818,-0.05,-0.023178,-0.531199,0.071601,-0.205362,-264.738122,0.080504,62.107804
0.4781,-0.059279,-0.022276,0.069024,0.060896,0.018158,-0.05,-0.023501,-0.531157,0.070754,-0.205362,-264.738122,0.080504,62.107804
0.498,-0.059958,-0.02276,0.068862,0.060675,0.018135,-0.05,-0.023501,-0.531157,0.070754,-0.205362,-264.738122,0.080504,62.107804
0.5186,-0.059497,-0.022503,0.070992,0.061382,0.018581,-0.05,-0.024858,-0.531551,0.068859,-0.198652,-264.738058,0.155503,62.107885
0.5381,-0.059859,-0.022633,0.069122,0.060944,0.018226,-0.05,-0.024745,-0.531527,0.069015,-0.198652,-264.738058,0.155503,62.107885
0.5585,-0.059344,-0.022342,0.07016,0.06128,0.018444,-0.05,-0.024607,-0.531412,0.069112,-0.201633,-264.737793,0.230458,62.108217
0.5782,-0.059309,-0.022365,0.069631,0.060765,0.018127,-0.05,-0.024021,-0.531225,0.069712,-0.201633,-264.737793,0.230458,62.108217
0.5981,-0.059686,-0.022503,0.069662,0.060721,0.018184,-0.05,-0.024021,-0.531225,0.069712,-0.201633,-264.737793,0.230458,62.108217
0.6183,-0.059427,-0.022223,0.068907,0.061108,0.018294,-0.05,-0.024063,-0.531247,0.069608,-0.199331,-264.736847,0.30553,62.109405
0.6386,-0.059508,-0.022843,0.071458,0.060816,0.018078,-0.05,-0.024078,-0.531229,0.069555,-0.199331,-264.736847,0.30553,62.109405
0.658,-0.059048,-0.022448,0.069575,0.060987,0.018536,-0.05,-0.022828,-0.531489,0.071321,-0.200706,-264.734237,0.380482,62.112684
0.6781,-0.058957,-0.022141,0.068703,0.060466,0.018289,-0.05,-0.023232,-0.531325,0.070305,-0.200706,-264.734237,0.380482,62.112684
0.6981,-0.058906,-0.022633,0.070648,0.060338,0.018042,-0.05,-0.023232,-0.531325,0.070305,-0.200706,-264.734237,0.380482,62.112684
0.7184,-0.057707,-0.022466,0.068461,0.060357,0.018418,-0.05,-0.022294,-0.531225,0.070294,-0.202076,-264.729134,0.455479,62.118455
0.7381,-0.058454,-0.02217,0.069711,0.059108,0.018466,-0.05,-0.022314,-0.531225,0.07016,-0.202076,-264.729134,0.455479,62.118455
0.758,-0.057257,-0.021899,0.069146,0.059856,0.018045,-0.05,-0.022236,-0.530756,0.069258,-0.204211,-264.721517,0.530377,62.126742
0.7787,-0.056893,-0.022107,0.070124,0.058633,0.017891,-0.05,-0.022025,-0.53069,0.069136,-0.204211,-264.721517,0.530377,62.126742
0.798,-0.056857,-0.022188,0.070237,0.058302,0.018066,-0.05,-0.022025,-0.53069,0.069136,-0.204211,-264.721517,0.530377,62.126742
0.8184,-0.055307,-0.021741,0.069394,0.058274,0.018144,-0.05,-0.019947,-0.530603,0.069427,-0.201461,-264.71142,0.605501,62.137507
0.8387,-0.055129,-0.021623,0.068311,0.056681,0.017854,-0.05,-0.019917,-0.530588,0.069403,-0.201461,-264.71142,0.605501,62.137507
0.8581,-0.053791,-0.021235,0.066681,0.056476,0.01781,-0.05,-0.019243,-0.530084,0.06744,-0.210728,-264.698787,0.680369,62.150811
0.8782,-0.053646,-0.020788,0.066985,0.055087,0.017604,-0.05,-0.019433,-0.53005,0.066895,-0.210728,-264.698787,0.680369,62.150811
0.8981,-0.053276,-0.021249,0.066939,0.054917,0.01715,-0.05,-0.019433,-0.53005,0.066895,-0.210728,-264.698787,0.680369,62.150811
0.9181,-0.051285,-0.020891,0.066378,0.054578,0.017638,-0.05,-0.017572,-0.52958,0.065594,-0.220141,-264.683707,0.70667,62.166559
0.938,-0.050897,-0.020526,0.066581,0.052558,0.017443,-0.05,-0.017522,-0.529579,0.065613,-0.220141,-264.683707,0.70667,62.166559
0.9581,-0.048394,-0.020004,0.064076,0.05215,0.017094,-0.05,-0.015501,-0.528921,0.065304,-0.239104,-264.666079,0.715055,62.184857
0.9781,-0.048396,-0.020106,0.065075,0.049575,0.016864,-0.05,-0.01545,-0.528881,0.06444,-0.239104,-264.666079,0.715055,62.184857
0.9982,-0.04814,-0.020103,0.064669,0.049601,0.016916,-0.05,-0.01545,-0.528881,0.06444,-0.239104,-264.666079,0.715055,62.184857
1.0181,-0.045402,-0.018738,0.063011,0.049338,0.01695,-0.05,-0.013104,-0.528348,0.062792,-0.24417,-264.645966,0.739903,62.205639
1.0385,-0.045225,-0.018845,0.063095,0.046492,0.015842,-0.05,-0.013061,-0.528285,0.062757,-0.24417,-264.645966,0.739903,62.205639
1.0585,-0.042168,-0.018248,0.060894,0.046323,0.015956,-0.05,-0.011353,-0.527205,0.061403,-0.268017,-264.625751,0.763274,62.228923
1.0784,-0.041501,-0.018483,0.060944,0.043201,0.015648,-0.05,-0.011009,-0.527182,0.060897,-0.268017,-264.625751,0.763274,62.228923
1.0987,-0.042001,-0.018356,0.060338,0.042549,0.015921,-0.05,-0.011009,-0.527182,0.060897,-0.268017,-264.625751,0.763274,62.228923
1.1183,-0.038269,-0.017193,0.05922,0.043032,0.01579,-0.05,-0.009104,-0.526553,0.057981,-0.306154,-264.606858,0.784189,62.254368
1.139,-0.038346,-0.017214,0.057559,0.039219,0.014898,-0.05,-0.008981,-0.526514,0.058003,-0.306154,-264.606858,0.784189,62.254368
1.1586,-0.035354,-0.01632,0.053587,0.039272,0.014979,-0.05,-0.007468,-0.525692,0.055709,-0.33089,-264.589582,0.829288,62.27856
1.1782,-0.035299,-0.01647,0.055185,0.036178,0.014403,-0.05,-0.007601,-0.525546,0.054255,-0.33089,-264.589582,0.829288,62.27856
1.1984,-0.035088,-0.016736,0.054858,0.036153,0.014498,-0.05,-0.007601,-0.525546,0.054255,-0.33089,-264.589582,0.829288,62.27856
1.2186,-0.032242,-0.015857,0.052517,0.035953,0.014787,-0.05,-0.005349,-0.525184,0.052545,-0.379439,-264.573567,0.858701,62.301326
1.2385,-0.032327,-0.015568,0.052785,0.03303,0.014143,-0.05,-0.005316,-0.525164,0.05249,-0.379439,-264.573567,0.858701,62.301326
1.258,-0.02952,-0.014533,0.049548,0.033103,0.01384,-0.05,-0.004097,-0.524246,0.050915,-0.417556,-264.558402,0.894369,62.323469
1.2779,-0.029122,-0.014514,0.050652,0.030203,0.013053,-0.049548,-0.004026,-0.52398,0.049915,-0.417556,-264.558402,0.894369,62.323469
1.298,-0.029317,-0.014457,0.050094,0.02982,0.013021,-0.05,-0.004026,-0.52398,0.049915,-0.417556,-264.558402,0.894369,62.323469
1.318,-0.026732,-0.013859,0.048418,0.030005,0.012971,-0.05,-0.002297,-0.523094,0.047798,-0.460729,-264.544446,0.934205,62.344499
1.3388,-0.026488,-0.013315,0.046869,0.027372,0.012549,-0.048418,-0.002237,-0.523086,0.04778,-0.460729,-264.544446,0.934205,62.344499
1.3581,-0.02425,-0.013327,0.045798,0.027083,0.012059,-0.046869,-0.001576,-0.522253,0.045126,-0.531113,-264.53193,0.97049,62.363602
1.3787,-0.024065,-0.012742,0.047112,0.024835,0.012202,-0.045798,-0.00106,-0.522498,0.045289,-0.531113,-264.53193,0.97049,62.363602
1.3981,-0.023768,-0.012657,0.047086,0.024639,0.011595,-0.047112,-0.00106,-0.522498,0.045289,-0.531113,-264.53193,0.97049,62.363602
1.418,-0.021365,-0.012526,0.043934,0.024337,0.011525,-0.047086,0.001512,-0.521435,0.044781,-0.556362,-264.519255,0.994534,62.383356
1.4381,-0.021676,-0.012835,0.043594,0.021894,0.011576,-0.043934,0.001512,-0.521463,0.044647,-0.556362,-264.519255,0.994534,62.383356
1.4582,-0.019045,-0.011781,0.04088,0.022214,0.011878,-0.043594,0.001427,-0.521891,0.041881,-0.608868,-264.507937,1.022805,62.401177
1.4783,-0.019273,-0.011882,0.041563,0.019511,0.010993,-0.04088,0.00175,-0.521527,0.041092,-0.608868,-264.507937,1.022805,62.401177
1.4984,-0.019205,-0.011553,0.041253,0.01975,0.011071,-0.041563,0.00175,-0.521527,0.041092,-0.608868,-264.507937,1.022805,62.401177
1.5183,-0.016793,-0.011078,0.040128,0.019665,0.010751,-0.041253,0.002854,-0.520523,0.039149,-0.608608,-264.497395,1.052694,62.418641
1.5382,-0.01674,-0.011371,0.04021,0.017224,0.010395,-0.040128,0.002944,-0.520517,0.039162,-0.608608,-264.497395,1.052694,62.418641
1.5581,-0.015348,-0.010634,0.037182,0.017183,0.010689,-0.04021,0.004495,-0.520509,0.038632,-0.627141,-264.487795,1.074291,62.43496
1.5784,-0.015035,-0.010361,0.036977,0.015732,0.010056,-0.037182,0.004086,-0.520322,0.037606,-0.627141,-264.487795,1.074291,62.43496
1.5984,-0.015498,-0.010458,0.036182,0.015407,0.009798,-0.036977,0.004086,-0.520322,0.037606,-0.627141,-264.487795,1.074291,62.43496
1.6181,-0.013709,-0.009463,0.034153,0.015866,0.00989,-0.036182,0.003708,-0.51963,0.034377,-0.686444,-264.479568,1.112386,62.449341
1.6385,-0.013345,-0.01003,0.034422,0.014024,0.008989,-0.034153,0.003727,-0.519586,0.034317,-0.686444,-264.479568,1.112386,62.449341
1.6586,-0.011795,-0.009564,0.032149,0.013682,0.009565,-0.034422,0.004787,-0.519331,0.032998,-0.692655,-264.47159,1.12669,62.463629
1.6785,-0.011469,-0.009336,0.033713,0.012096,0.00918,-0.032149,0.004753,-0.519264,0.032335,-0.692655,-264.47159,1.12669,62.463629
1.6984,-0.011633,-0.009614,0.033123,0.011777,0.008944,-0.033713,0.004753,-0.519264,0.032335,-0.692655,-264.47159,1.12669,62.463629
1.7182,-0.01027,-0.009198,0.031991,0.011945,0.009223,-0.033123,0.005925,-0.518875,0.031461,-0.702408,-264.464255,1.13157,62.476795
1.7384,-0.010476,-0.008964,0.031609,0.010559,0.008865,-0.031991,0.005948,-0.518868,0.031455,-0.702408,-264.464255,1.13157,62.476795
1.7581,-0.0089,-0.008539,0.030045,0.010754,0.008628,-0.031609,0.006024,-0.5184,0.030492,-0.77742,-264.458571,1.191358,62.487706
1.7784,-0.009078,-0.008619,0.029658,0.009153,0.008268,-0.030045,0.006298,-0.518309,0.030096,-0.77742,-264.458571,1.191358,62.487706
1.7983,-0.009153,-0.008422,0.031136,0.009329,0.008346,-0.029658,0.006298,-0.518309,0.030096,-0.77742,-264.458571,1.191358,62.487706
1.8182,-0.007624,-0.007789,0.028682,0.009411,0.008133,-0.031136,0.00722,-0.517732,0.029592,-0.790818,-264.452636,1.214873,62.499686
1.8386,-0.00764,-0.00784,0.028017,0.007844,0.007567,-0.028682,0.007218,-0.517713,0.029503,-0.790818,-264.452636,1.214873,62.499686
1.858,-0.006418,-0.007803,0.026331,0.007856,0.007623,-0.028017,0.006995,-0.517311,0.026883,-0.808337,-264.447284,1.23183,62.510802
1.8781,-0.006166,-0.007411,0.026901,0.006621,0.007631,-0.026331,0.007047,-0.517448,0.026424,-0.808337,-264.447284,1.23183,62.510802
1.8982,-0.006404,-0.007681,0.027168,0.006621,0.007631,-0.026331,0.007047,-0.517448,0.026424,-0.808337,-264.447284,1.23183,62.510802
1.9181,-0.004949,-0.007278,0.027775,6.6e-05,7.5e-05,0.0,0.007769,-0.517169,0.025991,-0.88334,-264.442986,1.26772,62.519717
1.9384,-0.005163,-0.007076,0.025096,6.6e-05,7.5e-05,0.0,0.007878,-0.517155,0.026083,-0.88334,-264.442986,1.26772,62.519717
1.9581,-0.004281,-0.0069,0.02452,6.6e-05,7.5e-05,0.0,0.007878,-0.516621,0.024102,-0.906166,-264.438792,1.298491,62.529336
1.9779,-0.004619,-0.006746,0.02339,6.6e-05,7.5e-05,0.0,0.008105,-0.516655,0.024214,-0.906166,-264.438792,1.298491,62.529336
1.9983,-0.004636,-0.006916,0.025589,6.6e-05,7.5e-05,0.0,0.008105,-0.516655,0.024214,-0.906166,-264.438792,1.298491,62.529336
2.018,-0.00454,-0.00687,0.023478,6.6e-05,7.5e-05,0.0,0.008413,-0.516749,0.025589,-0.831162,-264.438792,1.223487,62.529336
2.0384,-0.004335,-0.006912,0.024047,6.6e-05,7.5e-05,0.0,0.008345,-0.516747,0.025442,-0.831162,-264.438792,1.223487,62.529336
2.0582,-0.004617,-0.006679,0.024642,6.6e-05,7.5e-05,0.0,0.007927,-0.516765,0.024047,-0.756157,-264.438792,1.148482,62.529336
2.0783,-0.004388,-0.006711,0.022085,6.6e-05,7.5e-05,0.0,0.00794,-0.516627,0.024387,-0.756157,-264.438792,1.148482,62.529336
2.0988,-0.004219,-0.006801,0.024488,6.6e-05,7.5e-05,0.0,0.00794,-0.516627,0.024387,-0.756157,-264.438792,1.148482,62.529336
2.1185,-0.004437,-0.006686,0.024908,6.6e-05,7.5e-05,0.0,0.008269,-0.516648,0.024488,-0.681099,-264.438792,1.073424,62.529336
2.139,-0.004671,-0.006709,0.026055,0.000963,0.001094,-0.003959,0.008268,-0.516642,0.024508,-0.681099,-264.438792,1.073424,62.529336
2.158,-0.00482,-0.006968,0.024375,0.001881,0.002136,-0.007731,0.008616,-0.516536,0.026055,-0.606149,-264.438792,0.998474,62.529336
2.1784,-0.004667,-0.00676,0.024783,0.002747,0.003119,-0.01129,0.008052,-0.516693,0.025114,-0.606149,-264.438792,0.998474,62.529336
2.1981,-0.004323,-0.006755,0.023932,0.003565,0.004048,-0.014654,0.008052,-0.516693,0.025114,-0.606149,-264.438792,0.998474,62.529336
2.2184,-0.004443,-0.00656,0.024566,0.004334,0.004921,-0.017816,0.007884,-0.516607,0.023926,-0.68114,-264.438769,1.073465,62.529387
2.2382,-0.004442,-0.006803,0.026114,0.005053,0.005737,-0.020769,0.007898,-0.516593,0.02397,-0.68114,-264.438769,1.073465,62.529387
2.2582,-0.004445,-0.006775,0.024707,0.005725,0.0065,-0.023531,0.008901,-0.516606,0.02604,-0.756151,-264.438425,1.148476,62.530152
2.278,-0.004112,-0.006888,0.02403,0.006342,0.007201,-0.026068,0.008479,-0.516611,0.025272,-0.756151,-264.438425,1.148476,62.530152
2.2982,-0.004459,-0.006627,0.024186,0.006913,0.007849,-0.028416,0.008479,-0.516611,0.025272,-0.756151,-264.438425,1.148476,62.530152
2.3181,-0.004163,-0.006821,0.023456,0.007434,0.00844,-0.030556,0.007989,-0.516364,0.023807,-0.831141,-264.437082,1.223466,62.533136
2.3386,-0.004061,-0.006814,0.024283,0.007905,0.008975,-0.032493,0.007979,-0.516383,0.023774,-0.831141,-264.437082,1.223466,62.533136
2.3581,-0.003404,-0.006698,0.021911,0.008328,0.009455,-0.03423,0.008495,-0.516537,0.023648,-0.906141,-264.433595,1.298467,62.53862
2.3782,-0.003111,-0.006825,0.024685,0.0087,0.009877,-0.035758,0.008104,-0.516543,0.022579,-0.906141,-264.433595,1.298467,62.53862
2.3981,-0.003745,-0.006591,0.023454,0.009022,0.010243,-0.037084,0.008104,-0.516543,0.022579,-0.906141,-264.433595,1.298467,62.53862
2.4185,-0.002664,-0.006295,0.021618,0.009295,0.010553,-0.038204,0.008528,-0.516234,0.022265,-0.941999,-264.42833,1.303082,62.546604
2.4393,-0.002348,-0.006004,0.021868,0.009518,0.010806,-0.039121,0.008525,-0.516225,0.022189,-0.941999,-264.42833,1.303082,62.546604
2.4584,-0.001298,-0.006324,0.022061,0.009692,0.011003,-0.039835,0.009107,-0.515626,0.020675,-0.941999,-264.422194,1.303082,62.557089
2.4785,-0.001564,-0.006079,0.020736,0.009815,0.011144,-0.040343,0.009626,-0.51592,0.021311,-0.941999,-264.422194,1.303082,62.557089
2.4986,-0.00127,-0.005818,0.020762,0.00989,0.011228,-0.040649,0.009626,-0.51592,0.021311,-0.941999,-264.422194,1.303082,62.557089
2.518,9.1e-05,-0.005192,0.018638,0.009915,0.011257,-0.040752,0.009749,-0.515257,0.018995,-0.941999,-264.415721,1.303082,62.570073
2.5383,0.000205,-0.005172,0.017693,0.00989,0.011229,-0.040651,0.00975,-0.515234,0.018924,-0.941999,-264.415721,1.303082,62.570073
2.5581,0.0017,-0.004671,0.01474,0.009816,0.011144,-0.040346,0.009603,-0.514652,0.016122,-0.941999,-264.408986,1.303082,62.585048
2.5781,0.001658,-0.004934,0.015922,0.009692,0.011003,-0.039836,0.009429,-0.514576,0.015133,-0.941999,-264.408986,1.303082,62.585048
2.5985,0.001832,-0.005021,0.017339,0.009519,0.010807,-0.039125,0.009429,-0.514576,0.015133,-0.941999,-264.408986,1.303082,62.585048
2.6182,0.003529,-0.004207,0.01378,0.009296,0.010554,-0.038209,0.011146,-0.514391,0.015362,-0.941999,-264.40227,1.303082,62.599983
2.6383,0.003185,-0.004217,0.015601,0.009024,0.010245,-0.03709,0.011119,-0.514362,0.015209,-0.941999,-264.40227,1.303082,62.599983
2.658,0.004782,-0.003581,0.01365,0.008701,0.009879,-0.035764,0.011503,-0.513732,0.01409,-0.941999,-264.395796,1.303082,62.614377
2.6789,0.004634,-0.00371,0.011153,0.008329,0.009456,-0.034234,0.011686,-0.513565,0.013648,-0.941999,-264.395796,1.303082,62.614377
2.6981,0.004863,-0.003504,0.013271,0.007909,0.008979,-0.032508,0.011686,-0.513565,0.013648,-0.941999,-264.395796,1.303082,62.614377
2.7183,0.005733,-0.003031,0.011815,0.007437,0.008444,-0.030569,0.012064,-0.512955,0.011464,-0.941999,-264.389651,1.303082,62.628039
2.7386,0.005999,-0.002933,0.009197,0.006918,0.007854,-0.028433,0.012055,-0.512945,0.011441,-0.941999,-264.389651,1.303082,62.628039
2.7583,0.006711,-0.002435,0.009489,0.006347,0.007206,-0.026088,0.010992,-0.512562,0.007943,-0.941999,-264.38428,1.303082,62.639983
2.7784,0.007047,-0.002457,0.009059,0.005727,0.006502,-0.023538,0.011346,-0.512433,0.008655,-0.941999,-264.38428,1.303082,62.639983
2.7983,0.006963,-0.002568,0.008162,0.005058,0.005743,-0.02079,0.011346,-0.512433,0.008655,-0.941999,-264.38428,1.303082,62.639983
2.8184,0.008123,-0.002292,0.008781,0.004339,0.004926,-0.017835,0.01146,-0.512167,0.006778,-0.941999,-264.379575,1.303082,62.650444
2.838,0.008178,-0.001874,0.007513,0.003573,0.004056,-0.014685,0.011544,-0.512164,0.006876,-0.941999,-264.379575,1.303082,62.650444
2.8581,0.008866,-0.001924,0.006926,0.002754,0.003127,-0.011321,0.012204,-0.511637,0.00671,-0.941999,-264.376131,1.303082,62.658102
2.8781,0.009367,-0.002008,0.00654,0.001883,0.002138,-0.00774,0.012339,-0.511766,0.006732,-0.941999,-264.376131,1.303082,62.658102
2.8983,0.008878,-0.002012,0.006939,0.000968,0.001099,-0.003978,0.012339,-0.511766,0.006732,-0.941999,-264.376131,1.303082,62.658102
2.9187,0.009495,-0.001642,0.003545,0.0,0.0,0.0,0.012589,-0.511801,0.006226,-0.941999,-264.373704,1.303082,62.663498
2.9391,0.009552,-0.001543,0.006129,0.0,0.0,0.0,0.012504,-0.511785,0.006021,-0.941999,-264.373704,1.303082,62.663498
2.9581,0.00947,-0.001934,0.006289,0.0,0.0,0.0,0.012715,-0.511491,0.005974,-0.941999,-264.373046,1.303082,62.664961
2.9781,0.009661,-0.001795,0.004044,0.0,0.0,0.0,0.012699,-0.511728,0.006132,-0.941999,-264.373046,1.303082,62.664961
2.9982,0.009462,-0.001833,0.006287,0.0,0.0,0.0,0.012699,-0.511728,0.006132,-0.941999,-264.373046,1.303082,62.664961
3.018,0.009804,-0.001497,0.005665,0.0,0.0,0.0,0.012669,-0.511823,0.006287,-0.941999,-264.373046,1.303082,62.664961
3.0389,0.009876,-0.002055,0.005981,0.0,0.0,0.0,0.01267,-0.5118,0.006244,-0.941999,-264.373046,1.303082,62.664961
3.0581,0.009892,-0.001828,0.006034,0.0,0.0,0.0,0.012926,-0.512046,0.005981,-0.941999,-264.373046,1.303082,62.664961
3.0787,0.009744,-0.001439,0.007165,0.0,0.0,0.0,0.012951,-0.511916,0.006011,-0.941999,-264.373046,1.303082,62.664961
3.0981,0.009813,-0.002031,0.005039,0.0,0.0,0.0,0.012951,-0.511916,0.006011,-0.941999,-264.373046,1.303082,62.664961
3.1184,0.00999,-0.001953,0.007291,0.0,0.0,0.0,0.012383,-0.512025,0.005039,-0.941999,-264.373046,1.303082,62.664961
3.1386,0.009639,-0.001601,0.005291,0.0,0.0,0.0,0.012474,-0.512019,0.005194,-0.941999,-264.373046,1.303082,62.664961
3.158,0.009732,-0.001209,0.004644,-9.9e-05,1.7e-05,0.0,0.012338,-0.511594,0.005291,-0.941999,-264.373046,1.303082,62.664961
3.1784,0.009797,-0.001579,0.006267,-9.9e-05,1.7e-05,0.0,0.012203,-0.511372,0.004923,-0.941999,-264.373046,1.303082,62.664961
3.1981,0.00981,-0.001532,0.005342,-9.9e-05,1.7e-05,0.0,0.012203,-0.511372,0.004923,-0.941999,-264.373046,1.303082,62.664961
3.2187,0.009926,-0.001778,0.00573,-9.9e-05,1.7e-05,0.0,0.012534,-0.511525,0.005342,-0.941999,-264.373046,1.303082,62.664961
3.2382,0.00993,-0.001856,0.007382,-9.9e-05,1.7e-05,0.0,0.012556,-0.511542,0.00537,-0.941999,-264.373046,1.303082,62.664961
3.2583,0.0101,-0.001802,0.006429,-9.9e-05,1.7e-05,0.0,0.013694,-0.511842,0.007382,-0.866938,-264.373046,1.228021,62.664961
3.278,0.009737,-0.001796,0.005251,-9.9e-05,1.7e-05,0.0,0.013514,-0.511813,0.006839,-0.866938,-264.373046,1.228021,62.664961
3.2982,0.009687,-0.001825,0.005528,-9.9e-05,1.7e-05,0.0,0.013514,-0.511813,0.006839,-0.866938,-264.373046,1.228021,62.664961
3.3181,0.009986,-0.001721,0.006278,-9.9e-05,1.7e-05,0.0,0.012506,-0.511817,0.005528,-0.791903,-264.373046,1.152986,62.664961
3.3381,0.009843,-0.001762,0.005975,-9.9e-05,1.7e-05,0.0,0.012556,-0.511809,0.005583,-0.791903,-264.373046,1.152986,62.664961
3.3581,0.009849,-0.001763,0.005282,-5e-06,1e-06,-3e-06,0.01289,-0.511753,0.005975,-0.71691,-264.373046,1.077994,62.664961
3.378,0.009977,-0.001834,0.005078,-0.001415,0.000243,-0.000777,0.012692,-0.511755,0.005581,-0.71691,-264.373046,1.077994,62.664961
3.3981,0.010155,-0.001795,0.007463,-0.00274,0.00047,-0.001506,0.012692,-0.511755,0.005581,-0.71691,-264.373046,1.077994,62.664961
3.4182,0.009582,-0.001633,0.005631,-0.004005,0.000687,-0.0022,0.013961,-0.511781,0.007463,-0.642006,-264.373046,1.003089,62.664961
3.4385,0.009626,-0.00142,0.006412,-0.005197,0.000892,-0.002855,0.013851,-0.51177,0.00733,-0.642006,-264.373046,1.003089,62.664961
3.4581,0.009588,-0.001877,0.005679,-0.006319,0.001084,-0.003471,0.012896,-0.51141,0.006412,-0.566912,-264.373046,0.927995,62.664961
3.4787,0.009768,-0.001869,0.004161,-0.007364,0.001263,-0.004045,0.01266,-0.511672,0.005992,-0.566912,-264.373046,0.927995,62.664961
3.4982,0.009649,-0.001323,0.005941,-0.008339,0.001431,-0.004581,0.01266,-0.511672,0.005992,-0.566912,-264.373046,0.927995,62.664961
3.5181,0.0095,-0.001755,0.005758,-0.009243,0.001586,-0.005078,0.012679,-0.511314,0.005941,-0.491912,-264.373046,0.852996,62.664961
3.5383,0.009536,-0.001616,0.005919,-0.010074,0.001728,-0.005534,0.012662,-0.511344,0.005928,-0.491912,-264.373046,0.852996,62.664961
3.5585,0.009663,-0.001972,0.005791,-0.010833,0.001859,-0.005951,0.012555,-0.511607,0.005919,-0.417006,-264.373046,0.778089,62.664961
3.5783,0.009415,-0.001791,0.006005,-0.011519,0.001976,-0.006328,0.01259,-0.51181,0.005846,-0.417006,-264.373046,0.778089,62.664961
3.5981,0.00965,-0.001779,0.005385,-0.012135,0.002082,-0.006667,0.01259,-0.51181,0.005846,-0.417006,-264.373046,0.778089,62.664961
3.618,0.009603,-0.001549,0.006459,-0.012675,0.002175,-0.006963,0.012397,-0.511772,0.005385,-0.342004,-264.373046,0.703088,62.664961
3.6385,0.009901,-0.001745,0.006834,-0.013145,0.002255,-0.007222,0.012431,-0.511756,0.005458,-0.342004,-264.373046,0.703088,62.664961
3.6581,0.009799,-0.00144,0.004881,-0.013543,0.002323,-0.00744,0.013387,-0.511733,0.006834,-0.267007,-264.373046,0.62809,62.664961
3.6783,0.009752,-0.001323,0.005671,-0.013868,0.002379,-0.007619,0.012764,-0.511563,0.005727,-0.267007,-264.373046,0.62809,62.664961
3.6984,0.009472,-0.001888,0.006191,-0.014121,0.002423,-0.007757,0.012764,-0.511563,0.005727,-0.267007,-264.373046,0.62809,62.664961
3.7187,0.009922,-0.001673,0.005434,-0.014302,0.002454,-0.007857,0.012629,-0.511878,0.006191,-0.192,-264.373046,0.553083,62.664961
3.7381,0.009561,-0.001699,0.004971,-0.01441,0.002472,-0.007916,0.012633,-0.511864,0.006141,-0.192,-264.373046,0.553083,62.664961
3.7584,0.0097,-0.001754,0.00686,-0.014446,0.002478,-0.007936,0.012096,-0.511693,0.004971,-0.117001,-264.373046,0.478084,62.664961
3.7784,0.009833,-0.001594,0.006356,-0.01441,0.002472,-0.007916,0.01272,-0.511721,0.006041,-0.117001,-264.373046,0.478084,62.664961
3.7986,0.009835,-0.001959,0.005575,-0.014303,0.002454,-0.007857,0.01272,-0.511721,0.006041,-0.117001,-264.373046,0.478084,62.664961
3.8183,0.009679,-0.001651,0.00489,-0.014122,0.002423,-0.007758,0.012679,-0.511951,0.005575,-0.042001,-264.373046,0.403085,62.664961
3.8387,0.009523,-0.001764,0.005026,-0.013869,0.002379,-0.007619,0.012647,-0.511932,0.005533,-0.042001,-264.373046,0.403085,62.664961
3.8586,0.00948,-0.001775,0.005175,-0.013542,0.002323,-0.007439,0.012087,-0.511757,0.005026,0.033006,-264.373046,0.328077,62.664961
3.8785,0.009694,-0.001663,0.005414,-0.013145,0.002255,-0.007221,0.012105,-0.511763,0.005111,0.033006,-264.373046,0.328077,62.664961
3.8984,0.009821,-0.001128,0.005159,-0.012677,0.002175,-0.006964,0.012105,-0.511763,0.005111,0.033006,-264.373046,0.328077,62.664961
3.9185,0.010014,-0.001735,0.006232,-0.012134,0.002082,-0.006666,0.012452,-0.511121,0.005159,0.108017,-264.373047,0.253067,62.66496
3.938,0.010149,-0.001464,0.006328,-0.011523,0.001977,-0.00633,0.012515,-0.511173,0.005251,0.108017,-264.373047,0.253067,62.66496
3.9583,0.009468,-0.001766,0.005857,-0.010836,0.001859,-0.005953,0.013376,-0.511454,0.006328,0.162519,-264.373048,0.177589,62.664959
3.978,0.009922,-0.001858,0.005747,-0.010069,0.001727,-0.005532,0.012852,-0.511627,0.00606,0.162519,-264.373048,0.177589,62.664959
3.9984,0.009949,-0.001811,0.005834,-0.009246,0.001586,-0.00508,0.012852,-0.511627,0.00606,0.162519,-264.373048,0.177589,62.664959
4.0185,0.009617,-0.001809,0.005446,-0.008344,0.001432,-0.004584,0.012924,-0.511803,0.005834,0.162519,-264.373052,0.102965,62.664955
4.0382,0.010093,-0.001719,0.005598,-0.00737,0.001264,-0.004049,0.012887,-0.511803,0.005807,0.162519,-264.373052,0.102965,62.664955
4.058,0.009691,-0.001686,0.004989,-0.006322,0.001085,-0.003473,0.012946,-0.511711,0.005598,0.162519,-264.373067,0.028079,62.664938
4.0781,0.009743,-0.001818,0.00559,-0.005205,0.000893,-0.00286,0.01254,-0.511693,0.00525,0.162519,-264.373067,0.028079,62.664938
4.0984,0.009968,-0.00193,0.005691,-0.004012,0.000688,-0.002204,0.01254,-0.511693,0.00525,0.162519,-264.373067,0.028079,62.664938
4.1182,0.00981,-0.001926,0.00639,-0.002735,0.000469,-0.001503,0.012864,-0.511922,0.00569,0.162519,-264.373115,-0.046973,62.664885
4.1381,0.009458,-0.001779,0.004449,-0.001406,0.000241,-0.000772,0.012877,-0.511921,0.005733,0.162519,-264.373115,-0.046973,62.664885
4.1585,0.009727,-0.001997,0.003652,0.0,0.0,0.0,0.011718,-0.511774,0.004447,0.162519,-264.3732,-0.121905,62.66479
4.1781,0.009535,-0.001539,0.00688,0.0,0.0,0.0,0.011644,-0.511898,0.003996,0.162519,-264.3732,-0.121905,62.66479
4.1985,0.009684,-0.001764,0.004956,0.0,0.0,0.0,0.011644,-0.511898,0.003996,0.162519,-264.3732,-0.121905,62.66479
4.2183,0.009802,-0.001689,0.005689,0.0,0.0,0.0,0.012201,-0.511757,0.004953,0.162519,-264.37328,-0.196922,62.664702
4.2386,0.009815,-0.001879,0.00451,0.0,0.0,0.0,0.012235,-0.511752,0.005003,0.162519,-264.37328,-0.196922,62.664702
4.2582,0.00962,-0.001698,0.00576,0.0,0.0,0.0,0.012115,-0.511874,0.00451,0.162519,-264.37328,-0.196922,62.664702
4.2782,0.009649,-0.00166,0.007512,0.0,0.0,0.0,0.012367,-0.511769,0.005222,0.162519,-264.37328,-0.196922,62.664702
4.2982,0.009316,-0.001525,0.006092,0.0,0.0,0.0,0.012367,-0.511769,0.005222,0.162519,-264.37328,-0.196922,62.664702
4.318,0.009638,-0.001444,0.005865,0.0,0.0,0.0,0.012423,-0.511516,0.006092,0.162519,-264.37328,-0.196922,62.664702
4.3384,0.009635,-0.001531,0.005184,0.0,0.0,0.0,0.012437,-0.51151,0.006076,0.162519,-264.37328,-0.196922,62.664702
4.3581,0.009388,-0.001377,0.006391,0.0,0.0,0.0,0.012279,-0.511524,0.005184,0.162519,-264.37328,-0.196922,62.664702
4.3784,0.009602,-0.001419,0.006501,0.0,0.0,0.0,0.012487,-0.511435,0.005864,0.162519,-264.37328,-0.196922,62.664702
4.3983,0.009678,-0.001986,0.005425,-9.9e-05,1.5e-05,0.0,0.012487,-0.511435,0.005864,0.162519,-264.37328,-0.196922,62.664702
4.4183,0.009446,-0.001426,0.005138,-9.9e-05,1.5e-05,0.0,0.012445,-0.511979,0.005425,0.162519,-264.37328,-0.196922,62.664702
4.4388,0.009925,-0.00214,0.005195,-9.9e-05,1.5e-05,0.0,0.012421,-0.511942,0.005406,0.162519,-264.37328,-0.196922,62.664702
4.4582,0.009548,-0.00167,0.006864,-9.9e-05,1.5e-05,0.0,0.012574,-0.512133,0.005195,0.087576,-264.373287,-0.153236,62.664695
4.4782,0.009698,-0.001695,0.006399,-9.9e-05,1.5e-05,0.0,0.012838,-0.511869,0.006122,0.087576,-264.373287,-0.153236,62.664695
4.4982,0.009616,-0.001741,0.005211,-9.9e-05,1.5e-05,0.0,0.012838,-0.511869,0.006122,0.087576,-264.373287,-0.153236,62.664695
4.5181,0.009899,-0.001831,0.005348,-9.9e-05,1.5e-05,0.0,0.012272,-0.511734,0.005211,0.01257,-264.373303,-0.153236,62.664679
4.5384,0.009682,-0.001683,0.004702,-9.9e-05,1.5e-05,0.0,0.012298,-0.51174,0.005221,0.01257,-264.373303,-0.153236,62.664679
4.5582,0.009869,-0.001916,0.005728,-9.9e-05,1.5e-05,0.0,0.012078,-0.511677,0.004702,-0.062519,-264.373329,-0.153236,62.664653
4.5781,0.009893,-0.001542,0.00578,-9.9e-05,1.5e-05,0.0,0.012486,-0.51181,0.005291,-0.062519,-264.373329,-0.153236,62.664653
4.5982,0.009643,-0.00159,0.006142,-1e-06,0.0,-0.0,0.012486,-0.51181,0.005291,-0.062519,-264.373329,-0.153236,62.664653
4.6183,0.009496,-0.001923,0.005588,-0.001404,0.000217,-0.000951,0.012771,-0.51158,0.006142,-0.137578,-264.373364,-0.153236,62.664618
4.6385,0.009706,-0.001409,0.004992,-0.002735,0.000422,-0.001853,0.01274,-0.511604,0.006102,-0.137578,-264.373364,-0.153236,62.664618
4.658,0.009545,-0.001647,0.005859,-0.003994,0.000617,-0.002707,0.012252,-0.511402,0.004992,-0.062625,-264.373364,-0.228189,62.664618
4.6781,0.00968,-0.001775,0.00432,-0.005183,0.000801,-0.003513,0.012413,-0.511537,0.005488,-0.062625,-264.373364,-0.228189,62.664618
4.6982,0.009591,-0.001765,0.004208,-0.006298,0.000973,-0.004268,0.012413,-0.511537,0.005488,-0.062625,-264.373364,-0.228189,62.664618
4.7182,0.009606,-0.001786,0.005512,-0.007341,0.001134,-0.004975,0.011729,-0.511759,0.004206,0.012385,-264.373421,-0.303199,62.664555
4.738,0.009529,-0.001973,0.007173,-0.008311,0.001284,-0.005633,0.011774,-0.51176,0.004291,0.012385,-264.373421,-0.303199,62.664555
4.7584,0.009587,-0.001494,0.00599,-0.009211,0.001423,-0.006243,0.01314,-0.511953,0.007154,0.087285,-264.373907,-0.378098,62.664014
4.7781,0.009559,-0.001796,0.005974,-0.010041,0.001551,-0.006805,0.012851,-0.511686,0.00649,0.087285,-264.373907,-0.378098,62.664014
4.7981,0.009691,-0.0018,0.008428,-0.010793,0.001667,-0.007315,0.012851,-0.511686,0.00649,0.087285,-264.373907,-0.378098,62.664014
4.8183,0.009327,-0.001601,0.005228,-0.011476,0.001772,-0.007778,0.013794,-0.511751,0.008324,0.162274,-264.375522,-0.453088,62.662215
4.8382,0.009611,-0.001781,0.006004,-0.012088,0.001867,-0.008192,0.013659,-0.511739,0.008097,0.162274,-264.375522,-0.453088,62.662215
4.858,0.009316,-0.00155,0.005575,-0.012628,0.00195,-0.008558,0.012331,-0.511718,0.005777,0.237366,-264.379171,-0.51684,62.658153
4.8782,0.009359,-0.001336,0.005281,-0.013094,0.002022,-0.008874,0.01219,-0.511611,0.005634,0.237366,-264.379171,-0.51684,62.658153
4.8983,0.008949,-0.00175,0.005398,-0.01349,0.002084,-0.009143,0.01219,-0.511611,0.005634,0.237366,-264.379171,-0.51684,62.658153
4.9184,0.008903,-0.001375,0.00489,-0.013814,0.002134,-0.009362,0.011116,-0.511655,0.005001,0.253881,-264.384151,-0.51684,62.652609
4.938,0.008457,-0.001676,0.007027,-0.014066,0.002172,-0.009533,0.01112,-0.511633,0.004983,0.253881,-264.384151,-0.51684,62.652609
4.9583,0.008521,-0.001228,0.004784,-0.014246,0.0022,-0.009655,0.01152,-0.511587,0.006674,0.253881,-264.389718,-0.51684,62.64641
4.9781,0.008441,-0.001582,0.005951,-0.014354,0.002217,-0.009728,0.011137,-0.511371,0.00556,0.253881,-264.389718,-0.51684,62.64641
4.9982,0.0086,-0.001734,0.004525,-0.014389,0.002222,-0.009752,0.011137,-0.511371,0.00556,0.253881,-264.389718,-0.51684,62.64641
5.0183,0.008057,-0.000886,0.00457,-0.014353,0.002217,-0.009728,0.010223,-0.511626,0.004062,0.253881,-264.395531,-0.51684,62.639938
5.0386,0.007782,-0.001162,0.004307,-0.014245,0.0022,-0.009655,0.010216,-0.511573,0.004084,0.253881,-264.395531,-0.51684,62.639938
5.0582,0.007243,-0.001353,0.00312,-0.014065,0.002172,-0.009533,0.009422,-0.511073,0.00393,0.253881,-264.401477,-0.51684,62.633318
5.078,0.007526,-0.001069,0.001834,-0.013813,0.002133,-0.009362,0.009017,-0.511221,0.003421,0.253881,-264.401477,-0.51684,62.633318
5.0982,0.007428,-0.001115,0.003808,-0.01349,0.002083,-0.009143,0.009017,-0.511221,0.003421,0.253881,-264.401477,-0.51684,62.633318
5.118,0.007023,-0.00119,0.004637,-0.013093,0.002022,-0.008874,0.008677,-0.511007,0.003339,0.253881,-264.407364,-0.51684,62.626764
5.1382,0.006829,-0.001086,0.002169,-0.012626,0.00195,-0.008557,0.008708,-0.511016,0.003417,0.253881,-264.407364,-0.51684,62.626764
5.1585,0.006627,-0.001003,0.001423,-0.012086,0.001867,-0.008191,0.007415,-0.511005,0.001816,0.253881,-264.412938,-0.51684,62.620557
5.1781,0.006444,-0.00095,0.002362,-0.011473,0.001772,-0.007775,0.007313,-0.510993,0.001548,0.253881,-264.412938,-0.51684,62.620557
5.1982,0.006525,-0.000963,0.002679,-0.010792,0.001667,-0.007314,0.007313,-0.510993,0.001548,0.253881,-264.412938,-0.51684,62.620557
5.2182,0.005645,-0.001025,0.001836,-0.010032,0.001549,-0.006799,0.007277,-0.510868,0.002263,0.253881,-264.418156,-0.51684,62.614748
5.2386,0.006077,-0.000528,0.002109,-0.009208,0.001422,-0.006241,0.007212,-0.510876,0.002222,0.253881,-264.418156,-0.51684,62.614748
5.2585,0.005667,-0.00071,0.001803,-0.008305,0.001283,-0.005628,0.006735,-0.510464,0.001826,0.253881,-264.422616,-0.51684,62.609782
5.2784,0.005686,-0.000932,0.001581,-0.007332,0.001132,-0.004969,0.006598,-0.510594,0.001777,0.253881,-264.422616,-0.51684,62.609782
5.2983,0.005925,-0.000752,0.000164,-0.006293,0.000972,-0.004265,0.006598,-0.510594,0.001777,0.253881,-264.422616,-0.51684,62.609782
5.318,0.005619,-0.00054,0.000417,-0.005178,0.0008,-0.003509,0.00556,-0.510683,-0.00014,0.253881,-264.426431,-0.51684,62.605535
5.338,0.005392,-0.000851,0.00245,-0.003991,0.000616,-0.002705,0.005567,-0.510671,-0.000108,0.253881,-264.426431,-0.51684,62.605535
5.3581,0.005138,-0.000664,0.001695,-0.002731,0.000422,-0.001851,0.006399,-0.510812,0.002286,0.253881,-264.42903,-0.51684,62.602641
5.378,0.005392,-0.000402,0.000972,-0.001395,0.000215,-0.000946,0.006141,-0.510722,0.001926,0.253881,-264.42903,-0.51684,62.602641
5.3981,0.005276,-0.000704,0.001042,0.0,0.0,0.0,0.006141,-0.510722,0.001926,0.253881,-264.42903,-0.51684,62.602641
5.4182,0.005654,-0.000929,0.000491,0.0,0.0,0.0,0.005614,-0.510674,0.000911,0.253881,-264.430676,-0.51684,62.600809
5.4385,0.00481,-0.000233,0.002361,0.0,0.0,0.0,0.005629,-0.510691,0.000878,0.253881,-264.430676,-0.51684,62.600809
5.4585,0.005292,-0.000539,0.001614,0.0,0.0,0.0,0.006014,-0.510232,0.002361,0.253881,-264.430676,-0.51684,62.600809
5.4783,0.005535,-0.000428,0.001245,0.0,0.0,0.0,0.006071,-0.510405,0.00194,0.253881,-264.430676,-0.51684,62.600809
5.4982,0.005109,-0.000666,0.001876,0.0,0.0,0.0,0.006071,-0.510405,0.00194,0.253881,-264.430676,-0.51684,62.600809
5.5182,0.005355,-0.000524,0.000801,0.0,0.0,0.0,0.006065,-0.510666,0.001876,0.253881,-264.430676,-0.51684,62.600809
5.5386,0.005003,-0.000452,0.002557,0.0,0.0,0.0,0.006044,-0.510655,0.001799,0.253881,-264.430676,-0.51684,62.600809
5.5582,0.004983,-0.000558,0.00211,0.0,0.0,0.0,0.006307,-0.51045,0.002557,0.253881,-264.430676,-0.51684,62.600809
5.5784,0.005328,-0.000326,0.001668,0.0,0.0,0.0,0.006165,-0.510511,0.002302,0.253881,-264.430676,-0.51684,62.600809
5.5984,0.005124,-0.000809,0.001141,0.0,0.0,0.0,0.006165,-0.510511,0.002302,0.253881,-264.430676,-0.51684,62.600809
5.6185,0.005092,-0.000276,0.000562,-9.9e-05,1.6e-05,0.0,0.005706,-0.510808,0.001141,0.253881,-264.430676,-0.51684,62.600809
5.6387,0.005384,-0.000183,0.001732,-9.9e-05,1.6e-05,0.0,0.005686,-0.510777,0.001106,0.253881,-264.430676,-0.51684,62.600809
5.6586,0.004808,-0.000734,-0.000689,-9.9e-05,1.6e-05,0.0,0.006267,-0.510183,0.001732,0.253881,-264.430676,-0.51684,62.600809
5.6783,0.00508,-0.000611,0.00089,-9.9e-05,1.6e-05,0.0,0.005243,-0.510495,0.000363,0.253881,-264.430676,-0.51684,62.600809
5.6984,0.005129,-0.001073,0.000858,-9.9e-05,1.6e-05,0.0,0.005243,-0.510495,0.000363,0.253881,-264.430676,-0.51684,62.600809
5.718,0.005259,-0.000791,-0.000343,-9.9e-05,1.6e-05,0.0,0.005567,-0.511073,0.000858,0.178893,-264.430676,-0.441852,62.600808
5.7388,0.005152,-0.00071,0.001774,-9.9e-05,1.6e-05,0.0,0.005534,-0.511054,0.000777,0.178893,-264.430676,-0.441852,62.600808
5.7582,0.005414,-0.000673,0.000555,-9.9e-05,1.6e-05,0.0,0.006056,-0.510709,0.001774,0.103897,-264.430678,-0.366856,62.600807
5.778,0.005087,-0.000712,-0.000325,-9.9e-05,1.6e-05,0.0,0.005853,-0.510689,0.001085,0.103897,-264.430678,-0.366856,62.600807
5.7982,0.00519,-0.000506,0.001336,-9.9e-05,1.6e-05,0.0,0.005853,-0.510689,0.001085,0.103897,-264.430678,-0.366856,62.600807
5.8188,0.005103,-0.000687,0.001337,-9.9e-05,1.6e-05,0.0,0.005871,-0.510505,0.001336,0.028903,-264.430685,-0.291862,62.6008
5.8381,0.005093,-0.000521,0.001756,-0.000748,0.000119,-0.000166,0.005865,-0.510518,0.001336,0.028903,-264.430685,-0.291862,62.6008
5.8582,0.004986,-0.000646,0.00105,-0.001461,0.000232,-0.000325,0.005987,-0.51052,0.001756,-0.046098,-264.430702,-0.216861,62.600783
5.8781,0.00551,-0.000232,0.002379,-0.002134,0.000339,-0.000475,0.005723,-0.510591,0.001355,-0.046098,-264.430702,-0.216861,62.600783
5.898,0.005194,-0.000824,0.001829,-0.002766,0.00044,-0.000616,0.005723,-0.510591,0.001355,-0.046098,-264.430702,-0.216861,62.600783
5.9183,0.005057,-0.001027,0.000543,-0.003359,0.000534,-0.000748,0.006093,-0.510818,0.001822,-0.022997,-264.430976,-0.286837,62.600497
5.9385,0.005075,-0.000725,0.000913,-0.003916,0.000623,-0.000872,0.006042,-0.510832,0.001736,-0.022997,-264.430976,-0.286837,62.600497
5.9585,0.005264,-0.000564,-4.5e-05,-0.004438,0.000706,-0.000988,0.005434,-0.510708,0.00089,-0.022997,-264.432083,-0.286837,62.599343
5.9779,0.00479,-0.000677,0.00143,-0.004919,0.000782,-0.001095,0.005311,-0.510624,0.000355,-0.022997,-264.432083,-0.286837,62.599343
5.998,0.00485,-0.000295,0.000632,-0.005358,0.000852,-0.001193,0.005311,-0.510624,0.000355,-0.022997,-264.432083,-0.286837,62.599343
6.0181,0.004753,-0.000816,0.000254,-0.005761,0.000916,-0.001283,0.004982,-0.510264,0.00059,-0.022997,-264.43365,-0.286837,62.59771
6.0386,0.004883,-0.000563,0.002436,-0.006126,0.000974,-0.001364,0.004971,-0.510301,0.000566,-0.022997,-264.43365,-0.286837,62.59771
6.0582,0.004442,-0.000631,0.000646,-0.006453,0.001026,-0.001437,0.005918,-0.510529,0.00239,-0.022997,-264.435794,-0.286837,62.595475
6.0783,0.004344,-0.000797,0.000779,-0.006742,0.001072,-0.001501,0.005241,-0.510583,0.001394,-0.022997,-264.435794,-0.286837,62.595475
6.0983,0.004459,-0.000636,0.001097,-0.006992,0.001112,-0.001557,0.005241,-0.510583,0.001394,-0.022997,-264.435794,-0.286837,62.595475
6.1185,0.004536,-0.000565,0.001318,-0.007203,0.001145,-0.001604,0.004721,-0.510588,0.001031,-0.022997,-264.438244,-0.286837,62.592921
6.1385,0.004012,-0.000621,0.002522,-0.007377,0.001173,-0.001643,0.004746,-0.510586,0.001049,-0.022997,-264.438244,-0.286837,62.592921
6.1581,0.003897,-0.000524,0.001335,-0.007511,0.001194,-0.001672,0.005027,-0.510577,0.002461,-0.022997,-264.441042,-0.286837,62.590005
6.178,0.003993,-0.000373,-8.2e-05,-0.007607,0.001209,-0.001694,0.004738,-0.510541,0.001815,-0.022997,-264.441042,-0.286837,62.590005
6.1983,0.004355,-0.000387,0.001799,-0.007665,0.001219,-0.001707,0.004738,-0.510541,0.001815,-0.022997,-264.441042,-0.286837,62.590005
6.2182,0.003991,-0.000113,0.000741,-0.007684,0.001222,-0.001711,0.004913,-0.51033,0.001719,-0.022997,-264.443994,-0.286837,62.586928
6.2381,0.004056,-0.000142,-0.000542,-0.007665,0.001219,-0.001707,0.004867,-0.510314,0.001651,-0.022997,-264.443994,-0.286837,62.586928
6.258,0.003411,-0.00015,0.000225,-0.007608,0.00121,-0.001694,0.003483,-0.510095,-0.000608,-0.022997,-264.44706,-0.286837,62.583732
6.2779,0.003599,-0.000435,0.000232,-0.007512,0.001194,-0.001673,0.003469,-0.51012,-0.000144,-0.022997,-264.44706,-0.286837,62.583732
6.2982,0.003385,-0.000507,0.000255,-0.007377,0.001173,-0.001643,0.003469,-0.51012,-0.000144,-0.022997,-264.44706,-0.286837,62.583732
6.3181,0.002871,-0.000159,0.001052,-0.007205,0.001146,-0.001604,0.003142,-0.510448,0.000172,-0.022997,-264.450127,-0.286837,62.580535
6.3389,0.003071,-0.000326,0.00079,-0.006994,0.001112,-0.001557,0.00315,-0.510427,0.000228,-0.022997,-264.450127,-0.286837,62.580535
6.3581,0.002481,-0.000147,0.00226,-0.006737,0.001071,-0.0015,0.003185,-0.51028,0.000725,-0.022997,-264.453082,-0.286837,62.577455
6.3789,0.002627,-9.6e-05,-0.000281,-0.006456,0.001026,-0.001437,0.003402,-0.510199,0.001579,-0.022997,-264.453082,-0.286837,62.577455
