mach0312/omni-docking-bench/src/icros_test_setup/results/kinematic_sample/timeseries/trial_129.csv
t,x,y,yaw,vx,vy,wz,bl_x,bl_y,bl_yaw,front_steering_joint,front_wheel_joint,rear_steering_joint,rear_wheel_joint
0.0,-0.020958,-0.029001,0.032385,0.007717,-0.003943,0.00459,-0.004741,-0.538322,0.033206,-0.146656,-264.738532,-0.718415,61.962006
0.0004,-0.020526,-0.029329,0.031795,0.005604,-0.002863,0.003333,-0.004537,-0.538221,0.033278,-0.146656,-264.735416,-0.718415,61.9661
0.0008,-0.020928,-0.028855,0.033356,0.005145,-0.002629,0.00306,-0.004537,-0.538221,0.033278,-0.146656,-264.732559,-0.718415,61.969854
0.0012,-0.020221,-0.029479,0.032348,0.004643,-0.002373,0.002762,-0.004537,-0.538221,0.033278,-0.146656,-264.72997,-0.718415,61.973256
0.0015,-0.020494,-0.028799,0.031459,0.004101,-0.002095,0.002439,-0.004166,-0.538502,0.033716,-0.146656,-264.727888,-0.718415,61.975992
0.0018,-0.020743,-0.029105,0.035364,0.003517,-0.001797,0.002092,-0.004158,-0.538526,0.033661,-0.146656,-264.726232,-0.718415,61.978168
0.0021,-0.020642,-0.028827,0.033631,0.002896,-0.00148,0.001722,-0.004158,-0.538526,0.033661,-0.146656,-264.725329,-0.718415,61.979354
0.0023,-0.020656,-0.029285,0.033527,0.002232,-0.001141,0.001328,-0.00358,-0.538705,0.033898,-0.146656,-264.725329,-0.718415,61.979354
0.0026,-0.020275,-0.029347,0.034703,0.001528,-0.000781,0.000909,-0.00358,-0.538705,0.033898,-0.146656,-264.725329,-0.718415,61.979354
0.0029,-0.020205,-0.029457,0.034574,0.000785,-0.000401,0.000467,-0.004041,-0.538738,0.03305,-0.146656,-264.725329,-0.718415,61.979354
0.0063,-0.020522,-0.029242,0.033125,0.0,-0.0,0.0,-0.002488,-0.539193,0.034626,-0.146656,-264.725329,-0.718415,61.979354
0.0265,-0.020145,-0.029441,0.034645,0.016,0.016,-0.03,-0.003128,-0.539067,0.033778,-0.146656,-264.725329,-0.718415,61.979354
0.0464,-0.020234,-0.02926,0.033733,0.021153,0.028726,-0.034645,-0.003128,-0.539067,0.033778,-0.146656,-264.725329,-0.718415,61.979354
0.0663,-0.02004,-0.028971,0.034127,0.021209,0.02856,-0.033733,-0.002994,-0.538988,0.033756,-0.146656,-264.725012,-0.718415,61.979771
0.0867,-0.020196,-0.02925,0.034276,0.021017,0.02827,-0.034127,-0.00297,-0.538967,0.033781,-0.146656,-264.725012,-0.718415,61.979771
0.1067,-0.020179,-0.029367,0.03315,0.021186,0.02854,-0.034276,-0.002718,-0.53895,0.034276,-0.071662,-264.725012,-0.643421,61.979771
0.1263,-0.020408,-0.029546,0.032815,0.021142,0.028682,-0.03315,-0.003037,-0.539028,0.033632,-0.071662,-264.725012,-0.643421,61.979771
0.1463,-0.020189,-0.029302,0.034037,0.021367,0.028861,-0.032815,-0.003037,-0.539028,0.033632,-0.071662,-264.725012,-0.643421,61.979771
0.1662,-0.020172,-0.029135,0.033488,0.021174,0.028598,-0.034037,-0.002833,-0.539006,0.034037,0.003434,-264.725012,-0.568325,61.979771
0.1863,-0.019918,-0.029403,0.03274,0.021136,0.028443,-0.033488,-0.002851,-0.538996,0.034,0.003434,-264.725012,-0.568325,61.979771
0.2063,-0.020539,-0.029409,0.033609,0.02087,0.028736,-0.03274,-0.003223,-0.53913,0.03274,0.078327,-264.725012,-0.493432,61.979772
0.2264,-0.020097,-0.029364,0.032986,0.021515,0.028702,-0.033609,-0.003325,-0.539125,0.033234,0.078327,-264.725012,-0.493432,61.979772
0.2472,-0.0199,-0.029609,0.031931,0.021054,0.028686,-0.032986,-0.003325,-0.539125,0.033234,0.078327,-264.725012,-0.493432,61.979772
0.2664,-0.02037,-0.02975,0.0342,0.020835,0.028959,-0.031931,-0.003618,-0.539349,0.031931,0.153342,-264.725011,-0.418417,61.979772
0.2865,-0.020315,-0.029426,0.032035,0.021375,0.029037,-0.0342,-0.003574,-0.539356,0.032077,0.153342,-264.725011,-0.418417,61.979772
0.3062,-0.020255,-0.029535,0.033965,0.021247,0.02876,-0.032035,-0.00398,-0.539165,0.032035,0.228335,-264.725011,-0.343424,61.979773
0.3266,-0.020207,-0.029368,0.034406,0.021246,0.02883,-0.033965,-0.003387,-0.539208,0.033132,0.228335,-264.725011,-0.343424,61.979773
0.3465,-0.019953,-0.029542,0.033522,0.021205,0.028655,-0.034406,-0.003387,-0.539208,0.033132,0.228335,-264.725011,-0.343424,61.979773
0.3664,-0.020456,-0.02957,0.034254,0.020932,0.028857,-0.033522,-0.00286,-0.539256,0.033522,0.303331,-264.72501,-0.268428,61.979775
0.3866,-0.020509,-0.029594,0.033261,0.021457,0.028852,-0.034254,-0.002869,-0.539257,0.033572,0.303331,-264.72501,-0.268428,61.979775
0.4062,-0.019902,-0.029254,0.03428,0.021482,0.028895,-0.033261,-0.003549,-0.539312,0.033261,0.345887,-264.72501,-0.193413,61.979777
0.4261,-0.020563,-0.029485,0.033144,0.020893,0.028554,-0.03428,-0.002908,-0.539108,0.033841,0.345887,-264.72501,-0.193413,61.979777
0.4463,-0.020234,-0.029456,0.032935,0.021529,0.028788,-0.033144,-0.002908,-0.539108,0.033841,0.345887,-264.72501,-0.193413,61.979777
0.4663,-0.01984,-0.029088,0.03303,0.021193,0.028774,-0.032935,-0.003441,-0.53918,0.032935,0.354091,-264.725009,-0.118423,61.979779
0.4864,-0.020479,-0.029355,0.033549,0.02079,0.028417,-0.03303,-0.003408,-0.539152,0.032942,0.354091,-264.725009,-0.118423,61.979779
0.5064,-0.019909,-0.029432,0.033008,0.021452,0.028651,-0.033549,-0.003372,-0.539068,0.033549,0.377843,-264.725008,-0.043302,61.979781
0.5265,-0.020305,-0.029471,0.033983,0.02087,0.028759,-0.033008,-0.003205,-0.539117,0.033242,0.377843,-264.725008,-0.043302,61.979781
0.5464,-0.020457,-0.029156,0.034357,0.021295,0.028764,-0.033983,-0.003205,-0.539117,0.033242,0.377843,-264.725008,-0.043302,61.979781
0.5662,-0.020462,-0.029467,0.03303,0.021446,0.028436,-0.034357,-0.002938,-0.538855,0.034357,0.377537,-264.725007,0.031577,61.979783
0.5866,-0.020042,-0.029251,0.033598,0.021424,0.028775,-0.03303,-0.002986,-0.538878,0.034265,0.377537,-264.725007,0.031577,61.979783
0.6064,-0.019947,-0.029374,0.033946,0.021013,0.028561,-0.033598,-0.002911,-0.538963,0.033598,0.359741,-264.725006,0.106576,61.979785
0.6263,-0.020307,-0.029724,0.035151,0.020933,0.02868,-0.033946,-0.002755,-0.53903,0.033796,0.359741,-264.725006,0.106576,61.979785
0.6464,-0.019951,-0.029367,0.03335,0.021339,0.028992,-0.035151,-0.002755,-0.53903,0.033796,0.359741,-264.725006,0.106576,61.979785
0.6662,-0.020136,-0.029627,0.033667,0.020919,0.028686,-0.03335,-0.002945,-0.539084,0.03335,0.381793,-264.725005,0.181577,61.979788
0.6863,-0.020331,-0.029468,0.034094,0.021122,0.028932,-0.033667,-0.002947,-0.539101,0.033372,0.381793,-264.725005,0.181577,61.979788
0.7066,-0.020207,-0.029185,0.032818,0.021324,0.028758,-0.034094,-0.002947,-0.539172,0.034094,0.338963,-264.725004,0.256584,61.97979
0.7261,-0.019774,-0.029396,0.033747,0.021153,0.028506,-0.032818,-0.003246,-0.539023,0.033368,0.338963,-264.725004,0.256584,61.97979
0.7463,-0.02011,-0.029291,0.034296,0.020754,0.028712,-0.033747,-0.003246,-0.539023,0.033368,0.338963,-264.725004,0.256584,61.97979
0.7663,-0.020151,-0.029475,0.03427,0.021103,0.028584,-0.034296,-0.002623,-0.538991,0.034296,0.377278,-264.725003,0.331575,61.979792
0.7866,-0.020134,-0.029252,0.03276,0.021149,0.028767,-0.03427,-0.002627,-0.539003,0.034294,0.377278,-264.725003,0.331575,61.979792
0.8064,-0.020308,-0.029465,0.034917,0.021081,0.028577,-0.03276,-0.003429,-0.538978,0.03276,0.372158,-264.725002,0.406575,61.979794
0.8263,-0.020461,-0.029133,0.032981,0.021324,0.028738,-0.034917,-0.002908,-0.539077,0.033974,0.372158,-264.725002,0.406575,61.979794
0.8461,-0.020463,-0.029555,0.032755,0.02141,0.028443,-0.032981,-0.002908,-0.539077,0.033974,0.372158,-264.725002,0.406575,61.979794
0.8662,-0.020288,-0.029939,0.033058,0.02142,0.028869,-0.032755,-0.00376,-0.539282,0.032755,0.354868,-264.725001,0.481675,61.979797
0.8867,-0.020389,-0.02905,0.035031,0.021266,0.029252,-0.033058,-0.003738,-0.539308,0.032775,0.354868,-264.725001,0.481675,61.979797
0.9064,-0.020224,-0.029758,0.035133,0.021394,0.028318,-0.035031,-0.002527,-0.538737,0.035031,0.369798,-264.724997,0.556572,61.979807
0.9263,-0.020169,-0.029475,0.034401,0.021257,0.02903,-0.035133,-0.002403,-0.539139,0.035089,0.369798,-264.724997,0.556572,61.979807
0.9463,-0.020194,-0.029505,0.033079,0.02117,0.028764,-0.034401,-0.002403,-0.539139,0.035089,0.369798,-264.724997,0.556572,61.979807
0.9668,-0.020615,-0.02934,0.034367,0.021159,0.028821,-0.033079,-0.003324,-0.539224,0.033077,0.402808,-264.72498,0.63158,61.979847
0.9863,-0.020102,-0.029515,0.034041,0.021611,0.028614,-0.034367,-0.003308,-0.539211,0.033164,0.402808,-264.72498,0.63158,61.979847
1.0062,-0.020365,-0.029367,0.034001,0.021095,0.028813,-0.034041,-0.002736,-0.539212,0.034034,0.351056,-264.724912,0.706588,61.98001
1.0262,-0.019851,-0.029356,0.032293,0.021352,0.028658,-0.034001,-0.002901,-0.539132,0.034015,0.351056,-264.724912,0.706588,61.98001
1.0462,-0.02034,-0.029618,0.034751,0.020789,0.0287,-0.032293,-0.002901,-0.539132,0.034015,0.351056,-264.724912,0.706588,61.98001
1.0664,-0.02062,-0.029593,0.034855,0.021357,0.028893,-0.034751,-0.002574,-0.539271,0.034711,0.339172,-264.724608,0.78158,61.980726
1.0866,-0.020322,-0.029371,0.033733,0.021639,0.028856,-0.034855,-0.002592,-0.539271,0.03472,0.339172,-264.724608,0.78158,61.980726
1.1061,-0.020012,-0.029244,0.034154,0.021301,0.028669,-0.033733,-0.003036,-0.539,0.033652,0.407612,-264.723858,0.856579,61.982472
1.1268,-0.019782,-0.029637,0.032185,0.020999,0.028544,-0.034154,-0.002775,-0.53896,0.033928,0.407612,-264.723858,0.856579,61.982472
1.1464,-0.020066,-0.029279,0.034923,0.020725,0.028985,-0.032185,-0.002775,-0.53896,0.033928,0.407612,-264.723858,0.856579,61.982472
1.1662,-0.019587,-0.029055,0.034363,0.021076,0.028561,-0.034923,-0.002009,-0.538716,0.034644,0.336477,-264.722029,0.931578,61.986718
1.1871,-0.019527,-0.028746,0.033276,0.020574,0.028365,-0.034363,-0.002006,-0.538712,0.034617,0.336477,-264.722029,0.931578,61.986718
1.2068,-0.019466,-0.028483,0.032085,0.020473,0.028081,-0.033276,-0.002252,-0.538115,0.032929,0.41147,-264.71876,1.00657,61.993464
1.2263,-0.018822,-0.028476,0.032665,0.02037,0.027844,-0.032085,-0.002686,-0.538128,0.032415,0.41147,-264.71876,1.00657,61.993464
1.247,-0.018894,-0.028521,0.032949,0.019742,0.027846,-0.032665,-0.002686,-0.538128,0.032415,0.41147,-264.71876,1.00657,61.993464
1.2664,-0.01795,-0.028049,0.031879,0.019823,0.027883,-0.032949,-0.001552,-0.53762,0.032304,0.344307,-264.71363,1.081588,62.00271
1.2866,-0.018025,-0.028393,0.032129,0.018835,0.027463,-0.031879,-0.001549,-0.537617,0.032269,0.344307,-264.71363,1.081588,62.00271
1.3061,-0.016979,-0.02729,0.03054,0.018927,0.027799,-0.032129,-0.001114,-0.537465,0.031488,0.380472,-264.706478,1.156586,62.014456
1.3262,-0.017035,-0.027269,0.030425,0.017804,0.026758,-0.03054,-0.001213,-0.537146,0.030868,0.380472,-264.706478,1.156586,62.014456
1.3462,-0.01655,-0.027094,0.030337,0.017856,0.026738,-0.030425,-0.001213,-0.537146,0.030868,0.380472,-264.706478,1.156586,62.014456
1.3668,-0.015703,-0.026206,0.030635,0.017365,0.026579,-0.030337,-0.000341,-0.535843,0.029332,0.401303,-264.698487,1.189155,62.028703
1.3866,-0.015574,-0.026165,0.030598,0.016498,0.025713,-0.030635,-0.000304,-0.535825,0.029394,0.401303,-264.698487,1.189155,62.028703
1.4068,-0.014138,-0.024734,0.03082,0.016367,0.025676,-0.030598,0.000638,-0.534999,0.029621,0.428448,-264.690732,1.195465,62.045449
1.4268,-0.014153,-0.024507,0.029287,0.014893,0.024286,-0.03082,0.001243,-0.534595,0.030165,0.428448,-264.690732,1.195465,62.045449
1.4463,-0.014332,-0.024763,0.028801,0.014864,0.024082,-0.029287,0.001243,-0.534595,0.030165,0.428448,-264.690732,1.195465,62.045449
1.4665,-0.012738,-0.023672,0.026421,0.015039,0.02434,-0.028801,0.001108,-0.533303,0.027339,0.401409,-264.683691,1.215199,62.064066
1.4861,-0.012925,-0.02381,0.026743,0.013359,0.023327,-0.026421,0.001102,-0.533283,0.027236,0.401409,-264.683691,1.215199,62.064066
1.5062,-0.011409,-0.022586,0.025846,0.013557,0.023456,-0.026743,0.001259,-0.532688,0.025617,0.394845,-264.677277,1.230403,62.081797
1.5261,-0.011093,-0.022548,0.026074,0.011989,0.022283,-0.025846,0.00162,-0.532413,0.025604,0.394845,-264.677277,1.230403,62.081797
1.5461,-0.01122,-0.022079,0.025081,0.011677,0.022251,-0.026074,0.00162,-0.532413,0.025604,0.394845,-264.677277,1.230403,62.081797
1.5663,-0.009917,-0.021185,0.023756,0.01177,0.021791,-0.025081,0.002103,-0.530946,0.023976,0.469844,-264.672107,1.24439,62.095998
1.5866,-0.009906,-0.021385,0.025267,0.010418,0.020943,-0.023756,0.002124,-0.530926,0.023931,0.469844,-264.672107,1.24439,62.095998
1.6062,-0.009011,-0.02024,0.024038,0.010443,0.021128,-0.025267,0.003398,-0.530374,0.024286,0.49652,-264.666927,1.273953,62.111566
1.6262,-0.009005,-0.020206,0.023967,0.009495,0.020018,-0.024038,0.003365,-0.530106,0.02402,0.49652,-264.666927,1.273953,62.111566
1.647,-0.008856,-0.020068,0.024784,0.009487,0.019985,-0.023967,0.003365,-0.530106,0.02402,0.49652,-264.666927,1.273953,62.111566
1.6663,-0.007754,-0.019257,0.021956,0.009351,0.019843,-0.024784,0.004239,-0.528935,0.02369,0.553245,-264.662285,1.28499,62.125576
1.6869,-0.007708,-0.019363,0.024029,0.008175,0.019082,-0.021956,0.004196,-0.528923,0.02354,0.553245,-264.662285,1.28499,62.125576
1.7063,-0.006746,-0.018246,0.020891,0.008171,0.019172,-0.024029,0.004883,-0.52846,0.023132,0.513243,-264.658062,1.303359,62.139497
1.7263,-0.006553,-0.017899,0.022651,0.007125,0.018101,-0.020891,0.004371,-0.528179,0.021743,0.513243,-264.658062,1.303359,62.139497
1.7464,-0.006831,-0.017875,0.021523,0.006956,0.017746,-0.022651,0.004371,-0.528179,0.021743,0.513243,-264.658062,1.303359,62.139497
1.7662,-0.005677,-0.017216,0.020469,0.007214,0.017724,-0.021523,0.004474,-0.526951,0.020595,0.588234,-264.654625,1.324309,62.15107
1.7868,-0.005809,-0.017228,0.02169,0.006028,0.017096,-0.020469,0.004501,-0.526941,0.020563,0.588234,-264.654625,1.324309,62.15107
1.8063,-0.005327,-0.016714,0.018762,0.006181,0.017098,-0.02169,0.005481,-0.526486,0.020902,0.513232,-264.651754,1.353982,62.162702
1.8262,-0.00519,-0.016586,0.018833,0.00564,0.016611,-0.018762,0.004803,-0.526486,0.019583,0.513232,-264.651754,1.353982,62.162702
1.8462,-0.004951,-0.01662,0.019038,0.005502,0.016485,-0.018833,0.004803,-0.526486,0.019583,0.513232,-264.651754,1.353982,62.162702
1.8664,-0.004207,-0.01614,0.018809,0.005266,0.016523,-0.019038,0.004967,-0.525922,0.018298,0.588295,-264.649532,1.369878,62.171558
1.8866,-0.004946,-0.015806,0.017376,0.00451,0.016058,-0.018809,0.005001,-0.525915,0.018313,0.588295,-264.649532,1.369878,62.171558
1.9062,-0.004271,-0.015245,0.018207,0.00522,0.015718,-0.017376,0.004062,-0.525284,0.016855,0.663244,-264.647441,1.37669,62.179591
1.9264,-0.003574,-0.015109,0.018294,0.004547,0.015165,-0.018207,0.004623,-0.525157,0.017559,0.663244,-264.647441,1.37669,62.179591
1.947,-0.00402,-0.015195,0.016831,0.00385,0.015041,-0.018294,0.004623,-0.525157,0.017559,0.663244,-264.647441,1.37669,62.179591
1.9665,-0.003815,-0.014075,0.018854,0.004275,0.015125,-0.016831,0.004724,-0.524534,0.016132,0.738229,-264.645505,1.408514,62.188008
1.9862,-0.00339,-0.014448,0.018495,0.004079,0.014001,-0.018854,0.004794,-0.524487,0.016282,0.738229,-264.645505,1.408514,62.188008
2.0065,-0.002888,-0.013926,0.016499,0.003657,0.014383,-0.018495,0.006174,-0.523802,0.017819,0.787785,-264.643415,1.424966,62.198155
2.0263,-0.002934,-0.014141,0.014592,0.003117,0.013877,-0.016499,0.005822,-0.523763,0.016982,0.787785,-264.643415,1.424966,62.198155
2.0462,-0.002619,-0.013541,0.015869,0.00314,0.014097,-0.014592,0.005822,-0.523763,0.016982,0.787785,-264.643415,1.424966,62.198155
2.0666,-0.002597,-0.01345,0.015462,0.002834,0.013497,-0.015869,0.005543,-0.523203,0.01552,0.712788,-264.642662,1.412263,62.202229
2.0866,-0.002587,-0.013644,0.015933,0.002805,0.013408,-0.015462,0.005522,-0.52321,0.015504,0.712788,-264.642662,1.412263,62.202229
2.1063,-0.002791,-0.01354,0.016023,0.002804,0.013601,-0.015933,0.005565,-0.523475,0.015816,0.788352,-264.642179,1.43517,62.20408
2.1265,-0.002571,-0.013135,0.015873,0.003008,0.013494,-0.016023,0.005463,-0.523461,0.015918,0.788352,-264.642179,1.43517,62.20408
2.1463,-0.002676,-0.013674,0.015095,0.002779,0.013093,-0.015873,0.005463,-0.523461,0.015918,0.788352,-264.642179,1.43517,62.20408
2.1665,-0.002308,-0.012875,0.015726,0.002882,0.013632,-0.015095,0.005099,-0.523296,0.01476,0.862926,-264.64094,1.448669,62.20843
2.1869,-0.002027,-0.013168,0.015707,0.002511,0.012837,-0.015726,0.005146,-0.523251,0.014822,0.862926,-264.64094,1.448669,62.20843
2.2064,-0.001783,-0.012634,0.016104,0.002233,0.013134,-0.015707,0.006071,-0.52271,0.015277,0.88533,-264.639198,1.449447,62.215277
2.2263,-0.001706,-0.012537,0.014157,0.001986,0.012603,-0.016104,0.006287,-0.522579,0.015696,0.88533,-264.639198,1.449447,62.215277
2.2463,-0.002116,-0.012679,0.015486,0.001883,0.012511,-0.014157,0.006287,-0.522579,0.015696,0.88533,-264.639198,1.449447,62.215277
2.2663,-0.001367,-0.012229,0.014237,0.002312,0.012644,-0.015486,0.005893,-0.521999,0.014731,0.910452,-264.63758,1.459386,62.224207
2.2865,-0.00151,-0.012454,0.01308,0.001541,0.012208,-0.014237,0.005896,-0.521995,0.014676,0.910452,-264.63758,1.459386,62.224207
2.3069,-0.001123,-0.01155,0.01453,0.001673,0.012433,-0.01308,0.005198,-0.522173,0.012805,0.98547,-264.636725,1.482027,62.228427
2.3267,-0.001297,-0.011419,0.01431,0.00129,0.011532,-0.01453,0.005824,-0.521756,0.013754,0.98547,-264.636725,1.482027,62.228427
2.3465,-0.001118,-0.011838,0.013513,0.00146,0.011399,-0.01431,0.005824,-0.521756,0.013754,0.98547,-264.636725,1.482027,62.228427
2.3662,-0.000836,-0.01183,0.013862,0.001278,0.011822,-0.013513,0.005819,-0.521426,0.01308,1.060397,-264.635775,1.497208,62.233622
2.3865,-0.000995,-0.011137,0.014635,0.001,0.011818,-0.013862,0.005849,-0.521441,0.013123,1.060397,-264.635775,1.497208,62.233622
2.4062,-0.00052,-0.010795,0.011522,0.001158,0.011121,-0.014635,0.006517,-0.520661,0.014113,1.068738,-264.634563,1.498425,62.241314
2.4267,-0.000358,-0.01112,0.013199,0.000644,0.010788,-0.011522,0.005857,-0.520665,0.01256,1.068738,-264.634563,1.498425,62.241314
2.4464,-0.000459,-0.010882,0.013348,0.000505,0.011115,-0.013199,0.005857,-0.520665,0.01256,1.068738,-264.634563,1.498425,62.241314
2.4668,-0.000357,-0.010604,0.012316,0.000604,0.010875,-0.013348,0.006373,-0.520563,0.013022,1.143758,-264.63389,1.521547,62.24522
2.4862,-0.000192,-0.010368,0.013647,0.000488,0.010599,-0.012316,0.006338,-0.520555,0.012956,1.143758,-264.63389,1.521547,62.24522
2.5067,-0.000115,-0.010316,0.012462,0.000333,0.010365,-0.013647,0.006776,-0.520183,0.013481,1.218929,-264.633491,1.544461,62.247693
2.5267,-0.000149,-0.010745,0.010928,0.000244,0.010314,-0.012462,0.006471,-0.520219,0.012878,1.218929,-264.633491,1.544461,62.247693
2.5463,4e-06,-0.010427,0.011676,0.000267,0.010743,-0.010928,0.006471,-0.520219,0.012878,1.218929,-264.633491,1.544461,62.247693
2.5663,-0.000226,-0.010145,0.011376,0.000118,0.010426,-0.011676,0.005973,-0.520113,0.011349,1.293697,-264.632815,1.543886,62.251628
2.5862,-0.000107,-0.009861,0.011499,0.000341,0.010142,-0.011376,0.005946,-0.520106,0.011342,1.293697,-264.632815,1.543886,62.251628
2.6068,0.000157,-0.009853,0.012281,0.000341,0.010142,-0.011376,0.005765,-0.519627,0.011293,1.368615,-264.632023,1.555496,62.255008
2.6263,3.7e-05,-0.009804,0.012515,-0.0,0.0001,0.0,0.006141,-0.519709,0.011832,1.368615,-264.632023,1.555496,62.255008
2.6463,0.000201,-0.009606,0.010374,-0.0,0.0001,0.0,0.006141,-0.519709,0.011832,1.368615,-264.632023,1.555496,62.255008
2.6663,0.000427,-0.009479,0.010506,-0.0,0.0001,0.0,0.005503,-0.519155,0.009899,1.443739,-264.630914,1.550832,62.260893
2.6868,0.000828,-0.009315,0.01167,-0.0,0.0001,0.0,0.005525,-0.519165,0.009931,1.443739,-264.630914,1.550832,62.260893
2.7066,0.000405,-0.009348,0.010997,-0.0,0.0001,0.0,0.006779,-0.519278,0.01167,1.518798,-264.630883,1.574494,62.260923
2.7264,0.000373,-0.009695,0.010935,-0.0,0.0001,0.0,0.006341,-0.5193,0.011285,1.518798,-264.630883,1.574494,62.260923
2.7465,0.000495,-0.009264,0.011499,-0.0,0.0001,0.0,0.006341,-0.5193,0.011285,1.518798,-264.630883,1.574494,62.260923
2.7662,0.00011,-0.009165,0.011272,-0.0,0.0001,0.0,0.00636,-0.519225,0.011499,1.574494,-264.630845,1.574494,62.260961
2.7863,0.000658,-0.009353,0.011364,-0.0,0.0001,0.0,0.006325,-0.519219,0.011483,1.574494,-264.630845,1.574494,62.260961
2.8061,0.000135,-0.009218,0.010852,-0.0,0.0001,0.0,0.006453,-0.519316,0.011364,1.574494,-264.630805,1.574494,62.261001
2.8266,0.000329,-0.009278,0.012216,-0.0,0.0001,0.0,0.006005,-0.519242,0.011071,1.574494,-264.630805,1.574494,62.261001
2.8464,0.000278,-0.009454,0.010392,-5e-06,0.00144,-0.001795,0.006005,-0.519242,0.011071,1.574494,-264.630805,1.574494,62.261001
2.8663,0.000297,-0.009037,0.011496,-1e-05,0.002808,-0.0035,0.005578,-0.519421,0.010392,1.574494,-264.630765,1.574494,62.261041
2.8865,0.001012,-0.009198,0.011626,-1.5e-05,0.004101,-0.005111,0.00562,-0.519391,0.010472,1.574494,-264.630765,1.574494,62.261041
2.9062,0.00053,-0.009208,0.011128,-2e-05,0.00532,-0.00663,0.00694,-0.519108,0.011556,1.586277,-264.630628,1.572896,62.262054
2.9263,0.000696,-0.008999,0.010373,-2.4e-05,0.006465,-0.008057,0.006523,-0.51914,0.011305,1.586277,-264.630628,1.572896,62.262054
2.9465,0.000449,-0.009023,0.009841,-2.8e-05,0.00755,-0.009409,0.006523,-0.51914,0.011305,1.586277,-264.630628,1.572896,62.262054
2.9668,0.000735,-0.009043,0.009511,-3.2e-05,0.00854,-0.010643,0.005465,-0.518799,0.009592,1.586277,-264.630232,1.572896,62.264973
2.9865,0.000621,-0.009106,0.009614,-3.5e-05,0.009463,-0.011794,0.005476,-0.518813,0.009576,1.586277,-264.630232,1.572896,62.264973
3.0065,0.000875,-0.008487,0.011328,-3.8e-05,0.010311,-0.01285,0.00552,-0.518795,0.009256,1.586277,-264.629519,1.572896,62.27023
3.0267,0.000642,-0.008715,0.010062,-4.1e-05,0.011086,-0.013816,0.006163,-0.518565,0.010386,1.586277,-264.629519,1.572896,62.27023
3.0469,0.00103,-0.008536,0.009782,-4.4e-05,0.011788,-0.014691,0.006163,-0.518565,0.010386,1.586277,-264.629519,1.572896,62.27023
3.0664,0.001349,-0.008517,0.009388,-4.6e-05,0.012417,-0.015474,0.006013,-0.518051,0.009208,1.586277,-264.628615,1.572896,62.276896
3.0868,0.001166,-0.008145,0.010652,-4.8e-05,0.012971,-0.016165,0.006021,-0.518069,0.009206,1.586277,-264.628615,1.572896,62.276896
3.1062,0.001451,-0.007822,0.008725,-5e-05,0.013451,-0.016764,0.006592,-0.517661,0.010084,1.586277,-264.627487,1.572896,62.285211
3.1265,0.001419,-0.007468,0.008549,-5.1e-05,0.013857,-0.017269,0.006196,-0.517685,0.009235,1.586277,-264.627487,1.572896,62.285211
3.1464,0.001282,-0.007483,0.008814,-5.2e-05,0.01419,-0.017684,0.006196,-0.517685,0.009235,1.586277,-264.627487,1.572896,62.285211
3.1661,0.001856,-0.007068,0.009397,-5.3e-05,0.014449,-0.018007,0.00577,-0.516833,0.008028,1.586277,-264.626249,1.572896,62.294336
3.1862,0.001592,-0.007085,0.008262,-5.4e-05,0.014634,-0.018237,0.005827,-0.516831,0.008097,1.586277,-264.626249,1.572896,62.294336
3.2063,0.00231,-0.006403,0.008199,-5.5e-05,0.014747,-0.018378,0.005799,-0.51652,0.007578,1.586277,-264.624893,1.572896,62.304336
3.2265,0.002133,-0.006445,0.008235,-5.5e-05,0.014781,-0.018422,0.006192,-0.516374,0.007845,1.586277,-264.624893,1.572896,62.304336
3.2462,0.00235,-0.0061,0.007175,-5.5e-05,0.014744,-0.018375,0.006192,-0.516374,0.007845,1.586277,-264.624893,1.572896,62.304336
3.2666,0.002564,-0.005273,0.00563,-5.4e-05,0.014634,-0.018237,0.006002,-0.515376,0.006288,1.586277,-264.623495,1.572896,62.314641
3.2868,0.002862,-0.005365,0.006042,-5.3e-05,0.014447,-0.018005,0.005963,-0.51535,0.00622,1.586277,-264.623495,1.572896,62.314641
3.3066,0.002892,-0.00467,0.007035,-5.2e-05,0.014189,-0.017683,0.005938,-0.514787,0.005332,1.586277,-264.622076,1.572896,62.325106
3.3263,0.003024,-0.004963,0.005538,-5.1e-05,0.013858,-0.017271,0.006256,-0.514639,0.006245,1.586277,-264.622076,1.572896,62.325106
3.3462,0.003196,-0.004669,0.004218,-5e-05,0.013451,-0.016764,0.006256,-0.514639,0.006245,1.586277,-264.622076,1.572896,62.325106
3.3661,0.00366,-0.003859,0.005454,-4.8e-05,0.012971,-0.016165,0.005342,-0.513968,0.003349,1.586277,-264.620706,1.572896,62.335207
3.3864,0.003779,-0.004138,0.005577,-4.6e-05,0.012415,-0.015473,0.005419,-0.513941,0.003472,1.586277,-264.620706,1.572896,62.335207
3.4066,0.004018,-0.003422,0.004438,-4.4e-05,0.011789,-0.014692,0.006618,-0.513611,0.00493,1.586277,-264.619418,1.572896,62.344702
3.4266,0.00395,-0.003267,0.002797,-4.1e-05,0.011084,-0.013813,0.006425,-0.513434,0.004566,1.586277,-264.619418,1.572896,62.344702
3.4466,0.003712,-0.003071,0.0034,-3.8e-05,0.010311,-0.012851,0.006425,-0.513434,0.004566,1.586277,-264.619418,1.572896,62.344702
3.4665,0.00447,-0.002609,0.003575,-3.5e-05,0.009461,-0.011791,0.005442,-0.512466,0.002649,1.586277,-264.618233,1.572896,62.353441
3.4866,0.004828,-0.002775,0.003034,-3.2e-05,0.008537,-0.010639,0.005502,-0.512459,0.002694,1.586277,-264.618233,1.572896,62.353441
3.5067,0.004478,-0.00223,0.003778,-2.8e-05,0.007539,-0.009395,0.006372,-0.512375,0.002538,1.586277,-264.617249,1.572896,62.360695
3.5264,0.00476,-0.001878,0.002465,-2.4e-05,0.006468,-0.008061,0.00639,-0.51224,0.00318,1.586277,-264.617249,1.572896,62.360695
3.5462,0.004892,-0.001991,0.002819,-2e-05,0.005323,-0.006633,0.00639,-0.51224,0.00318,1.586277,-264.617249,1.572896,62.360695
3.5663,0.00506,-0.001856,0.002802,-1.5e-05,0.0041,-0.005109,0.006327,-0.511574,0.002302,1.586277,-264.616433,1.572896,62.36671
3.5864,0.005215,-0.001423,0.001711,-1e-05,0.002809,-0.0035,0.006338,-0.511582,0.002323,1.586277,-264.616433,1.572896,62.36671
3.6064,0.005062,-0.001523,0.001355,-5e-06,0.001441,-0.001796,0.006086,-0.511217,0.001455,1.586277,-264.615925,1.572896,62.370459
3.6265,0.005057,-0.00192,0.001107,-0.0,1e-06,-1e-06,0.005897,-0.511365,0.001366,1.586277,-264.615925,1.572896,62.370459
3.6463,0.0053,-0.001519,0.000884,0.0,0.0,0.0,0.005897,-0.511365,0.001366,1.586277,-264.615925,1.572896,62.370459
3.6664,0.00537,-0.001542,0.000655,0.0,0.0,0.0,0.00575,-0.511383,0.000714,1.586277,-264.615656,1.572896,62.372438
3.6866,0.005535,-0.001353,0.001805,0.0,0.0,0.0,0.005747,-0.51139,0.000706,1.586277,-264.615656,1.572896,62.372438
3.7062,0.005444,-0.001568,0.000243,0.0,0.0,0.0,0.006456,-0.511352,0.001805,1.586277,-264.615656,1.572896,62.372438
3.7266,0.005566,-0.001689,0.002264,0.0,0.0,0.0,0.005952,-0.511475,0.000918,1.586277,-264.615656,1.572896,62.372438
3.7464,0.005491,-0.001444,-0.000146,0.0,0.0,0.0,0.005952,-0.511475,0.000918,1.586277,-264.615656,1.572896,62.372438
3.7662,0.00557,-0.001702,0.001802,0.0,0.0,0.0,0.005416,-0.511444,-0.000146,1.586277,-264.615656,1.572896,62.372438
3.7862,0.005166,-0.001457,2.5e-05,0.0,0.0,0.0,0.005491,-0.511461,-1e-05,1.586277,-264.615656,1.572896,62.372438
3.8064,0.005341,-0.001188,0.000362,0.0,0.0,0.0,0.005179,-0.511457,2.5e-05,1.586277,-264.615656,1.572896,62.372438
3.8262,0.005887,-0.001359,0.002306,0.0,0.0,0.0,0.005377,-0.511304,0.000217,1.586277,-264.615656,1.572896,62.372438
3.8463,0.005164,-0.001426,0.001158,-9.7e-05,2.3e-05,0.0,0.005377,-0.511304,0.000217,1.586277,-264.615656,1.572896,62.372438
3.8662,0.005192,-0.001598,1.1e-05,-9.7e-05,2.3e-05,0.0,0.005754,-0.511425,0.001158,1.586277,-264.615656,1.572896,62.372438
3.8862,0.005635,-0.000996,0.00174,-9.7e-05,2.3e-05,0.0,0.005707,-0.51144,0.00106,1.586277,-264.615656,1.572896,62.372438
3.907,0.005352,-0.001326,0.001088,-9.7e-05,2.3e-05,0.0,0.006522,-0.510996,0.00174,1.510817,-264.615656,1.497435,62.372438
3.9263,0.005307,-0.001704,0.001146,-9.7e-05,2.3e-05,0.0,0.006182,-0.511178,0.001379,1.510817,-264.615656,1.497435,62.372438
3.9467,0.005685,-0.001208,0.001539,-9.7e-05,2.3e-05,0.0,0.006182,-0.511178,0.001379,1.510817,-264.615656,1.497435,62.372438
3.9664,0.005336,-0.001371,0.001164,-9.7e-05,2.3e-05,0.0,0.00647,-0.511208,0.001539,1.43628,-264.615656,1.422899,62.372438
3.9864,0.005415,-0.001301,0.000676,-9.7e-05,2.3e-05,0.0,0.006434,-0.511219,0.001514,1.43628,-264.615656,1.422899,62.372438
4.0061,0.005776,-0.001443,-9.9e-05,-9.7e-05,2.3e-05,0.0,0.005759,-0.511301,0.000676,1.361281,-264.615656,1.3479,62.372438
4.0264,0.005382,-0.001615,0.001399,-9.7e-05,2.3e-05,0.0,0.00574,-0.511382,0.000235,1.361281,-264.615656,1.3479,62.372438
4.0466,0.005489,-0.001081,0.002458,-9.7e-05,2.3e-05,0.0,0.00574,-0.511382,0.000235,1.361281,-264.615656,1.3479,62.372438
4.0664,0.005666,-0.001359,0.001299,-0.000858,0.0002,-0.000336,0.006743,-0.511079,0.002458,1.286274,-264.615656,1.272893,62.372438
4.0866,0.00538,-0.00126,0.002546,-0.001674,0.00039,-0.000656,0.006715,-0.511098,0.002379,1.286274,-264.615656,1.272893,62.372438
4.1064,0.005266,-0.001347,0.000448,-0.002447,0.000571,-0.000959,0.006679,-0.511259,0.002546,1.211163,-264.615656,1.197782,62.372438
4.1263,0.005455,-0.00154,0.001474,-0.003175,0.00074,-0.001244,0.006003,-0.511309,0.001349,1.211163,-264.615656,1.197782,62.372438
4.1463,0.005524,-0.001127,0.002612,-0.003859,0.0009,-0.001512,0.006003,-0.511309,0.001349,1.211163,-264.615656,1.197782,62.372438
4.1663,0.005168,-0.001604,-0.000114,-0.004504,0.00105,-0.001765,0.006856,-0.511125,0.002612,1.136191,-264.615656,1.122809,62.372438
4.1873,0.005422,-0.001342,0.00223,-0.005095,0.001188,-0.001997,0.006736,-0.511158,0.002424,1.136191,-264.615656,1.122809,62.372438
4.2063,0.005279,-0.001561,0.001718,-0.005658,0.001319,-0.002217,0.006559,-0.511341,0.00223,1.061196,-264.615656,1.047814,62.372438
4.2264,0.00496,-0.001484,0.001633,-0.006155,0.001435,-0.002412,0.006329,-0.511466,0.001938,1.061196,-264.615656,1.047814,62.372438
4.247,0.00541,-0.001488,-0.000387,-0.006618,0.001543,-0.002593,0.006329,-0.511466,0.001938,1.061196,-264.615656,1.047814,62.372438
4.2665,0.005945,-0.001342,-0.000487,-0.007038,0.001641,-0.002758,0.005212,-0.511488,-0.000387,0.986185,-264.615656,0.972803,62.372438
4.2862,0.004898,-0.001173,0.001076,-0.007413,0.001729,-0.002905,0.005241,-0.511479,-0.000393,0.986185,-264.615656,0.972803,62.372438
4.3065,0.005285,-0.00116,0.002326,-0.007753,0.001808,-0.003038,0.005447,-0.511173,0.001076,0.911079,-264.615656,0.897697,62.372438
4.3265,0.005314,-0.001324,0.000398,-0.008032,0.001873,-0.003147,0.00603,-0.511165,0.001787,0.911079,-264.615656,0.897697,62.372438
4.3465,0.005687,-0.001698,0.00117,-0.008276,0.00193,-0.003243,0.00603,-0.511165,0.001787,0.911079,-264.615656,0.897697,62.372438
4.3667,0.004664,-0.000982,0.002408,-0.008474,0.001976,-0.003321,0.006283,-0.511697,0.00117,0.836273,-264.615656,0.822891,62.372438
4.3869,0.005394,-0.001663,-1e-05,-0.008628,0.002012,-0.003381,0.006258,-0.511652,0.001249,0.836273,-264.615656,0.822891,62.372438
4.4066,0.005716,-0.001425,-0.000936,-0.008738,0.002037,-0.003424,0.005389,-0.511663,-1e-05,0.761252,-264.615656,0.747871,62.372438
4.4263,0.005507,-0.00125,0.000345,-0.008804,0.002053,-0.00345,0.005305,-0.51153,-0.000527,0.761252,-264.615656,0.747871,62.372438
4.4464,0.005309,-0.001316,0.001239,-0.008826,0.002058,-0.003458,0.005305,-0.51153,-0.000527,0.761252,-264.615656,0.747871,62.372438
4.4669,0.005479,-0.001169,0.001528,-0.008804,0.002053,-0.00345,0.005941,-0.511316,0.001239,0.686279,-264.615656,0.672897,62.372438
4.4869,0.00539,-0.001361,0.001314,-0.008738,0.002038,-0.003424,0.005963,-0.511305,0.001259,0.686279,-264.615656,0.672897,62.372438
4.5062,0.005815,-0.001666,0.002085,-0.008628,0.002012,-0.003381,0.00606,-0.511361,0.001314,0.611295,-264.615656,0.597913,62.372438
4.5263,0.005573,-0.001032,0.000545,-0.008473,0.001976,-0.00332,0.006526,-0.511534,0.001753,0.611295,-264.615656,0.597913,62.372438
4.5466,0.005162,-0.001648,0.001439,-0.008276,0.00193,-0.003243,0.006526,-0.511534,0.001753,0.611295,-264.615656,0.597913,62.372438
4.5664,0.00541,-0.00101,0.002009,-0.008033,0.001873,-0.003148,0.005896,-0.511647,0.001439,0.536186,-264.615656,0.522804,62.372438
4.5867,0.005527,-0.001407,5.6e-05,-0.007745,0.001806,-0.003035,0.005932,-0.511605,0.001477,0.536186,-264.615656,0.522804,62.372438
4.6063,0.005253,-0.001683,0.00037,-0.007415,0.001729,-0.002905,0.005556,-0.511407,5.6e-05,0.461186,-264.615656,0.447804,62.372438
4.6263,0.005621,-0.001441,0.001378,-0.00704,0.001642,-0.002759,0.00549,-0.511566,0.000237,0.461186,-264.615656,0.447804,62.372438
4.6464,0.005029,-0.001707,0.000757,-0.006621,0.001544,-0.002594,0.00549,-0.511566,0.000237,0.461186,-264.615656,0.447804,62.372438
4.6664,0.005516,-0.001342,0.00174,-0.006159,0.001436,-0.002413,0.005415,-0.511707,0.000757,0.386079,-264.615656,0.372698,62.372438
4.6865,0.005232,-0.001144,0.000768,-0.005651,0.001318,-0.002214,0.005493,-0.511678,0.000833,0.386079,-264.615656,0.372698,62.372438
4.7064,0.005616,-0.001333,0.001144,-0.005098,0.001189,-0.001997,0.005623,-0.511144,0.000768,0.310917,-264.615656,0.297536,62.372438
4.7262,0.005392,-0.001401,-0.00023,-0.004502,0.00105,-0.001764,0.005953,-0.511252,0.000983,0.310917,-264.615656,0.297536,62.372438
4.7463,0.005432,-0.001342,0.000219,-0.003864,0.000901,-0.001514,0.005953,-0.511252,0.000983,0.310917,-264.615656,0.297536,62.372438
4.7666,0.005203,-0.001104,0.000637,-0.003176,0.000741,-0.001245,0.005543,-0.511342,0.000219,0.236174,-264.615656,0.222792,62.372438
4.7872,0.005643,-0.001514,0.000853,-0.002452,0.000572,-0.000961,0.005542,-0.511325,0.000248,0.236174,-264.615656,0.222792,62.372438
4.8065,0.005125,-0.001234,0.001255,-0.001679,0.000391,-0.000658,0.006078,-0.511514,0.000853,0.161195,-264.615657,0.147814,62.372437
4.8266,0.005229,-0.001394,0.000272,-0.000847,0.000198,-0.000332,0.005898,-0.511353,0.001083,0.161195,-264.615657,0.147814,62.372437
4.847,0.005512,-0.001229,4.9e-05,-3e-06,1e-06,-1e-06,0.005898,-0.511353,0.001083,0.161195,-264.615657,0.147814,62.372437
4.8665,0.005575,-0.001163,0.001565,0.0,0.0,0.0,0.005536,-0.511229,4.9e-05,0.086123,-264.615659,0.072742,62.372435
4.8874,0.005602,-0.001299,0.002075,0.0,0.0,0.0,0.00558,-0.511226,0.000128,0.086123,-264.615659,0.072742,62.372435
4.9068,0.005573,-0.001209,0.002538,0.0,0.0,0.0,0.006661,-0.511297,0.002075,0.011283,-264.615659,-0.002099,62.372435
4.9263,0.005295,-0.00147,0.000878,0.0,0.0,0.0,0.006774,-0.511248,0.00233,0.011283,-264.615659,-0.002099,62.372435
4.9464,0.005529,-0.001235,-0.000127,0.0,0.0,0.0,0.006774,-0.511248,0.00233,0.011283,-264.615659,-0.002099,62.372435
4.9663,0.00507,-0.001279,-0.000182,0.0,0.0,0.0,0.005465,-0.511235,-0.000127,0.011283,-264.615659,-0.002099,62.372435
4.9866,0.005443,-0.001301,0.001593,0.0,0.0,0.0,0.005425,-0.511238,-0.000131,0.011283,-264.615659,-0.002099,62.372435
5.0064,0.005232,-0.001532,0.002525,0.0,0.0,0.0,0.006255,-0.511301,0.001593,0.011283,-264.615659,-0.002099,62.372435
5.0267,0.005566,-0.000934,0.000614,0.0,0.0,0.0,0.006407,-0.511432,0.002127,0.011283,-264.615659,-0.002099,62.372435
5.0464,0.005088,-0.001652,-0.000729,0.0,0.0,0.0,0.006407,-0.511432,0.002127,0.011283,-264.615659,-0.002099,62.372435
5.0667,0.005031,-0.001365,0.00068,0.0,0.0,0.0,0.004717,-0.511652,-0.000729,0.011283,-264.615659,-0.002099,62.372435
5.0865,0.005489,-0.001333,0.001794,-9.6e-05,2.6e-05,0.0,0.004769,-0.511629,-0.000618,0.011283,-264.615659,-0.002099,62.372435
5.1063,0.004989,-0.001371,0.000601,-9.6e-05,2.6e-05,0.0,0.006404,-0.511332,0.001794,0.011283,-264.615659,-0.002099,62.372435
5.1261,0.00562,-0.001198,0.001933,-9.6e-05,2.6e-05,0.0,0.005771,-0.511354,0.001113,0.011283,-264.615659,-0.002099,62.372435
5.1462,0.005224,-0.001334,0.00048,-9.6e-05,2.6e-05,0.0,0.005771,-0.511354,0.001113,0.011283,-264.615659,-0.002099,62.372435
5.1665,0.005659,-0.00144,0.00026,-9.6e-05,2.6e-05,0.0,0.005468,-0.511334,0.00048,-0.06352,-264.615662,-0.076901,62.372431
5.1862,0.005088,-0.001653,0.001187,-9.6e-05,2.6e-05,0.0,0.005492,-0.511342,0.000463,-0.06352,-264.615662,-0.076901,62.372431
5.2063,0.00528,-0.00138,0.001011,-9.6e-05,2.6e-05,0.0,0.005692,-0.511653,0.001187,-0.138631,-264.615674,-0.152013,62.37242
5.2262,0.004781,-0.000785,-8.1e-05,-9.6e-05,2.6e-05,0.0,0.005751,-0.511496,0.001086,-0.138631,-264.615674,-0.152013,62.37242
5.2465,0.005449,-0.001313,4.6e-05,-9.6e-05,2.6e-05,0.0,0.005751,-0.511496,0.001086,-0.138631,-264.615674,-0.152013,62.37242
5.2667,0.00553,-0.001109,0.000486,-9.6e-05,2.6e-05,0.0,0.005469,-0.511312,4.6e-05,-0.213548,-264.615699,-0.22693,62.372395
5.2869,0.005569,-0.001469,0.00213,-0.0,0.0,-0.0,0.005489,-0.511298,7.5e-05,-0.213548,-264.615699,-0.22693,62.372395
5.3061,0.005529,-0.001523,0.001633,-0.000737,0.0002,-0.0001,0.006651,-0.511467,0.00213,-0.265515,-264.615737,-0.265515,62.372357
5.3263,0.005585,-0.00121,0.002121,-0.001438,0.000391,-0.000194,0.006487,-0.511498,0.00185,-0.265515,-264.615737,-0.265515,62.372357
5.3463,0.005732,-0.001387,0.001059,-0.002098,0.00057,-0.000284,0.006487,-0.511498,0.00185,-0.265515,-264.615737,-0.265515,62.372357
5.3667,0.005397,-0.001517,0.001797,-0.002717,0.000739,-0.000367,0.006272,-0.511386,0.001059,-0.190426,-264.615737,-0.340603,62.372357
5.3862,0.005567,-0.001722,0.001925,-0.003303,0.000898,-0.000447,0.006275,-0.511396,0.001112,-0.190426,-264.615737,-0.340603,62.372357
5.4062,0.00538,-0.001372,0.00143,-0.00386,0.00105,-0.000522,0.006468,-0.511699,0.001915,-0.187157,-264.616591,-0.340676,62.371466
5.4262,0.005459,-0.001517,0.001666,-0.004358,0.001185,-0.000589,0.006251,-0.511508,0.001634,-0.187157,-264.616591,-0.340676,62.371466
5.4466,0.005407,-0.001342,0.000479,-0.004829,0.001313,-0.000653,0.006251,-0.511508,0.001634,-0.187157,-264.616591,-0.340676,62.371466
5.4663,0.005,-0.001427,0.002233,-0.005264,0.001431,-0.000712,0.005491,-0.511299,0.000457,-0.187157,-264.617933,-0.340676,62.370068
5.4866,0.00536,-0.001321,0.001391,-0.00566,0.001539,-0.000765,0.00553,-0.511306,0.000575,-0.187157,-264.617933,-0.340676,62.370068
5.5069,0.004843,-0.0011,0.00045,-0.006018,0.001636,-0.000813,0.005883,-0.51127,0.001366,-0.187157,-264.619902,-0.340676,62.368015
5.5265,0.005097,-0.001141,0.001766,-0.006339,0.001724,-0.000857,0.005395,-0.511166,0.000838,-0.187157,-264.619902,-0.340676,62.368015
5.5463,0.004733,-0.001402,0.000541,-0.006621,0.001801,-0.000895,0.005395,-0.511166,0.000838,-0.187157,-264.619902,-0.340676,62.368015
5.5663,0.00489,-0.001208,0.001799,-0.006867,0.001867,-0.000928,0.004735,-0.511328,0.000504,-0.187157,-264.622216,-0.340676,62.365603
5.5867,0.00468,-0.000898,0.001149,-0.007074,0.001924,-0.000956,0.004816,-0.511315,0.000612,-0.187157,-264.622216,-0.340676,62.365603
5.6062,0.003928,-0.001402,0.000549,-0.007245,0.00197,-0.000979,0.005012,-0.510829,0.001114,-0.187157,-264.624896,-0.340676,62.362809
5.6263,0.004385,-0.001214,0.001182,-0.007376,0.002006,-0.000997,0.004522,-0.511146,0.000788,-0.187157,-264.624896,-0.340676,62.362809
5.6463,0.004465,-0.00081,0.000175,-0.00747,0.002031,-0.00101,0.004522,-0.511146,0.000788,-0.187157,-264.624896,-0.340676,62.362809
5.6662,0.004539,-0.000713,0.001833,-0.007527,0.002047,-0.001018,0.00421,-0.510717,0.000128,-0.187157,-264.627785,-0.340676,62.359797
5.6864,0.004243,-0.001144,-0.000863,-0.007546,0.002052,-0.00102,0.004297,-0.510714,0.000258,-0.187157,-264.627785,-0.340676,62.359797
5.7063,0.003828,-0.000505,-0.000248,-0.007525,0.002046,-0.001017,0.003516,-0.511065,-0.000902,-0.187157,-264.630824,-0.340676,62.356629
5.7263,0.003656,-0.000632,0.001208,-0.00747,0.002031,-0.00101,0.003586,-0.510733,-0.00053,-0.187157,-264.630824,-0.340676,62.356629
5.7464,0.003571,-0.000899,7.7e-05,-0.007376,0.002006,-0.000997,0.003586,-0.510733,-0.00053,-0.187157,-264.630824,-0.340676,62.356629
5.7662,0.003426,-0.001021,0.001106,-0.007244,0.00197,-0.000979,0.003244,-0.5108,2.7e-05,-0.187157,-264.633894,-0.340676,62.35343
5.7866,0.003595,-0.000521,0.000499,-0.007074,0.001924,-0.000956,0.003286,-0.510812,0.000102,-0.187157,-264.633894,-0.340676,62.35343
5.8064,0.002852,-0.001065,0.001709,-0.006866,0.001867,-0.000928,0.003565,-0.510444,0.000461,-0.187157,-264.636897,-0.340676,62.350298
5.8261,0.003073,-0.000418,0.001123,-0.006619,0.0018,-0.000895,0.003621,-0.510791,0.001174,-0.187157,-264.636897,-0.340676,62.350298
5.8464,0.003059,-0.000575,0.001028,-0.006338,0.001724,-0.000857,0.003621,-0.510791,0.001174,-0.187157,-264.636897,-0.340676,62.350298
5.8663,0.002727,-0.000394,0.000338,-0.006017,0.001636,-0.000813,0.003239,-0.510482,0.000981,-0.187157,-264.639776,-0.340676,62.347297
5.8864,0.002624,-0.000605,0.000571,-0.005659,0.001539,-0.000765,0.003205,-0.510473,0.000934,-0.187157,-264.639776,-0.340676,62.347297
