mach0312/omni-docking-bench/src/icros_test_setup/results/kinematic_sample/timeseries/trial_012.csv
t,x,y,yaw,vx,vy,wz,bl_x,bl_y,bl_yaw,front_steering_joint,front_wheel_joint,rear_steering_joint,rear_wheel_joint
0.0,3.9e-05,0.020549,0.034886,0.00714,0.001465,0.004785,0.016865,-0.489568,0.034758,0.550999,-263.100499,-0.201393,63.358039
0.0005,0.000345,0.020679,0.036164,0.005022,0.00103,0.003365,0.016865,-0.489568,0.034758,0.550999,-263.096962,-0.201393,63.361114
0.0009,9.1e-05,0.0202,0.033479,0.004533,0.00093,0.003038,0.017299,-0.48963,0.034588,0.550999,-263.093594,-0.201393,63.364043
0.0012,0.000363,0.020896,0.033479,0.004003,0.000821,0.002682,0.016352,-0.489543,0.033198,0.550999,-263.090665,-0.201393,63.36659
0.0015,0.00028,0.020666,0.035044,0.003431,0.000704,0.0023,0.016352,-0.489543,0.033198,0.550999,-263.088095,-0.201393,63.368825
0.0018,0.000271,0.02022,0.034802,0.002823,0.000579,0.001892,0.016352,-0.489543,0.033198,0.550999,-263.08622,-0.201393,63.370456
0.0021,0.00045,0.020629,0.034508,0.002175,0.000446,0.001457,0.017344,-0.489473,0.03474,0.550999,-263.084895,-0.201393,63.371608
0.0025,0.000766,0.02049,0.036286,0.001489,0.000306,0.000998,0.017344,-0.489473,0.03474,0.550999,-263.084895,-0.201393,63.371608
0.0028,0.000773,0.020431,0.035579,0.000758,0.000155,0.000508,0.017365,-0.489453,0.034737,0.550999,-263.084895,-0.201393,63.371608
0.0031,0.000727,0.020375,0.036769,0.0,0.0,0.0,0.017365,-0.489453,0.034737,0.550999,-263.084895,-0.201393,63.371608
0.018,0.000639,0.020407,0.036101,-0.001476,-0.016,-0.03,0.019504,-0.489274,0.036789,0.550999,-263.084539,-0.201393,63.371917
0.0385,0.000519,0.020558,0.03599,-0.001376,-0.020371,-0.036101,0.01925,-0.489265,0.036403,0.550999,-263.084539,-0.201393,63.371917
0.0579,0.000213,0.020215,0.034849,-0.001259,-0.020526,-0.03599,0.01925,-0.489265,0.036403,0.550999,-263.084539,-0.201393,63.371917
0.0781,0.000638,0.020854,0.035198,-0.000917,-0.020195,-0.034849,0.017982,-0.489475,0.034849,0.550999,-263.084539,-0.201393,63.371917
0.0984,0.000713,0.020517,0.034747,-0.001372,-0.020818,-0.035198,0.018022,-0.489433,0.034872,0.550999,-263.084539,-0.201393,63.371917
0.1178,0.000259,0.020422,0.034484,-0.001425,-0.020479,-0.034747,0.01843,-0.489176,0.034747,0.626012,-263.084539,-0.276406,63.371917
0.1378,0.000598,0.019998,0.034085,-0.000963,-0.020401,-0.034484,0.018093,-0.489232,0.034596,0.626012,-263.084539,-0.276406,63.371917
0.1584,9.2e-05,0.020519,0.036047,-0.001279,-0.019966,-0.034085,0.018093,-0.489232,0.034596,0.626012,-263.084539,-0.276406,63.371917
0.1783,0.000667,0.020441,0.034492,-0.000832,-0.020503,-0.036047,0.018472,-0.48915,0.036047,0.701121,-263.08454,-0.351516,63.371917
0.1981,0.000654,0.020618,0.033976,-0.001371,-0.020406,-0.034492,0.018457,-0.489157,0.03594,0.701121,-263.08454,-0.351516,63.371917
0.2179,0.000199,0.020522,0.035747,-0.001354,-0.020584,-0.033976,0.017978,-0.489088,0.033976,0.776036,-263.08454,-0.42643,63.371917
0.2378,0.000427,0.020338,0.035096,-0.000933,-0.020502,-0.035747,0.018235,-0.489125,0.034991,0.776036,-263.08454,-0.42643,63.371917
0.2578,0.000334,0.020559,0.033732,-0.00114,-0.02031,-0.035096,0.018235,-0.489125,0.034991,0.776036,-263.08454,-0.42643,63.371917
0.2778,0.000612,0.020278,0.035713,-0.001027,-0.020536,-0.033732,0.017534,-0.489151,0.033732,0.851146,-263.084543,-0.448466,63.371917
0.2984,0.000816,0.020957,0.034536,-0.001335,-0.020243,-0.035713,0.017626,-0.489169,0.033873,0.851146,-263.084543,-0.448466,63.371917
0.3179,0.00069,0.020597,0.033488,-0.001539,-0.020916,-0.034536,0.018426,-0.488739,0.034536,0.926034,-263.084543,-0.523355,63.371917
0.3379,0.000466,0.020498,0.034001,-0.00138,-0.020562,-0.033488,0.018049,-0.488955,0.033937,0.926034,-263.084543,-0.523355,63.371917
0.3578,0.000248,0.020436,0.035884,-0.001163,-0.02047,-0.034001,0.018049,-0.488955,0.033937,0.926034,-263.084543,-0.523355,63.371917
0.3781,0.000612,0.020895,0.034979,-0.000981,-0.020414,-0.035884,0.018545,-0.489236,0.035884,1.001079,-263.084548,-0.5984,63.371917
0.3981,0.000332,0.020545,0.03407,-0.001342,-0.020861,-0.034979,0.018538,-0.489205,0.035821,1.001079,-263.084548,-0.5984,63.371917
0.418,0.000387,0.020723,0.035399,-0.001032,-0.020522,-0.03407,0.017705,-0.489159,0.034069,1.075992,-263.084564,-0.523487,63.371916
0.4377,0.000366,0.02059,0.035682,-0.00112,-0.020697,-0.035399,0.018123,-0.489044,0.034829,1.075992,-263.084564,-0.523487,63.371916
0.4582,0.000491,0.020585,0.03654,-0.0011,-0.020564,-0.035682,0.018123,-0.489044,0.034829,1.075992,-263.084564,-0.523487,63.371916
0.4782,0.000426,0.02061,0.034156,-0.001243,-0.020554,-0.03654,0.019114,-0.489091,0.036511,1.1511,-263.084874,-0.44838,63.371906
0.4981,0.000176,0.021173,0.035304,-0.00113,-0.020583,-0.034156,0.01903,-0.489092,0.036353,1.1511,-263.084874,-0.44838,63.371906
0.5177,0.000257,0.020713,0.035244,-0.000923,-0.021154,-0.035304,0.018175,-0.488514,0.035296,1.226056,-263.08498,-0.523336,63.371902
0.5379,9.6e-05,0.020507,0.036122,-0.000987,-0.020691,-0.035244,0.018205,-0.488776,0.035265,1.226056,-263.08498,-0.523336,63.371902
0.5579,0.000416,0.020535,0.035999,-0.000837,-0.02049,-0.036122,0.018205,-0.488776,0.035265,1.226056,-263.08498,-0.523336,63.371902
0.5782,0.000364,0.020321,0.034166,-0.001154,-0.020507,-0.035999,0.018757,-0.489186,0.035913,1.301116,-263.085863,-0.448275,63.371877
0.5981,0.000409,0.020513,0.035786,-0.001058,-0.020297,-0.034166,0.018687,-0.489202,0.035785,1.301116,-263.085863,-0.448275,63.371877
0.6183,0.000603,0.020771,0.034952,-0.001143,-0.020486,-0.035786,0.018656,-0.48916,0.035786,1.376096,-263.085869,-0.523255,63.371877
0.6379,0.000819,0.020409,0.034532,-0.001328,-0.020737,-0.034952,0.018524,-0.489021,0.035308,1.376096,-263.085869,-0.523255,63.371877
0.6577,0.000444,0.020477,0.035304,-0.001523,-0.020368,-0.034532,0.018524,-0.489021,0.035308,1.376096,-263.085869,-0.523255,63.371877
0.6779,0.000709,0.020596,0.033848,-0.001166,-0.020449,-0.035304,0.018416,-0.489349,0.035043,1.451132,-263.088377,-0.494295,63.371577
0.6983,0.000811,0.020405,0.035085,-0.001406,-0.02056,-0.033848,0.018382,-0.489335,0.034948,1.451132,-263.088377,-0.494295,63.371577
0.7178,0.000784,0.020446,0.033334,-0.001526,-0.020364,-0.035085,0.018672,-0.489511,0.034671,1.526099,-263.093384,-0.442867,63.370998
0.738,0.000898,0.020075,0.033106,-0.001465,-0.020408,-0.033334,0.018158,-0.489403,0.033851,1.526099,-263.093384,-0.442867,63.370998
0.7581,0.000678,0.019776,0.033049,-0.001562,-0.020034,-0.033106,0.018158,-0.489403,0.033851,1.526099,-263.093384,-0.442867,63.370998
0.7778,0.000731,0.020229,0.033145,-0.001331,-0.019743,-0.033049,0.017526,-0.49006,0.032858,1.536721,-263.095311,-0.367846,63.370932
0.7984,0.001052,0.019954,0.03317,-0.001401,-0.020193,-0.033145,0.017537,-0.490007,0.03288,1.536721,-263.095311,-0.367846,63.370932
0.8178,0.00116,0.01948,0.033458,-0.001713,-0.019909,-0.03317,0.017953,-0.489973,0.03282,1.53201,-263.099689,-0.29202,63.370706
0.8383,0.001478,0.019608,0.032871,-0.001811,-0.01943,-0.033458,0.018104,-0.490148,0.033138,1.53201,-263.099689,-0.29202,63.370706
0.8578,0.001126,0.019749,0.03414,-0.002121,-0.019549,-0.032871,0.018104,-0.490148,0.033138,1.53201,-263.099689,-0.29202,63.370706
0.8781,0.001155,0.019608,0.033305,-0.001799,-0.019699,-0.03414,0.018522,-0.490291,0.03358,1.536156,-263.105288,-0.217966,63.370512
0.8982,0.001148,0.019367,0.033587,-0.001808,-0.019559,-0.033305,0.018494,-0.490287,0.033545,1.536156,-263.105288,-0.217966,63.370512
0.9178,0.001713,0.018708,0.032068,-0.001797,-0.019317,-0.033587,0.018225,-0.490727,0.032932,1.517308,-263.113373,-0.243273,63.369652
0.9382,0.001793,0.019129,0.033404,-0.002312,-0.018643,-0.032068,0.018128,-0.490948,0.032358,1.517308,-263.113373,-0.243273,63.369652
0.9579,0.001702,0.018856,0.032734,-0.002431,-0.019059,-0.033404,0.018128,-0.490948,0.032358,1.517308,-263.113373,-0.243273,63.369652
0.978,0.002038,0.018444,0.030408,-0.002318,-0.018791,-0.032734,0.018356,-0.491487,0.031695,1.525523,-263.123665,-0.318167,63.369145
0.9981,0.002392,0.018187,0.030344,-0.002598,-0.018373,-0.030408,0.018299,-0.491492,0.031579,1.525523,-263.123665,-0.318167,63.369145
1.018,0.002336,0.017823,0.029839,-0.002942,-0.018106,-0.030344,0.017823,-0.492001,0.029616,1.509274,-263.132664,-0.393172,63.368513
1.0381,0.002831,0.017883,0.029233,-0.002867,-0.017746,-0.029839,0.017663,-0.492026,0.02965,1.509274,-263.132664,-0.393172,63.368513
1.058,0.002953,0.017825,0.029818,-0.003352,-0.017792,-0.029233,0.017663,-0.492026,0.02965,1.509274,-263.132664,-0.393172,63.368513
1.0779,0.002802,0.017692,0.029646,-0.003484,-0.017729,-0.029818,0.018139,-0.49212,0.029525,1.500603,-263.135551,-0.318176,63.368309
1.0986,0.003226,0.017318,0.029183,-0.003325,-0.017601,-0.029646,0.018124,-0.492122,0.029526,1.500603,-263.135551,-0.318176,63.368309
1.1179,0.003021,0.017254,0.029676,-0.00373,-0.017216,-0.029183,0.018082,-0.492622,0.028916,1.477029,-263.138852,-0.243164,63.368
1.1395,0.002935,0.017353,0.030721,-0.003532,-0.017156,-0.029676,0.01812,-0.492585,0.029312,1.477029,-263.138852,-0.243164,63.368
1.1585,0.003253,0.017513,0.02885,-0.003466,-0.017255,-0.030721,0.01812,-0.492585,0.029312,1.477029,-263.138852,-0.243164,63.368
1.1779,0.003178,0.016936,0.028793,-0.003757,-0.017412,-0.02885,0.017871,-0.492618,0.028254,1.47794,-263.144645,-0.168056,63.366828
1.1987,0.003298,0.016992,0.029963,-0.003664,-0.016837,-0.028793,0.017868,-0.492639,0.028272,1.47794,-263.144645,-0.168056,63.366828
1.2178,0.003672,0.016834,0.027074,-0.003806,-0.016885,-0.029963,0.018532,-0.493043,0.029511,1.474858,-263.150259,-0.24295,63.366242
1.2377,0.003275,0.016763,0.026948,-0.004127,-0.016728,-0.027074,0.017922,-0.49304,0.028056,1.474858,-263.150259,-0.24295,63.366242
1.2582,0.003217,0.016722,0.028709,-0.003726,-0.016668,-0.026948,0.017922,-0.49304,0.028056,1.474858,-263.150259,-0.24295,63.366242
1.2778,0.003894,0.016399,0.028549,-0.003696,-0.016623,-0.028709,0.017731,-0.493545,0.027877,1.46474,-263.158354,-0.201426,63.364791
1.2977,0.003572,0.01599,0.028431,-0.00436,-0.016281,-0.028549,0.017774,-0.493546,0.027899,1.46474,-263.158354,-0.201426,63.364791
1.3179,0.003825,0.015627,0.028455,-0.004025,-0.015882,-0.028431,0.018027,-0.49402,0.028068,1.458799,-263.162913,-0.126514,63.364281
1.3378,0.003694,0.016197,0.027137,-0.004268,-0.015512,-0.028455,0.018198,-0.494132,0.028244,1.458799,-263.162913,-0.126514,63.364281
1.3579,0.003706,0.015994,0.027694,-0.004132,-0.01609,-0.027137,0.018198,-0.494132,0.028244,1.458799,-263.162913,-0.126514,63.364281
1.3781,0.004202,0.015683,0.027128,-0.004147,-0.015885,-0.027694,0.017703,-0.494222,0.026971,1.442196,-263.169959,-0.201587,63.362927
1.3981,0.004299,0.015596,0.025708,-0.004626,-0.015563,-0.027128,0.017723,-0.494227,0.026963,1.442196,-263.169959,-0.201587,63.362927
1.4182,0.004259,0.015092,0.025167,-0.004699,-0.015481,-0.025708,0.017291,-0.494687,0.024944,1.444976,-263.179509,-0.126695,63.361446
1.4381,0.0046,0.015002,0.026404,-0.004638,-0.01498,-0.025167,0.017164,-0.494778,0.024974,1.444976,-263.179509,-0.126695,63.361446
1.4579,0.004303,0.015236,0.024508,-0.004994,-0.014876,-0.026404,0.017164,-0.494778,0.024974,1.444976,-263.179509,-0.126695,63.361446
1.4779,0.004838,0.013795,0.023241,-0.004675,-0.015126,-0.024508,0.016618,-0.495284,0.023347,1.427796,-263.190963,-0.201679,63.359775
1.498,0.004752,0.014361,0.023728,-0.005157,-0.013679,-0.023241,0.016618,-0.495356,0.023309,1.427796,-263.190963,-0.201679,63.359775
1.518,0.005431,0.013401,0.022472,-0.005092,-0.014244,-0.023728,0.016679,-0.496054,0.022744,1.411077,-263.203078,-0.245364,63.357789
1.5379,0.005079,0.013349,0.023367,-0.00573,-0.013275,-0.022472,0.016778,-0.496362,0.022464,1.411077,-263.203078,-0.245364,63.357789
1.5578,0.005393,0.013497,0.024223,-0.00539,-0.013226,-0.023367,0.016778,-0.496362,0.022464,1.411077,-263.203078,-0.245364,63.357789
1.5779,0.005899,0.013186,0.021786,-0.005718,-0.013362,-0.024223,0.017581,-0.496821,0.023416,1.387839,-263.211068,-0.170407,63.356328
1.5985,0.005572,0.013149,0.020608,-0.006185,-0.013054,-0.021786,0.017539,-0.496824,0.023288,1.387839,-263.211068,-0.170407,63.356328
1.6186,0.005766,0.01254,0.018652,-0.005842,-0.013032,-0.020608,0.015889,-0.497228,0.019754,1.377247,-263.221559,-0.191539,63.354152
1.6378,0.005949,0.012433,0.021663,-0.005999,-0.012431,-0.018652,0.015522,-0.497368,0.01903,1.377247,-263.221559,-0.191539,63.354152
1.6577,0.005813,0.012647,0.019541,-0.006217,-0.012301,-0.021663,0.015522,-0.497368,0.01903,1.377247,-263.221559,-0.191539,63.354152
1.6781,0.006296,0.011995,0.020174,-0.006059,-0.012531,-0.019541,0.015583,-0.497682,0.01881,1.340333,-263.228908,-0.116532,63.352471
1.6984,0.006201,0.012101,0.019657,-0.006536,-0.011866,-0.020174,0.015647,-0.497709,0.018886,1.340333,-263.228908,-0.116532,63.352471
1.7181,0.006389,0.011508,0.019601,-0.006438,-0.011977,-0.019657,0.016003,-0.49825,0.01887,1.331943,-263.238758,-0.148396,63.35
1.7379,0.006277,0.011422,0.01767,-0.006613,-0.011381,-0.019601,0.016192,-0.498389,0.019185,1.331943,-263.238758,-0.148396,63.35
1.7579,0.006409,0.011715,0.018514,-0.006478,-0.011309,-0.01767,0.016192,-0.498389,0.019185,1.331943,-263.238758,-0.148396,63.35
1.7778,0.006491,0.011405,0.016756,-0.006625,-0.011594,-0.018514,0.015575,-0.498719,0.017634,1.306861,-263.24774,-0.073389,63.347652
1.7978,0.006292,0.010716,0.017925,-0.006681,-0.011295,-0.016756,0.015531,-0.49872,0.017549,1.306861,-263.24774,-0.073389,63.347652
1.8179,0.006935,0.01056,0.018018,-0.006483,-0.010601,-0.017925,0.015268,-0.499496,0.01745,1.285691,-263.254016,0.001602,63.345881
1.8382,0.006453,0.010508,0.018347,-0.007124,-0.010433,-0.018018,0.015735,-0.499454,0.017713,1.285691,-263.254016,0.001602,63.345881
1.8581,0.00643,0.010912,0.016767,-0.006645,-0.010388,-0.018347,0.015735,-0.499454,0.017713,1.285691,-263.254016,0.001602,63.345881
1.8778,0.006807,0.010233,0.018139,-0.006612,-0.010803,-0.016767,0.014767,-0.499382,0.016202,1.269882,-263.260092,0.076604,63.344057
1.898,0.006546,0.010126,0.015714,-0.006992,-0.010108,-0.018139,0.014846,-0.499411,0.016315,1.269882,-263.260092,0.076604,63.344057
1.918,0.006761,0.010175,0.016552,-0.006705,-0.010021,-0.015714,0.014428,-0.500034,0.015354,1.272271,-263.264867,0.001602,63.342642
1.9378,0.00642,0.009909,0.016827,-0.006929,-0.010062,-0.016552,0.014852,-0.499903,0.01599,1.272271,-263.264867,0.001602,63.342642
1.958,0.006557,0.010637,0.016258,-0.006586,-0.009799,-0.016827,0.014852,-0.499903,0.01599,1.272271,-263.264867,0.001602,63.342642
1.9783,0.006736,0.009363,0.013477,-0.006729,-0.010529,-0.016258,0.014606,-0.499664,0.01563,1.25204,-263.271354,-0.073388,63.34059
1.9983,0.006779,0.009546,0.014452,-0.006862,-0.009272,-0.013477,0.01453,-0.499739,0.015463,1.25204,-263.271354,-0.073388,63.34059
2.0178,0.007087,0.009332,0.014991,-0.006917,-0.009447,-0.014452,0.0139,-0.500783,0.013801,1.253822,-263.279805,-0.072454,63.337949
2.0381,0.007057,0.008916,0.014593,-0.007226,-0.009224,-0.014991,0.014342,-0.500733,0.014396,1.253822,-263.279805,-0.072454,63.337949
2.0582,0.007077,0.008893,0.014491,-0.007186,-0.008812,-0.014593,0.014342,-0.500733,0.014396,1.253822,-263.279805,-0.072454,63.337949
2.0779,0.006873,0.008856,0.01422,-0.007205,-0.008789,-0.014491,0.014327,-0.501237,0.014194,1.197183,-263.283007,0.002537,63.336767
2.0983,0.007283,0.008679,0.015334,-0.006998,-0.008757,-0.01422,0.014309,-0.501232,0.014188,1.197183,-263.283007,0.002537,63.336767
2.1177,0.006617,0.008463,0.013049,-0.007415,-0.008567,-0.015334,0.014866,-0.501517,0.014914,1.185611,-263.288709,-0.014061,63.333911
2.1378,0.007099,0.008464,0.013656,-0.006726,-0.008376,-0.013049,0.013929,-0.501536,0.0138,1.185611,-263.288709,-0.014061,63.333911
2.1584,0.006912,0.008534,0.014673,-0.007214,-0.008367,-0.013656,0.013929,-0.501536,0.0138,1.185611,-263.288709,-0.014061,63.333911
2.1783,0.007069,0.007852,0.01405,-0.007037,-0.008432,-0.014673,0.014064,-0.501837,0.013988,1.189245,-263.296154,0.010371,63.331138
2.1983,0.006908,0.008252,0.013785,-0.007179,-0.007752,-0.01405,0.014067,-0.501866,0.013974,1.189245,-263.296154,0.010371,63.331138
2.2178,0.006315,0.008186,0.013483,-0.007021,-0.008156,-0.013785,0.013663,-0.502027,0.013257,1.163193,-263.303349,0.003663,63.328286
2.2377,0.007028,0.007408,0.013539,-0.006425,-0.0081,-0.013483,0.013367,-0.501924,0.013317,1.163193,-263.303349,0.003663,63.328286
2.2582,0.006972,0.00772,0.012754,-0.007128,-0.007312,-0.013539,0.013367,-0.501924,0.013317,1.163193,-263.303349,0.003663,63.328286
2.2779,0.007249,0.007439,0.011988,-0.00707,-0.00763,-0.012754,0.013201,-0.50255,0.012219,1.156679,-263.30904,-0.07134,63.325981
2.2977,0.006694,0.007128,0.012815,-0.007338,-0.007351,-0.011988,0.013204,-0.502556,0.01219,1.156679,-263.30904,-0.07134,63.325981
2.318,0.00717,0.007093,0.010826,-0.007338,-0.007351,-0.011988,0.012975,-0.503098,0.012325,1.141728,-263.315462,-0.133428,63.323285
2.3381,0.007031,0.00689,0.012495,-7.2e-05,-7e-05,0.0,0.01278,-0.503005,0.011406,1.141728,-263.315462,-0.133428,63.323285
2.3579,0.007237,0.006782,0.012098,-7.2e-05,-7e-05,0.0,0.01278,-0.503005,0.011406,1.141728,-263.315462,-0.133428,63.323285
2.3778,0.006857,0.006947,0.011744,-7.2e-05,-7e-05,0.0,0.013152,-0.503434,0.011663,1.107091,-263.320224,-0.058368,63.321156
2.3977,0.006779,0.00682,0.009517,-7.2e-05,-7e-05,0.0,0.013122,-0.50341,0.011657,1.107091,-263.320224,-0.058368,63.321156
2.4182,0.006696,0.006754,0.010655,-7.2e-05,-7e-05,0.0,0.011632,-0.503157,0.009517,1.032013,-263.320224,0.01671,63.321156
2.4378,0.007143,0.006706,0.010991,-7.2e-05,-7e-05,0.0,0.011916,-0.503191,0.010165,1.032013,-263.320224,0.01671,63.321156
2.4582,0.006893,0.006616,0.011772,-7.2e-05,-7e-05,0.0,0.011916,-0.503191,0.010165,1.032013,-263.320224,0.01671,63.321156
2.4781,0.007295,0.007371,0.010126,-7.2e-05,-7e-05,0.0,0.012897,-0.503349,0.011772,0.95714,-263.320224,0.091583,63.321156
2.4982,0.006668,0.006503,0.012649,-7.2e-05,-7e-05,0.0,0.012864,-0.503293,0.011649,0.95714,-263.320224,0.091583,63.321156
2.5186,0.00722,0.006638,0.011552,-7.2e-05,-7e-05,0.0,0.013118,-0.503457,0.012649,0.881862,-263.320224,0.166861,63.321156
2.5388,0.007073,0.007015,0.011438,-7.2e-05,-7e-05,0.0,0.013114,-0.503383,0.012024,0.881862,-263.320224,0.166861,63.321156
2.5582,0.006964,0.006568,0.011674,-0.001058,-0.001024,-0.00158,0.013114,-0.503383,0.012024,0.881862,-263.320224,0.166861,63.321156
2.5778,0.006911,0.007107,0.011564,-0.002061,-0.001996,-0.00308,0.012917,-0.503397,0.011674,0.80703,-263.320224,0.241693,63.321156
2.5984,0.006891,0.006602,0.011213,-0.003012,-0.002916,-0.0045,0.01291,-0.503361,0.011666,0.80703,-263.320224,0.241693,63.321156
2.6181,0.007004,0.006559,0.011476,-0.00391,-0.003785,-0.005841,0.012601,-0.503372,0.011204,0.881921,-263.320375,0.166802,63.321084
2.6379,0.007334,0.006772,0.010776,-0.004752,-0.0046,-0.007099,0.012745,-0.503393,0.011358,0.881921,-263.320375,0.166802,63.321084
2.6578,0.006644,0.006689,0.010751,-0.005539,-0.005362,-0.008275,0.012745,-0.503393,0.011358,0.881921,-263.320375,0.166802,63.321084
2.678,0.006909,0.006808,0.011497,-0.006277,-0.006077,-0.009377,0.012057,-0.50334,0.010666,0.957029,-263.321477,0.091694,63.320566
2.6986,0.006916,0.00661,0.010839,-0.006953,-0.006731,-0.010387,0.012105,-0.503329,0.010721,0.957029,-263.321477,0.091694,63.320566
2.7177,0.006596,0.006484,0.010986,-0.007579,-0.007337,-0.011323,0.012275,-0.503515,0.010603,1.031924,-263.325079,0.055608,63.318872
2.7377,0.007048,0.006564,0.010444,-0.008149,-0.007889,-0.012175,0.01221,-0.503518,0.010793,1.031924,-263.325079,0.055608,63.318872
2.758,0.006969,0.006491,0.011723,-0.008666,-0.008389,-0.012947,0.01221,-0.503518,0.010793,1.031924,-263.325079,0.055608,63.318872
2.7779,0.006513,0.006476,0.011087,-0.009128,-0.008837,-0.013637,0.012626,-0.503792,0.011238,1.08207,-263.33076,0.055608,63.316201
2.798,0.006793,0.005717,0.011532,-0.009537,-0.009233,-0.014248,0.012588,-0.50378,0.011216,1.08207,-263.33076,0.055608,63.316201
2.8177,0.006649,0.005971,0.009129,-0.00989,-0.009575,-0.014776,0.012343,-0.504577,0.011031,1.08207,-263.338159,0.055608,63.312722
2.8378,0.006378,0.006037,0.01002,-0.01019,-0.009865,-0.015224,0.011704,-0.504291,0.009874,1.08207,-263.338159,0.055608,63.312722
2.8585,0.006386,0.005276,0.008813,-0.010433,-0.010101,-0.015587,0.011704,-0.504291,0.009874,1.08207,-263.338159,0.055608,63.312722
2.8778,0.006092,0.005349,0.007511,-0.010624,-0.010285,-0.015872,0.010422,-0.505156,0.008122,1.08207,-263.346279,0.055608,63.308903
2.8978,0.006635,0.005817,0.008419,-0.01076,-0.010417,-0.016075,0.010373,-0.50513,0.008057,1.08207,-263.346279,0.055608,63.308903
2.9184,0.006549,0.004859,0.008191,-0.010842,-0.010496,-0.016198,0.010529,-0.504558,0.007818,1.08207,-263.355169,0.055608,63.304723
2.9378,0.005975,0.004972,0.007562,-0.010869,-0.010523,-0.016239,0.01059,-0.504931,0.007954,1.08207,-263.355169,0.055608,63.304723
2.958,0.006149,0.004727,0.007753,-0.010842,-0.010496,-0.016198,0.01059,-0.504931,0.007954,1.08207,-263.355169,0.055608,63.304723
2.9782,0.006735,0.004192,0.007607,-0.010761,-0.010418,-0.016077,0.009585,-0.505767,0.006973,1.08207,-263.36432,0.055608,63.30042
2.9985,0.006123,0.004483,0.0074,-0.010625,-0.010286,-0.015874,0.009642,-0.505782,0.006996,1.08207,-263.36432,0.055608,63.30042
3.018,0.005972,0.003571,0.005767,-0.010435,-0.010102,-0.01559,0.00948,-0.505912,0.006773,1.08207,-263.373576,0.055608,63.296068
3.0377,0.005809,0.003704,0.006814,-0.010191,-0.009866,-0.015225,0.009103,-0.506255,0.006117,1.08207,-263.373576,0.055608,63.296068
3.0579,0.006407,0.003689,0.006422,-0.009892,-0.009576,-0.014778,0.009103,-0.506255,0.006117,1.08207,-263.373576,0.055608,63.296068
3.0781,0.005838,0.003043,0.007338,-0.009539,-0.009235,-0.014252,0.009168,-0.506804,0.005649,1.08207,-263.38261,0.055608,63.29182
3.0981,0.006019,0.003334,0.006164,-0.009132,-0.00884,-0.013642,0.009181,-0.506824,0.005733,1.08207,-263.38261,0.055608,63.29182
3.1179,0.00604,0.002819,0.004698,-0.00867,-0.008394,-0.012953,0.008783,-0.507028,0.005594,1.08207,-263.391037,0.055608,63.287857
3.138,0.005813,0.002903,0.005301,-0.008155,-0.007895,-0.012184,0.008538,-0.507159,0.005012,1.08207,-263.391037,0.055608,63.287857
3.158,0.006012,0.002589,0.004588,-0.007579,-0.007337,-0.011322,0.008538,-0.507159,0.005012,1.08207,-263.391037,0.055608,63.287857
3.1781,0.006032,0.002344,0.004218,-0.006957,-0.006735,-0.010393,0.007908,-0.507839,0.003923,1.08207,-263.398817,0.055608,63.284199
3.1983,0.005656,0.002182,0.003624,-0.006279,-0.006079,-0.009381,0.007915,-0.507837,0.003926,1.08207,-263.398817,0.055608,63.284199
3.2181,0.00589,0.001641,0.004193,-0.005545,-0.005368,-0.008284,0.007213,-0.508099,0.003186,1.08207,-263.405275,0.055608,63.281162
3.2377,0.005897,0.002084,0.002776,-0.004759,-0.004608,-0.00711,0.00764,-0.50828,0.003704,1.08207,-263.405275,0.055608,63.281162
3.2582,0.005535,0.002014,0.001538,-0.003918,-0.003793,-0.005853,0.00764,-0.50828,0.003704,1.08207,-263.405275,0.055608,63.281162
3.2777,0.005255,0.0016,0.003239,-0.003021,-0.002925,-0.004513,0.006014,-0.508281,0.001081,1.08207,-263.410623,0.055608,63.278647
3.2977,0.005251,0.001702,0.003338,-0.002071,-0.002005,-0.003094,0.006064,-0.508296,0.00121,1.08207,-263.410623,0.055608,63.278647
3.318,0.005667,0.00173,0.002039,-0.001063,-0.001029,-0.001588,0.006803,-0.508442,0.003113,1.08207,-263.413961,0.055608,63.277078
3.3379,0.005346,0.001315,0.003262,-1e-06,-1e-06,-1e-06,0.006729,-0.508362,0.002472,1.08207,-263.413961,0.055608,63.277078
3.358,0.005866,0.001381,0.001493,0.0,0.0,0.0,0.006729,-0.508362,0.002472,1.08207,-263.413961,0.055608,63.277078
3.3778,0.005813,0.001347,0.00425,0.0,0.0,0.0,0.006527,-0.508716,0.001343,1.08207,-263.415728,0.055608,63.276247
3.3981,0.005629,0.001357,0.003666,0.0,0.0,0.0,0.006632,-0.508714,0.001553,1.08207,-263.415728,0.055608,63.276247
3.4178,0.00559,0.001243,0.002909,0.0,0.0,0.0,0.007499,-0.50864,0.003666,1.08207,-263.415728,0.055608,63.276247
3.4378,0.005517,0.001368,0.002804,0.0,0.0,0.0,0.007257,-0.508705,0.003235,1.08207,-263.415728,0.055608,63.276247
3.458,0.005416,0.001325,0.003638,0.0,0.0,0.0,0.007257,-0.508705,0.003235,1.08207,-263.415728,0.055608,63.276247
3.478,0.005843,0.001583,0.003009,0.0,0.0,0.0,0.007271,-0.508672,0.003638,1.08207,-263.415728,0.055608,63.276247
3.4984,0.005526,0.001158,0.003094,0.0,0.0,0.0,0.007279,-0.508654,0.003594,1.08207,-263.415728,0.055608,63.276247
3.5183,0.005575,0.001456,0.003332,0.0,0.0,0.0,0.007104,-0.50884,0.003094,1.08207,-263.415728,0.055608,63.276247
3.5381,0.005423,0.001273,0.003198,0.0,0.0,0.0,0.007201,-0.50867,0.00323,1.08207,-263.415728,0.055608,63.276247
3.5581,0.005708,0.001038,0.003114,0.0,0.0,0.0,0.007201,-0.50867,0.00323,1.08207,-263.415728,0.055608,63.276247
3.5785,0.005632,0.001391,0.002621,-9.8e-05,-1.8e-05,0.0,0.007296,-0.50896,0.003114,1.08207,-263.415728,0.055608,63.276247
3.5985,0.005194,0.001786,0.002575,-9.8e-05,-1.8e-05,0.0,0.007274,-0.508936,0.003081,1.08207,-263.415728,0.055608,63.276247
3.6178,0.005272,0.001572,0.002388,-9.8e-05,-1.8e-05,0.0,0.006507,-0.508212,0.002575,1.08207,-263.415728,0.055608,63.276247
3.6378,0.005294,0.001314,0.002154,-9.8e-05,-1.8e-05,0.0,0.006498,-0.508334,0.002469,1.08207,-263.415728,0.055608,63.276247
3.6579,0.005542,0.001329,0.001211,-9.8e-05,-1.8e-05,0.0,0.006498,-0.508334,0.002469,1.08207,-263.415728,0.055608,63.276247
3.6781,0.005602,0.001326,0.003286,-9.8e-05,-1.8e-05,0.0,0.00616,-0.508671,0.001211,1.007069,-263.415728,0.130608,63.276247
3.6984,0.00554,0.00152,0.003497,-9.8e-05,-1.8e-05,0.0,0.006237,-0.508671,0.001355,1.007069,-263.415728,0.130608,63.276247
3.7183,0.005603,0.001589,0.003396,-9.8e-05,-1.8e-05,0.0,0.007324,-0.508477,0.003497,0.932058,-263.415728,0.17671,63.276247
3.738,0.005831,0.001517,0.002482,-9.8e-05,-1.8e-05,0.0,0.00733,-0.508438,0.00344,0.932058,-263.415728,0.17671,63.276247
3.7583,0.005607,0.001289,0.003128,-9.8e-05,-1.8e-05,0.0,0.00733,-0.508438,0.00344,0.932058,-263.415728,0.17671,63.276247
3.7778,0.005786,0.001269,0.00316,-0.0,-0.0,-0.0,0.007202,-0.508708,0.003128,0.857051,-263.415728,0.17671,63.276247
3.7984,0.005582,0.00143,0.003606,-0.00084,-0.00015,-0.000458,0.007216,-0.50871,0.00313,0.857051,-263.415728,0.17671,63.276247
3.818,0.005333,0.001492,0.003974,-0.001632,-0.000291,-0.00089,0.007421,-0.508567,0.003606,0.781961,-263.415728,0.17671,63.276247
3.8382,0.005513,0.001883,0.002738,-0.002382,-0.000425,-0.001299,0.007385,-0.50853,0.00382,0.781961,-263.415728,0.17671,63.276247
3.8578,0.00516,0.001512,0.002118,-0.003083,-0.000551,-0.001681,0.007385,-0.50853,0.00382,0.781961,-263.415728,0.17671,63.276247
3.878,0.005323,0.001269,0.003505,-0.003748,-0.000669,-0.002044,0.006239,-0.508488,0.002117,0.70666,-263.415741,0.10141,63.276235
3.8977,0.005606,0.001251,0.002657,-0.004369,-0.00078,-0.002382,0.006297,-0.508504,0.002209,0.70666,-263.415741,0.10141,63.276235
3.9177,0.005681,0.00147,0.003506,-0.004948,-0.000884,-0.002698,0.006944,-0.508753,0.002648,0.632059,-263.415942,0.026808,63.276054
3.9379,0.005439,0.000993,0.002301,-0.005484,-0.000979,-0.00299,0.00724,-0.508625,0.003135,0.632059,-263.415942,0.026808,63.276054
3.9585,0.005486,0.001293,0.003553,-0.005975,-0.001067,-0.003258,0.00724,-0.508625,0.003135,0.632059,-263.415942,0.026808,63.276054
3.9783,0.005319,0.001333,0.001634,-0.006425,-0.001147,-0.003504,0.007216,-0.508727,0.003509,0.557067,-263.416718,-0.048183,63.275355
3.998,0.005465,0.001057,0.002488,-0.006832,-0.00122,-0.003726,0.007137,-0.508723,0.003373,0.557067,-263.416718,-0.048183,63.275355
4.0181,0.005224,0.001395,0.002858,-0.007196,-0.001285,-0.003924,0.006562,-0.508976,0.002397,0.481975,-263.418723,-0.123275,63.273548
4.0381,0.005351,0.001264,0.00463,-0.007517,-0.001342,-0.004099,0.006608,-0.508769,0.002647,0.481975,-263.418723,-0.123275,63.273548
4.0579,0.005379,0.001151,0.001565,-0.007798,-0.001393,-0.004252,0.006608,-0.508769,0.002647,0.481975,-263.418723,-0.123275,63.273548
4.0779,0.00505,0.001295,0.00225,-0.008034,-0.001435,-0.004381,0.00585,-0.508907,0.001386,0.472905,-263.421745,-0.153268,63.270826
4.0983,0.004923,0.001257,0.002259,-0.008225,-0.001469,-0.004485,0.005865,-0.508895,0.001438,0.472905,-263.421745,-0.153268,63.270826
4.118,0.004652,0.001012,0.000433,-0.008375,-0.001496,-0.004567,0.005774,-0.508797,0.002095,0.472905,-263.425249,-0.153268,63.26767
4.138,0.004599,0.001371,0.000926,-0.008482,-0.001515,-0.004625,0.005225,-0.508912,0.001132,0.472905,-263.425249,-0.153268,63.26767
4.1579,0.004857,0.001122,0.002396,-0.008546,-0.001526,-0.00466,0.005225,-0.508912,0.001132,0.472905,-263.425249,-0.153268,63.26767
4.1781,0.004411,0.001315,0.0003,-0.008567,-0.00153,-0.004672,0.005679,-0.508949,0.002178,0.472905,-263.428945,-0.153268,63.264341
4.1979,0.004595,0.000975,0.002303,-0.008545,-0.001526,-0.00466,0.005598,-0.508934,0.002053,0.472905,-263.428945,-0.153268,63.264341
4.2178,0.004345,0.001195,0.002464,-0.008481,-0.001514,-0.004625,0.005439,-0.509084,0.002122,0.472905,-263.432781,-0.153268,63.260885
4.2382,0.004177,0.000719,0.001206,-0.008374,-0.001495,-0.004566,0.005488,-0.508933,0.002292,0.472905,-263.432781,-0.153268,63.260885
4.2585,0.004393,0.001189,0.001198,-0.008224,-0.001469,-0.004485,0.005488,-0.508933,0.002292,0.472905,-263.432781,-0.153268,63.260885
4.2778,0.003831,0.000952,0.000503,-0.00803,-0.001434,-0.004379,0.004588,-0.508885,0.000971,0.472905,-263.436624,-0.153268,63.257424
4.2978,0.003713,0.000841,0.002423,-0.007794,-0.001392,-0.00425,0.004545,-0.508898,0.000935,0.472905,-263.436624,-0.153268,63.257424
4.3178,0.003488,0.001011,0.00239,-0.007517,-0.001342,-0.004099,0.004631,-0.509215,0.00225,0.472905,-263.440319,-0.153268,63.254095
4.3379,0.003568,0.000774,0.000769,-0.007196,-0.001285,-0.003924,0.004634,-0.509093,0.002308,0.472905,-263.440319,-0.153268,63.254095
4.3579,0.003384,0.000477,0.001455,-0.006832,-0.00122,-0.003726,0.004634,-0.509093,0.002308,0.472905,-263.440319,-0.153268,63.254095
4.3779,0.003354,0.00079,-0.000461,-0.006425,-0.001147,-0.003503,0.003747,-0.509591,0.001248,0.472905,-263.443846,-0.153268,63.250918
4.3977,0.003312,0.000683,0.00153,-0.005975,-0.001067,-0.003258,0.003683,-0.509561,0.001099,0.472905,-263.443846,-0.153268,63.250918
4.4182,0.002711,0.00082,1.9e-05,-0.005482,-0.000979,-0.002989,0.003831,-0.509364,0.001388,0.472905,-263.446898,-0.153268,63.248169
4.4386,0.003193,0.000627,0.001166,-0.004941,-0.000882,-0.002694,0.003163,-0.509264,0.000587,0.472905,-263.446898,-0.153268,63.248169
4.4584,0.003123,0.000639,0.001158,-0.004368,-0.00078,-0.002382,0.003163,-0.509264,0.000587,0.472905,-263.446898,-0.153268,63.248169
4.4783,0.002378,0.00077,0.001456,-0.003748,-0.000669,-0.002044,0.003423,-0.509413,0.001,0.472905,-263.449598,-0.153268,63.245736
4.4983,0.002416,0.000667,-0.001349,-0.003084,-0.000551,-0.001682,0.003387,-0.509399,0.001034,0.472905,-263.449598,-0.153268,63.245736
