mach0312/omni-docking-bench/src/icros_test_setup/results/kinematic_sample/timeseries/trial_095.csv
t,x,y,yaw,vx,vy,wz,bl_x,bl_y,bl_yaw,front_steering_joint,front_wheel_joint,rear_steering_joint,rear_wheel_joint
0.0,-0.030992,0.027814,0.050368,0.0,0.0,0.0,-0.005242,-0.481245,0.050619,0.608229,-264.584126,-0.14902,62.336748
0.0004,-0.030868,0.028279,0.051468,0.0,0.0,0.0,-0.005242,-0.481245,0.050619,0.608229,-264.583605,-0.14902,62.33718
0.0007,-0.030774,0.02825,0.050755,0.0,0.0,0.0,-0.004815,-0.481269,0.050497,0.608229,-264.583605,-0.14902,62.33718
0.001,-0.030836,0.028254,0.049698,0.0,0.0,0.0,-0.004807,-0.48127,0.050525,0.608229,-264.583605,-0.14902,62.33718
0.0013,-0.031058,0.027992,0.050622,0.0,0.0,0.0,-0.004807,-0.48127,0.050525,0.608229,-264.583605,-0.14902,62.33718
0.0016,-0.030761,0.02808,0.051043,9.8e-05,2e-05,0.0,-0.004937,-0.480875,0.051662,0.608229,-264.583605,-0.14902,62.33718
0.002,-0.030978,0.028243,0.050883,9.8e-05,2e-05,0.0,-0.004937,-0.480875,0.051662,0.533221,-264.583605,-0.074011,62.337181
0.0022,-0.0309,0.028317,0.05097,9.8e-05,2e-05,0.0,-0.005182,-0.481161,0.050573,0.533221,-264.583605,-0.074011,62.337181
0.0024,-0.030949,0.02827,0.050506,9.8e-05,2e-05,0.0,-0.005182,-0.481161,0.050573,0.533221,-264.583605,-0.074011,62.337181
0.0027,-0.030902,0.028315,0.050106,9.8e-05,2e-05,0.0,-0.005182,-0.481161,0.050573,0.533221,-264.583605,-0.074011,62.337181
0.0185,-0.03078,0.027982,0.049936,0.016098,-0.01598,-0.03,-0.005078,-0.481054,0.050707,0.533221,-264.583605,-0.074011,62.337181
0.0385,-0.030925,0.028463,0.050217,0.029344,-0.029484,-0.049936,-0.005323,-0.481382,0.049936,0.45822,-264.583603,0.000989,62.337183
0.0592,-0.0311,0.028229,0.050315,0.029457,-0.029979,-0.05,-0.005323,-0.481351,0.049954,0.45822,-264.583603,0.000989,62.337183
0.0784,-0.030426,0.028409,0.051006,0.029641,-0.029758,-0.05,-0.00545,-0.481125,0.050315,0.383214,-264.583602,0.075996,62.337183
0.0989,-0.03061,0.028547,0.051783,0.028938,-0.029923,-0.05,-0.004866,-0.481013,0.050708,0.383214,-264.583602,0.075996,62.337183
0.1185,-0.030699,0.027952,0.050681,0.029092,-0.030093,-0.05,-0.004866,-0.481013,0.050708,0.383214,-264.583602,0.075996,62.337183
0.1387,-0.031055,0.02811,0.050943,0.029243,-0.029472,-0.05,-0.004862,-0.481393,0.050681,0.308222,-264.583599,0.018958,62.337184
0.1588,-0.030713,0.028685,0.051935,0.029584,-0.029655,-0.05,-0.004877,-0.481382,0.050699,0.308222,-264.583599,0.018958,62.337184
0.1783,-0.030736,0.02846,0.049988,0.029183,-0.03024,-0.05,-0.004238,-0.480628,0.051935,0.23318,-264.583597,0.015272,62.337185
0.1983,-0.03075,0.028359,0.051073,0.029276,-0.02996,-0.049988,-0.004809,-0.480783,0.050839,0.23318,-264.583597,0.015272,62.337185
0.2187,-0.030867,0.028027,0.050309,0.029262,-0.029892,-0.05,-0.004809,-0.480783,0.050839,0.23318,-264.583597,0.015272,62.337185
0.2384,-0.030795,0.028141,0.051063,0.029418,-0.029544,-0.05,-0.00522,-0.481328,0.050309,0.158225,-264.583594,0.02983,62.337187
0.2587,-0.03071,0.028209,0.051627,0.029319,-0.029676,-0.05,-0.005188,-0.481318,0.050362,0.158225,-264.583594,0.02983,62.337187
0.2785,-0.03094,0.028227,0.051357,0.029213,-0.029756,-0.05,-0.004391,-0.481112,0.051627,0.083229,-264.583591,0.022051,62.337188
0.2984,-0.030824,0.028673,0.050443,0.029451,-0.029778,-0.05,-0.004601,-0.481105,0.051473,0.083229,-264.583591,0.022051,62.337188
0.3186,-0.030679,0.028273,0.050206,0.029339,-0.030191,-0.05,-0.004601,-0.481105,0.051473,0.083229,-264.583591,0.022051,62.337188
0.3389,-0.03075,0.028138,0.051261,0.029221,-0.029777,-0.05,-0.005085,-0.481084,0.050206,0.008226,-264.583589,0.029363,62.337189
0.3586,-0.031085,0.028278,0.051272,0.029268,-0.029676,-0.05,-0.005052,-0.481092,0.050279,0.008226,-264.583589,0.029363,62.337189
0.3786,-0.030828,0.027997,0.049981,0.029595,-0.029834,-0.05,-0.004948,-0.481051,0.051272,-0.066776,-264.583586,0.01182,62.33719
0.3985,-0.031084,0.028253,0.051474,0.029391,-0.029502,-0.049981,-0.005176,-0.481231,0.050537,-0.066776,-264.583586,0.01182,62.33719
0.4184,-0.030771,0.028135,0.051479,0.029589,-0.029815,-0.05,-0.005176,-0.481231,0.050537,-0.066776,-264.583586,0.01182,62.33719
0.4384,-0.030731,0.028272,0.051004,0.029283,-0.029681,-0.05,-0.004529,-0.48119,0.051479,-0.14178,-264.583583,0.029415,62.337191
0.4584,-0.030878,0.028292,0.05079,0.02925,-0.029802,-0.05,-0.004545,-0.481179,0.05144,-0.14178,-264.583583,0.029415,62.337191
0.4783,-0.030502,0.028178,0.049268,0.029402,-0.029823,-0.05,-0.004986,-0.481051,0.05079,-0.217115,-264.583581,0.024419,62.337192
0.4986,-0.030835,0.027694,0.050399,0.029077,-0.029646,-0.049268,-0.005213,-0.481137,0.049924,-0.217115,-264.583581,0.024419,62.337192
0.5185,-0.030717,0.027834,0.050871,0.029401,-0.029212,-0.05,-0.005213,-0.481137,0.049924,-0.217115,-264.583581,0.024419,62.337192
0.5387,-0.03053,0.028049,0.050046,0.029262,-0.02936,-0.05,-0.004784,-0.481506,0.050871,-0.291777,-264.583578,0.025138,62.337194
0.5586,-0.031045,0.028075,0.050717,0.029089,-0.029541,-0.05,-0.0048,-0.481493,0.050814,-0.291777,-264.583578,0.025138,62.337194
0.5783,-0.030442,0.028308,0.050372,0.029582,-0.029613,-0.05,-0.005191,-0.481269,0.050717,-0.366778,-264.583575,0.045059,62.337195
0.5986,-0.030857,0.028335,0.048947,0.028978,-0.029805,-0.05,-0.004948,-0.481142,0.05052,-0.366778,-264.583575,0.045059,62.337195
0.6193,-0.031281,0.028349,0.050839,0.029433,-0.029811,-0.048947,-0.004948,-0.481142,0.05052,-0.366778,-264.583575,0.045059,62.337195
0.6386,-0.030865,0.028226,0.052254,0.0298,-0.029902,-0.05,-0.005364,-0.480992,0.050839,-0.441739,-264.583571,0.034234,62.337196
0.6588,-0.030427,0.028585,0.050266,0.029349,-0.029799,-0.05,-0.005287,-0.480998,0.050935,-0.441739,-264.583571,0.034234,62.337196
0.6785,-0.030679,0.028095,0.050419,0.028952,-0.030078,-0.05,-0.004801,-0.480771,0.050266,-0.516787,-264.583558,0.002825,62.337202
0.6985,-0.030602,0.028206,0.051144,0.029224,-0.029605,-0.05,-0.004901,-0.481049,0.050353,-0.516787,-264.583558,0.002825,62.337202
0.7185,-0.030723,0.027981,0.051588,0.02912,-0.029733,-0.05,-0.004901,-0.481049,0.050353,-0.516787,-264.583558,0.002825,62.337202
0.7384,-0.030834,0.028139,0.050748,0.029239,-0.029528,-0.05,-0.00442,-0.481342,0.051585,-0.591876,-264.5835,0.025152,62.337228
0.7589,-0.030939,0.02832,0.050449,0.029367,-0.029667,-0.05,-0.004455,-0.481334,0.051531,-0.591876,-264.5835,0.025152,62.337228
0.779,-0.031001,0.028194,0.050946,0.029472,-0.029845,-0.05,-0.005206,-0.481037,0.050437,-0.666743,-264.583255,0.027614,62.337335
0.7985,-0.030922,0.028189,0.04865,0.029525,-0.029736,-0.05,-0.005104,-0.481099,0.050725,-0.666743,-264.583255,0.027614,62.337335
0.8185,-0.030904,0.028014,0.050243,0.029515,-0.029659,-0.04865,-0.005104,-0.481099,0.050725,-0.666743,-264.583255,0.027614,62.337335
0.8389,-0.03072,0.028508,0.050436,0.029458,-0.029531,-0.05,-0.005222,-0.481377,0.050179,-0.741776,-264.582322,0.029627,62.337743
0.8587,-0.030852,0.028185,0.049988,0.029243,-0.03002,-0.05,-0.005207,-0.481343,0.050194,-0.741776,-264.582322,0.029627,62.337743
0.8789,-0.030695,0.027925,0.050547,0.029405,-0.029691,-0.049988,-0.005208,-0.481271,0.049823,-0.816772,-264.57946,0.001823,62.339018
0.8985,-0.03038,0.028188,0.051063,0.029245,-0.02944,-0.05,-0.005027,-0.48137,0.050215,-0.816772,-264.57946,0.001823,62.339018
0.9189,-0.030761,0.027804,0.04993,0.028901,-0.029702,-0.05,-0.005027,-0.48137,0.050215,-0.816772,-264.57946,0.001823,62.339018
0.9384,-0.029956,0.027902,0.050851,0.029335,-0.029305,-0.04993,-0.004933,-0.481793,0.04951,-0.891781,-264.574098,0.017692,62.341607
0.9588,-0.029627,0.027526,0.051063,0.028499,-0.029388,-0.05,-0.004862,-0.481775,0.049589,-0.891781,-264.574098,0.017692,62.341607
0.9785,-0.028757,0.027679,0.049435,0.028183,-0.029002,-0.05,-0.003131,-0.482092,0.050541,-0.966782,-264.566235,0.028896,62.346458
0.9985,-0.028905,0.027181,0.048572,0.027354,-0.029066,-0.049435,-0.003313,-0.481904,0.049846,-0.966782,-264.566235,0.028896,62.346458
1.0185,-0.028913,0.027387,0.048351,0.027551,-0.028552,-0.048572,-0.003313,-0.481904,0.049846,-0.966782,-264.566235,0.028896,62.346458
1.0387,-0.027576,0.026955,0.047388,0.027556,-0.028753,-0.048351,-0.003475,-0.482506,0.047431,-1.041783,-264.555873,0.040307,62.353809
1.0592,-0.027551,0.027083,0.047808,0.026268,-0.028231,-0.047388,-0.00345,-0.482516,0.047404,-1.041783,-264.555873,0.040307,62.353809
1.0787,-0.026156,0.026466,0.047199,0.026225,-0.028369,-0.047808,-0.00241,-0.482838,0.046863,-1.116778,-264.54301,0.040384,62.363578
1.0986,-0.02624,0.02652,0.047293,0.024879,-0.027671,-0.047199,-0.002133,-0.482975,0.046933,-1.116778,-264.54301,0.040384,62.363578
1.1188,-0.025858,0.026326,0.046693,0.024957,-0.027731,-0.047293,-0.002133,-0.482975,0.046933,-1.116778,-264.54301,0.040384,62.363578
1.1388,-0.023547,0.025463,0.045337,0.024601,-0.027504,-0.046693,-0.000995,-0.483902,0.045275,-1.140118,-264.527648,0.027081,62.373969
1.1588,-0.02417,0.025772,0.04682,0.022369,-0.026504,-0.045337,-0.000929,-0.48393,0.045242,-1.140118,-264.527648,0.027081,62.373969
1.1783,-0.022364,0.024577,0.04322,0.022937,-0.026875,-0.04682,0.000559,-0.484398,0.045492,-1.155601,-264.509786,0.046192,62.383865
1.1983,-0.021929,0.02433,0.042231,0.021281,-0.02552,-0.04322,0.000163,-0.484803,0.044031,-1.155601,-264.509786,0.046192,62.383865
1.2186,-0.021973,0.024952,0.043643,0.020883,-0.025234,-0.042231,0.000163,-0.484803,0.044031,-1.155601,-264.509786,0.046192,62.383865
1.2387,-0.019934,0.023458,0.041946,0.020863,-0.025887,-0.043643,0.001337,-0.485635,0.04172,-1.179334,-264.489423,0.05296,62.392739
1.2584,-0.020162,0.023676,0.041096,0.018933,-0.024273,-0.041946,0.001371,-0.485692,0.041687,-1.179334,-264.489423,0.05296,62.392739
1.2784,-0.018068,0.022492,0.0399,0.019172,-0.024485,-0.041096,0.001627,-0.486825,0.039482,-1.182341,-264.467615,0.02674,62.401002
1.2983,-0.017881,0.022541,0.04077,0.017156,-0.023195,-0.0399,0.002101,-0.4871,0.039513,-1.182341,-264.467615,0.02674,62.401002
1.3184,-0.017935,0.022601,0.039221,0.016947,-0.023252,-0.04077,0.002101,-0.4871,0.039513,-1.182341,-264.467615,0.02674,62.401002
1.3384,-0.016262,0.021413,0.037928,0.017035,-0.023287,-0.039221,0.002987,-0.488104,0.037265,-1.208103,-264.44712,0.070938,62.408292
1.3586,-0.015967,0.021294,0.039148,0.015438,-0.022014,-0.037928,0.00302,-0.488142,0.037259,-1.208103,-264.44712,0.070938,62.408292
1.3788,-0.013963,0.020238,0.036014,0.015121,-0.021903,-0.039148,0.004668,-0.489169,0.037606,-1.232383,-264.427135,0.096988,62.414958
1.3988,-0.013877,0.020267,0.034139,0.013226,-0.020728,-0.036014,0.004601,-0.489426,0.036506,-1.232383,-264.427135,0.096988,62.414958
1.4183,-0.014094,0.02058,0.036039,0.013177,-0.020729,-0.034139,0.004601,-0.489426,0.036506,-1.232383,-264.427135,0.096988,62.414958
1.4386,-0.012387,0.01944,0.033665,0.013344,-0.021075,-0.036039,0.005062,-0.490122,0.034212,-1.241519,-264.408219,0.074385,62.421092
1.4583,-0.012219,0.019282,0.033359,0.011726,-0.019846,-0.033665,0.005063,-0.49016,0.034126,-1.241519,-264.408219,0.074385,62.421092
1.4786,-0.010879,0.018235,0.032613,0.011569,-0.019679,-0.033359,0.005286,-0.49116,0.032138,-1.263899,-264.392049,0.009219,62.425977
1.4987,-0.011067,0.018072,0.032142,0.010279,-0.01858,-0.032613,0.005614,-0.491442,0.032253,-1.263899,-264.392049,0.009219,62.425977
1.5186,-0.010842,0.018548,0.032432,0.01048,-0.018418,-0.032142,0.005614,-0.491442,0.032253,-1.263899,-264.392049,0.009219,62.425977
1.5384,-0.009434,0.017313,0.031141,0.010235,-0.01889,-0.032432,0.006265,-0.492081,0.030879,-1.288352,-264.376041,0.060865,62.430446
1.559,-0.009187,0.017353,0.031381,0.00889,-0.017598,-0.031141,0.006295,-0.492134,0.030854,-1.288352,-264.376041,0.060865,62.430446
1.5784,-0.008067,0.016932,0.028834,0.008638,-0.017633,-0.031381,0.007221,-0.49306,0.030201,-1.30202,-264.361043,0.115195,62.434456
1.5984,-0.008007,0.016881,0.029824,0.007576,-0.017158,-0.028834,0.006939,-0.493028,0.029273,-1.30202,-264.361043,0.115195,62.434456
1.6186,-0.008147,0.016579,0.030097,0.0075,-0.017112,-0.029824,0.006939,-0.493028,0.029273,-1.30202,-264.361043,0.115195,62.434456
1.6386,-0.007137,0.015657,0.027911,0.007644,-0.016817,-0.030097,0.007636,-0.493994,0.028652,-1.332616,-264.346654,0.158542,62.437894
1.6585,-0.007031,0.015754,0.026463,0.006697,-0.01585,-0.027911,0.00761,-0.494026,0.028561,-1.332616,-264.346654,0.158542,62.437894
1.6786,-0.005536,0.01494,0.027965,0.006611,-0.015934,-0.026463,0.006766,-0.494711,0.025329,-1.36159,-264.332437,0.146018,62.440878
1.699,-0.005971,0.01492,0.024715,0.005116,-0.015089,-0.027965,0.007918,-0.494877,0.026684,-1.36159,-264.332437,0.146018,62.440878
1.7184,-0.005767,0.015317,0.026139,0.0056,-0.015063,-0.024715,0.007918,-0.494877,0.026684,-1.36159,-264.332437,0.146018,62.440878
1.7386,-0.004856,0.014169,0.024929,0.005364,-0.015462,-0.026139,0.007902,-0.495259,0.024804,-1.369952,-264.319226,0.176833,62.443555
1.7587,-0.004674,0.014202,0.025114,0.004501,-0.014286,-0.024929,0.007908,-0.495307,0.024777,-1.369952,-264.319226,0.176833,62.443555
1.7784,-0.004067,0.013678,0.024471,0.004316,-0.014314,-0.025114,0.008276,-0.495989,0.024511,-1.387183,-264.311598,0.101829,62.444948
1.7987,-0.004432,0.013861,0.023013,0.003731,-0.013773,-0.024471,0.008372,-0.496137,0.024411,-1.387183,-264.311598,0.101829,62.444948
1.8186,-0.003968,0.013542,0.023863,0.004112,-0.013959,-0.023013,0.008372,-0.496137,0.024411,-1.387183,-264.311598,0.101829,62.444948
1.8387,-0.003854,0.013467,0.023178,0.003643,-0.013633,-0.023863,0.008396,-0.496885,0.022866,-1.419443,-264.301728,0.176902,62.446468
1.8589,-0.003439,0.013166,0.0234,0.003541,-0.013552,-0.023178,0.008372,-0.496866,0.022862,-1.419443,-264.301728,0.176902,62.446468
1.8789,-0.002628,0.01289,0.023379,0.00313,-0.013243,-0.0234,0.00861,-0.497057,0.022784,-1.425068,-264.293977,0.101972,62.447594
1.8984,-0.002923,0.012328,0.023157,0.002326,-0.012948,-0.023379,0.009011,-0.497054,0.023041,-1.425068,-264.293977,0.101972,62.447594
1.9188,-0.003009,0.012543,0.023756,0.002637,-0.012392,-0.023157,0.009011,-0.497054,0.023041,-1.425068,-264.293977,0.101972,62.447594
1.9385,-0.002269,0.012136,0.019893,0.00271,-0.012611,-0.023756,0.009279,-0.497916,0.022718,-1.443677,-264.283732,0.168866,62.448924
1.9584,-0.002101,0.011904,0.020997,0.002028,-0.012179,-0.019893,0.0092,-0.49792,0.022529,-1.443677,-264.283732,0.168866,62.448924
1.9785,-0.001738,0.012292,0.021517,0.001851,-0.011946,-0.020997,0.008613,-0.498011,0.020949,-1.47174,-264.283133,0.243832,62.448995
1.9984,-0.002177,0.01199,0.020694,0.001473,-0.012327,-0.021517,0.008971,-0.497772,0.02127,-1.47174,-264.283133,0.243832,62.448995
2.0183,-0.002157,0.011916,0.021913,0.001928,-0.012032,-0.020694,0.008971,-0.497772,0.02127,-1.47174,-264.283133,0.243832,62.448995
2.0383,-0.001884,0.012104,0.020278,0.001896,-0.01196,-0.021913,0.009053,-0.498146,0.021601,-1.487645,-264.280036,0.168605,62.449268
2.059,-0.001969,0.012044,0.02095,0.001638,-0.01214,-0.020278,0.009014,-0.498127,0.021503,-1.487645,-264.280036,0.168605,62.449268
2.0786,-0.00128,0.011756,0.019969,0.001716,-0.012082,-0.02095,0.008769,-0.498106,0.020497,-1.492802,-264.274431,0.243406,62.449869
2.0985,-0.001516,0.011619,0.0215,0.001045,-0.011779,-0.019969,0.008853,-0.49816,0.020137,-1.492802,-264.274431,0.243406,62.449869
2.1185,-0.001399,0.01157,0.020443,0.001266,-0.011649,-0.0215,0.008853,-0.49816,0.020137,-1.492802,-264.274431,0.243406,62.449869
2.1384,-0.000927,0.010784,0.019644,0.001162,-0.011596,-0.020443,0.009103,-0.498807,0.019631,-1.504112,-264.266323,0.168317,62.450442
2.1588,-0.000943,0.011145,0.020043,0.000715,-0.010801,-0.019644,0.009104,-0.498844,0.019608,-1.504112,-264.266323,0.168317,62.450442
2.1784,-0.001021,0.011006,0.019981,0.00072,-0.011162,-0.020043,0.009278,-0.498752,0.020043,-1.519764,-264.26632,0.243384,62.450442
2.1991,-0.00115,0.011235,0.019083,0.000801,-0.011024,-0.019981,0.009216,-0.498832,0.020008,-1.519764,-264.26632,0.243384,62.450442
2.219,-0.001176,0.011384,0.020198,0.000936,-0.011255,-0.019083,0.009216,-0.498832,0.020008,-1.519764,-264.26632,0.243384,62.450442
2.239,-0.000786,0.011341,0.018709,0.000946,-0.011405,-0.020198,0.009124,-0.498512,0.020198,-1.539441,-264.266319,0.318235,62.450442
2.259,-0.000836,0.010878,0.018734,0.000574,-0.011354,-0.018709,0.009096,-0.498517,0.020084,-1.539441,-264.266319,0.318235,62.450442
2.2786,-0.000752,0.011034,0.018996,0.000632,-0.010891,-0.018734,0.00874,-0.499147,0.018525,-1.529969,-264.263814,0.393542,62.450802
2.2988,-0.000485,0.01112,0.019499,0.000543,-0.011046,-0.018996,0.008854,-0.499006,0.018766,-1.529969,-264.263814,0.393542,62.450802
2.3186,-0.00077,0.010525,0.019505,0.000268,-0.011128,-0.019499,0.008854,-0.499006,0.018766,-1.529969,-264.263814,0.393542,62.450802
2.3386,-0.000898,0.011206,0.017622,0.000565,-0.010538,-0.019505,0.009189,-0.499548,0.019221,-1.545598,-264.260984,0.318721,62.450874
2.3584,-0.000647,0.010593,0.018851,0.000701,-0.01122,-0.017622,0.009112,-0.499495,0.019102,-1.545598,-264.260984,0.318721,62.450874
2.3793,-0.00074,0.010914,0.01887,0.000447,-0.010603,-0.018851,0.008967,-0.499317,0.018851,-1.559165,-264.260983,0.393582,62.450874
2.3991,-0.000629,0.010565,0.019465,0.000533,-0.010926,-0.01887,0.008919,-0.499133,0.018862,-1.559165,-264.260983,0.393582,62.450874
2.4191,-0.00075,0.010743,0.019367,0.000423,-0.010575,-0.019465,0.008919,-0.499133,0.018862,-1.559165,-264.260983,0.393582,62.450874
2.4385,-0.000645,0.011268,0.01702,0.000542,-0.010755,-0.019367,0.009127,-0.499162,0.019367,-1.538932,-264.260982,0.318487,62.450874
2.4591,-0.000588,0.011094,0.020262,0.000454,-0.011277,-0.01702,0.009063,-0.499133,0.01923,-1.538932,-264.260982,0.318487,62.450874
2.4789,-0.000783,0.010694,0.018687,0.000363,-0.011104,-0.020262,0.009745,-0.498801,0.020262,-1.551975,-264.260981,0.393408,62.450874
2.4988,-0.000663,0.010976,0.01925,0.000583,-0.010706,-0.018687,0.009181,-0.499036,0.019373,-1.551975,-264.260981,0.393408,62.450874
2.5189,-0.000842,0.010809,0.0188,0.000451,-0.010987,-0.01925,0.009181,-0.499036,0.019373,-1.551975,-264.260981,0.393408,62.450874
2.5387,-0.000869,0.010677,0.019394,0.000639,-0.010823,-0.0188,0.008745,-0.4991,0.0188,-1.54987,-264.26098,0.318413,62.450874
2.5584,-0.000455,0.010731,0.017534,0.000662,-0.010692,-0.019394,0.008765,-0.49911,0.018843,-1.54987,-264.26098,0.318413,62.450874
2.5786,-0.00064,0.010738,0.019212,0.000267,-0.010737,-0.017534,0.008487,-0.499191,0.017533,-1.550959,-264.260979,0.393581,62.450874
2.5984,-0.000608,0.011048,0.01955,0.000434,-0.010748,-0.019212,0.00887,-0.499178,0.018493,-1.550959,-264.260979,0.393581,62.450874
2.6186,-0.000807,0.010823,0.018232,0.000392,-0.011058,-0.01955,0.00887,-0.499178,0.018493,-1.550959,-264.260979,0.393581,62.450874
2.6385,-0.000672,0.010769,0.017406,0.000609,-0.010836,-0.018232,0.008491,-0.499092,0.018232,-1.541434,-264.260972,0.468481,62.450875
2.6589,-0.000823,0.010897,0.019164,0.000484,-0.010779,-0.017406,0.008472,-0.499096,0.018177,-1.541434,-264.260972,0.468481,62.450875
2.6785,-0.000719,0.010894,0.018915,0.000614,-0.01091,-0.019164,0.00895,-0.49901,0.019163,-1.553758,-264.260969,0.543405,62.450875
2.6986,-0.000776,0.010546,0.020017,0.000513,-0.010906,-0.018915,0.008937,-0.499013,0.019023,-1.553758,-264.260969,0.543405,62.450875
2.7184,-0.000744,0.010859,0.01857,0.000565,-0.010559,-0.020017,0.008937,-0.499013,0.019023,-1.553758,-264.260969,0.543405,62.450875
2.7388,-0.000459,0.01073,0.018564,0.000543,-0.010871,-0.01857,0.008726,-0.499053,0.018569,-1.548184,-264.260968,0.468396,62.450875
2.7584,-0.000649,0.010786,0.019643,0.000259,-0.010737,-0.018564,0.008745,-0.499062,0.018569,-1.548184,-264.260968,0.468396,62.450875
2.7787,-0.0008,0.011005,0.01983,0.000438,-0.010797,-0.019643,0.009368,-0.499115,0.019643,-1.546007,-264.260967,0.543386,62.450875
2.7987,-0.000628,0.010867,0.020522,0.000582,-0.011019,-0.01983,0.009336,-0.498988,0.019752,-1.546007,-264.260967,0.543386,62.450875
2.8186,-0.000609,0.010761,0.018547,0.000405,-0.010878,-0.020522,0.009336,-0.498988,0.019752,-1.546007,-264.260967,0.543386,62.450875
2.8385,-0.000841,0.010729,0.019671,0.000409,-0.010771,-0.018547,0.008849,-0.499152,0.018545,-1.559043,-264.260954,0.618723,62.450875
2.8586,-0.00092,0.010622,0.021206,0.00063,-0.010743,-0.019671,0.008873,-0.499153,0.018623,-1.559043,-264.260954,0.618723,62.450875
2.8787,-0.000331,0.010975,0.017556,0.000694,-0.010639,-0.021206,0.009894,-0.499264,0.021206,-1.553519,-264.260952,0.693393,62.450876
2.8986,-0.000646,0.010439,0.018883,0.000138,-0.010979,-0.017556,0.009168,-0.499083,0.019122,-1.553519,-264.260952,0.693393,62.450876
2.9186,-0.00043,0.010893,0.0168,0.000449,-0.010449,-0.018883,0.009168,-0.499083,0.019122,-1.553519,-264.260952,0.693393,62.450876
2.9388,-0.000959,0.010878,0.019064,0.000247,-0.010898,-0.0168,0.00814,-0.499065,0.016746,-1.543117,-264.260437,0.768516,62.450908
2.959,-0.000415,0.010697,0.018533,0.000751,-0.010894,-0.019064,0.008183,-0.499064,0.016904,-1.543117,-264.260437,0.768516,62.450908
2.9784,-0.000967,0.010859,0.01837,0.000216,-0.010703,-0.018533,0.009039,-0.499241,0.018488,-1.550382,-264.259882,0.8434,62.450937
2.9983,-0.00093,0.010952,0.019803,0.000767,-0.010875,-0.01837,0.008674,-0.499138,0.018415,-1.550382,-264.259882,0.8434,62.450937
3.019,-0.000349,0.011095,0.017863,0.000713,-0.010969,-0.019803,0.008674,-0.499138,0.018415,-1.550382,-264.259882,0.8434,62.450937
3.0385,-0.00014,0.010597,0.018725,0.000151,-0.011099,-0.017863,0.008787,-0.498992,0.017531,-1.537468,-264.256813,0.784286,62.451339
3.0588,-0.000418,0.011078,0.016631,-5.8e-05,-0.010598,-0.018725,0.008839,-0.499024,0.017619,-1.537468,-264.256813,0.784286,62.451339
3.0787,-0.000317,0.010193,0.017549,0.000234,-0.011083,-0.016631,0.00808,-0.499043,0.016289,-1.539881,-264.252664,0.859584,62.451579
3.0988,-0.000222,0.010619,0.019443,0.000138,-0.010197,-0.017549,0.008396,-0.499456,0.01696,-1.539881,-264.252664,0.859584,62.451579
3.1187,-0.000137,0.010456,0.018947,1.6e-05,-0.010621,-0.019443,0.008396,-0.499456,0.01696,-1.539881,-264.252664,0.859584,62.451579
3.1385,-0.000163,0.010569,0.019385,-6.1e-05,-0.010457,-0.018947,0.009526,-0.499453,0.018947,-1.573433,-264.252663,0.934167,62.451579
3.1593,7.6e-05,0.010597,0.019944,-4.2e-05,-0.01057,-0.019385,0.009539,-0.499445,0.018977,-1.573433,-264.252663,0.934167,62.451579
3.1787,-0.000269,0.010613,0.018227,-0.000287,-0.010593,-0.019944,0.010247,-0.499302,0.019943,-1.5701,-264.252651,1.009293,62.45158
3.1984,0.000186,0.010022,0.019428,7.5e-05,-0.010616,-0.018227,0.009557,-0.499302,0.018973,-1.5701,-264.252651,1.009293,62.45158
3.2186,-4.2e-05,0.010468,0.018106,-0.000381,-0.010017,-0.019428,0.009557,-0.499302,0.018973,-1.5701,-264.252651,1.009293,62.45158
3.2387,-1.8e-05,0.0102,0.018819,-0.000148,-0.010467,-0.018106,0.009192,-0.49945,0.018104,-1.57267,-264.252628,1.084323,62.451581
3.2591,-0.00025,0.01032,0.016417,-0.000173,-0.010198,-0.018819,0.00922,-0.499469,0.018155,-1.57267,-264.252628,1.084323,62.451581
3.2787,-6e-06,0.010197,0.017928,8.1e-05,-0.010322,-0.016417,0.008122,-0.499612,0.016417,-1.588203,-264.252627,1.009324,62.451581
3.2989,-0.000418,0.010228,0.018776,-0.000177,-0.010196,-0.017928,0.008699,-0.499674,0.017275,-1.588203,-264.252627,1.009324,62.451581
3.3185,6e-06,0.010668,0.017966,0.000226,-0.010234,-0.018776,0.008699,-0.499674,0.017275,-1.588203,-264.252627,1.009324,62.451581
3.3385,-0.000271,0.01047,0.018274,-0.000197,-0.010666,-0.017966,0.009168,-0.49925,0.017966,-1.578792,-264.252624,1.084174,62.451581
3.3586,-0.000102,0.010218,0.016961,8e-05,-0.010473,-0.018274,0.009159,-0.499264,0.017987,-1.578792,-264.252624,1.084174,62.451581
3.3783,-0.000451,0.010379,0.017701,-7.1e-05,-0.010218,-0.016961,0.008552,-0.499795,0.016804,-1.560391,-264.250728,1.159163,62.451691
3.3985,0.000155,0.010092,0.017121,0.000267,-0.010386,-0.017701,0.008566,-0.49966,0.017299,-1.560391,-264.250728,1.159163,62.451691
3.4184,-2.5e-05,0.010389,0.017121,-0.000328,-0.010088,-0.017121,0.008566,-0.49966,0.017299,-1.560391,-264.250728,1.159163,62.451691
3.4388,-4.5e-05,0.010264,0.015668,-0.000153,-0.010388,-0.017121,0.00871,-0.499659,0.016908,-1.567114,-264.248653,1.234318,62.451757
3.4592,0.000336,0.010458,0.019005,-0.000116,-0.010263,-0.015668,0.008655,-0.499663,0.016813,-1.567114,-264.248653,1.234318,62.451757
3.4789,-5.1e-05,0.010196,0.018346,-0.000535,-0.010449,-0.019005,0.010028,-0.49945,0.019005,-1.586769,-264.248653,1.159414,62.451757
3.4991,9.7e-05,0.010031,0.016984,-0.000136,-0.010195,-0.018346,0.00962,-0.499601,0.018634,-1.586769,-264.248653,1.159414,62.451757
3.5188,1.6e-05,0.010303,0.019364,-0.000267,-0.010028,-0.016984,0.00962,-0.499601,0.018634,-1.586769,-264.248653,1.159414,62.451757
3.5385,0.000396,0.009659,0.016617,-0.000215,-0.0103,-0.019364,0.009891,-0.49976,0.019124,-1.57663,-264.24614,1.234383,62.451651
3.5588,0.000197,0.00982,0.016576,-0.000215,-0.0103,-0.019364,0.009813,-0.499804,0.018927,-1.57663,-264.24614,1.234383,62.451651
3.5787,0.000148,0.009552,0.016887,-4e-06,-0.0001,0.0,0.00865,-0.50011,0.016576,-1.583901,-264.24614,1.159024,62.451651
3.5985,0.000292,0.009803,0.017648,-4e-06,-0.0001,0.0,0.008713,-0.500262,0.016754,-1.583901,-264.24614,1.159024,62.451651
3.6184,0.000201,0.0099,0.017463,-4e-06,-0.0001,0.0,0.008713,-0.500262,0.016754,-1.583901,-264.24614,1.159024,62.451651
3.6386,0.00048,0.009903,0.016606,-4e-06,-0.0001,0.0,0.009107,-0.500025,0.017457,-1.580527,-264.246087,1.233749,62.451655
3.6591,0.000178,0.009859,0.017512,-4e-06,-0.0001,0.0,0.009094,-0.500025,0.017389,-1.580527,-264.246087,1.233749,62.451655
3.6788,0.000112,0.010168,0.017598,-4e-06,-0.0001,0.0,0.009108,-0.500063,0.017512,-1.607409,-264.246078,1.309031,62.451646
3.6989,-5.9e-05,0.010064,0.01875,-4e-06,-0.0001,0.0,0.009096,-0.499888,0.017561,-1.607409,-264.246078,1.309031,62.451646
3.7187,1.1e-05,0.010365,0.017444,-4e-06,-0.0001,0.0,0.009096,-0.499888,0.017561,-1.607409,-264.246078,1.309031,62.451646
3.739,0.000308,0.009843,0.016485,-4e-06,-0.0001,0.0,0.008907,-0.499559,0.017444,-1.607409,-264.24606,1.383656,62.451628
3.759,-7e-05,0.010239,0.018158,-4e-06,-0.0001,0.0,0.008894,-0.499594,0.017381,-1.607409,-264.24606,1.383656,62.451628
3.7785,0.000755,0.009787,0.017376,-4e-06,-0.0001,0.0,0.00919,-0.49968,0.018158,-1.607409,-264.246032,1.458647,62.4516
3.7989,0.000481,0.010078,0.017539,-5.2e-05,-0.001425,-0.002406,0.009432,-0.499939,0.017715,-1.607409,-264.246032,1.458647,62.4516
3.8184,0.000276,0.009947,0.017838,-0.000102,-0.002783,-0.0047,0.009432,-0.499939,0.017715,-1.607409,-264.246032,1.458647,62.4516
3.8387,0.000426,0.009908,0.01792,-0.000149,-0.004076,-0.006883,0.009372,-0.499976,0.017838,-1.607409,-264.245996,1.533652,62.451564
3.8587,0.000542,0.009881,0.016416,-0.000194,-0.005291,-0.008936,0.009385,-0.499978,0.017843,-1.607409,-264.245996,1.533652,62.451564
3.8784,-0.000146,0.009999,0.017652,-0.000236,-0.006438,-0.010872,0.008913,-0.50005,0.016416,-1.588826,-264.245996,1.458654,62.451564
3.8987,0.000448,0.009999,0.018357,-0.000275,-0.0075,-0.012665,0.00888,-0.499975,0.017134,-1.588826,-264.245996,1.458654,62.451564
3.9184,0.000366,0.009872,0.016943,-0.000311,-0.008495,-0.014345,0.00888,-0.499975,0.017134,-1.588826,-264.245996,1.458654,62.451564
3.939,0.000358,0.009876,0.017488,-0.000345,-0.009417,-0.015902,0.009007,-0.500055,0.016943,-1.588826,-264.245995,1.383301,62.451564
3.9589,-6.7e-05,0.010127,0.017259,-0.000376,-0.010264,-0.017334,0.009025,-0.500055,0.01698,-1.588826,-264.245995,1.383301,62.451564
3.9791,0.000311,0.010212,0.018016,-0.000404,-0.011038,-0.01864,0.008735,-0.499797,0.017259,-1.588826,-264.245995,1.308654,62.451564
3.9994,-3.5e-05,0.010309,0.015607,-0.00043,-0.011743,-0.01983,0.009164,-0.499745,0.017684,-1.588826,-264.245995,1.308654,62.451564
4.0187,0.000229,0.009629,0.016731,-0.000453,-0.012363,-0.020878,0.009164,-0.499745,0.017684,-1.588826,-264.245995,1.308654,62.451564
4.0389,0.000199,0.009717,0.016948,-0.000473,-0.012918,-0.021816,0.008761,-0.5003,0.01673,-1.588826,-264.245994,1.23365,62.451564
4.0593,0.000178,0.010125,0.018682,-0.000491,-0.013397,-0.022624,0.008767,-0.500294,0.016745,-1.588826,-264.245994,1.23365,62.451564
4.0787,0.000183,0.009507,0.016883,-0.000506,-0.013808,-0.023318,0.009705,-0.499786,0.018682,-1.588826,-264.245993,1.15865,62.451563
4.0989,0.000158,0.009665,0.01649,-0.000518,-0.014132,-0.023866,0.009195,-0.500141,0.017676,-1.588826,-264.245993,1.15865,62.451563
4.1189,6.2e-05,0.009749,0.017336,-0.000527,-0.01439,-0.024302,0.009195,-0.500141,0.017676,-1.588826,-264.245993,1.15865,62.451563
4.1387,-0.000206,0.009989,0.016299,-0.000534,-0.014575,-0.024614,0.008904,-0.500174,0.017336,-1.588826,-264.245992,1.083656,62.451563
4.159,0.000173,0.009889,0.016986,-0.000538,-0.014687,-0.024802,0.008855,-0.50016,0.017272,-1.588826,-264.245992,1.083656,62.451563
4.1786,0.000378,0.010022,0.017718,-0.000539,-0.014724,-0.024865,0.008835,-0.500037,0.016986,-1.588826,-264.245991,1.00862,62.451563
4.1987,-0.000179,0.009889,0.018605,-0.000538,-0.014688,-0.024804,0.009169,-0.499957,0.017409,-1.588826,-264.245991,1.00862,62.451563
4.2191,0.000102,0.009764,0.018306,-0.000534,-0.014578,-0.024618,0.009169,-0.499957,0.017409,-1.588826,-264.245991,1.00862,62.451563
4.2391,0.000381,0.009986,0.017833,-0.000527,-0.014394,-0.024308,0.009437,-0.500151,0.018306,-1.588826,-264.245989,0.933327,62.451563
4.2585,1.1e-05,0.010254,0.017346,-0.000518,-0.014136,-0.023873,0.009439,-0.500139,0.01828,-1.588826,-264.245989,0.933327,62.451563
4.279,0.000167,0.00971,0.017803,-0.000506,-0.013806,-0.023315,0.008857,-0.499669,0.017346,-1.588826,-264.245988,0.858653,62.451563
4.2991,0.000201,0.010152,0.017636,-0.000491,-0.013402,-0.022633,0.009077,-0.499974,0.017604,-1.588826,-264.245988,0.858653,62.451563
4.3189,0.000208,0.01021,0.018095,-0.000473,-0.012925,-0.021827,0.009077,-0.499974,0.017604,-1.588826,-264.245988,0.858653,62.451563
4.339,0.000398,0.009805,0.015665,-0.000453,-0.012367,-0.020884,0.009436,-0.499707,0.018095,-1.588826,-264.245987,0.783651,62.451563
4.359,0.000131,0.009953,0.016353,-0.00043,-0.011749,-0.019841,0.00936,-0.499738,0.017918,-1.588826,-264.245987,0.783651,62.451563
4.3784,7e-05,0.01006,0.01819,-0.000405,-0.011048,-0.018658,0.00847,-0.499979,0.016353,-1.588826,-264.245986,0.708314,62.451563
4.3985,0.000337,0.009807,0.01733,-0.000376,-0.010277,-0.017355,0.008965,-0.499909,0.01739,-1.588826,-264.245986,0.708314,62.451563
4.4186,0.000409,0.009781,0.017119,-0.000345,-0.009428,-0.015921,0.008965,-0.499909,0.01739,-1.588826,-264.245986,0.708314,62.451563
4.4387,-5.4e-05,0.01007,0.015606,-0.000312,-0.008511,-0.014374,0.009139,-0.500144,0.017119,-1.588826,-264.245985,0.633651,62.451563
4.4585,0.00017,0.009839,0.017597,-0.000275,-0.007518,-0.012696,0.009055,-0.500125,0.017016,-1.588826,-264.245985,0.633651,62.451563
4.4785,0.000378,0.009795,0.01727,-0.000236,-0.00645,-0.010892,0.009144,-0.500082,0.017597,-1.588826,-264.245984,0.55865,62.451563
4.4987,0.000127,0.009579,0.016893,-0.000194,-0.00531,-0.008967,0.009168,-0.500109,0.017411,-1.588826,-264.245984,0.55865,62.451563
4.5185,0.000222,0.009561,0.01828,-0.00015,-0.004097,-0.006918,0.009168,-0.500109,0.017411,-1.588826,-264.245984,0.55865,62.451563
4.5391,5.6e-05,0.00984,0.017632,-0.000103,-0.002808,-0.004742,0.009545,-0.500354,0.01828,-1.588826,-264.245984,0.483653,62.451563
4.5589,0.000265,0.009992,0.016761,-5.3e-05,-0.001448,-0.002445,0.009512,-0.500336,0.018237,-1.588826,-264.245984,0.483653,62.451563
4.5785,-0.000238,0.010029,0.017408,-0.0,-1e-05,-1.7e-05,0.008813,-0.499937,0.016761,-1.588826,-264.245983,0.408653,62.451563
4.599,0.000131,0.00976,0.018652,0.0,0.0,0.0,0.008712,-0.499912,0.017137,-1.588826,-264.245983,0.408653,62.451563
4.6191,0.000382,0.009821,0.015699,0.0,0.0,0.0,0.008712,-0.499912,0.017137,-1.588826,-264.245983,0.408653,62.451563
4.6388,0.000253,0.010434,0.016419,0.0,0.0,0.0,0.008388,-0.500116,0.015699,-1.588826,-264.245983,0.333278,62.451563
4.659,0.000166,0.009781,0.01833,0.0,0.0,0.0,0.008404,-0.500075,0.015746,-1.588826,-264.245983,0.333278,62.451563
4.6784,0.000358,0.009938,0.018238,0.0,0.0,0.0,0.009514,-0.500133,0.01833,-1.588826,-264.245983,0.333278,62.451563
4.6986,0.000141,0.010291,0.017303,0.0,0.0,0.0,0.009596,-0.500045,0.018278,-1.588826,-264.245983,0.333278,62.451563
4.7184,0.000297,0.010195,0.016223,0.0,0.0,0.0,0.009596,-0.500045,0.018278,-1.588826,-264.245983,0.333278,62.451563
4.7388,0.000107,0.009693,0.016626,0.0,0.0,0.0,0.00857,-0.499738,0.016223,-1.588826,-264.245983,0.333278,62.451563
4.759,0.000291,0.009811,0.017885,0.0,0.0,0.0,0.008572,-0.49978,0.016257,-1.588826,-264.245983,0.333278,62.451563
4.7789,0.00013,0.010254,0.015531,0.0,0.0,0.0,0.009412,-0.500107,0.017885,-1.588826,-264.245983,0.333278,62.451563
4.7989,0.00047,0.010085,0.016346,0.0,0.0,0.0,0.008635,-0.499866,0.016542,-1.588826,-264.245983,0.333278,62.451563
4.8193,0.000311,0.010187,0.016893,-6e-06,-0.0001,0.0,0.008635,-0.499866,0.016542,-1.588826,-264.245983,0.333278,62.451563
4.8385,0.000486,0.010159,0.017323,-6e-06,-0.0001,0.0,0.008925,-0.499741,0.016893,-1.588826,-264.245983,0.333278,62.451563
4.8585,5.8e-05,0.009694,0.018293,-6e-06,-0.0001,0.0,0.008952,-0.499742,0.016922,-1.588826,-264.245983,0.333278,62.451563
4.8786,0.000255,0.009476,0.019042,-6e-06,-0.0001,0.0,0.009387,-0.500221,0.018293,-1.633684,-264.245983,0.408182,62.451563
4.8989,7.9e-05,0.010027,0.016027,-6e-06,-0.0001,0.0,0.009712,-0.50034,0.018714,-1.633684,-264.245983,0.408182,62.451563
4.9191,0.00011,0.009799,0.017932,-6e-06,-0.0001,0.0,0.009712,-0.50034,0.018714,-1.633684,-264.245983,0.408182,62.451563
4.9389,0.000272,0.009818,0.01673,-6e-06,-0.0001,0.0,0.009255,-0.500119,0.017932,-1.633684,-264.245983,0.48319,62.451563
4.9589,-0.00017,0.010022,0.01754,-6e-06,-0.0001,0.0,0.00923,-0.500119,0.017867,-1.633684,-264.245983,0.48319,62.451563
4.9788,0.000107,0.009726,0.017729,-6e-06,-0.0001,0.0,0.008775,-0.499899,0.01754,-1.633684,-264.245983,0.558188,62.451563
4.999,0.000385,0.009755,0.017326,-6e-06,-0.0001,0.0,0.008988,-0.500067,0.017648,-1.633684,-264.245983,0.558188,62.451563
5.0192,0.000234,0.010367,0.017778,-0.0,-2e-06,-3e-06,0.008988,-0.500067,0.017648,-1.633684,-264.245983,0.558188,62.451563
5.0384,0.000412,0.00988,0.018441,-9.3e-05,-0.001476,-0.002395,0.0093,-0.499553,0.017778,-1.633684,-264.245983,0.633234,62.451563
5.0589,0.000222,0.010036,0.016027,-0.000181,-0.002873,-0.004661,0.009335,-0.499585,0.017823,-1.633684,-264.245983,0.633234,62.451563
5.079,0.000367,0.009615,0.01849,-0.000265,-0.004202,-0.006816,0.008395,-0.499899,0.016027,-1.602417,-264.245983,0.558279,62.451563
5.0986,0.000172,0.010177,0.016387,-0.000344,-0.005468,-0.00887,0.00919,-0.500125,0.017424,-1.602417,-264.245983,0.558279,62.451563
5.1184,0.000492,0.010193,0.017149,-0.000416,-0.006612,-0.010727,0.00919,-0.500125,0.017424,-1.602417,-264.245983,0.558279,62.451563
5.1387,0.000331,0.00989,0.017559,-0.000486,-0.007713,-0.012512,0.009237,-0.49974,0.017135,-1.602417,-264.245845,0.483278,62.451559
5.1589,0.000166,0.009913,0.01641,-0.00055,-0.00873,-0.014163,0.009241,-0.49976,0.017163,-1.602417,-264.245845,0.483278,62.451559
5.179,0.000237,0.009659,0.015711,-0.000609,-0.009675,-0.015696,0.008533,-0.500058,0.016346,-1.602417,-264.245027,0.408283,62.451533
5.1988,1.7e-05,0.009914,0.016921,-0.000664,-0.010541,-0.017101,0.008372,-0.500188,0.015978,-1.602417,-264.245027,0.408283,62.451533
5.2185,0.000226,0.01016,0.015666,-0.000714,-0.011335,-0.018388,0.008372,-0.500188,0.015978,-1.602417,-264.245027,0.408283,62.451533
5.2389,0.000317,0.0096,0.016456,-0.000759,-0.012054,-0.019554,0.008209,-0.499917,0.015443,-1.602417,-264.242756,0.33329,62.45146
5.2586,0.000643,0.009878,0.017481,-0.0008,-0.012699,-0.0206,0.008244,-0.499949,0.015507,-1.602417,-264.242756,0.33329,62.45146
5.2791,0.000395,0.009296,0.017082,-0.000836,-0.013273,-0.021532,0.009547,-0.500277,0.017106,-1.602417,-264.237984,0.258297,62.451297
5.2988,0.000958,0.009059,0.016904,-0.000866,-0.013756,-0.022316,0.009296,-0.500506,0.017045,-1.602417,-264.237984,0.258297,62.451297
5.3185,0.000616,0.009356,0.015732,-0.000892,-0.014169,-0.022986,0.009296,-0.500506,0.017045,-1.602417,-264.237984,0.258297,62.451297
5.3388,0.001014,0.008766,0.016347,-0.000914,-0.014511,-0.023541,0.008616,-0.501027,0.015012,-1.602417,-264.230712,0.183288,62.451033
5.3584,0.000874,0.009027,0.015704,-0.00093,-0.014775,-0.023968,0.008663,-0.501047,0.015081,-1.602417,-264.230712,0.183288,62.451033
5.3783,0.001497,0.008498,0.015073,-0.000942,-0.014963,-0.024274,0.008858,-0.501385,0.014936,-1.602417,-264.220929,0.145404,62.45068
5.3988,0.001313,0.008523,0.014323,-0.000949,-0.015077,-0.024458,0.009042,-0.501479,0.014917,-1.602417,-264.220929,0.145404,62.45068
5.4193,0.001292,0.008334,0.015983,-0.000952,-0.015115,-0.024519,0.009042,-0.501479,0.014917,-1.602417,-264.220929,0.145404,62.45068
5.4388,0.00204,0.007698,0.013232,-0.000949,-0.015077,-0.024458,0.009409,-0.502319,0.014818,-1.602417,-264.209172,0.145404,62.450305
5.4584,0.002232,0.00728,0.014644,-0.000942,-0.014964,-0.024274,0.009366,-0.502334,0.01468,-1.602417,-264.209172,0.145404,62.450305
5.4784,0.002618,0.006939,0.012323,-0.00093,-0.014775,-0.023968,0.009671,-0.50325,0.013697,-1.602417,-264.19713,0.145404,62.44992
5.4988,0.00322,0.007325,0.013938,-0.000914,-0.01451,-0.023539,0.009231,-0.503195,0.012796,-1.602417,-264.19713,0.145404,62.44992
5.5187,0.002845,0.00698,0.012609,-0.000892,-0.014169,-0.022986,0.009231,-0.503195,0.012796,-1.602417,-264.19713,0.145404,62.44992
5.5386,0.003288,0.006072,0.01021,-0.000866,-0.013755,-0.022313,0.009238,-0.503707,0.011429,-1.602417,-264.185158,0.145404,62.449537
5.5589,0.003282,0.006023,0.010876,-0.000835,-0.013263,-0.021516,0.009177,-0.503745,0.011295,-1.602417,-264.185158,0.145404,62.449537
5.5784,0.003535,0.005869,0.010163,-0.000799,-0.012692,-0.02059,0.008801,-0.504491,0.009994,-1.602417,-264.173879,0.145404,62.449177
5.5984,0.003627,0.005571,0.009057,-0.000759,-0.012052,-0.019551,0.00875,-0.504337,0.009979,-1.602417,-264.173879,0.145404,62.449177
5.6191,0.004002,0.005682,0.010285,-0.000714,-0.011337,-0.018391,0.00875,-0.504337,0.009979,-1.602417,-264.173879,0.145404,62.449177
5.6387,0.004329,0.00468,0.010639,-0.000664,-0.010543,-0.017103,0.009213,-0.504935,0.009241,-1.602417,-264.163348,0.145404,62.44884
5.6589,0.00418,0.004579,0.010262,-0.000609,-0.009674,-0.015694,0.009248,-0.504975,0.009306,-1.602417,-264.163348,0.145404,62.44884
5.6786,0.004757,0.00439,0.007282,-0.00055,-0.008729,-0.014161,0.00939,-0.505832,0.009551,-1.602417,-264.154302,0.145404,62.448551
5.6986,0.004746,0.004254,0.00749,-0.000485,-0.00771,-0.012507,0.00886,-0.505752,0.008159,-1.602417,-264.154302,0.145404,62.448551
5.719,0.004619,0.004524,0.00826,-0.000416,-0.006605,-0.010715,0.00886,-0.505752,0.008159,-1.602417,-264.154302,0.145404,62.448551
5.739,0.004774,0.003841,0.00668,-0.000342,-0.005436,-0.008818,0.008805,-0.505929,0.007497,-1.602417,-264.146605,0.145404,62.448305
5.7592,0.005285,0.003706,0.007652,-0.000263,-0.004179,-0.006779,0.008764,-0.505955,0.007425,-1.602417,-264.146605,0.145404,62.448305
5.7789,0.005253,0.003337,0.008112,-0.00018,-0.002864,-0.004646,0.009173,-0.506535,0.007236,-1.602417,-264.141341,0.145404,62.448137
5.799,0.005347,0.00347,0.007286,-9.2e-05,-0.001464,-0.002375,0.009293,-0.50663,0.007675,-1.602417,-264.141341,0.145404,62.448137
5.8192,0.005288,0.003466,0.006982,0.0,0.0,0.0,0.009293,-0.50663,0.007675,-1.602417,-264.141341,0.145404,62.448137
5.8387,0.00555,0.003177,0.00685,0.0,0.0,0.0,0.008837,-0.506726,0.00665,-1.602417,-264.138013,0.145404,62.448031
5.8586,0.005306,0.003191,0.005969,0.0,0.0,0.0,0.008848,-0.506735,0.006654,-1.602417,-264.138013,0.145404,62.448031
5.879,0.005629,0.003315,0.006658,0.0,0.0,0.0,0.00835,-0.506799,0.005969,-1.602417,-264.138013,0.145404,62.448031
5.8991,0.005483,0.003394,0.007412,0.0,0.0,0.0,0.008737,-0.506728,0.006364,-1.602417,-264.138013,0.145404,62.448031
5.9184,0.005681,0.003453,0.005269,0.0,0.0,0.0,0.008737,-0.506728,0.006364,-1.602417,-264.138013,0.145404,62.448031
5.9385,0.005536,0.003125,0.006716,0.0,0.0,0.0,0.008368,-0.506539,0.005269,-1.602417,-264.138013,0.145404,62.448031
5.9584,0.005262,0.003291,0.007593,0.0,0.0,0.0,0.008408,-0.506561,0.005365,-1.602417,-264.138013,0.145404,62.448031
5.9783,0.005375,0.003084,0.006116,0.0,0.0,0.0,0.009134,-0.506694,0.007593,-1.602417,-264.138013,0.145404,62.448031
5.9984,0.005765,0.003195,0.005506,0.0,0.0,0.0,0.00877,-0.506815,0.006754,-1.602417,-264.138013,0.145404,62.448031
6.0189,0.005194,0.003237,0.0051,0.0,0.0,0.0,0.00877,-0.506815,0.006754,-1.602417,-264.138013,0.145404,62.448031
6.0386,0.005703,0.003114,0.00672,-8.5e-05,-5.2e-05,0.0,0.007795,-0.506756,0.0051,-1.602417,-264.138013,0.145404,62.448031
6.0593,0.005496,0.003246,0.006359,-8.5e-05,-5.2e-05,0.0,0.007888,-0.506764,0.005212,-1.602417,-264.138013,0.145404,62.448031
6.0788,0.005438,0.003305,0.006354,-8.5e-05,-5.2e-05,0.0,0.008739,-0.506744,0.006359,-1.602417,-264.138013,0.145404,62.448031
6.0987,0.004985,0.002848,0.005535,-8.5e-05,-5.2e-05,0.0,0.008704,-0.506709,0.006356,-1.602417,-264.138013,0.145404,62.448031
6.1187,0.005402,0.003197,0.006438,-8.5e-05,-5.2e-05,0.0,0.008704,-0.506709,0.006356,-1.602417,-264.138013,0.145404,62.448031
6.1387,0.005158,0.003282,0.005006,-8.5e-05,-5.2e-05,0.0,0.008685,-0.506793,0.006438,-1.526744,-264.138013,0.221076,62.448031
6.1588,0.005554,0.00321,0.0071,-8.5e-05,-5.2e-05,0.0,0.008619,-0.506787,0.00634,-1.526744,-264.138013,0.221076,62.448031
6.1788,0.005389,0.003493,0.006682,-8.5e-05,-5.2e-05,0.0,0.009174,-0.506777,0.0071,-1.45245,-264.138013,0.29537,62.448031
6.1986,0.005462,0.002875,0.006786,-8.5e-05,-5.2e-05,0.0,0.008959,-0.506616,0.006861,-1.45245,-264.138013,0.29537,62.448031
6.2186,0.005707,0.003299,0.006628,-8.5e-05,-5.2e-05,0.0,0.008959,-0.506616,0.006861,-1.45245,-264.138013,0.29537,62.448031
6.2386,0.005324,0.003313,0.00803,-8.5e-05,-5.2e-05,0.0,0.009087,-0.50669,0.006628,-1.377354,-264.138013,0.370466,62.448031
6.2584,0.005667,0.003264,0.005417,-0.000751,-0.000463,-0.000735,0.00911,-0.506688,0.006726,-1.377354,-264.138013,0.370466,62.448031
6.2796,0.005695,0.00328,0.006906,-0.0015,-0.000924,-0.001468,0.00843,-0.506729,0.005417,-1.302449,-264.138013,0.445372,62.448031
6.2987,0.005399,0.003529,0.004917,-0.002161,-0.001331,-0.002114,0.008888,-0.506717,0.006284,-1.302449,-264.138013,0.445372,62.448031
6.3186,0.00532,0.003161,0.004984,-0.002805,-0.001728,-0.002745,0.008888,-0.506717,0.006284,-1.302449,-264.138013,0.445372,62.448031
6.3384,0.005611,0.003262,0.007714,-0.003411,-0.002102,-0.003338,0.007861,-0.506832,0.004984,-1.226996,-264.138013,0.369919,62.448031
6.359,0.005317,0.002654,0.005425,-0.003979,-0.002452,-0.003894,0.007971,-0.506825,0.005162,-1.226996,-264.138013,0.369919,62.448031
6.3787,0.005869,0.002984,0.006592,-0.004514,-0.002782,-0.004418,0.008083,-0.507339,0.005425,-1.152431,-264.138013,0.295354,62.448031
6.3985,0.005423,0.003094,0.005871,-0.004995,-0.003078,-0.004889,0.008737,-0.507149,0.00609,-1.152431,-264.138013,0.295354,62.448031
6.4187,0.005341,0.003003,0.006217,-0.005446,-0.003355,-0.005329,0.008737,-0.507149,0.00609,-1.152431,-264.138013,0.295354,62.448031
6.4384,0.005476,0.003156,0.005286,-0.005858,-0.003609,-0.005732,0.008512,-0.506987,0.006217,-1.07744,-264.138013,0.220363,62.448031
6.4586,0.005208,0.003174,0.006972,-0.00623,-0.003838,-0.006096,0.008489,-0.506977,0.006154,-1.07744,-264.138013,0.220363,62.448031
6.4783,0.005637,0.002909,0.007328,-0.006562,-0.004043,-0.006422,0.008764,-0.506813,0.006972,-1.002446,-264.138013,0.145368,62.448031
6.4992,0.005219,0.003379,0.005375,-0.006855,-0.004224,-0.006708,0.009114,-0.506965,0.007176,-1.002446,-264.138013,0.145368,62.448031
6.5186,0.005482,0.002956,0.006364,-0.00711,-0.004381,-0.006958,0.009114,-0.506965,0.007176,-1.002446,-264.138013,0.145368,62.448031
6.5388,0.005448,0.003291,0.005183,-0.007325,-0.004513,-0.007169,0.008728,-0.507034,0.006364,-0.927279,-264.138014,0.070202,62.448031
6.5589,0.005426,0.003519,0.004705,-0.007502,-0.004623,-0.007342,0.008684,-0.507011,0.006283,-0.927279,-264.138014,0.070202,62.448031
6.5784,0.005338,0.003349,0.007587,-0.007639,-0.004707,-0.007476,0.007826,-0.506476,0.004705,-0.852442,-264.138014,0.018452,62.44803
6.5984,0.005393,0.003354,0.005648,-0.007737,-0.004767,-0.007572,0.008614,-0.506567,0.006349,-0.852442,-264.138014,0.018452,62.44803
6.6187,0.00574,0.003183,0.006397,-0.007796,-0.004804,-0.00763,0.008614,-0.506567,0.006349,-0.852442,-264.138014,0.018452,62.44803
6.6384,0.005448,0.002959,0.005746,-0.007816,-0.004816,-0.007649,0.009002,-0.506807,0.006397,-0.777384,-264.138014,0.018452,62.44803
6.6593,0.005426,0.003294,0.007426,-0.007797,-0.004804,-0.007631,0.008969,-0.506819,0.006363,-0.777384,-264.138014,0.018452,62.44803
6.6787,0.005715,0.003258,0.005489,-0.007739,-0.004769,-0.007574,0.009213,-0.506691,0.007426,-0.702429,-264.138015,0.018452,62.44803
6.6987,0.005286,0.003773,0.005115,-0.007642,-0.004709,-0.007479,0.008816,-0.506716,0.006326,-0.702429,-264.138015,0.018452,62.44803
6.7185,0.005481,0.003214,0.006544,-0.007506,-0.004625,-0.007346,0.008816,-0.506716,0.006326,-0.702429,-264.138015,0.018452,62.44803
6.7386,0.005171,0.00325,0.006581,-0.00733,-0.004516,-0.007173,0.008819,-0.506775,0.006544,-0.627352,-264.138015,0.018452,62.448029
6.7587,0.00561,0.003091,0.00598,-0.007116,-0.004385,-0.006964,0.008797,-0.506772,0.006547,-0.627352,-264.138015,0.018452,62.448029
6.7784,0.005747,0.003181,0.00457,-0.006863,-0.004229,-0.006716,0.008659,-0.5069,0.00598,-0.552182,-264.138016,0.018452,62.448029
6.7985,0.005651,0.003594,0.00713,-0.00657,-0.004048,-0.00643,0.008324,-0.50685,0.005168,-0.552182,-264.138016,0.018452,62.448029
6.8185,0.005535,0.003184,0.004972,-0.006238,-0.003843,-0.006104,0.008324,-0.50685,0.005168,-0.552182,-264.138016,0.018452,62.448029
6.8384,0.005277,0.003055,0.007083,-0.005866,-0.003614,-0.00574,0.008071,-0.50681,0.004972,-0.477228,-264.138016,0.018452,62.448029
6.8593,0.00552,0.003086,0.004982,-0.005458,-0.003363,-0.005342,0.008132,-0.506819,0.00513,-0.477228,-264.138016,0.018452,62.448029
6.8786,0.005683,0.003429,0.007517,-0.005009,-0.003086,-0.004902,0.008061,-0.506907,0.004982,-0.402011,-264.138017,0.018452,62.448028
6.8987,0.005376,0.003158,0.006702,-0.004522,-0.002786,-0.004425,0.00889,-0.506708,0.006425,-0.402011,-264.138017,0.018452,62.448028
6.9188,0.00532,0.003173,0.006497,-0.003994,-0.002461,-0.003909,0.00889,-0.506708,0.006425,-0.402011,-264.138017,0.018452,62.448028
6.939,0.005564,0.003197,0.00668,-0.003428,-0.002112,-0.003355,0.008634,-0.506817,0.006497,-0.3273,-264.138017,0.018452,62.448028
6.959,0.005515,0.003367,0.007833,-0.002823,-0.001739,-0.002762,0.008662,-0.506815,0.006512,-0.3273,-264.138017,0.018452,62.448028
6.9786,0.005412,0.00334,0.005111,-0.002179,-0.001343,-0.002132,0.00951,-0.506618,0.007833,-0.252046,-264.138017,0.018452,62.448028
6.9985,0.005136,0.003359,0.004955,-0.001497,-0.000922,-0.001465,0.008654,-0.506638,0.006271,-0.252046,-264.138017,0.018452,62.448028
7.0185,0.005828,0.003568,0.005185,-0.000773,-0.000477,-0.000757,0.008654,-0.506638,0.006271,-0.252046,-264.138017,0.018452,62.448028
7.0392,0.0054,0.003243,0.00714,-1.2e-05,-7e-06,-1.2e-05,0.008472,-0.506425,0.005185,-0.177308,-264.138018,0.018452,62.448028
7.0587,0.005732,0.003214,0.005528,0.0,0.0,0.0,0.008513,-0.506448,0.005326,-0.177308,-264.138018,0.018452,62.448028
7.0784,0.005348,0.003189,0.005421,0.0,0.0,0.0,0.008552,-0.506778,0.005528,-0.102325,-264.138018,0.018452,62.448028
7.0985,0.005284,0.002793,0.006006,0.0,0.0,0.0,0.0083,-0.506793,0.005467,-0.102325,-264.138018,0.018452,62.448028
7.1185,0.005356,0.002956,0.006815,0.0,0.0,0.0,0.0083,-0.506793,0.005467,-0.102325,-264.138018,0.018452,62.448028
7.1387,0.005218,0.003308,0.00673,0.0,0.0,0.0,0.008832,-0.507032,0.006815,-0.102325,-264.138018,0.018452,62.448028
7.1589,0.005695,0.003197,0.006175,0.0,0.0,0.0,0.008817,-0.507004,0.006809,-0.102325,-264.138018,0.018452,62.448028
7.179,0.005552,0.002822,0.007746,0.0,0.0,0.0,0.008844,-0.506793,0.006175,-0.102325,-264.138018,0.018452,62.448028
7.1986,0.005437,0.002914,0.006978,0.0,0.0,0.0,0.00922,-0.507004,0.007071,-0.102325,-264.138018,0.018452,62.448028
7.2184,0.005364,0.003252,0.005595,0.0,0.0,0.0,0.00922,-0.507004,0.007071,-0.102325,-264.138018,0.018452,62.448028
7.2387,0.005457,0.003074,0.006107,0.0,0.0,0.0,0.008218,-0.50674,0.005595,-0.102325,-264.138018,0.018452,62.448028
7.2591,0.00553,0.003172,0.007378,0.0,0.0,0.0,0.008245,-0.506754,0.005635,-0.102325,-264.138018,0.018452,62.448028
7.2788,0.005337,0.00326,0.008242,-8.7e-05,-4.9e-05,0.0,0.009293,-0.506814,0.007378,-0.102325,-264.138018,0.018452,62.448028
7.2984,0.005792,0.00322,0.004845,-8.7e-05,-4.9e-05,0.0,0.009435,-0.506761,0.007873,-0.102325,-264.138018,0.018452,62.448028
7.3185,0.005457,0.003554,0.005521,-8.7e-05,-4.9e-05,0.0,0.009435,-0.506761,0.007873,-0.102325,-264.138018,0.018452,62.448028
7.3384,0.005654,0.003385,0.007347,-8.7e-05,-4.9e-05,0.0,0.008273,-0.506439,0.005521,-0.102325,-264.138018,0.018452,62.448028
7.3587,0.005579,0.003535,0.005978,-8.7e-05,-4.9e-05,0.0,0.008346,-0.506449,0.005639,-0.102325,-264.138018,0.018452,62.448028
7.3784,0.005248,0.003166,0.007369,-8.7e-05,-4.9e-05,0.0,0.008628,-0.506456,0.005978,-0.027452,-264.138018,0.093325,62.448028
7.3986,0.005393,0.00323,0.007676,-8.7e-05,-4.9e-05,0.0,0.008845,-0.506665,0.006776,-0.027452,-264.138018,0.093325,62.448028
7.4184,0.005627,0.003028,0.005269,-8.7e-05,-4.9e-05,0.0,0.008845,-0.506665,0.006776,-0.027452,-264.138018,0.093325,62.448028
7.4389,0.00564,0.00303,0.005591,-8.7e-05,-4.9e-05,0.0,0.008314,-0.506965,0.005269,0.047676,-264.138018,0.168453,62.448028
7.459,0.005301,0.002965,0.005834,-8.7e-05,-4.9e-05,0.0,0.008326,-0.506965,0.00529,0.047676,-264.138018,0.168453,62.448028
7.4785,0.00573,0.003559,0.006278,-8.7e-05,-4.9e-05,0.0,0.008276,-0.507026,0.005834,0.122537,-264.138018,0.243314,62.448028
7.499,0.005347,0.003521,0.008057,-0.000804,-0.000454,-0.001069,0.008654,-0.506683,0.00609,0.122537,-264.138018,0.243314,62.448028
7.5187,0.005519,0.003253,0.005761,-0.00158,-0.000891,-0.002099,0.008654,-0.506683,0.00609,0.122537,-264.138018,0.243314,62.448028
7.5386,0.005314,0.003298,0.005244,-0.002305,-0.0013,-0.003063,0.008457,-0.506738,0.005761,0.197748,-264.138019,0.318525,62.448027
7.5592,0.005632,0.003187,0.006185,-0.002993,-0.001688,-0.003977,0.008425,-0.506735,0.005725,0.197748,-264.138019,0.318525,62.448027
7.5785,0.005469,0.0032,0.00555,-0.003643,-0.002054,-0.00484,0.008787,-0.506804,0.006185,0.272542,-264.138019,0.24373,62.448027
7.5986,0.005411,0.003137,0.006659,-0.004247,-0.002395,-0.005643,0.008497,-0.506797,0.005808,0.272542,-264.138019,0.24373,62.448027
7.619,0.005462,0.00322,0.005058,-0.004809,-0.002711,-0.006388,0.008497,-0.506797,0.005808,0.272542,-264.138019,0.24373,62.448027
7.6394,0.005374,0.002818,0.005653,-0.005329,-0.003005,-0.00708,0.008041,-0.506773,0.005058,0.348358,-264.138019,0.167915,62.448027
7.659,0.005509,0.00323,0.005574,-0.005807,-0.003274,-0.007714,0.008056,-0.506799,0.005097,0.348358,-264.138019,0.167915,62.448027
7.6785,0.005681,0.003223,0.006726,-0.006247,-0.003523,-0.0083,0.008351,-0.506762,0.005574,0.422566,-264.138019,0.093707,62.448026
7.6986,0.005482,0.003111,0.007436,-0.006646,-0.003747,-0.00883,0.008786,-0.506764,0.006232,0.422566,-264.138019,0.093707,62.448026
7.7192,0.005789,0.003464,0.005449,-0.006997,-0.003945,-0.009296,0.008786,-0.506764,0.006232,0.422566,-264.138019,0.093707,62.448026
7.7391,0.005438,0.002964,0.006008,-0.00731,-0.004122,-0.009712,0.008567,-0.506529,0.005449,0.497665,-264.138026,0.018608,62.448022
7.759,0.00522,0.003022,0.003628,-0.007579,-0.004273,-0.010069,0.008563,-0.506558,0.005482,0.497665,-264.138026,0.018608,62.448022
7.7793,0.005406,0.003263,0.006312,-0.007808,-0.004403,-0.010374,0.007066,-0.506976,0.003625,0.572553,-264.138086,-0.05628,62.447986
7.7989,0.005382,0.003404,0.006907,-0.007996,-0.004508,-0.010623,0.007959,-0.506834,0.005165,0.572553,-264.138086,-0.05628,62.447986
7.8185,0.005205,0.003172,0.007126,-0.008143,-0.004591,-0.010818,0.007959,-0.506834,0.005165,0.572553,-264.138086,-0.05628,62.447986
7.8385,0.005582,0.003332,0.007447,-0.008247,-0.00465,-0.010956,0.008813,-0.506825,0.007105,0.6477,-264.1384,-0.131428,62.447796
7.8584,0.005378,0.003289,0.006022,-0.008309,-0.004685,-0.011039,0.00885,-0.506813,0.007127,0.6477,-264.1384,-0.131428,62.447796
7.8787,0.005292,0.003419,0.006467,-0.00833,-0.004697,-0.011068,0.008377,-0.506731,0.005953,0.722556,-264.139513,-0.206283,62.447121
7.8986,0.005564,0.003027,0.007137,-0.00831,-0.004686,-0.01104,0.00849,-0.506643,0.006238,0.722556,-264.139513,-0.206283,62.447121
7.9188,0.005533,0.003212,0.005785,-0.008248,-0.004651,-0.010958,0.00849,-0.506643,0.006238,0.722556,-264.139513,-0.206283,62.447121
7.9391,0.005465,0.002858,0.006655,-0.008143,-0.004591,-0.010818,0.008286,-0.506869,0.005567,0.7977,-264.14206,-0.242693,62.445578
7.9588,0.005392,0.003003,0.006672,-0.007997,-0.004509,-0.010625,0.008323,-0.506891,0.005643,0.7977,-264.14206,-0.242693,62.445578
7.9787,0.005417,0.003195,0.006847,-0.007811,-0.004404,-0.010377,0.008557,-0.507107,0.006384,0.872863,-264.146059,-0.242693,62.443155
7.9991,0.005234,0.00288,0.005423,-0.007581,-0.004275,-0.010072,0.008725,-0.506946,0.006608,0.872863,-264.146059,-0.242693,62.443155
8.019,0.005143,0.00305,0.007785,-0.007312,-0.004123,-0.009714,0.008725,-0.506946,0.006608,0.872863,-264.146059,-0.242693,62.443155
8.0386,0.005094,0.002714,0.004915,-0.006999,-0.003947,-0.009299,0.008754,-0.507141,0.007306,0.942095,-264.151096,-0.242693,62.440104
8.0585,0.004782,0.002554,0.006981,-0.006646,-0.003747,-0.008829,0.008671,-0.507155,0.007139,0.942095,-264.151096,-0.242693,62.440104
8.079,0.005089,0.002378,0.005604,-0.006251,-0.003525,-0.008305,0.00806,-0.507595,0.006605,0.942095,-264.15607,-0.242693,62.437091
8.0987,0.004617,0.00266,0.003965,-0.005815,-0.003279,-0.007725,0.00796,-0.507626,0.00599,0.942095,-264.15607,-0.242693,62.437091
8.1193,0.004898,0.002876,0.004417,-0.005335,-0.003008,-0.007088,0.00796,-0.507626,0.00599,0.942095,-264.15607,-0.242693,62.437091
8.1384,0.005048,0.002576,0.004699,-0.004813,-0.002714,-0.006394,0.006827,-0.507303,0.003987,0.942095,-264.160598,-0.242693,62.434347
8.1587,0.005177,0.002062,0.003169,-0.004254,-0.002399,-0.005652,0.006862,-0.507316,0.004026,0.942095,-264.160598,-0.242693,62.434347
8.1786,0.00479,0.002129,0.004635,-0.003649,-0.002058,-0.004848,0.006588,-0.508052,0.002896,0.942095,-264.164229,-0.242693,62.432147
8.1984,0.004903,0.002011,0.003844,-0.003006,-0.001695,-0.003994,0.006888,-0.50796,0.003863,0.942095,-264.164229,-0.242693,62.432147
8.2186,0.004675,0.00206,0.002729,-0.002318,-0.001307,-0.00308,0.006888,-0.50796,0.003863,0.942095,-264.164229,-0.242693,62.432147
8.2388,0.004628,0.001941,0.005586,-0.00159,-0.000896,-0.002112,0.005861,-0.508055,0.002455,0.942095,-264.167116,-0.242693,62.430398
8.2589,0.004593,0.002047,0.003918,-0.00082,-0.000462,-0.001089,0.005964,-0.508058,0.002658,0.942095,-264.167116,-0.242693,62.430398
8.279,0.004698,0.002105,0.001739,-7e-06,-4e-06,-9e-06,0.006501,-0.508,0.003799,0.942095,-264.168695,-0.242693,62.429442
8.2985,0.004249,0.002369,0.00293,0.0,0.0,0.0,0.005969,-0.507946,0.002613,0.942095,-264.168695,-0.242693,62.429442
8.3185,0.004601,0.001805,0.002834,0.0,0.0,0.0,0.005969,-0.507946,0.002613,0.942095,-264.168695,-0.242693,62.429442
8.3386,0.004629,0.002157,0.002423,0.0,0.0,0.0,0.006007,-0.508216,0.002781,0.942095,-264.169252,-0.242693,62.429104
8.3587,0.004532,0.001853,0.002805,0.0,0.0,0.0,0.005996,-0.508191,0.002755,0.942095,-264.169252,-0.242693,62.429104
8.3792,0.004854,0.002242,0.002048,0.0,0.0,0.0,0.005962,-0.508145,0.002805,0.942095,-264.169252,-0.242693,62.429104
8.3984,0.004528,0.001939,0.003528,0.0,0.0,0.0,0.005925,-0.507922,0.00237,0.942095,-264.169252,-0.242693,62.429104
8.4189,0.00457,0.002061,0.002851,0.0,0.0,0.0,0.005925,-0.507922,0.00237,0.942095,-264.169252,-0.242693,62.429104
8.4384,0.00469,0.001797,0.004172,0.0,0.0,0.0,0.006023,-0.507937,0.002851,0.942095,-264.169252,-0.242693,62.429104
8.4594,0.004638,0.001757,0.003992,0.0,0.0,0.0,0.006062,-0.507949,0.002914,0.942095,-264.169252,-0.242693,62.429104
8.4787,0.0045,0.001696,0.003,0.0,0.0,0.0,0.006674,-0.508238,0.003992,0.942095,-264.169252,-0.242693,62.429104
8.4992,0.004952,0.00219,0.003706,0.0,0.0,0.0,0.006308,-0.508275,0.003427,0.942095,-264.169252,-0.242693,62.429104
8.5185,0.004715,0.00223,0.003856,-9.2e-05,-4e-05,0.0,0.006308,-0.508275,0.003427,0.942095,-264.169252,-0.242693,62.429104
8.5388,0.004623,0.001683,0.003179,-9.2e-05,-4e-05,0.0,0.006681,-0.507766,0.003856,0.942095,-264.169252,-0.242693,62.429104
8.5589,0.004714,0.001622,0.00571,-9.2e-05,-4e-05,0.0,0.006652,-0.507803,0.00381,0.942095,-264.169252,-0.242693,62.429104
8.5788,0.004869,0.001523,0.00378,-9.2e-05,-4e-05,0.0,0.007627,-0.50837,0.00571,0.867132,-264.169252,-0.16773,62.429104
8.5987,0.004392,0.002023,0.002329,-9.2e-05,-4e-05,0.0,0.007156,-0.508428,0.004615,0.867132,-264.169252,-0.16773,62.429104
8.6193,0.004555,0.001616,0.003157,-9.2e-05,-4e-05,0.0,0.007156,-0.508428,0.004615,0.867132,-264.169252,-0.16773,62.429104
8.6383,0.004545,0.002001,0.003324,-9.2e-05,-4e-05,0.0,0.006165,-0.508381,0.003157,0.79212,-264.169252,-0.092719,62.429104
8.6594,0.004771,0.001764,0.00457,-9.2e-05,-4e-05,0.0,0.006169,-0.508357,0.003167,0.79212,-264.169252,-0.092719,62.429104
8.6788,0.005034,0.002085,0.00275,-9.2e-05,-4e-05,0.0,0.007102,-0.508231,0.00457,0.717127,-264.169252,-0.017726,62.429104
8.6988,0.004703,0.001874,0.00314,-9.2e-05,-4e-05,0.0,0.006721,-0.508049,0.003527,0.717127,-264.169252,-0.017726,62.429104
8.7185,0.004629,0.002048,0.002494,-9.2e-05,-4e-05,0.0,0.006721,-0.508049,0.003527,0.717127,-264.169252,-0.017726,62.429104
8.7392,0.004833,0.001675,0.005315,-0.000723,-0.000317,-0.00054,0.0059,-0.50795,0.002494,0.641992,-264.169253,0.057409,62.429103
8.7591,0.004769,0.002077,0.001447,-0.001416,-0.00062,-0.001058,0.006007,-0.507974,0.002677,0.641992,-264.169253,0.057409,62.429103
8.7786,0.004679,0.001682,0.004051,-0.002062,-0.000903,-0.001541,0.005507,-0.507922,0.001447,0.567117,-264.169255,0.132284,62.429101
8.7986,0.004487,0.002084,0.003596,-0.002676,-0.001171,-0.001999,0.006211,-0.508145,0.002927,0.567117,-264.169255,0.132284,62.429101
8.8183,0.004932,0.002054,0.004584,-0.003253,-0.001424,-0.002431,0.006211,-0.508145,0.002927,0.567117,-264.169255,0.132284,62.429101
8.8384,0.004431,0.001804,0.005422,-0.003792,-0.00166,-0.002834,0.007238,-0.507954,0.004565,0.642229,-264.169599,0.057173,62.428844
8.8587,0.004655,0.001597,0.003507,-0.004294,-0.00188,-0.003209,0.007234,-0.507971,0.004624,0.642229,-264.169599,0.057173,62.428844
8.8784,0.004687,0.001829,0.002302,-0.004761,-0.002085,-0.003558,0.006341,-0.508444,0.003433,0.717112,-264.17101,-0.01771,62.427792
8.8983,0.004526,0.00201,0.003819,-0.005189,-0.002272,-0.003877,0.006054,-0.508293,0.002776,0.717112,-264.17101,-0.01771,62.427792
8.9183,0.004564,0.002065,0.002893,-0.005578,-0.002442,-0.004168,0.006054,-0.508293,0.002776,0.717112,-264.17101,-0.01771,62.427792
8.9387,0.004648,0.001684,0.003327,-0.005931,-0.002597,-0.004432,0.005831,-0.508024,0.002738,0.729613,-264.173308,-0.018565,62.426079
8.9585,0.004606,0.001533,0.002197,-0.006248,-0.002735,-0.004669,0.005863,-0.508047,0.002776,0.729613,-264.173308,-0.018565,62.426079
8.9786,0.004182,0.001737,0.002095,-0.006527,-0.002858,-0.004877,0.005511,-0.508561,0.002035,0.729613,-264.176302,-0.018565,62.423847
8.9992,0.004341,0.001696,0.002356,-0.006769,-0.002964,-0.005058,0.005335,-0.508402,0.002049,0.729613,-264.176302,-0.018565,62.423847
9.0192,0.004359,0.001556,0.001924,-0.006974,-0.003053,-0.005211,0.005335,-0.508402,0.002049,0.729613,-264.176302,-0.018565,62.423847
9.0384,0.004157,0.001643,0.002932,-0.007142,-0.003127,-0.005337,0.005037,-0.508577,0.001698,0.729613,-264.179669,-0.018565,62.421337
9.0592,0.003945,0.001469,0.003164,-0.007272,-0.003184,-0.005434,0.005078,-0.508563,0.001793,0.729613,-264.179669,-0.018565,62.421337
9.0784,0.003564,0.001311,0.002598,-0.007365,-0.003225,-0.005504,0.005291,-0.508646,0.002963,0.729613,-264.183396,-0.018565,62.418559
9.0985,0.003818,0.001309,0.001697,-0.007421,-0.003249,-0.005546,0.005028,-0.508685,0.002729,0.729613,-264.183396,-0.018565,62.418559
9.1185,0.004092,0.00099,0.002754,-0.00744,-0.003257,-0.00556,0.005028,-0.508685,0.002729,0.729613,-264.183396,-0.018565,62.418559
9.1385,0.003767,0.001187,0.001741,-0.007422,-0.003249,-0.005546,0.005144,-0.509163,0.002491,0.729613,-264.187296,-0.018565,62.41565
9.1594,0.003338,0.001266,0.003324,-0.007366,-0.003225,-0.005505,0.005099,-0.509142,0.00243,0.729613,-264.187296,-0.018565,62.41565
9.1785,0.003483,0.001078,0.001887,-0.007273,-0.003184,-0.005435,0.004746,-0.508857,0.003109,0.729613,-264.1913,-0.018565,62.412665
9.1989,0.003075,0.001289,0.003527,-0.007142,-0.003127,-0.005337,0.004536,-0.50891,0.002377,0.729613,-264.1913,-0.018565,62.412665
9.2189,0.003326,0.001272,0.003215,-0.006975,-0.003054,-0.005212,0.004536,-0.50891,0.002377,0.729613,-264.1913,-0.018565,62.412665
9.239,0.002982,0.00058,0.000107,-0.006772,-0.002965,-0.00506,0.004609,-0.508883,0.002949,0.729613,-264.195236,-0.018565,62.409731
9.2587,0.002994,0.000716,-0.00031,-0.00653,-0.002859,-0.00488,0.004494,-0.508923,0.00275,0.729613,-264.195236,-0.018565,62.409731
9.2786,0.002928,0.000686,0.001159,-0.006248,-0.002736,-0.004669,0.002566,-0.509401,-0.000511,0.729613,-264.198992,-0.018565,62.406931
9.2989,0.002766,0.00066,0.001818,-0.005933,-0.002598,-0.004433,0.003081,-0.509366,0.000425,0.729613,-264.198992,-0.018565,62.406931
9.3188,0.002942,0.000833,0.001938,-0.005582,-0.002444,-0.004172,0.003081,-0.509366,0.000425,0.729613,-264.198992,-0.018565,62.406931
9.3389,0.002663,0.000338,0.000659,-0.005192,-0.002273,-0.00388,0.003614,-0.509306,0.001701,0.729613,-264.202484,-0.018565,62.404327
9.3589,0.00285,0.000436,0.000969,-0.004765,-0.002086,-0.003561,0.003565,-0.509333,0.001627,0.729613,-264.202484,-0.018565,62.404327
