mach0312/omni-docking-bench/src/icros_test_setup/results/kinematic_sample/timeseries/trial_022.csv
t,x,y,yaw,vx,vy,wz,bl_x,bl_y,bl_yaw,front_steering_joint,front_wheel_joint,rear_steering_joint,rear_wheel_joint
0.0,0.030237,0.028629,-0.05233,-0.00429,0.001419,-0.002733,0.005294,-0.480991,-0.050455,0.058407,-263.89683,-0.62386,63.50081
0.0004,0.03047,0.028347,-0.050436,0.0,0.0,0.0,0.005203,-0.481002,-0.05059,0.058407,-263.898549,-0.62386,63.498695
0.0008,0.030261,0.028339,-0.050568,0.0,0.0,0.0,0.005203,-0.481002,-0.05059,0.058407,-263.899458,-0.62386,63.497578
0.0011,0.030486,0.028433,-0.050159,0.0,0.0,0.0,0.003866,-0.480958,-0.052278,0.058407,-263.899458,-0.62386,63.497578
0.0015,0.030442,0.028666,-0.050241,0.0,0.0,0.0,0.003866,-0.480958,-0.052278,0.058407,-263.899458,-0.62386,63.497578
0.0018,0.030391,0.028683,-0.05142,0.0,0.0,0.0,0.004005,-0.480942,-0.052034,0.058407,-263.899458,-0.62386,63.497578
0.002,0.030339,0.028405,-0.050746,0.0,0.0,0.0,0.004005,-0.480942,-0.052034,0.058407,-263.899458,-0.62386,63.497578
0.0023,0.029996,0.028534,-0.050325,0.0,0.0,0.0,0.004005,-0.480942,-0.052034,0.058407,-263.899458,-0.62386,63.497578
0.0026,0.030459,0.028414,-0.052771,0.0,0.0,0.0,0.004005,-0.480942,-0.052034,0.058407,-263.899458,-0.62386,63.497578
0.0029,0.03026,0.028133,-0.050942,0.0,0.0,0.0,0.004295,-0.480469,-0.051264,0.058407,-263.899458,-0.62386,63.497578
0.0169,0.030438,0.028447,-0.052038,-0.016,-0.016,0.03,0.004291,-0.481205,-0.050942,0.058407,-263.899458,-0.62386,63.497578
0.0369,0.030114,0.02865,-0.05218,-0.028918,-0.029991,0.05,0.004265,-0.481182,-0.051018,0.058407,-263.899458,-0.62386,63.497578
0.0566,0.030341,0.028316,-0.051188,-0.028579,-0.030182,0.05,0.003515,-0.480656,-0.05218,0.058407,-263.899458,-0.62386,63.497578
0.0768,0.030445,0.028503,-0.051782,-0.028852,-0.029831,0.05,0.003926,-0.480858,-0.051622,0.058407,-263.899458,-0.62386,63.497578
0.0966,0.030345,0.028538,-0.051206,-0.028928,-0.030041,0.05,0.003926,-0.480858,-0.051622,0.058407,-263.899458,-0.62386,63.497578
0.1174,0.030271,0.028595,-0.04917,-0.028845,-0.030054,0.05,0.004242,-0.480794,-0.051206,-0.016591,-263.899459,-0.548863,63.497575
0.1369,0.030656,0.0281,-0.051216,-0.028829,-0.030048,0.04917,0.004329,-0.480793,-0.051021,-0.016591,-263.899459,-0.548863,63.497575
0.1567,0.030327,0.028297,-0.052343,-0.029177,-0.029633,0.05,0.004547,-0.481231,-0.051216,-0.017164,-263.89946,-0.473224,63.497572
0.1771,0.030519,0.028431,-0.051323,-0.028805,-0.029845,0.05,0.004034,-0.481102,-0.051856,-0.017164,-263.89946,-0.473224,63.497572
0.1968,0.030034,0.028681,-0.051788,-0.02902,-0.029959,0.05,0.004034,-0.481102,-0.051856,-0.017164,-263.89946,-0.473224,63.497572
0.2165,0.03043,0.028633,-0.050644,-0.028509,-0.030198,0.05,0.003634,-0.480635,-0.051788,0.000605,-263.899461,-0.398673,63.49757
0.2366,0.030792,0.028484,-0.050495,-0.028941,-0.030137,0.05,0.003702,-0.48064,-0.051709,0.000605,-263.899461,-0.398673,63.49757
0.2569,0.030351,0.028598,-0.051696,-0.029315,-0.030002,0.05,0.00505,-0.480866,-0.050495,-0.019917,-263.899462,-0.323853,63.497567
0.2768,0.030098,0.02877,-0.051459,-0.028833,-0.030128,0.05,0.004451,-0.480783,-0.051179,-0.019917,-263.899462,-0.323853,63.497567
0.297,0.030383,0.028165,-0.051475,-0.028578,-0.03028,0.05,0.004451,-0.480783,-0.051179,-0.019917,-263.899462,-0.323853,63.497567
0.3166,0.030524,0.028484,-0.051185,-0.028894,-0.029691,0.05,0.004143,-0.481159,-0.051475,-0.013846,-263.899464,-0.248802,63.497564
0.3371,0.030123,0.028353,-0.052044,-0.029026,-0.030008,0.05,0.004162,-0.481139,-0.051456,-0.013846,-263.899464,-0.248802,63.497564
0.3567,0.030422,0.028199,-0.050915,-0.028607,-0.029881,0.05,0.003592,-0.480957,-0.052044,-0.00902,-263.899465,-0.173876,63.497562
0.3768,0.03031,0.028227,-0.052412,-0.028947,-0.029711,0.05,0.004089,-0.481061,-0.051402,-0.00902,-263.899465,-0.173876,63.497562
0.3969,0.03059,0.028435,-0.049413,-0.02879,-0.029776,0.05,0.004089,-0.481061,-0.051402,-0.00902,-263.899465,-0.173876,63.497562
0.4165,0.030308,0.028485,-0.050376,-0.029148,-0.029911,0.049413,0.0054,-0.480943,-0.049413,-0.018244,-263.899466,-0.098861,63.497559
0.4372,0.0307,0.028328,-0.050354,-0.028835,-0.029975,0.05,0.005348,-0.480938,-0.049477,-0.018244,-263.899466,-0.098861,63.497559
0.4568,0.030703,0.028356,-0.052364,-0.029235,-0.029837,0.05,0.00503,-0.481025,-0.050354,-0.026449,-263.899467,-0.023874,63.497556
0.4768,0.030148,0.028465,-0.050753,-0.029176,-0.029924,0.05,0.004445,-0.480979,-0.051506,-0.026449,-263.899467,-0.023874,63.497556
0.4967,0.030229,0.028806,-0.051063,-0.028665,-0.029958,0.05,0.004445,-0.480979,-0.051506,-0.026449,-263.899467,-0.023874,63.497556
0.5172,0.030409,0.028414,-0.052885,-0.028719,-0.030311,0.05,0.004198,-0.480529,-0.051063,-0.019504,-263.899468,0.05129,63.497554
0.5367,0.030603,0.028641,-0.052659,-0.028865,-0.029981,0.05,0.004143,-0.480555,-0.051197,-0.019504,-263.899468,0.05129,63.497554
0.5566,0.030674,0.028173,-0.051023,-0.029054,-0.030213,0.05,0.003759,-0.480652,-0.052659,-0.020212,-263.899469,0.126266,63.497551
0.5766,0.030695,0.028716,-0.050863,-0.029197,-0.029701,0.05,0.004277,-0.480945,-0.051722,-0.020212,-263.899469,0.126266,63.497551
0.5968,0.030849,0.028533,-0.050521,-0.029195,-0.03024,0.05,0.004277,-0.480945,-0.051722,-0.020212,-263.899469,0.126266,63.497551
0.6169,0.030702,0.028455,-0.049755,-0.029369,-0.030054,0.05,0.005094,-0.480817,-0.050521,-0.019263,-263.899471,0.201266,63.497548
0.6371,0.030549,0.028442,-0.051103,-0.029249,-0.029946,0.049755,0.005111,-0.480823,-0.050467,-0.019263,-263.899471,0.201266,63.497548
0.6565,0.030516,0.028346,-0.050248,-0.029056,-0.029965,0.05,0.004497,-0.480892,-0.051103,-0.010196,-263.899472,0.276137,63.497546
0.6766,0.030387,0.028614,-0.051456,-0.029053,-0.029843,0.05,0.004728,-0.48096,-0.050614,-0.010196,-263.899472,0.276137,63.497546
0.6968,0.030457,0.028838,-0.050481,-0.028875,-0.030139,0.05,0.004728,-0.48096,-0.050614,-0.010196,-263.899472,0.276137,63.497546
0.7171,0.030667,0.028785,-0.052077,-0.028963,-0.030338,0.05,0.004723,-0.480513,-0.050481,-0.015093,-263.899473,0.351222,63.497543
0.7371,0.030584,0.028271,-0.051241,-0.029127,-0.030342,0.05,0.004684,-0.480513,-0.050583,-0.015093,-263.899473,0.351222,63.497543
0.7569,0.03051,0.028363,-0.049827,-0.029096,-0.029801,0.05,0.004462,-0.481059,-0.051241,-0.013816,-263.899474,0.426137,63.49754
0.7769,0.030521,0.028157,-0.051567,-0.02906,-0.029847,0.049827,0.004829,-0.481028,-0.05044,-0.013816,-263.899474,0.426137,63.49754
0.7967,0.030189,0.028088,-0.050606,-0.029029,-0.029693,0.05,0.004829,-0.481028,-0.05044,-0.013816,-263.899474,0.426137,63.49754
0.8166,0.030279,0.02828,-0.052009,-0.02873,-0.02958,0.05,0.004391,-0.481259,-0.050605,-0.006707,-263.899478,0.501133,63.497532
0.837,0.030649,0.028329,-0.052309,-0.028768,-0.029816,0.05,0.00435,-0.481244,-0.050697,-0.006707,-263.899478,0.501133,63.497532
0.8567,0.030553,0.0282,-0.052034,-0.029126,-0.029893,0.05,0.003982,-0.480974,-0.052307,-0.029088,-263.899494,0.576144,63.497493
0.8766,0.030614,0.028295,-0.051012,-0.029045,-0.029751,0.05,0.004008,-0.481052,-0.052151,-0.029088,-263.899494,0.576144,63.497493
0.8968,0.030194,0.028094,-0.050992,-0.029132,-0.029819,0.05,0.004008,-0.481052,-0.052151,-0.029088,-263.899494,0.576144,63.497493
0.917,0.030387,0.028429,-0.051169,-0.028723,-0.029597,0.05,0.004187,-0.481248,-0.050982,-0.025077,-263.899566,0.651231,63.497328
0.9369,0.03046,0.028436,-0.051734,-0.028893,-0.029946,0.05,0.004196,-0.481219,-0.050998,-0.025077,-263.899566,0.651231,63.497328
0.9567,0.030062,0.028309,-0.052279,-0.028949,-0.029973,0.05,0.004047,-0.480901,-0.051698,-0.024663,-263.899862,0.72657,63.496647
0.9771,0.029977,0.028354,-0.050379,-0.028541,-0.029841,0.05,0.003678,-0.480957,-0.052026,-0.024663,-263.899862,0.72657,63.496647
0.9968,0.030727,0.028389,-0.051605,-0.028511,-0.029828,0.05,0.003678,-0.480957,-0.052026,-0.024663,-263.899862,0.72657,63.496647
1.0165,0.030043,0.028477,-0.05059,-0.029222,-0.029936,0.05,0.004282,-0.48101,-0.051463,-0.020474,-263.90071,0.801279,63.49468
1.0377,0.030184,0.028277,-0.049845,-0.028564,-0.02996,0.05,0.004276,-0.481002,-0.051395,-0.020474,-263.90071,0.801279,63.49468
1.0567,0.029499,0.028017,-0.051153,-0.028738,-0.029746,0.049845,0.004534,-0.48124,-0.04957,-0.024879,-263.902681,0.876286,63.490206
1.0766,0.029529,0.028107,-0.051689,-0.028028,-0.029489,0.05,0.003861,-0.481303,-0.05045,-0.024879,-263.902681,0.876286,63.490206
1.0967,0.029468,0.028285,-0.050655,-0.028037,-0.029595,0.05,0.003861,-0.481303,-0.05045,-0.024879,-263.902681,0.876286,63.490206
1.1169,0.028569,0.028485,-0.050699,-0.027999,-0.029741,0.05,0.003139,-0.481375,-0.050083,-0.020226,-263.906729,0.951397,63.483227
1.1369,0.028633,0.027824,-0.04904,-0.027089,-0.029896,0.05,0.003091,-0.481344,-0.050115,-0.020226,-263.906729,0.951397,63.483227
1.1571,0.027687,0.027886,-0.048523,-0.027235,-0.029194,0.04904,0.003067,-0.481914,-0.048386,-0.033601,-263.913231,1.026493,63.473783
1.177,0.027983,0.027528,-0.049822,-0.026301,-0.029196,0.048523,0.002927,-0.48173,-0.048381,-0.033601,-263.913231,1.026493,63.473783
1.1967,0.027639,0.027533,-0.050001,-0.026577,-0.028887,0.049822,0.002927,-0.48173,-0.048381,-0.033601,-263.913231,1.026493,63.473783
1.2166,0.026526,0.026568,-0.048165,-0.026229,-0.02888,0.05,0.001275,-0.482422,-0.048921,-0.023664,-263.921744,1.101256,63.461787
1.2367,0.026347,0.026782,-0.048321,-0.025217,-0.027814,0.048165,0.001304,-0.482473,-0.048829,-0.023664,-263.921744,1.101256,63.461787
1.2568,0.02462,0.026141,-0.046542,-0.025023,-0.028023,0.048321,0.000917,-0.483193,-0.047236,-0.057947,-263.93177,1.149555,63.447374
1.2767,0.0245,0.026235,-0.046159,-0.023377,-0.027259,0.046542,0.000802,-0.48333,-0.046703,-0.057947,-263.93177,1.149555,63.447374
1.2968,0.024443,0.026187,-0.046788,-0.023263,-0.027337,0.046159,0.000802,-0.48333,-0.046703,-0.057947,-263.93177,1.149555,63.447374
1.317,0.022591,0.02514,-0.045218,-0.023191,-0.027301,0.046788,-0.000479,-0.484111,-0.045181,-0.063448,-263.941878,1.155779,63.430392
1.337,0.02221,0.025375,-0.045115,-0.021432,-0.026135,0.045218,-0.000507,-0.484152,-0.045139,-0.063448,-263.941878,1.155779,63.430392
1.3565,0.020296,0.024252,-0.043006,-0.021043,-0.026351,0.045115,-0.001633,-0.484921,-0.043669,-0.036719,-263.951023,1.174071,63.41095
1.3766,0.020757,0.024308,-0.043267,-0.019235,-0.025103,0.043006,-0.001738,-0.485225,-0.043109,-0.036719,-263.951023,1.174071,63.41095
1.3969,0.020761,0.024115,-0.043221,-0.019686,-0.025183,0.043267,-0.001738,-0.485225,-0.043109,-0.036719,-263.951023,1.174071,63.41095
1.417,0.017962,0.023038,-0.03998,-0.0197,-0.024989,0.043221,-0.002331,-0.486573,-0.04113,-0.069006,-263.959434,1.191398,63.388988
1.4371,0.018008,0.022847,-0.040019,-0.017027,-0.023738,0.03998,-0.002363,-0.4866,-0.041003,-0.069006,-263.959434,1.191398,63.388988
1.457,0.01577,0.021928,-0.039204,-0.017079,-0.023549,0.040019,-0.003193,-0.487686,-0.03835,-0.063026,-263.967307,1.206387,63.366942
1.4768,0.016458,0.021948,-0.038178,-0.014899,-0.022529,0.039204,-0.00388,-0.487801,-0.038628,-0.063026,-263.967307,1.206387,63.366942
1.4972,0.015994,0.021563,-0.038868,-0.015609,-0.02256,0.038178,-0.00388,-0.487801,-0.038628,-0.063026,-263.967307,1.206387,63.366942
1.5168,0.014036,0.020921,-0.03769,-0.015144,-0.022169,0.038868,-0.00468,-0.489155,-0.036956,-0.03991,-263.973986,1.230943,63.34692
1.5366,0.014104,0.020555,-0.036015,-0.013238,-0.021435,0.03769,-0.004729,-0.489154,-0.036956,-0.03991,-263.973986,1.230943,63.34692
1.5566,0.012387,0.019961,-0.035408,-0.013355,-0.021049,0.036015,-0.00489,-0.489961,-0.034546,-0.048483,-263.980224,1.242853,63.327578
1.5767,0.012432,0.019884,-0.034984,-0.011673,-0.020387,0.035408,-0.005414,-0.489931,-0.034851,-0.048483,-263.980224,1.242853,63.327578
1.5966,0.012362,0.019705,-0.034687,-0.011729,-0.020307,0.034984,-0.005414,-0.489931,-0.034851,-0.048483,-263.980224,1.242853,63.327578
1.6167,0.011005,0.018821,-0.03195,-0.011672,-0.020122,0.034687,-0.005935,-0.490906,-0.033038,-0.119098,-263.985031,1.281376,63.310855
1.6369,0.010823,0.018948,-0.033327,-0.010398,-0.019163,0.03195,-0.005905,-0.490933,-0.032914,-0.119098,-263.985031,1.281376,63.310855
1.6573,0.009231,0.01793,-0.031242,-0.010186,-0.019298,0.033327,-0.00664,-0.491524,-0.032001,-0.090081,-263.989664,1.296443,63.293822
1.6767,0.00963,0.017737,-0.032913,-0.008667,-0.01821,0.031242,-0.006734,-0.49179,-0.031397,-0.090081,-263.989664,1.296443,63.293822
1.6967,0.009667,0.018028,-0.031626,-0.009041,-0.018044,0.032913,-0.006734,-0.49179,-0.031397,-0.090081,-263.989664,1.296443,63.293822
1.7166,0.008123,0.017348,-0.029249,-0.009092,-0.018325,0.031626,-0.006965,-0.492583,-0.030156,-0.033675,-263.993606,1.308159,63.278649
1.7365,0.007982,0.017166,-0.030704,-0.007613,-0.017578,0.029249,-0.006966,-0.492596,-0.030052,-0.033675,-263.993606,1.308159,63.278649
1.7566,0.007549,0.016478,-0.029353,-0.007451,-0.017403,0.030704,-0.007881,-0.492983,-0.030023,-0.108557,-263.99565,1.338078,63.270004
1.7768,0.007282,0.016559,-0.029534,-0.007062,-0.016693,0.029353,-0.007643,-0.493215,-0.029553,-0.108557,-263.99565,1.338078,63.270004
1.7966,0.007184,0.016543,-0.028997,-0.00679,-0.016766,0.029534,-0.007643,-0.493215,-0.029553,-0.108557,-263.99565,1.338078,63.270004
1.8166,0.006648,0.016004,-0.027908,-0.006701,-0.016745,0.028997,-0.007933,-0.493889,-0.027902,-0.037471,-263.998437,1.359225,63.258877
1.8369,0.006347,0.015391,-0.028829,-0.006199,-0.016183,0.027908,-0.007918,-0.493899,-0.027875,-0.037471,-263.998437,1.359225,63.258877
1.8573,0.006101,0.015083,-0.028375,-0.005901,-0.015567,0.028829,-0.008551,-0.494853,-0.028041,-0.112368,-264.000376,1.378135,63.248924
1.8767,0.006071,0.015578,-0.026239,-0.005671,-0.01525,0.028375,-0.008471,-0.494829,-0.028133,-0.112368,-264.000376,1.378135,63.248924
1.8969,0.005565,0.015387,-0.028177,-0.00566,-0.015732,0.026239,-0.008471,-0.494829,-0.028133,-0.112368,-264.000376,1.378135,63.248924
1.9167,0.004465,0.014761,-0.026489,-0.005129,-0.015538,0.028177,-0.009111,-0.495125,-0.026927,-0.138095,-264.002846,1.386361,63.236503
1.9367,0.004678,0.014521,-0.026116,-0.004073,-0.014874,0.026489,-0.009114,-0.495138,-0.026867,-0.138095,-264.002846,1.386361,63.236503
1.9565,0.004108,0.014218,-0.0237,-0.004297,-0.014638,0.026116,-0.008847,-0.495838,-0.025216,-0.063247,-264.004856,1.394419,63.225065
1.9766,0.004215,0.013981,-0.023882,-0.00377,-0.014312,0.0237,-0.008378,-0.495792,-0.024238,-0.063247,-264.004856,1.394419,63.225065
1.9967,0.004101,0.01377,-0.025373,-0.00388,-0.014078,0.023882,-0.008378,-0.495792,-0.024238,-0.063247,-264.004856,1.394419,63.225065
2.0166,0.003701,0.013745,-0.023809,-0.003751,-0.01387,0.025373,-0.008917,-0.496332,-0.024918,-0.138249,-264.005474,1.440382,63.220541
2.0366,0.003354,0.013564,-0.024238,-0.003373,-0.013829,0.023809,-0.008888,-0.496324,-0.024834,-0.138249,-264.005474,1.440382,63.220541
2.0566,0.003199,0.013214,-0.023585,-0.003025,-0.013641,0.024238,-0.009134,-0.49661,-0.023672,-0.130265,-264.007037,1.436239,63.213516
2.0765,0.003188,0.013499,-0.022174,-0.002886,-0.013285,0.023585,-0.008976,-0.496671,-0.02355,-0.130265,-264.007037,1.436239,63.213516
2.0965,0.003178,0.013233,-0.022346,-0.002888,-0.013566,0.022174,-0.008976,-0.496671,-0.02355,-0.130265,-264.007037,1.436239,63.213516
2.1165,0.002293,0.012686,-0.023647,-0.002881,-0.0133,0.022346,-0.008372,-0.497196,-0.02138,-0.205276,-264.008283,1.452469,63.203992
2.1369,0.002566,0.012685,-0.023001,-0.001992,-0.012736,0.023647,-0.008472,-0.497209,-0.021511,-0.205276,-264.008283,1.452469,63.203992
2.1566,0.001863,0.012483,-0.021022,-0.002273,-0.01274,0.023001,-0.009223,-0.497427,-0.022585,-0.130284,-264.008837,1.46465,63.198766
2.1769,0.002137,0.012055,-0.021227,-0.0016,-0.012519,0.021022,-0.009022,-0.497445,-0.021643,-0.130284,-264.008837,1.46465,63.198766
2.1969,0.001885,0.01242,-0.021951,-0.00188,-0.012098,0.021227,-0.009022,-0.497445,-0.021643,-0.130284,-264.008837,1.46465,63.198766
2.2171,0.001812,0.012814,-0.022831,-0.001611,-0.012459,0.021951,-0.00931,-0.497459,-0.021947,-0.205276,-264.00884,1.497628,63.198728
2.2366,0.002025,0.012529,-0.022371,-0.001519,-0.012852,0.022831,-0.009345,-0.497432,-0.022006,-0.205276,-264.00884,1.497628,63.198728
2.2571,0.001595,0.012003,-0.021655,-0.001744,-0.012571,0.022371,-0.009411,-0.49746,-0.022163,-0.280298,-264.009202,1.495914,63.196189
2.2768,0.001941,0.012482,-0.022887,-0.001335,-0.012034,0.021655,-0.009436,-0.497713,-0.021847,-0.280298,-264.009202,1.495914,63.196189
2.2969,0.001948,0.012157,-0.023198,-0.001655,-0.012523,0.022887,-0.009436,-0.497713,-0.021847,-0.280298,-264.009202,1.495914,63.196189
2.3168,0.00193,0.012307,-0.022804,-0.001665,-0.012198,0.023198,-0.009896,-0.497798,-0.023039,-0.355342,-264.009311,1.51418,63.194619
2.3368,0.001523,0.012606,-0.021879,-0.001649,-0.012348,0.022804,-0.009881,-0.497782,-0.023016,-0.355342,-264.009311,1.51418,63.194619
2.3566,0.001652,0.01213,-0.022108,-0.001247,-0.012636,0.021879,-0.009643,-0.497327,-0.021783,-0.430734,-264.009409,1.508431,63.193442
2.377,0.001772,0.012207,-0.020718,-0.001383,-0.012164,0.022108,-0.009632,-0.497572,-0.021956,-0.430734,-264.009409,1.508431,63.193442
2.397,0.001938,0.011862,-0.022199,-0.001519,-0.012241,0.020718,-0.009632,-0.497572,-0.021956,-0.430734,-264.009409,1.508431,63.193442
2.4165,0.001298,0.012359,-0.021194,-0.001674,-0.011902,0.022199,-0.009399,-0.498112,-0.022021,-0.505293,-264.009558,1.508131,63.191721
2.4367,0.0015,0.011873,-0.020564,-0.001036,-0.012384,0.021194,-0.009408,-0.498073,-0.021958,-0.505293,-264.009558,1.508131,63.191721
2.4565,0.001459,0.011642,-0.019698,-0.001256,-0.011902,0.020564,-0.009013,-0.498203,-0.020245,-0.430287,-264.009806,1.50985,63.187799
2.4764,0.001189,0.011748,-0.021181,-0.001229,-0.011669,0.019698,-0.008774,-0.498258,-0.019894,-0.430287,-264.009806,1.50985,63.187799
2.497,0.00136,0.011463,-0.021963,-0.00094,-0.011771,0.021181,-0.008774,-0.498258,-0.019894,-0.430287,-264.009806,1.50985,63.187799
2.5166,0.001202,0.011659,-0.021614,-0.001108,-0.01149,0.021963,-0.009887,-0.49879,-0.021305,-0.495444,-264.010242,1.529911,63.181388
2.5365,0.00125,0.011423,-0.01955,-0.000949,-0.011682,0.021614,-0.009884,-0.49876,-0.021309,-0.495444,-264.010242,1.529911,63.181388
2.5565,0.000735,0.011111,-0.019991,-0.001027,-0.011445,0.01955,-0.008724,-0.498514,-0.01949,-0.570345,-264.010287,1.532782,63.180646
2.5765,0.000633,0.011452,-0.02021,-0.000513,-0.011123,0.019991,-0.009143,-0.498674,-0.019767,-0.570345,-264.010287,1.532782,63.180646
2.5969,0.000808,0.011428,-0.019384,-0.000401,-0.011462,0.02021,-0.009143,-0.498674,-0.019767,-0.570345,-264.010287,1.532782,63.180646
2.6172,0.000895,0.01133,-0.0191,-0.000586,-0.011441,0.019384,-0.00908,-0.498499,-0.019343,-0.645341,-264.010316,1.532664,63.180252
2.6366,0.000783,0.011346,-0.020944,-0.000678,-0.011345,0.0191,-0.009064,-0.498505,-0.019325,-0.645341,-264.010316,1.532664,63.180252
2.6569,0.001018,0.011373,-0.020011,-0.000545,-0.01136,0.020944,-0.009898,-0.498549,-0.020932,-0.720427,-264.010322,1.553933,63.180101
2.6766,0.000908,0.011136,-0.020359,-0.00079,-0.011391,0.020011,-0.009494,-0.498536,-0.020406,-0.720427,-264.010322,1.553933,63.180101
2.6966,0.001114,0.011063,-0.019907,-0.000682,-0.011152,0.020359,-0.009494,-0.498536,-0.020406,-0.720427,-264.010322,1.553933,63.180101
2.7166,0.00073,0.011523,-0.019316,-0.000893,-0.011083,0.019907,-0.00905,-0.49899,-0.019644,-0.645513,-264.010406,1.541333,63.177502
2.7369,0.000854,0.010922,-0.020579,-0.000508,-0.011534,0.019316,-0.009056,-0.49895,-0.019613,-0.645513,-264.010406,1.541333,63.177502
2.7567,0.001294,0.011597,-0.020003,-0.000629,-0.010937,0.020579,-0.009642,-0.498989,-0.020546,-0.720602,-264.010431,1.541907,63.177099
2.7766,0.001196,0.011059,-0.019109,-0.001061,-0.01162,0.020003,-0.009224,-0.4986,-0.020233,-0.720602,-264.010431,1.541907,63.177099
2.7968,0.000712,0.01098,-0.020382,-0.000985,-0.01108,0.019109,-0.009224,-0.4986,-0.020233,-0.720602,-264.010431,1.541907,63.177099
2.8167,0.000701,0.010749,-0.018714,-0.000488,-0.010992,0.020382,-0.009694,-0.499087,-0.020088,-0.645695,-264.010519,1.549046,63.174199
2.837,0.000369,0.011109,-0.019026,-0.0005,-0.01076,0.018714,-0.009638,-0.499097,-0.01999,-0.645695,-264.010519,1.549046,63.174199
2.8567,0.000427,0.010599,-0.019331,-0.000158,-0.011114,0.019026,-0.009365,-0.499048,-0.018584,-0.570686,-264.010902,1.527545,63.168791
2.8767,0.000271,0.010671,-0.017959,-0.000223,-0.010605,0.019331,-0.009407,-0.499227,-0.018955,-0.570686,-264.010902,1.527545,63.168791
2.8973,-7.4e-05,0.010803,-0.020634,-8e-05,-0.010674,0.017959,-0.009407,-0.499227,-0.018955,-0.570686,-264.010902,1.527545,63.168791
2.9166,9.8e-05,0.010434,-0.018879,0.000297,-0.010799,0.020634,-0.010601,-0.499152,-0.020526,-0.645775,-264.010942,1.54828,63.167721
2.937,0.000292,0.010487,-0.016821,9.9e-05,-0.010434,0.018879,-0.010526,-0.499177,-0.020407,-0.645775,-264.010942,1.54828,63.167721
2.9567,0.000547,0.010281,-0.017652,-0.000115,-0.01049,0.016821,-0.008287,-0.499442,-0.016821,-0.720682,-264.010942,1.56712,63.167716
2.9768,0.000333,0.010354,-0.018755,-0.000366,-0.010289,0.017652,-0.008382,-0.499554,-0.017293,-0.720682,-264.010942,1.56712,63.167716
2.9968,-3.7e-05,0.010927,-0.016794,-0.000139,-0.010358,0.018755,-0.008382,-0.499554,-0.017293,-0.720682,-264.010942,1.56712,63.167716
3.0169,0.000496,0.010684,-0.017909,0.000221,-0.010925,0.016794,-0.008602,-0.499001,-0.016794,-0.795681,-264.010942,1.575303,63.167715
3.0371,3e-05,0.010562,-0.020531,-0.000305,-0.010691,0.017909,-0.008604,-0.499016,-0.016867,-0.795681,-264.010942,1.575303,63.167715
3.0568,-7.5e-05,0.010436,-0.018684,0.000187,-0.010561,0.020531,-0.01044,-0.49933,-0.02053,-0.870684,-264.010943,1.564424,63.167708
3.0767,0.00021,0.010475,-0.018336,0.00027,-0.010433,0.018684,-0.009962,-0.499413,-0.019474,-0.870684,-264.010943,1.564424,63.167708
3.097,1.6e-05,0.010809,-0.019042,-1.8e-05,-0.010477,0.018336,-0.009962,-0.499413,-0.019474,-0.870684,-264.010943,1.564424,63.167708
3.117,0.000196,0.010513,-0.01899,0.00019,-0.010807,0.019042,-0.009704,-0.499247,-0.018786,-0.795529,-264.01103,1.5567,63.165189
3.1372,0.000318,0.010341,-0.018303,4e-06,-0.010515,0.01899,-0.009686,-0.499264,-0.018795,-0.795529,-264.01103,1.5567,63.165189
3.1571,0.000328,0.010522,-0.019562,-0.000129,-0.010345,0.018303,-0.009016,-0.499574,-0.018303,-0.870762,-264.01103,1.569957,63.165187
3.1768,-0.000249,0.010079,-0.017298,-0.000122,-0.010526,0.019562,-0.009373,-0.499465,-0.019014,-0.870762,-264.01103,1.569957,63.165187
3.1969,-2.5e-05,0.010464,-0.018368,0.000423,-0.010073,0.017298,-0.009373,-0.499465,-0.019014,-0.870762,-264.01103,1.569957,63.165187
3.217,-7.9e-05,0.010352,-0.018869,0.000218,-0.010462,0.018368,-0.009392,-0.49945,-0.018368,-0.945381,-264.01103,1.57097,63.165185
3.2372,0.000157,0.010606,-0.017379,0.000275,-0.010349,0.018869,-0.009414,-0.499458,-0.018403,-0.945381,-264.01103,1.57097,63.165185
3.257,-0.000335,0.010361,-0.018547,2.8e-05,-0.010607,0.017379,-0.008706,-0.499317,-0.017379,-0.870292,-264.01103,1.591311,63.165184
3.2767,-3.6e-05,0.010233,-0.01825,0.000527,-0.010353,0.018547,-0.009328,-0.499451,-0.018047,-0.870292,-264.01103,1.591311,63.165184
3.2967,0.00021,0.010861,-0.020406,0.000223,-0.010231,0.01825,-0.009328,-0.499451,-0.018047,-0.870292,-264.01103,1.591311,63.165184
3.3168,0.000244,0.010339,-0.01757,1.2e-05,-0.010863,0.020406,-0.010196,-0.499033,-0.020406,-0.795258,-264.01103,1.583346,63.165183
3.3368,0.0001,0.010552,-0.017968,-6.2e-05,-0.010341,0.01757,-0.010083,-0.499075,-0.020189,-0.795258,-264.01103,1.583346,63.165183
3.3573,-0.000149,0.010498,-0.01785,9e-05,-0.010553,0.017968,-0.009063,-0.499365,-0.017968,-0.720084,-264.01103,1.58123,63.165183
3.3766,-8.6e-05,0.010527,-0.018938,0.000336,-0.010494,0.01785,-0.00917,-0.499397,-0.017901,-0.720084,-264.01103,1.58123,63.165183
3.3965,0.000256,0.010179,-0.016818,0.000286,-0.010524,0.018938,-0.00917,-0.499397,-0.017901,-0.720084,-264.01103,1.58123,63.165183
3.4165,-0.000129,0.009935,-0.01724,-8.4e-05,-0.010181,0.016818,-0.008321,-0.499749,-0.016818,-0.794901,-264.01103,1.567861,63.16518
3.437,7e-05,0.010678,-0.018127,-8.4e-05,-0.010181,0.016818,-0.008365,-0.499767,-0.016849,-0.794901,-264.01103,1.567861,63.16518
3.4566,3.4e-05,0.010585,-0.018174,1e-06,-0.0001,0.0,-0.009174,-0.499239,-0.018126,-0.719935,-264.01103,1.583732,63.165179
3.4769,-3.7e-05,0.010285,-0.018669,1e-06,-0.0001,0.0,-0.009208,-0.499292,-0.018154,-0.719935,-264.01103,1.583732,63.165179
3.4968,0.000111,0.01061,-0.019089,1e-06,-0.0001,0.0,-0.009208,-0.499292,-0.018154,-0.719935,-264.01103,1.583732,63.165179
3.5167,0.000171,0.010372,-0.019029,1e-06,-0.0001,0.0,-0.009629,-0.499447,-0.018838,-0.794934,-264.011072,1.566668,63.162663
3.5372,-0.000606,0.010555,-0.017402,1e-06,-0.0001,0.0,-0.009621,-0.499459,-0.018846,-0.794934,-264.011072,1.566668,63.162663
3.5571,-0.000275,0.010188,-0.018377,1e-06,-0.0001,0.0,-0.009481,-0.499368,-0.017402,-0.870406,-264.011072,1.582351,63.162663
3.5768,-0.000282,0.010227,-0.018998,1e-06,-0.0001,0.0,-0.009575,-0.499571,-0.017956,-0.870406,-264.011072,1.582351,63.162663
3.5968,0.000117,0.010189,-0.016939,1e-06,-0.0001,0.0,-0.009575,-0.499571,-0.017956,-0.870406,-264.011072,1.582351,63.162663
3.6167,-2.8e-05,0.010417,-0.018007,1e-06,-0.0001,0.0,-0.008522,-0.499737,-0.016939,-0.944931,-264.011072,1.582351,63.162663
3.6371,1.4e-05,0.010209,-0.017975,1e-06,-0.0001,0.0,-0.008567,-0.499722,-0.017008,-0.944931,-264.011072,1.582351,63.162663
3.6574,-0.000428,0.010343,-0.017782,1e-06,-0.0001,0.0,-0.009153,-0.499708,-0.017975,-1.019837,-264.011072,1.582351,63.162663
3.6766,-0.00025,0.010254,-0.019065,1.8e-05,-0.001561,0.002651,-0.00935,-0.499633,-0.017864,-1.019837,-264.011072,1.582351,63.162663
3.6967,-0.000139,0.010379,-0.018909,3.5e-05,-0.003043,0.005167,-0.00935,-0.499633,-0.017864,-1.019837,-264.011072,1.582351,63.162663
3.7171,0.000128,0.01027,-0.018211,5.1e-05,-0.004444,0.007544,-0.009782,-0.49953,-0.018909,-1.094936,-264.011072,1.582351,63.162662
3.737,-0.000296,0.010132,-0.018461,6.7e-05,-0.005764,0.009786,-0.00973,-0.499539,-0.018851,-1.094936,-264.011072,1.582351,63.162662
3.7569,0.000314,0.010373,-0.017621,8.1e-05,-0.007005,0.011893,-0.009711,-0.499781,-0.018461,-1.019588,-264.011072,1.576469,63.162662
3.777,-0.000357,0.010348,-0.017937,9.4e-05,-0.008171,0.013872,-0.009117,-0.499648,-0.017981,-1.019588,-264.011072,1.576469,63.162662
3.7968,-0.00015,0.01006,-0.016327,0.000107,-0.009248,0.0157,-0.009117,-0.499648,-0.017981,-1.019588,-264.011072,1.576469,63.162662
3.8168,-0.000244,0.010051,-0.017808,0.000118,-0.010251,0.017404,-0.008476,-0.499872,-0.016327,-0.944926,-264.011072,1.576469,63.162662
3.8369,-7.4e-05,0.010368,-0.018409,0.000129,-0.01117,0.018963,-0.008538,-0.499872,-0.016433,-0.944926,-264.011072,1.576469,63.162662
3.8567,0.000241,0.010355,-0.017824,0.000139,-0.012012,0.020393,-0.009462,-0.499546,-0.018409,-0.869869,-264.011072,1.576469,63.162661
3.8767,-6.5e-05,0.010546,-0.017851,0.000148,-0.012773,0.021685,-0.00911,-0.499556,-0.018074,-0.869869,-264.011072,1.576469,63.162661
3.897,0.000107,0.010021,-0.018662,0.000155,-0.013452,0.022838,-0.00911,-0.499556,-0.018074,-0.869869,-264.011072,1.576469,63.162661
3.9166,-0.000201,0.010038,-0.018432,0.000162,-0.014053,0.023858,-0.00941,-0.49989,-0.018662,-0.794902,-264.011072,1.576469,63.16266
3.937,-0.00016,0.010139,-0.018103,0.000168,-0.014574,0.024742,-0.009424,-0.499889,-0.018645,-0.794902,-264.011072,1.576469,63.16266
3.9569,-7.8e-05,0.009953,-0.018694,0.000173,-0.015015,0.02549,-0.009392,-0.499777,-0.018103,-0.719925,-264.011072,1.576469,63.162659
3.9767,0.000196,0.010139,-0.018936,0.000178,-0.015374,0.026101,-0.009516,-0.499879,-0.018437,-0.719925,-264.011072,1.576469,63.162659
3.9967,-0.000201,0.009906,-0.016292,0.000181,-0.015655,0.026577,-0.009516,-0.499879,-0.018437,-0.719925,-264.011072,1.576469,63.162659
4.0166,-3.4e-05,0.010314,-0.018109,0.000183,-0.015855,0.026918,-0.008509,-0.500026,-0.016292,-0.644927,-264.011072,1.576469,63.162658
4.0366,0.000171,0.010418,-0.017942,0.000185,-0.015976,0.027122,-0.008565,-0.499995,-0.016426,-0.644927,-264.011072,1.576469,63.162658
4.0569,-0.000267,0.009967,-0.017921,0.000185,-0.016016,0.02719,-0.008978,-0.4995,-0.017942,-0.569905,-264.011072,1.576469,63.162656
4.0766,-7.9e-05,0.010556,-0.018816,0.000185,-0.015976,0.027122,-0.009224,-0.499759,-0.01793,-0.569905,-264.011072,1.576469,63.162656
4.0967,0.000328,0.010286,-0.018587,0.000183,-0.015856,0.026918,-0.009224,-0.499759,-0.01793,-0.569905,-264.011072,1.576469,63.162656
4.1167,9.7e-05,0.010138,-0.01786,0.000181,-0.015656,0.026579,-0.009151,-0.499626,-0.018586,-0.494898,-264.011072,1.576469,63.162655
4.1369,2.5e-05,0.010106,-0.017997,0.000178,-0.015376,0.026103,-0.009141,-0.499637,-0.018537,-0.494898,-264.011072,1.576469,63.162655
4.1567,-0.000129,0.010015,-0.018189,0.000173,-0.015015,0.025491,-0.009153,-0.499812,-0.017997,-0.420016,-264.011072,1.576469,63.162654
4.1766,-6.3e-05,0.010619,-0.017295,0.000168,-0.014574,0.024742,-0.009296,-0.499862,-0.018105,-0.420016,-264.011072,1.576469,63.162654
4.1972,7e-06,0.010029,-0.018197,0.000162,-0.014052,0.023856,-0.009296,-0.499862,-0.018105,-0.420016,-264.011072,1.576469,63.162654
4.2166,-0.000275,0.010473,-0.018397,0.000155,-0.01345,0.022834,-0.009273,-0.499887,-0.018197,-0.345039,-264.011072,1.576469,63.162653
4.2371,-0.000144,0.010068,-0.018722,0.000148,-0.012774,0.021685,-0.009294,-0.499863,-0.018207,-0.345039,-264.011072,1.576469,63.162653
4.2569,-0.000112,0.010467,-0.017857,0.000139,-0.012012,0.020393,-0.009691,-0.499843,-0.018721,-0.270022,-264.011072,1.576469,63.162651
4.2771,2.5e-05,0.010365,-0.017019,0.000129,-0.01116,0.018947,-0.00942,-0.499618,-0.018225,-0.270022,-264.011072,1.576469,63.162651
4.2967,-0.000275,0.010247,-0.01907,0.000118,-0.010245,0.017392,-0.00942,-0.499618,-0.018225,-0.270022,-264.011072,1.576469,63.162651
4.3169,0.000428,0.010444,-0.018461,0.000107,-0.00925,0.015704,-0.01,-0.49966,-0.019069,-0.194886,-264.011072,1.576469,63.16265
4.3371,0.00027,0.010237,-0.017725,9.4e-05,-0.008169,0.013869,-0.009929,-0.499647,-0.019027,-0.194886,-264.011072,1.576469,63.16265
4.3565,-0.000538,0.010218,-0.01784,8.1e-05,-0.007005,0.011892,-0.00877,-0.499683,-0.017725,-0.120036,-264.011072,1.576469,63.16265
4.3769,-2e-06,0.010369,-0.017335,6.7e-05,-0.005766,0.009789,-0.009268,-0.499693,-0.017791,-0.120036,-264.011072,1.576469,63.16265
4.3971,0.000314,0.010201,-0.016887,5.1e-05,-0.004446,0.007547,-0.009268,-0.499693,-0.017791,-0.120036,-264.011072,1.576469,63.16265
4.4169,-0.000544,0.010162,-0.018179,3.5e-05,-0.003044,0.005167,-0.008298,-0.499726,-0.016887,-0.04482,-264.011072,1.576469,63.162649
4.4373,-0.000258,0.010164,-0.018194,1.8e-05,-0.001562,0.002652,-0.008397,-0.499728,-0.016971,-0.04482,-264.011072,1.576469,63.162649
4.4573,-0.00012,0.010375,-0.017168,0.0,-0.0,1e-06,-0.009536,-0.499751,-0.018194,0.029969,-264.011072,1.576469,63.162649
4.4773,5.5e-05,0.01023,-0.017615,0.0,0.0,0.0,-0.009158,-0.499636,-0.017608,0.029969,-264.011072,1.576469,63.162649
4.497,-0.00023,0.010311,-0.018226,0.0,0.0,0.0,-0.009158,-0.499636,-0.017608,0.029969,-264.011072,1.576469,63.162649
4.5166,0.000246,0.010213,-0.018183,0.0,0.0,0.0,-0.009525,-0.499604,-0.018226,0.1051,-264.011072,1.576469,63.162648
4.5371,-0.000354,0.010139,-0.017243,0.0,0.0,0.0,-0.009494,-0.49961,-0.018224,0.1051,-264.011072,1.576469,63.162648
4.5572,7.1e-05,0.009896,-0.017835,0.0,0.0,0.0,-0.009148,-0.499785,-0.017243,0.1051,-264.011072,1.576469,63.162648
4.577,0.000147,0.010259,-0.018207,0.0,0.0,0.0,-0.009078,-0.49992,-0.01758,0.1051,-264.011072,1.576469,63.162648
4.597,5.4e-05,0.010321,-0.018069,0.0,0.0,0.0,-0.009078,-0.49992,-0.01758,0.1051,-264.011072,1.576469,63.162648
4.6169,0.000184,0.010197,-0.018708,0.0,0.0,0.0,-0.009161,-0.499596,-0.018069,0.1051,-264.011072,1.576469,63.162648
4.6369,-0.000164,0.010545,-0.016729,0.0,0.0,0.0,-0.009173,-0.499604,-0.01811,0.1051,-264.011072,1.576469,63.162648
4.6568,-5.2e-05,0.010342,-0.018317,0.0,0.0,0.0,-0.008696,-0.499384,-0.016729,0.1051,-264.011072,1.576469,63.162648
4.6772,-0.000142,0.010417,-0.016722,0.0,0.0,0.0,-0.009096,-0.499492,-0.017639,0.1051,-264.011072,1.576469,63.162648
4.6966,-0.000266,0.010074,-0.018503,3e-06,-0.0001,0.0,-0.009096,-0.499492,-0.017639,0.1051,-264.011072,1.576469,63.162648
4.7167,0.000135,0.009918,-0.01805,3e-06,-0.0001,0.0,-0.009702,-0.499838,-0.018503,0.1051,-264.011072,1.576469,63.162648
4.7369,1.6e-05,0.010458,-0.019632,3e-06,-0.0001,0.0,-0.009657,-0.49985,-0.018471,0.1051,-264.011072,1.576469,63.162648
4.7568,0.000173,0.010274,-0.019243,3e-06,-0.0001,0.0,-0.009996,-0.499443,-0.019632,0.180022,-264.011072,1.601116,63.162648
4.7767,1.4e-05,0.01041,-0.018039,3e-06,-0.0001,0.0,-0.009792,-0.499551,-0.019409,0.180022,-264.011072,1.601116,63.162648
4.7967,0.000114,0.01002,-0.017624,3e-06,-0.0001,0.0,-0.009792,-0.499551,-0.019409,0.180022,-264.011072,1.601116,63.162648
4.8166,-9e-05,0.01036,-0.018437,3e-06,-0.0001,0.0,-0.008874,-0.499901,-0.017624,0.255107,-264.011072,1.601116,63.162648
4.8368,-0.000105,0.010275,-0.017945,3e-06,-0.0001,0.0,-0.008917,-0.499877,-0.01768,0.255107,-264.011072,1.601116,63.162648
4.8569,-0.000257,0.010379,-0.018338,3e-06,-0.0001,0.0,-0.009257,-0.499643,-0.017945,0.329997,-264.011072,1.601116,63.162648
4.8766,9.3e-05,0.010247,-0.01806,3e-06,-0.0001,0.0,-0.009456,-0.499582,-0.018167,0.329997,-264.011072,1.601116,63.162648
4.8968,-5.6e-05,0.010353,-0.01641,3e-06,-0.0001,0.0,-0.009456,-0.499582,-0.018167,0.329997,-264.011072,1.601116,63.162648
4.917,-0.000138,0.010577,-0.018639,4.6e-05,-0.001522,0.002444,-0.008424,-0.499578,-0.01641,0.40499,-264.011072,1.601116,63.162648
4.9369,-0.000208,0.009857,-0.018676,9e-05,-0.002965,0.004762,-0.008507,-0.499562,-0.016561,0.40499,-264.011072,1.601116,63.162648
4.9568,0.000252,0.01033,-0.01857,0.000131,-0.004333,0.006958,-0.009732,-0.500054,-0.018676,0.479977,-264.011072,1.601116,63.162648
4.9767,-0.000139,0.010286,-0.018284,0.000171,-0.005625,0.009033,-0.009438,-0.499784,-0.018616,0.479977,-264.011072,1.601116,63.162648
4.9968,-0.000307,0.010448,-0.019877,0.000207,-0.006833,0.010973,-0.009438,-0.499784,-0.018616,0.479977,-264.011072,1.601116,63.162648
5.0166,-0.000195,0.009998,-0.017945,0.000242,-0.007965,0.012791,-0.010444,-0.499451,-0.019877,0.404868,-264.011072,1.586106,63.162648
5.0376,0.000235,0.010399,-0.017242,0.000274,-0.009018,0.014483,-0.010372,-0.499482,-0.01975,0.404868,-264.011072,1.586106,63.162648
5.0568,0.000239,0.010618,-0.018288,0.000303,-0.009995,0.016051,-0.008558,-0.499525,-0.017242,0.329981,-264.011072,1.586106,63.162648
5.0775,1.1e-05,0.010558,-0.017512,0.00033,-0.010892,0.017492,-0.008862,-0.499394,-0.017843,0.329981,-264.011072,1.586106,63.162648
5.0969,0.000337,0.010271,-0.017539,0.000355,-0.011713,0.01881,-0.008862,-0.499394,-0.017843,0.329981,-264.011072,1.586106,63.162648
5.1168,0.000238,0.010527,-0.018866,0.000378,-0.012456,0.020003,-0.008607,-0.499651,-0.017538,0.254804,-264.011072,1.586106,63.162647
5.1367,-0.000394,0.01061,-0.01797,0.000398,-0.013119,0.021069,-0.008655,-0.499634,-0.01762,0.254804,-264.011072,1.586106,63.162647
5.1569,1.5e-05,0.009866,-0.017023,0.000416,-0.013705,0.022009,-0.009558,-0.499308,-0.01797,0.179967,-264.011072,1.586106,63.162646
5.177,1.1e-05,0.010619,-0.017375,0.000431,-0.014212,0.022824,-0.009049,-0.499737,-0.01743,0.179967,-264.011072,1.586106,63.162646
5.1972,-0.000108,0.010281,-0.016912,0.000444,-0.014643,0.023515,-0.009049,-0.499737,-0.01743,0.179967,-264.011072,1.586106,63.162646
5.2165,-0.000131,0.010397,-0.017549,0.000455,-0.014994,0.024079,-0.008733,-0.499646,-0.016912,0.104857,-264.011072,1.586106,63.162644
5.237,0.000114,0.010315,-0.016758,0.000463,-0.015268,0.024519,-0.008755,-0.499638,-0.016952,0.104857,-264.011072,1.586106,63.162644
5.2569,-2.7e-05,0.010081,-0.018984,0.000469,-0.015463,0.024832,-0.008432,-0.499614,-0.016758,0.029961,-264.011072,1.586106,63.162638
5.2767,-7.5e-05,0.010384,-0.01728,0.000473,-0.01558,0.025021,-0.009159,-0.499735,-0.018025,0.029961,-264.011072,1.586106,63.162638
5.297,1.5e-05,0.01019,-0.016988,0.000474,-0.015619,0.025084,-0.009159,-0.499735,-0.018025,0.029961,-264.011072,1.586106,63.162638
5.3168,-0.000116,0.01038,-0.017382,0.000473,-0.01558,0.025021,-0.008648,-0.499739,-0.016984,-0.045031,-264.011071,1.586106,63.162607
5.337,-5.7e-05,0.010431,-0.017623,0.000469,-0.015464,0.024834,-0.00867,-0.499726,-0.017011,-0.045031,-264.011071,1.586106,63.162607
5.3569,8e-06,0.010092,-0.018885,0.000463,-0.015268,0.02452,-0.009044,-0.499496,-0.017613,-0.120134,-264.011069,1.586106,63.162471
5.3768,-0.000288,0.010189,-0.017195,0.000455,-0.014996,0.024082,-0.009376,-0.499681,-0.01834,-0.120134,-264.011069,1.586106,63.162471
5.397,1.2e-05,0.010335,-0.017612,0.000444,-0.014638,0.023508,-0.009376,-0.499681,-0.01834,-0.120134,-264.011069,1.586106,63.162471
5.4166,-0.000273,0.010091,-0.017703,0.000431,-0.014215,0.022827,-0.008969,-0.499615,-0.017565,-0.195148,-264.01106,1.586106,63.162002
5.4367,1e-05,0.010234,-0.017858,0.000416,-0.013702,0.022005,-0.008992,-0.499631,-0.017573,-0.195148,-264.01106,1.586106,63.162002
5.4568,-0.000277,0.010715,-0.017966,0.000397,-0.013104,0.021044,-0.009096,-0.499745,-0.01776,-0.270037,-264.011037,1.586106,63.16075
5.477,-0.000278,0.010158,-0.018665,0.000378,-0.012455,0.020002,-0.009293,-0.499442,-0.017866,-0.270037,-264.011037,1.586106,63.16075
5.4971,5.6e-05,0.010069,-0.016335,0.000355,-0.011717,0.018816,-0.009293,-0.499442,-0.017866,-0.270037,-264.011037,1.586106,63.16075
5.517,-9.1e-05,0.010099,-0.017487,0.00033,-0.010896,0.017498,-0.008272,-0.500026,-0.016071,-0.345196,-264.010989,1.586106,63.158075
5.5372,-0.000371,0.009702,-0.018172,0.000303,-0.009993,0.016048,-0.008325,-0.500016,-0.016165,-0.345196,-264.010989,1.586106,63.158075
5.5568,-0.000622,0.009966,-0.017839,0.000274,-0.009019,0.014485,-0.009635,-0.500422,-0.017836,-0.420329,-264.010911,1.586106,63.15378
5.5766,-0.000527,0.009642,-0.018103,0.000242,-0.007964,0.012789,-0.009684,-0.500178,-0.017795,-0.420329,-264.010911,1.586106,63.15378
5.5966,-0.000402,0.009722,-0.017948,0.000207,-0.006836,0.010978,-0.009684,-0.500178,-0.017795,-0.420329,-264.010911,1.586106,63.15378
5.6168,-0.00122,0.009463,-0.016487,0.000171,-0.005625,0.009034,-0.009551,-0.500543,-0.01739,-0.495498,-264.010809,1.586106,63.148115
5.637,-0.000901,0.009213,-0.017465,0.000132,-0.004338,0.006966,-0.009556,-0.500547,-0.017314,-0.495498,-264.010809,1.586106,63.148115
5.657,-0.00115,0.009086,-0.016154,9e-05,-0.002969,0.004768,-0.009805,-0.500955,-0.017071,-0.563972,-264.010718,1.586106,63.143092
5.6768,-0.001186,0.009271,-0.014948,4.6e-05,-0.001528,0.002454,-0.00957,-0.500926,-0.016505,-0.563972,-264.010718,1.586106,63.143092
5.6972,-0.001197,0.009339,-0.015631,0.0,0.0,0.0,-0.00957,-0.500926,-0.016505,-0.563972,-264.010718,1.586106,63.143092
5.7168,-0.001312,0.008923,-0.015787,0.0,0.0,0.0,-0.009165,-0.500809,-0.015292,-0.563972,-264.010655,1.586106,63.139635
5.7371,-0.001375,0.008878,-0.015462,0.0,0.0,0.0,-0.009182,-0.500833,-0.015323,-0.563972,-264.010655,1.586106,63.139635
5.7572,-0.001458,0.008612,-0.014798,0.0,0.0,0.0,-0.009261,-0.501061,-0.015462,-0.563972,-264.010655,1.586106,63.139635
5.7774,-0.001625,0.008963,-0.016423,0.0,0.0,0.0,-0.009114,-0.501217,-0.015081,-0.563972,-264.010655,1.586106,63.139635
5.7977,-0.001481,0.00917,-0.015884,0.0,0.0,0.0,-0.009114,-0.501217,-0.015081,-0.563972,-264.010655,1.586106,63.139635
5.8165,-0.001205,0.009461,-0.016338,0.0,0.0,0.0,-0.009581,-0.500765,-0.015884,-0.563972,-264.010655,1.586106,63.139635
5.8365,-0.001538,0.008449,-0.01834,0.0,0.0,0.0,-0.009578,-0.500745,-0.015916,-0.563972,-264.010655,1.586106,63.139635
5.8571,-0.001223,0.009185,-0.016944,0.0,0.0,0.0,-0.010891,-0.501465,-0.01834,-0.563972,-264.010655,1.586106,63.139635
5.8772,-0.001085,0.008878,-0.015655,0.0,0.0,0.0,-0.010306,-0.501053,-0.017545,-0.563972,-264.010655,1.586106,63.139635
5.8967,-0.000943,0.009009,-0.016919,0.0,0.0,0.0,-0.010306,-0.501053,-0.017545,-0.563972,-264.010655,1.586106,63.139635
5.9165,-0.000927,0.008437,-0.014493,0.0,0.0,0.0,-0.009572,-0.500918,-0.016919,-0.563972,-264.010655,1.586106,63.139635
5.9372,-0.001361,0.009249,-0.016497,1.2e-05,-9.9e-05,0.0,-0.009471,-0.500965,-0.016725,-0.563972,-264.010655,1.586106,63.139635
5.9569,-0.000765,0.008745,-0.015412,1.2e-05,-9.9e-05,0.0,-0.009774,-0.500681,-0.016497,-0.563972,-264.010655,1.586106,63.139635
5.9766,-0.00141,0.008737,-0.016584,1.2e-05,-9.9e-05,0.0,-0.009123,-0.500972,-0.015882,-0.563972,-264.010655,1.586106,63.139635
5.9966,-0.001172,0.008726,-0.014855,1.2e-05,-9.9e-05,0.0,-0.009123,-0.500972,-0.015882,-0.563972,-264.010655,1.586106,63.139635
6.0166,-0.001553,0.00884,-0.015099,1.2e-05,-9.9e-05,0.0,-0.008748,-0.501218,-0.014855,-0.638844,-264.010655,1.660979,63.139635
6.0366,-0.001351,0.009202,-0.016185,1.2e-05,-9.9e-05,0.0,-0.008781,-0.50121,-0.014871,-0.638844,-264.010655,1.660979,63.139635
6.0568,-0.000991,0.008858,-0.016053,1.2e-05,-9.9e-05,0.0,-0.009605,-0.500731,-0.016185,-0.713669,-264.010655,1.694679,63.139635
6.0766,-0.001473,0.008781,-0.016319,1.2e-05,-9.9e-05,0.0,-0.00936,-0.500929,-0.016109,-0.713669,-264.010655,1.694679,63.139635
6.0967,-0.001148,0.008442,-0.014451,1.2e-05,-9.9e-05,0.0,-0.00936,-0.500929,-0.016109,-0.713669,-264.010655,1.694679,63.139635
6.117,-0.001267,0.008434,-0.014326,1.2e-05,-9.9e-05,0.0,-0.008518,-0.501505,-0.014451,-0.788827,-264.010655,1.694679,63.139635
6.1377,-0.001282,0.00891,-0.014815,0.0,-2e-06,3e-06,-0.008522,-0.501505,-0.014443,-0.788827,-264.010655,1.694679,63.139635
6.1571,-0.001399,0.008887,-0.015998,0.000154,-0.001234,0.002123,-0.008837,-0.501034,-0.014815,-0.863669,-264.010655,1.694679,63.139635
6.1771,-0.001231,0.008581,-0.015327,0.000299,-0.002401,0.00413,-0.009244,-0.501042,-0.015483,-0.863669,-264.010655,1.694679,63.139635
6.197,-0.001201,0.008635,-0.015892,0.000437,-0.003508,0.006035,-0.009244,-0.501042,-0.015483,-0.863669,-264.010655,1.694679,63.139635
6.2172,-0.001298,0.008809,-0.0165,0.000567,-0.004554,0.007836,-0.009306,-0.501301,-0.015892,-0.788531,-264.010655,1.631438,63.139635
6.2371,-0.001054,0.008304,-0.016229,0.000689,-0.005534,0.009522,-0.009349,-0.501282,-0.015956,-0.788531,-264.010655,1.631438,63.139635
6.2569,-0.000968,0.008771,-0.015686,0.000803,-0.006448,0.011094,-0.009331,-0.501629,-0.016229,-0.712478,-264.010655,1.631438,63.139634
6.2768,-0.001663,0.008589,-0.016492,0.000909,-0.007299,0.012558,-0.00912,-0.50136,-0.015913,-0.712478,-264.010655,1.631438,63.139634
6.297,-0.001207,0.008908,-0.015789,0.001008,-0.008091,0.013921,-0.00912,-0.50136,-0.015913,-0.712478,-264.010655,1.631438,63.139634
6.3172,-0.001315,0.009122,-0.01501,0.001098,-0.008816,0.015168,-0.009259,-0.501029,-0.015789,-0.638199,-264.010655,1.631438,63.139634
6.3372,-0.001299,0.008819,-0.017139,0.00118,-0.009479,0.016309,-0.009237,-0.501012,-0.015728,-0.638199,-264.010655,1.631438,63.139634
6.3567,-0.000948,0.008424,-0.016144,0.001255,-0.010079,0.017342,-0.01004,-0.501106,-0.017139,-0.56316,-264.010655,1.631438,63.139633
6.3772,-0.001447,0.008672,-0.015299,0.001322,-0.010613,0.018261,-0.009543,-0.50134,-0.016564,-0.56316,-264.010655,1.631438,63.139633
6.3966,-0.0012,0.009021,-0.014577,0.001381,-0.011087,0.019076,-0.009543,-0.50134,-0.016564,-0.56316,-264.010655,1.631438,63.139633
6.4166,-0.001103,0.00874,-0.016623,0.001432,-0.011499,0.019785,-0.008634,-0.500925,-0.014577,-0.488312,-264.010655,1.631438,63.139632
6.4372,-0.001107,0.008725,-0.015983,0.001475,-0.011845,0.020381,-0.008704,-0.500945,-0.014728,-0.488312,-264.010655,1.631438,63.139632
6.4567,-0.001061,0.009298,-0.015748,0.001511,-0.012131,0.020872,-0.009257,-0.501209,-0.015982,-0.413567,-264.010655,1.631438,63.139631
6.4767,-0.001128,0.008694,-0.0165,0.001538,-0.01235,0.02125,-0.009163,-0.500883,-0.015848,-0.413567,-264.010655,1.631438,63.139631
6.4966,-0.001049,0.008547,-0.015528,0.001558,-0.012508,0.021521,-0.009163,-0.500883,-0.015848,-0.413567,-264.010655,1.631438,63.139631
6.5167,-0.001012,0.008855,-0.017293,0.001569,-0.012603,0.021685,-0.008968,-0.501392,-0.015527,-0.338528,-264.010655,1.631438,63.13963
6.5371,-0.001142,0.009011,-0.015082,0.001573,-0.012635,0.021739,-0.009033,-0.501368,-0.01566,-0.338528,-264.010655,1.631438,63.13963
6.5571,-0.001223,0.00912,-0.01492,0.001569,-0.012603,0.021684,-0.008833,-0.500931,-0.015082,-0.263512,-264.010655,1.631438,63.139628
6.5767,-0.001126,0.008688,-0.015736,0.001558,-0.012508,0.021521,-0.008832,-0.50087,-0.014989,-0.263512,-264.010655,1.631438,63.139628
6.5966,-0.00116,0.008748,-0.014898,0.001538,-0.01235,0.02125,-0.008832,-0.50087,-0.014989,-0.263512,-264.010655,1.631438,63.139628
6.6166,-0.001272,0.00874,-0.015116,0.00151,-0.012128,0.020867,-0.008758,-0.501196,-0.014898,-0.188576,-264.010654,1.631438,63.139621
6.637,-0.001067,0.008714,-0.017072,0.001475,-0.011845,0.02038,-0.008773,-0.501196,-0.014913,-0.188576,-264.010654,1.631438,63.139621
6.6566,-0.001309,0.009022,-0.016307,0.001432,-0.011497,0.019781,-0.009773,-0.501214,-0.017069,-0.11356,-264.010652,1.631438,63.139583
6.6768,-0.001595,0.008718,-0.016182,0.00138,-0.011085,0.019073,-0.009688,-0.50104,-0.016631,-0.11356,-264.010652,1.631438,63.139583
6.6968,-0.00127,0.008552,-0.016559,0.001321,-0.010613,0.01826,-0.009688,-0.50104,-0.016631,-0.11356,-264.010652,1.631438,63.139583
6.7169,-0.001125,0.009164,-0.016311,0.001254,-0.010073,0.017331,-0.009713,-0.501387,-0.016544,-0.038559,-264.010642,1.631438,63.139437
6.7369,-0.001441,0.008804,-0.015877,0.00118,-0.009475,0.016302,-0.009696,-0.501346,-0.016529,-0.038559,-264.010642,1.631438,63.139437
6.7573,-0.001132,0.008571,-0.016421,0.001097,-0.008807,0.015153,-0.009535,-0.501153,-0.015843,0.03633,-264.010614,1.631438,63.139002
6.7773,-0.001234,0.009096,-0.016529,0.001006,-0.008077,0.013897,-0.009518,-0.501272,-0.016165,0.03633,-264.010614,1.631438,63.139002
6.7972,-0.001807,0.008989,-0.016085,0.000908,-0.007294,0.01255,-0.009518,-0.501272,-0.016165,0.03633,-264.010614,1.631438,63.139002
6.817,-0.001414,0.008555,-0.016817,0.000802,-0.006441,0.011082,-0.010003,-0.501008,-0.015981,0.111358,-264.010546,1.631438,63.137966
6.8372,-0.001255,0.009121,-0.014511,0.000688,-0.005524,0.009505,-0.010002,-0.501035,-0.016035,0.111358,-264.010546,1.631438,63.137966
6.8571,-0.001323,0.008827,-0.015848,0.000566,-0.004543,0.007817,-0.008646,-0.500908,-0.014372,0.186351,-264.010432,1.631438,63.136228
6.8769,-0.00178,0.008653,-0.014951,0.000436,-0.003505,0.006031,-0.009075,-0.501032,-0.01519,0.186351,-264.010432,1.631438,63.136228
6.8967,-0.001512,0.008561,-0.014848,0.000299,-0.002397,0.004125,-0.009075,-0.501032,-0.01519,0.186351,-264.010432,1.631438,63.136228
6.9168,-0.001752,0.008738,-0.015989,0.000153,-0.001229,0.002114,-0.009069,-0.501524,-0.014609,0.261369,-264.010276,1.631438,63.133848
6.9369,-0.001108,0.008207,-0.015813,0.0,0.0,0.0,-0.009141,-0.5015,-0.014721,0.261369,-264.010276,1.631438,63.133848
6.9566,-0.001911,0.008353,-0.015374,0.0,0.0,0.0,-0.009165,-0.5018,-0.015691,0.336916,-264.010177,1.631438,63.132333
6.9767,-0.001744,0.008219,-0.014695,0.0,0.0,0.0,-0.009496,-0.501688,-0.015496,0.336916,-264.010177,1.631438,63.132333
6.9971,-0.001229,0.008026,-0.014504,0.0,0.0,0.0,-0.009496,-0.501688,-0.015496,0.336916,-264.010177,1.631438,63.132333
7.0168,-0.00127,0.008335,-0.015024,0.0,0.0,0.0,-0.008626,-0.50192,-0.014504,0.336916,-264.010177,1.631438,63.132333
7.0372,-0.001689,0.008585,-0.015103,0.0,0.0,0.0,-0.008646,-0.501899,-0.014539,0.336916,-264.010177,1.631438,63.132333
7.0568,-0.001636,0.008131,-0.014182,0.0,0.0,0.0,-0.009391,-0.501357,-0.015103,0.336916,-264.010177,1.631438,63.132333
7.0773,-0.001904,0.008407,-0.016905,0.0,0.0,0.0,-0.009094,-0.501619,-0.014579,0.336916,-264.010177,1.631438,63.132333
7.0969,-0.001605,0.008301,-0.013795,0.0,0.0,0.0,-0.009094,-0.501619,-0.014579,0.336916,-264.010177,1.631438,63.132333
7.1173,-0.001413,0.008309,-0.014472,0.0,0.0,0.0,-0.00864,-0.50165,-0.013795,0.336916,-264.010177,1.631438,63.132333
7.1372,-0.00169,0.008336,-0.013983,0.0,0.0,0.0,-0.00865,-0.501649,-0.01384,0.336916,-264.010177,1.631438,63.132333
7.1571,-0.001589,0.008385,-0.01586,2.1e-05,-9.8e-05,0.0,-0.008821,-0.501615,-0.013983,0.336916,-264.010177,1.631438,63.132333
7.1776,-0.00142,0.008625,-0.014941,2.1e-05,-9.8e-05,0.0,-0.009305,-0.501579,-0.015043,0.336916,-264.010177,1.631438,63.132333
7.1975,-0.001844,0.008443,-0.013854,2.1e-05,-9.8e-05,0.0,-0.009305,-0.501579,-0.015043,0.336916,-264.010177,1.631438,63.132333
7.2171,-0.00188,0.008245,-0.014545,2.1e-05,-9.8e-05,0.0,-0.008909,-0.501508,-0.013854,0.336916,-264.010177,1.631438,63.132333
7.237,-0.001609,0.008375,-0.014925,2.1e-05,-9.8e-05,0.0,-0.008935,-0.501521,-0.0139,0.336916,-264.010177,1.631438,63.132333
7.2572,-0.001319,0.008186,-0.016293,2.1e-05,-9.8e-05,0.0,-0.009221,-0.501568,-0.014925,0.262016,-264.010177,1.556539,63.132333
7.2769,-0.001716,0.008515,-0.014543,2.1e-05,-9.8e-05,0.0,-0.009455,-0.501671,-0.015713,0.262016,-264.010177,1.556539,63.132333
7.2972,-0.001418,0.008523,-0.014507,2.1e-05,-9.8e-05,0.0,-0.009455,-0.501671,-0.015713,0.262016,-264.010177,1.556539,63.132333
7.3169,-0.001492,0.008201,-0.016338,2.1e-05,-9.8e-05,0.0,-0.008817,-0.501424,-0.014507,0.186715,-264.010177,1.481237,63.132333
7.337,-0.001863,0.008081,-0.014116,2.1e-05,-9.8e-05,0.0,-0.008896,-0.501448,-0.014652,0.186715,-264.010177,1.481237,63.132333
7.3569,-0.001301,0.008616,-0.015073,2.1e-05,-9.8e-05,0.0,-0.009062,-0.501868,-0.014116,0.111634,-264.010177,1.406156,63.132333
7.3767,-0.001431,0.008145,-0.013464,0.000265,-0.001218,0.002049,-0.00902,-0.501558,-0.014664,0.111634,-264.010177,1.406156,63.132333
7.3968,-0.001771,0.008314,-0.013823,0.000514,-0.002366,0.00398,-0.00902,-0.501558,-0.014664,0.111634,-264.010177,1.406156,63.132333
7.4166,-0.001774,0.008326,-0.01544,0.000761,-0.0035,0.005889,-0.008821,-0.501638,-0.013823,0.036869,-264.010177,1.331392,63.132333
7.4367,-0.001817,0.007952,-0.015498,0.000975,-0.004486,0.007548,-0.008882,-0.501636,-0.013942,0.036869,-264.010177,1.331392,63.132333
7.4572,-0.001295,0.00829,-0.014169,0.001186,-0.005458,0.009183,-0.009721,-0.501998,-0.015479,0.11187,-264.010151,1.406392,63.132094
7.4772,-0.001642,0.008009,-0.015984,0.001382,-0.00636,0.0107,-0.009038,-0.501806,-0.014731,0.11187,-264.010151,1.406392,63.132094
7.4969,-0.00133,0.008069,-0.015013,0.001565,-0.007201,0.012116,-0.009038,-0.501806,-0.014731,0.11187,-264.010151,1.406392,63.132094
7.5169,-0.001591,0.008333,-0.016568,0.001735,-0.007981,0.013428,-0.008986,-0.50194,-0.014902,0.126222,-264.010032,1.481347,63.130988
7.5374,-0.001577,0.008607,-0.015124,0.00189,-0.008696,0.014631,-0.009055,-0.501919,-0.015008,0.126222,-264.010032,1.481347,63.130988
7.5568,-0.001684,0.008377,-0.016294,0.002033,-0.009351,0.015732,-0.009278,-0.501486,-0.014871,0.126222,-264.009693,1.556257,63.127829
7.5772,-0.001755,0.008362,-0.01278,0.002161,-0.009939,0.016723,-0.009677,-0.501544,-0.015636,0.126222,-264.009693,1.556257,63.127829
7.5967,-0.001999,0.008064,-0.013374,0.002276,-0.01047,0.017616,-0.009677,-0.501544,-0.015636,0.126222,-264.009693,1.556257,63.127829
7.617,-0.002486,0.007805,-0.012012,0.002378,-0.010941,0.018408,-0.008766,-0.502227,-0.012809,0.126222,-264.00909,1.63125,63.122217
7.6367,-0.002006,0.007433,-0.014863,0.002466,-0.011344,0.019087,-0.008754,-0.502231,-0.012736,0.126222,-264.00909,1.63125,63.122217
7.6571,-0.002489,0.007447,-0.013393,0.002541,-0.011688,0.019664,-0.009507,-0.502895,-0.014218,0.126222,-264.008205,1.677595,63.114127
7.677,-0.002226,0.00729,-0.012765,0.002602,-0.011968,0.020136,-0.009391,-0.502725,-0.013669,0.126222,-264.008205,1.677595,63.114127
7.6971,-0.002282,0.007352,-0.012876,0.002649,-0.012186,0.020502,-0.009391,-0.502725,-0.013669,0.126222,-264.008205,1.677595,63.114127
7.7176,-0.002575,0.006745,-0.011985,0.002683,-0.012342,0.020765,-0.008735,-0.503159,-0.011948,0.126222,-264.007209,1.677595,63.104857
7.7372,-0.002769,0.007218,-0.01238,0.002703,-0.012435,0.020922,-0.008729,-0.503178,-0.011925,0.126222,-264.007209,1.677595,63.104857
7.7569,-0.003621,0.006227,-0.01145,0.00271,-0.012467,0.020975,-0.008986,-0.503214,-0.011589,0.126222,-264.006141,1.677595,63.094917
7.777,-0.003199,0.005911,-0.01136,0.002703,-0.012436,0.020923,-0.009245,-0.503575,-0.011409,0.126222,-264.006141,1.677595,63.094917
7.7969,-0.003398,0.00619,-0.011455,0.002683,-0.012342,0.020766,-0.009245,-0.503575,-0.011409,0.126222,-264.006141,1.677595,63.094917
7.8174,-0.003497,0.005816,-0.010194,0.002649,-0.012184,0.0205,-0.009115,-0.504382,-0.010439,0.126222,-264.005047,1.677595,63.08474
7.8372,-0.003512,0.005595,-0.010433,0.002601,-0.011967,0.020134,-0.009077,-0.504383,-0.010388,0.126222,-264.005047,1.677595,63.08474
7.8569,-0.004112,0.005026,-0.011632,0.00254,-0.011683,0.019657,-0.008734,-0.504853,-0.009634,0.126222,-264.003964,1.677595,63.074659
7.8772,-0.004124,0.004728,-0.009912,0.002466,-0.011343,0.019085,-0.009482,-0.504964,-0.010692,0.126222,-264.003964,1.677595,63.074659
7.8969,-0.003741,0.004959,-0.010937,0.002378,-0.010939,0.018405,-0.009482,-0.504964,-0.010692,0.126222,-264.003964,1.677595,63.074659
7.9165,-0.00461,0.004405,-0.008089,0.002276,-0.010472,0.01762,-0.009199,-0.505592,-0.009961,0.126222,-264.002922,1.677595,63.064962
7.9366,-0.004164,0.004472,-0.007368,0.002161,-0.009943,0.016729,-0.009169,-0.505604,-0.009827,0.126222,-264.002922,1.677595,63.064962
7.957,-0.004862,0.003944,-0.007692,0.002032,-0.009347,0.015726,-0.007833,-0.505937,-0.006657,0.126222,-264.001963,1.677595,63.056038
7.9773,-0.004823,0.00382,-0.006823,0.00189,-0.008694,0.014627,-0.008362,-0.50605,-0.007155,0.126222,-264.001963,1.677595,63.056038
7.9969,-0.004687,0.003553,-0.007779,0.001735,-0.00798,0.013426,-0.008362,-0.50605,-0.007155,0.126222,-264.001963,1.677595,63.056038
8.0175,-0.005223,0.003136,-0.006895,0.001561,-0.007182,0.012084,-0.008553,-0.506916,-0.006966,0.126222,-264.001092,1.677595,63.047929
8.0372,-0.004983,0.003231,-0.007326,0.001382,-0.006359,0.010699,-0.008563,-0.506924,-0.00694,0.126222,-264.001092,1.677595,63.047929
8.057,-0.005234,0.003157,-0.005607,0.001186,-0.005456,0.00918,-0.008654,-0.507065,-0.006806,0.126222,-264.000392,1.677595,63.041411
8.0769,-0.005567,0.002455,-0.006842,0.000976,-0.004492,0.007558,-0.008326,-0.506973,-0.006056,0.126222,-264.000392,1.677595,63.041411
8.0968,-0.005216,0.003123,-0.004339,0.000753,-0.003464,0.005827,-0.008326,-0.506973,-0.006056,0.126222,-264.000392,1.677595,63.041411
8.1171,-0.005483,0.002682,-0.004024,0.000513,-0.002361,0.003972,-0.007363,-0.507182,-0.003819,0.126222,-263.999832,1.677595,63.036202
8.1371,-0.005338,0.002586,-0.007131,0.000265,-0.001219,0.002051,-0.007375,-0.507202,-0.003819,0.126222,-263.999832,1.677595,63.036202
8.1573,-0.005911,0.002445,-0.005348,0.0,0.0,0.0,-0.008946,-0.507535,-0.006907,0.126222,-263.99953,1.677595,63.03339
8.1772,-0.005635,0.002025,-0.005301,0.0,0.0,0.0,-0.008767,-0.507559,-0.005991,0.126222,-263.99953,1.677595,63.03339
8.1969,-0.005649,0.002655,-0.004556,0.0,0.0,0.0,-0.008767,-0.507559,-0.005991,0.126222,-263.99953,1.677595,63.03339
8.2171,-0.005734,0.002046,-0.006016,0.0,0.0,0.0,-0.00796,-0.507399,-0.004457,0.126222,-263.999423,1.677595,63.032396
8.2376,-0.005933,0.002097,-0.004255,0.0,0.0,0.0,-0.008016,-0.507437,-0.004559,0.126222,-263.999423,1.677595,63.032396
8.2568,-0.005378,0.002263,-0.005178,0.0,0.0,0.0,-0.008103,-0.507899,-0.004255,0.126222,-263.999423,1.677595,63.032396
8.2772,-0.0057,0.002169,-0.005107,0.0,0.0,0.0,-0.008057,-0.507807,-0.00476,0.126222,-263.999423,1.677595,63.032396
8.297,-0.005281,0.00217,-0.005063,0.0,0.0,0.0,-0.008057,-0.507807,-0.00476,0.126222,-263.999423,1.677595,63.032396
8.3166,-0.005335,0.001881,-0.004535,0.0,0.0,0.0,-0.007864,-0.507823,-0.005063,0.126222,-263.999423,1.677595,63.032396
8.3369,-0.005584,0.002204,-0.004287,0.0,0.0,0.0,-0.00785,-0.507842,-0.005029,0.126222,-263.999423,1.677595,63.032396
8.3566,-0.005832,0.002296,-0.006189,0.0,0.0,0.0,-0.00777,-0.507792,-0.004287,0.126222,-263.999423,1.677595,63.032396
8.3766,-0.005623,0.002256,-0.003868,0.0,0.0,0.0,-0.008461,-0.507736,-0.005366,0.126222,-263.999423,1.677595,63.032396
8.3971,-0.00546,0.002277,-0.005057,9.3e-05,-3.7e-05,0.0,-0.008461,-0.507736,-0.005366,0.126222,-263.999423,1.677595,63.032396
8.4169,-0.005428,0.002625,-0.003547,9.3e-05,-3.7e-05,0.0,-0.008039,-0.507716,-0.005057,0.126222,-263.999423,1.677595,63.032396
8.4372,-0.005653,0.002112,-0.005647,9.3e-05,-3.7e-05,0.0,-0.007984,-0.507692,-0.004953,0.126222,-263.999423,1.677595,63.032396
8.4572,-0.005688,0.002318,-0.004822,9.3e-05,-3.7e-05,0.0,-0.008533,-0.50788,-0.005647,0.051221,-263.999423,1.602594,63.032396
8.4774,-0.005459,0.002379,-0.00496,9.3e-05,-3.7e-05,0.0,-0.008317,-0.507766,-0.005186,0.051221,-263.999423,1.602594,63.032396
8.497,-0.005925,0.002285,-0.002173,9.3e-05,-3.7e-05,0.0,-0.008317,-0.507766,-0.005186,0.051221,-263.999423,1.602594,63.032396
8.517,-0.005441,0.002175,-0.004939,9.3e-05,-3.7e-05,0.0,-0.007033,-0.507714,-0.002173,-0.023794,-263.999423,1.527579,63.032396
8.5371,-0.005582,0.002481,-0.00445,9.3e-05,-3.7e-05,0.0,-0.007093,-0.50772,-0.002354,-0.023794,-263.999423,1.527579,63.032396
8.5566,-0.005514,0.002049,-0.005137,9.3e-05,-3.7e-05,0.0,-0.007852,-0.507514,-0.00445,-0.098786,-263.999423,1.452588,63.032396
8.5765,-0.005916,0.002494,-0.00426,9.3e-05,-3.7e-05,0.0,-0.008013,-0.507759,-0.004841,-0.098786,-263.999423,1.452588,63.032396
8.5965,-0.005495,0.002161,-0.004728,9.3e-05,-3.7e-05,0.0,-0.008013,-0.507759,-0.004841,-0.098786,-263.999423,1.452588,63.032396
8.6166,-0.005568,0.002452,-0.004394,0.000814,-0.000323,0.000559,-0.007906,-0.507833,-0.004728,-0.173778,-263.999423,1.377595,63.032396
8.6368,-0.006044,0.002325,-0.004729,0.001594,-0.000633,0.001095,-0.0079,-0.507814,-0.004706,-0.173778,-263.999423,1.377595,63.032396
8.6571,-0.005773,0.002655,-0.00366,0.002334,-0.000926,0.001603,-0.008456,-0.50767,-0.004729,-0.248772,-263.999423,1.302602,63.032396
8.6774,-0.006055,0.002464,-0.004419,0.003031,-0.001203,0.002082,-0.007991,-0.507483,-0.00412,-0.248772,-263.999423,1.302602,63.032396
8.6972,-0.005535,0.002321,-0.0033,0.003687,-0.001463,0.002532,-0.007991,-0.507483,-0.00412,-0.248772,-263.999423,1.302602,63.032396
8.7169,-0.005202,0.002073,-0.004441,0.0043,-0.001706,0.002953,-0.007218,-0.507676,-0.0033,-0.173773,-263.999423,1.227602,63.032396
8.7368,-0.006009,0.002191,-0.003932,0.004871,-0.001933,0.003346,-0.007235,-0.507693,-0.003379,-0.173773,-263.999423,1.227602,63.032396
8.7568,-0.00582,0.002387,-0.005022,0.0054,-0.002142,0.003709,-0.008014,-0.507805,-0.003932,-0.098769,-263.999423,1.152599,63.032396
8.7766,-0.005761,0.002356,-0.00478,0.005886,-0.002336,0.004043,-0.008222,-0.507692,-0.00455,-0.098769,-263.999423,1.152599,63.032396
8.7967,-0.005682,0.002287,-0.005628,0.006332,-0.002512,0.004349,-0.008222,-0.507692,-0.00455,-0.098769,-263.999423,1.152599,63.032396
8.8167,-0.00571,0.002149,-0.005383,0.006733,-0.002671,0.004625,-0.008552,-0.507704,-0.005628,-0.023768,-263.999423,1.077597,63.032397
8.8374,-0.005648,0.002147,-0.003663,0.007092,-0.002814,0.004871,-0.008545,-0.507714,-0.005611,-0.023768,-263.999423,1.077597,63.032397
8.8566,-0.005494,0.002679,-0.003741,0.007409,-0.00294,0.005089,-0.007516,-0.507849,-0.003663,0.022719,-263.999423,1.002589,63.032397
8.8769,-0.005554,0.002496,-0.004387,0.007684,-0.003049,0.005278,-0.007451,-0.507547,-0.003707,0.022719,-263.999423,1.002589,63.032397
8.8969,-0.005526,0.002403,-0.005485,0.007917,-0.003141,0.005438,-0.007451,-0.507547,-0.003707,0.022719,-263.999423,1.002589,63.032397
8.9171,-0.00588,0.00226,-0.003704,0.008108,-0.003217,0.005569,-0.008323,-0.507589,-0.005485,0.022719,-263.999422,0.927594,63.032397
8.9372,-0.005148,0.0023,-0.004557,0.008256,-0.003276,0.005671,-0.008284,-0.507599,-0.00536,0.022719,-263.999422,0.927594,63.032397
8.9566,-0.005624,0.002293,-0.004785,0.008365,-0.003319,0.005745,-0.007473,-0.507694,-0.004557,0.022719,-263.999422,0.852594,63.032398
8.9766,-0.005624,0.002197,-0.005006,0.008426,-0.003343,0.005788,-0.007809,-0.507698,-0.004687,0.022719,-263.999422,0.852594,63.032398
8.9967,-0.005354,0.002447,-0.00595,0.008448,-0.003352,0.005802,-0.007809,-0.507698,-0.004687,0.022719,-263.999422,0.852594,63.032398
9.017,-0.005935,0.002269,-0.004806,0.008427,-0.003344,0.005788,-0.008389,-0.507544,-0.00595,0.022719,-263.999422,0.777599,63.032398
9.0371,-0.005545,0.002437,-0.004164,0.008365,-0.003319,0.005745,-0.008388,-0.507556,-0.005873,0.022719,-263.999422,0.777599,63.032398
9.0568,-0.005617,0.002559,-0.004814,0.00826,-0.003277,0.005673,-0.007668,-0.507559,-0.004164,0.022719,-263.999421,0.702589,63.032399
9.0767,-0.0058,0.002442,-0.005681,0.008113,-0.003219,0.005572,-0.0079,-0.507488,-0.004536,0.022719,-263.999421,0.702589,63.032399
9.0965,-0.005572,0.002347,-0.005176,0.007923,-0.003144,0.005442,-0.0079,-0.507488,-0.004536,0.022719,-263.999421,0.702589,63.032399
9.1165,-0.005635,0.002325,-0.002203,0.007691,-0.003052,0.005283,-0.008212,-0.507646,-0.005176,0.022719,-263.999421,0.627482,63.032399
9.1368,-0.005782,0.001825,-0.005344,0.007417,-0.002943,0.005094,-0.008111,-0.507648,-0.00497,0.022719,-263.999421,0.627482,63.032399
9.1566,-0.005763,0.002322,-0.003879,0.007101,-0.002817,0.004877,-0.008507,-0.508167,-0.005344,0.022719,-263.999421,0.5526,63.032399
9.1768,-0.005702,0.002006,-0.003667,0.006742,-0.002675,0.004631,-0.008071,-0.507886,-0.00451,0.022719,-263.999421,0.5526,63.032399
9.1967,-0.005568,0.002117,-0.003347,0.006341,-0.002516,0.004355,-0.008071,-0.507886,-0.00451,0.022719,-263.999421,0.5526,63.032399
9.2167,-0.005747,0.002029,-0.005637,0.005897,-0.00234,0.004051,-0.007274,-0.50788,-0.003347,0.022719,-263.99942,0.477604,63.0324
9.237,-0.005966,0.002196,-0.003304,0.005413,-0.002148,0.003718,-0.007378,-0.507886,-0.003523,0.022719,-263.99942,0.477604,63.0324
9.2565,-0.005321,0.002318,-0.005326,0.004883,-0.001937,0.003354,-0.007651,-0.507801,-0.003304,0.022719,-263.99942,0.402277,63.0324
9.2764,-0.005539,0.002828,-0.00399,0.004317,-0.001713,0.002965,-0.007872,-0.507729,-0.004462,0.022719,-263.99942,0.402277,63.0324
9.2965,-0.006024,0.002156,-0.004061,0.003705,-0.00147,0.002545,-0.007872,-0.507729,-0.004462,0.022719,-263.99942,0.402277,63.0324
9.3165,-0.005492,0.002295,-0.004515,0.003051,-0.00121,0.002095,-0.008095,-0.50784,-0.004061,0.022719,-263.99942,0.327492,63.0324
9.3371,-0.005392,0.002172,-0.005447,0.002354,-0.000934,0.001617,-0.008073,-0.50783,-0.004094,0.022719,-263.99942,0.327492,63.0324
9.3565,-0.0055,0.002434,-0.004966,0.001615,-0.000641,0.001109,-0.008169,-0.507821,-0.005447,0.022719,-263.99942,0.2525,63.032401
9.3767,-0.005718,0.002243,-0.003163,0.000834,-0.000331,0.000573,-0.00809,-0.50767,-0.005169,0.022719,-263.99942,0.2525,63.032401
9.3965,-0.005849,0.0022,-0.004827,1e-05,-4e-06,7e-06,-0.00809,-0.50767,-0.005169,0.022719,-263.99942,0.2525,63.032401
9.4166,-0.00565,0.002219,-0.004444,0.0,0.0,0.0,-0.008311,-0.507794,-0.004827,0.022719,-263.99942,0.177387,63.032401
9.4366,-0.005591,0.002245,-0.003921,0.0,0.0,0.0,-0.008285,-0.507793,-0.004802,0.022719,-263.99942,0.177387,63.032401
9.4565,-0.005535,0.00246,-0.005681,0.0,0.0,0.0,-0.007591,-0.507751,-0.003921,0.022719,-263.99942,0.102601,63.032401
9.4765,-0.00602,0.002198,-0.004034,0.0,0.0,0.0,-0.008072,-0.507626,-0.004928,0.022719,-263.99942,0.102601,63.032401
9.4966,-0.005792,0.002418,-0.005066,0.0,0.0,0.0,-0.008072,-0.507626,-0.004928,0.022719,-263.99942,0.102601,63.032401
9.5169,-0.005528,0.002482,-0.005494,0.0,0.0,0.0,-0.008375,-0.507575,-0.005066,0.022719,-263.99942,0.102601,63.032401
9.5372,-0.005668,0.002571,-0.004095,0.0,0.0,0.0,-0.008372,-0.507571,-0.005094,0.022719,-263.99942,0.102601,63.032401
9.5573,-0.005448,0.001962,-0.00444,0.0,0.0,0.0,-0.007756,-0.507425,-0.004095,0.022719,-263.99942,0.102601,63.032401
9.5769,-0.005699,0.002431,-0.005957,0.0,0.0,0.0,-0.007731,-0.50777,-0.004291,0.022719,-263.99942,0.102601,63.032401
9.5968,-0.005489,0.002199,-0.004084,0.0,0.0,0.0,-0.007731,-0.50777,-0.004291,0.022719,-263.99942,0.102601,63.032401
9.617,-0.005545,0.002417,-0.006671,0.0,0.0,0.0,-0.007572,-0.507797,-0.004084,0.022719,-263.99942,0.102601,63.032401
9.6366,-0.005466,0.002538,-0.005552,9.2e-05,-3.9e-05,0.0,-0.007683,-0.507779,-0.004293,0.022719,-263.99942,0.102601,63.032401
9.657,-0.005326,0.00235,-0.003393,9.2e-05,-3.9e-05,0.0,-0.008298,-0.507455,-0.005552,0.022719,-263.99942,0.102601,63.032401
9.6771,-0.005907,0.001994,-0.004758,9.2e-05,-3.9e-05,0.0,-0.007587,-0.507565,-0.004316,0.022719,-263.99942,0.102601,63.032401
9.6971,-0.005644,0.002221,-0.003948,9.2e-05,-3.9e-05,0.0,-0.007587,-0.507565,-0.004316,0.022719,-263.99942,0.102601,63.032401
9.7171,-0.005685,0.00245,-0.004408,9.2e-05,-3.9e-05,0.0,-0.007658,-0.507775,-0.003948,-0.052002,-263.99942,0.02788,63.032401
9.7369,-0.005929,0.001954,-0.004756,9.2e-05,-3.9e-05,0.0,-0.007682,-0.507755,-0.003988,-0.052002,-263.99942,0.02788,63.032401
9.7569,-0.005744,0.002153,-0.004241,9.2e-05,-3.9e-05,0.0,-0.008354,-0.50804,-0.004756,-0.127509,-263.999419,-0.047627,63.032401
9.7771,-0.005554,0.001983,-0.005101,9.2e-05,-3.9e-05,0.0,-0.008098,-0.507926,-0.004461,-0.127509,-263.999419,-0.047627,63.032401
9.7967,-0.005617,0.002455,-0.005178,9.2e-05,-3.9e-05,0.0,-0.008098,-0.507926,-0.004461,-0.127509,-263.999419,-0.047627,63.032401
9.8167,-0.005764,0.002272,-0.003351,9.2e-05,-3.9e-05,0.0,-0.008258,-0.507538,-0.005178,-0.20204,-263.999418,-0.122158,63.032402
9.8371,-0.005916,0.002085,-0.005311,1e-06,-0.0,1e-06,-0.008201,-0.507552,-0.005045,-0.20204,-263.999418,-0.122158,63.032402
9.8569,-0.00546,0.002592,-0.004341,0.000815,-0.000349,0.000977,-0.008624,-0.507908,-0.005311,-0.27701,-263.999412,-0.197129,63.032408
9.8768,-0.005489,0.002086,-0.003828,0.001584,-0.000678,0.0019,-0.008079,-0.507619,-0.004755,-0.27701,-263.999412,-0.197129,63.032408
9.8967,-0.005696,0.002311,-0.006171,0.002315,-0.000991,0.002776,-0.008079,-0.507619,-0.004755,-0.27701,-263.999412,-0.197129,63.032408
9.9173,-0.005723,0.002181,-0.004165,0.003007,-0.001287,0.003607,-0.008843,-0.507679,-0.006171,-0.201995,-263.999412,-0.272144,63.032408
9.937,-0.0057,0.001776,-0.004096,0.003649,-0.001562,0.004377,-0.008771,-0.507689,-0.006025,-0.201995,-263.999412,-0.272144,63.032408
9.9567,-0.005562,0.002223,-0.003349,0.004255,-0.001821,0.005104,-0.007789,-0.508219,-0.004096,-0.127026,-263.999412,-0.347113,63.032408
9.9766,-0.005196,0.002395,-0.006468,0.004817,-0.002061,0.005778,-0.007491,-0.507964,-0.003668,-0.127026,-263.999412,-0.347113,63.032408
9.9966,-0.005393,0.002398,-0.005492,0.005339,-0.002285,0.006404,-0.007491,-0.507964,-0.003668,-0.127026,-263.999412,-0.347113,63.032408
10.0165,-0.005773,0.002576,-0.005217,0.005819,-0.00249,0.00698,-0.008193,-0.507594,-0.005491,-0.051978,-263.999411,-0.422161,63.03241
10.037,-0.005405,0.002442,-0.004844,0.006256,-0.002678,0.007505,-0.008211,-0.507581,-0.005471,-0.051978,-263.999411,-0.422161,63.03241
10.0568,-0.005862,0.002168,-0.004882,0.006654,-0.002848,0.007981,-0.007874,-0.507553,-0.004843,0.023031,-263.999398,-0.49717,63.032429
10.0771,-0.006032,0.002122,-0.005178,0.007009,-0.003,0.008407,-0.00815,-0.507711,-0.004866,0.023031,-263.999398,-0.49717,63.032429
10.0974,-0.005873,0.001718,-0.004722,0.00732,-0.003133,0.00878,-0.00815,-0.507711,-0.004866,0.023031,-263.999398,-0.49717,63.032429
10.1166,-0.005375,0.002336,-0.004957,0.007591,-0.003249,0.009106,-0.008269,-0.50828,-0.004714,0.098141,-263.999307,-0.57228,63.032562
10.1367,-0.005682,0.002122,-0.005256,0.00782,-0.003347,0.009381,-0.008243,-0.508238,-0.004731,0.098141,-263.999307,-0.57228,63.032562
10.1572,-0.005744,0.002106,-0.00359,0.008008,-0.003427,0.009606,-0.008318,-0.507886,-0.00522,0.172883,-263.998879,-0.647022,63.03319
10.1767,-0.005651,0.002532,-0.005445,0.008154,-0.00349,0.009781,-0.007889,-0.507891,-0.004287,0.172883,-263.998879,-0.647022,63.03319
10.1968,-0.005329,0.002887,-0.00538,0.008258,-0.003534,0.009906,-0.007889,-0.507891,-0.004287,0.172883,-263.998879,-0.647022,63.03319
10.2169,-0.005327,0.002441,-0.004202,0.008321,-0.003561,0.009981,-0.007918,-0.507161,-0.00523,0.248001,-263.99764,-0.72214,63.035006
10.2366,-0.005349,0.002011,-0.004398,0.008342,-0.00357,0.010006,-0.007883,-0.507189,-0.005155,0.248001,-263.99764,-0.72214,63.035006
10.2567,-0.005688,0.002201,-0.004201,0.00832,-0.003561,0.009981,-0.007358,-0.508075,-0.004138,0.295715,-263.995186,-0.797179,63.038601
10.2772,-0.005174,0.001857,-0.003298,0.008258,-0.003534,0.009906,-0.007596,-0.507927,-0.004141,0.295715,-263.995186,-0.797179,63.038601
10.2966,-0.005286,0.002102,-0.005624,0.008153,-0.003489,0.009779,-0.007596,-0.507927,-0.004141,0.295715,-263.995186,-0.797179,63.038601
10.3169,-0.005586,0.001942,-0.005096,0.008008,-0.003427,0.009606,-0.007773,-0.508055,-0.005166,0.295715,-263.991896,-0.85959,63.043423
10.3371,-0.005185,0.002218,-0.002774,0.00782,-0.003347,0.009381,-0.007794,-0.508059,-0.005148,0.295715,-263.991896,-0.85959,63.043423
10.3566,-0.005007,0.001845,-0.003159,0.007591,-0.003249,0.009105,-0.006287,-0.507915,-0.002398,0.295715,-263.988501,-0.85959,63.048399
10.3767,-0.005114,0.002096,-0.001353,0.007319,-0.003132,0.008779,-0.006435,-0.508067,-0.002783,0.295715,-263.988501,-0.85959,63.048399
10.397,-0.005266,0.00181,-0.00276,0.007007,-0.002999,0.008405,-0.006435,-0.508067,-0.002783,0.295715,-263.988501,-0.85959,63.048399
10.4167,-0.004554,0.00177,-0.003391,0.006652,-0.002847,0.00798,-0.006294,-0.508352,-0.002304,0.295715,-263.985231,-0.85959,63.053191
10.4369,-0.005185,0.001696,-0.002484,0.006255,-0.002677,0.007503,-0.006283,-0.508348,-0.002368,0.295715,-263.985231,-0.85959,63.053191
10.4568,-0.004926,0.001772,-0.002744,0.005817,-0.00249,0.006978,-0.006181,-0.508418,-0.002159,0.295715,-263.982301,-0.85959,63.057484
10.4768,-0.004758,0.001727,-0.002854,0.005339,-0.002285,0.006404,-0.006229,-0.508324,-0.002451,0.295715,-263.982301,-0.85959,63.057484
10.4972,-0.004792,0.001587,-0.002458,0.004817,-0.002062,0.005778,-0.006229,-0.508324,-0.002451,0.295715,-263.982301,-0.85959,63.057484
10.5168,-0.004437,0.001459,-0.002333,0.004249,-0.001819,0.005097,-0.005742,-0.508543,-0.002093,0.295715,-263.979682,-0.85959,63.061322
10.5371,-0.004704,0.00119,-0.002609,0.003649,-0.001562,0.004377,-0.005725,-0.508546,-0.0021,0.295715,-263.979682,-0.85959,63.061322
10.5571,-0.004517,0.001291,-0.001523,0.002999,-0.001283,0.003597,-0.005849,-0.508888,-0.002386,0.295715,-263.977667,-0.85959,63.064275
10.5768,-0.004388,0.001254,-0.001375,0.002311,-0.000989,0.002772,-0.005508,-0.508796,-0.001865,0.295715,-263.977667,-0.85959,63.064275
10.5969,-0.004521,0.001643,-0.000906,0.001584,-0.000678,0.001901,-0.005508,-0.508796,-0.001865,0.295715,-263.977667,-0.85959,63.064275
10.617,-0.004366,0.001122,-0.002716,0.000812,-0.000348,0.000974,-0.004806,-0.508433,-0.000693,0.295715,-263.976144,-0.85959,63.066508
10.6372,-0.004828,0.000885,-0.000492,1e-06,-0.0,1e-06,-0.004862,-0.508463,-0.000818,0.295715,-263.976144,-0.85959,63.066508
10.657,-0.004144,0.001117,-0.002091,0.0,0.0,0.0,-0.005017,-0.509141,-0.000418,0.295715,-263.97548,-0.85959,63.06748
10.6766,-0.004733,0.001294,-0.00317,0.0,0.0,0.0,-0.00512,-0.508996,-0.001368,0.295715,-263.97548,-0.85959,63.06748
10.6967,-0.004251,0.001248,-0.002228,0.0,0.0,0.0,-0.00512,-0.508996,-0.001368,0.295715,-263.97548,-0.85959,63.06748
10.7166,-0.004299,0.001103,-0.002259,0.0,0.0,0.0,-0.005387,-0.508751,-0.002228,0.295715,-263.97548,-0.85959,63.06748
10.737,-0.004264,0.000887,0.000623,0.0,0.0,0.0,-0.005392,-0.508761,-0.00223,0.295715,-263.97548,-0.85959,63.06748
10.7566,-0.004745,0.000749,-0.000238,0.0,0.0,0.0,-0.003946,-0.509113,0.000623,0.295715,-263.97548,-0.85959,63.06748
10.7766,-0.004512,0.001314,-0.001198,0.0,0.0,0.0,-0.004474,-0.509192,0.00013,0.295715,-263.97548,-0.85959,63.06748
10.7971,-0.004533,0.000503,-0.001367,0.0,0.0,0.0,-0.004474,-0.509192,0.00013,0.295715,-263.97548,-0.85959,63.06748
10.8167,-0.004408,0.000924,-0.002601,0.0,0.0,0.0,-0.00523,-0.509497,-0.001367,0.295715,-263.97548,-0.85959,63.06748
10.8366,-0.004557,0.000946,-0.001905,0.0,0.0,0.0,-0.005265,-0.509467,-0.001454,0.295715,-263.97548,-0.85959,63.06748
10.8567,-0.004471,0.001402,-0.002646,9.8e-05,-2e-05,0.0,-0.005529,-0.509053,-0.001905,0.295715,-263.97548,-0.85959,63.06748
10.8766,-0.004682,0.000961,-0.001982,9.8e-05,-2e-05,0.0,-0.005696,-0.508792,-0.002329,0.295715,-263.97548,-0.85959,63.06748
10.8966,-0.004094,0.001034,-0.002012,9.8e-05,-2e-05,0.0,-0.005696,-0.508792,-0.002329,0.295715,-263.97548,-0.85959,63.06748
10.9167,-0.004548,0.000673,-0.001407,9.8e-05,-2e-05,0.0,-0.00512,-0.508965,-0.002012,0.295715,-263.97548,-0.85959,63.06748
10.937,-0.004829,0.000687,-0.001466,9.8e-05,-2e-05,0.0,-0.00513,-0.508992,-0.001967,0.295715,-263.97548,-0.85959,63.06748
10.9566,-0.00474,0.001043,-0.001104,9.8e-05,-2e-05,0.0,-0.005577,-0.509312,-0.001466,0.22074,-263.97548,-0.784615,63.06748
10.9767,-0.004476,0.000734,-0.000525,9.8e-05,-2e-05,0.0,-0.005421,-0.50911,-0.00126,0.22074,-263.97548,-0.784615,63.06748
10.9966,-0.004263,0.001051,-0.002516,9.8e-05,-2e-05,0.0,-0.005421,-0.50911,-0.00126,0.22074,-263.97548,-0.784615,63.06748
11.0167,-0.004507,0.000934,-0.001967,9.8e-05,-2e-05,0.0,-0.005546,-0.508947,-0.002516,0.145847,-263.97548,-0.709722,63.06748
11.0371,-0.00425,0.001058,-0.001809,9.8e-05,-2e-05,0.0,-0.005544,-0.508956,-0.002475,0.145847,-263.97548,-0.709722,63.06748
11.0566,-0.004545,0.001047,-0.001182,3e-06,-1e-06,1e-06,-0.005173,-0.508942,-0.001809,0.070719,-263.97548,-0.634594,63.06748
11.077,-0.004367,0.000865,-0.00279,0.00067,-0.000138,0.00028,-0.005159,-0.508948,-0.001451,0.070719,-263.97548,-0.634594,63.06748
11.0974,-0.004815,0.000875,-0.000897,0.001299,-0.000267,0.000543,-0.005159,-0.508948,-0.001451,0.070719,-263.97548,-0.634594,63.06748
11.1167,-0.004606,0.001222,8.1e-05,0.001898,-0.00039,0.000793,-0.005272,-0.509125,-0.000897,-0.004262,-263.975479,-0.559613,63.067481
11.1367,-0.00455,0.001128,-0.001913,0.002464,-0.000507,0.00103,-0.005226,-0.509102,-0.000833,-0.004262,-263.975479,-0.559613,63.067481
11.1566,-0.004355,0.001332,-0.001463,0.003008,-0.000619,0.001257,-0.00549,-0.50888,-0.001896,0.049539,-263.975097,-0.484728,63.067902
11.1771,-0.004471,0.000784,-0.001588,0.003487,-0.000717,0.001457,-0.005264,-0.50876,-0.001648,0.049539,-263.975097,-0.484728,63.067902
11.197,-0.004242,0.001057,-0.002198,0.003949,-0.000812,0.00165,-0.005264,-0.50876,-0.001648,0.049539,-263.975097,-0.484728,63.067902
11.2168,-0.004412,0.000837,-0.002976,0.004377,-0.0009,0.001829,-0.005248,-0.508965,-0.00215,0.049539,-263.974154,-0.431859,63.068938
11.2367,-0.004139,0.001012,-0.000629,0.00477,-0.000981,0.001993,-0.005292,-0.508979,-0.002205,0.049539,-263.974154,-0.431859,63.068938
11.2568,-0.004262,0.000975,-0.001093,0.005135,-0.001056,0.002146,-0.004308,-0.50902,-0.000566,0.049539,-263.972572,-0.431859,63.070678
11.2768,-0.004421,0.001393,-0.002359,0.005455,-0.001122,0.00228,-0.004579,-0.509027,-0.000857,0.049539,-263.972572,-0.431859,63.070678
11.2967,-0.004068,0.001225,-0.001598,0.005745,-0.001181,0.002401,-0.004579,-0.509027,-0.000857,0.049539,-263.972572,-0.431859,63.070678
11.3168,-0.003978,0.001004,-0.000976,0.006001,-0.001234,0.002508,-0.004651,-0.508823,-0.001501,0.049539,-263.97066,-0.431859,63.072782
11.3368,-0.004434,0.000858,-0.001068,0.006223,-0.00128,0.002601,-0.004632,-0.508836,-0.001461,0.049539,-263.97066,-0.431859,63.072782
11.3568,-0.003621,0.000966,-0.000888,0.006417,-0.00132,0.002681,-0.004757,-0.509188,-0.000975,0.049539,-263.968359,-0.431859,63.075312
11.3769,-0.003661,0.001281,-0.001628,0.006566,-0.00135,0.002744,-0.004338,-0.509106,-0.000914,0.049539,-263.968359,-0.431859,63.075312
11.3969,-0.003943,0.00119,-0.001273,0.006685,-0.001375,0.002794,-0.004338,-0.509106,-0.000914,0.049539,-263.968359,-0.431859,63.075312
11.4168,-0.00393,0.001103,0.000641,0.006771,-0.001392,0.002829,-0.00429,-0.508872,-0.001146,0.049539,-263.96587,-0.431859,63.078049
11.4366,-0.003375,0.000939,-0.000409,0.006822,-0.001403,0.002851,-0.004233,-0.508875,-0.001017,0.049539,-263.96587,-0.431859,63.078049
11.4575,-0.003469,0.000696,-0.001309,0.006839,-0.001406,0.002858,-0.003326,-0.509114,-0.000301,0.049539,-263.963185,-0.431859,63.081002
11.4768,-0.003329,0.001009,-0.001089,0.006822,-0.001403,0.002851,-0.003761,-0.50923,-0.000869,0.049539,-263.963185,-0.431859,63.081002
11.4967,-0.003391,0.000903,-0.000657,0.00677,-0.001392,0.002829,-0.003761,-0.50923,-0.000869,0.049539,-263.963185,-0.431859,63.081002
11.5167,-0.003048,0.000782,-0.000306,0.006685,-0.001375,0.002794,-0.003396,-0.509165,-0.000519,0.049539,-263.960461,-0.431859,63.083997
11.5377,-0.002892,0.00087,0.000833,0.006565,-0.00135,0.002744,-0.003374,-0.509171,-0.000501,0.049539,-263.960461,-0.431859,63.083997
11.5569,-0.003009,0.000502,0.000753,0.006411,-0.001318,0.002679,-0.002205,-0.509183,0.000943,0.049539,-263.957745,-0.431859,63.086984
11.5769,-0.003005,0.000399,-0.001479,0.006223,-0.00128,0.0026,-0.002412,-0.50937,0.000848,0.049539,-263.957745,-0.431859,63.086984
11.5973,-0.002676,0.000353,0.001276,0.006,-0.001234,0.002507,-0.002412,-0.50937,0.000848,0.049539,-263.957745,-0.431859,63.086984
