mach0312/omni-docking-bench/src/icros_test_setup/results/kinematic_sample/timeseries/trial_036.csv
t,x,y,yaw,vx,vy,wz,bl_x,bl_y,bl_yaw,front_steering_joint,front_wheel_joint,rear_steering_joint,rear_wheel_joint
0.0,-0.069677,0.018735,0.08482,0.00456,0.00068,0.003332,-0.026901,-0.489618,0.084727,0.537021,-264.829919,-0.288921,62.395441
0.0004,-0.069235,0.018693,0.084523,0.0,0.0,0.0,-0.026901,-0.489618,0.084727,0.537021,-264.82691,-0.288921,62.398138
0.0008,-0.069514,0.018584,0.086636,0.0,0.0,0.0,-0.027652,-0.490029,0.082785,0.537021,-264.825274,-0.288921,62.399605
0.0011,-0.069966,0.01889,0.084364,0.0,0.0,0.0,-0.027545,-0.489985,0.082954,0.537021,-264.824698,-0.288921,62.400121
0.0014,-0.069844,0.018803,0.08462,0.0,0.0,0.0,-0.027545,-0.489985,0.082954,0.537021,-264.824698,-0.288921,62.400121
0.0017,-0.069791,0.018807,0.084736,0.0,0.0,0.0,-0.026959,-0.489335,0.083697,0.537021,-264.824698,-0.288921,62.400121
0.002,-0.069451,0.018327,0.084306,0.0,0.0,0.0,-0.026959,-0.489335,0.083697,0.537021,-264.824698,-0.288921,62.400121
0.0023,-0.06983,0.01866,0.084566,0.0,0.0,0.0,-0.027554,-0.489571,0.083259,0.537021,-264.824698,-0.288921,62.400121
0.0025,-0.069832,0.018632,0.085037,0.0,0.0,0.0,-0.027554,-0.489571,0.083259,0.537021,-264.824698,-0.288921,62.400121
0.0027,-0.069524,0.01878,0.084496,0.0,0.0,0.0,-0.027554,-0.489571,0.083259,0.537021,-264.824698,-0.288921,62.400121
0.019,-0.069693,0.018665,0.083984,0.016,-0.016,-0.03,-0.026617,-0.489522,0.084835,0.537021,-264.824698,-0.288921,62.400121
0.0383,-0.069729,0.018699,0.08569,0.032,-0.024446,-0.05,-0.026911,-0.489537,0.083984,0.537021,-264.824698,-0.288921,62.400121
0.0593,-0.069808,0.019025,0.084723,0.048,-0.024598,-0.05,-0.026851,-0.48953,0.084108,0.537021,-264.824698,-0.288921,62.400121
0.0787,-0.069523,0.018339,0.086329,0.064,-0.024864,-0.05,-0.026651,-0.489146,0.084723,0.461924,-264.824698,-0.213824,62.400121
0.0982,-0.069513,0.018962,0.084501,0.067683,-0.024265,-0.05,-0.026032,-0.489492,0.085625,0.461924,-264.824698,-0.213824,62.400121
0.1183,-0.069886,0.018654,0.083517,0.067664,-0.024761,-0.05,-0.026032,-0.489492,0.085625,0.461924,-264.824698,-0.213824,62.400121
0.1385,-0.069661,0.018294,0.085832,0.068086,-0.024419,-0.05,-0.027342,-0.489568,0.083517,0.387011,-264.824698,-0.138911,62.400121
0.1586,-0.069478,0.018834,0.082617,0.067836,-0.024198,-0.05,-0.02724,-0.489587,0.083685,0.387011,-264.824698,-0.138911,62.400121
0.1785,-0.06946,0.019048,0.087135,0.067687,-0.024503,-0.05,-0.027392,-0.489427,0.082617,0.311923,-264.824696,-0.063823,62.400122
0.1984,-0.069371,0.018579,0.085143,0.067539,-0.025021,-0.05,-0.026077,-0.489194,0.085183,0.311923,-264.824696,-0.063823,62.400122
0.2183,-0.069741,0.018393,0.085649,0.067539,-0.024411,-0.05,-0.026077,-0.489194,0.085183,0.311923,-264.824696,-0.063823,62.400122
0.2383,-0.069748,0.018491,0.085804,0.067912,-0.024291,-0.05,-0.026113,-0.489738,0.085649,0.237012,-264.824694,0.011088,62.400124
0.2586,-0.069567,0.018711,0.084191,0.067907,-0.0244,-0.05,-0.026108,-0.48973,0.085659,0.237012,-264.824694,0.011088,62.400124
0.2783,-0.069679,0.018579,0.086438,0.067748,-0.024495,-0.05,-0.02668,-0.489483,0.084191,0.162025,-264.824691,0.086075,62.400127
0.2984,-0.069252,0.01879,0.084269,0.067815,-0.024525,-0.05,-0.026091,-0.489502,0.085478,0.162025,-264.824691,0.086075,62.400127
0.319,-0.069782,0.01845,0.084239,0.067424,-0.024552,-0.05,-0.026091,-0.489502,0.085478,0.162025,-264.824691,0.086075,62.400127
0.3383,-0.069687,0.018954,0.085069,0.067983,-0.024256,-0.05,-0.026871,-0.489741,0.084239,0.086881,-264.824687,0.090137,62.400129
0.3585,-0.069787,0.01846,0.083774,0.067825,-0.024807,-0.05,-0.026835,-0.489704,0.084297,0.086881,-264.824687,0.090137,62.400129
0.3786,-0.069657,0.018555,0.086872,0.067998,-0.024235,-0.05,-0.027112,-0.489751,0.083774,0.011907,-264.824683,0.088541,62.400133
0.3988,-0.069581,0.018738,0.085108,0.067784,-0.024529,-0.05,-0.026132,-0.489619,0.085556,0.011907,-264.824683,0.088541,62.400133
0.4183,-0.069787,0.018719,0.085129,0.067736,-0.024584,-0.05,-0.026132,-0.489619,0.085556,0.011907,-264.824683,0.088541,62.400133
0.4386,-0.069681,0.018415,0.084819,0.067942,-0.024585,-0.05,-0.026422,-0.489434,0.085129,-0.063135,-264.824672,0.084293,62.400141
0.4587,-0.069789,0.018906,0.084826,0.06787,-0.024252,-0.05,-0.026427,-0.489462,0.085102,-0.063135,-264.824672,0.084293,62.400141
0.4785,-0.069948,0.018565,0.086411,0.067936,-0.024751,-0.05,-0.026575,-0.48926,0.084825,-0.138526,-264.824621,0.08766,62.400181
0.4983,-0.069456,0.018755,0.083696,0.068085,-0.024532,-0.05,-0.026206,-0.489416,0.085734,-0.138526,-264.824621,0.08766,62.400181
0.5184,-0.069805,0.0187,0.084367,0.067645,-0.024496,-0.05,-0.026206,-0.489416,0.085734,-0.138526,-264.824621,0.08766,62.400181
0.5383,-0.069811,0.018866,0.08598,0.067981,-0.024516,-0.05,-0.026802,-0.489485,0.08436,-0.213097,-264.824365,0.092341,62.400381
0.5588,-0.069804,0.018754,0.086037,0.067933,-0.024791,-0.05,-0.026746,-0.489469,0.084473,-0.213097,-264.824365,0.092341,62.400381
0.5787,-0.069529,0.018554,0.085181,0.067934,-0.024683,-0.05,-0.025904,-0.489362,0.086012,-0.287985,-264.823474,0.089075,62.401075
0.5987,-0.069758,0.018554,0.085274,0.067698,-0.024402,-0.05,-0.026029,-0.489497,0.085534,-0.287985,-264.823474,0.089075,62.401075
0.6187,-0.069647,0.018569,0.083331,0.067924,-0.024428,-0.05,-0.026029,-0.489497,0.085534,-0.287985,-264.823474,0.089075,62.401075
0.6382,-0.069073,0.018522,0.0838,0.067859,-0.024302,-0.05,-0.026916,-0.489685,0.083219,-0.363091,-264.820795,0.084392,62.403159
0.6588,-0.069147,0.018593,0.085117,0.067281,-0.024238,-0.05,-0.026871,-0.489686,0.083256,-0.363091,-264.820795,0.084392,62.403159
0.6783,-0.068625,0.018346,0.084334,0.067316,-0.024404,-0.05,-0.025338,-0.489608,0.084911,-0.438118,-264.815614,0.0897,62.407746
0.6981,-0.068594,0.018617,0.082841,0.066835,-0.024062,-0.05,-0.025468,-0.489748,0.084554,-0.438118,-264.815614,0.0897,62.407746
0.7182,-0.068818,0.018663,0.082761,0.066819,-0.024229,-0.05,-0.025468,-0.489748,0.084554,-0.438118,-264.815614,0.0897,62.407746
0.7382,-0.067482,0.01807,0.084139,0.067039,-0.024288,-0.05,-0.025812,-0.489711,0.082321,-0.513138,-264.807923,0.093356,62.414842
0.7589,-0.067663,0.018569,0.084811,0.065725,-0.023677,-0.05,-0.025694,-0.489746,0.08245,-0.513138,-264.807923,0.093356,62.414842
0.7787,-0.066256,0.018567,0.083188,0.065847,-0.024234,-0.05,-0.023577,-0.489753,0.084294,-0.588213,-264.797759,0.094133,62.424413
0.7985,-0.065771,0.018434,0.082812,0.064484,-0.024008,-0.05,-0.023637,-0.489725,0.083596,-0.588213,-264.797759,0.094133,62.424413
0.8185,-0.066216,0.018507,0.082045,0.064021,-0.023812,-0.05,-0.023637,-0.489725,0.083596,-0.588213,-264.797759,0.094133,62.424413
0.8385,-0.064085,0.017919,0.082942,0.064476,-0.023871,-0.05,-0.023053,-0.490066,0.081142,-0.663106,-264.785097,0.104004,62.436482
0.859,-0.063794,0.017795,0.082163,0.06238,-0.023167,-0.05,-0.022943,-0.490089,0.081234,-0.663106,-264.785097,0.104004,62.436482
0.8784,-0.061928,0.017944,0.081561,0.062119,-0.022971,-0.05,-0.020647,-0.490782,0.081263,-0.703872,-264.769905,0.104675,62.451079
0.899,-0.061819,0.017694,0.080856,0.06026,-0.022929,-0.05,-0.020331,-0.49058,0.081319,-0.703872,-264.769905,0.104675,62.451079
0.9187,-0.061712,0.017515,0.081219,0.060188,-0.02263,-0.05,-0.020331,-0.49058,0.081319,-0.703872,-264.769905,0.104675,62.451079
0.9387,-0.058983,0.017532,0.079674,0.060088,-0.022464,-0.05,-0.01845,-0.491233,0.079872,-0.710803,-264.752247,0.117613,62.468143
0.9585,-0.059365,0.016959,0.079615,0.057401,-0.022171,-0.05,-0.018399,-0.491219,0.079825,-0.710803,-264.752247,0.117613,62.468143
0.9787,-0.056285,0.017172,0.077308,0.057828,-0.021626,-0.05,-0.017098,-0.491816,0.078354,-0.723541,-264.732045,0.13064,62.48775
0.9985,-0.056084,0.016796,0.07674,0.05479,-0.021468,-0.05,-0.016768,-0.491574,0.077599,-0.723541,-264.732045,0.13064,62.48775
1.0185,-0.055848,0.016777,0.077111,0.054632,-0.021046,-0.05,-0.016768,-0.491574,0.077599,-0.723541,-264.732045,0.13064,62.48775
1.0385,-0.052846,0.016213,0.076269,0.05439,-0.02103,-0.05,-0.014161,-0.492267,0.075264,-0.742806,-264.709398,0.144744,62.509804
1.0587,-0.052659,0.016719,0.076525,0.051457,-0.020192,-0.05,-0.014096,-0.492282,0.075281,-0.742806,-264.709398,0.144744,62.509804
1.0788,-0.048878,0.016149,0.07542,0.051226,-0.020695,-0.05,-0.011698,-0.492297,0.07486,-0.756712,-264.68418,0.172012,62.531691
1.099,-0.04915,0.015934,0.073681,0.047522,-0.019786,-0.05,-0.010736,-0.492421,0.07497,-0.756712,-264.68418,0.172012,62.531691
1.1187,-0.049079,0.016052,0.074352,0.047844,-0.019509,-0.05,-0.010736,-0.492421,0.07497,-0.756712,-264.68418,0.172012,62.531691
1.1385,-0.045313,0.015287,0.072553,0.047751,-0.019653,-0.05,-0.008707,-0.493293,0.072015,-0.778281,-264.656543,0.198407,62.552266
1.1586,-0.045094,0.015186,0.071732,0.044086,-0.018531,-0.05,-0.008622,-0.493317,0.071991,-0.778281,-264.656543,0.198407,62.552266
1.1789,-0.041811,0.014362,0.069287,0.043889,-0.018379,-0.05,-0.006692,-0.494109,0.069848,-0.807899,-264.629581,0.226551,62.571386
1.1984,-0.041782,0.014518,0.067687,0.040717,-0.017223,-0.05,-0.00635,-0.494358,0.069291,-0.807899,-264.629581,0.226551,62.571386
1.2184,-0.041412,0.014744,0.070014,0.040704,-0.017311,-0.05,-0.00635,-0.494358,0.069291,-0.807899,-264.629581,0.226551,62.571386
1.2383,-0.038138,0.013432,0.065554,0.040279,-0.017605,-0.05,-0.003617,-0.49473,0.067674,-0.838841,-264.604199,0.265891,62.588967
1.2589,-0.038289,0.013982,0.069146,0.037176,-0.015902,-0.05,-0.003638,-0.4948,0.067468,-0.838841,-264.604199,0.265891,62.588967
1.2785,-0.035137,0.013089,0.065789,0.037232,-0.016594,-0.05,-0.001519,-0.495332,0.06731,-0.865898,-264.580306,0.314191,62.605246
1.2983,-0.03523,0.013515,0.064565,0.0342,-0.015371,-0.05,-0.001375,-0.49567,0.066212,-0.865898,-264.580306,0.314191,62.605246
1.3187,-0.034679,0.013053,0.064849,0.034284,-0.01576,-0.05,-0.001375,-0.49567,0.066212,-0.865898,-264.580306,0.314191,62.605246
1.3388,-0.032409,0.01272,0.060892,0.03376,-0.015273,-0.05,9.4e-05,-0.496485,0.062589,-0.89573,-264.558202,0.375051,62.620092
1.3586,-0.032322,0.012634,0.062419,0.031574,-0.014668,-0.05,3.9e-05,-0.496491,0.062416,-0.89573,-264.558202,0.375051,62.620092
1.3786,-0.029104,0.011685,0.059688,0.031471,-0.014626,-0.05,0.000799,-0.496879,0.06056,-0.933385,-264.536037,0.406977,62.634456
1.3985,-0.028702,0.011948,0.059847,0.028355,-0.0134,-0.05,0.00126,-0.497244,0.059829,-0.933385,-264.536037,0.406977,62.634456
1.4184,-0.029297,0.011961,0.061232,0.027936,-0.013643,-0.05,0.00126,-0.497244,0.059829,-0.933385,-264.536037,0.406977,62.634456
1.4388,-0.026561,0.01163,0.05739,0.02851,-0.013731,-0.05,0.003384,-0.497662,0.058961,-0.961105,-264.515424,0.465723,62.647666
1.4586,-0.026292,0.011497,0.058171,0.02585,-0.013135,-0.05,0.003375,-0.497668,0.058792,-0.961105,-264.515424,0.465723,62.647666
1.4789,-0.023796,0.011125,0.055976,0.025579,-0.013006,-0.05,0.004331,-0.498049,0.05648,-1.006956,-264.49707,0.540703,62.65913
1.4983,-0.024145,0.011033,0.056304,0.023136,-0.012438,-0.05,0.004686,-0.498117,0.055977,-1.006956,-264.49707,0.540703,62.65913
1.5185,-0.024276,0.010987,0.05482,0.023486,-0.012375,-0.05,0.004686,-0.498117,0.055977,-1.006956,-264.49707,0.540703,62.65913
1.5388,-0.021744,0.010466,0.053212,0.023637,-0.012301,-0.05,0.004886,-0.498785,0.052523,-1.03634,-264.477913,0.592525,62.670892
1.5583,-0.021996,0.010747,0.053209,0.021156,-0.011608,-0.05,0.00495,-0.498801,0.05251,-1.03634,-264.477913,0.592525,62.670892
1.5786,-0.019712,0.01015,0.050627,0.021393,-0.011901,-0.05,0.00598,-0.498925,0.051441,-1.070022,-264.459949,0.658274,62.681796
1.5988,-0.019438,0.010175,0.050281,0.019173,-0.011135,-0.05,0.006155,-0.499131,0.050749,-1.070022,-264.459949,0.658274,62.681796
1.6186,-0.019332,0.010117,0.051188,0.018902,-0.011139,-0.05,0.006155,-0.499131,0.050749,-1.070022,-264.459949,0.658274,62.681796
1.6386,-0.017213,0.009725,0.049398,0.018789,-0.011093,-0.05,0.007713,-0.499676,0.048999,-1.105564,-264.442955,0.72991,62.692026
1.6586,-0.017475,0.009789,0.048544,0.016712,-0.010564,-0.049398,0.007756,-0.499687,0.048968,-1.105564,-264.442955,0.72991,62.692026
1.6787,-0.014962,0.009229,0.046084,0.01698,-0.010626,-0.048544,0.007951,-0.499968,0.046795,-1.145002,-264.426367,0.79836,62.701843
1.6986,-0.015348,0.009231,0.045462,0.014521,-0.009908,-0.046084,0.008367,-0.500162,0.046169,-1.145002,-264.426367,0.79836,62.701843
1.7183,-0.015078,0.009611,0.046311,0.014913,-0.009919,-0.045462,0.008367,-0.500162,0.046169,-1.145002,-264.426367,0.79836,62.701843
1.7383,-0.013419,0.009045,0.042755,0.014617,-0.010298,-0.046311,0.009292,-0.500276,0.044125,-1.181457,-264.410311,0.864915,62.711238
1.7587,-0.013375,0.008849,0.044567,0.01302,-0.00961,-0.042755,0.009247,-0.500304,0.043965,-1.181457,-264.410311,0.864915,62.711238
1.7787,-0.011471,0.008698,0.041507,0.012968,-0.009437,-0.044567,0.009935,-0.501,0.042822,-1.19397,-264.394156,0.874723,62.720509
1.7984,-0.011776,0.008503,0.043256,0.0111,-0.009166,-0.041507,0.00987,-0.500966,0.041845,-1.19397,-264.394156,0.874723,62.720509
1.8184,-0.011624,0.008355,0.041572,0.011398,-0.009004,-0.043256,0.00987,-0.500966,0.041845,-1.19397,-264.394156,0.874723,62.720509
1.8384,-0.009446,0.008086,0.040345,0.011267,-0.008831,-0.041572,0.010206,-0.501634,0.039547,-1.221297,-264.379317,0.90283,62.728713
1.8585,-0.009525,0.00812,0.036721,0.009112,-0.008461,-0.040345,0.01029,-0.501637,0.039548,-1.221297,-264.379317,0.90283,62.728713
1.8788,-0.008221,0.007878,0.036856,0.00922,-0.008464,-0.036721,0.009592,-0.501824,0.035288,-1.259499,-264.366495,0.977814,62.735885
1.8984,-0.008105,0.007768,0.03723,0.007925,-0.008176,-0.036856,0.0102,-0.501833,0.035997,-1.259499,-264.366495,0.977814,62.735885
1.9184,-0.008196,0.007877,0.037398,0.00781,-0.008065,-0.03723,0.0102,-0.501833,0.035997,-1.259499,-264.366495,0.977814,62.735885
1.9384,-0.00683,0.007784,0.036928,0.007896,-0.008178,-0.037398,0.011275,-0.502113,0.035683,-1.302182,-264.354478,1.052794,62.742384
1.9586,-0.007169,0.007551,0.036609,0.006538,-0.00803,-0.036928,0.011335,-0.502106,0.035723,-1.302182,-264.354478,1.052794,62.742384
1.9786,-0.005495,0.007648,0.03342,0.006888,-0.007809,-0.036609,0.011804,-0.502402,0.035199,-1.322483,-264.342018,1.081689,62.748902
1.9986,-0.005342,0.007145,0.034328,0.006888,-0.007809,-0.036609,0.011697,-0.502249,0.034011,-1.322483,-264.342018,1.081689,62.748902
2.0185,-0.005512,0.00694,0.034843,5.7e-05,-8.2e-05,0.0,0.011697,-0.502249,0.034011,-1.322483,-264.342018,1.081689,62.748902
2.0385,-0.004548,0.006844,0.033987,5.7e-05,-8.2e-05,0.0,0.012556,-0.503097,0.033205,-1.360197,-264.330617,1.147801,62.754708
2.0583,-0.004194,0.006985,0.031758,5.7e-05,-8.2e-05,0.0,0.012579,-0.50309,0.033215,-1.360197,-264.330617,1.147801,62.754708
2.0782,-0.004307,0.006682,0.032347,5.7e-05,-8.2e-05,0.0,0.012021,-0.502822,0.031651,-1.285202,-264.329212,1.072806,62.754708
2.0984,-0.004341,0.006573,0.033168,5.7e-05,-8.2e-05,0.0,0.012119,-0.502961,0.032036,-1.285202,-264.329212,1.072806,62.754708
2.1182,-0.004268,0.006502,0.032018,5.7e-05,-8.2e-05,0.0,0.012119,-0.502961,0.032036,-1.285202,-264.329212,1.072806,62.754708
2.1385,-0.00404,0.006582,0.031656,5.7e-05,-8.2e-05,0.0,0.012058,-0.503236,0.032018,-1.210046,-264.329212,0.99765,62.754708
2.1582,-0.004445,0.006536,0.031923,5.7e-05,-8.2e-05,0.0,0.012061,-0.503231,0.031993,-1.210046,-264.329212,0.99765,62.754708
2.1787,-0.004046,0.006719,0.031249,5.7e-05,-8.2e-05,0.0,0.011833,-0.503204,0.031923,-1.135051,-264.329212,0.922655,62.754708
2.1984,-0.004148,0.006847,0.031837,5.7e-05,-8.2e-05,0.0,0.011865,-0.503106,0.031537,-1.135051,-264.329212,0.922655,62.754708
2.2184,-0.004531,0.006713,0.03415,5.7e-05,-8.2e-05,0.0,0.011865,-0.503106,0.031537,-1.135051,-264.329212,0.922655,62.754708
2.2383,-0.00388,0.006605,0.031793,0.000745,-0.001071,-0.00502,0.012882,-0.50299,0.03415,-1.060052,-264.329212,0.847656,62.754708
2.2583,-0.003978,0.006192,0.031311,0.001451,-0.002087,-0.009783,0.012841,-0.503001,0.033976,-1.060052,-264.329212,0.847656,62.754708
2.2787,-0.004176,0.006692,0.033188,0.002121,-0.00305,-0.014295,0.011988,-0.503558,0.031311,-0.98507,-264.329212,0.772674,62.754708
2.2986,-0.004223,0.006768,0.032542,0.002751,-0.003955,-0.018539,0.012423,-0.503254,0.032387,-0.98507,-264.329212,0.772674,62.754708
2.3188,-0.004191,0.00661,0.031633,0.003343,-0.004807,-0.02253,0.012423,-0.503254,0.032387,-0.98507,-264.329212,0.772674,62.754708
2.339,-0.004164,0.006602,0.032547,0.003896,-0.005603,-0.026258,0.01194,-0.503135,0.031632,-1.060069,-264.329203,0.847673,62.754712
2.3586,-0.004295,0.006472,0.031611,0.004412,-0.006344,-0.029734,0.011973,-0.503135,0.031694,-1.060069,-264.329203,0.847673,62.754712
2.3783,-0.004417,0.006872,0.032062,0.00489,-0.007032,-0.032958,0.011829,-0.503276,0.031597,-1.134943,-264.329064,0.922547,62.754783
2.3985,-0.004619,0.006808,0.031968,0.005329,-0.007664,-0.035919,0.011889,-0.503039,0.031864,-1.134943,-264.329064,0.922547,62.754783
2.4185,-0.004228,0.006423,0.033227,0.00573,-0.00824,-0.038617,0.011889,-0.503039,0.031864,-1.134943,-264.329064,0.922547,62.754783
2.4384,-0.004236,0.006653,0.03106,0.006093,-0.008762,-0.041065,0.012748,-0.503321,0.033111,-1.2103,-264.328206,0.997904,62.755217
2.4585,-0.004175,0.006416,0.030633,0.006417,-0.009229,-0.043253,0.01267,-0.503307,0.032967,-1.2103,-264.328206,0.997904,62.755217
2.4785,-0.004163,0.006412,0.032871,0.006704,-0.009641,-0.045185,0.011535,-0.50342,0.030253,-1.285041,-264.324859,1.072645,62.757028
2.4984,-0.003911,0.006579,0.032415,0.006954,-0.010001,-0.046872,0.012151,-0.503369,0.031695,-1.285041,-264.324859,1.072645,62.757028
2.5184,-0.004049,0.006552,0.031728,0.007162,-0.0103,-0.048273,0.012151,-0.503369,0.031695,-1.285041,-264.324859,1.072645,62.757028
2.5385,-0.003048,0.006503,0.030089,0.007335,-0.010548,-0.049436,0.012315,-0.503294,0.030768,-1.359932,-264.319011,1.147536,62.761337
2.5586,-0.003013,0.006452,0.031714,0.007468,-0.010739,-0.050333,0.012319,-0.503295,0.030695,-1.359932,-264.319011,1.147536,62.761337
2.5784,-0.001942,0.006545,0.02958,0.007563,-0.010877,-0.050978,0.013347,-0.503374,0.030559,-1.39267,-264.310653,1.213463,62.768155
2.5981,-0.001929,0.006235,0.028324,0.007621,-0.010959,-0.051363,0.013253,-0.503303,0.029852,-1.39267,-264.310653,1.213463,62.768155
2.6186,-0.002154,0.006363,0.028788,0.00764,-0.010986,-0.051492,0.013253,-0.503303,0.029852,-1.39267,-264.310653,1.213463,62.768155
2.6383,-0.000811,0.006225,0.026005,0.007621,-0.010959,-0.051363,0.012829,-0.50358,0.026929,-1.39267,-264.299814,1.213463,62.776685
2.6587,-0.000897,0.006619,0.026339,0.007563,-0.010877,-0.050977,0.012812,-0.503585,0.026822,-1.39267,-264.299814,1.213463,62.776685
2.6783,0.000649,0.005917,0.025454,0.007465,-0.010735,-0.050313,0.012802,-0.503436,0.024654,-1.39267,-264.286466,1.213463,62.785421
2.6985,0.000764,0.006074,0.023252,0.007334,-0.010547,-0.04943,0.013307,-0.50374,0.024896,-1.39267,-264.286466,1.213463,62.785421
2.7188,0.000244,0.006356,0.024642,0.007162,-0.0103,-0.048273,0.013307,-0.50374,0.024896,-1.39267,-264.286466,1.213463,62.785421
2.7389,0.002426,0.005615,0.022534,0.006952,-0.009998,-0.046858,0.013177,-0.503937,0.022278,-1.39267,-264.270596,1.213463,62.794083
2.759,0.002547,0.005348,0.021961,0.006704,-0.009641,-0.045185,0.013235,-0.50397,0.022235,-1.39267,-264.270596,1.213463,62.794083
2.7787,0.003964,0.005054,0.020171,0.006417,-0.009229,-0.043253,0.014032,-0.504921,0.020093,-1.39267,-264.254421,1.213463,62.802277
2.7984,0.003936,0.005123,0.019508,0.006092,-0.00876,-0.041059,0.014193,-0.504926,0.019903,-1.39267,-264.254421,1.213463,62.802277
2.8183,0.003644,0.004928,0.021988,0.00573,-0.00824,-0.038621,0.014193,-0.504926,0.019903,-1.39267,-264.254421,1.213463,62.802277
2.8386,0.005239,0.004574,0.017465,0.005329,-0.007663,-0.035917,0.015192,-0.50541,0.019797,-1.39267,-264.239293,1.213463,62.80994
2.8585,0.005388,0.004335,0.018426,0.004889,-0.00703,-0.032949,0.015125,-0.505418,0.019566,-1.39267,-264.239293,1.213463,62.80994
2.8785,0.006552,0.004168,0.014475,0.004411,-0.006344,-0.029732,0.015014,-0.505896,0.016923,-1.39267,-264.226354,1.213463,62.816495
2.8983,0.006365,0.004278,0.016859,0.003893,-0.005599,-0.026241,0.01443,-0.505868,0.015351,-1.39267,-264.226354,1.213463,62.816495
2.9188,0.006386,0.004373,0.014755,0.003343,-0.004807,-0.02253,0.01443,-0.505868,0.015351,-1.39267,-264.226354,1.213463,62.816495
2.9388,0.007625,0.003881,0.013893,0.002743,-0.003945,-0.01849,0.014153,-0.50591,0.013154,-1.39267,-264.215335,1.213463,62.822076
2.9587,0.007785,0.003807,0.016297,0.00212,-0.003049,-0.01429,0.014196,-0.505929,0.013162,-1.39267,-264.215335,1.213463,62.822076
2.9784,0.008212,0.003557,0.012967,0.001428,-0.002053,-0.009622,0.016228,-0.506309,0.015427,-1.39267,-264.207776,1.213463,62.825905
2.9985,0.008702,0.003506,0.011895,0.000741,-0.001065,-0.004993,0.015439,-0.506384,0.013904,-1.39267,-264.207776,1.213463,62.825905
3.0183,0.008616,0.00384,0.012248,0.0,0.0,0.0,0.015439,-0.506384,0.013904,-1.39267,-264.207776,1.213463,62.825905
3.0385,0.00907,0.003525,0.011735,0.0,0.0,0.0,0.014967,-0.506269,0.011553,-1.39267,-264.202989,1.213463,62.828331
3.0582,0.009133,0.00341,0.013467,0.0,0.0,0.0,0.014976,-0.506285,0.011547,-1.39267,-264.202989,1.213463,62.828331
3.0785,0.008765,0.003325,0.013149,0.0,0.0,0.0,0.016001,-0.506544,0.013467,-1.39267,-264.202989,1.213463,62.828331
3.0987,0.008995,0.00366,0.012029,0.0,0.0,0.0,0.015695,-0.506594,0.013284,-1.39267,-264.202989,1.213463,62.828331
3.1185,0.009183,0.003425,0.013693,0.0,0.0,0.0,0.015695,-0.506594,0.013284,-1.39267,-264.202989,1.213463,62.828331
3.1383,0.008821,0.003461,0.013307,0.0,0.0,0.0,0.016166,-0.506528,0.013693,-1.39267,-264.202989,1.213463,62.828331
3.1588,0.008527,0.003395,0.012677,0.0,0.0,0.0,0.01613,-0.506525,0.013668,-1.39267,-264.202989,1.213463,62.828331
3.1783,0.008915,0.003301,0.013281,0.0,0.0,0.0,0.014992,-0.506564,0.012677,-1.39267,-264.202989,1.213463,62.828331
3.1983,0.008829,0.003554,0.013844,0.0,0.0,0.0,0.015391,-0.506616,0.013024,-1.39267,-264.202989,1.213463,62.828331
3.2183,0.009228,0.003726,0.012303,0.0,0.0,0.0,0.015391,-0.506616,0.013024,-1.39267,-264.202989,1.213463,62.828331
3.2384,0.008999,0.003538,0.011578,0.0,0.0,0.0,0.015502,-0.506235,0.012303,-1.39267,-264.202989,1.213463,62.828331
3.2588,0.008772,0.003596,0.012919,-9.3e-05,-3.6e-05,0.0,0.015458,-0.506249,0.012249,-1.39267,-264.202989,1.213463,62.828331
3.2783,0.008485,0.003432,0.011778,-9.3e-05,-3.6e-05,0.0,0.015361,-0.506362,0.012919,-1.39267,-264.202989,1.213463,62.828331
3.2986,0.009347,0.003437,0.013243,-9.3e-05,-3.6e-05,0.0,0.014866,-0.506459,0.01227,-1.39267,-264.202989,1.213463,62.828331
3.3183,0.008719,0.00354,0.012192,-9.3e-05,-3.6e-05,0.0,0.014866,-0.506459,0.01227,-1.39267,-264.202989,1.213463,62.828331
3.3384,0.009253,0.003346,0.01301,-9.3e-05,-3.6e-05,0.0,0.014937,-0.506423,0.012192,-1.317812,-264.202989,1.138605,62.828331
3.3585,0.008662,0.003346,0.013881,-9.3e-05,-3.6e-05,0.0,0.015005,-0.506436,0.012251,-1.317812,-264.202989,1.138605,62.828331
3.379,0.008963,0.003513,0.012997,-9.3e-05,-3.6e-05,0.0,0.015741,-0.506604,0.013881,-1.242676,-264.202989,1.063469,62.828331
3.3985,0.009224,0.003493,0.013319,-9.3e-05,-3.6e-05,0.0,0.015658,-0.506516,0.013392,-1.242676,-264.202989,1.063469,62.828331
3.4183,0.008913,0.003518,0.011332,-9.3e-05,-3.6e-05,0.0,0.015658,-0.506516,0.013392,-1.242676,-264.202989,1.063469,62.828331
3.4383,0.008814,0.003385,0.012396,-9.3e-05,-3.6e-05,0.0,0.014692,-0.506449,0.011332,-1.167808,-264.202989,0.988601,62.828331
3.4582,0.008869,0.003328,0.013618,-0.0,-0.0,-0.0,0.014725,-0.506458,0.01141,-1.167808,-264.202989,0.988601,62.828331
3.4784,0.009023,0.003617,0.01376,-0.001323,-0.000503,-0.001694,0.015814,-0.506625,0.013618,-1.092704,-264.202989,0.913496,62.828331
3.4983,0.008815,0.003381,0.01302,-0.002576,-0.000979,-0.0033,0.015944,-0.506458,0.0137,-1.092704,-264.202989,0.913496,62.828331
3.5184,0.008757,0.003498,0.011438,-0.003762,-0.001429,-0.004819,0.015944,-0.506458,0.0137,-1.092704,-264.202989,0.913496,62.828331
3.5384,0.009146,0.003606,0.011864,-0.004885,-0.001856,-0.006257,0.01459,-0.506469,0.011438,-1.017626,-264.202989,0.838418,62.828331
3.5583,0.008741,0.003094,0.012396,-0.005932,-0.002253,-0.007597,0.014636,-0.50646,0.01147,-1.017626,-264.202989,0.838418,62.828331
3.5783,0.009063,0.003747,0.011511,-0.006917,-0.002627,-0.00886,0.015063,-0.506867,0.012396,-0.942556,-264.202989,0.763348,62.828331
3.5986,0.008911,0.003404,0.011984,-0.007832,-0.002975,-0.010032,0.014989,-0.506496,0.011889,-0.942556,-264.202989,0.763348,62.828331
3.6183,0.008874,0.00347,0.014115,-0.008677,-0.003296,-0.011114,0.014989,-0.506496,0.011889,-0.942556,-264.202989,0.763348,62.828331
3.6383,0.009275,0.003622,0.012972,-0.009458,-0.003593,-0.012114,0.016072,-0.506479,0.014115,-0.867669,-264.202989,0.688462,62.828331
3.6587,0.008769,0.003308,0.012657,-0.010169,-0.003863,-0.013025,0.01606,-0.506469,0.014035,-0.867669,-264.202989,0.688462,62.828331
3.6783,0.008965,0.003712,0.012634,-0.010814,-0.004107,-0.01385,0.015224,-0.506651,0.012657,-0.792799,-264.202989,0.613591,62.828331
3.6983,0.008963,0.003087,0.013655,-0.011397,-0.004329,-0.014597,0.01533,-0.506419,0.012644,-0.792799,-264.202989,0.613591,62.828331
3.7183,0.008868,0.003285,0.013692,-0.011899,-0.00452,-0.015241,0.01533,-0.506419,0.012644,-0.792799,-264.202989,0.613591,62.828331
3.7387,0.008669,0.003615,0.013888,-0.012339,-0.004687,-0.015804,0.015851,-0.506668,0.013692,-0.717625,-264.202989,0.538417,62.828331
3.7589,0.009095,0.003139,0.013046,-0.012712,-0.004828,-0.016281,0.015844,-0.506643,0.013706,-0.717625,-264.202989,0.538417,62.828331
3.7783,0.009134,0.003347,0.011427,-0.013017,-0.004944,-0.016672,0.015748,-0.506818,0.013046,-0.64267,-264.202989,0.463462,62.828331
3.7983,0.00867,0.003927,0.013129,-0.013254,-0.005034,-0.016976,0.015302,-0.506706,0.012127,-0.64267,-264.202989,0.463462,62.828331
3.8189,0.008962,0.003705,0.013035,-0.013424,-0.005099,-0.017193,0.015302,-0.506706,0.012127,-0.64267,-264.202989,0.463462,62.828331
3.8383,0.008753,0.003098,0.012108,-0.013525,-0.005137,-0.017323,0.01561,-0.506251,0.013035,-0.567813,-264.202989,0.388606,62.828331
3.8582,0.009387,0.003546,0.012024,-0.013559,-0.00515,-0.017367,0.015574,-0.506283,0.012987,-0.567813,-264.202989,0.388606,62.828331
3.8784,0.008824,0.003294,0.012108,-0.013525,-0.005137,-0.017323,0.01552,-0.506417,0.012024,-0.49274,-264.202989,0.313533,62.828331
3.8984,0.008945,0.003457,0.012185,-0.013423,-0.005099,-0.017192,0.015223,-0.50656,0.012072,-0.49274,-264.202989,0.313533,62.828331
3.9186,0.008982,0.003591,0.011673,-0.013254,-0.005034,-0.016975,0.015223,-0.50656,0.012072,-0.49274,-264.202989,0.313533,62.828331
3.9385,0.008731,0.003415,0.012619,-0.013017,-0.004944,-0.016672,0.014935,-0.506374,0.011673,-0.417666,-264.202989,0.238458,62.828331
3.9587,0.008947,0.003419,0.013355,-0.01271,-0.004828,-0.016279,0.014953,-0.506387,0.011745,-0.417666,-264.202989,0.238458,62.828331
3.9786,0.009108,0.003544,0.013127,-0.012328,-0.004683,-0.01579,0.015758,-0.506536,0.013355,-0.342442,-264.202989,0.163235,62.828331
3.9982,0.009084,0.003493,0.012554,-0.011895,-0.004518,-0.015235,0.015784,-0.506465,0.013224,-0.342442,-264.202989,0.163235,62.828331
4.0187,0.0087,0.003515,0.01191,-0.011389,-0.004326,-0.014587,0.015784,-0.506465,0.013224,-0.342442,-264.202989,0.163235,62.828331
4.0383,0.009076,0.003812,0.012265,-0.010806,-0.004104,-0.01384,0.014774,-0.506449,0.01191,-0.267663,-264.202989,0.088455,62.828331
4.0583,0.009087,0.003416,0.013307,-0.010169,-0.003863,-0.013025,0.014812,-0.506428,0.011934,-0.267663,-264.202989,0.088455,62.828331
4.0784,0.008649,0.002957,0.011087,-0.009457,-0.003592,-0.012112,0.015874,-0.506539,0.013307,-0.192784,-264.202989,0.013576,62.828331
4.099,0.00919,0.003649,0.013287,-0.008674,-0.003295,-0.01111,0.01498,-0.506808,0.012044,-0.192784,-264.202989,0.013576,62.828331
4.1186,0.009012,0.003305,0.010998,-0.007831,-0.002974,-0.01003,0.01498,-0.506808,0.012044,-0.192784,-264.202989,0.013576,62.828331
4.1383,0.009274,0.003695,0.011287,-0.006911,-0.002625,-0.008851,0.014621,-0.506665,0.010998,-0.117692,-264.202989,-0.061516,62.828331
4.1588,0.009099,0.00348,0.013113,-0.005933,-0.002253,-0.007598,0.014648,-0.506639,0.011017,-0.117692,-264.202989,-0.061516,62.828331
4.1782,0.008991,0.003459,0.01336,-0.004881,-0.001854,-0.006251,0.015787,-0.506476,0.013113,-0.042814,-264.202989,-0.136394,62.82833
4.1985,0.009228,0.003609,0.013206,-0.003759,-0.001428,-0.004814,0.015797,-0.506487,0.013255,-0.042814,-264.202989,-0.136394,62.82833
4.2183,0.008956,0.003661,0.011949,-0.002572,-0.000977,-0.003295,0.015797,-0.506487,0.013255,-0.042814,-264.202989,-0.136394,62.82833
4.2383,0.009155,0.003548,0.013863,-0.001319,-0.000501,-0.001689,0.01505,-0.506302,0.011949,0.032323,-264.202989,-0.21153,62.82833
4.2589,0.009351,0.003322,0.012448,-1e-06,-0.0,-1e-06,0.015135,-0.50631,0.012088,0.032323,-264.202989,-0.21153,62.82833
4.2783,0.008853,0.003346,0.013357,0.0,0.0,0.0,0.015699,-0.506638,0.012448,0.107324,-264.202989,-0.286531,62.82833
4.2986,0.008975,0.00355,0.012594,0.0,0.0,0.0,0.015679,-0.506621,0.012965,0.107324,-264.202989,-0.286531,62.82833
4.3183,0.008496,0.003872,0.012509,0.0,0.0,0.0,0.015679,-0.506621,0.012965,0.107324,-264.202989,-0.286531,62.82833
4.3387,0.009014,0.00312,0.011663,0.0,0.0,0.0,0.014875,-0.506088,0.012509,0.18233,-264.202989,-0.361538,62.82833
4.3587,0.009014,0.003638,0.011877,0.0,0.0,0.0,0.014881,-0.506141,0.01245,0.18233,-264.202989,-0.361538,62.82833
4.3782,0.008989,0.003515,0.014148,0.0,0.0,0.0,0.015071,-0.506326,0.011877,0.18233,-264.202989,-0.361538,62.82833
4.3982,0.008979,0.00355,0.012683,0.0,0.0,0.0,0.01572,-0.506388,0.013177,0.18233,-264.202989,-0.361538,62.82833
4.4184,0.008874,0.003429,0.011523,0.0,0.0,0.0,0.01572,-0.506388,0.013177,0.18233,-264.202989,-0.361538,62.82833
4.4385,0.009008,0.003396,0.012719,0.0,0.0,0.0,0.014751,-0.506538,0.011523,0.18233,-264.202989,-0.361538,62.82833
4.4586,0.008689,0.003531,0.011927,0.0,0.0,0.0,0.014805,-0.506539,0.01161,0.18233,-264.202989,-0.361538,62.82833
4.4788,0.008681,0.003703,0.013446,-9.3e-05,-3.7e-05,0.0,0.014772,-0.506432,0.011927,0.18233,-264.202989,-0.361538,62.82833
4.4991,0.00898,0.003628,0.011879,-9.3e-05,-3.7e-05,0.0,0.015208,-0.506329,0.012791,0.18233,-264.202989,-0.361538,62.82833
4.5183,0.009106,0.003183,0.01422,-9.3e-05,-3.7e-05,0.0,0.015208,-0.506329,0.012791,0.18233,-264.202989,-0.361538,62.82833
4.539,0.009093,0.003639,0.013497,-9.3e-05,-3.7e-05,0.0,0.016358,-0.506765,0.01422,0.18233,-264.202989,-0.361538,62.82833
4.5588,0.008773,0.002935,0.012731,-9.3e-05,-3.7e-05,0.0,0.016325,-0.506727,0.014159,0.18233,-264.202989,-0.361538,62.82833
4.5785,0.008832,0.003401,0.013612,-9.3e-05,-3.7e-05,0.0,0.015266,-0.507024,0.012731,0.257619,-264.202989,-0.286248,62.82833
4.5986,0.00902,0.003596,0.011383,-9.3e-05,-3.7e-05,0.0,0.015553,-0.506757,0.013228,0.257619,-264.202989,-0.286248,62.82833
4.6185,0.00895,0.002986,0.012676,-9.3e-05,-3.7e-05,0.0,0.015553,-0.506757,0.013228,0.257619,-264.202989,-0.286248,62.82833
4.6383,0.008966,0.003255,0.012149,-9.3e-05,-3.7e-05,0.0,0.015414,-0.506973,0.012676,0.332282,-264.202989,-0.211586,62.82833
4.6588,0.008877,0.003486,0.013695,-9.3e-05,-3.7e-05,0.0,0.015397,-0.506955,0.012639,0.332282,-264.202989,-0.211586,62.82833
4.6784,0.008808,0.003579,0.013614,-9.3e-05,-3.7e-05,0.0,0.015862,-0.506466,0.013695,0.37407,-264.202989,-0.136586,62.82833
4.6987,0.009086,0.003084,0.012805,-0.001268,-0.000498,-0.001732,0.015798,-0.506413,0.013649,0.37407,-264.202989,-0.136586,62.82833
4.7185,0.009129,0.003649,0.011978,-0.00248,-0.000973,-0.003387,0.015798,-0.506413,0.013649,0.37407,-264.202989,-0.136586,62.82833
4.7384,0.008984,0.003194,0.012903,-0.003628,-0.001424,-0.004956,0.015237,-0.506315,0.011978,0.37407,-264.20299,-0.061563,62.82833
4.7588,0.008791,0.003196,0.012318,-0.004707,-0.001848,-0.006431,0.015258,-0.506344,0.012038,0.37407,-264.20299,-0.061563,62.82833
4.7788,0.009099,0.00385,0.01407,-0.005724,-0.002247,-0.007819,0.015073,-0.506765,0.012318,0.448928,-264.202992,-0.13642,62.828328
4.7988,0.008764,0.003423,0.011997,-0.006675,-0.00262,-0.009119,0.01576,-0.506385,0.013319,0.448928,-264.202992,-0.13642,62.828328
4.8184,0.00861,0.003272,0.013461,-0.007558,-0.002967,-0.010325,0.01576,-0.506385,0.013319,0.448928,-264.202992,-0.13642,62.828328
4.8388,0.008904,0.003726,0.012322,-0.008378,-0.003289,-0.011446,0.015471,-0.506682,0.013459,0.524067,-264.203027,-0.21156,62.828304
4.8585,0.009184,0.003598,0.012784,-0.00913,-0.003584,-0.012472,0.015449,-0.506648,0.01337,0.524067,-264.203027,-0.21156,62.828304
4.8786,0.009021,0.00351,0.01184,-0.009819,-0.003854,-0.013413,0.015683,-0.506366,0.012767,0.599207,-264.20331,-0.286699,62.828109
4.8987,0.008841,0.003987,0.013291,-0.010444,-0.0041,-0.014267,0.015324,-0.506417,0.012235,0.599207,-264.20331,-0.286699,62.828109
4.9183,0.009179,0.003272,0.012888,-0.010997,-0.004317,-0.015023,0.015324,-0.506417,0.012235,0.599207,-264.20331,-0.286699,62.828109
4.9386,0.009269,0.003156,0.013442,-0.011489,-0.00451,-0.015695,0.015652,-0.506714,0.012789,0.67411,-264.20446,-0.361603,62.827314
4.9587,0.008908,0.00329,0.013169,-0.011918,-0.004678,-0.016281,0.015682,-0.50672,0.012831,0.67411,-264.20446,-0.361603,62.827314
4.9784,0.008551,0.003265,0.010161,-0.012276,-0.004819,-0.01677,0.015414,-0.50673,0.012926,0.748924,-264.207663,-0.416001,62.825102
4.9983,0.008782,0.003478,0.012618,-0.012572,-0.004935,-0.017175,0.014429,-0.506726,0.011318,0.748924,-264.207663,-0.416001,62.825102
5.0185,0.008684,0.003215,0.011951,-0.012801,-0.005025,-0.017488,0.014429,-0.506726,0.011318,0.748924,-264.207663,-0.416001,62.825102
5.0385,0.008322,0.003406,0.012839,-0.012964,-0.005089,-0.01771,0.014339,-0.506907,0.011392,0.824044,-264.213237,-0.416001,62.821252
5.0585,0.008488,0.003318,0.009586,-0.013063,-0.005128,-0.017846,0.014367,-0.506884,0.011488,0.824044,-264.213237,-0.416001,62.821252
5.0783,0.008341,0.002748,0.010006,-0.013096,-0.005141,-0.017891,0.012917,-0.506844,0.008955,0.886935,-264.220821,-0.416001,62.816013
5.0983,0.008301,0.003245,0.009863,-0.013064,-0.005128,-0.017846,0.013159,-0.507087,0.009476,0.886935,-264.220821,-0.416001,62.816013
5.1184,0.008391,0.00297,0.011815,-0.012966,-0.00509,-0.017713,0.013159,-0.507087,0.009476,0.886935,-264.220821,-0.416001,62.816013
5.1383,0.008408,0.002737,0.009701,-0.012803,-0.005026,-0.01749,0.013784,-0.507251,0.010947,0.886935,-264.229124,-0.416001,62.810279
5.1588,0.008122,0.002487,0.00929,-0.012574,-0.004936,-0.017178,0.013731,-0.507258,0.010823,0.886935,-264.229124,-0.416001,62.810279
5.1786,0.007545,0.002137,0.008711,-0.012272,-0.004817,-0.016764,0.012364,-0.50769,0.00861,0.886935,-264.237301,-0.416001,62.804631
5.1984,0.008142,0.00247,0.008687,-0.011918,-0.004679,-0.016281,0.012086,-0.507803,0.008581,0.886935,-264.237301,-0.416001,62.804631
5.2184,0.00782,0.002328,0.009417,-0.011493,-0.004512,-0.0157,0.012086,-0.507803,0.008581,0.886935,-264.237301,-0.416001,62.804631
5.2384,0.008154,0.002137,0.007566,-0.011002,-0.004319,-0.01503,0.012014,-0.507895,0.008583,0.886935,-264.245252,-0.416001,62.799139
5.2588,0.007686,0.002634,0.008902,-0.010449,-0.004102,-0.014274,0.011999,-0.507898,0.008492,0.886935,-264.245252,-0.416001,62.799139
5.2783,0.00777,0.001969,0.006088,-0.009823,-0.003856,-0.013419,0.011783,-0.507524,0.008295,0.886935,-264.252539,-0.416001,62.794106
5.2986,0.007463,0.002168,0.007494,-0.009134,-0.003586,-0.012478,0.011208,-0.507831,0.006955,0.886935,-264.252539,-0.416001,62.794106
5.3188,0.007713,0.001924,0.007098,-0.008387,-0.003292,-0.011457,0.011208,-0.507831,0.006955,0.886935,-264.252539,-0.416001,62.794106
5.3383,0.007735,0.001722,0.007975,-0.007564,-0.002969,-0.010333,0.010827,-0.508266,0.006404,0.886935,-264.259175,-0.416001,62.789522
5.3588,0.00752,0.001319,0.00766,-0.006681,-0.002623,-0.009127,0.010888,-0.508272,0.006507,0.886935,-264.259175,-0.416001,62.789522
5.379,0.007174,0.001588,0.00565,-0.005736,-0.002252,-0.007836,0.011102,-0.508796,0.007215,0.886935,-264.264507,-0.416001,62.785839
5.3984,0.007413,0.001882,0.006163,-0.00472,-0.001853,-0.006447,0.010464,-0.508588,0.006265,0.886935,-264.264507,-0.416001,62.785839
5.4184,0.007814,0.001847,0.005491,-0.003642,-0.00143,-0.004976,0.010464,-0.508588,0.006265,0.886935,-264.264507,-0.416001,62.785839
5.4383,0.007676,0.001436,0.004733,-0.00248,-0.000974,-0.003388,0.010293,-0.508273,0.005052,0.886935,-264.2687,-0.416001,62.782944
5.4586,0.007094,0.001185,0.005533,-0.001285,-0.000505,-0.001756,0.01027,-0.508297,0.005017,0.886935,-264.2687,-0.416001,62.782944
5.4785,0.007174,0.001489,0.006658,-7e-06,-3e-06,-1e-05,0.009775,-0.508864,0.00534,0.886935,-264.271016,-0.416001,62.781344
5.4984,0.007022,0.001691,0.006874,0.0,0.0,0.0,0.010217,-0.50866,0.006078,0.886935,-264.271016,-0.416001,62.781344
5.5183,0.007389,0.001163,0.005374,0.0,0.0,0.0,0.010217,-0.50866,0.006078,0.886935,-264.271016,-0.416001,62.781344
5.5385,0.006778,0.001506,0.00473,0.0,0.0,0.0,0.010068,-0.508854,0.005289,0.886935,-264.271831,-0.416001,62.780781
5.5583,0.00711,0.001428,0.004912,0.0,0.0,0.0,0.009991,-0.508824,0.005239,0.886935,-264.271831,-0.416001,62.780781
5.5785,0.007148,0.001964,0.005014,0.0,0.0,0.0,0.009616,-0.508566,0.004912,0.886935,-264.271831,-0.416001,62.780781
5.5983,0.007056,0.00103,0.005956,0.0,0.0,0.0,0.009667,-0.508258,0.00497,0.886935,-264.271831,-0.416001,62.780781
5.6186,0.007241,0.001418,0.004834,0.0,0.0,0.0,0.009667,-0.508258,0.00497,0.886935,-264.271831,-0.416001,62.780781
5.6383,0.007253,0.001608,0.004757,0.0,0.0,0.0,0.009706,-0.508576,0.004834,0.886935,-264.271831,-0.416001,62.780781
5.6582,0.007246,0.001565,0.005422,0.0,0.0,0.0,0.009704,-0.508563,0.004829,0.886935,-264.271831,-0.416001,62.780781
5.6782,0.00733,0.00162,0.005565,0.0,0.0,0.0,0.010011,-0.508428,0.005422,0.886935,-264.271831,-0.416001,62.780781
5.6986,0.00748,0.001483,0.005175,0.0,0.0,0.0,0.0101,-0.508396,0.005503,0.886935,-264.271831,-0.416001,62.780781
5.7187,0.006991,0.001307,0.004252,-9.8e-05,-1.9e-05,0.0,0.0101,-0.508396,0.005503,0.886935,-264.271831,-0.416001,62.780781
5.7384,0.006981,0.00125,0.004632,-9.8e-05,-1.9e-05,0.0,0.00916,-0.508688,0.004252,0.886935,-264.271831,-0.416001,62.780781
5.7582,0.00775,0.001498,0.00572,-9.8e-05,-1.9e-05,0.0,0.009172,-0.508692,0.004278,0.886935,-264.271831,-0.416001,62.780781
5.7788,0.007447,0.001428,0.005798,-9.8e-05,-1.9e-05,0.0,0.010668,-0.508494,0.00572,0.811939,-264.271831,-0.341006,62.780781
5.7986,0.006946,0.001507,0.005284,-9.8e-05,-1.9e-05,0.0,0.010519,-0.508533,0.005764,0.811939,-264.271831,-0.341006,62.780781
5.8185,0.007059,0.00128,0.006483,-9.8e-05,-1.9e-05,0.0,0.010519,-0.508533,0.005764,0.811939,-264.271831,-0.341006,62.780781
5.8383,0.007115,0.001411,0.00523,-9.8e-05,-1.9e-05,0.0,0.010365,-0.508709,0.006483,0.736813,-264.271831,-0.26588,62.780781
5.8587,0.007301,0.001084,0.006286,-9.8e-05,-1.9e-05,0.0,0.010327,-0.508701,0.006401,0.736813,-264.271831,-0.26588,62.780781
5.8785,0.006871,0.001545,0.006232,-9.8e-05,-1.9e-05,0.0,0.010507,-0.508906,0.006286,0.661925,-264.271831,-0.190991,62.780781
5.8987,0.007064,0.001461,0.004937,-9.8e-05,-1.9e-05,0.0,0.010244,-0.508641,0.006255,0.661925,-264.271831,-0.190991,62.780781
5.9185,0.007234,0.001533,0.007505,-1.9e-05,-4e-06,-1.3e-05,0.010244,-0.508641,0.006255,0.661925,-264.271831,-0.190991,62.780781
5.9383,0.007137,0.001046,0.006114,-0.001093,-0.000211,-0.000756,0.011061,-0.508453,0.007505,0.586792,-264.271831,-0.115858,62.780781
5.9586,0.006865,0.001607,0.004597,-0.002128,-0.000411,-0.001471,0.010998,-0.508492,0.007395,0.586792,-264.271831,-0.115858,62.780781
5.9786,0.007313,0.001179,0.006113,-0.003117,-0.000601,-0.002154,0.009209,-0.508388,0.004597,0.55141,-264.271838,-0.191197,62.780774
5.9983,0.00702,0.001394,0.005967,-0.004043,-0.00078,-0.002794,0.009909,-0.50863,0.005465,0.55141,-264.271838,-0.191197,62.780774
6.0184,0.006859,0.001449,0.00496,-0.00491,-0.000947,-0.003394,0.009909,-0.50863,0.005465,0.55141,-264.271838,-0.191197,62.780774
6.0386,0.006722,0.001536,0.005492,-0.005724,-0.001104,-0.003957,0.009288,-0.508564,0.00489,0.55141,-264.272818,-0.225392,62.779919
6.0582,0.007126,0.001304,0.005181,-0.006484,-0.001251,-0.004482,0.009301,-0.508558,0.00493,0.55141,-264.272818,-0.225392,62.779919
6.0785,0.006677,0.001354,0.005222,-0.007185,-0.001386,-0.004967,0.009579,-0.508727,0.00505,0.55141,-264.275124,-0.225392,62.777903
6.0983,0.006955,0.001508,0.005389,-0.00783,-0.00151,-0.005412,0.009419,-0.508681,0.005132,0.55141,-264.275124,-0.225392,62.777903
6.1187,0.00715,0.001539,0.005094,-0.008424,-0.001625,-0.005823,0.009419,-0.508681,0.005132,0.55141,-264.275124,-0.225392,62.777903
6.1381,0.00677,0.001027,0.004346,-0.008956,-0.001727,-0.00619,0.009433,-0.508517,0.004876,0.55141,-264.278168,-0.225392,62.775243
6.1587,0.007036,0.001162,0.005672,-0.009432,-0.001819,-0.006519,0.009396,-0.508548,0.004836,0.55141,-264.278168,-0.225392,62.775243
6.1785,0.00653,0.000912,0.004358,-0.009863,-0.001902,-0.006817,0.009603,-0.508894,0.005447,0.55141,-264.282131,-0.225392,62.77178
6.1984,0.006523,0.001393,0.005487,-0.01022,-0.001971,-0.007064,0.009073,-0.509011,0.004793,0.55141,-264.282131,-0.225392,62.77178
6.2182,0.006889,0.001376,0.004492,-0.010528,-0.002031,-0.007278,0.009073,-0.509011,0.004793,0.55141,-264.282131,-0.225392,62.77178
6.2384,0.006102,0.000788,0.006704,-0.010781,-0.002079,-0.007452,0.008723,-0.508709,0.004176,0.55141,-264.286559,-0.225392,62.76791
6.2589,0.006118,0.000925,0.005226,-0.010978,-0.002117,-0.007588,0.008769,-0.508747,0.004352,0.55141,-264.286559,-0.225392,62.76791
6.2784,0.005765,0.000791,0.003773,-0.011118,-0.002144,-0.007685,0.008375,-0.509149,0.004944,0.55141,-264.291496,-0.225392,62.763596
6.2984,0.005867,0.001193,0.004266,-0.011203,-0.002161,-0.007744,0.007938,-0.509191,0.00425,0.55141,-264.291496,-0.225392,62.763596
6.3189,0.0061,0.00086,0.003582,-0.011231,-0.002166,-0.007763,0.007938,-0.509191,0.00425,0.55141,-264.291496,-0.225392,62.763596
6.3384,0.005487,0.000729,0.002167,-0.011203,-0.002161,-0.007744,0.007393,-0.509241,0.003213,0.55141,-264.296651,-0.225392,62.759091
6.3587,0.005412,0.000712,0.004504,-0.011119,-0.002145,-0.007686,0.007327,-0.509246,0.003135,0.55141,-264.296651,-0.225392,62.759091
6.3786,0.005398,0.000541,0.0021,-0.010979,-0.002118,-0.007589,0.007274,-0.509368,0.004203,0.55141,-264.301932,-0.225392,62.754476
6.3989,0.005376,0.0006,0.002058,-0.010782,-0.00208,-0.007453,0.006768,-0.50943,0.002989,0.55141,-264.301932,-0.225392,62.754476
6.4183,0.005254,0.000943,0.003045,-0.01053,-0.002031,-0.007279,0.006768,-0.50943,0.002989,0.55141,-264.301932,-0.225392,62.754476
6.4394,0.005014,0.000608,0.002728,-0.010222,-0.001972,-0.007066,0.006268,-0.509161,0.002672,0.55141,-264.307176,-0.225392,62.749894
6.4582,0.004863,0.000647,0.000867,-0.009857,-0.001901,-0.006813,0.006263,-0.509183,0.002665,0.55141,-264.307176,-0.225392,62.749894
6.4783,0.004227,0.000409,0.003581,-0.009436,-0.00182,-0.006522,0.004901,-0.509431,0.000588,0.55141,-264.312093,-0.225392,62.745596
6.4984,0.004174,0.000817,0.003227,-0.008959,-0.001728,-0.006193,0.005506,-0.50953,0.002257,0.55141,-264.312093,-0.225392,62.745596
6.5186,0.004486,0.000514,0.001176,-0.008427,-0.001625,-0.005825,0.005506,-0.50953,0.002257,0.55141,-264.312093,-0.225392,62.745596
6.5385,0.003887,0.000679,0.000668,-0.007836,-0.001511,-0.005417,0.004605,-0.509579,0.000844,0.55141,-264.316752,-0.225392,62.741525
6.5588,0.003984,0.000333,0.00288,-0.007191,-0.001387,-0.004971,0.004561,-0.509561,0.00082,0.55141,-264.316752,-0.225392,62.741525
6.5783,0.003788,0.000209,0.002438,-0.006488,-0.001251,-0.004485,0.00513,-0.509728,0.002657,0.55141,-264.320685,-0.225392,62.738088
6.599,0.003663,0.000227,0.001615,-0.005729,-0.001105,-0.00396,0.005032,-0.509771,0.002504,0.55141,-264.320685,-0.225392,62.738088
6.6183,0.003885,0.000287,1.8e-05,-0.004917,-0.000948,-0.003399,0.005032,-0.509771,0.002504,0.55141,-264.320685,-0.225392,62.738088
6.6383,0.003351,8.2e-05,0.003167,-0.004043,-0.00078,-0.002794,0.003545,-0.50978,-0.000223,0.55141,-264.324067,-0.225392,62.735132
6.6588,0.003599,0.000408,0.001252,-0.003121,-0.000602,-0.002157,0.00364,-0.509792,2.1e-05,0.55141,-264.324067,-0.225392,62.735132
6.6787,0.003076,0.000223,0.000781,-0.002138,-0.000412,-0.001478,0.004048,-0.509628,0.001121,0.55141,-264.326376,-0.225392,62.733114
6.6982,0.003459,-4e-06,0.000249,-0.001102,-0.000212,-0.000761,0.003695,-0.509718,0.000909,0.55141,-264.326376,-0.225392,62.733114
6.7184,0.003197,0.000222,0.002372,-6e-06,-1e-06,-4e-06,0.003695,-0.509718,0.000909,0.55141,-264.326376,-0.225392,62.733114
6.7388,0.003265,0.000291,0.000468,0.0,0.0,0.0,0.004255,-0.509807,0.002267,0.55141,-264.327839,-0.225392,62.731836
6.7582,0.003296,0.000328,0.000266,0.0,0.0,0.0,0.004199,-0.509801,0.002139,0.55141,-264.327839,-0.225392,62.731836
6.7784,0.003099,0.000339,0.001121,0.0,0.0,0.0,0.003431,-0.509672,0.000265,0.55141,-264.327842,-0.225392,62.731833
6.799,0.003538,0.000726,0.000815,0.0,0.0,0.0,0.003567,-0.509666,0.000753,0.55141,-264.327842,-0.225392,62.731833
6.8185,0.003166,0.000223,0.000192,0.0,0.0,0.0,0.003567,-0.509666,0.000753,0.55141,-264.327842,-0.225392,62.731833
6.8383,0.003077,0.000132,0.00192,0.0,0.0,0.0,0.003264,-0.509777,0.000192,0.55141,-264.327842,-0.225392,62.731833
6.8589,0.003174,0.000528,0.001621,0.0,0.0,0.0,0.003319,-0.509784,0.000312,0.55141,-264.327842,-0.225392,62.731833
6.8787,0.00366,0.000337,-0.00065,0.0,0.0,0.0,0.004001,-0.509471,0.001621,0.55141,-264.327842,-0.225392,62.731833
6.8985,0.003339,7.2e-05,0.002241,0.0,0.0,0.0,0.003624,-0.509579,0.000347,0.55141,-264.327842,-0.225392,62.731833
6.919,0.003311,-2.2e-05,0.001184,0.0,0.0,0.0,0.003624,-0.509579,0.000347,0.55141,-264.327842,-0.225392,62.731833
6.9385,0.00327,0.000251,0.000917,0.0,0.0,0.0,0.003914,-0.510021,0.001184,0.55141,-264.327842,-0.225392,62.731833
6.9587,0.003742,0.000338,0.001561,-0.0001,-8e-06,0.0,0.003902,-0.510002,0.001166,0.55141,-264.327842,-0.225392,62.731833
6.9786,0.003379,-0.000134,0.001447,-0.0001,-8e-06,0.0,0.004538,-0.509662,0.001561,0.55141,-264.327842,-0.225392,62.731833
6.9984,0.003438,0.000286,5.7e-05,-0.0001,-8e-06,0.0,0.004297,-0.509931,0.001496,0.55141,-264.327842,-0.225392,62.731833
7.0187,0.003333,1.7e-05,0.000144,-0.0001,-8e-06,0.0,0.004297,-0.509931,0.001496,0.55141,-264.327842,-0.225392,62.731833
7.0387,0.003688,0.000515,0.003382,-0.0001,-8e-06,0.0,0.003406,-0.509983,0.000144,0.476247,-264.327842,-0.150229,62.731833
7.0588,0.003385,0.000147,0.00212,-0.0001,-8e-06,0.0,0.00358,-0.50994,0.000424,0.476247,-264.327842,-0.150229,62.731833
7.0786,0.003375,0.000451,-0.000112,-0.0001,-8e-06,0.0,0.004466,-0.509852,0.00212,0.400889,-264.327844,-0.07487,62.731832
7.0983,0.003236,0.00035,0.000839,-0.0001,-8e-06,0.0,0.003812,-0.50968,0.00085,0.400889,-264.327844,-0.07487,62.731832
7.1182,0.003165,0.000326,0.003095,-0.0001,-8e-06,0.0,0.003812,-0.50968,0.00085,0.400889,-264.327844,-0.07487,62.731832
7.1384,0.003011,-7.4e-05,0.002102,-0.0001,-8e-06,0.0,0.004743,-0.509672,0.003095,0.326367,-264.327849,-0.000348,62.731827
7.1589,0.003351,0.000582,0.001172,-0.0,-0.0,-0.0,0.004699,-0.509699,0.003028,0.326367,-264.327849,-0.000348,62.731827
7.1783,0.003292,0.000281,0.000746,-0.000479,-3.6e-05,-0.000134,0.003947,-0.509418,0.001172,0.25141,-264.327862,0.074609,62.731814
7.1984,0.003081,0.000136,0.00212,-0.000933,-7.1e-05,-0.000262,0.003793,-0.509587,0.000933,0.25141,-264.327862,0.074609,62.731814
7.2185,0.003379,-0.000152,0.001988,-0.00136,-0.000103,-0.000381,0.003793,-0.509587,0.000933,0.25141,-264.327862,0.074609,62.731814
7.2386,0.003143,0.000515,0.001757,-0.001765,-0.000134,-0.000495,0.004393,-0.510151,0.001988,0.24216,-264.327862,-0.000442,62.731814
7.2582,0.003595,-3.8e-05,0.001965,-0.002145,-0.000162,-0.000602,0.004368,-0.510104,0.001972,0.24216,-264.327862,-0.000442,62.731814
7.2782,0.003175,0.000547,0.001822,-0.002503,-0.00019,-0.000702,0.004552,-0.510041,0.001953,0.24216,-264.328347,-0.075557,62.731341
7.2984,0.003018,4.1e-05,0.000146,-0.002833,-0.000215,-0.000794,0.00429,-0.509704,0.001876,0.24216,-264.328347,-0.075557,62.731341
7.3183,0.003108,0.000144,0.001263,-0.003139,-0.000238,-0.00088,0.00429,-0.509704,0.001876,0.24216,-264.328347,-0.075557,62.731341
7.3386,0.00321,0.000324,0.000745,-0.003421,-0.000259,-0.000959,0.003649,-0.509864,0.001234,0.24216,-264.329226,-0.095224,62.730483
7.3587,0.003346,0.000189,0.000788,-0.00368,-0.000279,-0.001032,0.003642,-0.509851,0.001199,0.24216,-264.329226,-0.095224,62.730483
7.3785,0.003437,0.000261,-0.000662,-0.003912,-0.000296,-0.001097,0.003627,-0.50982,0.000754,0.24216,-264.330519,-0.095224,62.729223
7.3983,0.003092,0.000147,0.00105,-0.004121,-0.000312,-0.001156,0.003309,-0.509775,-6.2e-05,0.24216,-264.330519,-0.095224,62.729223
7.4183,0.003034,-0.000233,0.002561,-0.004304,-0.000326,-0.001207,0.003309,-0.509775,-6.2e-05,0.24216,-264.330519,-0.095224,62.729223
7.4389,0.003562,-2.1e-05,0.002106,-0.004464,-0.000338,-0.001252,0.004161,-0.510245,0.002511,0.24216,-264.332035,-0.095224,62.727744
7.4589,0.002887,0.000364,0.001528,-0.004599,-0.000348,-0.00129,0.004191,-0.510229,0.00248,0.24216,-264.332035,-0.095224,62.727744
