mach0312/omni-docking-bench/src/icros_test_setup/results/kinematic_sample/timeseries/trial_063.csv
t,x,y,yaw,vx,vy,wz,bl_x,bl_y,bl_yaw,front_steering_joint,front_wheel_joint,rear_steering_joint,rear_wheel_joint
0.0,-0.057312,-0.030446,0.079771,0.012104,-0.002352,0.008287,-0.017161,-0.538449,0.077597,0.616529,-264.674143,-0.908821,61.677543
0.0005,-0.056984,-0.030179,0.078383,0.017215,-0.003345,0.011786,-0.017128,-0.53845,0.077706,0.541836,-264.674102,-0.834128,61.67759
0.0009,-0.057134,-0.030341,0.077399,0.017737,-0.003446,0.012144,-0.017128,-0.53845,0.077706,0.466825,-264.673832,-0.759118,61.677899
0.0012,-0.057359,-0.030214,0.078132,0.018162,-0.003529,0.012435,-0.017262,-0.538232,0.078416,0.391613,-264.672635,-0.683906,61.679268
0.0016,-0.057029,-0.030214,0.079788,0.018491,-0.003593,0.012659,-0.017262,-0.538232,0.078416,0.31681,-264.669344,-0.609103,61.683034
0.0019,-0.056857,-0.029927,0.077719,0.018728,-0.003639,0.012822,-0.017006,-0.538503,0.078794,0.241847,-264.663544,-0.549517,61.68931
0.0022,-0.057084,-0.030165,0.078426,0.01887,-0.003666,0.012919,-0.017006,-0.538503,0.078794,0.220213,-264.655869,-0.549517,61.698078
0.0025,-0.056126,-0.030189,0.080025,0.018917,-0.003676,0.012951,-0.017006,-0.538503,0.078794,0.220213,-264.655869,-0.549517,61.698078
0.0028,-0.056412,-0.030343,0.081106,0.01887,-0.003666,0.012919,-0.017006,-0.538503,0.078794,0.220213,-264.655869,-0.549517,61.698078
0.003,-0.056286,-0.030518,0.080122,0.018728,-0.003639,0.012822,-0.016109,-0.538403,0.08014,0.220213,-264.655869,-0.549517,61.698078
0.0051,-0.055589,-0.030322,0.081018,0.018493,-0.003593,0.012661,-0.015816,-0.538601,0.079547,0.220213,-264.655869,-0.549517,61.698078
0.0251,-0.055859,-0.030514,0.081225,0.034493,0.012407,-0.017339,-0.014506,-0.538963,0.08078,0.220213,-264.655869,-0.549517,61.698078
0.0454,-0.054884,-0.03067,0.080063,0.050493,0.025881,-0.047339,-0.013748,-0.538913,0.08172,0.220213,-264.648192,-0.549517,61.706863
0.0653,-0.054985,-0.030698,0.08189,0.057161,0.026182,-0.05,-0.013854,-0.538994,0.080835,0.220213,-264.648192,-0.549517,61.706863
0.0854,-0.054926,-0.030549,0.081292,0.057312,0.026097,-0.05,-0.013854,-0.538994,0.080835,0.220213,-264.648192,-0.549517,61.706863
0.1055,-0.055177,-0.030594,0.079043,0.057225,0.025988,-0.05,-0.013513,-0.538865,0.081292,0.145214,-264.648192,-0.474518,61.706864
0.1251,-0.055152,-0.03031,0.081304,0.057421,0.026141,-0.05,-0.01361,-0.538874,0.081135,0.145214,-264.648192,-0.474518,61.706864
0.1455,-0.054523,-0.030322,0.081675,0.057432,0.025731,-0.05,-0.013732,-0.538626,0.081305,0.070281,-264.64819,-0.399585,61.706865
0.1651,-0.055056,-0.030304,0.081194,0.056815,0.025773,-0.05,-0.013267,-0.538624,0.081515,0.070281,-264.64819,-0.399585,61.706865
0.1852,-0.055079,-0.030554,0.080878,0.057332,0.025738,-0.05,-0.013267,-0.538624,0.081515,0.070281,-264.64819,-0.399585,61.706865
0.2052,-0.055363,-0.030633,0.081568,0.057367,0.026005,-0.05,-0.013876,-0.538887,0.080878,-0.004702,-264.648189,-0.324602,61.706867
0.2255,-0.054984,-0.03078,0.080698,0.057675,0.026021,-0.05,-0.013871,-0.538891,0.080926,-0.004702,-264.648189,-0.324602,61.706867
0.2455,-0.055009,-0.030749,0.081269,0.057286,0.026247,-0.05,-0.013872,-0.53912,0.080698,-0.07971,-264.648187,-0.249594,61.70687
0.2652,-0.055029,-0.030535,0.081445,0.057324,0.026182,-0.05,-0.013722,-0.539089,0.081023,-0.07971,-264.648187,-0.249594,61.70687
0.2853,-0.055081,-0.030589,0.081588,0.057331,0.025957,-0.05,-0.013722,-0.539089,0.081023,-0.07971,-264.648187,-0.249594,61.70687
0.3054,-0.054961,-0.030365,0.080518,0.057391,0.025998,-0.05,-0.013517,-0.538892,0.081588,-0.078158,-264.648184,-0.174609,61.706873
0.3256,-0.054721,-0.030458,0.082853,0.057225,0.025846,-0.05,-0.013546,-0.53888,0.081514,-0.078158,-264.648184,-0.174609,61.706873
0.3451,-0.055184,-0.030491,0.08131,0.057054,0.025825,-0.05,-0.012514,-0.538708,0.082853,-0.079726,-264.648182,-0.099604,61.706877
0.3651,-0.05505,-0.030358,0.081528,0.057478,0.025909,-0.05,-0.013226,-0.538764,0.081973,-0.079726,-264.648182,-0.099604,61.706877
0.3851,-0.054986,-0.030498,0.080131,0.05734,0.025774,-0.05,-0.013226,-0.538764,0.081973,-0.079726,-264.648182,-0.099604,61.706877
0.4051,-0.055455,-0.030797,0.080051,0.057251,0.025999,-0.05,-0.014162,-0.538861,0.080131,-0.081805,-264.64818,-0.024546,61.70688
0.4255,-0.055066,-0.030717,0.080309,0.05774,0.026264,-0.05,-0.014196,-0.538882,0.080126,-0.081805,-264.64818,-0.024546,61.70688
0.4453,-0.054995,-0.030484,0.081156,0.057352,0.026201,-0.05,-0.014152,-0.539074,0.080309,-0.08289,-264.648177,0.050386,61.706883
0.4655,-0.05514,-0.030526,0.081662,0.057286,0.025925,-0.05,-0.013868,-0.538922,0.080789,-0.08289,-264.648177,0.050386,61.706883
0.4855,-0.055139,-0.030238,0.082394,0.057447,0.025926,-0.05,-0.013868,-0.538922,0.080789,-0.08289,-264.648177,0.050386,61.706883
0.5052,-0.054734,-0.030469,0.08333,0.057441,0.025597,-0.05,-0.013165,-0.538508,0.082394,-0.073882,-264.648173,0.125393,61.70689
0.5255,-0.05524,-0.030416,0.079216,0.05708,0.025808,-0.05,-0.013105,-0.538521,0.082458,-0.073882,-264.648173,0.125393,61.70689
0.5461,-0.055168,-0.030724,0.080842,0.057473,0.025949,-0.05,-0.01488,-0.538816,0.079215,-0.080102,-264.648156,0.200398,61.706914
0.5654,-0.054995,-0.030379,0.080982,0.057469,0.026169,-0.05,-0.014368,-0.538954,0.080145,-0.080102,-264.648156,0.200398,61.706914
0.586,-0.055164,-0.03049,0.080364,0.057272,0.025831,-0.05,-0.014368,-0.538954,0.080145,-0.080102,-264.648156,0.200398,61.706914
0.6051,-0.054704,-0.030307,0.079762,0.057433,0.025963,-0.05,-0.014211,-0.538842,0.08036,-0.082674,-264.648076,0.275486,61.707026
0.6255,-0.055145,-0.031005,0.079564,0.056945,0.025852,-0.05,-0.0142,-0.538831,0.080318,-0.082674,-264.648076,0.275486,61.707026
0.6453,-0.055053,-0.030402,0.082442,0.057435,0.026524,-0.05,-0.014573,-0.539382,0.079549,-0.081999,-264.647735,0.350557,61.707503
0.6652,-0.055283,-0.030715,0.081408,0.05737,0.025765,-0.05,-0.013705,-0.538976,0.081192,-0.081999,-264.647735,0.350557,61.707503
0.6855,-0.055075,-0.030488,0.080856,0.057597,0.026118,-0.05,-0.013705,-0.538976,0.081192,-0.081999,-264.647735,0.350557,61.707503
0.7053,-0.054551,-0.03061,0.081697,0.057358,0.02594,-0.05,-0.013737,-0.538778,0.080785,-0.082097,-264.646655,0.425387,61.709016
0.7256,-0.054717,-0.030751,0.080133,0.056867,0.026056,-0.05,-0.013684,-0.538785,0.080839,-0.082097,-264.646655,0.425387,61.709016
0.7451,-0.053894,-0.030579,0.08032,0.057003,0.026273,-0.05,-0.013582,-0.539007,0.079962,-0.076581,-264.643599,0.500415,61.713031
0.7655,-0.054442,-0.030452,0.080536,0.056174,0.026156,-0.05,-0.0132,-0.538953,0.080142,-0.076581,-264.643599,0.500415,61.713031
0.7854,-0.054872,-0.030052,0.080833,0.056715,0.025974,-0.05,-0.0132,-0.538953,0.080142,-0.076581,-264.643599,0.500415,61.713031
0.8054,-0.053436,-0.030056,0.080658,0.05712,0.025523,-0.05,-0.013041,-0.538144,0.080437,-0.078642,-264.638044,0.575402,61.719545
0.8251,-0.053271,-0.030256,0.081288,0.055684,0.025653,-0.05,-0.012975,-0.538156,0.080442,-0.078642,-264.638044,0.575402,61.719545
0.8455,-0.052304,-0.029465,0.081463,0.055552,0.025831,-0.05,-0.011147,-0.538281,0.080806,-0.080291,-264.629988,0.650398,61.728558
0.8651,-0.051977,-0.029416,0.078686,0.054528,0.025111,-0.05,-0.010861,-0.537958,0.081115,-0.080291,-264.629988,0.650398,61.728558
0.8855,-0.052937,-0.02948,0.080164,0.054129,0.02524,-0.05,-0.010861,-0.537958,0.081115,-0.080291,-264.629988,0.650398,61.728558
0.9055,-0.050473,-0.029459,0.07855,0.055128,0.025146,-0.05,-0.010971,-0.537343,0.079312,-0.087501,-264.619432,0.725395,61.740073
0.9257,-0.050216,-0.029015,0.080773,0.052629,0.025408,-0.05,-0.010905,-0.537367,0.079236,-0.087501,-264.619432,0.725395,61.740073
0.9456,-0.048947,-0.028253,0.077785,0.052393,0.024869,-0.05,-0.008002,-0.53684,0.079875,-0.097563,-264.606376,0.800397,61.754087
0.9655,-0.048402,-0.028584,0.079032,0.050994,0.024364,-0.05,-0.008612,-0.536702,0.078578,-0.097563,-264.606376,0.800397,61.754087
0.9859,-0.048713,-0.028273,0.078757,0.050508,0.024673,-0.05,-0.008612,-0.536702,0.078578,-0.097563,-264.606376,0.800397,61.754087
1.0057,-0.04623,-0.027535,0.076321,0.050786,0.024352,-0.05,-0.007007,-0.535924,0.077403,-0.097162,-264.59082,0.815932,61.770602
1.026,-0.046476,-0.027127,0.076247,0.048195,0.02393,-0.05,-0.006991,-0.535914,0.077311,-0.097162,-264.59082,0.815932,61.770602
1.0451,-0.043918,-0.02658,0.075355,0.048408,0.023508,-0.05,-0.006178,-0.534952,0.074962,-0.115594,-264.572735,0.829852,61.789646
1.0653,-0.043802,-0.02687,0.074938,0.045794,0.023198,-0.05,-0.005628,-0.534968,0.075025,-0.115594,-264.572735,0.829852,61.789646
1.0851,-0.04358,-0.026473,0.075255,0.045691,0.023516,-0.05,-0.005628,-0.534968,0.075025,-0.115594,-264.572735,0.829852,61.789646
1.1052,-0.040882,-0.025648,0.072015,0.045446,0.023121,-0.05,-0.003281,-0.534062,0.073395,-0.136258,-264.553525,0.846414,61.811129
1.1256,-0.040744,-0.025526,0.073758,0.042622,0.02264,-0.05,-0.003292,-0.534055,0.073249,-0.136258,-264.553525,0.846414,61.811129
1.1452,-0.03734,-0.024215,0.070718,0.042514,0.022454,-0.05,-0.0016,-0.533272,0.072089,-0.15249,-264.535264,0.86904,61.835141
1.1652,-0.037154,-0.024163,0.071642,0.038957,0.021516,-0.05,-0.001233,-0.532973,0.071098,-0.15249,-264.535264,0.86904,61.835141
1.1851,-0.037571,-0.024492,0.070323,0.038788,0.021441,-0.05,-0.001233,-0.532973,0.071098,-0.15249,-264.535264,0.86904,61.835141
1.2051,-0.034274,-0.022838,0.067494,0.039199,0.021791,-0.05,0.000202,-0.532025,0.06796,-0.183211,-264.518277,0.895145,61.861801
1.2251,-0.034368,-0.023271,0.068515,0.035736,0.020474,-0.05,0.000257,-0.531957,0.067846,-0.183211,-264.518277,0.895145,61.861801
1.2452,-0.031314,-0.021912,0.066785,0.03588,0.020863,-0.05,0.0019,-0.531203,0.066701,-0.230346,-264.503268,0.929715,61.886233
1.2656,-0.031068,-0.021913,0.064825,0.032707,0.019773,-0.05,0.002541,-0.530848,0.066516,-0.230346,-264.503268,0.929715,61.886233
1.286,-0.031412,-0.021795,0.065938,0.032422,0.019855,-0.05,0.002541,-0.530848,0.066516,-0.230346,-264.503268,0.929715,61.886233
1.3052,-0.02903,-0.020475,0.0632,0.032779,0.019678,-0.05,0.003793,-0.529627,0.063608,-0.274492,-264.489076,0.959699,61.910043
1.3252,-0.028296,-0.020873,0.062934,0.030265,0.018601,-0.05,0.003792,-0.529591,0.063527,-0.274492,-264.489076,0.959699,61.910043
1.3456,-0.02584,-0.019547,0.0608,0.029552,0.019052,-0.05,0.004917,-0.529066,0.061109,-0.318286,-264.476145,0.999076,61.932742
1.3658,-0.025456,-0.019472,0.06078,0.02698,0.017941,-0.05,0.005194,-0.528701,0.0607,-0.318286,-264.476145,0.999076,61.932742
1.3852,-0.025965,-0.019707,0.061847,0.026592,0.01789,-0.05,0.005194,-0.528701,0.0607,-0.318286,-264.476145,0.999076,61.932742
1.4053,-0.022621,-0.018584,0.058703,0.027134,0.018065,-0.05,0.006889,-0.527798,0.059556,-0.375679,-264.463881,1.018754,61.954495
1.4258,-0.023503,-0.018864,0.059034,0.023673,0.017225,-0.05,0.006953,-0.527767,0.059436,-0.375679,-264.463881,1.018754,61.954495
1.4455,-0.020942,-0.017713,0.057376,0.024575,0.017445,-0.05,0.007465,-0.527309,0.057315,-0.443953,-264.453375,1.068637,61.974208
1.4653,-0.020932,-0.017598,0.057634,0.021923,0.016483,-0.05,0.008055,-0.526975,0.057131,-0.443953,-264.453375,1.068637,61.974208
1.4853,-0.020613,-0.018012,0.057124,0.021911,0.016363,-0.05,0.008055,-0.526975,0.057131,-0.443953,-264.453375,1.068637,61.974208
1.5052,-0.01877,-0.016813,0.054869,0.021608,0.016806,-0.05,0.009499,-0.526368,0.054931,-0.512283,-264.443589,1.110646,61.993415
1.5255,-0.018842,-0.016409,0.053596,0.019664,0.015759,-0.05,0.009504,-0.526326,0.054872,-0.512283,-264.443589,1.110646,61.993415
1.5454,-0.016277,-0.015815,0.0533,0.019694,0.015376,-0.05,0.009237,-0.525047,0.051795,-0.574199,-264.433839,1.133741,62.012755
1.5661,-0.016487,-0.016001,0.049669,0.017097,0.014925,-0.05,0.010282,-0.524992,0.05243,-0.574199,-264.433839,1.133741,62.012755
1.5857,-0.01672,-0.015855,0.051664,0.017261,0.015162,-0.049669,0.010282,-0.524992,0.05243,-0.574199,-264.433839,1.133741,62.012755
1.6057,-0.014339,-0.01464,0.050878,0.017516,0.014971,-0.05,0.010447,-0.524438,0.049462,-0.644502,-264.424912,1.169137,62.03101
1.6251,-0.014523,-0.014843,0.049876,0.015065,0.013892,-0.05,0.010555,-0.524383,0.049505,-0.644502,-264.424912,1.169137,62.03101
1.6451,-0.012558,-0.0145,0.04753,0.015244,0.014101,-0.049876,0.011468,-0.523662,0.04818,-0.719665,-264.416717,1.208199,62.048361
1.6655,-0.012983,-0.014523,0.048772,0.013233,0.013887,-0.04753,0.011659,-0.523747,0.047585,-0.719665,-264.416717,1.208199,62.048361
1.6854,-0.012554,-0.014144,0.047619,0.013676,0.013873,-0.048772,0.011659,-0.523747,0.047585,-0.719665,-264.416717,1.208199,62.048361
1.7052,-0.011101,-0.013707,0.046406,0.013213,0.01353,-0.047619,0.012284,-0.522997,0.045729,-0.794923,-264.409652,1.243884,62.063125
1.7259,-0.010942,-0.01362,0.045575,0.011725,0.013177,-0.046406,0.01232,-0.522993,0.045725,-0.794923,-264.409652,1.243884,62.063125
1.7451,-0.009574,-0.013123,0.043338,0.011551,0.013108,-0.045575,0.012758,-0.522575,0.043836,-0.860905,-264.401893,1.267244,62.080042
1.7653,-0.009207,-0.012957,0.042588,0.010133,0.012696,-0.043338,0.012682,-0.522549,0.04333,-0.860905,-264.401893,1.267244,62.080042
1.7853,-0.009541,-0.012818,0.043987,0.009751,0.012553,-0.042588,0.012682,-0.522549,0.04333,-0.860905,-264.401893,1.267244,62.080042
1.8053,-0.007847,-0.012078,0.040504,0.010095,0.012387,-0.043987,0.013397,-0.521698,0.041858,-0.912675,-264.394634,1.295578,62.096382
1.8251,-0.007649,-0.011995,0.042189,0.008329,0.01175,-0.040504,0.013366,-0.521677,0.041691,-0.912675,-264.394634,1.295578,62.096382
1.8451,-0.00609,-0.011576,0.039348,0.008148,0.011662,-0.042189,0.014206,-0.521057,0.040595,-0.943779,-264.388185,1.32314,62.111816
1.865,-0.005946,-0.011471,0.038529,0.00654,0.011328,-0.039348,0.014117,-0.521066,0.039682,-0.943779,-264.388185,1.32314,62.111816
1.8854,-0.006245,-0.011472,0.040004,0.006383,0.011234,-0.038529,0.014117,-0.521066,0.039682,-0.943779,-264.388185,1.32314,62.111816
1.9053,-0.004864,-0.011096,0.037558,0.006698,0.011213,-0.040004,0.014512,-0.520511,0.038147,-1.000556,-264.382361,1.346368,62.125944
1.9257,-0.004527,-0.010978,0.036482,0.005278,0.010905,-0.037558,0.014506,-0.520512,0.038054,-1.000556,-264.382361,1.346368,62.125944
1.9455,-0.003478,-0.010834,0.03739,0.004924,0.010805,-0.036482,0.014274,-0.520262,0.035225,-1.075729,-264.377659,1.389204,62.137939
1.9655,-0.00372,-0.010163,0.035451,0.00388,0.010697,-0.03739,0.015051,-0.520338,0.036306,-1.075729,-264.377659,1.389204,62.137939
1.9855,-0.003481,-0.010519,0.036362,0.004077,0.010025,-0.035451,0.015051,-0.520338,0.036306,-1.075729,-264.377659,1.389204,62.137939
2.0056,-0.002801,-0.010246,0.033395,0.003861,0.010386,-0.036362,0.015272,-0.519703,0.034744,-1.150657,-264.372997,1.416102,62.150092
2.0258,-0.002635,-0.010127,0.032352,0.003141,0.010146,-0.033395,0.015205,-0.519709,0.034607,-1.150657,-264.372997,1.416102,62.150092
2.0451,-0.001578,-0.009516,0.033214,0.002961,0.010036,-0.032352,0.013992,-0.519512,0.031138,-1.22555,-264.368625,1.442779,62.161425
2.0657,-0.001517,-0.009455,0.030666,0.002961,0.010036,-0.032352,0.014791,-0.519309,0.032175,-1.22555,-264.368625,1.442779,62.161425
2.0854,-0.001706,-0.009505,0.0321,1.9e-05,9.8e-05,0.0,0.014791,-0.519309,0.032175,-1.22555,-264.368625,1.442779,62.161425
2.1056,-0.000963,-0.008856,0.030769,1.9e-05,9.8e-05,0.0,0.014793,-0.518768,0.030555,-1.273416,-264.364535,1.468311,62.173139
2.1259,-0.00074,-0.008644,0.030027,1.9e-05,9.8e-05,0.0,0.014792,-0.518743,0.030527,-1.273416,-264.364535,1.468311,62.173139
2.1451,-0.0006,-0.008626,0.029899,1.9e-05,9.8e-05,0.0,0.014584,-0.518332,0.029894,-1.198417,-264.364535,1.393313,62.174855
2.1651,-0.000829,-0.008643,0.031525,1.9e-05,9.8e-05,0.0,0.014621,-0.518359,0.02988,-1.198417,-264.364535,1.393313,62.174855
2.1852,-0.000678,-0.008622,0.031004,1.9e-05,9.8e-05,0.0,0.014621,-0.518359,0.02988,-1.198417,-264.364535,1.393313,62.174855
2.2052,-0.001093,-0.008677,0.030147,1.9e-05,9.8e-05,0.0,0.015131,-0.518377,0.031004,-1.123427,-264.364535,1.381051,62.174855
2.2254,-0.000893,-0.00892,0.029189,1.9e-05,9.8e-05,0.0,0.015069,-0.518382,0.030941,-1.123427,-264.364535,1.381051,62.174855
2.2453,-0.000975,-0.008821,0.032512,1.9e-05,9.8e-05,0.0,0.013991,-0.518703,0.029189,-1.048461,-264.364535,1.381051,62.174855
2.2652,-0.000823,-0.009053,0.031018,1.9e-05,9.8e-05,0.0,0.014909,-0.518617,0.03108,-1.048461,-264.364535,1.381051,62.174855
2.2852,-0.00093,-0.00885,0.030237,0.0,0.0,-1e-06,0.014909,-0.518617,0.03108,-1.048461,-264.364535,1.381051,62.174855
2.3053,-0.000557,-0.008867,0.03098,0.000264,0.001377,-0.00449,0.014488,-0.518617,0.030237,-0.973565,-264.364535,1.381051,62.174855
2.3254,-0.000772,-0.009043,0.031494,0.000516,0.002686,-0.008759,0.014537,-0.518617,0.030286,-0.973565,-264.364535,1.381051,62.174855
2.3452,-0.000497,-0.008934,0.030968,0.000752,0.003917,-0.012773,0.015287,-0.51879,0.031494,-1.048562,-264.364535,1.456049,62.174855
2.3653,-0.000569,-0.008816,0.032443,0.000977,0.005087,-0.016589,0.015291,-0.518733,0.031196,-1.048562,-264.364535,1.456049,62.174855
2.3859,-0.000886,-0.008673,0.030456,0.001185,0.006172,-0.020126,0.015291,-0.518733,0.031196,-1.048562,-264.364535,1.456049,62.174855
2.4052,-0.00047,-0.008773,0.031593,0.001382,0.007195,-0.023463,0.014651,-0.518415,0.030389,-1.123563,-264.36436,1.506688,62.175373
2.4258,-0.000881,-0.008992,0.030959,0.001566,0.008151,-0.026582,0.014719,-0.518421,0.030471,-1.123563,-264.36436,1.506688,62.175373
2.4458,-0.001033,-0.008369,0.029903,0.001735,0.009031,-0.029451,0.014926,-0.518661,0.030691,-1.198563,-264.363495,1.506688,62.177942
2.4654,-0.000324,-0.008791,0.029696,0.00189,0.009842,-0.032095,0.014526,-0.518356,0.030212,-1.198563,-264.363495,1.506688,62.177942
2.4854,-0.000299,-0.008684,0.029056,0.002032,0.01058,-0.034501,0.014526,-0.518356,0.030212,-1.198563,-264.363495,1.506688,62.177942
2.5052,-6.3e-05,-0.008459,0.029105,0.002161,0.01125,-0.036687,0.014566,-0.518273,0.02837,-1.273726,-264.361554,1.506688,62.183002
2.5251,-0.000209,-0.008543,0.029566,0.002276,0.01185,-0.038642,0.014582,-0.518266,0.028403,-1.273726,-264.361554,1.506688,62.183002
2.5452,0.000775,-0.008488,0.029527,0.002378,0.012382,-0.040378,0.014924,-0.518122,0.028694,-1.34856,-264.357978,1.506688,62.190573
2.5651,0.000511,-0.008585,0.02867,0.002466,0.01284,-0.04187,0.01545,-0.518179,0.02906,-1.34856,-264.357978,1.506688,62.190573
2.5853,0.00078,-0.008272,0.028165,0.00254,0.013224,-0.043125,0.01545,-0.518179,0.02906,-1.34856,-264.357978,1.506688,62.190573
2.6052,0.001483,-0.007591,0.025956,0.002601,0.013543,-0.044163,0.015227,-0.517738,0.026705,-1.379496,-264.353267,1.506688,62.20063
2.6257,0.001451,-0.007669,0.0261,0.002648,0.013789,-0.044965,0.015195,-0.517708,0.026618,-1.379496,-264.353267,1.506688,62.20063
2.6452,0.002098,-0.0075,0.024937,0.002682,0.013965,-0.04554,0.014839,-0.517141,0.024691,-1.379496,-264.347924,1.506688,62.213194
2.6652,0.002608,-0.006944,0.025081,0.002702,0.014071,-0.045885,0.014835,-0.517209,0.024652,-1.379496,-264.347924,1.506688,62.213194
2.6852,0.002874,-0.007218,0.023156,0.002709,0.014106,-0.046,0.014835,-0.517209,0.024652,-1.379496,-264.347924,1.506688,62.213194
2.7057,0.003344,-0.006892,0.022833,0.002702,0.01407,-0.045883,0.014793,-0.516497,0.021116,-1.379496,-264.342341,1.506688,62.228289
2.7252,0.003685,-0.006471,0.023592,0.002682,0.013965,-0.045539,0.01481,-0.5165,0.021186,-1.379496,-264.342341,1.506688,62.228289
2.7457,0.00491,-0.005463,0.018583,0.002648,0.013788,-0.044963,0.015808,-0.515783,0.021819,-1.379496,-264.336653,1.506688,62.24517
2.7652,0.004806,-0.006153,0.020391,0.002601,0.01354,-0.044155,0.015011,-0.515482,0.019753,-1.379496,-264.336653,1.506688,62.24517
2.7853,0.005243,-0.006167,0.020652,0.00254,0.013224,-0.043124,0.015011,-0.515482,0.019753,-1.379496,-264.336653,1.506688,62.24517
2.8057,0.006185,-0.005692,0.019742,0.002465,0.012835,-0.041856,0.015891,-0.515376,0.018435,-1.379496,-264.331012,1.506688,62.261914
2.8257,0.00646,-0.005334,0.019068,0.002377,0.012377,-0.040363,0.015918,-0.515373,0.018466,-1.379496,-264.331012,1.506688,62.261914
2.8451,0.007299,-0.004928,0.015869,0.002275,0.011848,-0.038636,0.016273,-0.514729,0.017403,-1.379496,-264.325661,1.506688,62.277793
2.8656,0.007389,-0.004601,0.018028,0.00216,0.011248,-0.03668,0.01578,-0.514742,0.016313,-1.379496,-264.325661,1.506688,62.277793
2.8857,0.007409,-0.004941,0.017265,0.002032,0.010579,-0.034499,0.01578,-0.514742,0.016313,-1.379496,-264.325661,1.506688,62.277793
2.9053,0.008397,-0.003936,0.013693,0.001889,0.009838,-0.032082,0.01632,-0.514257,0.015287,-1.379496,-264.320663,1.506688,62.292626
2.9254,0.008286,-0.003837,0.01364,0.001733,0.009025,-0.029432,0.016275,-0.514227,0.01517,-1.379496,-264.320663,1.506688,62.292626
2.9451,0.009589,-0.003574,0.012739,0.001564,0.008141,-0.026549,0.015316,-0.513377,0.012297,-1.379496,-264.316386,1.506688,62.305321
2.9654,0.00967,-0.003223,0.012741,0.001381,0.00719,-0.023447,0.015761,-0.513414,0.012381,-1.379496,-264.316386,1.506688,62.305321
2.9854,0.009219,-0.003307,0.014387,0.001185,0.006169,-0.020117,0.015761,-0.513414,0.012381,-1.379496,-264.316386,1.506688,62.305321
3.0055,0.010521,-0.00316,0.009726,0.000975,0.005077,-0.016555,0.016635,-0.512815,0.012959,-1.379496,-264.312738,1.506688,62.316147
3.0251,0.010567,-0.003034,0.012751,0.000752,0.003914,-0.012763,0.016553,-0.512826,0.012682,-1.379496,-264.312738,1.506688,62.316147
3.0452,0.01085,-0.002394,0.010182,0.000514,0.002678,-0.008732,0.017112,-0.512754,0.011976,-1.379496,-264.31025,1.506688,62.323531
3.0652,0.010922,-0.002385,0.01122,0.000264,0.001375,-0.004483,0.016513,-0.512505,0.010862,-1.379496,-264.31025,1.506688,62.323531
3.0854,0.010913,-0.00311,0.010185,0.0,0.0,0.0,0.016513,-0.512505,0.010862,-1.379496,-264.31025,1.506688,62.323531
3.1052,0.011267,-0.002125,0.009908,0.0,0.0,0.0,0.016142,-0.512892,0.009563,-1.379496,-264.308669,1.506688,62.328224
3.1255,0.011469,-0.002585,0.007988,0.0,0.0,0.0,0.016154,-0.512836,0.00957,-1.379496,-264.308669,1.506688,62.328224
3.1451,0.011209,-0.002181,0.008608,0.0,0.0,0.0,0.015543,-0.512569,0.007988,-1.379496,-264.308669,1.506688,62.328224
3.1652,0.011496,-0.002334,0.009595,0.0,0.0,0.0,0.015575,-0.512337,0.008341,-1.379496,-264.308669,1.506688,62.328224
3.1851,0.011193,-0.002299,0.009659,0.0,0.0,0.0,0.015575,-0.512337,0.008341,-1.379496,-264.308669,1.506688,62.328224
3.2056,0.011308,-0.002599,0.009489,0.0,0.0,0.0,0.016119,-0.512276,0.009659,-1.379496,-264.308669,1.506688,62.328224
3.2252,0.011653,-0.002547,0.008917,0.0,0.0,0.0,0.016121,-0.512295,0.009648,-1.379496,-264.308669,1.506688,62.328224
3.2456,0.011638,-0.002681,0.008459,0.0,0.0,0.0,0.016201,-0.512527,0.008917,-1.379496,-264.308669,1.506688,62.328224
3.2653,0.011282,-0.002245,0.009509,0.0,0.0,0.0,0.01606,-0.512604,0.008657,-1.379496,-264.308669,1.506688,62.328224
3.2855,0.011247,-0.002181,0.008536,0.0,0.0,0.0,0.01606,-0.512604,0.008657,-1.379496,-264.308669,1.506688,62.328224
3.3055,0.011624,-0.002362,0.010266,-9.8e-05,2e-05,0.0,0.015601,-0.512163,0.008536,-1.379496,-264.308669,1.506688,62.328224
3.3256,0.011362,-0.002314,0.009071,-9.8e-05,2e-05,0.0,0.015686,-0.512174,0.008653,-1.379496,-264.308669,1.506688,62.328224
3.3466,0.011164,-0.00219,0.008303,-9.8e-05,2e-05,0.0,0.015988,-0.512293,0.009071,-1.379496,-264.308669,1.506688,62.328224
3.3652,0.011762,-0.002783,0.009326,-9.8e-05,2e-05,0.0,0.015653,-0.512224,0.008634,-1.379496,-264.308669,1.506688,62.328224
3.3853,0.011362,-0.002406,0.00889,-9.8e-05,2e-05,0.0,0.015653,-0.512224,0.008634,-1.379496,-264.308669,1.506688,62.328224
3.4051,0.011148,-0.002341,0.009403,-9.8e-05,2e-05,0.0,0.015896,-0.512386,0.00889,-1.304535,-264.308669,1.431727,62.328224
3.4257,0.011496,-0.002385,0.009024,-9.8e-05,2e-05,0.0,0.015899,-0.512381,0.008925,-1.304535,-264.308669,1.431727,62.328224
3.4453,0.011225,-0.00224,0.009493,-9.8e-05,2e-05,0.0,0.016098,-0.512365,0.009024,-1.22955,-264.308669,1.356741,62.328224
3.4654,0.011367,-0.002281,0.01009,-9.8e-05,2e-05,0.0,0.01608,-0.51228,0.009293,-1.22955,-264.308669,1.356741,62.328224
3.4852,0.011447,-0.002462,0.010259,-9.8e-05,2e-05,0.0,0.01608,-0.51228,0.009293,-1.22955,-264.308669,1.356741,62.328224
3.5053,0.011306,-0.00225,0.01017,-9.8e-05,2e-05,0.0,0.016679,-0.512435,0.010259,-1.15443,-264.308669,1.281622,62.328224
3.5257,0.01122,-0.002166,0.00864,-0.001639,0.000332,-0.001246,0.016665,-0.512419,0.010252,-1.15443,-264.308669,1.281622,62.328224
3.5452,0.011263,-0.001976,0.008523,-0.003198,0.000649,-0.002431,0.015626,-0.512147,0.00864,-1.079435,-264.308669,1.206627,62.328224
3.5651,0.01108,-0.002295,0.009387,-0.00467,0.000947,-0.00355,0.015617,-0.512039,0.008573,-1.079435,-264.308669,1.206627,62.328224
3.5852,0.011362,-0.002413,0.009929,-0.00606,0.001229,-0.004608,0.015617,-0.512039,0.008573,-1.079435,-264.308669,1.206627,62.328224
3.6058,0.011241,-0.002591,0.009044,-0.007374,0.001495,-0.005606,0.016426,-0.512388,0.009929,-1.004403,-264.308669,1.131594,62.328224
3.6255,0.011379,-0.0026,0.008227,-0.008596,0.001743,-0.006535,0.01638,-0.512403,0.009858,-1.004403,-264.308669,1.131594,62.328224
3.6456,0.011175,-0.002621,0.009764,-0.009727,0.001973,-0.007395,0.015575,-0.512582,0.008227,-0.929214,-264.308669,1.056406,62.328224
3.6656,0.011381,-0.00233,0.009232,-0.010778,0.002186,-0.008194,0.015904,-0.51259,0.009099,-0.929214,-264.308669,1.056406,62.328224
3.6856,0.010881,-0.002317,0.008199,-0.011745,0.002382,-0.008929,0.015904,-0.51259,0.009099,-0.929214,-264.308669,1.056406,62.328224
3.7053,0.011584,-0.002068,0.008328,-0.012634,0.002562,-0.009605,0.015062,-0.5123,0.008199,-0.854529,-264.308669,0.981721,62.328224
3.7256,0.011308,-0.002512,0.009106,-0.013431,0.002724,-0.010211,0.015117,-0.512282,0.008208,-0.854529,-264.308669,0.981721,62.328224
3.7459,0.011043,-0.00241,0.009693,-0.014147,0.002869,-0.010755,0.015952,-0.512491,0.009106,-0.779362,-264.308669,0.906553,62.328224
3.7655,0.011597,-0.002261,0.009913,-0.014779,0.002997,-0.011236,0.015972,-0.51243,0.009442,-0.779362,-264.308669,0.906553,62.328224
3.7854,0.01099,-0.002483,0.008793,-0.015328,0.003108,-0.011653,0.015972,-0.51243,0.009442,-0.779362,-264.308669,0.906553,62.328224
3.8052,0.011312,-0.002744,0.009679,-0.01579,0.003202,-0.012004,0.015475,-0.512464,0.008793,-0.704421,-264.308669,0.831612,62.328224
3.8257,0.01172,-0.002491,0.008862,-0.016168,0.003279,-0.012292,0.015534,-0.512483,0.00886,-0.704421,-264.308669,0.831612,62.328224
3.8452,0.011503,-0.002453,0.009099,-0.016464,0.003339,-0.012517,0.016239,-0.512471,0.008862,-0.629244,-264.308669,0.756436,62.328224
3.8652,0.01134,-0.002674,0.010935,-0.016674,0.003382,-0.012677,0.016184,-0.512449,0.008998,-0.629244,-264.308669,0.756436,62.328224
3.8851,0.011527,-0.001992,0.009583,-0.0168,0.003407,-0.012773,0.016184,-0.512449,0.008998,-0.629244,-264.308669,0.756436,62.328224
3.9052,0.011143,-0.002373,0.010263,-0.016842,0.003416,-0.012805,0.016414,-0.511969,0.009583,-0.55439,-264.308669,0.681581,62.328224
3.9253,0.011195,-0.002508,0.009818,-0.0168,0.003407,-0.012773,0.016412,-0.511995,0.00963,-0.55439,-264.308669,0.681581,62.328224
3.9455,0.01112,-0.002885,0.009688,-0.016674,0.003381,-0.012677,0.016202,-0.512483,0.009818,-0.479528,-264.308669,0.606719,62.328224
3.9654,0.011437,-0.002823,0.00962,-0.016463,0.003339,-0.012517,0.016122,-0.512698,0.009744,-0.479528,-264.308669,0.606719,62.328224
3.9857,0.011494,-0.002719,0.008708,-0.016168,0.003279,-0.012292,0.016122,-0.512698,0.009744,-0.479528,-264.308669,0.606719,62.328224
4.0054,0.01149,-0.002193,0.00935,-0.01579,0.003202,-0.012005,0.015934,-0.5127,0.008708,-0.404537,-264.308669,0.531729,62.328224
4.0262,0.011473,-0.002511,0.00942,-0.015327,0.003108,-0.011652,0.015956,-0.512664,0.008751,-0.404537,-264.308669,0.531729,62.328224
4.0453,0.011012,-0.002815,0.010287,-0.01478,0.002997,-0.011236,0.016277,-0.512488,0.00942,-0.329535,-264.308669,0.456727,62.328224
4.0655,0.011478,-0.002603,0.008795,-0.014148,0.002869,-0.010757,0.016266,-0.512657,0.009908,-0.329535,-264.308669,0.456727,62.328224
4.0853,0.011083,-0.002682,0.009874,-0.013433,0.002724,-0.010212,0.016266,-0.512657,0.009908,-0.329535,-264.308669,0.456727,62.328224
4.1054,0.011511,-0.002558,0.010722,-0.012633,0.002562,-0.009604,0.016118,-0.512657,0.009874,-0.25449,-264.308669,0.381682,62.328224
4.1257,0.010957,-0.002714,0.009497,-0.01175,0.002383,-0.008933,0.016178,-0.512648,0.009933,-0.25449,-264.308669,0.381682,62.328224
4.145,0.011252,-0.002537,0.009256,-0.010779,0.002186,-0.008195,0.0158,-0.512691,0.009497,-0.179527,-264.308669,0.306719,62.328224
4.1651,0.011513,-0.002378,0.009117,-0.009727,0.001973,-0.007395,0.015899,-0.51259,0.009359,-0.179527,-264.308669,0.306719,62.328224
4.1852,0.011299,-0.002242,0.009332,-0.00859,0.001742,-0.006531,0.015899,-0.51259,0.009359,-0.179527,-264.308669,0.306719,62.328224
4.2054,0.011367,-0.002502,0.009698,-0.00736,0.001493,-0.005596,0.016058,-0.51222,0.009332,-0.104445,-264.308669,0.231637,62.328224
4.2254,0.011451,-0.002209,0.009821,-0.006065,0.00123,-0.004611,0.016076,-0.512238,0.009358,-0.104445,-264.308669,0.231637,62.328224
4.2456,0.011271,-0.00242,0.009805,-0.00467,0.000947,-0.00355,0.016459,-0.512184,0.009821,-0.029538,-264.308669,0.15673,62.328224
4.265,0.01118,-0.002235,0.009507,-0.003203,0.000649,-0.002435,0.016352,-0.512305,0.009812,-0.029538,-264.308669,0.15673,62.328224
4.2854,0.011215,-0.002774,0.008772,-0.001646,0.000334,-0.001251,0.016352,-0.512305,0.009812,-0.029538,-264.308669,0.15673,62.328224
4.3053,0.011247,-0.002428,0.008691,0.0,0.0,0.0,0.015688,-0.512755,0.008772,0.045599,-264.308669,0.081593,62.328224
4.3251,0.011307,-0.002626,0.00984,0.0,0.0,0.0,0.015688,-0.512731,0.008766,0.045599,-264.308669,0.081593,62.328224
4.3451,0.011191,-0.002118,0.009973,0.0,0.0,0.0,0.016325,-0.512602,0.00984,0.120468,-264.308669,0.006724,62.328224
4.365,0.011012,-0.002466,0.007678,0.0,0.0,0.0,0.016298,-0.512312,0.009915,0.120468,-264.308669,0.006724,62.328224
4.3851,0.011346,-0.002488,0.008436,0.0,0.0,0.0,0.016298,-0.512312,0.009915,0.120468,-264.308669,0.006724,62.328224
4.4056,0.011196,-0.002511,0.009679,0.0,0.0,0.0,0.015648,-0.512469,0.008436,0.120468,-264.308669,0.006724,62.328224
4.4255,0.011608,-0.002328,0.00988,0.0,0.0,0.0,0.015679,-0.512471,0.008515,0.120468,-264.308669,0.006724,62.328224
4.4455,0.01144,-0.002495,0.009646,0.0,0.0,0.0,0.016646,-0.512303,0.00988,0.120468,-264.308669,0.006724,62.328224
4.4654,0.011519,-0.0028,0.009437,0.0,0.0,0.0,0.016483,-0.512398,0.009747,0.120468,-264.308669,0.006724,62.328224
4.4857,0.011632,-0.00239,0.009402,0.0,0.0,0.0,0.016483,-0.512398,0.009747,0.120468,-264.308669,0.006724,62.328224
4.5055,0.011219,-0.002754,0.009352,0.0,0.0,0.0,0.016427,-0.512367,0.009402,0.120468,-264.308669,0.006724,62.328224
4.5258,0.011462,-0.002369,0.00892,0.0,0.0,0.0,0.016402,-0.512389,0.009399,0.120468,-264.308669,0.006724,62.328224
4.5452,0.011377,-0.00231,0.009034,-9.8e-05,2.1e-05,0.0,0.016011,-0.512348,0.00892,0.120468,-264.308669,0.006724,62.328224
4.5653,0.011373,-0.002333,0.008048,-9.8e-05,2.1e-05,0.0,0.015996,-0.512315,0.008986,0.120468,-264.308669,0.006724,62.328224
4.5853,0.011601,-0.002227,0.009551,-9.8e-05,2.1e-05,0.0,0.015996,-0.512315,0.008986,0.120468,-264.308669,0.006724,62.328224
4.6051,0.011423,-0.002802,0.008051,-9.8e-05,2.1e-05,0.0,0.016472,-0.512204,0.009551,0.120468,-264.308669,0.006724,62.328224
4.6254,0.011471,-0.002358,0.008028,-9.8e-05,2.1e-05,0.0,0.016408,-0.512244,0.009448,0.120468,-264.308669,0.006724,62.328224
4.6452,0.011462,-0.002322,0.009234,-9.8e-05,2.1e-05,0.0,0.015565,-0.512341,0.008028,0.045559,-264.308672,-0.068184,62.328221
4.6652,0.011453,-0.002549,0.008953,-9.8e-05,2.1e-05,0.0,0.01591,-0.512318,0.008713,0.045559,-264.308672,-0.068184,62.328221
4.6853,0.011704,-0.002391,0.010712,-9.8e-05,2.1e-05,0.0,0.01591,-0.512318,0.008713,0.045559,-264.308672,-0.068184,62.328221
4.7053,0.011189,-0.002244,0.008522,-9.8e-05,2.1e-05,0.0,0.017166,-0.512362,0.010712,-0.029445,-264.308682,-0.143188,62.328211
4.7255,0.011012,-0.002252,0.008549,-9.8e-05,2.1e-05,0.0,0.017054,-0.512353,0.010562,-0.029445,-264.308682,-0.143188,62.328211
4.7452,0.011023,-0.002127,0.010487,-0.0,0.0,-0.0,0.01537,-0.512233,0.008549,-0.10445,-264.308703,-0.2127,62.32819
4.7652,0.011296,-0.001986,0.009009,-0.001672,0.000361,-0.001303,0.015938,-0.512157,0.00965,-0.10445,-264.308703,-0.2127,62.32819
4.7854,0.011241,-0.002467,0.007545,-0.003267,0.000706,-0.002547,0.015938,-0.512157,0.00965,-0.10445,-264.308703,-0.2127,62.32819
4.8052,0.011159,-0.00268,0.010281,-0.00477,0.00103,-0.003719,0.015085,-0.512452,0.007545,-0.179443,-264.308737,-0.2127,62.328157
4.8255,0.011237,-0.002551,0.010095,-0.006177,0.001334,-0.004816,0.015177,-0.512466,0.007735,-0.179443,-264.308737,-0.2127,62.328157
4.8453,0.010851,-0.002525,0.009391,-0.007507,0.001621,-0.005853,0.016385,-0.512525,0.010095,-0.104442,-264.308741,-0.287702,62.328151
4.8653,0.01113,-0.002547,0.010086,-0.00875,0.00189,-0.006823,0.015963,-0.512512,0.009696,-0.104442,-264.308741,-0.287702,62.328151
4.8857,0.011254,-0.002561,0.008963,-0.009908,0.00214,-0.007726,0.015963,-0.512512,0.009696,-0.104442,-264.308741,-0.287702,62.328151
4.9052,0.011543,-0.002416,0.00871,-0.010985,0.002372,-0.008566,0.015818,-0.512539,0.008961,-0.029444,-264.308801,-0.3627,62.32808
4.9257,0.011256,-0.002401,0.009885,-0.011969,0.002585,-0.009333,0.015828,-0.51253,0.008945,-0.029444,-264.308801,-0.3627,62.32808
4.9455,0.011257,-0.002511,0.009312,-0.01287,0.00278,-0.010036,0.016255,-0.512367,0.009866,0.045562,-264.309228,-0.437705,62.327578
4.9654,0.011552,-0.002622,0.009393,-0.013684,0.002955,-0.01067,0.016108,-0.512435,0.009549,0.045562,-264.309228,-0.437705,62.327578
4.9856,0.011165,-0.002497,0.007092,-0.014416,0.003113,-0.011241,0.016108,-0.512435,0.009549,0.045562,-264.309228,-0.437705,62.327578
5.0051,0.010979,-0.002269,0.009801,-0.015058,0.003252,-0.011741,0.01459,-0.512443,0.006984,0.120559,-264.310783,-0.512703,62.325748
5.0258,0.011157,-0.002279,0.009417,-0.015616,0.003372,-0.012176,0.014678,-0.512428,0.00717,0.120559,-264.310783,-0.512703,62.325748
5.0453,0.010708,-0.002463,0.010683,-0.01609,0.003475,-0.012546,0.015601,-0.51218,0.009168,0.195569,-264.314673,-0.587712,62.321417
5.0652,0.011038,-0.002214,0.008469,-0.016475,0.003558,-0.012846,0.015871,-0.512315,0.009997,0.195569,-264.314673,-0.587712,62.321417
5.0854,0.011104,-0.002092,0.009355,-0.016774,0.003623,-0.013079,0.015871,-0.512315,0.009997,0.195569,-264.314673,-0.587712,62.321417
5.1054,0.010429,-0.002069,0.007562,-0.016988,0.003669,-0.013247,0.015175,-0.511933,0.008816,0.254613,-264.320746,-0.605469,62.314587
5.1258,0.010307,-0.001741,0.009409,-0.017117,0.003697,-0.013347,0.015096,-0.511938,0.008716,0.254613,-264.320746,-0.605469,62.314587
5.1454,0.009924,-0.001951,0.008248,-0.01716,0.003706,-0.01338,0.014455,-0.511584,0.008903,0.254613,-264.327679,-0.605469,62.306427
5.1652,0.010263,-0.001979,0.007342,-0.017117,0.003697,-0.013347,0.014189,-0.511766,0.008467,0.254613,-264.327679,-0.605469,62.306427
5.1853,0.009534,-0.002214,0.007032,-0.016988,0.003669,-0.013246,0.014189,-0.511766,0.008467,0.254613,-264.327679,-0.605469,62.306427
5.2053,0.009758,-0.001643,0.007499,-0.016774,0.003623,-0.013079,0.012286,-0.512027,0.006383,0.254613,-264.334754,-0.605469,62.2981
5.2256,0.008989,-0.002197,0.007392,-0.016474,0.003558,-0.012845,0.012351,-0.511997,0.00644,0.254613,-264.334754,-0.605469,62.2981
5.2455,0.008789,-0.001728,0.006518,-0.016087,0.003474,-0.012544,0.012102,-0.512046,0.00688,0.254613,-264.341775,-0.605469,62.289836
5.2657,0.009094,-0.001663,0.005545,-0.015617,0.003373,-0.012177,0.012024,-0.511843,0.00661,0.254613,-264.341775,-0.605469,62.289836
5.2851,0.008618,-0.00158,0.00637,-0.015056,0.003252,-0.01174,0.012024,-0.511843,0.00661,0.254613,-264.341775,-0.605469,62.289836
5.3053,0.008491,-0.001248,0.005582,-0.014414,0.003113,-0.011239,0.011065,-0.511401,0.005745,0.254613,-264.348598,-0.605469,62.281805
5.3253,0.008573,-0.001427,0.0051,-0.013686,0.002956,-0.010672,0.011062,-0.511385,0.005716,0.254613,-264.348598,-0.605469,62.281805
5.3454,0.008005,-0.001368,0.005202,-0.01287,0.002779,-0.010035,0.010594,-0.511298,0.004648,0.254613,-264.354809,-0.605469,62.274496
5.3655,0.008124,-0.001251,0.005569,-0.01197,0.002585,-0.009333,0.010556,-0.511318,0.004905,0.254613,-264.354809,-0.605469,62.274496
5.3854,0.007711,-0.001079,0.004625,-0.01098,0.002371,-0.008562,0.010556,-0.511318,0.004905,0.254613,-264.354809,-0.605469,62.274496
5.4055,0.007852,-0.001156,0.004224,-0.009906,0.002139,-0.007724,0.009404,-0.510932,0.004106,0.254613,-264.360466,-0.605469,62.267837
5.4257,0.007711,-0.000881,0.003882,-0.008753,0.00189,-0.006825,0.009428,-0.510944,0.0041,0.254613,-264.360466,-0.605469,62.267837
5.4459,0.007374,-0.000812,0.002997,-0.007472,0.001614,-0.005826,0.009266,-0.510787,0.003552,0.254613,-264.365004,-0.605469,62.262496
5.4653,0.007291,-0.001035,0.003477,-0.006172,0.001333,-0.004813,0.009005,-0.510789,0.003194,0.254613,-264.365004,-0.605469,62.262496
5.4853,0.006886,-0.00065,0.003955,-0.004764,0.001029,-0.003714,0.009005,-0.510789,0.003194,0.254613,-264.365004,-0.605469,62.262496
5.5059,0.007301,-0.000695,0.002999,-0.003253,0.000703,-0.002536,0.008478,-0.510556,0.003623,0.254613,-264.368622,-0.605469,62.258238
5.5256,0.006415,-0.00097,0.003619,-0.001675,0.000362,-0.001306,0.008491,-0.510563,0.003571,0.254613,-264.368622,-0.605469,62.258238
5.5454,0.007023,-0.000648,0.005395,0.0,0.0,0.0,0.008076,-0.510928,0.003476,0.254613,-264.370595,-0.605469,62.255915
5.5657,0.007075,-0.000562,0.005603,0.0,0.0,0.0,0.009029,-0.510758,0.004561,0.254613,-264.370595,-0.605469,62.255915
5.5856,0.006735,-0.000704,0.003129,0.0,0.0,0.0,0.009029,-0.510758,0.004561,0.254613,-264.370595,-0.605469,62.255915
5.6053,0.006879,-0.000579,0.003402,0.0,0.0,0.0,0.008249,-0.510684,0.003065,0.254613,-264.371286,-0.605469,62.255102
5.6258,0.006647,-0.000413,0.004045,0.0,0.0,0.0,0.008272,-0.510676,0.003087,0.254613,-264.371286,-0.605469,62.255102
5.6451,0.006631,-0.001063,0.005165,0.0,0.0,0.0,0.00871,-0.510409,0.004045,0.254613,-264.371286,-0.605469,62.255102
5.6652,0.006668,-0.000917,0.00335,0.0,0.0,0.0,0.009026,-0.510777,0.004682,0.254613,-264.371286,-0.605469,62.255102
5.6851,0.006926,-0.000676,0.003046,0.0,0.0,0.0,0.009026,-0.510777,0.004682,0.254613,-264.371286,-0.605469,62.255102
5.7052,0.00687,-0.001038,0.003117,0.0,0.0,0.0,0.008479,-0.510674,0.003046,0.254613,-264.371286,-0.605469,62.255102
5.7252,0.006735,-0.000554,0.004336,0.0,0.0,0.0,0.008478,-0.5107,0.003051,0.254613,-264.371286,-0.605469,62.255102
5.7453,0.006605,-0.000843,0.003304,0.0,0.0,0.0,0.008947,-0.51055,0.004336,0.254613,-264.371286,-0.605469,62.255102
5.7651,0.006544,-0.000692,0.002868,0.0,0.0,0.0,0.008576,-0.510714,0.003753,0.254613,-264.371286,-0.605469,62.255102
5.785,0.006695,-0.00124,0.002821,-9.9e-05,1.1e-05,0.0,0.008576,-0.510714,0.003753,0.254613,-264.371286,-0.605469,62.255102
5.8052,0.006564,-0.000769,0.002979,-9.9e-05,1.1e-05,0.0,0.008134,-0.511238,0.002821,0.254613,-264.371286,-0.605469,62.255102
5.8258,0.006724,-0.000603,0.002124,-9.9e-05,1.1e-05,0.0,0.00813,-0.511205,0.002832,0.254613,-264.371286,-0.605469,62.255102
5.8451,0.00666,-0.000964,0.001986,-9.9e-05,1.1e-05,0.0,0.007808,-0.510602,0.002124,0.179646,-264.371286,-0.530502,62.255102
5.8654,0.006636,-0.000738,0.004849,-9.9e-05,1.1e-05,0.0,0.00773,-0.510808,0.002045,0.179646,-264.371286,-0.530502,62.255102
5.8852,0.006749,-0.000703,0.005193,-9.9e-05,1.1e-05,0.0,0.00773,-0.510808,0.002045,0.179646,-264.371286,-0.530502,62.255102
5.9055,0.0069,-0.001333,0.004178,-9.9e-05,1.1e-05,0.0,0.009397,-0.510696,0.005193,0.104541,-264.371287,-0.455398,62.255101
5.9253,0.00672,-0.000833,0.002556,-9.9e-05,1.1e-05,0.0,0.009369,-0.510745,0.005115,0.104541,-264.371287,-0.455398,62.255101
5.9452,0.006335,-0.000635,0.003192,-9.9e-05,1.1e-05,0.0,0.008024,-0.510832,0.002556,0.029359,-264.371289,-0.380215,62.255099
5.9652,0.006612,-0.000682,0.004029,-9.9e-05,1.1e-05,0.0,0.007989,-0.510718,0.002918,0.029359,-264.371289,-0.380215,62.255099
5.9861,0.006822,-0.000878,0.003275,-0.0,0.0,-0.0,0.007989,-0.510718,0.002918,0.029359,-264.371289,-0.380215,62.255099
6.0063,0.00703,-0.000714,0.003374,-0.000959,0.000104,-0.00042,0.008491,-0.510875,0.003275,-0.045376,-264.371298,-0.30548,62.25509
6.0257,0.00638,-0.000932,0.003412,-0.001864,0.000202,-0.000817,0.008514,-0.51086,0.003284,-0.045376,-264.371298,-0.30548,62.25509
6.0458,0.006646,-0.000991,0.00318,-0.002724,0.000296,-0.001194,0.008121,-0.51093,0.003412,0.03024,-264.371298,-0.359939,62.25509
6.0652,0.006993,-0.00048,0.002309,-0.003532,0.000384,-0.001549,0.008204,-0.510963,0.00328,0.03024,-264.371298,-0.359939,62.25509
6.0859,0.006432,-0.001066,0.004019,-0.004293,0.000466,-0.001882,0.008204,-0.510963,0.00328,0.03024,-264.371298,-0.359939,62.25509
6.1052,0.006358,-0.000992,0.002827,-0.005006,0.000544,-0.002194,0.008412,-0.511053,0.003992,0.104596,-264.37188,-0.359939,62.254476
6.1257,0.006622,-0.000949,0.003867,-0.005667,0.000615,-0.002484,0.008367,-0.511048,0.00391,0.104596,-264.37188,-0.359939,62.254476
6.1454,0.006408,-0.001022,0.004434,-0.006281,0.000682,-0.002753,0.008436,-0.510929,0.003797,0.157824,-264.373544,-0.359939,62.25272
6.1652,0.006599,-0.001143,0.004925,-0.006848,0.000744,-0.003002,0.008549,-0.510977,0.004153,0.157824,-264.373544,-0.359939,62.25272
6.1854,0.006301,-0.000695,0.003582,-0.007359,0.000799,-0.003226,0.008549,-0.510977,0.004153,0.157824,-264.373544,-0.359939,62.25272
6.2052,0.005979,-0.000654,0.003135,-0.007826,0.00085,-0.003431,0.007852,-0.510662,0.003461,0.157824,-264.375836,-0.359939,62.250302
6.2251,0.005901,-0.000977,0.00237,-0.008243,0.000895,-0.003613,0.007829,-0.510661,0.003438,0.157824,-264.375836,-0.359939,62.250302
6.2455,0.006194,-0.000513,0.003646,-0.008611,0.000935,-0.003775,0.006825,-0.510945,0.002245,0.157824,-264.378816,-0.359939,62.247157
6.2652,0.005935,-0.000397,0.002481,-0.008929,0.00097,-0.003914,0.007484,-0.510695,0.003022,0.157824,-264.378816,-0.359939,62.247157
6.2852,0.006028,-0.001017,0.00297,-0.009199,0.000999,-0.004033,0.007484,-0.510695,0.003022,0.157824,-264.378816,-0.359939,62.247157
6.3052,0.005765,-0.000855,0.00323,-0.00942,0.001023,-0.00413,0.007142,-0.510972,0.002794,0.157824,-264.382159,-0.359939,62.243629
6.3251,0.005681,-0.000427,0.003056,-0.009593,0.001042,-0.004205,0.00715,-0.510963,0.002821,0.157824,-264.382159,-0.359939,62.243629
6.3451,0.005456,-0.000802,0.003172,-0.009715,0.001055,-0.004259,0.006885,-0.510388,0.0029,0.157824,-264.385885,-0.359939,62.239698
6.3652,0.004932,-0.00045,0.003263,-0.009788,0.001063,-0.004291,0.006948,-0.510619,0.003036,0.157824,-264.385885,-0.359939,62.239698
6.3852,0.005444,-0.000387,0.003072,-0.009813,0.001066,-0.004302,0.006948,-0.510619,0.003036,0.157824,-264.385885,-0.359939,62.239698
6.4055,0.004641,-0.000727,0.002963,-0.009788,0.001063,-0.004291,0.006545,-0.510336,0.002868,0.157824,-264.389766,-0.359939,62.235603
6.4255,0.004908,-0.000588,0.002901,-0.009714,0.001055,-0.004259,0.006505,-0.510362,0.002869,0.157824,-264.389766,-0.359939,62.235603
6.4452,0.004245,-0.000378,0.000308,-0.009588,0.001041,-0.004203,0.006009,-0.510545,0.002735,0.157824,-264.39374,-0.359939,62.231409
6.4651,0.00439,-0.000391,0.002555,-0.00942,0.001023,-0.00413,0.005049,-0.510445,0.001336,0.157824,-264.39374,-0.359939,62.231409
6.4857,0.00466,-0.000481,0.002944,-0.009199,0.000999,-0.004033,0.005049,-0.510445,0.001336,0.157824,-264.39374,-0.359939,62.231409
6.5052,0.004054,-0.00052,0.000789,-0.008929,0.00097,-0.003914,0.005689,-0.510429,0.002737,0.157824,-264.397675,-0.359939,62.227257
6.5257,0.004175,-0.000232,0.003195,-0.008611,0.000935,-0.003775,0.00559,-0.510434,0.002594,0.157824,-264.397675,-0.359939,62.227257
6.5455,0.003684,-0.00051,0.002206,-0.008241,0.000895,-0.003613,0.005449,-0.510192,0.003039,0.157824,-264.401406,-0.359939,62.22332
6.5654,0.003625,-0.000267,0.001384,-0.007824,0.00085,-0.00343,0.005037,-0.510369,0.002542,0.157824,-264.401406,-0.359939,62.22332
6.5855,0.004008,-0.000704,0.001921,-0.007359,0.000799,-0.003226,0.005037,-0.510369,0.002542,0.157824,-264.401406,-0.359939,62.22332
6.6054,0.003421,-0.000211,0.001249,-0.006844,0.000743,-0.003,0.004569,-0.510658,0.001738,0.157824,-264.404889,-0.359939,62.219645
6.6252,0.002977,-0.000276,0.002318,-0.006276,0.000682,-0.002751,0.004523,-0.510626,0.0017,0.157824,-264.404889,-0.359939,62.219645
