mach0312/omni-docking-bench/src/icros_test_setup/results/kinematic_sample/timeseries/trial_053.csv
t,x,y,yaw,vx,vy,wz,bl_x,bl_y,bl_yaw,front_steering_joint,front_wheel_joint,rear_steering_joint,rear_wheel_joint
0.0,0.026898,-0.023177,-0.083867,-0.00868,-0.000736,-0.004613,-0.015722,-0.531267,-0.084913,0.388622,-264.442944,-0.235311,62.443378
0.0004,0.026748,-0.022905,-0.084713,-0.007364,-0.000625,-0.003914,-0.015722,-0.531267,-0.084913,0.388622,-264.446727,-0.235311,62.439777
0.0007,0.026511,-0.023454,-0.08643,-0.006984,-0.000593,-0.003712,-0.015659,-0.531234,-0.084647,0.388622,-264.450438,-0.235311,62.436246
0.001,0.026139,-0.022607,-0.085089,-0.006575,-0.000558,-0.003495,-0.01565,-0.531221,-0.084602,0.388622,-264.454007,-0.235311,62.43285
0.0013,0.026474,-0.023201,-0.084473,-0.006114,-0.000519,-0.00325,-0.01565,-0.531221,-0.084602,0.388622,-264.457176,-0.235311,62.429834
0.0015,0.026191,-0.023076,-0.086574,-0.005609,-0.000476,-0.002981,-0.016568,-0.531259,-0.085797,0.388622,-264.460015,-0.235311,62.427132
0.0018,0.026114,-0.022724,-0.086888,-0.005058,-0.000429,-0.002688,-0.016568,-0.531259,-0.085797,0.388622,-264.462204,-0.235311,62.425049
0.0021,0.025747,-0.022814,-0.086048,-0.004468,-0.000379,-0.002375,-0.016401,-0.531265,-0.085263,0.388622,-264.462204,-0.235311,62.425049
0.0023,0.025859,-0.023121,-0.086544,-0.003831,-0.000325,-0.002036,-0.016401,-0.531265,-0.085263,0.388622,-264.462204,-0.235311,62.425049
0.0025,0.025899,-0.023223,-0.085465,-0.003153,-0.000267,-0.001676,-0.016401,-0.531265,-0.085263,0.388622,-264.462204,-0.235311,62.425049
0.0178,0.025703,-0.022874,-0.085791,-0.018428,0.015794,0.02871,-0.018273,-0.531089,-0.086388,0.388622,-264.462204,-0.235311,62.425049
0.0384,0.025499,-0.023325,-0.086646,-0.027569,0.020588,0.05,-0.018183,-0.530999,-0.08589,0.388622,-264.463857,-0.235311,62.423476
0.0579,0.025559,-0.022985,-0.085368,-0.027422,0.021031,0.05,-0.018219,-0.531027,-0.085944,0.388622,-264.463857,-0.235311,62.423476
0.0781,0.025969,-0.022979,-0.087075,-0.027426,0.020722,0.05,-0.017926,-0.531128,-0.085368,0.313781,-264.463857,-0.16047,62.423476
0.0979,0.025865,-0.022979,-0.087464,-0.027869,0.020634,0.05,-0.018185,-0.531082,-0.086336,0.313781,-264.463857,-0.16047,62.423476
0.118,0.02545,-0.023358,-0.086384,-0.027773,0.020632,0.05,-0.018185,-0.531082,-0.086336,0.313781,-264.463857,-0.16047,62.423476
0.1379,0.025881,-0.023293,-0.085693,-0.027371,0.021076,0.05,-0.018551,-0.531457,-0.086384,0.238774,-264.463857,-0.085463,62.423476
0.158,0.025622,-0.023212,-0.086438,-0.027779,0.020992,0.05,-0.018497,-0.531454,-0.086337,0.238774,-264.463857,-0.085463,62.423476
0.1777,0.025687,-0.022652,-0.0866,-0.02753,0.020913,0.05,-0.018407,-0.531308,-0.086438,0.163789,-264.463857,-0.010478,62.423476
0.198,0.026022,-0.022763,-0.085744,-0.02755,0.020345,0.05,-0.018417,-0.530982,-0.086531,0.163789,-264.463857,-0.010478,62.423476
0.2182,0.025663,-0.023125,-0.085519,-0.027876,0.020451,0.05,-0.018417,-0.530982,-0.086531,0.163789,-264.463857,-0.010478,62.423476
0.2382,0.025644,-0.023018,-0.085792,-0.027545,0.020848,0.05,-0.017898,-0.531261,-0.085519,0.08864,-264.463857,0.064671,62.423476
0.2583,0.025911,-0.023082,-0.086408,-0.027522,0.020736,0.05,-0.017909,-0.531253,-0.085538,0.08864,-264.463857,0.064671,62.423476
0.2782,0.025432,-0.022909,-0.088142,-0.027806,0.020759,0.05,-0.018103,-0.531179,-0.086408,0.013791,-264.463858,0.13952,62.423475
0.298,0.025932,-0.023445,-0.085248,-0.02735,0.020581,0.05,-0.018878,-0.531037,-0.087397,0.013791,-264.463858,0.13952,62.423475
0.318,0.025957,-0.022649,-0.085629,-0.027834,0.021152,0.05,-0.018878,-0.531037,-0.087397,0.013791,-264.463858,0.13952,62.423475
0.339,0.025503,-0.023114,-0.085013,-0.027799,0.020346,0.05,-0.01766,-0.530781,-0.085629,-0.061375,-264.463859,0.214687,62.423475
0.3585,0.025791,-0.02302,-0.085858,-0.027373,0.020865,0.05,-0.017671,-0.530816,-0.085584,-0.061375,-264.463859,0.214687,62.423475
0.3779,0.025635,-0.023273,-0.085526,-0.02767,0.020724,0.05,-0.017943,-0.531142,-0.085858,-0.136324,-264.463861,0.289635,62.423474
0.3982,0.025875,-0.023226,-0.084526,-0.027529,0.020998,0.05,-0.017936,-0.531293,-0.08567,-0.136324,-264.463861,0.289635,62.423474
0.4186,0.025467,-0.023004,-0.085314,-0.027743,0.020958,0.05,-0.017936,-0.531293,-0.08567,-0.136324,-264.463861,0.289635,62.423474
0.438,0.026235,-0.023049,-0.086299,-0.027334,0.02075,0.05,-0.017991,-0.531149,-0.085314,-0.211221,-264.463863,0.33966,62.423473
0.4582,0.025827,-0.023388,-0.085971,-0.028124,0.020702,0.05,-0.017972,-0.531149,-0.085383,-0.211221,-264.463863,0.33966,62.423473
0.4778,0.025838,-0.022912,-0.086213,-0.02774,0.021084,0.05,-0.017964,-0.531505,-0.085971,-0.286209,-264.463866,0.332463,62.423471
0.4978,0.025631,-0.022866,-0.085069,-0.027715,0.020602,0.05,-0.018028,-0.531228,-0.086109,-0.286209,-264.463866,0.332463,62.423471
0.5178,0.025977,-0.023081,-0.085909,-0.027482,0.020606,0.05,-0.018028,-0.531228,-0.086109,-0.286209,-264.463866,0.332463,62.423471
0.5379,0.025661,-0.023168,-0.0861,-0.027862,0.020767,0.05,-0.017783,-0.5312,-0.085909,-0.36121,-264.463868,0.336429,62.42347
0.5578,0.026025,-0.023408,-0.085084,-0.027558,0.020876,0.05,-0.017812,-0.531206,-0.085922,-0.36121,-264.463868,0.336429,62.42347
0.5782,0.025787,-0.023041,-0.087003,-0.02792,0.021112,0.05,-0.017316,-0.531563,-0.085084,-0.436207,-264.463874,0.346792,62.423468
0.5979,0.025944,-0.02329,-0.087522,-0.027692,0.020713,0.05,-0.018007,-0.531306,-0.086178,-0.436207,-264.463874,0.346792,62.423468
0.6184,0.025407,-0.023099,-0.0858,-0.027881,0.020933,0.05,-0.018007,-0.531306,-0.086178,-0.436207,-264.463874,0.346792,62.423468
0.6379,0.025372,-0.023036,-0.085381,-0.027293,0.020837,0.05,-0.018299,-0.531222,-0.085799,-0.511215,-264.463895,0.337206,62.423457
0.6578,0.025764,-0.022695,-0.086366,-0.027244,0.020789,0.05,-0.018286,-0.531219,-0.085767,-0.511215,-264.463895,0.337206,62.423457
0.6778,0.026165,-0.023089,-0.086024,-0.027626,0.020388,0.05,-0.018234,-0.530791,-0.086359,-0.586374,-264.464006,0.33175,62.423401
0.6978,0.026004,-0.022643,-0.085641,-0.028052,0.020756,0.05,-0.017903,-0.531027,-0.086166,-0.586374,-264.464006,0.33175,62.423401
0.7178,0.025426,-0.022878,-0.086322,-0.027846,0.020336,0.05,-0.017903,-0.531027,-0.086166,-0.586374,-264.464006,0.33175,62.423401
0.738,0.02559,-0.023153,-0.085616,-0.027304,0.020601,0.05,-0.018572,-0.530966,-0.086293,-0.661301,-264.464385,0.343632,62.423212
0.7584,0.025885,-0.023343,-0.086817,-0.027476,0.02088,0.05,-0.018534,-0.530988,-0.086245,-0.661301,-264.464385,0.343632,62.423212
0.778,0.025105,-0.023006,-0.086092,-0.027812,0.02101,0.05,-0.01842,-0.531379,-0.086718,-0.736215,-264.465869,0.351178,62.422453
0.7982,0.025293,-0.02283,-0.084971,-0.026991,0.020762,0.05,-0.018618,-0.531223,-0.086346,-0.736215,-264.465869,0.351178,62.422453
0.8179,0.025218,-0.022475,-0.086186,-0.027139,0.020601,0.05,-0.018618,-0.531223,-0.086346,-0.736215,-264.465869,0.351178,62.422453
0.8383,0.024754,-0.02272,-0.085648,-0.027059,0.020221,0.05,-0.018909,-0.530448,-0.085888,-0.811376,-264.469237,0.338012,62.420771
0.8584,0.025262,-0.022851,-0.085867,-0.026607,0.020519,0.05,-0.018912,-0.530472,-0.085863,-0.811376,-264.469237,0.338012,62.420771
0.8781,0.024691,-0.022541,-0.085141,-0.027128,0.0206,0.05,-0.0188,-0.530782,-0.085412,-0.886216,-264.475117,0.350977,62.417273
0.8981,0.024551,-0.022484,-0.085312,-0.026518,0.02036,0.05,-0.018771,-0.530708,-0.085199,-0.886216,-264.475117,0.350977,62.417273
0.9179,0.024106,-0.022667,-0.083757,-0.026377,0.02031,0.05,-0.018771,-0.530708,-0.085199,-0.886216,-264.475117,0.350977,62.417273
0.938,0.023331,-0.022262,-0.084384,-0.025918,0.020571,0.05,-0.019155,-0.530535,-0.08287,-0.961359,-264.48349,0.360124,62.411474
0.9583,0.023181,-0.022067,-0.083709,-0.025124,0.020216,0.05,-0.019205,-0.53052,-0.082952,-0.961359,-264.48349,0.360124,62.411474
0.9778,0.021806,-0.021686,-0.084423,-0.024944,0.020052,0.05,-0.020079,-0.52992,-0.082725,-1.03634,-264.494342,0.36989,62.40319
0.9983,0.021915,-0.021765,-0.083084,-0.023557,0.01977,0.05,-0.020785,-0.529847,-0.083557,-1.03634,-264.494342,0.36989,62.40319
1.0184,0.021873,-0.021595,-0.082534,-0.023646,0.019871,0.05,-0.020785,-0.529847,-0.083557,-1.03634,-264.494342,0.36989,62.40319
1.0379,0.020078,-0.021194,-0.080735,-0.023579,0.019719,0.05,-0.021044,-0.529285,-0.080967,-1.111143,-264.507715,0.389805,62.393318
1.0584,0.020271,-0.021222,-0.081255,-0.021722,0.019506,0.05,-0.021066,-0.529287,-0.080912,-1.111143,-264.507715,0.389805,62.393318
1.0779,0.018045,-0.020043,-0.080759,-0.021927,0.019507,0.05,-0.021852,-0.528986,-0.079789,-1.132182,-264.523584,0.423767,62.383203
1.0979,0.018804,-0.020343,-0.079074,-0.019604,0.018522,0.05,-0.022652,-0.528572,-0.080155,-1.132182,-264.523584,0.423767,62.383203
1.1179,0.018145,-0.019986,-0.079061,-0.020353,0.018794,0.05,-0.022652,-0.528572,-0.080155,-1.132182,-264.523584,0.423767,62.383203
1.1379,0.016298,-0.019115,-0.076727,-0.019666,0.018491,0.05,-0.02302,-0.527553,-0.076965,-1.161271,-264.541978,0.469903,62.373899
1.1581,0.016432,-0.019146,-0.077084,-0.017716,0.01781,0.05,-0.023028,-0.527534,-0.07689,-1.161271,-264.541978,0.469903,62.373899
1.1779,0.014365,-0.018234,-0.074453,-0.017857,0.017824,0.05,-0.023533,-0.526889,-0.075252,-1.179503,-264.562262,0.523341,62.364968
1.1978,0.013902,-0.017995,-0.073972,-0.015681,0.017115,0.05,-0.023643,-0.526756,-0.074562,-1.179503,-264.562262,0.523341,62.364968
1.2179,0.014027,-0.018691,-0.076087,-0.015194,0.016919,0.05,-0.023643,-0.526756,-0.074562,-1.179503,-264.562262,0.523341,62.364968
1.2379,0.012381,-0.01702,-0.073551,-0.015407,0.01757,0.05,-0.025405,-0.526435,-0.074083,-1.219566,-264.57939,0.598336,62.357712
1.2583,0.01237,-0.017532,-0.072778,-0.013599,0.016065,0.05,-0.025401,-0.526356,-0.073989,-1.219566,-264.57939,0.598336,62.357712
1.2782,0.010818,-0.016605,-0.070903,-0.013612,0.016586,0.05,-0.025118,-0.52566,-0.071384,-1.260941,-264.594021,0.673374,62.35172
1.2978,0.010835,-0.01668,-0.070668,-0.011967,0.015797,0.05,-0.025281,-0.525401,-0.070932,-1.260941,-264.594021,0.673374,62.35172
1.3182,0.011015,-0.016796,-0.069672,-0.011986,0.015874,0.05,-0.025281,-0.525401,-0.070932,-1.260941,-264.594021,0.673374,62.35172
1.3382,0.009661,-0.015563,-0.068474,-0.012157,0.015988,0.05,-0.024935,-0.524955,-0.067972,-1.286878,-264.607847,0.748367,62.346064
1.3578,0.009702,-0.016004,-0.068734,-0.010704,0.014865,0.05,-0.02497,-0.524894,-0.067961,-1.286878,-264.607847,0.748367,62.346064
1.3783,0.008168,-0.015276,-0.065291,-0.010779,0.0153,0.05,-0.025641,-0.524321,-0.067349,-1.318067,-264.621773,0.823389,62.340562
1.3982,0.008346,-0.015261,-0.067866,-0.009147,0.01471,0.05,-0.025377,-0.524185,-0.066002,-1.318067,-264.621773,0.823389,62.340562
1.4178,0.008563,-0.015046,-0.066422,-0.009362,0.01466,0.05,-0.025377,-0.524185,-0.066002,-1.318067,-264.621773,0.823389,62.340562
1.4377,0.00739,-0.014844,-0.065913,-0.009543,0.014445,0.05,-0.025635,-0.523379,-0.064748,-1.339275,-264.634811,0.898244,62.335258
1.4578,0.007201,-0.014802,-0.06688,-0.008351,0.014325,0.05,-0.025685,-0.523389,-0.064785,-1.339275,-264.634811,0.898244,62.335258
1.4779,0.005883,-0.014383,-0.06506,-0.008174,0.014287,0.05,-0.027129,-0.523227,-0.065503,-1.366556,-264.648118,0.97336,62.329944
1.4979,0.00569,-0.013512,-0.062721,-0.006806,0.01397,0.05,-0.027243,-0.523215,-0.065076,-1.366556,-264.648118,0.97336,62.329944
1.5181,0.005878,-0.013847,-0.064061,-0.006526,0.013129,0.05,-0.027243,-0.523215,-0.065076,-1.366556,-264.648118,0.97336,62.329944
1.538,0.004815,-0.013688,-0.062498,-0.006752,0.013443,0.05,-0.027068,-0.522228,-0.062168,-1.386748,-264.662507,1.048231,62.324193
1.5584,0.004642,-0.013131,-0.061355,-0.00566,0.013361,0.05,-0.027075,-0.522249,-0.062136,-1.386748,-264.662507,1.048231,62.324193
1.5779,0.003482,-0.012805,-0.059901,-0.005439,0.012822,0.05,-0.026786,-0.521834,-0.060149,-1.42244,-264.673667,1.123741,62.319493
1.5978,0.003748,-0.013483,-0.059509,-0.004242,0.012573,0.05,-0.026955,-0.521822,-0.059854,-1.42244,-264.673667,1.123741,62.319493
1.6179,0.003666,-0.012493,-0.058914,-0.004544,0.013236,0.05,-0.026955,-0.521822,-0.059854,-1.42244,-264.673667,1.123741,62.319493
1.6378,0.002576,-0.012248,-0.058353,-0.004395,0.012256,0.05,-0.02656,-0.521096,-0.057074,-1.442566,-264.68715,1.198248,62.313985
1.6584,0.002402,-0.012465,-0.058028,-0.003286,0.012077,0.05,-0.026608,-0.521102,-0.057115,-1.442566,-264.68715,1.198248,62.313985
1.6779,0.001041,-0.011798,-0.056671,-0.00312,0.012305,0.05,-0.027304,-0.521188,-0.056491,-1.467371,-264.701233,1.273239,62.30826
1.6979,0.00117,-0.012201,-0.055418,-0.001707,0.01172,0.05,-0.027631,-0.521015,-0.0564,-1.467371,-264.701233,1.273239,62.30826
1.718,0.001267,-0.011595,-0.055892,-0.001844,0.012117,0.05,-0.027631,-0.521015,-0.0564,-1.467371,-264.701233,1.273239,62.30826
1.738,0.000169,-0.011507,-0.054534,-0.001913,0.011506,0.05,-0.027338,-0.520329,-0.054,-1.493844,-264.714582,1.348361,62.302404
1.7584,0.000229,-0.01125,-0.053854,-0.000796,0.011481,0.05,-0.027362,-0.520346,-0.053987,-1.493844,-264.714582,1.348361,62.302404
1.7783,-0.000891,-0.010583,-0.052662,-0.000834,0.011221,0.05,-0.027272,-0.520145,-0.052368,-1.527582,-264.727754,1.423385,62.296693
1.798,-0.00115,-0.010598,-0.052797,0.000332,0.010615,0.05,-0.027543,-0.519945,-0.052347,-1.527582,-264.727754,1.423385,62.296693
1.818,-0.001208,-0.01088,-0.053286,0.000589,0.010644,0.05,-0.027543,-0.519945,-0.052347,-1.527582,-264.727754,1.423385,62.296693
1.8377,-0.002077,-0.010092,-0.049071,0.000627,0.010929,0.05,-0.02839,-0.519691,-0.051274,-1.551866,-264.74165,1.498368,62.290386
1.8579,-0.002159,-0.010035,-0.050104,0.001579,0.010182,0.049071,-0.028306,-0.519666,-0.051079,-1.551866,-264.74165,1.498368,62.290386
1.8778,-0.002957,-0.009477,-0.048407,0.001654,0.010131,0.05,-0.027674,-0.519053,-0.048493,-1.585099,-264.755376,1.573245,62.283754
1.8982,-0.002878,-0.009727,-0.049138,0.001654,0.010131,0.05,-0.027649,-0.518911,-0.048241,-1.585099,-264.755376,1.573245,62.283754
1.918,-0.00293,-0.009284,-0.048052,2.4e-05,9.7e-05,0.0,-0.027649,-0.518911,-0.048241,-1.585099,-264.755376,1.573245,62.283754
1.938,-0.003859,-0.009195,-0.04616,2.4e-05,9.7e-05,0.0,-0.027338,-0.518254,-0.045909,-1.610104,-264.769811,1.648395,62.276623
1.9585,-0.0038,-0.009411,-0.046274,2.4e-05,9.7e-05,0.0,-0.02734,-0.51827,-0.04587,-1.610104,-264.769811,1.648395,62.276623
1.978,-0.004403,-0.00903,-0.046172,2.4e-05,9.7e-05,0.0,-0.027389,-0.518648,-0.04592,-1.535258,-264.774305,1.573549,62.276623
1.998,-0.003998,-0.008832,-0.046868,2.4e-05,9.7e-05,0.0,-0.027707,-0.518528,-0.04602,-1.535258,-264.774305,1.573549,62.276623
2.0183,-0.004119,-0.008768,-0.045963,2.4e-05,9.7e-05,0.0,-0.027707,-0.518528,-0.04602,-1.535258,-264.774305,1.573549,62.276623
2.0379,-0.004248,-0.008922,-0.044368,2.4e-05,9.7e-05,0.0,-0.027552,-0.51823,-0.045963,-1.460107,-264.774305,1.498397,62.276623
2.0581,-0.0041,-0.009024,-0.045656,2.4e-05,9.7e-05,0.0,-0.027507,-0.518242,-0.045859,-1.460107,-264.774305,1.498397,62.276623
2.0781,-0.004272,-0.008642,-0.046421,2.4e-05,9.7e-05,0.0,-0.027377,-0.518492,-0.045656,-1.385265,-264.774305,1.423556,62.276623
2.098,-0.004263,-0.008528,-0.046069,2.4e-05,9.7e-05,0.0,-0.027696,-0.518265,-0.04609,-1.385265,-264.774305,1.423556,62.276623
2.1182,-0.004549,-0.008741,-0.043784,2.4e-05,9.7e-05,0.0,-0.027696,-0.518265,-0.04609,-1.385265,-264.774305,1.423556,62.276623
2.138,-0.003992,-0.008839,-0.046182,0.000353,0.00145,0.00723,-0.026872,-0.518252,-0.043784,-1.310262,-264.774305,1.348552,62.276623
2.1581,-0.004317,-0.00902,-0.045045,0.000683,0.002808,0.014002,-0.026917,-0.518255,-0.043949,-1.310262,-264.774305,1.348552,62.276623
2.1779,-0.004436,-0.008994,-0.045535,0.000998,0.004104,0.020461,-0.027282,-0.518502,-0.045045,-1.235251,-264.774305,1.332276,62.276623
2.1978,-0.004499,-0.008948,-0.04333,0.001294,0.005322,0.026531,-0.027493,-0.518481,-0.045326,-1.235251,-264.774305,1.332276,62.276623
2.218,-0.004343,-0.00895,-0.046691,0.001573,0.006468,0.032245,-0.027493,-0.518481,-0.045326,-1.235251,-264.774305,1.332276,62.276623
2.2379,-0.004494,-0.008767,-0.042946,0.001833,0.00754,0.03759,-0.028147,-0.518393,-0.046684,-1.310391,-264.774348,1.407416,62.276601
2.2578,-0.004478,-0.008805,-0.045624,0.002076,0.008538,0.042568,-0.028029,-0.518387,-0.046432,-1.310391,-264.774348,1.407416,62.276601
2.2784,-0.004027,-0.008506,-0.045361,0.002301,0.009462,0.047172,-0.027744,-0.518261,-0.04556,-1.385211,-264.774892,1.482235,62.276324
2.2983,-0.004238,-0.008886,-0.044516,0.002507,0.010312,0.051411,-0.02741,-0.518101,-0.045439,-1.385211,-264.774892,1.482235,62.276324
2.318,-0.004394,-0.008706,-0.04597,0.002697,0.01109,0.05529,-0.02741,-0.518101,-0.045439,-1.385211,-264.774892,1.482235,62.276324
2.3378,-0.004109,-0.008788,-0.045819,0.002867,0.011792,0.058787,-0.027846,-0.518089,-0.045579,-1.460248,-264.777519,1.557273,62.274989
2.3586,-0.004783,-0.008673,-0.045567,0.003021,0.012426,0.061948,-0.027816,-0.5181,-0.045587,-1.460248,-264.777519,1.557273,62.274989
2.378,-0.004782,-0.008173,-0.043879,0.003155,0.012976,0.06469,-0.028008,-0.518081,-0.044861,-1.535568,-264.782625,1.632592,62.271165
2.398,-0.004986,-0.008351,-0.045657,0.003271,0.013453,0.067072,-0.027527,-0.517849,-0.044218,-1.535568,-264.782625,1.632592,62.271165
2.418,-0.004853,-0.008761,-0.04563,0.00337,0.01386,0.0691,-0.027527,-0.517849,-0.044218,-1.535568,-264.782625,1.632592,62.271165
2.4379,-0.005615,-0.008379,-0.043125,0.003451,0.014194,0.070762,-0.028049,-0.518153,-0.044246,-1.610255,-264.790241,1.689148,62.264835
2.4579,-0.005699,-0.008302,-0.042331,0.003514,0.014453,0.072053,-0.028017,-0.518134,-0.044136,-1.610255,-264.790241,1.689148,62.264835
2.4778,-0.00639,-0.008112,-0.04194,0.003559,0.014637,0.07297,-0.027199,-0.517784,-0.04084,-1.630837,-264.800367,1.689148,62.255998
2.4978,-0.006865,-0.008296,-0.040273,0.003586,0.014747,0.073522,-0.027516,-0.517707,-0.041278,-1.630837,-264.800367,1.689148,62.255998
2.5178,-0.00677,-0.008492,-0.040937,0.003595,0.014784,0.073707,-0.027516,-0.517707,-0.041278,-1.630837,-264.800367,1.689148,62.255998
2.5379,-0.007583,-0.008165,-0.038617,0.003586,0.014747,0.073522,-0.027511,-0.517989,-0.038567,-1.630837,-264.812973,1.689148,62.244677
2.5578,-0.007918,-0.008208,-0.03975,0.003559,0.014637,0.07297,-0.027491,-0.517972,-0.038507,-1.630837,-264.812973,1.689148,62.244677
2.5779,-0.009205,-0.00816,-0.034891,0.003514,0.014452,0.072049,-0.028066,-0.517664,-0.037601,-1.630837,-264.82809,1.689148,62.232499
2.5981,-0.009149,-0.008017,-0.035674,0.003451,0.014193,0.070761,-0.027442,-0.517752,-0.035785,-1.630837,-264.82809,1.689148,62.232499
2.618,-0.008831,-0.008297,-0.036541,0.00337,0.013861,0.069101,-0.027442,-0.517752,-0.035785,-1.630837,-264.82809,1.689148,62.232499
2.6379,-0.010462,-0.00766,-0.032939,0.003271,0.013454,0.067073,-0.0273,-0.517621,-0.0336,-1.630837,-264.845706,1.689148,62.220442
2.6581,-0.010215,-0.007395,-0.031658,0.003154,0.012973,0.064676,-0.027293,-0.517595,-0.033476,-1.630837,-264.845706,1.689148,62.220442
2.6778,-0.011683,-0.007254,-0.030239,0.003019,0.012418,0.061911,-0.026221,-0.516721,-0.029174,-1.630837,-264.865822,1.689148,62.209025
2.6978,-0.011521,-0.006837,-0.028717,0.002867,0.011791,0.058784,-0.026706,-0.516839,-0.029465,-1.630837,-264.865822,1.689148,62.209025
2.7179,-0.011898,-0.007266,-0.029142,0.002696,0.011089,0.055282,-0.026706,-0.516839,-0.029465,-1.630837,-264.865822,1.689148,62.209025
2.7385,-0.013313,-0.005696,-0.026776,0.002507,0.010312,0.051411,-0.026588,-0.516422,-0.025994,-1.630837,-264.886891,1.689148,62.198318
2.7582,-0.012943,-0.006291,-0.025725,0.002301,0.009463,0.047175,-0.02661,-0.516341,-0.025963,-1.630837,-264.886891,1.689148,62.198318
2.7782,-0.014316,-0.00567,-0.023198,0.002076,0.008537,0.042563,-0.025947,-0.515697,-0.023592,-1.630837,-264.904834,1.689148,62.1892
2.798,-0.014521,-0.005706,-0.025599,0.001833,0.00754,0.03759,-0.026046,-0.51555,-0.023098,-1.630837,-264.904834,1.689148,62.1892
2.8179,-0.014332,-0.005646,-0.023929,0.001573,0.006468,0.032245,-0.026046,-0.51555,-0.023098,-1.630837,-264.904834,1.689148,62.1892
2.8379,-0.015619,-0.00521,-0.020376,0.001294,0.005321,0.026526,-0.026412,-0.515042,-0.021634,-1.630837,-264.920162,1.689148,62.18141
2.8583,-0.015283,-0.005277,-0.020208,0.000997,0.004102,0.020451,-0.026383,-0.515035,-0.021495,-1.630837,-264.920162,1.689148,62.18141
2.8779,-0.016696,-0.00456,-0.021151,0.000683,0.002807,0.013995,-0.025523,-0.514924,-0.018962,-1.630837,-264.930649,1.689148,62.176081
2.8986,-0.016729,-0.004923,-0.020155,0.00035,0.00144,0.007181,-0.026629,-0.514621,-0.020049,-1.630837,-264.930649,1.689148,62.176081
2.918,-0.016159,-0.004783,-0.019878,0.0,2e-06,9e-06,-0.026629,-0.514621,-0.020049,-1.630837,-264.930649,1.689148,62.176081
2.9382,-0.016833,-0.004611,-0.017326,0.0,0.0,0.0,-0.026244,-0.514483,-0.018882,-1.630837,-264.937298,1.689148,62.172702
2.9582,-0.01651,-0.004462,-0.017774,0.0,0.0,0.0,-0.026205,-0.514482,-0.018757,-1.630837,-264.937298,1.689148,62.172702
2.9779,-0.016795,-0.004868,-0.018911,0.0,0.0,0.0,-0.025574,-0.514381,-0.017773,-1.630837,-264.937301,1.689148,62.1727
2.9979,-0.016992,-0.004723,-0.017231,0.0,0.0,0.0,-0.026066,-0.514606,-0.018421,-1.630837,-264.937301,1.689148,62.1727
3.0178,-0.017093,-0.004751,-0.018658,0.0,0.0,0.0,-0.026066,-0.514606,-0.018421,-1.630837,-264.937301,1.689148,62.1727
3.038,-0.017086,-0.004526,-0.018292,0.0,0.0,0.0,-0.026608,-0.514662,-0.018658,-1.630837,-264.937301,1.689148,62.1727
3.0583,-0.017155,-0.005152,-0.01977,0.0,0.0,0.0,-0.026595,-0.514648,-0.018634,-1.630837,-264.937301,1.689148,62.1727
3.0778,-0.017056,-0.004578,-0.018117,0.0,0.0,0.0,-0.027238,-0.515053,-0.01977,-1.630837,-264.937301,1.689148,62.1727
3.098,-0.016612,-0.004976,-0.01804,0.0,0.0,0.0,-0.026708,-0.514739,-0.018841,-1.630837,-264.937301,1.689148,62.1727
3.118,-0.017044,-0.004518,-0.01786,0.0,0.0,0.0,-0.026708,-0.514739,-0.018841,-1.630837,-264.937301,1.689148,62.1727
3.1379,-0.016621,-0.004634,-0.017377,9.6e-05,2.7e-05,0.0,-0.026152,-0.514436,-0.01786,-1.630837,-264.937301,1.689148,62.1727
3.1587,-0.016793,-0.004876,-0.018924,9.6e-05,2.7e-05,0.0,-0.026108,-0.514444,-0.017829,-1.630837,-264.937301,1.689148,62.1727
3.1778,-0.016973,-0.004236,-0.018386,9.6e-05,2.7e-05,0.0,-0.026444,-0.514784,-0.018924,-1.630837,-264.937301,1.689148,62.1727
3.1977,-0.017137,-0.004814,-0.01779,9.6e-05,2.7e-05,0.0,-0.02639,-0.514423,-0.018617,-1.630837,-264.937301,1.689148,62.1727
3.2178,-0.016504,-0.004597,-0.018059,9.6e-05,2.7e-05,0.0,-0.02639,-0.514423,-0.018617,-1.630837,-264.937301,1.689148,62.1727
3.2381,-0.016757,-0.004624,-0.018338,9.6e-05,2.7e-05,0.0,-0.025714,-0.514514,-0.018059,-1.555784,-264.937301,1.614095,62.1727
3.2585,-0.016684,-0.004609,-0.018979,9.6e-05,2.7e-05,0.0,-0.025742,-0.514516,-0.018079,-1.555784,-264.937301,1.614095,62.1727
3.2781,-0.016757,-0.004443,-0.018326,9.6e-05,2.7e-05,0.0,-0.026362,-0.514517,-0.018979,-1.480846,-264.937301,1.539156,62.1727
3.2978,-0.016667,-0.004918,-0.018296,9.6e-05,2.7e-05,0.0,-0.026215,-0.514426,-0.018609,-1.480846,-264.937301,1.539156,62.1727
3.3181,-0.017093,-0.004657,-0.017167,9.6e-05,2.7e-05,0.0,-0.026215,-0.514426,-0.018609,-1.480846,-264.937301,1.539156,62.1727
3.3386,-0.017126,-0.00498,-0.017785,1e-06,0.0,1e-06,-0.025848,-0.514582,-0.017167,-1.405845,-264.937301,1.464156,62.1727
3.358,-0.017096,-0.005001,-0.017259,0.00248,0.000705,0.002612,-0.025872,-0.514604,-0.017209,-1.405845,-264.937301,1.464156,62.1727
3.378,-0.016798,-0.004729,-0.019972,0.004885,0.001389,0.005145,-0.025897,-0.514925,-0.017259,-1.330844,-264.937301,1.389154,62.1727
3.3981,-0.016812,-0.004534,-0.018542,0.007068,0.002009,0.007443,-0.026515,-0.514755,-0.018803,-1.330844,-264.937301,1.389154,62.1727
3.418,-0.016572,-0.004614,-0.019637,0.009157,0.002603,0.009643,-0.026515,-0.514755,-0.018803,-1.330844,-264.937301,1.389154,62.1727
3.4379,-0.016835,-0.004594,-0.018099,0.011141,0.003167,0.011733,-0.026586,-0.514516,-0.019637,-1.255847,-264.937301,1.314158,62.1727
3.4583,-0.017249,-0.004412,-0.019658,0.012974,0.003688,0.013663,-0.02655,-0.514515,-0.01953,-1.255847,-264.937301,1.314158,62.1727
3.478,-0.016963,-0.00479,-0.017495,0.0147,0.004179,0.015481,-0.027274,-0.514314,-0.019658,-1.18085,-264.937301,1.239161,62.1727
3.4981,-0.016491,-0.0045,-0.017493,0.01628,0.004628,0.017144,-0.02648,-0.514542,-0.018422,-1.18085,-264.937301,1.239161,62.1727
3.5182,-0.016568,-0.004615,-0.017731,0.017752,0.005046,0.018694,-0.02648,-0.514542,-0.018422,-1.18085,-264.937301,1.239161,62.1727
3.5381,-0.017066,-0.00515,-0.018647,0.019083,0.005425,0.020096,-0.02561,-0.514535,-0.017731,-1.105787,-264.937301,1.164098,62.1727
3.5584,-0.016629,-0.004628,-0.017683,0.020289,0.005768,0.021366,-0.025672,-0.514568,-0.01779,-1.105787,-264.937301,1.164098,62.1727
3.578,-0.017202,-0.004611,-0.017093,0.021398,0.006083,0.022534,-0.025647,-0.514548,-0.017683,-1.030828,-264.937301,1.089139,62.1727
3.5979,-0.016563,-0.004837,-0.017665,0.022325,0.006346,0.02351,-0.025802,-0.514542,-0.017348,-1.030828,-264.937301,1.089139,62.1727
3.6182,-0.017174,-0.004524,-0.018087,0.02315,0.006581,0.024379,-0.025802,-0.514542,-0.017348,-1.030828,-264.937301,1.089139,62.1727
3.638,-0.016672,-0.004542,-0.02014,0.02385,0.00678,0.025117,-0.026398,-0.514441,-0.018087,-0.955875,-264.937301,1.014186,62.1727
3.6578,-0.016684,-0.004481,-0.018902,0.024422,0.006943,0.025719,-0.026436,-0.514441,-0.018228,-0.955875,-264.937301,1.014186,62.1727
3.6779,-0.016829,-0.00466,-0.019899,0.024868,0.007069,0.026188,-0.026323,-0.51439,-0.018902,-0.880844,-264.937301,0.939155,62.1727
3.6978,-0.016743,-0.00485,-0.018355,0.025186,0.00716,0.026523,-0.026695,-0.514486,-0.019469,-0.880844,-264.937301,0.939155,62.1727
3.7179,-0.016739,-0.004899,-0.019301,0.025377,0.007214,0.026724,-0.026695,-0.514486,-0.019469,-0.880844,-264.937301,0.939155,62.1727
3.7378,-0.01682,-0.004686,-0.01806,0.02544,0.007232,0.026791,-0.026582,-0.514804,-0.019301,-0.805846,-264.937301,0.864156,62.1727
3.758,-0.01687,-0.004514,-0.017953,0.025377,0.007214,0.026724,-0.026543,-0.51479,-0.019215,-0.805846,-264.937301,0.864156,62.1727
3.778,-0.016743,-0.004612,-0.018464,0.025186,0.00716,0.026523,-0.026026,-0.514432,-0.017953,-0.730845,-264.937301,0.789155,62.1727
3.7979,-0.016667,-0.004686,-0.018863,0.024868,0.007069,0.026188,-0.026101,-0.514485,-0.018243,-0.730845,-264.937301,0.789155,62.1727
3.8181,-0.016759,-0.005023,-0.018182,0.024421,0.006942,0.025717,-0.026101,-0.514485,-0.018243,-0.730845,-264.937301,0.789155,62.1727
3.838,-0.017078,-0.004884,-0.017451,0.023849,0.00678,0.025115,-0.026031,-0.514938,-0.018182,-0.655875,-264.937301,0.714186,62.1727
3.8578,-0.016626,-0.004705,-0.019066,0.023147,0.00658,0.024376,-0.026027,-0.514929,-0.018132,-0.655875,-264.937301,0.714186,62.1727
3.8779,-0.016728,-0.004887,-0.018203,0.022318,0.006345,0.023503,-0.026349,-0.514612,-0.019066,-0.580826,-264.937301,0.639137,62.1727
3.8985,-0.017059,-0.004825,-0.018331,0.021365,0.006074,0.022499,-0.026157,-0.51472,-0.018575,-0.580826,-264.937301,0.639137,62.1727
3.918,-0.017073,-0.004774,-0.019447,0.020289,0.005768,0.021367,-0.026157,-0.51472,-0.018575,-0.580826,-264.937301,0.639137,62.1727
3.9377,-0.016841,-0.00434,-0.018967,0.019078,0.005423,0.02009,-0.02699,-0.514677,-0.019447,-0.505838,-264.937301,0.564149,62.1727
3.9584,-0.016738,-0.004746,-0.019485,0.017745,0.005044,0.018687,-0.026957,-0.514648,-0.019414,-0.505838,-264.937301,0.564149,62.1727
3.9783,-0.016744,-0.004642,-0.015621,0.01628,0.004628,0.017145,-0.026675,-0.51465,-0.019485,-0.430845,-264.937301,0.489156,62.1727
3.998,-0.016505,-0.004647,-0.017231,0.014683,0.004174,0.015463,-0.025557,-0.51461,-0.017286,-0.430845,-264.937301,0.489156,62.1727
4.018,-0.016848,-0.004232,-0.020276,0.012976,0.003689,0.013664,-0.025557,-0.51461,-0.017286,-0.430845,-264.937301,0.489156,62.1727
4.0379,-0.016714,-0.005088,-0.017386,0.011114,0.003159,0.011704,-0.027188,-0.514127,-0.020276,-0.35585,-264.937301,0.414161,62.1727
4.0583,-0.017003,-0.004514,-0.019541,0.009159,0.002604,0.009645,-0.027079,-0.514187,-0.020079,-0.35585,-264.937301,0.414161,62.1727
4.0779,-0.016974,-0.004916,-0.019839,0.007059,0.002007,0.007434,-0.026968,-0.514417,-0.019541,-0.280883,-264.937301,0.339194,62.1727
4.098,-0.016682,-0.004659,-0.017047,0.004835,0.001374,0.005091,-0.027039,-0.514645,-0.019711,-0.280883,-264.937301,0.339194,62.1727
4.1177,-0.016445,-0.004658,-0.01723,0.002481,0.000705,0.002612,-0.027039,-0.514645,-0.019711,-0.280883,-264.937301,0.339194,62.1727
4.1378,-0.016998,-0.004692,-0.016699,0.0,0.0,0.0,-0.025233,-0.514583,-0.01723,-0.205792,-264.937301,0.264102,62.1727
4.1581,-0.01714,-0.004748,-0.018758,0.0,0.0,0.0,-0.025258,-0.514586,-0.017181,-0.205792,-264.937301,0.264102,62.1727
4.1777,-0.016535,-0.004725,-0.018266,0.0,0.0,0.0,-0.026706,-0.514658,-0.018758,-0.130156,-264.937301,0.188466,62.1727
4.1978,-0.016775,-0.004466,-0.020648,0.0,0.0,0.0,-0.026216,-0.514648,-0.018476,-0.130156,-264.937301,0.188466,62.1727
4.2177,-0.016842,-0.004518,-0.018219,0.0,0.0,0.0,-0.026216,-0.514648,-0.018476,-0.130156,-264.937301,0.188466,62.1727
4.2378,-0.016836,-0.004843,-0.018838,0.0,0.0,0.0,-0.026133,-0.514433,-0.018219,-0.130156,-264.937301,0.188466,62.1727
4.2584,-0.016699,-0.004951,-0.019285,0.0,0.0,0.0,-0.026155,-0.514456,-0.018262,-0.130156,-264.937301,0.188466,62.1727
4.2778,-0.01706,-0.004249,-0.016867,0.0,0.0,0.0,-0.026534,-0.514856,-0.019285,-0.130156,-264.937301,0.188466,62.1727
4.298,-0.016907,-0.00459,-0.019792,0.0,0.0,0.0,-0.026046,-0.514476,-0.017932,-0.130156,-264.937301,0.188466,62.1727
4.3182,-0.016633,-0.004883,-0.018762,0.0,0.0,0.0,-0.026046,-0.514476,-0.017932,-0.130156,-264.937301,0.188466,62.1727
4.3378,-0.016476,-0.00486,-0.01836,0.0,0.0,0.0,-0.026202,-0.514793,-0.018762,-0.130156,-264.937301,0.188466,62.1727
4.3579,-0.01673,-0.004733,-0.019994,9.5e-05,3e-05,0.0,-0.026178,-0.514792,-0.018736,-0.130156,-264.937301,0.188466,62.1727
4.3785,-0.016714,-0.004705,-0.018514,9.5e-05,3e-05,0.0,-0.026926,-0.514631,-0.019994,-0.130156,-264.937301,0.188466,62.1727
4.3977,-0.016996,-0.004703,-0.018424,9.5e-05,3e-05,0.0,-0.02649,-0.514624,-0.019157,-0.130156,-264.937301,0.188466,62.1727
4.4179,-0.017196,-0.004719,-0.018099,9.5e-05,3e-05,0.0,-0.02649,-0.514624,-0.019157,-0.130156,-264.937301,0.188466,62.1727
4.438,-0.016667,-0.004865,-0.017183,9.5e-05,3e-05,0.0,-0.026426,-0.514636,-0.018099,-0.055131,-264.9373,0.263492,62.172702
4.4583,-0.016736,-0.00432,-0.018051,9.5e-05,3e-05,0.0,-0.026359,-0.514646,-0.018037,-0.055131,-264.9373,0.263492,62.172702
4.4779,-0.016578,-0.004902,-0.017663,9.5e-05,3e-05,0.0,-0.025941,-0.514237,-0.018051,0.019866,-264.937295,0.305178,62.172706
4.4979,-0.016925,-0.004688,-0.01843,9.5e-05,3e-05,0.0,-0.025736,-0.514574,-0.017828,0.019866,-264.937295,0.305178,62.172706
4.5184,-0.016638,-0.004673,-0.017332,9.5e-05,3e-05,0.0,-0.025736,-0.514574,-0.017828,0.019866,-264.937295,0.305178,62.172706
4.5378,-0.016887,-0.004772,-0.019634,9.5e-05,3e-05,0.0,-0.025476,-0.514596,-0.017332,0.095034,-264.937284,0.305178,62.172717
4.5584,-0.016912,-0.004531,-0.018716,2e-06,1e-06,3e-06,-0.025574,-0.514601,-0.017492,0.095034,-264.937284,0.305178,62.172717
4.5777,-0.016417,-0.004684,-0.018561,0.0024,0.000756,0.002689,-0.026455,-0.514441,-0.018717,0.169822,-264.937265,0.305178,62.172737
4.5978,-0.016521,-0.004782,-0.017839,0.004667,0.00147,0.00523,-0.026129,-0.51453,-0.018628,0.169822,-264.937265,0.305178,62.172737
4.6182,-0.01676,-0.00511,-0.017658,0.006824,0.00215,0.007647,-0.026129,-0.51453,-0.018628,0.169822,-264.937265,0.305178,62.172737
4.6385,-0.016089,-0.004851,-0.018306,0.008848,0.002787,0.009915,-0.025766,-0.515031,-0.017658,0.244853,-264.937265,0.230148,62.172737
4.6581,-0.01683,-0.004529,-0.017665,0.010752,0.003387,0.012049,-0.025743,-0.515013,-0.017702,0.244853,-264.937265,0.230148,62.172737
4.6783,-0.016827,-0.004693,-0.016184,0.012535,0.003949,0.014047,-0.025838,-0.514449,-0.017665,0.319848,-264.937265,0.155152,62.172737
4.6981,-0.016712,-0.004995,-0.017337,0.014193,0.004471,0.015905,-0.025408,-0.51455,-0.016824,0.319848,-264.937265,0.155152,62.172737
4.718,-0.016707,-0.004657,-0.018127,0.015729,0.004955,0.017626,-0.025408,-0.51455,-0.016824,0.319848,-264.937265,0.155152,62.172737
4.7381,-0.016612,-0.004551,-0.017675,0.017142,0.0054,0.01921,-0.025951,-0.514573,-0.018127,0.39485,-264.937262,0.080151,62.172738
4.7581,-0.01688,-0.004759,-0.017586,0.018434,0.005807,0.020658,-0.025929,-0.514566,-0.018096,0.39485,-264.937262,0.080151,62.172738
4.7778,-0.016769,-0.004943,-0.01851,0.019601,0.006175,0.021965,-0.025846,-0.514679,-0.017585,0.469853,-264.93723,0.005147,62.172763
4.798,-0.016645,-0.004686,-0.019596,0.020647,0.006504,0.023137,-0.026052,-0.51478,-0.018113,0.469853,-264.93723,0.005147,62.172763
4.8178,-0.016647,-0.004647,-0.017332,0.021566,0.006794,0.024167,-0.026052,-0.51478,-0.018113,0.469853,-264.93723,0.005147,62.172763
4.838,-0.016923,-0.004968,-0.018983,0.022368,0.007046,0.025065,-0.025461,-0.514564,-0.017318,0.544913,-264.936979,-0.069913,62.172952
4.8582,-0.016681,-0.004882,-0.018716,0.02304,0.007258,0.025819,-0.025541,-0.514585,-0.017435,0.544913,-264.936979,-0.069913,62.172952
4.8778,-0.016823,-0.00453,-0.019261,0.023594,0.007433,0.02644,-0.026127,-0.514765,-0.018646,0.619869,-264.935681,-0.144868,62.17393
4.898,-0.01661,-0.004671,-0.018649,0.024024,0.007568,0.026921,-0.02641,-0.514574,-0.018987,0.619869,-264.935681,-0.144868,62.17393
4.9178,-0.017143,-0.004505,-0.018422,0.02433,0.007665,0.027265,-0.02641,-0.514574,-0.018987,0.619869,-264.935681,-0.144868,62.17393
4.9382,-0.016359,-0.004496,-0.017358,0.024515,0.007723,0.027471,-0.026173,-0.514319,-0.018112,0.694887,-264.931873,-0.219887,62.177071
4.9582,-0.016175,-0.004417,-0.018236,0.024576,0.007742,0.02754,-0.02609,-0.514324,-0.018046,0.694887,-264.931873,-0.219887,62.177071
4.9783,-0.015961,-0.004494,-0.017803,0.024511,0.007721,0.027467,-0.024995,-0.514209,-0.017761,0.770038,-264.925585,-0.295037,62.182694
4.9984,-0.016192,-0.004076,-0.017066,0.02433,0.007665,0.027265,-0.02496,-0.514309,-0.017725,0.770038,-264.925585,-0.295037,62.182694
5.0178,-0.01601,-0.004528,-0.019969,0.024023,0.007568,0.02692,-0.02496,-0.514309,-0.017725,0.770038,-264.925585,-0.295037,62.182694
5.0379,-0.016196,-0.004332,-0.016562,0.023592,0.007432,0.026437,-0.025349,-0.514236,-0.01907,0.785112,-264.916786,-0.353844,62.190827
5.0582,-0.015567,-0.004339,-0.015674,0.02304,0.007258,0.025819,-0.025276,-0.514233,-0.018869,0.785112,-264.916786,-0.353844,62.190827
5.0779,-0.015305,-0.003915,-0.014993,0.022361,0.007044,0.025058,-0.022708,-0.514075,-0.014763,0.785112,-264.905473,-0.353844,62.201085
5.098,-0.015249,-0.004052,-0.015558,0.021561,0.006792,0.024161,-0.022739,-0.513925,-0.014779,0.785112,-264.905473,-0.353844,62.201085
5.1179,-0.015066,-0.004182,-0.014911,0.020643,0.006503,0.023133,-0.022739,-0.513925,-0.014779,0.785112,-264.905473,-0.353844,62.201085
5.1382,-0.014934,-0.003544,-0.013564,0.019588,0.006171,0.02195,-0.021545,-0.513788,-0.013656,0.785112,-264.892463,-0.353844,62.210894
5.1583,-0.014773,-0.003591,-0.014468,0.018425,0.005804,0.020647,-0.021537,-0.513761,-0.013618,0.785112,-264.892463,-0.353844,62.210894
5.1783,-0.014351,-0.003373,-0.0137,0.017132,0.005397,0.019198,-0.02134,-0.513294,-0.013563,0.785112,-264.880787,-0.353844,62.219698
5.1986,-0.014597,-0.003491,-0.012944,0.015725,0.004954,0.017622,-0.021239,-0.513282,-0.013528,0.785112,-264.880787,-0.353844,62.219698
5.2187,-0.01437,-0.00353,-0.01424,0.014187,0.004469,0.015899,-0.021239,-0.513282,-0.013528,0.785112,-264.880787,-0.353844,62.219698
5.2386,-0.013962,-0.002848,-0.01087,0.012517,0.003943,0.014026,-0.020727,-0.513207,-0.013231,0.785112,-264.870325,-0.353844,62.227587
5.2583,-0.013685,-0.003343,-0.01309,0.010744,0.003385,0.01204,-0.020625,-0.513175,-0.013051,0.785112,-264.870325,-0.353844,62.227587
5.2782,-0.013512,-0.002925,-0.011422,0.008839,0.002785,0.009905,-0.019812,-0.513134,-0.012477,0.785112,-264.862334,-0.353844,62.233612
5.298,-0.013563,-0.002639,-0.011162,0.006817,0.002148,0.00764,-0.019473,-0.512976,-0.011801,0.785112,-264.862334,-0.353844,62.233612
5.3177,-0.013518,-0.002493,-0.010934,0.00467,0.001471,0.005233,-0.019473,-0.512976,-0.011801,0.785112,-264.862334,-0.353844,62.233612
5.3381,-0.013446,-0.002391,-0.010966,0.002389,0.000753,0.002678,-0.01857,-0.512303,-0.010349,0.785112,-264.856259,-0.353844,62.238193
5.3579,-0.013188,-0.002566,-0.010853,0.0,0.0,0.0,-0.018589,-0.512303,-0.010376,0.785112,-264.856259,-0.353844,62.238193
5.3778,-0.01296,-0.002245,-0.010249,0.0,0.0,0.0,-0.018542,-0.512481,-0.010651,0.785112,-264.853613,-0.353844,62.240188
5.3978,-0.01306,-0.002182,-0.011641,0.0,0.0,0.0,-0.018316,-0.512324,-0.010395,0.785112,-264.853613,-0.353844,62.240188
5.4178,-0.01343,-0.002344,-0.010793,0.0,0.0,0.0,-0.018316,-0.512324,-0.010395,0.785112,-264.853613,-0.353844,62.240188
5.4379,-0.013436,-0.002308,-0.008755,0.0,0.0,0.0,-0.018934,-0.512315,-0.010793,0.785112,-264.853613,-0.353844,62.240188
5.4581,-0.013409,-0.002508,-0.011128,0.0,0.0,0.0,-0.018863,-0.512313,-0.010652,0.785112,-264.853613,-0.353844,62.240188
5.4779,-0.013335,-0.002722,-0.010775,0.0,0.0,0.0,-0.019084,-0.512476,-0.011128,0.785112,-264.853613,-0.353844,62.240188
5.4979,-0.013038,-0.002573,-0.009242,0.0,0.0,0.0,-0.018939,-0.5126,-0.010927,0.785112,-264.853613,-0.353844,62.240188
5.5187,-0.013511,-0.002653,-0.011293,0.0,0.0,0.0,-0.018939,-0.5126,-0.010927,0.785112,-264.853613,-0.353844,62.240188
5.5383,-0.012888,-0.002704,-0.009215,0.0,0.0,0.0,-0.019271,-0.51262,-0.011293,0.785112,-264.853613,-0.353844,62.240188
5.5583,-0.013355,-0.002444,-0.008248,0.0,0.0,0.0,-0.019161,-0.512624,-0.011157,0.785112,-264.853613,-0.353844,62.240188
5.5777,-0.013024,-0.002239,-0.011961,9.8e-05,1.9e-05,0.0,-0.017562,-0.512427,-0.008248,0.785112,-264.853613,-0.353844,62.240188
5.598,-0.013351,-0.002647,-0.009461,9.8e-05,1.9e-05,0.0,-0.018449,-0.512299,-0.010357,0.785112,-264.853613,-0.353844,62.240188
5.6179,-0.013313,-0.002334,-0.010054,9.8e-05,1.9e-05,0.0,-0.018449,-0.512299,-0.010357,0.785112,-264.853613,-0.353844,62.240188
5.638,-0.013369,-0.002451,-0.010328,9.8e-05,1.9e-05,0.0,-0.018441,-0.512308,-0.010054,0.785112,-264.853613,-0.353844,62.240188
5.6581,-0.013365,-0.002794,-0.009676,9.8e-05,1.9e-05,0.0,-0.018455,-0.512316,-0.010073,0.785112,-264.853613,-0.353844,62.240188
5.6779,-0.013675,-0.002195,-0.011325,9.8e-05,1.9e-05,0.0,-0.0183,-0.51277,-0.009676,0.710119,-264.853613,-0.278851,62.240188
5.698,-0.013552,-0.002821,-0.010143,9.8e-05,1.9e-05,0.0,-0.018971,-0.512416,-0.010638,0.710119,-264.853613,-0.278851,62.240188
5.7179,-0.013439,-0.002564,-0.010178,9.8e-05,1.9e-05,0.0,-0.018971,-0.512416,-0.010638,0.710119,-264.853613,-0.278851,62.240188
5.7384,-0.013523,-0.002347,-0.011535,9.8e-05,1.9e-05,0.0,-0.01863,-0.512538,-0.010178,0.634702,-264.853613,-0.203433,62.240188
5.758,-0.013277,-0.002692,-0.01104,9.8e-05,1.9e-05,0.0,-0.018684,-0.512522,-0.010272,0.634702,-264.853613,-0.203433,62.240188
5.7778,-0.013284,-0.002649,-0.009915,2e-05,4e-06,1.2e-05,-0.018907,-0.512661,-0.01104,0.560118,-264.853613,-0.128849,62.240188
5.7978,-0.013472,-0.00234,-0.010492,0.001953,0.000374,0.001208,-0.018586,-0.51264,-0.010403,0.560118,-264.853613,-0.128849,62.240188
5.8179,-0.013453,-0.002678,-0.009086,0.003799,0.000728,0.002349,-0.018586,-0.51264,-0.010403,0.560118,-264.853613,-0.128849,62.240188
5.8377,-0.013335,-0.002089,-0.011374,0.005549,0.001063,0.003432,-0.018087,-0.512657,-0.009086,0.485149,-264.853612,-0.053881,62.240189
5.858,-0.013249,-0.002287,-0.010981,0.007197,0.001379,0.004451,-0.018158,-0.512616,-0.009242,0.485149,-264.853612,-0.053881,62.240189
5.8777,-0.012873,-0.002586,-0.010277,0.008749,0.001676,0.005411,-0.018739,-0.512234,-0.010918,0.517557,-264.852299,-0.128923,62.241349
5.8978,-0.013274,-0.002265,-0.011071,0.010196,0.001953,0.006307,-0.018365,-0.512418,-0.010541,0.517557,-264.852299,-0.128923,62.241349
5.9178,-0.013302,-0.002227,-0.009074,0.011546,0.002212,0.007141,-0.018365,-0.512418,-0.010541,0.517557,-264.852299,-0.128923,62.241349
5.9384,-0.012677,-0.002347,-0.011133,0.012802,0.002452,0.007918,-0.017596,-0.512146,-0.008869,0.517557,-264.849151,-0.184089,62.244132
5.9582,-0.012877,-0.002631,-0.009189,0.013948,0.002672,0.008627,-0.01764,-0.512156,-0.00902,0.517557,-264.849151,-0.184089,62.244132
5.9782,-0.012828,-0.002342,-0.008248,0.015,0.002873,0.009278,-0.017117,-0.512529,-0.008913,0.517557,-264.843837,-0.184089,62.24883
5.9981,-0.012775,-0.002003,-0.009152,0.015952,0.003056,0.009867,-0.017014,-0.512402,-0.0085,0.517557,-264.843837,-0.184089,62.24883
6.018,-0.012584,-0.002288,-0.009051,0.016801,0.003218,0.010392,-0.017014,-0.512402,-0.0085,0.517557,-264.843837,-0.184089,62.24883
6.0379,-0.011849,-0.002149,-0.009191,0.017549,0.003362,0.010855,-0.016521,-0.512143,-0.008632,0.517557,-264.837417,-0.184089,62.254505
6.0582,-0.012191,-0.001982,-0.009728,0.0182,0.003486,0.011257,-0.016504,-0.512139,-0.00866,0.517557,-264.837417,-0.184089,62.254505
6.0779,-0.011431,-0.001947,-0.009248,0.018751,0.003592,0.011598,-0.016502,-0.51184,-0.009327,0.517557,-264.829683,-0.184089,62.261341
6.0981,-0.011604,-0.001673,-0.008615,0.0192,0.003678,0.011876,-0.016218,-0.511873,-0.009231,0.517557,-264.829683,-0.184089,62.261341
6.1182,-0.011687,-0.001705,-0.006775,0.019552,0.003745,0.012093,-0.016218,-0.511873,-0.009231,0.517557,-264.829683,-0.184089,62.261341
6.1382,-0.010849,-0.001697,-0.007244,0.019802,0.003793,0.012248,-0.014255,-0.511529,-0.006227,0.517557,-264.821306,-0.184089,62.268746
6.1582,-0.010785,-0.001855,-0.006272,0.019952,0.003822,0.012341,-0.014252,-0.511535,-0.00628,0.517557,-264.821306,-0.184089,62.268746
6.178,-0.010341,-0.001921,-0.007043,0.020002,0.003832,0.012372,-0.013228,-0.511705,-0.005805,0.517557,-264.812307,-0.184089,62.276701
6.1981,-0.010124,-0.001877,-0.00746,0.019952,0.003822,0.012341,-0.013534,-0.511803,-0.006452,0.517557,-264.812307,-0.184089,62.276701
6.218,-0.010075,-0.001134,-0.004472,0.019803,0.003794,0.012248,-0.013534,-0.511803,-0.006452,0.517557,-264.812307,-0.184089,62.276701
6.2382,-0.009864,-0.001685,-0.006793,0.019553,0.003746,0.012094,-0.011385,-0.510948,-0.003872,0.517557,-264.803123,-0.184089,62.284819
6.2581,-0.009498,-0.001433,-0.005461,0.019203,0.003679,0.011878,-0.011496,-0.510994,-0.004061,0.517557,-264.803123,-0.184089,62.284819
6.2782,-0.009091,-0.001342,-0.0054,0.018754,0.003592,0.011599,-0.011517,-0.511283,-0.004988,0.517557,-264.794008,-0.184089,62.292876
6.2979,-0.008739,-0.001419,-0.006286,0.018204,0.003487,0.01126,-0.011607,-0.511294,-0.005163,0.517557,-264.794008,-0.184089,62.292876
6.3178,-0.009017,-0.001108,-0.006069,0.017552,0.003362,0.010856,-0.011607,-0.511294,-0.005163,0.517557,-264.794008,-0.184089,62.292876
6.3379,-0.008186,-0.000915,-0.005504,0.016804,0.003219,0.010393,-0.011178,-0.510925,-0.005492,0.517557,-264.785169,-0.184089,62.30069
6.3583,-0.008106,-0.001048,-0.004995,0.015954,0.003056,0.009868,-0.01114,-0.51092,-0.005477,0.517557,-264.785169,-0.184089,62.30069
6.3783,-0.00782,-0.000986,-0.003488,0.015004,0.002874,0.00928,-0.009974,-0.510914,-0.004575,0.517557,-264.777091,-0.184089,62.307831
6.3983,-0.007574,-0.001384,-0.00521,0.013951,0.002672,0.008629,-0.009676,-0.510937,-0.003909,0.517557,-264.777091,-0.184089,62.307831
6.4181,-0.00763,-0.00078,-0.004438,0.012803,0.002453,0.007919,-0.009676,-0.510937,-0.003909,0.517557,-264.777091,-0.184089,62.307831
6.4383,-0.006951,-0.001093,-0.00539,0.011552,0.002213,0.007145,-0.009113,-0.510629,-0.003956,0.517557,-264.769747,-0.184089,62.314323
6.4584,-0.007097,-0.000766,-0.005399,0.010206,0.001955,0.006312,-0.009129,-0.510651,-0.004024,0.517557,-264.769747,-0.184089,62.314323
6.4783,-0.006647,-0.001001,-0.002869,0.008754,0.001677,0.005415,-0.009354,-0.510667,-0.005092,0.517557,-264.763855,-0.184089,62.319531
6.4982,-0.006724,-0.0009,-0.00531,0.007199,0.001379,0.004453,-0.008586,-0.510843,-0.003793,0.517557,-264.763855,-0.184089,62.319531
6.5182,-0.006493,-0.000849,-0.003777,0.005556,0.001064,0.003437,-0.008586,-0.510843,-0.003793,0.517557,-264.763855,-0.184089,62.319531
6.5378,-0.00629,-0.000707,-0.00375,0.003806,0.000729,0.002354,-0.007923,-0.510753,-0.00347,0.517557,-264.759159,-0.184089,62.323682
6.5582,-0.006396,-0.000514,-0.005769,0.001956,0.000375,0.00121,-0.007929,-0.510747,-0.003482,0.517557,-264.759159,-0.184089,62.323682
6.578,-0.006142,-0.00054,-0.004034,5e-06,1e-06,3e-06,-0.009124,-0.510465,-0.005636,0.517557,-264.756601,-0.184089,62.325943
6.598,-0.006424,-0.000362,-0.002978,0.0,0.0,0.0,-0.00857,-0.510501,-0.004707,0.517557,-264.756601,-0.184089,62.325943
6.6179,-0.005895,-0.00052,-0.003911,0.0,0.0,0.0,-0.00857,-0.510501,-0.004707,0.517557,-264.756601,-0.184089,62.325943
6.6379,-0.005652,-0.000317,-0.002898,0.0,0.0,0.0,-0.007795,-0.510498,-0.003853,0.517557,-264.7557,-0.184089,62.326739
6.6588,-0.006092,-0.000631,-0.00292,0.0,0.0,0.0,-0.007747,-0.510485,-0.003785,0.517557,-264.7557,-0.184089,62.326739
6.678,-0.00586,-0.000614,-0.001615,0.0,0.0,0.0,-0.007581,-0.510629,-0.00292,0.517557,-264.7557,-0.184089,62.326739
6.698,-0.005777,-0.000748,-0.002942,0.0,0.0,0.0,-0.007073,-0.51062,-0.002181,0.517557,-264.7557,-0.184089,62.326739
6.7181,-0.006133,-0.000387,-0.002085,0.0,0.0,0.0,-0.007073,-0.51062,-0.002181,0.517557,-264.7557,-0.184089,62.326739
6.7379,-0.005954,-0.000587,-0.003531,0.0,0.0,0.0,-0.007197,-0.510386,-0.002085,0.517557,-264.7557,-0.184089,62.326739
6.7581,-0.005921,-0.00061,-0.001577,0.0,0.0,0.0,-0.007236,-0.5104,-0.002186,0.517557,-264.7557,-0.184089,62.326739
6.7784,-0.005732,-0.000337,-0.003016,0.0,0.0,0.0,-0.006726,-0.510609,-0.001577,0.517557,-264.7557,-0.184089,62.326739
6.7983,-0.006086,-0.000413,-0.004332,0.0,0.0,0.0,-0.007035,-0.510454,-0.002393,0.517557,-264.7557,-0.184089,62.326739
6.818,-0.006145,-0.000562,-0.003286,0.0001,7e-06,0.0,-0.007035,-0.510454,-0.002393,0.517557,-264.7557,-0.184089,62.326739
6.838,-0.006088,-0.000655,-0.00358,0.0001,7e-06,0.0,-0.007821,-0.510559,-0.003286,0.517557,-264.7557,-0.184089,62.326739
6.8581,-0.006488,-0.000693,-0.003362,0.0001,7e-06,0.0,-0.007827,-0.510565,-0.003306,0.517557,-264.7557,-0.184089,62.326739
6.878,-0.005527,-0.000379,-0.00305,0.0001,7e-06,0.0,-0.008202,-0.51069,-0.003362,0.442585,-264.7557,-0.109117,62.32674
6.8984,-0.005814,-0.000202,-0.004633,0.0001,7e-06,0.0,-0.007562,-0.510511,-0.003184,0.442585,-264.7557,-0.109117,62.32674
6.918,-0.005896,-0.000487,-0.003907,0.0001,7e-06,0.0,-0.007562,-0.510511,-0.003184,0.442585,-264.7557,-0.109117,62.32674
6.9381,-0.005992,-0.000173,-0.002644,0.0001,7e-06,0.0,-0.007888,-0.510483,-0.003907,0.367542,-264.755697,-0.034074,62.326742
6.9582,-0.005872,-0.000482,-0.003534,0.0001,7e-06,0.0,-0.007851,-0.510462,-0.003821,0.367542,-264.755697,-0.034074,62.326742
6.9778,-0.005952,-0.000626,-0.001594,0.0001,7e-06,0.0,-0.007674,-0.510479,-0.003534,0.292591,-264.755689,0.040878,62.32675
6.9979,-0.005874,-0.000728,-0.004671,0.0001,7e-06,0.0,-0.007157,-0.510562,-0.002432,0.292591,-264.755689,0.040878,62.32675
7.0179,-0.005862,-0.000761,-0.003448,0.0001,7e-06,0.0,-0.007157,-0.510562,-0.002432,0.292591,-264.755689,0.040878,62.32675
7.0383,-0.00598,-0.000299,-0.003208,0.000891,6.4e-05,0.000635,-0.007619,-0.510757,-0.003448,0.217596,-264.755671,0.072041,62.326768
7.0581,-0.005836,-0.000524,-0.002731,0.001734,0.000125,0.001234,-0.007618,-0.510727,-0.003432,0.217596,-264.755671,0.072041,62.326768
7.0779,-0.006076,-0.000204,-0.003859,0.002533,0.000183,0.001803,-0.007226,-0.510522,-0.00273,0.142593,-264.755643,0.072041,62.326797
7.098,-0.006062,-5.3e-05,-0.003333,0.003285,0.000237,0.002339,-0.007691,-0.510339,-0.003372,0.142593,-264.755643,0.072041,62.326797
7.1179,-0.005842,-0.000625,-0.004328,0.003992,0.000288,0.002843,-0.007691,-0.510339,-0.003372,0.142593,-264.755643,0.072041,62.326797
7.138,-0.005775,-0.000146,-0.001878,0.004658,0.000336,0.003317,-0.008048,-0.51062,-0.004328,0.217593,-264.755636,-0.00296,62.326804
7.1584,-0.005915,-0.000382,-0.003347,0.005271,0.00038,0.003753,-0.007957,-0.510587,-0.004158,0.217593,-264.755636,-0.00296,62.326804
7.1778,-0.006144,-0.000369,-0.003658,0.00584,0.000421,0.004159,-0.007614,-0.510378,-0.003344,0.292599,-264.755543,-0.077966,62.326891
7.1981,-0.005971,-0.000773,-0.002865,0.006367,0.000459,0.004534,-0.007839,-0.510371,-0.003523,0.292599,-264.755543,-0.077966,62.326891
7.2181,-0.005826,-0.000633,-0.004295,0.006844,0.000494,0.004873,-0.007839,-0.510371,-0.003523,0.292599,-264.755543,-0.077966,62.326891
7.2381,-0.006184,-0.000313,-0.003156,0.007278,0.000525,0.005182,-0.007966,-0.510623,-0.004273,0.367714,-264.755104,-0.153081,62.327308
7.2581,-0.006022,-0.000509,-0.003633,0.007666,0.000553,0.005459,-0.007953,-0.510601,-0.004195,0.367714,-264.755104,-0.153081,62.327308
7.2783,-0.005533,-0.000501,-0.002997,0.008014,0.000578,0.005706,-0.00775,-0.510491,-0.003562,0.442727,-264.753693,-0.228093,62.328647
7.2983,-0.005745,-0.000589,-0.002649,0.008305,0.000599,0.005913,-0.007342,-0.510494,-0.003231,0.442727,-264.753693,-0.228093,62.328647
7.3179,-0.005642,-0.000446,-0.002976,0.008555,0.000617,0.006092,-0.007342,-0.510494,-0.003231,0.442727,-264.753693,-0.228093,62.328647
7.3381,-0.005882,-0.00041,-0.002645,0.008761,0.000632,0.006238,-0.006865,-0.510417,-0.002779,0.469283,-264.75099,-0.30315,62.331211
7.3583,-0.005148,-7.2e-05,-0.003399,0.00892,0.000644,0.006352,-0.006885,-0.510416,-0.002763,0.469283,-264.75099,-0.30315,62.331211
7.3781,-0.004973,-0.000245,-0.003798,0.009035,0.000652,0.006433,-0.006563,-0.510047,-0.003172,0.469283,-264.747287,-0.347973,62.334724
7.3978,-0.005306,-0.000629,-0.003371,0.009103,0.000657,0.006482,-0.00672,-0.510155,-0.0035,0.469283,-264.747287,-0.347973,62.334724
7.4179,-0.005307,-0.000766,-0.003132,0.009126,0.000659,0.006498,-0.00672,-0.510155,-0.0035,0.469283,-264.747287,-0.347973,62.334724
7.4378,-0.005099,-0.000153,-0.003673,0.009103,0.000657,0.006482,-0.00647,-0.510734,-0.002823,0.469283,-264.743287,-0.347973,62.338519
7.4583,-0.005353,-0.000395,-0.004166,0.009034,0.000652,0.006433,-0.006492,-0.510695,-0.00287,0.469283,-264.743287,-0.347973,62.338519
7.4783,-0.004736,-0.000444,-0.001444,0.00892,0.000644,0.006352,-0.007122,-0.510367,-0.003913,0.469283,-264.739195,-0.347973,62.342402
7.4982,-0.004428,-0.000139,-0.001462,0.00876,0.000632,0.006238,-0.006149,-0.510407,-0.002492,0.469283,-264.739195,-0.347973,62.342402
7.5177,-0.004696,-0.000429,-0.001633,0.008555,0.000617,0.006092,-0.006149,-0.510407,-0.002492,0.469283,-264.739195,-0.347973,62.342402
7.5383,-0.004646,-0.000515,-0.001987,0.008304,0.000599,0.005913,-0.005089,-0.510398,-0.00132,0.469283,-264.735143,-0.347973,62.346246
7.5583,-0.004465,-0.000239,-0.002325,0.008006,0.000578,0.005701,-0.005117,-0.510405,-0.001358,0.469283,-264.735143,-0.347973,62.346246
7.5781,-0.003986,0.000169,-0.00114,0.007663,0.000553,0.005457,-0.00532,-0.510214,-0.002089,0.469283,-264.731306,-0.347973,62.349887
7.5979,-0.004166,-0.000153,-0.001434,0.007274,0.000525,0.00518,-0.004851,-0.509994,-0.001521,0.469283,-264.731306,-0.347973,62.349887
7.6179,-0.004056,-0.000466,-0.002837,0.006844,0.000494,0.004874,-0.004851,-0.509994,-0.001521,0.469283,-264.731306,-0.347973,62.349887
7.6378,-0.00431,4.1e-05,-0.001717,0.006365,0.000459,0.004533,-0.005113,-0.510437,-0.002559,0.469283,-264.727708,-0.347973,62.3533
7.658,-0.004001,-0.000189,-0.001901,0.005841,0.000422,0.004159,-0.005108,-0.510401,-0.002489,0.469283,-264.727708,-0.347973,62.3533
7.6777,-0.003698,9.9e-05,-0.001204,0.00527,0.00038,0.003753,-0.004707,-0.51017,-0.001713,0.469283,-264.724639,-0.347973,62.356212
7.6977,-0.003683,-0.000349,-0.000236,0.004651,0.000336,0.003312,-0.004447,-0.510013,-0.001397,0.469283,-264.724639,-0.347973,62.356212
7.7179,-0.003628,-0.000189,-0.001212,0.003989,0.000288,0.00284,-0.004447,-0.510013,-0.001397,0.469283,-264.724639,-0.347973,62.356212
7.7383,-0.003642,-0.000146,-0.001435,0.003285,0.000237,0.002339,-0.003962,-0.510168,-0.00101,0.469283,-264.722011,-0.347973,62.358705
7.7584,-0.003884,-0.00032,-0.001104,0.002533,0.000183,0.001804,-0.003985,-0.510166,-0.001037,0.469283,-264.722011,-0.347973,62.358705
7.778,-0.003485,-9.7e-05,0.000432,0.001733,0.000125,0.001234,-0.004294,-0.510309,-0.000995,0.469283,-264.720227,-0.347973,62.360397
7.7983,-0.003413,-0.000223,-0.000926,0.000887,6.4e-05,0.000632,-0.003687,-0.510187,-0.000167,0.469283,-264.720227,-0.347973,62.360397
7.8186,-0.003605,-0.000269,-0.000944,0.0,0.0,0.0,-0.003687,-0.510187,-0.000167,0.469283,-264.720227,-0.347973,62.360397
7.8378,-0.003568,-0.000305,-0.000984,0.0,0.0,0.0,-0.003963,-0.51026,-0.000856,0.469283,-264.719094,-0.347973,62.361473
7.858,-0.003566,-0.000143,0.00049,0.0,0.0,0.0,-0.003966,-0.510262,-0.000862,0.469283,-264.719094,-0.347973,62.361473
7.8781,-0.003359,0.00026,-0.002399,0.0,0.0,0.0,-0.003316,-0.510143,0.00049,0.469283,-264.719094,-0.347973,62.361473
7.8981,-0.003047,-6.6e-05,-0.000659,0.0,0.0,0.0,-0.004036,-0.509913,-0.001154,0.469283,-264.719094,-0.347973,62.361473
7.9179,-0.003204,-0.000273,-2.8e-05,0.0,0.0,0.0,-0.004036,-0.509913,-0.001154,0.469283,-264.719094,-0.347973,62.361473
7.9379,-0.003311,-0.000321,-0.000934,0.0,0.0,0.0,-0.003219,-0.510273,-2.8e-05,0.469283,-264.719094,-0.347973,62.361473
7.9577,-0.003358,-0.00013,-0.000321,0.0,0.0,0.0,-0.003259,-0.510276,-9.2e-05,0.469283,-264.719094,-0.347973,62.361473
7.9778,-0.003468,-0.000199,-0.001506,0.0,0.0,0.0,-0.003522,-0.51013,-0.000321,0.469283,-264.719094,-0.347973,62.361473
7.9978,-0.003081,-0.000362,-0.000114,0.0,0.0,0.0,-0.003928,-0.510168,-0.000996,0.469283,-264.719094,-0.347973,62.361473
8.0182,-0.003572,-6e-06,0.001075,0.0,0.0,0.0,-0.003928,-0.510168,-0.000996,0.469283,-264.719094,-0.347973,62.361473
8.038,-0.003237,-0.000333,-0.001198,0.0,0.0,0.0,-0.003024,-0.510005,0.001075,0.469283,-264.719094,-0.347973,62.361473
8.0584,-0.003691,-0.000158,-0.000128,9.9e-05,1e-05,0.0,-0.003082,-0.510028,0.000917,0.469283,-264.719094,-0.347973,62.361473
8.0778,-0.003223,-0.00024,-0.000635,9.9e-05,1e-05,0.0,-0.003756,-0.510158,-0.000128,0.469283,-264.719094,-0.347973,62.361473
8.0981,-0.003294,-0.000441,-0.000928,9.9e-05,1e-05,0.0,-0.003637,-0.510204,-0.000416,0.469283,-264.719094,-0.347973,62.361473
8.1179,-0.00338,-8.2e-05,-0.000436,9.9e-05,1e-05,0.0,-0.003637,-0.510204,-0.000416,0.469283,-264.719094,-0.347973,62.361473
8.1379,-0.003556,-0.000401,-5.2e-05,9.9e-05,1e-05,0.0,-0.003602,-0.510082,-0.000436,0.394292,-264.719093,-0.272982,62.361473
8.1583,-0.003503,2.2e-05,0.001686,9.9e-05,1e-05,0.0,-0.0036,-0.510109,-0.000404,0.394292,-264.719093,-0.272982,62.361473
8.1779,-0.003547,-0.000285,0.000571,9.9e-05,1e-05,0.0,-0.002643,-0.509977,0.001686,0.318874,-264.719093,-0.197564,62.361474
8.1978,-0.003424,-0.000466,6.6e-05,9.9e-05,1e-05,0.0,-0.002994,-0.510153,0.001048,0.318874,-264.719093,-0.197564,62.361474
8.2182,-0.003057,-0.000425,-0.000804,9.9e-05,1e-05,0.0,-0.002994,-0.510153,0.001048,0.318874,-264.719093,-0.197564,62.361474
8.2384,-0.003671,-0.000152,0.000773,9.9e-05,1e-05,0.0,-0.003467,-0.510425,-0.000803,0.24419,-264.719088,-0.12288,62.361479
8.2589,-0.003566,-5e-06,0.000267,1e-06,0.0,0.0,-0.003453,-0.510406,-0.000694,0.24419,-264.719088,-0.12288,62.361479
8.2782,-0.00321,-4.4e-05,-0.00139,0.000474,4.9e-05,0.000175,-0.003429,-0.510005,0.000267,0.16928,-264.719075,-0.04797,62.361491
8.298,-0.003373,4e-06,-0.000371,0.000923,9.6e-05,0.000341,-0.003707,-0.510027,-0.000675,0.16928,-264.719075,-0.04797,62.361491
8.3182,-0.003615,-0.00051,-0.000454,0.001348,0.00014,0.000499,-0.003707,-0.510027,-0.000675,0.16928,-264.719075,-0.04797,62.361491
8.3381,-0.003397,-0.000454,-0.001102,0.001748,0.000182,0.000647,-0.003846,-0.51051,-0.000454,0.244278,-264.719075,-0.121481,62.361491
8.3579,-0.003491,0.000105,-0.000733,0.002124,0.000221,0.000786,-0.003854,-0.510506,-0.0005,0.244278,-264.719075,-0.121481,62.361491
8.3778,-0.003559,-0.000293,-0.000969,0.002477,0.000258,0.000917,-0.003817,-0.50989,-0.000716,0.318767,-264.718556,-0.121481,62.361988
8.3981,-0.002909,-0.00012,-0.000665,0.002805,0.000292,0.001038,-0.003945,-0.510118,-0.000858,0.318767,-264.718556,-0.121481,62.361988
8.418,-0.003188,-0.000425,0.000689,0.003108,0.000323,0.00115,-0.003945,-0.510118,-0.000858,0.318767,-264.718556,-0.121481,62.361988
8.4378,-0.00319,-0.000338,-0.002705,0.003387,0.000352,0.001254,-0.002733,-0.510414,0.000728,0.318767,-264.717662,-0.121481,62.362844
8.458,-0.003509,4.4e-05,-0.00039,0.003642,0.000379,0.001348,-0.002854,-0.510408,0.000496,0.318767,-264.717662,-0.121481,62.362844
8.478,-0.002986,-0.000272,-0.000391,0.003872,0.000403,0.001433,-0.003588,-0.509944,-0.000346,0.318767,-264.716352,-0.121481,62.364096
8.4979,-0.003074,-0.000331,0.001182,0.004079,0.000424,0.00151,-0.003344,-0.510129,-0.000366,0.318767,-264.716352,-0.121481,62.364096
8.518,-0.003389,-0.000465,0.000337,0.004261,0.000443,0.001577,-0.003344,-0.510129,-0.000366,0.318767,-264.716352,-0.121481,62.364096
8.5377,-0.002819,-0.000162,-0.000115,0.004418,0.000459,0.001635,-0.00304,-0.510447,0.000403,0.318767,-264.714818,-0.121481,62.365564
8.5584,-0.002981,-0.00032,-0.001107,0.004552,0.000473,0.001685,-0.003025,-0.510427,0.00037,0.318767,-264.714818,-0.121481,62.365564
