mach0312/omni-docking-bench/src/icros_test_setup/results/kinematic_sample/timeseries/trial_100.csv
t,x,y,yaw,vx,vy,wz,bl_x,bl_y,bl_yaw,front_steering_joint,front_wheel_joint,rear_steering_joint,rear_wheel_joint
0.0,-0.020164,0.020101,0.000294,-0.00955,0.008164,0.000549,-0.019239,-0.490756,-0.000739,-0.727275,-264.544842,-0.68673,61.861164
0.0005,-0.020452,0.0203,-0.000233,-0.005239,0.004479,0.000301,-0.019402,-0.490672,-0.00034,-0.727275,-264.55067,-0.68673,61.855535
0.0008,-0.020537,0.0207,-0.000388,-0.004314,0.003688,0.000248,-0.019376,-0.490651,-0.000267,-0.727275,-264.55579,-0.68673,61.85059
0.0012,-0.020559,0.020372,0.000508,-0.003326,0.002844,0.000191,-0.019376,-0.490651,-0.000267,-0.727275,-264.560264,-0.68673,61.846268
0.0014,-0.020541,0.02056,0.001431,-0.002278,0.001948,0.000131,-0.019729,-0.490092,-0.000274,-0.727275,-264.563535,-0.68673,61.843108
0.0018,-0.020957,0.020403,0.000469,-0.001171,0.001001,6.7e-05,-0.019729,-0.490092,-0.000274,-0.727275,-264.565843,-0.68673,61.840879
0.0021,-0.020623,0.020709,-0.000153,-4e-06,3e-06,0.0,-0.020005,-0.489857,-0.000524,-0.727275,-264.566471,-0.68673,61.840272
0.0024,-0.020752,0.020881,-0.000104,0.0,0.0,0.0,-0.020005,-0.489857,-0.000524,-0.727275,-264.566471,-0.68673,61.840272
0.0027,-0.02086,0.020821,0.00033,0.0,0.0,0.0,-0.020005,-0.489857,-0.000524,-0.727275,-264.566471,-0.68673,61.840272
0.0029,-0.020786,0.020972,0.001425,0.0,0.0,0.0,-0.019034,-0.489661,0.001988,-0.727275,-264.566471,-0.68673,61.840272
0.0182,-0.020797,0.020655,-0.000273,0.016,-0.016,-0.001425,-0.020059,-0.489027,0.001425,-0.727275,-264.566471,-0.68673,61.840272
0.0387,-0.020891,0.02085,0.000491,0.020803,-0.020649,0.000273,-0.020108,-0.489045,0.001332,-0.727275,-264.566471,-0.68673,61.840272
0.0583,-0.020946,0.020702,0.000847,0.02088,-0.02086,-0.000491,-0.02064,-0.48915,0.000491,-0.727275,-264.566471,-0.68673,61.840272
0.0782,-0.020635,0.020787,0.000527,0.020928,-0.02072,-0.000847,-0.020569,-0.489234,0.000693,-0.727275,-264.566471,-0.68673,61.840272
0.0982,-0.020957,0.020413,0.000725,0.020624,-0.020798,-0.000527,-0.020569,-0.489234,0.000693,-0.727275,-264.566471,-0.68673,61.840272
0.118,-0.020603,0.020262,0.001996,0.020942,-0.020428,-0.000725,-0.020369,-0.489798,0.000722,-0.77763,-264.563971,-0.761728,61.842772
0.1383,-0.020702,0.020611,5.5e-05,0.020562,-0.020303,-0.001996,-0.020308,-0.489799,0.000812,-0.77763,-264.563971,-0.761728,61.842772
0.1581,-0.020178,0.019816,-0.000497,0.0207,-0.020613,-5.5e-05,-0.020334,-0.489731,5.1e-05,-0.797279,-264.558963,-0.781799,61.84778
0.178,-0.02026,0.019984,0.000513,0.020188,-0.019806,0.000497,-0.020347,-0.490034,-0.000264,-0.797279,-264.558963,-0.781799,61.84778
0.1981,-0.019765,0.020245,0.000758,0.02025,-0.019995,-0.000513,-0.020347,-0.490034,-0.000264,-0.797279,-264.558963,-0.781799,61.84778
0.2186,-0.019419,0.019454,-0.000719,0.01975,-0.02026,-0.000758,-0.018731,-0.490393,0.000726,-0.808196,-264.551457,-0.748127,61.855286
0.2383,-0.019424,0.019392,0.001914,0.019433,-0.01944,0.000719,-0.018791,-0.490423,0.000617,-0.808196,-264.551457,-0.748127,61.855286
0.2581,-0.018439,0.018789,-2.9e-05,0.019387,-0.019429,-0.001914,-0.017761,-0.491284,0.001905,-0.78682,-264.541459,-0.771157,61.865284
0.2783,-0.0183,0.018282,0.00091,0.018439,-0.018788,2.9e-05,-0.01807,-0.491328,0.000798,-0.78682,-264.541459,-0.771157,61.865284
0.2983,-0.018307,0.018241,0.001681,0.018284,-0.018299,-0.00091,-0.01807,-0.491328,0.000798,-0.78682,-264.541459,-0.771157,61.865284
0.3189,-0.017486,0.017296,0.000318,0.018276,-0.018271,-0.001681,-0.016517,-0.492689,0.001715,-0.774163,-264.53074,-0.796741,61.876248
0.3384,-0.017523,0.017802,-0.001112,0.01748,-0.017301,-0.000318,-0.016547,-0.492715,0.001621,-0.774163,-264.53074,-0.796741,61.876248
0.3584,-0.016653,0.016781,0.001512,0.017543,-0.017782,0.001112,-0.017399,-0.492891,-0.001147,-0.800772,-264.52047,-0.770396,61.88621
0.3781,-0.01643,0.016462,0.000174,0.016628,-0.016806,-0.001512,-0.016453,-0.493164,0.000354,-0.800772,-264.52047,-0.770396,61.88621
0.398,-0.016959,0.016949,0.001576,0.016427,-0.016465,-0.000174,-0.016453,-0.493164,0.000354,-0.800772,-264.52047,-0.770396,61.88621
0.4181,-0.015568,0.015969,0.000164,0.016932,-0.016976,-0.001576,-0.015307,-0.493887,0.00156,-0.785835,-264.510615,-0.774598,61.895956
0.4391,-0.015415,0.015953,-0.00088,0.015566,-0.015971,-0.000164,-0.015297,-0.493919,0.001466,-0.785835,-264.510615,-0.774598,61.895956
0.4584,-0.014976,0.01521,0.001673,0.015429,-0.015939,0.00088,-0.015231,-0.494683,-0.000887,-0.789771,-264.501293,-0.783322,61.905218
0.4781,-0.015246,0.01516,0.001019,0.014951,-0.015235,-0.001673,-0.014519,-0.494824,0.000573,-0.789771,-264.501293,-0.783322,61.905218
0.4982,-0.015111,0.015059,0.00024,0.015231,-0.015176,-0.001019,-0.014519,-0.494824,0.000573,-0.789771,-264.501293,-0.783322,61.905218
0.5181,-0.014057,0.014051,0.001974,0.015108,-0.015063,-0.00024,-0.014236,-0.495713,0.000232,-0.801378,-264.492385,-0.795098,61.914069
0.5381,-0.014298,0.014632,0.000929,0.014029,-0.014079,-0.001974,-0.014134,-0.49575,0.000351,-0.801378,-264.492385,-0.795098,61.914069
0.5582,-0.013407,0.013581,-0.001326,0.014284,-0.014646,-0.000929,-0.013244,-0.495945,0.00089,-0.803695,-264.483754,-0.762658,61.922354
0.5782,-0.013326,0.013481,-0.000745,0.013425,-0.013563,0.001326,-0.013646,-0.496286,-0.000369,-0.803695,-264.483754,-0.762658,61.922354
0.5984,-0.013223,0.013121,0.000944,0.013336,-0.013471,0.000745,-0.013646,-0.496286,-0.000369,-0.803695,-264.483754,-0.762658,61.922354
0.6182,-0.012619,0.012873,0.000104,0.013211,-0.013133,-0.000944,-0.01207,-0.497553,0.000849,-0.828209,-264.475553,-0.742462,61.929881
0.6384,-0.012933,0.012787,-0.000637,0.012618,-0.012874,-0.000104,-0.012088,-0.49754,0.000789,-0.828209,-264.475553,-0.742462,61.929881
0.6579,-0.012084,0.012358,0.000164,0.012941,-0.012779,0.000637,-0.012802,-0.497674,-0.000612,-0.773261,-264.468934,-0.807053,61.93673
0.678,-0.012242,0.011804,0.00088,0.012082,-0.01236,-0.000164,-0.012286,-0.497715,-0.000165,-0.773261,-264.468934,-0.807053,61.93673
0.6979,-0.012104,0.012064,0.000407,0.012232,-0.011815,-0.00088,-0.012286,-0.497715,-0.000165,-0.773261,-264.468934,-0.807053,61.93673
0.7182,-0.011543,0.011301,-0.000274,0.012099,-0.012069,-0.000407,-0.011291,-0.498553,0.000402,-0.797905,-264.461803,-0.792981,61.943825
0.7384,-0.011447,0.011626,3.5e-05,0.011546,-0.011298,0.000274,-0.011303,-0.49858,0.000354,-0.797905,-264.461803,-0.792981,61.943825
0.7583,-0.011134,0.010845,0.001187,0.011446,-0.011626,-3.5e-05,-0.010974,-0.498813,2e-06,-0.790318,-264.45511,-0.744817,61.950231
0.7784,-0.010833,0.010852,0.000854,0.011122,-0.010858,-0.001187,-0.010664,-0.499063,0.000671,-0.790318,-264.45511,-0.744817,61.950231
0.7982,-0.010729,0.01092,-5.6e-05,0.010824,-0.010862,-0.000854,-0.010664,-0.499063,0.000671,-0.790318,-264.45511,-0.744817,61.950231
0.8186,-0.01102,0.010704,0.000719,0.01073,-0.01092,5.6e-05,-0.010212,-0.499614,-4.3e-05,-0.76709,-264.448888,-0.781873,61.956543
0.8384,-0.010376,0.010425,0.001315,0.011012,-0.010712,-0.000719,-0.010227,-0.499606,7e-06,-0.76709,-264.448888,-0.781873,61.956543
0.858,-0.009949,0.010243,0.002158,0.010362,-0.010439,-0.001315,-0.009302,-0.499979,0.001283,-0.810603,-264.44282,-0.762551,61.962325
0.878,-0.009786,0.010255,0.001157,0.009927,-0.010264,-0.002158,-0.008991,-0.499902,0.00178,-0.810603,-264.44282,-0.762551,61.962325
0.8981,-0.009752,0.00995,0.002348,0.009774,-0.010267,-0.001157,-0.008991,-0.499902,0.00178,-0.810603,-264.44282,-0.762551,61.962325
0.9181,-0.009492,0.009583,-0.001487,0.009728,-0.009973,-0.002348,-0.008022,-0.500564,0.002313,-0.791669,-264.4366,-0.750676,61.968302
0.938,-0.009198,0.009566,-0.001134,0.009507,-0.009569,0.001487,-0.008162,-0.500567,0.002049,-0.791669,-264.4366,-0.750676,61.968302
0.9582,-0.008605,0.009116,0.000387,0.009209,-0.009556,0.001134,-0.009419,-0.50081,-0.001176,-0.843115,-264.431025,-0.774306,61.973489
0.9781,-0.008793,0.009226,-0.000252,0.008602,-0.009119,-0.000387,-0.008799,-0.5009,-0.000293,-0.843115,-264.431025,-0.774306,61.973489
0.9982,-0.008774,0.008838,0.000263,0.008796,-0.009224,0.000252,-0.008799,-0.5009,-0.000293,-0.843115,-264.431025,-0.774306,61.973489
1.018,-0.008293,0.009073,0.000764,0.008771,-0.00884,-0.000263,-0.008277,-0.501537,0.000312,-0.768232,-264.426925,-0.833935,61.978
1.0386,-0.008407,0.008385,0.001686,0.008287,-0.009079,-0.000764,-0.008238,-0.501501,0.000348,-0.768232,-264.426925,-0.833935,61.978
1.058,-0.008079,0.008218,5.9e-05,0.008392,-0.008399,-0.001686,-0.007215,-0.501961,0.001696,-0.800745,-264.42199,-0.817392,61.983022
1.0785,-0.00772,0.008424,0.000546,0.008079,-0.008219,-5.9e-05,-0.007651,-0.501902,0.000759,-0.800745,-264.42199,-0.817392,61.983022
1.098,-0.008172,0.007979,3.2e-05,0.007715,-0.008428,-0.000546,-0.007651,-0.501902,0.000759,-0.800745,-264.42199,-0.817392,61.983022
1.1183,-0.007687,0.00779,0.001394,0.008172,-0.007979,-3.2e-05,-0.007774,-0.50244,-4e-06,-0.855919,-264.417196,-0.804698,61.987555
1.1383,-0.007488,0.008211,-0.000207,0.007676,-0.007801,-0.001394,-0.007709,-0.502435,9.1e-05,-0.855919,-264.417196,-0.804698,61.987555
1.1582,-0.006954,0.00723,-0.000287,0.007489,-0.00821,0.000207,-0.007296,-0.502114,-0.000228,-0.84882,-264.412532,-0.809388,61.992022
1.1784,-0.007172,0.007383,0.00061,0.006956,-0.007228,0.000287,-0.007147,-0.502528,-0.000264,-0.84882,-264.412532,-0.809388,61.992022
1.1983,-0.007733,0.00689,0.000498,0.007167,-0.007388,-0.00061,-0.007147,-0.502528,-0.000264,-0.84882,-264.412532,-0.809388,61.992022
1.2182,-0.006833,0.007201,5.2e-05,0.00773,-0.006894,-0.000498,-0.007136,-0.503458,0.000436,-0.845095,-264.408291,-0.735712,61.995818
1.2384,-0.006833,0.006929,0.000531,0.00773,-0.006894,-0.000498,-0.007107,-0.503424,0.00041,-0.845095,-264.408291,-0.735712,61.995818
1.2587,-0.006422,0.00691,-0.001938,7e-05,-7.1e-05,0.0,-0.006293,-0.503347,0.000508,-0.825114,-264.404193,-0.774671,61.999709
1.2782,-0.006579,0.006608,-0.001797,7e-05,-7.1e-05,0.0,-0.006895,-0.503236,-0.000886,-0.825114,-264.404193,-0.774671,61.999709
1.2987,-0.006012,0.006546,0.001081,7e-05,-7.1e-05,0.0,-0.006895,-0.503236,-0.000886,-0.825114,-264.404193,-0.774671,61.999709
1.3181,-0.005925,0.006375,0.001197,7e-05,-7.1e-05,0.0,-0.005142,-0.503737,0.001061,-0.750113,-264.400616,-0.705959,62.003149
1.3389,-0.006225,0.005862,9.6e-05,7e-05,-7.1e-05,0.0,-0.005145,-0.503737,0.001069,-0.750113,-264.400616,-0.705959,62.003149
1.3585,-0.006299,0.006404,-0.001474,7e-05,-7.1e-05,0.0,-0.006173,-0.50414,9.6e-05,-0.792949,-264.400582,-0.780957,62.003183
1.3782,-0.005921,0.006162,0.001465,7e-05,-7.1e-05,0.0,-0.006671,-0.503832,-0.000794,-0.792949,-264.400582,-0.780957,62.003183
1.3984,-0.005766,0.005995,-2.6e-05,7e-05,-7.1e-05,0.0,-0.006671,-0.503832,-0.000794,-0.792949,-264.400582,-0.780957,62.003183
1.4183,-0.006087,0.00597,0.001755,7e-05,-7.1e-05,0.0,-0.005776,-0.504008,-2.6e-05,-0.792949,-264.400542,-0.792949,62.003223
1.4384,-0.006424,0.0062,0.000399,7e-05,-7.1e-05,0.0,-0.005737,-0.50401,9.3e-05,-0.792949,-264.400542,-0.792949,62.003223
1.458,-0.005894,0.006311,0.001061,7e-05,-7.1e-05,0.0,-0.006218,-0.503803,0.000399,-0.792949,-264.400501,-0.792949,62.003263
1.4781,-0.005926,0.006239,0.00055,0.000997,-0.001012,-7.8e-05,-0.005716,-0.503737,0.000783,-0.792949,-264.400501,-0.792949,62.003263
1.4981,-0.006072,0.005692,-0.000598,0.00195,-0.00198,-0.000152,-0.005716,-0.503737,0.000783,-0.792949,-264.400501,-0.792949,62.003263
1.5179,-0.006316,0.006263,8.9e-05,0.002843,-0.002886,-0.000221,-0.006374,-0.504312,-0.000598,-0.792949,-264.400462,-0.792949,62.003303
1.5379,-0.005607,0.006138,0.000495,0.003688,-0.003744,-0.000287,-0.006366,-0.504272,-0.00055,-0.792949,-264.400462,-0.792949,62.003303
1.5582,-0.005468,0.006192,0.000302,0.004483,-0.004551,-0.000349,-0.005281,-0.503937,0.000489,-0.81579,-264.399342,-0.768997,62.004371
1.5784,-0.006177,0.005691,0.000391,0.005224,-0.005303,-0.000406,-0.00529,-0.503873,0.000382,-0.81579,-264.399342,-0.768997,62.004371
1.598,-0.005955,0.006231,-0.000925,0.005916,-0.006006,-0.00046,-0.00529,-0.503873,0.000382,-0.81579,-264.399342,-0.768997,62.004371
1.6181,-0.005813,0.005977,0.001171,0.006558,-0.006658,-0.00051,-0.006248,-0.503951,-0.000938,-0.81579,-264.397189,-0.768997,62.006424
1.6386,-0.005826,0.00585,-8.6e-05,0.007145,-0.007254,-0.000556,-0.006168,-0.503961,-0.000785,-0.81579,-264.397189,-0.768997,62.006424
1.6584,-0.005837,0.005822,0.000953,0.007685,-0.007802,-0.000598,-0.005642,-0.504382,-0.000104,-0.81579,-264.393741,-0.768997,62.009712
1.6782,-0.005673,0.005566,-0.000477,0.008169,-0.008294,-0.000635,-0.005448,-0.504295,0.000495,-0.81579,-264.393741,-0.768997,62.009712
1.6981,-0.005451,0.005055,-0.000995,0.008605,-0.008736,-0.000669,-0.005448,-0.504295,0.000495,-0.81579,-264.393741,-0.768997,62.009712
1.7182,-0.00491,0.005182,9e-06,0.008989,-0.009126,-0.000699,-0.005611,-0.505298,-0.001022,-0.81579,-264.38957,-0.768997,62.013689
1.7384,-0.005036,0.004878,-0.000111,0.009322,-0.009464,-0.000725,-0.005556,-0.505276,-0.000956,-0.81579,-264.38957,-0.768997,62.013689
1.7581,-0.004496,0.005016,0.000781,0.009604,-0.00975,-0.000747,-0.00476,-0.505459,-0.000136,-0.81579,-264.384548,-0.768997,62.018479
1.778,-0.004661,0.005028,0.000429,0.009834,-0.009984,-0.000765,-0.004341,-0.505231,0.000382,-0.81579,-264.384548,-0.768997,62.018479
1.798,-0.004412,0.004773,-0.000813,0.010014,-0.010166,-0.000779,-0.004341,-0.505231,0.000382,-0.81579,-264.384548,-0.768997,62.018479
1.818,-0.004283,0.004416,0.000286,0.010142,-0.010296,-0.000789,-0.004374,-0.505687,-0.000848,-0.81579,-264.379107,-0.768997,62.023668
1.8383,-0.00416,0.004462,0.000534,0.010218,-0.010374,-0.000795,-0.004345,-0.505693,-0.00077,-0.81579,-264.379107,-0.768997,62.023668
1.8587,-0.003828,0.003688,-0.001072,0.010244,-0.0104,-0.000797,-0.003501,-0.50593,0.000504,-0.81579,-264.373262,-0.768997,62.029242
1.8783,-0.003631,0.003479,-0.001315,0.010218,-0.010373,-0.000795,-0.003947,-0.506196,-0.000393,-0.81579,-264.373262,-0.768997,62.029242
1.8981,-0.003763,0.003967,-0.001529,0.010141,-0.010296,-0.000789,-0.003947,-0.506196,-0.000393,-0.81579,-264.373262,-0.768997,62.029242
1.9184,-0.00301,0.003486,-0.000986,0.010013,-0.010166,-0.000779,-0.004045,-0.506539,-0.001567,-0.81579,-264.367297,-0.768997,62.03493
1.9384,-0.003229,0.003591,0.000786,0.009834,-0.009983,-0.000765,-0.003999,-0.50655,-0.001531,-0.81579,-264.367297,-0.768997,62.03493
1.9582,-0.00242,0.002564,-0.000372,0.009603,-0.009749,-0.000747,-0.002435,-0.506807,0.000755,-0.81579,-264.361378,-0.768997,62.040575
1.9782,-0.002606,0.002598,0.000262,0.009322,-0.009464,-0.000725,-0.002484,-0.507214,0.000112,-0.81579,-264.361378,-0.768997,62.040575
1.9982,-0.002373,0.002585,0.000161,0.008989,-0.009126,-0.000699,-0.002484,-0.507214,0.000112,-0.81579,-264.361378,-0.768997,62.040575
2.018,-0.00238,0.002408,2.2e-05,0.008605,-0.008736,-0.000669,-0.001812,-0.5079,0.000124,-0.81579,-264.355638,-0.768997,62.046048
2.0382,-0.002003,0.00222,0.000779,0.008169,-0.008293,-0.000635,-0.001839,-0.507892,0.000116,-0.81579,-264.355638,-0.768997,62.046048
