mach0312/omni-docking-bench/src/icros_test_setup/results/kinematic_sample/timeseries/trial_019.csv
t,x,y,yaw,vx,vy,wz,bl_x,bl_y,bl_yaw,front_steering_joint,front_wheel_joint,rear_steering_joint,rear_wheel_joint
0.0,0.000405,0.028389,-0.00083,-0.00092,0.00926,0.000128,0.000245,-0.483187,0.000609,1.668977,-263.674117,-1.47096,62.8458
0.0005,1.1e-05,0.028,-0.000763,-0.000273,0.002748,3.8e-05,-0.000988,-0.483206,-0.001436,1.668977,-263.669717,-1.47096,62.841473
0.0009,0.000166,0.027985,-0.001355,-0.00014,0.001413,1.9e-05,-0.000988,-0.483206,-0.001436,1.668977,-263.665964,-1.47096,62.837782
0.0012,-1.7e-05,0.0284,-0.001607,-0.0,0.0,0.0,-0.000616,-0.482925,-0.001288,1.668977,-263.663393,-1.47096,62.835254
0.0015,-0.000189,0.028107,-0.000603,0.0,0.0,0.0,-0.000616,-0.482925,-0.001288,1.668977,-263.661768,-1.47096,62.833655
0.0018,0.000239,0.028355,-0.000168,0.0,0.0,0.0,-0.000616,-0.482925,-0.001288,1.668977,-263.661768,-1.47096,62.833655
0.0021,0.000205,0.028721,-0.000417,0.0,0.0,0.0,-0.000598,-0.48211,-0.001013,1.668977,-263.661768,-1.47096,62.833655
0.0024,-6.5e-05,0.028374,-0.000573,0.0,0.0,0.0,-0.000572,-0.482112,-0.000946,1.668977,-263.661768,-1.47096,62.833655
0.0026,-0.000356,0.028151,-8.5e-05,0.0,0.0,0.0,-0.000572,-0.482112,-0.000946,1.668977,-263.661768,-1.47096,62.833655
0.0029,-0.000236,0.028196,-0.001831,0.0,0.0,0.0,-0.000572,-0.482112,-0.000946,1.668977,-263.661768,-1.47096,62.833655
0.018,-8e-05,0.028488,0.000365,0.000287,-0.016,0.001831,-0.001169,-0.481803,-0.001831,1.668977,-263.661768,-1.47096,62.833655
0.0379,-3.5e-05,0.028429,0.00031,7e-05,-0.028488,-0.000365,-0.000439,-0.481636,-0.000574,1.668977,-263.661768,-1.47096,62.833655
0.0577,2.8e-05,0.028037,0.000292,2.6e-05,-0.028429,-0.00031,-0.000439,-0.481636,-0.000574,1.668977,-263.661768,-1.47096,62.833655
0.0779,0.000106,0.028505,-0.000825,-3.6e-05,-0.028037,-0.000292,0.000177,-0.481963,0.000292,1.668977,-263.661768,-1.47096,62.833655
0.0985,-0.000251,0.028444,0.001138,-8.2e-05,-0.028505,0.000825,0.000143,-0.481931,0.000215,1.668977,-263.661768,-1.47096,62.833655
0.1177,-0.000294,0.027926,0.000449,0.000219,-0.028444,-0.001138,0.000335,-0.481797,0.001138,1.59411,-263.664267,-1.545827,62.836155
0.1377,-0.000348,0.028055,0.000241,0.000281,-0.027926,-0.000449,0.000107,-0.481986,0.000743,1.59411,-263.664267,-1.545827,62.836155
0.1578,-0.000112,0.028255,-0.001174,0.000341,-0.028055,-0.000241,0.000107,-0.481986,0.000743,1.59411,-263.664267,-1.545827,62.836155
0.178,-0.000137,0.027119,-0.001028,0.000145,-0.028255,0.001174,-0.000713,-0.482351,-0.001174,1.567863,-263.669262,-1.573628,62.84115
0.1976,7e-06,0.02781,-0.001164,0.000165,-0.027119,0.001028,-0.00071,-0.482405,-0.001164,1.567863,-263.669262,-1.573628,62.84115
0.2179,-0.00013,0.026488,0.00038,2.6e-05,-0.02781,0.001164,-0.000579,-0.482913,-0.001164,1.582902,-263.676766,-1.558563,62.848654
0.238,0.000275,0.026514,-0.000259,0.00012,-0.026488,-0.00038,-0.00021,-0.483348,-0.000279,1.582902,-263.676766,-1.558563,62.848654
0.2581,-0.000295,0.026436,-0.00075,-0.000268,-0.026514,0.000259,-0.00021,-0.483348,-0.000279,1.582902,-263.676766,-1.558563,62.848654
0.278,-0.000284,0.025471,6.4e-05,0.000315,-0.026436,0.00075,-0.000671,-0.484777,-0.00075,1.577023,-263.686775,-1.564852,62.858663
0.2984,-0.000368,0.025463,7.9e-05,0.000283,-0.025471,-6.4e-05,-0.000639,-0.484793,-0.000689,1.577023,-263.686775,-1.564852,62.858663
0.3177,-5.1e-05,0.02403,-0.000265,0.000366,-0.025463,-7.9e-05,-0.000337,-0.485549,8.9e-05,1.560624,-263.697205,-1.580848,62.869218
0.338,8e-06,0.023804,-0.000282,5.8e-05,-0.02403,0.000265,-0.000253,-0.485918,-0.000111,1.560624,-263.697205,-1.580848,62.869218
0.3578,1.3e-05,0.024094,-0.000973,-1e-06,-0.023804,0.000282,-0.000253,-0.485918,-0.000111,1.560624,-263.697205,-1.580848,62.869218
0.3776,-0.000366,0.022777,0.000342,1.1e-05,-0.024094,0.000973,-0.000471,-0.487128,-0.000976,1.58188,-263.707263,-1.559679,62.879245
0.3982,-0.000402,0.022343,-0.000241,0.000358,-0.022777,-0.000342,-0.000453,-0.487164,-0.000891,1.58188,-263.707263,-1.559679,62.879245
0.4183,0.000196,0.02207,0.000605,0.000407,-0.022343,0.000241,-0.000525,-0.488576,-0.00023,1.570752,-263.716681,-1.57084,62.888801
0.4378,-0.000412,0.021231,-7.9e-05,-0.000209,-0.02207,-0.000605,5.7e-05,-0.488327,0.000244,1.570752,-263.716681,-1.57084,62.888801
0.4579,8.3e-05,0.021652,0.000585,0.000413,-0.021231,7.9e-05,5.7e-05,-0.488327,0.000244,1.570752,-263.716681,-1.57084,62.888801
0.4778,-5.4e-05,0.020696,-0.000411,-9.6e-05,-0.021652,-0.000585,0.000399,-0.489446,0.000568,1.586377,-263.725802,-1.554928,62.897756
0.4976,-0.000588,0.020593,-0.000213,6.3e-05,-0.020696,0.000411,0.000355,-0.489465,0.000501,1.586377,-263.725802,-1.554928,62.897756
0.5176,-0.000237,0.019457,-0.000865,0.000592,-0.020593,0.000213,-0.00068,-0.490226,-0.00021,1.590307,-263.734282,-1.551374,62.906275
0.5377,4.3e-05,0.019302,-0.000316,0.000254,-0.019457,0.000865,-0.000677,-0.490511,-0.000585,1.590307,-263.734282,-1.551374,62.906275
0.5578,0.000121,0.019183,-0.000634,-3.7e-05,-0.019302,0.000316,-0.000677,-0.490511,-0.000585,1.590307,-263.734282,-1.551374,62.906275
0.5776,0.000143,0.018046,0.000725,-0.000109,-0.019183,0.000634,-0.0002,-0.491813,-0.000614,1.573854,-263.74238,-1.567812,62.914571
0.5977,0.000285,0.018449,-0.001859,-0.000156,-0.018046,-0.000725,-0.00015,-0.491849,-0.00052,1.573854,-263.74238,-1.567812,62.914571
0.6178,6.2e-05,0.017594,-0.000534,-0.00025,-0.01845,0.001859,-0.000666,-0.492295,-0.001847,1.568855,-263.750018,-1.572699,62.922363
0.6378,0.00039,0.017433,-0.000793,-5.2e-05,-0.017594,0.000534,-0.000408,-0.492453,-0.0011,1.568855,-263.750018,-1.572699,62.922363
0.6584,-0.000243,0.017251,0.000276,-0.000377,-0.017433,0.000793,-0.000408,-0.492453,-0.0011,1.568855,-263.750018,-1.572699,62.922363
0.6778,-0.000341,0.016464,0.000351,0.000239,-0.017251,-0.000276,-0.00011,-0.493633,0.000241,1.562373,-263.757403,-1.579644,62.929394
0.6979,-2.1e-05,0.016483,-0.000715,0.000335,-0.016464,-0.000351,-0.000112,-0.493644,0.000246,1.562373,-263.757403,-1.579644,62.929394
0.7177,-4.7e-05,0.01551,-0.00025,3.2e-05,-0.016483,0.000715,-0.0004,-0.494188,-0.000684,1.548578,-263.764161,-1.591814,62.936538
0.7381,-3.9e-05,0.015246,-0.000465,5.1e-05,-0.015509,0.00025,-0.000273,-0.494446,-0.000432,1.548578,-263.764161,-1.591814,62.936538
0.7579,-6.6e-05,0.015765,0.000173,4.6e-05,-0.015246,0.000465,-0.000273,-0.494446,-0.000432,1.548578,-263.764161,-1.591814,62.936538
0.7783,0.000123,0.014299,0.000193,6.3e-05,-0.015765,-0.000173,3.8e-05,-0.494989,0.000157,1.590903,-263.770476,-1.55016,62.942692
0.7982,8.2e-05,0.014956,0.000558,-0.000126,-0.014299,-0.000193,5.3e-05,-0.495068,0.000159,1.590903,-263.770476,-1.55016,62.942692
0.8178,-5e-06,0.014219,0.000536,-9e-05,-0.014956,-0.000558,0.000369,-0.495625,0.000576,1.573893,-263.776414,-1.567812,62.948855
0.8377,0.000189,0.013669,0.001265,-2e-06,-0.014219,-0.000536,0.00031,-0.495789,0.000555,1.573893,-263.776414,-1.567812,62.948855
0.8579,-9.9e-05,0.013969,-0.000236,-0.000206,-0.013669,-0.001265,0.00031,-0.495789,0.000555,1.573893,-263.776414,-1.567812,62.948855
0.878,-0.000165,0.012971,0.001384,0.000102,-0.013969,0.000236,-0.000225,-0.496719,-0.000246,1.56204,-263.782134,-1.579698,62.954482
0.8979,-5e-05,0.013249,-0.00175,0.000147,-0.012972,-0.001384,-0.000169,-0.496761,-0.000125,1.56204,-263.782134,-1.579698,62.954482
0.9176,0.000356,0.012257,4.3e-05,7.3e-05,-0.013249,0.00175,-0.000951,-0.497276,-0.001799,1.55654,-263.787904,-1.586761,62.959634
0.9381,8.7e-05,0.012459,-0.000666,-0.000357,-0.012257,-4.3e-05,-0.000189,-0.497611,-0.000748,1.55654,-263.787904,-1.586761,62.959634
0.9579,-0.00018,0.012405,0.000576,-7.9e-05,-0.012459,0.000666,-0.000189,-0.497611,-0.000748,1.55654,-263.787904,-1.586761,62.959634
0.978,2.7e-05,0.011866,-0.000963,0.000173,-0.012405,-0.000576,0.000121,-0.498212,0.00051,1.58147,-263.793309,-1.558635,62.964378
0.9977,-0.000122,0.01215,-0.000689,-1.6e-05,-0.011866,0.000963,8e-05,-0.498223,0.000406,1.58147,-263.793309,-1.558635,62.964378
1.0178,-3e-05,0.011677,-0.001258,0.00013,-0.01215,0.000689,-0.000477,-0.498325,-0.000664,1.564231,-263.798073,-1.576947,62.969464
1.0378,3.1e-05,0.011392,-0.00061,4.4e-05,-0.011677,0.001258,-0.000588,-0.498384,-0.000998,1.564231,-263.798073,-1.576947,62.969464
1.058,3.4e-05,0.011371,-0.001386,-2.4e-05,-0.011392,0.00061,-0.000588,-0.498384,-0.000998,1.564231,-263.798073,-1.576947,62.969464
1.078,-0.00012,0.010637,-0.001008,-1.9e-05,-0.011371,0.001386,-0.000674,-0.499206,-0.001339,1.569397,-263.80261,-1.572063,62.974474
1.0982,-0.000302,0.010874,-0.000729,0.00013,-0.010636,0.001008,-0.000671,-0.499237,-0.00131,1.569397,-263.80261,-1.572063,62.974474
1.1182,4e-05,0.010003,0.000269,0.00031,-0.010874,0.000729,-0.000675,-0.499562,-0.000706,1.568619,-263.806994,-1.572835,62.979154
1.1382,0.000131,0.01026,-0.000724,-4.2e-05,-0.010003,-0.000269,-0.00019,-0.499866,-0.000147,1.568619,-263.806994,-1.572835,62.979154
1.1578,2e-06,0.010349,-0.001573,-0.000124,-0.010261,0.000724,-0.00019,-0.499866,-0.000147,1.568619,-263.806994,-1.572835,62.979154
1.178,-0.000151,0.009759,-0.001361,1.4e-05,-0.010349,0.001573,-0.000794,-0.500163,-0.001524,1.583797,-263.810984,-1.559219,62.983635
1.1976,0.000179,0.009492,0.0016,1.4e-05,-0.010349,0.001573,-0.000798,-0.500184,-0.00151,1.583797,-263.810984,-1.559219,62.983635
1.2177,0.000294,0.008464,-0.001031,-2e-06,-0.0001,0.0,0.00099,-0.500894,0.001627,1.558184,-263.814843,-1.582367,62.987841
1.2378,0.000203,0.009075,-0.000892,-2e-06,-0.0001,0.0,0.000278,-0.501316,8.3e-05,1.558184,-263.814843,-1.582367,62.987841
1.2578,0.000182,0.009005,0.000579,-2e-06,-0.0001,0.0,0.000278,-0.501316,8.3e-05,1.558184,-263.814843,-1.582367,62.987841
1.2779,-9.9e-05,0.008627,0.001112,-2e-06,-0.0001,0.0,0.000478,-0.501493,0.000654,1.572277,-263.818559,-1.569567,62.992318
1.2979,-0.000247,0.008715,0.000556,-2e-06,-0.0001,0.0,0.000477,-0.501498,0.000688,1.572277,-263.818559,-1.569567,62.992318
1.3178,0.000454,0.00879,0.002091,-2e-06,-0.0001,0.0,3.6e-05,-0.501289,0.000556,1.550388,-263.818599,-1.591205,62.992357
1.3378,-0.000122,0.008631,-0.001473,-2e-06,-0.0001,0.0,0.000887,-0.501243,0.001436,1.550388,-263.818599,-1.591205,62.992357
1.3578,-8.2e-05,0.008487,-5.7e-05,-2e-06,-0.0001,0.0,0.000887,-0.501243,0.001436,1.550388,-263.818599,-1.591205,62.992357
1.3779,3.8e-05,0.008723,3.5e-05,-2e-06,-0.0001,0.0,-0.000111,-0.501518,-5.7e-05,1.550388,-263.818639,-1.591205,62.992397
1.3978,-0.000245,0.008628,-0.001224,-2e-06,-0.0001,0.0,-0.0001,-0.501502,-5.1e-05,1.550388,-263.818639,-1.591205,62.992397
1.4182,-0.000214,0.008624,-0.00022,-2e-06,-0.0001,0.0,-0.000869,-0.501375,-0.001224,1.550388,-263.818679,-1.591205,62.992437
1.4378,-5.8e-05,0.00836,-0.000647,-2.8e-05,-0.001387,-0.000234,-0.000561,-0.501376,-0.000655,1.550388,-263.818679,-1.591205,62.992437
1.4579,-0.000161,0.008277,-0.001246,-5.5e-05,-0.002704,-0.000456,-0.000561,-0.501376,-0.000655,1.550388,-263.818679,-1.591205,62.992437
1.4782,-0.00011,0.00863,0.001309,-8.1e-05,-0.003951,-0.000666,-0.000797,-0.501727,-0.001246,1.550388,-263.818719,-1.591205,62.992477
1.4982,-0.000141,0.008486,0.000314,-0.000105,-0.005124,-0.000863,-0.000705,-0.501703,-0.001072,1.550388,-263.818719,-1.591205,62.992477
1.518,-0.000207,0.008649,-0.000607,-0.000127,-0.006229,-0.00105,1.8e-05,-0.501618,0.000297,1.552292,-263.819912,-1.593545,62.993448
1.5379,2.7e-05,0.008352,0.001726,-0.000148,-0.00726,-0.001223,-0.000289,-0.501478,-0.000223,1.552292,-263.819912,-1.593545,62.993448
1.5576,-0.000102,0.00834,0.000848,-0.000168,-0.008226,-0.001386,-0.000289,-0.501478,-0.000223,1.552292,-263.819912,-1.593545,62.993448
1.578,-7.3e-05,0.008066,8.3e-05,-0.000186,-0.009112,-0.001535,0.000326,-0.501908,0.000806,1.552292,-263.822169,-1.593545,62.995284
1.5982,0.000124,0.007993,-0.001255,-0.000203,-0.00993,-0.001673,0.000302,-0.501916,0.000757,1.552292,-263.822169,-1.593545,62.995284
1.6177,0.000149,0.008069,0.00031,-0.000218,-0.010679,-0.001799,-0.000523,-0.502325,-0.001309,1.552292,-263.825803,-1.593545,62.99824
1.6379,0.000187,0.007946,-0.000481,-0.000232,-0.011354,-0.001913,-5e-05,-0.50214,-0.000391,1.552292,-263.825803,-1.593545,62.99824
1.6579,0.000175,0.007873,-0.002295,-0.000244,-0.01196,-0.002015,-5e-05,-0.50214,-0.000391,1.552292,-263.825803,-1.593545,62.99824
1.6779,-0.00039,0.007313,0.000829,-0.000255,-0.012496,-0.002106,-0.001006,-0.502608,-0.002376,1.552292,-263.83018,-1.593545,63.0018
1.698,-0.000337,0.007466,-0.000133,-0.000264,-0.012956,-0.002183,-0.000938,-0.502626,-0.002167,1.552292,-263.83018,-1.593545,63.0018
1.7178,-0.000228,0.006654,-0.001168,-0.000272,-0.013349,-0.002249,-0.000415,-0.502996,-0.000211,1.552292,-263.835457,-1.593545,63.006093
1.7377,-9.6e-05,0.006506,-0.001387,-0.000279,-0.01367,-0.002304,-0.000649,-0.503254,-0.000765,1.552292,-263.835457,-1.593545,63.006093
1.758,-0.000307,0.006903,-0.00179,-0.000284,-0.013918,-0.002345,-0.000649,-0.503254,-0.000765,1.552292,-263.835457,-1.593545,63.006093
1.7777,0.000132,0.005987,-0.001253,-0.000288,-0.014096,-0.002375,-0.001234,-0.503727,-0.001896,1.552292,-263.841184,-1.593545,63.010752
1.7982,-3.5e-05,0.005837,-2.7e-05,-0.00029,-0.014203,-0.002393,-0.001184,-0.503764,-0.001854,1.552292,-263.841184,-1.593545,63.010752
1.8178,0.000306,0.005353,0.000152,-0.000291,-0.014238,-0.002399,-6e-05,-0.5047,-0.000117,1.552292,-263.847324,-1.593545,63.015746
1.8379,-0.000137,0.005634,-0.001184,-0.00029,-0.014203,-0.002393,0.000193,-0.504738,2.6e-05,1.552292,-263.847324,-1.593545,63.015746
1.8578,0.000245,0.005637,-0.000299,-0.000288,-0.014096,-0.002375,0.000193,-0.504738,2.6e-05,1.552292,-263.847324,-1.593545,63.015746
1.8776,0.000193,0.004672,-0.00144,-0.000284,-0.013918,-0.002345,7.8e-05,-0.505053,-0.000415,1.552292,-263.85358,-1.593545,63.020835
1.898,-5e-05,0.004684,-0.000642,-0.000279,-0.013669,-0.002303,3.5e-05,-0.50509,-0.000489,1.552292,-263.85358,-1.593545,63.020835
1.9176,0.000162,0.004014,-0.003265,-0.000272,-0.01334,-0.002248,-0.000389,-0.505866,-0.000734,1.552292,-263.8598,-1.593545,63.025895
1.9381,0.000108,0.003728,-0.001363,-0.000264,-0.012956,-0.002183,-0.001013,-0.506,-0.002161,1.552292,-263.8598,-1.593545,63.025895
1.9579,0.000171,0.004078,-0.001902,-0.000255,-0.012495,-0.002105,-0.001013,-0.506,-0.002161,1.552292,-263.8598,-1.593545,63.025895
1.9778,0.000367,0.003424,-0.001298,-0.000244,-0.01196,-0.002015,-0.000814,-0.506587,-0.002015,1.552292,-263.865832,-1.593545,63.030801
1.9979,8.6e-05,0.00343,-0.000459,-0.000232,-0.011355,-0.001913,-0.000782,-0.506602,-0.001972,1.552292,-263.865832,-1.593545,63.030801
2.0181,0.00019,0.002533,6e-05,-0.000218,-0.010678,-0.001799,-0.000158,-0.507053,-0.00054,1.552292,-263.871345,-1.593545,63.035286
2.0379,0.000229,0.002338,-0.000844,-0.000203,-0.009926,-0.001673,5.4e-05,-0.507348,-0.000214,1.552292,-263.871345,-1.593545,63.035286
