mach0312/omni-docking-bench/src/icros_test_setup/results/kinematic_sample/timeseries/trial_051.csv
t,x,y,yaw,vx,vy,wz,bl_x,bl_y,bl_yaw,front_steering_joint,front_wheel_joint,rear_steering_joint,rear_wheel_joint
0.0,0.016819,-0.022292,-0.068877,-0.00907,-0.00093,-0.001672,-0.017285,-0.530962,-0.069432,0.211852,-264.481805,-0.010092,62.433888
0.0005,0.016934,-0.022562,-0.068888,-0.005968,-0.000612,-0.0011,-0.015954,-0.531346,-0.067047,0.211852,-264.485765,-0.010092,62.430017
0.0008,0.016764,-0.022693,-0.068634,-0.005272,-0.00054,-0.000972,-0.017142,-0.531154,-0.068472,0.211852,-264.48948,-0.010092,62.426384
0.0012,0.016487,-0.022553,-0.06932,-0.004522,-0.000463,-0.000834,-0.017142,-0.531154,-0.068472,0.211852,-264.492651,-0.010092,62.423284
0.0015,0.016672,-0.02249,-0.068982,-0.00372,-0.000381,-0.000686,-0.017142,-0.531154,-0.068472,0.211852,-264.495355,-0.010092,62.420641
0.0018,0.016527,-0.022219,-0.070188,-0.002868,-0.000294,-0.000529,-0.017142,-0.531154,-0.068472,0.211852,-264.497207,-0.010092,62.41883
0.0021,0.01631,-0.022133,-0.069993,-0.001957,-0.000201,-0.000361,-0.01844,-0.531337,-0.070376,0.211852,-264.498379,-0.010092,62.417684
0.0024,0.016596,-0.02221,-0.069806,-0.001008,-0.000103,-0.000186,-0.018431,-0.531327,-0.070307,0.211852,-264.498379,-0.010092,62.417684
0.0027,0.016204,-0.022139,-0.068707,0.0,0.0,0.0,-0.018431,-0.531327,-0.070307,0.211852,-264.498379,-0.010092,62.417684
0.0029,0.016327,-0.022551,-0.070108,0.0,0.0,0.0,-0.019313,-0.531098,-0.070491,0.211852,-264.498379,-0.010092,62.417684
0.0181,0.016611,-0.022075,-0.069204,-0.016,0.016,0.03,-0.019399,-0.531299,-0.070108,0.211852,-264.498379,-0.010092,62.417684
0.0384,0.016247,-0.021968,-0.070442,-0.018098,0.020874,0.05,-0.018975,-0.531046,-0.069594,0.211852,-264.498379,-0.010092,62.417684
0.0581,0.016017,-0.022677,-0.069264,-0.017753,0.02077,0.05,-0.018975,-0.531046,-0.069594,0.211852,-264.498379,-0.010092,62.417684
0.0779,0.016009,-0.022339,-0.069291,-0.017548,0.021514,0.05,-0.01928,-0.531454,-0.069264,0.211852,-264.498379,-0.010092,62.417684
0.0985,0.016463,-0.022472,-0.069269,-0.017517,0.021177,0.05,-0.019281,-0.53143,-0.069266,0.211852,-264.498379,-0.010092,62.417684
0.1182,0.016037,-0.022279,-0.070223,-0.017979,0.021278,0.05,-0.018836,-0.531249,-0.069269,0.136845,-264.498379,0.064915,62.417684
0.1382,0.016599,-0.0225,-0.068914,-0.01756,0.021098,0.05,-0.019358,-0.531119,-0.069815,0.136845,-264.498379,0.064915,62.417684
0.1584,0.016207,-0.022055,-0.069609,-0.018109,0.021304,0.05,-0.019358,-0.531119,-0.069815,0.136845,-264.498379,0.064915,62.417684
0.178,0.016128,-0.022408,-0.070136,-0.017702,0.020875,0.05,-0.019265,-0.53082,-0.069609,0.061757,-264.498379,0.140003,62.417684
0.1982,0.016205,-0.022267,-0.068328,-0.017659,0.021223,0.05,-0.019289,-0.530843,-0.069645,0.061757,-264.498379,0.140003,62.417684
0.2182,0.016576,-0.02238,-0.070666,-0.017688,0.021109,0.05,-0.018615,-0.531077,-0.068328,-0.013151,-264.49838,0.214911,62.417684
0.2382,0.01657,-0.022557,-0.068244,-0.018115,0.021153,0.05,-0.019084,-0.531094,-0.069666,-0.013151,-264.49838,0.214911,62.417684
0.2582,0.016087,-0.022255,-0.069302,-0.01807,0.021374,0.05,-0.019084,-0.531094,-0.069666,-0.013151,-264.49838,0.214911,62.417684
0.278,0.016365,-0.022488,-0.069707,-0.017589,0.021088,0.05,-0.019229,-0.531031,-0.069302,-0.088255,-264.49838,0.290016,62.417683
0.2987,0.01681,-0.022485,-0.069887,-0.017891,0.021294,0.05,-0.019223,-0.531049,-0.069335,-0.088255,-264.49838,0.290016,62.417683
0.3184,0.016585,-0.022506,-0.070329,-0.018339,0.021256,0.05,-0.018804,-0.53124,-0.069887,-0.163516,-264.498382,0.365276,62.417683
0.3383,0.016469,-0.022412,-0.068987,-0.018125,0.021285,0.05,-0.01906,-0.531243,-0.070139,-0.163516,-264.498382,0.365276,62.417683
0.3583,0.015846,-0.022519,-0.070303,-0.017974,0.021224,0.05,-0.01906,-0.531243,-0.070139,-0.163516,-264.498382,0.365276,62.417683
0.3787,0.016389,-0.02218,-0.069751,-0.017389,0.02135,0.05,-0.019979,-0.531259,-0.070303,-0.238313,-264.498383,0.440073,62.417682
0.3986,0.016359,-0.022267,-0.069112,-0.017895,0.020984,0.05,-0.019932,-0.531241,-0.070272,-0.238313,-264.498383,0.440073,62.417682
0.4186,0.016377,-0.022313,-0.07046,-0.017858,0.021084,0.05,-0.01886,-0.531049,-0.069111,-0.313158,-264.498386,0.478088,62.417681
0.4387,0.016519,-0.022368,-0.070309,-0.017907,0.021105,0.05,-0.019237,-0.531048,-0.069873,-0.313158,-264.498386,0.478088,62.417681
0.4584,0.016304,-0.02232,-0.069616,-0.01805,0.021152,0.05,-0.019237,-0.531048,-0.069873,-0.313158,-264.498386,0.478088,62.417681
0.4793,0.016524,-0.022642,-0.06963,-0.017817,0.021132,0.05,-0.019172,-0.531085,-0.069616,-0.388176,-264.498388,0.490386,62.417681
0.4984,0.016385,-0.022243,-0.069972,-0.018059,0.021437,0.05,-0.019158,-0.531106,-0.069617,-0.388176,-264.498388,0.490386,62.417681
0.5188,0.016391,-0.022151,-0.070659,-0.0179,0.021043,0.05,-0.019272,-0.530995,-0.069972,-0.463164,-264.49839,0.479477,62.41768
0.5382,0.01632,-0.022213,-0.069565,-0.017914,0.020939,0.05,-0.019467,-0.530929,-0.070362,-0.463164,-264.49839,0.479477,62.41768
0.5579,0.016569,-0.022297,-0.069198,-0.017824,0.021025,0.05,-0.019467,-0.530929,-0.070362,-0.463164,-264.49839,0.479477,62.41768
0.5782,0.016441,-0.022185,-0.069407,-0.018071,0.021098,0.05,-0.018694,-0.531077,-0.069198,-0.538159,-264.498393,0.466773,62.417679
0.5982,0.016581,-0.022652,-0.07002,-0.01794,0.020992,0.05,-0.018711,-0.531068,-0.069213,-0.538159,-264.498393,0.466773,62.417679
0.6181,0.016145,-0.022478,-0.068337,-0.018125,0.021436,0.05,-0.0191,-0.531402,-0.070019,-0.613162,-264.498399,0.49024,62.417676
0.638,0.016093,-0.022776,-0.069287,-0.017642,0.021324,0.05,-0.01886,-0.531337,-0.069059,-0.613162,-264.498399,0.49024,62.417676
0.6583,0.016243,-0.021951,-0.069013,-0.017631,0.021608,0.05,-0.01886,-0.531337,-0.069059,-0.613162,-264.498399,0.49024,62.417676
0.678,0.016023,-0.022436,-0.070313,-0.017718,0.020778,0.05,-0.018928,-0.530736,-0.06901,-0.688319,-264.498429,0.489006,62.417665
0.6979,0.016251,-0.022351,-0.068498,-0.01756,0.021255,0.05,-0.018988,-0.530766,-0.0691,-0.688319,-264.498429,0.489006,62.417665
0.7181,0.016309,-0.022636,-0.070643,-0.017743,0.021186,0.05,-0.018661,-0.531152,-0.06849,-0.763189,-264.498548,0.468826,62.417623
0.7382,0.016336,-0.022308,-0.06787,-0.017866,0.021428,0.05,-0.019246,-0.531272,-0.069713,-0.763189,-264.498548,0.468826,62.417623
0.7584,0.016209,-0.022643,-0.069333,-0.017811,0.021149,0.05,-0.019246,-0.531272,-0.069713,-0.763189,-264.498548,0.468826,62.417623
0.7784,0.016242,-0.022531,-0.068797,-0.017739,0.021466,0.05,-0.019149,-0.5314,-0.069291,-0.838179,-264.499015,0.486276,62.417453
0.7987,0.016029,-0.021969,-0.071092,-0.017752,0.021362,0.05,-0.019123,-0.531393,-0.06925,-0.838179,-264.499015,0.486276,62.417453
0.8182,0.016144,-0.022358,-0.069786,-0.017549,0.020775,0.05,-0.020265,-0.530629,-0.070973,-0.913585,-264.500566,0.4851,62.416882
0.8383,0.016022,-0.022246,-0.069646,-0.017664,0.021178,0.05,-0.019797,-0.530897,-0.07029,-0.913585,-264.500566,0.4851,62.416882
0.8582,0.015971,-0.022508,-0.070041,-0.017531,0.021078,0.05,-0.019797,-0.530897,-0.07029,-0.913585,-264.500566,0.4851,62.416882
0.878,0.015002,-0.022108,-0.06874,-0.017507,0.021335,0.05,-0.019912,-0.531088,-0.069661,-0.988239,-264.504377,0.477067,62.415493
0.8986,0.015751,-0.022156,-0.068751,-0.016485,0.021025,0.05,-0.019924,-0.531072,-0.069591,-0.988239,-264.504377,0.477067,62.415493
0.918,0.015088,-0.021867,-0.067731,-0.017236,0.021021,0.05,-0.019536,-0.53073,-0.068211,-1.063245,-264.510678,0.494829,62.412732
0.938,0.015073,-0.021917,-0.068566,-0.016533,0.020795,0.05,-0.019507,-0.530684,-0.06787,-1.063245,-264.510678,0.494829,62.412732
0.958,0.015365,-0.021948,-0.067536,-0.016539,0.020833,0.05,-0.019507,-0.530684,-0.06787,-1.063245,-264.510678,0.494829,62.412732
0.9786,0.014177,-0.021135,-0.067622,-0.016811,0.020861,0.05,-0.019462,-0.530392,-0.066541,-1.138151,-264.519486,0.52336,62.408739
0.9982,0.014065,-0.021763,-0.06697,-0.015573,0.020128,0.05,-0.019529,-0.530353,-0.066589,-1.138151,-264.519486,0.52336,62.408739
1.0181,0.01294,-0.020879,-0.066235,-0.01549,0.020773,0.05,-0.020485,-0.530225,-0.065883,-1.213168,-264.530794,0.530643,62.402684
1.0383,0.012969,-0.020881,-0.066728,-0.014294,0.019977,0.05,-0.020723,-0.529916,-0.065944,-1.213168,-264.530794,0.530643,62.402684
1.0583,0.01298,-0.020915,-0.065398,-0.014333,0.019969,0.05,-0.020723,-0.529916,-0.065944,-1.213168,-264.530794,0.530643,62.402684
1.0782,0.011436,-0.020125,-0.063609,-0.014319,0.020022,0.05,-0.020898,-0.529211,-0.063709,-1.272604,-264.544601,0.589215,62.395982
1.0984,0.011089,-0.020264,-0.064311,-0.012692,0.019357,0.05,-0.020916,-0.529189,-0.063663,-1.272604,-264.544601,0.589215,62.395982
1.1181,0.009781,-0.01912,-0.062314,-0.012368,0.019509,0.05,-0.022136,-0.528612,-0.062734,-1.294285,-264.56094,0.635346,62.389136
1.1381,0.009676,-0.019261,-0.060623,-0.010952,0.018474,0.05,-0.022103,-0.528266,-0.062303,-1.294285,-264.56094,0.635346,62.389136
1.1585,0.009346,-0.019571,-0.061499,-0.010825,0.018639,0.05,-0.022103,-0.528266,-0.062303,-1.294285,-264.56094,0.635346,62.389136
1.1782,0.008237,-0.018232,-0.057741,-0.010532,0.01896,0.05,-0.02249,-0.527749,-0.059377,-1.32171,-264.579056,0.710485,62.383184
1.198,0.00825,-0.018358,-0.05993,-0.009275,0.017726,0.05,-0.022398,-0.527692,-0.059175,-1.32171,-264.579056,0.710485,62.383184
1.2179,0.006926,-0.017642,-0.058668,-0.009335,0.017831,0.05,-0.022591,-0.526863,-0.058458,-1.354125,-264.594566,0.785842,62.37823
1.2379,0.007237,-0.01776,-0.058304,-0.007949,0.017206,0.05,-0.02285,-0.526733,-0.058391,-1.354125,-264.594566,0.785842,62.37823
1.258,0.006815,-0.017172,-0.056685,-0.008259,0.017308,0.05,-0.02285,-0.526733,-0.058391,-1.354125,-264.594566,0.785842,62.37823
1.2783,0.005866,-0.01728,-0.05492,-0.007777,0.016758,0.05,-0.02236,-0.525754,-0.055103,-1.380937,-264.607553,0.860437,62.37405
1.2985,0.005882,-0.016869,-0.056511,-0.006805,0.016932,0.05,-0.022351,-0.525792,-0.055046,-1.380937,-264.607553,0.860437,62.37405
1.3181,0.004679,-0.01625,-0.053549,-0.006825,0.01651,0.05,-0.023129,-0.525576,-0.055203,-1.39986,-264.620841,0.935424,62.369782
1.3385,0.004381,-0.015921,-0.054833,-0.005542,0.015977,0.05,-0.022866,-0.525483,-0.054101,-1.39986,-264.620841,0.935424,62.369782
1.3582,0.004551,-0.0164,-0.05495,-0.005247,0.015657,0.05,-0.022866,-0.525483,-0.054101,-1.39986,-264.620841,0.935424,62.369782
1.3779,0.003803,-0.015119,-0.051796,-0.005445,0.016125,0.05,-0.023654,-0.525101,-0.053472,-1.428407,-264.632632,1.010338,62.366041
1.3979,0.003798,-0.015604,-0.054108,-0.00458,0.014902,0.05,-0.023588,-0.525043,-0.053321,-1.428407,-264.632632,1.010338,62.366041
1.418,0.00284,-0.015306,-0.052154,-0.004636,0.015376,0.05,-0.023877,-0.524574,-0.053258,-1.457696,-264.640946,1.085346,62.36322
1.4381,0.002852,-0.015165,-0.05254,-0.003634,0.015137,0.05,-0.023815,-0.52456,-0.052521,-1.457696,-264.640946,1.085346,62.36322
1.4587,0.002795,-0.015126,-0.052186,-0.003644,0.014994,0.05,-0.023815,-0.52456,-0.052521,-1.457696,-264.640946,1.085346,62.36322
1.4782,0.002181,-0.014899,-0.049949,-0.00358,0.01496,0.05,-0.023929,-0.524038,-0.050932,-1.470338,-264.650478,1.160403,62.359819
1.499,0.001954,-0.014805,-0.050374,-0.002922,0.014772,0.049949,-0.023888,-0.524043,-0.050834,-1.470338,-264.650478,1.160403,62.359819
1.5185,0.001519,-0.014223,-0.049731,-0.002697,0.014688,0.05,-0.02381,-0.523806,-0.049242,-1.49093,-264.661245,1.235339,62.356056
1.5381,0.001626,-0.014477,-0.049692,-0.002224,0.014129,0.049731,-0.023834,-0.52364,-0.049376,-1.49093,-264.661245,1.235339,62.356056
1.5585,0.001373,-0.014269,-0.049683,-0.002343,0.014378,0.049692,-0.023834,-0.52364,-0.049376,-1.49093,-264.661245,1.235339,62.356056
1.578,0.000493,-0.013783,-0.047831,-0.00208,0.014183,0.049683,-0.024048,-0.523136,-0.048019,-1.506358,-264.673726,1.310343,62.351654
1.5984,0.000343,-0.013718,-0.048102,-0.001151,0.013744,0.047831,-0.02404,-0.523127,-0.047964,-1.506358,-264.673726,1.310343,62.351654
1.6184,-0.000724,-0.013517,-0.045542,-0.001002,0.013686,0.048102,-0.024241,-0.522675,-0.046555,-1.518456,-264.688195,1.385336,62.346439
1.6379,-0.000674,-0.012942,-0.044634,0.000108,0.013536,0.045542,-0.024079,-0.522796,-0.045781,-1.518456,-264.688195,1.385336,62.346439
1.6581,-0.000775,-0.013327,-0.04474,9.6e-05,0.01296,0.044634,-0.024079,-0.522796,-0.045781,-1.518456,-264.688195,1.385336,62.346439
1.678,-0.001984,-0.012427,-0.043082,0.000178,0.013348,0.04474,-0.023618,-0.522271,-0.042855,-1.544,-264.702147,1.460341,62.341403
1.6986,-0.001866,-0.012809,-0.042981,0.001447,0.0125,0.043082,-0.023642,-0.522234,-0.042821,-1.544,-264.702147,1.460341,62.341403
1.7179,-0.002738,-0.012343,-0.041795,0.001314,0.012877,0.042981,-0.023769,-0.521942,-0.041617,-1.573189,-264.714895,1.535342,62.33687
1.7382,-0.002984,-0.011741,-0.040872,0.00222,0.012447,0.041795,-0.023927,-0.521866,-0.041546,-1.573189,-264.714895,1.535342,62.33687
1.758,-0.002666,-0.011815,-0.042816,0.002502,0.011854,0.040872,-0.023927,-0.521866,-0.041546,-1.573189,-264.714895,1.535342,62.33687
1.7779,-0.00321,-0.01147,-0.040536,0.002157,0.011919,0.042816,-0.024442,-0.520915,-0.041313,-1.608053,-264.72603,1.610432,62.332889
1.7984,-0.00363,-0.011468,-0.040618,0.002743,0.01159,0.040536,-0.024402,-0.520913,-0.041219,-1.608053,-264.72603,1.610432,62.332889
1.8182,-0.003699,-0.011261,-0.039485,0.003162,0.011606,0.040618,-0.024334,-0.520993,-0.040529,-1.638651,-264.727156,1.535408,62.332889
1.8379,-0.003331,-0.01134,-0.040471,0.003252,0.011398,0.039485,-0.024048,-0.520912,-0.039924,-1.638651,-264.727156,1.535408,62.332889
1.8581,-0.003147,-0.011374,-0.040193,0.00287,0.011466,0.040471,-0.024048,-0.520912,-0.039924,-1.638651,-264.727156,1.535408,62.332889
1.878,-0.003403,-0.01154,-0.039018,0.002687,0.011491,0.040193,-0.02364,-0.520962,-0.040193,-1.646119,-264.727157,1.460526,62.33289
1.898,-0.00336,-0.01158,-0.039656,0.00295,0.011664,0.039018,-0.023616,-0.520975,-0.040111,-1.646119,-264.727157,1.460526,62.33289
1.918,-0.003601,-0.011548,-0.039671,0.002898,0.011704,0.039656,-0.023579,-0.521179,-0.039656,-1.649936,-264.727159,1.385528,62.33289
1.9381,-0.003516,-0.011222,-0.039887,0.00314,0.011681,0.039671,-0.023721,-0.521161,-0.039665,-1.649936,-264.727159,1.385528,62.33289
1.9583,-0.003332,-0.011609,-0.041189,0.003066,0.011353,0.039887,-0.023721,-0.521161,-0.039665,-1.649936,-264.727159,1.385528,62.33289
1.9781,-0.0037,-0.011633,-0.0401,0.002851,0.011737,0.041189,-0.024332,-0.521177,-0.041189,-1.653713,-264.72716,1.310525,62.332891
1.9979,-0.003104,-0.011521,-0.040021,0.00323,0.011772,0.0401,-0.02432,-0.52118,-0.041119,-1.653713,-264.72716,1.310525,62.332891
2.0186,-0.003435,-0.011464,-0.04,0.002641,0.011636,0.040021,-0.023509,-0.521113,-0.040021,-1.656437,-264.727162,1.23553,62.332891
2.0381,-0.003368,-0.011134,-0.040012,0.002974,0.011593,0.04,-0.023693,-0.521081,-0.040009,-1.656437,-264.727162,1.23553,62.332891
2.0581,-0.003867,-0.011493,-0.040757,0.00292,0.011259,0.040012,-0.023693,-0.521081,-0.040009,-1.656437,-264.727162,1.23553,62.332891
2.0784,-0.003342,-0.011608,-0.0406,0.003396,0.011641,0.040757,-0.024647,-0.521069,-0.040756,-1.659647,-264.727163,1.160374,62.332892
2.0987,-0.003409,-0.011817,-0.041085,0.002868,0.011734,0.0406,-0.024607,-0.521077,-0.040746,-1.659647,-264.727163,1.160374,62.332892
2.1182,-0.003631,-0.011683,-0.039902,0.00292,0.011947,0.041085,-0.024356,-0.521387,-0.041085,-1.652408,-264.727165,1.085518,62.332892
2.1381,-0.003267,-0.011757,-0.04079,0.003162,0.011819,0.039902,-0.024138,-0.521324,-0.040408,-1.652408,-264.727165,1.085518,62.332892
2.1581,-0.003523,-0.011331,-0.039941,0.002785,0.01188,0.04079,-0.024138,-0.521324,-0.040408,-1.652408,-264.727165,1.085518,62.332892
2.1781,-0.003342,-0.01123,-0.040846,0.003068,0.011463,0.039941,-0.023888,-0.520924,-0.039941,-1.649139,-264.727166,1.010423,62.332893
2.1982,-0.003799,-0.01173,-0.038449,0.002881,0.011357,0.040846,-0.023907,-0.520916,-0.040004,-1.649139,-264.727166,1.010423,62.332893
2.2182,-0.003466,-0.011506,-0.040918,0.003346,0.011867,0.038449,-0.023403,-0.521353,-0.038449,-1.646352,-264.727168,0.93553,62.332893
2.2382,-0.003307,-0.011778,-0.039793,0.002992,0.011639,0.040918,-0.023933,-0.521196,-0.039863,-1.646352,-264.727168,0.93553,62.332893
2.2588,-0.003128,-0.011386,-0.039284,0.002836,0.011901,0.039793,-0.023933,-0.521196,-0.039863,-1.646352,-264.727168,0.93553,62.332893
2.2779,-0.003745,-0.011865,-0.039751,0.002678,0.0115,0.039284,-0.023158,-0.520992,-0.039284,-1.649979,-264.727169,0.860429,62.332894
2.2984,-0.003258,-0.011149,-0.04022,0.003271,0.012005,0.039751,-0.023221,-0.521027,-0.039319,-1.649979,-264.727169,0.860429,62.332894
2.3179,-0.003456,-0.011571,-0.041072,0.002807,0.011271,0.04022,-0.023765,-0.520737,-0.040219,-1.648958,-264.727171,0.785123,62.332895
2.338,-0.003825,-0.011594,-0.039769,0.002978,0.011703,0.041072,-0.024127,-0.520968,-0.040708,-1.648958,-264.727171,0.785123,62.332895
2.358,-0.003291,-0.011315,-0.040233,0.003361,0.011737,0.039769,-0.024127,-0.520968,-0.040708,-1.648958,-264.727171,0.785123,62.332895
2.3781,-0.00352,-0.011626,-0.03977,0.002834,0.011438,0.040233,-0.023804,-0.520902,-0.040232,-1.660702,-264.727172,0.710384,62.332895
2.3983,-0.003048,-0.011458,-0.038593,0.003055,0.011757,0.03977,-0.023804,-0.520924,-0.0402,-1.660702,-264.727172,0.710384,62.332895
2.4182,-0.00358,-0.011567,-0.039222,0.002604,0.011567,0.038593,-0.022726,-0.521078,-0.038593,-1.663834,-264.727173,0.635524,62.332896
2.4385,-0.003761,-0.011621,-0.04129,0.003124,0.011699,0.039222,-0.023214,-0.521134,-0.038953,-1.663834,-264.727173,0.635524,62.332896
2.458,-0.003528,-0.011367,-0.03977,0.003279,0.011767,0.04129,-0.023214,-0.521134,-0.038953,-1.663834,-264.727173,0.635524,62.332896
2.4781,-0.003333,-0.011353,-0.040757,0.003073,0.011498,0.03977,-0.023805,-0.520964,-0.03977,-1.655345,-264.727175,0.560402,62.332896
2.4985,-0.003643,-0.011633,-0.04011,0.002868,0.011479,0.040757,-0.023826,-0.520961,-0.039837,-1.655345,-264.727175,0.560402,62.332896
2.5186,-0.00366,-0.011116,-0.039825,0.003174,0.01177,0.04011,-0.024093,-0.521223,-0.04011,-1.659212,-264.727176,0.485513,62.332897
2.538,-0.003592,-0.011452,-0.03877,0.003214,0.011252,0.039825,-0.02402,-0.520932,-0.039948,-1.659212,-264.727176,0.485513,62.332897
2.5583,-0.003532,-0.011862,-0.039914,0.003146,0.011582,0.03877,-0.02402,-0.520932,-0.039948,-1.659212,-264.727176,0.485513,62.332897
2.5781,-0.003222,-0.011567,-0.038851,0.003056,0.011994,0.039914,-0.023883,-0.521456,-0.039914,-1.64948,-264.727178,0.410525,62.332897
2.5985,-0.003365,-0.011266,-0.041226,0.00277,0.011683,0.038851,-0.023823,-0.521437,-0.039839,-1.64948,-264.727178,0.410525,62.332897
2.6183,-0.003698,-0.011148,-0.03891,0.002898,0.011395,0.041226,-0.024384,-0.520832,-0.041226,-1.659769,-264.727179,0.335528,62.332898
2.6379,-0.003257,-0.01148,-0.039062,0.003262,0.011283,0.03891,-0.02391,-0.520793,-0.03993,-1.659769,-264.727179,0.335528,62.332898
2.658,-0.003532,-0.011677,-0.040439,0.002807,0.011598,0.039062,-0.02391,-0.520793,-0.03993,-1.659769,-264.727179,0.335528,62.332898
2.6781,-0.003505,-0.011118,-0.04009,0.003057,0.01181,0.040439,-0.02415,-0.52126,-0.040439,-1.648865,-264.727181,0.260516,62.332898
2.6986,-0.003762,-0.011421,-0.039713,0.003057,0.01125,0.04009,-0.024135,-0.521217,-0.040411,-1.648865,-264.727181,0.260516,62.332898
2.7184,-0.00346,-0.011021,-0.040387,0.003305,0.011561,0.039713,-0.02401,-0.521019,-0.039713,-1.649788,-264.727182,0.185138,62.332899
2.7385,-0.003477,-0.011375,-0.04013,0.003012,0.011151,0.040387,-0.024034,-0.520777,-0.040107,-1.649788,-264.727182,0.185138,62.332899
2.7581,-0.003574,-0.011801,-0.040043,0.003018,0.011505,0.04013,-0.024034,-0.520777,-0.040107,-1.649788,-264.727182,0.185138,62.332899
2.7779,-0.003122,-0.011562,-0.039371,0.003099,0.011934,0.040043,-0.023991,-0.521392,-0.040043,-1.656137,-264.727184,0.110042,62.332899
2.798,-0.003211,-0.011593,-0.03941,0.002665,0.011676,0.039371,-0.023923,-0.521373,-0.039986,-1.656137,-264.727184,0.110042,62.332899
2.818,-0.003773,-0.011552,-0.039877,0.002752,0.011711,0.03941,-0.023305,-0.521197,-0.03941,-1.654409,-264.727185,0.034925,62.3329
2.8379,-0.003554,-0.011139,-0.039993,0.00331,0.011693,0.039877,-0.02376,-0.521168,-0.039675,-1.654409,-264.727185,0.034925,62.3329
2.858,-0.003169,-0.011408,-0.039179,0.003106,0.011272,0.039993,-0.02376,-0.521168,-0.039675,-1.654409,-264.727185,0.034925,62.3329
2.8785,-0.003237,-0.011314,-0.039966,0.002719,0.011523,0.039179,-0.023145,-0.521016,-0.039179,-1.645254,-264.727186,-0.039476,62.3329
2.8982,-0.00379,-0.011602,-0.040982,0.002782,0.011435,0.039966,-0.023178,-0.521009,-0.039234,-1.645254,-264.727186,-0.039476,62.3329
2.918,-0.003242,-0.011299,-0.03986,0.003311,0.011747,0.040982,-0.024685,-0.521173,-0.040982,-1.657577,-264.727188,-0.114468,62.332901
2.9379,-0.003391,-0.011672,-0.0417,0.00279,0.011419,0.03986,-0.024051,-0.521015,-0.040347,-1.657577,-264.727188,-0.114468,62.332901
2.9579,-0.003757,-0.011279,-0.041142,0.002902,0.011803,0.0417,-0.024051,-0.521015,-0.040347,-1.657577,-264.727188,-0.114468,62.332901
2.978,-0.003387,-0.01132,-0.0399,0.00329,0.011424,0.041142,-0.024734,-0.520847,-0.041142,-1.648261,-264.727189,-0.189469,62.332901
2.9984,-0.003333,-0.011351,-0.039324,0.002932,0.011446,0.0399,-0.024666,-0.520852,-0.041058,-1.648261,-264.727189,-0.189469,62.332901
3.0183,-0.003931,-0.011545,-0.040901,0.002884,0.011473,0.039324,-0.023383,-0.520957,-0.039324,-1.648494,-264.727191,-0.26447,62.332902
3.0382,-0.003355,-0.011409,-0.039765,0.003455,0.011696,0.040901,-0.024167,-0.521047,-0.040206,-1.648494,-264.727191,-0.26447,62.332902
3.0584,-0.003407,-0.01153,-0.039864,0.002899,0.011533,0.039765,-0.024167,-0.521047,-0.040206,-1.648494,-264.727191,-0.26447,62.332902
3.0781,-0.003635,-0.011774,-0.038745,0.002945,0.011656,0.039864,-0.023732,-0.521124,-0.039864,-1.652491,-264.727192,-0.339475,62.332902
3.0981,-0.003149,-0.011253,-0.041466,0.003176,0.011906,0.038745,-0.02371,-0.521142,-0.039791,-1.652491,-264.727192,-0.339475,62.332902
3.1185,-0.00343,-0.01189,-0.039335,0.00268,0.011374,0.041466,-0.024291,-0.520815,-0.041466,-1.651562,-264.727194,-0.414491,62.332903
3.1381,-0.003629,-0.011501,-0.040488,0.00296,0.012015,0.039335,-0.02383,-0.521204,-0.040246,-1.651562,-264.727194,-0.414491,62.332903
3.1581,-0.003132,-0.011651,-0.040768,0.003161,0.011638,0.040488,-0.02383,-0.521204,-0.040246,-1.651562,-264.727194,-0.414491,62.332903
3.1783,-0.003309,-0.011425,-0.040424,0.002655,0.011769,0.040768,-0.023918,-0.521227,-0.040768,-1.659845,-264.727195,-0.489602,62.332903
3.1986,-0.003713,-0.011612,-0.040968,0.002845,0.011549,0.040424,-0.023918,-0.521212,-0.040744,-1.659845,-264.727195,-0.489602,62.332903
3.2181,-0.003054,-0.011405,-0.041002,0.003234,0.011754,0.040968,-0.024601,-0.521184,-0.040968,-1.657498,-264.727197,-0.564476,62.332904
3.238,-0.003552,-0.01121,-0.039699,0.002584,0.011521,0.041002,-0.024234,-0.521065,-0.040987,-1.657498,-264.727197,-0.564476,62.332904
3.258,-0.003914,-0.011536,-0.03897,0.003104,0.011342,0.039699,-0.024234,-0.521065,-0.040987,-1.657498,-264.727197,-0.564476,62.332904
3.278,-0.003859,-0.010975,-0.040359,0.003462,0.011679,0.03897,-0.023784,-0.521148,-0.03897,-1.649145,-264.727198,-0.63961,62.332905
3.2986,-0.00372,-0.011517,-0.039357,0.003413,0.011121,0.040359,-0.02383,-0.521107,-0.039067,-1.649145,-264.727198,-0.63961,62.332905
3.318,-0.003573,-0.011531,-0.040118,0.003264,0.011655,0.039357,-0.023787,-0.521122,-0.039357,-1.657794,-264.727203,-0.714467,62.332906
3.338,-0.003883,-0.011168,-0.03926,0.003108,0.011665,0.040118,-0.023925,-0.521122,-0.039792,-1.657794,-264.727203,-0.714467,62.332906
3.3582,-0.00365,-0.011438,-0.041005,0.003441,0.011312,0.03926,-0.023925,-0.521122,-0.039792,-1.657794,-264.727203,-0.714467,62.332906
3.3781,-0.003318,-0.011619,-0.038049,0.003178,0.011578,0.041005,-0.024556,-0.521008,-0.041001,-1.665932,-264.727229,-0.789574,62.332917
3.3983,-0.003622,-0.0117,-0.040729,0.002873,0.011736,0.038049,-0.024414,-0.521027,-0.040773,-1.665932,-264.727229,-0.789574,62.332917
3.4179,-0.003731,-0.011316,-0.039525,0.003142,0.011838,0.040729,-0.024385,-0.521272,-0.040712,-1.668004,-264.727393,-0.864784,62.332977
3.438,-0.003217,-0.011195,-0.040223,0.003281,0.011455,0.039525,-0.024099,-0.52107,-0.040035,-1.668004,-264.727393,-0.864784,62.332977
3.4579,-0.003682,-0.011351,-0.039586,0.002764,0.011316,0.040223,-0.024099,-0.52107,-0.040035,-1.668004,-264.727393,-0.864784,62.332977
3.4782,-0.003417,-0.011184,-0.040268,0.00323,0.011488,0.039586,-0.023858,-0.520934,-0.039534,-1.652763,-264.727803,-0.939475,62.333116
3.4983,-0.003464,-0.011373,-0.04058,0.002964,0.011312,0.040268,-0.023864,-0.520922,-0.039584,-1.652763,-264.727803,-0.939475,62.333116
3.5182,-0.003272,-0.011075,-0.041449,0.002999,0.011504,0.04058,-0.024143,-0.520929,-0.040505,-1.64768,-264.728526,-1.014477,62.333388
3.5382,-0.003716,-0.01114,-0.039543,0.00281,0.011201,0.041449,-0.02429,-0.52076,-0.041032,-1.64768,-264.728526,-1.014477,62.333388
3.5581,-0.003836,-0.01138,-0.040729,0.003273,0.011279,0.039543,-0.02429,-0.52076,-0.041032,-1.64768,-264.728526,-1.014477,62.333388
3.5783,-0.0035,-0.011531,-0.04042,0.003369,0.011527,0.040729,-0.024563,-0.520868,-0.040429,-1.653161,-264.730791,-1.089473,62.334243
3.598,-0.003459,-0.011073,-0.037821,0.003031,0.011663,0.04042,-0.02453,-0.520883,-0.040421,-1.653161,-264.730791,-1.089473,62.334243
3.6181,-0.004149,-0.011464,-0.040164,0.003038,0.011196,0.037821,-0.022675,-0.52058,-0.037284,-1.662906,-264.735556,-1.164487,62.336461
3.6379,-0.004018,-0.010915,-0.038447,0.003686,0.011622,0.040164,-0.023777,-0.520833,-0.038854,-1.662906,-264.735556,-1.164487,62.336461
3.658,-0.003964,-0.011065,-0.039295,0.003595,0.011062,0.038447,-0.023777,-0.520833,-0.038854,-1.662906,-264.735556,-1.164487,62.336461
3.6781,-0.003979,-0.010598,-0.037155,0.003526,0.011212,0.039295,-0.023889,-0.52042,-0.038272,-1.653991,-264.742821,-1.239483,62.339676
3.6983,-0.004095,-0.010668,-0.037748,0.003582,0.010739,0.037155,-0.023819,-0.520402,-0.038167,-1.653991,-264.742821,-1.239483,62.339676
3.718,-0.004838,-0.010391,-0.035017,0.00369,0.010815,0.037748,-0.023218,-0.520069,-0.036605,-1.674501,-264.752586,-1.289021,62.344615
3.7386,-0.004891,-0.010328,-0.034909,0.004471,0.010554,0.035017,-0.022904,-0.520044,-0.035556,-1.674501,-264.752586,-1.289021,62.344615
3.7582,-0.005228,-0.010315,-0.035705,0.004528,0.010492,0.034909,-0.022904,-0.520044,-0.035556,-1.674501,-264.752586,-1.289021,62.344615
3.7781,-0.005685,-0.010568,-0.034511,0.004856,0.010495,0.035705,-0.023252,-0.519545,-0.034017,-1.677543,-264.76485,-1.279641,62.349599
3.7982,-0.005916,-0.010211,-0.034458,0.005317,0.010758,0.034511,-0.023249,-0.519583,-0.034006,-1.677543,-264.76485,-1.279641,62.349599
3.8182,-0.006303,-0.009559,-0.032829,0.005561,0.010409,0.034458,-0.023336,-0.519581,-0.033343,-1.712176,-264.775436,-1.204643,62.353465
3.8379,-0.006204,-0.009684,-0.033018,0.005986,0.009761,0.032829,-0.02315,-0.51937,-0.032909,-1.712176,-264.775436,-1.204643,62.353465
3.8579,-0.006092,-0.009284,-0.033474,0.005881,0.009884,0.033018,-0.02315,-0.51937,-0.032909,-1.712176,-264.775436,-1.204643,62.353465
3.8783,-0.006577,-0.009177,-0.032723,0.005777,0.009482,0.033474,-0.022943,-0.518582,-0.0321,-1.736284,-264.785969,-1.129523,62.357254
3.8985,-0.006756,-0.008955,-0.032736,0.006274,0.009388,0.032723,-0.022959,-0.518593,-0.032107,-1.736284,-264.785969,-1.129523,62.357254
3.9184,-0.006959,-0.008902,-0.032545,0.00646,0.009171,0.032736,-0.023445,-0.518654,-0.032691,-1.661407,-264.786535,-1.054645,62.357254
3.9381,-0.006519,-0.009032,-0.032022,0.006665,0.009124,0.032545,-0.023506,-0.518638,-0.032602,-1.661407,-264.786535,-1.054645,62.357254
3.9581,-0.00674,-0.00909,-0.033157,0.006226,0.009236,0.032022,-0.023506,-0.518638,-0.032602,-1.661407,-264.786535,-1.054645,62.357254
3.9784,-0.006701,-0.009126,-0.031201,0.006435,0.009309,0.033157,-0.023647,-0.51881,-0.033157,-1.586409,-264.786534,-1.036303,62.357255
3.9982,-0.006923,-0.009262,-0.030342,0.006413,0.009331,0.031201,-0.023578,-0.518814,-0.033026,-1.586409,-264.786534,-1.036303,62.357255
4.018,-0.006454,-0.008949,-0.03289,0.006639,0.009468,0.030342,-0.022396,-0.519027,-0.030342,-1.511405,-264.786533,-1.028003,62.357255
4.0381,-0.006565,-0.008878,-0.032403,0.006156,0.009157,0.03289,-0.022869,-0.518825,-0.031798,-1.511405,-264.786533,-1.028003,62.357255
4.0582,-0.006748,-0.00899,-0.030996,0.006274,0.009086,0.032403,-0.022869,-0.518825,-0.031798,-1.511405,-264.786533,-1.028003,62.357255
4.0784,-0.007166,-0.009171,-0.031665,0.006466,0.009195,0.030996,-0.022554,-0.518745,-0.030996,-1.436301,-264.786532,-0.987859,62.357256
4.0985,-0.006602,-0.009072,-0.033454,0.006872,0.009393,0.031665,-0.022599,-0.518755,-0.031036,-1.436301,-264.786532,-0.987859,62.357256
4.118,-0.006468,-0.009021,-0.032001,0.006295,0.009287,0.033454,-0.02366,-0.518786,-0.033454,-1.361392,-264.786531,-1.040679,62.357256
4.1384,-0.006902,-0.008971,-0.032256,0.006176,0.009223,0.032001,-0.023161,-0.518771,-0.032624,-1.361392,-264.786531,-1.040679,62.357256
4.1581,-0.006653,-0.009597,-0.032896,0.006609,0.009189,0.032256,-0.023161,-0.518771,-0.032624,-1.361392,-264.786531,-1.040679,62.357256
4.178,-0.006746,-0.008912,-0.030951,0.006334,0.00981,0.032896,-0.023427,-0.519321,-0.032896,-1.286301,-264.78653,-0.96621,62.357257
4.1981,-0.006312,-0.00896,-0.032965,0.006467,0.009116,0.030951,-0.023365,-0.519276,-0.032762,-1.286301,-264.78653,-0.96621,62.357257
4.218,-0.006778,-0.00939,-0.029804,0.006013,0.009164,0.032965,-0.023121,-0.518683,-0.032965,-1.211399,-264.786529,-1.009517,62.357257
4.2385,-0.006703,-0.008776,-0.032085,0.006495,0.009588,0.029804,-0.022465,-0.518959,-0.031154,-1.211399,-264.786529,-1.009517,62.357257
4.258,-0.006671,-0.009256,-0.032086,0.006418,0.008987,0.032085,-0.022465,-0.518959,-0.031154,-1.211399,-264.786529,-1.009517,62.357257
4.2785,-0.007111,-0.008835,-0.030613,0.006371,0.009465,0.032086,-0.023032,-0.518994,-0.032086,-1.136276,-264.786527,-0.986842,62.357258
4.2983,-0.00703,-0.009277,-0.031888,0.006837,0.009048,0.030613,-0.023009,-0.518964,-0.031976,-1.136276,-264.786527,-0.986842,62.357258
4.3179,-0.006363,-0.009002,-0.030934,0.00673,0.009496,0.031888,-0.02329,-0.519018,-0.031888,-1.061247,-264.786526,-1.026719,62.357258
4.338,-0.007088,-0.00879,-0.029254,0.006081,0.009194,0.030934,-0.022628,-0.518868,-0.031341,-1.061247,-264.786526,-1.026719,62.357258
4.3582,-0.007304,-0.009231,-0.032387,0.006828,0.008994,0.029254,-0.022628,-0.518868,-0.031341,-1.061247,-264.786526,-1.026719,62.357258
4.3782,-0.006719,-0.008766,-0.031939,0.007001,0.009463,0.032387,-0.023818,-0.518964,-0.032387,-0.986301,-264.786525,-0.954315,62.357259
4.3984,-0.006571,-0.009247,-0.031171,0.006436,0.008976,0.031939,-0.023762,-0.518932,-0.032356,-0.986301,-264.786525,-0.954315,62.357259
4.4182,-0.00636,-0.008846,-0.031054,0.006279,0.009447,0.031171,-0.022465,-0.518999,-0.031171,-0.911397,-264.786524,-0.914952,62.357259
4.4383,-0.006447,-0.009005,-0.030637,0.006082,0.009039,0.031054,-0.022311,-0.518771,-0.031104,-0.911397,-264.786524,-0.914952,62.357259
4.4583,-0.006653,-0.00896,-0.031142,0.006168,0.009198,0.030637,-0.022311,-0.518771,-0.031104,-0.911397,-264.786524,-0.914952,62.357259
4.4784,-0.006696,-0.00893,-0.030425,0.006371,0.009163,0.031142,-0.022533,-0.518713,-0.031142,-0.836314,-264.786523,-0.990035,62.35726
4.4985,-0.006743,-0.008756,-0.031565,0.006422,0.00913,0.030425,-0.022507,-0.518712,-0.031083,-0.836314,-264.786523,-0.990035,62.35726
4.518,-0.006906,-0.008914,-0.030858,0.006463,0.008965,0.031565,-0.022838,-0.518502,-0.031566,-0.76089,-264.786522,-0.99556,62.35726
4.5386,-0.006856,-0.009121,-0.030719,0.006628,0.009123,0.030858,-0.022727,-0.518598,-0.031165,-0.76089,-264.786522,-0.99556,62.35726
4.5581,-0.006565,-0.008647,-0.031887,0.006572,0.009327,0.030719,-0.022727,-0.518598,-0.031165,-0.76089,-264.786522,-0.99556,62.35726
4.5783,-0.006534,-0.00906,-0.02981,0.006286,0.008852,0.031887,-0.022825,-0.518388,-0.031887,-0.686405,-264.786521,-0.974067,62.35726
4.5985,-0.006822,-0.008858,-0.031835,0.006261,0.009251,0.02981,-0.022753,-0.518417,-0.031751,-0.686405,-264.786521,-0.974067,62.35726
4.6182,-0.006445,-0.008696,-0.032568,0.006537,0.00907,0.031835,-0.023055,-0.518599,-0.031835,-0.611409,-264.78652,-0.962358,62.357261
4.6386,-0.006953,-0.008702,-0.03069,0.006159,0.008901,0.032568,-0.023053,-0.518501,-0.032251,-0.611409,-264.78652,-0.962358,62.357261
4.6583,-0.006626,-0.009155,-0.030829,0.006682,0.008911,0.03069,-0.023053,-0.518501,-0.032251,-0.611409,-264.78652,-0.962358,62.357261
4.678,-0.00673,-0.009063,-0.030874,0.006341,0.009355,0.030829,-0.022347,-0.518913,-0.030829,-0.536393,-264.786519,-0.960671,62.357261
4.6985,-0.006623,-0.0092,-0.030643,0.006447,0.009266,0.030874,-0.022355,-0.518906,-0.030832,-0.536393,-264.786519,-0.960671,62.357261
4.7182,-0.006441,-0.008557,-0.03183,0.006338,0.009399,0.030643,-0.022249,-0.518961,-0.030643,-0.461403,-264.786517,-0.97387,62.357262
4.738,-0.006577,-0.008907,-0.032563,0.006165,0.008758,0.03183,-0.022491,-0.518581,-0.031324,-0.461403,-264.786517,-0.97387,62.357262
4.7579,-0.006583,-0.009128,-0.031796,0.006283,0.009116,0.032563,-0.022491,-0.518581,-0.031324,-0.461403,-264.786517,-0.97387,62.357262
4.7779,-0.006726,-0.008949,-0.032926,0.00629,0.009333,0.031796,-0.022797,-0.51887,-0.031796,-0.386251,-264.786516,-0.97892,62.357262
4.7979,-0.006569,-0.00887,-0.030368,0.006428,0.009166,0.032926,-0.022847,-0.518856,-0.031874,-0.386251,-264.786516,-0.97892,62.357262
4.8179,-0.006664,-0.00891,-0.031807,0.006297,0.009065,0.030368,-0.022054,-0.518635,-0.030368,-0.311395,-264.786515,-1.042732,62.357263
4.8384,-0.007148,-0.009382,-0.032109,0.006377,0.009117,0.031807,-0.022526,-0.518645,-0.031187,-0.311395,-264.786515,-1.042732,62.357263
4.8584,-0.006333,-0.009065,-0.03273,0.006843,0.009607,0.032109,-0.022526,-0.518645,-0.031187,-0.311395,-264.786515,-1.042732,62.357263
4.8779,-0.006491,-0.008911,-0.033772,0.006033,0.009268,0.03273,-0.023023,-0.518792,-0.03273,-0.236402,-264.786514,-1.039688,62.357263
4.8983,-0.006762,-0.00878,-0.032256,0.006186,0.009125,0.033772,-0.02307,-0.51878,-0.032802,-0.236402,-264.786514,-1.039688,62.357263
4.918,-0.006758,-0.00892,-0.030437,0.006475,0.008994,0.032256,-0.023209,-0.518515,-0.032256,-0.161394,-264.786513,-0.970867,62.357264
4.9382,-0.006329,-0.009325,-0.033723,0.006483,0.009121,0.030437,-0.022677,-0.518611,-0.031216,-0.161394,-264.786513,-0.970867,62.357264
4.9582,-0.006761,-0.008937,-0.032457,0.006011,0.009533,0.033723,-0.022677,-0.518611,-0.031216,-0.161394,-264.786513,-0.970867,62.357264
4.9783,-0.006596,-0.009195,-0.03275,0.006467,0.009152,0.032457,-0.02331,-0.518668,-0.032457,-0.086275,-264.786512,-1.045986,62.357264
4.9981,-0.006683,-0.008915,-0.028961,0.006291,0.009406,0.03275,-0.023309,-0.518685,-0.032476,-0.086275,-264.786512,-1.045986,62.357264
5.0183,-0.006842,-0.008956,-0.031802,0.006423,0.009105,0.028961,-0.021451,-0.518701,-0.028961,-0.011402,-264.786511,-1.073065,62.357265
5.0384,-0.006687,-0.009153,-0.032515,0.006554,0.009169,0.031802,-0.022371,-0.518699,-0.030586,-0.011402,-264.786511,-1.073065,62.357265
5.0581,-0.006782,-0.009316,-0.032658,0.006386,0.009366,0.032515,-0.022371,-0.518699,-0.030586,-0.011402,-264.786511,-1.073065,62.357265
5.0781,-0.006349,-0.009121,-0.032123,0.006474,0.009532,0.032658,-0.023434,-0.519044,-0.032658,0.0637,-264.78651,-1.035009,62.357265
5.0987,-0.006577,-0.009361,-0.032025,0.006053,0.00932,0.032123,-0.023387,-0.519031,-0.032622,0.0637,-264.78651,-1.035009,62.357265
5.1185,-0.00707,-0.009466,-0.03057,0.006274,0.009566,0.032025,-0.022907,-0.519099,-0.032024,0.138602,-264.786508,-1.024103,62.357266
5.1381,-0.006789,-0.009081,-0.034132,0.006777,0.009677,0.03057,-0.022765,-0.519172,-0.031194,0.138602,-264.786508,-1.024103,62.357266
5.1583,-0.006627,-0.009069,-0.0313,0.006475,0.009308,0.034132,-0.022765,-0.519172,-0.031194,0.138602,-264.786508,-1.024103,62.357266
5.1784,-0.006562,-0.009108,-0.033143,0.00634,0.009272,0.0313,-0.022587,-0.518819,-0.0313,0.213701,-264.786507,-1.039481,62.357266
5.1983,-0.006508,-0.009079,-0.030375,0.006257,0.009321,0.033143,-0.022649,-0.51882,-0.03143,0.213701,-264.786507,-1.039481,62.357266
5.218,-0.006906,-0.009189,-0.031989,0.006229,0.009272,0.030375,-0.021997,-0.518844,-0.030375,0.288793,-264.786506,-1.059437,62.357267
5.238,-0.006836,-0.008742,-0.032463,0.006608,0.009405,0.031989,-0.022693,-0.518892,-0.031296,0.288793,-264.786506,-1.059437,62.357267
5.2582,-0.006678,-0.009164,-0.031585,0.006548,0.008959,0.032463,-0.022693,-0.518892,-0.031296,0.288793,-264.786506,-1.059437,62.357267
5.278,-0.006789,-0.009011,-0.030927,0.006385,0.009371,0.031585,-0.022784,-0.51891,-0.031585,0.36368,-264.786505,-1.050576,62.357267
5.2981,-0.006452,-0.009102,-0.032078,0.006507,0.009217,0.030927,-0.022768,-0.5189,-0.03154,0.36368,-264.786505,-1.050576,62.357267
5.3188,-0.006878,-0.009177,-0.030986,0.006157,0.009305,0.032078,-0.022809,-0.51884,-0.032078,0.438741,-264.786504,-1.028522,62.357268
5.3381,-0.006888,-0.009285,-0.032377,0.00659,0.009386,0.030986,-0.022734,-0.518893,-0.031453,0.438741,-264.786504,-1.028522,62.357268
5.3584,-0.006636,-0.009122,-0.031275,0.006584,0.009503,0.032377,-0.022734,-0.518893,-0.031453,0.438741,-264.786504,-1.028522,62.357268
5.3783,-0.006472,-0.00869,-0.031536,0.006348,0.009325,0.031275,-0.022584,-0.518873,-0.031275,0.513681,-264.786502,-0.978577,62.357268
5.3983,-0.006328,-0.009392,-0.032373,0.006195,0.00889,0.031536,-0.022581,-0.518837,-0.031296,0.513681,-264.786502,-0.978577,62.357268
5.4181,-0.006359,-0.009144,-0.031402,0.006021,0.009592,0.032373,-0.022835,-0.519125,-0.032372,0.58911,-264.786501,-1.000748,62.357269
5.4381,-0.006678,-0.009054,-0.031714,0.006069,0.009339,0.031402,-0.022569,-0.518991,-0.031816,0.58911,-264.786501,-1.000748,62.357269
5.4581,-0.006342,-0.009199,-0.031852,0.006388,0.009261,0.031714,-0.022569,-0.518991,-0.031816,0.58911,-264.786501,-1.000748,62.357269
5.4785,-0.006623,-0.009006,-0.031772,0.006046,0.009397,0.031852,-0.022584,-0.518941,-0.031852,0.663761,-264.7865,-1.032336,62.357269
5.4982,-0.006629,-0.009068,-0.030627,0.006333,0.009212,0.031772,-0.0226,-0.518927,-0.031846,0.663761,-264.7865,-1.032336,62.357269
5.518,-0.00665,-0.008846,-0.032887,0.006348,0.009267,0.030627,-0.022246,-0.518829,-0.030626,0.738589,-264.786496,-1.00719,62.357271
5.5381,-0.006824,-0.008712,-0.030414,0.006355,0.009059,0.032887,-0.022924,-0.518679,-0.031933,0.738589,-264.786496,-1.00719,62.357271
5.5584,-0.006563,-0.00915,-0.031927,0.006556,0.008916,0.030414,-0.022924,-0.518679,-0.031933,0.738589,-264.786496,-1.00719,62.357271
5.5783,-0.006707,-0.009149,-0.032033,0.006267,0.009354,0.031927,-0.022841,-0.518889,-0.031925,0.81387,-264.786476,-1.014827,62.357279
5.5984,-0.006925,-0.009222,-0.032249,0.006411,0.009359,0.032033,-0.022856,-0.518889,-0.031933,0.81387,-264.786476,-1.014827,62.357279
5.618,-0.006868,-0.009071,-0.031171,0.006624,0.009441,0.032249,-0.023364,-0.518955,-0.032239,0.88872,-264.786363,-0.974476,62.357325
5.6381,-0.006775,-0.009241,-0.031167,0.006582,0.009281,0.031171,-0.02302,-0.518879,-0.031627,0.88872,-264.786363,-0.974476,62.357325
5.6581,-0.006842,-0.009392,-0.032666,0.006484,0.009447,0.031167,-0.02302,-0.518879,-0.031627,0.88872,-264.786363,-0.974476,62.357325
5.6782,-0.006834,-0.009099,-0.030556,0.006532,0.009611,0.032666,-0.023483,-0.519111,-0.032628,0.963747,-264.786038,-1.009889,62.357458
5.6985,-0.006962,-0.00924,-0.030824,0.006553,0.009304,0.030556,-0.023404,-0.519093,-0.032474,0.963747,-264.786038,-1.009889,62.357458
5.7181,-0.006669,-0.009256,-0.031219,0.006674,0.00945,0.030824,-0.022643,-0.518973,-0.030728,1.038707,-264.785007,-0.976199,62.357866
5.738,-0.006564,-0.008977,-0.03033,0.006377,0.009459,0.031219,-0.022607,-0.518989,-0.030997,1.038707,-264.785007,-0.976199,62.357866
5.758,-0.006771,-0.008995,-0.03066,0.006289,0.009172,0.03033,-0.022607,-0.518989,-0.030997,1.038707,-264.785007,-0.976199,62.357866
5.778,-0.007305,-0.008991,-0.029669,0.006492,0.009198,0.03066,-0.022297,-0.518668,-0.030344,1.113687,-264.782407,-0.959923,62.358901
5.7982,-0.006345,-0.008687,-0.030271,0.007035,0.009204,0.029669,-0.022304,-0.518673,-0.030286,1.113687,-264.782407,-0.959923,62.358901
5.8179,-0.007124,-0.00861,-0.031427,0.006079,0.008875,0.030271,-0.021644,-0.518323,-0.029808,1.188697,-264.777737,-0.97884,62.360754
5.838,-0.006735,-0.00884,-0.030084,0.00685,0.00883,0.031427,-0.02249,-0.518327,-0.030678,1.188697,-264.777737,-0.97884,62.360754
5.8581,-0.00703,-0.008501,-0.031738,0.006466,0.009039,0.030084,-0.02249,-0.518327,-0.030678,1.188697,-264.777737,-0.97884,62.360754
5.8786,-0.006925,-0.00821,-0.029768,0.006756,0.008719,0.031738,-0.022955,-0.517988,-0.030813,1.263707,-264.770566,-0.90383,62.36391
5.8983,-0.007077,-0.008388,-0.030993,0.006677,0.008413,0.029768,-0.022886,-0.51798,-0.03071,1.263707,-264.770566,-0.90383,62.36391
5.9182,-0.007414,-0.007599,-0.02821,0.006814,0.008603,0.030993,-0.022658,-0.517851,-0.029997,1.338696,-264.760897,-0.965046,62.367814
5.9381,-0.007887,-0.008276,-0.0298,0.007197,0.007806,0.02821,-0.022138,-0.517553,-0.028847,1.338696,-264.760897,-0.965046,62.367814
5.9581,-0.00718,-0.008288,-0.028355,0.007637,0.008508,0.0298,-0.022138,-0.517553,-0.028847,1.338696,-264.760897,-0.965046,62.367814
5.978,-0.007583,-0.007394,-0.026639,0.006942,0.008488,0.028355,-0.021305,-0.517685,-0.026914,1.324799,-264.749969,-0.971163,62.37253
5.9984,-0.008116,-0.00777,-0.026474,0.007384,0.007593,0.026639,-0.021286,-0.517641,-0.026855,1.324799,-264.749969,-0.971163,62.37253
6.0181,-0.008718,-0.007401,-0.025479,0.007908,0.007982,0.026474,-0.02134,-0.517299,-0.025425,1.292289,-264.73981,-0.903476,62.377043
6.038,-0.008173,-0.007155,-0.025825,0.008527,0.00762,0.025479,-0.021518,-0.517225,-0.025323,1.292289,-264.73981,-0.903476,62.377043
6.0582,-0.008219,-0.007079,-0.026389,0.007985,0.007364,0.025825,-0.021518,-0.517225,-0.025323,1.292289,-264.73981,-0.903476,62.377043
6.0782,-0.008501,-0.006312,-0.022916,0.008029,0.007293,0.026389,-0.021318,-0.516552,-0.025132,1.270716,-264.730137,-0.865714,62.381455
6.0985,-0.008435,-0.007187,-0.023769,0.008354,0.006505,0.022916,-0.021236,-0.51652,-0.024958,1.270716,-264.730137,-0.865714,62.381455
6.118,-0.008764,-0.006388,-0.023096,0.008262,0.007386,0.023769,-0.02026,-0.516782,-0.022831,1.238461,-264.720956,-0.811229,62.385805
6.1381,-0.008893,-0.006263,-0.023113,0.008614,0.006588,0.023096,-0.020382,-0.516449,-0.022862,1.238461,-264.720956,-0.811229,62.385805
6.158,-0.008904,-0.006641,-0.024009,0.008746,0.006467,0.023113,-0.020382,-0.516449,-0.022862,1.238461,-264.720956,-0.811229,62.385805
6.1782,-0.009148,-0.006213,-0.022303,0.008742,0.006853,0.024009,-0.020792,-0.516231,-0.02305,1.183846,-264.713341,-0.736244,62.389664
6.1981,-0.008843,-0.006219,-0.023351,0.009007,0.006415,0.022303,-0.020764,-0.516215,-0.022973,1.183846,-264.713341,-0.736244,62.389664
6.218,-0.009092,-0.005819,-0.021493,0.008696,0.006424,0.023351,-0.02041,-0.51584,-0.022465,1.168982,-264.70446,-0.718607,62.394279
6.2381,-0.009186,-0.005824,-0.022511,0.008965,0.006013,0.021493,-0.020163,-0.51573,-0.021797,1.168982,-264.70446,-0.718607,62.394279
6.2581,-0.009052,-0.00571,-0.020692,0.009052,0.00603,0.022511,-0.020163,-0.51573,-0.021797,1.168982,-264.70446,-0.718607,62.394279
6.2783,-0.00921,-0.005981,-0.020162,0.008932,0.005896,0.020692,-0.019177,-0.51531,-0.01965,1.148341,-264.696008,-0.674785,62.398717
6.2979,-0.009254,-0.005697,-0.019697,0.009088,0.006166,0.020162,-0.019187,-0.515341,-0.019657,1.148341,-264.696008,-0.674785,62.398717
6.318,-0.009334,-0.005451,-0.018752,0.00914,0.005878,0.019697,-0.01895,-0.515375,-0.018842,1.141564,-264.687449,-0.706073,62.403398
6.338,-0.009186,-0.005181,-0.018618,0.00923,0.005626,0.018752,-0.018875,-0.515339,-0.018682,1.141564,-264.687449,-0.706073,62.403398
6.3582,-0.009433,-0.005131,-0.018019,0.009087,0.005351,0.018618,-0.018875,-0.515339,-0.018682,1.141564,-264.687449,-0.706073,62.403398
6.3782,-0.0092,-0.005184,-0.018152,0.009339,0.0053,0.018019,-0.018265,-0.514818,-0.017215,1.113745,-264.680778,-0.631077,62.406952
6.3984,-0.009165,-0.005487,-0.017624,0.009105,0.00535,0.018152,-0.018269,-0.514831,-0.017258,1.113745,-264.680778,-0.631077,62.406952
6.4182,-0.009543,-0.004923,-0.017358,0.009067,0.005648,0.017624,-0.017819,-0.515219,-0.016947,1.073003,-264.673612,-0.585088,62.411057
6.438,-0.00936,-0.004723,-0.016475,0.009456,0.005088,0.017358,-0.018105,-0.514983,-0.017095,1.073003,-264.673612,-0.585088,62.411057
6.4585,-0.009154,-0.004541,-0.01713,0.009281,0.004877,0.016475,-0.018105,-0.514983,-0.017095,1.073003,-264.673612,-0.585088,62.411057
6.4786,-0.009032,-0.004454,-0.015231,0.009075,0.004697,0.01713,-0.017447,-0.514215,-0.016255,1.064939,-264.666166,-0.562211,62.415321
6.498,-0.009645,-0.004533,-0.014799,0.008964,0.004591,0.015231,-0.017393,-0.514221,-0.016165,1.064939,-264.666166,-0.562211,62.415321
6.5181,-0.008941,-0.004734,-0.015492,0.009577,0.004675,0.014799,-0.01686,-0.514308,-0.014214,1.014885,-264.659702,-0.509477,62.419228
6.5381,-0.009253,-0.004035,-0.014542,0.008866,0.004872,0.015492,-0.016807,-0.514494,-0.014865,1.014885,-264.659702,-0.509477,62.419228
6.5581,-0.009202,-0.004389,-0.014138,0.009193,0.004169,0.014542,-0.016807,-0.514494,-0.014865,1.014885,-264.659702,-0.509477,62.419228
6.578,-0.009311,-0.004199,-0.015016,0.009139,0.004519,0.014138,-0.01598,-0.514124,-0.013409,0.997826,-264.653188,-0.483928,62.423218
6.598,-0.009003,-0.004166,-0.015219,0.009247,0.004338,0.015016,-0.016037,-0.51412,-0.013501,0.997826,-264.653188,-0.483928,62.423218
6.6183,-0.009039,-0.003519,-0.014516,0.009247,0.004338,0.015016,-0.016417,-0.513955,-0.014672,0.957105,-264.646979,-0.473665,62.427236
6.6382,-0.009027,-0.003551,-0.014552,9.3e-05,3.8e-05,0.0,-0.016387,-0.513657,-0.014514,0.957105,-264.646979,-0.473665,62.427236
6.6582,-0.009407,-0.003983,-0.014099,9.3e-05,3.8e-05,0.0,-0.016387,-0.513657,-0.014514,0.957105,-264.646979,-0.473665,62.427236
6.6781,-0.008819,-0.00384,-0.012778,9.3e-05,3.8e-05,0.0,-0.016147,-0.513728,-0.013373,0.970555,-264.640458,-0.481605,62.431392
6.6983,-0.009302,-0.003501,-0.012007,9.3e-05,3.8e-05,0.0,-0.016079,-0.513728,-0.013312,0.970555,-264.640458,-0.481605,62.431392
6.7184,-0.009068,-0.003591,-0.014066,9.3e-05,3.8e-05,0.0,-0.015426,-0.513464,-0.012007,0.895607,-264.640458,-0.406657,62.431392
6.7381,-0.009115,-0.003964,-0.014174,9.3e-05,3.8e-05,0.0,-0.015883,-0.513507,-0.013163,0.895607,-264.640458,-0.406657,62.431392
6.7582,-0.009277,-0.003757,-0.014327,9.3e-05,3.8e-05,0.0,-0.015883,-0.513507,-0.013163,0.895607,-264.640458,-0.406657,62.431392
6.7785,-0.009291,-0.003596,-0.012544,9.3e-05,3.8e-05,0.0,-0.016583,-0.513704,-0.014327,0.820618,-264.640458,-0.331668,62.431392
6.7985,-0.009366,-0.003867,-0.014011,9.3e-05,3.8e-05,0.0,-0.016523,-0.513694,-0.014207,0.820618,-264.640458,-0.331668,62.431392
6.8181,-0.008946,-0.003726,-0.011409,9.3e-05,3.8e-05,0.0,-0.016511,-0.513817,-0.014011,0.745604,-264.640458,-0.256654,62.431392
6.838,-0.009269,-0.003794,-0.012979,9.3e-05,3.8e-05,0.0,-0.015516,-0.513747,-0.012529,0.745604,-264.640458,-0.256654,62.431392
6.858,-0.009499,-0.003853,-0.012884,0.001313,0.000533,0.002121,-0.015516,-0.513747,-0.012529,0.745604,-264.640458,-0.256654,62.431392
6.8787,-0.009287,-0.003506,-0.013604,0.002564,0.001041,0.004142,-0.016069,-0.513811,-0.012884,0.670611,-264.640458,-0.181661,62.431392
6.8989,-0.009118,-0.00355,-0.013369,0.003742,0.00152,0.006044,-0.01608,-0.513786,-0.012935,0.670611,-264.640458,-0.181661,62.431392
6.9181,-0.00887,-0.003655,-0.013576,0.004855,0.001972,0.007841,-0.015933,-0.513504,-0.013367,0.745607,-264.64042,-0.256657,62.431418
6.9381,-0.008719,-0.004048,-0.013356,0.005897,0.002395,0.009525,-0.015853,-0.513563,-0.013486,0.745607,-264.64042,-0.256657,62.431418
6.9581,-0.009189,-0.003946,-0.013466,0.006879,0.002794,0.01111,-0.015853,-0.513563,-0.013486,0.745607,-264.64042,-0.256657,62.431418
6.9783,-0.009192,-0.003356,-0.014453,0.007785,0.003162,0.012575,-0.016024,-0.513888,-0.013427,0.820663,-264.64001,-0.331713,62.431694
6.9984,-0.009534,-0.003979,-0.01265,0.008628,0.003504,0.013936,-0.016059,-0.513848,-0.013495,0.820663,-264.64001,-0.331713,62.431694
7.0183,-0.0092,-0.00366,-0.013029,0.009422,0.003826,0.015218,-0.015866,-0.51389,-0.012486,0.895617,-264.638029,-0.406667,62.43303
7.0381,-0.009049,-0.003489,-0.012626,0.010113,0.004107,0.016334,-0.015838,-0.513729,-0.012774,0.895617,-264.638029,-0.406667,62.43303
7.0582,-0.009171,-0.003577,-0.014041,0.010752,0.004367,0.017366,-0.015838,-0.513729,-0.012774,0.895617,-264.638029,-0.406667,62.43303
7.078,-0.008996,-0.003361,-0.012614,0.011327,0.0046,0.018295,-0.016007,-0.513396,-0.013539,0.948036,-264.633548,-0.481663,62.436071
7.0979,-0.008816,-0.003443,-0.011643,0.01183,0.004804,0.019107,-0.01596,-0.513387,-0.013463,0.948036,-264.633548,-0.481663,62.436071
7.1179,-0.009171,-0.003168,-0.010614,0.012268,0.004982,0.019815,-0.014354,-0.513256,-0.011003,0.948036,-264.626566,-0.525839,62.44089
7.1379,-0.009014,-0.003093,-0.010412,0.012638,0.005133,0.020413,-0.014434,-0.51317,-0.010701,0.948036,-264.626566,-0.525839,62.44089
7.158,-0.008752,-0.003439,-0.011276,0.012942,0.005256,0.020903,-0.014434,-0.51317,-0.010701,0.948036,-264.626566,-0.525839,62.44089
7.1781,-0.008689,-0.0032,-0.010714,0.01318,0.005353,0.021288,-0.013925,-0.513179,-0.010347,0.948036,-264.618453,-0.525839,62.446361
7.198,-0.008716,-0.002958,-0.01123,0.013347,0.00542,0.021557,-0.013926,-0.513172,-0.010347,0.948036,-264.618453,-0.525839,62.446361
7.2184,-0.008638,-0.002464,-0.008495,0.013447,0.005461,0.02172,-0.013941,-0.512728,-0.010422,0.948036,-264.609567,-0.525839,62.452354
7.238,-0.008505,-0.002779,-0.009606,0.013481,0.005475,0.021774,-0.013322,-0.512541,-0.009217,0.948036,-264.609567,-0.525839,62.452354
7.258,-0.00871,-0.002292,-0.008785,0.013447,0.005461,0.02172,-0.013322,-0.512541,-0.009217,0.948036,-264.609567,-0.525839,62.452354
7.2781,-0.008731,-0.002886,-0.00848,0.013346,0.00542,0.021556,-0.012541,-0.512014,-0.007739,0.948036,-264.600418,-0.525839,62.458524
7.2985,-0.008463,-0.002543,-0.007416,0.013178,0.005352,0.021284,-0.01256,-0.512069,-0.007764,0.948036,-264.600418,-0.525839,62.458524
7.3182,-0.008312,-0.001881,-0.007201,0.012941,0.005256,0.020902,-0.011725,-0.512322,-0.006579,0.948036,-264.591192,-0.525839,62.464746
7.338,-0.008148,-0.002195,-0.007202,0.012639,0.005133,0.020414,-0.011807,-0.512035,-0.006828,0.948036,-264.591192,-0.525839,62.464746
7.358,-0.008578,-0.002199,-0.005106,0.012267,0.004982,0.019814,-0.011807,-0.512035,-0.006828,0.948036,-264.591192,-0.525839,62.464746
7.3782,-0.008363,-0.001924,-0.006916,0.011827,0.004803,0.019103,-0.010541,-0.511935,-0.004072,0.948036,-264.582107,-0.525839,62.470873
7.398,-0.008022,-0.001857,-0.00584,0.011323,0.004598,0.018288,-0.010635,-0.511925,-0.004281,0.948036,-264.582107,-0.525839,62.470873
7.4184,-0.008185,-0.002032,-0.005447,0.01075,0.004366,0.017363,-0.010529,-0.51166,-0.00508,0.948036,-264.573718,-0.525839,62.47653
7.4386,-0.008001,-0.001697,-0.005063,0.010111,0.004106,0.016331,-0.01072,-0.511847,-0.005196,0.948036,-264.573718,-0.525839,62.47653
7.4587,-0.008598,-0.001517,-0.005036,0.009403,0.003819,0.015188,-0.01072,-0.511847,-0.005196,0.948036,-264.573718,-0.525839,62.47653
7.4786,-0.008025,-0.001334,-0.003267,0.008628,0.003504,0.013936,-0.010617,-0.51129,-0.00415,0.948036,-264.565983,-0.525839,62.481746
7.4983,-0.008181,-0.001676,-0.003865,0.007785,0.003162,0.012574,-0.010538,-0.511287,-0.004066,0.948036,-264.565983,-0.525839,62.481746
7.5182,-0.008081,-0.001413,-0.003993,0.00687,0.00279,0.011096,-0.009788,-0.511526,-0.003279,0.948036,-264.559502,-0.525839,62.486117
7.538,-0.007989,-0.001087,-0.003149,0.005893,0.002393,0.009518,-0.009935,-0.511439,-0.003621,0.948036,-264.559502,-0.525839,62.486117
7.5583,-0.007844,-0.001417,-0.003343,0.004821,0.001958,0.007787,-0.009935,-0.511439,-0.003621,0.948036,-264.559502,-0.525839,62.486117
7.5781,-0.008168,-0.000868,-0.002815,0.003742,0.00152,0.006044,-0.009172,-0.511262,-0.002735,0.948036,-264.554181,-0.525839,62.489705
7.5983,-0.007833,-0.00151,-0.00343,0.002561,0.00104,0.004137,-0.009193,-0.511229,-0.002723,0.948036,-264.554181,-0.525839,62.489705
7.618,-0.007908,-0.001083,-0.002123,0.001288,0.000523,0.00208,-0.009396,-0.511432,-0.00313,0.948036,-264.550874,-0.525839,62.491936
7.638,-0.007521,-0.001092,-0.001939,0.0,0.0,0.0,-0.00914,-0.511221,-0.002514,0.948036,-264.550874,-0.525839,62.491936
7.6583,-0.007912,-0.000905,-0.003233,0.0,0.0,0.0,-0.00914,-0.511221,-0.002514,0.948036,-264.550874,-0.525839,62.491936
7.678,-0.007651,-0.000915,-0.001595,0.0,0.0,0.0,-0.009436,-0.510852,-0.003032,0.948036,-264.549121,-0.525839,62.493118
7.6979,-0.008046,-0.000549,-0.002329,0.0,0.0,0.0,-0.009364,-0.510855,-0.002926,0.948036,-264.549121,-0.525839,62.493118
7.7181,-0.007932,-0.000621,-0.003169,0.0,0.0,0.0,-0.009234,-0.510547,-0.002329,0.948036,-264.549121,-0.525839,62.493118
7.7381,-0.007496,-0.001127,-0.004363,0.0,0.0,0.0,-0.009414,-0.510588,-0.002811,0.948036,-264.549121,-0.525839,62.493118
7.7583,-0.008349,-0.000934,-0.003001,0.0,0.0,0.0,-0.009414,-0.510588,-0.002811,0.948036,-264.549121,-0.525839,62.493118
7.7781,-0.007561,-0.001107,-0.002594,0.0,0.0,0.0,-0.009879,-0.510932,-0.003001,0.948036,-264.549121,-0.525839,62.493118
7.7982,-0.00772,-0.000624,-0.003904,0.0,0.0,0.0,-0.009807,-0.510944,-0.002971,0.948036,-264.549121,-0.525839,62.493118
7.818,-0.007811,-0.001484,-0.002138,0.0,0.0,0.0,-0.009711,-0.51062,-0.003904,0.948036,-264.549121,-0.525839,62.493118
7.838,-0.008231,-0.000858,-0.002069,0.0,0.0,0.0,-0.009247,-0.511115,-0.002892,0.948036,-264.549121,-0.525839,62.493118
7.8584,-0.007867,-0.000861,-0.002632,0.0,0.0,0.0,-0.009247,-0.511115,-0.002892,0.948036,-264.549121,-0.525839,62.493118
7.8781,-0.008289,-0.001118,-0.004558,9.9e-05,1.1e-05,0.0,-0.009209,-0.510859,-0.002632,0.948036,-264.549121,-0.525839,62.493118
7.8984,-0.008084,-0.001154,-0.002854,9.9e-05,1.1e-05,0.0,-0.009328,-0.510881,-0.002794,0.948036,-264.549121,-0.525839,62.493118
7.918,-0.008004,-0.000776,-0.000186,9.9e-05,1.1e-05,0.0,-0.00954,-0.511152,-0.002854,0.948036,-264.549121,-0.525839,62.493118
7.9382,-0.00766,-0.001115,-0.002616,9.9e-05,1.1e-05,0.0,-0.008713,-0.510936,-0.001324,0.948036,-264.549121,-0.525839,62.493118
7.9582,-0.007847,-0.001506,-0.00389,9.9e-05,1.1e-05,0.0,-0.008713,-0.510936,-0.001324,0.948036,-264.549121,-0.525839,62.493118
7.9782,-0.007943,-0.000505,-0.002172,9.9e-05,1.1e-05,0.0,-0.009831,-0.511502,-0.00389,0.873405,-264.549121,-0.451208,62.493118
7.998,-0.007719,-0.000935,-0.001653,9.9e-05,1.1e-05,0.0,-0.009781,-0.511438,-0.003779,0.873405,-264.549121,-0.451208,62.493118
8.018,-0.008333,-0.001386,-0.002081,9.9e-05,1.1e-05,0.0,-0.008562,-0.510935,-0.001653,0.798423,-264.549121,-0.376226,62.493118
8.0381,-0.007668,-0.000895,-0.002243,9.9e-05,1.1e-05,0.0,-0.009034,-0.511191,-0.001896,0.798423,-264.549121,-0.376226,62.493118
8.0582,-0.007643,-0.000832,-0.001358,9.9e-05,1.1e-05,0.0,-0.009034,-0.511191,-0.001896,0.798423,-264.549121,-0.376226,62.493118
8.078,-0.007816,-0.001084,-0.002763,1e-06,0.0,0.0,-0.008336,-0.510831,-0.001358,0.723523,-264.549121,-0.301326,62.493118
8.0988,-0.00826,-0.001005,-0.001577,0.001151,0.000129,0.000385,-0.008397,-0.510848,-0.001454,0.723523,-264.549121,-0.301326,62.493118
8.1182,-0.00773,-0.001197,-0.002213,0.002243,0.000251,0.00075,-0.009064,-0.511004,-0.001577,0.64851,-264.549121,-0.226313,62.493118
8.1385,-0.007892,-0.00093,-0.003173,0.003272,0.000367,0.001095,-0.008946,-0.511114,-0.001943,0.64851,-264.549121,-0.226313,62.493118
8.158,-0.00796,-0.000774,-0.003361,0.004247,0.000476,0.001421,-0.008946,-0.511114,-0.001943,0.64851,-264.549121,-0.226313,62.493118
8.178,-0.00772,-0.001127,-0.001658,0.005162,0.000579,0.001727,-0.009668,-0.51077,-0.003357,0.57337,-264.549068,-0.151173,62.493169
8.1983,-0.008275,-0.00096,-0.00347,0.006017,0.000674,0.002013,-0.00959,-0.510795,-0.003237,0.57337,-264.549068,-0.151173,62.493169
8.2181,-0.007879,-0.001196,-0.002565,0.006816,0.000764,0.002281,-0.009997,-0.510947,-0.003446,0.498518,-264.548536,-0.091997,62.493678
8.2386,-0.007678,-0.000859,-0.001289,0.007554,0.000847,0.002528,-0.009529,-0.511087,-0.00294,0.498518,-264.548536,-0.091997,62.493678
8.2581,-0.007518,-0.000846,-0.001251,0.008228,0.000922,0.002753,-0.009529,-0.511087,-0.00294,0.498518,-264.548536,-0.091997,62.493678
8.278,-0.007419,-0.000942,0.000317,0.008848,0.000992,0.002961,-0.007999,-0.510819,-0.001182,0.423471,-264.547143,-0.091997,62.495012
8.2987,-0.007748,-0.000989,-0.001308,0.009409,0.001055,0.003148,-0.007943,-0.510827,-0.001076,0.423471,-264.547143,-0.091997,62.495012
8.318,-0.007213,-0.001167,-0.002783,0.00991,0.001111,0.003316,-0.008161,-0.510954,-0.001213,0.348519,-264.544371,-0.091997,62.497666
8.3385,-0.007077,-0.00045,-0.000953,0.010353,0.001161,0.003464,-0.008397,-0.51107,-0.002093,0.348519,-264.544371,-0.091997,62.497666
8.3582,-0.007755,-0.000976,-0.001043,0.010738,0.001204,0.003593,-0.008397,-0.51107,-0.002093,0.348519,-264.544371,-0.091997,62.497666
8.3784,-0.007162,-0.000642,-0.00049,0.01106,0.00124,0.003701,-0.007842,-0.510926,-0.000894,0.306483,-264.540534,-0.091997,62.50134
8.3979,-0.007192,-0.000876,-0.000399,0.011325,0.00127,0.003789,-0.007801,-0.510906,-0.000863,0.306483,-264.540534,-0.091997,62.50134
8.418,-0.006444,-0.000832,-0.001268,0.011537,0.001293,0.00386,-0.00698,-0.51083,-0.00026,0.306483,-264.536028,-0.091997,62.505653
8.4381,-0.006879,-0.000764,-0.002939,0.01168,0.001309,0.003908,-0.006991,-0.510825,-0.000818,0.306483,-264.536028,-0.091997,62.505653
8.4583,-0.006592,-0.000875,-0.001434,0.011768,0.001319,0.003938,-0.006991,-0.510825,-0.000818,0.306483,-264.536028,-0.091997,62.505653
8.4783,-0.006061,-0.000842,-0.0022,0.011797,0.001322,0.003947,-0.006771,-0.510813,-0.00125,0.306483,-264.531277,-0.091997,62.510202
8.4985,-0.006065,-0.000538,-0.001287,0.011768,0.001319,0.003937,-0.006784,-0.510813,-0.001306,0.306483,-264.531277,-0.091997,62.510202
8.518,-0.005442,-0.000377,-0.001789,0.011679,0.001309,0.003908,-0.006266,-0.510487,-0.001135,0.306483,-264.52634,-0.091997,62.51493
8.5382,-0.005239,-0.000676,-1.2e-05,0.011532,0.001293,0.003858,-0.006258,-0.510418,-0.001487,0.306483,-264.52634,-0.091997,62.51493
8.558,-0.005654,-0.00065,-0.000165,0.011325,0.00127,0.003789,-0.006258,-0.510418,-0.001487,0.306483,-264.52634,-0.091997,62.51493
8.578,-0.005324,-0.000286,-0.000824,0.01106,0.00124,0.003701,-0.005166,-0.510586,2.6e-05,0.306483,-264.521403,-0.091997,62.519657
8.5986,-0.005361,-0.00056,4.5e-05,0.010736,0.001203,0.003592,-0.00519,-0.510564,-2.6e-05,0.306483,-264.521403,-0.091997,62.519657
8.6179,-0.004497,-0.000543,-0.001118,0.010352,0.00116,0.003464,-0.004901,-0.510511,0.000192,0.306483,-264.516651,-0.091997,62.524206
8.6387,-0.00492,-0.000493,-0.001231,0.00991,0.001111,0.003316,-0.00494,-0.510523,-0.000534,0.306483,-264.516651,-0.091997,62.524206
8.6582,-0.004393,-0.000514,-0.002045,0.009408,0.001055,0.003148,-0.00494,-0.510523,-0.000534,0.306483,-264.516651,-0.091997,62.524206
8.678,-0.003823,-0.000287,-0.000487,0.008848,0.000992,0.00296,-0.004914,-0.510456,-0.001871,0.306483,-264.512147,-0.091997,62.528519
8.6985,-0.004907,-0.00048,-0.001016,0.008229,0.000922,0.002753,-0.004842,-0.510443,-0.00177,0.306483,-264.512147,-0.091997,62.528519
8.7182,-0.003583,-0.000534,-0.001962,0.007549,0.000846,0.002526,-0.005061,-0.510439,-0.000894,0.306483,-264.508191,-0.091997,62.532306
8.738,-0.004202,-0.000364,0.000261,0.006814,0.000764,0.00228,-0.00474,-0.510488,-0.001493,0.306483,-264.508191,-0.091997,62.532306
8.758,-0.003637,-0.000379,-0.000243,0.006013,0.000674,0.002012,-0.00474,-0.510488,-0.001493,0.306483,-264.508191,-0.091997,62.532306
8.7779,-0.003552,-0.000302,7.9e-05,0.005156,0.000578,0.001725,-0.003361,-0.510334,-0.000109,0.306483,-264.504746,-0.091997,62.535604
8.7981,-0.003497,-1.3e-05,0.000253,0.004247,0.000476,0.001421,-0.003361,-0.510331,-9.3e-05,0.306483,-264.504746,-0.091997,62.535604
8.8184,-0.003307,-0.000302,0.000638,0.003273,0.000367,0.001095,-0.003136,-0.509987,0.000331,0.306483,-264.50222,-0.091997,62.538023
8.8384,-0.00324,-0.000155,-0.001066,0.002243,0.000251,0.000751,-0.003018,-0.510163,0.000516,0.306483,-264.50222,-0.091997,62.538023
8.8581,-0.003427,-0.00045,-0.000786,0.001151,0.000129,0.000385,-0.003018,-0.510163,0.000516,0.306483,-264.50222,-0.091997,62.538023
8.8781,-0.002726,-0.000413,-0.000765,0.0,0.0,0.0,-0.003622,-0.510427,-0.000717,0.306483,-264.500438,-0.091997,62.539729
8.898,-0.00293,-0.000174,-0.001184,0.0,0.0,0.0,-0.003583,-0.510425,-0.000718,0.306483,-264.500438,-0.091997,62.539729
