mach0312/omni-docking-bench/src/icros_test_setup/results/kinematic_sample/timeseries/trial_128.csv
t,x,y,yaw,vx,vy,wz,bl_x,bl_y,bl_yaw,front_steering_joint,front_wheel_joint,rear_steering_joint,rear_wheel_joint
0.0,0.020784,-0.028042,-0.032278,-0.004314,-0.006861,-0.007952,0.005081,-0.537366,-0.030776,1.21805,-264.32319,0.434939,62.42233
0.0004,0.020982,-0.027765,-0.031949,-0.004183,-0.006653,-0.00771,0.005138,-0.537115,-0.030157,1.21805,-264.328034,0.434939,62.420484
0.0009,0.020705,-0.028099,-0.03269,-0.004085,-0.006497,-0.00753,0.005138,-0.537115,-0.030157,1.21805,-264.333043,0.434939,62.418576
0.0012,0.020798,-0.028789,-0.032217,-0.003965,-0.006306,-0.007309,0.004985,-0.537081,-0.03071,1.21805,-264.338059,0.434939,62.416666
0.0015,0.020803,-0.027793,-0.033216,-0.003823,-0.006081,-0.007048,0.004985,-0.537081,-0.03071,1.21805,-264.342984,0.434939,62.414789
0.0018,0.021028,-0.028727,-0.032127,-0.00366,-0.005821,-0.006747,0.004985,-0.537081,-0.03071,1.21805,-264.347582,0.434939,62.413038
0.0021,0.020591,-0.028655,-0.032753,-0.003474,-0.005526,-0.006405,0.004967,-0.537377,-0.031676,1.21805,-264.351813,0.434939,62.411426
0.0024,0.020459,-0.028973,-0.034067,-0.003267,-0.005196,-0.006023,0.004967,-0.537377,-0.031676,1.21805,-264.351813,0.434939,62.411426
0.0027,0.020599,-0.028709,-0.033272,-0.003039,-0.004833,-0.005602,0.004989,-0.537385,-0.031588,1.21805,-264.351813,0.434939,62.411426
0.003,0.020861,-0.028743,-0.032721,-0.002788,-0.004435,-0.00514,0.004989,-0.537385,-0.031588,1.21805,-264.351813,0.434939,62.411426
0.0181,0.02068,-0.029604,-0.033095,-0.018516,0.011998,0.025362,0.004051,-0.538655,-0.03294,1.21805,-264.355337,0.434939,62.410084
0.0378,0.020597,-0.029474,-0.034265,-0.021648,0.027998,0.033095,0.003897,-0.539053,-0.033054,1.21805,-264.355337,0.434939,62.410084
0.0581,0.020488,-0.029326,-0.03241,-0.021595,0.028751,0.034265,0.003897,-0.539053,-0.033054,1.21805,-264.355337,0.434939,62.410084
0.078,0.020469,-0.029524,-0.032522,-0.021427,0.028647,0.03241,0.003833,-0.539249,-0.032635,1.21805,-264.35825,0.434939,62.408974
0.0981,0.020834,-0.029533,-0.032973,-0.021419,0.028843,0.032522,0.003833,-0.539254,-0.032633,1.21805,-264.35825,0.434939,62.408974
0.1191,0.020706,-0.029746,-0.032673,-0.021796,0.02883,0.032973,0.004021,-0.539256,-0.032973,1.143058,-264.35825,0.359947,62.408974
0.1381,0.020939,-0.029322,-0.033876,-0.021667,0.029054,0.032673,0.004035,-0.539382,-0.032799,1.143058,-264.35825,0.359947,62.408974
0.1583,0.020832,-0.029697,-0.033398,-0.02192,0.028596,0.033876,0.004035,-0.539382,-0.032799,1.143058,-264.35825,0.359947,62.408974
0.1784,0.020881,-0.029239,-0.033537,-0.021812,0.028985,0.033398,0.003802,-0.539413,-0.033398,1.06769,-264.35825,0.284578,62.408974
0.1981,0.020848,-0.029107,-0.033835,-0.02185,0.028522,0.033537,0.0038,-0.539367,-0.033412,1.06769,-264.35825,0.284578,62.408974
0.2183,0.020572,-0.02937,-0.034106,-0.021821,0.028385,0.033835,0.003595,-0.538815,-0.033835,0.99221,-264.35825,0.209098,62.408974
0.238,0.020705,-0.029754,-0.03282,-0.021562,0.028652,0.034106,0.00336,-0.538962,-0.03399,0.99221,-264.35825,0.209098,62.408974
0.2582,0.020691,-0.029373,-0.032368,-0.021671,0.029059,0.03282,0.00336,-0.538962,-0.03399,0.99221,-264.35825,0.209098,62.408974
0.2786,0.020567,-0.029556,-0.033152,-0.021631,0.028688,0.032368,0.004186,-0.539106,-0.032368,0.918068,-264.35825,0.134957,62.408974
0.2992,0.020759,-0.02944,-0.031956,-0.021535,0.028858,0.033152,0.00415,-0.539118,-0.032422,0.918068,-264.35825,0.134957,62.408974
0.3182,0.020885,-0.029825,-0.031582,-0.021689,0.028762,0.031956,0.004464,-0.53918,-0.031956,0.843028,-264.35825,0.059917,62.408974
0.3381,0.020382,-0.029616,-0.032675,-0.021817,0.029151,0.031582,0.004641,-0.539398,-0.031748,0.843028,-264.35825,0.059917,62.408974
0.3581,0.020215,-0.03002,-0.032709,-0.021339,0.028934,0.032675,0.004641,-0.539398,-0.031748,0.843028,-264.35825,0.059917,62.408974
0.3782,0.020435,-0.029365,-0.033328,-0.021186,0.029343,0.032709,0.003536,-0.539748,-0.032709,0.76816,-264.35825,-0.014951,62.408974
0.3983,0.020848,-0.029456,-0.032102,-0.021402,0.028668,0.033328,0.00353,-0.539704,-0.032749,0.76816,-264.35825,-0.014951,62.408974
0.4184,0.021341,-0.029413,-0.03282,-0.021782,0.028771,0.032102,0.004479,-0.539193,-0.032102,0.693172,-264.358251,-0.08994,62.408974
0.438,0.020985,-0.029657,-0.031296,-0.022295,0.028696,0.03282,0.004552,-0.539161,-0.032513,0.693172,-264.358251,-0.08994,62.408974
0.4582,0.020357,-0.029261,-0.031405,-0.021902,0.028986,0.031296,0.004552,-0.539161,-0.032513,0.693172,-264.358251,-0.08994,62.408974
0.4781,0.020906,-0.029371,-0.03264,-0.021266,0.028608,0.031405,0.004343,-0.53901,-0.031405,0.617996,-264.358251,-0.165116,62.408973
0.4985,0.020209,-0.029393,-0.033066,-0.021853,0.028673,0.03264,0.004337,-0.539016,-0.031495,0.617996,-264.358251,-0.165116,62.408973
0.5183,0.020241,-0.029764,-0.03406,-0.02117,0.028709,0.033066,0.003348,-0.539114,-0.033066,0.542951,-264.358252,-0.24016,62.408973
0.5386,0.02035,-0.029459,-0.033048,-0.021243,0.029058,0.03406,0.003077,-0.539317,-0.033635,0.542951,-264.358252,-0.24016,62.408973
0.5586,0.020875,-0.029586,-0.034459,-0.021313,0.028771,0.033048,0.003077,-0.539317,-0.033635,0.542951,-264.358252,-0.24016,62.408973
0.5789,0.020668,-0.029403,-0.033292,-0.021881,0.028849,0.034459,0.003304,-0.539283,-0.034459,0.468029,-264.358254,-0.315083,62.408972
0.5985,0.020431,-0.029242,-0.032924,-0.021635,0.028699,0.033292,0.00333,-0.539272,-0.034382,0.468029,-264.358254,-0.315083,62.408972
0.6187,0.020381,-0.029722,-0.033888,-0.021383,0.028554,0.032924,0.003643,-0.538966,-0.032924,0.393143,-264.358256,-0.383006,62.408972
0.6381,0.020351,-0.02984,-0.034286,-0.021376,0.029015,0.033888,0.003338,-0.539227,-0.033467,0.393143,-264.358256,-0.383006,62.408972
0.6583,0.02074,-0.029621,-0.033511,-0.021362,0.029125,0.034286,0.003338,-0.539227,-0.033467,0.393143,-264.358256,-0.383006,62.408972
0.6785,0.020567,-0.029362,-0.033159,-0.021721,0.028909,0.033511,0.003652,-0.539334,-0.033511,0.318139,-264.358258,-0.368978,62.408971
0.6985,0.020914,-0.029557,-0.032608,-0.021529,0.028664,0.033159,0.003652,-0.539318,-0.03349,0.318139,-264.358258,-0.368978,62.408971
0.7185,0.020534,-0.0298,-0.031994,-0.021867,0.02886,0.032608,0.004287,-0.539286,-0.032608,0.243142,-264.35826,-0.365907,62.40897
0.7387,0.020386,-0.029354,-0.032278,-0.021477,0.029128,0.031994,0.004249,-0.539429,-0.032261,0.243142,-264.35826,-0.365907,62.40897
0.7585,0.020511,-0.029624,-0.032291,-0.021323,0.028681,0.032278,0.004249,-0.539429,-0.032261,0.243142,-264.35826,-0.365907,62.40897
0.7784,0.020826,-0.029009,-0.034353,-0.021457,0.028947,0.032291,0.004046,-0.539358,-0.032291,0.16814,-264.358262,-0.372481,62.408969
0.798,0.020851,-0.029514,-0.03337,-0.02181,0.028277,0.034353,0.004006,-0.539323,-0.032403,0.16814,-264.358262,-0.372481,62.408969
0.8182,0.020573,-0.029664,-0.033426,-0.021824,0.028802,0.03337,0.003835,-0.539231,-0.03337,0.093159,-264.358264,-0.398082,62.408968
0.8382,0.020987,-0.029499,-0.032701,-0.021553,0.02896,0.033426,0.003661,-0.539315,-0.033402,0.093159,-264.358264,-0.398082,62.408968
0.8586,0.020639,-0.029576,-0.032299,-0.02194,0.028797,0.032701,0.003661,-0.539315,-0.033402,0.093159,-264.358264,-0.398082,62.408968
0.8786,0.02093,-0.029802,-0.033492,-0.021583,0.028894,0.032299,0.004169,-0.53931,-0.032299,0.018053,-264.358266,-0.322976,62.408967
0.8982,0.020682,-0.029649,-0.034471,-0.021917,0.029084,0.033492,0.004149,-0.539324,-0.032376,0.018053,-264.358266,-0.322976,62.408967
0.9184,0.021022,-0.029109,-0.031234,-0.021691,0.028919,0.034471,0.003105,-0.539346,-0.034471,-0.056841,-264.358268,-0.382424,62.408966
0.9383,0.02082,-0.029251,-0.034419,-0.02192,0.028439,0.031234,0.004229,-0.539072,-0.032642,-0.056841,-264.358268,-0.382424,62.408966
0.9583,0.02081,-0.029667,-0.03356,-0.021814,0.028518,0.034419,0.004229,-0.539072,-0.032642,-0.056841,-264.358268,-0.382424,62.408966
0.978,0.020877,-0.029496,-0.031789,-0.021794,0.028952,0.03356,0.003697,-0.53938,-0.03356,-0.131829,-264.35827,-0.37507,62.408965
0.9982,0.02082,-0.029442,-0.03306,-0.021804,0.028817,0.031789,0.003763,-0.53937,-0.033441,-0.131829,-264.35827,-0.37507,62.408965
1.018,0.020625,-0.029302,-0.032618,-0.021782,0.028737,0.03306,0.003962,-0.539163,-0.03306,-0.206833,-264.358272,-0.330996,62.408964
1.0387,0.02069,-0.029429,-0.033715,-0.02157,0.028614,0.032618,0.00398,-0.539088,-0.03281,-0.206833,-264.358272,-0.330996,62.408964
1.0581,0.020979,-0.02926,-0.034143,-0.02167,0.028714,0.033715,0.00398,-0.539088,-0.03281,-0.206833,-264.358272,-0.330996,62.408964
1.079,0.020622,-0.029288,-0.034183,-0.021966,0.028527,0.034143,0.003569,-0.538963,-0.034143,-0.281864,-264.358274,-0.406027,62.408963
1.0985,0.020804,-0.029035,-0.034047,-0.021611,0.028566,0.034183,0.003546,-0.538964,-0.034146,-0.281864,-264.358274,-0.406027,62.408963
1.1185,0.020803,-0.029326,-0.032852,-0.02178,0.02831,0.034047,0.003443,-0.53874,-0.034047,-0.35683,-264.358276,-0.358626,62.408962
1.138,0.020706,-0.029242,-0.033741,-0.021755,0.028627,0.032852,0.003793,-0.538918,-0.03336,-0.35683,-264.358276,-0.358626,62.408962
1.1583,0.020888,-0.029734,-0.033067,-0.021681,0.028526,0.033741,0.003793,-0.538918,-0.03336,-0.35683,-264.358276,-0.358626,62.408962
1.1785,0.020555,-0.0297,-0.031009,-0.021859,0.029027,0.033067,0.004026,-0.539455,-0.033067,-0.432098,-264.358279,-0.34184,62.408962
1.1984,0.02085,-0.029724,-0.033335,-0.021466,0.029049,0.031009,0.004074,-0.539455,-0.03293,-0.432098,-264.358279,-0.34184,62.408962
1.2184,0.020791,-0.029494,-0.032415,-0.021829,0.029013,0.033335,0.003852,-0.539441,-0.033335,-0.506833,-264.358283,-0.350214,62.40896
1.2384,0.020829,-0.029772,-0.031654,-0.021736,0.028805,0.032415,0.004085,-0.539319,-0.032813,-0.506833,-264.358283,-0.350214,62.40896
1.2587,0.020566,-0.029529,-0.031514,-0.021761,0.029098,0.031654,0.004085,-0.539319,-0.032813,-0.506833,-264.358283,-0.350214,62.40896
1.2783,0.020645,-0.029575,-0.032773,-0.021487,0.028867,0.031514,0.004495,-0.539275,-0.031514,-0.581833,-264.358299,-0.425214,62.408952
1.2982,0.020645,-0.029474,-0.03307,-0.021603,0.028883,0.032773,0.004465,-0.539277,-0.031582,-0.581833,-264.358299,-0.425214,62.408952
1.3182,0.020617,-0.029407,-0.035637,-0.021609,0.028775,0.03307,0.003777,-0.539191,-0.033067,-0.656831,-264.358393,-0.421817,62.40891
1.3381,0.020827,-0.029215,-0.033147,-0.021652,0.028654,0.035637,0.003023,-0.53913,-0.034521,-0.656831,-264.358393,-0.421817,62.40891
1.3579,0.020466,-0.029316,-0.034033,-0.021784,0.028509,0.033147,0.003023,-0.53913,-0.034521,-0.656831,-264.358393,-0.421817,62.40891
1.3787,0.020138,-0.02965,-0.034137,-0.021452,0.028602,0.034033,0.00309,-0.539002,-0.034016,-0.731834,-264.358729,-0.389485,62.408764
1.3982,0.020888,-0.029304,-0.033254,-0.021138,0.028946,0.034137,0.003065,-0.539025,-0.034024,-0.731834,-264.358729,-0.389485,62.408764
1.4184,0.020656,-0.029282,-0.032439,-0.021851,0.028593,0.033254,0.003871,-0.53897,-0.033201,-0.806839,-264.3599,-0.362602,62.408253
1.4382,0.02061,-0.029912,-0.032585,-0.021595,0.028596,0.032439,0.004002,-0.538988,-0.032763,-0.806839,-264.3599,-0.362602,62.408253
1.4589,0.020423,-0.029095,-0.032715,-0.021574,0.029225,0.032585,0.004002,-0.538988,-0.032763,-0.806839,-264.3599,-0.362602,62.408253
1.4783,0.020147,-0.029376,-0.033526,-0.021363,0.028411,0.032715,0.003588,-0.538676,-0.032559,-0.881831,-264.362418,-0.365794,62.407199
1.4985,0.020203,-0.029113,-0.033207,-0.02112,0.028684,0.033526,0.00355,-0.538698,-0.032616,-0.881831,-264.362418,-0.365794,62.407199
1.5182,0.019827,-0.02839,-0.033852,-0.021158,0.028427,0.033207,0.00302,-0.538574,-0.032967,-0.956832,-264.367437,-0.407927,62.404521
1.5384,0.019833,-0.028813,-0.032571,-0.020777,0.027703,0.033852,0.002732,-0.538273,-0.033435,-0.956832,-264.367437,-0.407927,62.404521
1.5582,0.019779,-0.028751,-0.03147,-0.020761,0.028152,0.032571,0.002732,-0.538273,-0.033435,-0.956832,-264.367437,-0.407927,62.404521
1.5785,0.01942,-0.028331,-0.032669,-0.020674,0.028115,0.03147,0.003263,-0.537994,-0.030986,-1.031856,-264.374956,-0.370672,62.400114
1.598,0.018703,-0.028387,-0.030737,-0.020335,0.027682,0.032669,0.003218,-0.537986,-0.031084,-1.031856,-264.374956,-0.370672,62.400114
1.6184,0.018137,-0.027673,-0.031641,-0.019566,0.027798,0.030737,0.002525,-0.537576,-0.030226,-1.106825,-264.384974,-0.378625,62.393337
1.6381,0.018318,-0.027526,-0.030734,-0.019003,0.027085,0.031641,0.002166,-0.537414,-0.030959,-1.106825,-264.384974,-0.378625,62.393337
1.6584,0.01837,-0.027398,-0.032915,-0.019155,0.02695,0.030734,0.002166,-0.537414,-0.030959,-1.106825,-264.384974,-0.378625,62.393337
1.6788,0.017094,-0.026758,-0.029914,-0.019261,0.026779,0.032915,0.000848,-0.536218,-0.032055,-1.167315,-264.397495,-0.363224,62.38516
1.6985,0.017035,-0.026662,-0.02963,-0.017887,0.026235,0.029914,0.000891,-0.536215,-0.031908,-1.167315,-264.397495,-0.363224,62.38516
1.7186,0.015594,-0.025641,-0.030198,-0.017817,0.026146,0.02963,0.001307,-0.535595,-0.028784,-1.174059,-264.412588,-0.40358,62.377009
1.7385,0.015383,-0.025358,-0.029469,-0.016361,0.025159,0.030198,0.000593,-0.535381,-0.029485,-1.174059,-264.412588,-0.40358,62.377009
1.7581,0.015321,-0.025605,-0.030067,-0.016123,0.024894,0.029469,0.000593,-0.535381,-0.029485,-1.174059,-264.412588,-0.40358,62.377009
1.7784,0.013956,-0.024248,-0.027936,-0.016084,0.025133,0.030067,-0.000804,-0.534171,-0.028764,-1.188648,-264.430102,-0.418917,62.369241
1.7982,0.014197,-0.024476,-0.026972,-0.014628,0.023849,0.027936,-0.000789,-0.534131,-0.028672,-1.188648,-264.430102,-0.418917,62.369241
1.8188,0.012558,-0.023244,-0.025122,-0.014852,0.024084,0.026972,-0.000145,-0.533327,-0.02585,-1.211234,-264.448145,-0.404158,62.362336
1.8382,0.012496,-0.023112,-0.026916,-0.013138,0.022922,0.025122,-0.000281,-0.533067,-0.025295,-1.211234,-264.448145,-0.404158,62.362336
1.8582,0.012243,-0.022876,-0.027463,-0.013113,0.022768,0.026916,-0.000281,-0.533067,-0.025295,-1.211234,-264.448145,-0.404158,62.362336
1.878,0.011338,-0.022067,-0.026205,-0.012866,0.022531,0.027463,-0.002429,-0.531527,-0.02613,-1.227399,-264.465198,-0.434417,62.356006
1.8989,0.010973,-0.021832,-0.024892,-0.011913,0.021763,0.026205,-0.002419,-0.531522,-0.0261,-1.227399,-264.465198,-0.434417,62.356006
1.918,0.0099,-0.020939,-0.024322,-0.011513,0.021552,0.024892,-0.002201,-0.53079,-0.023861,-1.248028,-264.481562,-0.44964,62.350243
1.9384,0.009865,-0.020769,-0.023829,-0.010407,0.020692,0.024322,-0.002433,-0.530678,-0.023992,-1.248028,-264.481562,-0.44964,62.350243
1.958,0.009769,-0.020386,-0.024113,-0.010357,0.020528,0.023829,-0.002433,-0.530678,-0.023992,-1.248028,-264.481562,-0.44964,62.350243
1.978,0.008879,-0.019605,-0.022374,-0.010258,0.020144,0.024113,-0.003078,-0.529172,-0.022845,-1.265251,-264.497327,-0.450249,62.344976
1.9979,0.008692,-0.020094,-0.022385,-0.009316,0.019402,0.022374,-0.003055,-0.529164,-0.022779,-1.265251,-264.497327,-0.450249,62.344976
2.0179,0.007529,-0.01865,-0.022669,-0.009139,0.019894,0.022385,-0.003074,-0.529234,-0.021544,-1.283715,-264.51069,-0.52318,62.340608
2.038,0.007383,-0.01857,-0.020823,-0.00795,0.018475,0.022669,-0.003663,-0.528734,-0.022078,-1.283715,-264.51069,-0.52318,62.340608
2.058,0.007455,-0.018935,-0.021172,-0.007768,0.018412,0.020823,-0.003663,-0.528734,-0.022078,-1.283715,-264.51069,-0.52318,62.340608
2.0783,0.006437,-0.017687,-0.020428,-0.007854,0.018773,0.021172,-0.003769,-0.527882,-0.0201,-1.296187,-264.524217,-0.551964,62.3363
2.0982,0.006802,-0.01742,-0.019732,-0.006797,0.017552,0.020428,-0.003794,-0.527838,-0.020095,-1.296187,-264.524217,-0.551964,62.3363
2.1184,0.005726,-0.016871,-0.019971,-0.007144,0.017283,0.019732,-0.003515,-0.526685,-0.019016,-1.326266,-264.535615,-0.62697,62.332878
2.138,0.005813,-0.01661,-0.020019,-0.006062,0.016754,0.019971,-0.004084,-0.526653,-0.019469,-1.326266,-264.535615,-0.62697,62.332878
2.1581,0.006074,-0.016778,-0.020425,-0.006144,0.01649,0.020019,-0.004084,-0.526653,-0.019469,-1.326266,-264.535615,-0.62697,62.332878
2.1779,0.004889,-0.016184,-0.018674,-0.006416,0.01665,0.020425,-0.004652,-0.52582,-0.019441,-1.348204,-264.547813,-0.641394,62.329517
2.1981,0.004947,-0.016102,-0.017691,-0.00519,0.01609,0.018674,-0.004659,-0.525817,-0.019361,-1.348204,-264.547813,-0.641394,62.329517
2.2181,0.004109,-0.015106,-0.017369,-0.005231,0.016012,0.017691,-0.004296,-0.525397,-0.016936,-1.360013,-264.559355,-0.606677,62.326578
2.2381,0.004284,-0.01478,-0.017403,-0.00437,0.015033,0.017369,-0.004588,-0.525104,-0.017093,-1.360013,-264.559355,-0.606677,62.326578
2.2586,0.004109,-0.014932,-0.018143,-0.004541,0.014703,0.017403,-0.004588,-0.525104,-0.017093,-1.360013,-264.559355,-0.606677,62.326578
2.278,0.003781,-0.014639,-0.016938,-0.004379,0.014855,0.018143,-0.00533,-0.524254,-0.017444,-1.384217,-264.56789,-0.681979,62.324445
2.298,0.003702,-0.014288,-0.0178,-0.004029,0.014573,0.016938,-0.0053,-0.524261,-0.017386,-1.384217,-264.56789,-0.681979,62.324445
2.3182,0.00318,-0.01379,-0.01631,-0.003956,0.01422,0.0178,-0.005533,-0.523663,-0.017159,-1.393422,-264.577729,-0.731242,62.322113
2.3381,0.002794,-0.013839,-0.01686,-0.003404,0.013736,0.01631,-0.005328,-0.523627,-0.016594,-1.393422,-264.577729,-0.731242,62.322113
2.3582,0.003088,-0.014143,-0.015933,-0.003027,0.01379,0.01686,-0.005328,-0.523627,-0.016594,-1.393422,-264.577729,-0.731242,62.322113
2.3781,0.002529,-0.013154,-0.015955,-0.003313,0.014093,0.015933,-0.005205,-0.523437,-0.01519,-1.410509,-264.586858,-0.805855,62.320001
2.3984,0.002277,-0.013205,-0.014676,-0.002739,0.013112,0.015955,-0.00524,-0.523393,-0.015226,-1.410509,-264.586858,-0.805855,62.320001
2.4182,0.001417,-0.012215,-0.01519,-0.002471,0.01317,0.014676,-0.005309,-0.522648,-0.014065,-1.445795,-264.595971,-0.85675,62.318266
2.4381,0.001822,-0.012483,-0.012841,-0.001602,0.012192,0.01519,-0.005903,-0.522304,-0.014627,-1.445795,-264.595971,-0.85675,62.318266
2.4584,0.002022,-0.012491,-0.015463,-0.001982,0.012459,0.012841,-0.005903,-0.522304,-0.014627,-1.445795,-264.595971,-0.85675,62.318266
2.4781,0.001527,-0.011803,-0.015716,-0.002215,0.012459,0.015463,-0.005985,-0.521801,-0.014699,-1.451537,-264.605043,-0.887904,62.316556
2.4981,0.001717,-0.012078,-0.013388,-0.001712,0.011778,0.015716,-0.006025,-0.52178,-0.014751,-1.451537,-264.605043,-0.887904,62.316556
2.518,0.001161,-0.01143,-0.013978,-0.001878,0.012054,0.013388,-0.005136,-0.521898,-0.013242,-1.473467,-264.607367,-0.962985,62.315983
2.5381,0.001076,-0.01145,-0.013414,-0.00132,0.011413,0.013978,-0.005613,-0.521586,-0.013643,-1.473467,-264.607367,-0.962985,62.315983
2.5579,0.001371,-0.011842,-0.013335,-0.00123,0.011435,0.013414,-0.005613,-0.521586,-0.013643,-1.473467,-264.607367,-0.962985,62.315983
2.578,0.001076,-0.011166,-0.013419,-0.001528,0.011823,0.013335,-0.005488,-0.521454,-0.012938,-1.490881,-264.612191,-0.904849,62.314938
2.5983,0.001335,-0.01126,-0.012163,-0.001226,0.011151,0.013419,-0.005508,-0.521422,-0.01296,-1.490881,-264.612191,-0.904849,62.314938
2.6185,0.001273,-0.011024,-0.013027,-0.001472,0.011243,0.012163,-0.00488,-0.521125,-0.012045,-1.508226,-264.613943,-0.979857,62.314629
2.6381,0.001268,-0.011191,-0.014521,-0.001417,0.011006,0.013027,-0.005161,-0.521031,-0.012589,-1.508226,-264.613943,-0.979857,62.314629
2.6579,0.000691,-0.010724,-0.011731,-0.00143,0.011171,0.014521,-0.005161,-0.521031,-0.012589,-1.508226,-264.613943,-0.979857,62.314629
2.6782,0.000956,-0.010718,-0.012551,-0.000817,0.010715,0.011731,-0.005325,-0.520401,-0.01138,-1.507515,-264.618075,-1.054851,62.313947
2.6985,0.001059,-0.010828,-0.012028,-0.001091,0.010706,0.012551,-0.005334,-0.520413,-0.011451,-1.507515,-264.618075,-1.054851,62.313947
2.7183,0.000602,-0.010372,-0.012516,-0.00119,0.010815,0.012028,-0.00512,-0.520428,-0.011576,-1.499537,-264.624714,-1.014859,62.312891
2.7381,0.000283,-0.010407,-0.013344,-0.000732,0.010363,0.012516,-0.005503,-0.520327,-0.012055,-1.499537,-264.624714,-1.014859,62.312891
2.758,0.000427,-0.010374,-0.011549,-0.000422,0.010403,0.013344,-0.005503,-0.520327,-0.012055,-1.499537,-264.624714,-1.014859,62.312891
2.7779,0.000132,-0.010187,-0.011715,-0.000547,0.010369,0.011549,-0.00549,-0.52009,-0.01125,-1.511491,-264.628281,-1.089952,62.312264
2.7985,-5e-06,-0.010027,-0.01233,-0.000251,0.010184,0.011715,-0.005515,-0.520087,-0.011275,-1.511491,-264.628281,-1.089952,62.312264
2.8182,0.000118,-0.009834,-0.012107,-0.000118,0.010027,0.01233,-0.006298,-0.519894,-0.012207,-1.548054,-264.630042,-1.164824,62.312047
2.8385,0.000297,-0.010124,-0.012004,-0.000118,0.010027,0.01233,-0.00616,-0.519826,-0.012134,-1.548054,-264.630042,-1.164824,62.312047
2.858,-7.6e-05,-0.009844,-0.011368,-4e-06,0.0001,0.0,-0.00616,-0.519826,-0.012134,-1.548054,-264.630042,-1.164824,62.312047
2.878,0.000101,-0.010216,-0.011976,-4e-06,0.0001,0.0,-0.005878,-0.519721,-0.011263,-1.556305,-264.631303,-1.240021,62.311826
2.8987,-4.1e-05,-0.010085,-0.011545,-4e-06,0.0001,0.0,-0.005887,-0.519751,-0.011309,-1.556305,-264.631303,-1.240021,62.311826
2.9181,0.000177,-0.009871,-0.011996,-4e-06,0.0001,0.0,-0.005929,-0.52005,-0.011545,-1.529504,-264.631313,-1.314837,62.311816
2.938,-2.7e-05,-0.009855,-0.011664,-4e-06,0.0001,0.0,-0.005936,-0.519927,-0.011801,-1.529504,-264.631313,-1.314837,62.311816
2.9579,-0.000391,-0.009817,-0.011643,-4e-06,0.0001,0.0,-0.005936,-0.519927,-0.011801,-1.529504,-264.631313,-1.314837,62.311816
2.978,-4.4e-05,-0.009633,-0.012041,-4e-06,0.0001,0.0,-0.006328,-0.51978,-0.011643,-1.529504,-264.631332,-1.389828,62.311797
2.9979,-0.000264,-0.009845,-0.011479,-4e-06,0.0001,0.0,-0.006318,-0.519767,-0.011672,-1.529504,-264.631332,-1.389828,62.311797
3.0182,-3.1e-05,-0.00992,-0.012495,-4e-06,0.0001,0.0,-0.006118,-0.519809,-0.011479,-1.529504,-264.631361,-1.464944,62.311768
3.0381,0.000278,-0.00985,-0.011432,-4e-06,0.0001,0.0,-0.006282,-0.51985,-0.012061,-1.529504,-264.631361,-1.464944,62.311768
3.0583,9e-06,-0.009797,-0.01205,-0.0,1e-06,1e-06,-0.006282,-0.51985,-0.012061,-1.529504,-264.631361,-1.464944,62.311768
3.0779,-0.00018,-0.010189,-0.010753,-6.1e-05,0.00148,0.001756,-0.006137,-0.519756,-0.01205,-1.529504,-264.631399,-1.529504,62.31173
3.0984,-0.000144,-0.010007,-0.012308,-0.000119,0.00289,0.003428,-0.006103,-0.519784,-0.011957,-1.529504,-264.631399,-1.529504,62.31173
3.118,-0.00012,-0.009792,-0.011336,-0.000174,0.004214,0.004998,-0.006421,-0.519969,-0.012308,-1.546842,-264.631399,-1.454585,62.31173
3.1381,9.5e-05,-0.00985,-0.011616,-0.000226,0.005465,0.006482,-0.006125,-0.519849,-0.011754,-1.546842,-264.631399,-1.454585,62.31173
3.1581,-0.000172,-0.009772,-0.010454,-0.000274,0.006642,0.007878,-0.006125,-0.519849,-0.011754,-1.546842,-264.631399,-1.454585,62.31173
3.1781,-9e-05,-0.009739,-0.011146,-0.00032,0.007743,0.009184,-0.005508,-0.519606,-0.01029,-1.546842,-264.63336,-1.421979,62.311413
3.1983,-0.000235,-0.009614,-0.010015,-0.000362,0.008766,0.010398,-0.005526,-0.519609,-0.010343,-1.546842,-264.63336,-1.421979,62.311413
3.2179,-0.000196,-0.009274,-0.011251,-0.000401,0.009717,0.011525,-0.005351,-0.519337,-0.00972,-1.546842,-264.637826,-1.421979,62.310672
3.2379,-0.000449,-0.009345,-0.012125,-0.000438,0.010593,0.012565,-0.005685,-0.519251,-0.010559,-1.546842,-264.637826,-1.421979,62.310672
3.2579,-0.0002,-0.009416,-0.009826,-0.00047,0.011385,0.013504,-0.005685,-0.519251,-0.010559,-1.546842,-264.637826,-1.421979,62.310672
3.2785,-0.000277,-0.008951,-0.010821,-0.0005,0.012106,0.014359,-0.005224,-0.518966,-0.009321,-1.546842,-264.643868,-1.421979,62.309696
3.2983,-0.000585,-0.008606,-0.009716,-0.000527,0.012751,0.015124,-0.005264,-0.518952,-0.009411,-1.546842,-264.643868,-1.421979,62.309696
3.3183,-0.001034,-0.008458,-0.010103,-0.00055,0.013324,0.015804,-0.005554,-0.518142,-0.009194,-1.546842,-264.65172,-1.421979,62.308427
3.3379,-0.000971,-0.008566,-0.010785,-0.000571,0.013814,0.016386,-0.005912,-0.518249,-0.009639,-1.546842,-264.65172,-1.421979,62.308427
3.3579,-0.001195,-0.008254,-0.009881,-0.000588,0.014232,0.016881,-0.005912,-0.518249,-0.009639,-1.546842,-264.65172,-1.421979,62.308427
3.3788,-0.001337,-0.008027,-0.009777,-0.000602,0.014573,0.017286,-0.006254,-0.517609,-0.009146,-1.546842,-264.660531,-1.421979,62.307004
3.398,-0.001295,-0.007966,-0.009046,-0.000613,0.014839,0.017601,-0.00626,-0.517621,-0.009172,-1.546842,-264.660531,-1.421979,62.307004
3.4181,-0.001813,-0.006966,-0.007737,-0.000621,0.015029,0.017826,-0.005926,-0.517396,-0.008395,-1.546842,-264.670336,-1.421979,62.30542
3.4381,-0.001621,-0.007495,-0.008595,-0.000626,0.015143,0.017961,-0.005833,-0.517073,-0.007937,-1.546842,-264.670336,-1.421979,62.30542
3.4581,-0.001677,-0.006807,-0.008186,-0.000627,0.01518,0.018006,-0.005833,-0.517073,-0.007937,-1.546842,-264.670336,-1.421979,62.30542
3.4784,-0.00209,-0.006538,-0.008435,-0.000626,0.015142,0.017961,-0.005876,-0.516068,-0.00733,-1.546842,-264.68059,-1.421979,62.303764
3.4985,-0.002049,-0.006228,-0.007001,-0.000621,0.015028,0.017825,-0.005915,-0.516081,-0.007387,-1.546842,-264.68059,-1.421979,62.303764
3.5182,-0.002824,-0.005896,-0.005276,-0.000613,0.014836,0.017598,-0.00564,-0.515631,-0.006307,-1.546842,-264.691062,-1.421979,62.302072
3.5379,-0.00276,-0.005892,-0.005626,-0.000602,0.014571,0.017283,-0.005571,-0.515704,-0.005629,-1.546842,-264.691062,-1.421979,62.302072
3.5578,-0.002667,-0.005696,-0.004323,-0.000588,0.014231,0.01688,-0.005571,-0.515704,-0.005629,-1.546842,-264.691062,-1.421979,62.302072
3.5779,-0.003025,-0.004689,-0.005645,-0.000571,0.013814,0.016385,-0.004899,-0.514962,-0.003457,-1.546842,-264.701419,-1.421979,62.300399
3.5979,-0.003507,-0.004736,-0.005594,-0.00055,0.01332,0.0158,-0.004969,-0.514923,-0.003585,-1.546842,-264.701419,-1.421979,62.300399
3.6179,-0.00349,-0.004063,-0.004536,-0.000527,0.012751,0.015124,-0.00638,-0.514178,-0.004942,-1.546842,-264.711254,-1.421979,62.29881
3.6381,-0.003413,-0.00407,-0.004356,-0.0005,0.012107,0.014361,-0.006052,-0.514039,-0.004627,-1.546842,-264.711254,-1.421979,62.29881
3.658,-0.003989,-0.003939,-0.003889,-0.00047,0.011383,0.013502,-0.006052,-0.514039,-0.004627,-1.546842,-264.711254,-1.421979,62.29881
3.6785,-0.004444,-0.003662,-0.005557,-0.000437,0.010589,0.01256,-0.005997,-0.513289,-0.003122,-1.546842,-264.720442,-1.421979,62.297326
3.6986,-0.004101,-0.003364,-0.003772,-0.000401,0.009716,0.011524,-0.006089,-0.513297,-0.003274,-1.546842,-264.720442,-1.421979,62.297326
3.7182,-0.004518,-0.002903,-0.004024,-0.000361,0.008737,0.010364,-0.006042,-0.512917,-0.003247,-1.546842,-264.728296,-1.421979,62.296057
3.7383,-0.003783,-0.002833,-0.0028,-0.00032,0.007736,0.009175,-0.006342,-0.512852,-0.00362,-1.546842,-264.728296,-1.421979,62.296057
3.7579,-0.004295,-0.002818,-0.002927,-0.000274,0.006637,0.007872,-0.006342,-0.512852,-0.00362,-1.546842,-264.728296,-1.421979,62.296057
3.778,-0.004683,-0.002514,-0.002565,-0.000226,0.005461,0.006477,-0.005806,-0.512344,-0.002368,-1.546842,-264.73499,-1.421979,62.294975
3.7979,-0.005151,-0.002412,-0.003271,-0.000174,0.004213,0.004998,-0.00582,-0.512343,-0.002367,-1.546842,-264.73499,-1.421979,62.294975
3.8181,-0.005003,-0.002084,-0.001448,-0.000119,0.002884,0.003421,-0.006829,-0.512153,-0.002967,-1.546842,-264.739574,-1.421979,62.294235
3.8383,-0.00457,-0.002384,-0.001513,-6.1e-05,0.001478,0.001754,-0.006207,-0.512081,-0.002058,-1.546842,-264.739574,-1.421979,62.294235
3.8579,-0.005037,-0.001969,-0.002361,-0.0,1e-06,1e-06,-0.006207,-0.512081,-0.002058,-1.546842,-264.739574,-1.421979,62.294235
3.878,-0.005323,-0.001682,-0.000763,0.0,0.0,0.0,-0.006249,-0.511763,-0.002118,-1.546842,-264.742482,-1.421979,62.293765
3.8987,-0.005562,-0.002019,-0.002468,0.0,0.0,0.0,-0.006212,-0.511752,-0.002016,-1.546842,-264.742482,-1.421979,62.293765
3.9181,-0.005126,-0.002057,-0.001264,0.0,0.0,0.0,-0.006821,-0.512018,-0.002468,-1.546842,-264.742482,-1.421979,62.293765
3.9381,-0.005791,-0.002094,-0.002031,0.0,0.0,0.0,-0.006218,-0.51204,-0.001777,-1.546842,-264.742482,-1.421979,62.293765
3.9581,-0.005236,-0.001782,-0.002494,0.0,0.0,0.0,-0.006218,-0.51204,-0.001777,-1.546842,-264.742482,-1.421979,62.293765
3.9782,-0.005267,-0.001795,-0.000747,0.0,0.0,0.0,-0.006508,-0.51178,-0.002494,-1.546842,-264.742482,-1.421979,62.293765
3.9987,-0.005045,-0.001747,-0.00108,0.0,0.0,0.0,-0.006448,-0.511781,-0.002372,-1.546842,-264.742482,-1.421979,62.293765
4.018,-0.005159,-0.001712,-0.002044,0.0,0.0,0.0,-0.005596,-0.511747,-0.00108,-1.546842,-264.742482,-1.421979,62.293765
4.0382,-0.00499,-0.001741,0.000306,0.0,0.0,0.0,-0.00594,-0.511727,-0.001627,-1.546842,-264.742482,-1.421979,62.293765
4.0581,-0.005045,-0.001833,-0.000889,0.0,0.0,0.0,-0.00594,-0.511727,-0.001627,-1.546842,-264.742482,-1.421979,62.293765
4.0783,-0.005036,-0.001427,-0.001582,0.0,0.0,0.0,-0.005498,-0.511833,-0.000889,-1.546842,-264.742482,-1.421979,62.293765
4.0983,-0.005309,-0.002094,-0.000658,9.6e-05,2.7e-05,0.0,-0.005522,-0.511805,-0.000937,-1.546842,-264.742482,-1.421979,62.293765
4.1183,-0.004898,-0.001794,-0.002426,9.6e-05,2.7e-05,0.0,-0.005644,-0.512094,-0.000658,-1.546842,-264.742482,-1.421979,62.293765
4.1379,-0.005243,-0.001693,-0.002371,9.6e-05,2.7e-05,0.0,-0.005926,-0.511921,-0.001672,-1.546842,-264.742482,-1.421979,62.293765
4.158,-0.005115,-0.001766,-0.002532,9.6e-05,2.7e-05,0.0,-0.005926,-0.511921,-0.001672,-1.546842,-264.742482,-1.421979,62.293765
4.1781,-0.004826,-0.001764,-0.000479,9.6e-05,2.7e-05,0.0,-0.006406,-0.511764,-0.002532,-1.471699,-264.742482,-1.346836,62.293765
4.1981,-0.005294,-0.001417,-0.002392,9.6e-05,2.7e-05,0.0,-0.006311,-0.511764,-0.002385,-1.471699,-264.742482,-1.346836,62.293765
4.2182,-0.005066,-0.002043,-0.002451,9.6e-05,2.7e-05,0.0,-0.006514,-0.511416,-0.002392,-1.396742,-264.742482,-1.271879,62.293765
4.2382,-0.005221,-0.001662,-0.001543,9.6e-05,2.7e-05,0.0,-0.006401,-0.511774,-0.002426,-1.396742,-264.742482,-1.271879,62.293765
4.2581,-0.005361,-0.001725,-0.00157,9.6e-05,2.7e-05,0.0,-0.006401,-0.511774,-0.002426,-1.396742,-264.742482,-1.271879,62.293765
4.2781,-0.005082,-0.001908,-0.001276,9.6e-05,2.7e-05,0.0,-0.006161,-0.511725,-0.00157,-1.321724,-264.742482,-1.196862,62.293765
4.298,-0.004764,-0.001652,-0.001803,9.6e-05,2.7e-05,0.0,-0.006132,-0.511737,-0.001549,-1.321724,-264.742482,-1.196862,62.293765
4.3181,-0.005071,-0.002079,-0.001877,0.000738,0.00021,0.000232,-0.005684,-0.511651,-0.001803,-1.246736,-264.742482,-1.121873,62.293765
4.3384,-0.005416,-0.001835,-0.000402,0.001436,0.000409,0.000451,-0.005881,-0.511896,-0.001845,-1.246736,-264.742482,-1.121873,62.293765
4.3581,-0.005417,-0.001875,-0.002111,0.002095,0.000598,0.000658,-0.005881,-0.511896,-0.001845,-1.246736,-264.742482,-1.121873,62.293765
4.3781,-0.005237,-0.001755,-0.001472,0.002719,0.000775,0.000854,-0.006494,-0.511874,-0.002111,-1.171751,-264.742482,-1.046888,62.293765
4.3984,-0.005196,-0.001795,-0.002147,0.003307,0.000943,0.001039,-0.006459,-0.511866,-0.002067,-1.171751,-264.742482,-1.046888,62.293765
4.418,-0.005256,-0.002237,5.3e-05,0.003864,0.001102,0.001214,-0.00629,-0.511794,-0.002147,-1.096849,-264.742482,-0.971986,62.293765
4.438,-0.005161,-0.001885,-0.001033,0.004362,0.001244,0.001371,-0.005686,-0.512046,-0.000895,-1.096849,-264.742482,-0.971986,62.293765
4.4579,-0.005464,-0.00174,-0.001336,0.004832,0.001378,0.001519,-0.005686,-0.512046,-0.000895,-1.096849,-264.742482,-0.971986,62.293765
4.4779,-0.004778,-0.001714,-0.000482,0.005267,0.001502,0.001655,-0.006146,-0.51174,-0.001336,-1.021847,-264.742482,-0.896984,62.293765
4.4985,-0.00504,-0.001929,-0.00144,0.005663,0.001615,0.00178,-0.006073,-0.511738,-0.00128,-1.021847,-264.742482,-0.896984,62.293765
4.5181,-0.005121,-0.00146,-0.003513,0.006023,0.001717,0.001893,-0.005774,-0.511929,-0.00144,-0.946849,-264.742482,-0.821986,62.293765
4.5382,-0.004917,-0.001831,-0.001188,0.006342,0.001808,0.001993,-0.00642,-0.511661,-0.002616,-0.946849,-264.742482,-0.821986,62.293765
4.5588,-0.004971,-0.001587,-0.00121,0.006627,0.00189,0.002083,-0.00642,-0.511661,-0.002616,-0.946849,-264.742482,-0.821986,62.293765
4.5784,-0.004802,-0.001792,-0.000632,0.006872,0.001959,0.002159,-0.005588,-0.511586,-0.00121,-0.871639,-264.742482,-0.746776,62.293765
4.5985,-0.005417,-0.001917,-7.4e-05,0.007079,0.002019,0.002225,-0.005557,-0.5116,-0.001172,-0.871639,-264.742482,-0.746776,62.293765
4.6185,-0.005072,-0.002035,-0.00269,0.007249,0.002067,0.002278,-0.005455,-0.511917,-7.4e-05,-0.79684,-264.742482,-0.671977,62.293765
4.638,-0.005101,-0.001819,-0.00016,0.007381,0.002105,0.002319,-0.006016,-0.511983,-0.001557,-0.79684,-264.742482,-0.671977,62.293765
4.6582,-0.005443,-0.001912,-0.000926,0.007476,0.002132,0.002349,-0.006016,-0.511983,-0.001557,-0.79684,-264.742482,-0.671977,62.293765
4.6783,-0.005338,-0.002058,-0.00239,0.007532,0.002148,0.002367,-0.005916,-0.511912,-0.000926,-0.721731,-264.742482,-0.596868,62.293765
4.6985,-0.004841,-0.001848,-0.00142,0.007551,0.002153,0.002373,-0.005956,-0.511921,-0.001019,-0.721731,-264.742482,-0.596868,62.293765
4.7184,-0.005454,-0.001681,-0.001842,0.007532,0.002148,0.002367,-0.005565,-0.511847,-0.00142,-0.646841,-264.742482,-0.521978,62.293765
4.7381,-0.00495,-0.001643,-0.000454,0.007476,0.002132,0.002349,-0.006038,-0.511752,-0.001661,-0.646841,-264.742482,-0.521978,62.293765
4.7579,-0.005013,-0.001711,-0.001417,0.007381,0.002105,0.002319,-0.006038,-0.511752,-0.001661,-0.646841,-264.742482,-0.521978,62.293765
4.7785,-0.005164,-0.001671,-0.002145,0.007248,0.002067,0.002278,-0.005735,-0.511711,-0.001417,-0.571731,-264.742482,-0.446868,62.293765
4.7984,-0.005283,-0.001817,-0.000764,0.007079,0.002019,0.002225,-0.005779,-0.511707,-0.001477,-0.571731,-264.742482,-0.446868,62.293765
4.8178,-0.00513,-0.001684,-0.002037,0.006871,0.001959,0.002159,-0.005672,-0.511817,-0.000764,-0.496443,-264.742482,-0.37158,62.293765
4.8379,-0.005352,-0.00108,-0.001454,0.006626,0.001889,0.002082,-0.005955,-0.511741,-0.001489,-0.496443,-264.742482,-0.37158,62.293765
4.858,-0.005414,-0.001759,-0.001544,0.006343,0.001809,0.001993,-0.005955,-0.511741,-0.001489,-0.496443,-264.742482,-0.37158,62.293765
4.8782,-0.005218,-0.00192,-0.001446,0.006021,0.001717,0.001892,-0.006201,-0.511758,-0.001544,-0.421842,-264.742482,-0.296979,62.293765
4.8979,-0.005069,-0.001848,-0.000394,0.005664,0.001615,0.00178,-0.006184,-0.511769,-0.001537,-0.421842,-264.742482,-0.296979,62.293765
4.9187,-0.004904,-0.00145,-0.002353,0.005267,0.001502,0.001655,-0.00527,-0.511848,-0.000394,-0.346706,-264.742482,-0.221843,62.293765
4.9386,-0.00557,-0.001846,-0.001943,0.004833,0.001378,0.001519,-0.005749,-0.511618,-0.001519,-0.346706,-264.742482,-0.221843,62.293765
4.9586,-0.00502,-0.001762,-0.002582,0.004362,0.001244,0.001371,-0.005749,-0.511618,-0.001519,-0.346706,-264.742482,-0.221843,62.293765
4.9784,-0.005346,-0.002021,-0.001822,0.003851,0.001098,0.00121,-0.006337,-0.51176,-0.002582,-0.271671,-264.742482,-0.146808,62.293765
4.9979,-0.004872,-0.002022,-0.002834,0.003304,0.000942,0.001038,-0.006333,-0.511778,-0.002529,-0.271671,-264.742482,-0.146808,62.293765
5.018,-0.005245,-0.001753,-0.003556,0.002717,0.000775,0.000854,-0.006317,-0.51202,-0.002834,-0.196705,-264.742482,-0.071842,62.293765
5.038,-0.005331,-0.001466,-0.001661,0.002094,0.000597,0.000658,-0.006742,-0.511865,-0.003248,-0.196705,-264.742482,-0.071842,62.293765
5.0579,-0.005073,-0.001788,-0.001242,0.001434,0.000409,0.000451,-0.006742,-0.511865,-0.003248,-0.196705,-264.742482,-0.071842,62.293765
5.0778,-0.004983,-0.002116,-0.002949,0.000732,0.000209,0.00023,-0.005706,-0.511787,-0.001242,-0.121707,-264.742481,0.003156,62.293766
5.0978,-0.005183,-0.001605,-0.00194,1e-06,0.0,0.0,-0.005757,-0.511808,-0.001353,-0.121707,-264.742481,0.003156,62.293766
5.1179,-0.005405,-0.001745,-0.001397,0.0,0.0,0.0,-0.006172,-0.511604,-0.00194,-0.046828,-264.742479,0.078035,62.293768
5.138,-0.005292,-0.001773,-0.003053,0.0,0.0,0.0,-0.006141,-0.511685,-0.001629,-0.046828,-264.742479,0.078035,62.293768
5.1587,-0.005323,-0.002269,-0.001611,0.0,0.0,0.0,-0.006141,-0.511685,-0.001629,-0.046828,-264.742479,0.078035,62.293768
5.1778,-0.005386,-0.002108,-0.001217,0.0,0.0,0.0,-0.006144,-0.512268,-0.001611,0.02826,-264.742479,0.092949,62.293768
5.1979,-0.004844,-0.001735,-0.00251,0.0,0.0,0.0,-0.006135,-0.512257,-0.001584,0.02826,-264.742479,0.092949,62.293768
5.2181,-0.004963,-0.001769,-0.001944,0.0,0.0,0.0,-0.006124,-0.511733,-0.00251,0.02826,-264.742479,0.092949,62.293768
5.2379,-0.005006,-0.001679,-0.002594,0.0,0.0,0.0,-0.006026,-0.511753,-0.002185,0.02826,-264.742479,0.092949,62.293768
5.2582,-0.004812,-0.001954,-0.003452,0.0,0.0,0.0,-0.006026,-0.511753,-0.002185,0.02826,-264.742479,0.092949,62.293768
5.2778,-0.005057,-0.001775,-0.002441,0.0,0.0,0.0,-0.006572,-0.511951,-0.003452,0.02826,-264.742479,0.092949,62.293768
5.2984,-0.00509,-0.001992,-0.002142,0.0,0.0,0.0,-0.006551,-0.511937,-0.003372,0.02826,-264.742479,0.092949,62.293768
5.318,-0.005295,-0.001557,-0.001174,0.0,0.0,0.0,-0.006182,-0.511991,-0.002142,0.02826,-264.742479,0.092949,62.293768
5.3379,-0.005328,-0.001784,-0.001913,9.6e-05,2.8e-05,0.0,-0.006017,-0.511743,-0.001588,0.02826,-264.742479,0.092949,62.293768
5.3583,-0.005341,-0.001977,-0.00296,9.6e-05,2.8e-05,0.0,-0.006017,-0.511743,-0.001588,0.02826,-264.742479,0.092949,62.293768
5.3781,-0.005029,-0.001718,-0.002829,9.6e-05,2.8e-05,0.0,-0.00685,-0.511975,-0.00296,0.02826,-264.742479,0.092949,62.293768
5.3984,-0.004837,-0.001493,-0.00263,9.6e-05,2.8e-05,0.0,-0.006821,-0.511955,-0.00295,0.02826,-264.742479,0.092949,62.293768
5.4178,-0.004938,-0.001815,-0.00133,9.6e-05,2.8e-05,0.0,-0.006178,-0.511491,-0.00263,0.103443,-264.742472,0.168132,62.293776
5.4382,-0.005147,-0.001668,-0.000845,9.6e-05,2.8e-05,0.0,-0.005858,-0.511675,-0.00189,0.103443,-264.742472,0.168132,62.293776
5.4582,-0.004984,-0.001397,-0.001759,9.6e-05,2.8e-05,0.0,-0.005858,-0.511675,-0.00189,0.103443,-264.742472,0.168132,62.293776
5.4783,-0.004953,-0.001419,-0.000896,9.6e-05,2.8e-05,0.0,-0.005879,-0.511396,-0.001759,0.178138,-264.742453,0.242827,62.293794
5.4984,-0.005505,-0.001462,-0.002344,9.6e-05,2.8e-05,0.0,-0.005848,-0.511397,-0.001702,0.178138,-264.742453,0.242827,62.293794
5.518,-0.005053,-0.001847,-0.001779,9.6e-05,2.8e-05,0.0,-0.006697,-0.51146,-0.002344,0.253123,-264.742421,0.287205,62.293826
5.5381,-0.005011,-0.001624,-0.000227,9.6e-05,2.8e-05,0.0,-0.006277,-0.51168,-0.002022,0.253123,-264.742421,0.287205,62.293826
5.5583,-0.005104,-0.001802,-0.001156,0.000766,0.000226,0.00017,-0.006277,-0.51168,-0.002022,0.253123,-264.742421,0.287205,62.293826
5.5781,-0.004848,-0.001414,-0.001883,0.001501,0.000443,0.000333,-0.005689,-0.511801,-0.001156,0.287205,-264.742382,0.287205,62.293865
5.5983,-0.004956,-0.001809,-0.002954,0.002193,0.000648,0.000487,-0.005697,-0.511774,-0.001207,0.287205,-264.742382,0.287205,62.293865
5.6183,-0.004841,-0.002081,-0.000308,0.002863,0.000846,0.000635,-0.006444,-0.511802,-0.002951,0.362168,-264.742178,0.212241,62.294055
5.6382,-0.005133,-0.001765,-0.001332,0.003467,0.001024,0.000769,-0.005616,-0.511961,-0.001441,0.362168,-264.742178,0.212241,62.294055
5.6582,-0.004899,-0.00166,-0.001083,0.004044,0.001194,0.000897,-0.005616,-0.511961,-0.001441,0.362168,-264.742178,0.212241,62.294055
5.6783,-0.005527,-0.001638,-0.001318,0.004587,0.001355,0.001017,-0.005353,-0.511631,-0.001061,0.406819,-264.741295,0.158546,62.294876
5.6984,-0.005099,-0.002024,-0.002072,0.005074,0.001499,0.001126,-0.00541,-0.511631,-0.001079,0.406819,-264.741295,0.158546,62.294876
5.7178,-0.004758,-0.001792,-0.000515,0.005531,0.001634,0.001227,-0.005999,-0.511977,-0.002038,0.406819,-264.739534,0.158546,62.296514
5.7384,-0.004596,-0.001381,-0.002262,0.005951,0.001758,0.00132,-0.005422,-0.511866,-0.001166,0.406819,-264.739534,0.158546,62.296514
5.7583,-0.004884,-0.001923,-0.00264,0.006329,0.001869,0.001404,-0.005422,-0.511866,-0.001166,0.406819,-264.739534,0.158546,62.296514
5.7784,-0.004862,-0.001781,-0.001856,0.006664,0.001968,0.001478,-0.005983,-0.511849,-0.002585,0.406819,-264.737324,0.158546,62.29857
5.7984,-0.004705,-0.00164,-0.00205,0.006963,0.002057,0.001545,-0.005966,-0.511843,-0.002536,0.406819,-264.737324,0.158546,62.29857
5.8179,-0.004307,-0.001628,-0.001285,0.007222,0.002133,0.001602,-0.005506,-0.511567,-0.001996,0.406819,-264.734564,0.158546,62.301136
5.838,-0.004062,-0.001605,-0.000666,0.00744,0.002198,0.00165,-0.005165,-0.511593,-0.001584,0.406819,-264.734564,0.158546,62.301136
5.8581,-0.004169,-0.001571,-0.001444,0.007619,0.002251,0.00169,-0.005165,-0.511593,-0.001584,0.406819,-264.734564,0.158546,62.301136
5.8778,-0.004252,-0.001649,-0.002936,0.007759,0.002292,0.001721,-0.004566,-0.511471,-0.001369,0.406819,-264.731535,0.158546,62.303953
5.8978,-0.004044,-0.001556,-0.00033,0.007859,0.002321,0.001743,-0.004634,-0.51148,-0.001468,0.406819,-264.731535,0.158546,62.303953
5.9181,-0.003579,-0.001062,-0.002246,0.007919,0.002339,0.001757,-0.003919,-0.511469,-0.000265,0.406819,-264.728211,0.158546,62.307045
5.9379,-0.003546,-0.001375,-0.000864,0.007939,0.002345,0.001761,-0.004344,-0.511224,-0.001394,0.406819,-264.728211,0.158546,62.307045
5.9579,-0.003754,-0.00137,-1.7e-05,0.00792,0.002339,0.001757,-0.004344,-0.511224,-0.001394,0.406819,-264.728211,0.158546,62.307045
5.9779,-0.003349,-0.001019,0.00011,0.007861,0.002322,0.001744,-0.003381,-0.511258,6.8e-05,0.406819,-264.724788,0.158546,62.310228
5.9985,-0.003522,-0.001176,-0.001057,0.007763,0.002293,0.001722,-0.003364,-0.511237,7.3e-05,0.406819,-264.724788,0.158546,62.310228
6.0178,-0.00298,-0.001006,-0.001504,0.007624,0.002252,0.001691,-0.003756,-0.511086,-0.000989,0.406819,-264.72134,0.158546,62.313435
6.0379,-0.003158,-0.001012,-0.002838,0.007445,0.002199,0.001652,-0.003712,-0.511029,-0.001276,0.406819,-264.72134,0.158546,62.313435
6.0587,-0.00301,-0.000993,-0.00161,0.007229,0.002135,0.001604,-0.003712,-0.511029,-0.001276,0.406819,-264.72134,0.158546,62.313435
6.0779,-0.003039,-0.001041,-0.001383,0.00697,0.002059,0.001546,-0.003454,-0.510881,-0.001526,0.406819,-264.717963,0.158546,62.316576
6.0987,-0.002625,-0.000896,9.3e-05,0.006674,0.001971,0.00148,-0.003463,-0.510889,-0.001515,0.406819,-264.717963,0.158546,62.316576
