mach0312/omni-docking-bench/src/icros_test_setup/results/kinematic_sample/timeseries/trial_126.csv
t,x,y,yaw,vx,vy,wz,bl_x,bl_y,bl_yaw,front_steering_joint,front_wheel_joint,rear_steering_joint,rear_wheel_joint
0.0,-0.069765,-0.023033,0.087102,0.0,0.0,0.0,-0.026313,-0.531333,0.085709,0.194848,-264.956412,-0.538728,61.854915
0.0005,-0.069691,-0.022569,0.085339,0.0,0.0,0.0,-0.025486,-0.531315,0.087065,0.194848,-264.955839,-0.538728,61.85557
0.0009,-0.070066,-0.023261,0.086254,0.0,0.0,0.0,-0.025486,-0.531315,0.087065,0.194848,-264.955839,-0.538728,61.85557
0.0012,-0.069785,-0.02285,0.087039,0.0,0.0,0.0,-0.026089,-0.531252,0.086163,0.194848,-264.955839,-0.538728,61.85557
0.0015,-0.070138,-0.023276,0.085928,0.0,0.0,0.0,-0.026089,-0.531252,0.086163,0.194848,-264.955839,-0.538728,61.85557
0.0017,-0.069568,-0.023251,0.086475,0.0,0.0,0.0,-0.026089,-0.531252,0.086163,0.194848,-264.955839,-0.538728,61.85557
0.002,-0.069697,-0.023161,0.087397,0.0001,-6e-06,0.0,-0.025646,-0.531188,0.085841,0.194848,-264.955839,-0.538728,61.85557
0.0023,-0.069734,-0.022943,0.08499,0.0001,-6e-06,0.0,-0.025696,-0.531192,0.085787,0.194848,-264.955839,-0.538728,61.85557
0.0025,-0.069369,-0.023414,0.08538,0.0001,-6e-06,0.0,-0.025696,-0.531192,0.085787,0.194848,-264.955839,-0.538728,61.85557
0.0028,-0.069627,-0.023124,0.08728,0.0001,-6e-06,0.0,-0.026161,-0.530968,0.086293,0.194848,-264.955839,-0.538728,61.85557
0.018,-0.069687,-0.02341,0.086092,0.0161,0.015994,-0.03,-0.025171,-0.531183,0.08728,0.119867,-264.955839,-0.463747,61.855571
0.0381,-0.070231,-0.023361,0.087811,0.0321,0.017332,-0.05,-0.025552,-0.531377,0.086598,0.119867,-264.955839,-0.463747,61.855571
0.058,-0.070101,-0.023145,0.08622,0.0481,0.017112,-0.05,-0.025552,-0.531377,0.086598,0.119867,-264.955839,-0.463747,61.855571
0.0782,-0.070032,-0.023214,0.086527,0.0641,0.017022,-0.05,-0.026183,-0.53125,0.08622,0.04472,-264.955837,-0.3886,61.855572
0.0986,-0.06971,-0.023001,0.086115,0.071776,0.017075,-0.05,-0.026167,-0.531254,0.086242,0.04472,-264.955837,-0.3886,61.855572
0.1181,-0.069868,-0.023043,0.088827,0.07143,0.01692,-0.05,-0.025846,-0.531111,0.086115,-0.030168,-264.955837,-0.313711,61.855573
0.1384,-0.069794,-0.022891,0.087499,0.071637,0.016755,-0.05,-0.025151,-0.531067,0.08766,-0.030168,-264.955837,-0.313711,61.855573
0.1583,-0.070122,-0.022921,0.087467,0.071527,0.016705,-0.05,-0.025151,-0.531067,0.08766,-0.030168,-264.955837,-0.313711,61.855573
0.1783,-0.069545,-0.023154,0.087713,0.071857,0.016708,-0.05,-0.025571,-0.530972,0.087467,-0.105157,-264.955835,-0.238723,61.855575
0.1986,-0.069313,-0.022985,0.085586,0.071306,0.016973,-0.05,-0.025516,-0.530989,0.087486,-0.105157,-264.955835,-0.238723,61.855575
0.2188,-0.069677,-0.023171,0.085887,0.071024,0.016976,-0.05,-0.025717,-0.531118,0.085586,-0.180586,-264.955832,-0.163294,61.855578
0.2386,-0.069774,-0.022933,0.084897,0.071408,0.017109,-0.05,-0.025836,-0.531216,0.085755,-0.180586,-264.955832,-0.163294,61.855578
0.2586,-0.070097,-0.023223,0.086162,0.071468,0.016934,-0.05,-0.025836,-0.531216,0.085755,-0.180586,-264.955832,-0.163294,61.855578
0.2783,-0.06993,-0.023245,0.084498,0.071836,0.017104,-0.05,-0.026209,-0.531331,0.086162,-0.18798,-264.955828,-0.088662,61.855583
0.2986,-0.069998,-0.023206,0.087404,0.071642,0.01726,-0.05,-0.026261,-0.531338,0.086033,-0.18798,-264.955828,-0.088662,61.855583
0.3182,-0.070065,-0.023109,0.086305,0.071756,0.017007,-0.05,-0.025477,-0.531259,0.087404,-0.18809,-264.955814,-0.013357,61.855599
0.3383,-0.069574,-0.023491,0.08595,0.071796,0.016983,-0.05,-0.025831,-0.531232,0.086783,-0.18809,-264.955814,-0.013357,61.855599
0.3586,-0.069986,-0.023242,0.086154,0.071334,0.017432,-0.05,-0.025831,-0.531232,0.086783,-0.18809,-264.955814,-0.013357,61.855599
0.3781,-0.069638,-0.023144,0.085907,0.071726,0.017134,-0.05,-0.026094,-0.531351,0.086152,-0.183251,-264.955751,0.061394,61.855673
0.398,-0.069644,-0.022914,0.08669,0.071367,0.017084,-0.05,-0.026079,-0.531344,0.086135,-0.183251,-264.955751,0.061394,61.855673
0.4181,-0.069467,-0.023445,0.0862,0.071366,0.016798,-0.05,-0.02546,-0.530997,0.086683,-0.181693,-264.955494,0.136259,61.855978
0.4381,-0.069823,-0.023459,0.085702,0.071227,0.017378,-0.05,-0.025513,-0.531312,0.086407,-0.181693,-264.955494,0.136259,61.855978
0.4582,-0.069842,-0.023039,0.087388,0.071575,0.017396,-0.05,-0.025513,-0.531312,0.086407,-0.181693,-264.955494,0.136259,61.855978
0.478,-0.069567,-0.023055,0.085244,0.071586,0.016856,-0.05,-0.025204,-0.531078,0.087346,-0.186326,-264.954513,0.211254,61.857137
0.4981,-0.069323,-0.022958,0.086439,0.071277,0.017049,-0.05,-0.025267,-0.531087,0.087196,-0.186326,-264.954513,0.211254,61.857137
0.518,-0.069349,-0.02289,0.085848,0.071047,0.016888,-0.05,-0.025014,-0.531009,0.086327,-0.181582,-264.951744,0.286263,61.860415
0.538,-0.069014,-0.022805,0.086764,0.071056,0.016859,-0.05,-0.025326,-0.531005,0.086038,-0.181582,-264.951744,0.286263,61.860415
0.5579,-0.069082,-0.022983,0.086791,0.07073,0.016739,-0.05,-0.025326,-0.531005,0.086038,-0.181582,-264.951744,0.286263,61.860415
0.5781,-0.068109,-0.022748,0.08685,0.070814,0.016908,-0.05,-0.02424,-0.530944,0.086491,-0.187033,-264.946484,0.361385,61.866182
0.598,-0.068377,-0.023101,0.086549,0.069826,0.016754,-0.05,-0.024197,-0.530932,0.086508,-0.187033,-264.946484,0.361385,61.866182
0.6184,-0.067245,-0.022891,0.085788,0.070118,0.017104,-0.05,-0.023573,-0.531032,0.086155,-0.192664,-264.938676,0.436257,61.874501
0.6381,-0.067416,-0.022463,0.085391,0.068959,0.017046,-0.05,-0.023467,-0.531003,0.085892,-0.192664,-264.938676,0.436257,61.874501
0.658,-0.067273,-0.022804,0.0857,0.069086,0.016632,-0.05,-0.023467,-0.531003,0.085892,-0.192664,-264.938676,0.436257,61.874501
0.6785,-0.065686,-0.022585,0.083991,0.068978,0.016962,-0.05,-0.022464,-0.530634,0.084981,-0.194887,-264.928441,0.511689,61.885242
0.6985,-0.065766,-0.022603,0.083042,0.067349,0.016995,-0.05,-0.022463,-0.530636,0.084888,-0.194887,-264.928441,0.511689,61.885242
0.7181,-0.063689,-0.021763,0.083718,0.067414,0.017071,-0.05,-0.022351,-0.530521,0.082264,-0.198625,-264.91567,0.586364,61.898521
0.7384,-0.0637,-0.022103,0.084192,0.065286,0.016361,-0.05,-0.021459,-0.530167,0.083,-0.198625,-264.91567,0.586364,61.898521
0.7583,-0.063632,-0.021721,0.083992,0.065333,0.016668,-0.05,-0.021459,-0.530167,0.083,-0.198625,-264.91567,0.586364,61.898521
0.7784,-0.061155,-0.021202,0.081221,0.06523,0.016306,-0.05,-0.019193,-0.529414,0.082789,-0.19844,-264.900374,0.61458,61.914326
0.798,-0.061611,-0.021443,0.08177,0.062673,0.016171,-0.05,-0.019189,-0.529408,0.082632,-0.19844,-264.900374,0.61458,61.914326
0.818,-0.058231,-0.02033,0.08032,0.063157,0.016339,-0.05,-0.018439,-0.529277,0.080637,-0.209189,-264.882636,0.625683,61.932571
0.8382,-0.058087,-0.020466,0.08047,0.059674,0.015593,-0.05,-0.017602,-0.52888,0.080311,-0.209189,-264.882636,0.625683,61.932571
0.8582,-0.058485,-0.02058,0.082145,0.059544,0.01573,-0.05,-0.017602,-0.52888,0.080311,-0.209189,-264.882636,0.625683,61.932571
0.8784,-0.055623,-0.019996,0.080529,0.059976,0.015712,-0.05,-0.014472,-0.528203,0.08046,-0.225335,-264.862395,0.640466,61.953319
0.8984,-0.05574,-0.020044,0.080815,0.057051,0.015457,-0.05,-0.014424,-0.528195,0.08042,-0.225335,-264.862395,0.640466,61.953319
0.918,-0.051928,-0.019233,0.078602,0.057176,0.015479,-0.05,-0.012656,-0.527801,0.079253,-0.243734,-264.839631,0.660576,61.976591
0.9386,-0.052332,-0.019114,0.077366,0.053278,0.015096,-0.05,-0.011973,-0.527646,0.078685,-0.243734,-264.839631,0.660576,61.976591
0.9582,-0.051989,-0.01909,0.076923,0.053653,0.015012,-0.05,-0.011973,-0.527646,0.078685,-0.243734,-264.839631,0.660576,61.976591
0.9785,-0.04813,-0.017694,0.074775,0.053303,0.015038,-0.05,-0.010258,-0.526768,0.074719,-0.258427,-264.816229,0.678503,62.002363
0.9985,-0.048274,-0.018106,0.074276,0.049318,0.014049,-0.05,-0.010174,-0.526711,0.074664,-0.258427,-264.816229,0.678503,62.002363
1.018,-0.044208,-0.017193,0.073004,0.049484,0.014474,-0.05,-0.008442,-0.525985,0.072381,-0.281672,-264.794304,0.7039,62.02999
1.038,-0.044194,-0.016837,0.07183,0.045344,0.013923,-0.05,-0.007374,-0.525808,0.072494,-0.281672,-264.794304,0.7039,62.02999
1.058,-0.044739,-0.017065,0.071823,0.045288,0.013622,-0.05,-0.007374,-0.525808,0.072494,-0.281672,-264.794304,0.7039,62.02999
1.078,-0.041008,-0.016384,0.069235,0.045848,0.01381,-0.05,-0.005893,-0.524934,0.069491,-0.322653,-264.774371,0.735056,62.055475
1.0986,-0.040778,-0.016085,0.071542,0.042044,0.013508,-0.05,-0.005825,-0.524929,0.069415,-0.322653,-264.774371,0.735056,62.055475
1.1181,-0.037545,-0.01515,0.06811,0.041824,0.013129,-0.05,-0.002685,-0.524159,0.069691,-0.357459,-264.755801,0.772781,62.079774
1.1381,-0.037742,-0.015404,0.066311,0.038489,0.012559,-0.05,-0.002565,-0.52397,0.06855,-0.357459,-264.755801,0.772781,62.079774
1.1584,-0.037399,-0.015405,0.067769,0.03868,0.012869,-0.05,-0.002565,-0.52397,0.06855,-0.357459,-264.755801,0.772781,62.079774
1.1784,-0.034215,-0.0146,0.066051,0.038356,0.012837,-0.05,-0.000936,-0.52347,0.065421,-0.384848,-264.738268,0.808647,62.103308
1.1985,-0.033879,-0.014224,0.06415,0.035104,0.01231,-0.05,-0.000857,-0.523451,0.065402,-0.384848,-264.738268,0.808647,62.103308
1.2185,-0.031397,-0.013779,0.062191,0.034721,0.012023,-0.05,0.000204,-0.522613,0.062312,-0.42848,-264.722077,0.842916,62.125445
1.2387,-0.031115,-0.013654,0.062026,0.032193,0.011801,-0.05,0.000435,-0.522644,0.062009,-0.42848,-264.722077,0.842916,62.125445
1.2582,-0.031311,-0.013681,0.062023,0.031901,0.011699,-0.05,0.000435,-0.522644,0.062009,-0.42848,-264.722077,0.842916,62.125445
1.2785,-0.028457,-0.013254,0.059424,0.032098,0.011714,-0.05,0.001857,-0.522045,0.059753,-0.478922,-264.707297,0.884418,62.146143
1.2984,-0.028751,-0.013058,0.060022,0.029193,0.011541,-0.05,0.001898,-0.52205,0.059667,-0.478922,-264.707297,0.884418,62.146143
1.3185,-0.025892,-0.011999,0.058396,0.029483,0.011309,-0.05,0.00296,-0.521653,0.058228,-0.53343,-264.693517,0.923908,62.16583
1.3381,-0.025947,-0.012253,0.056963,0.026548,0.010467,-0.05,0.003622,-0.521293,0.058096,-0.53343,-264.693517,0.923908,62.16583
1.358,-0.025455,-0.012425,0.059093,0.026602,0.010756,-0.05,0.003622,-0.521293,0.058096,-0.53343,-264.693517,0.923908,62.16583
1.3785,-0.023247,-0.011655,0.05688,0.026144,0.0109,-0.05,0.005974,-0.520928,0.056796,-0.576876,-264.680301,0.964252,62.185263
1.3986,-0.023585,-0.011271,0.055983,0.023872,0.010314,-0.05,0.005995,-0.520902,0.056734,-0.576876,-264.680301,0.964252,62.185263
1.4183,-0.020815,-0.011143,0.053932,0.024179,0.009934,-0.05,0.005874,-0.520039,0.054208,-0.63939,-264.668102,0.998497,62.203339
1.438,-0.021369,-0.010965,0.054009,0.021385,0.010004,-0.05,0.00645,-0.520191,0.053825,-0.63939,-264.668102,0.998497,62.203339
1.4581,-0.020994,-0.010866,0.054773,0.021929,0.009795,-0.05,0.00645,-0.520191,0.053825,-0.63939,-264.668102,0.998497,62.203339
1.4781,-0.018584,-0.010677,0.051356,0.021557,0.0097,-0.05,0.007957,-0.519589,0.052561,-0.702827,-264.656721,1.041952,62.22055
1.4986,-0.018864,-0.010041,0.050901,0.019108,0.009709,-0.05,0.007959,-0.519603,0.052422,-0.702827,-264.656721,1.041952,62.22055
1.5181,-0.016394,-0.009605,0.049167,0.019351,0.009068,-0.05,0.007866,-0.518983,0.049075,-0.757584,-264.6454,1.072794,62.237768
1.5381,-0.016601,-0.009641,0.049261,0.016846,0.008788,-0.049167,0.008416,-0.518937,0.0489,-0.757584,-264.6454,1.072794,62.237768
1.5581,-0.016942,-0.009815,0.048316,0.017056,0.008811,-0.049261,0.008416,-0.518937,0.0489,-0.757584,-264.6454,1.072794,62.237768
1.5781,-0.01482,-0.00888,0.046551,0.017396,0.008985,-0.048316,0.008486,-0.518767,0.046179,-0.828454,-264.635457,1.127531,62.25344
1.5984,-0.014381,-0.009298,0.046237,0.015217,0.00818,-0.046551,0.008537,-0.518724,0.046148,-0.828454,-264.635457,1.127531,62.25344
1.6182,-0.012647,-0.008699,0.043941,0.014795,0.008624,-0.046237,0.009781,-0.518414,0.04449,-0.895028,-264.625428,1.157562,62.269062
1.6381,-0.012671,-0.008869,0.045317,0.013016,0.008135,-0.043941,0.009842,-0.518252,0.043954,-0.895028,-264.625428,1.157562,62.269062
1.6584,-0.013026,-0.009173,0.044954,0.01306,0.008286,-0.045317,0.009842,-0.518252,0.043954,-0.895028,-264.625428,1.157562,62.269062
1.6784,-0.010584,-0.008318,0.043685,0.013425,0.008578,-0.044954,0.010598,-0.518238,0.042741,-0.926372,-264.615536,1.176878,62.284544
1.6985,-0.010708,-0.008407,0.042043,0.010937,0.007848,-0.043685,0.010687,-0.5182,0.042747,-0.926372,-264.615536,1.176878,62.284544
1.718,-0.008986,-0.007464,0.040719,0.011052,0.00795,-0.042043,0.011183,-0.51764,0.040419,-0.978079,-264.606842,1.222459,62.298773
1.7383,-0.008681,-0.007778,0.038334,0.009282,0.007092,-0.040719,0.011581,-0.517256,0.040386,-0.978079,-264.606842,1.222459,62.298773
1.7582,-0.009,-0.007468,0.04023,0.008973,0.00744,-0.038334,0.011581,-0.517256,0.040386,-0.978079,-264.606842,1.222459,62.298773
1.779,-0.007959,-0.007437,0.038535,0.009293,0.0071,-0.04023,0.011979,-0.516693,0.038312,-1.044669,-264.598969,1.264045,62.311867
1.7984,-0.007641,-0.007217,0.037141,0.008239,0.007125,-0.038535,0.011971,-0.516708,0.038276,-1.044669,-264.598969,1.264045,62.311867
1.8181,-0.00588,-0.006691,0.036504,0.007903,0.006928,-0.037141,0.011629,-0.516569,0.035678,-1.058957,-264.59172,1.287769,62.324579
1.838,-0.006488,-0.006767,0.03735,0.007903,0.006928,-0.037141,0.0123,-0.516407,0.035962,-1.058957,-264.59172,1.287769,62.324579
1.8579,-0.006159,-0.007286,0.036605,7.2e-05,7e-05,0.0,0.0123,-0.516407,0.035962,-1.058957,-264.59172,1.287769,62.324579
1.8781,-0.004835,-0.0067,0.033901,7.2e-05,7e-05,0.0,0.012877,-0.516599,0.03481,-1.105507,-264.584679,1.308272,62.336753
1.8987,-0.004964,-0.006624,0.035589,7.2e-05,7e-05,0.0,0.012857,-0.516576,0.034698,-1.105507,-264.584679,1.308272,62.336753
1.9181,-0.004757,-0.0066,0.034663,7.2e-05,7e-05,0.0,0.013214,-0.516199,0.035425,-1.030583,-264.584679,1.233349,62.338947
1.938,-0.004721,-0.006349,0.035144,7.2e-05,7e-05,0.0,0.01305,-0.51624,0.034973,-1.030583,-264.584679,1.233349,62.338947
1.9582,-0.004827,-0.006682,0.035042,7.2e-05,7e-05,0.0,0.01305,-0.51624,0.034973,-1.030583,-264.584679,1.233349,62.338947
1.9781,-0.004644,-0.006337,0.032493,7.2e-05,7e-05,0.0,0.013041,-0.516369,0.035042,-0.95557,-264.584679,1.158336,62.338947
1.9983,-0.004746,-0.006611,0.036261,7.2e-05,7e-05,0.0,0.012965,-0.516348,0.034869,-0.95557,-264.584679,1.158336,62.338947
2.0179,-0.004844,-0.006545,0.033921,7.2e-05,7e-05,0.0,0.013743,-0.516276,0.036261,-0.880608,-264.584679,1.083373,62.338947
2.0383,-0.004724,-0.006221,0.033786,7.2e-05,7e-05,0.0,0.013008,-0.516262,0.034928,-0.880608,-264.584679,1.083373,62.338947
2.0583,-0.004704,-0.006692,0.032814,4e-06,4e-06,-2.1e-05,0.013008,-0.516262,0.034928,-0.880608,-264.584679,1.083373,62.338947
2.0783,-0.004647,-0.00656,0.035164,0.000987,0.000955,-0.00547,0.012028,-0.516418,0.032814,-0.805618,-264.584679,1.008383,62.338947
2.0984,-0.005097,-0.006253,0.034213,0.001921,0.001859,-0.010652,0.012111,-0.516406,0.032969,-0.805618,-264.584679,1.008383,62.338947
2.118,-0.004581,-0.005996,0.032658,0.002808,0.002718,-0.015571,0.012348,-0.515955,0.034213,-0.880624,-264.584679,1.083389,62.338947
2.138,-0.004619,-0.006626,0.034282,0.00364,0.003523,-0.020182,0.01219,-0.515823,0.033321,-0.880624,-264.584679,1.083389,62.338947
2.1581,-0.004685,-0.006471,0.035077,0.004422,0.004279,-0.024515,0.01219,-0.515823,0.033321,-0.880624,-264.584679,1.083389,62.338947
2.1781,-0.004847,-0.006346,0.034979,0.005157,0.004991,-0.028592,0.013212,-0.51615,0.03504,-0.955777,-264.584522,1.158543,62.339214
2.1985,-0.004579,-0.006706,0.034302,0.005839,0.005651,-0.032374,0.013196,-0.516141,0.035034,-0.955777,-264.584522,1.158543,62.339214
2.2185,-0.004191,-0.00621,0.035968,0.00647,0.006261,-0.035871,0.012972,-0.516361,0.034071,-1.030708,-264.583338,1.233474,62.341235
2.2382,-0.004195,-0.006031,0.034439,0.00705,0.006823,-0.039087,0.013642,-0.516084,0.03511,-1.030708,-264.583338,1.233474,62.341235
2.2581,-0.004597,-0.006435,0.033303,0.00758,0.007336,-0.042028,0.013642,-0.516084,0.03511,-1.030708,-264.583338,1.233474,62.341235
2.2784,-0.00412,-0.006125,0.033685,0.008059,0.0078,-0.044685,0.012549,-0.516073,0.032554,-1.105632,-264.579813,1.308398,62.345762
2.2983,-0.003494,-0.006363,0.031822,0.008489,0.008216,-0.047066,0.012589,-0.516054,0.032613,-1.105632,-264.579813,1.308398,62.345762
2.3179,-0.002964,-0.005791,0.031387,0.008867,0.008582,-0.049165,0.012917,-0.516037,0.030842,-1.17872,-264.573797,1.345044,62.352776
2.3386,-0.002831,-0.005604,0.03185,0.009196,0.0089,-0.050987,0.013011,-0.515746,0.031028,-1.17872,-264.573797,1.345044,62.352776
2.3581,-0.003089,-0.005983,0.032646,0.009473,0.009169,-0.052525,0.013011,-0.515746,0.031028,-1.17872,-264.573797,1.345044,62.352776
2.3781,-0.001661,-0.005981,0.03117,0.009701,0.009389,-0.053786,0.013883,-0.515615,0.030938,-1.17872,-264.565248,1.345044,62.362329
2.3984,-0.001358,-0.006095,0.030309,0.009877,0.00956,-0.054766,0.013919,-0.515622,0.030907,-1.17872,-264.565248,1.345044,62.362329
2.4179,-0.000286,-0.005976,0.028498,0.010004,0.009682,-0.055466,0.014405,-0.515729,0.028666,-1.17872,-264.555348,1.345044,62.374338
2.4381,-0.000657,-0.006007,0.027762,0.010079,0.009755,-0.055886,0.014353,-0.515735,0.028361,-1.17872,-264.555348,1.345044,62.374338
2.4581,-0.000295,-0.005948,0.026478,0.010105,0.00978,-0.056026,0.014353,-0.515735,0.028361,-1.17872,-264.555348,1.345044,62.374338
2.478,0.001319,-0.005399,0.024203,0.010079,0.009755,-0.055885,0.013637,-0.51548,0.024124,-1.17872,-264.545025,1.345044,62.388838
2.498,0.001288,-0.005629,0.025001,0.010004,0.009682,-0.055465,0.01365,-0.515456,0.024066,-1.17872,-264.545025,1.345044,62.388838
2.5181,0.003254,-0.004902,0.021904,0.009877,0.009559,-0.054764,0.014408,-0.515132,0.022917,-1.17872,-264.534447,1.345044,62.405859
2.5384,0.002995,-0.004928,0.023967,0.0097,0.009388,-0.053781,0.014464,-0.514888,0.022076,-1.17872,-264.534447,1.345044,62.405859
2.5583,0.003406,-0.005195,0.023346,0.009473,0.009168,-0.052523,0.014464,-0.514888,0.022076,-1.17872,-264.534447,1.345044,62.405859
2.5785,0.004965,-0.004403,0.019457,0.009195,0.008899,-0.050982,0.015789,-0.514572,0.020636,-1.17872,-264.523976,1.345044,62.423734
2.598,0.005318,-0.00496,0.019678,0.008866,0.00858,-0.049156,0.015747,-0.514546,0.020508,-1.17872,-264.523976,1.345044,62.423734
2.618,0.007019,-0.004233,0.0179,0.008487,0.008214,-0.047056,0.015713,-0.5145,0.017649,-1.17872,-264.514059,1.345044,62.440663
2.6383,0.007191,-0.003767,0.016936,0.008058,0.007799,-0.044678,0.016005,-0.514256,0.017533,-1.17872,-264.514059,1.345044,62.440663
2.6587,0.006843,-0.003994,0.01813,0.007577,0.007334,-0.042013,0.016005,-0.514256,0.017533,-1.17872,-264.514059,1.345044,62.440663
2.6783,0.00876,-0.003586,0.015252,0.007044,0.006817,-0.039056,0.016513,-0.513485,0.015739,-1.17872,-264.504778,1.345044,62.456506
2.6983,0.008575,-0.003803,0.014639,0.006466,0.006258,-0.035851,0.016525,-0.513477,0.015643,-1.17872,-264.504778,1.345044,62.456506
2.7183,0.010021,-0.002926,0.013502,0.005834,0.005646,-0.032345,0.016329,-0.513462,0.013016,-1.17872,-264.496829,1.345044,62.470075
2.738,0.01013,-0.003165,0.013353,0.005149,0.004983,-0.028547,0.016698,-0.513091,0.01309,-1.17872,-264.496829,1.345044,62.470075
2.7581,0.00992,-0.002978,0.012778,0.00442,0.004278,-0.024506,0.016698,-0.513091,0.01309,-1.17872,-264.496829,1.345044,62.470075
2.7779,0.011667,-0.003034,0.011518,0.003618,0.003501,-0.020059,0.016746,-0.512629,0.011038,-1.17872,-264.490035,1.345044,62.481672
2.7984,0.011565,-0.002478,0.011856,0.002804,0.002714,-0.015546,0.016821,-0.51265,0.011023,-1.17872,-264.490035,1.345044,62.481672
2.818,0.012241,-0.002504,0.009939,0.001918,0.001856,-0.010632,0.017779,-0.512276,0.010916,-1.17872,-264.485435,1.345044,62.489525
2.8384,0.012359,-0.002672,0.009503,0.000984,0.000953,-0.005457,0.017533,-0.51237,0.01024,-1.17872,-264.485435,1.345044,62.489525
2.8583,0.012202,-0.002981,0.008699,0.0,0.0,0.0,0.017533,-0.51237,0.01024,-1.17872,-264.485435,1.345044,62.489525
2.8786,0.012457,-0.002596,0.008951,0.0,0.0,0.0,0.016774,-0.512828,0.007941,-1.17872,-264.482495,1.345044,62.494544
2.898,0.012764,-0.002088,0.009435,0.0,0.0,0.0,0.016795,-0.512807,0.007992,-1.17872,-264.482495,1.345044,62.494544
2.918,0.012595,-0.002162,0.00997,0.0,0.0,0.0,0.017576,-0.512065,0.009435,-1.17872,-264.482495,1.345044,62.494544
2.9379,0.012414,-0.002412,0.00865,0.0,0.0,0.0,0.017635,-0.512106,0.009741,-1.17872,-264.482495,1.345044,62.494544
2.9579,0.012635,-0.002913,0.008654,0.0,0.0,0.0,0.017635,-0.512106,0.009741,-1.17872,-264.482495,1.345044,62.494544
2.9784,0.012478,-0.002573,0.009045,0.0,0.0,0.0,0.017049,-0.512894,0.008654,-1.17872,-264.482495,1.345044,62.494544
2.9983,0.012597,-0.002381,0.008467,0.0,0.0,0.0,0.017052,-0.512871,0.008681,-1.17872,-264.482495,1.345044,62.494544
3.0182,0.013042,-0.002692,0.009837,0.0,0.0,0.0,0.016915,-0.512363,0.008467,-1.17872,-264.482495,1.345044,62.494544
3.0382,0.012578,-0.002165,0.009918,0.0,0.0,0.0,0.017567,-0.512536,0.009247,-1.17872,-264.482495,1.345044,62.494544
3.0581,0.012727,-0.002323,0.009868,0.0,0.0,0.0,0.017567,-0.512536,0.009247,-1.17872,-264.482495,1.345044,62.494544
3.078,0.012089,-0.002153,0.008562,-9.8e-05,1.9e-05,0.0,0.017759,-0.512298,0.009868,-1.17872,-264.482495,1.345044,62.494544
3.0985,0.012721,-0.002878,0.009355,-9.8e-05,1.9e-05,0.0,0.017664,-0.512286,0.009772,-1.17872,-264.482495,1.345044,62.494544
3.1185,0.012586,-0.002278,0.008912,-9.8e-05,1.9e-05,0.0,0.017492,-0.512856,0.009355,-1.17872,-264.482495,1.345044,62.494544
3.1383,0.012518,-0.002443,0.008999,-9.8e-05,1.9e-05,0.0,0.017286,-0.512515,0.009102,-1.17872,-264.482495,1.345044,62.494544
3.1582,0.012655,-0.002487,0.008436,-9.8e-05,1.9e-05,0.0,0.017286,-0.512515,0.009102,-1.17872,-264.482495,1.345044,62.494544
3.1784,0.012636,-0.002643,0.009594,-9.8e-05,1.9e-05,0.0,0.016957,-0.512469,0.008436,-1.103697,-264.482495,1.270021,62.494544
3.1987,0.012551,-0.002271,0.008297,-9.8e-05,1.9e-05,0.0,0.016998,-0.512479,0.008518,-1.103697,-264.482495,1.270021,62.494544
3.2185,0.012774,-0.002467,0.008205,-9.8e-05,1.9e-05,0.0,0.016783,-0.512253,0.008297,-1.028676,-264.482495,1.195,62.494544
3.2381,0.012634,-0.002469,0.008007,-9.8e-05,1.9e-05,0.0,0.016882,-0.512364,0.008245,-1.028676,-264.482495,1.195,62.494544
3.2581,0.012959,-0.002752,0.009464,-9.8e-05,1.9e-05,0.0,0.016882,-0.512364,0.008245,-1.028676,-264.482495,1.195,62.494544
3.2781,0.012895,-0.002198,0.008818,-1e-06,0.0,-1e-06,0.017786,-0.512729,0.009464,-0.953821,-264.482495,1.120145,62.494544
3.2985,0.012326,-0.00263,0.009922,-0.001858,0.000358,-0.001443,0.01776,-0.512693,0.009421,-0.953821,-264.482495,1.120145,62.494544
3.3182,0.012692,-0.002313,0.009453,-0.003622,0.000698,-0.002814,0.017386,-0.512604,0.009922,-0.878822,-264.482495,1.045146,62.494544
3.3382,0.012741,-0.002582,0.010557,-0.005291,0.00102,-0.00411,0.017458,-0.512426,0.009656,-0.878822,-264.482495,1.045146,62.494544
3.3584,0.012976,-0.002667,0.009342,-0.006862,0.001323,-0.00533,0.017458,-0.512426,0.009656,-0.878822,-264.482495,1.045146,62.494544
3.3779,0.012694,-0.002819,0.008067,-0.008337,0.001607,-0.006476,0.01774,-0.512645,0.009342,-0.803822,-264.482495,0.970146,62.494544
3.398,0.012692,-0.002456,0.008819,-0.009718,0.001873,-0.007549,0.017666,-0.512657,0.00924,-0.803822,-264.482495,0.970146,62.494544
3.4187,0.012827,-0.002406,0.008744,-0.011005,0.002121,-0.008549,0.017189,-0.512436,0.008819,-0.728528,-264.482495,0.894852,62.494544
3.4384,0.012968,-0.002589,0.010202,-0.012196,0.002351,-0.009474,0.017245,-0.512408,0.008776,-0.728528,-264.482495,0.894852,62.494544
3.4583,0.012897,-0.002476,0.009926,-0.013291,0.002562,-0.010324,0.017245,-0.512408,0.008776,-0.728528,-264.482495,0.894852,62.494544
3.4784,0.012262,-0.002115,0.008832,-0.014295,0.002755,-0.011104,0.017959,-0.512451,0.009926,-0.653699,-264.482495,0.820023,62.494544
3.4984,0.012863,-0.002764,0.008235,-0.015197,0.002929,-0.011805,0.01787,-0.512424,0.009844,-0.653699,-264.482495,0.820023,62.494544
3.5186,0.012718,-0.002516,0.010083,-0.016007,0.003085,-0.012434,0.017063,-0.512747,0.008235,-0.578563,-264.482495,0.744887,62.494544
3.5388,0.012812,-0.002568,0.00854,-0.016721,0.003223,-0.012989,0.017516,-0.512601,0.009285,-0.578563,-264.482495,0.744887,62.494544
3.5581,0.012418,-0.002247,0.008793,-0.01734,0.003342,-0.01347,0.017516,-0.512601,0.009285,-0.578563,-264.482495,0.744887,62.494544
3.5787,0.012459,-0.002755,0.008741,-0.017864,0.003443,-0.013876,0.016902,-0.512228,0.008793,-0.503768,-264.482495,0.670092,62.494544
3.5988,0.012514,-0.002519,0.0088,-0.018295,0.003526,-0.014212,0.016903,-0.51226,0.00879,-0.503768,-264.482495,0.670092,62.494544
3.6182,0.012724,-0.00259,0.008629,-0.018628,0.00359,-0.01447,0.017002,-0.5125,0.0088,-0.428824,-264.482495,0.595148,62.494544
3.6385,0.012761,-0.002078,0.009823,-0.018865,0.003636,-0.014654,0.017072,-0.512541,0.008701,-0.428824,-264.482495,0.595148,62.494544
3.6583,0.012597,-0.002393,0.006728,-0.019007,0.003664,-0.014765,0.017072,-0.512541,0.008701,-0.428824,-264.482495,0.595148,62.494544
3.6783,0.012731,-0.002465,0.008836,-0.019055,0.003673,-0.014801,0.016028,-0.512381,0.006728,-0.353504,-264.482495,0.519829,62.494544
3.6986,0.012511,-0.002678,0.010175,-0.019007,0.003663,-0.014764,0.016108,-0.512386,0.006867,-0.353504,-264.482495,0.519829,62.494544
3.7187,0.012652,-0.002532,0.007899,-0.018863,0.003636,-0.014653,0.0177,-0.512651,0.010175,-0.278804,-264.482495,0.445128,62.494544
3.7383,0.012838,-0.001999,0.007907,-0.018625,0.00359,-0.014467,0.017123,-0.512575,0.008886,-0.278804,-264.482495,0.445128,62.494544
3.7584,0.01289,-0.002466,0.008914,-0.01829,0.003525,-0.014208,0.017123,-0.512575,0.008886,-0.278804,-264.482495,0.445128,62.494544
3.7781,0.012343,-0.002671,0.007926,-0.017862,0.003443,-0.013875,0.017436,-0.512446,0.008914,-0.2038,-264.482495,0.370124,62.494544
3.7982,0.012801,-0.002624,0.009007,-0.017337,0.003342,-0.013468,0.017374,-0.512458,0.008855,-0.2038,-264.482495,0.370124,62.494544
3.8188,0.012552,-0.002369,0.009299,-0.016718,0.003222,-0.012987,0.017395,-0.512603,0.009007,-0.128794,-264.482495,0.295118,62.494544
3.8385,0.012436,-0.002562,0.00942,-0.016004,0.003085,-0.012432,0.017338,-0.512458,0.009172,-0.128794,-264.482495,0.295118,62.494544
3.8586,0.012739,-0.002232,0.008839,-0.015196,0.002929,-0.011804,0.017338,-0.512458,0.009172,-0.128794,-264.482495,0.295118,62.494544
3.8784,0.012948,-0.002366,0.009598,-0.014284,0.002753,-0.011096,0.017247,-0.512213,0.008839,-0.053808,-264.482495,0.220133,62.494544
3.8983,0.012409,-0.002243,0.008759,-0.013289,0.002561,-0.010322,0.017295,-0.512223,0.008901,-0.053808,-264.482495,0.220133,62.494544
3.9186,0.012876,-0.002255,0.009208,-0.012193,0.00235,-0.009472,0.016876,-0.512224,0.008759,0.021648,-264.482495,0.144677,62.494544
3.9386,0.012581,-0.002575,0.008911,-0.010985,0.002117,-0.008533,0.017274,-0.512229,0.009016,0.021648,-264.482495,0.144677,62.494544
3.9583,0.012461,-0.00233,0.008993,-0.009715,0.001872,-0.007546,0.017274,-0.512229,0.009016,0.021648,-264.482495,0.144677,62.494544
3.978,0.012644,-0.002315,0.009176,-0.008335,0.001607,-0.006474,0.017047,-0.512309,0.008993,0.096301,-264.482496,0.070023,62.494543
3.998,0.012829,-0.002472,0.00936,-0.00686,0.001322,-0.005329,0.017066,-0.512308,0.009005,0.096301,-264.482496,0.070023,62.494543
4.0183,0.013038,-0.002235,0.01046,-0.005285,0.001019,-0.004106,0.017603,-0.51245,0.00936,0.171188,-264.482497,-0.004864,62.494542
4.0389,0.012638,-0.002262,0.008901,-0.003607,0.000695,-0.002802,0.018045,-0.51231,0.009991,0.171188,-264.482497,-0.004864,62.494542
4.0587,0.012422,-0.002323,0.008699,-0.001853,0.000357,-0.001439,0.018045,-0.51231,0.009991,0.171188,-264.482497,-0.004864,62.494542
4.078,0.01222,-0.002602,0.008253,-1e-06,0.0,-0.0,0.016858,-0.512304,0.008699,0.246345,-264.482505,-0.080021,62.494533
4.0983,0.012762,-0.002488,0.009012,0.0,0.0,0.0,0.016827,-0.512324,0.008667,0.246345,-264.482505,-0.080021,62.494533
4.118,0.012678,-0.0027,0.009737,0.0,0.0,0.0,0.017357,-0.512468,0.009012,0.274564,-264.482515,-0.154999,62.494521
4.1381,0.01266,-0.002159,0.008168,0.0,0.0,0.0,0.017522,-0.512587,0.009428,0.274564,-264.482515,-0.154999,62.494521
4.1583,0.012813,-0.002493,0.009861,0.0,0.0,0.0,0.017522,-0.512587,0.009428,0.274564,-264.482515,-0.154999,62.494521
4.178,0.012765,-0.002546,0.009426,0.0,0.0,0.0,0.017842,-0.512469,0.009861,0.274564,-264.482515,-0.154999,62.494521
4.1988,0.012678,-0.002096,0.008257,0.0,0.0,0.0,0.017824,-0.512472,0.009832,0.274564,-264.482515,-0.154999,62.494521
4.2187,0.012675,-0.002519,0.008645,0.0,0.0,0.0,0.01689,-0.512078,0.008257,0.274564,-264.482515,-0.154999,62.494521
4.2381,0.012359,-0.002103,0.008885,0.0,0.0,0.0,0.016999,-0.512317,0.008476,0.274564,-264.482515,-0.154999,62.494521
4.2588,0.012708,-0.002182,0.008973,0.0,0.0,0.0,0.016999,-0.512317,0.008476,0.274564,-264.482515,-0.154999,62.494521
4.2785,0.012543,-0.002496,0.006437,0.0,0.0,0.0,0.017284,-0.512161,0.008973,0.274564,-264.482515,-0.154999,62.494521
4.2986,0.012893,-0.002574,0.007997,-9.8e-05,2e-05,0.0,0.017161,-0.512189,0.008759,0.274564,-264.482515,-0.154999,62.494521
4.3182,0.012658,-0.002416,0.009869,-9.8e-05,2e-05,0.0,0.016971,-0.512557,0.007997,0.274564,-264.482515,-0.154999,62.494521
4.3388,0.012687,-0.002166,0.009772,-9.8e-05,2e-05,0.0,0.017382,-0.512463,0.009066,0.274564,-264.482515,-0.154999,62.494521
4.3582,0.012423,-0.002174,0.007484,-9.8e-05,2e-05,0.0,0.017382,-0.512463,0.009066,0.274564,-264.482515,-0.154999,62.494521
4.3782,0.012712,-0.00252,0.007448,-9.8e-05,2e-05,0.0,0.01624,-0.512159,0.007484,0.199856,-264.482516,-0.202875,62.49452
4.3979,0.012934,-0.002734,0.007216,-9.8e-05,2e-05,0.0,0.016262,-0.512187,0.007481,0.199856,-264.482516,-0.202875,62.49452
4.4181,0.012539,-0.002109,0.007811,-9.8e-05,2e-05,0.0,0.016614,-0.512721,0.007216,0.124507,-264.482519,-0.202875,62.494518
4.4379,0.012569,-0.002445,0.009128,-9.8e-05,2e-05,0.0,0.016561,-0.512361,0.007557,0.124507,-264.482519,-0.202875,62.494518
4.4579,0.012424,-0.00263,0.008501,-9.8e-05,2e-05,0.0,0.016561,-0.512361,0.007557,0.124507,-264.482519,-0.202875,62.494518
4.4782,0.012822,-0.002704,0.009248,-9.8e-05,2e-05,0.0,0.016758,-0.512612,0.008501,0.049875,-264.482526,-0.202875,62.494511
4.4985,0.012654,-0.002349,0.009196,-1e-06,0.0,-1e-06,0.016813,-0.512617,0.008553,0.049875,-264.482526,-0.202875,62.494511
4.518,0.012275,-0.002582,0.009257,-0.001835,0.000377,-0.000943,0.017343,-0.512327,0.009195,-0.025004,-264.48254,-0.202875,62.494496
4.5381,0.012611,-0.002565,0.00936,-0.003572,0.000735,-0.001836,0.017141,-0.512462,0.009231,-0.025004,-264.48254,-0.202875,62.494496
4.558,0.012834,-0.002515,0.009144,-0.005215,0.001073,-0.00268,0.017141,-0.512462,0.009231,-0.025004,-264.48254,-0.202875,62.494496
4.5782,0.012684,-0.002266,0.007989,-0.006793,0.001397,-0.003491,0.017497,-0.512494,0.009144,0.050344,-264.48254,-0.278223,62.494496
4.598,0.012554,-0.002806,0.008946,-0.008225,0.001692,-0.004227,0.017446,-0.512477,0.009063,0.050344,-264.48254,-0.278223,62.494496
4.6185,0.012557,-0.002702,0.009293,-0.009583,0.001971,-0.004924,0.017013,-0.512772,0.008905,0.107735,-264.48358,-0.352874,62.493331
4.6383,0.012425,-0.002357,0.008402,-0.01085,0.002232,-0.005576,0.017162,-0.512718,0.009122,0.107735,-264.48358,-0.352874,62.493331
4.6584,0.012276,-0.002443,0.009658,-0.012028,0.002474,-0.006181,0.017162,-0.512718,0.009122,0.107735,-264.48358,-0.352874,62.493331
4.6784,0.012255,-0.002287,0.008615,-0.013107,0.002696,-0.006736,0.016888,-0.512367,0.009513,0.107735,-264.486145,-0.427966,62.490458
4.6986,0.012566,-0.002201,0.00745,-0.014093,0.002899,-0.007242,0.016861,-0.512358,0.009442,0.107735,-264.486145,-0.427966,62.490458
4.7179,0.011841,-0.002384,0.009249,-0.014986,0.003083,-0.007701,0.015921,-0.512099,0.007222,0.107735,-264.49078,-0.479176,62.485264
4.7381,0.011833,-0.002033,0.008788,-0.015785,0.003247,-0.008112,0.01623,-0.512239,0.008357,0.107735,-264.49078,-0.479176,62.485264
4.7582,0.011932,-0.002032,0.008664,-0.016488,0.003392,-0.008473,0.01623,-0.512239,0.008357,0.107735,-264.49078,-0.479176,62.485264
4.778,0.011509,-0.002111,0.008268,-0.017099,0.003517,-0.008787,0.015665,-0.511878,0.008312,0.107735,-264.496449,-0.479176,62.478912
4.798,0.010969,-0.002451,0.008018,-0.017616,0.003624,-0.009053,0.015651,-0.51189,0.008299,0.107735,-264.496449,-0.479176,62.478912
4.8185,0.011027,-0.00241,0.007672,-0.018039,0.003711,-0.00927,0.014421,-0.512308,0.007691,0.107735,-264.503084,-0.479176,62.471479
4.8381,0.010579,-0.001933,0.008735,-0.018368,0.003778,-0.009439,0.014635,-0.512342,0.007639,0.107735,-264.503084,-0.479176,62.471479
4.8581,0.011101,-0.00185,0.008427,-0.018602,0.003827,-0.00956,0.014635,-0.512342,0.007639,0.107735,-264.503084,-0.479176,62.471479
4.8781,0.010248,-0.0017,0.008695,-0.018743,0.003856,-0.009632,0.014542,-0.511663,0.007988,0.107735,-264.510171,-0.479176,62.463539
4.8988,0.010341,-0.001755,0.008739,-0.01879,0.003865,-0.009656,0.014529,-0.511659,0.008027,0.107735,-264.510171,-0.479176,62.463539
4.9183,0.00934,-0.001623,0.00646,-0.018743,0.003856,-0.009632,0.014073,-0.511593,0.008367,0.107735,-264.517646,-0.479176,62.455163
4.9384,0.009573,-0.00135,0.005833,-0.018599,0.003826,-0.009558,0.013175,-0.511586,0.00725,0.107735,-264.517646,-0.479176,62.455163
4.9583,0.009266,-0.001663,0.006191,-0.018368,0.003778,-0.009439,0.013175,-0.511586,0.00725,0.107735,-264.517646,-0.479176,62.455163
4.9785,0.008488,-0.001245,0.00595,-0.018039,0.003711,-0.00927,0.011507,-0.51147,0.00572,0.107735,-264.525204,-0.479176,62.446696
4.998,0.008905,-0.001151,0.00739,-0.017616,0.003624,-0.009053,0.011485,-0.511451,0.005723,0.107735,-264.525204,-0.479176,62.446696
5.018,0.007792,-0.00125,0.005651,-0.017099,0.003517,-0.008787,0.011963,-0.510996,0.007025,0.107735,-264.532606,-0.479176,62.438403
5.038,0.007945,-0.001828,0.005853,-0.01649,0.003392,-0.008474,0.011133,-0.511119,0.00619,0.107735,-264.532606,-0.479176,62.438403
5.0582,0.008171,-0.001389,0.006303,-0.015784,0.003247,-0.008111,0.011133,-0.511119,0.00619,0.107735,-264.532606,-0.479176,62.438403
5.0779,0.007503,-0.001068,0.0062,-0.014986,0.003083,-0.007701,0.010528,-0.511208,0.005863,0.107735,-264.539693,-0.479176,62.430463
5.0984,0.007412,-0.001266,0.005425,-0.014093,0.002899,-0.007242,0.010515,-0.511194,0.005875,0.107735,-264.539693,-0.479176,62.430463
5.1184,0.006836,-0.000697,0.004737,-0.013101,0.002695,-0.006732,0.009563,-0.511135,0.005109,0.107735,-264.546044,-0.479176,62.423347
5.1384,0.006895,-0.000915,0.005897,-0.012023,0.002473,-0.006179,0.009311,-0.510869,0.00486,0.107735,-264.546044,-0.479176,62.423347
5.1582,0.00643,-0.001181,0.004154,-0.010852,0.002232,-0.005577,0.009311,-0.510869,0.00486,0.107735,-264.546044,-0.479176,62.423347
5.1784,0.006225,-0.000567,0.005359,-0.009583,0.001971,-0.004925,0.007863,-0.511039,0.003802,0.107735,-264.551756,-0.479176,62.416948
5.1981,0.006399,-0.000553,0.005985,-0.00822,0.001691,-0.004224,0.007937,-0.510992,0.003927,0.107735,-264.551756,-0.479176,62.416948
5.218,0.005906,-0.000482,0.0054,-0.006764,0.001391,-0.003476,0.009036,-0.510461,0.005772,0.107735,-264.556083,-0.479176,62.4121
5.2381,0.006164,-0.000886,0.004722,-0.005206,0.001071,-0.002675,0.00877,-0.510458,0.005533,0.107735,-264.556083,-0.479176,62.4121
5.2584,0.005521,-0.000854,0.004263,-0.003552,0.000731,-0.001826,0.00877,-0.510458,0.005533,0.107735,-264.556083,-0.479176,62.4121
5.2783,0.005687,-0.000601,0.004306,-0.001832,0.000377,-0.000942,0.007294,-0.510769,0.004057,0.107735,-264.559394,-0.479176,62.408389
5.298,0.005654,-0.000277,0.002278,-0.0,0.0,-0.0,0.007324,-0.510755,0.004068,0.107735,-264.559394,-0.479176,62.408389
5.3185,0.005269,-0.000798,0.004561,0.0,0.0,0.0,0.006679,-0.510248,0.002208,0.107735,-264.560825,-0.479176,62.406787
5.3385,0.005436,-0.000341,0.004979,0.0,0.0,0.0,0.007187,-0.510557,0.003549,0.107735,-264.560825,-0.479176,62.406787
5.3583,0.005363,-0.000322,0.005083,0.0,0.0,0.0,0.007187,-0.510557,0.003549,0.107735,-264.560825,-0.479176,62.406787
5.3781,0.005548,-0.000689,0.003781,0.0,0.0,0.0,0.007956,-0.510316,0.005083,0.107735,-264.560825,-0.479176,62.406787
5.3981,0.005472,-0.000624,0.004827,0.0,0.0,0.0,0.007925,-0.510339,0.005001,0.107735,-264.560825,-0.479176,62.406787
5.418,0.005548,-0.000525,0.004525,0.0,0.0,0.0,0.007933,-0.510618,0.004827,0.107735,-264.560825,-0.479176,62.406787
5.4379,0.005451,-0.000395,0.003907,0.0,0.0,0.0,0.007889,-0.510562,0.004654,0.107735,-264.560825,-0.479176,62.406787
5.458,0.005438,-0.000369,0.002066,0.0,0.0,0.0,0.007889,-0.510562,0.004654,0.107735,-264.560825,-0.479176,62.406787
5.4781,0.005417,-0.000356,0.00377,0.0,0.0,0.0,0.006492,-0.510368,0.002066,0.107735,-264.560825,-0.479176,62.406787
5.4984,0.004933,-0.000622,0.005926,0.0,0.0,0.0,0.006553,-0.510366,0.002189,0.107735,-264.560825,-0.479176,62.406787
5.5181,0.005407,-0.000518,0.00451,-9.9e-05,1.3e-05,0.0,0.007955,-0.510613,0.005926,0.107735,-264.560825,-0.479176,62.406787
5.5385,0.005559,-0.000552,0.001627,-9.9e-05,1.3e-05,0.0,0.007813,-0.510556,0.005116,0.107735,-264.560825,-0.479176,62.406787
5.5581,0.005739,-0.000242,0.003231,-9.9e-05,1.3e-05,0.0,0.007813,-0.510556,0.005116,0.107735,-264.560825,-0.479176,62.406787
5.5784,0.00531,-0.000347,0.003364,-9.9e-05,1.3e-05,0.0,0.007387,-0.51024,0.003231,0.107735,-264.560825,-0.479176,62.406787
5.5985,0.005224,-0.000579,0.006038,-9.9e-05,1.3e-05,0.0,0.007358,-0.510248,0.003241,0.107735,-264.560825,-0.479176,62.406787
5.6182,0.005432,-0.000916,0.004794,-9.9e-05,1.3e-05,0.0,0.008303,-0.51057,0.006038,0.032428,-264.560827,-0.40387,62.406785
5.6382,0.005217,-0.000463,0.004725,-9.9e-05,1.3e-05,0.0,0.008057,-0.510766,0.00532,0.032428,-264.560827,-0.40387,62.406785
5.6586,0.005703,-4.4e-05,0.005137,-9.9e-05,1.3e-05,0.0,0.008057,-0.510766,0.00532,0.032428,-264.560827,-0.40387,62.406785
5.6781,0.005333,-0.000502,0.003529,-9.9e-05,1.3e-05,0.0,0.008322,-0.510038,0.005137,-0.042387,-264.560835,-0.329054,62.406777
5.6981,0.005648,-0.00064,0.00263,-9.9e-05,1.3e-05,0.0,0.008241,-0.510069,0.005027,-0.042387,-264.560835,-0.329054,62.406777
5.7183,0.005441,-0.000523,0.002435,-0.0,0.0,-0.0,0.006987,-0.510638,0.00263,-0.117196,-264.560854,-0.254245,62.406758
5.7381,0.005379,-0.000595,0.002456,-0.000721,9.5e-05,-0.000866,0.006813,-0.510571,0.002518,-0.117196,-264.560854,-0.254245,62.406758
5.7587,0.005529,-0.00016,0.004681,-0.001406,0.000186,-0.001691,0.006813,-0.510571,0.002518,-0.117196,-264.560854,-0.254245,62.406758
5.7785,0.005549,-0.00046,0.003321,-0.002052,0.000271,-0.002467,0.007912,-0.510154,0.004681,-0.131328,-264.560885,-0.179145,62.406727
5.7981,0.005491,-0.000402,0.004464,-0.002662,0.000352,-0.0032,0.007866,-0.510175,0.004587,-0.131328,-264.560885,-0.179145,62.406727
5.8184,0.005471,-0.000706,0.003484,-0.003234,0.000427,-0.003889,0.007768,-0.510397,0.004464,-0.056468,-264.560885,-0.254005,62.406727
5.8382,0.005707,-0.000249,0.004758,-0.003772,0.000498,-0.004535,0.007471,-0.510571,0.003904,-0.056468,-264.560885,-0.254005,62.406727
5.8582,0.005462,-6.8e-05,0.004289,-0.00427,0.000564,-0.005134,0.007471,-0.510571,0.003904,-0.056468,-264.560885,-0.254005,62.406727
5.8783,0.005302,-0.000475,0.00427,-0.004732,0.000625,-0.005689,0.007649,-0.510064,0.004289,0.018696,-264.560885,-0.329169,62.406727
5.8986,0.005461,-0.000373,0.004328,-0.005157,0.000681,-0.0062,0.007637,-0.510093,0.004288,0.018696,-264.560885,-0.329169,62.406727
5.918,0.005174,-0.000735,0.004023,-0.005546,0.000733,-0.006669,0.007668,-0.510368,0.004328,0.093645,-264.560887,-0.404119,62.406725
5.9381,0.005299,-0.000393,0.005345,-0.005898,0.000779,-0.007092,0.007414,-0.510576,0.004153,0.093645,-264.560887,-0.404119,62.406725
5.9582,0.005139,-0.000487,0.004227,-0.006211,0.00082,-0.007468,0.007414,-0.510576,0.004153,0.093645,-264.560887,-0.404119,62.406725
5.9781,0.00535,-0.000904,0.00539,-0.00649,0.000857,-0.007803,0.007292,-0.510483,0.004226,0.168682,-264.560905,-0.479155,62.406704
5.9983,0.0055,-0.000429,0.005551,-0.006728,0.000889,-0.008089,0.007346,-0.51051,0.004304,0.168682,-264.560905,-0.479155,62.406704
6.0182,0.005379,-0.000709,0.003418,-0.006931,0.000916,-0.008334,0.00832,-0.510419,0.005543,0.243541,-264.561026,-0.554014,62.406567
6.0383,0.005574,-0.000816,0.004092,-0.007098,0.000937,-0.008534,0.007631,-0.510583,0.004323,0.243541,-264.561026,-0.554014,62.406567
6.0581,0.005679,-0.000428,0.004555,-0.007227,0.000955,-0.00869,0.007631,-0.510583,0.004323,0.243541,-264.561026,-0.554014,62.406567
6.0782,0.005637,-0.000492,0.003734,-0.00732,0.000967,-0.008801,0.007947,-0.510412,0.004508,0.31867,-264.561516,-0.629143,62.406012
6.099,0.005569,-0.000428,0.004142,-0.007375,0.000974,-0.008867,0.007917,-0.510417,0.004452,0.31867,-264.561516,-0.629143,62.406012
6.1183,0.005255,-0.000639,0.003736,-0.007394,0.000977,-0.00889,0.007565,-0.510401,0.004023,0.393672,-264.562858,-0.704146,62.404491
6.1382,0.005323,-0.000447,0.004219,-0.007375,0.000974,-0.008868,0.007323,-0.51053,0.003847,0.393672,-264.562858,-0.704146,62.404491
6.1583,0.005401,9.5e-05,0.003737,-0.00732,0.000967,-0.008801,0.007323,-0.51053,0.003847,0.393672,-264.562858,-0.704146,62.404491
6.1782,0.005405,-0.000648,0.003488,-0.007227,0.000955,-0.00869,0.00705,-0.509859,0.00345,0.468606,-264.565272,-0.713957,62.401755
6.1984,0.005329,-0.000394,0.003991,-0.007098,0.000938,-0.008534,0.007052,-0.50991,0.003446,0.468606,-264.565272,-0.713957,62.401755
6.2181,0.00506,-0.000241,0.002866,-0.006931,0.000916,-0.008334,0.007106,-0.510357,0.003679,0.542076,-264.568411,-0.713957,62.398197
6.2384,0.005129,-0.000356,0.003126,-0.006726,0.000888,-0.008087,0.006737,-0.510285,0.003173,0.542076,-264.568411,-0.713957,62.398197
6.258,0.005105,-0.000474,0.0014,-0.006486,0.000857,-0.007798,0.006737,-0.510285,0.003173,0.542076,-264.568411,-0.713957,62.398197
6.2781,0.004615,-0.000212,0.003049,-0.006201,0.000819,-0.007456,0.005474,-0.510429,0.000986,0.542076,-264.571718,-0.713957,62.394448
6.2986,0.004883,-0.000234,0.003917,-0.005897,0.000779,-0.00709,0.005513,-0.510413,0.001116,0.542076,-264.571718,-0.713957,62.394448
6.3182,0.005173,6.4e-05,0.001889,-0.005543,0.000732,-0.006665,0.00663,-0.510197,0.003615,0.542076,-264.574751,-0.713957,62.39101
6.3386,0.004603,-0.000255,0.0029,-0.005157,0.000681,-0.0062,0.006316,-0.510044,0.002592,0.542076,-264.574751,-0.713957,62.39101
6.3579,0.004829,-0.000385,0.001773,-0.00473,0.000625,-0.005687,0.006316,-0.510044,0.002592,0.542076,-264.574751,-0.713957,62.39101
6.3783,0.004479,-0.000128,0.002496,-0.004269,0.000564,-0.005132,0.005448,-0.510347,0.001429,0.542076,-264.577517,-0.713957,62.387875
6.3983,0.004682,-0.0005,0.002188,-0.003771,0.000498,-0.004534,0.005464,-0.510327,0.001509,0.542076,-264.577517,-0.713957,62.387875
6.418,0.004189,-0.000148,0.001433,-0.003235,0.000427,-0.003889,0.005617,-0.510475,0.00197,0.542076,-264.579714,-0.713957,62.385384
6.4382,0.004378,-0.000254,0.001197,-0.002657,0.000351,-0.003195,0.005194,-0.510284,0.001635,0.542076,-264.579714,-0.713957,62.385384
6.4581,0.004683,-7.6e-05,0.00281,-0.002053,0.000271,-0.002468,0.005194,-0.510284,0.001635,0.542076,-264.579714,-0.713957,62.385384
6.4783,0.004665,-7.8e-05,0.000975,-0.001405,0.000186,-0.00169,0.005933,-0.510051,0.00259,0.542076,-264.581476,-0.713957,62.383388
6.4985,0.004837,-0.000453,0.001058,-0.000722,9.5e-05,-0.000868,0.005874,-0.510052,0.002471,0.542076,-264.581476,-0.713957,62.383388
6.5183,0.004516,-0.000572,0.000784,-0.0,0.0,-1e-06,0.005297,-0.510442,0.000963,0.542076,-264.582433,-0.713957,62.382303
6.5383,0.004292,-0.000424,0.001569,0.0,0.0,0.0,0.00507,-0.510515,0.000849,0.542076,-264.582433,-0.713957,62.382303
6.5587,0.004369,-0.00028,0.00122,0.0,0.0,0.0,0.00507,-0.510515,0.000849,0.542076,-264.582433,-0.713957,62.382303
6.5784,0.004349,-5.9e-05,0.000963,0.0,0.0,0.0,0.004957,-0.510275,0.001178,0.542076,-264.58277,-0.713957,62.381921
6.5982,0.004859,0.000138,0.001561,0.0,0.0,0.0,0.004948,-0.51026,0.001162,0.542076,-264.58277,-0.713957,62.381921
6.6181,0.004542,-6.4e-05,0.001989,0.0,0.0,0.0,0.005655,-0.509861,0.001561,0.542076,-264.58277,-0.713957,62.381921
6.6388,0.004683,-6.6e-05,0.000199,0.0,0.0,0.0,0.005599,-0.509976,0.001806,0.542076,-264.58277,-0.713957,62.381921
6.6585,0.004637,-0.000207,0.000262,0.0,0.0,0.0,0.005599,-0.509976,0.001806,0.542076,-264.58277,-0.713957,62.381921
6.6784,0.004401,-0.000147,0.001002,0.0,0.0,0.0,0.00477,-0.510207,0.000262,0.542076,-264.58277,-0.713957,62.381921
6.6985,0.004504,-0.000254,0.00066,0.0,0.0,0.0,0.00478,-0.510203,0.000313,0.542076,-264.58277,-0.713957,62.381921
6.7188,0.004509,-0.000308,0.002517,0.0,0.0,0.0,0.00484,-0.510254,0.00066,0.542076,-264.58277,-0.713957,62.381921
6.7381,0.004611,-0.000175,0.00134,-0.0001,7e-06,0.0,0.005366,-0.510283,0.001685,0.542076,-264.58277,-0.713957,62.381921
6.7584,0.004369,-0.000286,0.000472,-0.0001,7e-06,0.0,0.005366,-0.510283,0.001685,0.542076,-264.58277,-0.713957,62.381921
6.7785,0.004515,0.000137,0.000682,-0.0001,7e-06,0.0,0.00461,-0.510286,0.000472,0.542076,-264.58277,-0.713957,62.381921
6.7984,0.004378,-0.000325,0.001577,-0.0001,7e-06,0.0,0.004632,-0.510249,0.00049,0.542076,-264.58277,-0.713957,62.381921
6.818,0.004379,0.000112,0.003545,-0.0001,7e-06,0.0,0.005183,-0.510325,0.001577,0.466307,-264.58277,-0.638188,62.381921
6.838,0.004426,-0.000338,0.000968,-0.0001,7e-06,0.0,0.005757,-0.510073,0.002702,0.466307,-264.58277,-0.638188,62.381921
6.858,0.00449,-0.000222,0.002147,-0.0001,7e-06,0.0,0.005757,-0.510073,0.002702,0.466307,-264.58277,-0.638188,62.381921
6.8782,0.004625,-0.000466,0.001069,-0.0001,7e-06,0.0,0.005585,-0.510221,0.002147,0.391943,-264.58277,-0.563823,62.381921
6.8983,0.004354,-0.000183,0.000421,-0.0001,7e-06,0.0,0.005556,-0.510238,0.002072,0.391943,-264.58277,-0.563823,62.381921
6.918,0.004385,-5.6e-05,0.000481,-0.0001,7e-06,0.0,0.004569,-0.510183,0.000421,0.317068,-264.58277,-0.488949,62.381921
6.9383,0.004229,-0.000334,0.001884,-0.0001,7e-06,0.0,0.004604,-0.510111,0.000455,0.317068,-264.58277,-0.488949,62.381921
6.9581,0.004555,-0.000377,0.001561,-0.000659,4.7e-05,-0.000368,0.004604,-0.510111,0.000455,0.317068,-264.58277,-0.488949,62.381921
6.9781,0.004317,-0.000293,0.001204,-0.001285,9.1e-05,-0.000717,0.005351,-0.510376,0.001561,0.241961,-264.58277,-0.413842,62.381921
6.9985,0.004571,-0.000617,0.000167,-0.001876,0.000133,-0.001047,0.005321,-0.51037,0.001535,0.241961,-264.58277,-0.413842,62.381921
7.0181,0.004631,-0.000112,-0.000203,-0.002435,0.000173,-0.001359,0.004631,-0.510616,0.000153,0.263782,-264.583039,-0.390687,62.38164
7.0381,0.004401,-0.000189,0.001175,-0.002962,0.00021,-0.001653,0.004568,-0.510327,-5.3e-05,0.263782,-264.583039,-0.390687,62.38164
7.0581,0.004192,-0.000536,0.000581,-0.003449,0.000244,-0.001925,0.004568,-0.510327,-5.3e-05,0.263782,-264.583039,-0.390687,62.38164
7.0784,0.004722,-0.000494,0.000961,-0.003906,0.000277,-0.00218,0.004397,-0.510529,0.00053,0.263782,-264.583816,-0.390687,62.380829
7.0985,0.004321,-0.00017,0.001222,-0.004328,0.000307,-0.002416,0.004455,-0.510527,0.000561,0.263782,-264.583816,-0.390687,62.380829
7.1182,0.004249,-0.000275,0.001128,-0.004718,0.000334,-0.002634,0.004811,-0.510161,0.001148,0.263782,-264.585243,-0.390687,62.379339
7.1382,0.004168,-0.000133,0.000271,-0.005072,0.00036,-0.002831,0.004802,-0.510224,0.001127,0.263782,-264.585243,-0.390687,62.379339
7.1583,0.004323,-6.2e-05,0.000328,-0.005394,0.000382,-0.003011,0.004802,-0.510224,0.001127,0.263782,-264.585243,-0.390687,62.379339
7.1784,0.00418,-0.000126,-0.00019,-0.005681,0.000403,-0.003172,0.00428,-0.510047,0.00021,0.263782,-264.587039,-0.390687,62.377464
7.1983,0.004665,-0.000247,0.000229,-0.005934,0.000421,-0.003313,0.004261,-0.510052,0.00018,0.263782,-264.587039,-0.390687,62.377464
7.218,0.00385,-0.000131,0.001571,-0.006154,0.000436,-0.003436,0.004574,-0.510232,0.000113,0.263782,-264.589274,-0.390687,62.375131
7.238,0.004079,-0.000419,0.000987,-0.006341,0.000449,-0.00354,0.004592,-0.510172,0.000934,0.263782,-264.589274,-0.390687,62.375131
7.258,0.003983,-0.000268,0.000776,-0.006492,0.00046,-0.003624,0.004592,-0.510172,0.000934,0.263782,-264.589274,-0.390687,62.375131
7.2782,0.003806,0.000185,0.001298,-0.006611,0.000469,-0.003691,0.004091,-0.510248,0.000615,0.263782,-264.59173,-0.390687,62.372566
7.2983,0.003578,-0.000154,0.000216,-0.006695,0.000475,-0.003738,0.00411,-0.510216,0.000659,0.263782,-264.59173,-0.390687,62.372566
7.319,0.003515,-1e-05,0.002126,-0.006747,0.000478,-0.003767,0.003438,-0.510136,7.6e-05,0.263782,-264.594419,-0.390687,62.369759
7.3382,0.003471,-0.000193,0.000136,-0.006763,0.000479,-0.003775,0.004065,-0.510062,0.001221,0.263782,-264.594419,-0.390687,62.369759
7.3582,0.003433,0.0002,0.000759,-0.006745,0.000478,-0.003766,0.004065,-0.510062,0.001221,0.263782,-264.594419,-0.390687,62.369759
7.378,0.003223,7.3e-05,0.000465,-0.006695,0.000475,-0.003738,0.003494,-0.509776,0.000577,0.263782,-264.597197,-0.390687,62.366858
7.3988,0.003203,-0.00047,0.000168,-0.006611,0.000469,-0.003691,0.003483,-0.509786,0.000564,0.263782,-264.597197,-0.390687,62.366858
7.4187,0.002805,1e-06,0.000933,-0.006491,0.00046,-0.003624,0.003028,-0.510451,2.2e-05,0.263782,-264.599991,-0.390687,62.363941
7.4381,0.002923,-1e-05,2.3e-05,-0.00634,0.000449,-0.00354,0.003139,-0.510191,0.000524,0.263782,-264.599991,-0.390687,62.363941
