mach0312/omni-docking-bench/src/icros_test_setup/results/kinematic_sample/timeseries/trial_033.csv
t,x,y,yaw,vx,vy,wz,bl_x,bl_y,bl_yaw,front_steering_joint,front_wheel_joint,rear_steering_joint,rear_wheel_joint
0.0,0.017333,0.01992,-0.070004,-0.008542,0.000954,-0.002289,-0.017567,-0.489353,-0.069437,0.051936,-264.265662,-0.268675,62.788151
0.0005,0.01721,0.019854,-0.069289,-0.005189,0.000579,-0.00139,-0.017567,-0.489353,-0.069437,0.051936,-264.269378,-0.268675,62.784303
0.0008,0.016594,0.019691,-0.068573,-0.004446,0.000497,-0.001191,-0.017567,-0.489353,-0.069437,0.051936,-264.272622,-0.268675,62.780942
0.0011,0.016699,0.01991,-0.071761,-0.003661,0.000409,-0.000981,-0.018504,-0.489098,-0.071012,0.051936,-264.275456,-0.268675,62.778007
0.0015,0.016736,0.0196,-0.068111,-0.002814,0.000314,-0.000754,-0.018504,-0.489098,-0.071012,0.051936,-264.277535,-0.268675,62.775854
0.0018,0.016261,0.019952,-0.070628,-0.001928,0.000215,-0.000517,-0.018551,-0.489102,-0.071064,0.051936,-264.279004,-0.268675,62.774332
0.0021,0.016189,0.019302,-0.069796,-0.000989,0.00011,-0.000265,-0.018551,-0.489102,-0.071064,0.051936,-264.279399,-0.268675,62.773922
0.0023,0.016046,0.019851,-0.070448,0.0,0.0,0.0,-0.018529,-0.489305,-0.070512,0.051936,-264.279399,-0.268675,62.773922
0.0026,0.016096,0.0196,-0.070319,0.0,0.0,0.0,-0.018827,-0.489214,-0.070647,0.051936,-264.279399,-0.268675,62.773922
0.0028,0.016425,0.0195,-0.070837,0.0,0.0,0.0,-0.018827,-0.489214,-0.070647,0.051936,-264.279399,-0.268675,62.773922
0.0186,0.016279,0.019619,-0.070585,-0.015004,-0.016,0.03,-0.019808,-0.489026,-0.07038,0.051936,-264.279399,-0.268675,62.773922
0.0386,0.016458,0.019576,-0.069275,-0.014855,-0.020718,0.05,-0.019689,-0.489111,-0.070585,0.051936,-264.279399,-0.268675,62.773922
0.0589,0.016896,0.019783,-0.070501,-0.015064,-0.020669,0.05,-0.019627,-0.489118,-0.070489,0.051936,-264.279399,-0.268675,62.773922
0.0789,0.016393,0.019566,-0.070621,-0.01546,-0.020924,0.05,-0.01903,-0.48895,-0.070501,-0.02319,-264.2794,-0.193549,62.773922
0.0987,0.016462,0.019877,-0.069627,-0.014972,-0.020674,0.05,-0.019354,-0.489073,-0.07057,-0.02319,-264.2794,-0.193549,62.773922
0.1185,0.016878,0.019643,-0.069255,-0.01504,-0.020974,0.05,-0.019354,-0.489073,-0.07057,-0.02319,-264.2794,-0.193549,62.773922
0.1387,0.016717,0.020058,-0.069202,-0.015479,-0.020764,0.05,-0.018414,-0.489134,-0.069255,-0.098202,-264.2794,-0.118537,62.773922
0.1586,0.016087,0.020015,-0.071272,-0.01529,-0.021166,0.05,-0.018423,-0.489107,-0.069251,-0.098202,-264.2794,-0.118537,62.773922
0.1787,0.016378,0.019623,-0.070339,-0.014621,-0.021109,0.05,-0.020231,-0.488691,-0.071272,-0.173192,-264.2794,-0.043547,62.773922
0.1989,0.016394,0.019464,-0.071003,-0.014958,-0.020726,0.05,-0.019792,-0.488935,-0.070737,-0.173192,-264.2794,-0.043547,62.773922
0.2185,0.016252,0.019723,-0.070055,-0.014972,-0.020578,0.05,-0.019792,-0.488935,-0.070737,-0.173192,-264.2794,-0.043547,62.773922
0.2383,0.016344,0.019158,-0.070161,-0.014831,-0.020812,0.05,-0.019447,-0.489026,-0.070055,-0.248217,-264.2794,0.031478,62.773921
0.2587,0.016181,0.019528,-0.070157,-0.014961,-0.020257,0.05,-0.019444,-0.489068,-0.070063,-0.248217,-264.2794,0.031478,62.773921
0.2787,0.01644,0.019601,-0.070096,-0.014772,-0.020614,0.05,-0.01957,-0.489218,-0.070157,-0.323364,-264.2794,0.106625,62.773921
0.2986,0.016712,0.01958,-0.069056,-0.015027,-0.020705,0.05,-0.019404,-0.489177,-0.070122,-0.323364,-264.2794,0.106625,62.773921
0.3187,0.016542,0.019902,-0.070297,-0.015321,-0.020687,0.05,-0.019404,-0.489177,-0.070122,-0.323364,-264.2794,0.106625,62.773921
0.3386,0.016576,0.019364,-0.070408,-0.015104,-0.021015,0.05,-0.01928,-0.488838,-0.070297,-0.398155,-264.2794,0.181416,62.77392
0.3583,0.01622,0.019896,-0.069252,-0.015173,-0.020482,0.05,-0.019281,-0.488875,-0.070305,-0.398155,-264.2794,0.181416,62.77392
0.3786,0.016727,0.019572,-0.06999,-0.014805,-0.02097,0.05,-0.01907,-0.488882,-0.069252,-0.473054,-264.2794,0.256315,62.773919
0.3988,0.016645,0.019714,-0.070476,-0.015318,-0.020694,0.05,-0.018995,-0.489051,-0.069672,-0.473054,-264.2794,0.256315,62.773919
0.4185,0.016215,0.019931,-0.07034,-0.015215,-0.020837,0.05,-0.018995,-0.489051,-0.069672,-0.473054,-264.2794,0.256315,62.773919
0.4384,0.016257,0.020025,-0.070021,-0.014774,-0.021021,0.05,-0.019629,-0.488808,-0.07034,-0.54808,-264.279401,0.331341,62.773917
0.4583,0.01624,0.019782,-0.07084,-0.014816,-0.021114,0.05,-0.019612,-0.488801,-0.070313,-0.54808,-264.279401,0.331341,62.773917
0.4783,0.016363,0.019614,-0.070052,-0.014799,-0.020882,0.05,-0.019858,-0.488939,-0.07084,-0.56757,-264.279402,0.406786,62.773915
0.4982,0.016178,0.019873,-0.069907,-0.01495,-0.020711,0.05,-0.019557,-0.489052,-0.070387,-0.56757,-264.279402,0.406786,62.773915
0.5186,0.01665,0.019675,-0.069092,-0.014751,-0.020955,0.05,-0.019557,-0.489052,-0.070387,-0.56757,-264.279402,0.406786,62.773915
0.5389,0.016162,0.02007,-0.069505,-0.015252,-0.020777,0.05,-0.018559,-0.489108,-0.069092,-0.566504,-264.279402,0.481473,62.773913
0.559,0.016247,0.019587,-0.069454,-0.01473,-0.021144,0.05,-0.018609,-0.489079,-0.069122,-0.566504,-264.279402,0.481473,62.773913
0.5784,0.016505,0.019786,-0.069573,-0.014849,-0.020668,0.05,-0.019146,-0.489183,-0.069454,-0.576133,-264.279403,0.556415,62.773911
0.5984,0.016744,0.02011,-0.070462,-0.015089,-0.020885,0.05,-0.019035,-0.489068,-0.069521,-0.576133,-264.279403,0.556415,62.773911
0.6185,0.016503,0.019649,-0.070564,-0.015286,-0.021239,0.05,-0.019035,-0.489068,-0.069521,-0.576133,-264.279403,0.556415,62.773911
0.6388,0.016366,0.019959,-0.070224,-0.015076,-0.020763,0.05,-0.019455,-0.489082,-0.070564,-0.567685,-264.279404,0.631456,62.773907
0.6588,0.016546,0.019669,-0.069941,-0.014925,-0.021058,0.05,-0.019453,-0.489061,-0.070539,-0.567685,-264.279404,0.631456,62.773907
0.6784,0.016418,0.019976,-0.069658,-0.015131,-0.020777,0.05,-0.019095,-0.489084,-0.06994,-0.546506,-264.27941,0.706487,62.773891
0.6989,0.016105,0.019864,-0.070308,-0.014988,-0.02107,0.05,-0.019086,-0.488914,-0.069778,-0.546506,-264.27941,0.706487,62.773891
0.7185,0.016306,0.019788,-0.068822,-0.014669,-0.020947,0.05,-0.019086,-0.488914,-0.069778,-0.546506,-264.27941,0.706487,62.773891
0.7386,0.016502,0.019868,-0.07061,-0.014907,-0.020862,0.05,-0.018769,-0.489007,-0.068816,-0.565849,-264.279432,0.781433,62.773823
0.7588,0.016533,0.020022,-0.07059,-0.015059,-0.020983,0.05,-0.018823,-0.488996,-0.068951,-0.565849,-264.279432,0.781433,62.773823
0.7783,0.016234,0.019992,-0.069543,-0.01508,-0.021138,0.05,-0.01945,-0.488714,-0.07057,-0.579049,-264.279519,0.856753,62.773557
0.7985,0.01613,0.020033,-0.070947,-0.014806,-0.021071,0.05,-0.01931,-0.48875,-0.069977,-0.579049,-264.279519,0.856753,62.773557
0.8184,0.016173,0.019896,-0.069558,-0.014669,-0.021126,0.05,-0.01931,-0.48875,-0.069977,-0.579049,-264.279519,0.856753,62.773557
0.8383,0.016384,0.019578,-0.070823,-0.014752,-0.020972,0.05,-0.019329,-0.488905,-0.069458,-0.565361,-264.279856,0.931489,62.772544
0.8584,0.01631,0.01936,-0.070304,-0.014957,-0.020688,0.05,-0.019354,-0.488921,-0.069542,-0.565361,-264.279856,0.931489,62.772544
0.8786,0.015837,0.019613,-0.070551,-0.01491,-0.020458,0.05,-0.019619,-0.489454,-0.070103,-0.570427,-264.280667,1.00632,62.770045
0.8986,0.015875,0.019906,-0.071377,-0.014416,-0.02068,0.05,-0.019914,-0.489272,-0.070332,-0.570427,-264.280667,1.00632,62.770045
0.9184,0.015897,0.019924,-0.068366,-0.014415,-0.020988,0.05,-0.019914,-0.489272,-0.070332,-0.570427,-264.280667,1.00632,62.770045
0.9384,0.015349,0.019681,-0.069355,-0.014498,-0.020964,0.05,-0.0192,-0.489068,-0.067818,-0.582316,-264.282661,1.08143,62.765052
0.9584,0.015524,0.019238,-0.06831,-0.013948,-0.020697,0.05,-0.019262,-0.489075,-0.067911,-0.582316,-264.282661,1.08143,62.765052
0.9787,0.014809,0.019382,-0.067891,-0.014175,-0.020252,0.05,-0.019579,-0.489798,-0.067627,-0.585111,-264.285922,1.15632,62.757519
0.9985,0.014549,0.019093,-0.068017,-0.01346,-0.020342,0.05,-0.019738,-0.489621,-0.067694,-0.585111,-264.285922,1.15632,62.757519
1.0183,0.014679,0.019159,-0.069805,-0.013218,-0.020038,0.05,-0.019738,-0.489621,-0.067694,-0.585111,-264.285922,1.15632,62.757519
1.0385,0.013389,0.018741,-0.06612,-0.013307,-0.020136,0.05,-0.021354,-0.489974,-0.068601,-0.614402,-264.29062,1.231708,62.747561
1.0587,0.013442,0.018714,-0.067729,-0.012122,-0.019584,0.05,-0.021294,-0.489996,-0.068397,-0.614402,-264.29062,1.231708,62.747561
1.0787,0.012261,0.018065,-0.066429,-0.012145,-0.01958,0.05,-0.021474,-0.490501,-0.066494,-0.671287,-264.296361,1.306321,62.735051
1.0984,0.012058,0.018383,-0.065297,-0.011035,-0.018839,0.05,-0.021593,-0.490727,-0.0663,-0.671287,-264.296361,1.306321,62.735051
1.1186,0.012399,0.018562,-0.064301,-0.010833,-0.019131,0.05,-0.021593,-0.490727,-0.0663,-0.671287,-264.296361,1.306321,62.735051
1.1384,0.011024,0.018163,-0.06379,-0.01118,-0.019321,0.05,-0.020899,-0.49099,-0.062448,-0.734806,-264.302416,1.33351,62.720051
1.1588,0.010812,0.018173,-0.062782,-0.009844,-0.018829,0.05,-0.020954,-0.490993,-0.062492,-0.734806,-264.302416,1.33351,62.720051
1.179,0.008591,0.017517,-0.06217,-0.00965,-0.018815,0.05,-0.021593,-0.491425,-0.061107,-0.809784,-264.308102,1.356055,62.702546
1.1985,0.009079,0.016976,-0.061897,-0.007486,-0.018017,0.05,-0.022505,-0.491543,-0.061503,-0.809784,-264.308102,1.356055,62.702546
1.2186,0.008942,0.017084,-0.061961,-0.008012,-0.017505,0.05,-0.022505,-0.491543,-0.061503,-0.809784,-264.308102,1.356055,62.702546
1.2389,0.00731,0.016177,-0.058954,-0.007866,-0.017605,0.05,-0.023137,-0.492763,-0.05969,-0.871722,-264.313817,1.373973,62.683739
1.2589,0.00721,0.016598,-0.058066,-0.006344,-0.01658,0.05,-0.023123,-0.492797,-0.05958,-0.871722,-264.313817,1.373973,62.683739
1.2789,0.006363,0.01604,-0.057413,-0.006235,-0.016988,0.05,-0.022641,-0.493007,-0.056737,-0.946605,-264.318063,1.405553,62.670222
1.2991,0.006312,0.015794,-0.057376,-0.005432,-0.016378,0.05,-0.022822,-0.49313,-0.056956,-0.946605,-264.318063,1.405553,62.670222
1.3186,0.006019,0.015593,-0.058019,-0.005396,-0.01613,0.05,-0.022822,-0.49313,-0.056956,-0.946605,-264.318063,1.405553,62.670222
1.3383,0.00554,0.015583,-0.056819,-0.005104,-0.015916,0.05,-0.023762,-0.493972,-0.056763,-1.021722,-264.321276,1.436952,62.660257
1.3586,0.00494,0.015399,-0.0548,-0.004646,-0.015872,0.05,-0.023744,-0.493957,-0.056734,-1.021722,-264.321276,1.436952,62.660257
1.3787,0.004259,0.014678,-0.054057,-0.004089,-0.015646,0.05,-0.023146,-0.494181,-0.053743,-1.096611,-264.324683,1.455685,62.649852
1.3989,0.004311,0.014938,-0.055382,-0.00346,-0.014887,0.05,-0.023251,-0.49445,-0.053788,-1.096611,-264.324683,1.455685,62.649852
1.4183,0.00445,0.015203,-0.054456,-0.003477,-0.015153,0.05,-0.023251,-0.49445,-0.053788,-1.096611,-264.324683,1.455685,62.649852
1.4386,0.003593,0.014595,-0.052104,-0.003616,-0.015423,0.05,-0.023499,-0.494528,-0.052928,-1.171659,-264.328589,1.471027,62.638011
1.4588,0.003485,0.014466,-0.051913,-0.002828,-0.014762,0.05,-0.023467,-0.494554,-0.052828,-1.171659,-264.328589,1.471027,62.638011
1.4789,0.002428,0.014229,-0.052071,-0.00273,-0.014627,0.05,-0.023095,-0.495197,-0.050765,-1.246608,-264.332368,1.494843,62.627031
1.4986,0.002293,0.014196,-0.051194,-0.001684,-0.014337,0.05,-0.023689,-0.495175,-0.05136,-1.246608,-264.332368,1.494843,62.627031
1.5185,0.002718,0.014152,-0.051654,-0.001564,-0.014295,0.05,-0.023689,-0.495175,-0.05136,-1.246608,-264.332368,1.494843,62.627031
1.5387,0.001648,0.013289,-0.050058,-0.001984,-0.014273,0.05,-0.023755,-0.495672,-0.049945,-1.321594,-264.33689,1.508453,62.614225
1.5588,0.001249,0.013708,-0.049507,-0.000981,-0.013355,0.05,-0.023767,-0.495713,-0.049908,-1.321594,-264.33689,1.508453,62.614225
1.5784,0.000565,0.013178,-0.048962,-0.000569,-0.013753,0.049507,-0.024065,-0.49604,-0.048201,-1.396658,-264.341311,1.535933,62.60207
1.5985,0.000421,0.013756,-0.048337,8.1e-05,-0.01319,0.048962,-0.024262,-0.496184,-0.048468,-1.396658,-264.341311,1.535933,62.60207
1.6188,0.000654,0.013178,-0.048019,0.000244,-0.013761,0.048337,-0.024262,-0.496184,-0.048468,-1.396658,-264.341311,1.535933,62.60207
1.6386,-0.000548,0.012758,-0.044679,-2e-05,-0.013194,0.048019,-0.023903,-0.496753,-0.046071,-1.471616,-264.346822,1.548459,62.588014
1.6589,-0.000588,0.012806,-0.045594,0.001117,-0.012721,0.044679,-0.023869,-0.496764,-0.045935,-1.471616,-264.346822,1.548459,62.588014
1.6783,-0.001692,0.012074,-0.044282,0.001171,-0.012766,0.045594,-0.023854,-0.497088,-0.044101,-1.546601,-264.351865,1.576438,62.574165
1.6982,-0.00171,0.012198,-0.043695,0.002225,-0.011988,0.044282,-0.024093,-0.497335,-0.044015,-1.546601,-264.351865,1.576438,62.574165
1.7185,-0.00186,0.01224,-0.042776,0.002241,-0.012112,0.043695,-0.024093,-0.497335,-0.044015,-1.546601,-264.351865,1.576438,62.574165
1.7386,-0.0025,0.011629,-0.042066,0.002382,-0.012149,0.042776,-0.023653,-0.497815,-0.040945,-1.621655,-264.356799,1.598712,62.56065
1.7587,-0.002504,0.011683,-0.042498,0.002986,-0.011513,0.042066,-0.023674,-0.497837,-0.040976,-1.621655,-264.356799,1.598712,62.56065
1.7792,-0.003299,0.011385,-0.041147,0.002998,-0.011566,0.042498,-0.024121,-0.498248,-0.041089,-1.69672,-264.361724,1.628493,62.547669
1.7985,-0.003839,0.011145,-0.040602,0.003765,-0.011239,0.041147,-0.024205,-0.498261,-0.040943,-1.69672,-264.361724,1.628493,62.547669
1.8185,-0.003518,0.011534,-0.039491,0.004288,-0.01098,0.040602,-0.024205,-0.498261,-0.040943,-1.69672,-264.361724,1.628493,62.547669
1.8384,-0.003518,0.011177,-0.038384,0.00397,-0.011386,0.039491,-0.023646,-0.49825,-0.039195,-1.621739,-264.361723,1.650896,62.544686
1.8588,-0.003633,0.011224,-0.039131,0.003944,-0.011034,0.038384,-0.023609,-0.498268,-0.039134,-1.621739,-264.361723,1.650896,62.544686
1.8785,-0.003863,0.011239,-0.040036,0.004069,-0.011074,0.039131,-0.023585,-0.498385,-0.039131,-1.546835,-264.361723,1.690074,62.544685
1.8984,-0.003316,0.011558,-0.039893,0.00431,-0.011076,0.040036,-0.02398,-0.498366,-0.039648,-1.546835,-264.361723,1.690074,62.544685
1.9188,-0.003477,0.011082,-0.039988,0.003774,-0.011416,0.039893,-0.02398,-0.498366,-0.039648,-1.546835,-264.361723,1.690074,62.544685
1.9394,-0.003903,0.011017,-0.04067,0.003917,-0.010934,0.039988,-0.023865,-0.49851,-0.039988,-1.471736,-264.361722,1.684703,62.544684
1.9588,-0.003418,0.011516,-0.040471,0.004348,-0.010849,0.04067,-0.023917,-0.498514,-0.040033,-1.471736,-264.361722,1.684703,62.544684
1.9786,-0.003565,0.011258,-0.041021,0.003881,-0.011368,0.040471,-0.024052,-0.498067,-0.040471,-1.396823,-264.361722,1.675885,62.544682
1.9991,-0.003898,0.011233,-0.040771,0.004024,-0.011102,0.041021,-0.024296,-0.498208,-0.040785,-1.396823,-264.361722,1.675885,62.544682
2.019,-0.003744,0.011467,-0.040991,0.004353,-0.011065,0.040771,-0.024296,-0.498208,-0.040785,-1.396823,-264.361722,1.675885,62.544682
2.0384,-0.003683,0.010967,-0.040547,0.004211,-0.011304,0.040991,-0.024643,-0.498105,-0.04099,-1.321743,-264.361721,1.692022,62.544681
2.0589,-0.003943,0.011043,-0.039702,0.004124,-0.010809,0.040547,-0.024624,-0.49814,-0.04096,-1.321743,-264.361721,1.692022,62.544681
2.0784,-0.003401,0.010715,-0.039005,0.004378,-0.010878,0.039702,-0.024185,-0.498555,-0.039702,-1.246725,-264.36172,1.691233,62.544679
2.0984,-0.003245,0.011547,-0.039464,0.003816,-0.010574,0.039005,-0.023671,-0.498752,-0.039302,-1.246725,-264.36172,1.691233,62.544679
2.1184,-0.003569,0.01116,-0.040914,0.003698,-0.01141,0.039464,-0.023671,-0.498752,-0.039302,-1.246725,-264.36172,1.691233,62.544679
2.1385,-0.003553,0.011039,-0.040444,0.004022,-0.011005,0.040914,-0.024429,-0.498413,-0.040914,-1.171732,-264.36172,1.686215,62.544678
2.1586,-0.003496,0.011076,-0.040823,0.003996,-0.010886,0.040444,-0.02441,-0.498423,-0.04088,-1.171732,-264.36172,1.686215,62.544678
2.1787,-0.003791,0.011375,-0.038974,0.003945,-0.010924,0.040823,-0.02431,-0.498499,-0.040823,-1.096748,-264.361719,1.674542,62.544676
2.1989,-0.003709,0.010852,-0.040772,0.004231,-0.011219,0.038974,-0.023944,-0.498351,-0.039778,-1.096748,-264.361719,1.674542,62.544676
2.2186,-0.003714,0.011235,-0.04088,0.004148,-0.010692,0.040772,-0.023944,-0.498351,-0.039778,-1.096748,-264.361719,1.674542,62.544676
2.2384,-0.003652,0.010739,-0.041435,0.00417,-0.011074,0.04088,-0.024557,-0.498339,-0.04088,-1.021695,-264.361719,1.682617,62.544675
2.2589,-0.00349,0.010869,-0.041575,0.004094,-0.010578,0.041435,-0.024575,-0.498378,-0.040925,-1.021695,-264.361719,1.682617,62.544675
2.279,-0.003811,0.011022,-0.0406,0.003939,-0.010714,0.041575,-0.024687,-0.498691,-0.041575,-0.946336,-264.361718,1.686816,62.544674
2.2988,-0.003535,0.011107,-0.039753,0.004255,-0.010858,0.0406,-0.024587,-0.498615,-0.04102,-0.946336,-264.361718,1.686816,62.544674
2.3184,-0.003606,0.010986,-0.040103,0.003974,-0.010958,0.039753,-0.024587,-0.498615,-0.04102,-0.946336,-264.361718,1.686816,62.544674
2.3386,-0.003734,0.010935,-0.040851,0.004043,-0.010833,0.040103,-0.024052,-0.498604,-0.040103,-0.871835,-264.361717,1.684385,62.544672
2.3587,-0.003588,0.01118,-0.041096,0.004177,-0.010774,0.040851,-0.024088,-0.498606,-0.040155,-0.871835,-264.361717,1.684385,62.544672
2.3791,-0.003455,0.011044,-0.042049,0.004045,-0.011023,0.041096,-0.024542,-0.49839,-0.041096,-0.796829,-264.361717,1.683094,62.544671
2.3984,-0.003703,0.011298,-0.038346,0.003916,-0.010889,0.042049,-0.024739,-0.498454,-0.041632,-0.796829,-264.361717,1.683094,62.544671
2.4185,-0.003624,0.011374,-0.039155,0.004133,-0.011147,0.038346,-0.024739,-0.498454,-0.041632,-0.796829,-264.361717,1.683094,62.544671
2.4386,-0.003713,0.011407,-0.040022,0.004067,-0.011224,0.039155,-0.023588,-0.498235,-0.039155,-0.721837,-264.361716,1.687194,62.544669
2.4584,-0.003688,0.01099,-0.04115,0.004166,-0.011249,0.040022,-0.023624,-0.498232,-0.039213,-0.721837,-264.361716,1.687194,62.544669
2.4783,-0.003345,0.011418,-0.039999,0.004137,-0.010829,0.04115,-0.024669,-0.498579,-0.04115,-0.646819,-264.361716,1.689809,62.544668
2.4984,-0.003494,0.011115,-0.040868,0.003799,-0.011275,0.039999,-0.024141,-0.498349,-0.040497,-0.646819,-264.361716,1.689809,62.544668
2.5187,-0.003806,0.011106,-0.039668,0.003946,-0.010963,0.040868,-0.024141,-0.498349,-0.040497,-0.646819,-264.361716,1.689809,62.544668
2.5383,-0.003398,0.011204,-0.039976,0.004243,-0.010946,0.039668,-0.024031,-0.498493,-0.039668,-0.571841,-264.361715,1.686995,62.544666
2.5584,-0.003553,0.011213,-0.042122,0.003843,-0.011059,0.039976,-0.024014,-0.498486,-0.039688,-0.571841,-264.361715,1.686995,62.544666
2.5785,-0.003893,0.011048,-0.040804,0.004022,-0.011053,0.042122,-0.025029,-0.498335,-0.042122,-0.496838,-264.361715,1.680193,62.544665
2.5984,-0.003682,0.010785,-0.040874,0.004341,-0.01088,0.040804,-0.02484,-0.498445,-0.041372,-0.496838,-264.361715,1.680193,62.544665
2.6184,-0.003599,0.011227,-0.039783,0.004119,-0.010626,0.040874,-0.02484,-0.498445,-0.041372,-0.496838,-264.361715,1.680193,62.544665
2.6384,-0.003573,0.011229,-0.040635,0.004043,-0.011075,0.039783,-0.023883,-0.498369,-0.039783,-0.421829,-264.361714,1.678701,62.544664
2.6589,-0.003722,0.011076,-0.039535,0.004026,-0.011075,0.040635,-0.023915,-0.498368,-0.03985,-0.421829,-264.361714,1.678701,62.544664
2.6785,-0.00349,0.011045,-0.041717,0.004156,-0.01092,0.039535,-0.023879,-0.498526,-0.039535,-0.346567,-264.361714,1.686026,62.544662
2.6985,-0.00349,0.011323,-0.039988,0.003948,-0.01089,0.041717,-0.024383,-0.498517,-0.040785,-0.346567,-264.361714,1.686026,62.544662
2.7187,-0.003502,0.010971,-0.038552,0.00394,-0.011174,0.039988,-0.024383,-0.498517,-0.040785,-0.346567,-264.361714,1.686026,62.544662
2.7385,-0.003352,0.01132,-0.039102,0.003922,-0.010828,0.038552,-0.023158,-0.49865,-0.038552,-0.271724,-264.361713,1.682496,62.544661
2.7592,-0.003558,0.010931,-0.041908,0.003792,-0.011181,0.039102,-0.023167,-0.498626,-0.038589,-0.271724,-264.361713,1.682496,62.544661
2.7783,-0.003738,0.011196,-0.040183,0.004013,-0.010772,0.041908,-0.024925,-0.498621,-0.041908,-0.196836,-264.361712,1.681019,62.544659
2.7985,-0.003822,0.010867,-0.03988,0.004185,-0.011037,0.040183,-0.024524,-0.49849,-0.040918,-0.196836,-264.361712,1.681019,62.544659
2.8185,-0.003287,0.011266,-0.039797,0.004252,-0.010706,0.03988,-0.024524,-0.49849,-0.040918,-0.196836,-264.361712,1.681019,62.544659
2.8387,-0.003536,0.011122,-0.039967,0.003733,-0.011127,0.039797,-0.023578,-0.49833,-0.039797,-0.121693,-264.361712,1.678516,62.544658
2.8587,-0.00377,0.011033,-0.040983,0.003977,-0.010972,0.039967,-0.023602,-0.49834,-0.039809,-0.121693,-264.361712,1.678516,62.544658
2.8789,-0.003768,0.01091,-0.041111,0.004219,-0.010869,0.040983,-0.024666,-0.498539,-0.040983,-0.046838,-264.361711,1.691474,62.544656
2.8993,-0.003814,0.01095,-0.038744,0.004213,-0.010746,0.041111,-0.024702,-0.498608,-0.041057,-0.046838,-264.361711,1.691474,62.544656
2.9185,-0.00373,0.011024,-0.03805,0.004235,-0.010794,0.038744,-0.024702,-0.498608,-0.041057,-0.046838,-264.361711,1.691474,62.544656
2.9385,-0.003521,0.011229,-0.039321,0.004146,-0.010874,0.03805,-0.02313,-0.498607,-0.03805,0.028311,-264.361711,1.682737,62.544655
2.9583,-0.003584,0.010932,-0.038694,0.00396,-0.011082,0.039321,-0.02316,-0.498592,-0.038135,0.028311,-264.361711,1.682737,62.544655
2.9785,-0.00371,0.011431,-0.041242,0.004005,-0.010785,0.038694,-0.023313,-0.498686,-0.038694,0.103168,-264.36171,1.693103,62.544654
2.9985,-0.003749,0.010943,-0.040286,0.004178,-0.011268,0.041242,-0.02413,-0.49837,-0.040155,0.103168,-264.36171,1.693103,62.544654
3.0186,-0.003595,0.010957,-0.03974,0.004187,-0.010783,0.040286,-0.02413,-0.49837,-0.040155,0.103168,-264.36171,1.693103,62.544654
3.0385,-0.003704,0.011012,-0.041702,0.004027,-0.010805,0.03974,-0.023856,-0.498641,-0.03974,0.17826,-264.36171,1.683153,62.544652
3.059,-0.003454,0.011317,-0.040116,0.00416,-0.010848,0.041702,-0.023933,-0.498634,-0.039876,0.17826,-264.36171,1.683153,62.544652
3.0786,-0.003495,0.010909,-0.041256,0.003906,-0.011169,0.040116,-0.023908,-0.498273,-0.040116,0.253151,-264.361709,1.688556,62.544651
3.0988,-0.003461,0.01133,-0.040741,0.003942,-0.010756,0.041256,-0.024264,-0.498493,-0.040769,0.253151,-264.361709,1.688556,62.544651
3.119,-0.003427,0.010815,-0.040583,0.00392,-0.011179,0.040741,-0.024264,-0.498493,-0.040769,0.253151,-264.361709,1.688556,62.544651
3.1384,-0.003532,0.011173,-0.040342,0.003863,-0.010667,0.040583,-0.024118,-0.498765,-0.040583,0.3283,-264.361708,1.684833,62.544649
3.1583,-0.003821,0.011083,-0.041276,0.003979,-0.011022,0.040342,-0.024117,-0.498742,-0.040568,0.3283,-264.361708,1.684833,62.544649
3.1787,-0.003647,0.011365,-0.040169,0.004275,-0.010916,0.041276,-0.024865,-0.498483,-0.041276,0.403168,-264.361708,1.679074,62.544648
3.1983,-0.003512,0.011295,-0.040618,0.0041,-0.01121,0.040169,-0.024442,-0.498334,-0.040641,0.403168,-264.361708,1.679074,62.544648
3.219,-0.003826,0.011444,-0.040356,0.003968,-0.011143,0.040618,-0.024442,-0.498334,-0.040641,0.403168,-264.361708,1.679074,62.544648
3.2384,-0.003748,0.010609,-0.039092,0.004285,-0.01128,0.040356,-0.024402,-0.498141,-0.040356,0.478299,-264.361707,1.681926,62.544646
3.2583,-0.003573,0.011357,-0.041041,0.00416,-0.010454,0.039092,-0.024359,-0.498192,-0.040281,0.478299,-264.361707,1.681926,62.544646
3.2784,-0.00345,0.011507,-0.041777,0.004036,-0.011201,0.041041,-0.024498,-0.498213,-0.041041,0.553188,-264.361707,1.680731,62.544645
3.2987,-0.00345,0.011083,-0.038261,0.003927,-0.011353,0.041777,-0.024642,-0.498119,-0.04146,0.553188,-264.361707,1.680731,62.544645
3.3189,-0.003909,0.011386,-0.040192,0.003872,-0.010943,0.038261,-0.024642,-0.498119,-0.04146,0.553188,-264.361707,1.680731,62.544645
3.3386,-0.003701,0.011147,-0.039573,0.004364,-0.011219,0.040192,-0.024402,-0.498203,-0.040191,0.628151,-264.361706,1.691387,62.544642
3.3588,-0.003657,0.011494,-0.039604,0.00414,-0.010992,0.039573,-0.024369,-0.498218,-0.040153,0.628151,-264.361706,1.691387,62.544642
3.3783,-0.003503,0.010969,-0.042746,0.00411,-0.01134,0.039604,-0.02385,-0.498107,-0.039602,0.703187,-264.361701,1.683164,62.544629
3.3986,-0.003707,0.010992,-0.040949,0.003968,-0.010809,0.042746,-0.024675,-0.498368,-0.041395,0.703187,-264.361701,1.683164,62.544629
3.4193,-0.003453,0.011108,-0.042342,0.004154,-0.010831,0.040949,-0.024675,-0.498368,-0.041395,0.703187,-264.361701,1.683164,62.544629
3.439,-0.003979,0.01097,-0.040808,0.00392,-0.010952,0.042342,-0.025039,-0.498438,-0.042334,0.778201,-264.361674,1.687985,62.544562
3.4592,-0.003562,0.011034,-0.039491,0.004424,-0.010798,0.040808,-0.025024,-0.498448,-0.04224,0.778201,-264.361674,1.687985,62.544562
3.4785,-0.003398,0.010856,-0.041017,0.003995,-0.010885,0.039491,-0.023694,-0.498575,-0.039471,0.853178,-264.361595,1.686192,62.544367
3.4986,-0.003358,0.011078,-0.040645,0.003841,-0.010707,0.041017,-0.024041,-0.498655,-0.04034,0.853178,-264.361595,1.686192,62.544367
3.5189,-0.003599,0.010848,-0.040926,0.003806,-0.010932,0.040645,-0.024041,-0.498655,-0.04034,0.853178,-264.361595,1.686192,62.544367
3.5385,-0.003772,0.011303,-0.041471,0.00404,-0.010691,0.040926,-0.024448,-0.49876,-0.040814,0.92827,-264.361245,1.694001,62.543516
3.5589,-0.003914,0.010873,-0.039773,0.004237,-0.011137,0.041471,-0.024476,-0.49873,-0.040852,0.92827,-264.361245,1.694001,62.543516
3.5789,-0.003592,0.010943,-0.039461,0.004343,-0.010709,0.039773,-0.024173,-0.498769,-0.039623,1.003152,-264.360673,1.676829,62.542088
3.5985,-0.003566,0.010606,-0.039844,0.004021,-0.010793,0.039461,-0.023906,-0.498712,-0.039511,1.003152,-264.360673,1.676829,62.542088
3.6186,-0.0037,0.011138,-0.040215,0.003986,-0.010455,0.039844,-0.023906,-0.498712,-0.039511,1.003152,-264.360673,1.676829,62.542088
3.6384,-0.004337,0.011009,-0.039188,0.004145,-0.010981,0.040215,-0.024134,-0.498599,-0.039678,1.078296,-264.358978,1.686476,62.538165
3.6584,-0.004237,0.010633,-0.039372,0.004765,-0.010831,0.039188,-0.024144,-0.498602,-0.039632,1.078296,-264.358978,1.686476,62.538165
3.6787,-0.004041,0.010407,-0.038485,0.004652,-0.010458,0.039372,-0.024229,-0.499161,-0.038667,1.153154,-264.356193,1.684877,62.531731
3.6984,-0.004363,0.010778,-0.039107,0.004439,-0.010244,0.038485,-0.023896,-0.499216,-0.038473,1.153154,-264.356193,1.684877,62.531731
3.7184,-0.004323,0.010466,-0.038671,0.004781,-0.010599,0.039107,-0.023896,-0.499216,-0.038473,1.153154,-264.356193,1.684877,62.531731
3.7387,-0.004697,0.010907,-0.038653,0.004725,-0.010291,0.038671,-0.02387,-0.499404,-0.037312,1.222038,-264.351071,1.707005,62.522813
3.7588,-0.004964,0.010613,-0.038094,0.005115,-0.010717,0.038653,-0.023902,-0.499363,-0.037368,1.222038,-264.351071,1.707005,62.522813
3.7789,-0.005736,0.009678,-0.034786,0.005365,-0.010416,0.038094,-0.02423,-0.499314,-0.036776,1.225372,-264.345417,1.708558,62.511373
3.7985,-0.005665,0.009988,-0.036309,0.006069,-0.009473,0.034786,-0.023778,-0.499751,-0.035474,1.225372,-264.345417,1.708558,62.511373
3.8188,-0.005412,0.010082,-0.037582,0.006024,-0.009776,0.036309,-0.023778,-0.499751,-0.035474,1.225372,-264.345417,1.708558,62.511373
3.8387,-0.006291,0.009258,-0.03427,0.005787,-0.009872,0.037582,-0.02435,-0.500077,-0.035739,1.193035,-264.339948,1.718725,62.497686
3.859,-0.006481,0.009821,-0.034918,0.006605,-0.009037,0.03427,-0.024294,-0.500124,-0.03556,1.193035,-264.339948,1.718725,62.497686
3.8784,-0.006361,0.009001,-0.033471,0.00682,-0.009588,0.034918,-0.024279,-0.50004,-0.034637,1.118549,-264.339947,1.643399,62.494115
3.8984,-0.006079,0.009182,-0.033424,0.006659,-0.008784,0.033471,-0.023791,-0.500448,-0.033933,1.118549,-264.339947,1.643399,62.494115
3.9183,-0.006844,0.009408,-0.03374,0.006382,-0.008974,0.033424,-0.023791,-0.500448,-0.033933,1.118549,-264.339947,1.643399,62.494115
3.9384,-0.006738,0.009543,-0.031879,0.007157,-0.009172,0.03374,-0.024048,-0.500302,-0.03374,1.063891,-264.339947,1.568703,62.494117
3.9589,-0.006558,0.009211,-0.032801,0.007039,-0.009323,0.031879,-0.023978,-0.500295,-0.033616,1.063891,-264.339947,1.568703,62.494117
3.9787,-0.006456,0.00936,-0.033361,0.006856,-0.008991,0.032801,-0.023283,-0.500515,-0.032801,1.061921,-264.339946,1.493847,62.494118
3.9987,-0.006593,0.009342,-0.033069,0.006765,-0.00914,0.033361,-0.023387,-0.500425,-0.033117,1.061921,-264.339946,1.493847,62.494118
4.0184,-0.006627,0.009507,-0.031954,0.006899,-0.009119,0.033069,-0.023387,-0.500425,-0.033117,1.061921,-264.339946,1.493847,62.494118
4.0384,-0.00594,0.008953,-0.03369,0.006927,-0.00929,0.031954,-0.022921,-0.500233,-0.031954,0.986918,-264.339946,1.418844,62.494119
4.0588,-0.006617,0.009522,-0.033349,0.006238,-0.008747,0.03369,-0.022934,-0.500268,-0.032072,0.986918,-264.339946,1.418844,62.494119
4.0784,-0.006783,0.009301,-0.032329,0.006931,-0.009296,0.033349,-0.023622,-0.500195,-0.033349,1.01382,-264.339945,1.343854,62.49412
4.0984,-0.006284,0.009202,-0.03332,0.00708,-0.009077,0.032329,-0.023422,-0.500329,-0.032775,1.01382,-264.339945,1.343854,62.49412
4.1189,-0.006371,0.00951,-0.03191,0.006587,-0.008988,0.03332,-0.023422,-0.500329,-0.032775,1.01382,-264.339945,1.343854,62.49412
4.1384,-0.006331,0.009381,-0.032123,0.006671,-0.009301,0.03191,-0.022642,-0.500231,-0.03191,1.08548,-264.339945,1.268756,62.494121
4.1594,-0.006516,0.009119,-0.033776,0.006629,-0.009173,0.032123,-0.022647,-0.500239,-0.031924,1.08548,-264.339945,1.268756,62.494121
4.1791,-0.006648,0.00918,-0.033845,0.00682,-0.008893,0.033776,-0.023739,-0.500591,-0.033776,1.045453,-264.339944,1.193842,62.494122
4.1991,-0.006387,0.009493,-0.032787,0.006955,-0.00895,0.033845,-0.023834,-0.500555,-0.033815,1.045453,-264.339944,1.193842,62.494122
4.2192,-0.006452,0.009158,-0.034732,0.006695,-0.009278,0.032787,-0.023834,-0.500555,-0.033815,1.045453,-264.339944,1.193842,62.494122
4.2385,-0.006327,0.008971,-0.034075,0.006766,-0.008928,0.034732,-0.024162,-0.500535,-0.034732,1.005356,-264.339944,1.11871,62.494124
4.259,-0.006198,0.009315,-0.033558,0.006629,-0.008751,0.034075,-0.02413,-0.500548,-0.034687,1.005356,-264.339944,1.11871,62.494124
4.2789,-0.006253,0.009083,-0.030686,0.006507,-0.009102,0.033558,-0.02331,-0.500398,-0.033558,1.013653,-264.339943,1.043686,62.494125
4.2986,-0.006627,0.00929,-0.032791,0.006529,-0.008887,0.030686,-0.022511,-0.500556,-0.031931,1.013653,-264.339943,1.043686,62.494125
4.3186,-0.006293,0.009584,-0.033597,0.006928,-0.009067,0.032791,-0.022511,-0.500556,-0.031931,1.013653,-264.339943,1.043686,62.494125
4.3391,-0.006265,0.009676,-0.033091,0.006612,-0.009367,0.033597,-0.023424,-0.500128,-0.033597,1.068248,-264.339943,0.96875,62.494126
4.359,-0.0064,0.009725,-0.031677,0.006582,-0.009463,0.033091,-0.023406,-0.500123,-0.033564,1.068248,-264.339943,0.96875,62.494126
4.3787,-0.006128,0.009233,-0.034342,0.006705,-0.009517,0.031677,-0.022553,-0.500019,-0.031677,1.007084,-264.339942,0.893838,62.494127
4.3987,-0.006196,0.009368,-0.031584,0.006441,-0.009017,0.034342,-0.023168,-0.500273,-0.033186,1.007084,-264.339942,0.893838,62.494127
4.4186,-0.0067,0.009275,-0.034957,0.006489,-0.009168,0.031584,-0.023168,-0.500273,-0.033186,1.007084,-264.339942,0.893838,62.494127
4.439,-0.006594,0.009321,-0.032644,0.00702,-0.009035,0.034957,-0.024525,-0.500413,-0.034957,1.021254,-264.339942,0.818843,62.494128
4.4584,-0.006289,0.009449,-0.033954,0.006894,-0.009101,0.032644,-0.024446,-0.500413,-0.034816,1.021254,-264.339942,0.818843,62.494128
4.4784,-0.006354,0.009233,-0.03285,0.006607,-0.00923,0.033954,-0.023603,-0.500257,-0.033954,1.000702,-264.339941,0.743865,62.494129
4.4983,-0.005813,0.009498,-0.03317,0.006654,-0.009019,0.03285,-0.023319,-0.500391,-0.033325,1.000702,-264.339941,0.743865,62.494129
4.5185,-0.006603,0.009477,-0.0315,0.006125,-0.0093,0.03317,-0.023319,-0.500391,-0.033325,1.000702,-264.339941,0.743865,62.494129
4.5383,-0.006747,0.009315,-0.033026,0.006899,-0.009264,0.0315,-0.022665,-0.50027,-0.0315,1.004175,-264.339941,0.668737,62.494131
4.5584,-0.006323,0.009606,-0.034136,0.007051,-0.009087,0.033026,-0.022725,-0.500279,-0.031599,1.004175,-264.339941,0.668737,62.494131
4.5783,-0.006271,0.009188,-0.034462,0.006647,-0.009385,0.034136,-0.023729,-0.500097,-0.034136,1.061129,-264.33994,0.593834,62.494132
4.5988,-0.006174,0.009321,-0.032555,0.006584,-0.008967,0.034462,-0.023793,-0.500331,-0.034321,1.061129,-264.33994,0.593834,62.494132
4.6189,-0.006171,0.009376,-0.032692,0.006474,-0.009115,0.032555,-0.023793,-0.500331,-0.034321,1.061129,-264.33994,0.593834,62.494132
4.6386,-0.006353,0.0092,-0.03238,0.006474,-0.009169,0.032692,-0.022841,-0.500352,-0.032692,1.004194,-264.33994,0.518843,62.494133
4.659,-0.006357,0.009057,-0.033122,0.006647,-0.008989,0.03238,-0.022843,-0.500363,-0.032673,1.004194,-264.33994,0.518843,62.494133
4.6785,-0.006468,0.009164,-0.032682,0.006654,-0.008842,0.033122,-0.023247,-0.500663,-0.033122,1.029465,-264.339939,0.443838,62.494134
4.6986,-0.006705,0.009346,-0.032935,0.006764,-0.008948,0.032682,-0.023182,-0.500607,-0.032873,1.029465,-264.339939,0.443838,62.494134
4.7185,-0.006479,0.009281,-0.03438,0.007009,-0.00912,0.032935,-0.023182,-0.500607,-0.032873,1.029465,-264.339939,0.443838,62.494134
4.7387,-0.006528,0.009176,-0.030742,0.006794,-0.009052,0.03438,-0.024009,-0.500418,-0.03438,1.018505,-264.339939,0.368846,62.494135
4.7593,-0.006611,0.009448,-0.03139,0.006807,-0.008971,0.030742,-0.023886,-0.500429,-0.034131,1.018505,-264.339939,0.368846,62.494135
4.7797,-0.006305,0.009412,-0.032711,0.006904,-0.009236,0.03139,-0.022617,-0.500301,-0.03139,1.003289,-264.339938,0.293837,62.494136
4.7994,-0.006318,0.009466,-0.032626,0.00661,-0.009201,0.032711,-0.02282,-0.500309,-0.032121,1.003289,-264.339938,0.293837,62.494136
4.8193,-0.006477,0.009048,-0.031653,0.006623,-0.009255,0.032626,-0.02282,-0.500309,-0.032121,1.003289,-264.339938,0.293837,62.494136
4.8387,-0.005942,0.009411,-0.033406,0.006761,-0.008839,0.031653,-0.022618,-0.500696,-0.031653,0.963964,-264.339938,0.218827,62.494138
4.859,-0.006745,0.009374,-0.034251,0.006253,-0.009208,0.033406,-0.022641,-0.500671,-0.031768,0.963964,-264.339938,0.218827,62.494138
4.8788,-0.006439,0.00933,-0.033691,0.007062,-0.009138,0.034251,-0.02421,-0.500327,-0.034251,1.015356,-264.339938,0.143829,62.494139
4.8989,-0.006363,0.008766,-0.033097,0.00675,-0.009108,0.033691,-0.023875,-0.500357,-0.033934,1.015356,-264.339938,0.143829,62.494139
4.9185,-0.00627,0.009521,-0.03205,0.00665,-0.008551,0.033097,-0.023875,-0.500357,-0.033934,1.015356,-264.339938,0.143829,62.494139
4.9387,-0.006528,0.009558,-0.033727,0.006571,-0.009315,0.03205,-0.022612,-0.500217,-0.03205,1.061395,-264.339937,0.06883,62.49414
4.9587,-0.006398,0.009652,-0.03288,0.006847,-0.009333,0.033727,-0.022688,-0.500213,-0.032164,1.061395,-264.339937,0.06883,62.49414
4.9784,-0.006144,0.0093,-0.031496,0.006712,-0.009436,0.03288,-0.023164,-0.500072,-0.03288,1.052618,-264.339936,-0.006161,62.494141
4.9985,-0.006145,0.009488,-0.034727,0.006434,-0.009102,0.031496,-0.022618,-0.500286,-0.032092,1.052618,-264.339936,-0.006161,62.494141
5.0185,-0.006887,0.009665,-0.034637,0.006471,-0.009269,0.034727,-0.022618,-0.500286,-0.032092,1.052618,-264.339936,-0.006161,62.494141
5.0388,-0.006293,0.009086,-0.033058,0.007218,-0.009421,0.034637,-0.024548,-0.500029,-0.034637,1.024688,-264.339936,-0.08118,62.494142
5.0589,-0.006237,0.009625,-0.033003,0.00659,-0.008873,0.033058,-0.024456,-0.500069,-0.034533,1.024688,-264.339936,-0.08118,62.494142
5.0787,-0.005843,0.009526,-0.032315,0.006551,-0.009414,0.033003,-0.023065,-0.500097,-0.033003,1.074184,-264.339935,-0.15616,62.494143
5.0985,-0.006278,0.009212,-0.032157,0.006147,-0.009332,0.032315,-0.02264,-0.500161,-0.03261,1.074184,-264.339935,-0.15616,62.494143
5.1187,-0.006589,0.009435,-0.033443,0.006571,-0.009006,0.032157,-0.02264,-0.500161,-0.03261,1.074184,-264.339935,-0.15616,62.494143
5.1384,-0.006442,0.009179,-0.033094,0.006901,-0.009209,0.033443,-0.023641,-0.50028,-0.033443,1.043498,-264.339935,-0.231187,62.494145
5.1585,-0.006326,0.009279,-0.033179,0.006742,-0.008961,0.033094,-0.023619,-0.500298,-0.033418,1.043498,-264.339935,-0.231187,62.494145
5.1785,-0.006313,0.009601,-0.034031,0.00663,-0.009064,0.033179,-0.023244,-0.50044,-0.033179,1.017333,-264.339934,-0.306155,62.494146
5.1985,-0.006596,0.009448,-0.032988,0.006636,-0.009381,0.034031,-0.023486,-0.500247,-0.033668,1.017333,-264.339934,-0.306155,62.494146
5.2184,-0.006537,0.009625,-0.03271,0.006904,-0.009225,0.032988,-0.023486,-0.500247,-0.033668,1.017333,-264.339934,-0.306155,62.494146
5.2384,-0.006436,0.009346,-0.033829,0.006849,-0.009406,0.03271,-0.023216,-0.500102,-0.03271,1.03094,-264.339934,-0.381276,62.494147
5.2593,-0.006448,0.009338,-0.032739,0.006749,-0.009123,0.033829,-0.023251,-0.500121,-0.032791,1.03094,-264.339934,-0.381276,62.494147
5.279,-0.006167,0.008867,-0.033554,0.00675,-0.009122,0.032739,-0.023142,-0.500388,-0.032739,1.007124,-264.339933,-0.456302,62.494148
5.2987,-0.006298,0.009163,-0.033582,0.006461,-0.008655,0.033554,-0.023219,-0.50065,-0.033205,1.007124,-264.339933,-0.456302,62.494148
5.3188,-0.00635,0.009286,-0.032003,0.006602,-0.008947,0.033582,-0.023219,-0.50065,-0.033205,1.007124,-264.339933,-0.456302,62.494148
5.3385,-0.006251,0.009289,-0.033523,0.006644,-0.009079,0.032003,-0.022669,-0.500452,-0.032003,1.04155,-264.339933,-0.531277,62.494149
5.3591,-0.006515,0.009459,-0.032668,0.006559,-0.009074,0.033523,-0.022714,-0.500451,-0.032104,1.04155,-264.339933,-0.531277,62.494149
5.3788,-0.006513,0.009134,-0.033647,0.006821,-0.009241,0.032668,-0.023173,-0.500269,-0.032668,1.052019,-264.339932,-0.606168,62.494151
5.3984,-0.00637,0.009502,-0.032998,0.006816,-0.00891,0.033647,-0.023456,-0.500445,-0.033227,1.052019,-264.339932,-0.606168,62.494151
5.4183,-0.006046,0.009153,-0.032895,0.00668,-0.009286,0.032998,-0.023456,-0.500445,-0.033227,1.052019,-264.339932,-0.606168,62.494151
5.4385,-0.006496,0.009122,-0.032779,0.006344,-0.00895,0.032895,-0.022819,-0.500571,-0.032895,1.048698,-264.339932,-0.681306,62.494152
5.4584,-0.006594,0.00941,-0.032329,0.006791,-0.008904,0.032779,-0.022846,-0.500573,-0.032887,1.048698,-264.339932,-0.681306,62.494152
5.4786,-0.006319,0.009553,-0.033786,0.006895,-0.009192,0.032329,-0.023079,-0.500323,-0.032329,1.019637,-264.339929,-0.756189,62.494159
5.4984,-0.006577,0.00896,-0.033814,0.006638,-0.009335,0.033786,-0.023346,-0.500228,-0.03316,1.019637,-264.339929,-0.756189,62.494159
5.5188,-0.006377,0.009405,-0.032927,0.006876,-0.008733,0.033814,-0.023346,-0.500228,-0.03316,1.019637,-264.339929,-0.756189,62.494159
5.5384,-0.006669,0.009148,-0.033056,0.006683,-0.00919,0.032927,-0.023165,-0.50032,-0.032923,1.022368,-264.339912,-0.831316,62.494196
5.5586,-0.006269,0.009354,-0.033015,0.006968,-0.008922,0.033056,-0.023195,-0.500341,-0.032934,1.022368,-264.339912,-0.831316,62.494196
5.5783,-0.006407,0.009248,-0.033578,0.006574,-0.009142,0.033015,-0.023097,-0.500372,-0.033001,1.047551,-264.339842,-0.906632,62.494351
5.5985,-0.006277,0.009569,-0.034296,0.006714,-0.009028,0.033578,-0.023344,-0.500425,-0.03333,1.047551,-264.339842,-0.906632,62.494351
5.6191,-0.006146,0.009277,-0.034553,0.006602,-0.009348,0.034296,-0.023344,-0.500425,-0.03333,1.047551,-264.339842,-0.906632,62.494351
5.6386,-0.006384,0.00899,-0.034357,0.006463,-0.009059,0.034553,-0.023738,-0.500435,-0.034485,1.016919,-264.339593,-0.981287,62.494913
5.6589,-0.006449,0.00916,-0.03207,0.006689,-0.008766,0.034357,-0.023749,-0.500456,-0.034474,1.016919,-264.339593,-0.981287,62.494913
5.6784,-0.006538,0.009216,-0.034093,0.00674,-0.008948,0.03207,-0.022762,-0.500608,-0.031951,1.053341,-264.339071,-1.056246,62.496126
5.6984,-0.00642,0.009436,-0.033824,0.006848,-0.008987,0.034093,-0.023421,-0.500543,-0.033163,1.053341,-264.339071,-1.056246,62.496126
5.7185,-0.006792,0.009298,-0.03387,0.006736,-0.009214,0.033824,-0.023421,-0.500543,-0.033163,1.053341,-264.339071,-1.056246,62.496126
5.7385,-0.006827,0.009509,-0.031581,0.007103,-0.009062,0.03387,-0.023948,-0.500505,-0.033481,1.0699,-264.337702,-1.131283,62.499122
5.7588,-0.006303,0.008955,-0.03157,0.007124,-0.009289,0.031581,-0.023875,-0.500489,-0.033339,1.0699,-264.337702,-1.131283,62.499122
5.7789,-0.00695,0.009109,-0.030533,0.006583,-0.008751,0.03157,-0.022251,-0.500943,-0.030998,1.03881,-264.335264,-1.206163,62.504628
5.7984,-0.007031,0.008637,-0.032001,0.007225,-0.008893,0.030533,-0.022384,-0.500798,-0.030661,1.03881,-264.335264,-1.206163,62.504628
5.8185,-0.007009,0.008975,-0.032527,0.007304,-0.008407,0.032001,-0.022384,-0.500798,-0.030661,1.03881,-264.335264,-1.206163,62.504628
5.8383,-0.007259,0.008491,-0.029193,0.007297,-0.008742,0.032527,-0.023346,-0.501057,-0.031483,0.963673,-264.331822,-1.281299,62.512616
5.8585,-0.00739,0.008442,-0.030321,0.007504,-0.008275,0.029193,-0.02326,-0.501081,-0.031304,0.963673,-264.331822,-1.281299,62.512616
5.8789,-0.007531,0.00832,-0.029529,0.007643,-0.008214,0.030321,-0.022594,-0.501614,-0.029171,0.990349,-264.326651,-1.315212,62.523113
5.8986,-0.007433,0.00833,-0.027687,0.007773,-0.008094,0.029529,-0.022558,-0.501562,-0.029229,0.990349,-264.326651,-1.315212,62.523113
5.9186,-0.00737,0.00822,-0.029667,0.007661,-0.008121,0.027687,-0.022558,-0.501562,-0.029229,0.990349,-264.326651,-1.315212,62.523113
5.9384,-0.007857,0.007985,-0.028143,0.007611,-0.007998,0.029667,-0.022188,-0.501917,-0.028412,0.915341,-264.322367,-1.290903,62.532691
5.9586,-0.007686,0.007869,-0.026514,0.008078,-0.007761,0.028143,-0.022182,-0.50192,-0.028361,0.915341,-264.322367,-1.290903,62.532691
5.9787,-0.008278,0.007447,-0.026183,0.007892,-0.007662,0.026514,-0.020937,-0.502253,-0.025512,0.853856,-264.317998,-1.273779,62.542501
5.9984,-0.00799,0.007787,-0.027375,0.00847,-0.007227,0.026183,-0.021297,-0.502363,-0.025767,0.853856,-264.317998,-1.273779,62.542501
6.0185,-0.008202,0.007637,-0.027369,0.008201,-0.007566,0.027375,-0.021297,-0.502363,-0.025767,0.853856,-264.317998,-1.273779,62.542501
6.0389,-0.008145,0.007318,-0.024701,0.008408,-0.00741,0.027369,-0.021778,-0.502558,-0.026008,0.862334,-264.313058,-1.257655,62.552935
6.0589,-0.008166,0.007418,-0.024663,0.008323,-0.007114,0.024701,-0.021696,-0.502566,-0.025881,0.862334,-264.313058,-1.257655,62.552935
6.0789,-0.00838,0.006989,-0.022769,0.008346,-0.007214,0.024663,-0.020436,-0.502724,-0.023616,0.840259,-264.308184,-1.245136,62.563099
6.0985,-0.009191,0.007159,-0.022579,0.008537,-0.006796,0.022769,-0.020142,-0.50285,-0.022998,0.840259,-264.308184,-1.245136,62.563099
6.119,-0.008562,0.006967,-0.024082,0.00935,-0.006949,0.022579,-0.020142,-0.50285,-0.022998,0.840259,-264.308184,-1.245136,62.563099
6.1384,-0.009127,0.006386,-0.022505,0.008728,-0.006758,0.024082,-0.020489,-0.503203,-0.023009,0.765113,-264.30405,-1.212116,62.571605
6.159,-0.008845,0.006405,-0.022925,0.009269,-0.006179,0.022505,-0.020488,-0.503235,-0.022937,0.765113,-264.30405,-1.212116,62.571605
6.1786,-0.009311,0.006456,-0.02192,0.00899,-0.0062,0.022925,-0.020293,-0.503647,-0.022303,0.689962,-264.300808,-1.147238,62.577972
6.1986,-0.009382,0.006358,-0.021568,0.00945,-0.00625,0.02192,-0.020373,-0.503544,-0.022007,0.689962,-264.300808,-1.147238,62.577972
6.2184,-0.009112,0.006469,-0.023499,0.009517,-0.006154,0.021568,-0.020373,-0.503544,-0.022007,0.689962,-264.300808,-1.147238,62.577972
6.2384,-0.009317,0.005565,-0.020775,0.009261,-0.006253,0.023499,-0.020652,-0.5037,-0.022406,0.684597,-264.296009,-1.135377,62.586785
6.2583,-0.008983,0.005983,-0.020165,0.00943,-0.00537,0.020775,-0.020579,-0.50376,-0.022241,0.684597,-264.296009,-1.135377,62.586785
6.2788,-0.008888,0.005714,-0.019119,0.009102,-0.0058,0.020165,-0.018923,-0.504146,-0.019376,0.635392,-264.291519,-1.113215,62.594964
6.2989,-0.009731,0.005769,-0.019951,0.008995,-0.005543,0.019119,-0.018717,-0.504202,-0.019129,0.635392,-264.291519,-1.113215,62.594964
6.3185,-0.008916,0.005609,-0.021149,0.009844,-0.005574,0.019951,-0.018717,-0.504202,-0.019129,0.635392,-264.291519,-1.113215,62.594964
6.3384,-0.009216,0.00538,-0.019789,0.009032,-0.005419,0.021149,-0.019255,-0.504543,-0.020155,0.659957,-264.286832,-1.089555,62.602964
6.3585,-0.009344,0.005447,-0.019519,0.00932,-0.005196,0.019789,-0.019247,-0.504548,-0.020107,0.659957,-264.286832,-1.089555,62.602964
6.3788,-0.009587,0.005148,-0.01771,0.009449,-0.005263,0.019519,-0.018953,-0.504661,-0.01881,0.591392,-264.282477,-1.064653,62.610422
6.3983,-0.009169,0.005055,-0.018779,0.009677,-0.004977,0.01771,-0.01872,-0.50475,-0.018097,0.591392,-264.282477,-1.064653,62.610422
6.4184,-0.009344,0.0056,-0.018181,0.009262,-0.004882,0.018779,-0.01872,-0.50475,-0.018097,0.591392,-264.282477,-1.064653,62.610422
6.439,-0.009677,0.005127,-0.017514,0.009445,-0.005429,0.018181,-0.018183,-0.504567,-0.017252,0.636569,-264.277999,-1.076216,62.618008
6.459,-0.008967,0.005248,-0.016341,0.009766,-0.004957,0.017514,-0.018201,-0.50459,-0.017245,0.636569,-264.277999,-1.076216,62.618008
6.4789,-0.008979,0.004312,-0.017106,0.009052,-0.005101,0.016341,-0.016949,-0.504876,-0.015623,0.618238,-264.273508,-1.055416,62.625433
6.4986,-0.009377,0.004831,-0.016665,0.009052,-0.005101,0.016341,-0.017332,-0.505318,-0.016373,0.618238,-264.273508,-1.055416,62.625433
6.5186,-0.009347,0.0046,-0.014477,9e-05,-4.4e-05,0.0,-0.017332,-0.505318,-0.016373,0.618238,-264.273508,-1.055416,62.625433
6.5387,-0.00929,0.004374,-0.014911,9e-05,-4.4e-05,0.0,-0.016326,-0.505558,-0.013741,0.543234,-264.269608,-1.01303,62.631786
6.5588,-0.009204,0.004306,-0.013951,9e-05,-4.4e-05,0.0,-0.016355,-0.505564,-0.013803,0.543234,-264.269608,-1.01303,62.631786
6.5783,-0.009469,0.00453,-0.015264,9e-05,-4.4e-05,0.0,-0.016319,-0.505644,-0.013951,0.468253,-264.269608,-0.93805,62.631786
6.5985,-0.009456,0.004636,-0.015503,9e-05,-4.4e-05,0.0,-0.016854,-0.50551,-0.014702,0.468253,-264.269608,-0.93805,62.631786
6.6185,-0.009585,0.004336,-0.015518,9e-05,-4.4e-05,0.0,-0.016854,-0.50551,-0.014702,0.468253,-264.269608,-0.93805,62.631786
6.6383,-0.009269,0.004255,-0.015506,9e-05,-4.4e-05,0.0,-0.017499,-0.505603,-0.015518,0.393065,-264.269608,-0.862862,62.631786
6.6588,-0.009213,0.004496,-0.016003,9e-05,-4.4e-05,0.0,-0.017477,-0.505609,-0.015517,0.393065,-264.269608,-0.862862,62.631786
6.6784,-0.009569,0.004734,-0.015431,9e-05,-4.4e-05,0.0,-0.017374,-0.505439,-0.016003,0.318127,-264.269608,-0.787924,62.631786
6.6985,-0.008824,0.004583,-0.01749,9e-05,-4.4e-05,0.0,-0.01741,-0.505306,-0.015678,0.318127,-264.269608,-0.787924,62.631786
6.7184,-0.008888,0.004346,-0.015115,2e-06,-1e-06,3e-06,-0.01741,-0.505306,-0.015678,0.318127,-264.269608,-0.787924,62.631786
6.7385,-0.00942,0.004553,-0.016286,0.00139,-0.000687,0.002449,-0.016597,-0.505596,-0.015115,0.243258,-264.269608,-0.713055,62.631786
6.7584,-0.00909,0.004508,-0.015437,0.002696,-0.001333,0.004751,-0.016674,-0.505581,-0.015195,0.243258,-264.269608,-0.713055,62.631786
6.7783,-0.008981,0.004732,-0.014483,0.003939,-0.001947,0.006942,-0.016962,-0.505432,-0.015437,0.318265,-264.269608,-0.788062,62.631786
6.7984,-0.009273,0.004608,-0.015157,0.005114,-0.002528,0.009013,-0.016622,-0.505307,-0.014891,0.318265,-264.269608,-0.788062,62.631786
6.8184,-0.008988,0.004524,-0.015336,0.006206,-0.003068,0.010937,-0.016622,-0.505307,-0.014891,0.318265,-264.269608,-0.788062,62.631786
6.8383,-0.008982,0.004598,-0.015493,0.007244,-0.003581,0.012767,-0.016775,-0.505432,-0.01529,0.39337,-264.269317,-0.863167,62.632255
6.8588,-0.009522,0.00456,-0.01623,0.008192,-0.00405,0.014438,-0.016781,-0.505426,-0.015303,0.39337,-264.269317,-0.863167,62.632255
6.8788,-0.009393,0.004364,-0.014847,0.009079,-0.004488,0.016001,-0.01766,-0.505439,-0.016012,0.468264,-264.267745,-0.938061,62.634783
6.8986,-0.009069,0.004631,-0.013758,0.009893,-0.00489,0.017435,-0.017248,-0.505527,-0.015325,0.468264,-264.267745,-0.938061,62.634783
6.9185,-0.008958,0.004479,-0.014068,0.010638,-0.005258,0.018748,-0.017248,-0.505527,-0.015325,0.468264,-264.267745,-0.938061,62.634783
6.9387,-0.009156,0.003977,-0.01482,0.011312,-0.005592,0.019936,-0.015795,-0.505631,-0.013479,0.52711,-264.264404,-1.003844,62.639803
6.9591,-0.008934,0.004004,-0.014099,0.011915,-0.00589,0.020998,-0.015848,-0.505657,-0.013553,0.52711,-264.264404,-1.003844,62.639803
6.9786,-0.009384,0.004279,-0.013448,0.012448,-0.006153,0.021938,-0.015723,-0.506139,-0.013395,0.52711,-264.259481,-1.003844,62.647327
6.9984,-0.009383,0.004058,-0.013148,0.012911,-0.006382,0.022753,-0.015964,-0.505904,-0.013337,0.52711,-264.259481,-1.003844,62.647327
7.0187,-0.009033,0.003992,-0.012476,0.013297,-0.006573,0.023434,-0.015964,-0.505904,-0.013337,0.52711,-264.259481,-1.003844,62.647327
7.0384,-0.00893,0.003417,-0.013087,0.013618,-0.006731,0.023999,-0.01482,-0.506262,-0.011455,0.52711,-264.253957,-1.003844,62.656215
7.0589,-0.008624,0.003542,-0.01309,0.013865,-0.006853,0.024434,-0.014862,-0.506291,-0.011548,0.52711,-264.253957,-1.003844,62.656215
7.0783,-0.009039,0.003181,-0.010498,0.014042,-0.006941,0.024747,-0.01479,-0.506674,-0.012187,0.52711,-264.247805,-1.003844,62.666117
7.0983,-0.008949,0.003364,-0.010418,0.014149,-0.006994,0.024935,-0.014498,-0.506774,-0.011107,0.52711,-264.247805,-1.003844,62.666117
7.1184,-0.008997,0.003454,-0.011337,0.014184,-0.007011,0.024997,-0.014498,-0.506774,-0.011107,0.52711,-264.247805,-1.003844,62.666117
7.1384,-0.008983,0.003179,-0.010949,0.014148,-0.006994,0.024934,-0.014108,-0.506853,-0.010149,0.52711,-264.241397,-1.003844,62.676429
7.1586,-0.008995,0.003304,-0.009692,0.014042,-0.006941,0.024746,-0.014121,-0.506858,-0.010171,0.52711,-264.241397,-1.003844,62.676429
7.1784,-0.00922,0.002804,-0.008254,0.013865,-0.006853,0.024434,-0.013393,-0.506948,-0.008726,0.52711,-264.234824,-1.003844,62.687006
7.1986,-0.009002,0.002672,-0.009291,0.013617,-0.006731,0.023997,-0.013344,-0.507114,-0.008334,0.52711,-264.234824,-1.003844,62.687006
7.2184,-0.008983,0.00306,-0.010093,0.013297,-0.006573,0.023434,-0.013344,-0.507114,-0.008334,0.52711,-264.234824,-1.003844,62.687006
7.2387,-0.008645,0.002173,-0.007438,0.012907,-0.00638,0.022747,-0.013451,-0.507258,-0.00889,0.52711,-264.228333,-1.003844,62.697451
7.2593,-0.008636,0.002356,-0.006611,0.012446,-0.006152,0.021934,-0.013365,-0.507304,-0.008762,0.52711,-264.228333,-1.003844,62.697451
7.2786,-0.008977,0.001993,-0.006311,0.011914,-0.005889,0.020997,-0.011495,-0.50789,-0.005705,0.52711,-264.22217,-1.003844,62.707369
7.2986,-0.008589,0.002222,-0.004203,0.011311,-0.005591,0.019934,-0.011832,-0.507984,-0.005938,0.52711,-264.22217,-1.003844,62.707369
7.3185,-0.009005,0.002029,-0.005474,0.010638,-0.005258,0.018747,-0.011832,-0.507984,-0.005938,0.52711,-264.22217,-1.003844,62.707369
7.3385,-0.008378,0.001718,-0.005553,0.009883,-0.004885,0.017417,-0.011193,-0.508266,-0.004408,0.52711,-264.216418,-1.003844,62.716626
7.3585,-0.008815,0.001983,-0.00528,0.009077,-0.004487,0.015996,-0.011179,-0.508274,-0.004456,0.52711,-264.216418,-1.003844,62.716626
7.3785,-0.008866,0.001393,-0.003064,0.008188,-0.004047,0.01443,-0.011097,-0.508216,-0.004554,0.52711,-264.211495,-1.003844,62.724549
7.3985,-0.008884,0.001371,-0.004499,0.007233,-0.003576,0.012748,-0.010668,-0.508462,-0.003621,0.52711,-264.211495,-1.003844,62.724549
7.4185,-0.008496,0.001422,-0.004932,0.006205,-0.003067,0.010935,-0.010668,-0.508462,-0.003621,0.52711,-264.211495,-1.003844,62.724549
7.4385,-0.008567,0.001323,-0.002139,0.005103,-0.002523,0.008994,-0.01057,-0.508793,-0.004152,0.52711,-264.207294,-1.003844,62.731309
7.4584,-0.00879,0.001307,-0.003508,0.003936,-0.001946,0.006937,-0.010503,-0.508791,-0.004008,0.52711,-264.207294,-1.003844,62.731309
7.4783,-0.008312,0.001274,-0.003349,0.002694,-0.001332,0.004748,-0.01034,-0.508809,-0.003086,0.52711,-264.204421,-1.003844,62.735931
7.4984,-0.008787,0.00146,-0.003156,0.001383,-0.000683,0.002437,-0.010127,-0.508775,-0.003182,0.52711,-264.204421,-1.003844,62.735931
7.5184,-0.008757,0.000873,-0.002377,0.0,0.0,0.0,-0.010127,-0.508775,-0.003182,0.52711,-264.204421,-1.003844,62.735931
7.5383,-0.008376,0.000803,-0.001435,0.0,0.0,0.0,-0.009778,-0.50922,-0.002039,0.52711,-264.202594,-1.003844,62.738872
7.5588,-0.008665,0.000888,-0.001638,0.0,0.0,0.0,-0.009721,-0.509221,-0.001984,0.52711,-264.202594,-1.003844,62.738872
7.5785,-0.009053,0.00128,-0.001792,0.0,0.0,0.0,-0.0095,-0.509112,-0.001638,0.52711,-264.202594,-1.003844,62.738872
7.5983,-0.008351,0.001009,-0.002417,0.0,0.0,0.0,-0.009768,-0.508887,-0.001727,0.52711,-264.202594,-1.003844,62.738872
7.6184,-0.008465,0.001314,-0.001065,0.0,0.0,0.0,-0.009768,-0.508887,-0.001727,0.52711,-264.202594,-1.003844,62.738872
7.6384,-0.008764,0.001058,-0.002769,0.0,0.0,0.0,-0.009008,-0.508685,-0.001065,0.52711,-264.202594,-1.003844,62.738872
7.6588,-0.008146,0.000805,-0.003174,0.0,0.0,0.0,-0.00909,-0.508703,-0.001184,0.52711,-264.202594,-1.003844,62.738872
7.6786,-0.00864,0.001004,-0.004562,0.0,0.0,0.0,-0.009764,-0.509193,-0.003174,0.52711,-264.202594,-1.003844,62.738872
7.6985,-0.008855,0.001063,-0.00467,0.0,0.0,0.0,-0.010452,-0.509077,-0.003968,0.52711,-264.202594,-1.003844,62.738872
7.7188,-0.008383,0.000947,-0.003871,0.0,0.0,0.0,-0.010452,-0.509077,-0.003968,0.52711,-264.202594,-1.003844,62.738872
7.7384,-0.008284,0.000728,-0.002834,9.9e-05,-1.1e-05,0.0,-0.010358,-0.509049,-0.003871,0.52711,-264.202594,-1.003844,62.738872
7.7588,-0.008527,0.000989,-0.002172,9.9e-05,-1.1e-05,0.0,-0.010316,-0.509064,-0.003803,0.52711,-264.202594,-1.003844,62.738872
7.7787,-0.008597,0.000964,-0.00234,9.9e-05,-1.1e-05,0.0,-0.009634,-0.50901,-0.002172,0.52711,-264.202594,-1.003844,62.738872
7.7984,-0.008438,0.000977,-0.003741,9.9e-05,-1.1e-05,0.0,-0.009723,-0.509024,-0.002268,0.52711,-264.202594,-1.003844,62.738872
7.8184,-0.00847,0.001079,-0.003266,9.9e-05,-1.1e-05,0.0,-0.009723,-0.509024,-0.002268,0.52711,-264.202594,-1.003844,62.738872
7.8383,-0.008643,0.001513,-0.003171,9.9e-05,-1.1e-05,0.0,-0.010135,-0.508919,-0.003266,0.452122,-264.202594,-0.928856,62.738872
7.8583,-0.008585,0.001188,-0.003095,9.9e-05,-1.1e-05,0.0,-0.010144,-0.508888,-0.003259,0.452122,-264.202594,-0.928856,62.738872
7.8788,-0.008456,0.00091,-0.003765,9.9e-05,-1.1e-05,0.0,-0.010164,-0.508809,-0.003095,0.377118,-264.202594,-0.853852,62.738872
7.8983,-0.00882,0.000968,-0.000917,9.9e-05,-1.1e-05,0.0,-0.010285,-0.508968,-0.003478,0.377118,-264.202594,-0.853852,62.738872
7.9188,-0.008551,0.000846,-0.0027,9.9e-05,-1.1e-05,0.0,-0.010285,-0.508968,-0.003478,0.377118,-264.202594,-0.853852,62.738872
7.9388,-0.00887,0.001189,-0.00281,9.9e-05,-1.1e-05,0.0,-0.009928,-0.509152,-0.0027,0.302062,-264.202594,-0.778796,62.738872
7.9584,-0.008474,0.001114,-0.001721,0.001227,-0.000134,0.000566,-0.009953,-0.509129,-0.002707,0.302062,-264.202594,-0.778796,62.738872
7.9789,-0.008448,0.000889,-0.002273,0.002394,-0.000261,0.001105,-0.009351,-0.508885,-0.001721,0.22711,-264.202594,-0.703844,62.738872
7.9986,-0.008634,0.000901,-0.000905,0.003491,-0.000381,0.001611,-0.009496,-0.509012,-0.002033,0.22711,-264.202594,-0.703844,62.738872
8.0187,-0.008729,0.001002,-0.002852,0.004529,-0.000494,0.00209,-0.009496,-0.509012,-0.002033,0.22711,-264.202594,-0.703844,62.738872
8.0391,-0.008889,0.001555,-0.002035,0.005505,-0.0006,0.002541,-0.010175,-0.508998,-0.002846,0.17117,-264.202514,-0.628831,62.738956
8.0593,-0.008379,0.000866,-0.002307,0.006415,-0.000699,0.002961,-0.010156,-0.508957,-0.002785,0.17117,-264.202514,-0.628831,62.738956
8.0785,-0.00841,0.000566,-0.003186,0.007265,-0.000792,0.003353,-0.009498,-0.509145,-0.00227,0.17117,-264.20188,-0.553518,62.739627
8.0984,-0.008084,0.000807,-0.002023,0.00805,-0.000878,0.003716,-0.009794,-0.509309,-0.002783,0.17117,-264.20188,-0.553518,62.739627
8.1185,-0.00869,0.000934,-0.00252,0.008774,-0.000957,0.00405,-0.009794,-0.509309,-0.002783,0.17117,-264.20188,-0.553518,62.739627
8.1384,-0.008134,0.000922,-0.003048,0.009435,-0.001029,0.004355,-0.009795,-0.509095,-0.002419,0.17117,-264.200336,-0.478737,62.74126
8.1586,-0.008306,0.001138,-0.002097,0.010032,-0.001094,0.004631,-0.009782,-0.509094,-0.002465,0.17117,-264.200336,-0.478737,62.74126
8.1784,-0.008001,0.000888,-0.003954,0.010567,-0.001152,0.004878,-0.009097,-0.508897,-0.00196,0.17117,-264.197372,-0.403466,62.744396
8.1983,-0.008018,0.000577,-0.001953,0.011039,-0.001204,0.005095,-0.00959,-0.509023,-0.003089,0.17117,-264.197372,-0.403466,62.744396
8.2185,-0.008045,0.000802,-0.001727,0.011448,-0.001248,0.005284,-0.00959,-0.509023,-0.003089,0.17117,-264.197372,-0.403466,62.744396
8.2383,-0.007778,0.000906,-0.001032,0.011795,-0.001286,0.005444,-0.008447,-0.509251,-0.001506,0.17117,-264.193368,-0.372671,62.748633
8.2589,-0.007675,0.000773,-0.001713,0.012077,-0.001317,0.005574,-0.008424,-0.509241,-0.001468,0.17117,-264.193368,-0.372671,62.748633
8.2786,-0.007017,0.000818,-0.001253,0.012302,-0.001341,0.005678,-0.008106,-0.509275,-0.001509,0.17117,-264.188721,-0.372671,62.753549
8.2985,-0.007454,0.001259,-0.002646,0.012456,-0.001358,0.005749,-0.007795,-0.509228,-0.001338,0.17117,-264.188721,-0.372671,62.753549
8.3184,-0.006997,0.000469,-0.002705,0.012549,-0.001368,0.005792,-0.007795,-0.509228,-0.001338,0.17117,-264.188721,-0.372671,62.753549
8.3383,-0.006938,0.000696,-0.000849,0.01258,-0.001372,0.005807,-0.00779,-0.509595,-0.002434,0.17117,-264.183798,-0.372671,62.758759
8.3585,-0.006737,0.000692,-0.000616,0.012549,-0.001368,0.005792,-0.007738,-0.509573,-0.002297,0.17117,-264.183798,-0.372671,62.758759
8.3788,-0.006373,0.000851,-0.000915,0.012455,-0.001358,0.005749,-0.006569,-0.509361,-0.000394,0.17117,-264.178717,-0.372671,62.764134
8.3985,-0.006406,0.000727,-0.000957,0.012298,-0.001341,0.005676,-0.006663,-0.509246,-0.000664,0.17117,-264.178717,-0.372671,62.764134
8.4188,-0.006542,0.000379,-0.000984,0.012078,-0.001317,0.005575,-0.006663,-0.509246,-0.000664,0.17117,-264.178717,-0.372671,62.764134
8.439,-0.005832,0.000496,-0.001698,0.011793,-0.001286,0.005443,-0.006435,-0.509687,-0.000703,0.17117,-264.173631,-0.372671,62.769515
8.4585,-0.005952,0.000564,0.000387,0.011449,-0.001248,0.005284,-0.006437,-0.509677,-0.000763,0.17117,-264.173631,-0.372671,62.769515
8.4786,-0.005333,0.000776,-0.000164,0.011037,-0.001203,0.005094,-0.005288,-0.509486,0.000602,0.17117,-264.168698,-0.372671,62.774734
8.4985,-0.005435,0.000485,-0.000233,0.010567,-0.001152,0.004877,-0.005304,-0.50934,0.000183,0.17117,-264.168698,-0.372671,62.774734
8.5186,-0.005394,0.000751,-0.002699,0.010032,-0.001094,0.00463,-0.005304,-0.50934,0.000183,0.17117,-264.168698,-0.372671,62.774734
8.5383,-0.004669,0.000689,-0.000206,0.009434,-0.001029,0.004355,-0.006216,-0.509309,-0.002443,0.17117,-264.164079,-0.372671,62.779621
8.5589,-0.004858,0.000414,0.001409,0.008775,-0.000957,0.00405,-0.006109,-0.50931,-0.002291,0.17117,-264.164079,-0.372671,62.779621
8.5785,-0.004787,0.000276,0.001678,0.008051,-0.000878,0.003716,-0.003752,-0.509627,0.001588,0.17117,-264.160006,-0.372671,62.78393
8.5983,-0.004377,0.000243,9.7e-05,0.007264,-0.000792,0.003353,-0.003806,-0.509687,0.001662,0.17117,-264.160006,-0.372671,62.78393
8.6184,-0.00478,0.000193,0.000204,0.006417,-0.0007,0.002962,-0.003806,-0.509687,0.001662,0.17117,-264.160006,-0.372671,62.78393
8.6384,-0.004322,0.000146,4.6e-05,0.005504,-0.0006,0.002541,-0.00425,-0.509853,0.0004,0.17117,-264.156445,-0.372671,62.787698
8.6583,-0.004099,0.000276,-0.00114,0.00453,-0.000494,0.002091,-0.004242,-0.509854,0.000381,0.17117,-264.156445,-0.372671,62.787698
8.6788,-0.003825,0.000776,-0.000314,0.003485,-0.00038,0.001609,-0.004433,-0.509751,-0.001026,0.17117,-264.15384,-0.372671,62.790454
8.6986,-0.003831,0.000394,9e-05,0.002388,-0.00026,0.001102,-0.004146,-0.509455,-0.000606,0.17117,-264.15384,-0.372671,62.790454
8.719,-0.00354,0.00019,0.00123,0.001227,-0.000134,0.000566,-0.004146,-0.509455,-0.000606,0.17117,-264.15384,-0.372671,62.790454
8.7385,-0.004054,-7.9e-05,0.000178,0.0,0.0,0.0,-0.002691,-0.509833,0.001332,0.17117,-264.152001,-0.372671,62.792399
8.7587,-0.003736,0.00031,0.002138,0.0,0.0,0.0,-0.002769,-0.50985,0.00126,0.17117,-264.152001,-0.372671,62.792399
8.7785,-0.003957,0.000388,-0.001054,0.0,0.0,0.0,-0.002598,-0.509694,0.00216,0.17117,-264.151503,-0.372671,62.792926
8.7984,-0.003643,0.000605,-1.4e-05,0.0,0.0,0.0,-0.003659,-0.509648,0.000356,0.17117,-264.151503,-0.372671,62.792926
8.8185,-0.004242,0.000263,9.6e-05,0.0,0.0,0.0,-0.003659,-0.509648,0.000356,0.17117,-264.151503,-0.372671,62.792926
8.8383,-0.003775,0.000246,0.000397,0.0,0.0,0.0,-0.004193,-0.509737,9.6e-05,0.17117,-264.151503,-0.372671,62.792926
8.8585,-0.004138,0.000284,-0.000586,0.0,0.0,0.0,-0.00415,-0.509738,0.000117,0.17117,-264.151503,-0.372671,62.792926
8.8785,-0.003823,0.000274,0.00089,0.0,0.0,0.0,-0.004437,-0.509716,-0.000586,0.17117,-264.151503,-0.372671,62.792926
8.8985,-0.00382,0.000422,0.000846,0.0,0.0,0.0,-0.00383,-0.509722,0.000253,0.17117,-264.151503,-0.372671,62.792926
8.9184,-0.004084,0.0,4.5e-05,0.0,0.0,0.0,-0.00383,-0.509722,0.000253,0.17117,-264.151503,-0.372671,62.792926
8.9385,-0.00403,0.000172,0.00052,0.0,0.0,0.0,-0.004061,-0.51,4.5e-05,0.17117,-264.151503,-0.372671,62.792926
8.9588,-0.003766,0.000127,-0.000327,0.0,0.0,0.0,-0.00404,-0.509988,7.8e-05,0.17117,-264.151503,-0.372671,62.792926
8.9784,-0.003889,0.000386,0.000443,0.0001,-3e-06,0.0,-0.003933,-0.509873,-0.000327,0.17117,-264.151503,-0.372671,62.792926
8.9982,-0.004143,-1.7e-05,0.000943,0.0001,-3e-06,0.0,-0.00378,-0.509726,0.000109,0.17117,-264.151503,-0.372671,62.792926
9.0183,-0.003744,0.000704,-0.000994,0.0001,-3e-06,0.0,-0.00378,-0.509726,0.000109,0.17117,-264.151503,-0.372671,62.792926
9.0383,-0.003736,0.000261,0.001208,0.0001,-3e-06,0.0,-0.004251,-0.509295,-0.000994,0.17117,-264.151503,-0.372671,62.792926
9.0593,-0.004188,0.000575,0.000952,0.0001,-3e-06,0.0,-0.004176,-0.509325,-0.000848,0.17117,-264.151503,-0.372671,62.792926
9.0789,-0.003664,0.000371,0.001323,0.0001,-3e-06,0.0,-0.003702,-0.509425,0.000952,0.096183,-264.1515,-0.297684,62.792929
9.0986,-0.003753,0.000573,0.000523,0.0001,-3e-06,0.0,-0.003294,-0.509541,0.001165,0.096183,-264.1515,-0.297684,62.792929
9.1186,-0.004276,0.000333,0.00018,0.0001,-3e-06,0.0,-0.003294,-0.509541,0.001165,0.096183,-264.1515,-0.297684,62.792929
9.1384,-0.003853,0.000168,0.000926,0.0001,-3e-06,0.0,-0.004183,-0.509667,0.00018,0.021048,-264.15149,-0.222549,62.792939
9.1588,-0.003802,-3.3e-05,0.001239,0.0001,-3e-06,0.0,-0.004127,-0.509679,0.000232,0.021048,-264.15149,-0.222549,62.792939
9.1784,-0.003383,0.000237,0.001511,1e-06,-0.0,0.0,-0.003169,-0.510033,0.001239,-0.033354,-264.151469,-0.147681,62.792961
9.199,-0.003777,0.000624,0.001323,0.00055,-1.8e-05,4.8e-05,-0.002848,-0.509877,0.001396,-0.033354,-264.151469,-0.147681,62.792961
9.2183,-0.003632,-4.8e-05,0.001718,0.001073,-3.6e-05,9.3e-05,-0.002848,-0.509877,0.001396,-0.033354,-264.151469,-0.147681,62.792961
9.2385,-0.003984,6.5e-05,0.000469,0.001568,-5.2e-05,0.000136,-0.002751,-0.510048,0.001719,-0.033354,-264.151436,-0.072405,62.792993
9.2589,-0.003738,0.000177,-0.000304,0.002033,-6.8e-05,0.000177,-0.002837,-0.510038,0.001611,-0.033354,-264.151436,-0.072405,62.792993
9.2788,-0.003514,0.000249,-0.000832,0.002471,-8.2e-05,0.000215,-0.003854,-0.509824,-0.000301,0.019673,-264.151029,-0.086194,62.793402
9.2986,-0.003506,0.000748,0.000727,0.002881,-9.6e-05,0.00025,-0.003897,-0.509783,-0.000601,0.019673,-264.151029,-0.086194,62.793402
9.3184,-0.003684,4.7e-05,0.001554,0.003262,-0.000109,0.000283,-0.003897,-0.509783,-0.000601,0.019673,-264.151029,-0.086194,62.793402
9.3389,-0.003594,0.000564,-0.000437,0.003616,-0.000121,0.000314,-0.002793,-0.509955,0.001563,0.019673,-264.150218,-0.086194,62.794216
9.3586,-0.003528,5.6e-05,0.001935,0.003942,-0.000132,0.000342,-0.002862,-0.509919,0.001423,0.019673,-264.150218,-0.086194,62.794216
9.3784,-0.003811,0.00018,0.00148,0.004237,-0.000141,0.000368,-0.002414,-0.509947,0.001946,0.019673,-264.148912,-0.086194,62.795526
9.3985,-0.003465,8.5e-05,-0.001359,0.004508,-0.00015,0.000392,-0.002759,-0.509875,0.001685,0.019673,-264.148912,-0.086194,62.795526
9.4185,-0.003561,-7e-06,0.000342,0.004747,-0.000158,0.000412,-0.002759,-0.509875,0.001685,0.019673,-264.148912,-0.086194,62.795526
9.4386,-0.002851,0.000244,-7.8e-05,0.004959,-0.000165,0.000431,-0.003194,-0.510013,0.000359,0.019673,-264.147336,-0.086194,62.797109
9.4587,-0.003329,0.000444,0.001408,0.005141,-0.000172,0.000447,-0.003171,-0.509997,0.000332,0.019673,-264.147336,-0.086194,62.797109
9.4784,-0.003483,-3e-05,-0.001402,0.005301,-0.000177,0.00046,-0.002428,-0.509561,0.001424,0.019673,-264.145434,-0.086194,62.799016
9.4985,-0.003049,-4.9e-05,-0.00028,0.005424,-0.000181,0.000471,-0.003418,-0.50983,-0.000192,0.019673,-264.145434,-0.086194,62.799016
9.5185,-0.003421,0.0003,0.001382,0.005523,-0.000184,0.00048,-0.003418,-0.50983,-0.000192,0.019673,-264.145434,-0.086194,62.799016
9.5388,-0.002531,0.000194,-0.000355,0.005593,-0.000187,0.000486,-0.002467,-0.509708,0.001404,0.019673,-264.143375,-0.086194,62.801083
9.5586,-0.003003,0.000551,0.00152,0.005636,-0.000188,0.000489,-0.002477,-0.509715,0.001278,0.019673,-264.143375,-0.086194,62.801083
9.5784,-0.002741,0.000303,0.000496,0.00565,-0.000189,0.000491,-0.002015,-0.509455,0.001538,0.019673,-264.141167,-0.086194,62.803299
9.5986,-0.002488,0.000173,0.000249,0.005636,-0.000188,0.000489,-0.002259,-0.509595,0.000943,0.019673,-264.141167,-0.086194,62.803299
