mach0312/omni-docking-bench/src/icros_test_setup/results/kinematic_sample/timeseries/trial_121.csv
t,x,y,yaw,vx,vy,wz,bl_x,bl_y,bl_yaw,front_steering_joint,front_wheel_joint,rear_steering_joint,rear_wheel_joint
0.0,0.00902,-0.021876,-0.051329,-0.00433,-0.001107,-0.003173,-0.016555,-0.531056,-0.05174,0.613009,-264.387285,-0.189519,62.466563
0.0006,0.009115,-0.021358,-0.053614,0.0,0.0,0.0,-0.017138,-0.530983,-0.052449,0.613009,-264.3894,-0.189519,62.464802
0.001,0.009606,-0.021915,-0.050934,0.0,0.0,0.0,-0.017138,-0.530983,-0.052449,0.613009,-264.39032,-0.189519,62.464035
0.0014,0.009269,-0.021939,-0.052297,0.0,0.0,0.0,-0.017138,-0.530983,-0.052449,0.613009,-264.390321,-0.189519,62.464035
0.0017,0.00929,-0.021671,-0.051606,0.0,0.0,0.0,-0.017237,-0.530955,-0.052303,0.613009,-264.390321,-0.189519,62.464035
0.002,0.009368,-0.021557,-0.052054,0.0,0.0,0.0,-0.017262,-0.530968,-0.052382,0.613009,-264.390321,-0.189519,62.464035
0.0023,0.009205,-0.021692,-0.052317,0.0,0.0,0.0,-0.017262,-0.530968,-0.052382,0.613009,-264.390321,-0.189519,62.464035
0.0026,0.009593,-0.021861,-0.053232,0.0,0.0,0.0,-0.016544,-0.531192,-0.051367,0.613009,-264.390321,-0.189519,62.464035
0.0029,0.009295,-0.021541,-0.052527,0.0,0.0,0.0,-0.016544,-0.531192,-0.051367,0.613009,-264.390321,-0.189519,62.464035
0.0032,0.009374,-0.021717,-0.052733,0.0,0.0,0.0,-0.016896,-0.531201,-0.051352,0.613009,-264.390321,-0.189519,62.464035
0.0064,0.009258,-0.021732,-0.050407,-9.9e-05,-1e-05,0.0,-0.017508,-0.531008,-0.052733,0.613009,-264.390321,-0.189519,62.464035
0.0263,0.008925,-0.021837,-0.052902,-0.010341,0.01599,0.03,-0.0169,-0.531051,-0.051412,0.613009,-264.390321,-0.189519,62.464035
0.0464,0.008927,-0.021562,-0.052944,-0.010067,0.021335,0.05,-0.0169,-0.531051,-0.051412,0.613009,-264.390321,-0.189519,62.464035
0.0661,0.00929,-0.021729,-0.052212,-0.010055,0.02106,0.05,-0.018062,-0.530848,-0.052944,0.613009,-264.390321,-0.189519,62.464035
0.0863,0.009209,-0.022053,-0.051605,-0.010411,0.021214,0.05,-0.018016,-0.530859,-0.052898,0.613009,-264.390321,-0.189519,62.464035
0.1062,0.009039,-0.021894,-0.052376,-0.010335,0.021549,0.05,-0.017097,-0.531374,-0.051605,0.538109,-264.390321,-0.114619,62.464035
0.1263,0.009227,-0.021476,-0.052902,-0.010173,0.021391,0.05,-0.017417,-0.531272,-0.052042,0.538109,-264.390321,-0.114619,62.464035
0.1463,0.009385,-0.021731,-0.053426,-0.01035,0.020958,0.05,-0.017417,-0.531272,-0.052042,0.538109,-264.390321,-0.114619,62.464035
0.1664,0.008789,-0.021734,-0.052581,-0.010532,0.021199,0.05,-0.017849,-0.531003,-0.053426,0.4631,-264.390321,-0.03961,62.464035
0.1867,0.009221,-0.021814,-0.05304,-0.009919,0.021242,0.05,-0.01786,-0.531005,-0.05337,0.4631,-264.390321,-0.03961,62.464035
0.2063,0.009201,-0.021984,-0.05244,-0.010364,0.021294,0.05,-0.017817,-0.531097,-0.05304,0.388107,-264.390321,0.035383,62.464035
0.2263,0.009251,-0.021815,-0.051899,-0.010341,0.021472,0.05,-0.017654,-0.531203,-0.052698,0.388107,-264.390321,0.035383,62.464035
0.2461,0.009166,-0.021467,-0.051308,-0.010371,0.021305,0.05,-0.017654,-0.531203,-0.052698,0.388107,-264.390321,0.035383,62.464035
0.2665,0.009022,-0.021759,-0.052794,-0.010255,0.020969,0.05,-0.01699,-0.530796,-0.051308,0.313118,-264.390321,0.110372,62.464035
0.2864,0.009472,-0.021863,-0.054657,-0.010158,0.021253,0.05,-0.017052,-0.530814,-0.051411,0.313118,-264.390321,0.110372,62.464035
0.3065,0.009247,-0.022251,-0.052558,-0.010652,0.021312,0.05,-0.018389,-0.531101,-0.054657,0.238101,-264.390321,0.185388,62.464035
0.3265,0.009233,-0.021476,-0.051241,-0.010403,0.021734,0.05,-0.01791,-0.531354,-0.053465,0.238101,-264.390321,0.185388,62.464035
0.3463,0.009172,-0.021495,-0.052672,-0.010321,0.020975,0.05,-0.01791,-0.531354,-0.053465,0.238101,-264.390321,0.185388,62.464035
0.3663,0.009493,-0.021244,-0.052442,-0.010291,0.020982,0.05,-0.017678,-0.530788,-0.052672,0.163116,-264.390321,0.260374,62.464035
0.3861,0.009255,-0.022114,-0.049629,-0.010594,0.020717,0.05,-0.017641,-0.530767,-0.052653,0.163116,-264.390321,0.260374,62.464035
0.4062,0.009139,-0.021898,-0.053082,-0.010341,0.021628,0.049629,-0.016045,-0.531486,-0.049629,0.087581,-264.390321,0.335909,62.464035
0.4262,0.009029,-0.02171,-0.051792,-0.010288,0.021383,0.05,-0.017108,-0.531313,-0.051585,0.087581,-264.390321,0.335909,62.464035
0.4465,0.00942,-0.021821,-0.051238,-0.01014,0.021214,0.05,-0.017108,-0.531313,-0.051585,0.087581,-264.390321,0.335909,62.464035
0.4665,0.009338,-0.02179,-0.052222,-0.010525,0.02131,0.05,-0.0167,-0.531152,-0.051238,0.013101,-264.390321,0.410389,62.464034
0.4868,0.009415,-0.021891,-0.052136,-0.010463,0.021273,0.05,-0.016739,-0.531148,-0.051303,0.013101,-264.390321,0.410389,62.464034
0.5064,0.009094,-0.021908,-0.050712,-0.010543,0.021371,0.05,-0.017162,-0.531198,-0.052136,-0.061915,-264.390322,0.485405,62.464034
0.5263,0.009069,-0.021565,-0.050298,-0.010193,0.021418,0.05,-0.016932,-0.531229,-0.051326,-0.061915,-264.390322,0.485405,62.464034
0.5464,0.008802,-0.021628,-0.052924,-0.010142,0.021082,0.05,-0.016932,-0.531229,-0.051326,-0.061915,-264.390322,0.485405,62.464034
0.5662,0.009129,-0.022023,-0.051121,-0.009933,0.021132,0.05,-0.018177,-0.530914,-0.052924,-0.137047,-264.390322,0.560537,62.464034
0.5868,0.009207,-0.021625,-0.05169,-0.010243,0.021528,0.05,-0.018074,-0.53095,-0.052774,-0.137047,-264.390322,0.560537,62.464034
0.6066,0.009341,-0.021759,-0.052204,-0.010312,0.02112,0.05,-0.017143,-0.530943,-0.05169,-0.212357,-264.390324,0.635847,62.464034
0.6263,0.009528,-0.021619,-0.052685,-0.010464,0.021242,0.05,-0.017215,-0.531011,-0.051981,-0.212357,-264.390324,0.635847,62.464034
0.6463,0.009865,-0.022039,-0.052582,-0.010653,0.021088,0.05,-0.017215,-0.531011,-0.051981,-0.212357,-264.390324,0.635847,62.464034
0.6666,0.009279,-0.021688,-0.051814,-0.011009,0.02149,0.05,-0.01694,-0.531334,-0.052582,-0.286898,-264.390325,0.710388,62.464033
0.6867,0.009293,-0.021806,-0.052152,-0.010389,0.021178,0.05,-0.016954,-0.53131,-0.052527,-0.286898,-264.390325,0.710388,62.464033
0.7067,0.009266,-0.02159,-0.053473,-0.010417,0.021292,0.05,-0.017292,-0.531113,-0.052151,-0.362043,-264.390328,0.725625,62.464033
0.7269,0.009287,-0.02146,-0.049368,-0.010407,0.021063,0.05,-0.017688,-0.53097,-0.052899,-0.362043,-264.390328,0.725625,62.464033
0.7462,0.009162,-0.021841,-0.052942,-0.010335,0.020975,0.049368,-0.017688,-0.53097,-0.052899,-0.362043,-264.390328,0.725625,62.464033
0.7667,0.00943,-0.021778,-0.052369,-0.010305,0.021325,0.05,-0.017826,-0.531126,-0.052941,-0.4369,-264.39033,0.733279,62.464032
0.7861,0.009361,-0.02195,-0.053159,-0.010557,0.021254,0.05,-0.017782,-0.531122,-0.052896,-0.4369,-264.39033,0.733279,62.464032
0.8072,0.00928,-0.021575,-0.053288,-0.010514,0.021422,0.05,-0.017738,-0.53123,-0.053159,-0.512342,-264.390332,0.726076,62.464032
0.8269,0.009668,-0.021744,-0.052303,-0.010416,0.02105,0.05,-0.017821,-0.531015,-0.053232,-0.512342,-264.390332,0.726076,62.464032
0.8465,0.0093,-0.021686,-0.052116,-0.010791,0.021209,0.05,-0.017821,-0.531015,-0.053232,-0.512342,-264.390332,0.726076,62.464032
0.8668,0.009302,-0.02152,-0.052101,-0.010417,0.021172,0.05,-0.017267,-0.530993,-0.052116,-0.586895,-264.390334,0.721273,62.464031
0.8864,0.009026,-0.0219,-0.052871,-0.01041,0.021006,0.05,-0.017266,-0.530982,-0.052115,-0.586895,-264.390334,0.721273,62.464031
0.9069,0.009425,-0.021931,-0.051054,-0.010171,0.021393,0.05,-0.017926,-0.531188,-0.052871,-0.661898,-264.390336,0.712819,62.46403
0.9267,0.0093,-0.021796,-0.051286,-0.010532,0.021422,0.05,-0.017177,-0.531233,-0.051844,-0.661898,-264.390336,0.712819,62.46403
0.9464,0.009634,-0.02175,-0.052326,-0.010405,0.02129,0.05,-0.017177,-0.531233,-0.051844,-0.661898,-264.390336,0.712819,62.46403
0.9661,0.009116,-0.021703,-0.050923,-0.010759,0.021216,0.05,-0.01704,-0.531052,-0.052325,-0.736991,-264.390341,0.741372,62.464029
0.9861,0.009455,-0.021464,-0.051866,-0.010209,0.021211,0.05,-0.017027,-0.531051,-0.052231,-0.736991,-264.390341,0.741372,62.464029
1.0065,0.009146,-0.021525,-0.051271,-0.010555,0.020945,0.05,-0.016985,-0.530778,-0.051865,-0.811899,-264.390364,0.726551,62.464023
1.0265,0.009282,-0.021584,-0.051641,-0.010237,0.021028,0.05,-0.016988,-0.530821,-0.051528,-0.811899,-264.390364,0.726551,62.464023
1.0463,0.009273,-0.021678,-0.051513,-0.010383,0.021076,0.05,-0.016988,-0.530821,-0.051528,-0.811899,-264.390364,0.726551,62.464023
1.0672,0.009021,-0.021835,-0.05072,-0.010377,0.021172,0.05,-0.016992,-0.530998,-0.051504,-0.886895,-264.390462,0.74028,62.463998
1.0869,0.009523,-0.021517,-0.052078,-0.010116,0.021349,0.05,-0.016982,-0.53101,-0.051451,-0.886895,-264.390462,0.74028,62.463998
1.1069,0.009415,-0.021765,-0.052683,-0.01063,0.020992,0.05,-0.01704,-0.530812,-0.052045,-0.961898,-264.390878,0.738995,62.463887
1.1267,0.009165,-0.021345,-0.05266,-0.010548,0.021239,0.05,-0.017265,-0.530947,-0.052397,-0.961898,-264.390878,0.738995,62.463887
1.1464,0.008715,-0.021772,-0.052781,-0.010276,0.020833,0.05,-0.017265,-0.530947,-0.052397,-0.961898,-264.390878,0.738995,62.463887
1.166,0.009012,-0.021238,-0.052404,-0.009851,0.021282,0.05,-0.01824,-0.531008,-0.052656,-1.036905,-264.392099,0.737353,62.463571
1.1865,0.009299,-0.021731,-0.052872,-0.010112,0.020737,0.05,-0.018196,-0.530967,-0.052631,-1.036905,-264.392099,0.737353,62.463571
1.2066,0.008958,-0.021696,-0.051591,-0.010434,0.02121,0.05,-0.017748,-0.530901,-0.052593,-1.112349,-264.395369,0.756818,62.462689
1.2264,0.008864,-0.021354,-0.050943,-0.010065,0.021205,0.05,-0.017528,-0.530953,-0.051985,-1.112349,-264.395369,0.756818,62.462689
1.2465,0.008795,-0.021461,-0.051495,-0.00994,0.020875,0.05,-0.017528,-0.530953,-0.051985,-1.112349,-264.395369,0.756818,62.462689
1.2665,0.007674,-0.02109,-0.050186,-0.009888,0.02098,0.05,-0.017655,-0.530526,-0.050835,-1.187012,-264.40121,0.769769,62.460846
1.2862,0.008164,-0.020918,-0.051454,-0.008722,0.020679,0.05,-0.017686,-0.530509,-0.050751,-1.187012,-264.40121,0.769769,62.460846
1.3062,0.007123,-0.021153,-0.050104,-0.00923,0.020471,0.05,-0.018275,-0.529957,-0.050674,-1.262875,-264.409428,0.77125,62.45783
1.3261,0.007462,-0.020577,-0.050791,-0.008174,0.02077,0.05,-0.018385,-0.530239,-0.050246,-1.262875,-264.409428,0.77125,62.45783
1.346,0.007447,-0.021112,-0.048067,-0.008497,0.020172,0.05,-0.018385,-0.530239,-0.050246,-1.262875,-264.409428,0.77125,62.45783
1.3661,0.00622,-0.020561,-0.048628,-0.008453,0.02073,0.048067,-0.017328,-0.530034,-0.046765,-1.337143,-264.420181,0.845519,62.454316
1.3861,0.006182,-0.020112,-0.048803,-0.007212,0.020234,0.048628,-0.01742,-0.530016,-0.046858,-1.337143,-264.420181,0.845519,62.454316
1.4068,0.005258,-0.019716,-0.045718,-0.007155,0.019787,0.048803,-0.018931,-0.529043,-0.04747,-1.404777,-264.433462,0.884163,62.449448
1.4263,0.005846,-0.019489,-0.047658,-0.006153,0.019455,0.045718,-0.018458,-0.529064,-0.046302,-1.404777,-264.433462,0.884163,62.449448
1.4464,0.005275,-0.019525,-0.04657,-0.006768,0.019189,0.047658,-0.018458,-0.529064,-0.046302,-1.404777,-264.433462,0.884163,62.449448
1.4662,0.004084,-0.018578,-0.045102,-0.006178,0.019259,0.04657,-0.018741,-0.528234,-0.044651,-1.42736,-264.449234,0.919695,62.444822
1.4866,0.00395,-0.019063,-0.043933,-0.004918,0.018375,0.045102,-0.01876,-0.528202,-0.044631,-1.42736,-264.449234,0.919695,62.444822
1.5063,0.002611,-0.017764,-0.043704,-0.004783,0.018871,0.043933,-0.018669,-0.527863,-0.042184,-1.431572,-264.467517,0.972033,62.440224
1.5265,0.002404,-0.017883,-0.042418,-0.003385,0.017633,0.043704,-0.019259,-0.527446,-0.042823,-1.431572,-264.467517,0.972033,62.440224
1.5461,0.002781,-0.018349,-0.041943,-0.00316,0.017765,0.042418,-0.019259,-0.527446,-0.042823,-1.431572,-264.467517,0.972033,62.440224
1.5667,0.001334,-0.017005,-0.041152,-0.003548,0.018217,0.041943,-0.018774,-0.527159,-0.040154,-1.46411,-264.482757,1.047072,62.43679
1.5861,0.001487,-0.017177,-0.041434,-0.002032,0.016936,0.041152,-0.018858,-0.527082,-0.040183,-1.46411,-264.482757,1.047072,62.43679
1.6062,0.000563,-0.01618,-0.040518,-0.002197,0.017101,0.041434,-0.019709,-0.526277,-0.04035,-1.498558,-264.49443,1.122561,62.434462
1.6262,0.000471,-0.016307,-0.039243,-0.001218,0.016144,0.040518,-0.019937,-0.525925,-0.040305,-1.498558,-264.49443,1.122561,62.434462
1.6462,0.000406,-0.016449,-0.040457,-0.00111,0.016276,0.039243,-0.019937,-0.525925,-0.040305,-1.498558,-264.49443,1.122561,62.434462
1.6668,0.000195,-0.015933,-0.038949,-0.001071,0.016419,0.040457,-0.020268,-0.525611,-0.039459,-1.522526,-264.502936,1.196928,62.432756
1.6868,-0.000107,-0.015679,-0.03594,-0.000815,0.015914,0.038949,-0.020221,-0.525593,-0.039387,-1.522526,-264.502936,1.196928,62.432756
1.7065,-0.000511,-0.015922,-0.038115,-0.000456,0.015672,0.03594,-0.018451,-0.525083,-0.035309,-1.543215,-264.509725,1.272279,62.431445
1.7263,-0.000244,-0.015641,-0.037814,-9.6e-05,0.01593,0.038115,-0.019326,-0.525323,-0.036869,-1.543215,-264.509725,1.272279,62.431445
1.7466,-0.000377,-0.015565,-0.038343,-0.000348,0.015639,0.037814,-0.019326,-0.525323,-0.036869,-1.543215,-264.509725,1.272279,62.431445
1.766,-0.001073,-0.015307,-0.036026,-0.000219,0.015568,0.038343,-0.019946,-0.52477,-0.037325,-1.550263,-264.518256,1.34739,62.429745
1.7861,-0.001024,-0.015439,-0.037016,0.000521,0.015336,0.036026,-0.019917,-0.524772,-0.037227,-1.550263,-264.518256,1.34739,62.429745
1.8063,-0.001697,-0.014758,-0.03486,0.000452,0.015467,0.037016,-0.019902,-0.524724,-0.036136,-1.561823,-264.527615,1.421916,62.427941
1.8263,-0.001624,-0.014635,-0.034703,0.001182,0.014808,0.03486,-0.019657,-0.52452,-0.035295,-1.561823,-264.527615,1.421916,62.427941
1.8461,-0.001805,-0.014787,-0.036639,0.001115,0.014682,0.034703,-0.019657,-0.52452,-0.035295,-1.561823,-264.527615,1.421916,62.427941
1.8661,-0.001767,-0.014269,-0.033588,0.001263,0.014844,0.036639,-0.020475,-0.524124,-0.035884,-1.58475,-264.534059,1.497015,62.426787
1.886,-0.002049,-0.014403,-0.034725,0.001287,0.01432,0.033588,-0.020364,-0.524105,-0.035703,-1.58475,-264.534059,1.497015,62.426787
1.9064,-0.002424,-0.014182,-0.034101,0.001547,0.014465,0.034725,-0.019739,-0.52388,-0.034212,-1.601876,-264.539553,1.57191,62.425776
1.9266,-0.002245,-0.01428,-0.034024,0.001939,0.014256,0.034101,-0.019779,-0.523856,-0.034083,-1.601876,-264.539553,1.57191,62.425776
1.9466,-0.001831,-0.013668,-0.035187,0.001758,0.014348,0.034024,-0.019779,-0.523856,-0.034083,-1.601876,-264.539553,1.57191,62.425776
1.9661,-0.002275,-0.013993,-0.035694,0.001349,0.013724,0.035187,-0.019772,-0.523353,-0.035187,-1.607736,-264.539555,1.496768,62.425776
1.986,-0.002113,-0.013878,-0.033957,0.001774,0.014065,0.035694,-0.019821,-0.523374,-0.035222,-1.607736,-264.539555,1.496768,62.425776
2.0069,-0.002206,-0.013582,-0.033274,0.001641,0.013942,0.033957,-0.019428,-0.523584,-0.033957,-1.620794,-264.539556,1.42179,62.425776
2.0264,-0.00204,-0.014138,-0.032996,0.001753,0.013648,0.033274,-0.019283,-0.523423,-0.033568,-1.620794,-264.539556,1.42179,62.425776
2.0465,-0.002459,-0.014043,-0.035307,0.001572,0.014197,0.032996,-0.019283,-0.523423,-0.033568,-1.620794,-264.539556,1.42179,62.425776
2.0667,-0.002355,-0.014082,-0.034648,0.001962,0.014121,0.035307,-0.020462,-0.523725,-0.035306,-1.620221,-264.539558,1.346908,62.425777
2.0864,-0.001905,-0.014291,-0.033833,0.001865,0.014155,0.034648,-0.020427,-0.523729,-0.035254,-1.620221,-264.539558,1.346908,62.425777
2.1065,-0.002164,-0.01376,-0.033113,0.00142,0.014347,0.033833,-0.019156,-0.523999,-0.033833,-1.616531,-264.539559,1.271382,62.425777
2.1266,-0.002452,-0.013687,-0.034305,0.001707,0.013824,0.033113,-0.019094,-0.523701,-0.033419,-1.616531,-264.539559,1.271382,62.425777
2.1468,-0.002124,-0.013863,-0.0337,0.001981,0.013763,0.034305,-0.019094,-0.523701,-0.033419,-1.616531,-264.539559,1.271382,62.425777
2.1663,-0.002343,-0.014108,-0.033781,0.001656,0.013927,0.0337,-0.019308,-0.523573,-0.0337,-1.62357,-264.53956,1.196576,62.425777
2.1862,-0.002245,-0.014111,-0.034116,0.001865,0.014179,0.033781,-0.019322,-0.523586,-0.033704,-1.62357,-264.53956,1.196576,62.425777
2.2064,-0.002416,-0.014062,-0.032992,0.001763,0.01418,0.034116,-0.019641,-0.523814,-0.034116,-1.627798,-264.539562,1.121894,62.425777
2.2265,-0.002284,-0.013909,-0.03412,0.001951,0.014134,0.032992,-0.019415,-0.523798,-0.033485,-1.627798,-264.539562,1.121894,62.425777
2.2464,-0.00205,-0.013694,-0.035181,0.001808,0.013979,0.03412,-0.019415,-0.523798,-0.033485,-1.627798,-264.539562,1.121894,62.425777
2.2662,-0.002181,-0.014168,-0.034049,0.001567,0.013757,0.035181,-0.019988,-0.523378,-0.03518,-1.624329,-264.539563,1.046891,62.425778
2.2864,-0.002027,-0.01393,-0.03392,0.001697,0.014234,0.034049,-0.019958,-0.523412,-0.035104,-1.624329,-264.539563,1.046891,62.425778
2.3066,-0.002367,-0.014029,-0.032962,0.001553,0.013991,0.03392,-0.019323,-0.523637,-0.03392,-1.622687,-264.539565,0.971898,62.425778
2.3263,-0.002131,-0.014002,-0.034388,0.001904,0.014099,0.032962,-0.019239,-0.523702,-0.033375,-1.622687,-264.539565,0.971898,62.425778
2.3461,-0.002078,-0.01395,-0.032529,0.001648,0.014067,0.034388,-0.019239,-0.523702,-0.033375,-1.622687,-264.539565,0.971898,62.425778
2.367,-0.002168,-0.013944,-0.031956,0.001624,0.01401,0.032529,-0.018665,-0.52368,-0.032529,-1.619217,-264.539566,0.896796,62.425778
2.3865,-0.002107,-0.014192,-0.035275,0.001721,0.014007,0.031956,-0.018652,-0.52368,-0.032491,-1.619217,-264.539566,0.896796,62.425778
2.4062,-0.002526,-0.014165,-0.033811,0.001605,0.014258,0.035275,-0.020093,-0.523875,-0.035275,-1.61776,-264.539567,0.821874,62.425779
2.4261,-0.002057,-0.013697,-0.033627,0.002046,0.014242,0.033811,-0.019906,-0.523874,-0.034437,-1.61776,-264.539567,0.821874,62.425779
2.4461,-0.00226,-0.014006,-0.032823,0.001595,0.013759,0.033627,-0.019906,-0.523874,-0.034437,-1.61776,-264.539567,0.821874,62.425779
2.4665,-0.00244,-0.01401,-0.034408,0.001799,0.014072,0.032823,-0.018997,-0.523731,-0.032823,-1.622096,-264.539569,0.746594,62.425779
2.4868,-0.002161,-0.013879,-0.033187,0.001957,0.014086,0.034408,-0.019062,-0.523729,-0.032927,-1.622096,-264.539569,0.746594,62.425779
2.5066,-0.002582,-0.014236,-0.034539,0.001699,0.013943,0.033187,-0.019083,-0.523598,-0.033187,-1.61728,-264.53957,0.671895,62.425779
2.5268,-0.002306,-0.014066,-0.035257,0.002089,0.014316,0.034539,-0.019716,-0.523788,-0.033958,-1.61728,-264.53957,0.671895,62.425779
2.5465,-0.002162,-0.01455,-0.0342,0.001809,0.014138,0.035257,-0.019716,-0.523788,-0.033958,-1.61728,-264.53957,0.671895,62.425779
2.5663,-0.002058,-0.014027,-0.033422,0.001663,0.014615,0.0342,-0.019601,-0.524251,-0.0342,-1.626487,-264.539572,0.596739,62.425779
2.5862,-0.002075,-0.014097,-0.033838,0.001588,0.014088,0.033422,-0.01957,-0.524221,-0.034153,-1.626487,-264.539572,0.596739,62.425779
2.6064,-0.002074,-0.013983,-0.034208,0.001597,0.014159,0.033838,-0.019329,-0.523805,-0.033838,-1.621452,-264.539573,0.521887,62.42578
2.6265,-0.002301,-0.014261,-0.034301,0.001594,0.014045,0.034208,-0.019435,-0.523737,-0.034047,-1.621452,-264.539573,0.521887,62.42578
2.6461,-0.002276,-0.014255,-0.033536,0.00181,0.014331,0.034301,-0.019435,-0.523737,-0.034047,-1.621452,-264.539573,0.521887,62.42578
2.6666,-0.00232,-0.014017,-0.033823,0.001797,0.014323,0.033536,-0.019376,-0.523968,-0.033536,-1.616798,-264.539574,0.446895,62.42578
2.6861,-0.00229,-0.013839,-0.034304,0.001845,0.014088,0.033823,-0.019389,-0.523952,-0.033555,-1.616798,-264.539574,0.446895,62.42578
2.7063,-0.002097,-0.01414,-0.033586,0.001814,0.013909,0.034304,-0.019781,-0.523539,-0.034304,-1.622061,-264.539576,0.371903,62.42578
2.7262,-0.002319,-0.014033,-0.032855,0.001621,0.014203,0.033586,-0.019463,-0.523717,-0.033896,-1.622061,-264.539576,0.371903,62.42578
2.7462,-0.001997,-0.014119,-0.033205,0.001857,0.014102,0.032855,-0.019463,-0.523717,-0.033896,-1.622061,-264.539576,0.371903,62.42578
2.7665,-0.002358,-0.01356,-0.032651,0.001527,0.014178,0.033205,-0.018928,-0.523838,-0.033205,-1.623844,-264.539577,0.296918,62.42578
2.7863,-0.001776,-0.014225,-0.034561,0.001914,0.01363,0.032651,-0.018934,-0.5238,-0.033167,-1.623844,-264.539577,0.296918,62.42578
2.8064,-0.002395,-0.013884,-0.032326,0.001284,0.014278,0.034561,-0.019399,-0.52392,-0.034561,-1.62509,-264.539579,0.221894,62.425781
2.8265,-0.001903,-0.013974,-0.033948,0.001945,0.013954,0.032326,-0.019103,-0.523748,-0.03329,-1.62509,-264.539579,0.221894,62.425781
2.8464,-0.001946,-0.014168,-0.034661,0.001428,0.014031,0.033948,-0.019103,-0.523748,-0.03329,-1.62509,-264.539579,0.221894,62.425781
2.867,-0.002184,-0.013965,-0.032454,0.001453,0.014227,0.034661,-0.019619,-0.523861,-0.034661,-1.627753,-264.53958,0.146917,62.425781
2.8868,-0.002303,-0.01396,-0.035497,0.00173,0.014029,0.032454,-0.019565,-0.523851,-0.034525,-1.627753,-264.53958,0.146917,62.425781
2.9064,-0.001852,-0.01404,-0.03403,0.001806,0.014033,0.035497,-0.020402,-0.523638,-0.035497,-1.611847,-264.539581,0.071894,62.425781
2.9264,-0.002344,-0.014017,-0.034583,0.001373,0.014095,0.03403,-0.019723,-0.523699,-0.034665,-1.611847,-264.539581,0.071894,62.425781
2.9464,-0.002109,-0.01384,-0.034095,0.001858,0.01409,0.034583,-0.019723,-0.523699,-0.034665,-1.611847,-264.539581,0.071894,62.425781
2.9663,-0.002302,-0.013565,-0.032872,0.001636,0.013904,0.034095,-0.019494,-0.523544,-0.034095,-1.621864,-264.539583,-0.003224,62.425781
2.9872,-0.00207,-0.013703,-0.032937,0.001855,0.013634,0.032872,-0.019457,-0.523522,-0.03399,-1.621864,-264.539583,-0.003224,62.425781
3.0062,-0.002442,-0.01425,-0.035044,0.001618,0.013764,0.032937,-0.018865,-0.523427,-0.032937,-1.623509,-264.539584,-0.078572,62.425782
3.0261,-0.001918,-0.013939,-0.034212,0.001941,0.014327,0.035044,-0.019665,-0.523709,-0.034103,-1.623509,-264.539584,-0.078572,62.425782
3.0461,-0.001992,-0.014256,-0.033669,0.00144,0.013996,0.034212,-0.019665,-0.523709,-0.034103,-1.623509,-264.539584,-0.078572,62.425782
3.0661,-0.002053,-0.014187,-0.034814,0.001511,0.014315,0.033669,-0.01916,-0.523967,-0.033669,-1.625777,-264.539585,-0.153123,62.425782
3.0865,-0.002118,-0.013924,-0.03293,0.001558,0.01425,0.034814,-0.01921,-0.52396,-0.033758,-1.625777,-264.539585,-0.153123,62.425782
3.1066,-0.002174,-0.013999,-0.033001,0.001659,0.013987,0.03293,-0.01891,-0.523648,-0.03293,-1.612053,-264.539587,-0.228434,62.425782
3.1272,-0.00194,-0.013951,-0.033503,0.001711,0.014064,0.033001,-0.018962,-0.52369,-0.032971,-1.612053,-264.539587,-0.228434,62.425782
3.1463,-0.002102,-0.0139,-0.034,0.001472,0.014008,0.033503,-0.018962,-0.52369,-0.032971,-1.612053,-264.539587,-0.228434,62.425782
3.1663,-0.002474,-0.013908,-0.034943,0.001628,0.013963,0.034,-0.019438,-0.523605,-0.034,-1.614645,-264.539588,-0.303161,62.425783
3.1868,-0.002395,-0.01421,-0.032709,0.001986,0.013986,0.034943,-0.019494,-0.523605,-0.034061,-1.614645,-264.539588,-0.303161,62.425783
3.2072,-0.002164,-0.013739,-0.033767,0.001929,0.014281,0.032709,-0.019073,-0.523937,-0.032709,-1.61346,-264.53959,-0.378113,62.425783
3.2265,-0.00223,-0.014109,-0.033092,0.001699,0.013804,0.033767,-0.019248,-0.523661,-0.033307,-1.61346,-264.53959,-0.378113,62.425783
3.2469,-0.002273,-0.01423,-0.03395,0.001762,0.014176,0.033092,-0.019248,-0.523661,-0.033307,-1.61346,-264.53959,-0.378113,62.425783
3.2666,-0.002039,-0.014078,-0.034597,0.001789,0.014299,0.03395,-0.019584,-0.523936,-0.03395,-1.62696,-264.539591,-0.453118,62.425783
3.2861,-0.002512,-0.014015,-0.034426,0.001551,0.01414,0.034597,-0.019589,-0.523928,-0.033985,-1.62696,-264.539591,-0.453118,62.425783
3.3063,-0.002229,-0.014019,-0.035883,0.002028,0.014093,0.034426,-0.020066,-0.523713,-0.034426,-1.622005,-264.539592,-0.528106,62.425783
3.3268,-0.001856,-0.014108,-0.034313,0.001724,0.01409,0.035883,-0.020336,-0.5237,-0.035283,-1.622005,-264.539592,-0.528106,62.425783
3.3466,-0.001991,-0.013994,-0.034251,0.001371,0.014163,0.034313,-0.020336,-0.5237,-0.035283,-1.622005,-264.539592,-0.528106,62.425783
3.3664,-0.002255,-0.013831,-0.034014,0.001511,0.014054,0.034251,-0.019456,-0.523694,-0.034251,-1.614746,-264.539594,-0.603749,62.425784
3.3865,-0.002058,-0.014129,-0.034063,0.001784,0.0139,0.034014,-0.019466,-0.523684,-0.034235,-1.614746,-264.539594,-0.603749,62.425784
3.4066,-0.002265,-0.014187,-0.035781,0.001576,0.014191,0.034063,-0.019427,-0.523833,-0.034063,-1.609812,-264.539596,-0.678158,62.425784
3.4264,-0.002213,-0.013926,-0.032267,0.001756,0.014259,0.035781,-0.020035,-0.523849,-0.035029,-1.609812,-264.539596,-0.678158,62.425784
3.4469,-0.002343,-0.013987,-0.033695,0.001762,0.01399,0.032267,-0.020035,-0.523849,-0.035029,-1.609812,-264.539596,-0.678158,62.425784
3.4668,-0.002319,-0.014015,-0.033308,0.00187,0.014058,0.033695,-0.019524,-0.523697,-0.033694,-1.62219,-264.539609,-0.753115,62.425787
3.4863,-0.002166,-0.013604,-0.033454,0.001851,0.014084,0.033308,-0.019509,-0.523699,-0.033668,-1.62219,-264.539609,-0.753115,62.425787
3.5066,-0.002293,-0.013767,-0.034323,0.00171,0.013669,0.033454,-0.019223,-0.523313,-0.033441,-1.623043,-264.539758,-0.828484,62.425813
3.5262,-0.002502,-0.014047,-0.032967,0.00182,0.013838,0.034323,-0.019545,-0.523399,-0.033936,-1.623043,-264.539758,-0.828484,62.425813
3.5468,-0.001735,-0.01434,-0.033228,0.002038,0.014122,0.032967,-0.019545,-0.523399,-0.033936,-1.623043,-264.539758,-0.828484,62.425813
3.5667,-0.00219,-0.01406,-0.034737,0.001258,0.01439,0.033228,-0.018673,-0.524035,-0.033177,-1.624519,-264.540205,-0.903119,62.425898
3.5863,-0.001963,-0.014054,-0.033694,0.0017,0.014128,0.034737,-0.018736,-0.52402,-0.033256,-1.624519,-264.540205,-0.903119,62.425898
3.6067,-0.002252,-0.013864,-0.034214,0.001489,0.014113,0.033694,-0.019125,-0.523681,-0.033506,-1.630214,-264.542263,-0.978117,62.426279
3.6263,-0.002321,-0.014248,-0.032355,0.001776,0.013933,0.034214,-0.019447,-0.523605,-0.033883,-1.630214,-264.542263,-0.978117,62.426279
3.6466,-0.002128,-0.014113,-0.033642,0.001858,0.014316,0.032355,-0.019447,-0.523605,-0.033883,-1.630214,-264.542263,-0.978117,62.426279
3.6666,-0.002477,-0.013936,-0.034061,0.001652,0.014177,0.033642,-0.019263,-0.523738,-0.033436,-1.618872,-264.544015,-1.053114,62.42664
3.6867,-0.002561,-0.013498,-0.032768,0.002001,0.014012,0.034061,-0.019301,-0.523729,-0.033472,-1.618872,-264.544015,-1.053114,62.42664
3.7061,-0.002304,-0.013642,-0.033454,0.002117,0.013575,0.032768,-0.019227,-0.523077,-0.032339,-1.625279,-264.548267,-1.128103,62.427935
3.7262,-0.002486,-0.013598,-0.033082,0.001846,0.013711,0.033454,-0.019298,-0.523217,-0.032917,-1.625279,-264.548267,-1.128103,62.427935
3.7466,-0.002617,-0.014165,-0.03223,0.002035,0.013673,0.033082,-0.019298,-0.523217,-0.032917,-1.625279,-264.548267,-1.128103,62.427935
3.7663,-0.002655,-0.013403,-0.030876,0.002159,0.014242,0.03223,-0.018976,-0.523601,-0.031379,-1.628211,-264.555019,-1.203114,62.429849
3.7863,-0.002806,-0.013005,-0.032083,0.00224,0.013479,0.030876,-0.018938,-0.523566,-0.031327,-1.628211,-264.555019,-1.203114,62.429849
3.8064,-0.003213,-0.012572,-0.031686,0.002388,0.013088,0.032083,-0.019092,-0.522416,-0.031159,-1.63079,-264.564271,-1.268802,62.432403
3.8262,-0.003201,-0.012286,-0.03154,0.002813,0.012668,0.031686,-0.01924,-0.522318,-0.031339,-1.63079,-264.564271,-1.268802,62.432403
3.8464,-0.003651,-0.012808,-0.032973,0.002812,0.012381,0.03154,-0.01924,-0.522318,-0.031339,-1.63079,-264.564271,-1.268802,62.432403
3.8665,-0.00423,-0.012542,-0.027582,0.003227,0.012921,0.032973,-0.020352,-0.521963,-0.031662,-1.63997,-264.575552,-1.193791,62.43443
3.8868,-0.004114,-0.012089,-0.030569,0.003882,0.012653,0.027582,-0.02022,-0.521973,-0.031373,-1.63997,-264.575552,-1.193791,62.43443
3.9061,-0.004602,-0.011212,-0.027339,0.003743,0.012209,0.030569,-0.01958,-0.521379,-0.029359,-1.659429,-264.588159,-1.18288,62.437381
3.9264,-0.004541,-0.011581,-0.029162,0.004294,0.011334,0.027339,-0.018977,-0.521117,-0.028061,-1.659429,-264.588159,-1.18288,62.437381
3.9465,-0.004686,-0.011644,-0.027385,0.004202,0.011708,0.029162,-0.018977,-0.521117,-0.028061,-1.659429,-264.588159,-1.18288,62.437381
3.9665,-0.004696,-0.011384,-0.02805,0.004365,0.011768,0.027385,-0.018618,-0.521311,-0.027102,-1.701656,-264.590766,-1.107879,62.43765
3.9863,-0.004678,-0.010774,-0.027308,0.004375,0.011511,0.02805,-0.01864,-0.5213,-0.027152,-1.701656,-264.590766,-1.107879,62.43765
4.0067,-0.005034,-0.01111,-0.024841,0.004382,0.010898,0.027308,-0.018511,-0.520431,-0.026761,-1.712191,-264.595873,-1.032861,62.439809
4.0263,-0.005062,-0.011129,-0.025638,0.004757,0.011231,0.024841,-0.018043,-0.520706,-0.025608,-1.712191,-264.595873,-1.032861,62.439809
4.0465,-0.005133,-0.010915,-0.026436,0.004775,0.011255,0.025638,-0.018043,-0.520706,-0.025608,-1.712191,-264.595873,-1.032861,62.439809
4.0666,-0.005742,-0.011227,-0.02469,0.004843,0.011047,0.026436,-0.018457,-0.520394,-0.025506,-1.722352,-264.60348,-0.957877,62.442036
4.0863,-0.005635,-0.011135,-0.024657,0.005463,0.011365,0.02469,-0.018445,-0.52043,-0.025428,-1.722352,-264.60348,-0.957877,62.442036
4.1061,-0.005382,-0.011211,-0.026193,0.005358,0.01127,0.024657,-0.018208,-0.52098,-0.024657,-1.647356,-264.603479,-0.88288,62.442036
4.1262,-0.005742,-0.010617,-0.024928,0.005086,0.011348,0.026193,-0.018508,-0.521011,-0.025526,-1.647356,-264.603479,-0.88288,62.442036
4.1461,-0.005604,-0.010534,-0.025745,0.005476,0.010757,0.024928,-0.018508,-0.521011,-0.025526,-1.647356,-264.603479,-0.88288,62.442036
4.1668,-0.005477,-0.010811,-0.025814,0.005331,0.010675,0.025745,-0.018733,-0.520365,-0.025745,-1.572352,-264.603479,-0.807876,62.442036
4.1867,-0.005532,-0.011044,-0.02606,0.005196,0.010949,0.025814,-0.018727,-0.520383,-0.02575,-1.572352,-264.603479,-0.807876,62.442036
4.2065,-0.005194,-0.010663,-0.025056,0.005243,0.011184,0.02606,-0.018822,-0.520871,-0.026061,-1.497357,-264.603478,-0.732881,62.442036
4.2268,-0.005424,-0.010813,-0.02692,0.004926,0.01079,0.025056,-0.018341,-0.520663,-0.025492,-1.497357,-264.603478,-0.732881,62.442036
4.2464,-0.005316,-0.010925,-0.025824,0.005131,0.010955,0.02692,-0.018341,-0.520663,-0.025492,-1.497357,-264.603478,-0.732881,62.442036
4.2667,-0.00504,-0.010591,-0.025748,0.005032,0.011059,0.025824,-0.018485,-0.520755,-0.025824,-1.422354,-264.603477,-0.747551,62.442036
4.2867,-0.005604,-0.010693,-0.025416,0.004765,0.010717,0.025748,-0.018465,-0.520734,-0.025819,-1.422354,-264.603477,-0.747551,62.442036
4.3062,-0.00557,-0.010675,-0.026636,0.00533,0.010832,0.025416,-0.018565,-0.520528,-0.025416,-1.34735,-264.603476,-0.818825,62.442037
4.3268,-0.005138,-0.010813,-0.025705,0.005284,0.01082,0.026636,-0.018897,-0.520509,-0.026106,-1.34735,-264.603476,-0.818825,62.442037
4.3466,-0.005244,-0.010777,-0.02574,0.004859,0.010942,0.025705,-0.018897,-0.520509,-0.026106,-1.34735,-264.603476,-0.818825,62.442037
4.3663,-0.005205,-0.010637,-0.027322,0.004965,0.010909,0.02574,-0.01837,-0.520609,-0.02574,-1.272357,-264.603475,-0.810319,62.442037
4.3863,-0.005284,-0.010842,-0.025412,0.004912,0.010775,0.027322,-0.01844,-0.520594,-0.025884,-1.272357,-264.603475,-0.810319,62.442037
4.4066,-0.005115,-0.010808,-0.025455,0.005007,0.010973,0.025412,-0.018242,-0.520677,-0.025412,-1.196674,-264.603474,-0.774895,62.442037
4.4265,-0.005682,-0.01089,-0.024081,0.004838,0.010935,0.025455,-0.018158,-0.520657,-0.025437,-1.196674,-264.603474,-0.774895,62.442037
4.447,-0.005468,-0.010599,-0.025791,0.005418,0.011024,0.024081,-0.018158,-0.520657,-0.025437,-1.196674,-264.603474,-0.774895,62.442037
4.4665,-0.005232,-0.010886,-0.025266,0.005193,0.010737,0.025791,-0.01862,-0.52043,-0.025791,-1.12194,-264.603473,-0.849629,62.442038
4.4866,-0.005124,-0.010716,-0.026703,0.004955,0.011015,0.025266,-0.018586,-0.520449,-0.025756,-1.12194,-264.603473,-0.849629,62.442038
4.5061,-0.00533,-0.010915,-0.026117,0.004836,0.010849,0.026703,-0.018741,-0.520534,-0.026703,-1.04736,-264.603473,-0.775049,62.442038
4.5266,-0.005492,-0.011167,-0.025525,0.005043,0.011051,0.026117,-0.018688,-0.520653,-0.026369,-1.04736,-264.603473,-0.775049,62.442038
4.5465,-0.005562,-0.010848,-0.025511,0.005205,0.011304,0.025525,-0.018688,-0.520653,-0.026369,-1.04736,-264.603473,-0.775049,62.442038
4.5668,-0.005553,-0.010811,-0.023343,0.005283,0.010986,0.025511,-0.018571,-0.520682,-0.025511,-0.972218,-264.603472,-0.727912,62.442038
4.5865,-0.005762,-0.010824,-0.025135,0.005299,0.010938,0.023343,-0.018469,-0.520681,-0.025313,-0.972218,-264.603472,-0.727912,62.442038
4.6066,-0.00525,-0.010674,-0.024754,0.005488,0.010966,0.025135,-0.018579,-0.520663,-0.025135,-0.896568,-264.603471,-0.68877,62.442038
4.6266,-0.005711,-0.010876,-0.024878,0.004984,0.010801,0.024754,-0.018182,-0.520581,-0.024921,-0.896568,-264.603471,-0.68877,62.442038
4.6465,-0.005292,-0.010691,-0.026359,0.005438,0.011015,0.024878,-0.018182,-0.520581,-0.024921,-0.896568,-264.603471,-0.68877,62.442038
4.6669,-0.005341,-0.010892,-0.024773,0.005009,0.010826,0.026359,-0.018734,-0.520514,-0.026359,-0.822354,-264.60347,-0.614556,62.442038
4.6866,-0.005395,-0.010819,-0.025849,0.005069,0.011021,0.024773,-0.018684,-0.520528,-0.026255,-0.822354,-264.60347,-0.614556,62.442038
4.7064,-0.005179,-0.01087,-0.024653,0.005114,0.010955,0.025849,-0.018577,-0.520649,-0.025849,-0.747324,-264.603469,-0.655234,62.442039
4.7266,-0.005454,-0.010689,-0.026155,0.004909,0.010994,0.024653,-0.018116,-0.520686,-0.025182,-0.747324,-264.603469,-0.655234,62.442039
4.7464,-0.005269,-0.010983,-0.025308,0.005172,0.010828,0.026155,-0.018116,-0.520686,-0.025182,-0.747324,-264.603469,-0.655234,62.442039
4.7667,-0.005719,-0.01093,-0.025415,0.004989,0.011113,0.025308,-0.018174,-0.520819,-0.025308,-0.672232,-264.603468,-0.681198,62.442039
4.7867,-0.005749,-0.010721,-0.025104,0.005439,0.011072,0.025415,-0.018206,-0.520816,-0.025315,-0.672232,-264.603468,-0.681198,62.442039
4.8066,-0.00521,-0.010701,-0.026414,0.005478,0.010862,0.025104,-0.01855,-0.520561,-0.025104,-0.597354,-264.603467,-0.756076,62.442039
4.8268,-0.00534,-0.010945,-0.026343,0.004925,0.010835,0.026414,-0.018625,-0.520539,-0.025863,-0.597354,-264.603467,-0.756076,62.442039
4.8464,-0.005652,-0.010794,-0.026161,0.00505,0.011082,0.026343,-0.018625,-0.520539,-0.025863,-0.597354,-264.603467,-0.756076,62.442039
4.8661,-0.005212,-0.01088,-0.025881,0.005367,0.010938,0.026161,-0.018992,-0.52062,-0.026161,-0.522001,-264.603466,-0.685776,62.442039
4.8865,-0.005426,-0.010808,-0.026192,0.004929,0.011011,0.025881,-0.018952,-0.520626,-0.026142,-0.522001,-264.603466,-0.685776,62.442039
4.9066,-0.005362,-0.010404,-0.024769,0.005141,0.010947,0.026192,-0.018783,-0.520634,-0.026192,-0.447364,-264.603465,-0.760413,62.44204
4.9265,-0.005439,-0.010701,-0.026068,0.005102,0.010534,0.024769,-0.018331,-0.520413,-0.025379,-0.447364,-264.603465,-0.760413,62.44204
4.9465,-0.005359,-0.01094,-0.024704,0.005158,0.010839,0.026068,-0.018331,-0.520413,-0.025379,-0.447364,-264.603465,-0.760413,62.44204
4.9665,-0.005366,-0.010744,-0.025074,0.005087,0.011069,0.024704,-0.017957,-0.520785,-0.024704,-0.37229,-264.603464,-0.771739,62.44204
4.9861,-0.005314,-0.011071,-0.026248,0.005095,0.010875,0.025074,-0.01797,-0.520771,-0.024729,-0.37229,-264.603464,-0.771739,62.44204
5.0062,-0.005185,-0.010853,-0.026254,0.005021,0.011206,0.026248,-0.018699,-0.520895,-0.026248,-0.297371,-264.603463,-0.777943,62.44204
5.0264,-0.005442,-0.010796,-0.02629,0.004899,0.010985,0.026254,-0.018628,-0.520771,-0.026251,-0.297371,-264.603463,-0.777943,62.44204
5.0466,-0.005308,-0.011066,-0.025914,0.005156,0.010936,0.02629,-0.018628,-0.520771,-0.026251,-0.297371,-264.603463,-0.777943,62.44204
5.0664,-0.005244,-0.010781,-0.026433,0.005019,0.011199,0.025914,-0.018522,-0.520894,-0.025914,-0.222369,-264.603462,-0.71669,62.44204
5.0861,-0.00552,-0.010591,-0.02531,0.004958,0.010916,0.026433,-0.018536,-0.520875,-0.025949,-0.222369,-264.603462,-0.71669,62.44204
5.1062,-0.005514,-0.011219,-0.027023,0.00525,0.010727,0.02531,-0.018426,-0.520427,-0.02531,-0.147371,-264.603461,-0.781997,62.442041
5.1266,-0.005564,-0.010734,-0.026051,0.005209,0.011364,0.027023,-0.01892,-0.520772,-0.026285,-0.147371,-264.603461,-0.781997,62.442041
5.1464,-0.005305,-0.010932,-0.024645,0.005282,0.010875,0.026051,-0.01892,-0.520772,-0.026285,-0.147371,-264.603461,-0.781997,62.442041
5.1664,-0.005162,-0.010874,-0.024055,0.005034,0.011059,0.024645,-0.017872,-0.520777,-0.024645,-0.072371,-264.60346,-0.811908,62.442041
5.1861,-0.00546,-0.011043,-0.026402,0.004899,0.010995,0.024055,-0.017837,-0.520773,-0.024598,-0.072371,-264.60346,-0.811908,62.442041
5.2063,-0.005393,-0.010807,-0.026435,0.005167,0.011183,0.026402,-0.018924,-0.520865,-0.026402,0.002988,-264.603458,-0.761539,62.442041
5.226,-0.005386,-0.010868,-0.024568,0.005106,0.010946,0.026435,-0.018895,-0.520731,-0.026421,0.002988,-264.603458,-0.761539,62.442041
5.2461,-0.005488,-0.011003,-0.024674,0.005118,0.010997,0.024568,-0.018895,-0.520731,-0.026421,0.002988,-264.603458,-0.761539,62.442041
5.2662,-0.005657,-0.010855,-0.025644,0.005215,0.011135,0.024674,-0.018071,-0.520848,-0.024674,0.077643,-264.603458,-0.686884,62.442041
5.2862,-0.005421,-0.010688,-0.024653,0.005377,0.010996,0.025644,-0.018115,-0.520838,-0.024739,0.077643,-264.603458,-0.686884,62.442041
5.3062,-0.00574,-0.010837,-0.026536,0.005156,0.010818,0.024653,-0.017993,-0.520533,-0.024653,0.152663,-264.603457,-0.664319,62.442042
5.3266,-0.005428,-0.011113,-0.025419,0.005451,0.010986,0.026536,-0.018717,-0.520604,-0.02572,0.152663,-264.603457,-0.664319,62.442042
5.3465,-0.005196,-0.010982,-0.025378,0.005144,0.011248,0.025419,-0.018717,-0.520604,-0.02572,0.152663,-264.603457,-0.664319,62.442042
5.3668,-0.005642,-0.010755,-0.026006,0.004915,0.01111,0.025378,-0.018137,-0.520818,-0.025378,0.22767,-264.603456,-0.714748,62.442042
5.3862,-0.005636,-0.010624,-0.025662,0.005361,0.010898,0.026006,-0.018189,-0.520802,-0.02542,0.22767,-264.603456,-0.714748,62.442042
5.406,-0.005422,-0.011287,-0.026716,0.005362,0.010765,0.025662,-0.018722,-0.520456,-0.025662,0.302647,-264.603454,-0.693679,62.442042
5.426,-0.005357,-0.010838,-0.024812,0.005119,0.011428,0.026716,-0.018906,-0.520824,-0.02626,0.302647,-264.603454,-0.693679,62.442042
5.446,-0.005248,-0.011031,-0.026359,0.005087,0.010967,0.024812,-0.018906,-0.520824,-0.02626,0.302647,-264.603454,-0.693679,62.442042
5.467,-0.005493,-0.011151,-0.026259,0.004956,0.011165,0.026359,-0.01869,-0.520854,-0.026359,0.377646,-264.603453,-0.749132,62.442043
5.4863,-0.005481,-0.010739,-0.026733,0.005198,0.011292,0.026259,-0.018705,-0.520863,-0.026351,0.377646,-264.603453,-0.749132,62.442043
5.5065,-0.005504,-0.0109,-0.025684,0.005192,0.010882,0.026733,-0.019113,-0.520557,-0.026733,0.452972,-264.603452,-0.68864,62.442043
5.5263,-0.005507,-0.010468,-0.027091,0.005223,0.011038,0.025684,-0.018825,-0.520656,-0.026143,0.452972,-264.603452,-0.68864,62.442043
5.5467,-0.005403,-0.01109,-0.024638,0.005222,0.010614,0.027091,-0.018825,-0.520656,-0.026143,0.452972,-264.603452,-0.68864,62.442043
5.5662,-0.005628,-0.010565,-0.027529,0.005128,0.01122,0.024638,-0.017967,-0.520935,-0.024638,0.527662,-264.603451,-0.739958,62.442043
5.5866,-0.005428,-0.010942,-0.027096,0.005335,0.010716,0.027529,-0.018099,-0.520892,-0.024862,0.527662,-264.603451,-0.739958,62.442043
5.6061,-0.005118,-0.010748,-0.02659,0.00513,0.011085,0.027096,-0.019245,-0.520755,-0.027096,0.603079,-264.60345,-0.815374,62.442043
5.6267,-0.005288,-0.010678,-0.024827,0.004831,0.01088,0.02659,-0.018923,-0.520648,-0.026808,0.603079,-264.60345,-0.815374,62.442043
5.6462,-0.005464,-0.011029,-0.026427,0.005022,0.010806,0.024827,-0.018923,-0.520648,-0.026808,0.603079,-264.60345,-0.815374,62.442043
5.6665,-0.005612,-0.010998,-0.023596,0.005171,0.01117,0.026427,-0.01894,-0.520851,-0.026427,0.677629,-264.603449,-0.851943,62.442044
5.6868,-0.005185,-0.011078,-0.027881,0.005351,0.011127,0.023596,-0.01885,-0.520851,-0.02623,0.677629,-264.603449,-0.851943,62.442044
5.7061,-0.00571,-0.010515,-0.025805,0.004874,0.011218,0.027881,-0.019402,-0.52088,-0.027881,0.752632,-264.603447,-0.776941,62.442044
5.7266,-0.005436,-0.011063,-0.025886,0.005437,0.010659,0.025805,-0.019096,-0.520573,-0.026689,0.752632,-264.603447,-0.776941,62.442044
5.7462,-0.005418,-0.010988,-0.025699,0.005147,0.0112,0.025886,-0.019096,-0.520573,-0.026689,0.752632,-264.603447,-0.776941,62.442044
5.7663,-0.005209,-0.01098,-0.026173,0.005134,0.011124,0.025699,-0.018523,-0.52082,-0.025698,0.827756,-264.603439,-0.701816,62.442046
5.7869,-0.00556,-0.010558,-0.026247,0.004919,0.011112,0.026173,-0.018525,-0.520819,-0.025731,0.827756,-264.603439,-0.701816,62.442046
5.8064,-0.005497,-0.011077,-0.025292,0.005281,0.0107,0.026247,-0.018942,-0.520381,-0.026243,0.902639,-264.603378,-0.730347,62.442061
5.8263,-0.005532,-0.010776,-0.024434,0.005215,0.011213,0.025292,-0.01863,-0.520684,-0.025701,0.902639,-264.603378,-0.730347,62.442061
5.8463,-0.005602,-0.010758,-0.024615,0.005267,0.010907,0.024434,-0.01863,-0.520684,-0.025701,0.902639,-264.603378,-0.730347,62.442061
5.8664,-0.005142,-0.010905,-0.026997,0.005335,0.010893,0.024615,-0.018145,-0.520596,-0.024595,0.977629,-264.60318,-0.78064,62.442111
5.8871,-0.005287,-0.011028,-0.025355,0.004846,0.01104,0.026997,-0.018191,-0.520603,-0.02474,0.977629,-264.60318,-0.78064,62.442111
5.9066,-0.005474,-0.010986,-0.026722,0.005006,0.011159,0.025355,-0.018195,-0.520843,-0.025302,1.052631,-264.602534,-0.705638,62.442274
5.9264,-0.005279,-0.010816,-0.024369,0.005178,0.011129,0.026722,-0.018703,-0.520818,-0.026097,1.052631,-264.602534,-0.705638,62.442274
5.9465,-0.005271,-0.010769,-0.025458,0.005013,0.010941,0.024369,-0.018703,-0.520818,-0.026097,1.052631,-264.602534,-0.705638,62.442274
5.9665,-0.005648,-0.010554,-0.026317,0.004995,0.0109,0.025458,-0.018207,-0.520553,-0.025329,1.127634,-264.601341,-0.780641,62.442585
5.9867,-0.005372,-0.010661,-0.025568,0.005368,0.010699,0.026317,-0.018266,-0.520539,-0.025395,1.127634,-264.601341,-0.780641,62.442585
6.0061,-0.005625,-0.010761,-0.024817,0.005098,0.010795,0.025568,-0.018327,-0.520382,-0.025303,1.202633,-264.598272,-0.705642,62.443329
6.0262,-0.0054,-0.010772,-0.026799,0.005356,0.010897,0.024817,-0.01829,-0.520493,-0.024994,1.202633,-264.598272,-0.705642,62.443329
6.0464,-0.00584,-0.010534,-0.025618,0.005109,0.010912,0.026799,-0.01829,-0.520493,-0.024994,1.202633,-264.598272,-0.705642,62.443329
6.0661,-0.005923,-0.01044,-0.025022,0.005568,0.01068,0.025618,-0.018725,-0.52012,-0.024967,1.277633,-264.592691,-0.780642,62.445051
6.0868,-0.005776,-0.01004,-0.026455,0.00566,0.010585,0.025022,-0.018717,-0.520125,-0.024953,1.277633,-264.592691,-0.780642,62.445051
6.1061,-0.006016,-0.010097,-0.023259,0.005509,0.010189,0.026455,-0.019095,-0.519571,-0.025694,1.352777,-264.584618,-0.818174,62.447475
6.1262,-0.00598,-0.010143,-0.022214,0.005779,0.010235,0.023259,-0.018375,-0.519757,-0.024201,1.352777,-264.584618,-0.818174,62.447475
6.1461,-0.005947,-0.009562,-0.023038,0.005753,0.010273,0.022214,-0.018375,-0.519757,-0.024201,1.352777,-264.584618,-0.818174,62.447475
6.1661,-0.0061,-0.009549,-0.022872,0.005725,0.009696,0.023038,-0.017478,-0.519037,-0.022087,1.355387,-264.576406,-0.743186,62.449756
6.186,-0.006405,-0.009517,-0.022227,0.00588,0.009686,0.022872,-0.017492,-0.519053,-0.022116,1.355387,-264.576406,-0.743186,62.449756
6.206,-0.00634,-0.008985,-0.020934,0.006191,0.009657,0.022227,-0.017642,-0.519224,-0.021834,1.334017,-264.57204,-0.668317,62.450936
6.2263,-0.006728,-0.009276,-0.022823,0.006151,0.009115,0.020934,-0.01727,-0.519002,-0.021268,1.334017,-264.57204,-0.668317,62.450936
6.2463,-0.006347,-0.00914,-0.022545,0.006515,0.009427,0.022823,-0.01727,-0.519002,-0.021268,1.334017,-264.57204,-0.668317,62.450936
6.2665,-0.006471,-0.009214,-0.022098,0.00614,0.009281,0.022545,-0.017598,-0.518713,-0.021718,1.327144,-264.565178,-0.629529,62.453774
6.2865,-0.006253,-0.008967,-0.02064,0.006266,0.009354,0.022098,-0.017602,-0.518733,-0.021723,1.327144,-264.565178,-0.629529,62.453774
6.3063,-0.006935,-0.008683,-0.02141,0.006067,0.009094,0.02064,-0.016528,-0.518513,-0.019789,1.298893,-264.555816,-0.605704,62.456875
6.3263,-0.006675,-0.008323,-0.022071,0.006747,0.00883,0.02141,-0.017254,-0.5185,-0.020608,1.298893,-264.555816,-0.605704,62.456875
6.3462,-0.006601,-0.008738,-0.019911,0.00649,0.008469,0.022071,-0.017254,-0.5185,-0.020608,1.298893,-264.555816,-0.605704,62.456875
6.3665,-0.007262,-0.008195,-0.01791,0.006425,0.008868,0.019911,-0.016444,-0.518192,-0.018845,1.303174,-264.546425,-0.584083,62.459852
6.386,-0.006871,-0.008128,-0.018361,0.007114,0.008324,0.01791,-0.016433,-0.518175,-0.018757,1.303174,-264.546425,-0.584083,62.459852
6.4065,-0.007531,-0.007868,-0.015262,0.006721,0.008253,0.018361,-0.016001,-0.517749,-0.017584,1.283304,-264.538081,-0.657537,62.462842
6.4264,-0.007146,-0.008074,-0.01838,0.00741,0.007982,0.015262,-0.01558,-0.517746,-0.016162,1.283304,-264.538081,-0.657537,62.462842
6.4466,-0.007467,-0.007536,-0.018234,0.006996,0.008204,0.01838,-0.01558,-0.517746,-0.016162,1.283304,-264.538081,-0.657537,62.462842
6.4662,-0.006763,-0.007997,-0.019166,0.007328,0.007671,0.018234,-0.016697,-0.517378,-0.018043,1.217019,-264.5364,-0.582542,62.463462
6.486,-0.007361,-0.008048,-0.018256,0.006609,0.008125,0.019166,-0.016684,-0.517412,-0.018115,1.217019,-264.5364,-0.582542,62.463462
6.506,-0.007341,-0.007852,-0.018745,0.007213,0.008181,0.018256,-0.016521,-0.51782,-0.017873,1.22516,-264.53219,-0.507544,62.465337
6.5261,-0.007224,-0.007522,-0.015983,0.007193,0.007988,0.018745,-0.016725,-0.517768,-0.018336,1.22516,-264.53219,-0.507544,62.465337
6.5463,-0.007154,-0.007447,-0.018092,0.007103,0.007637,0.015983,-0.016725,-0.517768,-0.018336,1.22516,-264.53219,-0.507544,62.465337
6.5661,-0.007423,-0.007054,-0.019624,0.007018,0.007575,0.018092,-0.01609,-0.517071,-0.017324,1.249119,-264.525525,-0.496486,62.468295
6.586,-0.007565,-0.007107,-0.017139,0.007283,0.007198,0.019624,-0.016178,-0.517054,-0.017468,1.249119,-264.525525,-0.496486,62.468295
6.6064,-0.007704,-0.006826,-0.014543,0.007442,0.007235,0.017139,-0.016177,-0.516904,-0.016835,1.183172,-264.521991,-0.421879,62.469689
6.6262,-0.007503,-0.007079,-0.015948,0.007604,0.006938,0.014543,-0.01556,-0.516813,-0.015493,1.183172,-264.521991,-0.421879,62.469689
6.6461,-0.007357,-0.007031,-0.016342,0.007389,0.007197,0.015948,-0.01556,-0.516813,-0.015493,1.183172,-264.521991,-0.421879,62.469689
6.6661,-0.007356,-0.006826,-0.016994,0.007241,0.00715,0.016342,-0.015449,-0.516727,-0.015732,1.207971,-264.516586,-0.496712,62.471985
6.6864,-0.007955,-0.006726,-0.015224,0.007239,0.00695,0.016994,-0.015484,-0.516722,-0.015808,1.207971,-264.516586,-0.496712,62.471985
6.7063,-0.007366,-0.006561,-0.016089,0.007851,0.006846,0.015224,-0.015542,-0.516505,-0.014829,1.159449,-264.512005,-0.421571,62.473922
6.7264,-0.007599,-0.006033,-0.015035,0.007851,0.006846,0.015224,-0.015536,-0.516479,-0.015496,1.159449,-264.512005,-0.421571,62.473922
6.7461,-0.007342,-0.006622,-0.015411,7.7e-05,6.3e-05,0.0,-0.015536,-0.516479,-0.015496,1.159449,-264.512005,-0.421571,62.473922
6.7661,-0.007516,-0.005784,-0.012762,7.7e-05,6.3e-05,0.0,-0.014856,-0.516252,-0.014625,1.175106,-264.504921,-0.442424,62.477091
6.7866,-0.007661,-0.006224,-0.013979,7.7e-05,6.3e-05,0.0,-0.01479,-0.516209,-0.014477,1.175106,-264.504921,-0.442424,62.477091
6.8063,-0.00771,-0.006544,-0.013074,7.7e-05,6.3e-05,0.0,-0.01479,-0.516174,-0.013979,1.10009,-264.504921,-0.367408,62.477091
6.8262,-0.007128,-0.006135,-0.014297,7.7e-05,6.3e-05,0.0,-0.01455,-0.516364,-0.013454,1.10009,-264.504921,-0.367408,62.477091
6.8461,-0.007539,-0.006287,-0.015182,7.7e-05,6.3e-05,0.0,-0.01455,-0.516364,-0.013454,1.10009,-264.504921,-0.367408,62.477091
6.8661,-0.007542,-0.006071,-0.013799,7.7e-05,6.3e-05,0.0,-0.015282,-0.516228,-0.015182,1.024796,-264.504921,-0.292114,62.477091
6.8865,-0.007764,-0.006208,-0.014303,7.7e-05,6.3e-05,0.0,-0.015235,-0.516214,-0.01509,1.024796,-264.504921,-0.292114,62.477091
6.906,-0.007477,-0.006148,-0.015162,7.7e-05,6.3e-05,0.0,-0.015058,-0.516156,-0.014303,0.950091,-264.504921,-0.217409,62.477091
6.9263,-0.007597,-0.006304,-0.013781,7.7e-05,6.3e-05,0.0,-0.015144,-0.516118,-0.014791,0.950091,-264.504921,-0.217409,62.477091
6.9464,-0.007756,-0.00602,-0.014555,2e-06,1e-06,4e-06,-0.015144,-0.516118,-0.014791,0.950091,-264.504921,-0.217409,62.477091
6.9661,-0.007551,-0.006286,-0.012926,0.001098,0.000899,0.002199,-0.015179,-0.515966,-0.014555,0.875089,-264.504921,-0.142407,62.477091
6.9869,-0.007381,-0.006009,-0.013493,0.002141,0.001753,0.004288,-0.015112,-0.515984,-0.01445,0.875089,-264.504921,-0.142407,62.477091
7.0062,-0.007546,-0.006097,-0.013187,0.003125,0.002558,0.006257,-0.014262,-0.515963,-0.013493,0.9501,-264.504921,-0.217419,62.477092
7.0263,-0.007565,-0.006322,-0.012375,0.004053,0.003318,0.008116,-0.014267,-0.516014,-0.013317,0.9501,-264.504921,-0.217419,62.477092
7.0466,-0.007522,-0.006333,-0.013737,0.004927,0.004033,0.009866,-0.014267,-0.516014,-0.013317,0.9501,-264.504921,-0.217419,62.477092
7.0662,-0.007113,-0.006514,-0.013549,0.005744,0.004702,0.011503,-0.01448,-0.516251,-0.013658,1.025219,-264.504119,-0.292537,62.477472
7.0866,-0.007468,-0.006249,-0.0154,0.006504,0.005325,0.013025,-0.014446,-0.516265,-0.013649,1.025219,-264.504119,-0.292537,62.477472
7.1062,-0.007307,-0.005904,-0.013447,0.007208,0.005901,0.014434,-0.015173,-0.516076,-0.015119,1.100213,-264.500817,-0.367532,62.479102
7.1262,-0.007522,-0.005977,-0.013348,0.007857,0.006432,0.015734,-0.014585,-0.515939,-0.01414,1.100213,-264.500817,-0.367532,62.479102
7.1464,-0.007552,-0.006189,-0.014833,0.008447,0.006915,0.016916,-0.014585,-0.515939,-0.01414,1.100213,-264.500817,-0.367532,62.479102
7.1662,-0.007697,-0.005605,-0.012485,0.008983,0.007354,0.01799,-0.0148,-0.515884,-0.01421,1.115363,-264.494992,-0.38431,62.481898
7.1865,-0.007882,-0.005654,-0.013849,0.00946,0.007744,0.018944,-0.014734,-0.515852,-0.014058,1.115363,-264.494992,-0.38431,62.481898
7.2065,-0.007537,-0.005356,-0.012306,0.009882,0.00809,0.01979,-0.014617,-0.515344,-0.0132,1.115363,-264.487352,-0.38431,62.485522
7.2263,-0.007585,-0.005474,-0.011894,0.010249,0.00839,0.020524,-0.014118,-0.515296,-0.012609,1.115363,-264.487352,-0.38431,62.485522
7.2462,-0.007619,-0.005613,-0.010593,0.010558,0.008643,0.021143,-0.014118,-0.515296,-0.012609,1.115363,-264.487352,-0.38431,62.485522
7.2664,-0.007661,-0.005269,-0.011141,0.010811,0.008851,0.021651,-0.012557,-0.515212,-0.009671,1.115363,-264.47872,-0.38431,62.489618
7.2864,-0.007326,-0.005348,-0.011538,0.011008,0.009012,0.022044,-0.012604,-0.515204,-0.009755,1.115363,-264.47872,-0.38431,62.489618
7.3062,-0.007516,-0.004573,-0.0108,0.011149,0.009127,0.022327,-0.012801,-0.514987,-0.010725,1.115363,-264.469141,-0.38431,62.494163
7.3262,-0.007683,-0.004639,-0.009674,0.011233,0.009196,0.022496,-0.012876,-0.514691,-0.010664,1.115363,-264.469141,-0.38431,62.494163
7.3463,-0.007985,-0.004577,-0.010636,0.011261,0.009219,0.022552,-0.012876,-0.514691,-0.010664,1.115363,-264.469141,-0.38431,62.494163
7.3666,-0.007893,-0.004096,-0.008902,0.011233,0.009196,0.022496,-0.01287,-0.514115,-0.009565,1.115363,-264.459142,-0.38431,62.498907
7.3866,-0.007798,-0.004074,-0.010192,0.011148,0.009127,0.022326,-0.012827,-0.514102,-0.009494,1.115363,-264.459142,-0.38431,62.498907
7.4064,-0.007544,-0.003594,-0.007776,0.011007,0.009011,0.022042,-0.012557,-0.513696,-0.00932,1.115363,-264.448899,-0.38431,62.503767
7.426,-0.007865,-0.003522,-0.007821,0.01081,0.00885,0.021648,-0.011904,-0.513584,-0.008329,1.115363,-264.448899,-0.38431,62.503767
7.4462,-0.007768,-0.00381,-0.008193,0.010558,0.008643,0.021143,-0.011904,-0.513584,-0.008329,1.115363,-264.448899,-0.38431,62.503767
7.4661,-0.007846,-0.003623,-0.007981,0.010247,0.008389,0.020521,-0.011401,-0.513354,-0.007108,1.115363,-264.438747,-0.38431,62.508583
7.486,-0.007697,-0.003352,-0.007219,0.009882,0.00809,0.01979,-0.011424,-0.51336,-0.007142,1.115363,-264.438747,-0.38431,62.508583
7.506,-0.007735,-0.002761,-0.005054,0.009459,0.007744,0.018943,-0.010969,-0.513008,-0.006403,1.115363,-264.429148,-0.38431,62.513138
7.526,-0.007773,-0.002893,-0.006229,0.00897,0.007344,0.017964,-0.010542,-0.512822,-0.005528,1.115363,-264.429148,-0.38431,62.513138
7.5461,-0.007801,-0.002834,-0.004879,0.008446,0.006914,0.016914,-0.010542,-0.512822,-0.005528,1.115363,-264.429148,-0.38431,62.513138
7.5661,-0.007616,-0.002199,-0.005084,0.007855,0.00643,0.015729,-0.009807,-0.512438,-0.003918,1.115363,-264.42016,-0.38431,62.517402
7.5864,-0.007592,-0.001998,-0.004217,0.007207,0.0059,0.014432,-0.009823,-0.512409,-0.003976,1.115363,-264.42016,-0.38431,62.517402
7.6069,-0.007676,-0.001742,-0.004953,0.006502,0.005323,0.013021,-0.009416,-0.511728,-0.003565,1.115363,-264.41249,-0.38431,62.521042
7.6271,-0.007918,-0.002044,-0.005075,0.005744,0.004702,0.011503,-0.009822,-0.511698,-0.004272,1.115363,-264.41249,-0.38431,62.521042
7.6463,-0.007553,-0.001863,-0.003494,0.004926,0.004032,0.009864,-0.009822,-0.511698,-0.004272,1.115363,-264.41249,-0.38431,62.521042
7.6669,-0.007813,-0.002198,-0.003264,0.004052,0.003317,0.008115,-0.008983,-0.511574,-0.002791,1.115363,-264.405927,-0.38431,62.524155
7.6864,-0.007843,-0.001767,-0.002221,0.003115,0.00255,0.006238,-0.009007,-0.511609,-0.002805,1.115363,-264.405927,-0.38431,62.524155
7.7065,-0.007854,-0.001348,-0.003479,0.002136,0.001749,0.004278,-0.008785,-0.51161,-0.00184,1.115363,-264.401455,-0.38431,62.526277
7.7262,-0.007645,-0.00154,-0.002966,0.001091,0.000893,0.002185,-0.00924,-0.51144,-0.002723,1.115363,-264.401455,-0.38431,62.526277
7.7463,-0.0076,-0.001599,-0.003041,0.0,0.0,1e-06,-0.00924,-0.51144,-0.002723,1.115363,-264.401455,-0.38431,62.526277
7.7661,-0.007576,-0.00145,-0.002328,0.0,0.0,0.0,-0.008999,-0.511473,-0.002738,1.115363,-264.398611,-0.38431,62.527627
7.7864,-0.007687,-0.001688,-0.002276,0.0,0.0,0.0,-0.008977,-0.511467,-0.002698,1.115363,-264.398611,-0.38431,62.527627
7.8061,-0.007633,-0.001476,-0.003349,0.0,0.0,0.0,-0.008848,-0.511687,-0.002276,1.115363,-264.39861,-0.38431,62.527627
7.8261,-0.007706,-0.001326,-0.001996,0.0,0.0,0.0,-0.00913,-0.511565,-0.002891,1.115363,-264.39861,-0.38431,62.527627
7.8462,-0.007911,-0.001382,-0.00233,0.0,0.0,0.0,-0.00913,-0.511565,-0.002891,1.115363,-264.39861,-0.38431,62.527627
7.8661,-0.007684,-0.001771,-0.004504,0.0,0.0,0.0,-0.0091,-0.511381,-0.00233,1.115363,-264.39861,-0.38431,62.527627
7.8865,-0.007721,-0.001636,-0.002596,0.0,0.0,0.0,-0.009157,-0.511406,-0.002471,1.115363,-264.39861,-0.38431,62.527627
7.9064,-0.007777,-0.001278,-0.002175,0.0,0.0,0.0,-0.009044,-0.511634,-0.002596,1.115363,-264.39861,-0.38431,62.527627
7.9268,-0.007445,-0.00146,-0.002557,0.0,0.0,0.0,-0.008955,-0.511431,-0.002357,1.115363,-264.39861,-0.38431,62.527627
7.9461,-0.007452,-0.001481,-0.002894,0.0,0.0,0.0,-0.008955,-0.511431,-0.002357,1.115363,-264.39861,-0.38431,62.527627
7.966,-0.007559,-0.001549,-0.003227,0.0,0.0,0.0,-0.008928,-0.511479,-0.002894,1.115363,-264.39861,-0.38431,62.527627
7.9861,-0.007475,-0.001716,-0.003182,9.8e-05,2e-05,0.0,-0.008947,-0.511483,-0.002917,1.115363,-264.39861,-0.38431,62.527627
8.0062,-0.007377,-0.001228,-0.002015,9.8e-05,2e-05,0.0,-0.009098,-0.511714,-0.003182,1.115363,-264.39861,-0.38431,62.527627
8.026,-0.007243,-0.001075,-0.00093,9.8e-05,2e-05,0.0,-0.008703,-0.511437,-0.002518,1.115363,-264.39861,-0.38431,62.527627
8.0462,-0.007618,-0.001477,-0.000932,9.8e-05,2e-05,0.0,-0.008703,-0.511437,-0.002518,1.115363,-264.39861,-0.38431,62.527627
8.0662,-0.007516,-0.001522,-0.002933,9.8e-05,2e-05,0.0,-0.008094,-0.511477,-0.000932,1.040366,-264.39861,-0.309313,62.527627
8.0866,-0.007718,-0.001433,-0.002121,9.8e-05,2e-05,0.0,-0.008158,-0.51148,-0.001072,1.040366,-264.39861,-0.309313,62.527627
8.1064,-0.007742,-0.000951,-0.001517,9.8e-05,2e-05,0.0,-0.0088,-0.511432,-0.002121,0.965366,-264.39861,-0.234313,62.527627
8.1264,-0.007737,-0.001425,-0.000934,9.8e-05,2e-05,0.0,-0.008639,-0.51116,-0.00178,0.965366,-264.39861,-0.234313,62.527627
8.1461,-0.007983,-0.001306,-0.003065,9.8e-05,2e-05,0.0,-0.008639,-0.51116,-0.00178,0.965366,-264.39861,-0.234313,62.527627
8.1662,-0.007982,-0.001101,-0.002119,9.8e-05,2e-05,0.0,-0.009546,-0.511304,-0.003065,0.890364,-264.39861,-0.159311,62.527627
8.1862,-0.007531,-0.001212,-0.00291,9.8e-05,2e-05,0.0,-0.009513,-0.51129,-0.003,0.890364,-264.39861,-0.159311,62.527627
8.2066,-0.007228,-0.001524,-0.002,0.001099,0.000229,0.00047,-0.009015,-0.51121,-0.00291,0.815358,-264.39861,-0.084305,62.527627
8.2263,-0.007296,-0.001333,-0.001595,0.002149,0.000448,0.000918,-0.008575,-0.511389,-0.002388,0.815358,-264.39861,-0.084305,62.527627
8.2462,-0.007617,-0.001393,-0.00327,0.003141,0.000654,0.001342,-0.008575,-0.511389,-0.002388,0.815358,-264.39861,-0.084305,62.527627
8.2666,-0.007574,-0.001185,-0.001062,0.004078,0.000849,0.001742,-0.009285,-0.51139,-0.00327,0.740225,-264.39861,-0.009173,62.527627
8.2861,-0.007869,-0.001585,-0.003394,0.004953,0.001032,0.002116,-0.009198,-0.511375,-0.003107,0.740225,-264.39861,-0.009173,62.527627
8.3066,-0.007019,-0.001251,-0.002247,0.005775,0.001203,0.002467,-0.009575,-0.511574,-0.003378,0.665236,-264.398304,-0.052594,62.527905
8.3262,-0.007775,-0.001292,-0.000288,0.006539,0.001362,0.002794,-0.008772,-0.511388,-0.002734,0.665236,-264.398304,-0.052594,62.527905
8.3462,-0.007661,-0.001359,-0.003085,0.007247,0.00151,0.003096,-0.008772,-0.511388,-0.002734,0.665236,-264.398304,-0.052594,62.527905
8.3663,-0.007324,-0.001445,-0.002807,0.0079,0.001646,0.003375,-0.009134,-0.511327,-0.003028,0.590361,-264.397345,-0.052594,62.528773
8.386,-0.007575,-0.001223,-0.00125,0.008494,0.001769,0.003629,-0.009104,-0.511335,-0.00301,0.590361,-264.397345,-0.052594,62.528773
8.406,-0.007502,-0.000843,-0.002253,0.009034,0.001882,0.00386,-0.008023,-0.511175,-0.001155,0.515198,-264.395135,-0.052594,62.530778
8.4265,-0.007444,-0.001297,-0.003485,0.009515,0.001982,0.004065,-0.008358,-0.510978,-0.001771,0.515198,-264.395135,-0.052594,62.530778
8.4465,-0.007653,-0.001332,-0.002077,0.00994,0.002071,0.004247,-0.008358,-0.510978,-0.001771,0.515198,-264.395135,-0.052594,62.530778
8.4666,-0.007394,-0.001354,-0.002843,0.010309,0.002147,0.004404,-0.008336,-0.511253,-0.001916,0.440276,-264.391721,-0.052594,62.533872
8.4868,-0.007003,-0.001113,-0.002441,0.010621,0.002212,0.004538,-0.008361,-0.511258,-0.001974,0.440276,-264.391721,-0.052594,62.533872
8.5061,-0.006629,-0.000727,-0.002336,0.010876,0.002265,0.004647,-0.007859,-0.511032,-0.002275,0.438735,-264.387329,-0.052594,62.537854
8.5264,-0.0069,-0.001141,-0.001965,0.011074,0.002307,0.004731,-0.00779,-0.51085,-0.002289,0.438735,-264.387329,-0.052594,62.537854
8.546,-0.006954,-0.001022,-0.002052,0.011216,0.002336,0.004792,-0.00779,-0.51085,-0.002289,0.438735,-264.387329,-0.052594,62.537854
8.5663,-0.006146,-0.001008,-0.002651,0.011302,0.002354,0.004829,-0.007485,-0.510914,-0.001832,0.438735,-264.382636,-0.052594,62.542108
8.5863,-0.006138,-0.000981,-0.001248,0.01133,0.00236,0.004841,-0.007472,-0.510918,-0.001883,0.438735,-264.382636,-0.052594,62.542108
8.606,-0.005775,-0.000837,-0.000716,0.011302,0.002354,0.004829,-0.006342,-0.510891,-0.001063,0.438735,-264.377673,-0.052594,62.546607
8.6268,-0.005926,-0.001038,-0.00297,0.011218,0.002337,0.004793,-0.006171,-0.510849,-0.00084,0.438735,-264.377673,-0.052594,62.546607
8.6461,-0.005903,-0.000792,-0.000848,0.011076,0.002307,0.004732,-0.006171,-0.510849,-0.00084,0.438735,-264.377673,-0.052594,62.546607
8.6662,-0.005559,-0.000988,0.000214,0.010877,0.002266,0.004647,-0.005786,-0.510678,-0.000613,0.438735,-264.372666,-0.052594,62.551146
8.6864,-0.005581,-0.000754,-0.000417,0.010624,0.002213,0.004539,-0.005746,-0.510698,-0.000546,0.438735,-264.372666,-0.052594,62.551146
8.7062,-0.004576,-0.000373,-0.002419,0.010312,0.002148,0.004406,-0.005367,-0.510666,-0.000235,0.438735,-264.367773,-0.052594,62.555582
8.7262,-0.004984,-0.000462,-0.001244,0.009945,0.002071,0.004249,-0.005566,-0.510486,-0.001462,0.438735,-264.367773,-0.052594,62.555582
8.7463,-0.004981,-0.000508,-0.000757,0.00952,0.001983,0.004067,-0.005566,-0.510486,-0.001462,0.438735,-264.367773,-0.052594,62.555582
8.7661,-0.004623,-0.000839,-0.001806,0.009039,0.001883,0.003862,-0.00485,-0.5104,-0.000536,0.438735,-264.363078,-0.052594,62.559838
8.7865,-0.004352,-0.000591,-0.000764,0.008501,0.001771,0.003632,-0.004884,-0.510428,-0.000619,0.438735,-264.363078,-0.052594,62.559838
8.8062,-0.004063,-0.000493,-0.00142,0.007906,0.001647,0.003378,-0.004374,-0.510514,-0.000607,0.438735,-264.358871,-0.052594,62.563653
8.8267,-0.004017,-0.000173,-0.000198,0.007256,0.001511,0.0031,-0.004565,-0.510492,-0.001054,0.438735,-264.358871,-0.052594,62.563653
8.8468,-0.003885,-0.000417,-0.000139,0.006547,0.001364,0.002797,-0.004565,-0.510492,-0.001054,0.438735,-264.358871,-0.052594,62.563653
8.8661,-0.003968,-2e-05,0.001251,0.005783,0.001205,0.002471,-0.003543,-0.510331,3.7e-05,0.438735,-264.355107,-0.052594,62.567065
8.8864,-0.00417,-0.000297,0.000606,0.004962,0.001034,0.00212,-0.003515,-0.510305,0.000134,0.438735,-264.355107,-0.052594,62.567065
8.9065,-0.003733,-0.000241,0.000693,0.004084,0.000851,0.001745,-0.003609,-0.510245,0.000713,0.438735,-264.352221,-0.052594,62.569681
8.9262,-0.003447,0.00015,-0.001323,0.003148,0.000656,0.001345,-0.003446,-0.510236,0.000715,0.438735,-264.352221,-0.052594,62.569681
8.9462,-0.003351,-0.000303,-0.000988,0.002159,0.00045,0.000922,-0.003446,-0.510236,0.000715,0.438735,-264.352221,-0.052594,62.569681
8.9665,-0.003222,-0.000372,-0.000356,0.001111,0.000231,0.000475,-0.003613,-0.510253,-0.000885,0.438735,-264.350028,-0.052594,62.571669
8.9867,-0.003175,-0.000349,-5.1e-05,7e-06,1e-06,3e-06,-0.003592,-0.51026,-0.000845,0.438735,-264.350028,-0.052594,62.571669
9.0064,-0.003132,0.000111,0.001059,0.0,0.0,0.0,-0.003118,-0.510331,-1.6e-05,0.438735,-264.349075,-0.052594,62.572532
9.0261,-0.003456,-0.000111,-0.001066,0.0,0.0,0.0,-0.00281,-0.510079,0.000596,0.438735,-264.349075,-0.052594,62.572532
9.0464,-0.00355,-0.000105,0.00156,0.0,0.0,0.0,-0.00281,-0.510079,0.000596,0.438735,-264.349075,-0.052594,62.572532
9.0662,-0.003633,-0.000716,0.000771,0.0,0.0,0.0,-0.002754,-0.510105,0.00156,0.438735,-264.349072,-0.052594,62.572535
9.0862,-0.003611,-0.000543,-0.000447,0.0,0.0,0.0,-0.002783,-0.510141,0.001513,0.438735,-264.349072,-0.052594,62.572535
9.1062,-0.003198,-0.000343,0.000516,0.0,0.0,0.0,-0.003839,-0.510542,-0.000447,0.438735,-264.349072,-0.052594,62.572535
9.1262,-0.003253,0.000195,-0.000174,0.0,0.0,0.0,-0.003324,-0.510429,0.000101,0.438735,-264.349072,-0.052594,62.572535
9.1464,-0.003579,-0.000391,-2.7e-05,0.0,0.0,0.0,-0.003324,-0.510429,0.000101,0.438735,-264.349072,-0.052594,62.572535
9.1665,-0.003108,-0.00015,-0.002857,0.0,0.0,0.0,-0.003593,-0.510391,-2.7e-05,0.438735,-264.349072,-0.052594,62.572535
9.1866,-0.003182,-0.000122,-0.000487,0.0,0.0,0.0,-0.003651,-0.510377,-0.000195,0.438735,-264.349072,-0.052594,62.572535
9.2064,-0.003305,-0.000319,0.000435,0.0,0.0,0.0,-0.003431,-0.510122,-0.000487,0.438735,-264.349072,-0.052594,62.572535
9.2268,-0.00329,-0.000478,0.000313,0.0001,1e-05,0.0,-0.003234,-0.510234,3.6e-05,0.438735,-264.349072,-0.052594,62.572535
9.2462,-0.003793,-0.000147,-0.000226,0.0001,1e-05,0.0,-0.003234,-0.510234,3.6e-05,0.438735,-264.349072,-0.052594,62.572535
9.2659,-0.002911,-0.000297,-0.001804,0.0001,1e-05,0.0,-0.003909,-0.510147,-0.000226,0.438735,-264.349072,-0.052594,62.572535
9.2865,-0.003331,-0.000451,3.5e-05,0.0001,1e-05,0.0,-0.003903,-0.510158,-0.000337,0.438735,-264.349072,-0.052594,62.572535
9.3068,-0.00309,-4.4e-05,-0.000834,0.0001,1e-05,0.0,-0.003313,-0.510451,3.5e-05,0.363748,-264.349068,0.022393,62.572539
9.3263,-0.003227,-0.000364,0.002205,0.0001,1e-05,0.0,-0.003427,-0.510222,-0.000454,0.363748,-264.349068,0.022393,62.572539
9.3471,-0.003312,-0.000117,-0.000264,0.0001,1e-05,0.0,-0.003427,-0.510222,-0.000454,0.363748,-264.349068,0.022393,62.572539
9.3664,-0.003132,-1.6e-05,-0.000538,0.0001,1e-05,0.0,-0.003445,-0.510117,-0.000263,0.288756,-264.349057,0.095797,62.572551
9.3874,-0.003125,-0.000248,-0.000256,0.0001,1e-05,0.0,-0.003443,-0.510112,-0.000277,0.288756,-264.349057,0.095797,62.572551
9.4061,-0.00325,-0.000167,-0.00093,0.0001,1e-05,0.0,-0.003253,-0.510248,-0.000255,0.213746,-264.349035,0.095797,62.572573
9.4262,-0.003498,-0.000417,-0.000996,0.0001,1e-05,0.0,-0.003517,-0.510202,-0.000634,0.213746,-264.349035,0.095797,62.572573
9.4463,-0.003539,-0.000621,0.000269,0.000484,4.6e-05,-6.4e-05,-0.003517,-0.510202,-0.000634,0.213746,-264.349035,0.095797,62.572573
9.4661,-0.002945,-0.000358,-0.000775,0.000942,9.1e-05,-0.000124,-0.003398,-0.51062,0.000269,0.138735,-264.349003,0.095797,62.572605
9.4861,-0.003478,9.5e-05,0.0002,0.001375,0.000132,-0.000181,-0.003394,-0.510603,0.0002,0.138735,-264.349003,0.095797,62.572605
9.5067,-0.003251,-0.000173,0.000591,0.001783,0.000171,-0.000235,-0.003362,-0.509903,0.000199,0.063739,-264.348865,0.170793,62.572744
9.5262,-0.003356,-4.6e-05,-0.001449,0.002168,0.000208,-0.000285,-0.003125,-0.510057,0.000422,0.063739,-264.348865,0.170793,62.572744
9.5464,-0.003438,2.1e-05,0.000919,0.002527,0.000243,-0.000332,-0.003125,-0.510057,0.000422,0.063739,-264.348865,0.170793,62.572744
9.5663,-0.0034,-7.3e-05,-0.002567,0.002862,0.000275,-0.000377,-0.002905,-0.509973,0.00091,0.015735,-264.348335,0.174649,62.573282
9.5868,-0.003313,-0.000406,-0.001171,0.003172,0.000305,-0.000417,-0.003021,-0.509979,0.000683,0.015735,-264.348335,0.174649,62.573282
9.6062,-0.00315,-9e-06,0.000371,0.003458,0.000332,-0.000455,-0.003812,-0.510397,-0.001184,0.015735,-264.347323,0.174649,62.57431
9.626,-0.002828,-0.000451,-7.3e-05,0.003717,0.000357,-0.000489,-0.003313,-0.510174,-0.000296,0.015735,-264.347323,0.174649,62.57431
9.6466,-0.003164,-9.1e-05,-1e-06,0.003953,0.00038,-0.00052,-0.003313,-0.510174,-0.000296,0.015735,-264.347323,0.174649,62.57431
9.6666,-0.00287,-0.000233,0.000443,0.004164,0.0004,-0.000548,-0.003011,-0.510076,-2.1e-05,0.015735,-264.34605,0.174649,62.575603
9.6862,-0.00309,-0.000207,-0.000509,0.00435,0.000418,-0.000572,-0.002976,-0.510089,1.7e-05,0.015735,-264.34605,0.174649,62.575603
9.7062,-0.002196,-0.000325,-0.000144,0.004511,0.000434,-0.000594,-0.003197,-0.510192,-0.000529,0.015735,-264.344476,0.174649,62.5772
9.726,-0.002696,-1.2e-05,-0.001,0.004648,0.000447,-0.000612,-0.002652,-0.510266,-0.000313,0.015735,-264.344476,0.174649,62.5772
