mach0312/omni-docking-bench/src/icros_test_setup/results/kinematic_sample/timeseries/trial_134.csv
t,x,y,yaw,vx,vy,wz,bl_x,bl_y,bl_yaw,front_steering_joint,front_wheel_joint,rear_steering_joint,rear_wheel_joint
0.0,0.055093,-0.030098,-0.079612,-0.005676,-0.001281,-0.004299,0.014893,-0.538728,-0.078658,0.933529,-264.203309,-0.518837,62.456284
0.0004,0.054673,-0.030371,-0.07882,-0.011822,-0.002667,-0.008955,0.014893,-0.538728,-0.078658,0.858454,-264.203343,-0.443762,62.456256
0.0008,0.054501,-0.030435,-0.078939,-0.012572,-0.002836,-0.009523,0.014591,-0.538741,-0.079263,0.783521,-264.203809,-0.368829,62.45586
0.0011,0.054385,-0.030897,-0.080899,-0.013241,-0.002987,-0.01003,0.01454,-0.538725,-0.079349,0.708459,-264.205523,-0.293767,62.45441
0.0014,0.054476,-0.030473,-0.080016,-0.013833,-0.003121,-0.010478,0.01454,-0.538725,-0.079349,0.633522,-264.20973,-0.232711,62.450848
0.0018,0.05475,-0.030074,-0.081243,-0.014345,-0.003236,-0.010866,0.01454,-0.538725,-0.079349,0.602789,-264.215743,-0.232711,62.445758
0.0021,0.053849,-0.030515,-0.081648,-0.014779,-0.003334,-0.011194,0.014129,-0.538683,-0.079725,0.602789,-264.222711,-0.232711,62.439859
0.0023,0.054185,-0.030682,-0.080698,-0.015134,-0.003414,-0.011463,0.014518,-0.538714,-0.079061,0.602789,-264.222711,-0.232711,62.439859
0.0026,0.053636,-0.030616,-0.082426,-0.01541,-0.003477,-0.011672,0.014518,-0.538714,-0.079061,0.602789,-264.222711,-0.232711,62.439859
0.0028,0.05361,-0.0305,-0.081271,-0.015606,-0.003521,-0.011821,0.014518,-0.538714,-0.079061,0.602789,-264.222711,-0.232711,62.439859
0.0043,0.053655,-0.030723,-0.080999,-0.015725,-0.003548,-0.011911,0.01275,-0.538478,-0.081699,0.602789,-264.222711,-0.232711,62.439859
0.0243,0.053163,-0.030911,-0.080392,-0.031725,0.012452,0.018089,0.011645,-0.539156,-0.081556,0.602789,-264.230057,-0.232711,62.43364
0.044,0.053355,-0.030588,-0.081547,-0.047725,0.026542,0.048089,0.011664,-0.539166,-0.08149,0.602789,-264.230057,-0.232711,62.43364
0.0641,0.052764,-0.030674,-0.082072,-0.05567,0.02614,0.05,0.011196,-0.53898,-0.082007,0.602789,-264.237693,-0.232711,62.427175
0.0841,0.05275,-0.031172,-0.082376,-0.055101,0.026246,0.05,0.01098,-0.538978,-0.082102,0.602789,-264.237693,-0.232711,62.427175
0.1042,0.052507,-0.030979,-0.082473,-0.055136,0.026726,0.05,0.01098,-0.538978,-0.082102,0.602789,-264.237693,-0.232711,62.427175
0.1245,0.052582,-0.030699,-0.082935,-0.05488,0.026548,0.05,0.010493,-0.539245,-0.082473,0.527789,-264.237694,-0.157712,62.427175
0.1446,0.052615,-0.030787,-0.081678,-0.054944,0.026238,0.05,0.010483,-0.539226,-0.082503,0.527789,-264.237694,-0.157712,62.427175
0.1643,0.052718,-0.030972,-0.081171,-0.054952,0.026391,0.05,0.011006,-0.539086,-0.081678,0.45279,-264.237695,-0.082713,62.427174
0.185,0.052226,-0.030725,-0.082372,-0.055056,0.026596,0.05,0.011211,-0.539204,-0.08139,0.45279,-264.237695,-0.082713,62.427174
0.2041,0.052448,-0.031031,-0.08273,-0.054577,0.026324,0.05,0.011211,-0.539204,-0.08139,0.45279,-264.237695,-0.082713,62.427174
0.2242,0.052323,-0.030996,-0.083417,-0.054833,0.026591,0.05,0.010304,-0.539287,-0.08273,0.377792,-264.237697,-0.007715,62.427172
0.2446,0.052483,-0.030511,-0.081929,-0.054724,0.026529,0.05,0.010271,-0.539282,-0.082778,0.377792,-264.237697,-0.007715,62.427172
0.2641,0.052563,-0.030852,-0.081185,-0.054804,0.026114,0.05,0.010746,-0.5388,-0.081929,0.30279,-264.2377,0.067288,62.42717
0.284,0.052629,-0.031013,-0.082638,-0.054892,0.026488,0.05,0.011006,-0.539012,-0.081506,0.30279,-264.2377,0.067288,62.42717
0.3041,0.052866,-0.031076,-0.082421,-0.05501,0.026562,0.05,0.011006,-0.539012,-0.081506,0.30279,-264.2377,0.067288,62.42717
0.3243,0.052712,-0.031008,-0.082934,-0.055245,0.026618,0.05,0.010879,-0.539345,-0.082421,0.227786,-264.237703,0.073126,62.427168
0.345,0.052985,-0.031326,-0.08231,-0.0551,0.026535,0.05,0.01085,-0.539339,-0.082457,0.227786,-264.237703,0.073126,62.427168
0.3646,0.052489,-0.031137,-0.081629,-0.055381,0.026863,0.05,0.011054,-0.539599,-0.08231,0.15279,-264.237707,0.072135,62.427166
0.3847,0.052477,-0.031126,-0.081944,-0.054853,0.026753,0.05,0.01097,-0.539509,-0.081929,0.15279,-264.237707,0.072135,62.427166
0.4042,0.052734,-0.031306,-0.084126,-0.054849,0.026726,0.05,0.01097,-0.539509,-0.081929,0.15279,-264.237707,0.072135,62.427166
0.4241,0.052205,-0.030887,-0.081433,-0.055178,0.026764,0.05,0.00988,-0.539502,-0.084126,0.077728,-264.23771,0.072516,62.427164
0.4441,0.052773,-0.031099,-0.082168,-0.054545,0.026538,0.05,0.009949,-0.539477,-0.083904,0.077728,-264.23771,0.072516,62.427164
0.4641,0.052868,-0.031032,-0.082027,-0.055147,0.026663,0.05,0.010914,-0.539378,-0.082168,0.002253,-264.237713,0.069372,62.427162
0.4841,0.05279,-0.03079,-0.082666,-0.055232,0.026596,0.05,0.011009,-0.539343,-0.082088,0.002253,-264.237713,0.069372,62.427162
0.504,0.052551,-0.030867,-0.082316,-0.055152,0.026326,0.05,0.011009,-0.539343,-0.082088,0.002253,-264.237713,0.069372,62.427162
0.5241,0.052398,-0.031001,-0.082525,-0.054911,0.026442,0.05,0.010617,-0.53914,-0.082316,-0.072209,-264.237716,0.073189,62.427159
0.544,0.052505,-0.030819,-0.080848,-0.054775,0.026576,0.05,0.010599,-0.539149,-0.082331,-0.072209,-264.237716,0.073189,62.427159
0.564,0.052906,-0.03122,-0.082259,-0.054822,0.026478,0.05,0.011317,-0.539153,-0.080848,-0.147211,-264.237722,0.076207,62.427155
0.5841,0.052726,-0.031169,-0.081344,-0.055292,0.026767,0.05,0.011134,-0.539351,-0.081664,-0.147211,-264.237722,0.076207,62.427155
0.6043,0.05259,-0.030824,-0.081857,-0.055085,0.026782,0.05,0.011134,-0.539351,-0.081664,-0.147211,-264.237722,0.076207,62.427155
0.6241,0.052415,-0.030911,-0.0811,-0.054934,0.026421,0.05,0.010887,-0.539116,-0.081857,-0.222494,-264.237742,0.072192,62.427141
0.6441,0.052814,-0.030877,-0.082439,-0.054747,0.026563,0.05,0.0109,-0.539123,-0.081812,-0.222494,-264.237742,0.072192,62.427141
0.6641,0.052519,-0.030776,-0.082247,-0.055177,0.026423,0.05,0.010809,-0.539143,-0.082437,-0.297216,-264.237845,0.068074,62.42707
0.6842,0.052681,-0.031235,-0.082191,-0.05487,0.026357,0.05,0.010699,-0.53909,-0.082326,-0.297216,-264.237845,0.068074,62.42707
0.7046,0.052372,-0.030968,-0.082282,-0.055068,0.026804,0.05,0.010699,-0.53909,-0.082326,-0.297216,-264.237845,0.068074,62.42707
0.7244,0.052776,-0.031396,-0.082722,-0.05474,0.026558,0.05,0.010415,-0.539231,-0.082265,-0.372563,-264.238257,0.072465,62.426784
0.7447,0.052566,-0.031073,-0.082876,-0.05519,0.026928,0.05,0.010429,-0.539259,-0.082296,-0.372563,-264.238257,0.072465,62.426784
0.7645,0.052302,-0.030755,-0.080572,-0.054957,0.026615,0.05,0.010239,-0.539287,-0.082822,-0.447212,-264.239692,0.067686,62.425788
0.7841,0.052427,-0.030434,-0.082289,-0.054607,0.026446,0.05,0.010797,-0.539177,-0.081547,-0.447212,-264.239692,0.067686,62.425788
0.8041,0.052683,-0.030734,-0.082765,-0.054751,0.026021,0.05,0.010797,-0.539177,-0.081547,-0.447212,-264.239692,0.067686,62.425788
0.8244,0.051557,-0.030609,-0.082212,-0.055043,0.026274,0.05,0.010162,-0.538851,-0.082554,-0.522301,-264.243586,0.065306,62.423085
0.8444,0.051475,-0.030732,-0.081808,-0.053896,0.026272,0.05,0.010119,-0.53885,-0.082525,-0.522301,-264.243586,0.065306,62.423085
0.8643,0.050869,-0.030566,-0.081759,-0.053814,0.026423,0.05,0.009307,-0.538832,-0.081489,-0.597202,-264.249988,0.0823,62.417876
0.8843,0.051158,-0.030246,-0.080263,-0.053195,0.02631,0.05,0.009194,-0.538825,-0.081601,-0.597202,-264.249988,0.0823,62.417876
0.9044,0.050977,-0.03052,-0.082087,-0.053419,0.026047,0.05,0.009194,-0.538825,-0.081601,-0.597202,-264.249988,0.0823,62.417876
0.9245,0.049998,-0.029829,-0.081416,-0.053307,0.026238,0.05,0.008296,-0.538431,-0.081475,-0.672299,-264.258907,0.078984,62.410152
0.9446,0.049806,-0.030303,-0.08109,-0.052259,0.025664,0.05,0.008288,-0.538399,-0.081454,-0.672299,-264.258907,0.078984,62.410152
0.9641,0.048325,-0.029545,-0.079475,-0.052096,0.026169,0.05,0.007633,-0.538224,-0.080412,-0.747467,-264.270272,0.083872,62.399975
0.9843,0.04818,-0.029188,-0.080216,-0.050518,0.025615,0.05,0.007638,-0.538009,-0.079793,-0.747467,-264.270272,0.083872,62.399975
1.0042,0.048106,-0.029491,-0.078757,-0.050364,0.025233,0.05,0.007638,-0.538009,-0.079793,-0.747467,-264.270272,0.083872,62.399975
1.0243,0.046513,-0.029012,-0.078469,-0.050277,0.025615,0.05,0.006685,-0.53726,-0.077627,-0.821731,-264.284168,0.092997,62.387272
1.0447,0.046329,-0.028891,-0.077895,-0.048644,0.025277,0.05,0.00664,-0.537256,-0.077655,-0.821731,-264.284168,0.092997,62.387272
1.0648,0.044036,-0.02773,-0.076392,-0.048437,0.025198,0.05,0.005423,-0.536737,-0.076805,-0.836293,-264.300564,0.104934,62.372068
1.0844,0.044546,-0.027988,-0.076757,-0.046024,0.024288,0.05,0.005093,-0.536381,-0.076433,-0.836293,-264.300564,0.104934,62.372068
1.1043,0.044017,-0.028391,-0.076924,-0.046561,0.02449,0.05,0.005093,-0.536381,-0.076433,-0.836293,-264.300564,0.104934,62.372068
1.1244,0.041635,-0.0266,-0.074579,-0.046068,0.024925,0.05,0.003063,-0.535997,-0.075318,-0.853931,-264.31946,0.107722,62.354365
1.1444,0.041664,-0.027354,-0.075755,-0.043501,0.023423,0.05,0.003056,-0.535916,-0.075223,-0.853931,-264.31946,0.107722,62.354365
1.1644,0.038785,-0.025965,-0.073643,-0.043615,0.024123,0.05,0.001561,-0.535102,-0.074272,-0.868551,-264.340855,0.12916,62.335786
1.1842,0.038888,-0.025582,-0.073115,-0.04059,0.023041,0.05,0.0012,-0.534708,-0.073728,-0.868551,-264.340855,0.12916,62.335786
1.2044,0.038517,-0.025911,-0.074002,-0.040652,0.022673,0.05,0.0012,-0.534708,-0.073728,-0.868551,-264.340855,0.12916,62.335786
1.2244,0.035378,-0.024975,-0.070067,-0.040327,0.022992,0.05,-0.001062,-0.533411,-0.071868,-0.89231,-264.364752,0.162104,62.318613
1.2443,0.035358,-0.024796,-0.0701,-0.03704,0.022437,0.05,-0.001061,-0.533404,-0.071706,-0.89231,-264.364752,0.162104,62.318613
1.264,0.032402,-0.023421,-0.068943,-0.037008,0.022259,0.05,-0.001832,-0.532587,-0.068217,-0.918399,-264.390905,0.191097,62.302441
1.2845,0.032679,-0.023398,-0.070076,-0.033938,0.021133,0.05,-0.002533,-0.532249,-0.068393,-0.918399,-264.390905,0.191097,62.302441
1.304,0.032057,-0.023177,-0.068682,-0.034238,0.021052,0.05,-0.002533,-0.532249,-0.068393,-0.918399,-264.390905,0.191097,62.302441
1.3245,0.029219,-0.022079,-0.066985,-0.033572,0.020922,0.05,-0.004602,-0.53081,-0.066342,-0.960611,-264.415817,0.215299,62.287828
1.3442,0.029515,-0.021922,-0.06651,-0.030631,0.020074,0.05,-0.00467,-0.530787,-0.066324,-0.960611,-264.415817,0.215299,62.287828
1.3646,0.026729,-0.020839,-0.064474,-0.030907,0.019912,0.05,-0.005576,-0.529947,-0.064686,-0.984887,-264.439196,0.270258,62.274414
1.3848,0.026569,-0.020826,-0.06388,-0.028016,0.019073,0.05,-0.006043,-0.529744,-0.064334,-0.984887,-264.439196,0.270258,62.274414
1.4045,0.026756,-0.020789,-0.064438,-0.027844,0.019087,0.05,-0.006043,-0.529744,-0.064334,-0.984887,-264.439196,0.270258,62.274414
1.4248,0.024203,-0.019748,-0.061813,-0.028039,0.019023,0.05,-0.007397,-0.528746,-0.062198,-1.026544,-264.461079,0.329178,62.262441
1.4446,0.024182,-0.019962,-0.0611,-0.025376,0.018215,0.05,-0.007429,-0.528719,-0.062101,-1.026544,-264.461079,0.329178,62.262441
1.4644,0.021854,-0.018503,-0.0597,-0.025356,0.018448,0.05,-0.007907,-0.528274,-0.059324,-1.059472,-264.482021,0.390143,62.25136
1.4847,0.021588,-0.018907,-0.059592,-0.022919,0.017166,0.05,-0.008408,-0.527794,-0.059311,-1.059472,-264.482021,0.390143,62.25136
1.5043,0.021329,-0.018551,-0.059005,-0.022676,0.017587,0.05,-0.008408,-0.527794,-0.059311,-1.059472,-264.482021,0.390143,62.25136
1.5242,0.019283,-0.017693,-0.057019,-0.022386,0.017261,0.05,-0.009839,-0.526779,-0.056754,-1.090874,-264.50237,0.452046,62.240916
1.5448,0.019559,-0.017776,-0.057862,-0.02026,0.016565,0.05,-0.009863,-0.526762,-0.056714,-1.090874,-264.50237,0.452046,62.240916
1.5643,0.017358,-0.01698,-0.054013,-0.020554,0.016615,0.05,-0.010695,-0.52626,-0.056105,-1.130463,-264.521688,0.518895,62.231434
1.5841,0.017196,-0.016947,-0.05474,-0.018249,0.016018,0.05,-0.010497,-0.526163,-0.054698,-1.130463,-264.521688,0.518895,62.231434
1.6041,0.01722,-0.016903,-0.055121,-0.018097,0.015981,0.05,-0.010497,-0.526163,-0.054698,-1.130463,-264.521688,0.518895,62.231434
1.6241,0.015567,-0.016039,-0.052525,-0.018125,0.015928,0.05,-0.011704,-0.525373,-0.052998,-1.164595,-264.539718,0.593889,62.22278
1.6443,0.015454,-0.01607,-0.054312,-0.016387,0.015199,0.05,-0.01169,-0.525347,-0.052898,-1.164595,-264.539718,0.593889,62.22278
1.6642,0.013605,-0.015646,-0.049506,-0.016304,0.015207,0.05,-0.012814,-0.524745,-0.052631,-1.199779,-264.557133,0.669278,62.214677
1.6841,0.013014,-0.015091,-0.05119,-0.014363,0.014954,0.049506,-0.012221,-0.524827,-0.050652,-1.199779,-264.557133,0.669278,62.214677
1.7044,0.013527,-0.015161,-0.050514,-0.013769,0.014405,0.05,-0.012221,-0.524827,-0.050652,-1.199779,-264.557133,0.669278,62.214677
1.7243,0.011679,-0.013915,-0.0501,-0.014276,0.014458,0.05,-0.0129,-0.523817,-0.048362,-1.226748,-264.574387,0.743896,62.206705
1.7442,0.01169,-0.014272,-0.046874,-0.012361,0.013313,0.05,-0.012987,-0.52376,-0.048428,-1.226748,-264.574387,0.743896,62.206705
1.7641,0.009999,-0.014002,-0.046978,-0.012346,0.013709,0.046874,-0.012603,-0.523259,-0.045415,-1.273498,-264.588728,0.819139,62.200234
1.7847,0.010199,-0.013704,-0.045659,-0.010646,0.013517,0.046978,-0.013417,-0.523304,-0.046116,-1.273498,-264.588728,0.819139,62.200234
1.8043,0.010593,-0.013804,-0.046214,-0.010814,0.013224,0.045659,-0.013417,-0.523304,-0.046116,-1.273498,-264.588728,0.819139,62.200234
1.8242,0.008964,-0.013275,-0.043893,-0.011219,0.0133,0.046214,-0.013418,-0.522734,-0.044388,-1.296038,-264.602556,0.893888,62.193799
1.8442,0.00886,-0.013489,-0.04488,-0.009538,0.012869,0.043893,-0.013429,-0.522724,-0.044309,-1.296038,-264.602556,0.893888,62.193799
1.8645,0.006962,-0.012468,-0.042313,-0.009456,0.013078,0.04488,-0.014403,-0.522469,-0.04318,-1.313589,-264.618884,0.935326,62.186744
1.8846,0.007369,-0.012894,-0.044076,-0.007483,0.012162,0.042313,-0.014569,-0.522146,-0.042474,-1.313589,-264.618884,0.935326,62.186744
1.9044,0.007068,-0.012432,-0.043984,-0.00793,0.012557,0.044076,-0.014569,-0.522146,-0.042474,-1.313589,-264.618884,0.935326,62.186744
1.9242,0.005612,-0.011707,-0.039633,-0.007608,0.012109,0.043984,-0.015782,-0.52131,-0.041905,-1.334877,-264.634768,0.970683,62.18017
1.9442,0.005637,-0.011808,-0.040482,-0.006072,0.011475,0.039633,-0.015714,-0.521294,-0.041702,-1.334877,-264.634768,0.970683,62.18017
1.9642,0.004594,-0.011244,-0.038761,-0.006111,0.01157,0.040482,-0.01525,-0.520967,-0.039047,-1.372561,-264.648365,1.045683,62.17463
1.9843,0.004312,-0.011375,-0.038174,-0.005026,0.011058,0.038761,-0.015236,-0.520853,-0.038703,-1.372561,-264.648365,1.045683,62.17463
2.0042,0.004025,-0.011041,-0.038048,-0.004743,0.011202,0.038174,-0.015236,-0.520853,-0.038703,-1.372561,-264.648365,1.045683,62.17463
2.0244,0.00321,-0.010842,-0.036181,-0.004443,0.01088,0.038048,-0.01562,-0.520165,-0.036335,-1.402243,-264.661257,1.120683,62.169606
2.0446,0.003335,-0.010689,-0.036399,-0.0036,0.010718,0.036181,-0.015599,-0.520176,-0.036277,-1.402243,-264.661257,1.120683,62.169606
2.0645,0.002146,-0.010215,-0.036563,-0.003722,0.010561,0.036399,-0.015374,-0.519959,-0.035082,-1.434242,-264.673717,1.195739,62.164954
2.0843,0.002219,-0.010027,-0.034521,-0.002518,0.01013,0.036563,-0.016031,-0.519861,-0.035756,-1.434242,-264.673717,1.195739,62.164954
2.1042,0.002284,-0.010195,-0.033385,-0.002564,0.009944,0.034521,-0.016031,-0.519861,-0.035756,-1.434242,-264.673717,1.195739,62.164954
2.1242,0.000801,-0.009861,-0.034254,-0.002623,0.010113,0.033385,-0.014883,-0.519429,-0.031773,-1.461529,-264.685816,1.264387,62.16058
2.1441,0.001477,-0.009807,-0.034355,-0.002623,0.010113,0.033385,-0.015011,-0.519425,-0.031903,-1.461529,-264.685816,1.264387,62.16058
2.1647,0.000434,-0.008974,-0.032581,-1.8e-05,9.8e-05,0.0,-0.016118,-0.519161,-0.033166,-1.488354,-264.696924,1.339377,62.156502
2.1845,0.000191,-0.009095,-0.030805,-1.8e-05,9.8e-05,0.0,-0.016163,-0.518857,-0.032682,-1.488354,-264.696924,1.339377,62.156502
2.2048,0.000252,-0.009258,-0.032286,-1.8e-05,9.8e-05,0.0,-0.016163,-0.518857,-0.032682,-1.488354,-264.696924,1.339377,62.156502
2.2248,-0.000471,-0.008976,-0.029305,-1.8e-05,9.8e-05,0.0,-0.016322,-0.5185,-0.030674,-1.485002,-264.709094,1.320849,62.152286
2.2445,-0.00074,-0.008465,-0.030082,-1.8e-05,9.8e-05,0.0,-0.016263,-0.518505,-0.030537,-1.485002,-264.709094,1.320849,62.152286
2.2648,-0.000997,-0.008452,-0.030295,-1.8e-05,9.8e-05,0.0,-0.016093,-0.518129,-0.029911,-1.410105,-264.711286,1.245951,62.152286
2.2848,-0.000604,-0.008559,-0.030802,-1.8e-05,9.8e-05,0.0,-0.016294,-0.518166,-0.030106,-1.410105,-264.711286,1.245951,62.152286
2.3042,-0.000545,-0.008046,-0.029699,-1.8e-05,9.8e-05,0.0,-0.016294,-0.518166,-0.030106,-1.410105,-264.711286,1.245951,62.152286
2.3243,-0.000817,-0.008494,-0.031546,-1.8e-05,9.8e-05,0.0,-0.01569,-0.517821,-0.029699,-1.386931,-264.711286,1.170924,62.152286
2.3441,-0.001005,-0.008549,-0.029191,-1.8e-05,9.8e-05,0.0,-0.015773,-0.51785,-0.029827,-1.386931,-264.711286,1.170924,62.152286
2.364,-0.000691,-0.008562,-0.030024,-0.0,3e-06,9e-06,-0.015891,-0.518331,-0.029191,-1.386931,-264.711286,1.095922,62.152286
2.3842,-0.000606,-0.008492,-0.03028,-0.000266,0.00143,0.005039,-0.015953,-0.518332,-0.029665,-1.386931,-264.711286,1.095922,62.152286
2.4043,-0.000768,-0.00847,-0.029713,-0.000517,0.002778,0.009787,-0.015953,-0.518332,-0.029665,-1.386931,-264.711286,1.095922,62.152286
2.4246,-0.001001,-0.008745,-0.029586,-0.000755,0.004059,0.0143,-0.015919,-0.518244,-0.029713,-1.386931,-264.711286,1.020921,62.152286
2.4448,-0.000502,-0.008689,-0.030217,-0.000979,0.005265,0.01855,-0.015933,-0.518268,-0.029702,-1.386931,-264.711286,1.020921,62.152286
2.4647,-0.001147,-0.008303,-0.029442,-0.00119,0.006399,0.022544,-0.015913,-0.518449,-0.030193,-1.46243,-264.711509,1.096421,62.152203
2.4842,-0.000488,-0.008632,-0.030275,-0.001387,0.007457,0.026273,-0.016054,-0.51824,-0.029763,-1.46243,-264.711509,1.096421,62.152203
2.5044,-0.001087,-0.008689,-0.029264,-0.00157,0.008445,0.029754,-0.016054,-0.51824,-0.029763,-1.46243,-264.711509,1.096421,62.152203
2.5248,-0.00084,-0.008508,-0.030265,-0.001741,0.009362,0.032984,-0.016024,-0.518419,-0.029093,-1.511862,-264.71279,1.170973,62.15173
2.5445,-0.001056,-0.008806,-0.03046,-0.001897,0.010202,0.035944,-0.016041,-0.518408,-0.029169,-1.511862,-264.71279,1.170973,62.15173
2.5645,-0.00103,-0.008449,-0.02951,-0.00204,0.01097,0.038649,-0.016619,-0.518457,-0.030045,-1.511862,-264.71657,1.245924,62.150173
2.5842,-0.00097,-0.008052,-0.030283,-0.002169,0.011665,0.041099,-0.016313,-0.518311,-0.029687,-1.511862,-264.71657,1.245924,62.150173
2.6041,-0.001241,-0.008058,-0.030096,-0.002285,0.012285,0.043283,-0.016313,-0.518311,-0.029687,-1.511862,-264.71657,1.245924,62.150173
2.6241,-0.001896,-0.008002,-0.029033,-0.002387,0.012834,0.045218,-0.016651,-0.517626,-0.029177,-1.511862,-264.72285,1.320993,62.147097
2.6447,-0.00181,-0.008054,-0.028987,-0.002476,0.013315,0.046913,-0.016656,-0.517632,-0.029142,-1.511862,-264.72285,1.320993,62.147097
2.6644,-0.002588,-0.007734,-0.026984,-0.00255,0.013713,0.048313,-0.016653,-0.517654,-0.0279,-1.511862,-264.731629,1.395913,62.142058
2.6842,-0.002906,-0.007752,-0.026207,-0.002611,0.014041,0.04947,-0.016488,-0.517571,-0.027243,-1.511862,-264.731629,1.395913,62.142058
2.704,-0.002683,-0.007971,-0.027217,-0.002659,0.014297,0.050373,-0.016488,-0.517571,-0.027243,-1.511862,-264.731629,1.395913,62.142058
2.7248,-0.003667,-0.007746,-0.024428,-0.002693,0.01448,0.051017,-0.016654,-0.517467,-0.025488,-1.511862,-264.742904,1.410725,62.135868
2.7441,-0.003568,-0.007419,-0.025205,-0.002713,0.01459,0.051404,-0.016621,-0.517467,-0.025373,-1.511862,-264.742904,1.410725,62.135868
2.7647,-0.004842,-0.006735,-0.022632,-0.00272,0.014626,0.051533,-0.016504,-0.516909,-0.023596,-1.511862,-264.756716,1.410725,62.129179
2.7842,-0.004913,-0.006947,-0.022579,-0.002713,0.01459,0.051404,-0.016446,-0.51669,-0.02284,-1.511862,-264.756716,1.410725,62.129179
2.8046,-0.00522,-0.006989,-0.023321,-0.002693,0.014481,0.051019,-0.016446,-0.51669,-0.02284,-1.511862,-264.756716,1.410725,62.129179
2.8245,-0.006295,-0.006457,-0.019601,-0.002659,0.014298,0.050375,-0.017224,-0.516268,-0.021034,-1.511862,-264.772968,1.410725,62.122384
2.8446,-0.006043,-0.005965,-0.021399,-0.002611,0.014042,0.049474,-0.017168,-0.51626,-0.020887,-1.511862,-264.772968,1.410725,62.122384
2.8643,-0.007625,-0.005962,-0.017449,-0.00255,0.013713,0.048313,-0.017048,-0.515287,-0.019429,-1.511862,-264.791303,1.410725,62.115609
2.8841,-0.007463,-0.006068,-0.018928,-0.002475,0.013311,0.046899,-0.016758,-0.51556,-0.01804,-1.511862,-264.791303,1.410725,62.115609
2.9041,-0.007486,-0.005905,-0.017365,-0.002387,0.012836,0.045226,-0.016758,-0.51556,-0.01804,-1.511862,-264.791303,1.410725,62.115609
2.9243,-0.008928,-0.005173,-0.015078,-0.002285,0.012288,0.043292,-0.016457,-0.515145,-0.014967,-1.511862,-264.808991,1.410725,62.109072
2.9445,-0.009057,-0.005275,-0.017561,-0.00217,0.011666,0.041104,-0.016472,-0.515125,-0.01491,-1.511862,-264.808991,1.410725,62.109072
2.9641,-0.010118,-0.004033,-0.013007,-0.00204,0.010971,0.038653,-0.018097,-0.5147,-0.015815,-1.511862,-264.825249,1.410725,62.103064
2.9842,-0.010111,-0.003988,-0.014119,-0.001897,0.010202,0.035945,-0.017332,-0.514228,-0.013975,-1.511862,-264.825249,1.410725,62.103064
3.0045,-0.010085,-0.004098,-0.013182,-0.001741,0.00936,0.032979,-0.017332,-0.514228,-0.013975,-1.511862,-264.825249,1.410725,62.103064
3.0241,-0.011465,-0.003378,-0.010909,-0.001571,0.008446,0.029757,-0.016907,-0.513486,-0.011183,-1.511862,-264.83994,1.410725,62.097635
3.044,-0.011089,-0.003779,-0.01248,-0.001388,0.007461,0.026288,-0.016916,-0.513464,-0.011119,-1.511862,-264.83994,1.410725,62.097635
3.0646,-0.01241,-0.003347,-0.010839,-0.00119,0.006399,0.022544,-0.017517,-0.513377,-0.011207,-1.511862,-264.851786,1.410725,62.093258
3.0844,-0.011967,-0.003048,-0.00887,-0.000978,0.005261,0.018535,-0.017766,-0.513297,-0.010834,-1.511862,-264.851786,1.410725,62.093258
3.1048,-0.012161,-0.003171,-0.008899,-0.000755,0.00406,0.014305,-0.017766,-0.513297,-0.010834,-1.511862,-264.851786,1.410725,62.093258
3.1245,-0.012882,-0.002891,-0.009423,-0.000516,0.002774,0.009775,-0.016764,-0.512787,-0.007621,-1.511862,-264.86119,1.410725,62.089783
3.1445,-0.012955,-0.002586,-0.00759,-0.000265,0.001426,0.005025,-0.016824,-0.512784,-0.007704,-1.511862,-264.86119,1.410725,62.089783
3.1645,-0.013207,-0.002519,-0.006396,-0.0,1e-06,2e-06,-0.016854,-0.512414,-0.007037,-1.511862,-264.866317,1.410725,62.087888
3.1844,-0.013522,-0.002216,-0.006121,0.0,0.0,0.0,-0.01664,-0.512447,-0.006605,-1.511862,-264.866317,1.410725,62.087888
3.2042,-0.013327,-0.002385,-0.009365,0.0,0.0,0.0,-0.01664,-0.512447,-0.006605,-1.511862,-264.866317,1.410725,62.087888
3.2241,-0.013502,-0.002432,-0.006993,0.0,0.0,0.0,-0.018116,-0.512293,-0.00912,-1.511862,-264.868121,1.410725,62.087221
3.2449,-0.013394,-0.002154,-0.006991,0.0,0.0,0.0,-0.018046,-0.5123,-0.008972,-1.511862,-264.868121,1.410725,62.087221
3.2646,-0.013164,-0.002498,-0.006744,0.0,0.0,0.0,-0.016959,-0.512142,-0.006991,-1.511862,-264.868121,1.410725,62.087221
3.2847,-0.013806,-0.00237,-0.006909,0.0,0.0,0.0,-0.016758,-0.512337,-0.006851,-1.511862,-264.868121,1.410725,62.087221
3.3045,-0.013649,-0.002308,-0.006038,0.0,0.0,0.0,-0.016758,-0.512337,-0.006851,-1.511862,-264.868121,1.410725,62.087221
3.3245,-0.013547,-0.00232,-0.008689,0.0,0.0,0.0,-0.016728,-0.512299,-0.006038,-1.511862,-264.868121,1.410725,62.087221
3.3449,-0.013434,-0.002357,-0.007179,0.0,0.0,0.0,-0.016818,-0.512299,-0.006228,-1.511862,-264.868121,1.410725,62.087221
3.3647,-0.013286,-0.002605,-0.007156,0.0,0.0,0.0,-0.017095,-0.512344,-0.007179,-1.511862,-264.868121,1.410725,62.087221
3.3852,-0.01371,-0.002412,-0.007163,9.8e-05,2e-05,0.0,-0.017005,-0.512484,-0.007166,-1.511862,-264.868121,1.410725,62.087221
3.4048,-0.013901,-0.002676,-0.006139,9.8e-05,2e-05,0.0,-0.017005,-0.512484,-0.007166,-1.511862,-264.868121,1.410725,62.087221
3.4242,-0.013382,-0.002397,-0.007374,9.8e-05,2e-05,0.0,-0.017032,-0.512666,-0.006139,-1.511862,-264.868121,1.410725,62.087221
3.4447,-0.013422,-0.002678,-0.008125,9.8e-05,2e-05,0.0,-0.017039,-0.512647,-0.006223,-1.511862,-264.868121,1.410725,62.087221
3.4646,-0.013845,-0.00259,-0.0091,9.8e-05,2e-05,0.0,-0.017566,-0.512661,-0.008125,-1.436871,-264.868121,1.335734,62.087221
3.4842,-0.013433,-0.002612,-0.00683,9.8e-05,2e-05,0.0,-0.018098,-0.512608,-0.008689,-1.436871,-264.868121,1.335734,62.087221
3.5045,-0.013467,-0.002693,-0.007638,9.8e-05,2e-05,0.0,-0.018098,-0.512608,-0.008689,-1.436871,-264.868121,1.335734,62.087221
3.5244,-0.01365,-0.002891,-0.006766,9.8e-05,2e-05,0.0,-0.017362,-0.512679,-0.007638,-1.361515,-264.868121,1.260378,62.087221
3.5445,-0.013433,-0.002525,-0.00697,9.8e-05,2e-05,0.0,-0.017344,-0.512692,-0.007578,-1.361515,-264.868121,1.260378,62.087221
3.564,-0.013662,-0.002596,-0.007211,9.8e-05,2e-05,0.0,-0.016988,-0.512512,-0.00697,-1.286867,-264.868121,1.18573,62.087221
3.5842,-0.013441,-0.002379,-0.007716,9.8e-05,2e-05,0.0,-0.017189,-0.512552,-0.007107,-1.286867,-264.868121,1.18573,62.087221
3.6044,-0.013545,-0.002395,-0.008506,0.001924,0.000392,0.001038,-0.017189,-0.512552,-0.007107,-1.286867,-264.868121,1.18573,62.087221
3.6247,-0.013157,-0.002255,-0.007284,0.003767,0.000767,0.002032,-0.017883,-0.512377,-0.008506,-1.211811,-264.868121,1.110674,62.087221
3.6449,-0.013543,-0.002402,-0.00717,0.005508,0.001121,0.002971,-0.017817,-0.512368,-0.008427,-1.211811,-264.868121,1.110674,62.087221
3.6643,-0.013597,-0.002765,-0.007901,0.007163,0.001458,0.003864,-0.0172,-0.512389,-0.00717,-1.136909,-264.868121,1.035772,62.087221
3.684,-0.013449,-0.002507,-0.010041,0.008697,0.00177,0.004691,-0.017443,-0.512594,-0.007586,-1.136909,-264.868121,1.035772,62.087221
3.704,-0.013534,-0.002268,-0.0076,0.010138,0.002063,0.005468,-0.017443,-0.512594,-0.007586,-1.136909,-264.868121,1.035772,62.087221
3.7243,-0.013676,-0.002414,-0.008554,0.011495,0.00234,0.0062,-0.01741,-0.512253,-0.0076,-1.061871,-264.868121,0.960734,62.087221
3.7448,-0.013313,-0.002403,-0.007222,0.012736,0.002592,0.006869,-0.017456,-0.512263,-0.007669,-1.061871,-264.868121,0.960734,62.087221
3.7641,-0.013598,-0.00207,-0.009095,0.01388,0.002825,0.007486,-0.016996,-0.51239,-0.007222,-0.98675,-264.868121,0.885613,62.087221
3.7842,-0.01327,-0.002279,-0.009305,0.014924,0.003038,0.00805,-0.017703,-0.512196,-0.008289,-0.98675,-264.868121,0.885613,62.087221
3.8044,-0.013541,-0.002391,-0.006936,0.015863,0.003229,0.008556,-0.017703,-0.512196,-0.008289,-0.98675,-264.868121,0.885613,62.087221
3.8243,-0.013942,-0.002488,-0.007895,0.01671,0.003401,0.009013,-0.017079,-0.512379,-0.006936,-0.911739,-264.868121,0.810602,62.087221
3.8447,-0.013277,-0.002373,-0.008312,0.017459,0.003554,0.009417,-0.017146,-0.512386,-0.007009,-0.911739,-264.868121,0.810602,62.087221
3.8643,-0.013269,-0.002142,-0.007609,0.018105,0.003685,0.009766,-0.017516,-0.512355,-0.008312,-0.836554,-264.868121,0.735417,62.087221
3.8844,-0.013408,-0.002222,-0.007962,0.018653,0.003797,0.010061,-0.017307,-0.512225,-0.007911,-0.836554,-264.868121,0.735417,62.087221
3.9043,-0.013195,-0.002594,-0.00788,0.019104,0.003888,0.010304,-0.017307,-0.512225,-0.007911,-0.836554,-264.868121,0.735417,62.087221
3.9243,-0.013648,-0.002704,-0.007299,0.019451,0.003959,0.010491,-0.017214,-0.512578,-0.00788,-0.761741,-264.868121,0.660604,62.087221
3.9444,-0.013451,-0.002084,-0.007657,0.019701,0.00401,0.010626,-0.017225,-0.512586,-0.007838,-0.761741,-264.868121,0.660604,62.087221
3.9641,-0.013945,-0.002692,-0.006722,0.019852,0.004041,0.010708,-0.017356,-0.512069,-0.007657,-0.686769,-264.868121,0.585632,62.087221
3.9844,-0.013514,-0.002302,-0.007282,0.0199,0.00405,0.010734,-0.017366,-0.512419,-0.007122,-0.686769,-264.868121,0.585632,62.087221
4.0042,-0.013526,-0.002297,-0.008168,0.019851,0.00404,0.010707,-0.017366,-0.512419,-0.007122,-0.686769,-264.868121,0.585632,62.087221
4.0242,-0.013532,-0.002745,-0.008675,0.019703,0.00401,0.010627,-0.017691,-0.51228,-0.008168,-0.611748,-264.868121,0.510611,62.087221
4.0441,-0.013279,-0.00264,-0.00753,0.019454,0.00396,0.010493,-0.01771,-0.512312,-0.008204,-0.611748,-264.868121,0.510611,62.087221
4.0641,-0.013657,-0.002635,-0.008596,0.019106,0.003889,0.010305,-0.017119,-0.512626,-0.00753,-0.536779,-264.868121,0.435642,62.087221
4.0845,-0.013299,-0.001989,-0.006714,0.018657,0.003797,0.010063,-0.017645,-0.51262,-0.008139,-0.536779,-264.868121,0.435642,62.087221
4.1046,-0.013144,-0.002193,-0.00635,0.018113,0.003687,0.00977,-0.017645,-0.51262,-0.008139,-0.536779,-264.868121,0.435642,62.087221
4.1242,-0.013761,-0.002301,-0.006089,0.017464,0.003555,0.00942,-0.016383,-0.512183,-0.00635,-0.461817,-264.868121,0.36068,62.087221
4.144,-0.013533,-0.00236,-0.007962,0.01672,0.003403,0.009018,-0.016418,-0.512191,-0.006332,-0.461817,-264.868121,0.36068,62.087221
4.1645,-0.013782,-0.002288,-0.007584,0.015853,0.003227,0.008551,-0.017593,-0.512344,-0.007962,-0.38677,-264.868121,0.285633,62.087222
4.1842,-0.013539,-0.002498,-0.007806,0.014929,0.003039,0.008052,-0.017625,-0.512304,-0.007746,-0.38677,-264.868121,0.285633,62.087222
4.2041,-0.013852,-0.002317,-0.007759,0.013869,0.002823,0.007481,-0.017625,-0.512304,-0.007746,-0.38677,-264.868121,0.285633,62.087222
4.2241,-0.013415,-0.002695,-0.007299,0.012743,0.002594,0.006873,-0.017809,-0.512301,-0.007759,-0.311783,-264.868121,0.210646,62.087222
4.2441,-0.013357,-0.00226,-0.00664,0.011503,0.002341,0.006204,-0.017754,-0.512333,-0.007721,-0.311783,-264.868121,0.210646,62.087222
4.2641,-0.013308,-0.002571,-0.00681,0.010157,0.002067,0.005478,-0.016743,-0.512249,-0.00664,-0.236365,-264.86812,0.135228,62.087222
4.2844,-0.013666,-0.002398,-0.00717,0.008713,0.001773,0.004699,-0.016765,-0.512425,-0.006737,-0.236365,-264.86812,0.135228,62.087222
4.3045,-0.013239,-0.002599,-0.007941,0.007175,0.00146,0.00387,-0.016765,-0.512425,-0.006737,-0.236365,-264.86812,0.135228,62.087222
4.3242,-0.013505,-0.002642,-0.007481,0.005534,0.001126,0.002985,-0.017289,-0.512583,-0.007941,-0.161863,-264.86812,0.060726,62.087222
4.3447,-0.013361,-0.002528,-0.008253,0.003787,0.000771,0.002043,-0.017291,-0.512586,-0.007912,-0.161863,-264.86812,0.060726,62.087222
4.3641,-0.01316,-0.002191,-0.00633,0.001951,0.000397,0.001052,-0.01757,-0.512511,-0.008253,-0.086862,-264.868119,-0.014275,62.087223
4.3842,-0.013426,-0.002659,-0.008487,1.4e-05,3e-06,8e-06,-0.0169,-0.512324,-0.007162,-0.086862,-264.868119,-0.014275,62.087223
4.4043,-0.013542,-0.002509,-0.005183,0.0,0.0,0.0,-0.0169,-0.512324,-0.007162,-0.086862,-264.868119,-0.014275,62.087223
4.4242,-0.013941,-0.002707,-0.00921,0.0,0.0,0.0,-0.016185,-0.512502,-0.005183,-0.011862,-264.868114,-0.089275,62.087228
4.4443,-0.013534,-0.003026,-0.007745,0.0,0.0,0.0,-0.016354,-0.512515,-0.00546,-0.011862,-264.868114,-0.089275,62.087228
4.4643,-0.013386,-0.002352,-0.006658,0.0,0.0,0.0,-0.017484,-0.513011,-0.007745,-0.011862,-264.868114,-0.089275,62.087228
4.4846,-0.013442,-0.002362,-0.006393,0.0,0.0,0.0,-0.017087,-0.512632,-0.007131,-0.011862,-264.868114,-0.089275,62.087228
4.5041,-0.013553,-0.002841,-0.007343,0.0,0.0,0.0,-0.017087,-0.512632,-0.007131,-0.011862,-264.868114,-0.089275,62.087228
4.5246,-0.013351,-0.002241,-0.008976,0.0,0.0,0.0,-0.017297,-0.512828,-0.007343,-0.011862,-264.868114,-0.089275,62.087228
4.5446,-0.013736,-0.002306,-0.00843,0.0,0.0,0.0,-0.017341,-0.512786,-0.007455,-0.011862,-264.868114,-0.089275,62.087228
4.5646,-0.013152,-0.002713,-0.008307,0.0,0.0,0.0,-0.018035,-0.512288,-0.00843,-0.011862,-264.868114,-0.089275,62.087228
4.5847,-0.013606,-0.002637,-0.008123,0.0,0.0,0.0,-0.01767,-0.512518,-0.008361,-0.011862,-264.868114,-0.089275,62.087228
4.6045,-0.013412,-0.002272,-0.007315,0.0,0.0,0.0,-0.01767,-0.512518,-0.008361,-0.011862,-264.868114,-0.089275,62.087228
4.6247,-0.013699,-0.002306,-0.008356,9.8e-05,1.7e-05,0.0,-0.017142,-0.512258,-0.007315,-0.011862,-264.868114,-0.089275,62.087228
4.6445,-0.014058,-0.002191,-0.006372,9.8e-05,1.7e-05,0.0,-0.017197,-0.51226,-0.007384,-0.011862,-264.868114,-0.089275,62.087228
4.6642,-0.013677,-0.002782,-0.007368,9.8e-05,1.7e-05,0.0,-0.017307,-0.51218,-0.006372,-0.011862,-264.868114,-0.089275,62.087228
4.6848,-0.013536,-0.00254,-0.007476,9.8e-05,1.7e-05,0.0,-0.01738,-0.512514,-0.006937,-0.011862,-264.868114,-0.089275,62.087228
4.7043,-0.013572,-0.002516,-0.007436,9.8e-05,1.7e-05,0.0,-0.01738,-0.512514,-0.006937,-0.011862,-264.868114,-0.089275,62.087228
4.7242,-0.013783,-0.002633,-0.008017,9.8e-05,1.7e-05,0.0,-0.017364,-0.512502,-0.007436,0.063135,-264.868106,-0.014277,62.087235
4.7442,-0.013294,-0.00249,-0.007509,9.8e-05,1.7e-05,0.0,-0.017394,-0.512508,-0.007471,0.063135,-264.868106,-0.014277,62.087235
4.7641,-0.01355,-0.002535,-0.007512,9.8e-05,1.7e-05,0.0,-0.017122,-0.512476,-0.007509,0.138138,-264.868088,0.060726,62.087253
4.7841,-0.01396,-0.002547,-0.007349,9.8e-05,1.7e-05,0.0,-0.017269,-0.512501,-0.007511,0.138138,-264.868088,0.060726,62.087253
4.8042,-0.01319,-0.002705,-0.008668,9.8e-05,1.7e-05,0.0,-0.017269,-0.512501,-0.007511,0.138138,-264.868088,0.060726,62.087253
4.8242,-0.013533,-0.002694,-0.00855,9.8e-05,1.7e-05,0.0,-0.017607,-0.512686,-0.008668,0.175102,-264.868056,0.135723,62.087285
4.8442,-0.013305,-0.002536,-0.00511,0.001967,0.000348,0.001074,-0.017626,-0.512685,-0.00866,0.175102,-264.868056,0.135723,62.087285
4.8642,-0.01356,-0.002626,-0.007987,0.003816,0.000675,0.002084,-0.015908,-0.512528,-0.00511,0.175102,-264.868017,0.175102,62.087324
4.8845,-0.013502,-0.002366,-0.00672,0.005575,0.000986,0.003044,-0.016888,-0.512574,-0.006746,0.175102,-264.868017,0.175102,62.087324
4.9045,-0.013402,-0.002479,-0.006865,0.007257,0.001284,0.003963,-0.016888,-0.512574,-0.006746,0.175102,-264.868017,0.175102,62.087324
4.9244,-0.013381,-0.002646,-0.009673,0.008822,0.001561,0.004817,-0.016899,-0.512466,-0.006864,0.250169,-264.867982,0.100035,62.087356
4.9444,-0.013607,-0.002562,-0.009546,0.010259,0.001815,0.005602,-0.016991,-0.512476,-0.007048,0.250169,-264.867982,0.100035,62.087356
4.9646,-0.013484,-0.002382,-0.005506,0.011613,0.002055,0.006342,-0.018429,-0.512531,-0.009534,0.325129,-264.867465,0.025075,62.087822
4.9844,-0.013862,-0.00234,-0.00778,0.012862,0.002275,0.007023,-0.017173,-0.512438,-0.007175,0.325129,-264.867465,0.025075,62.087822
5.0042,-0.01301,-0.00265,-0.009194,0.014015,0.002479,0.007653,-0.017173,-0.512438,-0.007175,0.325129,-264.867465,0.025075,62.087822
5.0242,-0.013406,-0.002561,-0.006688,0.015071,0.002666,0.00823,-0.017486,-0.51259,-0.009111,0.400719,-264.865547,-0.050516,62.089551
5.0446,-0.012977,-0.002708,-0.008471,0.016025,0.002835,0.008751,-0.017433,-0.512586,-0.008936,0.400719,-264.865547,-0.050516,62.089551
5.0644,-0.012987,-0.002276,-0.008135,0.016879,0.002986,0.009217,-0.016906,-0.512622,-0.008271,0.471952,-264.861133,-0.124989,62.093775
5.0846,-0.012524,-0.00223,-0.006793,0.017641,0.003121,0.009633,-0.016988,-0.512405,-0.008168,0.471952,-264.861133,-0.124989,62.093775
5.1043,-0.012886,-0.002042,-0.007748,0.018284,0.003235,0.009985,-0.016988,-0.512405,-0.008168,0.471952,-264.861133,-0.124989,62.093775
5.1248,-0.012441,-0.002191,-0.007661,0.018837,0.003333,0.010286,-0.016079,-0.511902,-0.007337,0.471952,-264.854231,-0.155335,62.100158
5.1446,-0.011975,-0.001876,-0.0063,0.019288,0.003412,0.010533,-0.016078,-0.511917,-0.007348,0.471952,-264.854231,-0.155335,62.100158
5.1643,-0.011611,-0.002294,-0.005356,0.01964,0.003475,0.010725,-0.01448,-0.511745,-0.005914,0.471952,-264.84602,-0.155335,62.10756
5.1842,-0.011611,-0.002082,-0.007457,0.019892,0.003519,0.010863,-0.014313,-0.512037,-0.005549,0.471952,-264.84602,-0.155335,62.10756
5.2041,-0.011662,-0.002163,-0.006999,0.020042,0.003546,0.010944,-0.014313,-0.512037,-0.005549,0.471952,-264.84602,-0.155335,62.10756
5.2245,-0.010868,-0.001818,-0.004697,0.020092,0.003555,0.010972,-0.014291,-0.51199,-0.006486,0.471952,-264.837357,-0.155335,62.11537
5.2442,-0.010759,-0.001939,-0.006982,0.020042,0.003546,0.010944,-0.0142,-0.511975,-0.006356,0.471952,-264.837357,-0.155335,62.11537
5.2645,-0.010034,-0.001978,-0.005738,0.019891,0.003519,0.010862,-0.013543,-0.511794,-0.006558,0.471952,-264.82834,-0.155335,62.123499
5.2848,-0.010257,-0.001661,-0.005496,0.01964,0.003475,0.010725,-0.013112,-0.511878,-0.006036,0.471952,-264.82834,-0.155335,62.123499
5.3044,-0.010259,-0.001879,-0.004986,0.019289,0.003412,0.010533,-0.013112,-0.511878,-0.006036,0.471952,-264.82834,-0.155335,62.123499
5.3242,-0.009406,-0.001507,-0.002929,0.018837,0.003332,0.010286,-0.011826,-0.511705,-0.004454,0.471952,-264.819356,-0.155335,62.131599
5.3443,-0.009539,-0.00168,-0.005322,0.018285,0.003235,0.009985,-0.011742,-0.511688,-0.004341,0.471952,-264.819356,-0.155335,62.131599
5.3643,-0.009046,-0.001179,-0.003513,0.017631,0.003119,0.009628,-0.011507,-0.511545,-0.004915,0.471952,-264.810693,-0.155335,62.139408
5.3844,-0.008883,-0.001383,-0.003659,0.01688,0.002986,0.009217,-0.011032,-0.511319,-0.004067,0.471952,-264.810693,-0.155335,62.139408
5.4045,-0.008823,-0.001253,-0.003898,0.016024,0.002835,0.00875,-0.011032,-0.511319,-0.004067,0.471952,-264.810693,-0.155335,62.139408
5.4242,-0.008152,-0.000836,-0.003126,0.015066,0.002665,0.008227,-0.009914,-0.511093,-0.003409,0.471952,-264.802482,-0.155335,62.146812
5.4442,-0.007842,-0.001532,-0.003726,0.014014,0.002479,0.007652,-0.009888,-0.511077,-0.003385,0.471952,-264.802482,-0.155335,62.146812
5.4644,-0.007315,-0.000926,-0.001959,0.012854,0.002274,0.007019,-0.009122,-0.511421,-0.003388,0.471952,-264.795286,-0.155335,62.153299
5.4844,-0.007888,-0.001232,-0.005022,0.011598,0.002052,0.006333,-0.008587,-0.511127,-0.002538,0.471952,-264.795286,-0.155335,62.153299
5.5046,-0.007559,-0.00077,-0.003282,0.010249,0.001813,0.005597,-0.008587,-0.511127,-0.002538,0.471952,-264.795286,-0.155335,62.153299
5.5246,-0.007224,-0.000766,-0.002138,0.008781,0.001553,0.004795,-0.00855,-0.510649,-0.002909,0.471952,-264.788992,-0.155335,62.158973
5.5444,-0.007126,-0.000903,-0.003373,0.007229,0.001279,0.003948,-0.008518,-0.510653,-0.00285,0.471952,-264.788992,-0.155335,62.158973
5.5641,-0.006871,-0.00096,-0.001581,0.005573,0.000986,0.003043,-0.00845,-0.510831,-0.003157,0.471952,-264.784389,-0.155335,62.163123
5.5846,-0.006891,-0.000872,-0.003829,0.00381,0.000674,0.002081,-0.007962,-0.510895,-0.002237,0.471952,-264.784389,-0.155335,62.163123
5.6047,-0.006795,-0.001167,-0.003084,0.001953,0.000346,0.001067,-0.007962,-0.510895,-0.002237,0.471952,-264.784389,-0.155335,62.163123
5.6243,-0.006373,-0.000966,-0.003104,0.0,0.0,0.0,-0.008016,-0.511103,-0.002892,0.471952,-264.781143,-0.155335,62.166049
5.6448,-0.006424,-0.000604,-0.002127,0.0,0.0,0.0,-0.008003,-0.511092,-0.002901,0.471952,-264.781143,-0.155335,62.166049
5.6645,-0.006546,-0.00077,-0.001608,0.0,0.0,0.0,-0.007433,-0.51059,-0.002085,0.471952,-264.780263,-0.155335,62.166843
5.6842,-0.006478,-0.001029,-0.00116,0.0,0.0,0.0,-0.007386,-0.510691,-0.001808,0.471952,-264.780263,-0.155335,62.166843
5.7042,-0.006492,-0.000587,-0.001539,0.0,0.0,0.0,-0.007386,-0.510691,-0.001808,0.471952,-264.780263,-0.155335,62.166843
5.7243,-0.006523,-0.000935,-0.002931,0.0,0.0,0.0,-0.007277,-0.510586,-0.001539,0.471952,-264.780263,-0.155335,62.166843
5.7441,-0.006375,-0.000692,-0.001247,0.0,0.0,0.0,-0.007325,-0.510609,-0.00163,0.471952,-264.780263,-0.155335,62.166843
5.7647,-0.006905,-0.001491,-0.001268,0.0,0.0,0.0,-0.007011,-0.510691,-0.001247,0.471952,-264.780263,-0.155335,62.166843
5.7847,-0.006571,-0.000676,-0.003394,0.0,0.0,0.0,-0.007321,-0.511149,-0.001259,0.471952,-264.780263,-0.155335,62.166843
5.8043,-0.006155,-0.000694,-0.00116,0.0,0.0,0.0,-0.007321,-0.511149,-0.001259,0.471952,-264.780263,-0.155335,62.166843
5.8245,-0.006222,-0.000233,-0.002715,0.0,0.0,0.0,-0.006746,-0.510693,-0.00116,0.471952,-264.780263,-0.155335,62.166843
5.8451,-0.006486,-0.001006,-0.003753,0.0,0.0,0.0,-0.006804,-0.510662,-0.001265,0.471952,-264.780263,-0.155335,62.166843
5.864,-0.006494,-0.000692,-0.002746,9.9e-05,1.6e-05,0.0,-0.0084,-0.511002,-0.003753,0.471952,-264.780263,-0.155335,62.166843
5.8845,-0.006262,-0.000894,-0.001937,9.9e-05,1.6e-05,0.0,-0.008115,-0.510826,-0.003186,0.471952,-264.780263,-0.155335,62.166843
5.9043,-0.005981,-0.000883,-0.00348,9.9e-05,1.6e-05,0.0,-0.008115,-0.510826,-0.003186,0.471952,-264.780263,-0.155335,62.166843
5.9246,-0.00658,-0.000835,-0.002063,9.9e-05,1.6e-05,0.0,-0.007755,-0.51088,-0.00348,0.471952,-264.780263,-0.155335,62.166843
5.945,-0.006592,-0.000905,-0.000398,9.9e-05,1.6e-05,0.0,-0.007747,-0.510877,-0.003387,0.471952,-264.780263,-0.155335,62.166843
5.9641,-0.006655,-0.000696,-0.00124,9.9e-05,1.6e-05,0.0,-0.006795,-0.510905,-0.000398,0.397042,-264.780261,-0.080425,62.166844
5.9844,-0.006357,-0.000874,-0.001877,9.9e-05,1.6e-05,0.0,-0.007072,-0.510787,-0.000871,0.397042,-264.780261,-0.080425,62.166844
6.0046,-0.00617,-0.000933,-0.003055,9.9e-05,1.6e-05,0.0,-0.007072,-0.510787,-0.000871,0.397042,-264.780261,-0.080425,62.166844
6.0244,-0.006603,-0.001498,-0.00316,9.9e-05,1.6e-05,0.0,-0.007728,-0.510931,-0.003055,0.321947,-264.780255,-0.00533,62.166851
6.0444,-0.006274,-0.000675,-0.002032,9.9e-05,1.6e-05,0.0,-0.00777,-0.51098,-0.003064,0.321947,-264.780255,-0.00533,62.166851
6.0642,-0.006553,-0.000645,-0.002921,9.9e-05,1.6e-05,0.0,-0.007309,-0.510674,-0.002032,0.246448,-264.780238,0.070169,62.166868
6.0842,-0.00677,-0.000906,-0.001904,0.000946,0.00015,0.000547,-0.00773,-0.510656,-0.002542,0.246448,-264.780238,0.070169,62.166868
6.1045,-0.00631,-0.000852,-0.001383,0.001846,0.000293,0.001069,-0.00773,-0.510656,-0.002542,0.246448,-264.780238,0.070169,62.166868
6.1245,-0.006473,-0.000521,-0.002201,0.002704,0.00043,0.001566,-0.007012,-0.510851,-0.001383,0.171959,-264.780207,0.144658,62.166899
6.1443,-0.006512,-0.00115,-0.0011,0.0035,0.000556,0.002026,-0.007055,-0.510827,-0.001443,0.171959,-264.780207,0.144658,62.166899
6.1643,-0.006327,-0.000761,-0.002665,0.004253,0.000676,0.002463,-0.007071,-0.51115,-0.0011,0.24698,-264.780177,0.069637,62.166926
6.1848,-0.00668,-0.000888,-0.002468,0.004959,0.000788,0.002871,-0.007426,-0.510924,-0.002006,0.24698,-264.780177,0.069637,62.166926
6.2042,-0.006383,-0.000492,-0.00205,0.005614,0.000892,0.003251,-0.007426,-0.510924,-0.002006,0.24698,-264.780177,0.069637,62.166926
6.2242,-0.006394,-0.00052,-0.002551,0.006222,0.000989,0.003603,-0.007403,-0.510487,-0.002043,0.322185,-264.779952,-0.005568,62.16713
6.2442,-0.006192,-0.000892,-0.002724,0.006783,0.001078,0.003928,-0.007421,-0.510489,-0.002075,0.322185,-264.779952,-0.005568,62.16713
6.2647,-0.006406,-0.000778,-0.002578,0.007293,0.001159,0.004223,-0.007493,-0.510875,-0.002687,0.39686,-264.778957,-0.080243,62.168032
6.2844,-0.006327,-0.000774,-0.00147,0.007754,0.001232,0.00449,-0.00761,-0.510817,-0.002621,0.39686,-264.778957,-0.080243,62.168032
6.3044,-0.006382,-0.000646,-0.001963,0.008168,0.001298,0.00473,-0.00761,-0.510817,-0.002621,0.39686,-264.778957,-0.080243,62.168032
6.3243,-0.006022,-0.000626,-0.001052,0.008533,0.001356,0.004941,-0.007137,-0.510602,-0.001829,0.47187,-264.776689,-0.155253,62.170088
6.3444,-0.006191,-0.000128,-0.002431,0.008848,0.001406,0.005123,-0.007093,-0.510602,-0.001776,0.47187,-264.776689,-0.155253,62.170088
6.3642,-0.005688,-0.000713,-0.000992,0.009116,0.001448,0.005279,-0.007122,-0.510078,-0.002253,0.473617,-264.773097,-0.192355,62.173344
6.3841,-0.005906,-0.000611,-0.001562,0.009334,0.001483,0.005405,-0.006556,-0.510432,-0.001514,0.473617,-264.773097,-0.192355,62.173344
6.4042,-0.005685,-0.00051,-0.002677,0.009504,0.00151,0.005503,-0.006556,-0.510432,-0.001514,0.473617,-264.773097,-0.192355,62.173344
6.4244,-0.005627,-0.000355,-0.00207,0.009626,0.001529,0.005574,-0.006619,-0.510441,-0.002427,0.473617,-264.769115,-0.192355,62.176955
6.4441,-0.005167,-0.000705,-0.000906,0.009699,0.001541,0.005616,-0.006612,-0.510432,-0.002395,0.473617,-264.769115,-0.192355,62.176955
6.4641,-0.005156,-0.000694,-0.001901,0.009723,0.001545,0.00563,-0.005263,-0.510647,-0.000694,0.473617,-264.764849,-0.192355,62.180822
6.4842,-0.00494,-0.000532,-0.000794,0.009699,0.001541,0.005616,-0.005707,-0.510666,-0.001354,0.473617,-264.764849,-0.192355,62.180822
6.5048,-0.004808,-0.000794,-0.001104,0.009626,0.001529,0.005574,-0.005707,-0.510666,-0.001354,0.473617,-264.764849,-0.192355,62.180822
6.5245,-0.00488,-0.000308,-0.001744,0.009505,0.00151,0.005503,-0.0049,-0.510719,-0.000831,0.473617,-264.760486,-0.192355,62.184778
6.5446,-0.00492,-0.000815,-0.001561,0.009335,0.001483,0.005405,-0.004949,-0.510687,-0.000889,0.473617,-264.760486,-0.192355,62.184778
6.5644,-0.004585,-0.00028,-0.002154,0.009115,0.001448,0.005278,-0.005345,-0.510756,-0.001346,0.473617,-264.756154,-0.192355,62.188706
6.5841,-0.004241,-0.000375,-0.000339,0.008847,0.001406,0.005123,-0.005492,-0.510474,-0.001784,0.473617,-264.756154,-0.192355,62.188706
6.6043,-0.004221,-4.6e-05,-0.001998,0.008531,0.001355,0.00494,-0.005492,-0.510474,-0.001784,0.473617,-264.756154,-0.192355,62.188706
6.6245,-0.003994,-6e-06,-0.001593,0.008167,0.001298,0.004729,-0.004787,-0.509974,-0.001736,0.473617,-264.751967,-0.192355,62.192502
6.6447,-0.004223,-0.000221,-0.000289,0.007753,0.001232,0.004489,-0.004776,-0.509974,-0.00172,0.473617,-264.751967,-0.192355,62.192502
6.6643,-0.004159,7.8e-05,0.000876,0.007292,0.001159,0.004222,-0.004041,-0.510169,-9.8e-05,0.473617,-264.748127,-0.192355,62.195984
6.6846,-0.003788,-0.000168,-0.000946,0.00678,0.001077,0.003926,-0.003811,-0.510021,0.000484,0.473617,-264.748127,-0.192355,62.195984
6.7049,-0.003638,-0.00015,-0.000139,0.006223,0.000989,0.003603,-0.003811,-0.510021,0.000484,0.473617,-264.748127,-0.192355,62.195984
6.7249,-0.00352,-0.000208,-0.001154,0.005611,0.000892,0.003249,-0.003332,-0.510091,7.9e-05,0.473617,-264.744647,-0.192355,62.199138
6.7444,-0.003879,-1.2e-05,0.00157,0.004959,0.000788,0.002871,-0.003375,-0.510097,1e-06,0.473617,-264.744647,-0.192355,62.199138
6.7651,-0.003312,-0.000168,0.001025,0.00425,0.000675,0.002461,-0.002837,-0.509972,0.00171,0.473617,-264.741846,-0.192355,62.201678
6.7843,-0.003601,-0.000121,0.001201,0.0035,0.000556,0.002026,-0.002779,-0.510077,0.001343,0.473617,-264.741846,-0.192355,62.201678
6.8043,-0.003322,0.000205,-0.000567,0.002696,0.000428,0.001561,-0.002779,-0.510077,0.001343,0.473617,-264.741846,-0.192355,62.201678
6.8245,-0.003323,-0.00026,0.000139,0.001848,0.000294,0.00107,-0.00337,-0.509756,-0.000427,0.473617,-264.739618,-0.192355,62.203698
6.8444,-0.003009,-0.000216,0.001572,0.000946,0.00015,0.000548,-0.003356,-0.50979,-0.000385,0.473617,-264.739618,-0.192355,62.203698
6.8644,-0.002771,-0.000239,-2.9e-05,0.0,0.0,0.0,-0.002104,-0.510199,0.001632,0.473617,-264.738407,-0.192355,62.204796
6.8843,-0.003059,-7.9e-05,0.000319,0.0,0.0,0.0,-0.002477,-0.510219,0.000699,0.473617,-264.738407,-0.192355,62.204796
6.9041,-0.002862,-0.000181,0.00187,0.0,0.0,0.0,-0.002477,-0.510219,0.000699,0.473617,-264.738407,-0.192355,62.204796
