mach0312/omni-docking-bench/src/icros_test_setup/results/kinematic_sample/timeseries/trial_088.csv
t,x,y,yaw,vx,vy,wz,bl_x,bl_y,bl_yaw,front_steering_joint,front_wheel_joint,rear_steering_joint,rear_wheel_joint
0.0,-0.017571,0.019475,0.069993,0.008271,0.000676,0.002244,0.016598,-0.489555,0.068321,0.242565,-264.203676,-0.083769,62.250706
0.0005,-0.01745,0.019618,0.069208,0.004537,0.000371,0.001231,0.017272,-0.489496,0.069086,0.242565,-264.199926,-0.083769,62.254359
0.0009,-0.017177,0.019244,0.07061,0.003735,0.000305,0.001013,0.017272,-0.489496,0.069086,0.242565,-264.196515,-0.083769,62.257683
0.0012,-0.017153,0.019393,0.069967,0.002879,0.000235,0.000781,0.017451,-0.489494,0.069235,0.242565,-264.193783,-0.083769,62.260344
0.0015,-0.017135,0.01963,0.068911,0.001971,0.000161,0.000535,0.017451,-0.489494,0.069235,0.242565,-264.191603,-0.083769,62.262467
0.0017,-0.017191,0.019174,0.069428,0.001014,8.3e-05,0.000275,0.017451,-0.489494,0.069235,0.242565,-264.190415,-0.083769,62.263624
0.002,-0.017384,0.019574,0.069521,0.0,0.0,0.0,0.018285,-0.489272,0.069825,0.242565,-264.189998,-0.083769,62.264031
0.0023,-0.016991,0.019397,0.069628,0.0,0.0,0.0,0.018285,-0.489272,0.069825,0.242565,-264.189998,-0.083769,62.264031
0.0026,-0.01669,0.019639,0.069341,0.0,0.0,0.0,0.018228,-0.489284,0.069721,0.242565,-264.189998,-0.083769,62.264031
0.0028,-0.01695,0.01941,0.071417,0.0,0.0,0.0,0.018228,-0.489284,0.069721,0.242565,-264.189998,-0.083769,62.264031
0.018,-0.016432,0.019759,0.069637,0.015522,-0.016,-0.03,0.019442,-0.48929,0.071417,0.242565,-264.189998,-0.083769,62.264031
0.0379,-0.017242,0.019402,0.069273,0.015017,-0.020855,-0.05,0.01922,-0.489126,0.070398,0.242565,-264.189998,-0.083769,62.264031
0.0582,-0.017079,0.019084,0.06976,0.015858,-0.020549,-0.05,0.01922,-0.489126,0.070398,0.242565,-264.189998,-0.083769,62.264031
0.0781,-0.016877,0.0198,0.070664,0.015707,-0.020228,-0.05,0.01847,-0.489676,0.06976,0.242565,-264.189998,-0.083769,62.264031
0.0985,-0.016852,0.019612,0.070087,0.015437,-0.020942,-0.05,0.018515,-0.489625,0.069821,0.242565,-264.189998,-0.083769,62.264031
0.1178,-0.017257,0.019165,0.068619,0.015437,-0.020744,-0.05,0.018863,-0.489136,0.070087,0.167688,-264.189998,-0.008891,62.264031
0.1378,-0.016985,0.019214,0.069489,0.015903,-0.020303,-0.05,0.018203,-0.489422,0.069245,0.167688,-264.189998,-0.008891,62.264031
0.1578,-0.01668,0.019554,0.068707,0.01561,-0.020347,-0.05,0.018203,-0.489422,0.069245,0.167688,-264.189998,-0.008891,62.264031
0.1781,-0.017079,0.019596,0.069519,0.015298,-0.020653,-0.05,0.018333,-0.489243,0.068707,0.092544,-264.189998,0.066253,62.264031
0.1983,-0.016781,0.019621,0.068221,0.015677,-0.020735,-0.05,0.018334,-0.489237,0.068771,0.092544,-264.189998,0.066253,62.264031
0.2182,-0.016904,0.019692,0.069875,0.015405,-0.020719,-0.05,0.017984,-0.489193,0.068221,0.01731,-264.189998,0.141487,62.264031
0.238,-0.017,0.019256,0.068877,0.015488,-0.020824,-0.05,0.018393,-0.48912,0.06916,0.01731,-264.189998,0.141487,62.264031
0.2586,-0.017046,0.019377,0.068683,0.015635,-0.02038,-0.05,0.018393,-0.48912,0.06916,0.01731,-264.189998,0.141487,62.264031
0.278,-0.01662,0.019353,0.069617,0.015676,-0.020501,-0.05,0.017955,-0.48942,0.068683,-0.057316,-264.189998,0.216113,62.264031
0.2983,-0.016745,0.01959,0.069413,0.015234,-0.020462,-0.05,0.018022,-0.48942,0.068753,-0.057316,-264.189998,0.216113,62.264031
0.3181,-0.016819,0.019615,0.068418,0.015346,-0.020704,-0.05,0.018627,-0.489182,0.069413,-0.132461,-264.189998,0.291258,62.264031
0.3379,-0.016949,0.01901,0.070175,0.015438,-0.020719,-0.05,0.018296,-0.489187,0.068845,-0.132461,-264.189998,0.291258,62.264031
0.3581,-0.016712,0.019465,0.071118,0.015574,-0.020151,-0.05,0.018296,-0.489187,0.068845,-0.132461,-264.189998,0.291258,62.264031
0.378,-0.0165,0.019638,0.070028,0.015286,-0.020604,-0.05,0.019528,-0.489245,0.071118,-0.20742,-264.189997,0.366217,62.264031
0.3983,-0.016749,0.019412,0.070147,0.015086,-0.020745,-0.05,0.019504,-0.489236,0.071043,-0.20742,-264.189997,0.366217,62.264031
0.4183,-0.016435,0.019278,0.06844,0.015347,-0.020538,-0.05,0.018997,-0.489334,0.070147,-0.282301,-264.189996,0.441098,62.264031
0.4381,-0.017094,0.019824,0.068964,0.015078,-0.020357,-0.05,0.018681,-0.489445,0.069173,-0.282301,-264.189996,0.441098,62.264031
0.4582,-0.017059,0.019573,0.069915,0.015687,-0.020955,-0.05,0.018681,-0.489445,0.069173,-0.282301,-264.189996,0.441098,62.264031
0.4784,-0.017018,0.019571,0.070127,0.01565,-0.020717,-0.05,0.018569,-0.489181,0.069914,-0.357491,-264.189995,0.516288,62.264032
0.4983,-0.016831,0.019372,0.069287,0.015604,-0.020715,-0.05,0.018578,-0.48918,0.069927,-0.357491,-264.189995,0.516288,62.264032
0.5182,-0.016353,0.019426,0.069146,0.015449,-0.020491,-0.05,0.018478,-0.489404,0.069287,-0.432295,-264.189993,0.548352,62.264033
0.5379,-0.016868,0.019452,0.069554,0.014972,-0.020509,-0.05,0.018712,-0.489376,0.069205,-0.432295,-264.189993,0.548352,62.264033
0.558,-0.016804,0.019722,0.070211,0.015475,-0.020577,-0.05,0.018712,-0.489376,0.069205,-0.432295,-264.189993,0.548352,62.264033
0.5782,-0.01696,0.019579,0.069554,0.015379,-0.020853,-0.05,0.018974,-0.489021,0.070211,-0.507633,-264.18999,0.561809,62.264033
0.5986,-0.017102,0.019526,0.069685,0.015558,-0.020711,-0.05,0.01894,-0.489033,0.070165,-0.507633,-264.18999,0.561809,62.264033
0.6178,-0.016959,0.019648,0.069843,0.015701,-0.02067,-0.05,0.018408,-0.489236,0.069685,-0.582298,-264.189988,0.571894,62.264034
0.6377,-0.016702,0.019124,0.070554,0.015547,-0.020784,-0.05,0.018536,-0.489163,0.069775,-0.582298,-264.189988,0.571894,62.264034
0.6582,-0.016653,0.019671,0.070412,0.015312,-0.020254,-0.05,0.018536,-0.489163,0.069775,-0.582298,-264.189988,0.571894,62.264034
0.678,-0.016661,0.019217,0.070484,0.015227,-0.020794,-0.05,0.019228,-0.489065,0.070411,-0.657414,-264.189981,0.563345,62.264037
0.6986,-0.01692,0.019565,0.069459,0.015266,-0.020343,-0.05,0.01923,-0.489095,0.070416,-0.657414,-264.189981,0.563345,62.264037
0.7178,-0.017054,0.019278,0.071095,0.015522,-0.020692,-0.05,0.018477,-0.489206,0.069457,-0.73231,-264.18995,0.591414,62.264047
0.7383,-0.017073,0.018954,0.070008,0.015641,-0.02044,-0.05,0.018873,-0.489335,0.070386,-0.73231,-264.18995,0.591414,62.264047
0.758,-0.016891,0.019379,0.070806,0.015706,-0.020102,-0.05,0.018873,-0.489335,0.070386,-0.73231,-264.18995,0.591414,62.264047
0.7778,-0.016957,0.019338,0.069186,0.015478,-0.020525,-0.05,0.019199,-0.489347,0.070794,-0.807314,-264.189812,0.588797,62.264095
0.7983,-0.016713,0.019602,0.067869,0.01558,-0.020464,-0.05,0.019138,-0.489354,0.070685,-0.807314,-264.189812,0.588797,62.264095
0.8186,-0.016721,0.019372,0.070346,0.015345,-0.02069,-0.05,0.017902,-0.489239,0.067822,-0.882309,-264.189206,0.586473,62.264311
0.838,-0.016834,0.019322,0.069247,0.015318,-0.020499,-0.05,0.018597,-0.489313,0.069242,-0.882309,-264.189206,0.586473,62.264311
0.8579,-0.016712,0.019794,0.069093,0.015457,-0.020441,-0.05,0.018597,-0.489313,0.069242,-0.882309,-264.189206,0.586473,62.264311
0.8782,-0.016622,0.01929,0.069299,0.015306,-0.0209,-0.05,0.018592,-0.489048,0.068923,-0.957309,-264.187502,0.573966,62.264904
0.8982,-0.016629,0.019821,0.070353,0.015247,-0.020395,-0.05,0.018601,-0.489078,0.068943,-0.957309,-264.187502,0.573966,62.264904
0.9179,-0.016187,0.019024,0.069064,0.015194,-0.020941,-0.05,0.019388,-0.489037,0.070017,-1.032305,-264.183442,0.57864,62.266311
0.9387,-0.016079,0.019236,0.068566,0.014835,-0.020096,-0.05,0.019193,-0.489463,0.069432,-1.032305,-264.183442,0.57864,62.266311
0.9588,-0.016184,0.019218,0.069352,0.014724,-0.020292,-0.05,0.019193,-0.489463,0.069432,-1.032305,-264.183442,0.57864,62.266311
0.9783,-0.015732,0.018945,0.066566,0.014814,-0.020294,-0.05,0.01949,-0.489799,0.068618,-1.107351,-264.176883,0.58701,62.269024
0.9979,-0.015413,0.019318,0.067925,0.014437,-0.01995,-0.05,0.019412,-0.489813,0.068462,-1.107351,-264.176883,0.58701,62.269024
1.0181,-0.014621,0.018749,0.066882,0.014067,-0.02032,-0.05,0.019552,-0.489772,0.067073,-1.182321,-264.167824,0.60792,62.273217
1.0378,-0.014655,0.019262,0.066552,0.013335,-0.019684,-0.05,0.019546,-0.489999,0.066856,-1.182321,-264.167824,0.60792,62.273217
1.0581,-0.014552,0.018774,0.066006,0.013342,-0.020194,-0.05,0.019546,-0.489999,0.066856,-1.182321,-264.167824,0.60792,62.273217
1.0778,-0.013237,0.018331,0.066036,0.013282,-0.019693,-0.05,0.019618,-0.49054,0.064567,-1.257311,-264.156209,0.63278,62.279087
1.0983,-0.012748,0.018397,0.063683,0.011999,-0.019164,-0.05,0.019698,-0.490554,0.064641,-1.257311,-264.156209,0.63278,62.279087
1.1179,-0.011639,0.018039,0.063656,0.011551,-0.019171,-0.05,0.02015,-0.491009,0.062308,-1.313629,-264.14219,0.659477,62.285409
1.1381,-0.011725,0.017558,0.064213,0.010468,-0.018743,-0.05,0.02058,-0.491019,0.062904,-1.313629,-264.14219,0.659477,62.285409
1.1587,-0.011787,0.017537,0.06283,0.010575,-0.018274,-0.05,0.02058,-0.491019,0.062904,-1.313629,-264.14219,0.659477,62.285409
1.178,-0.009845,0.017124,0.062471,0.010663,-0.018242,-0.05,0.02077,-0.492175,0.060855,-1.333912,-264.125648,0.734201,62.291014
1.1984,-0.010108,0.016929,0.06104,0.008756,-0.017705,-0.05,0.020865,-0.492174,0.060912,-1.333912,-264.125648,0.734201,62.291014
1.2178,-0.008779,0.016673,0.05814,0.009056,-0.017514,-0.05,0.02136,-0.492653,0.059564,-1.357454,-264.110241,0.809116,62.296009
1.2383,-0.008356,0.016632,0.059099,0.007795,-0.017155,-0.05,0.021118,-0.492614,0.058566,-1.357454,-264.110241,0.809116,62.296009
1.2585,-0.008333,0.016782,0.059816,0.007359,-0.017097,-0.05,0.021118,-0.492614,0.058566,-1.357454,-264.110241,0.809116,62.296009
1.278,-0.007461,0.01581,0.056383,0.007315,-0.01725,-0.05,0.022478,-0.492853,0.058277,-1.391243,-264.097617,0.884102,62.300009
1.2986,-0.00729,0.015925,0.058349,0.006558,-0.016205,-0.05,0.022393,-0.492911,0.058083,-1.391243,-264.097617,0.884102,62.300009
1.3181,-0.00665,0.01569,0.057782,0.006349,-0.016323,-0.05,0.022651,-0.493583,0.057264,-1.417512,-264.086709,0.959436,62.303477
1.3378,-0.006408,0.015627,0.056139,0.005733,-0.016048,-0.05,0.022761,-0.493559,0.057421,-1.417512,-264.086709,0.959436,62.303477
1.3579,-0.00681,0.015448,0.056699,0.005521,-0.015962,-0.05,0.022761,-0.493559,0.057421,-1.417512,-264.086709,0.959436,62.303477
1.3778,-0.005438,0.015111,0.055211,0.005924,-0.015809,-0.05,0.022324,-0.494191,0.055299,-1.431407,-264.075671,1.034199,62.307163
1.3984,-0.005296,0.015135,0.054013,0.004596,-0.015388,-0.05,0.022359,-0.494198,0.055253,-1.431407,-264.075671,1.034199,62.307163
1.4179,-0.004857,0.014562,0.054138,0.004471,-0.015399,-0.05,0.022403,-0.494494,0.052853,-1.45262,-264.064286,1.109269,62.310952
1.4382,-0.004742,0.014628,0.053756,0.004062,-0.014804,-0.05,0.022616,-0.494654,0.053437,-1.45262,-264.064286,1.109269,62.310952
1.4582,-0.004608,0.014245,0.053672,0.003949,-0.014861,-0.05,0.022616,-0.494654,0.053437,-1.45262,-264.064286,1.109269,62.310952
1.4782,-0.003886,0.01427,0.050921,0.003837,-0.014472,-0.05,0.02294,-0.495494,0.052142,-1.471062,-264.052576,1.184211,62.314969
1.4983,-0.003713,0.014266,0.052107,0.003155,-0.014449,-0.05,0.022886,-0.495478,0.05202,-1.471062,-264.052576,1.184211,62.314969
1.5183,-0.002626,0.01357,0.048977,0.002965,-0.01444,-0.05,0.022997,-0.495457,0.050706,-1.484025,-264.039295,1.259109,62.31968
1.5379,-0.002511,0.013834,0.049947,0.001958,-0.013683,-0.048977,0.022643,-0.495715,0.049545,-1.484025,-264.039295,1.259109,62.31968
1.558,-0.002429,0.013931,0.049453,0.001817,-0.013942,-0.049947,0.022643,-0.495715,0.049545,-1.484025,-264.039295,1.259109,62.31968
1.578,-0.001454,0.013168,0.049527,0.001738,-0.014034,-0.049453,0.022944,-0.496001,0.047521,-1.500787,-264.024936,1.334111,62.3249
1.5982,-0.001581,0.013441,0.048419,0.000801,-0.013224,-0.049527,0.023005,-0.496029,0.047606,-1.500787,-264.024936,1.334111,62.3249
1.618,5.6e-05,0.012821,0.048444,0.000929,-0.013501,-0.048419,0.023188,-0.496369,0.046955,-1.52994,-264.011409,1.409108,62.329967
1.638,-0.000419,0.012769,0.049142,-0.000676,-0.012803,-0.048444,0.02409,-0.496541,0.047618,-1.52994,-264.011409,1.409108,62.329967
1.6578,1.3e-05,0.012766,0.045837,-0.000209,-0.012774,-0.049142,0.02409,-0.496541,0.047618,-1.52994,-264.011409,1.409108,62.329967
1.6778,0.000859,0.012419,0.043669,-0.000598,-0.012752,-0.045837,0.023449,-0.497213,0.043905,-1.552378,-263.997439,1.484116,62.335443
1.698,0.001175,0.012153,0.044871,-0.001401,-0.01237,-0.043669,0.023428,-0.497218,0.043837,-1.552378,-263.997439,1.484116,62.335443
1.7184,0.002089,0.011711,0.042194,-0.001719,-0.012088,-0.044871,0.02407,-0.497753,0.043256,-1.575681,-263.98293,1.559099,62.341289
1.7389,0.002048,0.011435,0.043153,-0.002581,-0.011613,-0.042194,0.023808,-0.497852,0.042453,-1.575681,-263.98293,1.559099,62.341289
1.7581,0.001799,0.011609,0.042019,-0.00254,-0.011336,-0.043153,0.023808,-0.497852,0.042453,-1.575681,-263.98293,1.559099,62.341289
1.7781,0.003165,0.010947,0.039428,-0.002285,-0.011523,-0.042019,0.023197,-0.49843,0.040292,-1.606662,-263.970165,1.634097,62.345985
1.7978,0.002884,0.011111,0.041089,-0.003594,-0.010814,-0.039428,0.023202,-0.498464,0.040168,-1.606662,-263.970165,1.634097,62.345985
1.8181,0.003654,0.01097,0.036844,-0.003338,-0.010983,-0.041089,0.023774,-0.49882,0.039718,-1.63807,-263.957713,1.709462,62.351005
1.8379,0.003996,0.010625,0.038142,-0.004056,-0.010827,-0.036844,0.023003,-0.498788,0.037897,-1.63807,-263.957713,1.709462,62.351005
1.8583,0.003618,0.011089,0.03984,-0.004398,-0.010465,-0.038142,0.023003,-0.498788,0.037897,-1.63807,-263.957713,1.709462,62.351005
1.8778,0.003765,0.010536,0.038905,-0.004056,-0.010936,-0.03984,0.023921,-0.49866,0.039589,-1.673419,-263.955185,1.634714,62.351005
1.8978,0.004029,0.010748,0.039945,-0.004172,-0.010382,-0.038905,0.023899,-0.498693,0.039536,-1.673419,-263.955185,1.634714,62.351005
1.9181,0.003412,0.010751,0.037737,-0.004455,-0.010578,-0.039945,0.024396,-0.498845,0.039945,-1.700336,-263.955183,1.559804,62.351004
1.9378,0.003405,0.010598,0.039274,-0.003815,-0.010614,-0.037737,0.023396,-0.498869,0.038678,-1.700336,-263.955183,1.559804,62.351004
1.958,0.003739,0.010338,0.038753,-0.003819,-0.010456,-0.039274,0.023396,-0.498869,0.038678,-1.700336,-263.955183,1.559804,62.351004
1.9782,0.00365,0.010819,0.03832,-0.004137,-0.010185,-0.038753,0.023498,-0.499279,0.038752,-1.692391,-263.955182,1.48469,62.351004
1.9983,0.003882,0.010743,0.038166,-0.004062,-0.010672,-0.03832,0.023478,-0.499248,0.038724,-1.692391,-263.955182,1.48469,62.351004
2.0182,0.004103,0.010642,0.038449,-0.004289,-0.010587,-0.038166,0.023341,-0.498886,0.038166,-1.681215,-263.955181,1.409827,62.351003
2.0384,0.003837,0.010515,0.038427,-0.004509,-0.010476,-0.038449,0.023551,-0.49894,0.038328,-1.681215,-263.955181,1.409827,62.351003
2.0582,0.00384,0.011099,0.03782,-0.004238,-0.01036,-0.038427,0.023551,-0.49894,0.038328,-1.681215,-263.955181,1.409827,62.351003
2.0784,0.004203,0.010708,0.039208,-0.004257,-0.010946,-0.03782,0.023124,-0.498536,0.03782,-1.68944,-263.955179,1.334669,62.351003
2.0987,0.003744,0.010789,0.03836,-0.004619,-0.010535,-0.039208,0.023195,-0.49856,0.037911,-1.68944,-263.955179,1.334669,62.351003
2.118,0.003881,0.010959,0.039989,-0.004155,-0.010637,-0.03836,0.023303,-0.498836,0.03836,-1.695437,-263.955178,1.259822,62.351002
2.1383,0.004087,0.010629,0.038504,-0.004316,-0.010795,-0.039989,0.023858,-0.49872,0.039295,-1.695437,-263.955178,1.259822,62.351002
2.1582,0.003582,0.010784,0.039653,-0.004493,-0.010464,-0.038504,0.023858,-0.49872,0.039295,-1.695437,-263.955178,1.259822,62.351002
2.1779,0.00379,0.010966,0.038742,-0.004006,-0.010633,-0.039653,0.0238,-0.498815,0.039653,-1.703964,-263.955176,1.184686,62.351001
2.1984,0.00381,0.010509,0.038924,-0.004212,-0.010811,-0.038742,0.023781,-0.498803,0.039586,-1.703964,-263.955176,1.184686,62.351001
2.2178,0.004126,0.010799,0.038269,-0.004217,-0.010353,-0.038924,0.023657,-0.499104,0.038924,-1.702265,-263.955175,1.10968,62.351001
2.2382,0.004041,0.01072,0.037486,-0.004536,-0.010633,-0.038269,0.023646,-0.498946,0.03855,-1.702265,-263.955175,1.10968,62.351001
2.2581,0.004041,0.010723,0.036568,-0.00444,-0.010561,-0.037486,0.023646,-0.498946,0.03855,-1.702265,-263.955175,1.10968,62.351001
2.278,0.003906,0.01056,0.039533,-0.00443,-0.010568,-0.036568,0.022686,-0.498936,0.036568,-1.692375,-263.955174,1.034648,62.351
2.298,0.003693,0.010688,0.038721,-0.004321,-0.010397,-0.039533,0.022783,-0.498943,0.036776,-1.692375,-263.955174,1.034648,62.351
2.3183,0.003938,0.010699,0.038213,-0.004104,-0.010537,-0.038721,0.023436,-0.498929,0.038721,-1.702735,-263.955172,0.959816,62.351
2.338,0.004016,0.010653,0.035869,-0.004344,-0.010541,-0.038213,0.023428,-0.498929,0.03843,-1.702735,-263.955172,0.959816,62.351
2.3579,0.003718,0.010725,0.038579,-0.004396,-0.010502,-0.035869,0.023428,-0.498929,0.03843,-1.702735,-263.955172,0.959816,62.351
2.378,0.003999,0.010762,0.037387,-0.004129,-0.010574,-0.038579,0.023388,-0.498895,0.038579,-1.695236,-263.955171,0.884694,62.350999
2.3987,0.003834,0.010593,0.037767,-0.004399,-0.010605,-0.037387,0.023366,-0.498894,0.038499,-1.695236,-263.955171,0.884694,62.350999
2.4179,0.004156,0.010736,0.039638,-0.004232,-0.01044,-0.037767,0.023091,-0.499044,0.037767,-1.705605,-263.95517,0.80981,62.350999
2.4386,0.003859,0.010748,0.038186,-0.004579,-0.010563,-0.039638,0.023816,-0.498941,0.03883,-1.705605,-263.95517,0.80981,62.350999
2.4584,0.003333,0.01075,0.037716,-0.004266,-0.010593,-0.038186,0.023816,-0.498941,0.03883,-1.705605,-263.95517,0.80981,62.350999
2.4782,0.003662,0.010383,0.037503,-0.003736,-0.010617,-0.037716,0.022564,-0.498887,0.037716,-1.701593,-263.955168,0.734874,62.350998
2.4982,0.004086,0.010763,0.039097,-0.004049,-0.010239,-0.037503,0.022579,-0.498913,0.037701,-1.701593,-263.955168,0.734874,62.350998
2.5179,0.00405,0.010695,0.036676,-0.004504,-0.010595,-0.039097,0.02402,-0.498847,0.039097,-1.695936,-263.955167,0.659808,62.350998
2.5379,0.003808,0.010658,0.03895,-0.004439,-0.01054,-0.036676,0.023298,-0.498912,0.037719,-1.695936,-263.955167,0.659808,62.350998
2.5581,0.003652,0.01041,0.037961,-0.00422,-0.010502,-0.03895,0.023298,-0.498912,0.037719,-1.695936,-263.955167,0.659808,62.350998
2.5778,0.003676,0.010708,0.040338,-0.004044,-0.010264,-0.037961,0.023007,-0.499222,0.03796,-1.692349,-263.955166,0.584818,62.350997
2.5979,0.004024,0.010475,0.036958,-0.004105,-0.010551,-0.040338,0.023088,-0.4992,0.038116,-1.692349,-263.955166,0.584818,62.350997
2.6183,0.003972,0.01094,0.038398,-0.004409,-0.010319,-0.036958,0.022869,-0.499177,0.036958,-1.693256,-263.955164,0.509822,62.350997
2.638,0.004161,0.010607,0.038779,-0.004389,-0.01078,-0.038398,0.023255,-0.498897,0.037775,-1.693256,-263.955164,0.509822,62.350997
2.658,0.004026,0.01034,0.037816,-0.00457,-0.010438,-0.038779,0.023255,-0.498897,0.037775,-1.693256,-263.955164,0.509822,62.350997
2.6787,0.00361,0.010695,0.038089,-0.004414,-0.01018,-0.037816,0.023307,-0.499296,0.037816,-1.686922,-263.955163,0.434772,62.350996
2.6981,0.003427,0.010686,0.039359,-0.004015,-0.01055,-0.038089,0.023288,-0.499271,0.037835,-1.686922,-263.955163,0.434772,62.350996
2.7184,0.0039,0.010595,0.038963,-0.003845,-0.010543,-0.039359,0.023495,-0.498919,0.039359,-1.70392,-263.955161,0.359822,62.350996
2.7382,0.003355,0.010622,0.037343,-0.00431,-0.010435,-0.038963,0.023649,-0.498975,0.039135,-1.70392,-263.955161,0.359822,62.350996
2.7584,0.00356,0.010739,0.03745,-0.003749,-0.010489,-0.037343,0.023649,-0.498975,0.039135,-1.70392,-263.955161,0.359822,62.350996
2.7779,0.003947,0.010683,0.037903,-0.003959,-0.010599,-0.03745,0.022655,-0.498903,0.037449,-1.688972,-263.95516,0.284807,62.350995
2.7981,0.003909,0.011005,0.038763,-0.004349,-0.010525,-0.037903,0.022695,-0.498906,0.037479,-1.688972,-263.95516,0.284807,62.350995
2.8181,0.003721,0.010735,0.037989,-0.004333,-0.010845,-0.038763,0.023673,-0.498612,0.038763,-1.682915,-263.955159,0.20981,62.350994
2.838,0.004286,0.010887,0.038148,-0.004126,-0.010586,-0.037989,0.023346,-0.498772,0.038327,-1.682915,-263.955159,0.20981,62.350994
2.8582,0.003792,0.01084,0.038471,-0.004698,-0.010716,-0.038148,0.023346,-0.498772,0.038327,-1.682915,-263.955159,0.20981,62.350994
2.8781,0.004058,0.011005,0.038504,-0.004206,-0.010686,-0.038471,0.023408,-0.498782,0.038471,-1.699238,-263.955157,0.134796,62.350994
2.8985,0.003819,0.010593,0.03892,-0.004479,-0.010841,-0.038504,0.023427,-0.498771,0.038473,-1.699238,-263.955157,0.134796,62.350994
2.9182,0.003989,0.010859,0.038983,-0.004229,-0.010436,-0.03892,0.023664,-0.499021,0.03892,-1.70805,-263.955156,0.059716,62.350993
2.9378,0.003767,0.010914,0.03858,-0.004409,-0.010696,-0.038983,0.023779,-0.498868,0.038956,-1.70805,-263.955156,0.059716,62.350993
2.9582,0.003863,0.01088,0.037099,-0.004185,-0.01076,-0.03858,0.023779,-0.498868,0.038956,-1.70805,-263.955156,0.059716,62.350993
2.9785,0.00354,0.011047,0.037326,-0.004264,-0.01073,-0.037099,0.02278,-0.498769,0.037099,-1.700425,-263.955155,-0.015273,62.350993
2.998,0.003667,0.01099,0.037451,-0.00395,-0.010907,-0.037326,0.022765,-0.498757,0.037115,-1.700425,-263.955155,-0.015273,62.350993
3.018,0.0036,0.010531,0.039769,-0.004076,-0.010845,-0.037451,0.022763,-0.498653,0.037451,-1.692127,-263.955153,-0.090175,62.350992
3.0382,0.004154,0.010754,0.038178,-0.004016,-0.01038,-0.039769,0.023399,-0.498889,0.038776,-1.692127,-263.955153,-0.090175,62.350992
3.0584,0.003901,0.010998,0.040096,-0.004562,-0.010587,-0.038178,0.023399,-0.498889,0.038776,-1.692127,-263.955153,-0.090175,62.350992
3.0787,0.003806,0.011108,0.038879,-0.004339,-0.010833,-0.040096,0.024345,-0.498592,0.040096,-1.687454,-263.955152,-0.165287,62.350992
3.0982,0.003823,0.010502,0.038565,-0.004235,-0.010952,-0.038879,0.024297,-0.498587,0.040014,-1.687454,-263.955152,-0.165287,62.350992
3.1178,0.003961,0.010424,0.038032,-0.004225,-0.010347,-0.038565,0.023486,-0.499119,0.038565,-1.704541,-263.955151,-0.240532,62.350991
3.1379,0.003787,0.010997,0.038743,-0.004354,-0.010265,-0.038032,0.02341,-0.49917,0.038259,-1.704541,-263.955151,-0.240532,62.350991
3.1591,0.003551,0.01046,0.038854,-0.00421,-0.010843,-0.038743,0.02341,-0.49917,0.038259,-1.704541,-263.955151,-0.240532,62.350991
3.1783,0.003737,0.010711,0.037689,-0.003955,-0.010314,-0.038854,0.023362,-0.499155,0.038854,-1.692242,-263.955149,-0.315297,62.350991
3.1979,0.003696,0.010567,0.039865,-0.004138,-0.010562,-0.037689,0.023341,-0.499143,0.038795,-1.692242,-263.955149,-0.315297,62.350991
3.2183,0.003766,0.010408,0.039698,-0.004115,-0.010412,-0.039865,0.024022,-0.499028,0.039865,-1.692206,-263.955148,-0.390188,62.35099
3.238,0.003556,0.010704,0.038829,-0.004176,-0.01025,-0.039698,0.024013,-0.49912,0.039769,-1.692206,-263.955148,-0.390188,62.35099
3.2579,0.003833,0.010578,0.037653,-0.003969,-0.010558,-0.038829,0.024013,-0.49912,0.039769,-1.692206,-263.955148,-0.390188,62.35099
3.2779,0.004137,0.010848,0.039312,-0.004228,-0.010426,-0.037653,0.023031,-0.499061,0.037652,-1.693402,-263.955146,-0.465277,62.35099
3.2984,0.003948,0.011189,0.039647,-0.00456,-0.010677,-0.039312,0.023108,-0.499041,0.037763,-1.693402,-263.955146,-0.465277,62.35099
3.3182,0.00387,0.010706,0.037667,-0.004388,-0.011024,-0.039647,0.024162,-0.49841,0.039647,-1.686085,-263.955145,-0.540174,62.350989
3.3379,0.004192,0.010804,0.037761,-0.00427,-0.010553,-0.037667,0.023545,-0.498707,0.038522,-1.686085,-263.955145,-0.540174,62.350989
3.3583,0.003757,0.010388,0.039192,-0.004597,-0.010638,-0.037761,0.023545,-0.498707,0.038522,-1.686085,-263.955145,-0.540174,62.350989
3.3779,0.004033,0.010459,0.040361,-0.004161,-0.010233,-0.039192,0.02374,-0.49922,0.039191,-1.701514,-263.955141,-0.615173,62.350988
3.3978,0.004128,0.010634,0.037464,-0.004452,-0.010287,-0.040361,0.023796,-0.499214,0.039267,-1.701514,-263.955141,-0.615173,62.350988
3.4181,0.004176,0.010547,0.038813,-0.004523,-0.010472,-0.037464,0.02323,-0.499009,0.037462,-1.706372,-263.955111,-0.69018,62.350976
3.4385,0.003814,0.010919,0.037609,-0.004582,-0.010377,-0.038813,0.023648,-0.499043,0.038229,-1.706372,-263.955111,-0.69018,62.350976
3.458,0.003752,0.010865,0.038907,-0.004221,-0.010768,-0.037609,0.023648,-0.499043,0.038229,-1.706372,-263.955111,-0.69018,62.350976
3.4779,0.003701,0.010522,0.039674,-0.004171,-0.010711,-0.038907,0.023588,-0.498751,0.038901,-1.697537,-263.955064,-0.765179,62.350956
3.4984,0.004045,0.01077,0.038052,-0.004116,-0.010367,-0.039674,0.023613,-0.498775,0.038956,-1.697537,-263.955064,-0.765179,62.350956
3.5182,0.003946,0.010807,0.039826,-0.004452,-0.010608,-0.038052,0.023441,-0.498872,0.038018,-1.695277,-263.954732,-0.840279,62.35083
3.5384,0.003578,0.010725,0.038689,-0.004373,-0.010641,-0.039826,0.023903,-0.498826,0.039045,-1.695277,-263.954732,-0.840279,62.35083
3.5582,0.003906,0.010948,0.03752,-0.00399,-0.010579,-0.038689,0.023903,-0.498826,0.039045,-1.695277,-263.954732,-0.840279,62.35083
3.5779,0.004205,0.010711,0.038766,-0.004314,-0.010793,-0.03752,0.023025,-0.498716,0.037447,-1.689193,-263.954182,-0.915181,62.350601
3.5984,0.003483,0.010757,0.038888,-0.004616,-0.01054,-0.038766,0.023085,-0.498729,0.037529,-1.689193,-263.954182,-0.915181,62.350601
3.6181,0.004146,0.010763,0.037608,-0.003898,-0.010614,-0.038888,0.023286,-0.498912,0.038712,-1.686908,-263.952507,-0.990182,62.349938
3.6381,0.004192,0.010596,0.03887,-0.004547,-0.0106,-0.037608,0.023303,-0.498898,0.03806,-1.686908,-263.952507,-0.990182,62.349938
3.6583,0.003791,0.011038,0.036831,-0.0046,-0.010425,-0.03887,0.023303,-0.498898,0.03806,-1.686908,-263.952507,-0.990182,62.349938
3.678,0.004465,0.010398,0.038106,-0.004195,-0.010891,-0.036831,0.022479,-0.498757,0.036233,-1.704904,-263.948333,-1.065184,62.347799
3.6984,0.004085,0.010562,0.036643,-0.004858,-0.010221,-0.038106,0.022572,-0.498793,0.036344,-1.704904,-263.948333,-1.065184,62.347799
3.7185,0.004484,0.009959,0.036519,-0.004469,-0.010405,-0.036643,0.022662,-0.499266,0.03587,-1.704638,-263.941658,-1.140186,62.344316
3.7381,0.004367,0.01034,0.036005,-0.004845,-0.009789,-0.036519,0.0229,-0.499535,0.03614,-1.704638,-263.941658,-1.140186,62.344316
3.758,0.004539,0.010139,0.035168,-0.004736,-0.010176,-0.036005,0.0229,-0.499535,0.03614,-1.704638,-263.941658,-1.140186,62.344316
3.778,0.004915,0.010113,0.035742,-0.004893,-0.009973,-0.035168,0.022293,-0.499814,0.033789,-1.714832,-263.932484,-1.214497,62.339226
3.7979,0.004769,0.010316,0.035572,-0.005273,-0.009931,-0.035742,0.022345,-0.499804,0.033884,-1.714832,-263.932484,-1.214497,62.339226
3.8185,0.006402,0.010042,0.03352,-0.005133,-0.01014,-0.035572,0.022746,-0.499698,0.03429,-1.71699,-263.920809,-1.189523,62.334185
3.838,0.005631,0.00912,0.034925,-0.006735,-0.009822,-0.03352,0.023137,-0.499728,0.033695,-1.71699,-263.920809,-1.189523,62.334185
3.8579,0.00612,0.009512,0.034073,-0.005946,-0.008918,-0.034925,0.023137,-0.499728,0.033695,-1.71699,-263.920809,-1.189523,62.334185
3.8779,0.006435,0.009178,0.030539,-0.006441,-0.009298,-0.034073,0.02326,-0.500672,0.032377,-1.735315,-263.908261,-1.153632,62.329113
3.8981,0.00648,0.009007,0.031166,-0.006713,-0.008977,-0.030539,0.023172,-0.500678,0.032215,-1.735315,-263.908261,-1.153632,62.329113
3.9184,0.006482,0.008884,0.032473,-0.006758,-0.008801,-0.031166,0.022365,-0.500868,0.030965,-1.660318,-263.90571,-1.124092,62.329113
3.9381,0.00645,0.009101,0.033096,-0.006767,-0.008668,-0.032473,0.02275,-0.500872,0.0318,-1.660318,-263.90571,-1.124092,62.329113
3.958,0.006464,0.008828,0.031496,-0.006748,-0.008882,-0.033096,0.02275,-0.500872,0.0318,-1.660318,-263.90571,-1.124092,62.329113
3.978,0.006536,0.008739,0.029918,-0.006739,-0.00862,-0.031496,0.022524,-0.500919,0.031496,-1.585226,-263.905711,-1.049,62.329113
3.9981,0.006501,0.008932,0.031308,-0.006795,-0.00854,-0.029918,0.022477,-0.500926,0.031395,-1.585226,-263.905711,-1.049,62.329113
4.0179,0.006787,0.00899,0.032671,-0.006777,-0.008724,-0.031308,0.022465,-0.500818,0.031308,-1.510314,-263.905712,-1.03371,62.329112
4.0383,0.006544,0.009147,0.032492,-0.007077,-0.008763,-0.032671,0.023023,-0.500773,0.032083,-1.510314,-263.905712,-1.03371,62.329112
4.0581,0.006374,0.008839,0.031317,-0.006838,-0.00893,-0.032492,0.023023,-0.500773,0.032083,-1.510314,-263.905712,-1.03371,62.329112
4.0781,0.006583,0.009319,0.031764,-0.006648,-0.008635,-0.031317,0.022344,-0.500911,0.031317,-1.435319,-263.905713,-0.961322,62.329112
4.0978,0.006601,0.008965,0.032338,-0.006876,-0.009105,-0.031764,0.022372,-0.50088,0.031346,-1.435319,-263.905713,-0.961322,62.329112
4.1181,0.006667,0.008857,0.030225,-0.006888,-0.008747,-0.032338,0.023091,-0.500768,0.032338,-1.36032,-263.905714,-1.011132,62.329111
4.1382,0.006482,0.009107,0.031153,-0.006932,-0.008651,-0.030225,0.022516,-0.500849,0.031137,-1.36032,-263.905714,-1.011132,62.329111
4.1581,0.006351,0.009003,0.031543,-0.006763,-0.008901,-0.031153,0.022516,-0.500849,0.031137,-1.36032,-263.905714,-1.011132,62.329111
4.1781,0.00679,0.008731,0.031384,-0.006632,-0.008798,-0.031543,0.022436,-0.500743,0.031543,-1.285315,-263.905715,-0.981936,62.329111
4.1985,0.006333,0.00903,0.033286,-0.00706,-0.008513,-0.031384,0.022458,-0.500761,0.031533,-1.285315,-263.905715,-0.981936,62.329111
4.2183,0.006672,0.009044,0.032088,-0.00663,-0.008814,-0.033286,0.023306,-0.500688,0.033286,-1.210309,-263.905716,-0.981962,62.32911
4.238,0.006039,0.009325,0.032384,-0.006959,-0.008825,-0.032088,0.023151,-0.500691,0.032604,-1.210309,-263.905716,-0.981962,62.32911
4.2582,0.006568,0.008765,0.030387,-0.006338,-0.009125,-0.032384,0.023151,-0.500691,0.032604,-1.210309,-263.905716,-0.981962,62.32911
4.2784,0.006414,0.009261,0.031541,-0.006831,-0.008561,-0.030387,0.022063,-0.501,0.030387,-1.135319,-263.905717,-0.985558,62.32911
4.2983,0.006464,0.00909,0.032461,-0.006703,-0.009054,-0.031541,0.022091,-0.500966,0.030463,-1.135319,-263.905717,-0.985558,62.32911
4.3182,0.006395,0.009206,0.03304,-0.006756,-0.008876,-0.032461,0.023016,-0.500641,0.032461,-1.06031,-263.905719,-1.034159,62.329109
4.3381,0.006934,0.008935,0.031495,-0.006695,-0.008989,-0.03304,0.023144,-0.50057,0.032787,-1.06031,-263.905719,-1.034159,62.329109
4.3586,0.006432,0.008853,0.032311,-0.007212,-0.008712,-0.031495,0.023144,-0.50057,0.032787,-1.06031,-263.905719,-1.034159,62.329109
4.3779,0.006522,0.009044,0.030615,-0.006715,-0.008641,-0.032311,0.022908,-0.500881,0.032311,-0.98532,-263.90572,-0.989875,62.329109
4.398,0.006459,0.009065,0.030779,-0.006796,-0.00884,-0.030615,0.022857,-0.50087,0.0322,-0.98532,-263.90572,-0.989875,62.329109
4.4182,0.006419,0.009131,0.031709,-0.006735,-0.008862,-0.030779,0.022154,-0.500693,0.030779,-0.910313,-263.905721,-0.96998,62.329108
4.4382,0.006706,0.008627,0.030965,-0.006705,-0.008923,-0.031709,0.0224,-0.500647,0.031308,-0.910313,-263.905721,-0.96998,62.329108
4.4578,0.006548,0.009255,0.031753,-0.00697,-0.008415,-0.030965,0.0224,-0.500647,0.031308,-0.910313,-263.905721,-0.96998,62.329108
4.478,0.006367,0.008913,0.031434,-0.006838,-0.009042,-0.031753,0.022739,-0.500488,0.031753,-0.835317,-263.905722,-0.967224,62.329108
4.4978,0.006793,0.008684,0.031136,-0.006644,-0.008708,-0.031434,0.022716,-0.500512,0.031731,-0.835317,-263.905722,-0.967224,62.329108
4.5178,0.00645,0.009371,0.030422,-0.00706,-0.008468,-0.031136,0.02267,-0.501069,0.031136,-0.760321,-263.905723,-0.984663,62.329107
4.5381,0.006065,0.009306,0.031791,-0.006732,-0.00917,-0.030422,0.022267,-0.500684,0.030729,-0.760321,-263.905723,-0.984663,62.329107
4.5588,0.006775,0.00886,0.032157,-0.006358,-0.009108,-0.031791,0.022267,-0.500684,0.030729,-0.760321,-263.905723,-0.984663,62.329107
4.5783,0.006434,0.008926,0.029981,-0.007057,-0.008638,-0.032157,0.023172,-0.500876,0.032157,-0.685317,-263.905724,-1.006222,62.329107
4.5981,0.006525,0.009333,0.030984,-0.006699,-0.008729,-0.029981,0.023081,-0.500874,0.03202,-0.685317,-263.905724,-1.006222,62.329107
4.6178,0.006579,0.009038,0.03188,-0.006811,-0.009126,-0.030984,0.022325,-0.500423,0.030984,-0.610283,-263.905725,-1.018137,62.329106
4.6379,0.006761,0.008513,0.030975,-0.006864,-0.008823,-0.03188,0.022615,-0.500582,0.031493,-0.610283,-263.905725,-1.018137,62.329106
4.658,0.006228,0.009391,0.031946,-0.007022,-0.008299,-0.030975,0.022615,-0.500582,0.031493,-0.610283,-263.905725,-1.018137,62.329106
4.678,0.006625,0.008968,0.030436,-0.006525,-0.009187,-0.031946,0.022518,-0.500349,0.031946,-0.535295,-263.905726,-0.960692,62.329106
4.6988,0.006552,0.00939,0.031707,-0.006895,-0.008762,-0.030436,0.022492,-0.50038,0.031841,-0.535295,-263.905726,-0.960692,62.329106
4.7183,0.006519,0.009167,0.032119,-0.006846,-0.009178,-0.031707,0.02272,-0.500353,0.031707,-0.460323,-263.905728,-0.986566,62.329105
4.7382,0.006222,0.008986,0.030915,-0.00681,-0.008953,-0.032119,0.022819,-0.500475,0.031939,-0.460323,-263.905728,-0.986566,62.329105
4.7587,0.006591,0.008604,0.02976,-0.006497,-0.008789,-0.030915,0.022819,-0.500475,0.031939,-0.460323,-263.905728,-0.986566,62.329105
4.7779,0.00625,0.009349,0.032035,-0.006844,-0.008404,-0.02976,0.021766,-0.50117,0.02976,-0.385183,-263.905729,-0.958938,62.329105
4.7988,0.006154,0.009001,0.031671,-0.006547,-0.009144,-0.032035,0.021817,-0.501122,0.0299,-0.385183,-263.905729,-0.958938,62.329105
4.8183,0.006576,0.008853,0.030681,-0.006436,-0.008802,-0.031671,0.022304,-0.500743,0.031671,-0.30995,-263.90573,-0.998817,62.329104
4.8386,0.006967,0.008993,0.032098,-0.006844,-0.008647,-0.030681,0.022256,-0.500837,0.031104,-0.30995,-263.90573,-0.998817,62.329104
4.8581,0.006493,0.009068,0.031342,-0.007252,-0.008765,-0.032098,0.022256,-0.500837,0.031104,-0.30995,-263.90573,-0.998817,62.329104
4.8778,0.006455,0.008819,0.03013,-0.006774,-0.00886,-0.031342,0.022475,-0.500681,0.031342,-0.23519,-263.905731,-1.009919,62.329104
4.8982,0.006242,0.008813,0.031275,-0.006718,-0.00862,-0.03013,0.022422,-0.500703,0.031244,-0.23519,-263.905731,-1.009919,62.329104
4.9179,0.006205,0.008971,0.033322,-0.006515,-0.008613,-0.031275,0.02219,-0.500938,0.031275,-0.159925,-263.905732,-0.981129,62.329103
4.938,0.00644,0.008958,0.030904,-0.0065,-0.008759,-0.033322,0.02276,-0.500829,0.032436,-0.159925,-263.905732,-0.981129,62.329103
4.9579,0.006403,0.008717,0.033113,-0.006714,-0.008754,-0.030904,0.02276,-0.500829,0.032436,-0.159925,-263.905732,-0.981129,62.329103
4.9779,0.006401,0.008878,0.032011,-0.006688,-0.0085,-0.033113,0.023287,-0.501003,0.033113,-0.085324,-263.905733,-0.968999,62.329103
4.9984,0.006496,0.009331,0.029925,-0.006682,-0.008669,-0.032011,0.023248,-0.500993,0.033036,-0.085324,-263.905733,-0.968999,62.329103
5.0179,0.006757,0.00871,0.030453,-0.006772,-0.009133,-0.029925,0.021755,-0.50044,0.029925,-0.010323,-263.905734,-0.985055,62.329102
5.0379,0.006688,0.009374,0.029337,-0.007019,-0.0085,-0.030453,0.022056,-0.500788,0.030224,-0.010323,-263.905734,-0.985055,62.329102
5.058,0.006527,0.009033,0.031279,-0.00696,-0.009174,-0.029337,0.022056,-0.500788,0.030224,-0.010323,-263.905734,-0.985055,62.329102
5.0781,0.006353,0.00852,0.029923,-0.006806,-0.008824,-0.031279,0.022476,-0.500718,0.031279,0.064693,-263.905735,-1.020137,62.329102
5.0984,0.006421,0.009037,0.032702,-0.006605,-0.008326,-0.029923,0.022416,-0.500755,0.031185,0.064693,-263.905735,-1.020137,62.329102
5.1179,0.006284,0.008716,0.030469,-0.006713,-0.008822,-0.032702,0.023096,-0.50069,0.032702,0.139684,-263.905736,-0.945146,62.329101
5.1383,0.006863,0.008879,0.030977,-0.006546,-0.008521,-0.030469,0.02237,-0.500893,0.031432,0.139684,-263.905736,-0.945146,62.329101
5.1579,0.006741,0.00865,0.031994,-0.007135,-0.008662,-0.030977,0.02237,-0.500893,0.031432,0.139684,-263.905736,-0.945146,62.329101
5.1779,0.006682,0.008912,0.031219,-0.007015,-0.00843,-0.031994,0.023055,-0.501089,0.031994,0.21468,-263.905737,-0.984698,62.329101
5.1984,0.006623,0.009001,0.032381,-0.006957,-0.008699,-0.031219,0.023024,-0.501072,0.031941,0.21468,-263.905737,-0.984698,62.329101
5.2182,0.006507,0.009181,0.03107,-0.006911,-0.008782,-0.032381,0.023134,-0.500731,0.032381,0.289637,-263.905739,-0.963005,62.3291
5.2381,0.006274,0.008891,0.031008,-0.006789,-0.008974,-0.03107,0.022689,-0.500641,0.031637,0.289637,-263.905739,-0.963005,62.3291
5.2582,0.006636,0.008904,0.031883,-0.006546,-0.008692,-0.031008,0.022689,-0.500641,0.031637,0.289637,-263.905739,-0.963005,62.3291
5.278,0.006275,0.009025,0.031789,-0.006916,-0.008688,-0.031883,0.022893,-0.500837,0.031883,0.364678,-263.90574,-0.979784,62.3291
5.2978,0.00661,0.008931,0.031838,-0.006558,-0.008821,-0.031789,0.022867,-0.500829,0.031877,0.364678,-263.90574,-0.979784,62.3291
5.3183,0.006588,0.008938,0.031987,-0.00689,-0.008716,-0.031838,0.022844,-0.500811,0.031838,0.439677,-263.905741,-1.002244,62.3291
5.338,0.00666,0.008974,0.029778,-0.00687,-0.008723,-0.031987,0.022875,-0.500805,0.031922,0.439677,-263.905741,-1.002244,62.3291
5.358,0.006632,0.009242,0.031791,-0.006924,-0.008772,-0.029778,0.022875,-0.500805,0.031922,0.439677,-263.905741,-1.002244,62.3291
5.3779,0.006666,0.008772,0.031591,-0.006922,-0.009027,-0.031791,0.022843,-0.5005,0.031791,0.514678,-263.905742,-1.016499,62.329099
5.3982,0.006248,0.008959,0.032547,-0.00694,-0.008557,-0.031591,0.022838,-0.500531,0.031778,0.514678,-263.905742,-1.016499,62.329099
5.4182,0.006452,0.008938,0.031427,-0.006536,-0.008751,-0.032547,0.022844,-0.500771,0.032546,0.589689,-263.905743,-0.941487,62.329099
5.4381,0.00659,0.009091,0.030979,-0.00673,-0.008731,-0.031427,0.022635,-0.500793,0.031908,0.589689,-263.905743,-0.941487,62.329099
5.4584,0.006361,0.008997,0.031004,-0.006869,-0.008882,-0.030979,0.022635,-0.500793,0.031908,0.589689,-263.905743,-0.941487,62.329099
5.4779,0.006394,0.008734,0.032201,-0.006637,-0.008796,-0.031004,0.022171,-0.500758,0.031004,0.664683,-263.905745,-0.996991,62.329098
5.4982,0.006343,0.009035,0.031437,-0.006672,-0.008524,-0.032201,0.022215,-0.500774,0.031086,0.664683,-263.905745,-0.996991,62.329098
5.5181,0.006408,0.009118,0.030174,-0.006624,-0.008832,-0.031437,0.022373,-0.500713,0.031436,0.739688,-263.905751,-0.970721,62.329095
5.5382,0.006499,0.009095,0.0312,-0.00668,-0.00892,-0.030174,0.022046,-0.500677,0.030722,0.739688,-263.905751,-0.970721,62.329095
5.5582,0.0064,0.009326,0.031289,-0.006779,-0.008888,-0.0312,0.022046,-0.500677,0.030722,0.739688,-263.905751,-0.970721,62.329095
5.5782,0.006551,0.008762,0.031898,-0.006689,-0.009122,-0.031289,0.022354,-0.500425,0.031286,0.814682,-263.905777,-1.031271,62.329084
5.5979,0.006344,0.00906,0.033455,-0.006828,-0.008549,-0.031898,0.022386,-0.500463,0.031328,0.814682,-263.905777,-1.031271,62.329084
5.6178,0.006763,0.008888,0.032511,-0.006643,-0.008843,-0.033455,0.023397,-0.500657,0.033443,0.889685,-263.9059,-0.982739,62.329031
5.6378,0.006543,0.009127,0.033098,-0.007049,-0.008663,-0.032511,0.023365,-0.500764,0.03291,0.889685,-263.9059,-0.982739,62.329031
5.6579,0.006426,0.009077,0.031925,-0.006842,-0.008906,-0.033098,0.023365,-0.500764,0.03291,0.889685,-263.9059,-0.982739,62.329031
5.678,0.006514,0.008903,0.031825,-0.006712,-0.008867,-0.031925,0.022683,-0.500676,0.031872,0.964789,-263.906347,-1.012548,62.328831
5.6981,0.006235,0.008885,0.031841,-0.006794,-0.008692,-0.031825,0.022687,-0.500688,0.031867,0.964789,-263.906347,-1.012548,62.328831
5.7183,0.006478,0.008763,0.031162,-0.006515,-0.008682,-0.031841,0.022431,-0.500886,0.031725,1.039677,-263.907534,-1.026711,62.328307
5.7381,0.00667,0.00939,0.031682,-0.006748,-0.008557,-0.031162,0.02239,-0.500948,0.031391,1.039677,-263.907534,-1.026711,62.328307
5.758,0.006571,0.00861,0.031059,-0.006964,-0.009174,-0.031682,0.02239,-0.500948,0.031391,1.039677,-263.907534,-1.026711,62.328307
5.7785,0.006272,0.008984,0.03146,-0.006835,-0.008402,-0.031059,0.022295,-0.501238,0.030702,1.114692,-263.910356,-1.006968,62.327067
5.7978,0.006548,0.008587,0.032063,-0.006551,-0.008782,-0.03146,0.022294,-0.501207,0.030746,1.114692,-263.910356,-1.006968,62.327067
5.8179,0.006472,0.008587,0.029959,-0.00682,-0.008372,-0.032063,0.022745,-0.501304,0.031524,1.189685,-263.91568,-0.970586,62.324802
5.8382,0.006597,0.008561,0.029214,-0.006726,-0.008389,-0.029959,0.022157,-0.501255,0.030563,1.189685,-263.91568,-0.970586,62.324802
5.8584,0.006586,0.008515,0.029254,-0.006844,-0.008365,-0.029214,0.022157,-0.501255,0.030563,1.189685,-263.91568,-0.970586,62.324802
5.878,0.007119,0.008314,0.02769,-0.006832,-0.008319,-0.029254,0.021261,-0.501553,0.028233,1.264753,-263.923569,-1.010032,62.321422
5.8978,0.007056,0.008114,0.029241,-0.007346,-0.008114,-0.02769,0.02125,-0.501558,0.028141,1.264753,-263.923569,-1.010032,62.321422
5.9181,0.007275,0.007897,0.028916,-0.00729,-0.007904,-0.029241,0.021743,-0.501959,0.02825,1.315346,-263.933159,-0.945339,62.317283
5.938,0.007398,0.007865,0.029456,-0.0075,-0.007684,-0.028916,0.021873,-0.501956,0.028504,1.315346,-263.933159,-0.945339,62.317283
5.958,0.007548,0.008047,0.028575,-0.007626,-0.007644,-0.029456,0.021873,-0.501956,0.028504,1.315346,-263.933159,-0.945339,62.317283
5.9779,0.007665,0.007428,0.026483,-0.007774,-0.007828,-0.028575,0.021804,-0.502113,0.02735,1.285267,-263.942642,-0.87508,62.313116
5.9982,0.007562,0.007737,0.026096,-0.007859,-0.007222,-0.026483,0.021755,-0.50214,0.027262,1.285267,-263.942642,-0.87508,62.313116
6.0185,0.008299,0.007438,0.023753,-0.007761,-0.007537,-0.026096,0.020596,-0.502377,0.025015,1.281632,-263.952741,-0.935615,62.308262
6.0379,0.008029,0.007311,0.026013,-0.008473,-0.007239,-0.023753,0.020458,-0.502436,0.024167,1.281632,-263.952741,-0.935615,62.308262
6.0585,0.007944,0.007185,0.025042,-0.008217,-0.0071,-0.026013,0.020458,-0.502436,0.024167,1.281632,-263.952741,-0.935615,62.308262
6.0779,0.008145,0.006856,0.024819,-0.008122,-0.006984,-0.025042,0.020388,-0.50297,0.023907,1.246737,-263.961347,-0.860513,62.304108
6.0984,0.008014,0.006708,0.02375,-0.008312,-0.006651,-0.024819,0.020402,-0.502977,0.02393,1.246737,-263.961347,-0.860513,62.304108
6.1179,0.009107,0.006665,0.022167,-0.008171,-0.006516,-0.02375,0.019825,-0.50342,0.022778,1.22751,-263.970789,-0.818951,62.299455
6.1382,0.008313,0.006881,0.022364,-0.009253,-0.006461,-0.022167,0.020121,-0.503335,0.022307,1.22751,-263.970789,-0.818951,62.299455
6.158,0.008604,0.006653,0.023283,-0.008465,-0.006693,-0.022364,0.020121,-0.503335,0.022307,1.22751,-263.970789,-0.818951,62.299455
6.1779,0.008819,0.006289,0.020848,-0.008756,-0.006451,-0.023283,0.020086,-0.503537,0.022094,1.206666,-263.979989,-0.796957,62.294767
6.1983,0.009432,0.006475,0.023086,-0.008949,-0.006104,-0.020848,0.020031,-0.50355,0.021975,1.206666,-263.979989,-0.796957,62.294767
6.2182,0.009063,0.00585,0.021052,-0.009579,-0.006255,-0.023086,0.020946,-0.503602,0.022372,1.176637,-263.987199,-0.721956,62.291181
6.2379,0.008834,0.005876,0.021236,-0.009184,-0.005658,-0.021052,0.020256,-0.503878,0.021525,1.176637,-263.987199,-0.721956,62.291181
6.2579,0.009096,0.00608,0.020506,-0.008957,-0.005687,-0.021236,0.020256,-0.503878,0.021525,1.176637,-263.987199,-0.721956,62.291181
6.2779,0.009272,0.005609,0.019723,-0.009219,-0.005892,-0.020506,0.019188,-0.504072,0.019636,1.127296,-263.994374,-0.646789,62.28735
6.2986,0.009275,0.006089,0.019443,-0.009381,-0.005425,-0.019723,0.019188,-0.504098,0.019616,1.127296,-263.994374,-0.646789,62.28735
6.319,0.009088,0.005352,0.019805,-0.009391,-0.005908,-0.019443,0.018854,-0.504037,0.018636,1.123223,-264.002458,-0.682665,62.282841
6.3384,0.009231,0.005384,0.020276,-0.009192,-0.005171,-0.019805,0.018995,-0.504347,0.019178,1.123223,-264.002458,-0.682665,62.282841
6.3586,0.009406,0.0054,0.018775,-0.009338,-0.005196,-0.020276,0.018995,-0.504347,0.019178,1.123223,-264.002458,-0.682665,62.282841
6.378,0.009211,0.005376,0.018167,-0.009506,-0.005222,-0.018775,0.018576,-0.504755,0.017915,1.07802,-264.009587,-0.614604,62.278713
6.3979,0.008977,0.00536,0.017658,-0.009307,-0.005208,-0.018167,0.018557,-0.504746,0.017909,1.07802,-264.009587,-0.614604,62.278713
6.4179,0.00913,0.004766,0.016971,-0.00907,-0.0052,-0.017658,0.017635,-0.504762,0.016898,1.082507,-264.017328,-0.656003,62.27413
6.438,0.009224,0.005328,0.017795,-0.009209,-0.00461,-0.016971,0.017677,-0.505016,0.016843,1.082507,-264.017328,-0.656003,62.27413
6.4578,0.009481,0.005199,0.017618,-0.009318,-0.005163,-0.017795,0.017677,-0.505016,0.016843,1.082507,-264.017328,-0.656003,62.27413
6.4781,0.009154,0.004707,0.016233,-0.009571,-0.005031,-0.017618,0.018083,-0.504943,0.016854,1.052092,-264.02378,-0.581029,62.270345
6.4983,0.009079,0.005043,0.016947,-0.00923,-0.004558,-0.016233,0.018028,-0.504968,0.016791,1.052092,-264.02378,-0.581029,62.270345
6.5182,0.008775,0.004554,0.015859,-0.009163,-0.004888,-0.016947,0.017371,-0.505086,0.016271,1.044303,-264.031122,-0.549441,62.266019
6.5381,0.009043,0.004376,0.014087,-0.009163,-0.004888,-0.016947,0.017029,-0.505285,0.015945,1.044303,-264.031122,-0.549441,62.266019
6.5583,0.009186,0.00472,0.014321,-9.1e-05,-4.2e-05,0.0,0.017029,-0.505285,0.015945,1.044303,-264.031122,-0.549441,62.266019
6.5781,0.009259,0.004237,0.016219,-9.1e-05,-4.2e-05,0.0,0.016063,-0.505446,0.013565,1.003071,-264.037699,-0.525878,62.26193
6.5985,0.009133,0.004188,0.01425,-9.1e-05,-4.2e-05,0.0,0.016153,-0.505469,0.013727,1.003071,-264.037699,-0.525878,62.26193
6.6178,0.009287,0.004341,0.013863,-9.1e-05,-4.2e-05,0.0,0.016401,-0.505761,0.01425,0.928589,-264.037699,-0.451397,62.26193
6.6377,0.009124,0.00451,0.014011,-9.1e-05,-4.2e-05,0.0,0.016376,-0.505675,0.014031,0.928589,-264.037699,-0.451397,62.26193
6.6582,0.009164,0.004322,0.013588,-9.1e-05,-4.2e-05,0.0,0.016376,-0.505675,0.014031,0.928589,-264.037699,-0.451397,62.26193
6.6782,0.008819,0.004148,0.014353,-9.1e-05,-4.2e-05,0.0,0.016094,-0.50563,0.013588,0.853434,-264.037699,-0.376242,62.26193
6.6986,0.009037,0.004378,0.014502,-9.1e-05,-4.2e-05,0.0,0.016096,-0.50564,0.013631,0.853434,-264.037699,-0.376242,62.26193
6.718,0.009267,0.004529,0.013024,-9.1e-05,-4.2e-05,0.0,0.016433,-0.505569,0.014502,0.778501,-264.037699,-0.301308,62.26193
6.7382,0.009393,0.00435,0.01254,-9.1e-05,-4.2e-05,0.0,0.016133,-0.505488,0.013657,0.778501,-264.037699,-0.301308,62.26193
6.7582,0.008958,0.004532,0.015149,-0.0,-0.0,-1e-06,0.016133,-0.505488,0.013657,0.778501,-264.037699,-0.301308,62.26193
6.7781,0.008954,0.004574,0.014066,-0.001331,-0.000621,-0.00206,0.016684,-0.505409,0.015149,0.703496,-264.037699,-0.226303,62.26193
6.7989,0.008949,0.004474,0.01569,-0.002594,-0.001211,-0.004014,0.016645,-0.505407,0.015073,0.703496,-264.037699,-0.226303,62.26193
6.8182,0.009395,0.00438,0.014405,-0.003789,-0.001768,-0.005863,0.016951,-0.505463,0.01569,0.778444,-264.037699,-0.301251,62.26193
6.838,0.009002,0.004374,0.01456,-0.004919,-0.002295,-0.007611,0.016834,-0.505521,0.014972,0.778444,-264.037699,-0.301251,62.26193
6.8581,0.009101,0.004263,0.01559,-0.005973,-0.002787,-0.009242,0.016834,-0.505521,0.014972,0.778444,-264.037699,-0.301251,62.26193
6.8778,0.009279,0.004561,0.016187,-0.006963,-0.00325,-0.010775,0.016992,-0.5057,0.015513,0.853499,-264.038477,-0.376306,62.261431
6.8984,0.008994,0.004217,0.014194,-0.007885,-0.00368,-0.012201,0.017028,-0.505678,0.015557,0.853499,-264.038477,-0.376306,62.261431
6.918,0.009145,0.004343,0.014627,-0.00874,-0.004078,-0.013523,0.016049,-0.505816,0.013917,0.92848,-264.041719,-0.4462,62.259354
6.9381,0.00911,0.004046,0.012347,-0.009524,-0.004444,-0.014737,0.016341,-0.505706,0.014285,0.92848,-264.041719,-0.4462,62.259354
6.9578,0.009092,0.004459,0.016238,-0.010241,-0.004779,-0.015846,0.016341,-0.505706,0.014285,0.92848,-264.041719,-0.4462,62.259354
6.978,0.009178,0.003883,0.012525,-0.010889,-0.005082,-0.016849,0.016996,-0.505657,0.01565,0.954481,-264.047117,-0.4462,62.255896
6.9981,0.008789,0.003919,0.014234,-0.01147,-0.005353,-0.017748,0.016891,-0.505689,0.015428,0.954481,-264.047117,-0.4462,62.255896
7.0182,0.008722,0.003745,0.01365,-0.01199,-0.005595,-0.018552,0.015655,-0.50622,0.013622,0.954481,-264.054204,-0.4462,62.251354
7.0382,0.008757,0.003479,0.013517,-0.012429,-0.0058,-0.019232,0.015621,-0.506237,0.01356,0.954481,-264.054204,-0.4462,62.251354
7.0582,0.008751,0.003747,0.013363,-0.012803,-0.005975,-0.019811,0.015621,-0.506237,0.01356,0.954481,-264.054204,-0.4462,62.251354
7.0779,0.00886,0.00337,0.010515,-0.01311,-0.006118,-0.020286,0.01501,-0.506476,0.012497,0.954481,-264.062141,-0.4462,62.246269
7.0978,0.008965,0.003457,0.010394,-0.013348,-0.006229,-0.020654,0.014947,-0.50649,0.012352,0.954481,-264.062141,-0.4462,62.246269
7.1178,0.009094,0.003246,0.010609,-0.013519,-0.006309,-0.020919,0.013774,-0.506751,0.00963,0.954481,-264.071011,-0.4462,62.240585
7.1377,0.008616,0.003269,0.009893,-0.013621,-0.006357,-0.021077,0.01413,-0.506766,0.010094,0.954481,-264.071011,-0.4462,62.240585
7.1578,0.008654,0.00292,0.009302,-0.013656,-0.006373,-0.02113,0.01413,-0.506766,0.010094,0.954481,-264.071011,-0.4462,62.240585
7.1778,0.008265,0.002717,0.010644,-0.013621,-0.006357,-0.021077,0.012752,-0.507366,0.008298,0.954481,-264.080268,-0.4462,62.234653
7.1987,0.008667,0.002911,0.009985,-0.013519,-0.006309,-0.020919,0.012804,-0.507366,0.008444,0.954481,-264.080268,-0.4462,62.234653
7.218,0.008084,0.002441,0.008867,-0.013348,-0.006229,-0.020655,0.013236,-0.507314,0.009172,0.954481,-264.089695,-0.4462,62.228613
7.2381,0.008419,0.002653,0.008713,-0.01311,-0.006118,-0.020285,0.01281,-0.507474,0.008894,0.954481,-264.089695,-0.4462,62.228613
7.2586,0.008112,0.002423,0.006775,-0.012799,-0.005973,-0.019805,0.01281,-0.507474,0.008894,0.954481,-264.089695,-0.4462,62.228613
7.2779,0.0082,0.002073,0.00685,-0.012427,-0.005799,-0.019229,0.010912,-0.507876,0.005758,0.954481,-264.099041,-0.4462,62.222624
7.2984,0.008052,0.002339,0.006779,-0.011983,-0.005592,-0.018542,0.010947,-0.507886,0.005805,0.954481,-264.099041,-0.4462,62.222624
7.3184,0.008179,0.001821,0.007254,-0.011471,-0.005353,-0.017749,0.011016,-0.507883,0.006013,0.954481,-264.10791,-0.4462,62.216941
7.338,0.008238,0.00222,0.006958,-0.01089,-0.005082,-0.01685,0.011443,-0.508074,0.006621,0.954481,-264.10791,-0.4462,62.216941
7.3581,0.008102,0.002054,0.008066,-0.010243,-0.00478,-0.015849,0.011443,-0.508074,0.006621,0.954481,-264.10791,-0.4462,62.216941
7.3779,0.008183,0.001875,0.006469,-0.009524,-0.004444,-0.014737,0.011636,-0.508205,0.007166,0.954481,-264.116205,-0.4462,62.211626
7.3979,0.00794,0.001974,0.00565,-0.008737,-0.004077,-0.01352,0.011608,-0.508206,0.007089,0.954481,-264.116205,-0.4462,62.211626
7.4186,0.007925,0.001335,0.003724,-0.007884,-0.003679,-0.012199,0.010427,-0.508205,0.005038,0.954481,-264.12329,-0.4462,62.207086
7.4382,0.008015,0.001072,0.005106,-0.006966,-0.003251,-0.010778,0.010033,-0.508489,0.00421,0.954481,-264.12329,-0.4462,62.207086
7.4583,0.007843,0.001671,0.005657,-0.005976,-0.002789,-0.009247,0.010033,-0.508489,0.00421,0.954481,-264.12329,-0.4462,62.207086
7.478,0.007779,0.001219,0.003711,-0.004917,-0.002294,-0.007608,0.010305,-0.508521,0.005001,0.954481,-264.12933,-0.4462,62.203216
7.4979,0.007832,0.00126,0.004927,-0.003791,-0.001769,-0.005866,0.01025,-0.508544,0.004893,0.954481,-264.12933,-0.4462,62.203216
7.5186,0.007988,0.001534,0.005436,-0.002594,-0.001211,-0.004015,0.010115,-0.508843,0.00457,0.954481,-264.133469,-0.4462,62.200564
7.5379,0.007707,0.001124,0.003136,-0.001334,-0.000623,-0.002064,0.010454,-0.508637,0.005019,0.954481,-264.133469,-0.4462,62.200564
7.558,0.007544,0.001037,0.00283,-1e-06,-0.0,-1e-06,0.010454,-0.508637,0.005019,0.954481,-264.133469,-0.4462,62.200564
7.5778,0.007493,0.001301,0.003524,0.0,0.0,0.0,0.008803,-0.509047,0.002545,0.954481,-264.136089,-0.4462,62.198885
7.5983,0.007617,0.000864,0.003477,0.0,0.0,0.0,0.008832,-0.509025,0.002605,0.954481,-264.136089,-0.4462,62.198885
7.6179,0.007735,0.000813,0.002277,0.0,0.0,0.0,0.009391,-0.509133,0.003477,0.954481,-264.13609,-0.4462,62.198884
7.6385,0.00779,0.000706,0.003235,0.0,0.0,0.0,0.009109,-0.509163,0.002794,0.954481,-264.13609,-0.4462,62.198884
7.6586,0.007622,0.000876,0.004651,0.0,0.0,0.0,0.009109,-0.509163,0.002794,0.954481,-264.13609,-0.4462,62.198884
7.6779,0.007793,0.00128,0.003783,0.0,0.0,0.0,0.009994,-0.509118,0.004651,0.954481,-264.13609,-0.4462,62.198884
7.6983,0.007466,0.000664,0.004119,0.0,0.0,0.0,0.009975,-0.509091,0.004591,0.954481,-264.13609,-0.4462,62.198884
7.7181,0.007426,0.000977,0.004614,0.0,0.0,0.0,0.009567,-0.509332,0.004119,0.954481,-264.13609,-0.4462,62.198884
7.738,0.007397,0.001368,0.004611,0.0,0.0,0.0,0.009688,-0.509153,0.004402,0.954481,-264.13609,-0.4462,62.198884
7.7582,0.007562,0.001067,0.005296,0.0,0.0,0.0,0.009688,-0.509153,0.004402,0.954481,-264.13609,-0.4462,62.198884
7.7778,0.007598,0.001028,0.003691,0.0,0.0,0.0,0.010263,-0.508926,0.005296,0.954481,-264.13609,-0.4462,62.198884
7.7978,0.007776,0.001126,0.003058,-9.9e-05,-1.3e-05,0.0,0.010209,-0.508929,0.005185,0.954481,-264.13609,-0.4462,62.198884
7.8182,0.008004,0.001113,0.003558,-9.9e-05,-1.3e-05,0.0,0.009335,-0.508872,0.003058,0.954481,-264.13609,-0.4462,62.198884
7.8381,0.007556,0.000995,0.003213,-9.9e-05,-1.3e-05,0.0,0.00961,-0.508879,0.003343,0.954481,-264.13609,-0.4462,62.198884
7.8578,0.00756,0.001156,0.004513,-9.9e-05,-1.3e-05,0.0,0.00961,-0.508879,0.003343,0.954481,-264.13609,-0.4462,62.198884
7.8779,0.007491,0.0008,0.004076,-9.9e-05,-1.3e-05,0.0,0.009862,-0.508839,0.004513,0.879488,-264.13609,-0.371207,62.198884
7.898,0.007778,0.001162,0.003014,-9.9e-05,-1.3e-05,0.0,0.009841,-0.508864,0.004483,0.879488,-264.13609,-0.371207,62.198884
7.9181,0.007617,0.00068,0.004219,-9.9e-05,-1.3e-05,0.0,0.009315,-0.508835,0.003014,0.80448,-264.13609,-0.296199,62.198884
7.9381,0.007637,0.001014,0.002706,-9.9e-05,-1.3e-05,0.0,0.009573,-0.509109,0.0037,0.80448,-264.13609,-0.296199,62.198884
7.9586,0.007566,0.001191,0.003731,-9.9e-05,-1.3e-05,0.0,0.009573,-0.509109,0.0037,0.80448,-264.13609,-0.296199,62.198884
7.9779,0.007308,0.001166,0.002612,-9.9e-05,-1.3e-05,0.0,0.009469,-0.508806,0.003731,0.729488,-264.13609,-0.221207,62.198884
7.9985,0.00764,0.001108,0.004229,-9.9e-05,-1.3e-05,0.0,0.009414,-0.508807,0.003657,0.729488,-264.13609,-0.221207,62.198884
8.0181,0.00773,0.001112,0.003973,-0.001112,-0.000146,-0.00054,0.009797,-0.508888,0.004229,0.654488,-264.13609,-0.146207,62.198884
8.0379,0.00777,0.001277,0.003673,-0.002172,-0.000286,-0.001054,0.009774,-0.508886,0.004084,0.654488,-264.13609,-0.146207,62.198884
8.0581,0.007573,0.001124,0.00387,-0.003163,-0.000416,-0.001536,0.009774,-0.508886,0.004084,0.654488,-264.13609,-0.146207,62.198884
8.0778,0.007729,0.000985,0.003511,-0.004105,-0.00054,-0.001993,0.009547,-0.508872,0.00387,0.579484,-264.13609,-0.071203,62.198884
8.0977,0.007426,0.001157,0.005098,-0.004988,-0.000656,-0.002422,0.009545,-0.508882,0.003846,0.579484,-264.13609,-0.071203,62.198884
8.1178,0.007851,0.000789,0.003798,-0.005816,-0.000765,-0.002824,0.009963,-0.508849,0.005062,0.504484,-264.136823,-0.146203,62.198201
8.1383,0.007592,0.000886,0.002836,-0.006587,-0.000866,-0.003198,0.009855,-0.509054,0.004338,0.504484,-264.136823,-0.146203,62.198201
8.158,0.007779,0.001331,0.004746,-0.007298,-0.00096,-0.003543,0.009855,-0.509054,0.004338,0.504484,-264.136823,-0.146203,62.198201
8.178,0.007531,0.000924,0.002503,-0.007955,-0.001046,-0.003862,0.009995,-0.508694,0.004642,0.429487,-264.138662,-0.163563,62.196487
8.1987,0.007442,0.001003,0.004276,-0.008553,-0.001125,-0.004153,0.009907,-0.508721,0.004491,0.429487,-264.138662,-0.163563,62.196487
8.2182,0.00714,0.001019,0.003431,-0.009095,-0.001196,-0.004416,0.009344,-0.509031,0.00414,0.404404,-264.141806,-0.163563,62.193558
8.2384,0.007153,0.001088,0.001599,-0.009579,-0.001259,-0.00465,0.009051,-0.509006,0.003721,0.404404,-264.141806,-0.163563,62.193558
8.2582,0.007219,0.000718,0.002983,-0.010006,-0.001316,-0.004858,0.009051,-0.509006,0.003721,0.404404,-264.141806,-0.163563,62.193558
8.2782,0.006731,0.000849,0.003998,-0.010377,-0.001364,-0.005038,0.008325,-0.509335,0.002781,0.404404,-264.145527,-0.163563,62.190091
8.2982,0.007135,0.000721,0.001837,-0.01069,-0.001406,-0.00519,0.008344,-0.509324,0.002857,0.404404,-264.145527,-0.163563,62.190091
8.3182,0.006317,0.000866,0.002873,-0.010948,-0.001439,-0.005315,0.007685,-0.50933,0.001649,0.404404,-264.149882,-0.163563,62.186033
8.3381,0.006243,0.000882,0.001799,-0.011148,-0.001466,-0.005412,0.00769,-0.509225,0.002317,0.404404,-264.149882,-0.163563,62.186033
8.3582,0.006741,0.000926,0.00469,-0.011289,-0.001484,-0.005481,0.00769,-0.509225,0.002317,0.404404,-264.149882,-0.163563,62.186033
8.3784,0.00603,0.001157,0.003163,-0.011374,-0.001495,-0.005522,0.00861,-0.50914,0.004436,0.404404,-264.154532,-0.163563,62.1817
8.3981,0.006115,0.00048,0.002996,-0.011403,-0.001499,-0.005536,0.008549,-0.509126,0.004365,0.404404,-264.154532,-0.163563,62.1817
8.4182,0.00549,0.000323,0.002785,-0.011373,-0.001495,-0.005522,0.007206,-0.509577,0.002784,0.404404,-264.159444,-0.163563,62.177124
8.4381,0.005681,0.000985,0.003803,-0.011289,-0.001484,-0.005481,0.006983,-0.50964,0.002758,0.404404,-264.159444,-0.163563,62.177124
8.458,0.005622,0.000405,0.000879,-0.011146,-0.001465,-0.005411,0.006983,-0.50964,0.002758,0.404404,-264.159444,-0.163563,62.177124
8.4779,0.005235,0.000501,0.001166,-0.010946,-0.001439,-0.005314,0.005515,-0.509669,0.000609,0.404404,-264.164405,-0.163563,62.172501
8.4979,0.00534,0.000373,0.002474,-0.01069,-0.001406,-0.00519,0.005521,-0.509659,0.000639,0.404404,-264.164405,-0.163563,62.172501
8.5178,0.004872,0.000465,0.002354,-0.010374,-0.001364,-0.005036,0.006171,-0.509683,0.002264,0.404404,-264.169255,-0.163563,62.167982
8.5378,0.004933,0.000404,0.002263,-0.01,-0.001315,-0.004855,0.00606,-0.509605,0.002288,0.404404,-264.169255,-0.163563,62.167982
8.5578,0.004652,0.000555,0.001508,-0.009568,-0.001258,-0.004645,0.00606,-0.509605,0.002288,0.404404,-264.169255,-0.163563,62.167982
8.5779,0.004331,0.000588,0.000921,-0.009094,-0.001196,-0.004415,0.004901,-0.509513,0.001256,0.404404,-264.173906,-0.163563,62.163648
8.5978,0.004714,0.000566,0.00213,-0.008552,-0.001124,-0.004152,0.00488,-0.509508,0.001226,0.404404,-264.173906,-0.163563,62.163648
8.6178,0.004234,0.000259,-5.8e-05,-0.007954,-0.001046,-0.003861,0.005431,-0.509482,0.00195,0.404404,-264.178069,-0.163563,62.159769
8.6382,0.003811,-5.1e-05,0.000498,-0.007297,-0.000959,-0.003543,0.004686,-0.509636,0.000785,0.404404,-264.178069,-0.163563,62.159769
8.6581,0.004119,0.000407,1.4e-05,-0.006586,-0.000866,-0.003197,0.004686,-0.509636,0.000785,0.404404,-264.178069,-0.163563,62.159769
8.6783,0.003758,0.000214,0.001989,-0.005814,-0.000764,-0.002822,0.00371,-0.509647,-0.000189,0.404404,-264.18179,-0.163563,62.156302
8.6984,0.004057,0.000374,0.001015,-0.004989,-0.000656,-0.002422,0.003769,-0.509658,-5.2e-05,0.404404,-264.18179,-0.163563,62.156302
8.7183,0.003527,0.000498,0.001421,-0.004104,-0.00054,-0.001992,0.00432,-0.50966,0.000891,0.404404,-264.184655,-0.163563,62.153632
8.7384,0.003266,0.000426,-0.000421,-0.00316,-0.000415,-0.001534,0.004249,-0.509574,0.001177,0.404404,-264.184655,-0.163563,62.153632
8.7585,0.003577,0.000105,0.000653,-0.002163,-0.000284,-0.00105,0.004249,-0.509574,0.001177,0.404404,-264.184655,-0.163563,62.153632
8.778,0.003192,0.000369,0.00032,-0.001109,-0.000146,-0.000538,0.003667,-0.509927,0.000535,0.404404,-264.186826,-0.163563,62.15161
8.7981,0.003593,1.8e-05,0.00151,0.0,0.0,0.0,0.003641,-0.509908,0.000518,0.404404,-264.186826,-0.163563,62.15161
8.8179,0.00367,0.000301,0.001987,0.0,0.0,0.0,0.00428,-0.509993,0.00147,0.404404,-264.187767,-0.163563,62.150733
8.8382,0.003188,9.4e-05,-0.000308,0.0,0.0,0.0,0.004499,-0.509826,0.001759,0.404404,-264.187767,-0.163563,62.150733
8.8581,0.002859,0.000405,0.001939,0.0,0.0,0.0,0.004499,-0.509826,0.001759,0.404404,-264.187767,-0.163563,62.150733
