mach0312/omni-docking-bench/src/icros_test_setup/results/kinematic_sample/timeseries/trial_125.csv
t,x,y,yaw,vx,vy,wz,bl_x,bl_y,bl_yaw,front_steering_joint,front_wheel_joint,rear_steering_joint,rear_wheel_joint
0.0,0.027696,-0.023329,-0.085882,0.0,0.0,0.0,-0.016042,-0.531761,-0.085686,0.648702,-264.322527,-0.233164,62.388614
0.0004,0.027775,-0.023068,-0.085686,0.0,0.0,0.0,-0.016042,-0.531761,-0.085686,0.648702,-264.322527,-0.233164,62.388614
0.0008,0.028183,-0.023591,-0.083504,0.0,0.0,0.0,-0.016122,-0.531795,-0.086036,0.648702,-264.322527,-0.233164,62.388614
0.0011,0.027931,-0.023469,-0.086005,0.0,0.0,0.0,-0.016122,-0.531795,-0.086036,0.648702,-264.322527,-0.233164,62.388614
0.0014,0.02777,-0.023559,-0.084971,-0.0001,0.0,0.0,-0.0161,-0.531777,-0.086006,0.648702,-264.322527,-0.233164,62.388614
0.0017,0.027837,-0.023902,-0.085447,-0.0001,0.0,0.0,-0.0161,-0.531777,-0.086006,0.648702,-264.322527,-0.233164,62.388614
0.002,0.027569,-0.023233,-0.084916,-0.0001,0.0,0.0,-0.015607,-0.531523,-0.084805,0.57345,-264.322527,-0.157913,62.388614
0.0023,0.027825,-0.023566,-0.084323,-0.0001,0.0,0.0,-0.015607,-0.531523,-0.084805,0.57345,-264.322527,-0.157913,62.388614
0.0025,0.028122,-0.023579,-0.083884,-0.0001,0.0,0.0,-0.015194,-0.531594,-0.084796,0.57345,-264.322527,-0.157913,62.388614
0.0028,0.027513,-0.023258,-0.083781,-0.0001,0.0,0.0,-0.015194,-0.531594,-0.084796,0.57345,-264.322527,-0.157913,62.388614
0.0182,0.02828,-0.023514,-0.08615,-0.0161,0.016,0.03,-0.014836,-0.531772,-0.084076,0.57345,-264.322527,-0.157913,62.388614
0.0385,0.027802,-0.023655,-0.085078,-0.030198,0.020994,0.05,-0.015602,-0.531623,-0.08615,0.498851,-264.322527,-0.083313,62.388614
0.0587,0.02773,-0.02336,-0.0849,-0.029712,0.021207,0.05,-0.015598,-0.531635,-0.086078,0.498851,-264.322527,-0.083313,62.388614
0.0784,0.027593,-0.02344,-0.084414,-0.029611,0.020925,0.05,-0.015517,-0.531523,-0.0849,0.423843,-264.322528,-0.008305,62.388613
0.0984,0.027373,-0.023626,-0.085545,-0.029471,0.02103,0.05,-0.015455,-0.53158,-0.084625,0.423843,-264.322528,-0.008305,62.388613
0.1182,0.028019,-0.023421,-0.084945,-0.029291,0.021201,0.05,-0.015455,-0.53158,-0.084625,0.423843,-264.322528,-0.008305,62.388613
0.138,0.027809,-0.023727,-0.084693,-0.029905,0.02096,0.05,-0.015251,-0.531583,-0.084945,0.348853,-264.322529,0.066685,62.388613
0.158,0.027924,-0.023611,-0.083974,-0.029716,0.02129,0.05,-0.015256,-0.531603,-0.084928,0.348853,-264.322529,0.066685,62.388613
0.1782,0.027887,-0.02343,-0.084845,-0.029806,0.021186,0.05,-0.014853,-0.531814,-0.083974,0.273864,-264.32253,0.141674,62.388613
0.1985,0.027763,-0.023239,-0.083309,-0.029772,0.020982,0.05,-0.015127,-0.531689,-0.084473,0.273864,-264.32253,0.141674,62.388613
0.2187,0.028223,-0.023544,-0.085881,-0.029601,0.020848,0.05,-0.015127,-0.531689,-0.084473,0.273864,-264.32253,0.141674,62.388613
0.2386,0.028028,-0.023701,-0.084626,-0.030139,0.021037,0.05,-0.015523,-0.531665,-0.085881,0.198684,-264.322531,0.216854,62.388612
0.2587,0.028011,-0.023569,-0.087517,-0.029931,0.021247,0.05,-0.015491,-0.53168,-0.085792,0.198684,-264.322531,0.216854,62.388612
0.2781,0.027737,-0.023619,-0.083992,-0.029964,0.021031,0.05,-0.016565,-0.531617,-0.087517,0.123737,-264.322533,0.2918,62.388611
0.2984,0.027772,-0.023115,-0.084805,-0.02962,0.021209,0.05,-0.015689,-0.531735,-0.085479,0.123737,-264.322533,0.2918,62.388611
0.3183,0.027798,-0.023746,-0.083976,-0.029631,0.020679,0.05,-0.015689,-0.531735,-0.085479,0.123737,-264.322533,0.2918,62.388611
0.3383,0.027802,-0.023689,-0.084685,-0.029692,0.02133,0.05,-0.01498,-0.531948,-0.083976,0.048539,-264.322535,0.300962,62.388609
0.3585,0.02776,-0.023376,-0.084929,-0.029706,0.021253,0.05,-0.015002,-0.531943,-0.084022,0.048539,-264.322535,0.300962,62.388609
0.3782,0.027806,-0.023438,-0.083296,-0.029643,0.020937,0.05,-0.015502,-0.531538,-0.084929,-0.026134,-264.322538,0.321181,62.388608
0.3983,0.02768,-0.023452,-0.084856,-0.029659,0.021043,0.05,-0.015002,-0.531613,-0.083997,-0.026134,-264.322538,0.321181,62.388608
0.4186,0.02787,-0.023373,-0.083943,-0.029568,0.021022,0.05,-0.015002,-0.531613,-0.083997,-0.026134,-264.322538,0.321181,62.388608
0.4383,0.027852,-0.023248,-0.085908,-0.029732,0.020954,0.05,-0.014891,-0.531578,-0.083943,-0.101275,-264.32254,0.302933,62.388607
0.4581,0.027878,-0.02359,-0.085681,-0.029744,0.020773,0.05,-0.014971,-0.531561,-0.084097,-0.101275,-264.32254,0.302933,62.388607
0.4786,0.028002,-0.023686,-0.084314,-0.029795,0.021118,0.05,-0.015765,-0.531719,-0.08568,-0.176542,-264.322543,0.311363,62.388606
0.4984,0.027798,-0.023435,-0.083725,-0.029897,0.021244,0.05,-0.0153,-0.531807,-0.084903,-0.176542,-264.322543,0.311363,62.388606
0.5187,0.027561,-0.023382,-0.084941,-0.029661,0.021028,0.05,-0.0153,-0.531807,-0.084903,-0.176542,-264.322543,0.311363,62.388606
0.5382,0.028165,-0.023257,-0.083562,-0.029445,0.020959,0.05,-0.015707,-0.531543,-0.084941,-0.251195,-264.322545,0.317205,62.388604
0.5589,0.027703,-0.023763,-0.085063,-0.030008,0.020825,0.05,-0.015619,-0.531539,-0.084848,-0.251195,-264.322545,0.317205,62.388604
0.5782,0.028031,-0.023276,-0.084285,-0.029622,0.021323,0.05,-0.015627,-0.531919,-0.085063,-0.326151,-264.322548,0.310264,62.388603
0.5982,0.027825,-0.023536,-0.086265,-0.029891,0.020834,0.05,-0.015223,-0.531666,-0.084629,-0.326151,-264.322548,0.310264,62.388603
0.6181,0.027835,-0.023247,-0.084833,-0.029749,0.021051,0.05,-0.015223,-0.531666,-0.084629,-0.326151,-264.322548,0.310264,62.388603
0.6381,0.027669,-0.023434,-0.085462,-0.029705,0.020805,0.05,-0.015378,-0.531413,-0.084833,-0.401144,-264.322553,0.313028,62.3886
0.6581,0.027626,-0.02346,-0.085891,-0.029568,0.020987,0.05,-0.015412,-0.531424,-0.084877,-0.401144,-264.322553,0.313028,62.3886
0.6783,0.027635,-0.023848,-0.08727,-0.029537,0.021003,0.05,-0.016126,-0.531579,-0.08589,-0.476137,-264.322573,0.308688,62.38859
0.6982,0.02805,-0.023408,-0.084265,-0.029608,0.021348,0.05,-0.016516,-0.531765,-0.08667,-0.476137,-264.322573,0.308688,62.38859
0.7182,0.02786,-0.023403,-0.084393,-0.029921,0.020964,0.05,-0.016516,-0.531765,-0.08667,-0.476137,-264.322573,0.308688,62.38859
0.7382,0.027829,-0.023255,-0.084463,-0.029734,0.020971,0.05,-0.015136,-0.531585,-0.084387,-0.551152,-264.322664,0.31242,62.388542
0.7581,0.02755,-0.023485,-0.08499,-0.029692,0.020825,0.05,-0.015141,-0.531575,-0.084392,-0.551152,-264.322664,0.31242,62.388542
0.7786,0.027722,-0.023281,-0.085377,-0.029444,0.021061,0.05,-0.015768,-0.531633,-0.084966,-0.626147,-264.323076,0.309675,62.388325
0.7983,0.027837,-0.023676,-0.085309,-0.029607,0.020832,0.05,-0.015771,-0.531512,-0.085198,-0.626147,-264.323076,0.309675,62.388325
0.8188,0.027857,-0.023613,-0.084296,-0.029753,0.021218,0.05,-0.015771,-0.531512,-0.085198,-0.626147,-264.323076,0.309675,62.388325
0.8386,0.027754,-0.023923,-0.086071,-0.029746,0.021184,0.05,-0.015178,-0.531756,-0.084192,-0.701241,-264.324372,0.31615,62.387642
0.8587,0.027657,-0.023387,-0.08605,-0.029708,0.021449,0.05,-0.015268,-0.531781,-0.084367,-0.701241,-264.324372,0.31615,62.387642
0.8786,0.027228,-0.023408,-0.084977,-0.029565,0.020924,0.05,-0.016357,-0.531398,-0.08583,-0.776998,-264.327641,0.303555,62.385935
0.8979,0.027368,-0.023273,-0.083997,-0.029116,0.021012,0.05,-0.016209,-0.531482,-0.085313,-0.776998,-264.327641,0.303555,62.385935
0.9181,0.027061,-0.022798,-0.085,-0.029224,0.020895,0.05,-0.016209,-0.531482,-0.085313,-0.776998,-264.327641,0.303555,62.385935
0.9387,0.026558,-0.023167,-0.084671,-0.028899,0.020418,0.05,-0.016661,-0.530721,-0.084462,-0.851275,-264.333409,0.296888,62.382284
0.9585,0.026646,-0.023082,-0.08408,-0.028422,0.020838,0.05,-0.016666,-0.530758,-0.084463,-0.851275,-264.333409,0.296888,62.382284
0.9784,0.02532,-0.022819,-0.08395,-0.02849,0.020763,0.05,-0.016686,-0.531011,-0.083405,-0.926124,-264.341696,0.318714,62.376121
0.9982,0.025134,-0.023023,-0.084108,-0.027144,0.020616,0.05,-0.017185,-0.530984,-0.083632,-0.926124,-264.341696,0.318714,62.376121
1.0183,0.025626,-0.022797,-0.082835,-0.026979,0.02083,0.05,-0.017185,-0.530984,-0.083632,-0.926124,-264.341696,0.318714,62.376121
1.0386,0.023842,-0.021873,-0.081501,-0.027425,0.020598,0.05,-0.017387,-0.530598,-0.081655,-1.001298,-264.352497,0.328865,62.367445
1.0587,0.024206,-0.021967,-0.083053,-0.025543,0.019859,0.05,-0.017434,-0.530553,-0.081609,-1.001298,-264.352497,0.328865,62.367445
1.0783,0.022264,-0.021746,-0.079703,-0.025944,0.019883,0.05,-0.018829,-0.529751,-0.081862,-1.076443,-264.36575,0.345394,62.357321
1.0981,0.022157,-0.021321,-0.079346,-0.023924,0.019904,0.05,-0.018642,-0.529908,-0.080473,-1.076443,-264.36575,0.345394,62.357321
1.1182,0.022492,-0.021411,-0.079848,-0.023777,0.019498,0.05,-0.018642,-0.529908,-0.080473,-1.076443,-264.36575,0.345394,62.357321
1.1381,0.019934,-0.021091,-0.079203,-0.024128,0.019549,0.05,-0.01916,-0.529099,-0.078045,-1.10169,-264.381499,0.395975,62.346818
1.1583,0.020348,-0.020584,-0.077785,-0.021541,0.019448,0.05,-0.019267,-0.529108,-0.078076,-1.10169,-264.381499,0.395975,62.346818
1.1781,0.018268,-0.019492,-0.075067,-0.021886,0.018941,0.05,-0.020056,-0.52839,-0.076144,-1.127178,-264.39977,0.434668,62.336687
1.1982,0.018284,-0.019763,-0.07742,-0.019679,0.018068,0.05,-0.020111,-0.528117,-0.075322,-1.127178,-264.39977,0.434668,62.336687
1.2185,0.018316,-0.019606,-0.07639,-0.019757,0.01829,0.05,-0.020111,-0.528117,-0.075322,-1.127178,-264.39977,0.434668,62.336687
1.2381,0.016135,-0.018777,-0.073635,-0.019759,0.018151,0.05,-0.021533,-0.527145,-0.074072,-1.163909,-264.420604,0.475433,62.327413
1.258,0.01622,-0.018725,-0.072086,-0.017472,0.01754,0.05,-0.021549,-0.527136,-0.073969,-1.163909,-264.420604,0.475433,62.327413
1.2781,0.01395,-0.01736,-0.072091,-0.017527,0.017508,0.05,-0.021147,-0.526722,-0.070367,-1.186298,-264.439414,0.55075,62.319112
1.2979,0.0144,-0.01774,-0.071232,-0.015164,0.01631,0.05,-0.02216,-0.526245,-0.071129,-1.186298,-264.439414,0.55075,62.319112
1.318,0.014101,-0.018137,-0.072201,-0.015626,0.01667,0.05,-0.02216,-0.526245,-0.071129,-1.186298,-264.439414,0.55075,62.319112
1.338,0.012,-0.016792,-0.070656,-0.015372,0.017073,0.05,-0.023372,-0.526017,-0.070112,-1.222212,-264.457076,0.625436,62.311593
1.3582,0.012351,-0.016778,-0.069207,-0.013155,0.015903,0.05,-0.023435,-0.525961,-0.070094,-1.222212,-264.457076,0.625436,62.311593
1.3783,0.010623,-0.016175,-0.066627,-0.013482,0.015883,0.05,-0.02339,-0.524976,-0.067597,-1.251149,-264.4738,0.700435,62.304567
1.3982,0.010639,-0.016352,-0.068957,-0.011676,0.015432,0.05,-0.023416,-0.524941,-0.066837,-1.251149,-264.4738,0.700435,62.304567
1.4184,0.010412,-0.015849,-0.067946,-0.011741,0.01558,0.05,-0.023416,-0.524941,-0.066837,-1.251149,-264.4738,0.700435,62.304567
1.4383,0.009129,-0.01536,-0.066084,-0.011464,0.015106,0.05,-0.024646,-0.524076,-0.066238,-1.294751,-264.487562,0.775563,62.298956
1.4584,0.009222,-0.015198,-0.06652,-0.010123,0.014724,0.05,-0.024651,-0.524072,-0.066182,-1.294751,-264.487562,0.775563,62.298956
1.4781,0.008147,-0.014347,-0.065381,-0.010212,0.014551,0.05,-0.025001,-0.523584,-0.065079,-1.321506,-264.501928,0.850437,62.293216
1.498,0.007693,-0.015129,-0.065066,-0.009067,0.013784,0.05,-0.025141,-0.523336,-0.065069,-1.321506,-264.501928,0.850437,62.293216
1.5181,0.007784,-0.01436,-0.064435,-0.00866,0.014597,0.05,-0.025141,-0.523336,-0.065069,-1.321506,-264.501928,0.850437,62.293216
1.5383,0.006728,-0.013725,-0.060856,-0.008693,0.013829,0.05,-0.025378,-0.522778,-0.062796,-1.35075,-264.514616,0.925489,62.288079
1.5585,0.006692,-0.013866,-0.060818,-0.007551,0.01329,0.05,-0.025311,-0.522764,-0.062617,-1.35075,-264.514616,0.925489,62.288079
1.5786,0.0056,-0.01346,-0.060886,-0.007523,0.013434,0.05,-0.024529,-0.522509,-0.059493,-1.381225,-264.52738,1.000433,62.283041
1.5982,0.005772,-0.013649,-0.062121,-0.006409,0.013094,0.05,-0.025074,-0.52246,-0.060121,-1.381225,-264.52738,1.000433,62.283041
1.6182,0.005091,-0.013294,-0.058503,-0.006608,0.013264,0.05,-0.025074,-0.52246,-0.060121,-1.381225,-264.52738,1.000433,62.283041
1.6381,0.004774,-0.012946,-0.05908,-0.00586,0.012974,0.05,-0.02497,-0.521966,-0.056902,-1.400189,-264.539237,1.075492,62.278022
1.6587,0.004552,-0.013142,-0.058244,-0.00553,0.012642,0.05,-0.025002,-0.52196,-0.057011,-1.400189,-264.539237,1.075492,62.278022
1.6781,0.003611,-0.01253,-0.056862,-0.005309,0.012855,0.05,-0.02532,-0.521872,-0.056789,-1.421064,-264.552656,1.150431,62.272419
1.698,0.002926,-0.012297,-0.057627,-0.004317,0.012305,0.05,-0.025373,-0.521726,-0.056646,-1.421064,-264.552656,1.150431,62.272419
1.7189,0.002904,-0.01222,-0.057478,-0.003629,0.012108,0.05,-0.025373,-0.521726,-0.056646,-1.421064,-264.552656,1.150431,62.272419
1.7384,0.002593,-0.011725,-0.053947,-0.003601,0.012033,0.05,-0.026593,-0.520877,-0.055576,-1.44342,-264.566332,1.225439,62.266534
1.7586,0.002046,-0.011839,-0.055079,-0.003221,0.011568,0.05,-0.026485,-0.520872,-0.055418,-1.44342,-264.566332,1.225439,62.266534
1.7782,0.000907,-0.01116,-0.052621,-0.002694,0.011708,0.05,-0.026125,-0.52074,-0.053784,-1.485892,-264.577868,1.30044,62.261472
1.7983,0.000736,-0.011351,-0.052622,-0.001493,0.011097,0.05,-0.026019,-0.520536,-0.052958,-1.485892,-264.577868,1.30044,62.261472
1.8185,0.001092,-0.011784,-0.054992,-0.001332,0.011296,0.05,-0.026019,-0.520536,-0.052958,-1.485892,-264.577868,1.30044,62.261472
1.8384,-0.000162,-0.010736,-0.050655,-0.001738,0.011706,0.05,-0.027057,-0.520542,-0.052962,-1.494435,-264.591903,1.375443,62.254969
1.8589,-9.6e-05,-0.010493,-0.051286,-0.000382,0.010731,0.05,-0.026989,-0.5205,-0.052759,-1.494435,-264.591903,1.375443,62.254969
1.8788,-0.001219,-0.010188,-0.048905,-0.000442,0.010484,0.05,-0.026276,-0.519491,-0.049838,-1.538957,-264.604466,1.450435,62.24918
1.8984,-0.0011,-0.010537,-0.049603,0.000719,0.010236,0.048905,-0.026209,-0.519499,-0.049123,-1.538957,-264.604466,1.450435,62.24918
1.9184,-0.000647,-0.010037,-0.050147,0.000576,0.010579,0.049603,-0.026209,-0.519499,-0.049123,-1.538957,-264.604466,1.450435,62.24918
1.9393,-0.002461,-0.009466,-0.046204,0.000143,0.010056,0.05,-0.026216,-0.518956,-0.048102,-1.561533,-264.618391,1.52547,62.242496
1.9584,-0.002005,-0.009802,-0.045804,0.000143,0.010056,0.05,-0.026201,-0.518941,-0.047903,-1.561533,-264.618391,1.52547,62.242496
1.9787,-0.003441,-0.009093,-0.044435,1.6e-05,9.9e-05,0.0,-0.02532,-0.518898,-0.044067,-1.584891,-264.633192,1.600009,62.235354
1.9983,-0.003423,-0.009437,-0.04468,1.6e-05,9.9e-05,0.0,-0.025754,-0.518677,-0.044055,-1.584891,-264.633192,1.600009,62.235354
2.0182,-0.003196,-0.009167,-0.046366,1.6e-05,9.9e-05,0.0,-0.025754,-0.518677,-0.044055,-1.584891,-264.633192,1.600009,62.235354
2.0381,-0.004626,-0.008556,-0.043084,1.6e-05,9.9e-05,0.0,-0.026806,-0.518136,-0.043959,-1.574326,-264.649272,1.577793,62.227241
2.0584,-0.004405,-0.008634,-0.042015,1.6e-05,9.9e-05,0.0,-0.02679,-0.518119,-0.043836,-1.574326,-264.649272,1.577793,62.227241
2.078,-0.004769,-0.008122,-0.041937,1.6e-05,9.9e-05,0.0,-0.025792,-0.517891,-0.041537,-1.649298,-264.655391,1.502821,62.227259
2.0985,-0.004848,-0.008184,-0.042251,1.6e-05,9.9e-05,0.0,-0.025996,-0.517728,-0.04171,-1.649298,-264.655391,1.502821,62.227259
2.1183,-0.004849,-0.008225,-0.04226,1.6e-05,9.9e-05,0.0,-0.025996,-0.517728,-0.04171,-1.649298,-264.655391,1.502821,62.227259
2.1383,-0.004605,-0.008304,-0.040911,1.6e-05,9.9e-05,0.0,-0.026394,-0.517766,-0.04226,-1.724727,-264.655422,1.427392,62.227291
2.1588,-0.004779,-0.008549,-0.04243,1.6e-05,9.9e-05,0.0,-0.026327,-0.517774,-0.042162,-1.724727,-264.655422,1.427392,62.227291
2.1783,-0.004809,-0.008131,-0.04152,1.6e-05,9.9e-05,0.0,-0.026411,-0.518086,-0.04243,-1.726707,-264.655462,1.414886,62.227331
2.1986,-0.004764,-0.008298,-0.041681,0.000227,0.001442,0.006683,-0.026163,-0.51786,-0.04191,-1.726707,-264.655462,1.414886,62.227331
2.2186,-0.004707,-0.008393,-0.042018,0.000443,0.00282,0.013067,-0.026163,-0.51786,-0.04191,-1.726707,-264.655462,1.414886,62.227331
2.2385,-0.004959,-0.008372,-0.042214,0.000647,0.004114,0.019067,-0.026129,-0.517938,-0.042018,-1.726707,-264.655503,1.414886,62.227371
2.2581,-0.005138,-0.008384,-0.042613,0.000839,0.005337,0.024734,-0.026155,-0.517936,-0.042033,-1.726707,-264.655503,1.414886,62.227371
2.2786,-0.004943,-0.008077,-0.041811,0.00102,0.00649,0.030076,-0.02686,-0.517888,-0.042456,-1.651461,-264.656858,1.490131,62.226721
2.298,-0.004736,-0.008202,-0.041657,0.001188,0.00756,0.035036,-0.026519,-0.517737,-0.042069,-1.651461,-264.656858,1.490131,62.226721
2.318,-0.005009,-0.008151,-0.043181,0.001346,0.008562,0.039678,-0.026519,-0.517737,-0.042069,-1.651461,-264.656858,1.490131,62.226721
2.3382,-0.005218,-0.008094,-0.040659,0.001492,0.009489,0.043975,-0.027012,-0.517591,-0.042555,-1.61181,-264.660708,1.564761,62.22427
2.3586,-0.004901,-0.008516,-0.039344,0.001625,0.01034,0.047919,-0.026937,-0.517594,-0.042406,-1.61181,-264.660708,1.564761,62.22427
2.3781,-0.005827,-0.007815,-0.03838,0.001748,0.011119,0.051527,-0.02493,-0.518055,-0.038453,-1.61181,-264.667057,1.639762,62.219319
2.3985,-0.005797,-0.007853,-0.040319,0.001859,0.011825,0.054801,-0.025191,-0.517696,-0.038298,-1.61181,-264.667057,1.639762,62.219319
2.4181,-0.00619,-0.008216,-0.040264,0.001958,0.012454,0.057717,-0.025191,-0.517696,-0.038298,-1.61181,-264.667057,1.639762,62.219319
2.4383,-0.006613,-0.007704,-0.03907,0.002045,0.013009,0.060287,-0.026655,-0.517719,-0.038646,-1.61181,-264.675907,1.656464,62.211868
2.4583,-0.006342,-0.008029,-0.037807,0.00212,0.01349,0.062515,-0.026645,-0.517688,-0.038632,-1.61181,-264.675907,1.656464,62.211868
2.4782,-0.007327,-0.007692,-0.036446,0.002185,0.013899,0.064412,-0.025555,-0.51756,-0.036189,-1.61181,-264.68726,1.656464,62.202713
2.4984,-0.007637,-0.007537,-0.03807,0.002237,0.014232,0.065954,-0.02575,-0.517428,-0.036131,-1.61181,-264.68726,1.656464,62.202713
2.5185,-0.007561,-0.008059,-0.037198,0.002278,0.014491,0.067156,-0.02575,-0.517428,-0.036131,-1.61181,-264.68726,1.656464,62.202713
2.5382,-0.008666,-0.007721,-0.033364,0.002307,0.014677,0.068018,-0.026434,-0.517469,-0.034841,-1.61181,-264.701108,1.656464,62.192803
2.5586,-0.008629,-0.00728,-0.033433,0.002325,0.014789,0.068533,-0.026379,-0.51746,-0.034675,-1.61181,-264.701108,1.656464,62.192803
2.5781,-0.009667,-0.007052,-0.030799,0.00233,0.014826,0.068705,-0.025592,-0.516721,-0.031305,-1.61181,-264.717457,1.656464,62.182155
2.5983,-0.010098,-0.007216,-0.031285,0.002325,0.014789,0.068534,-0.025456,-0.516737,-0.030746,-1.61181,-264.717457,1.656464,62.182155
2.6181,-0.0103,-0.007611,-0.029236,0.002307,0.014678,0.068019,-0.025456,-0.516737,-0.030746,-1.61181,-264.717457,1.656464,62.182155
2.6382,-0.011414,-0.006192,-0.026606,0.002278,0.014492,0.06716,-0.025092,-0.516908,-0.026279,-1.61181,-264.736306,1.656464,62.171288
2.6586,-0.011541,-0.006726,-0.028226,0.002237,0.014233,0.065959,-0.025082,-0.516838,-0.026227,-1.61181,-264.736306,1.656464,62.171288
2.678,-0.012641,-0.006345,-0.023739,0.002185,0.013899,0.064412,-0.025834,-0.516014,-0.02569,-1.61181,-264.757663,1.656464,62.160498
2.6981,-0.013036,-0.005991,-0.023723,0.002121,0.013491,0.062522,-0.0252,-0.516057,-0.024254,-1.61181,-264.757663,1.656464,62.160498
2.7182,-0.012933,-0.006051,-0.026618,0.002045,0.01301,0.060292,-0.0252,-0.516057,-0.024254,-1.61181,-264.757663,1.656464,62.160498
2.7387,-0.014406,-0.004866,-0.022549,0.001958,0.012454,0.057717,-0.02638,-0.515182,-0.023415,-1.61181,-264.779481,1.656464,62.150043
2.7585,-0.01439,-0.005056,-0.022345,0.001859,0.011825,0.054798,-0.026344,-0.515133,-0.023269,-1.61181,-264.779481,1.656464,62.150043
2.7785,-0.016042,-0.004231,-0.01876,0.001748,0.01112,0.051531,-0.025695,-0.514428,-0.020016,-1.61181,-264.79943,1.656464,62.140483
2.7985,-0.015869,-0.004603,-0.018196,0.001625,0.01034,0.047918,-0.025635,-0.514202,-0.019007,-1.61181,-264.79943,1.656464,62.140483
2.8181,-0.01613,-0.004256,-0.0195,0.001491,0.009485,0.043954,-0.025635,-0.514202,-0.019007,-1.61181,-264.79943,1.656464,62.140483
2.8388,-0.016443,-0.003763,-0.016021,0.001345,0.008559,0.039666,-0.025973,-0.513586,-0.016837,-1.61181,-264.817564,1.656464,62.131793
2.8588,-0.017493,-0.003607,-0.016526,0.001189,0.007562,0.035044,-0.025876,-0.513579,-0.016708,-1.61181,-264.817564,1.656464,62.131793
2.8782,-0.018414,-0.003178,-0.012768,0.00102,0.006487,0.030063,-0.025858,-0.513171,-0.014826,-1.61181,-264.832125,1.656464,62.124816
2.8991,-0.01834,-0.0034,-0.011784,0.000839,0.005339,0.024743,-0.025318,-0.513105,-0.013436,-1.61181,-264.832125,1.656464,62.124816
2.9186,-0.017985,-0.003349,-0.014844,0.000647,0.004116,0.019076,-0.025318,-0.513105,-0.013436,-1.61181,-264.832125,1.656464,62.124816
2.9384,-0.019187,-0.002732,-0.010601,0.000442,0.002815,0.013044,-0.025492,-0.512926,-0.013139,-1.61181,-264.843707,1.656464,62.119265
2.9581,-0.019007,-0.002691,-0.012844,0.000228,0.001448,0.00671,-0.025433,-0.512902,-0.012932,-1.61181,-264.843707,1.656464,62.119265
2.9788,-0.01931,-0.00273,-0.010203,0.0,1e-06,5e-06,-0.02553,-0.51249,-0.012108,-1.61181,-264.850027,1.656464,62.116237
2.9986,-0.019628,-0.002546,-0.010301,0.0,0.0,0.0,-0.024946,-0.512592,-0.010927,-1.61181,-264.850027,1.656464,62.116237
3.0186,-0.019459,-0.002705,-0.010138,0.0,0.0,0.0,-0.024946,-0.512592,-0.010927,-1.61181,-264.850027,1.656464,62.116237
3.0384,-0.01973,-0.002675,-0.010281,0.0,0.0,0.0,-0.024618,-0.512609,-0.009811,-1.61181,-264.852254,1.656464,62.11517
3.0584,-0.01956,-0.002796,-0.009083,0.0,0.0,0.0,-0.024643,-0.51261,-0.009836,-1.61181,-264.852254,1.656464,62.11517
3.0788,-0.020018,-0.002874,-0.009661,0.0,0.0,0.0,-0.024192,-0.512775,-0.009083,-1.61181,-264.852254,1.656464,62.11517
3.0982,-0.019595,-0.002211,-0.010857,0.0,0.0,0.0,-0.02462,-0.512818,-0.009412,-1.61181,-264.852254,1.656464,62.11517
3.1183,-0.019798,-0.002387,-0.00933,0.0,0.0,0.0,-0.02462,-0.512818,-0.009412,-1.61181,-264.852254,1.656464,62.11517
3.1386,-0.019668,-0.002493,-0.010668,0.0,0.0,0.0,-0.024557,-0.512364,-0.00933,-1.61181,-264.852254,1.656464,62.11517
3.1585,-0.019474,-0.002388,-0.009757,0.0,0.0,0.0,-0.024595,-0.512371,-0.009423,-1.61181,-264.852254,1.656464,62.11517
3.1784,-0.01985,-0.002589,-0.010907,0.0,0.0,0.0,-0.02445,-0.512363,-0.009757,-1.61181,-264.852254,1.656464,62.11517
3.1981,-0.019836,-0.002445,-0.010193,9.9e-05,1.4e-05,0.0,-0.025004,-0.512476,-0.010419,-1.61181,-264.852254,1.656464,62.11517
3.2181,-0.019476,-0.002431,-0.010452,9.9e-05,1.4e-05,0.0,-0.025004,-0.512476,-0.010419,-1.61181,-264.852254,1.656464,62.11517
3.2381,-0.019598,-0.002489,-0.00919,9.9e-05,1.4e-05,0.0,-0.024807,-0.512403,-0.010452,-1.61181,-264.852254,1.656464,62.11517
3.2589,-0.019691,-0.002293,-0.010788,9.9e-05,1.4e-05,0.0,-0.02477,-0.512407,-0.010363,-1.61181,-264.852254,1.656464,62.11517
3.278,-0.019936,-0.002674,-0.009744,9.9e-05,1.4e-05,0.0,-0.025193,-0.512264,-0.010788,-1.537047,-264.852254,1.581701,62.11517
3.2981,-0.019848,-0.00232,-0.010083,9.9e-05,1.4e-05,0.0,-0.025028,-0.512485,-0.01019,-1.537047,-264.852254,1.581701,62.11517
3.3183,-0.019573,-0.002468,-0.010657,9.9e-05,1.4e-05,0.0,-0.025028,-0.512485,-0.01019,-1.537047,-264.852254,1.581701,62.11517
3.3382,-0.019336,-0.00259,-0.010535,9.9e-05,1.4e-05,0.0,-0.025008,-0.51244,-0.010657,-1.461958,-264.852254,1.506612,62.11517
3.3584,-0.019894,-0.002557,-0.009865,9.9e-05,1.4e-05,0.0,-0.024988,-0.512448,-0.010649,-1.461958,-264.852254,1.506612,62.11517
3.3781,-0.01924,-0.002121,-0.009962,9.9e-05,1.4e-05,0.0,-0.024925,-0.512533,-0.009865,-1.387049,-264.852254,1.431703,62.11517
3.3982,-0.019765,-0.002444,-0.009028,1e-06,0.0,0.0,-0.024583,-0.512286,-0.00992,-1.387049,-264.852254,1.431703,62.11517
3.4185,-0.019394,-0.002756,-0.010441,0.002906,0.000411,0.001599,-0.024583,-0.512286,-0.00992,-1.387049,-264.852254,1.431703,62.11517
3.4383,-0.019761,-0.002663,-0.0115,0.005681,0.000804,0.003126,-0.024719,-0.512728,-0.010441,-1.312025,-264.852254,1.356678,62.11517
3.4585,-0.019811,-0.0024,-0.008188,0.008249,0.001167,0.00454,-0.02479,-0.512721,-0.010524,-1.312025,-264.852254,1.356678,62.11517
3.4783,-0.019568,-0.002619,-0.011773,0.010703,0.001515,0.00589,-0.023986,-0.512383,-0.008188,-1.236676,-264.852254,1.281329,62.11517
3.4982,-0.019736,-0.002739,-0.011052,0.013004,0.00184,0.007156,-0.024903,-0.512499,-0.01026,-1.236676,-264.852254,1.281329,62.11517
3.5186,-0.01986,-0.002623,-0.010784,0.01516,0.002145,0.008342,-0.024903,-0.512499,-0.01026,-1.236676,-264.852254,1.281329,62.11517
3.539,-0.019603,-0.002466,-0.009355,0.017173,0.00243,0.00945,-0.02536,-0.512594,-0.010784,-1.161767,-264.852254,1.20642,62.11517
3.5583,-0.019708,-0.002894,-0.013152,0.019026,0.002692,0.01047,-0.025277,-0.512581,-0.010665,-1.161767,-264.852254,1.20642,62.11517
3.5781,-0.019472,-0.0026,-0.010344,0.020738,0.002935,0.011412,-0.026416,-0.51285,-0.013152,-1.086501,-264.852254,1.131154,62.11517
3.5981,-0.019553,-0.002531,-0.009839,0.022296,0.003155,0.012269,-0.025457,-0.512691,-0.011539,-1.086501,-264.852254,1.131154,62.11517
3.6181,-0.020052,-0.002494,-0.009631,0.02371,0.003355,0.013047,-0.025457,-0.512691,-0.011539,-1.086501,-264.852254,1.131154,62.11517
3.6389,-0.019949,-0.002503,-0.008863,0.024976,0.003534,0.013744,-0.024963,-0.51247,-0.009631,-1.011924,-264.852254,1.056578,62.11517
3.6589,-0.019599,-0.002372,-0.00938,0.026098,0.003693,0.014362,-0.024929,-0.512471,-0.009578,-1.011924,-264.852254,1.056578,62.11517
3.6781,-0.019733,-0.002652,-0.009926,0.027056,0.003829,0.014889,-0.024382,-0.51235,-0.00938,-0.937057,-264.852254,0.981711,62.11517
3.6981,-0.019694,-0.002953,-0.010337,0.027873,0.003944,0.015338,-0.024619,-0.512508,-0.009693,-0.937057,-264.852254,0.981711,62.11517
3.718,-0.019588,-0.002828,-0.010537,0.028541,0.004039,0.015706,-0.024619,-0.512508,-0.009693,-0.937057,-264.852254,0.981711,62.11517
3.7383,-0.019619,-0.002216,-0.011648,0.029063,0.004113,0.015993,-0.024962,-0.5128,-0.010537,-0.861931,-264.852254,0.906585,62.11517
3.7584,-0.019577,-0.002555,-0.010273,0.029434,0.004165,0.016197,-0.025003,-0.512757,-0.010613,-0.861931,-264.852254,0.906585,62.11517
3.7787,-0.019515,-0.002538,-0.009903,0.029657,0.004197,0.01632,-0.024816,-0.512528,-0.010273,-0.787062,-264.852254,0.831715,62.11517
3.7982,-0.019965,-0.002616,-0.012299,0.029731,0.004207,0.016361,-0.02467,-0.512519,-0.010058,-0.787062,-264.852254,0.831715,62.11517
3.8183,-0.01956,-0.002549,-0.011059,0.029657,0.004197,0.01632,-0.02467,-0.512519,-0.010058,-0.787062,-264.852254,0.831715,62.11517
3.8382,-0.019313,-0.002412,-0.01004,0.029434,0.004165,0.016197,-0.0252,-0.512518,-0.011059,-0.711655,-264.852254,0.756309,62.11517
3.8582,-0.019636,-0.002024,-0.009304,0.029063,0.004113,0.015993,-0.025146,-0.512509,-0.010988,-0.711655,-264.852254,0.756309,62.11517
3.8782,-0.019327,-0.003022,-0.012075,0.028539,0.004039,0.015705,-0.024381,-0.512001,-0.009304,-0.63704,-264.852254,0.681693,62.11517
3.8982,-0.019779,-0.002426,-0.009118,0.02787,0.003944,0.015337,-0.025014,-0.512565,-0.010893,-0.63704,-264.852254,0.681693,62.11517
3.9181,-0.019529,-0.002326,-0.010508,0.027057,0.003829,0.014889,-0.025014,-0.512565,-0.010893,-0.63704,-264.852254,0.681693,62.11517
3.9381,-0.019517,-0.002416,-0.01045,0.026091,0.003692,0.014358,-0.024888,-0.512298,-0.010508,-0.561936,-264.852254,0.60659,62.11517
3.9582,-0.019912,-0.002743,-0.010475,0.024975,0.003534,0.013744,-0.024885,-0.512304,-0.010504,-0.561936,-264.852254,0.60659,62.11517
3.9787,-0.020002,-0.002715,-0.011053,0.023704,0.003354,0.013045,-0.025254,-0.512716,-0.010475,-0.487056,-264.852254,0.531709,62.11517
3.9982,-0.019725,-0.00248,-0.009428,0.022296,0.003155,0.01227,-0.025472,-0.512697,-0.010803,-0.487056,-264.852254,0.531709,62.11517
4.0183,-0.019384,-0.002752,-0.010693,0.02074,0.002935,0.011413,-0.025472,-0.512697,-0.010803,-0.487056,-264.852254,0.531709,62.11517
4.038,-0.019767,-0.002623,-0.009752,0.01903,0.002693,0.010472,-0.024838,-0.512723,-0.010693,-0.412026,-264.852254,0.45668,62.11517
4.0581,-0.01995,-0.002635,-0.0103,0.017173,0.00243,0.00945,-0.024831,-0.512715,-0.010628,-0.412026,-264.852254,0.45668,62.11517
4.0781,-0.019726,-0.002755,-0.009509,0.015164,0.002146,0.008345,-0.025202,-0.512608,-0.0103,-0.337048,-264.852254,0.381702,62.11517
4.098,-0.019588,-0.00269,-0.010907,0.012999,0.00184,0.007153,-0.024843,-0.512679,-0.009847,-0.337048,-264.852254,0.381702,62.11517
4.1181,-0.01955,-0.002442,-0.010234,0.010702,0.001514,0.005889,-0.024843,-0.512679,-0.009847,-0.337048,-264.852254,0.381702,62.11517
4.138,-0.019549,-0.002573,-0.009693,0.008253,0.001168,0.004541,-0.024769,-0.512416,-0.010234,-0.261904,-264.852254,0.306558,62.11517
4.1585,-0.019565,-0.002476,-0.009585,0.00565,0.0008,0.003109,-0.024749,-0.512425,-0.010196,-0.261904,-264.852254,0.306558,62.11517
4.1782,-0.019687,-0.002484,-0.010539,0.002899,0.00041,0.001595,-0.024454,-0.512452,-0.009585,-0.186874,-264.852254,0.231527,62.11517
4.1981,-0.019779,-0.002499,-0.010874,0.0,0.0,0.0,-0.024793,-0.512454,-0.010118,-0.186874,-264.852254,0.231527,62.11517
4.2184,-0.019797,-0.002447,-0.011483,0.0,0.0,0.0,-0.024793,-0.512454,-0.010118,-0.186874,-264.852254,0.231527,62.11517
4.2384,-0.019949,-0.002724,-0.01083,0.0,0.0,0.0,-0.025653,-0.512413,-0.011483,-0.112054,-264.852253,0.156707,62.11517
4.2583,-0.019871,-0.002687,-0.009218,0.0,0.0,0.0,-0.025641,-0.512431,-0.011441,-0.112054,-264.852253,0.156707,62.11517
4.2785,-0.019646,-0.002449,-0.010323,0.0,0.0,0.0,-0.024572,-0.512665,-0.009218,-0.112054,-264.852253,0.156707,62.11517
4.2984,-0.019647,-0.002314,-0.009289,0.0,0.0,0.0,-0.024765,-0.512526,-0.009849,-0.112054,-264.852253,0.156707,62.11517
4.3185,-0.019565,-0.002657,-0.009931,0.0,0.0,0.0,-0.024765,-0.512526,-0.009849,-0.112054,-264.852253,0.156707,62.11517
4.3383,-0.019873,-0.002637,-0.010519,0.0,0.0,0.0,-0.024629,-0.512632,-0.009931,-0.112054,-264.852253,0.156707,62.11517
4.3584,-0.019827,-0.002723,-0.009831,0.0,0.0,0.0,-0.024668,-0.512631,-0.009969,-0.112054,-264.852253,0.156707,62.11517
4.3782,-0.019893,-0.00276,-0.010419,0.0,0.0,0.0,-0.024841,-0.512698,-0.009831,-0.112054,-264.852253,0.156707,62.11517
4.3984,-0.01978,-0.002523,-0.008985,0.0,0.0,0.0,-0.025048,-0.512718,-0.010165,-0.112054,-264.852253,0.156707,62.11517
4.4183,-0.019656,-0.002346,-0.011612,0.0,0.0,0.0,-0.025048,-0.512718,-0.010165,-0.112054,-264.852253,0.156707,62.11517
4.4383,-0.020028,-0.002733,-0.009967,9.9e-05,1.3e-05,0.0,-0.025578,-0.512312,-0.011612,-0.112054,-264.852253,0.156707,62.11517
4.4584,-0.0198,-0.002571,-0.010589,9.9e-05,1.3e-05,0.0,-0.025546,-0.512339,-0.011498,-0.112054,-264.852253,0.156707,62.11517
4.4782,-0.019483,-0.002446,-0.009804,9.9e-05,1.3e-05,0.0,-0.0252,-0.512543,-0.010589,-0.112054,-264.852253,0.156707,62.11517
4.4988,-0.019791,-0.002135,-0.009597,9.9e-05,1.3e-05,0.0,-0.024789,-0.512473,-0.010139,-0.112054,-264.852253,0.156707,62.11517
4.5184,-0.019184,-0.002253,-0.010086,9.9e-05,1.3e-05,0.0,-0.024789,-0.512473,-0.010139,-0.112054,-264.852253,0.156707,62.11517
4.5382,-0.019949,-0.002639,-0.011015,9.9e-05,1.3e-05,0.0,-0.024326,-0.512227,-0.010086,-0.03694,-264.852238,0.130399,62.115185
4.5581,-0.01979,-0.00232,-0.009798,9.9e-05,1.3e-05,0.0,-0.024411,-0.512253,-0.010149,-0.03694,-264.852238,0.130399,62.115185
4.5785,-0.019463,-0.002627,-0.010521,9.9e-05,1.3e-05,0.0,-0.024784,-0.512296,-0.009798,0.038062,-264.852213,0.130399,62.115211
4.5982,-0.019738,-0.002575,-0.010551,9.9e-05,1.3e-05,0.0,-0.024809,-0.512467,-0.010208,0.038062,-264.852213,0.130399,62.115211
4.6184,-0.019715,-0.00254,-0.011153,9.9e-05,1.3e-05,0.0,-0.024809,-0.512467,-0.010208,0.038062,-264.852213,0.130399,62.115211
4.6383,-0.019812,-0.002356,-0.010117,9.9e-05,1.3e-05,0.0,-0.025399,-0.512508,-0.011153,0.112937,-264.852178,0.130399,62.115245
4.6587,-0.019806,-0.002468,-0.010469,0.002866,0.000376,0.001695,-0.025371,-0.512497,-0.011086,0.112937,-264.852178,0.130399,62.115245
4.6782,-0.019065,-0.002119,-0.010749,0.005589,0.000733,0.003306,-0.025141,-0.51244,-0.010469,0.130399,-264.852138,0.130399,62.115285
4.6987,-0.01951,-0.002625,-0.010416,0.008167,0.001071,0.004832,-0.024802,-0.512241,-0.010628,0.130399,-264.852138,0.130399,62.115285
4.7185,-0.019796,-0.002487,-0.010096,0.010599,0.00139,0.006271,-0.024802,-0.512241,-0.010628,0.130399,-264.852138,0.130399,62.115285
4.7384,-0.019463,-0.002496,-0.009274,0.012876,0.001689,0.007618,-0.024942,-0.51246,-0.010096,0.205415,-264.85211,0.055384,62.115311
4.7592,-0.019716,-0.00235,-0.009784,0.015009,0.001968,0.00888,-0.024891,-0.512461,-0.010041,0.205415,-264.85211,0.055384,62.115311
4.7784,-0.019534,-0.002415,-0.010349,0.017,0.002229,0.010058,-0.024663,-0.51232,-0.009773,0.28041,-264.851644,-0.019611,62.11574
4.7986,-0.019836,-0.002643,-0.010078,0.018842,0.002471,0.011148,-0.024742,-0.512358,-0.010098,0.28041,-264.851644,-0.019611,62.11574
4.8184,-0.019624,-0.002527,-0.010881,0.020533,0.002693,0.012148,-0.024742,-0.512358,-0.010098,0.28041,-264.851644,-0.019611,62.11574
4.8383,-0.019669,-0.002079,-0.011116,0.022078,0.002895,0.013062,-0.024944,-0.512467,-0.010793,0.355399,-264.849615,-0.094601,62.117608
4.8581,-0.019378,-0.002762,-0.011073,0.023477,0.003079,0.01389,-0.024965,-0.512437,-0.010813,0.355399,-264.849615,-0.094601,62.117608
4.8783,-0.018845,-0.002289,-0.011026,0.024729,0.003243,0.014631,-0.024618,-0.512679,-0.010865,0.430412,-264.84508,-0.169613,62.121982
4.8982,-0.019359,-0.002511,-0.010041,0.025831,0.003388,0.015283,-0.024481,-0.512432,-0.010931,0.430412,-264.84508,-0.169613,62.121982
4.9182,-0.018952,-0.002836,-0.010345,0.02679,0.003513,0.01585,-0.024481,-0.512432,-0.010931,0.430412,-264.84508,-0.169613,62.121982
4.9381,-0.018567,-0.002674,-0.007534,0.0276,0.00362,0.016329,-0.023437,-0.512722,-0.009883,0.457617,-264.838048,-0.226255,62.128852
4.9584,-0.018646,-0.00227,-0.010362,0.028262,0.003706,0.016721,-0.023345,-0.512715,-0.009707,0.457617,-264.838048,-0.226255,62.128852
4.9782,-0.017783,-0.001995,-0.008741,0.02878,0.003774,0.017027,-0.023069,-0.512148,-0.009859,0.457617,-264.828529,-0.226255,62.13821
4.9982,-0.018204,-0.00226,-0.008951,0.029148,0.003823,0.017245,-0.022497,-0.51204,-0.009169,0.457617,-264.828529,-0.226255,62.13821
5.0181,-0.017571,-0.002431,-0.008341,0.029367,0.003851,0.017375,-0.022497,-0.51204,-0.009169,0.457617,-264.828529,-0.226255,62.13821
5.0382,-0.016671,-0.002153,-0.009081,0.029441,0.003861,0.017418,-0.020481,-0.51226,-0.007554,0.457617,-264.816481,-0.226255,62.14983
5.0588,-0.016703,-0.002163,-0.008179,0.029368,0.003851,0.017375,-0.020505,-0.512246,-0.007646,0.457617,-264.816481,-0.226255,62.14983
5.0781,-0.01557,-0.001795,-0.006427,0.029147,0.003822,0.017245,-0.019742,-0.512007,-0.007509,0.457617,-264.803391,-0.226255,62.16188
5.0982,-0.015946,-0.001807,-0.008301,0.02878,0.003774,0.017027,-0.019086,-0.511862,-0.006805,0.457617,-264.803391,-0.226255,62.16188
5.1184,-0.015595,-0.001714,-0.006767,0.028263,0.003707,0.016721,-0.019086,-0.511862,-0.006805,0.457617,-264.803391,-0.226255,62.16188
5.1385,-0.014594,-0.001618,-0.007412,0.027601,0.00362,0.01633,-0.01762,-0.511524,-0.005923,0.457617,-264.790314,-0.226255,62.173919
5.158,-0.014499,-0.001619,-0.005499,0.026793,0.003514,0.015852,-0.017634,-0.511525,-0.006004,0.457617,-264.790314,-0.226255,62.173919
5.1784,-0.013765,-0.001486,-0.00456,0.025836,0.003388,0.015285,-0.016212,-0.511474,-0.004854,0.457617,-264.777712,-0.226255,62.18552
5.1981,-0.013913,-0.001487,-0.006019,0.024732,0.003243,0.014632,-0.016004,-0.51146,-0.004604,0.457617,-264.777712,-0.226255,62.18552
5.2182,-0.013875,-0.001611,-0.007023,0.023483,0.00308,0.013893,-0.016004,-0.51146,-0.004604,0.457617,-264.777712,-0.226255,62.18552
5.2381,-0.012377,-0.001439,-0.004942,0.022078,0.002895,0.013062,-0.016148,-0.511435,-0.00625,0.457617,-264.765765,-0.226255,62.196518
5.2585,-0.012492,-0.001554,-0.005104,0.020539,0.002694,0.012152,-0.016041,-0.511431,-0.006151,0.457617,-264.765765,-0.226255,62.196518
5.2784,-0.011967,-0.001198,-0.004522,0.018794,0.002465,0.011119,-0.014187,-0.511433,-0.004567,0.457617,-264.755294,-0.226255,62.206157
5.2982,-0.011928,-0.001051,-0.004263,0.017002,0.00223,0.010059,-0.014121,-0.511282,-0.004473,0.457617,-264.755294,-0.226255,62.206157
5.3184,-0.011504,-0.000985,-0.003926,0.015015,0.001969,0.008883,-0.014121,-0.511282,-0.004473,0.457617,-264.755294,-0.226255,62.206157
5.338,-0.010988,-0.001056,-0.003753,0.012886,0.00169,0.007624,-0.012506,-0.510853,-0.003334,0.457617,-264.746122,-0.226255,62.214601
5.3585,-0.011109,-0.001005,-0.003705,0.010588,0.001389,0.006264,-0.012507,-0.510864,-0.003348,0.457617,-264.746122,-0.226255,62.214601
5.3782,-0.01055,-0.001094,-0.00327,0.00818,0.001073,0.004839,-0.01242,-0.510928,-0.003362,0.457617,-264.739405,-0.226255,62.220784
5.3982,-0.010719,-0.000944,-0.00376,0.005586,0.000733,0.003305,-0.012229,-0.511014,-0.003265,0.457617,-264.739405,-0.226255,62.220784
5.4181,-0.010636,-0.000866,-0.001461,0.002879,0.000378,0.001703,-0.012229,-0.511014,-0.003265,0.457617,-264.739405,-0.226255,62.220784
5.4385,-0.010177,-0.000781,-0.003341,7e-06,1e-06,4e-06,-0.010869,-0.510799,-0.001158,0.457617,-264.734707,-0.226255,62.225109
5.4586,-0.009921,-0.000742,-0.002032,0.0,0.0,0.0,-0.010925,-0.510796,-0.001301,0.457617,-264.734707,-0.226255,62.225109
5.4789,-0.009983,-0.000513,-0.003255,0.0,0.0,0.0,-0.010846,-0.510727,-0.001966,0.457617,-264.733421,-0.226255,62.226292
5.4983,-0.010368,-0.00061,-0.001933,0.0,0.0,0.0,-0.011288,-0.510601,-0.002696,0.457617,-264.733421,-0.226255,62.226292
5.5183,-0.010601,-0.000702,-0.00158,0.0,0.0,0.0,-0.011288,-0.510601,-0.002696,0.457617,-264.733421,-0.226255,62.226292
5.5381,-0.010344,-0.000733,-0.00077,0.0,0.0,0.0,-0.011407,-0.510701,-0.00158,0.457617,-264.733421,-0.226255,62.226292
5.5584,-0.009852,-0.000613,-0.002826,0.0,0.0,0.0,-0.011365,-0.510703,-0.001529,0.457617,-264.733421,-0.226255,62.226292
5.5781,-0.009994,-0.00099,-0.002562,0.0,0.0,0.0,-0.011293,-0.510611,-0.002826,0.457617,-264.733421,-0.226255,62.226292
5.5984,-0.010304,-0.000898,-0.002706,0.0,0.0,0.0,-0.011297,-0.510827,-0.002675,0.457617,-264.733421,-0.226255,62.226292
5.6182,-0.010278,-0.000432,-0.001927,0.0,0.0,0.0,-0.011297,-0.510827,-0.002675,0.457617,-264.733421,-0.226255,62.226292
5.6382,-0.01032,-0.000878,-0.003125,0.0,0.0,0.0,-0.011261,-0.510431,-0.001927,0.457617,-264.733421,-0.226255,62.226292
5.6587,-0.010141,-0.000737,-0.003064,0.0,0.0,0.0,-0.01131,-0.510464,-0.002017,0.457617,-264.733421,-0.226255,62.226292
5.6783,-0.009735,-0.000928,-0.002983,0.0001,8e-06,0.0,-0.011704,-0.510735,-0.003064,0.457617,-264.733421,-0.226255,62.226292
5.6982,-0.01004,-0.000913,-0.000786,0.0001,8e-06,0.0,-0.011447,-0.510845,-0.003018,0.457617,-264.733421,-0.226255,62.226292
5.7182,-0.01026,-0.000862,-0.001123,0.0001,8e-06,0.0,-0.011447,-0.510845,-0.003018,0.457617,-264.733421,-0.226255,62.226292
5.738,-0.010288,-0.000951,-0.001966,0.0001,8e-06,0.0,-0.010833,-0.510862,-0.001123,0.457617,-264.733421,-0.226255,62.226292
5.7581,-0.010098,-0.000998,-0.001556,0.0001,8e-06,0.0,-0.010865,-0.510868,-0.001182,0.457617,-264.733421,-0.226255,62.226292
5.7782,-0.010342,-0.000962,-0.002233,0.0001,8e-06,0.0,-0.010891,-0.510997,-0.001556,0.382767,-264.733421,-0.151405,62.226293
5.7985,-0.010199,-0.000678,-0.002752,0.0001,8e-06,0.0,-0.011229,-0.510976,-0.001944,0.382767,-264.733421,-0.151405,62.226293
5.8185,-0.010234,-0.000743,-0.003541,0.0001,8e-06,0.0,-0.011229,-0.510976,-0.001944,0.382767,-264.733421,-0.151405,62.226293
5.8388,-0.01037,-0.000913,-0.003182,0.0001,8e-06,0.0,-0.012039,-0.51074,-0.003541,0.307605,-264.733417,-0.076244,62.226297
5.8587,-0.009982,-0.001166,-0.002115,0.0001,8e-06,0.0,-0.012036,-0.510751,-0.003518,0.307605,-264.733417,-0.076244,62.226297
5.8783,-0.010125,-0.000575,-0.002472,2e-06,0.0,1e-06,-0.011059,-0.511165,-0.002115,0.232755,-264.733405,-0.001393,62.226308
5.8981,-0.010405,-0.00101,-0.00318,0.001488,0.000113,0.00045,-0.011245,-0.510828,-0.002318,0.232755,-264.733405,-0.001393,62.226308
5.9182,-0.010029,-0.001063,-0.001888,0.002894,0.000219,0.000875,-0.011245,-0.510828,-0.002318,0.232755,-264.733405,-0.001393,62.226308
5.9386,-0.009823,-0.001067,-0.001252,0.004226,0.00032,0.001277,-0.010989,-0.511061,-0.001888,0.157645,-264.733381,0.073716,62.226333
5.9588,-0.010293,-0.001059,-0.001437,0.005483,0.000415,0.001657,-0.010955,-0.511062,-0.001846,0.157645,-264.733381,0.073716,62.226333
5.9784,-0.010268,-0.001011,-0.000742,0.006662,0.000505,0.002014,-0.010969,-0.511051,-0.001426,0.232541,-264.732776,-0.00118,62.226921
5.9983,-0.01005,-0.001218,-0.003063,0.007763,0.000588,0.002346,-0.01078,-0.511027,-0.001039,0.232541,-264.732776,-0.00118,62.226921
6.0182,-0.010314,-0.000398,-0.002832,0.008782,0.000665,0.002654,-0.01078,-0.511027,-0.001039,0.232541,-264.732776,-0.00118,62.226921
6.0381,-0.009931,-0.000998,-0.003669,0.009735,0.000737,0.002942,-0.011538,-0.510376,-0.002771,0.254679,-264.730911,-0.076344,62.228738
6.0582,-0.009887,-0.000763,-0.002887,0.010613,0.000804,0.003207,-0.01155,-0.510416,-0.002828,0.254679,-264.730911,-0.076344,62.228738
6.0782,-0.009327,-0.000874,-0.002698,0.011406,0.000864,0.003447,-0.011025,-0.510737,-0.002786,0.254679,-264.727339,-0.108402,62.232215
6.098,-0.009612,-0.001097,-0.00244,0.01213,0.000919,0.003666,-0.0108,-0.510811,-0.002723,0.254679,-264.727339,-0.108402,62.232215
6.1181,-0.009985,-0.001034,-0.002057,0.012777,0.000968,0.003861,-0.0108,-0.510811,-0.002723,0.254679,-264.727339,-0.108402,62.232215
6.1381,-0.009277,-0.000641,-0.001811,0.013345,0.001011,0.004033,-0.010518,-0.510995,-0.001901,0.254679,-264.722954,-0.108402,62.236483
6.1583,-0.009051,-0.000663,-0.002228,0.013839,0.001048,0.004182,-0.010483,-0.51097,-0.001891,0.254679,-264.722954,-0.108402,62.236483
6.1781,-0.008934,-0.000812,-0.001645,0.014258,0.00108,0.004309,-0.009694,-0.510626,-0.002079,0.254679,-264.717672,-0.108402,62.241625
6.1982,-0.008289,-0.000567,-0.002175,0.014601,0.001106,0.004413,-0.009676,-0.510727,-0.001814,0.254679,-264.717672,-0.108402,62.241625
6.218,-0.008768,-0.000491,-0.000976,0.014866,0.001126,0.004493,-0.009676,-0.510727,-0.001814,0.254679,-264.717672,-0.108402,62.241625
6.2385,-0.008238,-0.000897,-0.002437,0.015056,0.001141,0.00455,-0.008592,-0.51044,-0.000773,0.254679,-264.711952,-0.108402,62.247193
6.2588,-0.007816,-0.000277,-0.001917,0.015171,0.001149,0.004585,-0.008636,-0.510471,-0.000883,0.254679,-264.711952,-0.108402,62.247193
6.2782,-0.007457,-0.000573,-0.000729,0.015208,0.001152,0.004596,-0.008218,-0.510234,-0.001743,0.254679,-264.705808,-0.108402,62.253174
6.2981,-0.007888,-0.000324,-0.002733,0.015171,0.001149,0.004585,-0.007925,-0.51042,-0.001148,0.254679,-264.705808,-0.108402,62.253174
6.3184,-0.00707,-0.000899,0.000143,0.015057,0.001141,0.00455,-0.007925,-0.51042,-0.001148,0.254679,-264.705808,-0.108402,62.253174
6.3381,-0.006815,-0.000375,-0.002377,0.014865,0.001126,0.004492,-0.006259,-0.510842,0.000366,0.254679,-264.699537,-0.108402,62.259279
6.3586,-0.006431,-0.000359,-0.001203,0.0146,0.001106,0.004413,-0.006359,-0.510809,0.000187,0.254679,-264.699537,-0.108402,62.259279
6.378,-0.005843,-0.000445,-0.00159,0.014258,0.00108,0.004309,-0.006463,-0.510315,-0.001027,0.254679,-264.693302,-0.108402,62.265348
6.3981,-0.006068,-0.000497,-0.000299,0.013838,0.001048,0.004182,-0.006499,-0.510384,-0.001328,0.254679,-264.693302,-0.108402,62.265348
6.4182,-0.006224,-0.000624,-4.7e-05,0.013346,0.001011,0.004033,-0.006499,-0.510384,-0.001328,0.254679,-264.693302,-0.108402,62.265348
6.438,-0.005755,-0.000695,-0.000516,0.012776,0.000968,0.003861,-0.005539,-0.51057,0.000167,0.254679,-264.687278,-0.108402,62.271212
6.4583,-0.00546,-0.000475,-3.4e-05,0.012129,0.000919,0.003666,-0.005552,-0.510577,0.000128,0.254679,-264.687278,-0.108402,62.271212
6.478,-0.005301,-0.000454,-0.001731,0.011406,0.000864,0.003447,-0.004962,-0.510436,0.000122,0.254679,-264.681762,-0.108402,62.276581
6.498,-0.005248,-0.000314,-0.000478,0.010609,0.000804,0.003206,-0.005592,-0.510441,-0.000913,0.254679,-264.681762,-0.108402,62.276581
6.5185,-0.004949,-0.000194,-0.000715,0.009735,0.000737,0.002942,-0.005592,-0.510441,-0.000913,0.254679,-264.681762,-0.108402,62.276581
6.5385,-0.004635,-0.000569,0.000235,0.008784,0.000665,0.002655,-0.004724,-0.51015,-0.000537,0.254679,-264.676749,-0.108402,62.281462
6.5584,-0.004958,-0.000301,-0.000433,0.007758,0.000588,0.002345,-0.004694,-0.510177,-0.000479,0.254679,-264.676749,-0.108402,62.281462
6.578,-0.003876,-0.000221,0.001566,0.006652,0.000504,0.00201,-0.004802,-0.510273,-0.000319,0.254679,-264.67272,-0.108402,62.285384
6.5983,-0.004204,-2e-06,0.000228,0.005478,0.000415,0.001655,-0.003768,-0.510239,0.000774,0.254679,-264.67272,-0.108402,62.285384
6.6184,-0.003836,-0.000438,0.000385,0.004223,0.00032,0.001276,-0.003768,-0.510239,0.000774,0.254679,-264.67272,-0.108402,62.285384
6.6383,-0.003607,-0.000227,-0.000709,0.002892,0.000219,0.000874,-0.003263,-0.51041,0.000499,0.254679,-264.669518,-0.108402,62.288501
6.6586,-0.003715,-0.00024,0.000678,0.001483,0.000112,0.000448,-0.003302,-0.510396,0.000418,0.254679,-264.669518,-0.108402,62.288501
6.6781,-0.003367,-0.000355,-0.001253,0.0,0.0,0.0,-0.003206,-0.510227,0.000728,0.254679,-264.667772,-0.108402,62.2902
6.6983,-0.00383,-0.000555,-2e-06,0.0,0.0,0.0,-0.003639,-0.510298,-0.000391,0.254679,-264.667772,-0.108402,62.2902
6.7184,-0.00352,-0.000379,0.001038,0.0,0.0,0.0,-0.003639,-0.510298,-0.000391,0.254679,-264.667772,-0.108402,62.2902
6.7383,-0.003578,-0.000404,0.001013,0.0,0.0,0.0,-0.002919,-0.510373,0.001059,0.254679,-264.667158,-0.108402,62.290798
6.7588,-0.003026,-3.8e-05,-0.001913,0.0,0.0,0.0,-0.002927,-0.510375,0.001057,0.254679,-264.667158,-0.108402,62.290798
6.7787,-0.003411,3.4e-05,-0.000441,0.0,0.0,0.0,-0.004002,-0.510037,-0.001913,0.254679,-264.667158,-0.108402,62.290798
6.7981,-0.003573,-0.000541,-0.000958,0.0,0.0,0.0,-0.003797,-0.509997,-0.00109,0.254679,-264.667158,-0.108402,62.290798
6.8183,-0.003411,-0.000175,0.00067,0.0,0.0,0.0,-0.003797,-0.509997,-0.00109,0.254679,-264.667158,-0.108402,62.290798
6.8383,-0.00363,-0.000312,0.000243,0.0,0.0,0.0,-0.003069,-0.510175,0.00067,0.254679,-264.667158,-0.108402,62.290798
6.858,-0.003554,-0.000256,-0.001194,0.0,0.0,0.0,-0.003099,-0.510185,0.000641,0.254679,-264.667158,-0.108402,62.290798
6.8784,-0.003277,-0.000416,-0.000177,0.0,0.0,0.0,-0.004163,-0.510255,-0.001194,0.254679,-264.667158,-0.108402,62.290798
6.8986,-0.003692,-0.000557,-0.00093,9.9e-05,1.3e-05,0.0,-0.003709,-0.510347,-0.000613,0.254679,-264.667158,-0.108402,62.290798
6.9183,-0.003564,-9e-06,-0.000949,9.9e-05,1.3e-05,0.0,-0.003709,-0.510347,-0.000613,0.254679,-264.667158,-0.108402,62.290798
6.9382,-0.003482,-8e-06,0.000319,9.9e-05,1.3e-05,0.0,-0.004048,-0.510008,-0.000949,0.254679,-264.667158,-0.108402,62.290798
6.9587,-0.003267,-0.000376,-0.000697,9.9e-05,1.3e-05,0.0,-0.004001,-0.510008,-0.000867,0.254679,-264.667158,-0.108402,62.290798
6.979,-0.003488,0.000217,-5.6e-05,9.9e-05,1.3e-05,0.0,-0.003621,-0.510375,-0.000697,0.179801,-264.667145,-0.033525,62.290811
6.9983,-0.003947,4e-05,7.9e-05,9.9e-05,1.3e-05,0.0,-0.003562,-0.510038,-0.000333,0.179801,-264.667145,-0.033525,62.290811
7.0185,-0.003148,2.3e-05,-0.000428,9.9e-05,1.3e-05,0.0,-0.003562,-0.510038,-0.000333,0.179801,-264.667145,-0.033525,62.290811
7.0385,-0.003156,-0.000144,0.000862,9.9e-05,1.3e-05,0.0,-0.003363,-0.509977,-0.000428,0.126367,-264.66712,0.041492,62.290836
7.0586,-0.003424,8.3e-05,-0.001208,9.9e-05,1.3e-05,0.0,-0.003319,-0.509988,-0.000339,0.126367,-264.66712,0.041492,62.290836
7.0786,-0.003248,-0.000105,0.000455,9.9e-05,1.3e-05,0.0,-0.004037,-0.509916,-0.001208,0.126367,-264.667084,0.116484,62.290872
7.0983,-0.003796,-0.000203,-6.1e-05,2e-06,0.0,0.0,-0.003455,-0.510024,-0.000262,0.126367,-264.667084,0.116484,62.290872
7.1182,-0.003936,-0.000117,-0.000729,0.000477,6.1e-05,2.6e-05,-0.003455,-0.510024,-0.000262,0.126367,-264.667084,0.116484,62.290872
7.1383,-0.003494,-0.000359,0.000183,0.000932,0.000118,5e-05,-0.004302,-0.510117,-0.000729,0.126367,-264.667044,0.126367,62.290912
7.1588,-0.003348,-0.000213,0.000332,0.001362,0.000173,7.3e-05,-0.004239,-0.510134,-0.000665,0.126367,-264.667044,0.126367,62.290912
7.1781,-0.003161,-0.00058,-0.00016,0.001768,0.000225,9.5e-05,-0.003161,-0.51021,0.000333,0.158634,-264.666858,0.093832,62.291097
7.1981,-0.003431,-0.000334,0.000167,0.00215,0.000273,0.000116,-0.003205,-0.510422,5.1e-05,0.158634,-264.666858,0.093832,62.291097
7.2182,-0.003289,-0.0005,-3.9e-05,0.002506,0.000318,0.000135,-0.003205,-0.510422,5.1e-05,0.158634,-264.666858,0.093832,62.291097
7.2381,-0.00328,-0.000269,0.000978,0.002839,0.000361,0.000153,-0.003242,-0.510491,-3.5e-05,0.158634,-264.666307,0.093832,62.291643
7.2585,-0.003152,-0.000512,-0.001803,0.003145,0.0004,0.00017,-0.003208,-0.510476,3.6e-05,0.158634,-264.666307,0.093832,62.291643
7.2781,-0.003143,-6.2e-05,0.001027,0.003428,0.000435,0.000185,-0.003975,-0.510499,-0.001798,0.158634,-264.66529,0.093832,62.292652
7.2984,-0.003165,-0.000275,0.000958,0.003686,0.000468,0.000199,-0.003186,-0.510247,-0.000179,0.158634,-264.66529,0.093832,62.292652
7.3185,-0.00303,-0.000563,-0.000116,0.003919,0.000498,0.000211,-0.003186,-0.510247,-0.000179,0.158634,-264.66529,0.093832,62.292652
7.3382,-0.003001,-0.000485,-0.00107,0.004129,0.000525,0.000223,-0.002936,-0.510543,-0.000108,0.158634,-264.664018,0.093832,62.293913
7.3594,-0.003198,-0.00019,0.000743,0.004313,0.000548,0.000233,-0.002975,-0.510539,-0.000175,0.158634,-264.664018,0.093832,62.293913
7.3787,-0.002587,-0.000237,-0.000792,0.004474,0.000568,0.000241,-0.002667,-0.510171,0.000752,0.158634,-264.66243,0.093832,62.295488
7.3984,-0.002744,0.000176,-0.001048,0.00461,0.000586,0.000249,-0.002832,-0.510206,-0.000122,0.158634,-264.66243,0.093832,62.295488
