mach0312/omni-docking-bench/src/icros_test_setup/results/MPPI_sample/timeseries/trial_141.csv
t,x,y,yaw,vx,vy,wz,bl_x,bl_y,bl_yaw,front_steering_joint,front_wheel_joint,rear_steering_joint,rear_wheel_joint
0.0,0.059578,-0.022369,-0.070505,-0.008056,-0.000873,-0.001249,0.026041,-0.531157,-0.068036,0.200352,-257.640335,0.013757,67.004796
0.0005,0.059908,-0.022719,-0.068337,-0.005113,-0.000554,-0.000792,0.026041,-0.531157,-0.068036,0.200352,-257.643802,0.013757,67.001399
0.0008,0.059334,-0.022336,-0.0681,-0.004512,-0.000489,-0.000699,0.025174,-0.530956,-0.068795,0.200352,-257.646974,0.013757,66.998289
0.0011,0.059222,-0.022435,-0.068406,-0.003873,-0.00042,-0.0006,0.024951,-0.531329,-0.069428,0.200352,-257.649852,0.013757,66.995469
0.0015,0.058887,-0.02253,-0.069198,-0.003184,-0.000345,-0.000493,0.024951,-0.531329,-0.069428,0.200352,-257.652167,0.013757,66.993201
0.0017,0.058779,-0.022647,-0.066226,-0.002452,-0.000266,-0.00038,0.024951,-0.531329,-0.069428,0.200352,-257.654008,0.013757,66.991395
0.0022,0.058938,-0.022503,-0.067448,-0.001683,-0.000182,-0.000261,0.024951,-0.531329,-0.069428,0.200352,-257.655012,0.013757,66.990411
0.0024,0.058795,-0.022441,-0.066929,-0.000863,-9.4e-05,-0.000134,0.025852,-0.53148,-0.066601,0.200352,-257.655012,0.013757,66.990411
0.0027,0.058963,-0.02258,-0.069219,0.0,0.0,0.0,0.025414,-0.531477,-0.067453,0.200352,-257.655012,0.013757,66.990411
0.0029,0.059198,-0.022874,-0.068383,0.0,0.0,0.0,0.025414,-0.531477,-0.067453,0.200352,-257.655012,0.013757,66.990411
0.0166,0.058919,-0.022746,-0.066972,0.0,0.0,0.0,0.024323,-0.531683,-0.068387,0.200352,-257.655363,0.013757,66.990067
0.0371,0.059489,-0.022455,-0.068886,0.0,0.0,0.0,0.024748,-0.531609,-0.067092,0.200352,-257.655363,0.013757,66.990067
0.0567,0.058959,-0.022546,-0.069335,0.0,0.0,0.0,0.024748,-0.531609,-0.067092,0.200352,-257.655363,0.013757,66.990067
0.0768,0.059178,-0.022466,-0.068794,0.0,0.0,0.0,0.023627,-0.53132,-0.069335,0.200352,-257.655363,0.013757,66.990067
0.097,0.058991,-0.022131,-0.067218,0.0,0.0,0.0,0.02383,-0.531295,-0.069112,0.200352,-257.655363,0.013757,66.990067
0.1169,0.059275,-0.022314,-0.068104,-0.002545,0.003569,0.006194,0.024736,-0.530979,-0.067218,0.200352,-257.655363,0.013757,66.990067
0.1371,0.058747,-0.022594,-0.068311,-0.002746,0.00391,0.006592,0.024583,-0.531118,-0.068025,0.200352,-257.655363,0.013757,66.990067
0.1569,0.058996,-0.022871,-0.068477,-0.002909,0.004206,0.006901,0.024583,-0.531118,-0.068025,0.200352,-257.655363,0.013757,66.990067
0.1768,0.058862,-0.022374,-0.067709,-0.003041,0.004465,0.007142,0.0241,-0.531676,-0.068477,0.125307,-257.655364,0.083741,66.990067
0.1968,0.059017,-0.022656,-0.068574,-0.003136,0.004703,0.007329,0.024203,-0.531486,-0.068167,0.125307,-257.655364,0.083741,66.990067
0.2168,0.058494,-0.022652,-0.068064,-0.003213,0.004911,0.007476,0.024071,-0.531457,-0.068574,0.050468,-257.655364,0.008902,66.990067
0.2371,0.058906,-0.022583,-0.068589,-0.003269,0.005098,0.007591,0.023831,-0.53147,-0.068108,0.050468,-257.655364,0.008902,66.990067
0.257,0.05865,-0.022484,-0.069167,-0.003313,0.005262,0.007682,0.023831,-0.53147,-0.068108,0.050468,-257.655364,0.008902,66.990067
0.2772,0.058992,-0.022796,-0.068927,-0.003347,0.005404,0.007754,0.023402,-0.531264,-0.069167,-0.024615,-257.655364,-0.066181,66.990067
0.2968,0.058813,-0.022486,-0.067511,-0.003372,0.00553,0.007812,0.023588,-0.531393,-0.069071,-0.024615,-257.655364,-0.066181,66.990067
0.3166,0.058985,-0.022732,-0.068261,-0.003391,0.005639,0.007857,0.024409,-0.531324,-0.067511,-0.099516,-257.655365,-0.141082,66.990067
0.3373,0.058522,-0.022754,-0.06837,-0.003412,0.005727,0.007893,0.024217,-0.531525,-0.068197,-0.099516,-257.655365,-0.141082,66.990067
0.3567,0.058687,-0.022732,-0.06985,-0.003428,0.005803,0.007921,0.024217,-0.531525,-0.068197,-0.099516,-257.655365,-0.141082,66.990067
0.3764,0.058062,-0.022595,-0.067565,-0.00344,0.005871,0.007944,0.023093,-0.531488,-0.06985,-0.174625,-257.655365,-0.216191,66.990067
0.3964,0.058812,-0.022593,-0.068112,-0.003438,0.005942,0.007962,0.023314,-0.531465,-0.068909,-0.174625,-257.655365,-0.216191,66.990067
0.4168,0.058914,-0.022884,-0.06758,-0.003435,0.006003,0.007976,0.024101,-0.53141,-0.068112,-0.249645,-257.655365,-0.287979,66.990067
0.4368,0.058827,-0.022974,-0.069035,-0.003443,0.006044,0.007987,0.024443,-0.531694,-0.067625,-0.249645,-257.655365,-0.287979,66.990067
0.4568,0.059408,-0.022343,-0.068872,-0.003449,0.006079,0.007996,0.024443,-0.531694,-0.067625,-0.249645,-257.655365,-0.287979,66.990067
0.477,0.058572,-0.022326,-0.066036,-0.003453,0.00611,0.008003,0.024311,-0.531134,-0.068872,-0.32467,-257.655366,-0.318338,66.990067
0.4971,0.058732,-0.02267,-0.069232,-0.003466,0.006126,0.008008,0.024557,-0.531166,-0.067721,-0.32467,-257.655366,-0.318338,66.990067
0.5168,0.058368,-0.022452,-0.069323,-0.003476,0.00614,0.008012,0.023452,-0.531448,-0.069232,-0.399509,-257.655366,-0.340297,66.990066
0.5368,0.058556,-0.022778,-0.068543,-0.003462,0.006178,0.008016,0.023076,-0.531246,-0.069315,-0.399509,-257.655366,-0.340297,66.990066
0.5568,0.059143,-0.022355,-0.068321,-0.003451,0.00621,0.008019,0.023076,-0.531246,-0.069315,-0.399509,-257.655366,-0.340297,66.990066
0.5767,0.05896,-0.022484,-0.070088,-0.003441,0.006238,0.008022,0.024326,-0.531165,-0.068321,-0.47465,-257.655367,-0.34424,66.990066
0.5965,0.058874,-0.02246,-0.068398,-0.003445,0.006248,0.008023,0.023888,-0.531192,-0.069036,-0.47465,-257.655367,-0.34424,66.990066
0.6167,0.058621,-0.022503,-0.07006,-0.003448,0.006256,0.008024,0.024018,-0.531268,-0.068398,-0.5495,-257.655367,-0.371115,66.990066
0.6365,0.059235,-0.022593,-0.069085,-0.003437,0.006279,0.008025,0.023022,-0.531254,-0.069905,-0.5495,-257.655367,-0.371115,66.990066
0.6571,0.058935,-0.022753,-0.06982,-0.003427,0.006299,0.008026,0.023022,-0.531254,-0.069905,-0.5495,-257.655367,-0.371115,66.990066
0.6768,0.058823,-0.02271,-0.068312,-0.003419,0.006316,0.008027,0.023356,-0.53151,-0.069819,-0.624533,-257.655368,-0.374654,66.990066
0.6967,0.059057,-0.022246,-0.069871,-0.003417,0.006326,0.008027,0.023621,-0.531514,-0.06921,-0.624533,-257.655368,-0.374654,66.990066
0.7166,0.058867,-0.022334,-0.068464,-0.003414,0.006335,0.008028,0.023452,-0.531001,-0.069871,-0.69953,-257.655372,-0.392013,66.990065
0.7369,0.058781,-0.022348,-0.068482,-0.003422,0.00633,0.008028,0.023931,-0.531127,-0.068589,-0.69953,-257.655372,-0.392013,66.990065
0.7571,0.058998,-0.022309,-0.068229,-0.003429,0.006326,0.008028,0.023931,-0.531127,-0.068589,-0.69953,-257.655372,-0.392013,66.990065
0.7769,0.058821,-0.022711,-0.068001,-0.003434,0.006323,0.008028,0.024228,-0.531121,-0.068229,-0.774514,-257.655389,-0.397088,66.990059
0.7967,0.059128,-0.022437,-0.068357,-0.003439,0.00632,0.008028,0.024203,-0.531288,-0.068136,-0.774514,-257.655389,-0.397088,66.990059
0.8167,0.059189,-0.022981,-0.068189,-0.003443,0.006318,0.008029,0.024291,-0.531244,-0.068354,-0.849515,-257.655462,-0.392191,66.990036
0.8369,0.058755,-0.022614,-0.069183,-0.003441,0.006322,0.008029,0.024426,-0.531747,-0.068203,-0.849515,-257.655462,-0.392191,66.990036
0.8565,0.059037,-0.022405,-0.068053,-0.00344,0.006325,0.00803,0.024426,-0.531747,-0.068203,-0.849515,-257.655462,-0.392191,66.990036
0.8767,0.059098,-0.023112,-0.067434,-0.003439,0.006327,0.00803,0.024346,-0.531212,-0.068039,-0.924677,-257.655705,-0.389856,66.989959
0.897,0.059082,-0.022668,-0.068682,-0.003443,0.006324,0.00803,0.024503,-0.531514,-0.06779,-0.924677,-257.655705,-0.389856,66.989959
0.9167,0.058715,-0.02234,-0.067986,-0.003446,0.006322,0.00803,0.024062,-0.53144,-0.068652,-0.999533,-257.656347,-0.392272,66.989756
0.9369,0.059125,-0.022686,-0.067734,-0.003448,0.00632,0.00803,0.024067,-0.531186,-0.068044,-0.999533,-257.656347,-0.392272,66.989756
0.9568,0.058768,-0.022723,-0.069073,-0.003449,0.006319,0.00803,0.024067,-0.531186,-0.068044,-0.999533,-257.656347,-0.392272,66.989756
0.9769,0.058694,-0.022663,-0.069778,-0.00345,0.006318,0.00803,0.023518,-0.53143,-0.068982,-1.074533,-257.657745,-0.390186,66.989312
0.9967,0.058696,-0.022333,-0.068568,-0.003438,0.006333,0.00803,0.023357,-0.531418,-0.069296,-1.074533,-257.657745,-0.390186,66.989312
1.0172,0.05875,-0.022262,-0.068955,-0.003428,0.006345,0.008031,0.023691,-0.531027,-0.068439,-1.14954,-257.660242,-0.388834,66.988519
1.0373,0.058552,-0.022471,-0.068691,-0.00343,0.006344,0.00803,0.023614,-0.531042,-0.068901,-1.14954,-257.660242,-0.388834,66.988519
1.057,0.058585,-0.022583,-0.068964,-0.003431,0.006343,0.00803,0.023614,-0.531042,-0.068901,-1.14954,-257.660242,-0.388834,66.988519
1.0765,0.057806,-0.022006,-0.066879,-0.003432,0.006342,0.008029,0.023335,-0.53116,-0.068709,-1.224534,-257.663891,-0.397789,66.987365
1.0969,0.057815,-0.022059,-0.069423,-0.003431,0.006343,0.008102,0.023481,-0.531016,-0.067931,-1.224534,-257.663891,-0.397789,66.987365
1.1167,0.058098,-0.021561,-0.066579,-0.00343,0.006344,0.00816,0.022346,-0.530629,-0.069177,-1.274638,-257.668409,-0.396883,66.985936
1.1379,0.05779,-0.021686,-0.068362,-0.003445,0.006325,0.008243,0.024001,-0.530439,-0.066798,-1.274638,-257.668409,-0.396883,66.985936
1.1566,0.057848,-0.021738,-0.066807,-0.003458,0.006309,0.00831,0.024001,-0.530439,-0.066798,-1.274638,-257.668409,-0.396883,66.985936
1.1768,0.057561,-0.021005,-0.066978,-0.003468,0.006295,0.008364,0.023677,-0.530327,-0.066467,-1.276754,-257.673115,-0.377541,66.984469
1.1966,0.057238,-0.021295,-0.066951,-0.003476,0.006284,0.008445,0.023562,-0.530107,-0.066634,-1.276754,-257.673115,-0.377541,66.984469
1.2167,0.05731,-0.021317,-0.067348,-0.003483,0.006275,0.00851,0.023026,-0.529953,-0.066694,-1.275559,-257.677716,-0.329823,66.983053
1.2366,0.057441,-0.021035,-0.065962,-0.003481,0.006276,0.008598,0.022987,-0.530132,-0.067279,-1.275559,-257.677716,-0.329823,66.983053
1.2567,0.057263,-0.021222,-0.067672,-0.003479,0.006277,0.008669,0.022987,-0.530132,-0.067279,-1.275559,-257.677716,-0.329823,66.983053
1.2767,0.056792,-0.020778,-0.065751,-0.003477,0.006278,0.008725,0.02265,-0.529786,-0.067321,-1.276037,-257.682439,-0.300013,66.981617
1.2967,0.056737,-0.020753,-0.064371,-0.003482,0.006271,0.008807,0.022893,-0.529711,-0.066643,-1.276037,-257.682439,-0.300013,66.981617
1.3165,0.056425,-0.020544,-0.065286,-0.003486,0.006266,0.008872,0.023834,-0.529494,-0.064097,-1.279718,-257.687206,-0.26646,66.980199
1.3367,0.05659,-0.020425,-0.064689,-0.003497,0.00625,0.008959,0.023206,-0.529451,-0.065172,-1.279718,-257.687206,-0.26646,66.980199
1.3567,0.056236,-0.020177,-0.065481,-0.003506,0.006238,0.009029,0.023206,-0.529451,-0.065172,-1.279718,-257.687206,-0.26646,66.980199
1.3765,0.055903,-0.019788,-0.066289,-0.003514,0.006227,0.009085,0.022737,-0.528816,-0.065115,-1.280873,-257.692014,-0.238424,66.978785
1.3966,0.056117,-0.019864,-0.065381,-0.003523,0.006214,0.009164,0.022472,-0.528726,-0.06555,-1.280873,-257.692014,-0.238424,66.978785
1.4165,0.05545,-0.019951,-0.064453,-0.003531,0.006202,0.009227,0.022701,-0.528577,-0.065103,-1.280809,-257.696757,-0.190605,66.977403
1.4366,0.055962,-0.019771,-0.064534,-0.003536,0.006194,0.009309,0.022606,-0.528855,-0.064496,-1.280809,-257.696757,-0.190605,66.977403
1.4572,0.055718,-0.019886,-0.06435,-0.003541,0.006187,0.009374,0.022606,-0.528855,-0.064496,-1.280809,-257.696757,-0.190605,66.977403
1.4765,0.05524,-0.019266,-0.063786,-0.003544,0.006181,0.009427,0.022793,-0.528564,-0.063967,-1.28093,-257.701623,-0.159262,66.975995
1.4968,0.054963,-0.019485,-0.064475,-0.003557,0.006163,0.009496,0.022754,-0.5284,-0.063852,-1.28093,-257.701623,-0.159262,66.975995
1.5164,0.05507,-0.01952,-0.062661,-0.003568,0.006147,0.009551,0.022006,-0.528227,-0.064183,-1.282216,-257.706469,-0.118875,66.974606
1.5368,0.054969,-0.018966,-0.063719,-0.003578,0.006132,0.009615,0.023027,-0.528483,-0.062783,-1.282216,-257.706469,-0.118875,66.974606
1.557,0.055106,-0.01903,-0.064106,-0.003586,0.00612,0.009666,0.023027,-0.528483,-0.062783,-1.282216,-257.706469,-0.118875,66.974606
1.5766,0.054287,-0.019012,-0.06389,-0.003593,0.006109,0.009708,0.022304,-0.527719,-0.06371,-1.281383,-257.7114,-0.087817,66.973193
1.5969,0.054795,-0.019205,-0.063589,-0.003599,0.0061,0.009753,0.022054,-0.527792,-0.063738,-1.281383,-257.7114,-0.087817,66.973193
1.6166,0.054102,-0.017916,-0.062545,-0.003603,0.006092,0.009789,0.022287,-0.527977,-0.063287,-1.280735,-257.716311,-0.050055,66.971787
1.6369,0.053987,-0.018413,-0.06442,-0.003623,0.006064,0.009824,0.022225,-0.527001,-0.062595,-1.280735,-257.716311,-0.050055,66.971787
1.6567,0.054097,-0.018291,-0.064308,-0.003639,0.00604,0.009852,0.022225,-0.527001,-0.062595,-1.280735,-257.716311,-0.050055,66.971787
1.6765,0.054023,-0.017925,-0.063015,-0.003652,0.00602,0.009875,0.021189,-0.526975,-0.063901,-1.280713,-257.721324,-0.031551,66.970352
1.6965,0.053819,-0.018123,-0.062777,-0.003655,0.006014,0.0099,0.021468,-0.526919,-0.06349,-1.280713,-257.721324,-0.031551,66.970352
1.7168,0.053462,-0.017432,-0.062961,-0.003657,0.006009,0.009919,0.021722,-0.526925,-0.062469,-1.276533,-257.726262,0.003139,66.96892
1.7367,0.053439,-0.017332,-0.062141,-0.003666,0.005995,0.00994,0.021398,-0.526455,-0.062903,-1.276533,-257.726262,0.003139,66.96892
1.7568,0.053488,-0.017643,-0.061619,-0.003674,0.005983,0.009957,0.021398,-0.526455,-0.062903,-1.276533,-257.726262,0.003139,66.96892
1.7767,0.052949,-0.017475,-0.060666,-0.00368,0.005973,0.009971,0.021944,-0.526415,-0.061204,-1.276546,-257.731291,0.013323,66.967461
1.7965,0.05273,-0.01751,-0.061476,-0.003692,0.005955,0.009988,0.021962,-0.526434,-0.06094,-1.276546,-257.731291,0.013323,66.967461
1.8165,0.05258,-0.017191,-0.058945,-0.003701,0.00594,0.010001,0.021292,-0.526351,-0.061161,-1.2747,-257.736314,0.031818,66.965995
1.8367,0.052301,-0.01675,-0.061308,-0.003716,0.005917,0.010017,0.022423,-0.526299,-0.05912,-1.2747,-257.736314,0.031818,66.965995
1.8569,0.052505,-0.017105,-0.060383,-0.003728,0.005898,0.01003,0.022423,-0.526299,-0.05912,-1.2747,-257.736314,0.031818,66.965995
1.8765,0.052063,-0.016789,-0.059264,-0.003738,0.005882,0.01004,0.021589,-0.525918,-0.059964,-1.272756,-257.741334,0.045429,66.964519
1.8968,0.051956,-0.016649,-0.059783,-0.003745,0.005871,0.010053,0.021681,-0.525879,-0.059635,-1.272756,-257.741334,0.045429,66.964519
1.9167,0.051685,-0.016419,-0.060355,-0.003751,0.005861,0.010063,0.021378,-0.525545,-0.059466,-1.26914,-257.746329,0.066787,66.963032
1.9365,0.051492,-0.016289,-0.0602,-0.003754,0.005855,0.010075,0.020958,-0.525486,-0.060259,-1.26914,-257.746329,0.066787,66.963032
1.9568,0.051513,-0.016186,-0.058961,-0.003756,0.00585,0.010085,0.020958,-0.525486,-0.060259,-1.26914,-257.746329,0.066787,66.963032
1.9764,0.051614,-0.016075,-0.058881,-0.003758,0.005845,0.010093,0.021317,-0.525045,-0.05854,-1.268008,-257.751362,0.075932,66.961527
1.9971,0.051266,-0.01609,-0.061292,-0.003773,0.005822,0.010103,0.021418,-0.525076,-0.058631,-1.268008,-257.751362,0.075932,66.961527
2.0165,0.050575,-0.015674,-0.058176,-0.003784,0.005803,0.010111,0.019918,-0.524939,-0.060972,-1.267504,-257.756392,0.084725,66.960019
2.0366,0.05073,-0.015898,-0.060318,-0.003792,0.005791,0.01012,0.020832,-0.524813,-0.058396,-1.267504,-257.756392,0.084725,66.960019
2.0568,0.050742,-0.015749,-0.057752,-0.003797,0.005781,0.010128,0.020832,-0.524813,-0.058396,-1.267504,-257.756392,0.084725,66.960019
2.0768,0.0502,-0.015141,-0.05896,-0.003802,0.005773,0.010134,0.021161,-0.524648,-0.05733,-1.26478,-257.761413,0.097857,66.958499
2.0967,0.050206,-0.015788,-0.05897,-0.003811,0.005757,0.010141,0.020723,-0.524456,-0.057959,-1.26478,-257.761413,0.097857,66.958499
2.117,0.04993,-0.014919,-0.057563,-0.003819,0.005744,0.010147,0.020039,-0.524712,-0.058649,-1.26304,-257.766423,0.109226,66.956973
2.1368,0.049762,-0.015315,-0.057693,-0.003829,0.005727,0.010154,0.020539,-0.524117,-0.057636,-1.26304,-257.766423,0.109226,66.956973
2.1569,0.04986,-0.015447,-0.057957,-0.003837,0.005713,0.01016,0.020539,-0.524117,-0.057636,-1.26304,-257.766423,0.109226,66.956973
2.1772,0.049594,-0.014701,-0.056358,-0.003844,0.005701,0.010164,0.020174,-0.524343,-0.057535,-1.261287,-257.771411,0.118124,66.955443
2.197,0.049345,-0.014773,-0.057083,-0.003848,0.005694,0.01017,0.02044,-0.52413,-0.057005,-1.261287,-257.771411,0.118124,66.955443
2.2163,0.048987,-0.014498,-0.057887,-0.003851,0.005688,0.010174,0.020138,-0.523755,-0.05676,-1.258543,-257.776421,0.131196,66.95389
2.2365,0.049332,-0.01444,-0.056778,-0.003852,0.005685,0.010178,0.019528,-0.523644,-0.057782,-1.258543,-257.776421,0.131196,66.95389
2.2568,0.049239,-0.014608,-0.057808,-0.003852,0.005682,0.010182,0.019528,-0.523644,-0.057782,-1.258543,-257.776421,0.131196,66.95389
2.2765,0.048478,-0.014068,-0.055379,-0.003853,0.00568,0.010185,0.019626,-0.52351,-0.057384,-1.257857,-257.781409,0.135775,66.95234
2.2967,0.048519,-0.014206,-0.055933,-0.003862,0.005665,0.010188,0.019863,-0.52339,-0.056518,-1.257857,-257.781409,0.135775,66.95234
2.3167,0.048154,-0.013814,-0.054046,-0.00387,0.005652,0.01019,0.019896,-0.523221,-0.05561,-1.257697,-257.786413,0.139203,66.950784
2.3367,0.048015,-0.01387,-0.055303,-0.003889,0.00562,0.010193,0.020537,-0.523073,-0.054166,-1.257697,-257.786413,0.139203,66.950784
2.3569,0.048276,-0.01353,-0.055703,-0.003904,0.005593,0.010196,0.020537,-0.523073,-0.054166,-1.257697,-257.786413,0.139203,66.950784
2.3767,0.047894,-0.013831,-0.054256,-0.003917,0.00557,0.010198,0.019734,-0.522495,-0.055278,-1.255796,-257.791405,0.146691,66.94922
2.3967,0.047797,-0.013631,-0.054417,-0.003928,0.005551,0.0102,0.019925,-0.522708,-0.054806,-1.255796,-257.791405,0.146691,66.94922
2.4169,0.047358,-0.012922,-0.055168,-0.003937,0.005534,0.010202,0.019944,-0.522694,-0.054095,-1.250243,-257.796337,0.16642,66.947645
2.437,0.047211,-0.013145,-0.055362,-0.003947,0.005515,0.010204,0.019294,-0.522185,-0.055056,-1.250243,-257.796337,0.16642,66.947645
2.457,0.047233,-0.013123,-0.055073,-0.003956,0.005499,0.010205,0.019294,-0.522185,-0.055056,-1.250243,-257.796337,0.16642,66.947645
2.4769,0.047043,-0.012933,-0.055593,-0.003963,0.005485,0.010206,0.019009,-0.522109,-0.054646,-1.247884,-257.801293,0.175109,66.946048
2.4974,0.046939,-0.013184,-0.054434,-0.003965,0.005479,0.010207,0.018868,-0.522096,-0.054981,-1.247884,-257.801293,0.175109,66.946048
2.5168,0.046374,-0.012841,-0.05465,-0.003967,0.005475,0.010208,0.019075,-0.522248,-0.054109,-1.244689,-257.806238,0.186612,66.944435
2.5369,0.046086,-0.012698,-0.052531,-0.003964,0.005477,0.010209,0.018558,-0.522085,-0.054588,-1.244689,-257.806238,0.186612,66.944435
2.557,0.046514,-0.012962,-0.054553,-0.003962,0.005479,0.010209,0.018558,-0.522085,-0.054588,-1.244689,-257.806238,0.186612,66.944435
2.5769,0.046266,-0.012275,-0.053183,-0.003961,0.005481,0.01021,0.018552,-0.521965,-0.054126,-1.244142,-257.811182,0.189265,66.94282
2.5969,0.045922,-0.012436,-0.051918,-0.003968,0.005467,0.01021,0.018781,-0.52177,-0.053692,-1.244142,-257.811182,0.189265,66.94282
2.6163,0.045371,-0.012232,-0.050503,-0.003975,0.005455,0.010211,0.019339,-0.521568,-0.051593,-1.244812,-257.816128,0.18834,66.941208
2.6364,0.04551,-0.011997,-0.052146,-0.003991,0.005425,0.010212,0.019595,-0.521572,-0.050581,-1.244812,-257.816128,0.18834,66.941208
2.6564,0.045742,-0.012109,-0.053967,-0.004005,0.005399,0.010212,0.019595,-0.521572,-0.050581,-1.244812,-257.816128,0.18834,66.941208
2.6764,0.045059,-0.011959,-0.053281,-0.004016,0.005378,0.010213,0.018079,-0.52113,-0.053541,-1.243097,-257.821065,0.194042,66.939588
2.6965,0.045164,-0.011542,-0.05381,-0.004017,0.005375,0.010213,0.017987,-0.521146,-0.053384,-1.243097,-257.821065,0.194042,66.939588
2.7163,0.044667,-0.01151,-0.052558,-0.004017,0.005372,0.010213,0.017616,-0.520627,-0.053486,-1.237931,-257.825951,0.210776,66.937956
2.7364,0.044736,-0.011472,-0.052459,-0.004024,0.005359,0.010213,0.017846,-0.520781,-0.052625,-1.237931,-257.825951,0.210776,66.937956
2.7564,0.044603,-0.011453,-0.053018,-0.004029,0.005349,0.010212,0.017846,-0.520781,-0.052625,-1.237931,-257.825951,0.210776,66.937956
2.7766,0.044279,-0.011123,-0.051153,-0.004033,0.005339,0.010212,0.01742,-0.520503,-0.05259,-1.237678,-257.830873,0.212134,66.936309
2.7967,0.044187,-0.010957,-0.049853,-0.004041,0.005322,0.010211,0.017724,-0.520457,-0.051951,-1.237678,-257.830873,0.212134,66.936309
2.8164,0.043708,-0.010874,-0.05097,-0.004048,0.005308,0.010211,0.018653,-0.520147,-0.049529,-1.235584,-257.835772,0.21895,66.934658
2.8365,0.043803,-0.011025,-0.049961,-0.00406,0.005284,0.01021,0.017798,-0.520198,-0.05083,-1.235584,-257.835772,0.21895,66.934658
2.8565,0.043796,-0.011216,-0.050318,-0.004069,0.005265,0.01021,0.017798,-0.520198,-0.05083,-1.235584,-257.835772,0.21895,66.934658
2.8766,0.043203,-0.010676,-0.051214,-0.004077,0.005249,0.01021,0.017987,-0.520341,-0.049893,-1.233506,-257.840658,0.225501,66.932999
2.8964,0.043213,-0.010505,-0.051505,-0.004081,0.005239,0.01021,0.017602,-0.520177,-0.050387,-1.233506,-257.840658,0.225501,66.932999
2.9164,0.04295,-0.010303,-0.049485,-0.004084,0.005231,0.01021,0.016836,-0.519655,-0.051181,-1.229682,-257.845523,0.237523,66.931325
2.9366,0.042769,-0.01074,-0.049977,-0.004098,0.005202,0.010209,0.01764,-0.519668,-0.049616,-1.229682,-257.845523,0.237523,66.931325
2.9566,0.042776,-0.010591,-0.050882,-0.004109,0.005179,0.010209,0.01764,-0.519668,-0.049616,-1.229682,-257.845523,0.237523,66.931325
2.9764,0.042666,-0.009796,-0.050734,-0.004118,0.005159,0.010209,0.016677,-0.519704,-0.050455,-1.228614,-257.85039,0.241157,66.929643
2.9969,0.042433,-0.010053,-0.049466,-0.00412,0.005152,0.010208,0.01671,-0.519448,-0.05052,-1.228614,-257.85039,0.241157,66.929643
3.0164,0.041975,-0.00991,-0.04827,-0.004122,0.005146,0.010207,0.017093,-0.519259,-0.049142,-1.223978,-257.855216,0.255546,66.927948
3.0371,0.041802,-0.009656,-0.049176,-0.004132,0.005123,0.010206,0.017336,-0.519302,-0.048331,-1.223978,-257.855216,0.255546,66.927948
3.0567,0.042197,-0.009933,-0.050192,-0.004141,0.005104,0.010206,0.017336,-0.519302,-0.048331,-1.223978,-257.855216,0.255546,66.927948
3.0769,0.041706,-0.009257,-0.049133,-0.004148,0.005089,0.010206,0.016449,-0.519067,-0.049765,-1.223303,-257.860053,0.257994,66.926244
3.0966,0.041637,-0.009636,-0.049156,-0.004154,0.005072,0.010205,0.016516,-0.518868,-0.049458,-1.223303,-257.860053,0.257994,66.926244
3.1163,0.041074,-0.009162,-0.047093,-0.00416,0.005058,0.010204,0.016454,-0.518852,-0.048832,-1.219647,-257.864865,0.269289,66.924527
3.1366,0.041085,-0.009125,-0.047193,-0.004174,0.005027,0.010203,0.017004,-0.518611,-0.047234,-1.219647,-257.864865,0.269289,66.924527
3.1569,0.04108,-0.00898,-0.049269,-0.004185,0.005,0.010202,0.017004,-0.518611,-0.047234,-1.219647,-257.864865,0.269289,66.924527
3.1767,0.040528,-0.009181,-0.047977,-0.004194,0.004978,0.010202,0.0158,-0.518141,-0.048841,-1.217799,-257.869675,0.275001,66.922799
3.1964,0.040761,-0.008707,-0.046877,-0.004197,0.004968,0.0102,0.01589,-0.518299,-0.048443,-1.217799,-257.869675,0.275001,66.922799
3.2168,0.040217,-0.008641,-0.046329,-0.0042,0.004959,0.010199,0.016738,-0.517983,-0.046553,-1.212758,-257.874442,0.290283,66.921056
3.2365,0.040446,-0.008798,-0.046383,-0.004213,0.004927,0.010198,0.016603,-0.518076,-0.046333,-1.212758,-257.874442,0.290283,66.921056
3.2573,0.039882,-0.008481,-0.04789,-0.004224,0.004901,0.010198,0.016603,-0.518076,-0.046333,-1.212758,-257.874442,0.290283,66.921056
3.2769,0.03954,-0.008267,-0.045116,-0.004232,0.004879,0.010198,0.0153,-0.517679,-0.047461,-1.211694,-257.879228,0.293732,66.919299
3.297,0.039445,-0.008434,-0.045592,-0.00424,0.004858,0.010196,0.015781,-0.517682,-0.046467,-1.211694,-257.879228,0.293732,66.919299
3.3166,0.039426,-0.008373,-0.046826,-0.004246,0.00484,0.010195,0.016073,-0.517742,-0.045266,-1.206734,-257.883957,0.308656,66.917531
3.3366,0.039209,-0.00837,-0.046873,-0.004246,0.004836,0.010194,0.015594,-0.517799,-0.046667,-1.206734,-257.883957,0.308656,66.917531
3.3567,0.039121,-0.008145,-0.045924,-0.004247,0.004832,0.010193,0.015594,-0.517799,-0.046667,-1.206734,-257.883957,0.308656,66.917531
3.3766,0.038914,-0.007811,-0.04408,-0.004247,0.004829,0.010192,0.01554,-0.517396,-0.045497,-1.204465,-257.888694,0.315555,66.915746
3.3968,0.039044,-0.00776,-0.045001,-0.004259,0.004798,0.010191,0.015887,-0.517339,-0.044872,-1.204465,-257.888694,0.315555,66.915746
3.4167,0.038769,-0.007549,-0.044111,-0.004269,0.004772,0.01019,0.015973,-0.517084,-0.044677,-1.203993,-257.893431,0.317457,66.913958
3.4369,0.038207,-0.007143,-0.044235,-0.004286,0.004728,0.01019,0.016245,-0.517047,-0.044146,-1.203993,-257.893431,0.317457,66.913958
3.4568,0.038104,-0.00765,-0.04406,-0.004299,0.004692,0.010189,0.016245,-0.517047,-0.044146,-1.203993,-257.893431,0.317457,66.913958
3.4766,0.037672,-0.007457,-0.04358,-0.00431,0.004662,0.01019,0.015471,-0.516948,-0.043634,-1.200456,-257.89814,0.327785,66.912158
3.4973,0.037848,-0.007377,-0.043624,-0.004314,0.004647,0.010188,0.015445,-0.516934,-0.043563,-1.200456,-257.89814,0.327785,66.912158
3.5169,0.037181,-0.007264,-0.043801,-0.004317,0.004635,0.010188,0.015477,-0.516739,-0.043302,-1.193803,-257.90279,0.347606,66.910337
3.537,0.03777,-0.006957,-0.043938,-0.004318,0.004628,0.010186,0.014899,-0.516763,-0.04374,-1.193803,-257.90279,0.347606,66.910337
3.5572,0.037371,-0.007563,-0.044579,-0.004319,0.004621,0.010184,0.014899,-0.516763,-0.04374,-1.193803,-257.90279,0.347606,66.910337
3.5774,0.036986,-0.006795,-0.042183,-0.00432,0.004615,0.010183,0.014471,-0.516854,-0.044152,-1.192357,-257.907462,0.35219,66.908498
3.5968,0.036873,-0.006912,-0.043521,-0.004323,0.004604,0.010181,0.014853,-0.516626,-0.043318,-1.192357,-257.907462,0.35219,66.908498
3.6168,0.036714,-0.006779,-0.042713,-0.004326,0.004595,0.01018,0.014553,-0.516276,-0.043196,-1.191359,-257.912128,0.355494,66.906655
3.6372,0.036505,-0.006792,-0.041509,-0.004335,0.004568,0.010179,0.014895,-0.516303,-0.04274,-1.191359,-257.912128,0.355494,66.906655
3.6565,0.036536,-0.006756,-0.043067,-0.004342,0.004545,0.010178,0.014895,-0.516303,-0.04274,-1.191359,-257.912128,0.355494,66.906655
3.6774,0.035666,-0.006466,-0.043825,-0.004348,0.004527,0.010178,0.014405,-0.516083,-0.042641,-1.190221,-257.916784,0.35889,66.904807
3.6972,0.035795,-0.006565,-0.041653,-0.004351,0.004514,0.010175,0.013951,-0.516017,-0.043067,-1.190221,-257.916784,0.35889,66.904807
3.717,0.035869,-0.006308,-0.042583,-0.004353,0.004504,0.010174,0.014425,-0.515973,-0.041329,-1.186226,-257.921408,0.37053,66.902946
3.7369,0.035677,-0.006133,-0.044316,-0.00436,0.00448,0.010172,0.014176,-0.51585,-0.042453,-1.186226,-257.921408,0.37053,66.902946
3.7569,0.035924,-0.00647,-0.040429,-0.004365,0.00446,0.010172,0.014176,-0.51585,-0.042453,-1.186226,-257.921408,0.37053,66.902946
3.7768,0.035239,-0.005707,-0.041926,-0.00437,0.004444,0.010171,0.015136,-0.515858,-0.040003,-1.18501,-257.926034,0.374327,66.901076
3.7971,0.035002,-0.006009,-0.041387,-0.004382,0.004408,0.010171,0.014599,-0.515592,-0.040735,-1.18501,-257.926034,0.374327,66.901076
3.817,0.035099,-0.005341,-0.040866,-0.004391,0.004377,0.010171,0.013767,-0.515425,-0.041064,-1.181609,-257.930641,0.384391,66.89919
3.8367,0.034855,-0.005706,-0.04053,-0.004408,0.004318,0.01017,0.014214,-0.514952,-0.040867,-1.181609,-257.930641,0.384391,66.89919
3.8569,0.034782,-0.005915,-0.041377,-0.004421,0.004269,0.01017,0.014214,-0.514952,-0.040867,-1.181609,-257.930641,0.384391,66.89919
3.8769,0.034357,-0.005198,-0.041533,-0.004432,0.004228,0.01017,0.013511,-0.515289,-0.040954,-1.177716,-257.935214,0.395756,66.897292
3.8969,0.034084,-0.004952,-0.03979,-0.004433,0.004218,0.010168,0.013355,-0.515048,-0.041143,-1.177716,-257.935214,0.395756,66.897292
3.9163,0.033595,-0.004995,-0.039159,-0.004434,0.004209,0.010167,0.013662,-0.51441,-0.03947,-1.169335,-257.939694,0.420729,66.895374
3.9366,0.033452,-0.005336,-0.040463,-0.004445,0.004166,0.010166,0.013625,-0.514579,-0.039171,-1.169335,-257.939694,0.420729,66.895374
3.9569,0.033769,-0.005226,-0.038608,-0.004453,0.00413,0.010165,0.013625,-0.514579,-0.039171,-1.169335,-257.939694,0.420729,66.895374
3.9768,0.033202,-0.004695,-0.038519,-0.00446,0.0041,0.010164,0.013905,-0.514662,-0.038182,-1.168448,-257.944222,0.423855,66.893429
3.9968,0.033246,-0.004763,-0.039543,-0.004467,0.004069,0.010164,0.013745,-0.514501,-0.03827,-1.168448,-257.944222,0.423855,66.893429
4.0167,0.032554,-0.004875,-0.03894,-0.004473,0.004043,0.010164,0.012949,-0.514229,-0.039221,-1.162429,-257.94869,0.441448,66.891466
4.0368,0.032562,-0.004523,-0.038797,-0.004472,0.004037,0.010161,0.012715,-0.514458,-0.038949,-1.162429,-257.94869,0.441448,66.891466
4.0569,0.032522,-0.004687,-0.038834,-0.004471,0.004033,0.010159,0.012715,-0.514458,-0.038949,-1.162429,-257.94869,0.441448,66.891466
4.077,0.032091,-0.004727,-0.038991,-0.004471,0.004028,0.010157,0.012542,-0.514126,-0.038409,-1.159297,-257.953157,0.450672,66.889482
4.0965,0.032272,-0.004361,-0.039501,-0.004473,0.004012,0.010155,0.012386,-0.514193,-0.038598,-1.159297,-257.953157,0.450672,66.889482
4.1166,0.031871,-0.004416,-0.037809,-0.004474,0.003998,0.010153,0.011994,-0.51383,-0.039177,-1.158882,-257.957623,0.452843,66.887493
4.1373,0.0316,-0.004049,-0.038291,-0.004479,0.003972,0.010152,0.012532,-0.514025,-0.037914,-1.158882,-257.957623,0.452843,66.887493
4.1569,0.031652,-0.004288,-0.038155,-0.004483,0.00395,0.010151,0.012532,-0.514025,-0.037914,-1.158882,-257.957623,0.452843,66.887493
4.1768,0.031223,-0.004194,-0.03758,-0.004486,0.003932,0.01015,0.012017,-0.513742,-0.03773,-1.157414,-257.962076,0.457503,66.885499
4.1969,0.031208,-0.004453,-0.035644,-0.00449,0.003906,0.010149,0.012014,-0.51376,-0.03762,-1.157414,-257.962076,0.457503,66.885499
4.2167,0.030774,-0.003742,-0.037054,-0.004493,0.003885,0.010147,0.012895,-0.513999,-0.035322,-1.153931,-257.9665,0.467926,66.883492
4.2365,0.031102,-0.003795,-0.037603,-0.0045,0.003843,0.010147,0.011966,-0.51344,-0.03688,-1.153931,-257.9665,0.467926,66.883492
4.2565,0.031428,-0.004193,-0.035383,-0.004505,0.003808,0.010146,0.011966,-0.51344,-0.03688,-1.153931,-257.9665,0.467926,66.883492
4.2765,0.030402,-0.004023,-0.036577,-0.00451,0.003779,0.010145,0.013205,-0.513705,-0.034958,-1.151593,-257.970917,0.475355,66.88147
4.2966,0.030821,-0.003493,-0.036416,-0.004513,0.003765,0.010146,0.012588,-0.513676,-0.035573,-1.151593,-257.970917,0.475355,66.88147
4.3163,0.029864,-0.003423,-0.036472,-0.004515,0.003754,0.010146,0.012115,-0.51303,-0.036095,-1.146215,-257.975269,0.492062,66.879436
4.3374,0.030049,-0.003108,-0.0352,-0.004519,0.003714,0.010144,0.011336,-0.513073,-0.036422,-1.146215,-257.975269,0.492062,66.879436
4.3567,0.029762,-0.0035,-0.034299,-0.004522,0.003682,0.010143,0.011336,-0.513073,-0.036422,-1.146215,-257.975269,0.492062,66.879436
4.3764,0.028928,-0.003502,-0.035474,-0.004524,0.003655,0.010142,0.01209,-0.513037,-0.033874,-1.14482,-257.979644,0.495981,66.877381
4.3965,0.028695,-0.003189,-0.034888,-0.004527,0.003632,0.010141,0.011556,-0.513077,-0.034482,-1.14482,-257.979644,0.495981,66.877381
4.4171,0.028908,-0.003131,-0.036471,-0.004529,0.003613,0.010141,0.010766,-0.512758,-0.034567,-1.140211,-257.983955,0.511458,66.875317
4.4368,0.028734,-0.002957,-0.034228,-0.004526,0.003589,0.010139,0.010346,-0.512782,-0.036281,-1.140211,-257.983955,0.511458,66.875317
4.4568,0.028972,-0.003392,-0.034496,-0.004525,0.003569,0.010137,0.010346,-0.512782,-0.036281,-1.140211,-257.983955,0.511458,66.875317
4.4764,0.0283,-0.002863,-0.037306,-0.004523,0.003553,0.010135,0.011199,-0.512931,-0.034072,-1.138158,-257.988273,0.517931,66.873234
4.4971,0.028492,-0.002748,-0.035092,-0.004522,0.003536,0.010133,0.010395,-0.51274,-0.035342,-1.138158,-257.988273,0.517931,66.873234
4.5164,0.028106,-0.002662,-0.033407,-0.004522,0.003522,0.010132,0.010459,-0.512316,-0.034769,-1.13617,-257.992562,0.527858,66.871143
4.5376,0.027832,-0.002606,-0.034087,-0.004529,0.003467,0.010134,0.011009,-0.512366,-0.033513,-1.13617,-257.992562,0.527858,66.871143
4.5572,0.027778,-0.002776,-0.033407,-0.004535,0.003421,0.010135,0.011009,-0.512366,-0.033513,-1.13617,-257.992562,0.527858,66.871143
4.5765,0.027531,-0.002291,-0.032188,-0.00454,0.003384,0.010136,0.01056,-0.512338,-0.032983,-1.134963,-257.996845,0.532826,66.869044
4.5966,0.02761,-0.002578,-0.032594,-0.004544,0.003342,0.010137,0.010766,-0.512193,-0.032609,-1.134963,-257.996845,0.532826,66.869044
4.6166,0.02701,-0.002248,-0.032593,-0.004547,0.003307,0.010138,0.01085,-0.512195,-0.032273,-1.128032,-258.001057,0.553619,66.866922
4.6368,0.027213,-0.00227,-0.031164,-0.004548,0.003262,0.010138,0.010424,-0.51199,-0.032549,-1.128032,-258.001057,0.553619,66.866922
4.6568,0.027308,-0.002081,-0.032887,-0.00455,0.003225,0.010139,0.010424,-0.51199,-0.032549,-1.128032,-258.001057,0.553619,66.866922
4.6766,0.026655,-0.00209,-0.033051,-0.004551,0.003196,0.010139,0.010354,-0.511661,-0.032464,-1.124336,-258.005258,0.565433,66.864774
4.6965,0.026254,-0.002102,-0.031921,-0.00455,0.003145,0.010139,0.010107,-0.511706,-0.032655,-1.124336,-258.005258,0.565433,66.864774
4.7166,0.02604,-0.001535,-0.031856,-0.00455,0.003104,0.01014,0.009836,-0.511737,-0.031601,-1.119431,-258.009413,0.582344,66.862604
4.7365,0.026542,-0.001865,-0.030466,-0.004547,0.003031,0.010142,0.009792,-0.511311,-0.031818,-1.119431,-258.009413,0.582344,66.862604
4.7574,0.025808,-0.002104,-0.031188,-0.004545,0.002972,0.010143,0.009792,-0.511311,-0.031818,-1.119431,-258.009413,0.582344,66.862604
4.7765,0.025578,-0.001664,-0.032829,-0.004543,0.002924,0.010144,0.009716,-0.511719,-0.03076,-1.115639,-258.013531,0.596437,66.860416
4.7968,0.025596,-0.001488,-0.030895,-0.004538,0.002918,0.010142,0.009353,-0.511576,-0.03152,-1.115639,-258.013531,0.596437,66.860416
4.8166,0.025219,-0.001822,-0.030387,-0.004533,0.002913,0.01014,0.009703,-0.511148,-0.030576,-1.108571,-258.017554,0.624132,66.858205
4.8369,0.025286,-0.001716,-0.031142,-0.004533,0.002904,0.010138,0.009715,-0.511542,-0.030387,-1.108571,-258.017554,0.624132,66.858205
4.8567,0.024869,-0.001695,-0.031473,-0.004533,0.002896,0.010136,0.009715,-0.511542,-0.030387,-1.108571,-258.017554,0.624132,66.858205
4.8767,0.024864,-0.001335,-0.030226,-0.004533,0.002889,0.010135,0.008635,-0.511314,-0.031049,-1.108899,-258.021622,0.626303,66.855967
4.8966,0.024882,-0.001683,-0.030848,-0.004525,0.002852,0.010136,0.008946,-0.511213,-0.030664,-1.108899,-258.021622,0.626303,66.855967
4.9168,0.024223,-0.001309,-0.029937,-0.004518,0.002821,0.010136,0.009011,-0.511344,-0.030526,-1.107691,-258.025681,0.629373,66.853725
4.9366,0.024043,-0.001535,-0.028569,-0.004512,0.002784,0.010136,0.008954,-0.5111,-0.029974,-1.107691,-258.025681,0.629373,66.853725
4.9565,0.024289,-0.001243,-0.030114,-0.004508,0.002754,0.010137,0.008954,-0.5111,-0.029974,-1.107691,-258.025681,0.629373,66.853725
4.9765,0.023612,-0.001439,-0.028242,-0.004504,0.002729,0.010137,0.008747,-0.510888,-0.02969,-1.10607,-258.029705,0.640719,66.851475
4.9969,0.023846,-0.001279,-0.030027,-0.0045,0.0027,0.010137,0.008914,-0.511014,-0.029056,-1.10607,-258.029705,0.640719,66.851475
5.0168,0.023114,-0.000764,-0.029122,-0.004497,0.002677,0.010137,0.008394,-0.510958,-0.029705,-1.103236,-258.033688,0.655301,66.849211
5.0368,0.023194,-0.001358,-0.028105,-0.004479,0.002604,0.010141,0.008269,-0.510581,-0.029158,-1.103236,-258.033688,0.655301,66.849211
5.0571,0.022984,-0.000987,-0.028443,-0.004465,0.002544,0.010144,0.008269,-0.510581,-0.029158,-1.103236,-258.033688,0.655301,66.849211
5.0766,0.022794,-0.000546,-0.028948,-0.004453,0.002496,0.010145,0.008294,-0.510663,-0.028018,-1.101498,-258.037661,0.663333,66.84693
5.0969,0.022702,-0.000927,-0.028946,-0.004442,0.00245,0.010146,0.008168,-0.510516,-0.028345,-1.101498,-258.037661,0.663333,66.84693
5.1168,0.022335,-0.000763,-0.028374,-0.004432,0.002412,0.010147,0.007804,-0.510631,-0.028627,-1.097325,-258.041511,0.69323,66.844648
5.1369,0.022168,-0.000625,-0.026907,-0.004418,0.002388,0.010146,0.007854,-0.51056,-0.02838,-1.097325,-258.041511,0.69323,66.844648
5.1569,0.02234,-0.000982,-0.027293,-0.004407,0.002367,0.010145,0.007854,-0.51056,-0.02838,-1.097325,-258.041511,0.69323,66.844648
5.1773,0.021625,-0.00068,-0.026633,-0.004398,0.002351,0.010144,0.00824,-0.510686,-0.026869,-1.095384,-258.045373,0.706785,66.842324
5.1967,0.021535,-0.000264,-0.026928,-0.004398,0.002345,0.010142,0.008139,-0.510598,-0.026724,-1.095384,-258.045373,0.706785,66.842324
5.217,0.021228,-0.000356,-0.026811,-0.004398,0.002341,0.01014,0.007666,-0.51,-0.026604,-1.095578,-258.049209,0.71843,66.839992
5.2366,0.021465,-0.000425,-0.026547,-0.004376,0.002273,0.010144,0.007559,-0.510153,-0.026776,-1.095578,-258.049209,0.71843,66.839992
5.257,0.020709,-0.000304,-0.027128,-0.004358,0.002218,0.010147,0.007559,-0.510153,-0.026776,-1.095578,-258.049209,0.71843,66.839992
5.2765,0.020796,-0.000483,-0.026724,-0.004344,0.002174,0.010148,0.006694,-0.510013,-0.026703,-1.094908,-258.053049,0.719333,66.837654
5.2966,0.020828,-0.000287,-0.024781,-0.004306,0.002127,0.010151,0.006865,-0.510118,-0.026663,-1.094908,-258.053049,0.719333,66.837654
5.3163,0.020424,-0.000347,-0.025391,-0.004276,0.00209,0.010152,0.008056,-0.510058,-0.024462,-1.092175,-258.056774,0.747259,66.835315
5.3366,0.020136,-0.000118,-0.02476,-0.004278,0.002074,0.01015,0.007521,-0.510168,-0.025292,-1.092175,-258.056774,0.747259,66.835315
5.3568,0.020255,-0.000223,-0.025779,-0.00428,0.002062,0.010148,0.007521,-0.510168,-0.025292,-1.092175,-258.056774,0.747259,66.835315
5.3769,0.019811,-2.5e-05,-0.025247,-0.004282,0.002051,0.010147,0.006933,-0.509962,-0.025355,-1.094567,-258.06049,0.765672,66.832952
5.3969,0.020223,-0.000209,-0.026562,-0.004255,0.001999,0.01015,0.006914,-0.509911,-0.025263,-1.094567,-258.06049,0.765672,66.832952
5.4169,0.019244,0.000276,-0.02523,-0.004234,0.001957,0.010152,0.006543,-0.50996,-0.026239,-1.092016,-258.064207,0.769308,66.830568
5.437,0.019421,0.000204,-0.023655,-0.004181,0.001866,0.010156,0.006385,-0.509594,-0.025303,-1.092016,-258.064207,0.769308,66.830568
5.4573,0.019427,4.4e-05,-0.023562,-0.004139,0.001792,0.010158,0.006385,-0.509594,-0.025303,-1.092016,-258.064207,0.769308,66.830568
5.4766,0.018849,7e-05,-0.02337,-0.004106,0.001733,0.01016,0.007235,-0.509728,-0.023134,-1.092072,-258.06786,0.786458,66.828186
5.4965,0.018852,0.000336,-0.023619,-0.004119,0.001723,0.010158,0.007097,-0.509743,-0.02318,-1.092072,-258.06786,0.786458,66.828186
5.5164,0.018379,0.000277,-0.022814,-0.00413,0.001715,0.010156,0.006682,-0.509465,-0.023304,-1.093423,-258.071343,0.827994,66.82582
5.5369,0.018425,0.000387,-0.023503,-0.004119,0.001679,0.010157,0.006734,-0.509577,-0.02284,-1.093423,-258.071343,0.827994,66.82582
5.5566,0.018167,0.00031,-0.02404,-0.00411,0.001649,0.010158,0.006734,-0.509577,-0.02284,-1.093423,-258.071343,0.827994,66.82582
5.5768,0.017917,0.000667,-0.024346,-0.004104,0.001625,0.010158,0.005737,-0.509466,-0.023615,-1.089995,-258.074909,0.826865,66.823384
5.5967,0.018025,0.000336,-0.023323,-0.00402,0.001543,0.010157,0.005622,-0.509343,-0.023862,-1.089995,-258.074909,0.826865,66.823384
5.6166,0.017554,0.000721,-0.022093,-0.003954,0.001477,0.010156,0.006001,-0.509471,-0.023,-1.087983,-258.078438,0.840049,66.82093
5.6365,0.017661,0.000218,-0.022199,-0.00394,0.001417,0.010158,0.006255,-0.50918,-0.022158,-1.087983,-258.078438,0.840049,66.82093
5.6567,0.01786,0.000232,-0.022901,-0.00393,0.001368,0.01016,0.006255,-0.50918,-0.022158,-1.087983,-258.078438,0.840049,66.82093
5.6766,0.017295,0.000169,-0.022735,-0.003922,0.001329,0.010161,0.006021,-0.50957,-0.022485,-1.095349,-258.081825,0.874025,66.818514
5.697,0.017096,0.000662,-0.020991,-0.003909,0.001362,0.010157,0.005871,-0.509616,-0.02254,-1.095349,-258.081825,0.874025,66.818514
5.7167,0.016725,0.000298,-0.0196,-0.003899,0.001388,0.010153,0.006268,-0.509181,-0.020669,-1.090841,-258.085204,0.893549,66.816024
5.7369,0.016509,0.000335,-0.02178,-0.003935,0.001417,0.010148,0.006683,-0.509565,-0.019677,-1.090841,-258.085204,0.893549,66.816024
5.7567,0.016639,0.000519,-0.020564,-0.003963,0.00144,0.010144,0.006683,-0.509565,-0.019677,-1.090841,-258.085204,0.893549,66.816024
5.7766,0.016174,0.000987,-0.023227,-0.003986,0.001458,0.010141,0.00599,-0.509312,-0.02014,-1.096177,-258.088611,0.889966,66.813551
5.7967,0.01565,0.000499,-0.021203,-0.003894,0.001366,0.010142,0.005295,-0.509127,-0.021349,-1.096177,-258.088611,0.889966,66.813551
5.8164,0.015892,0.000779,-0.021902,-0.003822,0.001293,0.010141,0.004712,-0.509337,-0.020882,-1.090499,-258.092041,0.871095,66.81109
5.8375,0.015781,0.000726,-0.019494,-0.003704,0.001217,0.010134,0.004715,-0.509119,-0.02179,-1.090499,-258.092041,0.871095,66.81109
5.8572,0.01585,0.000511,-0.019881,-0.003613,0.001156,0.010128,0.004715,-0.509119,-0.02179,-1.090499,-258.092041,0.871095,66.81109
5.8772,0.015198,0.000652,-0.020634,-0.003544,0.001107,0.010122,0.005556,-0.509332,-0.019466,-1.09883,-258.095325,0.908444,66.808662
5.8966,0.015409,0.0009,-0.019877,-0.003547,0.001116,0.010116,0.00518,-0.509288,-0.019894,-1.09883,-258.095325,0.908444,66.808662
5.9166,0.014668,0.000807,-0.01949,-0.00355,0.001123,0.010112,0.005165,-0.508964,-0.019571,-1.118275,-258.098413,0.961163,66.806304
5.9369,0.015102,0.000826,-0.019487,-0.0035,0.001079,0.010104,0.004761,-0.509083,-0.019482,-1.118275,-258.098413,0.961163,66.806304
5.9574,0.014615,0.00081,-0.01926,-0.003463,0.001045,0.010097,0.004761,-0.509083,-0.019482,-1.118275,-258.098413,0.961163,66.806304
5.9769,0.014515,0.000664,-0.01834,-0.003434,0.001017,0.010091,0.004644,-0.509045,-0.018834,-1.11815,-258.101653,0.95837,66.803839
5.9969,0.014348,0.000859,-0.017613,-0.003422,0.001006,0.010085,0.004833,-0.509121,-0.01859,-1.11815,-258.101653,0.95837,66.803839
6.0167,0.014266,0.001235,-0.019321,-0.003413,0.000996,0.010079,0.005258,-0.509028,-0.017295,-1.12473,-258.10481,0.982438,66.801385
6.0369,0.014147,0.000845,-0.017975,-0.003341,0.000897,0.010078,0.00448,-0.508698,-0.019133,-1.12473,-258.10481,0.982438,66.801385
6.0568,0.014103,0.000903,-0.019018,-0.003286,0.000818,0.010076,0.00448,-0.508698,-0.019133,-1.12473,-258.10481,0.982438,66.801385
6.0766,0.013742,0.001054,-0.018171,-0.003244,0.000755,0.010074,0.004263,-0.508961,-0.018598,-1.125602,-258.107978,0.98642,66.798911
6.0969,0.013702,0.001332,-0.018757,-0.003208,0.000743,0.010066,0.004334,-0.508915,-0.018373,-1.125602,-258.107978,0.98642,66.798911
6.1168,0.013286,0.000978,-0.016654,-0.003181,0.000733,0.010059,0.004037,-0.508553,-0.018446,-1.131689,-258.110938,1.029599,66.796469
6.1368,0.013549,0.0012,-0.015926,-0.003207,0.000739,0.010049,0.004721,-0.508915,-0.016796,-1.131689,-258.110938,1.029599,66.796469
6.1568,0.013199,0.001218,-0.017941,-0.003227,0.000743,0.010041,0.004721,-0.508915,-0.016796,-1.131689,-258.110938,1.029599,66.796469
6.1766,0.012864,0.001305,-0.014656,-0.003243,0.000746,0.010036,0.003918,-0.508667,-0.017522,-1.137527,-258.113964,1.039329,66.793962
6.1968,0.012883,0.00144,-0.019343,-0.003216,0.000692,0.010029,0.004503,-0.508652,-0.016304,-1.137527,-258.113964,1.039329,66.793962
6.2168,0.012601,0.001596,-0.017607,-0.003195,0.000649,0.010023,0.002916,-0.508438,-0.019025,-1.130026,-258.116996,1.02856,66.791456
6.2367,0.012285,0.001176,-0.017887,-0.003014,0.000512,0.010019,0.003557,-0.508333,-0.017713,-1.130026,-258.116996,1.02856,66.791456
6.2564,0.012187,0.001214,-0.016818,-0.002878,0.000403,0.010014,0.003557,-0.508333,-0.017713,-1.130026,-258.116996,1.02856,66.791456
6.2768,0.011875,0.001066,-0.015348,-0.002774,0.000317,0.010009,0.003478,-0.508684,-0.0164,-1.129849,-258.119978,1.042371,66.788931
6.2968,0.012302,0.001152,-0.016121,-0.002753,0.000353,0.009988,0.003694,-0.508758,-0.015924,-1.129849,-258.119978,1.042371,66.788931
6.3168,0.011683,0.001252,-0.01532,-0.002737,0.00038,0.009971,0.004003,-0.508771,-0.01584,-1.163452,-258.122452,1.117277,66.786661
6.3368,0.011974,0.001741,-0.014848,-0.00275,0.000394,0.009949,0.003877,-0.508695,-0.015351,-1.163452,-258.122452,1.117277,66.786661
6.357,0.011424,0.001383,-0.015483,-0.00276,0.000405,0.009933,0.003877,-0.508695,-0.015351,-1.163452,-258.122452,1.117277,66.786661
6.377,0.0115,0.001267,-0.014321,-0.002769,0.000413,0.00992,0.003414,-0.508538,-0.015067,-1.17058,-258.125256,1.123804,66.784134
6.397,0.011333,0.001594,-0.015119,-0.002745,0.000392,0.009899,0.00372,-0.508594,-0.014715,-1.17058,-258.125256,1.123804,66.784134
6.4164,0.010859,0.001156,-0.012739,-0.002727,0.000375,0.009884,0.003535,-0.508333,-0.014804,-1.166524,-258.128068,1.11481,66.781622
6.4368,0.010649,0.001199,-0.014554,-0.002801,0.000418,0.009822,0.004286,-0.508761,-0.012902,-1.166524,-258.128068,1.11481,66.781622
6.4568,0.011166,0.00106,-0.013576,-0.002858,0.000451,0.009777,0.004286,-0.508761,-0.012902,-1.166524,-258.128068,1.11481,66.781622
6.4768,0.010287,0.001669,-0.013216,-0.002903,0.000477,0.009744,0.004128,-0.508876,-0.013162,-1.168607,-258.130854,1.12183,66.77911
6.4965,0.010096,0.001526,-0.015826,-0.002874,0.000457,0.009725,0.003878,-0.508633,-0.013137,-1.168607,-258.130854,1.12183,66.77911
6.5168,0.010124,0.001495,-0.01281,-0.002852,0.000441,0.009711,0.001936,-0.508395,-0.015526,-1.146661,-258.133586,1.08324,66.776709
6.5369,0.010044,0.001312,-0.014326,-0.002753,0.000373,0.00969,0.003445,-0.508456,-0.013029,-1.146661,-258.133586,1.08324,66.776709
6.557,0.010229,0.001566,-0.014005,-0.002677,0.00032,0.009674,0.003445,-0.508456,-0.013029,-1.146661,-258.133586,1.08324,66.776709
6.5765,0.009575,0.001595,-0.01273,-0.00262,0.000278,0.00966,0.002968,-0.508364,-0.013599,-1.149898,-258.136371,1.091635,66.774241
6.5965,0.009703,0.001537,-0.013083,-0.002485,0.000204,0.009651,0.003001,-0.508362,-0.013199,-1.149898,-258.136371,1.091635,66.774241
6.6166,0.009586,0.001565,-0.015054,-0.002384,0.000145,0.009642,0.00295,-0.50841,-0.012786,-1.16974,-258.138965,1.134747,66.771844
6.6365,0.00944,0.001194,-0.011664,-0.002067,5.6e-05,0.009665,0.001994,-0.50838,-0.014846,-1.16974,-258.138965,1.134747,66.771844
6.657,0.00968,0.001327,-0.01424,-0.001833,-1.7e-05,0.009679,0.001994,-0.50838,-0.014846,-1.16974,-258.138965,1.134747,66.771844
6.6768,0.009113,0.001494,-0.012868,-0.00166,-7.6e-05,0.009688,0.002321,-0.508614,-0.013847,-1.194454,-258.141457,1.177354,66.769455
6.6968,0.009006,0.001472,-0.012084,-0.001649,-6.6e-05,0.009656,0.0024,-0.508554,-0.013421,-1.194454,-258.141457,1.177354,66.769455
6.7166,0.009014,0.001199,-0.012449,-0.001642,-5.9e-05,0.009632,0.002803,-0.508491,-0.011879,-1.26932,-258.143081,1.25222,66.767792
6.7367,0.008671,0.001816,-0.011528,-0.001713,1e-06,0.009559,0.002676,-0.508737,-0.012387,-1.26932,-258.143081,1.25222,66.767792
6.7568,0.00854,0.001549,-0.012517,-0.001767,4.8e-05,0.009505,0.002676,-0.508737,-0.012387,-1.26932,-258.143081,1.25222,66.767792
6.7769,0.008579,0.001157,-0.010887,-0.001809,8.4e-05,0.009464,0.002091,-0.508413,-0.012133,-1.29596,-258.145387,1.301175,66.765442
6.7968,0.008535,0.00139,-0.011147,-0.001785,6.4e-05,0.009384,0.002466,-0.508576,-0.011579,-1.29596,-258.145387,1.301175,66.765442
6.8167,0.008063,0.001396,-0.011227,-0.001767,4.8e-05,0.009325,0.002794,-0.508575,-0.010855,-1.271643,-258.147764,1.263359,66.763128
6.8368,0.008008,0.001669,-0.011805,-0.001733,2.8e-05,0.009253,0.002374,-0.508572,-0.011181,-1.271643,-258.147764,1.263359,66.763128
6.8568,0.007971,0.001373,-0.011595,-0.001708,1.2e-05,0.0092,0.002374,-0.508572,-0.011181,-1.271643,-258.147764,1.263359,66.763128
6.8767,0.008126,0.001406,-0.01059,-0.001689,-0.0,0.009162,0.001984,-0.50859,-0.011205,-1.272325,-258.150168,1.26758,66.76076
6.8968,0.007776,0.001766,-0.009563,-0.001656,-1.4e-05,0.009109,0.002283,-0.508579,-0.010905,-1.272325,-258.150168,1.26758,66.76076
6.9168,0.007658,0.001287,-0.010738,-0.001631,-2.5e-05,0.009071,0.002845,-0.50821,-0.009273,-1.277604,-258.1525,1.277625,66.758428
6.9368,0.007333,0.00175,-0.009578,-0.001608,-2.2e-05,0.009012,0.002236,-0.508644,-0.010599,-1.277604,-258.1525,1.277625,66.758428
6.9577,0.007449,0.001248,-0.010034,-0.001591,-2.1e-05,0.008969,0.002236,-0.508644,-0.010599,-1.277604,-258.1525,1.277625,66.758428
6.9766,0.006896,0.001518,-0.010148,-0.001578,-2e-05,0.008939,0.002263,-0.508726,-0.009653,-1.28325,-258.154797,1.285693,66.756111
6.9968,0.007331,0.001547,-0.009925,-0.00152,-4e-05,0.008829,0.002037,-0.508618,-0.009809,-1.28325,-258.154797,1.285693,66.756111
7.0165,0.007146,0.001673,-0.009466,-0.001476,-5.6e-05,0.00875,0.002219,-0.508428,-0.00964,-1.288454,-258.15706,1.290376,66.753833
7.0366,0.006924,0.00138,-0.007787,-0.001488,-0.000128,0.008656,0.002307,-0.508315,-0.009467,-1.288454,-258.15706,1.290376,66.753833
7.057,0.006683,0.001193,-0.010741,-0.001497,-0.000183,0.008591,0.002307,-0.508315,-0.009467,-1.288454,-258.15706,1.290376,66.753833
7.0767,0.006745,0.001146,-0.009156,-0.001504,-0.000227,0.008547,0.001143,-0.50878,-0.010375,-1.298624,-258.159246,1.303998,66.751604
7.0967,0.006656,0.001509,-0.008406,-0.00133,-0.000172,0.008545,0.001511,-0.508801,-0.009845,-1.298624,-258.159246,1.303998,66.751604
7.1167,0.00682,0.001687,-0.00908,-0.001202,-0.000133,0.008542,0.002322,-0.50848,-0.008136,-1.278262,-258.161318,1.301468,66.749359
7.137,0.006453,0.001551,-0.008399,-0.001259,-0.000199,0.00844,0.002199,-0.508308,-0.008987,-1.278262,-258.161318,1.301468,66.749359
7.1568,0.006329,0.001194,-0.00803,-0.001302,-0.000251,0.00837,0.002199,-0.508308,-0.008987,-1.278262,-258.161318,1.301468,66.749359
7.1768,0.006067,0.001336,-0.00834,-0.001334,-0.000292,0.008322,0.002188,-0.508794,-0.007706,-1.338592,-258.163215,1.349727,66.747368
7.1969,0.00614,0.001504,-0.008259,-0.00135,-0.000241,0.008103,0.00203,-0.508734,-0.007928,-1.338592,-258.163215,1.349727,66.747368
7.2169,0.005885,0.001544,-0.00793,-0.001362,-0.000201,0.007951,0.001887,-0.508487,-0.008003,-1.299144,-258.16514,1.327448,66.745225
7.2368,0.005739,0.001399,-0.006574,-0.0013,-0.000248,0.007853,0.001843,-0.508445,-0.007923,-1.299144,-258.16514,1.327448,66.745225
7.2567,0.005504,0.001047,-0.008208,-0.001253,-0.000285,0.007787,0.001843,-0.508445,-0.007923,-1.299144,-258.16514,1.327448,66.745225
7.277,0.005482,0.00137,-0.008518,-0.001219,-0.000314,0.007745,0.001261,-0.508944,-0.007878,-1.286163,-258.167063,1.307683,66.743148
7.2967,0.005568,0.001362,-0.007823,-0.001025,-0.000265,0.007735,0.001204,-0.50881,-0.0081,-1.286163,-258.167063,1.307683,66.743148
7.3167,0.005072,0.001516,-0.005513,-0.000883,-0.00023,0.007727,0.001539,-0.508632,-0.00758,-1.301507,-258.168868,1.333706,66.741103
7.337,0.005138,0.001495,-0.007506,-0.001028,-0.000271,0.00716,0.002193,-0.508491,-0.005689,-1.301507,-258.168868,1.333706,66.741103
7.3572,0.005029,0.001221,-0.007472,-0.001136,-0.000301,0.00679,0.002193,-0.508491,-0.005689,-1.301507,-258.168868,1.333706,66.741103
7.377,0.004781,0.001048,-0.005024,-0.001218,-0.000323,0.006549,0.001187,-0.508773,-0.007193,-1.376482,-258.170445,1.394246,66.739371
7.3969,0.004908,0.001336,-0.007623,-0.001152,-0.000267,0.006538,0.001602,-0.508844,-0.006281,-1.376482,-258.170445,1.394246,66.739371
7.4168,0.004567,0.001114,-0.005321,-0.001103,-0.000224,0.006535,0.000997,-0.508656,-0.007483,-1.301493,-258.171476,1.319257,66.738175
7.437,0.004836,0.001497,-0.005181,-0.001118,-0.00019,0.006322,0.001776,-0.508859,-0.005507,-1.301493,-258.171476,1.319257,66.738175
7.4566,0.004901,0.001475,-0.005024,-0.00113,-0.000162,0.006182,0.001776,-0.508859,-0.005507,-1.301493,-258.171476,1.319257,66.738175
7.4765,0.004653,0.001679,-0.004033,-0.001139,-0.000139,0.006091,0.002293,-0.508528,-0.004752,-1.285955,-258.17304,1.314867,66.73644
7.4969,0.004578,0.001259,-0.00602,-0.001268,-0.000206,0.005692,0.002412,-0.508443,-0.004427,-1.285955,-258.17304,1.314867,66.73644
7.5166,0.004389,0.001394,-0.006291,-0.001365,-0.000255,0.005435,0.001473,-0.508736,-0.00583,-1.262881,-258.174507,1.28387,66.734868
7.5367,0.004194,0.001616,-0.005371,-0.001122,-0.000282,0.005761,0.001205,-0.508608,-0.00624,-1.262881,-258.174507,1.28387,66.734868
7.5567,0.004401,0.00132,-0.004229,-0.000944,-0.000305,0.005991,0.001205,-0.508608,-0.00624,-1.262881,-258.174507,1.28387,66.734868
7.5766,0.004352,0.001208,-0.005347,-0.000814,-0.000327,0.006151,0.002204,-0.508682,-0.004058,-1.187874,-258.175507,1.208864,66.733727
7.5965,0.004333,0.001443,-0.004243,-0.000942,-0.000306,0.005776,0.001962,-0.508725,-0.004566,-1.187874,-258.175507,1.208864,66.733727
7.6168,0.004051,0.001677,-0.004343,-0.001038,-0.000288,0.005528,0.002153,-0.508557,-0.004157,-1.262973,-258.17614,1.283963,66.732979
7.6369,0.004253,0.001313,-0.006678,-0.001057,-0.00037,0.005276,0.001864,-0.50834,-0.004322,-1.262973,-258.17614,1.283963,66.732979
7.6565,0.004216,0.001241,-0.006649,-0.001071,-0.000433,0.00511,0.001864,-0.50834,-0.004322,-1.262973,-258.17614,1.283963,66.732979
7.6768,0.004065,0.001252,-0.005047,-0.001082,-0.000481,0.005001,0.000782,-0.508759,-0.006419,-1.246694,-258.177436,1.294805,66.731465
7.6968,0.00381,0.001531,-0.00371,-0.000881,-0.000425,0.00534,0.001069,-0.508754,-0.005828,-1.246694,-258.177436,1.294805,66.731465
7.7166,0.004055,0.001169,-0.005718,-0.000734,-0.000386,0.005573,0.001887,-0.508479,-0.003565,-1.172868,-258.178451,1.27386,66.730121
7.7367,0.003571,0.001239,-0.004435,-0.00069,-0.000346,0.00565,0.001203,-0.508793,-0.005519,-1.172868,-258.178451,1.27386,66.730121
7.7569,0.003743,0.001778,-0.003796,-0.000658,-0.000316,0.0057,0.001203,-0.508793,-0.005519,-1.172868,-258.178451,1.27386,66.730121
7.7764,0.003674,0.001199,-0.004578,-0.000635,-0.000294,0.005731,0.001786,-0.508227,-0.003668,-1.247747,-258.17914,1.348739,66.729264
7.7968,0.003306,0.001281,-0.004076,-0.000711,-0.000366,0.005272,0.001604,-0.508457,-0.004019,-1.247747,-258.17914,1.348739,66.729264
7.8169,0.003735,0.001232,-0.003924,-0.000767,-0.000419,0.004967,0.00121,-0.508722,-0.003943,-1.322747,-258.180098,1.404919,66.728136
7.8373,0.004047,0.001023,-0.004834,-0.000853,-0.000381,0.004719,0.001685,-0.50876,-0.003919,-1.322747,-258.180098,1.404919,66.728136
7.857,0.003469,0.001218,-0.005612,-0.000918,-0.000351,0.004557,0.001685,-0.50876,-0.003919,-1.322747,-258.180098,1.404919,66.728136
7.8767,0.00364,0.001582,-0.004142,-0.000966,-0.000326,0.00445,0.000576,-0.50879,-0.005417,-1.285425,-258.181117,1.352218,66.726813
7.8967,0.003291,0.001204,-0.004607,-0.000769,-0.000351,0.004682,0.000956,-0.50864,-0.004881,-1.285425,-258.181117,1.352218,66.726813
7.9165,0.002911,0.001227,-0.005606,-0.000624,-0.000374,0.00484,0.00092,-0.508798,-0.004499,-1.210429,-258.181896,1.277222,66.725849
7.9366,0.003268,0.001221,-0.00319,-0.000208,-0.000365,0.005099,0.00013,-0.508768,-0.0055,-1.210429,-258.181896,1.277222,66.725849
7.9566,0.003484,0.001088,-0.004855,9.7e-05,-0.000366,0.005273,0.00013,-0.508768,-0.0055,-1.210429,-258.181896,1.277222,66.725849
7.9768,0.003247,0.0013,-0.003074,0.000322,-0.000372,0.00539,0.000988,-0.508917,-0.004724,-1.285436,-258.182587,1.352228,66.724969
7.9969,0.00322,0.001731,-0.002867,8.1e-05,-0.000352,0.005015,0.001266,-0.508829,-0.00404,-1.285436,-258.182587,1.352228,66.724969
8.017,0.003197,0.001303,-0.003085,-0.0001,-0.000333,0.004768,0.001758,-0.508267,-0.002864,-1.360444,-258.182606,1.427236,66.724944
8.0369,0.002976,0.001336,-0.004674,-0.000325,-0.000358,0.004224,0.001636,-0.508656,-0.003065,-1.360444,-258.182606,1.427236,66.724944
8.0565,0.003472,0.001284,-0.004782,-0.000495,-0.000374,0.003868,0.001636,-0.508656,-0.003065,-1.360444,-258.182606,1.427236,66.724944
8.0767,0.00289,0.001126,-0.00407,-0.000623,-0.000385,0.003638,0.001027,-0.508717,-0.004681,-1.435443,-258.183131,1.502235,66.724284
8.0967,0.002918,0.001345,-0.003312,-0.000517,-0.000366,0.003958,0.000938,-0.508781,-0.004417,-1.435443,-258.183131,1.502235,66.724284
8.1163,0.002943,0.001231,-0.003083,-0.00044,-0.000354,0.004178,0.001225,-0.508656,-0.00327,-1.360293,-258.183406,1.427085,66.723904
8.1367,0.003144,0.001357,-0.003994,-0.000515,-0.000356,0.003855,0.001358,-0.508757,-0.003097,-1.360293,-258.183406,1.427085,66.723904
8.1565,0.003311,0.001246,-0.005043,-0.000571,-0.000356,0.003641,0.001358,-0.508757,-0.003097,-1.360293,-258.183406,1.427085,66.723904
8.1768,0.003269,0.001453,-0.005264,-0.000613,-0.000354,0.003501,0.00072,-0.508762,-0.004869,-1.37329,-258.1843,1.420577,66.722731
8.1967,0.002755,0.001061,-0.005101,-0.000408,-0.000369,0.004018,0.000662,-0.508672,-0.005012,-1.37329,-258.1843,1.420577,66.722731
8.2169,0.002787,0.001443,-0.004459,-0.000257,-0.000386,0.004379,0.000143,-0.50894,-0.005027,-1.298181,-258.184796,1.345468,66.722056
8.2367,0.002773,0.001279,-0.002571,-7.4e-05,-0.000437,0.004483,0.000479,-0.508587,-0.004506,-1.298181,-258.184796,1.345468,66.722056
8.2569,0.002792,0.001167,-0.003871,6.2e-05,-0.000479,0.00455,0.000479,-0.508587,-0.004506,-1.298181,-258.184796,1.345468,66.722056
8.2772,0.002732,0.00089,-0.003729,0.000163,-0.000513,0.004593,0.000809,-0.508837,-0.003784,-1.373138,-258.185236,1.420425,66.72147
8.2971,0.002912,0.00123,-0.003202,9.5e-05,-0.000444,0.004358,0.000816,-0.508945,-0.003752,-1.373138,-258.185236,1.420425,66.72147
8.3169,0.002846,0.001579,-0.003465,4.5e-05,-0.00039,0.0042,0.001277,-0.50877,-0.003178,-1.44796,-258.185388,1.495246,66.72125
8.337,0.002785,0.001224,-0.002856,-5.1e-05,-0.000472,0.00397,0.001094,-0.508451,-0.003405,-1.44796,-258.185388,1.495246,66.72125
8.3569,0.002984,0.001202,-0.002201,-0.000122,-0.000535,0.003819,0.001094,-0.508451,-0.003405,-1.44796,-258.185388,1.495246,66.72125
8.3764,0.002734,0.001238,-0.003707,-0.000175,-0.000583,0.003721,0.00186,-0.508807,-0.002091,-1.523429,-258.185932,1.570715,66.720511
8.3967,0.002579,0.001134,-0.00311,-0.000343,-0.000527,0.003383,0.001445,-0.508788,-0.002738,-1.523429,-258.185932,1.570715,66.720511
8.4166,0.002504,0.00103,-0.003348,-0.00047,-0.000482,0.003161,0.000988,-0.50888,-0.003004,-1.467713,-258.186542,1.50964,66.719484
8.4368,0.002592,0.001209,-0.004204,-0.000371,-0.000409,0.003239,0.000813,-0.508961,-0.003313,-1.467713,-258.186542,1.50964,66.719484
8.4565,0.002873,0.000965,-0.002771,-0.0003,-0.000355,0.003291,0.000813,-0.508961,-0.003313,-1.467713,-258.186542,1.50964,66.719484
8.4764,0.002494,0.001036,-0.001707,-0.000247,-0.000314,0.003327,0.001455,-0.50904,-0.002721,-1.392612,-258.186768,1.434539,66.719119
8.4966,0.002604,0.001316,-0.002823,-0.000434,-0.000258,0.002929,0.001523,-0.50901,-0.002303,-1.392612,-258.186768,1.434539,66.719119
8.5166,0.002662,0.001147,-0.002321,-0.000574,-0.000211,0.002668,0.001157,-0.508692,-0.00272,-1.427754,-258.187438,1.465712,66.718208
8.5365,0.002641,0.001063,-0.003409,-0.000647,-0.000222,0.002526,0.001449,-0.508838,-0.002352,-1.427754,-258.187438,1.465712,66.718208
8.5568,0.002495,0.000935,-0.002397,-0.000702,-0.00023,0.002436,0.001449,-0.508838,-0.002352,-1.427754,-258.187438,1.465712,66.718208
8.5767,0.002484,0.001041,-0.002086,-0.000743,-0.000234,0.002382,0.00127,-0.509066,-0.002373,-1.352745,-258.187565,1.390703,66.718048
8.5965,0.002388,0.00124,-0.003496,-0.000751,-0.00019,0.002299,0.001331,-0.509022,-0.002254,-1.352745,-258.187565,1.390703,66.718048
8.6169,0.00254,0.001309,-0.003551,-0.000757,-0.000155,0.002247,0.000604,-0.508757,-0.00349,-1.277754,-258.187606,1.315712,66.717996
8.6372,0.002606,0.000904,-0.003623,-0.000536,-0.00022,0.002723,0.000718,-0.508693,-0.003546,-1.277754,-258.187606,1.315712,66.717996
8.6565,0.00233,0.001113,-0.002771,-0.000374,-0.000274,0.003047,0.000718,-0.508693,-0.003546,-1.277754,-258.187606,1.315712,66.717996
8.6768,0.002154,0.001053,-0.002769,-0.000255,-0.000319,0.003266,0.000913,-0.508886,-0.002755,-1.202612,-258.187701,1.24057,66.717883
8.6966,0.002617,0.001266,-0.002431,-0.000222,-0.000304,0.003103,0.000841,-0.50891,-0.002759,-1.202612,-258.187701,1.24057,66.717883
8.717,0.002403,0.001203,-0.00345,-0.000198,-0.000293,0.00299,0.001374,-0.508734,-0.00241,-1.277848,-258.187845,1.315807,66.717685
8.7371,0.002204,0.001379,-0.002879,-0.000126,-0.000313,0.003144,0.000708,-0.508789,-0.003357,-1.277848,-258.187845,1.315807,66.717685
8.7568,0.002491,0.001016,-0.002308,-7.3e-05,-0.00033,0.003246,0.000708,-0.508789,-0.003357,-1.277848,-258.187845,1.315807,66.717685
8.7769,0.001976,0.001245,-0.002632,-3.4e-05,-0.000345,0.003313,0.001308,-0.508987,-0.002256,-1.352531,-258.188107,1.39049,66.717324
8.7966,0.002682,0.001256,-0.003984,-0.000122,-0.000331,0.002965,0.001033,-0.508893,-0.002403,-1.352531,-258.188107,1.39049,66.717324
8.8169,0.002434,0.001308,-0.0027,-0.000186,-0.000318,0.002733,0.000647,-0.508744,-0.003948,-1.427477,-258.188337,1.465435,66.717
8.8365,0.002214,0.001255,-0.003187,-0.000218,-0.000355,0.002756,0.001022,-0.508695,-0.002806,-1.427477,-258.188337,1.465435,66.717
8.8567,0.002353,0.000854,-0.001599,-0.000242,-0.000384,0.002773,0.001022,-0.508695,-0.002806,-1.427477,-258.188337,1.465435,66.717
8.8769,0.002217,0.000793,-0.000812,-0.00026,-0.000405,0.002787,0.001529,-0.509158,-0.001486,-1.433702,-258.18888,1.477285,66.716205
8.897,0.002288,0.001033,-0.002045,-0.000483,-0.000286,0.002011,0.001639,-0.509179,-0.001199,-1.433702,-258.18888,1.477285,66.716205
8.917,0.001751,0.001293,-0.001607,-0.000649,-0.00019,0.001499,0.001237,-0.508978,-0.001963,-1.37277,-258.189372,1.447975,66.715415
8.9365,0.00206,0.000716,-0.001308,-0.000539,-0.000257,0.0014,0.000959,-0.508732,-0.001636,-1.37277,-258.189372,1.447975,66.715415
8.9571,0.002231,0.001016,-0.002228,-0.000457,-0.000309,0.001337,0.000959,-0.508732,-0.001636,-1.37277,-258.189372,1.447975,66.715415
8.9766,0.00238,0.00092,-0.002952,-0.000396,-0.000349,0.001299,0.001095,-0.508982,-0.002228,-1.297661,-258.189372,1.372867,66.715414
8.9967,0.002442,0.001228,-0.003638,-0.000388,-0.000282,0.00168,0.001004,-0.509021,-0.002525,-1.297661,-258.189372,1.372867,66.715414
9.0169,0.002361,0.001196,-0.002115,-0.000383,-0.000231,0.001941,0.000587,-0.508769,-0.003637,-1.222704,-258.189378,1.29791,66.715403
9.0369,0.00228,0.000885,-0.001004,0.0,0.0,0.0,0.001222,-0.5088,-0.002247,-1.222704,-258.189378,1.29791,66.715403
