mach0312/omni-docking-bench/src/icros_test_setup/results/MPPI_sample/timeseries/trial_036.csv
t,x,y,yaw,vx,vy,wz,bl_x,bl_y,bl_yaw,front_steering_joint,front_wheel_joint,rear_steering_joint,rear_wheel_joint
0.0,-0.069455,0.018307,0.084013,0.0,0.0,0.0,-0.027609,-0.490088,0.082391,0.441588,-262.708879,-0.158112,71.306658
0.0005,-0.069383,0.018346,0.084569,0.0,0.0,0.0,-0.027609,-0.490088,0.082391,0.441588,-262.708306,-0.158112,71.307182
0.0008,-0.069048,0.018569,0.086149,0.0,0.0,0.0,-0.026359,-0.490032,0.084508,0.441588,-262.708306,-0.158112,71.307182
0.0011,-0.069427,0.018008,0.086177,0.0,0.0,0.0,-0.026359,-0.490032,0.084508,0.441588,-262.708306,-0.158112,71.307182
0.0014,-0.069281,0.018511,0.084029,0.0,0.0,0.0,-0.026359,-0.490032,0.084508,0.441588,-262.708306,-0.158112,71.307182
0.0018,-0.069218,0.018507,0.08438,0.0,0.0,0.0,-0.026359,-0.490032,0.084508,0.441588,-262.708306,-0.158112,71.307182
0.0021,-0.069216,0.018192,0.084779,0.0,0.0,0.0,-0.026162,-0.489693,0.084885,0.441588,-262.708306,-0.158112,71.307182
0.0024,-0.069457,0.018222,0.084003,0.0,0.0,0.0,-0.02637,-0.48959,0.084369,0.441588,-262.708306,-0.158112,71.307182
0.0028,-0.069248,0.018201,0.0836,9.8e-05,2.1e-05,0.0,-0.02637,-0.48959,0.084369,0.441588,-262.708306,-0.158112,71.307182
0.0168,-0.069214,0.017745,0.084468,0.0,0.0,0.0,-0.026662,-0.490017,0.0836,0.441588,-262.708306,-0.158112,71.307182
0.0369,-0.069329,0.018648,0.085213,0.0,0.0,0.0,-0.02623,-0.490399,0.084389,0.441588,-262.708306,-0.158112,71.307182
0.0566,-0.06916,0.017892,0.084408,0.0,0.0,0.0,-0.02623,-0.490399,0.084389,0.441588,-262.708306,-0.158112,71.307182
0.0768,-0.069181,0.018228,0.084337,0.0,0.0,0.0,-0.026163,-0.490292,0.084408,0.441588,-262.708306,-0.158112,71.307182
0.0969,-0.068942,0.01838,0.085658,0.0,0.0,0.0,-0.026186,-0.490156,0.084379,0.441588,-262.708306,-0.158112,71.307182
0.1168,-0.06921,0.018433,0.084532,0.003274,-0.001721,-0.008797,-0.02531,-0.48975,0.085658,0.441588,-262.708306,-0.158112,71.307182
0.1368,-0.069505,0.018391,0.083691,0.003606,-0.001834,-0.009578,-0.026073,-0.489746,0.084635,0.441588,-262.708306,-0.158112,71.307182
0.1571,-0.069314,0.018233,0.086055,0.003897,-0.00192,-0.010221,-0.026073,-0.489746,0.084635,0.441588,-262.708306,-0.158112,71.307182
0.1768,-0.069479,0.018438,0.083816,0.004152,-0.001983,-0.010749,-0.02548,-0.48988,0.086055,0.36659,-262.708306,-0.083113,71.307182
0.1967,-0.069092,0.018693,0.084896,0.004377,-0.002028,-0.011182,-0.026007,-0.489836,0.08515,0.36659,-262.708306,-0.083113,71.307182
0.2167,-0.069542,0.018681,0.084856,0.004574,-0.002061,-0.011535,-0.025846,-0.48947,0.084896,0.291589,-262.708306,-0.008113,71.307182
0.2368,-0.069104,0.018427,0.085088,0.004744,-0.002086,-0.011822,-0.026274,-0.489483,0.08486,0.291589,-262.708306,-0.008113,71.307182
0.2569,-0.069258,0.018478,0.083577,0.004893,-0.002103,-0.012058,-0.026274,-0.489483,0.08486,0.291589,-262.708306,-0.008113,71.307182
0.2767,-0.069178,0.018373,0.084099,0.005024,-0.002113,-0.01225,-0.026683,-0.489741,0.083577,0.216576,-262.708306,0.0669,71.307182
0.2967,-0.069131,0.018085,0.084498,0.005146,-0.002109,-0.012407,-0.026543,-0.489775,0.083789,0.216576,-262.708306,0.0669,71.307182
0.3164,-0.069188,0.018098,0.085454,0.005253,-0.002103,-0.012536,-0.026088,-0.490095,0.084498,0.141591,-262.708306,0.141886,71.307182
0.3367,-0.069253,0.018345,0.08517,0.005339,-0.002103,-0.012641,-0.025699,-0.490046,0.085367,0.141591,-262.708306,0.141886,71.307182
0.3569,-0.069316,0.018422,0.084534,0.005414,-0.002101,-0.012727,-0.025699,-0.490046,0.085367,0.141591,-262.708306,0.141886,71.307182
0.3771,-0.069056,0.018449,0.083775,0.00548,-0.002097,-0.012798,-0.026255,-0.489756,0.084534,0.066588,-262.708306,0.216888,71.307182
0.3968,-0.069232,0.018411,0.085861,0.005541,-0.002089,-0.012856,-0.026307,-0.489759,0.084223,0.066588,-262.708306,0.216888,71.307182
0.4168,-0.068968,0.01843,0.086676,0.005594,-0.00208,-0.012903,-0.025497,-0.48971,0.085861,-0.008407,-262.708306,0.291883,71.307182
0.4369,-0.069139,0.018169,0.08421,0.00562,-0.002095,-0.012942,-0.02488,-0.489661,0.086603,-0.008407,-262.708306,0.291883,71.307182
0.4572,-0.069312,0.018163,0.084679,0.005642,-0.002107,-0.012974,-0.02488,-0.489661,0.086603,-0.008407,-262.708306,0.291883,71.307182
0.4771,-0.069216,0.018361,0.083383,0.005663,-0.002115,-0.013001,-0.026177,-0.49001,0.084679,-0.083409,-262.708306,0.366885,71.307182
0.4971,-0.06945,0.018325,0.083645,0.005705,-0.002094,-0.013024,-0.026405,-0.489952,0.084153,-0.083409,-262.708306,0.366885,71.307182
0.5168,-0.069551,0.018325,0.083034,0.005741,-0.002075,-0.013044,-0.02684,-0.489892,0.083645,-0.158413,-262.708306,0.441889,71.307182
0.5368,-0.069057,0.018471,0.082634,0.005782,-0.002048,-0.01306,-0.027215,-0.489916,0.08309,-0.158413,-262.708306,0.441889,71.307182
0.5569,-0.069572,0.018573,0.085622,0.005817,-0.002025,-0.013073,-0.027215,-0.489916,0.08309,-0.158413,-262.708306,0.441889,71.307182
0.5768,-0.069368,0.018528,0.083693,0.005847,-0.002006,-0.013085,-0.025958,-0.489558,0.085622,-0.233417,-262.708306,0.516894,71.307182
0.5972,-0.069425,0.018451,0.084428,0.005856,-0.002009,-0.013093,-0.026274,-0.489611,0.084837,-0.233417,-262.708306,0.516894,71.307182
0.6164,-0.06932,0.018692,0.083308,0.005864,-0.002011,-0.013101,-0.026418,-0.489732,0.084428,-0.308408,-262.708306,0.591884,71.307183
0.6365,-0.069475,0.018382,0.084986,0.005878,-0.002004,-0.013107,-0.026842,-0.489556,0.083405,-0.308408,-262.708306,0.591884,71.307183
0.6566,-0.069418,0.018443,0.084749,0.005891,-0.001999,-0.013113,-0.026842,-0.489556,0.083405,-0.308408,-262.708306,0.591884,71.307183
0.677,-0.06892,0.017938,0.086529,0.005901,-0.001994,-0.013117,-0.026247,-0.489726,0.084749,-0.383542,-262.708305,0.667018,71.307183
0.6967,-0.06932,0.018442,0.084678,0.0059,-0.002001,-0.013121,-0.025668,-0.489903,0.085484,-0.383542,-262.708305,0.667018,71.307183
0.7169,-0.069269,0.018228,0.084794,0.0059,-0.002007,-0.013124,-0.026186,-0.48973,0.084678,-0.458683,-262.708303,0.742159,71.307185
0.7369,-0.069269,0.018448,0.085163,0.005905,-0.002005,-0.013128,-0.026087,-0.489918,0.084782,-0.458683,-262.708303,0.742159,71.307185
0.7566,-0.069172,0.018316,0.082691,0.00591,-0.002003,-0.01313,-0.026087,-0.489918,0.084782,-0.458683,-262.708303,0.742159,71.307185
0.7768,-0.069412,0.018319,0.08513,0.005914,-0.002002,-0.013133,-0.027046,-0.489941,0.08269,-0.533413,-262.708288,0.794571,71.307196
0.7969,-0.06949,0.01838,0.085783,0.005924,-0.001993,-0.013135,-0.026628,-0.489896,0.083711,-0.533413,-262.708288,0.794571,71.307196
0.8167,-0.069445,0.018207,0.083832,0.005933,-0.001985,-0.013137,-0.02579,-0.489745,0.085779,-0.608714,-262.708221,0.794182,71.307244
0.8369,-0.069328,0.018697,0.084085,0.005942,-0.001977,-0.013138,-0.026663,-0.489981,0.08399,-0.608714,-262.708221,0.794182,71.307244
0.8569,-0.069302,0.018134,0.085069,0.005949,-0.00197,-0.013139,-0.026663,-0.489981,0.08399,-0.608714,-262.708221,0.794182,71.307244
0.8765,-0.068844,0.018125,0.086183,0.005956,-0.001964,-0.01314,-0.025954,-0.490022,0.085046,-0.683684,-262.707992,0.794189,71.30741
0.8965,-0.069163,0.018892,0.083904,0.005947,-0.001975,-0.013141,-0.025532,-0.490005,0.085517,-0.683684,-262.707992,0.794189,71.30741
0.9171,-0.069608,0.018671,0.084383,0.005941,-0.001985,-0.013141,-0.02639,-0.489315,0.083855,-0.758616,-262.707357,0.794192,71.307875
0.9369,-0.068867,0.018422,0.084275,0.00594,-0.001986,-0.013142,-0.026604,-0.489499,0.08434,-0.758616,-262.707357,0.794192,71.307875
0.9566,-0.068943,0.01873,0.08415,0.00594,-0.001987,-0.013142,-0.026604,-0.489499,0.08434,-0.758616,-262.707357,0.794192,71.307875
0.9767,-0.069081,0.018667,0.08459,0.00594,-0.001988,-0.013143,-0.025993,-0.489474,0.084006,-0.833952,-262.706013,0.793791,71.308853
0.9969,-0.068954,0.018898,0.084347,0.005933,-0.001997,-0.013143,-0.025983,-0.48949,0.084231,-0.833952,-262.706013,0.793791,71.308853
1.0171,-0.06863,0.018208,0.083196,0.005927,-0.002005,-0.013144,-0.025879,-0.489305,0.084142,-0.908842,-262.703604,0.793626,71.310605
1.0368,-0.068766,0.018694,0.083844,0.005932,-0.001999,-0.013221,-0.02621,-0.489965,0.083269,-0.908842,-262.703604,0.793626,71.310605
1.057,-0.068429,0.018505,0.083635,0.005937,-0.001994,-0.013283,-0.02621,-0.489965,0.083269,-0.908842,-262.703604,0.793626,71.310605
1.0769,-0.068036,0.017755,0.084799,0.005941,-0.00199,-0.013333,-0.025622,-0.489755,0.083221,-0.983457,-262.700026,0.793386,71.3132
1.0972,-0.06818,0.018371,0.085063,0.005934,-0.001999,-0.013425,-0.025279,-0.490029,0.08382,-0.983457,-262.700026,0.793386,71.3132
1.1166,-0.067263,0.018121,0.084089,0.005928,-0.002007,-0.0135,-0.024665,-0.48983,0.084657,-1.040502,-262.695573,0.802964,71.316443
1.1366,-0.067511,0.018524,0.082627,0.005912,-0.002026,-0.013619,-0.02444,-0.490057,0.08412,-1.040502,-262.695573,0.802964,71.316443
1.1569,-0.067422,0.018598,0.082459,0.005899,-0.002042,-0.013717,-0.02444,-0.490057,0.08412,-1.040502,-262.695573,0.802964,71.316443
1.1767,-0.066907,0.018167,0.083089,0.005889,-0.002054,-0.013797,-0.025161,-0.489732,0.081895,-1.046573,-262.690844,0.810887,71.319879
1.1969,-0.066979,0.018247,0.083358,0.005884,-0.002061,-0.013919,-0.024897,-0.489878,0.082315,-1.046573,-262.690844,0.810887,71.319879
1.2168,-0.066356,0.018256,0.082667,0.00588,-0.002067,-0.014019,-0.024324,-0.490032,0.082921,-1.058906,-262.686061,0.824802,71.323331
1.2368,-0.06607,0.018135,0.083016,0.00587,-0.002079,-0.01415,-0.024241,-0.490007,0.082667,-1.058906,-262.686061,0.824802,71.323331
1.2566,-0.066573,0.017885,0.083389,0.005862,-0.002089,-0.014259,-0.024241,-0.490007,0.082667,-1.058906,-262.686061,0.824802,71.323331
1.2767,-0.065474,0.018058,0.080861,0.005856,-0.002098,-0.014348,-0.023843,-0.490409,0.082804,-1.06546,-262.681215,0.835075,71.326826
1.2968,-0.065553,0.018151,0.082105,0.005854,-0.002101,-0.014468,-0.023992,-0.490362,0.081945,-1.06546,-262.681215,0.835075,71.326826
1.3168,-0.064881,0.018144,0.08164,0.005853,-0.002104,-0.014568,-0.023536,-0.490182,0.08165,-1.076296,-262.676306,0.849936,71.330356
1.3366,-0.064745,0.018197,0.081173,0.005839,-0.00212,-0.014693,-0.023303,-0.490162,0.081618,-1.076296,-262.676306,0.849936,71.330356
1.3568,-0.065026,0.018014,0.081529,0.005828,-0.002133,-0.014797,-0.023303,-0.490162,0.081618,-1.076296,-262.676306,0.849936,71.330356
1.3768,-0.064343,0.018167,0.079835,0.005819,-0.002144,-0.014883,-0.023241,-0.49036,0.080921,-1.081851,-262.671331,0.859629,71.333936
1.3968,-0.064157,0.017675,0.079951,0.005816,-0.002149,-0.014997,-0.023387,-0.490306,0.080408,-1.081851,-262.671331,0.859629,71.333936
1.4165,-0.063435,0.017974,0.078619,0.005813,-0.002152,-0.015091,-0.023236,-0.490749,0.079478,-1.092852,-262.666278,0.873414,71.337555
1.4369,-0.063291,0.018138,0.078639,0.005815,-0.002151,-0.015207,-0.02336,-0.490478,0.078667,-1.092852,-262.666278,0.873414,71.337555
1.4568,-0.063344,0.017853,0.077217,0.005816,-0.00215,-0.015303,-0.02336,-0.490478,0.078667,-1.092852,-262.666278,0.873414,71.337555
1.4767,-0.063017,0.018074,0.07799,0.005818,-0.002149,-0.015382,-0.023754,-0.490699,0.076588,-1.098124,-262.661197,0.882278,71.341196
1.4969,-0.063047,0.018208,0.077999,0.005825,-0.002142,-0.015482,-0.023536,-0.490577,0.07708,-1.098124,-262.661197,0.882278,71.341196
1.5174,-0.062465,0.018244,0.077939,0.00583,-0.002137,-0.015564,-0.023118,-0.490295,0.07751,-1.103956,-262.656041,0.894258,71.344902
1.5369,-0.062103,0.017939,0.077858,0.005818,-0.002151,-0.015657,-0.02278,-0.490219,0.077873,-1.103956,-262.656041,0.894258,71.344902
1.5566,-0.062136,0.017857,0.077369,0.005808,-0.002163,-0.015735,-0.02278,-0.490219,0.077873,-1.103956,-262.656041,0.894258,71.344902
1.5766,-0.061501,0.017876,0.078067,0.005799,-0.002172,-0.015799,-0.022467,-0.490688,0.076718,-1.106527,-262.650838,0.90143,71.348657
1.5973,-0.061253,0.017634,0.077975,0.00579,-0.002182,-0.015868,-0.022137,-0.490649,0.077192,-1.106527,-262.650838,0.90143,71.348657
1.6168,-0.061146,0.017693,0.076035,0.005783,-0.00219,-0.015925,-0.021337,-0.490871,0.077473,-1.114729,-262.645584,0.911113,71.352432
1.6369,-0.060919,0.017728,0.076066,0.005783,-0.00219,-0.015982,-0.022299,-0.49084,0.076139,-1.114729,-262.645584,0.911113,71.352432
1.6569,-0.061073,0.017983,0.074918,0.005783,-0.00219,-0.016028,-0.022299,-0.49084,0.076139,-1.114729,-262.645584,0.911113,71.352432
1.6768,-0.060488,0.017355,0.074941,0.005783,-0.002189,-0.016067,-0.022652,-0.49066,0.07425,-1.119002,-262.64029,0.916311,71.356229
1.6972,-0.060178,0.017513,0.074671,0.005788,-0.002184,-0.016106,-0.022483,-0.490891,0.074452,-1.119002,-262.64029,0.916311,71.356229
1.7169,-0.059412,0.017676,0.073855,0.005793,-0.002179,-0.016138,-0.021942,-0.491122,0.074159,-1.121764,-262.634964,0.92181,71.360055
1.7368,-0.05942,0.01775,0.074294,0.005787,-0.002185,-0.016172,-0.021785,-0.490953,0.073857,-1.121764,-262.634964,0.92181,71.360055
1.7568,-0.059243,0.017317,0.073694,0.005783,-0.00219,-0.016199,-0.021785,-0.490953,0.073857,-1.121764,-262.634964,0.92181,71.360055
1.7767,-0.058825,0.0177,0.07316,0.005779,-0.002194,-0.016222,-0.021444,-0.491372,0.073019,-1.12223,-262.629585,0.924413,71.363928
1.7972,-0.058572,0.017513,0.074298,0.005775,-0.002197,-0.016247,-0.021459,-0.491196,0.073,-1.12223,-262.629585,0.924413,71.363928
1.8167,-0.057848,0.017521,0.070482,0.005773,-0.0022,-0.016268,-0.020528,-0.491135,0.073787,-1.125277,-262.624248,0.927864,71.367763
1.837,-0.05804,0.017654,0.072267,0.005777,-0.002194,-0.016291,-0.021802,-0.491209,0.07074,-1.125277,-262.624248,0.927864,71.367763
1.8569,-0.057878,0.017311,0.070982,0.005781,-0.00219,-0.016309,-0.021802,-0.491209,0.07074,-1.125277,-262.624248,0.927864,71.367763
1.8769,-0.057282,0.01732,0.072007,0.005785,-0.002186,-0.016325,-0.02146,-0.491479,0.070303,-1.126786,-262.618885,0.929746,71.371616
1.8966,-0.057549,0.017627,0.072025,0.00578,-0.00219,-0.016342,-0.021078,-0.491439,0.070918,-1.126786,-262.618885,0.929746,71.371616
1.9167,-0.056807,0.017108,0.070404,0.005776,-0.002194,-0.016356,-0.020659,-0.491107,0.071505,-1.126648,-262.61346,0.931718,71.375524
1.9367,-0.056657,0.017611,0.071074,0.005773,-0.002197,-0.016373,-0.020903,-0.491594,0.070461,-1.126648,-262.61346,0.931718,71.375524
1.9568,-0.056677,0.017328,0.070855,0.005771,-0.002199,-0.016386,-0.020903,-0.491594,0.070461,-1.126648,-262.61346,0.931718,71.375524
1.9773,-0.055821,0.017173,0.069067,0.005769,-0.002201,-0.016397,-0.020326,-0.491466,0.070176,-1.12809,-262.608107,0.933093,71.379376
1.9972,-0.055641,0.017206,0.07033,0.005759,-0.002211,-0.01641,-0.020418,-0.491533,0.069648,-1.12809,-262.608107,0.933093,71.379376
2.0164,-0.05519,0.016901,0.070205,0.00575,-0.00222,-0.01642,-0.019614,-0.49159,0.069807,-1.12958,-262.602704,0.934805,71.38326
2.0369,-0.055092,0.017137,0.069576,0.00573,-0.002239,-0.016432,-0.019423,-0.491823,0.070142,-1.12958,-262.602704,0.934805,71.38326
2.0573,-0.055202,0.016981,0.070141,0.005714,-0.002255,-0.016442,-0.019423,-0.491823,0.070142,-1.12958,-262.602704,0.934805,71.38326
2.0767,-0.05424,0.017335,0.067603,0.0057,-0.002269,-0.01645,-0.019213,-0.491841,0.069453,-1.131894,-262.597291,0.936084,71.387139
2.0968,-0.054389,0.017415,0.068896,0.005687,-0.002281,-0.01646,-0.019419,-0.491711,0.068622,-1.131894,-262.597291,0.936084,71.387139
2.1169,-0.053939,0.017291,0.066377,0.005676,-0.002292,-0.016468,-0.019092,-0.491435,0.068368,-1.137339,-262.591866,0.938382,71.390994
2.1371,-0.05371,0.016843,0.068303,0.005676,-0.002291,-0.016476,-0.019996,-0.491574,0.066551,-1.137339,-262.591866,0.938382,71.390994
2.1572,-0.053868,0.017149,0.067552,0.005676,-0.002291,-0.016483,-0.019996,-0.491574,0.066551,-1.137339,-262.591866,0.938382,71.390994
2.1772,-0.053454,0.016962,0.067723,0.005676,-0.00229,-0.016488,-0.019198,-0.491768,0.066861,-1.13995,-262.586431,0.939632,71.394841
2.1972,-0.052847,0.017008,0.067814,0.005663,-0.002302,-0.016494,-0.019066,-0.491818,0.067131,-1.13995,-262.586431,0.939632,71.394841
2.2173,-0.052436,0.016906,0.066012,0.005653,-0.002312,-0.0165,-0.018101,-0.491881,0.067283,-1.140329,-262.58099,0.940516,71.398694
2.237,-0.052059,0.016956,0.067182,0.005641,-0.002323,-0.016505,-0.018706,-0.491976,0.06612,-1.140329,-262.58099,0.940516,71.398694
2.2568,-0.052575,0.016883,0.067654,0.00563,-0.002333,-0.01651,-0.018706,-0.491976,0.06612,-1.140329,-262.58099,0.940516,71.398694
2.277,-0.051395,0.016819,0.065668,0.005622,-0.00234,-0.016514,-0.017855,-0.492031,0.066962,-1.142765,-262.575512,0.94155,71.402557
2.297,-0.051547,0.016812,0.064794,0.005599,-0.002361,-0.016518,-0.017857,-0.492062,0.066342,-1.142765,-262.575512,0.94155,71.402557
2.3169,-0.050719,0.016838,0.064019,0.00558,-0.002378,-0.016522,-0.018344,-0.49218,0.064273,-1.145928,-262.570089,0.942944,71.406363
2.3369,-0.05101,0.016823,0.064409,0.005572,-0.002385,-0.016525,-0.018105,-0.492126,0.064015,-1.145928,-262.570089,0.942944,71.406363
2.3569,-0.050604,0.016502,0.06509,0.005566,-0.002391,-0.016529,-0.018105,-0.492126,0.064015,-1.145928,-262.570089,0.942944,71.406363
2.3768,-0.05006,0.016788,0.062972,0.00556,-0.002395,-0.016531,-0.017191,-0.492502,0.064397,-1.149979,-262.564594,0.944424,71.410191
2.3975,-0.050381,0.017044,0.063684,0.005548,-0.002406,-0.016534,-0.017489,-0.492385,0.063718,-1.149979,-262.564594,0.944424,71.410191
2.4164,-0.049546,0.016781,0.062593,0.005538,-0.002415,-0.016537,-0.017744,-0.491987,0.063162,-1.152053,-262.559158,0.94549,71.413968
2.4367,-0.049681,0.016801,0.061456,0.005529,-0.002422,-0.01654,-0.017644,-0.492202,0.062618,-1.152053,-262.559158,0.94549,71.413968
2.4567,-0.049344,0.016953,0.061983,0.005522,-0.002427,-0.016542,-0.017644,-0.492202,0.062618,-1.152053,-262.559158,0.94549,71.413968
2.4772,-0.048713,0.016742,0.061661,0.005516,-0.002432,-0.016544,-0.017515,-0.492155,0.061289,-1.154199,-262.553656,0.946416,71.417776
2.4968,-0.048403,0.016986,0.062465,0.005507,-0.00244,-0.016546,-0.017392,-0.492221,0.061364,-1.154199,-262.553656,0.946416,71.417776
2.5164,-0.047813,0.016616,0.06132,0.0055,-0.002446,-0.016548,-0.016387,-0.492086,0.061941,-1.156268,-262.548206,0.947407,71.421536
2.5371,-0.04818,0.016699,0.060357,0.005478,-0.002465,-0.01655,-0.016534,-0.492398,0.061349,-1.156268,-262.548206,0.947407,71.421536
2.5571,-0.048037,0.016642,0.060487,0.00546,-0.00248,-0.016552,-0.016534,-0.492398,0.061349,-1.156268,-262.548206,0.947407,71.421536
2.577,-0.047038,0.016404,0.06045,0.005445,-0.002493,-0.016553,-0.016971,-0.492514,0.059794,-1.157862,-262.542725,0.948116,71.425308
2.597,-0.047234,0.016253,0.059963,0.005439,-0.002497,-0.016555,-0.016642,-0.492585,0.059981,-1.157862,-262.542725,0.948116,71.425308
2.6167,-0.046989,0.016187,0.060261,0.005435,-0.002501,-0.016557,-0.016493,-0.4929,0.059435,-1.162985,-262.537211,0.950154,71.429068
2.637,-0.046781,0.01661,0.058236,0.005429,-0.002505,-0.016558,-0.016284,-0.492891,0.060173,-1.162985,-262.537211,0.950154,71.429068
2.657,-0.046664,0.016687,0.06003,0.005424,-0.002508,-0.016559,-0.016284,-0.492891,0.060173,-1.162985,-262.537211,0.950154,71.429068
2.6772,-0.04612,0.016278,0.058603,0.00542,-0.002511,-0.01656,-0.015835,-0.492485,0.05934,-1.163941,-262.531741,0.950703,71.432793
2.6966,-0.045731,0.016175,0.060387,0.005405,-0.002524,-0.016562,-0.015977,-0.492642,0.05896,-1.163941,-262.531741,0.950703,71.432793
2.7169,-0.045677,0.016534,0.058339,0.005392,-0.002534,-0.016563,-0.014775,-0.492965,0.059859,-1.16529,-262.526239,0.951477,71.436532
2.7373,-0.045119,0.016462,0.057649,0.005379,-0.002546,-0.016564,-0.01583,-0.492634,0.058446,-1.16529,-262.526239,0.951477,71.436532
2.757,-0.045282,0.016267,0.05765,0.005367,-0.002555,-0.016565,-0.01583,-0.492634,0.058446,-1.16529,-262.526239,0.951477,71.436532
2.7767,-0.044189,0.016635,0.057726,0.005357,-0.002563,-0.016566,-0.015666,-0.492978,0.056958,-1.167838,-262.520742,0.952543,71.440251
2.7967,-0.04482,0.015951,0.055669,0.005339,-0.002577,-0.016567,-0.015271,-0.4928,0.057192,-1.167838,-262.520742,0.952543,71.440251
2.8166,-0.043947,0.01615,0.057768,0.005325,-0.002589,-0.016568,-0.016268,-0.493331,0.055141,-1.171099,-262.515229,0.953983,71.443959
2.8368,-0.043792,0.016161,0.057966,0.005301,-0.002608,-0.016569,-0.014638,-0.49303,0.057527,-1.171099,-262.515229,0.953983,71.443959
2.857,-0.044041,0.015897,0.055432,0.005281,-0.002624,-0.016571,-0.014638,-0.49303,0.057527,-1.171099,-262.515229,0.953983,71.443959
2.8767,-0.043165,0.015502,0.055565,0.005264,-0.002637,-0.016572,-0.015557,-0.493416,0.05474,-1.174013,-262.509733,0.955284,71.447639
2.8969,-0.04311,0.015806,0.056903,0.005279,-0.002623,-0.016572,-0.015241,-0.493546,0.054994,-1.174013,-262.509733,0.955284,71.447639
2.9164,-0.042444,0.015799,0.052956,0.005291,-0.002611,-0.016573,-0.013933,-0.493442,0.056375,-1.17945,-262.504172,0.95782,71.451325
2.9368,-0.042562,0.015982,0.053589,0.005303,-0.0026,-0.016573,-0.015335,-0.493486,0.053177,-1.17945,-262.504172,0.95782,71.451325
2.9568,-0.042261,0.015758,0.055599,0.005314,-0.00259,-0.016573,-0.015335,-0.493486,0.053177,-1.17945,-262.504172,0.95782,71.451325
2.9769,-0.041247,0.015801,0.054085,0.005322,-0.002582,-0.016573,-0.013694,-0.49355,0.054911,-1.17699,-262.498698,0.95708,71.454973
2.9969,-0.041811,0.015439,0.053096,0.005286,-0.002612,-0.016574,-0.013661,-0.493522,0.054496,-1.17699,-262.498698,0.95708,71.454973
3.0174,-0.040966,0.016229,0.05368,0.005255,-0.002637,-0.016575,-0.014572,-0.493916,0.052567,-1.174071,-262.49319,0.956108,71.458663
3.0369,-0.04148,0.015558,0.051025,0.005221,-0.002664,-0.016577,-0.013682,-0.49312,0.053552,-1.174071,-262.49319,0.956108,71.458663
3.0569,-0.041278,0.015343,0.053658,0.005193,-0.002686,-0.016578,-0.013682,-0.49312,0.053552,-1.174071,-262.49319,0.956108,71.458663
3.0768,-0.040445,0.015586,0.052183,0.005169,-0.002705,-0.016579,-0.0137,-0.494021,0.052964,-1.180137,-262.487648,0.958747,71.462336
3.097,-0.040356,0.015043,0.051271,0.005169,-0.002704,-0.016579,-0.013734,-0.493907,0.052558,-1.180137,-262.487648,0.958747,71.462336
3.1166,-0.040043,0.015147,0.049994,0.00517,-0.002703,-0.016579,-0.014051,-0.494364,0.050747,-1.187807,-262.482124,0.962338,71.465947
3.1366,-0.039829,0.015353,0.049421,0.0052,-0.002676,-0.016579,-0.014508,-0.494231,0.05003,-1.187807,-262.482124,0.962338,71.465947
3.1572,-0.039817,0.015617,0.051769,0.005225,-0.002654,-0.016578,-0.014508,-0.494231,0.05003,-1.187807,-262.482124,0.962338,71.465947
3.1767,-0.039034,0.015378,0.052093,0.005246,-0.002635,-0.016578,-0.013206,-0.493801,0.051077,-1.187732,-262.476615,0.962478,71.469551
3.1975,-0.038786,0.015412,0.050067,0.00521,-0.002665,-0.016579,-0.012887,-0.493865,0.051408,-1.187732,-262.476615,0.962478,71.469551
3.2164,-0.03819,0.015215,0.050297,0.005179,-0.00269,-0.01658,-0.013091,-0.494025,0.049537,-1.180721,-262.471101,0.959754,71.473205
3.2367,-0.038317,0.015171,0.048485,0.005151,-0.002712,-0.016581,-0.01259,-0.494134,0.0502,-1.180721,-262.471101,0.959754,71.473205
3.2566,-0.037956,0.015115,0.049746,0.005128,-0.002729,-0.016582,-0.01259,-0.494134,0.0502,-1.180721,-262.471101,0.959754,71.473205
3.2765,-0.037681,0.014983,0.04742,0.005108,-0.002744,-0.016583,-0.012374,-0.494356,0.049053,-1.186791,-262.465569,0.962493,71.476832
3.2968,-0.037559,0.015288,0.048089,0.005107,-0.002745,-0.016583,-0.012815,-0.494404,0.0483,-1.186791,-262.465569,0.962493,71.476832
3.3164,-0.037133,0.015093,0.047892,0.005105,-0.002745,-0.016583,-0.012877,-0.494202,0.047562,-1.193004,-262.460019,0.965567,71.48043
3.3368,-0.036889,0.015296,0.047984,0.0051,-0.002749,-0.016583,-0.012722,-0.494317,0.047842,-1.193004,-262.460019,0.965567,71.48043
3.3571,-0.036774,0.015135,0.048302,0.005095,-0.002753,-0.016584,-0.012722,-0.494317,0.047842,-1.193004,-262.460019,0.965567,71.48043
3.3768,-0.036226,0.01544,0.047546,0.005091,-0.002755,-0.016584,-0.01193,-0.494375,0.047606,-1.19323,-262.454501,0.965783,71.484007
3.3971,-0.036421,0.015089,0.046506,0.005061,-0.002778,-0.016585,-0.011928,-0.494231,0.047504,-1.19323,-262.454501,0.965783,71.484007
3.4167,-0.035469,0.014874,0.04773,0.005035,-0.002796,-0.016586,-0.012546,-0.494439,0.045978,-1.194496,-262.448949,0.966511,71.487597
3.4366,-0.035326,0.015147,0.046251,0.004999,-0.002822,-0.016587,-0.01125,-0.49454,0.047551,-1.194496,-262.448949,0.966511,71.487597
3.4566,-0.035882,0.015162,0.046131,0.004968,-0.002844,-0.016589,-0.01125,-0.49454,0.047551,-1.194496,-262.448949,0.966511,71.487597
3.4769,-0.035438,0.01475,0.044712,0.004942,-0.002862,-0.01659,-0.012148,-0.494403,0.045438,-1.199341,-262.443413,0.969109,71.491147
3.4969,-0.035231,0.01507,0.046021,0.004958,-0.002849,-0.016589,-0.012325,-0.494553,0.045062,-1.199341,-262.443413,0.969109,71.491147
3.5171,-0.034387,0.01455,0.044127,0.004972,-0.002838,-0.016588,-0.011607,-0.494474,0.045493,-1.207336,-262.437861,0.973776,71.494659
3.5365,-0.034479,0.014711,0.042407,0.004978,-0.002833,-0.016588,-0.011856,-0.494915,0.044223,-1.207336,-262.437861,0.973776,71.494659
3.5568,-0.034372,0.014673,0.043489,0.004983,-0.002828,-0.016588,-0.011856,-0.494915,0.044223,-1.207336,-262.437861,0.973776,71.494659
3.5772,-0.033669,0.014901,0.043423,0.004987,-0.002825,-0.016588,-0.011986,-0.494955,0.042793,-1.204742,-262.432298,0.972481,71.498194
3.5969,-0.033955,0.014568,0.043472,0.004986,-0.002825,-0.016588,-0.011776,-0.494831,0.042969,-1.204742,-262.432298,0.972481,71.498194
3.6171,-0.032856,0.014658,0.043453,0.004986,-0.002825,-0.016588,-0.011629,-0.495033,0.042943,-1.203375,-262.426744,0.971886,71.501733
3.6371,-0.032289,0.0148,0.045031,0.004952,-0.002849,-0.016589,-0.010774,-0.49488,0.043382,-1.203375,-262.426744,0.971886,71.501733
3.6568,-0.032981,0.014574,0.042872,0.004924,-0.002868,-0.016591,-0.010774,-0.49488,0.043382,-1.203375,-262.426744,0.971886,71.501733
3.6773,-0.032332,0.014273,0.040632,0.0049,-0.002885,-0.016592,-0.010909,-0.495066,0.04218,-1.203401,-262.421199,0.971945,71.505266
3.6967,-0.032288,0.014537,0.043029,0.004904,-0.002882,-0.016591,-0.011168,-0.495175,0.041476,-1.203401,-262.421199,0.971945,71.505266
3.717,-0.031364,0.014334,0.042593,0.004906,-0.002879,-0.016591,-0.010191,-0.495076,0.042502,-1.210775,-262.415611,0.976309,71.508781
3.7371,-0.031799,0.014454,0.040365,0.004853,-0.002915,-0.016594,-0.009682,-0.495198,0.042563,-1.210775,-262.415611,0.976309,71.508781
3.7571,-0.031606,0.014725,0.043649,0.004808,-0.002944,-0.016596,-0.009682,-0.495198,0.042563,-1.210775,-262.415611,0.976309,71.508781
3.7768,-0.030732,0.014018,0.04191,0.00477,-0.002969,-0.016598,-0.009143,-0.4949,0.04296,-1.210232,-262.410043,0.976112,71.512287
3.7971,-0.030663,0.014155,0.039019,0.004719,-0.003001,-0.0166,-0.009211,-0.495181,0.042435,-1.210232,-262.410043,0.976112,71.512287
3.8167,-0.030214,0.013536,0.039351,0.004676,-0.003028,-0.016602,-0.010615,-0.495544,0.038496,-1.221733,-262.404518,0.983627,71.515698
3.8368,-0.029996,0.01415,0.040112,0.004705,-0.003007,-0.0166,-0.010185,-0.496026,0.039247,-1.221733,-262.404518,0.983627,71.515698
3.8567,-0.029873,0.013866,0.040206,0.004728,-0.00299,-0.016599,-0.010185,-0.496026,0.039247,-1.221733,-262.404518,0.983627,71.515698
3.8765,-0.029693,0.014062,0.03761,0.004748,-0.002975,-0.016598,-0.009172,-0.49584,0.039511,-1.229558,-262.398937,0.98914,71.519098
3.8966,-0.02951,0.013786,0.038919,0.004738,-0.002982,-0.016598,-0.009694,-0.495747,0.038661,-1.229558,-262.398937,0.98914,71.519098
3.9176,-0.029278,0.013537,0.038592,0.00473,-0.002988,-0.016598,-0.009512,-0.495917,0.038391,-1.22339,-262.393342,0.985364,71.522545
3.9368,-0.028955,0.013964,0.037569,0.004727,-0.002989,-0.016598,-0.009582,-0.496071,0.038539,-1.22339,-262.393342,0.985364,71.522545
3.957,-0.028989,0.013523,0.036633,0.004725,-0.002989,-0.016598,-0.009582,-0.496071,0.038539,-1.22339,-262.393342,0.985364,71.522545
3.9766,-0.028657,0.013633,0.036597,0.004723,-0.00299,-0.016598,-0.010109,-0.496253,0.035942,-1.22492,-262.387778,0.986366,71.525964
3.9974,-0.027878,0.014105,0.037351,0.004745,-0.002975,-0.016597,-0.01004,-0.496173,0.03613,-1.22492,-262.387778,0.986366,71.525964
4.0168,-0.02764,0.013411,0.036303,0.004763,-0.002962,-0.016596,-0.00868,-0.495629,0.036822,-1.225412,-262.382192,0.98681,71.529394
4.0372,-0.027472,0.01348,0.03521,0.00474,-0.002977,-0.016597,-0.009084,-0.496205,0.036321,-1.225412,-262.382192,0.98681,71.529394
4.0573,-0.027868,0.013259,0.03673,0.00472,-0.002989,-0.016598,-0.009084,-0.496205,0.036321,-1.225412,-262.382192,0.98681,71.529394
4.0771,-0.02672,0.013608,0.035633,0.004704,-0.003,-0.016599,-0.008937,-0.496514,0.036035,-1.222031,-262.376629,0.984743,71.532831
4.0977,-0.027088,0.013498,0.034718,0.004681,-0.003014,-0.016601,-0.008758,-0.496348,0.035794,-1.222031,-262.376629,0.984743,71.532831
4.1168,-0.026194,0.012857,0.033231,0.004662,-0.003026,-0.016601,-0.009231,-0.496286,0.034186,-1.226948,-262.371042,0.988121,71.536254
4.1368,-0.026231,0.013029,0.035881,0.004682,-0.003011,-0.016601,-0.00924,-0.496816,0.033287,-1.226948,-262.371042,0.988121,71.536254
4.1568,-0.026099,0.01354,0.034625,0.004699,-0.002998,-0.0166,-0.00924,-0.496816,0.033287,-1.226948,-262.371042,0.988121,71.536254
4.1769,-0.025539,0.013171,0.033311,0.004713,-0.002988,-0.016599,-0.008244,-0.496274,0.03393,-1.230475,-262.365456,0.990673,71.539656
4.1974,-0.025642,0.013018,0.035472,0.004673,-0.003014,-0.016601,-0.008347,-0.496399,0.033598,-1.230475,-262.365456,0.990673,71.539656
4.2168,-0.025271,0.012924,0.032723,0.00464,-0.003035,-0.016603,-0.007402,-0.496751,0.034944,-1.226069,-262.359889,0.987994,71.543074
4.2371,-0.024899,0.012591,0.034493,0.00463,-0.00304,-0.016604,-0.008471,-0.496803,0.032896,-1.226069,-262.359889,0.987994,71.543074
4.257,-0.024936,0.012872,0.032593,0.004622,-0.003045,-0.016604,-0.008471,-0.496803,0.032896,-1.226069,-262.359889,0.987994,71.543074
4.2769,-0.02432,0.013093,0.032344,0.004615,-0.003049,-0.016604,-0.008118,-0.496978,0.031898,-1.232189,-262.354305,0.992333,71.546467
4.297,-0.02461,0.012565,0.032714,0.004588,-0.003065,-0.016606,-0.007977,-0.496855,0.031999,-1.232189,-262.354305,0.992333,71.546467
4.3167,-0.023622,0.01279,0.03092,0.004566,-0.003078,-0.016607,-0.007779,-0.497255,0.032185,-1.234233,-262.348718,0.993935,71.54985
4.3372,-0.023612,0.012733,0.032273,0.004546,-0.003089,-0.016608,-0.007841,-0.496996,0.031006,-1.234233,-262.348718,0.993935,71.54985
4.3572,-0.023609,0.012378,0.032694,0.004529,-0.003099,-0.016609,-0.007841,-0.496996,0.031006,-1.234233,-262.348718,0.993935,71.54985
4.3772,-0.022738,0.012557,0.029441,0.004515,-0.003107,-0.01661,-0.006742,-0.497472,0.032,-1.238257,-262.343126,0.997036,71.553213
4.3973,-0.022832,0.012271,0.032712,0.004478,-0.003127,-0.016612,-0.00712,-0.497385,0.030879,-1.238257,-262.343126,0.997036,71.553213
4.417,-0.022111,0.012144,0.028419,0.004447,-0.003143,-0.016614,-0.006005,-0.49755,0.032181,-1.242419,-262.337528,1.000404,71.556556
4.4369,-0.022336,0.012705,0.029224,0.004449,-0.00314,-0.016614,-0.007466,-0.497646,0.028731,-1.242419,-262.337528,1.000404,71.556556
4.4573,-0.022181,0.012577,0.028126,0.004451,-0.003138,-0.016613,-0.007466,-0.497646,0.028731,-1.242419,-262.337528,1.000404,71.556556
4.4767,-0.021868,0.012245,0.028955,0.004453,-0.003136,-0.016613,-0.007648,-0.497348,0.027427,-1.247911,-262.331932,1.005077,71.559869
4.4968,-0.021352,0.01216,0.029394,0.004445,-0.00314,-0.016613,-0.00741,-0.497439,0.027957,-1.247911,-262.331932,1.005077,71.559869
4.5164,-0.020979,0.012011,0.027427,0.004439,-0.003143,-0.016614,-0.006219,-0.497715,0.028864,-1.247336,-262.326324,1.004959,71.563193
4.5371,-0.021304,0.012497,0.025954,0.004419,-0.003153,-0.016615,-0.006916,-0.497795,0.027529,-1.247336,-262.326324,1.004959,71.563193
4.5574,-0.020862,0.011952,0.029429,0.004402,-0.003161,-0.016616,-0.006916,-0.497795,0.027529,-1.247336,-262.326324,1.004959,71.563193
4.5769,-0.020227,0.012369,0.028554,0.004388,-0.003168,-0.016617,-0.005665,-0.497954,0.028732,-1.248418,-262.32072,1.005904,71.56651
4.5969,-0.020358,0.01228,0.026282,0.004299,-0.003212,-0.016623,-0.005644,-0.497753,0.02858,-1.248418,-262.32072,1.005904,71.56651
4.6167,-0.019967,0.012041,0.026498,0.004226,-0.003249,-0.016627,-0.006813,-0.497641,0.025753,-1.252479,-262.315114,1.009571,71.569807
4.637,-0.019912,0.011923,0.026148,0.004218,-0.003253,-0.016626,-0.006479,-0.497773,0.026404,-1.252479,-262.315114,1.009571,71.569807
4.6568,-0.01962,0.011664,0.025695,0.004211,-0.003257,-0.016625,-0.006479,-0.497773,0.026404,-1.252479,-262.315114,1.009571,71.569807
4.6766,-0.019057,0.011942,0.02441,0.004205,-0.00326,-0.016625,-0.006338,-0.498298,0.025003,-1.265387,-262.309521,1.021691,71.573029
4.6967,-0.018927,0.011791,0.025797,0.004211,-0.003256,-0.016624,-0.006428,-0.498153,0.024681,-1.265387,-262.309521,1.021691,71.573029
4.7165,-0.018507,0.011354,0.0269,0.004215,-0.003253,-0.016623,-0.005636,-0.49814,0.025268,-1.267002,-262.303898,1.023041,71.576259
4.7374,-0.01831,0.011477,0.023802,0.004125,-0.003293,-0.01663,-0.004858,-0.498438,0.026727,-1.267002,-262.303898,1.023041,71.576259
4.7568,-0.018162,0.011664,0.024938,0.004051,-0.003326,-0.016635,-0.004858,-0.498438,0.026727,-1.267002,-262.303898,1.023041,71.576259
4.7771,-0.01753,0.011692,0.024017,0.003989,-0.003353,-0.016638,-0.005265,-0.498309,0.024242,-1.266128,-262.298255,1.022365,71.579506
4.7969,-0.017846,0.011492,0.023734,0.003963,-0.003366,-0.016638,-0.005251,-0.498263,0.024068,-1.266128,-262.298255,1.022365,71.579506
4.8164,-0.016967,0.011449,0.021546,0.003941,-0.003376,-0.016638,-0.005616,-0.498466,0.023213,-1.283771,-262.292699,1.040819,71.582617
4.837,-0.017121,0.01144,0.022508,0.003974,-0.003359,-0.016632,-0.00594,-0.498441,0.021669,-1.283771,-262.292699,1.040819,71.582617
4.8571,-0.017164,0.011574,0.022231,0.004002,-0.003345,-0.016628,-0.00594,-0.498441,0.021669,-1.283771,-262.292699,1.040819,71.582617
4.8768,-0.01639,0.010932,0.023448,0.004025,-0.003334,-0.016624,-0.005659,-0.498438,0.021534,-1.287551,-262.287062,1.044653,71.585754
4.8971,-0.016657,0.011267,0.021646,0.003998,-0.003345,-0.016626,-0.005144,-0.498652,0.022228,-1.287551,-262.287062,1.044653,71.585754
4.9164,-0.0156,0.010975,0.022028,0.003976,-0.003355,-0.016627,-0.005488,-0.498717,0.021116,-1.280776,-262.281427,1.037619,71.588924
4.9366,-0.015859,0.010957,0.020571,0.003916,-0.003379,-0.016631,-0.004455,-0.498891,0.021926,-1.280776,-262.281427,1.037619,71.588924
4.9566,-0.015942,0.011169,0.020249,0.003867,-0.003399,-0.016634,-0.004455,-0.498891,0.021926,-1.280776,-262.281427,1.037619,71.588924
4.9766,-0.01529,0.010943,0.019868,0.003826,-0.003415,-0.016636,-0.005447,-0.498863,0.019555,-1.284583,-262.275809,1.041702,71.592067
4.997,-0.015612,0.010946,0.022393,0.003858,-0.003399,-0.016625,-0.005309,-0.498917,0.019603,-1.284583,-262.275809,1.041702,71.592067
5.017,-0.014785,0.010909,0.019425,0.003883,-0.003386,-0.016616,-0.004069,-0.499032,0.021864,-1.296082,-262.270195,1.054783,71.595153
5.0368,-0.014474,0.01046,0.018971,0.003872,-0.00339,-0.016612,-0.004796,-0.499004,0.019627,-1.296082,-262.270195,1.054783,71.595153
5.0574,-0.01505,0.010766,0.01982,0.003862,-0.003393,-0.016608,-0.004796,-0.499004,0.019627,-1.296082,-262.270195,1.054783,71.595153
5.077,-0.013976,0.010446,0.01864,0.003854,-0.003396,-0.016605,-0.004777,-0.499273,0.019124,-1.291371,-262.264568,1.049496,71.59827
5.0975,-0.013985,0.010697,0.018311,0.003849,-0.003395,-0.016597,-0.004634,-0.499366,0.018849,-1.291371,-262.264568,1.049496,71.59827
5.1163,-0.013451,0.010379,0.017157,0.003844,-0.003394,-0.016591,-0.00452,-0.499326,0.017771,-1.293441,-262.258939,1.051714,71.601377
5.1367,-0.013576,0.010431,0.016346,0.003852,-0.003383,-0.016563,-0.004679,-0.499531,0.017187,-1.293441,-262.258939,1.051714,71.601377
5.1567,-0.01305,0.010354,0.017986,0.003858,-0.003374,-0.01654,-0.004679,-0.499531,0.017187,-1.293441,-262.258939,1.051714,71.601377
5.1769,-0.012567,0.010116,0.016206,0.003863,-0.003367,-0.016521,-0.003714,-0.499702,0.017292,-1.293897,-262.253306,1.052357,71.604484
5.1969,-0.012725,0.00999,0.01758,0.003817,-0.003378,-0.016503,-0.003937,-0.499766,0.016766,-1.293897,-262.253306,1.052357,71.604484
5.2169,-0.012443,0.009942,0.015962,0.003779,-0.003388,-0.016487,-0.003635,-0.500036,0.017055,-1.291241,-262.247717,1.049305,71.60758
5.2369,-0.012017,0.010358,0.015225,0.003781,-0.003377,-0.016454,-0.004236,-0.500002,0.016034,-1.291241,-262.247717,1.049305,71.60758
5.2567,-0.011963,0.010085,0.016492,0.003783,-0.003369,-0.016428,-0.004236,-0.500002,0.016034,-1.291241,-262.247717,1.049305,71.60758
5.2766,-0.011587,0.009631,0.01459,0.003784,-0.003362,-0.016406,-0.003393,-0.499985,0.015803,-1.297049,-262.24213,1.056103,71.610648
5.2964,-0.011417,0.010117,0.014305,0.003744,-0.003367,-0.016367,-0.003682,-0.500135,0.015228,-1.297049,-262.24213,1.056103,71.610648
5.3165,-0.011185,0.010036,0.015532,0.003712,-0.003371,-0.016335,-0.004,-0.499936,0.013783,-1.295231,-262.236545,1.054019,71.613724
5.3366,-0.010881,0.009673,0.013151,0.003645,-0.003391,-0.016317,-0.003316,-0.49991,0.015372,-1.295231,-262.236545,1.054019,71.613724
5.3569,-0.010799,0.009985,0.015843,0.003591,-0.003408,-0.016301,-0.003316,-0.49991,0.015372,-1.295231,-262.236545,1.054019,71.613724
5.3767,-0.010212,0.009391,0.013245,0.003546,-0.003421,-0.016288,-0.002563,-0.500089,0.015163,-1.299591,-262.230987,1.058848,71.616763
5.3972,-0.010586,0.009454,0.012559,0.003487,-0.00343,-0.016235,-0.002924,-0.500307,0.014269,-1.299591,-262.230987,1.058848,71.616763
5.4164,-0.009531,0.009592,0.013691,0.003439,-0.003437,-0.016191,-0.004068,-0.500613,0.012045,-1.311534,-262.225529,1.073093,71.619694
5.4368,-0.010001,0.009242,0.012666,0.00338,-0.003444,-0.016114,-0.002683,-0.500389,0.013512,-1.311534,-262.225529,1.073093,71.619694
5.4567,-0.009924,0.009524,0.01416,0.003332,-0.003451,-0.016053,-0.002683,-0.500389,0.013512,-1.311534,-262.225529,1.073093,71.619694
5.4769,-0.009146,0.009229,0.012758,0.003291,-0.003456,-0.016004,-0.002557,-0.500566,0.013483,-1.318281,-262.220033,1.081114,71.622613
5.497,-0.009166,0.009,0.012872,0.003256,-0.003458,-0.015938,-0.002574,-0.500649,0.013111,-1.318281,-262.220033,1.081114,71.622613
5.5167,-0.008582,0.009211,0.010651,0.003227,-0.00346,-0.015886,-0.002495,-0.501066,0.012362,-1.326976,-262.214594,1.090525,71.625456
5.5367,-0.008796,0.009309,0.011847,0.003266,-0.003432,-0.015593,-0.003085,-0.500794,0.010782,-1.326976,-262.214594,1.090525,71.625456
5.557,-0.008441,0.008941,0.010799,0.003296,-0.003411,-0.015374,-0.003085,-0.500794,0.010782,-1.326976,-262.214594,1.090525,71.625456
5.5771,-0.008376,0.008786,0.00976,0.003318,-0.003396,-0.01521,-0.002797,-0.501173,0.010134,-1.330393,-262.209175,1.093745,71.628265
5.5969,-0.007589,0.0093,0.011334,0.003349,-0.003374,-0.014957,-0.003027,-0.501196,0.009905,-1.330393,-262.209175,1.093745,71.628265
5.6167,-0.007424,0.008786,0.011006,0.003372,-0.003359,-0.014771,-0.001704,-0.500771,0.010861,-1.31494,-262.204027,1.058003,71.630921
5.6366,-0.007286,0.008739,0.009318,0.003249,-0.003389,-0.014789,-0.001798,-0.501156,0.010975,-1.31494,-262.204027,1.058003,71.630921
5.6567,-0.007858,0.008763,0.010033,0.00315,-0.003414,-0.014802,-0.001798,-0.501156,0.010975,-1.31494,-262.204027,1.058003,71.630921
5.6765,-0.007076,0.008617,0.010652,0.003068,-0.003435,-0.014812,-0.002601,-0.501348,0.009426,-1.304887,-262.19898,1.033728,71.633513
5.6971,-0.007339,0.008359,0.009991,0.003059,-0.003433,-0.014656,-0.002197,-0.501367,0.009853,-1.304887,-262.19898,1.033728,71.633513
5.717,-0.006684,0.008587,0.009774,0.00305,-0.003433,-0.014541,-0.002148,-0.50172,0.009534,-1.329733,-262.193998,1.07037,71.635992
5.7372,-0.006474,0.008514,0.009702,0.002992,-0.003444,-0.014436,-0.001735,-0.501424,0.009729,-1.329733,-262.193998,1.07037,71.635992
5.757,-0.006093,0.008715,0.00898,0.002943,-0.003455,-0.014358,-0.001735,-0.501424,0.009729,-1.329733,-262.193998,1.07037,71.635992
5.7768,-0.005702,0.008157,0.008701,0.002903,-0.003464,-0.014298,-0.001385,-0.501407,0.008372,-1.327964,-262.18889,1.060373,71.638506
5.797,-0.006009,0.008506,0.005923,0.002831,-0.003472,-0.014022,-0.001319,-0.501601,0.008441,-1.327964,-262.18889,1.060373,71.638506
5.8169,-0.005635,0.008436,0.007365,0.002771,-0.003481,-0.013821,-0.002896,-0.501594,0.005472,-1.337136,-262.183905,1.067228,71.640898
5.837,-0.005344,0.008084,0.008718,0.002802,-0.003469,-0.013377,-0.001955,-0.501559,0.007194,-1.337136,-262.183905,1.067228,71.640898
5.8571,-0.005789,0.008075,0.0081,0.002824,-0.003462,-0.013062,-0.001955,-0.501559,0.007194,-1.337136,-262.183905,1.067228,71.640898
5.8768,-0.00513,0.007947,0.007243,0.00284,-0.00346,-0.012837,-0.001541,-0.502052,0.007524,-1.342418,-262.179035,1.061344,71.643159
5.8968,-0.004894,0.008121,0.006805,0.002808,-0.003461,-0.012715,-0.001485,-0.502064,0.007344,-1.342418,-262.179035,1.061344,71.643159
5.9169,-0.00433,0.007539,0.005145,0.002781,-0.003464,-0.012629,-0.001338,-0.501969,0.006426,-1.324561,-262.174709,0.995606,71.645097
5.9369,-0.004352,0.007603,0.004743,0.002804,-0.003439,-0.01196,-0.001668,-0.502415,0.005242,-1.324561,-262.174709,0.995606,71.645097
5.9568,-0.004282,0.007736,0.005917,0.002818,-0.003424,-0.011494,-0.001668,-0.502415,0.005242,-1.324561,-262.174709,0.995606,71.645097
5.9767,-0.0041,0.007553,0.005821,0.002826,-0.003416,-0.011171,-0.001147,-0.5024,0.005389,-1.326957,-262.170103,0.991366,71.647128
5.9967,-0.003841,0.007603,0.006199,0.002756,-0.003428,-0.011033,-0.001127,-0.502432,0.005503,-1.326957,-262.170103,0.991366,71.647128
6.0167,-0.003828,0.007859,0.005087,0.002699,-0.003439,-0.010937,-0.000607,-0.502474,0.005909,-1.301485,-262.166679,0.91636,71.648555
6.0366,-0.004068,0.007308,0.004522,0.002655,-0.003452,-0.010755,-0.001173,-0.50217,0.005147,-1.301485,-262.166679,0.91636,71.648555
6.0565,-0.003776,0.007437,0.006292,0.002618,-0.003465,-0.010627,-0.001173,-0.50217,0.005147,-1.301485,-262.166679,0.91636,71.648555
6.0764,-0.003236,0.006897,0.003664,0.002587,-0.003478,-0.010537,-0.000457,-0.502692,0.005847,-1.310152,-262.1626,0.876506,71.650198
6.0968,-0.003302,0.007377,0.003851,0.002527,-0.003473,-0.010396,-0.000817,-0.502875,0.0049,-1.310152,-262.1626,0.876506,71.650198
6.1165,-0.00283,0.007424,0.003965,0.002477,-0.003471,-0.010296,-0.001256,-0.502729,0.003519,-1.315477,-262.158511,0.852066,71.651766
6.1368,-0.002472,0.007208,0.004299,0.002442,-0.00347,-0.00987,-0.000835,-0.502587,0.003921,-1.315477,-262.158511,0.852066,71.651766
6.1566,-0.002719,0.006967,0.003229,0.002411,-0.003474,-0.009572,-0.000835,-0.502587,0.003921,-1.315477,-262.158511,0.852066,71.651766
6.1769,-0.002743,0.006882,0.003651,0.002384,-0.00348,-0.009364,-0.000969,-0.503173,0.002803,-1.322198,-262.154506,0.849591,71.653259
6.1976,-0.002381,0.006948,0.003392,0.002396,-0.003456,-0.008886,-0.00092,-0.503166,0.003106,-1.322198,-262.154506,0.849591,71.653259
6.2164,-0.002375,0.006755,0.004346,0.002401,-0.00344,-0.008555,-0.000586,-0.503143,0.003134,-1.317187,-262.151185,0.774976,71.654402
6.2368,-0.002272,0.006817,0.003123,0.002275,-0.003447,-0.008783,-0.000179,-0.503238,0.004274,-1.317187,-262.151185,0.774976,71.654402
6.2569,-0.00202,0.007174,0.0033,0.002176,-0.003452,-0.008943,-0.000179,-0.503238,0.004274,-1.317187,-262.151185,0.774976,71.654402
6.2765,-0.002303,0.006814,0.002667,0.002097,-0.003456,-0.009054,-0.000265,-0.502925,0.003036,-1.300498,-262.148562,0.699063,71.655275
6.2965,-0.001715,0.006779,0.003044,0.002104,-0.003448,-0.008561,-0.000533,-0.503043,0.002855,-1.300498,-262.148562,0.699063,71.655275
6.3167,-0.0014,0.006531,0.000664,0.002106,-0.003446,-0.008216,-0.000104,-0.503315,0.002792,-1.341536,-262.145315,0.772913,71.656312
6.3367,-0.001698,0.006375,0.00177,0.002214,-0.003396,-0.006956,-0.000982,-0.50346,0.000824,-1.341536,-262.145315,0.772913,71.656312
6.3569,-0.001659,0.006582,0.002184,0.002296,-0.003365,-0.006062,-0.000982,-0.50346,0.000824,-1.341536,-262.145315,0.772913,71.656312
6.3769,-0.001286,0.006549,0.001517,0.002355,-0.003345,-0.005431,-0.00048,-0.503523,0.001923,-1.326951,-262.142681,0.697642,71.657106
6.3971,-0.001319,0.006094,0.003333,0.002303,-0.003355,-0.005478,-0.000486,-0.503505,0.001722,-1.326951,-262.142681,0.697642,71.657106
6.4167,-0.001019,0.006019,0.001165,0.002262,-0.003363,-0.005513,0.000381,-0.503903,0.003333,-1.251864,-262.14268,0.622555,71.657106
6.4374,-0.001516,0.006203,0.001807,0.002219,-0.003343,-0.005363,-0.000352,-0.503973,0.001361,-1.251864,-262.14268,0.622555,71.657106
6.4568,-0.001137,0.006372,0.0017,0.002183,-0.003329,-0.005256,-0.000352,-0.503973,0.001361,-1.251864,-262.14268,0.622555,71.657106
6.4767,-0.001027,0.006543,0.001715,0.002154,-0.003319,-0.005178,-0.00027,-0.503628,0.001699,-1.246544,-262.142676,0.547919,71.657108
6.4971,-0.001371,0.006457,0.001668,0.002099,-0.00334,-0.005304,-0.000223,-0.503558,0.001706,-1.246544,-262.142676,0.547919,71.657108
6.517,-0.001531,0.006453,0.001474,0.002057,-0.003357,-0.005389,-0.00052,-0.503542,0.001667,-1.249917,-262.142672,0.472921,71.657109
6.5371,-0.00124,0.006651,0.003132,0.002115,-0.00336,-0.005335,-0.000756,-0.503546,0.001492,-1.249917,-262.142672,0.472921,71.657109
6.5572,-0.001263,0.006169,0.001356,0.002161,-0.003363,-0.005295,-0.000756,-0.503546,0.001492,-1.249917,-262.142672,0.472921,71.657109
6.5769,-0.001702,0.006327,0.001595,0.002198,-0.003366,-0.005264,-0.00057,-0.503832,0.001353,-1.270786,-262.142633,0.397955,71.65712
6.5969,-0.001125,0.006558,0.001652,0.002224,-0.003359,-0.005228,-0.000699,-0.503768,0.001451,-1.270786,-262.142633,0.397955,71.65712
6.6168,-0.001276,0.00675,0.001274,0.002244,-0.003354,-0.005199,-0.000281,-0.503443,0.001647,-1.248522,-262.142559,0.322917,71.657144
6.637,-0.001259,0.006449,0.00144,0.002245,-0.003373,-0.005105,-0.000595,-0.503268,0.001307,-1.248522,-262.142559,0.322917,71.657144
6.6567,-0.001617,0.006161,0.001002,0.002246,-0.003389,-0.005034,-0.000595,-0.503268,0.001307,-1.248522,-262.142559,0.322917,71.657144
6.6766,-0.001238,0.006284,0.002972,0.002246,-0.003402,-0.004981,-0.0011,-0.503847,0.000985,-1.239742,-262.142366,0.247926,71.657207
6.6966,-0.001531,0.006499,0.002088,0.002238,-0.003399,-0.005188,-0.000537,-0.503794,0.001793,-1.239742,-262.142366,0.247926,71.657207
6.7164,-0.0014,0.006088,0.001522,0.002233,-0.003394,-0.00533,-0.000462,-0.503506,0.002076,-1.235416,-262.142188,0.172816,71.657266
6.7367,-0.001199,0.006522,0.002424,0.002245,-0.003384,-0.005319,-0.000609,-0.503875,0.001571,-1.235416,-262.142188,0.172816,71.657266
6.7567,-0.001341,0.006464,0.002062,0.002254,-0.003375,-0.005307,-0.000609,-0.503875,0.001571,-1.235416,-262.142188,0.172816,71.657266
6.777,-0.001124,0.006331,0.00246,0.002262,-0.003367,-0.005295,-0.000252,-0.50359,0.001965,-1.246874,-262.14104,0.097921,71.657632
6.7969,-0.001118,0.005939,0.001407,0.00217,-0.003387,-0.005559,-9.2e-05,-0.503627,0.002155,-1.246874,-262.14104,0.097921,71.657632
6.8167,-0.000792,0.006465,0.002266,0.002098,-0.003401,-0.005741,-0.000352,-0.504131,0.001291,-1.240685,-262.139164,0.02292,71.658241
6.8368,-0.001203,0.006267,0.002408,0.001976,-0.003413,-0.005878,0.0003,-0.503592,0.00217,-1.240685,-262.139164,0.02292,71.658241
6.8568,-0.000955,0.006143,0.000875,0.00188,-0.003422,-0.005969,0.0003,-0.503592,0.00217,-1.240685,-262.139164,0.02292,71.658241
6.877,-0.000746,0.006175,0.000291,0.001803,-0.003429,-0.006027,-0.000423,-0.503995,0.000642,-1.275895,-262.136365,0.050158,71.659056
6.8967,-0.000805,0.006073,0.000653,0.001904,-0.003389,-0.0052,-0.000484,-0.503942,0.000473,-1.275895,-262.136365,0.050158,71.659056
6.9166,-0.000558,0.00559,0.001535,0.001979,-0.003361,-0.004613,-0.000422,-0.50402,0.00049,-1.322487,-262.13386,0.125222,71.659678
6.9368,-0.000408,0.005675,-0.000317,0.001905,-0.003332,-0.004728,0.000174,-0.504381,0.00144,-1.322487,-262.13386,0.125222,71.659678
6.9567,-0.000426,0.00598,1e-06,0.001846,-0.003309,-0.004809,0.000174,-0.504381,0.00144,-1.322487,-262.13386,0.125222,71.659678
6.9767,-0.000735,0.00605,0.001507,0.0018,-0.003289,-0.004865,-0.000419,-0.504029,-1.5e-05,-1.260767,-262.133668,0.050019,71.659738
6.9969,-0.000577,0.006054,0.000387,0.001849,-0.003282,-0.004445,-0.000236,-0.503998,0.000596,-1.260767,-262.133668,0.050019,71.659738
7.0172,-0.000797,0.005887,-0.001024,0.001885,-0.00328,-0.004151,-0.000355,-0.503989,0.000316,-1.290869,-262.132531,-0.024774,71.660057
7.0369,-0.000547,0.005626,0.00086,0.002101,-0.003228,-0.00317,-0.001202,-0.504101,-0.000869,-1.290869,-262.132531,-0.024774,71.660057
7.0569,-0.000415,0.006075,-0.000187,0.002269,-0.003192,-0.002468,-0.001202,-0.504101,-0.000869,-1.290869,-262.132531,-0.024774,71.660057
7.0771,-0.00062,0.005729,6.6e-05,0.002401,-0.003169,-0.001968,-0.0005,-0.503941,-0.000212,-1.25731,-262.132212,-0.099907,71.660163
7.0971,-0.000816,0.005966,0.000785,0.002376,-0.003187,-0.002023,-0.000534,-0.504078,-0.000101,-1.25731,-262.132212,-0.099907,71.660163
7.1167,-0.000404,0.00571,-0.000471,0.002358,-0.003202,-0.002062,-0.000415,-0.504034,0.000785,-1.182307,-262.132209,-0.174909,71.660165
7.1369,-0.000482,0.005637,0.001019,0.002369,-0.003196,-0.001943,-0.000626,-0.50427,-0.000373,-1.182307,-262.132209,-0.174909,71.660165
7.1567,-0.000476,0.00558,0.000329,0.002378,-0.003192,-0.00186,-0.000626,-0.50427,-0.000373,-1.182307,-262.132209,-0.174909,71.660165
7.1767,-0.000527,0.005731,0.001619,0.002385,-0.003191,-0.001801,-0.000307,-0.504422,0.000328,-1.107041,-262.132188,-0.250176,71.660178
7.197,-0.000502,0.00574,0.000293,0.002263,-0.003211,-0.002457,-5.2e-05,-0.504357,0.000872,-1.107041,-262.132188,-0.250176,71.660178
7.2167,-0.00047,0.005798,0.000907,0.00217,-0.003224,-0.002923,-0.000351,-0.504262,0.000291,-1.063419,-262.132139,-0.325155,71.660209
7.237,-0.000525,0.005864,-0.000136,0.002096,-0.00324,-0.00324,-3.7e-05,-0.504208,0.000853,-1.063419,-262.132139,-0.325155,71.660209
7.2565,-0.000581,0.005762,0.001151,0.002039,-0.003251,-0.003463,-3.7e-05,-0.504208,0.000853,-1.063419,-262.132139,-0.325155,71.660209
7.2765,-0.000924,0.005774,0.000812,0.001995,-0.003258,-0.00362,3.4e-05,-0.504273,0.001113,-1.138134,-262.131513,-0.39987,71.660508
7.2966,-0.000491,0.005761,0.000371,0.001987,-0.00326,-0.003797,-0.00019,-0.504258,0.000983,-1.138134,-262.131513,-0.39987,71.660508
7.3167,-0.000446,0.005546,0.001806,0.001981,-0.00326,-0.003921,-0.00025,-0.504322,0.000278,-1.213344,-262.129655,-0.47508,71.661227
7.3371,-0.000234,0.005975,0.001212,0.001853,-0.003257,-0.004363,0.000411,-0.504445,0.00166,-1.213344,-262.129655,-0.47508,71.661227
7.3569,-0.00028,0.005826,0.000659,0.001755,-0.003252,-0.004671,0.000411,-0.504445,0.00166,-1.213344,-262.129655,-0.47508,71.661227
7.377,0.000112,0.005252,0.00091,0.001679,-0.003246,-0.004886,0.000133,-0.504301,0.000506,-1.233897,-262.127423,-0.411806,71.662032
7.397,0.000225,0.005484,0.000212,0.001653,-0.003222,-0.004514,0.000323,-0.504499,0.000654,-1.233897,-262.127423,-0.411806,71.662032
7.4168,-0.000267,0.005246,-0.001346,0.001629,-0.003205,-0.004249,0.00035,-0.50455,0.000166,-1.307473,-262.126612,-0.336811,71.662246
7.4367,-0.000192,0.005358,0.00141,0.001856,-0.003137,-0.003104,-0.000831,-0.504736,-0.001207,-1.307473,-262.126612,-0.336811,71.662246
7.4566,9.9e-05,0.00524,-0.000686,0.002032,-0.003088,-0.002278,-0.000831,-0.504736,-0.001207,-1.307473,-262.126612,-0.336811,71.662246
7.4766,0.000222,0.005058,0.001404,0.002168,-0.003054,-0.001684,-0.000184,-0.504893,-0.000863,-1.296987,-262.124223,-0.357936,71.662935
7.4969,0.000308,0.005362,-0.000425,0.002036,-0.003046,-0.001927,0.000279,-0.504928,3.6e-05,-1.296987,-262.124223,-0.357936,71.662935
7.5167,-0.000265,0.005223,-0.001277,0.001933,-0.003038,-0.002096,9.4e-05,-0.504641,-0.000428,-1.22199,-262.124154,-0.432933,71.66298
7.5367,0.000134,0.005144,-0.00034,0.002093,-0.003009,-0.001551,-0.000835,-0.504766,-0.001209,-1.22199,-262.124154,-0.432933,71.66298
7.5565,0.000565,0.005192,-0.00036,0.002217,-0.002989,-0.001161,-0.000835,-0.504766,-0.001209,-1.22199,-262.124154,-0.432933,71.66298
7.5769,0.000482,0.005214,-0.000169,0.002313,-0.002977,-0.000881,0.000399,-0.504831,-0.000381,-1.14986,-262.123772,-0.508247,71.663191
7.5969,0.0001,0.005031,-0.001153,0.002129,-0.002996,-0.001177,0.0004,-0.504815,-0.000297,-1.14986,-262.123772,-0.508247,71.663191
7.6167,1.3e-05,0.005109,-2.4e-05,0.001987,-0.00301,-0.001382,-0.000477,-0.504982,-0.00116,-1.075177,-262.123523,-0.58293,71.663389
7.6366,0.000595,0.004904,-0.002071,0.001961,-0.003016,-0.001616,-3.8e-05,-0.504899,-0.000117,-1.075177,-262.123523,-0.58293,71.663389
7.6569,4.5e-05,0.005089,0.000688,0.001942,-0.00302,-0.001782,-3.8e-05,-0.504899,-0.000117,-1.075177,-262.123523,-0.58293,71.663389
7.6766,0.000527,0.005161,0.001141,0.001928,-0.003021,-0.001898,0.00043,-0.504955,0.000662,-1.094839,-262.122873,-0.658161,71.66383
7.697,4.6e-05,0.005324,-0.000627,0.001747,-0.003031,-0.002534,0.000717,-0.504912,0.000858,-1.094839,-262.122873,-0.658161,71.66383
7.7169,0.000389,0.005062,-0.001527,0.001608,-0.003036,-0.002981,-0.000224,-0.504751,-0.000676,-1.138613,-262.121407,-0.733246,71.664684
7.737,0.000325,0.005077,0.001,0.001758,-0.002999,-0.002092,-0.000372,-0.504924,-0.001453,-1.138613,-262.121407,-0.733246,71.664684
7.7568,0.00029,0.005246,0.000852,0.001872,-0.002974,-0.001451,-0.000372,-0.504924,-0.001453,-1.138613,-262.121407,-0.733246,71.664684
7.7768,0.000425,0.004978,-0.000194,0.001959,-0.002958,-0.000989,0.000776,-0.504845,0.000763,-1.213295,-262.119912,-0.658564,71.665273
7.7972,0.000634,0.00505,0.000843,0.001787,-0.002978,-0.001613,0.000591,-0.504931,0.000346,-1.213295,-262.119912,-0.658564,71.665273
7.8164,0.000246,0.004966,-0.000772,0.001657,-0.002991,-0.002052,0.001085,-0.504979,0.000829,-1.137724,-262.119378,-0.734135,71.665675
7.8369,0.000699,0.004814,0.000938,0.001715,-0.002975,-0.001815,-3.6e-05,-0.505031,-0.000628,-1.137724,-262.119378,-0.734135,71.665675
7.8568,0.000862,0.00469,-0.001036,0.001759,-0.002964,-0.001645,-3.6e-05,-0.505031,-0.000628,-1.137724,-262.119378,-0.734135,71.665675
7.8767,0.001153,0.004907,0.000977,0.001792,-0.002957,-0.001523,0.000393,-0.505418,-0.00111,-1.198574,-262.117808,-0.808574,71.666502
7.8966,0.000637,0.004822,-0.001367,0.001608,-0.002926,-0.001657,0.000909,-0.505299,-0.000273,-1.198574,-262.117808,-0.808574,71.666502
7.9164,0.000883,0.00455,0.001111,0.001465,-0.002902,-0.001746,-7e-06,-0.505264,-0.001411,-1.13886,-262.116229,-0.846882,71.667501
7.9367,0.000852,0.004476,-0.00171,0.001241,-0.002872,-0.002454,0.00132,-0.505437,0.00088,-1.13886,-262.116229,-0.846882,71.667501
7.9568,0.000758,0.00444,-0.000511,0.001069,-0.002846,-0.002949,0.00132,-0.505437,0.00088,-1.13886,-262.116229,-0.846882,71.667501
7.9764,0.000877,0.004198,-0.000595,0.000936,-0.002823,-0.003295,0.000551,-0.505666,-0.000574,-1.213854,-262.114756,-0.897356,71.668318
7.9965,0.001032,0.004564,-0.001784,0.001023,-0.002764,-0.002728,0.000566,-0.505733,-0.00059,-1.213854,-262.114756,-0.897356,71.668318
8.0165,0.000891,0.004438,-0.000613,0.001086,-0.002719,-0.002323,0.000136,-0.505468,-0.001821,-1.288856,-262.114021,-0.822354,71.668503
8.0369,0.000965,0.004501,-0.000539,0.001143,-0.002704,-0.001957,0.000539,-0.505555,-0.000724,-1.288856,-262.114021,-0.822354,71.668503
8.0565,0.000846,0.004264,-0.000773,0.001184,-0.002694,-0.001695,0.000539,-0.505555,-0.000724,-1.288856,-262.114021,-0.822354,71.668503
8.0765,0.001146,0.004465,-0.000439,0.001214,-0.002688,-0.001507,0.000494,-0.505844,-0.000865,-1.314079,-262.112399,-0.875044,71.669145
8.0966,0.000933,0.004395,-0.002008,0.001192,-0.002661,-0.001395,0.000675,-0.50573,-0.000701,-1.314079,-262.112399,-0.875044,71.669145
8.1166,0.001081,0.004203,0.000634,0.001173,-0.002641,-0.001313,-5.9e-05,-0.505673,-0.002048,-1.246178,-262.11117,-0.950111,71.669838
8.1366,0.001386,0.003931,-0.001764,0.000997,-0.00262,-0.001877,0.001281,-0.50579,0.000403,-1.246178,-262.11117,-0.950111,71.669838
8.1567,0.001248,0.00419,-0.000274,0.000863,-0.002601,-0.002274,0.001281,-0.50579,0.000403,-1.246178,-262.11117,-0.950111,71.669838
8.1768,0.001435,0.003826,-0.000483,0.00076,-0.002584,-0.002551,0.001155,-0.505915,-0.000326,-1.242444,-262.109781,-1.003139,71.67067
8.1972,0.001238,0.004381,-0.000605,0.000712,-0.002528,-0.002309,0.001174,-0.506033,-0.000396,-1.242444,-262.109781,-1.003139,71.67067
8.217,0.001062,0.004308,-0.000107,0.000673,-0.002486,-0.002133,0.000948,-0.505672,-0.000657,-1.317328,-262.10868,-0.932935,71.671004
8.2371,0.001206,0.003726,-0.000931,0.000685,-0.002504,-0.002117,0.001003,-0.505693,-0.000159,-1.317328,-262.10868,-0.932935,71.671004
8.2568,0.001425,0.004288,-0.000589,0.000693,-0.002519,-0.002105,0.001003,-0.505693,-0.000159,-1.317328,-262.10868,-0.932935,71.671004
8.2769,0.001355,0.003858,-0.002398,0.000699,-0.002531,-0.002096,0.001146,-0.505787,-0.000654,-1.392333,-262.107574,-1.00794,71.671396
8.2974,0.001414,0.004034,-0.001202,0.000794,-0.002499,-0.001489,0.000735,-0.505939,-0.001373,-1.392333,-262.107574,-1.00794,71.671396
8.3166,0.001469,0.004269,-0.001274,0.000864,-0.002477,-0.001052,0.000822,-0.506043,-0.001267,-1.389381,-262.106093,-1.061178,71.671943
8.3367,0.001109,0.003448,-0.001075,0.000896,-0.002482,-0.000777,0.000821,-0.505763,-0.001277,-1.389381,-262.106093,-1.061178,71.671943
8.3567,0.001332,0.003578,-0.001902,0.00092,-0.002489,-0.000581,0.000821,-0.505763,-0.001277,-1.389381,-262.106093,-1.061178,71.671943
8.3764,0.001556,0.004076,-0.001343,0.000937,-0.002495,-0.00044,0.000391,-0.506506,-0.001938,-1.314388,-262.105036,-1.130724,71.672605
8.3966,0.001353,0.004001,-0.00076,0.001008,-0.002431,-0.00017,0.00059,-0.506278,-0.0017,-1.314388,-262.105036,-1.130724,71.672605
8.4164,0.001574,0.003836,-0.001772,0.001061,-0.002384,2.3e-05,0.000993,-0.506071,-0.000773,-1.243793,-262.103984,-1.172187,71.673476
8.4365,0.001421,0.003766,-0.000346,0.001075,-0.002364,0.000159,0.000698,-0.506159,-0.00169,-1.243793,-262.103984,-1.172187,71.673476
8.4565,0.001748,0.003456,0.00024,0.001085,-0.002349,0.000256,0.000698,-0.506159,-0.00169,-1.243793,-262.103984,-1.172187,71.673476
8.4764,0.001687,0.003188,-0.000742,0.001092,-0.002339,0.000326,0.001908,-0.50663,0.00024,-1.16858,-262.103086,-1.154284,71.674383
8.4967,0.001583,0.003904,-0.000785,0.000818,-0.00224,-0.000446,0.001661,-0.506716,-0.000171,-1.16858,-262.103086,-1.154284,71.674383
8.5167,0.001947,0.003652,-0.000958,0.00061,-0.00216,-0.000983,0.001214,-0.506164,-0.000776,-1.098845,-262.102198,-1.164351,71.675404
8.5369,0.001564,0.003349,-0.000796,0.000534,-0.002151,-0.00092,0.001441,-0.506336,-0.000943,-1.098845,-262.102198,-1.164351,71.675404
8.5567,0.001751,0.003329,-0.001025,0.000474,-0.002145,-0.000869,0.001441,-0.506336,-0.000943,-1.098845,-262.102198,-1.164351,71.675404
8.5765,0.001592,0.003254,-0.000371,0.000426,-0.002141,-0.000828,0.001241,-0.5067,-0.001037,-1.173906,-262.10181,-1.197799,71.675634
8.5968,0.001888,0.003076,-0.001242,0.000404,-0.002087,-0.000907,0.001308,-0.506722,-0.000769,-1.173906,-262.10181,-1.197799,71.675634
8.6163,0.001668,0.002897,0.001226,0.000386,-0.002044,-0.000957,0.001261,-0.506945,-0.00125,-1.248523,-262.101465,-1.272416,71.675851
8.6366,0.001843,0.003485,-0.002197,0.000111,-0.001925,-0.001986,0.002199,-0.507089,0.001001,-1.248523,-262.101465,-1.272416,71.675851
8.6566,0.001446,0.003511,-0.000355,-9.8e-05,-0.001828,-0.002709,0.002199,-0.507089,0.001001,-1.248523,-262.101465,-1.272416,71.675851
8.6765,0.001551,0.003167,-0.000693,-0.000258,-0.001749,-0.003213,0.001278,-0.506539,-0.000378,-1.323515,-262.100837,-1.312234,71.676208
8.6968,0.001755,0.003363,-0.002211,-0.000104,-0.001784,-0.002694,0.001246,-0.506665,-0.000509,-1.323515,-262.100837,-1.312234,71.676208
8.7166,0.001789,0.00333,0.00012,1.2e-05,-0.001813,-0.002325,0.000627,-0.506636,-0.002211,-1.398561,-262.100837,-1.237188,71.676208
8.7369,0.001666,0.003155,-0.001767,-3.1e-05,-0.001824,-0.002305,0.001741,-0.506667,-8.8e-05,-1.398561,-262.100837,-1.237188,71.676208
8.7567,0.00149,0.003191,-0.001693,-6.5e-05,-0.001832,-0.002288,0.001741,-0.506667,-8.8e-05,-1.398561,-262.100837,-1.237188,71.676208
8.7766,0.002109,0.00311,-0.001672,-9.3e-05,-0.001838,-0.002273,0.000628,-0.506819,-0.001707,-1.473524,-262.100652,-1.312151,71.676231
8.7965,0.001886,0.002942,-0.001527,0.000123,-0.001822,-0.001468,0.000886,-0.506849,-0.001694,-1.473524,-262.100652,-1.312151,71.676231
8.8163,0.001619,0.002928,-0.00196,0.000286,-0.001812,-0.000891,0.001108,-0.507057,-0.001527,-1.548637,-262.100652,-1.237038,71.676231
8.8366,0.00141,0.003404,-0.001639,0.000472,-0.001771,-0.000389,0.00066,-0.50707,-0.001924,-1.548637,-262.100652,-1.237038,71.676231
8.8567,0.001323,0.003461,-0.00214,0.000613,-0.001742,-3.1e-05,0.00066,-0.50707,-0.001924,-1.548637,-262.100652,-1.237038,71.676231
8.8764,0.00184,0.002945,-0.001854,0.000721,-0.001722,0.000223,0.00024,-0.506591,-0.002166,-1.473589,-262.099987,-1.312087,71.676595
8.8967,0.001965,0.003151,-0.001454,0.000846,-0.001757,0.000468,0.000515,-0.506791,-0.002039,-1.473589,-262.099987,-1.312087,71.676595
8.9164,0.001715,0.0032,-0.001044,0.000942,-0.001786,0.00064,0.001226,-0.506856,-0.001454,-1.398437,-262.099889,-1.236935,71.676706
8.9365,0.001995,0.002926,0.000521,0.0,0.0,0.0,0.001186,-0.506805,-0.001074,-1.398437,-262.099889,-1.236935,71.676706
8.9566,0.001993,0.002971,-0.000295,0.0,0.0,0.0,0.001186,-0.506805,-0.001074,-1.398437,-262.099889,-1.236935,71.676706
8.9766,0.001293,0.003188,-0.000708,0.0,0.0,0.0,0.001844,-0.507033,-0.000294,-1.323286,-262.099857,-1.162419,71.676752
8.9969,0.001581,0.003006,-0.000912,0.0,0.0,0.0,0.001471,-0.506943,-0.000463,-1.323286,-262.099857,-1.162419,71.676752
9.0169,0.001575,0.003303,-0.00024,0.0,0.0,0.0,0.001116,-0.506994,-0.000912,-1.323286,-262.099857,-1.162419,71.676752
9.0371,0.001825,0.003258,-9.7e-05,0.0,0.0,0.0,0.001422,-0.506724,-0.0003,-1.323286,-262.099857,-1.162419,71.676752
9.057,0.001962,0.003055,-0.001473,0.0,0.0,0.0,0.001422,-0.506724,-0.0003,-1.323286,-262.099857,-1.162419,71.676752
9.0769,0.001697,0.003299,-0.002096,0.0,0.0,0.0,0.001211,-0.506945,-0.001473,-1.323286,-262.099857,-1.162419,71.676752
9.0969,0.002036,0.003242,-0.001514,0.0,0.0,0.0,0.000973,-0.506845,-0.001728,-1.323286,-262.099857,-1.162419,71.676752
9.1168,0.001768,0.003141,0.000198,0.0,0.0,0.0,0.001264,-0.506758,-0.001514,-1.323286,-262.099857,-1.162419,71.676752
9.1367,0.001923,0.002929,-0.001319,0.0,0.0,0.0,0.001815,-0.50685,4.6e-05,-1.323286,-262.099857,-1.162419,71.676752
9.157,0.002292,0.003224,-0.00155,0.0,0.0,0.0,0.001815,-0.50685,4.6e-05,-1.323286,-262.099857,-1.162419,71.676752
9.1765,0.001605,0.003111,-0.001734,0.0,0.0,0.0,0.001501,-0.506775,-0.00155,-1.323286,-262.099857,-1.162419,71.676752
9.1969,0.001837,0.003105,-0.001375,0.0,0.0,0.0,0.001184,-0.506821,-0.001624,-1.323286,-262.099857,-1.162419,71.676752
9.2169,0.001556,0.00317,-0.002007,0.0,0.0,0.0,0.001135,-0.506895,-0.001375,-1.323286,-262.099857,-1.162419,71.676752
9.2375,0.001502,0.003017,-0.001344,0.0,0.0,0.0,0.000587,-0.506835,-0.00195,-1.323286,-262.099857,-1.162419,71.676752
9.2571,0.0016,0.00342,-0.001313,0.0,0.0,0.0,0.000587,-0.506835,-0.00195,-1.323286,-262.099857,-1.162419,71.676752
9.2766,0.001849,0.003262,-0.002029,0.0,0.0,0.0,0.000931,-0.506579,-0.001313,-1.323286,-262.099857,-1.162419,71.676752
9.2968,0.001782,0.003097,-0.0004,0.0,0.0,0.0,0.000883,-0.506643,-0.001604,-1.323286,-262.099857,-1.162419,71.676752
9.3166,0.001702,0.003005,-0.001727,0.0,0.0,0.0,0.001578,-0.506903,-0.0004,-1.323286,-262.099857,-1.162419,71.676752
9.3369,0.001897,0.003211,-0.00033,0.0,0.0,0.0,0.00089,-0.506986,-0.001607,-1.323286,-262.099857,-1.162419,71.676752
9.3566,0.002046,0.002869,-0.001824,0.0,0.0,0.0,0.00089,-0.506986,-0.001607,-1.323286,-262.099857,-1.162419,71.676752
9.3767,0.001593,0.002942,-0.001634,0.0,0.0,0.0,0.001116,-0.50713,-0.001824,-1.323286,-262.099857,-1.162419,71.676752
9.397,0.001841,0.003478,-0.000836,0.0,0.0,0.0,0.00097,-0.507101,-0.001747,-1.323286,-262.099857,-1.162419,71.676752
9.4165,0.001623,0.003171,-0.00027,0.0,0.0,0.0,0.001415,-0.506522,-0.000836,-1.323286,-262.099857,-1.162419,71.676752
9.437,0.001619,0.003111,-0.001873,0.0,0.0,0.0,0.001479,-0.506802,-0.000321,-1.323286,-262.099857,-1.162419,71.676752
9.4568,0.001979,0.002839,-0.000247,0.0,0.0,0.0,0.001479,-0.506802,-0.000321,-1.323286,-262.099857,-1.162419,71.676752
9.4767,0.001714,0.003048,-0.001891,0.0,0.0,0.0,0.001853,-0.507161,-0.000247,-1.323286,-262.099857,-1.162419,71.676752
9.4973,0.001437,0.003192,-0.002733,0.0,0.0,0.0,0.0014,-0.507075,-0.000921,-1.323286,-262.099857,-1.162419,71.676752
9.5164,0.002001,0.003195,-0.001175,0.0,0.0,0.0,4.4e-05,-0.506806,-0.002733,-1.323286,-262.099857,-1.162419,71.676752
9.5365,0.001807,0.002909,-6.6e-05,0.0,0.0,0.0,0.001296,-0.506805,-0.001296,-1.323286,-262.099857,-1.162419,71.676752
9.5565,0.001782,0.002861,-0.000611,0.0,0.0,0.0,0.001296,-0.506805,-0.001296,-1.323286,-262.099857,-1.162419,71.676752
9.5767,0.001662,0.003471,-0.002978,0.0,0.0,0.0,0.00147,-0.507139,-0.000611,-1.323286,-262.099857,-1.162419,71.676752
9.5969,0.002105,0.00294,-0.001037,0.0,0.0,0.0,0.000915,-0.506883,-0.001601,-1.323286,-262.099857,-1.162419,71.676752
9.6164,0.001557,0.002829,-0.000233,0.0,0.0,0.0,0.001576,-0.50706,-0.001037,-1.323286,-262.099857,-1.162419,71.676752
9.637,0.001768,0.003429,-0.00107,0.0,0.0,0.0,0.001449,-0.507163,-0.00029,-1.323286,-262.099857,-1.162419,71.676752
9.657,0.001537,0.00316,-0.000475,0.0,0.0,0.0,0.001449,-0.507163,-0.00029,-1.323286,-262.099857,-1.162419,71.676752
9.6771,0.001715,0.003184,-0.002252,0.0,0.0,0.0,0.001295,-0.50684,-0.000475,-1.323286,-262.099857,-1.162419,71.676752
9.6974,0.001388,0.00325,-0.00303,0.0,0.0,0.0,0.001001,-0.50683,-0.001193,-1.323286,-262.099857,-1.162419,71.676752
9.7173,0.001608,0.003429,-0.00011,0.0,0.0,0.0,-0.000157,-0.506747,-0.00303,-1.323286,-262.099857,-1.162419,71.676752
9.7373,0.0021,0.003015,-0.000653,0.0,0.0,0.0,0.001393,-0.506588,-0.000382,-1.323286,-262.099857,-1.162419,71.676752
9.7568,0.00201,0.003237,-0.001846,0.0,0.0,0.0,0.001393,-0.506588,-0.000382,-1.323286,-262.099857,-1.162419,71.676752
9.7768,0.001697,0.002904,-0.001198,0.0,0.0,0.0,0.001069,-0.506762,-0.001846,-1.323286,-262.099857,-1.162419,71.676752
9.7971,0.001627,0.003068,-0.001615,0.0,0.0,0.0,0.001076,-0.506897,-0.001584,-1.323286,-262.099857,-1.162419,71.676752
9.8164,0.001717,0.003209,-0.000694,0.0,0.0,0.0,0.000803,-0.506931,-0.001615,-1.323286,-262.099857,-1.162419,71.676752
9.8368,0.001791,0.003175,-0.000978,0.0,0.0,0.0,0.00131,-0.506804,-0.00078,-1.323286,-262.099857,-1.162419,71.676752
9.857,0.001325,0.003098,-0.000613,0.0,0.0,0.0,0.00131,-0.506804,-0.00078,-1.323286,-262.099857,-1.162419,71.676752
9.8766,0.001769,0.003165,-0.001321,0.0,0.0,0.0,0.001013,-0.506902,-0.000613,-1.323286,-262.099857,-1.162419,71.676752
9.8971,0.001762,0.003757,-0.002565,0.0,0.0,0.0,0.001046,-0.506875,-0.000899,-1.323286,-262.099857,-1.162419,71.676752
9.9165,0.00212,0.003552,-0.001072,0.0,0.0,0.0,0.000454,-0.506242,-0.002565,-1.323286,-262.099857,-1.162419,71.676752
9.9369,0.001641,0.003246,-0.001083,0.0,0.0,0.0,0.001473,-0.506429,-0.001206,-1.323286,-262.099857,-1.162419,71.676752
9.9567,0.001654,0.003318,-0.000808,0.0,0.0,0.0,0.001473,-0.506429,-0.001206,-1.323286,-262.099857,-1.162419,71.676752
9.977,0.001573,0.003026,-0.000571,0.0,0.0,0.0,0.001242,-0.506682,-0.000808,-1.323286,-262.099857,-1.162419,71.676752
9.9967,0.00191,0.002869,-0.000867,0.0,0.0,0.0,0.001258,-0.5068,-0.000712,-1.323286,-262.099857,-1.162419,71.676752
10.0164,0.001843,0.003186,-0.000117,0.0,0.0,0.0,0.001468,-0.507131,-0.000867,-1.323286,-262.099857,-1.162419,71.676752
10.0367,0.002,0.002984,-0.001406,0.0,0.0,0.0,0.001754,-0.506843,-0.000186,-1.323286,-262.099857,-1.162419,71.676752
10.0566,0.001284,0.00278,-0.001164,0.0,0.0,0.0,0.001754,-0.506843,-0.000186,-1.323286,-262.099857,-1.162419,71.676752
10.0769,0.001866,0.00296,-0.001134,0.0,0.0,0.0,0.000691,-0.50722,-0.001164,-1.323286,-262.099857,-1.162419,71.676752
10.0968,0.001587,0.002837,-0.001052,0.0,0.0,0.0,0.000934,-0.507147,-0.001152,-1.323286,-262.099857,-1.162419,71.676752
10.1165,0.001957,0.003071,-0.000244,0.0,0.0,0.0,0.001051,-0.507163,-0.001052,-1.323286,-262.099857,-1.162419,71.676752
10.1371,0.001755,0.002885,-0.000531,0.0,0.0,0.0,0.001762,-0.50695,-0.000317,-1.323286,-262.099857,-1.162419,71.676752
10.157,0.001453,0.003281,-0.00142,0.0,0.0,0.0,0.001762,-0.50695,-0.000317,-1.323286,-262.099857,-1.162419,71.676752
10.1769,0.001596,0.003488,-0.001485,0.0,0.0,0.0,0.000729,-0.506719,-0.00142,-1.323286,-262.099857,-1.162419,71.676752
10.1971,0.001695,0.003141,-0.001553,0.0,0.0,0.0,0.000773,-0.506635,-0.001447,-1.323286,-262.099857,-1.162419,71.676752
10.217,0.001665,0.003336,0.00022,0.0,0.0,0.0,0.000903,-0.506858,-0.001553,-1.323286,-262.099857,-1.162419,71.676752
10.2369,0.002033,0.002764,-0.001287,0.0,0.0,0.0,0.001698,-0.506682,5.9e-05,-1.323286,-262.099857,-1.162419,71.676752
10.257,0.001932,0.003178,-0.000918,0.0,0.0,0.0,0.001698,-0.506682,5.9e-05,-1.323286,-262.099857,-1.162419,71.676752
10.2769,0.001306,0.003182,-0.001696,0.0,0.0,0.0,0.001464,-0.506822,-0.000918,-1.323286,-262.099857,-1.162419,71.676752
10.2967,0.001845,0.002885,-0.001332,0.0,0.0,0.0,0.001047,-0.50682,-0.001235,-1.323286,-262.099857,-1.162419,71.676752
10.3168,0.001774,0.00317,-0.000841,0.0,0.0,0.0,0.001165,-0.507114,-0.001332,-1.323286,-262.099857,-1.162419,71.676752
10.3366,0.00192,0.003345,-0.000692,0.0,0.0,0.0,0.001329,-0.506856,-0.000886,-1.323286,-262.099857,-1.162419,71.676752
10.3571,0.002279,0.002992,-0.00137,0.0,0.0,0.0,0.001329,-0.506856,-0.000886,-1.323286,-262.099857,-1.162419,71.676752
10.3772,0.001682,0.00294,-0.001419,0.0,0.0,0.0,0.00158,-0.507008,-0.00137,-1.323286,-262.099857,-1.162419,71.676752
10.3973,0.001475,0.003084,-0.000833,0.0,0.0,0.0,0.001316,-0.50703,-0.001391,-1.323286,-262.099857,-1.162419,71.676752
10.4167,0.002024,0.003169,-0.001708,0.0,0.0,0.0,0.00105,-0.506916,-0.000833,-1.323286,-262.099857,-1.162419,71.676752
10.437,0.001717,0.00303,-0.002397,0.0,0.0,0.0,0.001146,-0.506836,-0.001646,-1.323286,-262.099857,-1.162419,71.676752
10.4569,0.001842,0.002873,-0.001632,0.0,0.0,0.0,0.001146,-0.506836,-0.001646,-1.323286,-262.099857,-1.162419,71.676752
10.4768,0.001651,0.002926,-0.001306,0.0,0.0,0.0,0.001009,-0.507126,-0.001632,-1.323286,-262.099857,-1.162419,71.676752
10.497,0.001797,0.003467,-0.001579,0.0,0.0,0.0,0.000999,-0.507104,-0.001494,-1.323286,-262.099857,-1.162419,71.676752
10.5166,0.002146,0.002936,-0.001561,0.0,0.0,0.0,0.000991,-0.506533,-0.001579,-1.323286,-262.099857,-1.162419,71.676752
10.5367,0.001706,0.002757,0.000401,0.0,0.0,0.0,0.001327,-0.507028,-0.001562,-1.323286,-262.099857,-1.162419,71.676752
10.5569,0.001842,0.003151,-0.000979,0.0,0.0,0.0,0.001327,-0.507028,-0.001562,-1.323286,-262.099857,-1.162419,71.676752
10.5766,0.001621,0.002956,0.000156,0.0,0.0,0.0,0.001343,-0.506849,-0.000979,-1.323286,-262.099857,-1.162419,71.676752
10.5965,0.001686,0.002792,-0.001127,0.0,0.0,0.0,0.001488,-0.506928,-0.000518,-1.323286,-262.099857,-1.162419,71.676752
10.6164,0.002101,0.003106,-0.001404,0.0,0.0,0.0,0.001111,-0.507207,-0.001127,-1.323286,-262.099857,-1.162419,71.676752
10.6366,0.001501,0.002939,-0.001477,0.0,0.0,0.0,0.00136,-0.506922,-0.001379,-1.323286,-262.099857,-1.162419,71.676752
10.6565,0.001703,0.003402,-0.000302,0.0,0.0,0.0,0.00136,-0.506922,-0.001379,-1.323286,-262.099857,-1.162419,71.676752
10.6771,0.001796,0.003125,-0.000756,0.0,0.0,0.0,0.001548,-0.506598,-0.000302,-1.323286,-262.099857,-1.162419,71.676752
10.6972,0.001727,0.002865,-0.001909,0.0,0.0,0.0,0.00149,-0.506715,-0.000494,-1.323286,-262.099857,-1.162419,71.676752
10.7167,0.001845,0.002706,-0.001077,0.0,0.0,0.0,0.000754,-0.507134,-0.001909,-1.323286,-262.099857,-1.162419,71.676752
10.7369,0.001607,0.003211,-0.000722,0.0,0.0,0.0,0.001248,-0.507279,-0.001152,-1.323286,-262.099857,-1.162419,71.676752
10.7568,0.00188,0.00278,-0.001179,0.0,0.0,0.0,0.001248,-0.507279,-0.001152,-1.323286,-262.099857,-1.162419,71.676752
10.7773,0.00188,0.0033,-0.002292,0.0,0.0,0.0,0.001279,-0.50722,-0.001179,-1.323286,-262.099857,-1.162419,71.676752
10.7972,0.001666,0.002555,-0.001879,0.0,0.0,0.0,0.00105,-0.50701,-0.001628,-1.323286,-262.099857,-1.162419,71.676752
10.8168,0.001678,0.002986,-0.001682,0.0,0.0,0.0,0.000708,-0.507444,-0.001879,-1.323286,-262.099857,-1.162419,71.676752
10.837,0.00194,0.003137,0.000559,0.0,0.0,0.0,0.00081,-0.507052,-0.001699,-1.323286,-262.099857,-1.162419,71.676752
10.8569,0.001635,0.003346,-0.001917,0.0,0.0,0.0,0.00081,-0.507052,-0.001699,-1.323286,-262.099857,-1.162419,71.676752
10.8769,0.001917,0.002663,-0.000689,0.0,0.0,0.0,0.000658,-0.506654,-0.001917,-1.323286,-262.099857,-1.162419,71.676752
10.8971,0.001635,0.002769,-0.001512,0.0,0.0,0.0,0.001045,-0.506945,-0.001393,-1.323286,-262.099857,-1.162419,71.676752
10.9169,0.001699,0.002816,-0.001086,0.0,0.0,0.0,0.000864,-0.50723,-0.001512,-1.323286,-262.099857,-1.162419,71.676752
10.9368,0.001848,0.002919,-0.001421,0.0,0.0,0.0,0.001121,-0.507187,-0.001122,-1.323286,-262.099857,-1.162419,71.676752
10.9567,0.001798,0.003132,-0.00034,0.0,0.0,0.0,0.001121,-0.507187,-0.001122,-1.323286,-262.099857,-1.162419,71.676752
10.9765,0.001818,0.003309,-0.000444,0.0,0.0,0.0,0.001625,-0.506868,-0.00034,-1.323286,-262.099857,-1.162419,71.676752
10.9969,0.001496,0.003392,-0.002617,0.0,0.0,0.0,0.001611,-0.506793,-0.000384,-1.323286,-262.099857,-1.162419,71.676752
11.0166,0.001406,0.003079,-0.002539,0.0,0.0,0.0,0.000161,-0.506607,-0.002617,-1.323286,-262.099857,-1.162419,71.676752
11.0369,0.002055,0.003248,-0.001356,0.0,0.0,0.0,0.000115,-0.506894,-0.002546,-1.323286,-262.099857,-1.162419,71.676752
11.0567,0.001727,0.003359,-0.00077,0.0,0.0,0.0,0.000115,-0.506894,-0.002546,-1.323286,-262.099857,-1.162419,71.676752
11.0767,0.0018,0.003131,-0.001898,0.0,0.0,0.0,0.001334,-0.506641,-0.00077,-1.323286,-262.099857,-1.162419,71.676752
11.097,0.001495,0.003096,-0.002348,0.0,0.0,0.0,0.001129,-0.506734,-0.001232,-1.323286,-262.099857,-1.162419,71.676752
11.1168,0.002131,0.003017,-0.001855,0.0,0.0,0.0,0.000298,-0.506902,-0.002348,-1.323286,-262.099857,-1.162419,71.676752
11.1365,0.001996,0.002532,-0.002117,0.0,0.0,0.0,0.00111,-0.506975,-0.001896,-1.323286,-262.099857,-1.162419,71.676752
11.1567,0.001642,0.003015,-0.002181,0.0,0.0,0.0,0.00111,-0.506975,-0.001896,-1.323286,-262.099857,-1.162419,71.676752
11.1767,0.001816,0.003284,-0.000784,0.0,0.0,0.0,0.00053,-0.506984,-0.002181,-1.323286,-262.099857,-1.162419,71.676752
11.1967,0.001414,0.003163,-0.002918,0.0,0.0,0.0,0.000887,-0.506876,-0.001617,-1.323286,-262.099857,-1.162419,71.676752
11.2169,0.001767,0.003186,-0.00056,0.0,0.0,0.0,-7.4e-05,-0.506835,-0.002918,-1.323286,-262.099857,-1.162419,71.676752
11.2369,0.001491,0.002868,-0.001575,0.0,0.0,0.0,0.001346,-0.506816,-0.000765,-1.323286,-262.099857,-1.162419,71.676752
11.2566,0.00165,0.003272,-0.000679,0.0,0.0,0.0,0.001346,-0.506816,-0.000765,-1.323286,-262.099857,-1.162419,71.676752
11.2767,0.001932,0.003452,-0.000739,0.0,0.0,0.0,0.001304,-0.506728,-0.000679,-1.323286,-262.099857,-1.162419,71.676752
11.2968,0.0017,0.00319,-0.001461,0.0,0.0,0.0,0.00141,-0.506652,-0.000704,-1.323286,-262.099857,-1.162419,71.676752
11.3166,0.002026,0.003297,-0.001939,0.0,0.0,0.0,0.000954,-0.50681,-0.001461,-1.323286,-262.099857,-1.162419,71.676752
11.3366,0.001649,0.003267,-0.00096,0.0,0.0,0.0,0.00103,-0.506711,-0.001898,-1.323286,-262.099857,-1.162419,71.676752
11.3565,0.001649,0.003222,-0.00205,0.0,0.0,0.0,0.00103,-0.506711,-0.001898,-1.323286,-262.099857,-1.162419,71.676752
11.3768,0.001584,0.002957,-0.000815,0.0,0.0,0.0,0.000603,-0.506776,-0.00205,-1.323286,-262.099857,-1.162419,71.676752
11.3966,0.001564,0.003178,-0.000722,0.0,0.0,0.0,0.000836,-0.506886,-0.001542,-1.323286,-262.099857,-1.162419,71.676752
11.417,0.001496,0.003269,0.000473,0.0,0.0,0.0,0.001196,-0.506822,-0.000722,-1.323286,-262.099857,-1.162419,71.676752
11.4369,0.001867,0.003178,-0.000931,0.0,0.0,0.0,0.001698,-0.506738,0.000386,-1.323286,-262.099857,-1.162419,71.676752
11.4567,0.001441,0.003168,-0.001479,0.0,0.0,0.0,0.001698,-0.506738,0.000386,-1.323286,-262.099857,-1.162419,71.676752
11.4771,0.001455,0.003256,-0.002491,0.0,0.0,0.0,0.000687,-0.506831,-0.001479,-1.323286,-262.099857,-1.162419,71.676752
11.497,0.001679,0.003035,-0.002267,0.0,0.0,0.0,0.000483,-0.506795,-0.001889,-1.323286,-262.099857,-1.162419,71.676752
11.5165,0.001544,0.003033,-0.000924,0.0,0.0,0.0,0.000523,-0.506963,-0.002267,-1.323286,-262.099857,-1.162419,71.676752
11.5369,0.001796,0.003338,-0.002414,0.0,0.0,0.0,0.001032,-0.506966,-0.001024,-1.323286,-262.099857,-1.162419,71.676752
11.5566,0.001668,0.002851,-0.001627,0.0,0.0,0.0,0.001032,-0.506966,-0.001024,-1.323286,-262.099857,-1.162419,71.676752
11.5768,0.001698,0.002862,-0.000198,0.0,0.0,0.0,0.000838,-0.507148,-0.001627,-1.323286,-262.099857,-1.162419,71.676752
11.597,0.001484,0.002972,0.000297,0.0,0.0,0.0,0.001162,-0.507144,-0.001018,-1.323286,-262.099857,-1.162419,71.676752
11.6165,0.001771,0.003165,-0.001621,0.0,0.0,0.0,0.001635,-0.507028,0.000297,-1.323286,-262.099857,-1.162419,71.676752
11.6369,0.001975,0.003254,0.000686,0.0,0.0,0.0,0.001003,-0.50685,-0.001459,-1.323286,-262.099857,-1.162419,71.676752
11.6571,0.001878,0.003244,-0.001256,0.0,0.0,0.0,0.001003,-0.50685,-0.001459,-1.323286,-262.099857,-1.162419,71.676752
11.6769,0.00203,0.003125,-0.001075,0.0,0.0,0.0,0.001238,-0.506756,-0.001256,-1.323286,-262.099857,-1.162419,71.676752
11.6968,0.001671,0.003374,-0.000758,0.0,0.0,0.0,0.001336,-0.506804,-0.001183,-1.323286,-262.099857,-1.162419,71.676752
11.7168,0.001534,0.003147,-0.000749,0.0,0.0,0.0,0.001285,-0.506626,-0.000758,-1.323286,-262.099857,-1.162419,71.676752
11.737,0.001602,0.003247,-0.000902,0.0,0.0,0.0,0.001164,-0.506833,-0.00075,-1.323286,-262.099857,-1.162419,71.676752
11.757,0.00171,0.002784,-0.001249,0.0,0.0,0.0,0.001164,-0.506833,-0.00075,-1.323286,-262.099857,-1.162419,71.676752
11.7768,0.001719,0.003073,-0.000955,0.0,0.0,0.0,0.001073,-0.507215,-0.001249,-1.323286,-262.099857,-1.162419,71.676752
11.7967,0.001558,0.003053,-0.001095,0.0,0.0,0.0,0.001138,-0.507098,-0.00113,-1.323286,-262.099857,-1.162419,71.676752
11.8166,0.001586,0.003085,-0.002809,0.0,0.0,0.0,0.000999,-0.506947,-0.001095,-1.323286,-262.099857,-1.162419,71.676752
11.8368,0.001815,0.003219,-0.001001,0.0,0.0,0.0,0.000229,-0.506916,-0.002656,-1.323286,-262.099857,-1.162419,71.676752
11.8568,0.001971,0.003021,-0.001504,0.0,0.0,0.0,0.000229,-0.506916,-0.002656,-1.323286,-262.099857,-1.162419,71.676752
11.877,0.00187,0.00271,0.000634,0.0,0.0,0.0,0.001204,-0.506979,-0.001504,-1.323286,-262.099857,-1.162419,71.676752
11.8971,0.001835,0.003038,-0.000879,0.0,0.0,0.0,0.001609,-0.507106,-0.000629,-1.323286,-262.099857,-1.162419,71.676752
11.9168,0.001872,0.003183,-0.001196,0.0,0.0,0.0,0.001387,-0.506962,-0.000879,-1.323286,-262.099857,-1.162419,71.676752
11.9368,0.001817,0.003034,-0.000111,0.0,0.0,0.0,0.001273,-0.50683,-0.001167,-1.323286,-262.099857,-1.162419,71.676752
11.9566,0.001957,0.003234,-0.00289,0.0,0.0,0.0,0.001273,-0.50683,-0.001167,-1.323286,-262.099857,-1.162419,71.676752
11.9766,0.001845,0.003271,-0.001086,0.0,0.0,0.0,0.000483,-0.506764,-0.00289,-1.323286,-262.099857,-1.162419,71.676752
11.9965,0.001741,0.00294,-0.001417,0.0,0.0,0.0,0.00081,-0.50675,-0.002159,-1.323286,-262.099857,-1.162419,71.676752
12.0164,0.001591,0.00348,-0.000633,0.0,0.0,0.0,0.001018,-0.507059,-0.001417,-1.323286,-262.099857,-1.162419,71.676752
12.0364,0.001643,0.003131,-0.001059,0.0,0.0,0.0,0.001246,-0.506568,-0.000704,-1.323286,-262.099857,-1.162419,71.676752
12.0565,0.00195,0.002999,-0.001015,0.0,0.0,0.0,0.001246,-0.506568,-0.000704,-1.323286,-262.099857,-1.162419,71.676752
12.0768,0.001882,0.003032,-0.000956,0.0,0.0,0.0,0.001432,-0.507001,-0.001015,-1.323286,-262.099857,-1.162419,71.676752
12.0966,0.001907,0.003324,-0.001739,0.0,0.0,0.0,0.001416,-0.506987,-0.000991,-1.323286,-262.099857,-1.162419,71.676752
12.1169,0.00175,0.003,-0.000918,0.0,0.0,0.0,0.00102,-0.506676,-0.001739,-1.323286,-262.099857,-1.162419,71.676752
12.1366,0.001856,0.003555,-0.000793,0.0,0.0,0.0,0.00126,-0.506973,-0.000986,-1.323286,-262.099857,-1.162419,71.676752
12.1565,0.002259,0.003373,-0.002371,0.0,0.0,0.0,0.00126,-0.506973,-0.000986,-1.323286,-262.099857,-1.162419,71.676752
12.177,0.00177,0.002995,-0.00199,0.0,0.0,0.0,0.001049,-0.506626,-0.002371,-1.323286,-262.099857,-1.162419,71.676752
12.1969,0.001661,0.00283,-0.002268,0.0,0.0,0.0,0.000925,-0.506786,-0.00221,-1.323286,-262.099857,-1.162419,71.676752
12.2168,0.001956,0.003068,-0.000675,0.0,0.0,0.0,0.000505,-0.507169,-0.002268,-1.323286,-262.099857,-1.162419,71.676752
12.2368,0.00184,0.00295,-0.001543,0.0,0.0,0.0,0.001523,-0.506951,-0.000803,-1.323286,-262.099857,-1.162419,71.676752
12.2566,0.001662,0.003196,-0.002654,0.0,0.0,0.0,0.001523,-0.506951,-0.000803,-1.323286,-262.099857,-1.162419,71.676752
12.2766,0.001759,0.003144,-9.8e-05,0.0,0.0,0.0,0.000308,-0.506802,-0.002654,-1.323286,-262.099857,-1.162419,71.676752
12.2965,0.001669,0.002968,-0.001323,0.0,0.0,0.0,0.000903,-0.506825,-0.001568,-1.323286,-262.099857,-1.162419,71.676752
12.3166,0.001548,0.002888,-0.00065,0.0,0.0,0.0,0.000994,-0.507031,-0.001323,-1.323286,-262.099857,-1.162419,71.676752
12.3367,0.001771,0.002665,-0.001359,0.0,0.0,0.0,0.001198,-0.507105,-0.000707,-1.323286,-262.099857,-1.162419,71.676752
12.3567,0.001785,0.00354,9.5e-05,0.0,0.0,0.0,0.001198,-0.507105,-0.000707,-1.323286,-262.099857,-1.162419,71.676752
12.3768,0.001879,0.003203,-0.000922,0.0,0.0,0.0,0.001834,-0.50646,9.5e-05,-1.323286,-262.099857,-1.162419,71.676752
12.3969,0.001874,0.002793,-0.000781,0.0,0.0,0.0,0.001658,-0.506599,-0.000325,-1.323286,-262.099857,-1.162419,71.676752
12.4167,0.001639,0.002658,0.000178,0.0,0.0,0.0,0.001476,-0.507207,-0.000781,-1.323286,-262.099857,-1.162419,71.676752
12.4368,0.002074,0.003152,-0.001298,0.0,0.0,0.0,0.001708,-0.50733,9.3e-05,-1.323286,-262.099857,-1.162419,71.676752
12.4569,0.001767,0.002942,-0.000325,0.0,0.0,0.0,0.001708,-0.50733,9.3e-05,-1.323286,-262.099857,-1.162419,71.676752
12.4766,0.001705,0.002827,-0.000241,0.0,0.0,0.0,0.001601,-0.507058,-0.000325,-1.323286,-262.099857,-1.162419,71.676752
12.4971,0.001867,0.002809,0.001164,0.0,0.0,0.0,0.001594,-0.507105,-0.000291,-1.323286,-262.099857,-1.162419,71.676752
12.5168,0.002044,0.003272,-0.001606,0.0,0.0,0.0,0.002461,-0.507191,0.001164,-1.323286,-262.099857,-1.162419,71.676752
12.537,0.001459,0.003221,-0.001779,0.0,0.0,0.0,0.001329,-0.506766,-0.001373,-1.323286,-262.099857,-1.162419,71.676752
12.5567,0.001796,0.00284,-0.001554,0.0,0.0,0.0,0.001329,-0.506766,-0.001373,-1.323286,-262.099857,-1.162419,71.676752
12.5765,0.001779,0.00323,-0.003181,0.0,0.0,0.0,0.001004,-0.507159,-0.001554,-1.323286,-262.099857,-1.162419,71.676752
12.5969,0.001738,0.003076,-0.00099,0.0,0.0,0.0,0.000653,-0.506997,-0.002229,-1.323286,-262.099857,-1.162419,71.676752
12.6167,0.001515,0.00317,0.00015,0.0,0.0,0.0,0.001232,-0.506924,-0.00099,-1.323286,-262.099857,-1.162419,71.676752
12.6368,0.00189,0.002904,-0.000707,0.0,0.0,0.0,0.001559,-0.506839,4.7e-05,-1.323286,-262.099857,-1.162419,71.676752
12.6566,0.001575,0.002789,-0.001605,0.0,0.0,0.0,0.001559,-0.506839,4.7e-05,-1.323286,-262.099857,-1.162419,71.676752
12.6765,0.001773,0.003044,-0.000936,0.0,0.0,0.0,0.000756,-0.50721,-0.001605,-1.323286,-262.099857,-1.162419,71.676752
12.6966,0.002052,0.003246,-0.001387,0.0,0.0,0.0,0.000981,-0.507104,-0.001327,-1.323286,-262.099857,-1.162419,71.676752
12.7166,0.001613,0.002908,-0.00041,0.0,0.0,0.0,0.001345,-0.506753,-0.001387,-1.323286,-262.099857,-1.162419,71.676752
12.7368,0.001732,0.003289,-0.000319,0.0,0.0,0.0,0.001398,-0.507062,-0.000498,-1.323286,-262.099857,-1.162419,71.676752
12.757,0.001849,0.002849,-0.002116,0.0,0.0,0.0,0.001398,-0.507062,-0.000498,-1.323286,-262.099857,-1.162419,71.676752
12.7766,0.001723,0.003252,-0.001092,0.0,0.0,0.0,0.000769,-0.50715,-0.002116,-1.323286,-262.099857,-1.162419,71.676752
12.7967,0.001832,0.003048,-0.001675,0.0,0.0,0.0,0.00093,-0.506987,-0.001701,-1.323286,-262.099857,-1.162419,71.676752
12.8166,0.001871,0.00306,-0.001025,0.0,0.0,0.0,0.000978,-0.506951,-0.001675,-1.323286,-262.099857,-1.162419,71.676752
12.8369,0.001941,0.003268,0.001159,0.0,0.0,0.0,0.001317,-0.506941,-0.001081,-1.323286,-262.099857,-1.162419,71.676752
12.8569,0.001492,0.003567,-0.001275,0.0,0.0,0.0,0.001317,-0.506941,-0.001081,-1.323286,-262.099857,-1.162419,71.676752
12.877,0.001562,0.00295,-0.000162,0.0,0.0,0.0,0.000841,-0.506433,-0.001275,-1.323286,-262.099857,-1.162419,71.676752
12.8971,0.001718,0.003183,-0.001198,0.0,0.0,0.0,0.001099,-0.506682,-0.000825,-1.323286,-262.099857,-1.162419,71.676752
12.9172,0.001938,0.003028,-0.001462,0.0,0.0,0.0,0.001107,-0.506817,-0.001198,-1.323286,-262.099857,-1.162419,71.676752
12.9368,0.001597,0.003317,-0.001588,0.0,0.0,0.0,0.001186,-0.50696,-0.001442,-1.323286,-262.099857,-1.162419,71.676752
12.957,0.00155,0.003125,0.000392,0.0,0.0,0.0,0.001186,-0.50696,-0.001442,-1.323286,-262.099857,-1.162419,71.676752
12.9768,0.001663,0.003063,-0.001211,0.0,0.0,0.0,0.00175,-0.506875,0.000392,-1.323286,-262.099857,-1.162419,71.676752
12.9968,0.001659,0.003203,-0.002522,0.0,0.0,0.0,0.001464,-0.5069,-0.000258,-1.323286,-262.099857,-1.162419,71.676752
13.0164,0.001755,0.003061,-0.001575,0.0,0.0,0.0,0.000373,-0.506796,-0.002522,-1.323286,-262.099857,-1.162419,71.676752
13.0371,0.001743,0.002906,-0.001702,0.0,0.0,0.0,0.000905,-0.506927,-0.00165,-1.323286,-262.099857,-1.162419,71.676752
13.0566,0.001668,0.003048,-0.000966,0.0,0.0,0.0,0.000905,-0.506927,-0.00165,-1.323286,-262.099857,-1.162419,71.676752
13.0765,0.001703,0.003059,0.001195,0.0,0.0,0.0,0.001175,-0.506952,-0.000966,-1.323286,-262.099857,-1.162419,71.676752
13.0973,0.001304,0.003189,-0.002005,0.0,0.0,0.0,0.001635,-0.506947,-9.2e-05,-1.323286,-262.099857,-1.162419,71.676752
13.1167,0.001798,0.002916,0.000667,0.0,0.0,0.0,0.000282,-0.50681,-0.002005,-1.323286,-262.099857,-1.162419,71.676752
13.1367,0.001654,0.00283,-0.001556,0.0,0.0,0.0,0.001997,-0.507063,0.000465,-1.323286,-262.099857,-1.162419,71.676752
13.1567,0.001489,0.003528,-0.001135,0.0,0.0,0.0,0.001997,-0.507063,0.000465,-1.323286,-262.099857,-1.162419,71.676752
13.1768,0.001955,0.003323,-0.000699,0.0,0.0,0.0,0.000911,-0.506472,-0.001135,-1.323286,-262.099857,-1.162419,71.676752
13.197,0.001746,0.002761,-0.001916,0.0,0.0,0.0,0.001193,-0.506556,-0.000956,-1.323286,-262.099857,-1.162419,71.676752
13.2167,0.001661,0.003026,0.000121,0.0,0.0,0.0,0.000769,-0.507238,-0.001916,-1.323286,-262.099857,-1.162419,71.676752
13.2371,0.001876,0.002475,-0.000693,0.0,0.0,0.0,0.001636,-0.506997,-6.4e-05,-1.323286,-262.099857,-1.162419,71.676752
13.2568,0.001671,0.003048,-0.000774,0.0,0.0,0.0,0.001636,-0.506997,-6.4e-05,-1.323286,-262.099857,-1.162419,71.676752
13.2768,0.002065,0.003161,-0.003248,0.0,0.0,0.0,0.001276,-0.506952,-0.000774,-1.323286,-262.099857,-1.162419,71.676752
13.2966,0.001722,0.003036,-0.000661,0.0,0.0,0.0,0.000923,-0.506905,-0.00178,-1.323286,-262.099857,-1.162419,71.676752
13.3169,0.001948,0.003166,-0.000676,0.0,0.0,0.0,0.001385,-0.506964,-0.000661,-1.323286,-262.099857,-1.162419,71.676752
13.337,0.001736,0.003282,-0.000684,0.0,0.0,0.0,0.001584,-0.506845,-0.000675,-1.323286,-262.099857,-1.162419,71.676752
13.357,0.001852,0.002838,-0.000216,0.0,0.0,0.0,0.001584,-0.506845,-0.000675,-1.323286,-262.099857,-1.162419,71.676752
13.377,0.001809,0.00307,-0.002823,0.0,0.0,0.0,0.001742,-0.507162,-0.000216,-1.323286,-262.099857,-1.162419,71.676752
13.397,0.001648,0.003248,-0.001525,0.0,0.0,0.0,0.001179,-0.507066,-0.001285,-1.323286,-262.099857,-1.162419,71.676752
13.4167,0.001567,0.002788,-0.002198,0.0,0.0,0.0,0.00087,-0.506751,-0.001525,-1.323286,-262.099857,-1.162419,71.676752
13.4368,0.001743,0.003199,-0.000728,0.0,0.0,0.0,0.000484,-0.507169,-0.002137,-1.323286,-262.099857,-1.162419,71.676752
13.4569,0.001524,0.003104,-0.001289,0.0,0.0,0.0,0.000484,-0.507169,-0.002137,-1.323286,-262.099857,-1.162419,71.676752
13.4766,0.001781,0.002974,-0.002211,0.0,0.0,0.0,0.000866,-0.506896,-0.001289,-1.323286,-262.099857,-1.162419,71.676752
13.4973,0.001674,0.003155,-0.001989,0.0,0.0,0.0,0.000778,-0.506949,-0.001671,-1.323286,-262.099857,-1.162419,71.676752
13.5164,0.00208,0.003089,-0.00026,0.0,0.0,0.0,0.00066,-0.506844,-0.001989,-1.323286,-262.099857,-1.162419,71.676752
13.5365,0.001606,0.00329,-0.001757,0.0,0.0,0.0,0.001832,-0.506905,-0.000415,-1.323286,-262.099857,-1.162419,71.676752
13.5565,0.001957,0.002801,-0.001545,0.0,0.0,0.0,0.001832,-0.506905,-0.000415,-1.323286,-262.099857,-1.162419,71.676752
13.5768,0.001598,0.003129,-0.001285,0.0,0.0,0.0,0.001169,-0.507198,-0.001545,-1.323286,-262.099857,-1.162419,71.676752
13.5969,0.0022,0.003092,-0.001113,0.0,0.0,0.0,0.001072,-0.507058,-0.001434,-1.323286,-262.099857,-1.162419,71.676752
13.6168,0.00166,0.003378,-0.00041,0.0,0.0,0.0,0.001632,-0.506908,-0.001113,-1.323286,-262.099857,-1.162419,71.676752
13.6367,0.001759,0.003059,-0.001366,0.0,0.0,0.0,0.001464,-0.506643,-0.000461,-1.323286,-262.099857,-1.162419,71.676752
13.6567,0.001909,0.003346,-0.002077,0.0,0.0,0.0,0.001464,-0.506643,-0.000461,-1.323286,-262.099857,-1.162419,71.676752
13.6773,0.001514,0.003365,-0.001034,0.0,0.0,0.0,0.00085,-0.506653,-0.002077,-1.323286,-262.099857,-1.162419,71.676752
13.6973,0.001676,0.0033,-0.001699,0.0,0.0,0.0,0.000907,-0.506645,-0.001638,-1.323286,-262.099857,-1.162419,71.676752
13.7168,0.001484,0.003407,-0.002227,0.0,0.0,0.0,0.000809,-0.506699,-0.001699,-1.323286,-262.099857,-1.162419,71.676752
13.7367,0.001545,0.003276,-0.001278,0.0,0.0,0.0,0.000389,-0.506602,-0.00218,-1.323286,-262.099857,-1.162419,71.676752
13.7569,0.002257,0.003474,-0.000458,0.0,0.0,0.0,0.000389,-0.506602,-0.00218,-1.323286,-262.099857,-1.162419,71.676752
13.7766,0.002029,0.003357,-0.002512,0.0,0.0,0.0,0.002024,-0.506526,-0.000458,-1.323286,-262.099857,-1.162419,71.676752
13.7966,0.001235,0.003242,-0.00229,0.0,0.0,0.0,0.001507,-0.506572,-0.001289,-1.323286,-262.099857,-1.162419,71.676752
13.8165,0.002036,0.003089,-0.002412,0.0,0.0,0.0,6.7e-05,-0.506757,-0.00229,-1.323286,-262.099857,-1.162419,71.676752
13.8366,0.002054,0.003032,-0.001324,0.0,0.0,0.0,0.000743,-0.506896,-0.002402,-1.323286,-262.099857,-1.162419,71.676752
13.8565,0.001805,0.002969,-0.001772,0.0,0.0,0.0,0.000743,-0.506896,-0.002402,-1.323286,-262.099857,-1.162419,71.676752
13.8768,0.001629,0.003389,-0.000628,0.0,0.0,0.0,0.000901,-0.50703,-0.001772,-1.323286,-262.099857,-1.162419,71.676752
13.8971,0.00194,0.003032,0.000417,0.0,0.0,0.0,0.001068,-0.506859,-0.001305,-1.323286,-262.099857,-1.162419,71.676752
13.9166,0.001555,0.002837,0.000411,0.0,0.0,0.0,0.002153,-0.506968,0.000417,-1.323286,-262.099857,-1.162419,71.676752
13.9365,0.001479,0.002634,-0.001856,0.0,0.0,0.0,0.0018,-0.507145,0.000412,-1.323286,-262.099857,-1.162419,71.676752
