mach0312/omni-docking-bench/src/icros_test_setup/results/MPPI_sample/timeseries/trial_060.csv
t,x,y,yaw,vx,vy,wz,bl_x,bl_y,bl_yaw,front_steering_joint,front_wheel_joint,rear_steering_joint,rear_wheel_joint
0.0,0.039216,-0.031144,-0.068868,0.0,0.0,0.0,0.004592,-0.539727,-0.068029,0.561856,-258.051606,-0.150434,72.095337
0.0003,0.039409,-0.031321,-0.069079,0.0,0.0,0.0,0.004444,-0.539593,-0.068507,0.561856,-258.051606,-0.150434,72.095337
0.0006,0.039513,-0.031165,-0.068821,0.0,0.0,0.0,0.004444,-0.539593,-0.068507,0.561856,-258.051606,-0.150434,72.095337
0.0009,0.039121,-0.030843,-0.06997,0.0,0.0,0.0,0.00418,-0.539648,-0.068918,0.561856,-258.051606,-0.150434,72.095337
0.0011,0.039347,-0.030659,-0.06803,0.0,0.0,0.0,0.002909,-0.539768,-0.071133,0.561856,-258.051606,-0.150434,72.095337
0.0013,0.039372,-0.030675,-0.069726,0.0,0.0,0.0,0.002909,-0.539768,-0.071133,0.561856,-258.051606,-0.150434,72.095337
0.0016,0.039257,-0.030943,-0.069689,0.0,0.0,0.0,0.002909,-0.539768,-0.071133,0.561856,-258.051606,-0.150434,72.095337
0.0167,0.039351,-0.030839,-0.069596,0.0,0.0,0.0,0.003915,-0.539439,-0.069576,0.561856,-258.051606,-0.150434,72.095337
0.0367,0.039654,-0.030821,-0.070143,0.0,0.0,0.0,0.003885,-0.539605,-0.069596,0.561856,-258.051606,-0.150434,72.095337
0.0569,0.039452,-0.031082,-0.069438,0.0,0.0,0.0,0.003895,-0.539589,-0.069819,0.561856,-258.051606,-0.150434,72.095337
0.0762,0.038927,-0.030763,-0.070621,0.0,0.0,0.0,0.004067,-0.539852,-0.069438,0.561856,-258.051606,-0.150434,72.095337
0.0963,0.03937,-0.031186,-0.068547,0.0,0.0,0.0,0.003041,-0.539524,-0.070516,0.561856,-258.051606,-0.150434,72.095337
0.1167,0.039238,-0.03081,-0.069519,0.000797,0.005881,0.005072,0.003041,-0.539524,-0.070516,0.561856,-258.051606,-0.150434,72.095337
0.1365,0.039044,-0.031017,-0.070426,0.000895,0.006429,0.005531,0.003811,-0.539578,-0.069519,0.561856,-258.051606,-0.150434,72.095337
0.1563,0.03907,-0.030831,-0.068473,0.000964,0.006895,0.005932,0.003544,-0.539649,-0.06989,0.561856,-258.051606,-0.150434,72.095337
0.1765,0.039336,-0.031134,-0.069065,0.001025,0.007293,0.006267,0.004176,-0.539635,-0.068473,0.636847,-258.051606,-0.075443,72.095337
0.1964,0.039257,-0.03059,-0.069496,0.001059,0.007631,0.00658,0.004144,-0.539894,-0.069013,0.636847,-258.051606,-0.075443,72.095337
0.2167,0.039305,-0.031069,-0.069781,0.00109,0.007919,0.006845,0.004144,-0.539894,-0.069013,0.636847,-258.051606,-0.075443,72.095337
0.2363,0.039662,-0.030828,-0.069192,0.001118,0.008165,0.007068,0.003746,-0.539828,-0.069781,0.711943,-258.051606,-0.000348,72.095337
0.2564,0.038975,-0.030665,-0.071182,0.001147,0.008377,0.007255,0.004012,-0.539739,-0.069542,0.711943,-258.051606,-0.000348,72.095337
0.2762,0.039381,-0.030696,-0.068238,0.001173,0.008558,0.007412,0.002702,-0.539373,-0.071182,0.78685,-258.051606,0.07456,72.095337
0.2963,0.038921,-0.031069,-0.068758,0.001182,0.008709,0.007542,0.004433,-0.539497,-0.068505,0.78685,-258.051606,0.07456,72.095337
0.3165,0.039547,-0.030791,-0.070257,0.001191,0.008839,0.007652,0.004433,-0.539497,-0.068505,0.78685,-258.051606,0.07456,72.095337
0.3366,0.039799,-0.031057,-0.069734,0.0012,0.00895,0.007744,0.003745,-0.539533,-0.070257,0.861845,-258.051606,0.149554,72.095337
0.3568,0.039367,-0.030758,-0.069261,0.001222,0.009047,0.007823,0.003959,-0.53965,-0.070042,0.861845,-258.051606,0.149554,72.095337
0.3765,0.038839,-0.030933,-0.069393,0.001242,0.009131,0.00789,0.004072,-0.539535,-0.069261,0.936969,-258.051606,0.224678,72.095337
0.3968,0.039417,-0.030452,-0.071012,0.001275,0.009204,0.007947,0.00353,-0.53969,-0.069381,0.936969,-258.051606,0.224678,72.095337
0.4167,0.039392,-0.031242,-0.069513,0.001302,0.009268,0.007995,0.00353,-0.53969,-0.069381,0.936969,-258.051606,0.224678,72.095337
0.4369,0.039342,-0.031011,-0.071104,0.001326,0.009322,0.008035,0.003969,-0.54001,-0.069513,1.011845,-258.051606,0.299554,72.095337
0.4567,0.039293,-0.030821,-0.070934,0.001344,0.009368,0.008069,0.003617,-0.539892,-0.070163,1.011845,-258.051606,0.299554,72.095337
0.4762,0.039144,-0.030832,-0.070262,0.00136,0.009407,0.008097,0.003147,-0.539539,-0.070934,1.086847,-258.051606,0.374556,72.095337
0.4963,0.039693,-0.03121,-0.070808,0.001381,0.009442,0.008121,0.003323,-0.539571,-0.07032,1.086847,-258.051606,0.374556,72.095337
0.5164,0.039276,-0.030816,-0.070664,0.0014,0.009472,0.008142,0.003323,-0.539571,-0.07032,1.086847,-258.051606,0.374556,72.095337
0.5368,0.039448,-0.030845,-0.069864,0.001416,0.009498,0.008159,0.003267,-0.539543,-0.070664,1.161916,-258.051605,0.449625,72.095337
0.5567,0.039549,-0.031053,-0.07028,0.001424,0.009518,0.008173,0.003502,-0.539567,-0.07034,1.161916,-258.051605,0.449625,72.095337
0.5766,0.039381,-0.031298,-0.069971,0.001431,0.009536,0.008185,0.003735,-0.539794,-0.07028,1.236847,-258.051605,0.524557,72.095337
0.5964,0.03916,-0.031037,-0.06932,0.001432,0.009551,0.008194,0.003725,-0.540027,-0.069999,1.236847,-258.051605,0.524557,72.095337
0.6165,0.039258,-0.030946,-0.069795,0.001433,0.009563,0.008201,0.003725,-0.540027,-0.069999,1.236847,-258.051605,0.524557,72.095337
0.6365,0.0396,-0.030985,-0.070031,0.001434,0.009574,0.008208,0.003692,-0.539705,-0.069795,1.31184,-258.051605,0.59955,72.095338
0.6563,0.039272,-0.030758,-0.069538,0.001432,0.009583,0.008214,0.003782,-0.539717,-0.069891,1.31184,-258.051605,0.59955,72.095338
0.6761,0.039345,-0.030916,-0.069397,0.001431,0.00959,0.008219,0.003837,-0.539525,-0.069538,1.386976,-258.051603,0.674685,72.095338
0.6965,0.039098,-0.0308,-0.069153,0.001424,0.009595,0.008222,0.00397,-0.539676,-0.069408,1.386976,-258.051603,0.674685,72.095338
0.7165,0.039478,-0.03128,-0.069182,0.001418,0.0096,0.008225,0.00397,-0.539676,-0.069408,1.386976,-258.051603,0.674685,72.095338
0.7366,0.039284,-0.030729,-0.06985,0.001414,0.009604,0.008228,0.004223,-0.540059,-0.069181,1.462199,-258.051589,0.749908,72.095343
0.7563,0.039546,-0.030979,-0.071197,0.001409,0.009607,0.008231,0.004008,-0.539827,-0.069451,1.462199,-258.051589,0.749908,72.095343
0.7766,0.039404,-0.031503,-0.068344,0.001406,0.00961,0.008233,0.003268,-0.539684,-0.071194,1.474452,-258.051528,0.824643,72.095363
0.7965,0.038928,-0.030887,-0.071341,0.001391,0.00961,0.008233,0.004466,-0.54026,-0.068584,1.474452,-258.051528,0.824643,72.095363
0.8168,0.039609,-0.030491,-0.069674,0.001379,0.00961,0.008234,0.004466,-0.54026,-0.068584,1.474452,-258.051528,0.824643,72.095363
0.8364,0.039478,-0.031044,-0.069914,0.001369,0.00961,0.008235,0.004109,-0.53924,-0.069661,1.475045,-258.051318,0.899713,72.095431
0.8565,0.039359,-0.030897,-0.068507,0.00137,0.009612,0.008237,0.004005,-0.539465,-0.069762,1.475045,-258.051318,0.899713,72.095431
0.8766,0.039629,-0.03079,-0.067972,0.001371,0.009614,0.008239,0.004456,-0.539673,-0.06848,1.476878,-258.050757,0.974557,72.095614
0.8966,0.039609,-0.030955,-0.070903,0.001344,0.00961,0.008238,0.004944,-0.539616,-0.068014,1.476878,-258.050757,0.974557,72.095614
0.9166,0.039351,-0.030679,-0.069166,0.001322,0.009606,0.008237,0.004944,-0.539616,-0.068014,1.476878,-258.050757,0.974557,72.095614
0.9366,0.039372,-0.030833,-0.068954,0.001303,0.009603,0.008238,0.004128,-0.539375,-0.069087,1.477447,-258.049461,1.049704,72.096035
0.9566,0.038865,-0.031308,-0.069933,0.00131,0.009605,0.00824,0.004175,-0.539468,-0.069022,1.477447,-258.049461,1.049704,72.096035
0.9762,0.039334,-0.030822,-0.069151,0.001316,0.009607,0.008242,0.003256,-0.539948,-0.06983,1.482007,-258.047216,1.124976,72.096761
0.9967,0.039553,-0.030193,-0.067462,0.001326,0.009609,0.008244,0.004026,-0.539627,-0.069204,1.482007,-258.047216,1.124976,72.096761
1.017,0.039587,-0.030755,-0.070428,0.001335,0.009611,0.008246,0.004026,-0.539627,-0.069204,1.482007,-258.047216,1.124976,72.096761
1.0366,0.039267,-0.03032,-0.068859,0.001343,0.009613,0.008247,0.003757,-0.539238,-0.070204,1.481148,-258.043441,1.199702,72.097983
1.0568,0.039312,-0.030381,-0.070056,0.001349,0.009615,0.008292,0.003934,-0.539157,-0.069632,1.481148,-258.043441,1.199702,72.097983
1.0764,0.038991,-0.029689,-0.069743,0.001354,0.009617,0.008328,0.00367,-0.538861,-0.069822,1.479413,-258.038211,1.274564,72.099679
1.0964,0.039438,-0.02956,-0.068941,0.00137,0.00962,0.008383,0.003474,-0.538472,-0.069738,1.479413,-258.038211,1.274564,72.099679
1.1165,0.038696,-0.029727,-0.068934,0.001384,0.009623,0.008427,0.003474,-0.538472,-0.069738,1.479413,-258.038211,1.274564,72.099679
1.1364,0.039033,-0.029532,-0.068915,0.001395,0.009625,0.008463,0.003652,-0.538118,-0.068586,1.478982,-258.032308,1.2804,72.101569
1.1563,0.038694,-0.029337,-0.068338,0.001394,0.009625,0.008516,0.003769,-0.538155,-0.068681,1.478982,-258.032308,1.2804,72.101569
1.1761,0.03869,-0.028752,-0.06772,0.001393,0.009625,0.008559,0.003934,-0.537845,-0.068069,1.477385,-258.026383,1.270973,72.10344
1.1965,0.038751,-0.028522,-0.067291,0.001376,0.009622,0.008616,0.004161,-0.537591,-0.067738,1.477385,-258.026383,1.270973,72.10344
1.2164,0.038688,-0.028898,-0.067005,0.001361,0.00962,0.008663,0.004161,-0.537591,-0.067738,1.477385,-258.026383,1.270973,72.10344
1.2366,0.03879,-0.028515,-0.067362,0.001349,0.009617,0.008702,0.004626,-0.537356,-0.066647,1.477317,-258.020421,1.264145,72.105284
1.2565,0.038557,-0.028376,-0.067412,0.001324,0.009612,0.008754,0.004569,-0.537311,-0.066897,1.477317,-258.020421,1.264145,72.105284
1.2761,0.038496,-0.027622,-0.065152,0.001302,0.009607,0.008798,0.004266,-0.536914,-0.067135,1.480679,-258.014417,1.266912,72.10709
1.2963,0.038777,-0.028044,-0.066461,0.001257,0.009597,0.008854,0.005207,-0.536558,-0.06531,1.480679,-258.014417,1.266912,72.10709
1.3164,0.038562,-0.027655,-0.067087,0.00122,0.009588,0.008901,0.005207,-0.536558,-0.06531,1.480679,-258.014417,1.266912,72.10709
1.3369,0.03886,-0.027733,-0.067188,0.001188,0.00958,0.00894,0.004455,-0.536111,-0.066719,1.484096,-258.008414,1.272413,72.108858
1.3564,0.038262,-0.027404,-0.066838,0.00118,0.009578,0.008996,0.004532,-0.536258,-0.066869,1.484096,-258.008414,1.272413,72.108858
1.3765,0.037917,-0.026664,-0.065485,0.001174,0.009576,0.009043,0.004258,-0.535965,-0.066555,1.491949,-258.002407,1.289981,72.110565
1.3967,0.038019,-0.027123,-0.065874,0.001164,0.009573,0.009101,0.004521,-0.53559,-0.065565,1.491949,-258.002407,1.289981,72.110565
1.4168,0.038451,-0.026903,-0.066864,0.001156,0.009571,0.009148,0.004521,-0.53559,-0.065565,1.491949,-258.002407,1.289981,72.110565
1.4368,0.038136,-0.026523,-0.065204,0.00115,0.009569,0.009188,0.004452,-0.535367,-0.066486,1.493221,-257.996357,1.288922,72.112251
1.4567,0.038108,-0.026316,-0.065693,0.001137,0.009566,0.009235,0.004644,-0.535351,-0.065924,1.493221,-257.996357,1.288922,72.112251
1.4766,0.037896,-0.025846,-0.065101,0.001126,0.009563,0.009275,0.004685,-0.534913,-0.0654,1.495202,-257.990257,1.288079,72.113902
1.4966,0.038201,-0.026055,-0.065074,0.00111,0.009558,0.00932,0.004718,-0.534764,-0.065112,1.495202,-257.990257,1.288079,72.113902
1.5166,0.037757,-0.026032,-0.06486,0.001096,0.009555,0.009358,0.004718,-0.534764,-0.065112,1.495202,-257.990257,1.288079,72.113902
1.5365,0.037943,-0.025467,-0.064839,0.001085,0.009551,0.009389,0.004775,-0.534564,-0.064472,1.496996,-257.984161,1.289643,72.115522
1.5566,0.037831,-0.025271,-0.064562,0.001068,0.009547,0.009423,0.004833,-0.53445,-0.064575,1.496996,-257.984161,1.289643,72.115522
1.5762,0.03798,-0.024747,-0.063787,0.001054,0.009543,0.009451,0.004982,-0.533907,-0.064262,1.499962,-257.978034,1.293956,72.117109
1.5967,0.037987,-0.02523,-0.064016,0.001013,0.009531,0.009477,0.005429,-0.533713,-0.063815,1.499962,-257.978034,1.293956,72.117109
1.6167,0.037687,-0.024723,-0.063377,0.000979,0.009521,0.009499,0.005429,-0.533713,-0.063815,1.499962,-257.978034,1.293956,72.117109
1.6362,0.037475,-0.024444,-0.063916,0.00095,0.009513,0.009518,0.005456,-0.533303,-0.062981,1.502058,-257.971896,1.298108,72.118674
1.6564,0.037433,-0.024703,-0.063987,0.00093,0.009506,0.009538,0.005238,-0.533298,-0.063316,1.502058,-257.971896,1.298108,72.118674
1.6764,0.037602,-0.023742,-0.062696,0.000913,0.009501,0.009554,0.004871,-0.533361,-0.063686,1.508888,-257.965767,1.319424,72.120198
1.6964,0.037566,-0.023841,-0.063808,0.00088,0.00949,0.009568,0.005592,-0.532773,-0.062757,1.508888,-257.965767,1.319424,72.120198
1.7169,0.037162,-0.02418,-0.063945,0.000852,0.009481,0.009581,0.005592,-0.532773,-0.062757,1.508888,-257.965767,1.319424,72.120198
1.7364,0.037163,-0.023557,-0.062744,0.000829,0.009474,0.009592,0.004635,-0.532745,-0.063548,1.511312,-257.959663,1.326629,72.121699
1.7572,0.037226,-0.023723,-0.063354,0.000838,0.009475,0.009606,0.004864,-0.532623,-0.063177,1.511312,-257.959663,1.326629,72.121699
1.7764,0.036861,-0.022923,-0.060893,0.000845,0.009477,0.009618,0.004983,-0.532402,-0.06305,1.516801,-257.95356,1.345498,72.123174
1.7968,0.03743,-0.023066,-0.062713,0.000809,0.009465,0.009626,0.005751,-0.532001,-0.061072,1.516801,-257.95356,1.345498,72.123174
1.8167,0.037112,-0.023117,-0.060616,0.000779,0.009455,0.009633,0.005751,-0.532001,-0.061072,1.516801,-257.95356,1.345498,72.123174
1.8363,0.036565,-0.022465,-0.063368,0.000754,0.009447,0.00964,0.006276,-0.531785,-0.060213,1.515805,-257.947399,1.340388,72.124657
1.8566,0.036942,-0.02265,-0.061486,0.00074,0.009442,0.009649,0.005458,-0.531599,-0.061463,1.515805,-257.947399,1.340388,72.124657
1.8762,0.0368,-0.021876,-0.061879,0.000729,0.009438,0.009656,0.005645,-0.53139,-0.061182,1.521672,-257.941319,1.362082,72.126097
1.8966,0.037061,-0.022381,-0.061757,0.000721,0.009434,0.009665,0.005298,-0.530929,-0.061801,1.521672,-257.941319,1.362082,72.126097
1.9166,0.036899,-0.021806,-0.061829,0.000714,0.009431,0.009672,0.005298,-0.530929,-0.061801,1.521672,-257.941319,1.362082,72.126097
1.9368,0.036669,-0.021519,-0.059539,0.000708,0.009428,0.009678,0.00544,-0.530439,-0.061425,1.523286,-257.935159,1.367685,72.127548
1.957,0.036712,-0.021547,-0.062418,0.000675,0.009417,0.009683,0.005815,-0.530467,-0.060592,1.523286,-257.935159,1.367685,72.127548
1.9765,0.036126,-0.020759,-0.061005,0.000647,0.009407,0.009687,0.00494,-0.530257,-0.062112,1.5247,-257.929019,1.372268,72.128982
1.9966,0.036355,-0.021024,-0.060117,0.000652,0.009407,0.009695,0.005027,-0.529832,-0.061079,1.5247,-257.929019,1.372268,72.128982
2.0166,0.036516,-0.021037,-0.059934,0.000656,0.009407,0.009702,0.005027,-0.529832,-0.061079,1.5247,-257.929019,1.372268,72.128982
2.0364,0.036348,-0.020881,-0.059101,0.000659,0.009407,0.009708,0.006018,-0.529733,-0.059531,1.528601,-257.922932,1.387542,72.130391
2.0567,0.036445,-0.020593,-0.059384,0.000612,0.009391,0.009708,0.006108,-0.529793,-0.05931,1.528601,-257.922932,1.387542,72.130391
2.0763,0.036017,-0.020028,-0.059767,0.000573,0.009377,0.00971,0.006216,-0.529397,-0.059075,1.527869,-257.916794,1.383604,72.131807
2.0966,0.035951,-0.019896,-0.059169,0.000553,0.009369,0.009714,0.005616,-0.529127,-0.059688,1.527869,-257.916794,1.383604,72.131807
2.1166,0.03587,-0.020101,-0.059779,0.000537,0.009362,0.009718,0.005616,-0.529127,-0.059688,1.527869,-257.916794,1.383604,72.131807
2.1368,0.03588,-0.020093,-0.059022,0.000523,0.009356,0.009722,0.005448,-0.528802,-0.059376,1.533387,-257.910675,1.40608,72.133203
2.1567,0.035598,-0.019912,-0.059309,0.00051,0.009351,0.009726,0.005601,-0.528928,-0.059178,1.533387,-257.910675,1.40608,72.133203
2.1764,0.035693,-0.01917,-0.058211,0.000498,0.009346,0.009729,0.005402,-0.528723,-0.059004,1.536622,-257.904616,1.419024,72.134572
2.1965,0.03555,-0.019067,-0.057503,0.000462,0.009332,0.009731,0.005968,-0.528328,-0.058266,1.536622,-257.904616,1.419024,72.134572
2.2166,0.035697,-0.019035,-0.059,0.000432,0.00932,0.009733,0.005968,-0.528328,-0.058266,1.536622,-257.904616,1.419024,72.134572
2.2366,0.035529,-0.018351,-0.058965,0.000407,0.009309,0.009735,0.005668,-0.527759,-0.058593,1.538206,-257.898502,1.425408,72.135947
2.2562,0.035733,-0.018761,-0.057037,0.000393,0.009302,0.009739,0.005594,-0.527594,-0.058698,1.538206,-257.898502,1.425408,72.135947
2.2766,0.034853,-0.018104,-0.057011,0.00038,0.009296,0.009743,0.006689,-0.52764,-0.05673,1.544092,-257.89246,1.450257,72.137288
2.2962,0.035329,-0.018085,-0.057629,0.000351,0.009283,0.009745,0.005891,-0.527297,-0.056962,1.544092,-257.89246,1.450257,72.137288
2.3168,0.035249,-0.01815,-0.057042,0.000326,0.009273,0.009747,0.005891,-0.527297,-0.056962,1.544092,-257.89246,1.450257,72.137288
2.3367,0.035101,-0.017783,-0.057698,0.000306,0.009263,0.00975,0.006212,-0.526934,-0.056634,1.545873,-257.886365,1.457673,72.138634
2.3568,0.03499,-0.01756,-0.056363,0.000275,0.00925,0.009751,0.006004,-0.526889,-0.05702,1.545873,-257.886365,1.457673,72.138634
2.3767,0.034954,-0.017271,-0.056714,0.000249,0.009238,0.009753,0.006287,-0.526458,-0.056054,1.550705,-257.880307,1.478644,72.139957
2.3966,0.034829,-0.01767,-0.055774,0.000216,0.009223,0.009755,0.006067,-0.526438,-0.056643,1.550705,-257.880307,1.478644,72.139957
2.4164,0.034944,-0.016911,-0.055199,0.000188,0.00921,0.009757,0.006067,-0.526438,-0.056643,1.550705,-257.880307,1.478644,72.139957
2.4364,0.034608,-0.016649,-0.055295,0.000165,0.009199,0.009759,0.006838,-0.525751,-0.054793,1.55438,-257.87427,1.494919,72.141264
2.4565,0.034637,-0.017243,-0.055983,0.0001,0.009168,0.009758,0.006675,-0.525754,-0.054948,1.55438,-257.87427,1.494919,72.141264
2.4761,0.034616,-0.016324,-0.054847,4.7e-05,0.009142,0.009758,0.006122,-0.526156,-0.055675,1.559906,-257.86826,1.51986,72.142549
2.4967,0.034,-0.016221,-0.056568,1e-06,0.00912,0.009759,0.006614,-0.525594,-0.054903,1.559906,-257.86826,1.51986,72.142549
2.5166,0.034349,-0.016148,-0.054923,-3.6e-05,0.009101,0.00976,0.006614,-0.525594,-0.054903,1.559906,-257.86826,1.51986,72.142549
2.5366,0.034143,-0.015869,-0.056178,-6.8e-05,0.009086,0.009762,0.006374,-0.525005,-0.054523,1.567717,-257.862361,1.556185,72.143793
2.5565,0.034056,-0.015832,-0.054843,-7.6e-05,0.009079,0.009767,0.006027,-0.524986,-0.055146,1.567717,-257.862361,1.556185,72.143793
2.5761,0.033705,-0.015409,-0.055458,-8.3e-05,0.009074,0.009771,0.006113,-0.524782,-0.054538,1.575286,-257.856471,1.592421,72.145016
2.5966,0.033763,-0.015327,-0.053303,-6.7e-05,0.009078,0.009777,0.005496,-0.524625,-0.055363,1.575286,-257.856471,1.592421,72.145016
2.6166,0.033713,-0.01548,-0.05438,-5.4e-05,0.009082,0.009782,0.005496,-0.524625,-0.055363,1.575286,-257.856471,1.592421,72.145016
2.6363,0.033852,-0.014931,-0.053763,-4.3e-05,0.009085,0.009786,0.006011,-0.524345,-0.053969,1.576335,-257.850383,1.597606,72.146273
2.6563,0.03397,-0.015029,-0.053978,-8.4e-05,0.009064,0.009785,0.006205,-0.524234,-0.053831,1.576335,-257.850383,1.597606,72.146273
2.6764,0.033668,-0.014435,-0.053749,-0.000119,0.009046,0.009785,0.006468,-0.524005,-0.053675,1.573643,-257.84445,1.584587,72.147498
2.6968,0.033647,-0.014438,-0.054578,-0.000166,0.009021,0.009784,0.006288,-0.523712,-0.053727,1.573643,-257.84445,1.584587,72.147498
2.7167,0.033595,-0.014586,-0.05278,-0.000205,0.008999,0.009785,0.006288,-0.523712,-0.053727,1.573643,-257.84445,1.584587,72.147498
2.7365,0.03354,-0.013855,-0.053545,-0.000238,0.008981,0.009786,0.006704,-0.523501,-0.052374,1.578694,-257.838501,1.60942,72.148715
2.7568,0.033479,-0.013839,-0.053463,-0.000289,0.008952,0.009786,0.00652,-0.523305,-0.052801,1.578694,-257.838501,1.60942,72.148715
2.7761,0.032999,-0.013445,-0.051627,-0.000331,0.008927,0.009787,0.006233,-0.522831,-0.053158,1.586681,-257.832669,1.649738,72.149889
2.7966,0.033095,-0.013438,-0.05358,-0.00039,0.008892,0.009787,0.006642,-0.522757,-0.051744,1.586681,-257.832669,1.649738,72.149889
2.8165,0.032787,-0.013359,-0.05195,-0.000438,0.008862,0.009787,0.006642,-0.522757,-0.051744,1.586681,-257.832669,1.649738,72.149889
2.8367,0.032817,-0.013305,-0.051385,-0.000477,0.008837,0.009788,0.00631,-0.522304,-0.051549,1.593021,-257.82682,1.682643,72.151054
2.8566,0.032938,-0.013259,-0.052368,-0.000509,0.008816,0.009791,0.006438,-0.522395,-0.051435,1.593021,-257.82682,1.682643,72.151054
2.8764,0.032258,-0.01284,-0.052284,-0.000535,0.008798,0.009794,0.006242,-0.522291,-0.052071,1.602987,-257.821159,1.736138,72.152161
2.8966,0.032309,-0.01236,-0.051556,-0.000516,0.008804,0.009801,0.00566,-0.522143,-0.052251,1.602987,-257.821159,1.736138,72.152161
2.9168,0.032979,-0.012345,-0.051548,-0.000501,0.008808,0.009807,0.00566,-0.522143,-0.052251,1.602987,-257.821159,1.736138,72.152161
2.9367,0.032633,-0.012814,-0.051959,-0.000488,0.008812,0.009811,0.006701,-0.521668,-0.051548,1.607013,-257.821159,1.661046,72.152161
2.9569,0.03251,-0.012612,-0.052012,-0.000538,0.008781,0.009787,0.006472,-0.521857,-0.051717,1.607013,-257.821159,1.661046,72.152161
2.9762,0.032461,-0.012305,-0.05167,-0.000579,0.008756,0.009767,0.005993,-0.521782,-0.051916,1.60376,-257.81866,1.736034,72.15319
2.9965,0.032479,-0.012473,-0.051255,-0.000596,0.008743,0.009741,0.00611,-0.521632,-0.051687,1.60376,-257.81866,1.736034,72.15319
3.017,0.03254,-0.012324,-0.050752,-0.000611,0.008731,0.009719,0.00611,-0.521632,-0.051687,1.60376,-257.81866,1.736034,72.15319
3.0366,0.03269,-0.012363,-0.051718,-0.000623,0.008722,0.009701,0.006667,-0.521667,-0.050752,1.610097,-257.818659,1.66102,72.15319
3.0564,0.032573,-0.012667,-0.051316,-0.000655,0.008701,0.009662,0.006529,-0.521673,-0.051143,1.610097,-257.818659,1.66102,72.15319
3.0765,0.032891,-0.012628,-0.052175,-0.000682,0.008684,0.00963,0.006413,-0.521995,-0.051316,1.613289,-257.818659,1.586142,72.15319
3.0965,0.03219,-0.012867,-0.051703,-0.00068,0.008684,0.009582,0.006304,-0.521939,-0.052101,1.613289,-257.818659,1.586142,72.15319
3.1163,0.032476,-0.012442,-0.053174,-0.000678,0.008685,0.009543,0.006304,-0.521939,-0.052101,1.613289,-257.818659,1.586142,72.15319
3.1367,0.032585,-0.012579,-0.050319,-0.000677,0.008685,0.00951,0.005371,-0.521721,-0.053174,1.617598,-257.818658,1.510955,72.15319
3.1567,0.032729,-0.012313,-0.052594,-0.000659,0.008694,0.009461,0.006002,-0.521807,-0.05202,1.617598,-257.818658,1.510955,72.15319
3.1765,0.032378,-0.012624,-0.052087,-0.000645,0.008702,0.009421,0.005919,-0.521608,-0.052594,1.617487,-257.818658,1.436142,72.15319
3.1967,0.032472,-0.012081,-0.052049,-0.000617,0.008717,0.009364,0.005834,-0.521903,-0.052133,1.617487,-257.818658,1.436142,72.15319
3.2169,0.032774,-0.012241,-0.050145,-0.000595,0.008729,0.009317,0.005834,-0.521903,-0.052133,1.617487,-257.818658,1.436142,72.15319
3.2368,0.032562,-0.012292,-0.052121,-0.000576,0.00874,0.009278,0.007211,-0.5216,-0.050145,1.615387,-257.818657,1.361135,72.15319
3.2569,0.032267,-0.012405,-0.052607,-0.000624,0.008712,0.009213,0.006713,-0.521599,-0.050953,1.615387,-257.818657,1.361135,72.15319
3.2773,0.032317,-0.012597,-0.051659,-0.000663,0.008689,0.009161,0.00545,-0.5217,-0.052607,1.610752,-257.818656,1.286017,72.15319
3.297,0.032522,-0.012721,-0.053348,-0.000634,0.008704,0.009096,0.005927,-0.521894,-0.051759,1.610752,-257.818656,1.286017,72.15319
3.3166,0.032617,-0.012306,-0.050963,-0.000611,0.008718,0.009043,0.005927,-0.521894,-0.051759,1.610752,-257.818656,1.286017,72.15319
3.337,0.032666,-0.012558,-0.052004,-0.000592,0.008729,0.008999,0.006637,-0.521644,-0.050963,1.617165,-257.818656,1.210967,72.153189
3.3571,0.032082,-0.012161,-0.052518,-0.000612,0.008717,0.008926,0.006443,-0.521735,-0.051383,1.617165,-257.818656,1.210967,72.153189
3.3763,0.032612,-0.012434,-0.05357,-0.000629,0.008708,0.008867,0.00531,-0.521457,-0.052518,1.612385,-257.818655,1.136136,72.153189
3.3966,0.03239,-0.012366,-0.052559,-0.000569,0.008739,0.008779,0.005304,-0.521683,-0.053486,1.612385,-257.818655,1.136136,72.153189
3.4168,0.0323,-0.01284,-0.051201,-0.000519,0.008764,0.008707,0.005304,-0.521683,-0.053486,1.612385,-257.818655,1.136136,72.153189
3.4369,0.03235,-0.01238,-0.052462,-0.000478,0.008786,0.008648,0.006199,-0.522171,-0.051201,1.615314,-257.818655,1.060829,72.153189
3.4568,0.032316,-0.012101,-0.05172,-0.000478,0.008788,0.008594,0.00596,-0.521972,-0.051711,1.615314,-257.818655,1.060829,72.153189
3.4767,0.032382,-0.012207,-0.051845,-0.000478,0.008791,0.008551,0.00595,-0.521419,-0.05172,1.604794,-257.81865,1.135524,72.15319
3.4971,0.032474,-0.012845,-0.05005,-0.000493,0.008783,0.008516,0.005953,-0.521512,-0.051834,1.604794,-257.81865,1.135524,72.15319
3.5172,0.032788,-0.012671,-0.050983,-0.000504,0.008776,0.008488,0.005953,-0.521512,-0.051834,1.604794,-257.81865,1.135524,72.15319
3.5366,0.032408,-0.012782,-0.050441,-0.000514,0.008771,0.008466,0.006798,-0.522007,-0.050981,1.604892,-257.818626,1.210521,72.153197
3.5566,0.032547,-0.012468,-0.052448,-0.000553,0.008751,0.008442,0.006758,-0.522055,-0.050775,1.604892,-257.818626,1.210521,72.153197
3.5766,0.03256,-0.012571,-0.051575,-0.000584,0.008734,0.008423,0.005812,-0.521763,-0.052444,1.607651,-257.818543,1.285517,72.153218
3.5969,0.03238,-0.012806,-0.051884,-0.000585,0.008734,0.008412,0.006234,-0.521883,-0.05164,1.607651,-257.818543,1.285517,72.153218
3.6167,0.032711,-0.012288,-0.052007,-0.000585,0.008734,0.008403,0.006234,-0.521883,-0.05164,1.607651,-257.818543,1.285517,72.153218
3.6369,0.032364,-0.012755,-0.050093,-0.000586,0.008734,0.008395,0.0062,-0.521585,-0.051994,1.612863,-257.81834,1.360992,72.153271
3.6569,0.032555,-0.012333,-0.05104,-0.000603,0.008725,0.008388,0.006453,-0.521797,-0.051227,1.612863,-257.81834,1.360992,72.153271
3.6769,0.032469,-0.012137,-0.051671,-0.000616,0.008717,0.008382,0.006537,-0.521639,-0.051012,1.613052,-257.817757,1.435516,72.153425
3.6967,0.032605,-0.012528,-0.050433,-0.000621,0.008713,0.008379,0.006165,-0.521471,-0.051611,1.613052,-257.817757,1.435516,72.153425
3.7166,0.032738,-0.012246,-0.050963,-0.000625,0.00871,0.008377,0.006165,-0.521471,-0.051611,1.613052,-257.817757,1.435516,72.153425
3.737,0.032458,-0.012354,-0.050718,-0.000628,0.008707,0.008375,0.006761,-0.521503,-0.050886,1.615312,-257.816535,1.510563,72.153747
3.7568,0.032555,-0.012436,-0.049331,-0.00066,0.008689,0.00837,0.006698,-0.521572,-0.05081,1.615312,-257.816535,1.510563,72.153747
3.7764,0.032331,-0.012384,-0.053202,-0.000686,0.008673,0.008366,0.007407,-0.5217,-0.049221,1.616209,-257.814235,1.585513,72.154353
3.7965,0.032451,-0.011996,-0.052511,-0.000621,0.008706,0.008372,0.0054,-0.52166,-0.052854,1.616209,-257.814235,1.585513,72.154353
3.8165,0.032355,-0.012692,-0.050723,-0.000569,0.008734,0.008377,0.0054,-0.52166,-0.052854,1.616209,-257.814235,1.585513,72.154353
3.8369,0.032189,-0.012018,-0.05187,-0.000526,0.008757,0.00838,0.006498,-0.522036,-0.050723,1.620493,-257.814234,1.51038,72.154353
3.8567,0.031831,-0.012258,-0.05239,-0.000539,0.008752,0.008375,0.006192,-0.521749,-0.051191,1.620493,-257.814234,1.51038,72.154353
3.8767,0.032297,-0.011792,-0.050319,-0.00055,0.008748,0.008372,0.005127,-0.521429,-0.052276,1.608672,-257.811734,1.585357,72.155104
3.8969,0.032285,-0.011717,-0.050548,-0.000601,0.008718,0.008407,0.006515,-0.521164,-0.050481,1.608672,-257.811734,1.585357,72.155104
3.9168,0.032447,-0.011959,-0.051463,-0.000642,0.008692,0.008436,0.006515,-0.521164,-0.050481,1.608672,-257.811734,1.585357,72.155104
3.9368,0.032083,-0.01163,-0.051457,-0.000677,0.008671,0.00846,0.006213,-0.52101,-0.051202,1.610424,-257.807589,1.660386,72.156203
3.9568,0.032205,-0.011403,-0.050557,-0.000685,0.008664,0.008504,0.006063,-0.520956,-0.051278,1.610424,-257.807589,1.660386,72.156203
3.9765,0.032357,-0.011945,-0.050541,-0.000693,0.008658,0.008541,0.006432,-0.520751,-0.050557,1.619662,-257.807588,1.585153,72.156202
3.9965,0.032363,-0.0115,-0.051525,-0.000721,0.008641,0.008567,0.006576,-0.52124,-0.050542,1.619662,-257.807588,1.585153,72.156202
4.0169,0.032302,-0.011323,-0.050056,-0.000743,0.008627,0.008588,0.006576,-0.52124,-0.050542,1.619662,-257.807588,1.585153,72.156202
4.0369,0.031924,-0.011675,-0.050708,-0.000762,0.008616,0.008606,0.006785,-0.520684,-0.050056,1.620686,-257.807588,1.510517,72.156202
4.0566,0.032493,-0.011274,-0.050838,-0.000788,0.008598,0.008621,0.006496,-0.52082,-0.050321,1.620686,-257.807588,1.510517,72.156202
4.0764,0.032102,-0.011523,-0.050734,-0.000809,0.008583,0.008634,0.006577,-0.520615,-0.050838,1.625687,-257.807587,1.435408,72.156202
4.0967,0.031986,-0.011746,-0.050873,-0.000812,0.008579,0.008646,0.006267,-0.520845,-0.050743,1.625687,-257.807587,1.435408,72.156202
4.1171,0.032421,-0.011439,-0.05074,-0.000814,0.008577,0.008655,0.006267,-0.520845,-0.050743,1.625687,-257.807587,1.435408,72.156202
4.1365,0.031989,-0.011207,-0.049254,-0.000815,0.008575,0.008663,0.006555,-0.520783,-0.05074,1.629151,-257.807586,1.360352,72.156202
4.1566,0.03249,-0.011321,-0.05161,-0.000848,0.008553,0.008666,0.006683,-0.520707,-0.050155,1.629151,-257.807586,1.360352,72.156202
4.1764,0.032255,-0.011441,-0.051922,-0.000874,0.008534,0.008668,0.00618,-0.520642,-0.05161,1.629522,-257.807586,1.285472,72.156202
4.1966,0.031983,-0.011483,-0.051335,-0.000839,0.008553,0.008674,0.005821,-0.520744,-0.051895,1.629522,-257.807586,1.285472,72.156202
4.2167,0.031941,-0.011696,-0.051631,-0.000811,0.008569,0.008678,0.005821,-0.520744,-0.051895,1.629522,-257.807586,1.285472,72.156202
4.2367,0.032139,-0.011569,-0.05052,-0.000788,0.008582,0.008681,0.00562,-0.521016,-0.051631,1.633938,-257.807585,1.210474,72.156202
4.2565,0.031905,-0.011309,-0.050319,-0.000767,0.008595,0.008676,0.005929,-0.520976,-0.051182,1.633938,-257.807585,1.210474,72.156202
4.2766,0.032169,-0.011435,-0.050577,-0.00075,0.008606,0.008672,0.006254,-0.520664,-0.050319,1.627489,-257.807585,1.135526,72.156202
4.2965,0.031955,-0.011563,-0.050715,-0.000771,0.008593,0.008614,0.006371,-0.52077,-0.050548,1.627489,-257.807585,1.135526,72.156202
4.3166,0.032125,-0.011781,-0.051256,-0.000789,0.008583,0.008567,0.006371,-0.52077,-0.050548,1.627489,-257.807585,1.135526,72.156202
4.3361,0.032463,-0.011474,-0.050254,-0.000803,0.008574,0.008529,0.005996,-0.521111,-0.051256,1.62468,-257.807584,1.060488,72.156201
4.3565,0.032056,-0.011686,-0.051049,-0.000805,0.008574,0.008499,0.006345,-0.520996,-0.050845,1.62468,-257.807584,1.060488,72.156201
4.3761,0.0323,-0.011686,-0.050041,-0.000806,0.008573,0.008475,0.006032,-0.521022,-0.051049,1.629004,-257.807584,0.985472,72.156201
4.3965,0.032503,-0.011607,-0.050567,-0.000826,0.008562,0.008452,0.006725,-0.521046,-0.050127,1.629004,-257.807584,0.985472,72.156201
4.4166,0.032391,-0.011577,-0.050198,-0.000843,0.008553,0.008435,0.006725,-0.521046,-0.050127,1.629004,-257.807584,0.985472,72.156201
4.4366,0.032158,-0.011586,-0.052361,-0.000856,0.008545,0.00842,0.006801,-0.520934,-0.050198,1.629358,-257.807583,0.910427,72.156201
4.4566,0.031795,-0.011105,-0.050416,-0.000843,0.008552,0.008412,0.006249,-0.520915,-0.051092,1.629358,-257.807583,0.910427,72.156201
4.4768,0.032065,-0.011652,-0.050634,-0.000832,0.008558,0.008406,0.006093,-0.520457,-0.050416,1.633277,-257.807583,0.835333,72.156201
4.4965,0.031916,-0.011729,-0.050459,-0.000821,0.008565,0.0084,0.006237,-0.520943,-0.050612,1.633277,-257.807583,0.835333,72.156201
4.5164,0.031679,-0.011379,-0.050676,-0.000812,0.008571,0.008396,0.006237,-0.520943,-0.050612,1.633277,-257.807583,0.835333,72.156201
4.5367,0.031571,-0.011368,-0.049064,-0.000805,0.008575,0.008392,0.005845,-0.520724,-0.050676,1.631511,-257.807582,0.760389,72.156201
4.5563,0.032329,-0.01166,-0.051786,-0.000799,0.008578,0.00839,0.006134,-0.520736,-0.050024,1.631511,-257.807582,0.760389,72.156201
4.5766,0.032238,-0.011523,-0.051014,-0.000795,0.00858,0.008388,0.00593,-0.520976,-0.051786,1.629485,-257.807581,0.685507,72.156201
4.5965,0.032217,-0.011508,-0.05088,-0.000792,0.008582,0.008386,0.006205,-0.52087,-0.051084,1.629485,-257.807581,0.685507,72.156201
4.6165,0.032275,-0.011236,-0.051398,-0.000789,0.008584,0.008384,0.006205,-0.52087,-0.051084,1.629485,-257.807581,0.685507,72.156201
4.6368,0.031886,-0.011372,-0.051685,-0.000787,0.008585,0.008382,0.006073,-0.520563,-0.051398,1.628736,-257.807581,0.610532,72.156201
4.6564,0.032083,-0.011639,-0.051125,-0.000772,0.008593,0.008384,0.005855,-0.520615,-0.051515,1.628736,-257.807581,0.610532,72.156201
4.6766,0.031797,-0.011685,-0.051471,-0.000759,0.008599,0.008385,0.006021,-0.520973,-0.051125,1.628166,-257.80758,0.535527,72.1562
4.6966,0.0319,-0.011367,-0.051124,-0.000717,0.008624,0.008387,0.005598,-0.521007,-0.051441,1.628166,-257.80758,0.535527,72.1562
4.7169,0.032157,-0.011457,-0.050424,-0.000682,0.008645,0.008389,0.005598,-0.521007,-0.051441,1.628166,-257.80758,0.535527,72.1562
4.7364,0.032348,-0.011552,-0.051763,-0.000653,0.008662,0.00839,0.006452,-0.520809,-0.050424,1.62607,-257.80758,0.460422,72.1562
4.7565,0.031947,-0.011724,-0.050276,-0.00068,0.008648,0.008385,0.006251,-0.520833,-0.050972,1.62607,-257.80758,0.460422,72.1562
4.7766,0.032123,-0.011844,-0.049088,-0.000702,0.008636,0.008382,0.006317,-0.521079,-0.050276,1.618145,-257.807579,0.385528,72.1562
4.7964,0.032178,-0.011319,-0.050004,-0.000751,0.008608,0.008374,0.007027,-0.521216,-0.049196,1.618145,-257.807579,0.385528,72.1562
4.8163,0.032145,-0.011432,-0.050724,-0.000792,0.008585,0.008368,0.007027,-0.521216,-0.049196,1.618145,-257.807579,0.385528,72.1562
4.8368,0.032,-0.011562,-0.050891,-0.000825,0.008565,0.008364,0.006286,-0.520776,-0.050724,1.621776,-257.807579,0.310524,72.1562
4.8566,0.031929,-0.011556,-0.050244,-0.000817,0.00857,0.008367,0.006192,-0.520827,-0.050793,1.621776,-257.807579,0.310524,72.1562
4.8763,0.032269,-0.011446,-0.051469,-0.00081,0.008573,0.008369,0.006315,-0.520912,-0.050243,1.631069,-257.807578,0.235421,72.1562
4.8964,0.031567,-0.011406,-0.049502,-0.000797,0.00858,0.008371,0.006056,-0.520783,-0.051363,1.631069,-257.807578,0.235421,72.1562
4.9169,0.032282,-0.011521,-0.051096,-0.000787,0.008585,0.008373,0.006056,-0.520783,-0.051363,1.631069,-257.807578,0.235421,72.1562
4.9367,0.032179,-0.011627,-0.050977,-0.000779,0.00859,0.008375,0.006235,-0.520855,-0.051096,1.629891,-257.807578,0.160397,72.1562
4.958,0.031937,-0.011489,-0.049108,-0.000778,0.008591,0.008374,0.006217,-0.520901,-0.051047,1.629891,-257.807578,0.160397,72.1562
4.9765,0.032308,-0.011444,-0.049384,-0.000778,0.008591,0.008374,0.006902,-0.520874,-0.049108,1.62756,-257.807577,0.085188,72.1562
4.9964,0.032375,-0.011531,-0.051133,-0.000833,0.008556,0.008368,0.007113,-0.520826,-0.04936,1.62756,-257.807577,0.085188,72.1562
5.0169,0.032039,-0.011722,-0.051498,-0.000879,0.008527,0.008363,0.007113,-0.520826,-0.04936,1.62756,-257.807577,0.085188,72.1562
5.0368,0.032236,-0.011584,-0.049768,-0.000916,0.008503,0.00836,0.005787,-0.521046,-0.051498,1.627464,-257.807577,0.010261,72.156199
5.0563,0.032456,-0.011543,-0.051515,-0.000887,0.008521,0.008364,0.006224,-0.521008,-0.050797,1.627464,-257.807577,0.010261,72.156199
5.0761,0.032335,-0.011549,-0.050659,-0.000862,0.008535,0.008367,0.006195,-0.520867,-0.051515,1.638039,-257.807576,-0.064481,72.156199
5.0964,0.03198,-0.011311,-0.050813,-0.000864,0.008535,0.008367,0.006482,-0.520893,-0.050735,1.638039,-257.807576,-0.064481,72.156199
5.1166,0.032059,-0.01115,-0.051737,-0.000865,0.008535,0.008368,0.006482,-0.520893,-0.050735,1.638039,-257.807576,-0.064481,72.156199
5.1361,0.032337,-0.011472,-0.049488,-0.000866,0.008535,0.008368,0.005685,-0.520468,-0.051737,1.633917,-257.807575,-0.139515,72.156199
5.1562,0.032041,-0.011234,-0.051287,-0.000862,0.008536,0.00837,0.006251,-0.520619,-0.050843,1.633917,-257.807575,-0.139515,72.156199
5.1761,0.032323,-0.011389,-0.050314,-0.000859,0.008537,0.008371,0.005896,-0.520563,-0.051287,1.63415,-257.807575,-0.214494,72.156199
5.1966,0.031856,-0.011869,-0.051683,-0.000874,0.008527,0.00837,0.006603,-0.520728,-0.050402,1.63415,-257.807575,-0.214494,72.156199
5.2163,0.032183,-0.011868,-0.052709,-0.000887,0.008519,0.008369,0.006603,-0.520728,-0.050402,1.63415,-257.807575,-0.214494,72.156199
5.2362,0.031765,-0.011629,-0.050399,-0.000898,0.008512,0.008368,0.005314,-0.52116,-0.052709,1.633638,-257.807574,-0.289466,72.156199
5.2566,0.032052,-0.012005,-0.049418,-0.000829,0.008552,0.008375,0.005624,-0.521087,-0.051764,1.633638,-257.807574,-0.289466,72.156199
5.2765,0.031874,-0.011892,-0.050763,-0.000773,0.008585,0.00838,0.00686,-0.521383,-0.049418,1.636584,-257.807574,-0.364595,72.156199
5.2964,0.031819,-0.011476,-0.05053,-0.000751,0.008601,0.008379,0.006073,-0.521248,-0.050644,1.636584,-257.807574,-0.364595,72.156199
5.3169,0.032373,-0.01114,-0.050028,-0.000734,0.008614,0.008379,0.006073,-0.521248,-0.050644,1.636584,-257.807574,-0.364595,72.156199
5.3365,0.032098,-0.011226,-0.049704,-0.000719,0.008625,0.008378,0.006869,-0.520502,-0.050028,1.627154,-257.807573,-0.439565,72.156199
5.3562,0.032497,-0.011239,-0.05092,-0.000781,0.008586,0.008372,0.006825,-0.520539,-0.049899,1.627154,-257.807573,-0.439565,72.156199
5.3765,0.031962,-0.011342,-0.049835,-0.000831,0.008554,0.008368,0.006539,-0.520578,-0.05092,1.623076,-257.807573,-0.514611,72.156198
5.3962,0.032289,-0.011551,-0.050629,-0.000849,0.008542,0.008368,0.006555,-0.520697,-0.049933,1.623076,-257.807573,-0.514611,72.156198
5.4164,0.031924,-0.011752,-0.050061,-0.000863,0.008533,0.008367,0.006555,-0.520697,-0.049933,1.623076,-257.807573,-0.514611,72.156198
5.437,0.032092,-0.011285,-0.051167,-0.000876,0.008525,0.008367,0.006404,-0.521113,-0.050061,1.631509,-257.807572,-0.589474,72.156198
5.4565,0.032083,-0.011438,-0.050092,-0.000858,0.008536,0.008369,0.006243,-0.520911,-0.050511,1.631509,-257.807572,-0.589474,72.156198
5.4767,0.032086,-0.011516,-0.049482,-0.000844,0.008546,0.008371,0.006547,-0.520798,-0.050092,1.634922,-257.807571,-0.664477,72.156198
5.4965,0.031848,-0.011728,-0.050637,-0.000869,0.00853,0.008368,0.006834,-0.520884,-0.049535,1.634922,-257.807571,-0.664477,72.156198
5.5165,0.032199,-0.01149,-0.050647,-0.00089,0.008518,0.008366,0.006834,-0.520884,-0.049535,1.634922,-257.807571,-0.664477,72.156198
5.5363,0.031904,-0.011363,-0.050489,-0.000907,0.008507,0.008364,0.00638,-0.520836,-0.050647,1.632483,-257.807568,-0.739574,72.156197
5.5563,0.032044,-0.01174,-0.049199,-0.000892,0.008516,0.008367,0.006287,-0.520783,-0.050578,1.632483,-257.807568,-0.739574,72.156197
5.5765,0.032035,-0.011267,-0.049396,-0.000879,0.008524,0.008369,0.006963,-0.521122,-0.049198,1.637328,-257.807546,-0.815212,72.156192
5.5963,0.031864,-0.011449,-0.049829,-0.000908,0.008505,0.008366,0.006863,-0.520685,-0.049379,1.637328,-257.807546,-0.815212,72.156192
5.6166,0.032303,-0.01172,-0.052473,-0.000931,0.00849,0.008365,0.006863,-0.520685,-0.049379,1.637328,-257.807546,-0.815212,72.156192
5.6362,0.031981,-0.011685,-0.051267,-0.00095,0.008477,0.008363,0.005554,-0.521013,-0.052467,1.635176,-257.807467,-0.889647,72.156171
5.657,0.03211,-0.011358,-0.051278,-0.000878,0.008519,0.008371,0.005673,-0.521013,-0.051976,1.635176,-257.807467,-0.889647,72.156171
5.6762,0.031986,-0.011644,-0.051815,-0.000819,0.008554,0.008377,0.005968,-0.52067,-0.05126,1.640602,-257.807107,-0.964478,72.156079
5.6966,0.031767,-0.011535,-0.049824,-0.000769,0.008584,0.008381,0.005607,-0.520932,-0.051764,1.640602,-257.807107,-0.964478,72.156079
5.7163,0.032098,-0.011561,-0.05045,-0.000729,0.008609,0.008384,0.005607,-0.520932,-0.051764,1.640602,-257.807107,-0.964478,72.156079
5.737,0.03171,-0.011865,-0.051011,-0.000696,0.00863,0.008386,0.006376,-0.520875,-0.050412,1.630646,-257.806544,-1.039496,72.155933
5.7572,0.032393,-0.011773,-0.049167,-0.000699,0.008631,0.008384,0.006105,-0.521003,-0.05065,1.630646,-257.806544,-1.039496,72.155933
5.7764,0.031775,-0.011336,-0.050505,-0.000702,0.008632,0.008382,0.007324,-0.521113,-0.049123,1.621346,-257.805667,-1.114471,72.155706
5.7964,0.032244,-0.011374,-0.04978,-0.000716,0.008624,0.00838,0.006145,-0.520722,-0.050378,1.621346,-257.805667,-1.114471,72.155706
5.8165,0.031992,-0.01151,-0.051221,-0.000728,0.008617,0.008379,0.006145,-0.520722,-0.050378,1.621346,-257.805667,-1.114471,72.155706
5.8368,0.032324,-0.011155,-0.051225,-0.000738,0.008612,0.008378,0.005872,-0.52072,-0.051101,1.621768,-257.803811,-1.189499,72.155223
5.8566,0.032375,-0.011238,-0.049863,-0.000742,0.008609,0.008379,0.006009,-0.520611,-0.051138,1.621768,-257.803811,-1.189499,72.155223
5.8764,0.031818,-0.010698,-0.05101,-0.000745,0.008607,0.008379,0.006946,-0.520435,-0.049696,1.62452,-257.800415,-1.264475,72.15434
5.8965,0.031607,-0.010898,-0.049574,-0.000765,0.008591,0.008423,0.005914,-0.520061,-0.050884,1.62452,-257.800415,-1.264475,72.15434
5.917,0.03145,-0.010786,-0.048998,-0.000781,0.008578,0.008458,0.005914,-0.520061,-0.050884,1.62452,-257.800415,-1.264475,72.15434
5.9362,0.0315,-0.010534,-0.048664,-0.000794,0.008568,0.008488,0.006459,-0.519863,-0.048695,1.625028,-257.795672,-1.33952,72.153109
5.9564,0.031552,-0.010799,-0.049087,-0.000856,0.008524,0.00853,0.006552,-0.519854,-0.048647,1.625028,-257.795672,-1.33952,72.153109
5.9766,0.031463,-0.010435,-0.048814,-0.000906,0.008489,0.008566,0.006516,-0.519911,-0.048817,1.628477,-257.790156,-1.340285,72.151718
5.9963,0.031639,-0.010169,-0.049732,-0.000951,0.008455,0.008621,0.006572,-0.519822,-0.048801,1.628477,-257.790156,-1.340285,72.151718
6.0166,0.031237,-0.010038,-0.049144,-0.000988,0.008428,0.008666,0.006572,-0.519822,-0.048801,1.628477,-257.790156,-1.340285,72.151718
6.0363,0.031315,-0.009643,-0.047395,-0.001019,0.008405,0.008703,0.006164,-0.519076,-0.048796,1.636715,-257.784812,-1.299548,72.150404
6.0563,0.031036,-0.009752,-0.050014,-0.00108,0.008353,0.008757,0.006567,-0.519034,-0.048181,1.636715,-257.784812,-1.299548,72.150404
6.0764,0.030448,-0.008853,-0.048158,-0.00113,0.00831,0.008801,0.005521,-0.518855,-0.049746,1.644919,-257.779489,-1.252214,72.149145
6.0964,0.03101,-0.009382,-0.048503,-0.001161,0.008273,0.008867,0.005866,-0.518298,-0.048274,1.644919,-257.779489,-1.252214,72.149145
6.1164,0.030519,-0.009563,-0.048786,-0.001185,0.008243,0.008921,0.005866,-0.518298,-0.048274,1.644919,-257.779489,-1.252214,72.149145
6.1362,0.030455,-0.009195,-0.047597,-0.001205,0.008217,0.008965,0.005619,-0.518621,-0.048433,1.653196,-257.77423,-1.203188,72.147941
6.1563,0.030698,-0.008485,-0.047949,-0.001208,0.008209,0.009023,0.005848,-0.518581,-0.048052,1.653196,-257.77423,-1.203188,72.147941
6.1763,0.030176,-0.008488,-0.047603,-0.00121,0.008202,0.009071,0.006228,-0.517645,-0.047674,1.658598,-257.768915,-1.156609,72.146783
6.1965,0.030613,-0.008099,-0.048208,-0.001256,0.008153,0.00913,0.005934,-0.517876,-0.047595,1.658598,-257.768915,-1.156609,72.146783
6.2164,0.030403,-0.008324,-0.047098,-0.001293,0.008113,0.00918,0.005934,-0.517876,-0.047595,1.658598,-257.768915,-1.156609,72.146783
6.2361,0.029707,-0.00792,-0.047039,-0.001323,0.00808,0.009221,0.006357,-0.517415,-0.04672,1.658599,-257.763417,-1.144238,72.145618
6.2564,0.030497,-0.007958,-0.046936,-0.00139,0.00801,0.009274,0.006095,-0.517351,-0.046807,1.658599,-257.763417,-1.144238,72.145618
6.2771,0.030114,-0.007516,-0.046474,-0.001442,0.007953,0.009319,0.00654,-0.517156,-0.046664,1.667008,-257.758311,-1.075325,72.144586
6.2963,0.029845,-0.007943,-0.04845,-0.00153,0.007859,0.00937,0.006429,-0.51697,-0.046477,1.667008,-257.758311,-1.075325,72.144586
6.3163,0.029985,-0.007438,-0.047988,-0.001601,0.007782,0.009413,0.006429,-0.51697,-0.046477,1.667008,-257.758311,-1.075325,72.144586
6.3364,0.029713,-0.007433,-0.045772,-0.001657,0.007719,0.00945,0.00548,-0.516544,-0.04763,1.676116,-257.753276,-1.003016,72.143602
6.3567,0.029752,-0.007086,-0.046514,-0.001682,0.007676,0.0095,0.005841,-0.516653,-0.046832,1.676116,-257.753276,-1.003016,72.143602
6.3764,0.029452,-0.007156,-0.044997,-0.001701,0.007639,0.009542,0.006009,-0.516348,-0.046292,1.693008,-257.749267,-0.928106,72.142847
6.3965,0.029366,-0.0071,-0.046689,-0.001758,0.007574,0.009573,0.006465,-0.516605,-0.0451,1.693008,-257.749267,-0.928106,72.142847
6.4164,0.029442,-0.00669,-0.044374,-0.001804,0.00752,0.0096,0.006465,-0.516605,-0.0451,1.693008,-257.749267,-0.928106,72.142847
6.4369,0.02926,-0.006756,-0.04452,-0.00184,0.007476,0.009623,0.006774,-0.515922,-0.044048,1.696459,-257.744822,-0.852993,72.142033
6.4568,0.029601,-0.006556,-0.045414,-0.001915,0.007381,0.009642,0.006683,-0.516024,-0.044201,1.696459,-257.744822,-0.852993,72.142033
6.4764,0.029033,-0.006398,-0.045425,-0.001975,0.007303,0.00966,0.006413,-0.515851,-0.04519,1.707727,-257.740845,-0.778122,72.141314
6.4966,0.028792,-0.006633,-0.046722,-0.001982,0.007269,0.009682,0.005919,-0.515862,-0.045393,1.707727,-257.740845,-0.778122,72.141314
6.5169,0.02871,-0.006359,-0.045806,-0.001988,0.00724,0.0097,0.005919,-0.515862,-0.045393,1.707727,-257.740845,-0.778122,72.141314
6.5371,0.028231,-0.00625,-0.045167,-0.001992,0.007217,0.009715,0.005314,-0.515618,-0.045542,1.719299,-257.737316,-0.703026,72.140674
6.5568,0.028672,-0.006215,-0.045064,-0.001954,0.00722,0.009736,0.005263,-0.51564,-0.045358,1.719299,-257.737316,-0.703026,72.140674
6.5766,0.028438,-0.005577,-0.045294,-0.001924,0.007221,0.009752,0.005658,-0.515519,-0.044831,1.721129,-257.733273,-0.627875,72.139953
6.5967,0.028642,-0.006005,-0.046063,-0.001944,0.007156,0.009767,0.005369,-0.515084,-0.045245,1.721129,-257.733273,-0.627875,72.139953
6.6167,0.028529,-0.005712,-0.045875,-0.001959,0.007103,0.009779,0.005369,-0.515084,-0.045245,1.721129,-257.733273,-0.627875,72.139953
6.6368,0.028521,-0.00532,-0.045422,-0.001969,0.007061,0.009789,0.005077,-0.51488,-0.045481,1.715773,-257.728133,-0.581568,72.139065
6.6564,0.0283,-0.00553,-0.044892,-0.001978,0.007006,0.009807,0.005187,-0.514811,-0.045412,1.715773,-257.728133,-0.581568,72.139065
6.6767,0.027937,-0.005118,-0.043156,-0.001985,0.006961,0.009821,0.005365,-0.514811,-0.044612,1.720691,-257.723374,-0.506641,72.138254
6.6966,0.027567,-0.005026,-0.043576,-0.002051,0.006866,0.00982,0.00588,-0.514648,-0.043272,1.720691,-257.723374,-0.506641,72.138254
6.7169,0.027538,-0.005368,-0.042239,-0.002104,0.006789,0.00982,0.00588,-0.514648,-0.043272,1.720691,-257.723374,-0.506641,72.138254
6.7368,0.027428,-0.004849,-0.043013,-0.002145,0.006728,0.00982,0.005935,-0.514632,-0.041847,1.722746,-257.718376,-0.451808,72.137413
6.757,0.027428,-0.005118,-0.043408,-0.002176,0.006669,0.009825,0.00575,-0.514497,-0.042274,1.722746,-257.718376,-0.451808,72.137413
6.7764,0.027171,-0.004707,-0.042586,-0.0022,0.006621,0.00983,0.005251,-0.514467,-0.043166,1.737775,-257.714348,-0.376807,72.136706
6.7966,0.026963,-0.004719,-0.0418,-0.002209,0.006571,0.009842,0.005438,-0.514256,-0.042626,1.737775,-257.714348,-0.376807,72.136706
6.8168,0.027115,-0.004741,-0.041618,-0.002216,0.00653,0.009851,0.005438,-0.514256,-0.042626,1.737775,-257.714348,-0.376807,72.136706
6.8363,0.026886,-0.004459,-0.043697,-0.00222,0.006497,0.009858,0.005829,-0.514062,-0.041273,1.743329,-257.710029,-0.301709,72.135935
6.8565,0.026929,-0.004165,-0.043883,-0.002229,0.006444,0.009869,0.005319,-0.513998,-0.042231,1.743329,-257.710029,-0.301709,72.135935
6.8763,0.026835,-0.004547,-0.042638,-0.002234,0.0064,0.009877,0.004556,-0.513674,-0.043883,1.668334,-257.710029,-0.226714,72.135935
6.8967,0.026554,-0.004184,-0.04161,-0.002209,0.006393,0.009873,0.005048,-0.514047,-0.04275,1.668334,-257.710029,-0.226714,72.135935
6.9164,0.026961,-0.004626,-0.040845,-0.002189,0.006386,0.009869,0.005048,-0.514047,-0.04275,1.668334,-257.710029,-0.226714,72.135935
6.9365,0.026831,-0.004234,-0.041699,-0.002173,0.00638,0.009865,0.006135,-0.5142,-0.040845,1.593435,-257.710029,-0.16324,72.135935
6.9568,0.02706,-0.003868,-0.04194,-0.002226,0.006328,0.009822,0.005905,-0.514033,-0.041194,1.593435,-257.710029,-0.16324,72.135935
6.9765,0.026617,-0.00405,-0.042517,-0.002268,0.006286,0.009787,0.005648,-0.513315,-0.041784,1.668435,-257.70753,-0.16186,72.135324
6.9965,0.026653,-0.004218,-0.04306,-0.002259,0.006236,0.009781,0.005002,-0.51356,-0.042443,1.668435,-257.70753,-0.16186,72.135324
7.0167,0.026749,-0.00418,-0.04383,-0.00225,0.006196,0.009776,0.005002,-0.51356,-0.042443,1.668435,-257.70753,-0.16186,72.135324
7.0367,0.026898,-0.004017,-0.041818,-0.002242,0.006164,0.00977,0.004403,-0.51369,-0.04383,1.593421,-257.70753,-0.135036,72.135324
7.0569,0.027189,-0.004385,-0.041616,-0.002218,0.006161,0.009751,0.004886,-0.513641,-0.043002,1.593421,-257.70753,-0.135036,72.135324
7.0766,0.027027,-0.00421,-0.042569,-0.002199,0.006158,0.009734,0.005971,-0.513944,-0.041616,1.518301,-257.707531,-0.087656,72.135324
7.0968,0.026499,-0.003971,-0.042089,-0.002218,0.006147,0.009686,0.005382,-0.513766,-0.042483,1.518301,-257.707531,-0.087656,72.135324
7.1168,0.026632,-0.003946,-0.042839,-0.002234,0.006139,0.009647,0.005382,-0.513766,-0.042483,1.518301,-257.707531,-0.087656,72.135324
7.1364,0.026642,-0.004122,-0.043358,-0.002246,0.006132,0.009616,0.004791,-0.513478,-0.042839,1.443407,-257.707531,-0.096584,72.135324
7.1568,0.026792,-0.004128,-0.042569,-0.002208,0.006139,0.009586,0.004687,-0.513546,-0.043051,1.443407,-257.707531,-0.096584,72.135324
7.1763,0.02664,-0.004224,-0.04341,-0.002177,0.006144,0.009561,0.005089,-0.513666,-0.042569,1.368427,-257.707532,-0.114862,72.135324
7.1966,0.026702,-0.003916,-0.043482,-0.002124,0.00619,0.009514,0.00456,-0.513736,-0.043334,1.368427,-257.707532,-0.114862,72.135324
7.2167,0.026734,-0.003935,-0.042006,-0.002083,0.006226,0.009475,0.00456,-0.513736,-0.043334,1.368427,-257.707532,-0.114862,72.135324
7.2364,0.026265,-0.004159,-0.042769,-0.002051,0.006254,0.009442,0.005317,-0.513485,-0.042006,1.293429,-257.707532,-0.13907,72.135324
7.2566,0.026815,-0.004037,-0.042112,-0.002074,0.006231,0.009377,0.004963,-0.513571,-0.042321,1.293429,-257.707532,-0.13907,72.135324
7.2764,0.026608,-0.00364,-0.041756,-0.002091,0.006214,0.009324,0.005344,-0.513579,-0.042102,1.368597,-257.707376,-0.214238,72.135297
7.2964,0.026873,-0.003733,-0.040861,-0.002151,0.006138,0.00925,0.005321,-0.513228,-0.041785,1.368597,-257.707376,-0.214238,72.135297
7.3164,0.026783,-0.004034,-0.042124,-0.002198,0.006078,0.009191,0.005321,-0.513228,-0.041785,1.368597,-257.707376,-0.214238,72.135297
7.3362,0.026909,-0.004055,-0.041249,-0.002234,0.00603,0.009143,0.005307,-0.513556,-0.042085,1.443564,-257.706907,-0.243162,72.135213
7.3567,0.026982,-0.003986,-0.042257,-0.002259,0.006031,0.009041,0.005538,-0.513579,-0.041743,1.443564,-257.706907,-0.243162,72.135213
7.3765,0.026531,-0.00398,-0.041851,-0.002278,0.006032,0.008959,0.005437,-0.513531,-0.042257,1.368693,-257.706907,-0.197115,72.135213
7.3968,0.026624,-0.004148,-0.041409,-0.002272,0.006045,0.008901,0.005216,-0.513533,-0.041888,1.368693,-257.706907,-0.197115,72.135213
7.4165,0.026764,-0.003972,-0.042014,-0.002267,0.006055,0.008855,0.005216,-0.513533,-0.041888,1.368693,-257.706907,-0.197115,72.135213
7.4367,0.026362,-0.004158,-0.041995,-0.002263,0.006063,0.008817,0.005343,-0.513522,-0.042014,1.293694,-257.706908,-0.241152,72.135213
7.457,0.026574,-0.004122,-0.041652,-0.002254,0.006081,0.008786,0.005184,-0.513598,-0.042006,1.293694,-257.706908,-0.241152,72.135213
7.4763,0.026509,-0.003953,-0.042305,-0.002247,0.006095,0.008761,0.005338,-0.51368,-0.041652,1.218692,-257.706908,-0.291278,72.135213
7.4968,0.026702,-0.004337,-0.042367,-0.002228,0.006106,0.008748,0.004974,-0.513512,-0.042249,1.218692,-257.706908,-0.291278,72.135213
7.5164,0.026611,-0.004186,-0.042991,-0.002213,0.006115,0.008736,0.004974,-0.513512,-0.042249,1.218692,-257.706908,-0.291278,72.135213
7.5369,0.02686,-0.00392,-0.043066,-0.002201,0.006122,0.008727,0.004692,-0.513715,-0.042991,1.143567,-257.706909,-0.319701,72.135213
7.5566,0.027042,-0.003866,-0.041512,-0.002167,0.006153,0.008723,0.004778,-0.513605,-0.043022,1.143567,-257.706909,-0.319701,72.135213
7.5762,0.026244,-0.003988,-0.041528,-0.00214,0.006178,0.008719,0.005878,-0.513426,-0.041512,1.068687,-257.706909,-0.345361,72.135213
7.5967,0.026967,-0.004142,-0.042987,-0.002156,0.006166,0.008707,0.005141,-0.513538,-0.041527,1.068687,-257.706909,-0.345361,72.135213
7.6165,0.027192,-0.003993,-0.042274,-0.002169,0.006156,0.008698,0.005141,-0.513538,-0.041527,1.068687,-257.706909,-0.345361,72.135213
7.6369,0.026779,-0.004257,-0.041279,-0.002179,0.006149,0.00869,0.005639,-0.513537,-0.042274,0.993599,-257.70691,-0.379203,72.135212
7.6564,0.026659,-0.004241,-0.043128,-0.002222,0.006128,0.00867,0.005677,-0.513653,-0.04187,0.993599,-257.70691,-0.379203,72.135212
7.6765,0.026733,-0.004189,-0.04226,-0.002257,0.006111,0.008655,0.00467,-0.513767,-0.043128,0.918697,-257.70691,-0.368531,72.135212
7.6967,0.026872,-0.00383,-0.041877,-0.002237,0.006142,0.008654,0.005141,-0.513737,-0.042338,0.918697,-257.70691,-0.368531,72.135212
7.7173,0.027163,-0.004099,-0.042912,-0.002222,0.006166,0.008654,0.005141,-0.513737,-0.042338,0.918697,-257.70691,-0.368531,72.135212
7.7369,0.026571,-0.003868,-0.041986,-0.00221,0.006185,0.008653,0.005285,-0.51363,-0.042912,0.843694,-257.70691,-0.350737,72.135212
7.7563,0.026851,-0.003981,-0.040848,-0.002222,0.006167,0.008653,0.005236,-0.513544,-0.042535,0.843694,-257.70691,-0.350737,72.135212
7.7764,0.026862,-0.003904,-0.041519,-0.002231,0.006152,0.008653,0.006024,-0.513555,-0.040848,0.76869,-257.706911,-0.38682,72.135212
7.7968,0.02671,-0.003894,-0.042146,-0.002278,0.006103,0.008642,0.005725,-0.513473,-0.041455,0.76869,-257.706911,-0.38682,72.135212
7.8168,0.026725,-0.004067,-0.041583,-0.002316,0.006065,0.008634,0.005725,-0.513473,-0.041455,0.76869,-257.706911,-0.38682,72.135212
7.8367,0.026559,-0.003757,-0.043786,-0.002347,0.006034,0.008628,0.005523,-0.513626,-0.041583,0.693672,-257.706911,-0.370702,72.135212
7.8567,0.026623,-0.004183,-0.03979,-0.002312,0.006052,0.008642,0.004997,-0.51348,-0.042483,0.693672,-257.706911,-0.370702,72.135212
7.8765,0.02662,-0.004292,-0.04325,-0.002284,0.006066,0.008651,0.006335,-0.513779,-0.03979,0.61859,-257.706912,-0.314917,72.135212
7.8963,0.026766,-0.003907,-0.041012,-0.002213,0.006143,0.00866,0.004722,-0.513812,-0.04295,0.61859,-257.706912,-0.314917,72.135212
7.9167,0.02676,-0.004165,-0.043174,-0.002158,0.006204,0.008667,0.004722,-0.513812,-0.04295,0.61859,-257.706912,-0.314917,72.135212
7.9367,0.026899,-0.003866,-0.042384,-0.002115,0.006252,0.008672,0.004748,-0.51369,-0.043174,0.543602,-257.706912,-0.33016,72.135212
7.9568,0.026773,-0.003844,-0.041325,-0.002121,0.006239,0.008672,0.004968,-0.513576,-0.042853,0.543602,-257.706912,-0.33016,72.135212
7.9767,0.026753,-0.004112,-0.041227,-0.002126,0.00623,0.008673,0.005704,-0.513409,-0.041325,0.468564,-257.706913,-0.405199,72.135212
7.9969,0.0265,-0.003966,-0.04188,-0.002184,0.006191,0.008655,0.00573,-0.513654,-0.041236,0.468564,-257.706913,-0.405199,72.135212
8.0166,0.026663,-0.003962,-0.041704,-0.00223,0.00616,0.008641,0.00573,-0.513654,-0.041236,0.468564,-257.706913,-0.405199,72.135212
8.0368,0.026593,-0.003858,-0.042089,-0.002267,0.006135,0.00863,0.0054,-0.513518,-0.041704,0.393696,-257.706913,-0.413514,72.135212
8.0564,0.026864,-0.004143,-0.04353,-0.002276,0.006114,0.008635,0.005293,-0.513473,-0.041859,0.393696,-257.706913,-0.413514,72.135212
8.0762,0.026848,-0.003973,-0.043221,-0.002282,0.006098,0.008639,0.004671,-0.51366,-0.04353,0.318701,-257.706914,-0.364137,72.135212
8.0963,0.026808,-0.003826,-0.041638,-0.00224,0.00612,0.008654,0.004799,-0.513512,-0.04325,0.318701,-257.706914,-0.364137,72.135212
8.1167,0.026599,-0.004103,-0.040979,-0.002206,0.006136,0.008665,0.004799,-0.513512,-0.04325,0.318701,-257.706914,-0.364137,72.135212
8.1366,0.026745,-0.003768,-0.041399,-0.00218,0.00615,0.008673,0.005706,-0.513675,-0.040979,0.243691,-257.706914,-0.345612,72.135212
8.1563,0.026286,-0.003728,-0.042193,-0.00223,0.006113,0.008657,0.005678,-0.513534,-0.041151,0.243691,-257.706914,-0.345612,72.135212
8.1763,0.026605,-0.003798,-0.041171,-0.00227,0.006083,0.008645,0.004774,-0.513274,-0.042193,0.168589,-257.706915,-0.37276,72.135211
8.1964,0.026945,-0.003902,-0.042052,-0.002302,0.006042,0.008642,0.005539,-0.513358,-0.041263,0.168589,-257.706915,-0.37276,72.135211
8.2167,0.026876,-0.004108,-0.041292,-0.002328,0.006009,0.008639,0.005539,-0.513358,-0.041263,0.168589,-257.706915,-0.37276,72.135211
8.2362,0.026807,-0.004001,-0.042545,-0.002348,0.005983,0.008637,0.005823,-0.513673,-0.041292,0.093687,-257.706915,-0.340158,72.135211
8.2563,0.026751,-0.004061,-0.041066,-0.002349,0.005999,0.008632,0.005536,-0.513619,-0.0418,0.093687,-257.706915,-0.340158,72.135211
8.2765,0.026536,-0.004111,-0.043224,-0.00235,0.006012,0.008628,0.005814,-0.513631,-0.041066,0.01856,-257.706915,-0.292892,72.135211
8.2966,0.026762,-0.004068,-0.042247,-0.002265,0.006082,0.008649,0.004618,-0.513634,-0.043028,0.01856,-257.706915,-0.292892,72.135211
8.3172,0.027094,-0.00414,-0.040815,-0.002199,0.006136,0.008664,0.004618,-0.513634,-0.043028,0.01856,-257.706915,-0.292892,72.135211
8.3364,0.027035,-0.004088,-0.041392,-0.002147,0.006179,0.008675,0.006284,-0.513715,-0.040815,-0.056306,-257.706916,-0.305845,72.135211
8.3567,0.026934,-0.003905,-0.040707,-0.002224,0.006133,0.008647,0.006143,-0.51369,-0.041046,-0.056306,-257.706916,-0.305845,72.135211
8.3761,0.026944,-0.003907,-0.041772,-0.002287,0.006096,0.008626,0.00618,-0.513482,-0.040707,-0.131303,-257.706916,-0.380842,72.135211
8.3967,0.026776,-0.004231,-0.041674,-0.002322,0.006059,0.008622,0.005695,-0.513464,-0.041676,-0.131303,-257.706916,-0.380842,72.135211
8.4166,0.026574,-0.004194,-0.043403,-0.00235,0.006029,0.008619,0.005695,-0.513464,-0.041676,-0.131303,-257.706916,-0.380842,72.135211
8.4369,0.027158,-0.003738,-0.042599,-0.002372,0.006005,0.008617,0.004446,-0.513713,-0.043403,-0.206296,-257.706917,-0.347159,72.135211
8.4567,0.027185,-0.004197,-0.04242,-0.002314,0.006047,0.008636,0.004848,-0.513536,-0.043078,-0.206296,-257.706917,-0.347159,72.135211
8.4763,0.026638,-0.004118,-0.042234,-0.002268,0.006079,0.00865,0.005557,-0.513738,-0.04242,-0.281301,-257.706917,-0.303264,72.135211
8.4966,0.026829,-0.004186,-0.039943,-0.002251,0.006105,0.00865,0.005144,-0.513669,-0.04225,-0.281301,-257.706917,-0.303264,72.135211
8.5166,0.026893,-0.003912,-0.04233,-0.002238,0.006127,0.008651,0.005144,-0.513669,-0.04225,-0.281301,-257.706917,-0.303264,72.135211
8.537,0.026571,-0.004141,-0.041124,-0.002228,0.006143,0.008651,0.005311,-0.513455,-0.04233,-0.356431,-257.706918,-0.337617,72.135211
8.5565,0.02662,-0.003774,-0.041646,-0.00225,0.006124,0.008646,0.005433,-0.513561,-0.041826,-0.356431,-257.706918,-0.337617,72.135211
8.5764,0.026408,-0.003767,-0.044366,-0.002268,0.006109,0.008642,0.005386,-0.513332,-0.041646,-0.43188,-257.706918,-0.368296,72.135211
8.5964,0.026865,-0.004074,-0.04177,-0.002137,0.006147,0.008689,0.003922,-0.513271,-0.04414,-0.43188,-257.706918,-0.368296,72.135211
8.6166,0.026446,-0.004051,-0.041476,-0.002036,0.006176,0.008723,0.003922,-0.513271,-0.04414,-0.43188,-257.706918,-0.368296,72.135211
8.6366,0.026821,-0.003674,-0.042606,-0.001956,0.006199,0.008748,0.0053,-0.513612,-0.041476,-0.506543,-257.706919,-0.351174,72.135211
8.6563,0.027174,-0.003699,-0.042932,-0.002018,0.006163,0.008724,0.005218,-0.51345,-0.041934,-0.506543,-257.706919,-0.351174,72.135211
8.6764,0.026566,-0.004265,-0.043741,-0.002068,0.006135,0.008706,0.005286,-0.513229,-0.042932,-0.581307,-257.706919,-0.412616,72.135211
8.6965,0.02667,-0.003827,-0.043188,-0.002005,0.00621,0.008711,0.004354,-0.51373,-0.04367,-0.581307,-257.706919,-0.412616,72.135211
8.7169,0.026833,-0.003582,-0.041513,-0.001956,0.006269,0.008715,0.004354,-0.51373,-0.04367,-0.581307,-257.706919,-0.412616,72.135211
8.7366,0.026431,-0.003872,-0.040527,-0.001918,0.006315,0.008717,0.005667,-0.513142,-0.041513,-0.656436,-257.70692,-0.376763,72.13521
8.7567,0.026586,-0.003992,-0.041436,-0.002034,0.006205,0.00869,0.005708,-0.513268,-0.041115,-0.656436,-257.70692,-0.376763,72.13521
8.7765,0.026443,-0.004093,-0.04204,-0.002127,0.006118,0.008671,0.005459,-0.513555,-0.041436,-0.731304,-257.70692,-0.451632,72.13521
8.797,0.026862,-0.003855,-0.041105,-0.002129,0.006138,0.008667,0.005049,-0.513634,-0.041986,-0.731304,-257.70692,-0.451632,72.13521
8.8165,0.026401,-0.003885,-0.043157,-0.00213,0.006154,0.008664,0.005049,-0.513634,-0.041986,-0.731304,-257.70692,-0.451632,72.13521
8.8364,0.026545,-0.003791,-0.042992,-0.002133,0.006167,0.008662,0.004398,-0.51341,-0.043157,-0.806307,-257.706923,-0.376629,72.13521
8.8564,0.026768,-0.00395,-0.04365,-0.002096,0.006173,0.008681,0.00449,-0.513373,-0.04309,-0.806307,-257.706923,-0.376629,72.13521
8.8764,0.026739,-0.003915,-0.041737,-0.002066,0.006177,0.008695,0.004513,-0.513463,-0.043649,-0.881307,-257.706939,-0.389981,72.135207
8.8966,0.026776,-0.00401,-0.042769,-0.002119,0.006142,0.00868,0.005379,-0.513471,-0.0419,-0.881307,-257.706939,-0.389981,72.135207
8.9163,0.026922,-0.003536,-0.042414,-0.002161,0.006113,0.008668,0.005379,-0.513471,-0.0419,-0.881307,-257.706939,-0.389981,72.135207
8.9364,0.026505,-0.004299,-0.042318,-0.002194,0.006091,0.00866,0.005295,-0.513074,-0.042411,-0.956441,-257.706997,-0.397306,72.135195
8.9566,0.026775,-0.003928,-0.040793,-0.002206,0.006076,0.008661,0.00514,-0.513399,-0.042371,-0.956441,-257.706997,-0.397306,72.135195
8.9762,0.026711,-0.004163,-0.043346,-0.002216,0.006065,0.008662,0.005971,-0.513495,-0.040781,-1.031745,-257.707227,-0.350371,72.135149
8.9964,0.026579,-0.003757,-0.041952,-0.002167,0.006121,0.008669,0.004728,-0.513667,-0.043126,-1.031745,-257.707227,-0.350371,72.135149
9.0167,0.027008,-0.003851,-0.041694,-0.00213,0.006165,0.008674,0.004728,-0.513667,-0.043126,-1.031745,-257.707227,-0.350371,72.135149
9.0363,0.02679,-0.003949,-0.042459,-0.002101,0.0062,0.008678,0.00573,-0.513374,-0.041648,-1.10644,-257.707877,-0.336315,72.135017
9.0564,0.026407,-0.003924,-0.042854,-0.00216,0.006145,0.008666,0.005491,-0.513417,-0.04197,-1.10644,-257.707877,-0.336315,72.135017
9.0766,0.026553,-0.003955,-0.042162,-0.002206,0.006102,0.008656,0.004534,-0.513408,-0.042789,-1.181314,-257.709061,-0.404585,72.134786
9.0968,0.026708,-0.003836,-0.040953,-0.0022,0.006107,0.00866,0.005019,-0.513494,-0.042203,-1.181314,-257.709061,-0.404585,72.134786
9.1164,0.026505,-0.003967,-0.042971,-0.002195,0.00611,0.008663,0.005019,-0.513494,-0.042203,-1.181314,-257.709061,-0.404585,72.134786
9.1368,0.026301,-0.003718,-0.042404,-0.002191,0.006113,0.008665,0.004541,-0.513368,-0.042794,-1.256886,-257.711409,-0.353798,72.13431
9.1566,0.026326,-0.003851,-0.042442,-0.002157,0.006113,0.008682,0.00459,-0.51331,-0.042618,-1.256886,-257.711409,-0.353798,72.13431
9.1767,0.026063,-0.003313,-0.041697,-0.00213,0.006114,0.008694,0.004631,-0.513238,-0.042229,-1.331306,-257.715042,-0.358296,72.133578
9.1967,0.02616,-0.003682,-0.041922,-0.002156,0.006023,0.00876,0.004786,-0.512893,-0.041732,-1.331306,-257.715042,-0.358296,72.133578
9.2167,0.026313,-0.003437,-0.041566,-0.002176,0.005952,0.008812,0.004786,-0.512893,-0.041732,-1.331306,-257.715042,-0.358296,72.133578
9.2366,0.025732,-0.003514,-0.041663,-0.00219,0.005896,0.008855,0.005046,-0.51275,-0.041221,-1.386463,-257.719459,-0.360722,72.132712
9.2565,0.025642,-0.003296,-0.040803,-0.002207,0.005838,0.008915,0.004812,-0.512852,-0.041359,-1.386463,-257.719459,-0.360722,72.132712
9.2766,0.0256,-0.002783,-0.040711,-0.00222,0.005792,0.008964,0.004794,-0.512732,-0.040602,-1.379414,-257.722797,-0.285899,72.132062
9.2963,0.025541,-0.002953,-0.039345,-0.002257,0.005666,0.009027,0.004837,-0.512386,-0.040692,-1.379414,-257.722797,-0.285899,72.132062
9.3166,0.025499,-0.002751,-0.04127,-0.002285,0.005566,0.009078,0.004837,-0.512386,-0.040692,-1.379414,-257.722797,-0.285899,72.132062
9.3364,0.025483,-0.002752,-0.04056,-0.002306,0.005488,0.009119,0.004398,-0.512138,-0.041005,-1.376284,-257.72609,-0.210826,72.131419
9.3563,0.025183,-0.002616,-0.041887,-0.002299,0.005399,0.009184,0.004558,-0.512198,-0.040791,-1.376284,-257.72609,-0.210826,72.131419
9.3763,0.025278,-0.002451,-0.038843,-0.002292,0.00533,0.009236,0.003803,-0.5121,-0.041782,-1.36521,-257.727777,-0.135746,72.131074
9.3964,0.025441,-0.002691,-0.038614,-0.002359,0.005218,0.009261,0.005322,-0.512066,-0.039101,-1.36521,-257.727777,-0.135746,72.131074
9.4164,0.02531,-0.002694,-0.03995,-0.002412,0.005129,0.009283,0.005322,-0.512066,-0.039101,-1.36521,-257.727777,-0.135746,72.131074
9.4365,0.025087,-0.002512,-0.039641,-0.002453,0.005058,0.009302,0.004914,-0.512215,-0.039836,-1.364808,-257.729153,-0.060859,72.13079
9.4564,0.024983,-0.002337,-0.040959,-0.002446,0.005034,0.009337,0.004895,-0.512163,-0.039742,-1.364808,-257.729153,-0.060859,72.13079
9.4763,0.025293,-0.002467,-0.038259,-0.00244,0.005015,0.009365,0.004084,-0.511873,-0.0409,-1.346217,-257.730071,0.014523,72.130579
9.4964,0.025019,-0.002233,-0.040042,-0.002497,0.004955,0.00937,0.005642,-0.512074,-0.038478,-1.346217,-257.730071,0.014523,72.130579
9.5165,0.024854,-0.002334,-0.040318,-0.002542,0.004906,0.009375,0.005642,-0.512074,-0.038478,-1.346217,-257.730071,0.014523,72.130579
9.5365,0.024881,-0.002301,-0.038949,-0.002579,0.004867,0.009381,0.004267,-0.511849,-0.0402,-1.347285,-257.731462,0.089308,72.130258
9.5563,0.025184,-0.002338,-0.03875,-0.002525,0.004835,0.009429,0.004571,-0.511867,-0.039677,-1.347285,-257.731462,0.089308,72.130258
9.5766,0.024997,-0.002718,-0.041137,-0.002482,0.004808,0.009465,0.005394,-0.511887,-0.038631,-1.332062,-257.733265,0.164159,72.129809
9.5966,0.024449,-0.002315,-0.040631,-0.002378,0.004886,0.009508,0.004146,-0.512247,-0.040903,-1.332062,-257.733265,0.164159,72.129809
9.6165,0.024751,-0.002496,-0.040145,-0.002297,0.004946,0.009541,0.004146,-0.512247,-0.040903,-1.332062,-257.733265,0.164159,72.129809
9.6371,0.024769,-0.002128,-0.04046,-0.002234,0.004992,0.009566,0.004234,-0.51198,-0.039955,-1.340561,-257.735414,0.239145,72.129282
9.6566,0.024706,-0.001903,-0.038372,-0.00221,0.004944,0.00959,0.00419,-0.511858,-0.040139,-1.340561,-257.735414,0.239145,72.129282
9.6763,0.024391,-0.002003,-0.03833,-0.00219,0.004907,0.009608,0.00509,-0.511402,-0.038139,-1.367418,-257.738826,0.314271,72.128545
9.6964,0.024343,-0.002012,-0.03894,-0.002252,0.004802,0.009599,0.004866,-0.511603,-0.038302,-1.367418,-257.738826,0.314271,72.128545
9.7166,0.024243,-0.001612,-0.038994,-0.002301,0.00472,0.009594,0.004866,-0.511603,-0.038302,-1.367418,-257.738826,0.314271,72.128545
9.7369,0.023942,-0.001822,-0.041228,-0.002339,0.004654,0.00959,0.00429,-0.511045,-0.038653,-1.370282,-257.742573,0.389269,72.12773
9.7562,0.024169,-0.001657,-0.039049,-0.002249,0.004536,0.00964,0.003725,-0.511164,-0.03966,-1.370282,-257.742573,0.389269,72.12773
9.7768,0.023663,-0.00116,-0.037626,-0.002178,0.004444,0.009675,0.004198,-0.511134,-0.03878,-1.351876,-257.746381,0.464141,72.1268
9.7966,0.023988,-0.002017,-0.038484,-0.002216,0.004281,0.009676,0.00445,-0.510822,-0.037716,-1.351876,-257.746381,0.464141,72.1268
9.8163,0.024211,-0.001324,-0.037389,-0.002245,0.004153,0.009676,0.00445,-0.510822,-0.037716,-1.351876,-257.746381,0.464141,72.1268
9.8365,0.023489,-0.001128,-0.039198,-0.002267,0.004051,0.009677,0.005082,-0.51082,-0.037081,-1.363493,-257.749633,0.539146,72.125993
9.8567,0.02364,-0.001334,-0.037293,-0.002282,0.003959,0.009681,0.004423,-0.510769,-0.037919,-1.363493,-257.749633,0.539146,72.125993
9.8764,0.023066,-0.001083,-0.037691,-0.002293,0.003887,0.009684,0.004576,-0.510885,-0.03708,-1.346974,-257.752501,0.614256,72.12517
9.8967,0.023183,-0.000893,-0.037166,-0.00224,0.003827,0.009719,0.00391,-0.51073,-0.037627,-1.346974,-257.752501,0.614256,72.12517
9.9164,0.023069,-0.001229,-0.036449,-0.002198,0.00378,0.009745,0.00391,-0.51073,-0.037627,-1.346974,-257.752501,0.614256,72.12517
9.9367,0.023258,-0.000958,-0.036341,-0.002165,0.003743,0.009764,0.004409,-0.510752,-0.036119,-1.34099,-257.755815,0.689277,72.124162
9.9565,0.023053,-0.000746,-0.03903,-0.002208,0.003693,0.009763,0.004531,-0.510682,-0.036172,-1.34099,-257.755815,0.689277,72.124162
9.9762,0.022752,-0.000983,-0.037412,-0.002243,0.003654,0.009764,0.003099,-0.510256,-0.038775,-1.351349,-257.759099,0.764233,72.123138
9.9966,0.022746,-0.000936,-0.037004,-0.002159,0.003606,0.009825,0.003624,-0.510589,-0.037516,-1.351349,-257.759099,0.764233,72.123138
10.0168,0.022566,-0.000767,-0.036971,-0.002094,0.003569,0.009871,0.003624,-0.510589,-0.037516,-1.351349,-257.759099,0.764233,72.123138
10.0367,0.021982,-0.000901,-0.034419,-0.002042,0.00354,0.009906,0.003628,-0.510265,-0.036571,-1.341701,-257.762958,0.800074,72.12188
10.0568,0.022475,-0.000466,-0.036772,-0.002046,0.003463,0.009935,0.003942,-0.510382,-0.035659,-1.341701,-257.762958,0.800074,72.12188
10.0766,0.022241,-0.000551,-0.035754,-0.002048,0.003403,0.009959,0.003672,-0.51002,-0.036495,-1.360998,-257.76641,0.874961,72.120741
10.0967,0.022278,-0.000818,-0.037083,-0.002054,0.00331,0.009991,0.003978,-0.510202,-0.035805,-1.360998,-257.76641,0.874961,72.120741
10.1165,0.021972,-0.00012,-0.035142,-0.002058,0.003237,0.010016,0.003978,-0.510202,-0.035805,-1.360998,-257.76641,0.874961,72.120741
10.1364,0.021592,-0.000119,-0.035031,-0.00206,0.003179,0.010036,0.003975,-0.509665,-0.034738,-1.358172,-257.77017,0.918366,72.119434
10.1564,0.021556,-0.000216,-0.034659,-0.002043,0.003013,0.010073,0.003866,-0.509706,-0.034811,-1.358172,-257.77017,0.918366,72.119434
10.1762,0.021415,-0.000305,-0.036202,-0.002029,0.002883,0.010101,0.003824,-0.509809,-0.034349,-1.353006,-257.773872,0.961242,72.118037
10.1965,0.020943,-2.2e-05,-0.03489,-0.001888,0.002828,0.010168,0.003031,-0.509951,-0.03602,-1.353006,-257.773872,0.961242,72.118037
10.2165,0.021184,0.000129,-0.034834,-0.00178,0.002786,0.010216,0.003031,-0.509951,-0.03602,-1.353006,-257.773872,0.961242,72.118037
10.2367,0.020874,0.000104,-0.034694,-0.001695,0.002753,0.010251,0.003345,-0.509444,-0.034432,-1.350249,-257.777404,1.017666,72.116566
10.2562,0.020683,1.4e-05,-0.034294,-0.001664,0.002614,0.010269,0.00327,-0.50949,-0.034493,-1.350249,-257.777404,1.017666,72.116566
10.2762,0.02075,0.000192,-0.033547,-0.001639,0.002504,0.010282,0.003153,-0.509611,-0.034026,-1.384882,-257.780439,1.092843,72.115277
10.2964,0.020646,0.000176,-0.033902,-0.001668,0.002439,0.010275,0.003599,-0.509525,-0.033576,-1.384882,-257.780439,1.092843,72.115277
10.3164,0.020639,0.000108,-0.034955,-0.001691,0.002387,0.01027,0.003599,-0.509525,-0.033576,-1.384882,-257.780439,1.092843,72.115277
10.3365,0.020256,0.000495,-0.034449,-0.001708,0.002346,0.010267,0.002756,-0.509481,-0.034557,-1.386359,-257.783756,1.161296,72.113749
10.3568,0.020377,0.000539,-0.03229,-0.001566,0.002242,0.010312,0.002722,-0.509354,-0.034466,-1.386359,-257.783756,1.161296,72.113749
10.3763,0.01996,0.000141,-0.033477,-0.001457,0.002163,0.010342,0.003859,-0.509118,-0.031964,-1.375135,-257.787256,1.160426,72.112043
10.3966,0.020367,0.000565,-0.033095,-0.001424,0.002157,0.010357,0.002975,-0.509529,-0.033325,-1.375135,-257.787256,1.160426,72.112043
10.4167,0.020007,0.000612,-0.032493,-0.001399,0.002152,0.010369,0.002975,-0.509529,-0.033325,-1.375135,-257.787256,1.160426,72.112043
10.4367,0.019605,0.00049,-0.031708,-0.001378,0.002148,0.010377,0.003385,-0.509035,-0.0321,-1.400635,-257.790387,1.233475,72.110442
10.4566,0.019777,0.000292,-0.031439,-0.001421,0.002057,0.010367,0.0034,-0.509114,-0.031895,-1.400635,-257.790387,1.233475,72.110442
10.4763,0.019681,0.000448,-0.032827,-0.001453,0.001985,0.010361,0.003704,-0.509387,-0.031111,-1.409768,-257.7938,1.252983,72.10869
10.4964,0.019509,0.000658,-0.030989,-0.00142,0.001955,0.010379,0.003006,-0.509283,-0.032663,-1.409768,-257.7938,1.252983,72.10869
10.5166,0.019207,0.000677,-0.032057,-0.001394,0.001932,0.010393,0.003006,-0.509283,-0.032663,-1.409768,-257.7938,1.252983,72.10869
10.5364,0.018982,0.000878,-0.030957,-0.001373,0.001913,0.010404,0.002803,-0.508976,-0.031624,-1.397705,-257.797162,1.24783,72.106866
10.5562,0.019409,0.000957,-0.030096,-0.001337,0.00181,0.010415,0.002956,-0.508927,-0.031304,-1.397705,-257.797162,1.24783,72.106866
10.5766,0.018728,0.000718,-0.030744,-0.001308,0.00173,0.010422,0.004021,-0.50875,-0.029768,-1.406178,-257.800482,1.270865,72.105024
10.5963,0.018595,0.000627,-0.031557,-0.00132,0.001696,0.010423,0.003136,-0.509011,-0.030639,-1.406178,-257.800482,1.270865,72.105024
10.6162,0.018702,0.000916,-0.030489,-0.00133,0.001669,0.010423,0.003136,-0.509011,-0.030639,-1.406178,-257.800482,1.270865,72.105024
10.6365,0.018347,0.000875,-0.031275,-0.001336,0.001647,0.010425,0.003103,-0.508774,-0.030058,-1.410567,-257.80374,1.295742,72.103111
10.6564,0.018252,0.000943,-0.031498,-0.001274,0.001568,0.010442,0.002803,-0.508808,-0.030516,-1.410567,-257.80374,1.295742,72.103111
10.6764,0.017929,0.001194,-0.030873,-0.001226,0.001505,0.010453,0.00215,-0.50875,-0.031168,-1.40557,-257.806982,1.294876,72.101153
10.6963,0.017999,0.001015,-0.029633,-0.001043,0.001371,0.010487,0.002181,-0.508576,-0.030882,-1.40557,-257.806982,1.294876,72.101153
10.7165,0.01817,0.000915,-0.030097,-0.000902,0.001266,0.010509,0.002181,-0.508576,-0.030882,-1.40557,-257.806982,1.294876,72.101153
10.7366,0.017276,0.00116,-0.028797,-0.000792,0.001185,0.010523,0.002774,-0.508791,-0.029667,-1.416628,-257.810124,1.32462,72.099173
10.7569,0.017919,0.001212,-0.027887,-0.000824,0.001184,0.010509,0.002694,-0.508717,-0.029262,-1.416628,-257.810124,1.32462,72.099173
10.7766,0.017779,0.001219,-0.031548,-0.000848,0.001182,0.0105,0.003677,-0.508558,-0.02761,-1.467087,-257.812655,1.399595,72.09742
10.7967,0.017573,0.001148,-0.027935,-0.000671,0.001094,0.01053,0.00187,-0.508529,-0.03118,-1.467087,-257.812655,1.399595,72.09742
10.8166,0.017627,0.001302,-0.030267,-0.000534,0.001025,0.010548,0.00187,-0.508529,-0.03118,-1.467087,-257.812655,1.399595,72.09742
10.8367,0.017093,0.00114,-0.028775,-0.000429,0.000972,0.010559,0.00216,-0.508414,-0.029827,-1.459562,-257.815708,1.410017,72.095303
10.8564,0.017095,0.001292,-0.027245,-0.00044,0.000947,0.010548,0.002261,-0.508503,-0.02935,-1.459562,-257.815708,1.410017,72.095303
10.8761,0.016993,0.001386,-0.025988,-0.000448,0.000927,0.01054,0.00319,-0.508492,-0.026958,-1.513113,-257.818253,1.485116,72.093422
10.8965,0.016967,0.001391,-0.026868,-0.000682,0.000974,0.010463,0.003692,-0.508445,-0.026058,-1.513113,-257.818253,1.485116,72.093422
10.9164,0.016855,0.001032,-0.028842,-0.000871,0.001009,0.010411,0.003692,-0.508445,-0.026058,-1.513113,-257.818253,1.485116,72.093422
10.9365,0.016693,0.001438,-0.028574,-0.001022,0.001034,0.010377,0.00213,-0.508716,-0.028402,-1.510105,-257.821199,1.489755,72.091216
10.9564,0.016703,0.001396,-0.026542,-0.000866,0.001001,0.010431,0.002125,-0.508565,-0.028421,-1.510105,-257.821199,1.489755,72.091216
10.9762,0.016326,0.001668,-0.027531,-0.000747,0.000976,0.010469,0.003147,-0.5084,-0.026294,-1.435249,-257.823433,1.414898,72.089594
10.9964,0.016386,0.001678,-0.027844,-0.000702,0.000882,0.010472,0.002362,-0.508161,-0.027409,-1.435249,-257.823433,1.414898,72.089594
11.0164,0.016235,0.001389,-0.026667,-0.000667,0.000808,0.010472,0.002362,-0.508161,-0.027409,-1.435249,-257.823433,1.414898,72.089594
11.0361,0.016179,0.001162,-0.027173,-0.000639,0.000749,0.010472,0.002607,-0.508389,-0.02624,-1.469721,-257.826323,1.433698,72.08746
11.0561,0.01637,0.001406,-0.027227,-0.000662,0.000787,0.010468,0.002488,-0.508491,-0.026572,-1.469721,-257.826323,1.433698,72.08746
11.0761,0.015582,0.001506,-0.025181,-0.00068,0.000817,0.010465,0.002466,-0.508381,-0.026898,-1.48155,-257.82916,1.458038,72.085213
11.0964,0.015421,0.001323,-0.026847,-0.00073,0.000818,0.010453,0.002715,-0.508336,-0.025318,-1.48155,-257.82916,1.458038,72.085213
11.1168,0.01618,0.001133,-0.025384,-0.00077,0.000818,0.010445,0.002715,-0.508336,-0.025318,-1.48155,-257.82916,1.458038,72.085213
11.1361,0.015186,0.001735,-0.025186,-0.000801,0.000817,0.01044,0.003208,-0.508668,-0.024946,-1.476779,-257.832051,1.449476,72.08297
11.1562,0.01603,0.001708,-0.026327,-0.000856,0.000848,0.010432,0.002854,-0.508435,-0.024993,-1.476779,-257.832051,1.449476,72.08297
11.1761,0.015321,0.001395,-0.025439,-0.000899,0.000871,0.010428,0.002581,-0.508089,-0.025999,-1.459909,-257.834912,1.427697,72.080751
11.1966,0.01507,0.001554,-0.025233,-0.000839,0.000868,0.010447,0.002368,-0.508407,-0.025472,-1.459909,-257.834912,1.427697,72.080751
11.2165,0.015209,0.001483,-0.025436,-0.000792,0.000867,0.01046,0.002368,-0.508407,-0.025472,-1.459909,-257.834912,1.427697,72.080751
11.2366,0.014812,0.001765,-0.023161,-0.000757,0.000866,0.010469,0.002201,-0.508315,-0.025002,-1.447233,-257.837809,1.408699,72.078538
11.2568,0.015214,0.001397,-0.023902,-0.000753,0.000832,0.010466,0.002523,-0.508222,-0.024202,-1.447233,-257.837809,1.408699,72.078538
11.2769,0.01467,0.001688,-0.023134,-0.000749,0.000806,0.010464,0.003001,-0.508429,-0.023574,-1.466901,-257.84068,1.434712,72.076343
11.2964,0.014748,0.001804,-0.024802,-0.000812,0.000801,0.01045,0.002885,-0.5082,-0.02316,-1.466901,-257.84068,1.434712,72.076343
11.3168,0.014776,0.00158,-0.02356,-0.000862,0.000797,0.010442,0.002885,-0.5082,-0.02316,-1.466901,-257.84068,1.434712,72.076343
11.3368,0.01432,0.002031,-0.023318,-0.000901,0.000793,0.010437,0.002731,-0.508244,-0.023123,-1.467074,-257.843569,1.437465,72.074093
11.3567,0.014314,0.001721,-0.0233,-0.000873,0.000745,0.010444,0.002605,-0.508072,-0.023151,-1.467074,-257.843569,1.437465,72.074093
11.3767,0.013935,0.001515,-0.022329,-0.000852,0.000708,0.01045,0.002405,-0.508115,-0.022971,-1.451193,-257.84643,1.417499,72.071858
11.3964,0.013983,0.002123,-0.023253,-0.000835,0.000734,0.010461,0.002534,-0.508335,-0.02237,-1.451193,-257.84643,1.417499,72.071858
11.4166,0.014009,0.002206,-0.023638,-0.000822,0.000755,0.01047,0.002534,-0.508335,-0.02237,-1.451193,-257.84643,1.417499,72.071858
11.4364,0.013449,0.001684,-0.021494,-0.000812,0.00077,0.010477,0.00192,-0.507621,-0.0232,-1.451272,-257.849286,1.421831,72.069563
11.4563,0.013795,0.001964,-0.020699,-0.000695,0.000656,0.010492,0.002148,-0.507853,-0.022455,-1.451272,-257.849286,1.421831,72.069563
11.4761,0.013486,0.001985,-0.021387,-0.000604,0.000566,0.010501,0.003214,-0.507901,-0.020365,-1.457984,-257.852178,1.427473,72.067284
11.4964,0.013338,0.001807,-0.022844,-0.000636,0.000536,0.010492,0.00263,-0.507897,-0.021288,-1.457984,-257.852178,1.427473,72.067284
11.5166,0.013563,0.001989,-0.02103,-0.000661,0.000511,0.010486,0.00263,-0.507897,-0.021288,-1.457984,-257.852178,1.427473,72.067284
11.5362,0.013066,0.002002,-0.021331,-0.00068,0.00049,0.010483,0.002814,-0.507875,-0.020606,-1.484537,-257.854868,1.467934,72.065027
11.5566,0.013183,0.002159,-0.020466,-0.000681,0.000465,0.010483,0.002562,-0.507875,-0.020848,-1.484537,-257.854868,1.467934,72.065027
11.5761,0.012719,0.002029,-0.020841,-0.000681,0.000444,0.010483,0.002726,-0.507717,-0.020133,-1.475517,-257.85764,1.459137,72.06266
11.5966,0.012772,0.001956,-0.020576,-0.000591,0.000397,0.010501,0.002146,-0.507847,-0.020761,-1.475517,-257.85764,1.459137,72.06266
11.6168,0.012816,0.001892,-0.020646,-0.000522,0.000361,0.010511,0.002146,-0.507847,-0.020761,-1.475517,-257.85764,1.459137,72.06266
11.6367,0.012373,0.002203,-0.021705,-0.000468,0.000333,0.010518,0.002259,-0.50798,-0.020207,-1.471672,-257.860391,1.457003,72.060263
11.6568,0.012568,0.002162,-0.020281,-0.000361,0.000297,0.010534,0.001868,-0.507854,-0.020766,-1.471672,-257.860391,1.457003,72.060263
11.6765,0.01246,0.002142,-0.02089,-0.000277,0.000269,0.010543,0.002211,-0.507722,-0.019957,-1.501623,-257.863007,1.49409,72.057903
11.6966,0.01207,0.00196,-0.019001,-0.0002,0.000223,0.010547,0.001841,-0.507744,-0.020794,-1.501623,-257.863007,1.49409,72.057903
11.7168,0.012504,0.002061,-0.02147,-0.000139,0.000187,0.010548,0.001841,-0.507744,-0.020794,-1.501623,-257.863007,1.49409,72.057903
11.7367,0.011566,0.002016,-0.018441,-9.2e-05,0.000159,0.010547,0.001544,-0.507811,-0.021042,-1.529451,-257.865626,1.525857,72.055493
11.7568,0.011695,0.001791,-0.01996,-5.1e-05,0.000156,0.010546,0.001802,-0.507846,-0.0199,-1.529451,-257.865626,1.525857,72.055493
11.7766,0.011701,0.002423,-0.018429,-1.8e-05,0.000154,0.010544,0.001513,-0.508103,-0.019636,-1.55691,-257.868183,1.556209,72.053059
11.7968,0.011827,0.002194,-0.020278,-7.1e-05,0.000119,0.010515,0.002232,-0.507545,-0.018521,-1.55691,-257.868183,1.556209,72.053059
11.8168,0.011797,0.002224,-0.020661,-0.000111,9e-05,0.010493,0.002232,-0.507545,-0.018521,-1.55691,-257.868183,1.556209,72.053059
11.8364,0.011552,0.002149,-0.018275,-0.000142,6.7e-05,0.010477,0.00126,-0.50766,-0.020222,-1.568058,-257.870811,1.567924,72.050554
11.8563,0.011411,0.002266,-0.018232,-4.1e-05,4.4e-05,0.010495,0.001656,-0.507703,-0.019378,-1.568058,-257.870811,1.567924,72.050554
11.8763,0.010791,0.001954,-0.016193,3.7e-05,2.7e-05,0.010506,0.002109,-0.507647,-0.017902,-1.548818,-257.873369,1.548353,72.048048
11.8965,0.010966,0.00179,-0.017968,-0.0001,0.000114,0.010459,0.002496,-0.507951,-0.016325,-1.548818,-257.873369,1.548353,72.048048
11.9169,0.011266,0.002164,-0.018713,-0.000207,0.000181,0.010425,0.002496,-0.507951,-0.016325,-1.548818,-257.873369,1.548353,72.048048
11.9366,0.011046,0.002212,-0.01757,-0.000291,0.000233,0.010401,0.001724,-0.507745,-0.018283,-1.576556,-257.875884,1.576605,72.045555
11.9566,0.010585,0.002492,-0.017335,-0.000209,0.000191,0.010421,0.001871,-0.507731,-0.017945,-1.576556,-257.875884,1.576605,72.045555
11.9766,0.010598,0.002105,-0.018023,-0.000146,0.000158,0.010435,0.001736,-0.507425,-0.017031,-1.526684,-257.878301,1.523333,72.043308
11.9965,0.010702,0.002226,-0.016334,1.2e-05,0.000119,0.01046,0.001437,-0.507775,-0.017914,-1.526684,-257.878301,1.523333,72.043308
12.0166,0.010519,0.001975,-0.017748,0.000133,8.9e-05,0.010475,0.001437,-0.507775,-0.017914,-1.526684,-257.878301,1.523333,72.043308
12.0372,0.010219,0.002267,-0.016925,0.000226,6.7e-05,0.010484,0.001462,-0.507938,-0.017318,-1.54844,-257.880871,1.547303,72.040863
12.0566,0.01053,0.002573,-0.016365,0.000277,6.3e-05,0.01048,0.001512,-0.507825,-0.017111,-1.54844,-257.880871,1.547303,72.040863
12.0767,0.010369,0.002185,-0.014988,0.000316,6e-05,0.010475,0.002191,-0.507357,-0.016064,-1.605784,-257.883203,1.60652,72.038579
12.0971,0.009703,0.002315,-0.017081,0.000107,0.000107,0.010382,0.002684,-0.507727,-0.015058,-1.605784,-257.883203,1.60652,72.038579
12.1166,0.01048,0.00211,-0.016912,-5.9e-05,0.000142,0.010316,0.002684,-0.507727,-0.015058,-1.605784,-257.883203,1.60652,72.038579
12.1367,0.009893,0.002263,-0.013444,-0.000189,0.000167,0.010268,0.001868,-0.507815,-0.016479,-1.619675,-257.885762,1.620604,72.036068
12.1563,0.010192,0.002072,-0.014575,-0.00023,0.000172,0.010252,0.002343,-0.507764,-0.015198,-1.619675,-257.885762,1.620604,72.036068
12.1767,0.009657,0.002252,-0.015323,-0.000263,0.000175,0.010239,0.002754,-0.50787,-0.014308,-1.54506,-257.887866,1.545989,72.034073
12.1966,0.009656,0.001782,-0.014988,-0.000192,0.000139,0.010243,0.001924,-0.507704,-0.015218,-1.54506,-257.887866,1.545989,72.034073
12.2167,0.009319,0.002178,-0.015881,-0.000139,0.000112,0.010243,0.001924,-0.507704,-0.015218,-1.54506,-257.887866,1.545989,72.034073
12.2371,0.009458,0.001926,-0.0144,-9.8e-05,9e-05,0.010241,0.00121,-0.50775,-0.015455,-1.529975,-257.890416,1.527634,72.031661
12.257,0.009714,0.002233,-0.01374,1.4e-05,8.6e-05,0.010249,0.001573,-0.507859,-0.014981,-1.529975,-257.890416,1.527634,72.031661
12.2761,0.009496,0.00221,-0.013806,0.0001,8.4e-05,0.010251,0.002704,-0.507716,-0.013421,-1.555375,-257.892899,1.554923,72.029249
12.2966,0.00927,0.001842,-0.015646,-2.5e-05,0.000109,0.010159,0.002478,-0.507739,-0.013755,-1.555375,-257.892899,1.554923,72.029249
12.3168,0.008846,0.002088,-0.014777,-0.000122,0.000127,0.01009,0.002478,-0.507739,-0.013755,-1.555375,-257.892899,1.554923,72.029249
12.3373,0.009023,0.002323,-0.014954,-0.000199,0.00014,0.010038,0.001314,-0.507853,-0.01436,-1.586576,-257.895357,1.587003,72.026856
12.3567,0.008977,0.002111,-0.014777,6e-06,9e-05,0.010079,0.001347,-0.50776,-0.014548,-1.586576,-257.895357,1.587003,72.026856
12.3762,0.008388,0.002364,-0.013605,0.000162,5.3e-05,0.010106,0.001436,-0.50783,-0.01448,-1.539041,-257.897684,1.537559,72.024632
12.3966,0.008722,0.002354,-0.013299,0.000265,-4e-06,0.010074,0.001448,-0.50761,-0.013669,-1.539041,-257.897684,1.537559,72.024632
12.4167,0.008788,0.002147,-0.013135,0.000344,-4.8e-05,0.010046,0.001448,-0.50761,-0.013669,-1.539041,-257.897684,1.537559,72.024632
12.4367,0.008354,0.002029,-0.012259,0.000406,-8.2e-05,0.010022,0.002096,-0.507807,-0.012755,-1.596827,-257.899914,1.597274,72.02244
12.4569,0.008595,0.002042,-0.013268,0.000291,-2.3e-05,0.009895,0.002099,-0.507858,-0.012513,-1.596827,-257.899914,1.597274,72.02244
12.4761,0.007866,0.002,-0.011388,0.000201,2.2e-05,0.009799,0.001841,-0.507915,-0.012965,-1.637881,-257.902218,1.636111,72.020073
12.4965,0.008393,0.00264,-0.012017,0.000143,7.7e-05,0.009631,0.002041,-0.507963,-0.011507,-1.637881,-257.902218,1.636111,72.020073
12.5165,0.008036,0.002281,-0.01081,9.7e-05,0.000119,0.009504,0.002041,-0.507963,-0.011507,-1.637881,-257.902218,1.636111,72.020073
12.5366,0.008364,0.002259,-0.010815,6.1e-05,0.000151,0.009407,0.002531,-0.507689,-0.010415,-1.604298,-257.904538,1.604546,72.01777
12.5564,0.007915,0.002111,-0.010171,-7.2e-05,0.000164,0.009182,0.00266,-0.507698,-0.010531,-1.604298,-257.904538,1.604546,72.01777
12.5763,0.007752,0.002256,-0.010248,-0.000179,0.000172,0.009014,0.002729,-0.507858,-0.009876,-1.581217,-257.906858,1.581777,72.015569
12.5968,0.007738,0.001783,-0.009327,-0.000243,0.000177,0.00885,0.002543,-0.50773,-0.0102,-1.581217,-257.906858,1.581777,72.015569
12.6166,0.007832,0.002154,-0.010175,-0.000294,0.00018,0.008728,0.002543,-0.50773,-0.0102,-1.581217,-257.906858,1.581777,72.015569
12.6365,0.007345,0.0024,-0.011753,-0.000336,0.000181,0.008637,0.002636,-0.507812,-0.009819,-1.539356,-257.908998,1.537329,72.013559
12.6562,0.007514,0.001948,-0.010754,-0.000279,0.000149,0.008632,0.002114,-0.507711,-0.010562,-1.539356,-257.908998,1.537329,72.013559
12.6765,0.007155,0.002288,-0.011046,-0.000237,0.000124,0.008627,0.002019,-0.508017,-0.010487,-1.509346,-257.911117,1.504982,72.01158
12.6966,0.007236,0.00209,-0.009349,-7.1e-05,7.1e-05,0.008695,0.001566,-0.507711,-0.010981,-1.509346,-257.911117,1.504982,72.01158
12.7165,0.007398,0.002177,-0.008743,5.5e-05,3e-05,0.008743,0.001566,-0.507711,-0.010981,-1.509346,-257.911117,1.504982,72.01158
12.7366,0.007179,0.001782,-0.009873,0.000152,-1e-06,0.008777,0.00293,-0.507798,-0.008385,-1.526879,-257.913253,1.524769,72.009542
12.7564,0.00719,0.002089,-0.008726,-1.2e-05,9.9e-05,0.008463,0.002609,-0.507958,-0.00895,-1.526879,-257.913253,1.524769,72.009542
12.7767,0.007055,0.002062,-0.010262,-0.000142,0.000176,0.008234,0.002744,-0.507891,-0.00849,-1.5992,-257.915058,1.599185,72.007736
12.7966,0.006942,0.001958,-0.009934,-9.3e-05,0.000177,0.008266,0.001905,-0.50791,-0.01009,-1.5992,-257.915058,1.599185,72.007736
12.817,0.006774,0.002103,-0.009016,-5.6e-05,0.000177,0.008289,0.001905,-0.50791,-0.01009,-1.5992,-257.915058,1.599185,72.007736
12.8365,0.006317,0.002392,-0.008477,-2.7e-05,0.000178,0.008305,0.00217,-0.507869,-0.008705,-1.54354,-257.916948,1.541562,72.005974
12.8565,0.006831,0.002179,-0.010108,-4.2e-05,0.000165,0.008063,0.002095,-0.507751,-0.008573,-1.54354,-257.916948,1.541562,72.005974
12.8762,0.006538,0.002365,-0.008219,-5.4e-05,0.000155,0.007885,0.001675,-0.507789,-0.00985,-1.565593,-257.919002,1.565214,72.00406
12.8963,0.006819,0.002368,-0.007983,-9.8e-05,0.000137,0.007702,0.002286,-0.507633,-0.008353,-1.565593,-257.919002,1.565214,72.00406
12.9162,0.006738,0.002239,-0.009317,-0.000132,0.000122,0.007568,0.002286,-0.507633,-0.008353,-1.565593,-257.919002,1.565214,72.00406
12.9362,0.006104,0.002575,-0.007724,-0.000159,0.000109,0.00747,0.001984,-0.507732,-0.008987,-1.55991,-257.920987,1.559187,72.002198
12.9563,0.006081,0.002444,-0.009504,-0.000129,7.7e-05,0.00742,0.002057,-0.5076,-0.008436,-1.55991,-257.920987,1.559187,72.002198
12.9762,0.005981,0.00226,-0.007624,-0.000106,5.2e-05,0.007383,0.001229,-0.507529,-0.00927,-1.536776,-257.922824,1.535112,72.000447
12.9962,0.006027,0.00196,-0.008193,-8.7e-05,5.5e-05,0.00723,0.002014,-0.507707,-0.007761,-1.536776,-257.922824,1.535112,72.000447
13.0165,0.006035,0.0019,-0.007999,-7.3e-05,5.7e-05,0.007117,0.002014,-0.507707,-0.007761,-1.536776,-257.922824,1.535112,72.000447
13.0361,0.006006,0.002222,-0.007572,-6.2e-05,5.9e-05,0.007034,0.001951,-0.508081,-0.007691,-1.547527,-257.924641,1.546986,71.998671
13.0563,0.005931,0.00239,-0.008358,-7.1e-05,0.000114,0.006943,0.002029,-0.507951,-0.007607,-1.547527,-257.924641,1.546986,71.998671
13.0764,0.005632,0.002459,-0.007104,-7.8e-05,0.000158,0.006877,0.001666,-0.50759,-0.008132,-1.55418,-257.9264,1.553739,71.996957
13.0962,0.005921,0.002118,-0.00743,-5.1e-05,0.000106,0.006735,0.001978,-0.507533,-0.007184,-1.55418,-257.9264,1.553739,71.996957
13.1168,0.005903,0.002271,-0.006887,-3e-05,6.6e-05,0.006632,0.001978,-0.507533,-0.007184,-1.55418,-257.9264,1.553739,71.996957
13.1363,0.005124,0.002004,-0.006497,-1.4e-05,3.4e-05,0.006556,0.002388,-0.50771,-0.006599,-1.552859,-257.928144,1.551461,71.99534
13.1564,0.005591,0.002452,-0.007953,-6e-05,8.2e-05,0.006349,0.002154,-0.507821,-0.006525,-1.552859,-257.928144,1.551461,71.99534
13.1763,0.005602,0.002049,-0.005528,-9.5e-05,0.000119,0.0062,0.001534,-0.507531,-0.007745,-1.567271,-257.929747,1.56721,71.993763
13.1966,0.004929,0.00228,-0.005879,-0.000233,0.000204,0.005868,0.00267,-0.507906,-0.005717,-1.567271,-257.929747,1.56721,71.993763
13.2165,0.004989,0.002116,-0.007339,-0.000341,0.000269,0.005635,0.00267,-0.507906,-0.005717,-1.567271,-257.929747,1.56721,71.993763
13.2363,0.00492,0.002107,-0.005907,-0.000426,0.00032,0.005472,0.001242,-0.507865,-0.007083,-1.546415,-257.931289,1.544835,71.992316
13.2567,0.004875,0.002093,-0.006168,-0.000222,0.000277,0.005608,0.001514,-0.507872,-0.006572,-1.546415,-257.931289,1.544835,71.992316
13.2765,0.004821,0.002536,-0.006299,-6.7e-05,0.000245,0.005704,0.001722,-0.507891,-0.006044,-1.471318,-257.932334,1.469738,71.99145
13.2966,0.005187,0.002043,-0.006638,4e-05,0.000153,0.005688,0.001618,-0.507493,-0.00627,-1.471318,-257.932334,1.469738,71.99145
13.3168,0.005422,0.00179,-0.005532,0.000123,8.1e-05,0.005674,0.001618,-0.507493,-0.00627,-1.471318,-257.932334,1.469738,71.99145
13.3363,0.005372,0.002689,-0.006999,0.000187,2.4e-05,0.005662,0.002597,-0.508193,-0.005339,-1.546225,-257.933545,1.544644,71.990398
13.3569,0.005054,0.002254,-0.007375,7e-05,8.8e-05,0.00556,0.002271,-0.507826,-0.005997,-1.546225,-257.933545,1.544644,71.990398
13.3766,0.004462,0.00225,-0.005474,-2.1e-05,0.000137,0.005488,0.001297,-0.507731,-0.007228,-1.621318,-257.934686,1.619737,71.989273
13.3964,0.005094,0.002194,-0.00533,5.7e-05,0.00012,0.005367,0.001637,-0.507741,-0.005623,-1.621318,-257.934686,1.619737,71.989273
13.4166,0.004573,0.002241,-0.006106,0.000117,0.000107,0.005278,0.001637,-0.507741,-0.005623,-1.621318,-257.934686,1.619737,71.989273
13.4368,0.004661,0.002511,-0.005432,0.000162,9.7e-05,0.005211,0.001458,-0.507744,-0.005898,-1.564724,-257.935945,1.564208,71.988113
13.4568,0.004718,0.002474,-0.004493,0.000204,6.8e-05,0.005174,0.001633,-0.507637,-0.005686,-1.564724,-257.935945,1.564208,71.988113
13.4767,0.004389,0.002358,-0.004772,0.000236,4.6e-05,0.005145,0.002431,-0.507518,-0.004344,-1.620228,-257.937129,1.623335,71.986998
13.497,0.004647,0.002444,-0.005265,0.000171,5.3e-05,0.004841,0.001997,-0.507626,-0.004728,-1.620228,-257.937129,1.623335,71.986998
13.5166,0.004289,0.002258,-0.003744,0.00012,5.9e-05,0.004625,0.001997,-0.507626,-0.004728,-1.620228,-257.937129,1.623335,71.986998
13.5362,0.004465,0.002513,-0.005578,8.1e-05,6.3e-05,0.004472,0.002389,-0.507737,-0.003533,-1.64471,-257.938387,1.646881,71.985776
13.5566,0.004703,0.001992,-0.006867,3.1e-05,7.3e-05,0.004247,0.00207,-0.507629,-0.004362,-1.64471,-257.938387,1.646881,71.985776
13.5767,0.004438,0.002333,-0.004248,-7e-06,8e-05,0.004088,0.001204,-0.507994,-0.006734,-1.599691,-257.939432,1.60105,71.984778
13.5966,0.004466,0.00236,-0.003646,-6.4e-05,0.000105,0.003998,0.002183,-0.50769,-0.004448,-1.599691,-257.939432,1.60105,71.984778
13.6163,0.004221,0.001981,-0.005627,-0.000109,0.000124,0.003934,0.002183,-0.50769,-0.004448,-1.599691,-257.939432,1.60105,71.984778
13.6367,0.004098,0.002505,-0.003375,-0.000145,0.000138,0.00389,0.001351,-0.508008,-0.005462,-1.568078,-257.940427,1.567897,71.983845
13.6568,0.00395,0.002638,-0.0043,-8.1e-05,0.000145,0.003922,0.001767,-0.507798,-0.004596,-1.568078,-257.940427,1.567897,71.983845
13.6767,0.00419,0.002408,-0.002682,-3.3e-05,0.000152,0.003942,0.001753,-0.507354,-0.004188,-1.513352,-257.94133,1.50627,71.983041
13.6968,0.003934,0.002589,-0.002876,-0.000198,0.000179,0.003278,0.002725,-0.507569,-0.002813,-1.513352,-257.94133,1.50627,71.983041
13.7162,0.004494,0.001898,-0.00372,-0.000326,0.0002,0.002815,0.002725,-0.507569,-0.002813,-1.513352,-257.94133,1.50627,71.983041
13.7365,0.004154,0.002213,-0.00446,-0.000425,0.000216,0.002493,0.002596,-0.508093,-0.003566,-1.557718,-257.942288,1.55596,71.982197
13.7568,0.004032,0.001813,-0.003587,-0.000432,0.000275,0.002692,0.002297,-0.507962,-0.003922,-1.557718,-257.942288,1.55596,71.982197
13.7762,0.004493,0.002493,-0.004209,-0.000439,0.000322,0.002836,0.002202,-0.508183,-0.003579,-1.482437,-257.942359,1.480679,71.982142
13.797,0.003835,0.00268,-0.004454,-0.000429,0.000278,0.003002,0.002333,-0.507564,-0.004151,-1.482437,-257.942359,1.480679,71.982142
13.8173,0.004009,0.002451,-0.004954,-0.000423,0.000244,0.003122,0.002333,-0.507564,-0.004151,-1.482437,-257.942359,1.480679,71.982142
13.8366,0.004033,0.002541,-0.003749,-0.000419,0.000218,0.003209,0.001478,-0.507538,-0.004907,-1.407715,-257.942681,1.405957,71.981916
13.8564,0.004202,0.002406,-0.002261,-0.000273,0.000145,0.003383,0.001727,-0.507505,-0.004452,-1.407715,-257.942681,1.405957,71.981916
13.8765,0.003569,0.002671,-0.004511,-0.00016,9e-05,0.003504,0.003036,-0.507586,-0.002168,-1.380655,-257.943489,1.33472,71.981263
13.8966,0.003812,0.001997,-0.004135,9e-06,2e-06,0.003552,0.001428,-0.507347,-0.004294,-1.380655,-257.943489,1.33472,71.981263
13.9167,0.003729,0.002227,-0.005597,0.00014,-6.6e-05,0.003581,0.001428,-0.507347,-0.004294,-1.380655,-257.943489,1.33472,71.981263
13.9369,0.003678,0.002134,-0.004428,0.000241,-0.000119,0.003599,0.000868,-0.507763,-0.005519,-1.455649,-257.943967,1.409713,71.980823
13.9566,0.004076,0.002401,-0.002649,0.0004,-9.2e-05,0.003841,0.00109,-0.507802,-0.00507,-1.455649,-257.943967,1.409713,71.980823
13.9764,0.004024,0.00248,-0.00334,0.000521,-7.1e-05,0.004011,0.002724,-0.507598,-0.002633,-1.530651,-257.944081,1.484716,71.980696
13.9966,0.004125,0.002385,-0.003834,0.000315,-2.5e-05,0.003504,0.002356,-0.507524,-0.003278,-1.530651,-257.944081,1.484716,71.980696
14.0165,0.003824,0.002229,-0.002791,0.000155,9e-06,0.003149,0.002356,-0.507524,-0.003278,-1.530651,-257.944081,1.484716,71.980696
14.0367,0.004151,0.002464,-0.00323,3.1e-05,3.5e-05,0.002902,0.002401,-0.50777,-0.002791,-1.455527,-257.944081,1.409591,71.980696
14.0572,0.003495,0.002274,-0.003303,-9.4e-05,8.9e-05,0.002613,0.002444,-0.507671,-0.002974,-1.455527,-257.944081,1.409591,71.980696
14.0765,0.003731,0.002689,-0.003291,-0.000191,0.00013,0.002412,0.001809,-0.507723,-0.003261,-1.530817,-257.944405,1.484881,71.980385
14.0965,0.003999,0.002092,-0.004719,-0.000159,7.2e-05,0.002399,0.002031,-0.507347,-0.003286,-1.530817,-257.944405,1.484881,71.980385
14.1165,0.003884,0.002815,-0.001076,-0.000135,2.6e-05,0.002389,0.002031,-0.507347,-0.003286,-1.530817,-257.944405,1.484881,71.980385
14.1368,0.004183,0.002401,-0.002255,-0.000117,-1e-05,0.002381,0.003328,-0.50718,-0.000989,-1.456233,-257.944961,1.429128,71.979917
14.1565,0.003583,0.002375,-0.003924,-0.000333,4.5e-05,0.001556,0.003208,-0.507348,-0.00149,-1.456233,-257.944961,1.429128,71.979917
14.1761,0.003642,0.002487,-0.002263,-0.000504,8.7e-05,0.000978,0.001578,-0.507621,-0.003854,-1.490134,-257.9455,1.49124,71.979371
14.1966,0.003932,0.002472,-0.004615,-0.000503,9.4e-05,0.001016,0.002422,-0.50752,-0.002376,-1.490134,-257.9455,1.49124,71.979371
14.2168,0.003846,0.002519,-0.002737,-0.000503,9.9e-05,0.001046,0.002422,-0.50752,-0.002376,-1.490134,-257.9455,1.49124,71.979371
14.2369,0.003889,0.002373,-0.003076,-0.000505,0.000104,0.001069,0.00245,-0.507479,-0.002737,-1.414648,-257.9455,1.415755,71.979371
14.257,0.003765,0.002318,-0.004011,-0.000498,0.000106,0.001284,0.002398,-0.507538,-0.002875,-1.414648,-257.9455,1.415755,71.979371
14.2761,0.003516,0.002451,-0.003476,-0.000494,0.000109,0.001439,0.00172,-0.507678,-0.004011,-1.340137,-257.9455,1.341244,71.979371
14.2966,0.003611,0.002124,-0.002839,-0.00034,7e-05,0.001799,0.001742,-0.507558,-0.003524,-1.340137,-257.9455,1.341244,71.979371
14.3168,0.003617,0.002187,-0.003542,-0.000221,4.1e-05,0.002054,0.001742,-0.507558,-0.003524,-1.340137,-257.9455,1.341244,71.979371
14.3366,0.004,0.002216,-0.003124,-0.000131,2e-05,0.002235,0.00181,-0.507809,-0.003538,-1.265047,-257.945527,1.266154,71.979349
14.357,0.003779,0.002194,-0.003874,-0.00015,7.4e-05,0.002298,0.002062,-0.507797,-0.003362,-1.265047,-257.945527,1.266154,71.979349
14.3767,0.004075,0.002715,-0.003989,-0.000165,0.000116,0.002343,0.001801,-0.507802,-0.003857,-1.340371,-257.945661,1.341478,71.979218
14.3965,0.003644,0.002654,-0.004704,-0.000136,5.3e-05,0.00256,0.00202,-0.507326,-0.003977,-1.340371,-257.945661,1.341478,71.979218
14.4166,0.003841,0.002349,-0.003516,0.0,0.0,0.0,0.00202,-0.507326,-0.003977,-1.340371,-257.945661,1.341478,71.979218
14.4369,0.003972,0.002288,-0.003191,0.0,0.0,0.0,0.002042,-0.507645,-0.003453,-1.415055,-257.946068,1.416162,71.978872
14.4566,0.003704,0.002336,-0.00321,0.0,0.0,0.0,0.002164,-0.507671,-0.003339,-1.415055,-257.946068,1.416162,71.978872
14.4765,0.004207,0.002521,-0.004014,0.0,0.0,0.0,0.002067,-0.507662,-0.00321,-1.415055,-257.946068,1.416162,71.978872
14.4966,0.003044,0.002612,-0.002585,0.0,0.0,0.0,0.002152,-0.507491,-0.003944,-1.415055,-257.946068,1.416162,71.978872
14.5163,0.003571,0.002445,-0.00192,0.0,0.0,0.0,0.002152,-0.507491,-0.003944,-1.415055,-257.946068,1.416162,71.978872
14.5362,0.003665,0.0028,-0.002145,0.0,0.0,0.0,0.002592,-0.507554,-0.00192,-1.415055,-257.946068,1.416162,71.978872
14.5568,0.003852,0.002241,-0.001792,0.0,0.0,0.0,0.002583,-0.50741,-0.002011,-1.415055,-257.946068,1.416162,71.978872
14.5767,0.003322,0.002263,-0.003359,0.0,0.0,0.0,0.002938,-0.507758,-0.001792,-1.415055,-257.946068,1.416162,71.978872
14.5966,0.004145,0.002049,-0.003166,0.0,0.0,0.0,0.001728,-0.507737,-0.003219,-1.415055,-257.946068,1.416162,71.978872
14.6168,0.003486,0.002295,-0.002221,0.0,0.0,0.0,0.001728,-0.507737,-0.003219,-1.415055,-257.946068,1.416162,71.978872
14.6368,0.003574,0.002321,-0.003336,0.0,0.0,0.0,0.002353,-0.507703,-0.002221,-1.415055,-257.946068,1.416162,71.978872
14.6567,0.003521,0.002461,-0.003689,0.0,0.0,0.0,0.002158,-0.507692,-0.002674,-1.415055,-257.946068,1.416162,71.978872
14.6766,0.003679,0.002069,-0.004512,0.0,0.0,0.0,0.00164,-0.507535,-0.003689,-1.415055,-257.946068,1.416162,71.978872
14.6966,0.003782,0.002396,-0.002618,0.0,0.0,0.0,0.001401,-0.507891,-0.004439,-1.415055,-257.946068,1.416162,71.978872
14.7167,0.003718,0.002279,-0.004065,0.0,0.0,0.0,0.001401,-0.507891,-0.004439,-1.415055,-257.946068,1.416162,71.978872
14.7366,0.003644,0.002333,-0.004459,0.0,0.0,0.0,0.001645,-0.507717,-0.004065,-1.415055,-257.946068,1.416162,71.978872
14.7567,0.003693,0.002437,-0.002999,0.0,0.0,0.0,0.001533,-0.507695,-0.004225,-1.415055,-257.946068,1.416162,71.978872
14.7764,0.003644,0.00243,-0.003622,0.0,0.0,0.0,0.002164,-0.507561,-0.002999,-1.415055,-257.946068,1.416162,71.978872
14.7966,0.003823,0.002265,-0.001997,0.0,0.0,0.0,0.001829,-0.507566,-0.003566,-1.415055,-257.946068,1.416162,71.978872
14.8166,0.003789,0.002463,-0.003162,0.0,0.0,0.0,0.001829,-0.507566,-0.003566,-1.415055,-257.946068,1.416162,71.978872
14.8366,0.00394,0.002174,-0.003728,0.0,0.0,0.0,0.002177,-0.507535,-0.003162,-1.415055,-257.946068,1.416162,71.978872
14.8567,0.00379,0.00213,-0.003191,0.0,0.0,0.0,0.002121,-0.507652,-0.003393,-1.415055,-257.946068,1.416162,71.978872
14.8762,0.003964,0.002404,-0.002059,0.0,0.0,0.0,0.002163,-0.507868,-0.003191,-1.415055,-257.946068,1.416162,71.978872
14.8964,0.003444,0.002348,-0.004236,0.0,0.0,0.0,0.002847,-0.507619,-0.002161,-1.415055,-257.946068,1.416162,71.978872
14.9166,0.003501,0.00238,-0.005722,0.0,0.0,0.0,0.002847,-0.507619,-0.002161,-1.415055,-257.946068,1.416162,71.978872
14.9364,0.003659,0.002254,-0.003674,0.0,0.0,0.0,0.000583,-0.507611,-0.005722,-1.415055,-257.946068,1.416162,71.978872
14.9564,0.003618,0.002143,-0.003171,0.0,0.0,0.0,0.001076,-0.507665,-0.004882,-1.415055,-257.946068,1.416162,71.978872
14.9765,0.003911,0.002602,-0.002393,0.0,0.0,0.0,0.002,-0.507854,-0.003171,-1.415055,-257.946068,1.416162,71.978872
14.9965,0.003505,0.002595,-0.002335,0.0,0.0,0.0,0.00263,-0.507436,-0.002461,-1.415055,-257.946068,1.416162,71.978872
15.0165,0.00347,0.002013,-0.003371,0.0,0.0,0.0,0.00263,-0.507436,-0.002461,-1.415055,-257.946068,1.416162,71.978872
15.0366,0.003278,0.002395,-0.002567,0.0,0.0,0.0,0.001751,-0.507985,-0.003371,-1.415055,-257.946068,1.416162,71.978872
15.0563,0.003796,0.00259,-0.003414,0.0,0.0,0.0,0.00184,-0.507829,-0.003044,-1.415055,-257.946068,1.416162,71.978872
15.0763,0.003582,0.002404,-0.000846,0.0,0.0,0.0,0.002055,-0.507407,-0.003414,-1.415055,-257.946068,1.416162,71.978872
15.0965,0.00336,0.002204,-0.00248,0.0,0.0,0.0,0.003051,-0.507579,-0.001079,-1.415055,-257.946068,1.416162,71.978872
15.1164,0.003826,0.002247,-0.002778,0.0,0.0,0.0,0.003051,-0.507579,-0.001079,-1.415055,-257.946068,1.416162,71.978872
