mach0312/omni-docking-bench/src/icros_test_setup/results/MPPI_sample/timeseries/trial_061.csv
t,x,y,yaw,vx,vy,wz,bl_x,bl_y,bl_yaw,front_steering_joint,front_wheel_joint,rear_steering_joint,rear_wheel_joint
0.0,-0.040324,-0.031102,0.068689,0.0,0.0,0.0,-0.005241,-0.539746,0.06843,0.146792,-258.03245,-0.486814,71.4413
0.0005,-0.039926,-0.030933,0.067801,0.0,0.0,0.0,-0.005168,-0.539714,0.068556,0.146792,-258.03245,-0.486814,71.4413
0.0008,-0.040138,-0.030853,0.069495,9.9e-05,-1.4e-05,0.0,-0.005168,-0.539714,0.068556,0.146792,-258.03245,-0.486814,71.4413
0.0012,-0.040056,-0.031195,0.069045,9.9e-05,-1.4e-05,0.0,-0.004504,-0.539691,0.069681,0.146792,-258.03245,-0.486814,71.4413
0.0015,-0.039938,-0.030683,0.068119,9.9e-05,-1.4e-05,0.0,-0.004504,-0.539691,0.069681,0.146792,-258.03245,-0.486814,71.4413
0.0018,-0.040069,-0.030904,0.068516,9.9e-05,-1.4e-05,0.0,-0.004504,-0.539691,0.069681,0.071676,-258.032448,-0.411699,71.441301
0.0021,-0.040178,-0.030807,0.068679,9.9e-05,-1.4e-05,0.0,-0.005377,-0.53975,0.06824,-0.003309,-258.032442,-0.336714,71.441307
0.0024,-0.040135,-0.03084,0.068569,9.9e-05,-1.4e-05,0.0,-0.005337,-0.53971,0.068412,-0.003309,-258.032442,-0.336714,71.441307
0.0026,-0.040141,-0.030864,0.068083,9.9e-05,-1.4e-05,0.0,-0.005337,-0.53971,0.068412,-0.003309,-258.032442,-0.336714,71.441307
0.0029,-0.040194,-0.031067,0.068689,9.9e-05,-1.4e-05,0.0,-0.005329,-0.539695,0.068518,-0.003309,-258.032442,-0.336714,71.441307
0.0163,-0.040055,-0.030986,0.069367,0.0,0.0,0.0,-0.005189,-0.539865,0.068689,-0.078736,-258.032427,-0.261286,71.441323
0.037,-0.040143,-0.03058,0.068441,0.0,0.0,0.0,-0.004748,-0.539769,0.069308,-0.078736,-258.032427,-0.261286,71.441323
0.057,-0.040419,-0.030983,0.067899,0.0,0.0,0.0,-0.004748,-0.539769,0.069308,-0.078736,-258.032427,-0.261286,71.441323
0.0767,-0.040199,-0.030688,0.068105,0.0,0.0,0.0,-0.005817,-0.539807,0.067899,-0.078736,-258.032427,-0.261286,71.441323
0.0967,-0.040018,-0.030975,0.068206,0.0,0.0,0.0,-0.005685,-0.539685,0.067983,-0.078736,-258.032427,-0.261286,71.441323
0.1168,-0.040071,-0.030987,0.067486,0.003779,0.006171,-0.008006,-0.00526,-0.539789,0.068206,-0.078736,-258.032427,-0.261286,71.441323
0.137,-0.040136,-0.03095,0.06807,0.004163,0.006752,-0.008661,-0.005641,-0.539823,0.067551,-0.078736,-258.032427,-0.261286,71.441323
0.1571,-0.040198,-0.030829,0.067923,0.004498,0.007252,-0.009203,-0.005641,-0.539823,0.067551,-0.078736,-258.032427,-0.261286,71.441323
0.1767,-0.040113,-0.031,0.068182,0.004788,0.007682,-0.00965,-0.005584,-0.539653,0.067923,-0.003741,-258.032427,-0.186291,71.441323
0.1968,-0.040156,-0.031023,0.068988,0.005037,0.008051,-0.010019,-0.005496,-0.539718,0.068028,-0.003741,-258.032427,-0.186291,71.441323
0.2165,-0.040301,-0.03092,0.066778,0.005253,0.008369,-0.010324,-0.005,-0.53981,0.068988,0.071258,-258.032427,-0.111293,71.441323
0.2366,-0.040383,-0.030664,0.066315,0.00546,0.008636,-0.010574,-0.006157,-0.539786,0.066975,0.071258,-258.032427,-0.111293,71.441323
0.257,-0.040175,-0.030926,0.06853,0.005639,0.008866,-0.010781,-0.006157,-0.539786,0.066975,0.071258,-258.032427,-0.111293,71.441323
0.2769,-0.040027,-0.030879,0.06915,0.005794,0.009064,-0.010953,-0.005252,-0.539728,0.06853,0.146258,-258.032426,-0.036293,71.441323
0.2967,-0.040159,-0.030928,0.06801,0.005895,0.009245,-0.011096,-0.005064,-0.539701,0.068781,0.146258,-258.032426,-0.036293,71.441323
0.3163,-0.040209,-0.030784,0.067147,0.005982,0.0094,-0.011214,-0.0055,-0.539749,0.06801,0.221254,-258.032426,0.038704,71.441323
0.3367,-0.040263,-0.030818,0.068896,0.006086,0.009523,-0.011313,-0.005946,-0.539645,0.067224,0.221254,-258.032426,0.038704,71.441323
0.3565,-0.039831,-0.030515,0.069092,0.006176,0.00963,-0.011394,-0.005946,-0.539645,0.067224,0.221254,-258.032426,0.038704,71.441323
0.3765,-0.040116,-0.031223,0.06767,0.006254,0.009722,-0.011462,-0.004622,-0.539298,0.069092,0.296292,-258.032426,0.113742,71.441324
0.3971,-0.039935,-0.030984,0.066723,0.006293,0.00981,-0.011518,-0.005044,-0.539615,0.068497,0.296292,-258.032426,0.113742,71.441324
0.4166,-0.040513,-0.031064,0.067501,0.006328,0.009885,-0.011565,-0.005932,-0.539849,0.066723,0.371567,-258.032426,0.189016,71.441324
0.4371,-0.040265,-0.031101,0.067796,0.006391,0.009939,-0.011604,-0.006098,-0.539898,0.067436,0.371567,-258.032426,0.189016,71.441324
0.4568,-0.040254,-0.030799,0.066732,0.006445,0.009986,-0.011636,-0.006098,-0.539898,0.067436,0.371567,-258.032426,0.189016,71.441324
0.4766,-0.04002,-0.030935,0.067931,0.006492,0.010026,-0.011663,-0.006246,-0.539664,0.066732,0.41939,-258.032426,0.263866,71.441325
0.4968,-0.040056,-0.030633,0.067763,0.006526,0.010063,-0.011685,-0.0059,-0.539703,0.067223,0.41939,-258.032426,0.263866,71.441325
0.5167,-0.040153,-0.031145,0.066862,0.006556,0.010095,-0.011704,-0.005523,-0.539462,0.067763,0.420538,-258.032425,0.338836,71.441326
0.5366,-0.040067,-0.030782,0.066245,0.006585,0.010122,-0.01172,-0.006028,-0.539955,0.066944,0.420538,-258.032425,0.338836,71.441326
0.5567,-0.040206,-0.031035,0.067261,0.006609,0.010145,-0.011733,-0.006028,-0.539955,0.066944,0.420538,-258.032425,0.338836,71.441326
0.5766,-0.040111,-0.030726,0.067729,0.00663,0.010165,-0.011744,-0.005929,-0.539882,0.067261,0.422406,-258.032425,0.413711,71.441326
0.5969,-0.040157,-0.031018,0.068075,0.006643,0.010185,-0.011753,-0.005793,-0.53975,0.067452,0.422406,-258.032425,0.413711,71.441326
0.6165,-0.040226,-0.031117,0.068796,0.006654,0.010201,-0.011761,-0.005466,-0.539837,0.068075,0.423992,-258.032425,0.488703,71.441327
0.6369,-0.040265,-0.030767,0.06799,0.006644,0.010222,-0.011768,-0.005193,-0.539904,0.068735,0.423992,-258.032425,0.488703,71.441327
0.6568,-0.039986,-0.030962,0.068542,0.006636,0.010239,-0.011773,-0.005193,-0.539904,0.068735,0.423992,-258.032425,0.488703,71.441327
0.6765,-0.040143,-0.031435,0.067749,0.006629,0.010254,-0.011778,-0.005057,-0.539764,0.068542,0.425876,-258.032424,0.563827,71.441329
0.697,-0.040223,-0.031017,0.068284,0.006627,0.010265,-0.011782,-0.005289,-0.539971,0.068215,0.425876,-258.032424,0.563827,71.441329
0.7169,-0.040215,-0.031081,0.067289,0.006625,0.010275,-0.011785,-0.005425,-0.539828,0.068284,0.432483,-258.032422,0.638844,71.441335
0.7369,-0.040117,-0.030904,0.06736,0.006642,0.010278,-0.011788,-0.005881,-0.539919,0.067374,0.432483,-258.032422,0.638844,71.441335
0.7568,-0.04008,-0.031032,0.067397,0.006657,0.01028,-0.01179,-0.005881,-0.539919,0.067374,0.432483,-258.032422,0.638844,71.441335
0.777,-0.040365,-0.030775,0.068625,0.00667,0.010282,-0.011792,-0.005732,-0.539873,0.067396,0.434875,-258.032409,0.713838,71.441367
0.7967,-0.040417,-0.030931,0.06784,0.006672,0.010287,-0.011794,-0.005593,-0.53975,0.067901,0.434875,-258.032409,0.713838,71.441367
0.8164,-0.040391,-0.03061,0.065764,0.006675,0.010291,-0.011795,-0.00584,-0.539753,0.067836,0.43265,-258.032358,0.788843,71.441498
0.8368,-0.039802,-0.031302,0.067014,0.006715,0.010281,-0.011796,-0.006782,-0.539529,0.065949,0.43265,-258.032358,0.788843,71.441498
0.8573,-0.040081,-0.030889,0.068962,0.006749,0.010274,-0.011796,-0.006782,-0.539529,0.065949,0.43265,-258.032358,0.788843,71.441498
0.877,-0.040169,-0.030578,0.069716,0.006778,0.010268,-0.011797,-0.004917,-0.539655,0.068941,0.433213,-258.032192,0.863919,71.441921
0.8971,-0.040079,-0.03114,0.067294,0.006739,0.010284,-0.011798,-0.004801,-0.539521,0.06926,0.433213,-258.032192,0.863919,71.441921
0.9168,-0.040092,-0.030894,0.068787,0.006707,0.010297,-0.011799,-0.005744,-0.539938,0.067245,0.424405,-258.031726,0.93897,71.443095
0.9367,-0.039998,-0.030894,0.067662,0.006689,0.010305,-0.0118,-0.005097,-0.539708,0.068651,0.424405,-258.031726,0.93897,71.443095
0.9566,-0.0401,-0.030554,0.068337,0.006673,0.010311,-0.0118,-0.005097,-0.539708,0.068651,0.424405,-258.031726,0.93897,71.443095
0.9763,-0.039814,-0.030673,0.068941,0.006661,0.010316,-0.011801,-0.005173,-0.53923,0.068197,0.431762,-258.030786,1.013802,71.445479
0.9969,-0.039508,-0.031024,0.068165,0.006647,0.010322,-0.011801,-0.004959,-0.53931,0.068487,0.431762,-258.030786,1.013802,71.445479
1.0168,-0.039376,-0.030437,0.067535,0.006636,0.010326,-0.011802,-0.00465,-0.539659,0.067973,0.436719,-258.029179,1.088851,71.449578
1.0366,-0.039102,-0.030293,0.0696,0.006625,0.01033,-0.011865,-0.004926,-0.539299,0.067564,0.436719,-258.029179,1.088851,71.449578
1.0569,-0.039622,-0.030561,0.068069,0.006616,0.010333,-0.011916,-0.004926,-0.539299,0.067564,0.436719,-258.029179,1.088851,71.449578
1.0766,-0.03887,-0.02986,0.065069,0.006608,0.010336,-0.011958,-0.004724,-0.539029,0.067687,0.439216,-258.02686,1.163948,71.455509
1.0965,-0.039081,-0.029997,0.066195,0.006606,0.010336,-0.012037,-0.005099,-0.538887,0.06658,0.439216,-258.02686,1.163948,71.455509
1.1165,-0.038214,-0.029128,0.067419,0.006605,0.010337,-0.012101,-0.005165,-0.538551,0.065829,0.430204,-258.024057,1.212359,71.462772
1.1366,-0.038315,-0.029368,0.06538,0.006568,0.010348,-0.012205,-0.003969,-0.538006,0.067252,0.430204,-258.024057,1.212359,71.462772
1.1567,-0.038224,-0.029433,0.06661,0.006538,0.010357,-0.01229,-0.003969,-0.538006,0.067252,0.430204,-258.024057,1.212359,71.462772
1.1766,-0.037688,-0.028914,0.06435,0.006512,0.010364,-0.012359,-0.004032,-0.537853,0.066104,0.41959,-258.021174,1.214123,71.47031
1.1968,-0.037587,-0.028334,0.066612,0.006503,0.010366,-0.012465,-0.004352,-0.537804,0.065337,0.41959,-258.021174,1.214123,71.47031
1.2166,-0.037018,-0.028287,0.065989,0.006496,0.010368,-0.012553,-0.003456,-0.536861,0.066219,0.408077,-258.018346,1.222094,71.477909
1.2365,-0.03723,-0.02828,0.064451,0.006456,0.010379,-0.01267,-0.003384,-0.537131,0.06599,0.408077,-258.018346,1.222094,71.477909
1.2565,-0.03706,-0.028768,0.064794,0.006423,0.010387,-0.012767,-0.003384,-0.537131,0.06599,0.408077,-258.018346,1.222094,71.477909
1.2772,-0.036702,-0.02735,0.064967,0.006395,0.010394,-0.012847,-0.003796,-0.537248,0.06427,0.394201,-258.01554,1.225091,71.485553
1.2966,-0.036399,-0.027876,0.064955,0.006383,0.010397,-0.012955,-0.003685,-0.536798,0.064495,0.394201,-258.01554,1.225091,71.485553
1.3168,-0.036074,-0.027341,0.063067,0.006373,0.0104,-0.013044,-0.003114,-0.536458,0.064548,0.37917,-258.0128,1.233576,71.493248
1.3369,-0.035745,-0.026946,0.063966,0.006371,0.0104,-0.013159,-0.003849,-0.536321,0.06318,0.37917,-258.0128,1.233576,71.493248
1.3566,-0.035896,-0.02733,0.06429,0.006369,0.0104,-0.013254,-0.003849,-0.536321,0.06318,0.37917,-258.0128,1.233576,71.493248
1.3764,-0.035196,-0.026248,0.061758,0.006368,0.010401,-0.013332,-0.002894,-0.535827,0.063746,0.364664,-258.010081,1.236818,71.500995
1.3965,-0.034967,-0.02679,0.06368,0.006343,0.010407,-0.013434,-0.003203,-0.53555,0.062873,0.364664,-258.010081,1.236818,71.500995
1.4167,-0.034634,-0.025925,0.063108,0.006322,0.010412,-0.013518,-0.002332,-0.535416,0.063259,0.340756,-258.007399,1.24002,71.508781
1.4369,-0.034668,-0.025799,0.063542,0.006274,0.010423,-0.013619,-0.00245,-0.534936,0.0631,0.340756,-258.007399,1.24002,71.508781
1.4571,-0.034795,-0.026215,0.061958,0.006235,0.010431,-0.013702,-0.00245,-0.534936,0.0631,0.340756,-258.007399,1.24002,71.508781
1.4766,-0.034079,-0.02533,0.062972,0.006202,0.010438,-0.013772,-0.002981,-0.534788,0.061395,0.328682,-258.004735,1.244271,71.51664
1.4968,-0.03446,-0.025495,0.062506,0.006178,0.010442,-0.013856,-0.002544,-0.534543,0.061977,0.328682,-258.004735,1.244271,71.51664
1.5168,-0.033666,-0.024977,0.060234,0.006158,0.010446,-0.013925,-0.002427,-0.534157,0.06207,0.315847,-258.002139,1.252921,71.524536
1.5365,-0.033488,-0.024772,0.060695,0.006158,0.010445,-0.014003,-0.002908,-0.534044,0.060376,0.315847,-258.002139,1.252921,71.524536
1.5568,-0.033389,-0.024765,0.059662,0.006157,0.010444,-0.014068,-0.002908,-0.534044,0.060376,0.315847,-258.002139,1.252921,71.524536
1.5763,-0.032698,-0.024641,0.061579,0.006157,0.010443,-0.014121,-0.002749,-0.533407,0.05908,0.305311,-257.999561,1.256595,71.53249
1.5964,-0.032768,-0.024105,0.058327,0.006123,0.01045,-0.014179,-0.002137,-0.533464,0.060031,0.305311,-257.999561,1.256595,71.53249
1.6164,-0.032384,-0.023676,0.060211,0.006095,0.010455,-0.014226,-0.002863,-0.532896,0.05788,0.287215,-257.997004,1.258473,71.540473
1.6366,-0.032261,-0.023638,0.059463,0.006056,0.010461,-0.014273,-0.001787,-0.532747,0.059988,0.287215,-257.997004,1.258473,71.540473
1.6567,-0.032096,-0.023536,0.060536,0.006025,0.010465,-0.014311,-0.001787,-0.532747,0.059988,0.287215,-257.997004,1.258473,71.540473
1.6763,-0.031612,-0.023013,0.059312,0.005998,0.010469,-0.014343,-0.001014,-0.53215,0.059942,0.282014,-257.994467,1.262566,71.548505
1.6964,-0.031662,-0.023168,0.059477,0.005945,0.010476,-0.014375,-0.001139,-0.532084,0.059614,0.282014,-257.994467,1.262566,71.548505
1.7165,-0.030976,-0.022503,0.059807,0.0059,0.010482,-0.014402,-0.001177,-0.531923,0.059022,0.277563,-257.991977,1.268424,71.556545
1.7366,-0.030734,-0.022349,0.059127,0.005834,0.010489,-0.01443,-0.000545,-0.531604,0.059713,0.277563,-257.991977,1.268424,71.556545
1.7567,-0.030647,-0.022576,0.059431,0.005778,0.010495,-0.014453,-0.000545,-0.531604,0.059713,0.277563,-257.991977,1.268424,71.556545
1.7771,-0.030454,-0.022064,0.057386,0.005732,0.010498,-0.014471,-0.000134,-0.531223,0.058828,0.278259,-257.989524,1.27377,71.564604
1.7968,-0.030553,-0.022075,0.058009,0.005691,0.010501,-0.014492,-0.000543,-0.531172,0.058174,0.278259,-257.989524,1.27377,71.564604
1.8166,-0.029506,-0.021771,0.056582,0.005658,0.010502,-0.014509,-0.000823,-0.530873,0.057549,0.281887,-257.987141,1.282619,71.572659
1.8372,-0.029238,-0.021605,0.056443,0.005635,0.010502,-0.014527,-0.00067,-0.53093,0.056647,0.281887,-257.987141,1.282619,71.572659
1.8572,-0.029912,-0.021558,0.056483,0.005616,0.010501,-0.014542,-0.00067,-0.53093,0.056647,0.281887,-257.987141,1.282619,71.572659
1.8769,-0.028946,-0.02118,0.056055,0.0056,0.010501,-0.014555,-0.000909,-0.530292,0.055874,0.282273,-257.984782,1.286523,71.580738
1.8971,-0.029026,-0.020566,0.056228,0.005585,0.010499,-0.014569,-0.000665,-0.530276,0.055878,0.282273,-257.984782,1.286523,71.580738
1.9169,-0.028625,-0.02028,0.056844,0.005573,0.010498,-0.014581,-0.000206,-0.529417,0.055766,0.28019,-257.982451,1.289656,71.58881
1.9369,-0.028514,-0.020878,0.055672,0.005506,0.010502,-0.014595,0.00031,-0.529436,0.056729,0.28019,-257.982451,1.289656,71.58881
1.9568,-0.028746,-0.020767,0.057182,0.005452,0.010504,-0.014607,0.00031,-0.529436,0.056729,0.28019,-257.982451,1.289656,71.58881
1.9771,-0.027748,-0.019806,0.054367,0.005406,0.010504,-0.014616,0.000609,-0.529481,0.056571,0.278394,-257.980134,1.291125,71.59688
1.9971,-0.027595,-0.020156,0.055492,0.005363,0.010505,-0.014626,0.000373,-0.529256,0.055609,0.278394,-257.980134,1.291125,71.59688
2.0166,-0.027023,-0.01976,0.053086,0.005328,0.010504,-0.014635,0.000844,-0.529029,0.055029,0.283955,-257.977884,1.299431,71.60494
2.0368,-0.027396,-0.019182,0.054019,0.00531,0.010502,-0.014644,0.000114,-0.529024,0.053228,0.283955,-257.977884,1.299431,71.60494
2.0569,-0.027082,-0.019104,0.053824,0.005295,0.010499,-0.014652,0.000114,-0.529024,0.053228,0.283955,-257.977884,1.299431,71.60494
2.0766,-0.02659,-0.018551,0.054156,0.005283,0.010497,-0.014658,0.000554,-0.527914,0.053212,0.285813,-257.975664,1.303343,71.612998
2.0967,-0.026781,-0.018799,0.052903,0.005227,0.010497,-0.014666,0.000765,-0.527817,0.053527,0.285813,-257.975664,1.303343,71.612998
2.1164,-0.026269,-0.018363,0.053368,0.005181,0.010495,-0.014672,0.000337,-0.527743,0.052437,0.28451,-257.973461,1.305587,71.621067
2.137,-0.026477,-0.01801,0.051982,0.005133,0.010493,-0.014679,0.000892,-0.527629,0.053266,0.28451,-257.973461,1.305587,71.621067
2.1567,-0.026051,-0.018411,0.052294,0.005094,0.010491,-0.014684,0.000892,-0.527629,0.053266,0.28451,-257.973461,1.305587,71.621067
2.1769,-0.025184,-0.017597,0.051897,0.005061,0.010489,-0.014688,0.0008,-0.527264,0.051681,0.287927,-257.971302,1.310549,71.62911
2.1971,-0.025404,-0.017642,0.052798,0.005021,0.010485,-0.014693,0.001015,-0.527068,0.051699,0.287927,-257.971302,1.310549,71.62911
2.2163,-0.024956,-0.017307,0.052752,0.004987,0.010482,-0.014697,0.001654,-0.52659,0.052331,0.291311,-257.969191,1.316332,71.637144
2.237,-0.024712,-0.017121,0.050752,0.004895,0.010477,-0.014702,0.001917,-0.52658,0.052692,0.291311,-257.969191,1.316332,71.637144
2.257,-0.024486,-0.017152,0.051587,0.004819,0.010472,-0.014705,0.001917,-0.52658,0.052692,0.291311,-257.969191,1.316332,71.637144
2.277,-0.023756,-0.016335,0.049668,0.004757,0.010466,-0.014708,0.001998,-0.526024,0.050972,0.293233,-257.96711,1.319912,71.645168
2.2966,-0.023974,-0.016574,0.05058,0.004698,0.010459,-0.014711,0.001843,-0.525844,0.050373,0.293233,-257.96711,1.319912,71.645168
2.3167,-0.023454,-0.016261,0.048387,0.00465,0.010451,-0.014714,0.001945,-0.525582,0.050114,0.302198,-257.96512,1.33092,71.653164
2.337,-0.023525,-0.015739,0.050152,0.004646,0.010445,-0.014717,0.001284,-0.52564,0.048513,0.302198,-257.96512,1.33092,71.653164
2.3569,-0.023744,-0.015749,0.050415,0.004643,0.01044,-0.014719,0.001284,-0.52564,0.048513,0.302198,-257.96512,1.33092,71.653164
2.3765,-0.022678,-0.01577,0.050352,0.00464,0.010435,-0.01472,0.002129,-0.524655,0.0498,0.305175,-257.963174,1.335983,71.66114
2.3965,-0.023136,-0.015744,0.049107,0.004537,0.010423,-0.014722,0.002499,-0.524794,0.049954,0.305175,-257.963174,1.335983,71.66114
2.4168,-0.022777,-0.014467,0.048963,0.004453,0.010412,-0.014724,0.00203,-0.52479,0.048638,0.301932,-257.961231,1.336351,71.669127
2.4372,-0.022398,-0.015225,0.047704,0.004391,0.0104,-0.014726,0.002177,-0.523923,0.048909,0.301932,-257.961231,1.336351,71.669127
2.4571,-0.022232,-0.014836,0.051116,0.004339,0.010389,-0.014728,0.002177,-0.523923,0.048909,0.301932,-257.961231,1.336351,71.669127
2.4768,-0.02224,-0.014446,0.048476,0.004297,0.010379,-0.014729,0.00399,-0.523725,0.0505,0.308599,-257.959365,1.34523,71.677075
2.4967,-0.021732,-0.014412,0.046993,0.004165,0.010355,-0.01473,0.003397,-0.523723,0.049613,0.308599,-257.959365,1.34523,71.677075
2.5163,-0.021352,-0.013497,0.046718,0.004056,0.010333,-0.01473,0.002347,-0.523511,0.046522,0.311378,-257.957559,1.352529,71.685017
2.5365,-0.021386,-0.013601,0.045421,0.004019,0.010319,-0.014731,0.002461,-0.522974,0.046678,0.311378,-257.957559,1.352529,71.685017
2.5565,-0.021343,-0.014093,0.046736,0.003988,0.010308,-0.014732,0.002461,-0.522974,0.046678,0.311378,-257.957559,1.352529,71.685017
2.5765,-0.021128,-0.013039,0.045882,0.003963,0.010297,-0.014732,0.002633,-0.523097,0.046122,0.318272,-257.955858,1.363981,71.692884
2.5968,-0.020748,-0.013479,0.046375,0.003934,0.010286,-0.014732,0.0025,-0.522805,0.045954,0.318272,-257.955858,1.363981,71.692884
2.6167,-0.020269,-0.012596,0.044888,0.003911,0.010276,-0.014732,0.003006,-0.522598,0.045906,0.316857,-257.954188,1.368233,71.70077
2.6366,-0.02001,-0.012512,0.044968,0.003859,0.01026,-0.014733,0.002656,-0.52211,0.044953,0.316857,-257.954188,1.368233,71.70077
2.6565,-0.020012,-0.012657,0.04483,0.003816,0.010245,-0.014733,0.002656,-0.52211,0.044953,0.316857,-257.954188,1.368233,71.70077
2.6764,-0.019796,-0.012122,0.044207,0.003781,0.010232,-0.014733,0.002987,-0.521708,0.044214,0.316023,-257.952545,1.370616,71.708626
2.6964,-0.020137,-0.012279,0.045632,0.003715,0.010211,-0.014733,0.002904,-0.521624,0.04414,0.316023,-257.952545,1.370616,71.708626
2.7167,-0.018894,-0.011752,0.044898,0.003661,0.010192,-0.014732,0.003233,-0.521417,0.045162,0.315444,-257.950952,1.376636,71.716473
2.7365,-0.019033,-0.01174,0.042504,0.003515,0.010147,-0.014732,0.003936,-0.521237,0.044898,0.315444,-257.950952,1.376636,71.716473
2.7565,-0.019394,-0.01127,0.043097,0.003395,0.010107,-0.014732,0.003936,-0.521237,0.044898,0.315444,-257.950952,1.376636,71.716473
2.777,-0.018474,-0.011338,0.042031,0.003297,0.010073,-0.014731,0.002714,-0.520365,0.042482,0.315364,-257.949414,1.382284,71.724274
2.7967,-0.018685,-0.011248,0.043488,0.003288,0.010058,-0.014732,0.002827,-0.520526,0.042228,0.315364,-257.949414,1.382284,71.724274
2.817,-0.018159,-0.010654,0.042405,0.003281,0.010044,-0.014732,0.003578,-0.520442,0.043021,0.315525,-257.948032,1.399596,71.731986
2.8367,-0.017581,-0.010653,0.042422,0.003199,0.010009,-0.014733,0.003476,-0.520201,0.042436,0.315525,-257.948032,1.399596,71.731986
2.8568,-0.018561,-0.010963,0.042053,0.003133,0.00998,-0.014733,0.003476,-0.520201,0.042436,0.315525,-257.948032,1.399596,71.731986
2.8771,-0.017834,-0.009983,0.041438,0.003078,0.009954,-0.014733,0.002999,-0.520087,0.041438,0.308677,-257.946658,1.400162,71.739699
2.8967,-0.01739,-0.010287,0.042702,0.003051,0.009933,-0.014733,0.003133,-0.519817,0.041367,0.308677,-257.946658,1.400162,71.739699
2.9166,-0.017029,-0.009793,0.041844,0.003028,0.009915,-0.014734,0.004466,-0.519501,0.042234,0.301173,-257.945371,1.409769,71.747362
2.9369,-0.017266,-0.009887,0.040377,0.002876,0.009845,-0.014734,0.004324,-0.519344,0.041855,0.301173,-257.945371,1.409769,71.747362
2.9568,-0.016775,-0.009755,0.039513,0.002752,0.009786,-0.014734,0.004324,-0.519344,0.041855,0.301173,-257.945371,1.409769,71.747362
2.9768,-0.016863,-0.009146,0.040697,0.002651,0.009737,-0.014734,0.003482,-0.518937,0.038897,0.293773,-257.944107,1.412054,71.755016
2.9973,-0.016666,-0.008876,0.039834,0.0026,0.0097,-0.014736,0.003659,-0.518802,0.039556,0.293773,-257.944107,1.412054,71.755016
3.0167,-0.015924,-0.008592,0.03974,0.002558,0.009669,-0.014737,0.003716,-0.518159,0.039367,0.271485,-257.943021,1.430227,71.762486
3.0368,-0.015938,-0.0082,0.039184,0.002431,0.009588,-0.014739,0.004285,-0.518171,0.039683,0.271485,-257.943021,1.430227,71.762486
3.0569,-0.016154,-0.008379,0.03784,0.002327,0.009521,-0.014741,0.004285,-0.518171,0.039683,0.271485,-257.943021,1.430227,71.762486
3.0769,-0.015271,-0.00756,0.039891,0.002243,0.009465,-0.014743,0.003231,-0.517608,0.037226,0.255288,-257.941968,1.434606,71.769989
3.0968,-0.015717,-0.008033,0.03952,0.002154,0.009384,-0.014748,0.003988,-0.517377,0.038237,0.255288,-257.941968,1.434606,71.769989
3.1165,-0.015324,-0.007647,0.037116,0.002082,0.009317,-0.014752,0.00449,-0.517345,0.039072,0.202541,-257.941095,1.449965,71.777079
3.1366,-0.015315,-0.007213,0.039152,0.002051,0.009269,-0.014756,0.003683,-0.517285,0.037269,0.202541,-257.941095,1.449965,71.777079
3.1568,-0.015149,-0.007677,0.038395,0.002026,0.00923,-0.014759,0.003683,-0.517285,0.037269,0.202541,-257.941095,1.449965,71.777079
3.1764,-0.014674,-0.00724,0.038429,0.002006,0.009197,-0.014761,0.004496,-0.516928,0.037807,0.146275,-257.940296,1.457676,71.784085
3.1964,-0.014706,-0.006873,0.036971,0.00187,0.009091,-0.014761,0.004676,-0.516859,0.037992,0.146275,-257.940296,1.457676,71.784085
3.2163,-0.014614,-0.006717,0.035299,0.001759,0.009003,-0.014761,0.004195,-0.516244,0.036524,0.0905,-257.93953,1.461117,71.791058
3.2364,-0.014301,-0.006961,0.036764,0.001761,0.008949,-0.014768,0.00346,-0.516371,0.035385,0.0905,-257.93953,1.461117,71.791058
3.2567,-0.014485,-0.006868,0.037585,0.001763,0.008904,-0.014774,0.00346,-0.516371,0.035385,0.0905,-257.93953,1.461117,71.791058
3.2769,-0.013812,-0.006068,0.036101,0.001765,0.008867,-0.014779,0.004729,-0.516183,0.037057,0.015457,-257.938926,1.473458,71.797266
3.297,-0.014187,-0.006418,0.036111,0.001619,0.008738,-0.014773,0.00468,-0.515962,0.036603,0.015457,-257.938926,1.473458,71.797266
3.3163,-0.013599,-0.00563,0.034826,0.001502,0.008632,-0.014768,0.004264,-0.515847,0.035718,-0.059597,-257.938333,1.472475,71.803289
3.3364,-0.01345,-0.00583,0.034849,0.001412,0.008505,-0.014766,0.00417,-0.515355,0.034884,-0.059597,-257.938333,1.472475,71.803289
3.3566,-0.013231,-0.006175,0.035328,0.001341,0.008402,-0.014764,0.00417,-0.515355,0.034884,-0.059597,-257.938333,1.472475,71.803289
3.3769,-0.0132,-0.005579,0.034406,0.001285,0.008318,-0.014763,0.00481,-0.515656,0.034993,-0.134639,-257.937993,1.485922,71.807167
3.3969,-0.013613,-0.005707,0.034699,0.001209,0.008244,-0.014739,0.004622,-0.515477,0.034714,-0.134639,-257.937993,1.485922,71.807167
3.4167,-0.013364,-0.005387,0.035531,0.001148,0.008184,-0.01472,0.004083,-0.515369,0.034646,-0.209534,-257.937926,1.496807,71.807965
3.4368,-0.012835,-0.005073,0.035954,0.001071,0.008093,-0.014671,0.004693,-0.515091,0.035449,-0.209534,-257.937926,1.496807,71.807965
3.4566,-0.013586,-0.005276,0.03378,0.001009,0.008019,-0.01463,0.004693,-0.515091,0.035449,-0.209534,-257.937926,1.496807,71.807965
3.4771,-0.013118,-0.004891,0.034501,0.000959,0.007959,-0.014596,0.003641,-0.514961,0.033738,-0.284499,-257.937887,1.504076,71.808442
3.4972,-0.01311,-0.005059,0.034351,0.000972,0.007914,-0.014542,0.003982,-0.514805,0.034045,-0.284499,-257.937887,1.504076,71.808442
3.5166,-0.013041,-0.005982,0.03466,0.000982,0.007877,-0.014496,0.004406,-0.514754,0.034343,-0.359546,-257.937879,1.514013,71.808548
3.5372,-0.012843,-0.005267,0.034313,0.000986,0.007913,-0.014404,0.004615,-0.515606,0.034636,-0.359546,-257.937879,1.514013,71.808548
3.5569,-0.012889,-0.005631,0.033419,0.000988,0.007943,-0.014328,0.004615,-0.515606,0.034636,-0.359546,-257.937879,1.514013,71.808548
3.5768,-0.012786,-0.005748,0.034716,0.000989,0.007966,-0.014266,0.004153,-0.515328,0.033388,-0.434988,-257.93785,1.512184,71.808895
3.5968,-0.013082,-0.005307,0.036224,0.000991,0.007974,-0.014171,0.004461,-0.515371,0.03392,-0.434988,-257.93785,1.512184,71.808895
3.6165,-0.012789,-0.005258,0.033211,0.000993,0.00798,-0.014093,0.005399,-0.514864,0.036032,-0.50952,-257.937609,1.51156,71.811732
3.6369,-0.013083,-0.005616,0.034941,0.000992,0.007953,-0.014007,0.004255,-0.514962,0.033446,-0.50952,-257.937609,1.51156,71.811732
3.6567,-0.013091,-0.005016,0.033916,0.000992,0.007932,-0.013935,0.004255,-0.514962,0.033446,-0.50952,-257.937609,1.51156,71.811732
3.6767,-0.012571,-0.004912,0.033658,0.000992,0.007914,-0.013877,0.004231,-0.514456,0.033439,-0.563759,-257.937161,1.511026,71.817061
3.6968,-0.012608,-0.004506,0.033025,0.000948,0.007835,-0.013822,0.00438,-0.514493,0.033473,-0.563759,-257.937161,1.511026,71.817061
3.7166,-0.012449,-0.00461,0.03335,0.000913,0.007771,-0.013777,0.004254,-0.513984,0.032599,-0.514827,-257.936722,1.510363,71.823391
3.7366,-0.012052,-0.004667,0.033573,0.000857,0.007684,-0.013737,0.004532,-0.514285,0.033264,-0.514827,-257.936722,1.510363,71.823391
3.7569,-0.012091,-0.0044,0.034665,0.000813,0.007614,-0.013704,0.004532,-0.514285,0.033264,-0.514827,-257.936722,1.510363,71.823391
3.7769,-0.012357,-0.004395,0.033019,0.000777,0.007557,-0.013677,0.005608,-0.513814,0.034173,-0.589943,-257.936341,1.514458,71.828924
3.797,-0.012107,-0.004241,0.033257,0.000678,0.007431,-0.013648,0.005154,-0.513905,0.033649,-0.589943,-257.936341,1.514458,71.828924
3.8165,-0.012122,-0.004092,0.030871,0.000597,0.007329,-0.013624,0.004861,-0.513838,0.033041,-0.664833,-257.936118,1.521972,71.832113
3.8369,-0.011725,-0.003747,0.031678,0.000663,0.007299,-0.013604,0.003727,-0.513842,0.031047,-0.664833,-257.936118,1.521972,71.832113
3.8568,-0.01206,-0.00395,0.032776,0.000715,0.007275,-0.013588,0.003727,-0.513842,0.031047,-0.664833,-257.936118,1.521972,71.832113
3.8768,-0.011878,-0.003944,0.033886,0.000757,0.007255,-0.013574,0.004655,-0.51364,0.032712,-0.739956,-257.936065,1.532665,71.832827
3.8969,-0.011357,-0.003994,0.032765,0.000662,0.00716,-0.013521,0.004958,-0.513641,0.033181,-0.739956,-257.936065,1.532665,71.832827
3.9167,-0.01152,-0.003796,0.032381,0.000585,0.007084,-0.013478,0.005359,-0.5136,0.032543,-0.814838,-257.935796,1.522166,71.836038
3.9366,-0.011742,-0.004095,0.030366,0.00051,0.007,-0.013463,0.005025,-0.513529,0.032384,-0.814838,-257.935796,1.522166,71.836038
3.9568,-0.01141,-0.003837,0.033432,0.000448,0.006932,-0.013451,0.005025,-0.513529,0.032384,-0.814838,-257.935796,1.522166,71.836038
3.9768,-0.011523,-0.003938,0.031909,0.000398,0.006877,-0.01344,0.005643,-0.513471,0.033283,-0.889816,-257.935658,1.532647,71.837677
3.9973,-0.011422,-0.003682,0.030908,0.000341,0.006825,-0.013438,0.00528,-0.513546,0.032708,-0.889816,-257.935658,1.532647,71.837677
4.0166,-0.011666,-0.003703,0.029996,0.000294,0.006782,-0.013437,0.00434,-0.51342,0.030874,-0.964831,-257.935613,1.54441,71.83817
4.0367,-0.011352,-0.003794,0.030445,0.0004,0.006797,-0.013463,0.003696,-0.513467,0.030076,-0.964831,-257.935613,1.54441,71.83817
4.0571,-0.011051,-0.003597,0.031835,0.000483,0.006809,-0.013484,0.003696,-0.513467,0.030076,-0.964831,-257.935613,1.54441,71.83817
4.077,-0.011412,-0.00366,0.030643,0.000549,0.006818,-0.0135,0.005183,-0.513319,0.031796,-1.039822,-257.935572,1.551158,71.838589
4.097,-0.011501,-0.003371,0.031901,0.000486,0.006763,-0.013498,0.00479,-0.513358,0.031324,-1.039822,-257.935572,1.551158,71.838589
4.1166,-0.011369,-0.003487,0.030085,0.000435,0.00672,-0.013496,0.004774,-0.513008,0.031687,-1.114854,-257.935176,1.534361,71.841514
4.1371,-0.011145,-0.003555,0.0309,0.000454,0.006691,-0.01351,0.00404,-0.513231,0.030211,-1.114854,-257.935176,1.534361,71.841514
4.1569,-0.011185,-0.003527,0.030927,0.00047,0.006668,-0.013521,0.00404,-0.513231,0.030211,-1.114854,-257.935176,1.534361,71.841514
4.1768,-0.01096,-0.003423,0.030913,0.000483,0.00665,-0.01353,0.004593,-0.513113,0.030589,-1.189996,-257.934796,1.541762,71.845103
4.1965,-0.011274,-0.003352,0.031209,0.000428,0.006595,-0.013515,0.004678,-0.51312,0.03068,-1.189996,-257.934796,1.541762,71.845103
4.2166,-0.01094,-0.002857,0.03199,0.000384,0.006552,-0.013503,0.004649,-0.512917,0.030831,-1.264853,-257.934204,1.538423,71.850353
4.2368,-0.010455,-0.003159,0.029386,0.000286,0.006415,-0.013484,0.005311,-0.512614,0.031873,-1.264853,-257.934204,1.538423,71.850353
4.257,-0.010821,-0.002792,0.030617,0.000205,0.006306,-0.013468,0.005311,-0.512614,0.031873,-1.264853,-257.934204,1.538423,71.850353
4.2768,-0.010296,-0.002723,0.031454,0.000138,0.006218,-0.013455,0.004799,-0.512308,0.030112,-1.339968,-257.933583,1.544849,71.855641
4.297,-0.010017,-0.002741,0.029289,8.1e-05,0.006102,-0.013448,0.005184,-0.512346,0.030601,-1.339968,-257.933583,1.544849,71.855641
4.3168,-0.010137,-0.002784,0.029696,3.3e-05,0.00601,-0.013443,0.004919,-0.512392,0.029008,-1.414829,-257.933058,1.561206,71.859418
4.3371,-0.00997,-0.002582,0.029243,1.2e-05,0.005973,-0.013446,0.004998,-0.512538,0.02962,-1.414829,-257.933058,1.561206,71.859418
4.3573,-0.010092,-0.002267,0.030484,-6e-06,0.005942,-0.013448,0.004998,-0.512538,0.02962,-1.414829,-257.933058,1.561206,71.859418
4.3767,-0.009911,-0.002114,0.027644,-2e-05,0.005918,-0.013451,0.00545,-0.511847,0.030074,-1.489849,-257.932419,1.568444,71.863551
4.3969,-0.010157,-0.002145,0.029096,-4.9e-05,0.005768,-0.01349,0.004939,-0.511855,0.029046,-1.489849,-257.932419,1.568444,71.863551
4.4167,-0.00989,-0.002094,0.027529,-7.4e-05,0.005648,-0.013521,0.004675,-0.511763,0.028719,-1.564822,-257.931611,1.572236,71.868519
4.4368,-0.009697,-0.00224,0.028319,-3.3e-05,0.005563,-0.013575,0.004195,-0.51188,0.027617,-1.564822,-257.931611,1.572236,71.868519
4.4569,-0.009509,-0.001705,0.029016,-2e-06,0.005497,-0.013618,0.004195,-0.51188,0.027617,-1.564822,-257.931611,1.572236,71.868519
4.4771,-0.009273,-0.001558,0.028624,2.3e-05,0.005445,-0.013653,0.005278,-0.511258,0.028459,-1.599023,-257.930584,1.576094,71.87399
4.4969,-0.009156,-0.001492,0.028774,-4.4e-05,0.005277,-0.013702,0.005295,-0.511268,0.028463,-1.599023,-257.930584,1.576094,71.87399
4.5167,-0.008721,-0.001231,0.027628,-0.0001,0.005142,-0.013742,0.005513,-0.511111,0.028349,-1.562859,-257.929454,1.56913,71.879371
4.5368,-0.009087,-0.001088,0.027358,-0.000152,0.004987,-0.013812,0.00538,-0.511035,0.027672,-1.562859,-257.929454,1.56913,71.879371
4.5566,-0.009215,-0.001449,0.024878,-0.000196,0.004863,-0.01387,0.00538,-0.511035,0.027672,-1.562859,-257.929454,1.56913,71.879371
4.5768,-0.008747,-0.001202,0.025819,-0.000233,0.004763,-0.013917,0.003463,-0.511082,0.024317,-1.601526,-257.928186,1.578178,71.884651
4.5966,-0.009029,-0.000839,0.027524,-0.000143,0.004655,-0.014013,0.003849,-0.511038,0.02486,-1.601526,-257.928186,1.578178,71.884651
4.6167,-0.008419,-0.00078,0.025234,-7.3e-05,0.004573,-0.014092,0.004995,-0.510497,0.027088,-1.633166,-257.926713,1.588393,71.889866
4.6367,-0.008288,-0.000926,0.025684,-7.6e-05,0.004422,-0.014168,0.004497,-0.510599,0.025376,-1.633166,-257.926713,1.588393,71.889866
4.6567,-0.008508,-0.001036,0.026411,-8.1e-05,0.004303,-0.01423,0.004497,-0.510599,0.025376,-1.633166,-257.926713,1.588393,71.889866
4.6767,-0.008131,-0.000648,0.026577,-8.6e-05,0.004209,-0.014282,0.004952,-0.510673,0.02584,-1.588999,-257.925154,1.576368,71.894962
4.6968,-0.007884,-0.000279,0.024909,-0.000135,0.004144,-0.014329,0.005142,-0.510568,0.026075,-1.588999,-257.925154,1.576368,71.894962
4.7163,-0.007316,-0.000339,0.021682,-0.000175,0.00409,-0.014369,0.004812,-0.509987,0.024454,-1.589915,-257.923344,1.57747,71.900147
4.7367,-0.007504,-0.000644,0.02503,-9.1e-05,0.003922,-0.014427,0.00383,-0.510193,0.021893,-1.589915,-257.923344,1.57747,71.900147
4.7572,-0.007611,-0.000552,0.024276,-2.7e-05,0.003792,-0.014474,0.00383,-0.510193,0.021893,-1.589915,-257.923344,1.57747,71.900147
4.7769,-0.007278,-0.000535,0.023667,2.2e-05,0.003691,-0.014515,0.004757,-0.510232,0.023679,-1.608191,-257.921484,1.58442,71.90525
4.7967,-0.007246,-0.000184,0.024568,-2.6e-05,0.003667,-0.014541,0.004769,-0.510277,0.023605,-1.608191,-257.921484,1.58442,71.90525
4.8165,-0.00718,9.3e-05,0.022875,-6.5e-05,0.003646,-0.014564,0.00528,-0.509916,0.02412,-1.566611,-257.919479,1.569072,71.910117
4.8368,-0.007003,7e-05,0.023387,-6.7e-05,0.003519,-0.014601,0.004557,-0.509781,0.022965,-1.566611,-257.919479,1.569072,71.910117
4.8566,-0.006942,0.000285,0.022949,-7.1e-05,0.003418,-0.014632,0.004557,-0.509781,0.022965,-1.566611,-257.919479,1.569072,71.910117
4.8769,-0.006651,6.1e-05,0.023103,-7.6e-05,0.003338,-0.014657,0.004755,-0.509428,0.022342,-1.583185,-257.91739,1.575982,71.915107
4.8973,-0.006615,0.000101,0.0215,-9.9e-05,0.003248,-0.014686,0.004907,-0.509563,0.022581,-1.583185,-257.91739,1.575982,71.915107
4.9164,-0.006083,5.5e-05,0.021011,-0.000119,0.003175,-0.01471,0.004344,-0.509675,0.021033,-1.584306,-257.91514,1.576968,71.920033
4.9369,-0.005781,0.000355,0.021499,-0.000124,0.003153,-0.014742,0.004608,-0.509814,0.02099,-1.584306,-257.91514,1.576968,71.920033
4.9568,-0.006262,0.000354,0.022318,-0.000129,0.003135,-0.014768,0.004608,-0.509814,0.02099,-1.584306,-257.91514,1.576968,71.920033
4.9769,-0.005909,0.000409,0.020654,-0.000133,0.003121,-0.01479,0.005111,-0.509386,0.021703,-1.591249,-257.912823,1.580569,71.924883
4.997,-0.005592,0.00044,0.02121,-0.000145,0.003046,-0.014808,0.004913,-0.50941,0.021207,-1.591249,-257.912823,1.580569,71.924883
5.0165,-0.005531,0.000719,0.02063,-0.000155,0.002986,-0.014822,0.005218,-0.509346,0.020737,-1.593353,-257.910454,1.581771,71.929751
5.0368,-0.005653,0.000289,0.019268,-0.000161,0.002902,-0.014835,0.005009,-0.509182,0.020616,-1.593353,-257.910454,1.581771,71.929751
5.0571,-0.005394,0.000667,0.019585,-0.000168,0.002835,-0.014846,0.005009,-0.509182,0.020616,-1.593353,-257.910454,1.581771,71.929751
5.077,-0.00516,0.000803,0.017826,-0.000175,0.002781,-0.014855,0.004585,-0.50911,0.018964,-1.596358,-257.90803,1.58368,71.934559
5.0966,-0.00493,0.001066,0.018973,-0.00012,0.002682,-0.014864,0.00432,-0.509098,0.018434,-1.596358,-257.90803,1.58368,71.934559
5.1167,-0.004639,0.000942,0.018533,-7.7e-05,0.002604,-0.014871,0.004739,-0.508754,0.018499,-1.598625,-257.905506,1.585571,71.939313
5.1369,-0.0047,0.000727,0.018078,-7.8e-05,0.002546,-0.014874,0.004806,-0.508948,0.018508,-1.598625,-257.905506,1.585571,71.939313
5.157,-0.004556,0.000797,0.018573,-8e-05,0.0025,-0.014877,0.004806,-0.508948,0.018508,-1.598625,-257.905506,1.585571,71.939313
5.1769,-0.004377,0.001483,0.017757,-8.2e-05,0.002463,-0.01488,0.004911,-0.509007,0.017955,-1.582749,-257.902934,1.577423,71.943952
5.1967,-0.004414,0.00109,0.016409,-7.5e-05,0.0024,-0.014876,0.004816,-0.508764,0.017804,-1.582749,-257.902934,1.577423,71.943952
5.2164,-0.003918,0.001157,0.015386,-7.1e-05,0.002351,-0.014873,0.00395,-0.508763,0.015935,-1.583208,-257.900278,1.577916,71.948583
5.237,-0.004106,0.001427,0.016278,1.7e-05,0.002244,-0.014828,0.00393,-0.508778,0.015409,-1.583208,-257.900278,1.577916,71.948583
5.2568,-0.003743,0.001349,0.017,8.6e-05,0.002161,-0.014792,0.00393,-0.508778,0.015409,-1.583208,-257.900278,1.577916,71.948583
5.2769,-0.003812,0.001692,0.015512,0.00014,0.002097,-0.014763,0.004921,-0.508479,0.016377,-1.581369,-257.897586,1.577022,71.953154
5.2969,-0.003692,0.001613,0.017042,0.000143,0.002024,-0.014749,0.004583,-0.508373,0.015951,-1.581369,-257.897586,1.577022,71.953154
5.3167,-0.003315,0.001467,0.01526,0.000143,0.001965,-0.014739,0.005003,-0.508248,0.016582,-1.550523,-257.894875,1.558173,71.957508
5.3366,-0.003063,0.001558,0.015779,0.000144,0.001924,-0.014714,0.004513,-0.508452,0.015349,-1.550523,-257.894875,1.558173,71.957508
5.3567,-0.003062,0.001571,0.015168,0.000143,0.001891,-0.014694,0.004513,-0.508452,0.015349,-1.550523,-257.894875,1.558173,71.957508
5.3769,-0.002869,0.001639,0.014319,0.000142,0.001864,-0.014678,0.004678,-0.508288,0.014552,-1.55049,-257.892061,1.557765,71.961892
5.3969,-0.002789,0.001588,0.014469,0.000147,0.001813,-0.014621,0.004579,-0.508287,0.014386,-1.55049,-257.892061,1.557765,71.961892
5.4168,-0.002338,0.001211,0.014027,0.000149,0.001772,-0.014575,0.004593,-0.508299,0.014003,-1.550775,-257.889221,1.557667,71.966223
5.4368,-0.002567,0.00189,0.014716,0.000109,0.001825,-0.014517,0.004796,-0.508698,0.014002,-1.550775,-257.889221,1.557667,71.966223
5.4568,-0.002158,0.001465,0.014031,7.7e-05,0.001866,-0.014471,0.004796,-0.508698,0.014002,-1.550775,-257.889221,1.557667,71.966223
5.4771,-0.002245,0.001941,0.012335,5.1e-05,0.001898,-0.014435,0.005003,-0.508411,0.013421,-1.549912,-257.886371,1.556846,71.970488
5.4966,-0.001881,0.001821,0.012798,7.4e-05,0.001823,-0.014331,0.004615,-0.508243,0.01291,-1.549912,-257.886371,1.556846,71.970488
5.5163,-0.001734,0.001585,0.011702,9.1e-05,0.001765,-0.014249,0.004647,-0.508077,0.01234,-1.563382,-257.883616,1.566009,71.974756
5.5369,-0.001294,0.00178,0.012121,0.000128,0.001705,-0.014079,0.004271,-0.50835,0.011736,-1.563382,-257.883616,1.566009,71.974756
5.5568,-0.001697,0.002005,0.013462,0.000156,0.001659,-0.01395,0.004271,-0.50835,0.011736,-1.563382,-257.883616,1.566009,71.974756
5.5773,-0.001482,0.001703,0.011715,0.000178,0.001623,-0.013851,0.005171,-0.507875,0.012867,-1.557724,-257.880842,1.562132,71.97894
5.5969,-0.00137,0.00167,0.011101,0.000162,0.00159,-0.013821,0.004899,-0.508022,0.012335,-1.557724,-257.880842,1.562132,71.97894
5.6172,-0.000953,0.001963,0.011444,0.000148,0.001562,-0.013798,0.004296,-0.508247,0.010661,-1.544707,-257.878118,1.553104,71.982957
5.637,-0.000491,0.001755,0.011323,0.00014,0.001529,-0.013682,0.004831,-0.508022,0.011352,-1.544707,-257.878118,1.553104,71.982957
5.657,-0.000774,0.002074,0.011621,0.000133,0.001503,-0.013593,0.004831,-0.508022,0.011352,-1.544707,-257.878118,1.553104,71.982957
5.6769,-0.00052,0.002216,0.011099,0.000126,0.001481,-0.013526,0.005158,-0.507826,0.011044,-1.549301,-257.875373,1.556024,71.986951
5.6967,-0.000551,0.00187,0.009494,0.000111,0.001448,-0.013426,0.005151,-0.507788,0.010999,-1.549301,-257.875373,1.556024,71.986951
5.7165,-0.000425,0.002414,0.009572,9.8e-05,0.001421,-0.01335,0.004295,-0.50806,0.009063,-1.552197,-257.872661,1.557852,71.990848
5.7365,-8.1e-05,0.002157,0.008614,0.000161,0.001311,-0.013063,0.004442,-0.507605,0.009505,-1.552197,-257.872661,1.557852,71.990848
5.7568,9.6e-05,0.00208,0.010805,0.000208,0.001224,-0.012853,0.004442,-0.507605,0.009505,-1.552197,-257.872661,1.557852,71.990848
5.7768,0.000394,0.002565,0.008569,0.000245,0.001156,-0.0127,0.00561,-0.507831,0.010246,-1.556286,-257.869951,1.560594,71.994702
5.7968,0.0003,0.002179,0.009067,0.000203,0.001171,-0.012573,0.005252,-0.507648,0.00947,-1.556286,-257.869951,1.560594,71.994702
5.8169,0.000641,0.002566,0.00783,0.000168,0.001181,-0.01248,0.004932,-0.507764,0.008672,-1.533728,-257.86736,1.543341,71.998199
5.8364,0.000121,0.002284,0.008948,0.000204,0.00111,-0.012077,0.004662,-0.507448,0.007885,-1.533728,-257.86736,1.543341,71.998199
5.8565,0.000818,0.002624,0.008845,0.00023,0.001055,-0.011788,0.004662,-0.507448,0.007885,-1.533728,-257.86736,1.543341,71.998199
5.8765,0.00103,0.002676,0.007461,0.000249,0.001013,-0.011581,0.005336,-0.507306,0.008323,-1.544751,-257.86479,1.551737,72.001711
5.8966,0.000756,0.0026,0.008106,0.000235,0.000996,-0.011432,0.005132,-0.507302,0.007912,-1.544751,-257.86479,1.551737,72.001711
5.9164,0.00084,0.002308,0.006365,0.000222,0.000983,-0.011325,0.004897,-0.507351,0.007738,-1.529675,-257.862379,1.539968,72.004927
5.9364,0.001286,0.002362,0.006698,0.000278,0.000946,-0.010873,0.00416,-0.50765,0.00647,-1.529675,-257.862379,1.539968,72.004927
5.9567,0.001148,0.002224,0.005423,0.00032,0.00092,-0.010555,0.00416,-0.50765,0.00647,-1.529675,-257.862379,1.539968,72.004927
5.9767,0.001285,0.002804,0.006184,0.000352,0.0009,-0.010332,0.003923,-0.507727,0.00495,-1.533337,-257.860001,1.542651,72.008092
5.9969,0.001457,0.002381,0.006912,0.000394,0.00086,-0.009835,0.004137,-0.507499,0.005404,-1.533337,-257.860001,1.542651,72.008092
6.0168,0.001518,0.002837,0.007073,0.000424,0.00083,-0.009487,0.004992,-0.507579,0.00659,-1.50581,-257.857873,1.522004,72.010925
6.0368,0.001653,0.002044,0.005902,0.000376,0.000843,-0.009692,0.005114,-0.507186,0.007015,-1.50581,-257.857873,1.522004,72.010925
6.0568,0.001779,0.002741,0.006315,0.000338,0.000853,-0.009843,0.005114,-0.507186,0.007015,-1.50581,-257.857873,1.522004,72.010925
6.0771,0.002078,0.002797,0.004743,0.000308,0.00086,-0.009954,0.005017,-0.507214,0.005921,-1.485661,-257.855903,1.506928,72.01355
6.0971,0.001875,0.002367,0.005237,0.000309,0.000841,-0.009561,0.004809,-0.507204,0.0054,-1.485661,-257.855903,1.506928,72.01355
6.1168,0.001934,0.002878,0.005895,0.000308,0.000827,-0.009283,0.004555,-0.507599,0.004925,-1.51191,-257.853847,1.526482,72.016282
6.1369,0.002096,0.002617,0.004235,0.000299,0.000817,-0.009206,0.004906,-0.507155,0.005792,-1.51191,-257.853847,1.526482,72.016282
6.1571,0.002208,0.002712,0.004773,0.000291,0.000808,-0.009151,0.004906,-0.507155,0.005792,-1.51191,-257.853847,1.526482,72.016282
6.1769,0.002529,0.00262,0.003664,0.000285,0.000802,-0.009112,0.004655,-0.507248,0.004384,-1.507337,-257.851904,1.523462,72.018885
6.1967,0.002293,0.002874,0.003685,0.000308,0.000786,-0.008474,0.004552,-0.507296,0.004046,-1.507337,-257.851904,1.523462,72.018885
6.2167,0.002616,0.002706,0.005835,0.000322,0.000775,-0.008026,0.004181,-0.507097,0.003395,-1.511114,-257.849996,1.526121,72.021434
6.2369,0.002592,0.002989,0.003075,0.000252,0.000842,-0.008236,0.005471,-0.507268,0.00561,-1.511114,-257.849996,1.526121,72.021434
6.2572,0.002651,0.00257,0.004383,0.000196,0.000894,-0.008388,0.005471,-0.507268,0.00561,-1.511114,-257.849996,1.526121,72.021434
6.2768,0.003035,0.002643,0.003029,0.000152,0.000935,-0.008496,0.0049,-0.507392,0.004049,-1.492837,-257.848355,1.514079,72.023688
6.2969,0.002919,0.002653,0.002513,0.000171,0.000926,-0.007855,0.004772,-0.507374,0.003598,-1.492837,-257.848355,1.514079,72.023688
6.3164,0.002758,0.002859,0.004035,0.000183,0.000922,-0.007404,0.004205,-0.507316,0.002253,-1.53517,-257.846728,1.546043,72.02603
6.3365,0.002987,0.002899,0.003299,0.000205,0.000889,-0.00719,0.004761,-0.507152,0.003859,-1.53517,-257.846728,1.546043,72.02603
6.3565,0.003367,0.002762,0.003351,0.000221,0.000864,-0.007039,0.004761,-0.507152,0.003859,-1.53517,-257.846728,1.546043,72.02603
6.3768,0.003411,0.002928,0.003588,0.000232,0.000845,-0.006934,0.005084,-0.507196,0.003043,-1.520087,-257.845293,1.537247,72.028198
6.397,0.003118,0.002383,0.00408,0.000213,0.000856,-0.0066,0.005149,-0.50714,0.00323,-1.520087,-257.845293,1.537247,72.028198
6.4169,0.003434,0.002787,0.002899,0.000195,0.000864,-0.006365,0.005206,-0.507586,0.00386,-1.502363,-257.843943,1.525086,72.030218
6.4366,0.003125,0.002861,0.002924,0.00019,0.000869,-0.006092,0.00494,-0.507244,0.002976,-1.502363,-257.843943,1.525086,72.030218
6.4568,0.003417,0.002507,0.001325,0.000185,0.000874,-0.0059,0.00494,-0.507244,0.002976,-1.502363,-257.843943,1.525086,72.030218
6.4766,0.003591,0.002846,0.001953,0.000179,0.000879,-0.005764,0.004101,-0.507457,0.001058,-1.506287,-257.842733,1.529725,72.032119
6.497,0.003879,0.002543,0.002388,0.000239,0.000831,-0.004927,0.004298,-0.50733,0.001389,-1.506287,-257.842733,1.529725,72.032119
6.5164,0.003867,0.003268,0.002234,0.000283,0.000797,-0.00433,0.005103,-0.507428,0.002205,-1.503198,-257.841674,1.530168,72.033879
6.5367,0.003574,0.003048,0.001253,0.000281,0.000764,-0.004304,0.005015,-0.506792,0.002222,-1.503198,-257.841674,1.530168,72.033879
6.5568,0.003959,0.003097,0.00398,0.000279,0.000738,-0.004287,0.005015,-0.506792,0.002222,-1.503198,-257.841674,1.530168,72.033879
6.577,0.004161,0.002978,0.002803,0.000275,0.000717,-0.004277,0.005999,-0.50687,0.003823,-1.42819,-257.841024,1.488677,72.03508
6.597,0.004059,0.003091,0.003262,0.0002,0.00078,-0.004759,0.005834,-0.506928,0.00339,-1.42819,-257.841024,1.488677,72.03508
6.6163,0.004027,0.00304,0.001462,0.00014,0.000829,-0.005103,0.005732,-0.506884,0.003127,-1.426635,-257.840259,1.488348,72.036414
6.6369,0.004345,0.002991,0.001608,0.000173,0.00079,-0.004556,0.004859,-0.506951,0.001604,-1.426635,-257.840259,1.488348,72.036414
6.657,0.004159,0.003109,0.002725,0.000197,0.00076,-0.004166,0.004859,-0.506951,0.001604,-1.426635,-257.840259,1.488348,72.036414
6.6768,0.003868,0.002986,0.001772,0.000213,0.000738,-0.003888,0.005554,-0.506859,0.00254,-1.501481,-257.839467,1.535271,72.037779
6.697,0.004261,0.003232,0.001134,0.000192,0.000751,-0.003978,0.005238,-0.506918,0.002208,-1.501481,-257.839467,1.535271,72.037779
6.7163,0.004292,0.003072,0.001552,0.000174,0.000761,-0.004041,0.004846,-0.506746,0.001019,-1.441237,-257.838852,1.502423,72.038942
6.7372,0.004492,0.003063,0.00153,0.000179,0.00075,-0.00375,0.005066,-0.506912,0.001505,-1.441237,-257.838852,1.502423,72.038942
6.757,0.004604,0.003057,0.001929,0.000182,0.000742,-0.00354,0.005066,-0.506912,0.001505,-1.441237,-257.838852,1.502423,72.038942
6.7765,0.004652,0.00334,0.000871,0.000182,0.000737,-0.003389,0.005595,-0.506911,0.001764,-1.46907,-257.838177,1.516864,72.040212
6.7967,0.003911,0.003054,0.000942,0.000166,0.000742,-0.003213,0.005389,-0.506803,0.001374,-1.46907,-257.838177,1.516864,72.040212
6.8168,0.00465,0.002856,0.000522,0.000151,0.000747,-0.003085,0.004397,-0.506923,0.000837,-1.434849,-257.837651,1.505901,72.041313
6.8367,0.004266,0.00283,-4.4e-05,0.000164,0.000748,-0.002569,0.004872,-0.507124,0.000544,-1.434849,-257.837651,1.505901,72.041313
6.8569,0.004457,0.003197,-0.001147,0.000172,0.000751,-0.002193,0.004872,-0.507124,0.000544,-1.434849,-257.837651,1.505901,72.041313
6.8767,0.004778,0.003269,-2.6e-05,0.000176,0.000754,-0.001922,0.003878,-0.506772,-0.001276,-1.438725,-257.837193,1.513456,72.042365
6.8964,0.004562,0.003271,-0.000572,0.000287,0.00065,-0.001096,0.004241,-0.506752,-0.00078,-1.438725,-257.837193,1.513456,72.042365
6.9163,0.005082,0.003022,0.00073,0.000371,0.000572,-0.000487,0.004272,-0.506722,-0.000591,-1.36379,-257.837136,1.479753,72.042608
6.9367,0.004756,0.002997,-0.000522,0.000301,0.000636,-0.000731,0.005352,-0.506956,0.000615,-1.36379,-257.837136,1.479753,72.042608
6.9567,0.004811,0.00316,0.000585,0.000246,0.000685,-0.000905,0.005352,-0.506956,0.000615,-1.36379,-257.837136,1.479753,72.042608
6.9764,0.004823,0.003036,0.001266,0.000202,0.000724,-0.001028,0.00511,-0.50684,0.000585,-1.28871,-257.837136,1.404673,72.042608
6.9968,0.00467,0.00359,0.00019,0.000175,0.000741,-0.001252,0.005256,-0.50689,0.000863,-1.28871,-257.837136,1.404673,72.042608
7.0169,0.004594,0.003379,0.000912,0.000154,0.000754,-0.001412,0.004767,-0.50641,0.00019,-1.213709,-257.837136,1.422883,72.042609
7.0371,0.004576,0.00301,0.001179,0.000176,0.00071,-0.001521,0.005033,-0.506601,0.000847,-1.213709,-257.837136,1.422883,72.042609
7.0567,0.004482,0.003296,-0.000291,0.000194,0.000676,-0.001597,0.005033,-0.506601,0.000847,-1.213709,-257.837136,1.422883,72.042609
7.0769,0.00443,0.003268,0.001897,0.000207,0.000648,-0.00165,0.004334,-0.506704,-0.000291,-1.138821,-257.837136,1.47583,72.04261
7.0971,0.004643,0.003333,0.000428,0.000235,0.000617,-0.001563,0.004769,-0.506715,0.000604,-1.138821,-257.837136,1.47583,72.04261
7.1164,0.004802,0.003499,0.0004,0.000257,0.000593,-0.001499,0.004867,-0.506649,0.000383,-1.063717,-257.836992,1.446176,72.043187
7.1367,0.004609,0.003179,8.9e-05,0.000272,0.000565,-0.001339,0.004994,-0.506513,0.000396,-1.063717,-257.836992,1.446176,72.043187
7.1565,0.004987,0.003134,0.00077,0.000282,0.000544,-0.001221,0.004994,-0.506513,0.000396,-1.063717,-257.836992,1.446176,72.043187
7.1766,0.004787,0.003247,0.00077,0.00029,0.000527,-0.001136,0.005386,-0.506851,0.000731,-0.988704,-257.836889,1.401916,72.043569
7.1967,0.004109,0.003082,0.001162,0.000245,0.000576,-0.001261,0.005302,-0.506809,0.000743,-0.988704,-257.836889,1.401916,72.043569
7.2168,0.004661,0.003052,0.000553,0.000211,0.000614,-0.00135,0.004702,-0.506917,0.001161,-0.913655,-257.836886,1.337804,72.043582
7.2367,0.004792,0.003337,0.000149,0.000205,0.000632,-0.001347,0.004922,-0.506945,0.000606,-0.913655,-257.836886,1.337804,72.043582
7.2569,0.004694,0.00339,0.001607,0.0002,0.000646,-0.001343,0.004922,-0.506945,0.000606,-0.913655,-257.836886,1.337804,72.043582
7.2767,0.004727,0.003415,0.001306,0.000197,0.000657,-0.00134,0.005519,-0.506592,0.001568,-0.83869,-257.836804,1.41277,72.043978
7.2967,0.004933,0.003744,0.000229,0.000171,0.000666,-0.001767,0.005469,-0.506587,0.001458,-0.83869,-257.836804,1.41277,72.043978
7.3165,0.005027,0.003566,0.000721,0.000152,0.000673,-0.002074,0.005055,-0.506242,0.0002,-0.763806,-257.836735,1.438291,72.044382
7.337,0.004934,0.003558,0.001223,0.000163,0.000645,-0.001897,0.005365,-0.506416,0.000675,-0.763806,-257.836735,1.438291,72.044382
7.3565,0.00475,0.002984,0.000504,0.000171,0.000623,-0.001768,0.005365,-0.506416,0.000675,-0.763806,-257.836735,1.438291,72.044382
7.3771,0.004608,0.003152,-0.000156,0.000177,0.000606,-0.001674,0.005007,-0.507015,0.000504,-0.838912,-257.836734,1.492476,72.044386
7.3971,0.005093,0.003166,0.000114,0.000192,0.000611,-0.001376,0.004811,-0.506947,0.000234,-0.838912,-257.836734,1.492476,72.044386
7.4171,0.004602,0.00302,0.001555,0.000203,0.000617,-0.001161,0.005152,-0.506831,0.000105,-0.913886,-257.836704,1.462536,72.044496
7.4366,0.004556,0.003126,0.000202,0.000156,0.000672,-0.001608,0.005371,-0.506965,0.00141,-0.913886,-257.836704,1.462536,72.044496
7.457,0.00472,0.003289,-0.001261,0.000121,0.000716,-0.001929,0.005371,-0.506965,0.00141,-0.913886,-257.836704,1.462536,72.044496
7.4772,0.004686,0.003366,0.00042,9.4e-05,0.000749,-0.002159,0.004077,-0.50671,-0.001262,-0.838984,-257.836702,1.418946,72.044505
7.4967,0.004625,0.003389,-0.000193,0.0002,0.000652,-0.001327,0.004419,-0.506678,-0.000563,-0.838984,-257.836702,1.418946,72.044505
7.5168,0.004547,0.003173,-0.000786,0.000281,0.000578,-0.000716,0.004527,-0.50661,-0.000193,-0.914389,-257.836701,1.494351,72.044508
7.5367,0.004696,0.003378,-0.001003,0.00036,0.000518,-0.000196,0.004186,-0.506804,-0.000724,-0.914389,-257.836701,1.494351,72.044508
7.5569,0.004538,0.003639,0.000878,0.00042,0.000474,0.000184,0.004186,-0.506804,-0.000724,-0.914389,-257.836701,1.494351,72.044508
7.5769,0.004817,0.003519,0.000955,0.000466,0.000441,0.000462,0.004986,-0.50636,0.000878,-0.839787,-257.836701,1.419749,72.044508
7.5968,0.004593,0.00333,-0.000288,0.000426,0.000451,-0.000184,0.005112,-0.506408,0.000909,-0.839787,-257.836701,1.419749,72.044508
7.6163,0.004584,0.003452,0.000133,0.000395,0.000458,-0.00065,0.004446,-0.50667,-0.000288,-0.764808,-257.836701,1.34477,72.044508
7.6369,0.00486,0.00332,-0.000854,0.00041,0.000438,-0.000556,0.004633,-0.506559,9.4e-05,-0.764808,-257.836701,1.34477,72.044508
7.6568,0.004936,0.003209,0.000312,0.000421,0.000422,-0.000488,0.004633,-0.506559,9.4e-05,-0.764808,-257.836701,1.34477,72.044508
7.6766,0.004446,0.003522,3.8e-05,0.000429,0.000409,-0.000439,0.005095,-0.506791,0.000312,-0.689793,-257.836701,1.269755,72.044508
7.6967,0.004562,0.003203,-0.001073,0.000407,0.00043,-0.000461,0.004838,-0.506664,0.0002,-0.689793,-257.836701,1.269755,72.044508
7.7165,0.004388,0.003221,0.001846,0.00039,0.000446,-0.000477,0.004015,-0.506797,-0.001073,-0.614759,-257.836701,1.19472,72.044508
7.7365,0.004548,0.003455,0.001015,0.000328,0.000505,-0.001187,0.005205,-0.50678,0.001569,-0.614759,-257.836701,1.19472,72.044508
7.7565,0.004386,0.003173,0.000935,0.000281,0.000551,-0.001698,0.005205,-0.50678,0.001569,-0.614759,-257.836701,1.19472,72.044508
7.7764,0.004875,0.003151,-0.000731,0.000245,0.000587,-0.002067,0.004863,-0.506826,0.000935,-0.539794,-257.836701,1.119755,72.044508
7.7971,0.004916,0.003294,0.001273,0.000265,0.000575,-0.001666,0.004717,-0.506836,0.000259,-0.539794,-257.836701,1.119755,72.044508
7.817,0.004665,0.003103,0.000499,0.00028,0.000567,-0.001378,0.005565,-0.506706,0.001273,-0.614786,-257.836701,1.194748,72.044509
7.837,0.00469,0.003067,-0.000605,0.000262,0.000591,-0.001334,0.004978,-0.506879,0.000569,-0.614786,-257.836701,1.194748,72.044509
7.8576,0.004573,0.003115,-0.000714,0.000247,0.000609,-0.001304,0.004978,-0.506879,0.000569,-0.614786,-257.836701,1.194748,72.044509
7.8766,0.004869,0.003743,0.000992,0.000235,0.000624,-0.001282,0.004215,-0.506876,-0.000736,-0.689811,-257.836639,1.269773,72.044736
7.897,0.004519,0.00331,0.000739,0.000277,0.000575,-0.000946,0.004689,-0.506622,-3.3e-05,-0.689811,-257.836639,1.269773,72.044736
7.9167,0.004529,0.003696,-0.000538,0.000309,0.000539,-0.000703,0.004902,-0.506677,0.000713,-0.614811,-257.836566,1.344773,72.045104
7.9369,0.004887,0.003153,0.000284,0.000399,0.000443,-0.000324,0.004313,-0.506337,-0.000427,-0.614811,-257.836566,1.344773,72.045104
7.9568,0.005033,0.003339,-0.000377,0.000469,0.00037,-4.8e-05,0.004313,-0.506337,-0.000427,-0.614811,-257.836566,1.344773,72.045104
7.977,0.00507,0.003316,-0.000978,0.000522,0.000313,0.000153,0.00484,-0.506661,-0.000377,-0.539829,-257.836566,1.269791,72.045104
7.9967,0.004715,0.002997,0.000169,0.000499,0.000342,0.000394,0.004731,-0.506671,-0.000621,-0.539829,-257.836566,1.269791,72.045104
8.0163,0.004434,0.003493,-0.000776,0.00048,0.000366,0.00057,0.004801,-0.507003,0.000169,-0.464821,-257.836566,1.194784,72.045104
8.0366,0.004901,0.003438,-0.000258,0.00054,0.000316,0.000736,0.004095,-0.506544,-0.000705,-0.464821,-257.836566,1.194784,72.045104
8.0567,0.004789,0.003034,0.000502,0.000586,0.000279,0.000857,0.004095,-0.506544,-0.000705,-0.464821,-257.836566,1.194784,72.045104
8.0765,0.004298,0.003324,-9.7e-05,0.000622,0.00025,0.000945,0.005045,-0.506966,0.000502,-0.389309,-257.836566,1.119272,72.045104
8.0966,0.005168,0.003423,-0.000302,0.00055,0.000326,0.000498,0.004728,-0.50685,0.000263,-0.389309,-257.836566,1.119272,72.045104
8.1164,0.004873,0.003648,0.000148,0.000495,0.000385,0.000176,0.005014,-0.506577,-0.000302,-0.314811,-257.836566,1.044773,72.045104
8.137,0.004986,0.003388,0.001785,0.00047,0.000388,3.5e-05,0.004954,-0.506372,0.000106,-0.314811,-257.836566,1.044773,72.045104
8.1568,0.004878,0.003407,0.000213,0.000451,0.00039,-6.7e-05,0.004954,-0.506372,0.000106,-0.314811,-257.836566,1.044773,72.045104
8.1768,0.004818,0.003476,0.000442,0.000435,0.000391,-0.000141,0.004986,-0.506593,0.000213,-0.239715,-257.836566,0.969678,72.045104
8.1973,0.005334,0.003353,0.000503,0.000401,0.000419,-0.000303,0.005009,-0.506565,0.000305,-0.239715,-257.836566,0.969678,72.045104
8.2163,0.004851,0.003218,0.000405,0.000374,0.000441,-0.000421,0.00559,-0.506647,0.000503,-0.164811,-257.836566,0.894774,72.045104
8.2367,0.00483,0.003669,0.001202,0.00033,0.00049,-0.000564,0.005099,-0.506771,0.000413,-0.164811,-257.836566,0.894774,72.045104
8.2571,0.005062,0.003116,0.001305,0.000295,0.000529,-0.000668,0.005099,-0.506771,0.000413,-0.164811,-257.836566,0.894774,72.045104
8.2767,0.004776,0.003415,6.5e-05,0.000268,0.000558,-0.000742,0.005727,-0.506884,0.001305,-0.089389,-257.836566,0.970196,72.045105
8.2971,0.004813,0.003508,-0.000575,0.000224,0.000602,-0.001005,0.00536,-0.506764,0.00081,-0.089389,-257.836566,0.970196,72.045105
8.3167,0.004922,0.003378,0.000213,0.00019,0.000635,-0.001195,0.00452,-0.506492,-0.000575,-0.014822,-257.836565,1.044763,72.045107
8.3365,0.004827,0.003455,-8.1e-05,0.00021,0.000609,-0.000977,0.004986,-0.506611,0.000145,-0.014822,-257.836565,1.044763,72.045107
8.3566,0.005139,0.003241,0.000792,0.000226,0.000589,-0.00082,0.004986,-0.506611,0.000145,-0.014822,-257.836565,1.044763,72.045107
8.3767,0.004821,0.003284,-0.001677,0.000238,0.000573,-0.000706,0.005543,-0.506758,0.000792,-0.089942,-257.836565,1.119883,72.045108
8.3969,0.004917,0.003186,0.000572,0.000249,0.000568,-0.000436,0.004901,-0.506741,-0.000213,-0.089942,-257.836565,1.119883,72.045108
8.4167,0.004627,0.003051,-0.000631,0.000257,0.000565,-0.00024,0.005209,-0.506813,0.000572,-0.015068,-257.836565,1.194756,72.045108
8.4367,0.004584,0.003547,-0.001237,0.000301,0.000546,5.6e-05,0.004383,-0.506938,-0.000528,-0.015068,-257.836565,1.194756,72.045108
8.4568,0.004756,0.003289,0.001049,0.000335,0.000532,0.000272,0.004383,-0.506938,-0.000528,-0.015068,-257.836565,1.194756,72.045108
8.4769,0.004765,0.003089,0.000423,0.000362,0.000523,0.000429,0.005291,-0.506711,0.001049,0.060068,-257.836565,1.224222,72.045108
8.4964,0.004637,0.003625,0.000795,0.00031,0.000566,-0.000152,0.005164,-0.506792,0.000794,0.060068,-257.836565,1.224222,72.045108
8.5165,0.004872,0.003172,0.000717,0.00027,0.000599,-0.000571,0.005042,-0.506375,0.000795,0.135047,-257.836565,1.149242,72.045108
8.5369,0.004572,0.003239,0.000191,0.000235,0.000628,-0.000836,0.00522,-0.506788,0.000724,0.135047,-257.836565,1.149242,72.045108
8.5568,0.004538,0.003266,0.00067,0.000208,0.00065,-0.001027,0.00522,-0.506788,0.000724,0.135047,-257.836565,1.149242,72.045108
8.5764,0.005096,0.003315,-0.000594,0.000187,0.000666,-0.001165,0.00488,-0.506734,0.00067,0.210067,-257.836565,1.224262,72.045109
8.5968,0.005155,0.003713,0.00061,0.000214,0.000636,-0.000961,0.004844,-0.506714,0.000155,0.210067,-257.836565,1.224262,72.045109
8.6168,0.005126,0.002982,0.000322,0.000234,0.000613,-0.000814,0.005466,-0.506287,0.00061,0.135103,-257.836563,1.299225,72.045119
8.6368,0.004837,0.003161,0.002166,0.000194,0.000661,-0.000811,0.005308,-0.506945,0.00035,0.135103,-257.836563,1.299225,72.045119
8.6568,0.004846,0.002858,-0.000109,0.000162,0.000699,-0.000808,0.005308,-0.506945,0.00035,0.135103,-257.836563,1.299225,72.045119
8.6767,0.004625,0.003473,0.001843,0.000136,0.000729,-0.000807,0.004792,-0.507138,-0.000115,0.209999,-257.836546,1.362779,72.045196
8.6965,0.004662,0.003389,-0.000454,0.000131,0.000732,-0.000982,0.005105,-0.50689,0.000677,0.209999,-257.836546,1.362779,72.045196
8.7164,0.004775,0.003587,0.001048,0.000128,0.000734,-0.001109,0.004431,-0.506611,-0.000454,0.285003,-257.836546,1.437783,72.045196
8.7367,0.004816,0.003248,0.001941,0.000148,0.000691,-0.00132,0.005231,-0.50643,0.000914,0.285003,-257.836546,1.437783,72.045196
8.7567,0.005229,0.003223,0.001531,0.000163,0.000656,-0.001472,0.005231,-0.50643,0.000914,0.285003,-257.836546,1.437783,72.045196
8.7765,0.004515,0.003184,0.001494,0.000176,0.000627,-0.001581,0.006014,-0.506754,0.001497,0.360009,-257.836504,1.480363,72.045615
8.7966,0.004772,0.00327,0.000185,0.000126,0.000679,-0.001944,0.005689,-0.506778,0.001492,0.360009,-257.836504,1.480363,72.045615
8.8167,0.004776,0.003855,-0.001539,8.8e-05,0.00072,-0.002205,0.004866,-0.50673,0.000185,0.283982,-257.836504,1.460545,72.045615
8.837,0.004528,0.003606,0.000439,0.000284,0.000537,-0.001025,0.004064,-0.506193,-0.001396,0.283982,-257.836504,1.460545,72.045615
8.8568,0.00483,0.003397,0.00023,0.000434,0.000397,-0.000145,0.004064,-0.506193,-0.001396,0.283982,-257.836504,1.460545,72.045615
8.8768,0.004619,0.003591,0.000768,0.000549,0.000291,0.000509,0.004948,-0.506603,0.00023,0.358126,-257.836504,1.528229,72.045615
8.8969,0.004775,0.00328,0.000446,0.000496,0.000334,8.6e-05,0.004974,-0.506524,0.00045,0.358126,-257.836504,1.528229,72.045615
8.9166,0.004525,0.003323,0.001134,0.000454,0.000367,-0.000218,0.005002,-0.50672,0.000446,0.432957,-257.836504,1.453397,72.045615
8.9365,0.004583,0.003369,-0.000285,0.000397,0.000422,-0.000763,0.005094,-0.50668,0.001073,0.432957,-257.836504,1.453397,72.045615
8.9565,0.005174,0.002959,0.00044,0.000352,0.000465,-0.001156,0.005094,-0.50668,0.001073,0.432957,-257.836504,1.453397,72.045615
8.9768,0.004773,0.003543,-0.000143,0.000318,0.000497,-0.001439,0.005399,-0.507041,0.00044,0.474242,-257.836504,1.378397,72.045616
8.997,0.004503,0.003481,0.000154,0.00029,0.000533,-0.001182,0.005111,-0.5068,0.0002,0.474242,-257.836504,1.378397,72.045616
9.0164,0.005018,0.003379,0.001132,0.000267,0.000562,-0.000997,0.004582,-0.506519,0.000154,0.399104,-257.836504,1.343635,72.045616
9.0368,0.004629,0.003089,0.000891,0.000225,0.000595,-0.001306,0.005504,-0.506611,0.001044,0.399104,-257.836504,1.343635,72.045616
9.0566,0.004699,0.00325,-0.002086,0.000191,0.000621,-0.001528,0.005504,-0.506611,0.001044,0.399104,-257.836504,1.343635,72.045616
9.0767,0.004479,0.003531,0.000505,0.000165,0.00064,-0.001688,0.003636,-0.506749,-0.002086,0.324238,-257.836503,1.34629,72.045618
9.0969,0.00473,0.00337,-0.000398,0.0003,0.00053,-0.000782,0.004084,-0.506635,-0.001031,0.324238,-257.836503,1.34629,72.045618
9.1171,0.004728,0.003409,-0.000623,0.000403,0.000449,-0.000112,0.004527,-0.50663,-0.000398,0.249246,-257.836503,1.421281,72.045618
9.1368,0.005061,0.003437,0.00043,0.000442,0.000413,0.000189,0.004421,-0.506594,-0.000604,0.249246,-257.836503,1.421281,72.045618
9.157,0.004747,0.003301,6.4e-05,0.000472,0.000387,0.000408,0.004421,-0.506594,-0.000604,0.249246,-257.836503,1.421281,72.045618
9.1767,0.004652,0.003478,-0.000772,0.000495,0.000367,0.000569,0.004779,-0.506699,6.4e-05,0.324369,-257.836503,1.346158,72.045618
9.1965,0.004604,0.003262,0.000287,0.00049,0.00037,0.000519,0.004568,-0.506627,-0.000275,0.324369,-257.836503,1.346158,72.045618
9.2164,0.004835,0.003613,0.00068,0.000486,0.000373,0.000483,0.00475,-0.506738,0.000287,0.399239,-257.836503,1.271288,72.045618
9.2369,0.005233,0.00399,-0.000807,0.000438,0.000401,-3.3e-05,0.005144,-0.506418,0.000645,0.399239,-257.836503,1.271288,72.045618
9.2569,0.004897,0.003078,0.001491,0.0004,0.000421,-0.000406,0.005144,-0.506418,0.000645,0.399239,-257.836503,1.271288,72.045618
9.2764,0.004622,0.003406,0.001461,0.000371,0.000437,-0.000675,0.005658,-0.506921,0.001491,0.474304,-257.836503,1.196223,72.045618
9.2968,0.004959,0.003138,0.000376,0.000289,0.000523,-0.001286,0.00554,-0.506788,0.001479,0.474304,-257.836503,1.196223,72.045618
9.3166,0.00467,0.003512,-0.001164,0.000226,0.00059,-0.001726,0.005152,-0.506861,0.000375,0.399361,-257.836494,1.158465,72.045641
9.3364,0.004859,0.003552,-0.001114,0.000346,0.000486,-0.000809,0.004171,-0.506521,-0.001029,0.399361,-257.836494,1.158465,72.045641
9.3567,0.004898,0.003379,0.002049,0.000438,0.000408,-0.000131,0.004171,-0.506521,-0.001029,0.399361,-257.836494,1.158465,72.045641
9.3765,0.004936,0.003496,0.002759,0.000508,0.00035,0.000368,0.005943,-0.50662,0.002049,0.324317,-257.836494,1.23351,72.045641
9.3967,0.004957,0.003345,0.000369,0.000379,0.00047,-0.00089,0.006107,-0.506572,0.002339,0.324317,-257.836494,1.23351,72.045641
9.4169,0.004632,0.003276,0.000333,0.000276,0.000563,-0.001806,0.005145,-0.506655,0.000369,0.399321,-257.836494,1.158506,72.045641
9.4366,0.004541,0.003316,-0.000141,0.000288,0.000553,-0.001512,0.004833,-0.506717,0.000337,0.399321,-257.836494,1.158506,72.045641
9.4566,0.005094,0.003307,0.00032,0.000295,0.000546,-0.001303,0.004833,-0.506717,0.000337,0.399321,-257.836494,1.158506,72.045641
9.4766,0.00485,0.00358,0.000483,0.0003,0.00054,-0.001153,0.005257,-0.506693,0.00032,0.324378,-257.836494,1.233449,72.045641
9.4965,0.004448,0.003345,-0.000354,0.000283,0.000548,-0.001069,0.005191,-0.506581,0.000386,0.324378,-257.836494,1.233449,72.045641
9.5167,0.004866,0.003082,1.3e-05,0.000269,0.000554,-0.00101,0.004268,-0.506655,-0.000354,0.249375,-257.836494,1.308452,72.045641
9.5365,0.005175,0.003426,0.00093,0.000269,0.000566,-0.000757,0.00482,-0.506895,-1.9e-05,0.249375,-257.836494,1.308452,72.045641
9.5566,0.004992,0.003093,-0.001292,0.000269,0.000577,-0.000574,0.00482,-0.506895,-1.9e-05,0.249375,-257.836494,1.308452,72.045641
9.5769,0.004555,0.003395,-0.00167,0.000268,0.000586,-0.000442,0.004333,-0.506906,-0.001293,0.174285,-257.836492,1.345098,72.045651
9.5974,0.004952,0.003567,0.000465,0.000372,0.000509,0.000303,0.004074,-0.506782,-0.001448,0.174285,-257.836492,1.345098,72.045651
9.6165,0.004724,0.003527,0.001156,0.000451,0.000452,0.000856,0.005189,-0.506433,0.000465,0.249291,-257.836492,1.270092,72.045651
9.6365,0.004886,0.003467,0.00063,0.000392,0.000482,3e-06,0.005303,-0.506469,0.001095,0.249291,-257.836492,1.270092,72.045651
9.6565,0.004416,0.003224,0.000526,0.000347,0.000505,-0.000612,0.005303,-0.506469,0.001095,0.249291,-257.836492,1.270092,72.045651
9.6768,0.00493,0.003337,0.001289,0.000311,0.000521,-0.001055,0.004684,-0.506776,0.000526,0.324268,-257.836492,1.195115,72.045651
9.6967,0.004783,0.00366,0.001059,0.000287,0.000545,-0.001245,0.005052,-0.50673,0.000836,0.324268,-257.836492,1.195115,72.045651
9.7164,0.004963,0.003543,0.000339,0.000267,0.000563,-0.001382,0.005323,-0.50634,0.001059,0.249342,-257.836492,1.270041,72.045651
9.7366,0.004934,0.003445,0.001199,0.00027,0.000547,-0.001248,0.005152,-0.506446,0.000404,0.249342,-257.836492,1.270041,72.045651
9.7566,0.005128,0.003268,-0.000147,0.000271,0.000535,-0.001151,0.005152,-0.506446,0.000404,0.249342,-257.836492,1.270041,72.045651
9.7764,0.00463,0.002947,0.001637,0.000271,0.000524,-0.001081,0.005053,-0.506732,-0.000147,0.174339,-257.836492,1.345044,72.045651
9.7965,0.00469,0.003349,0.000544,0.000233,0.000573,-0.001126,0.00522,-0.506862,0.000577,0.174339,-257.836492,1.345044,72.045651
9.8164,0.005258,0.003221,-0.000495,0.000203,0.000612,-0.001159,0.004967,-0.506651,0.000544,0.099335,-257.836492,1.346141,72.045652
9.8366,0.004886,0.003269,0.000959,0.000216,0.000606,-0.000672,0.005002,-0.506768,-0.0004,0.099335,-257.836492,1.346141,72.045652
9.8568,0.005105,0.003252,0.000339,0.000224,0.000604,-0.000316,0.005002,-0.506768,-0.0004,0.099335,-257.836492,1.346141,72.045652
9.8765,0.004871,0.003565,0.000726,0.00023,0.000603,-5.7e-05,0.005277,-0.506748,0.000338,0.024317,-257.836491,1.417878,72.045655
9.8967,0.004511,0.003341,0.000503,0.000212,0.000611,-0.000342,0.005263,-0.50662,0.000496,0.024317,-257.836491,1.417878,72.045655
9.9165,0.004503,0.003385,0.000855,0.000198,0.000617,-0.000548,0.004767,-0.506659,0.000503,0.099298,-257.836491,1.342897,72.045656
9.9365,0.004476,0.003407,-1e-06,0.000212,0.000596,-0.000872,0.004924,-0.506619,0.000823,0.099298,-257.836491,1.342897,72.045656
9.9568,0.00462,0.00363,0.00066,0.000225,0.000579,-0.001106,0.004924,-0.506619,0.000823,0.099298,-257.836491,1.342897,72.045656
9.9768,0.004703,0.003485,0.000244,0.000235,0.000565,-0.001274,0.004956,-0.50637,0.00066,0.174303,-257.836491,1.365591,72.045656
9.9968,0.005077,0.003464,-0.000656,0.000264,0.000527,-0.001216,0.004904,-0.506429,0.00049,0.174303,-257.836491,1.365591,72.045656
10.0168,0.004668,0.003567,0.002254,0.000286,0.000497,-0.001175,0.004743,-0.506536,-0.000656,0.099316,-257.836491,1.39745,72.045656
10.0371,0.004792,0.003503,0.001442,0.000232,0.000541,-0.001878,0.005722,-0.506441,0.001996,0.099316,-257.836491,1.39745,72.045656
10.0568,0.004809,0.003332,-0.000114,0.00019,0.000574,-0.002383,0.005722,-0.506441,0.001996,0.099316,-257.836491,1.39745,72.045656
10.0768,0.004593,0.003439,8.4e-05,0.000158,0.000599,-0.002747,0.004751,-0.506668,-0.000114,0.024285,-257.836491,1.339716,72.045656
10.097,0.004986,0.003228,0.00129,0.00022,0.00055,-0.002003,0.004704,-0.506624,-3.3e-05,0.024285,-257.836491,1.339716,72.045656
10.117,0.004418,0.003601,-0.000753,0.000266,0.000512,-0.001463,0.005643,-0.506772,0.00129,-0.050696,-257.836491,1.414698,72.045656
10.1369,0.004941,0.00328,3.2e-05,0.000377,0.000415,-0.000808,0.004178,-0.506432,-0.000571,-0.050696,-257.836491,1.414698,72.045656
10.1571,0.004825,0.003189,0.000797,0.000463,0.000342,-0.000329,0.004178,-0.506432,-0.000571,-0.050696,-257.836491,1.414698,72.045656
10.1769,0.005449,0.003296,-0.000638,0.000528,0.000287,1.9e-05,0.005231,-0.506811,0.000797,-0.125704,-257.836491,1.384148,72.045656
10.1971,0.004497,0.003177,0.000124,0.000449,0.000372,-0.000131,0.005187,-0.506767,0.000211,-0.125704,-257.836491,1.384148,72.045656
10.2164,0.004659,0.003201,-6e-06,0.000387,0.000439,-0.000239,0.004561,-0.506823,0.000124,-0.050717,-257.836491,1.309161,72.045656
10.2368,0.004809,0.003567,0.000482,0.000382,0.000454,-0.000212,0.004648,-0.506801,5e-06,-0.050717,-257.836491,1.309161,72.045656
10.2566,0.005258,0.00337,0.000153,0.000379,0.000465,-0.000193,0.004648,-0.506801,5e-06,-0.050717,-257.836491,1.309161,72.045656
10.2769,0.004828,0.003123,0.000549,0.000376,0.000475,-0.00018,0.005336,-0.50663,0.000153,0.024395,-257.836491,1.234049,72.045656
10.2967,0.004502,0.003646,0.000221,0.000325,0.000522,-0.000335,0.005241,-0.506733,0.000319,0.024395,-257.836491,1.234049,72.045656
10.3165,0.004762,0.002867,-0.000728,0.000285,0.000559,-0.000447,0.004615,-0.506354,0.000221,0.099568,-257.836491,1.158876,72.045656
10.3369,0.004629,0.002995,-0.001555,0.000314,0.00056,-4e-05,0.00441,-0.507064,-0.000645,0.099568,-257.836491,1.158876,72.045656
10.3568,0.004962,0.002999,0.001405,0.000336,0.000563,0.000258,0.00441,-0.507064,-0.000645,0.099568,-257.836491,1.158876,72.045656
10.3767,0.004994,0.003185,-0.000948,0.000353,0.000567,0.000475,0.005679,-0.507001,0.001405,0.174328,-257.836491,1.233636,72.045656
10.3973,0.005045,0.002982,0.000936,0.000293,0.000621,6.3e-05,0.005205,-0.506925,0.00045,0.174328,-257.836491,1.233636,72.045656
10.4165,0.005011,0.00358,-0.001801,0.000247,0.000663,-0.000234,0.005522,-0.507018,0.000936,0.249379,-257.836491,1.158585,72.045656
10.4369,0.004965,0.003202,0.000227,0.000363,0.000547,0.0005,0.004222,-0.506473,-0.001553,0.249379,-257.836491,1.158585,72.045656
10.4568,0.004807,0.003508,0.001677,0.000452,0.000458,0.001044,0.004222,-0.506473,-0.001553,0.249379,-257.836491,1.158585,72.045656
10.4767,0.004654,0.003355,0.000301,0.00052,0.000391,0.001447,0.005662,-0.506492,0.001677,0.324282,-257.836491,1.233488,72.045656
10.497,0.00497,0.003568,0.000633,0.000438,0.000446,0.000413,0.005316,-0.506554,0.001119,0.324282,-257.836491,1.233488,72.045656
10.5171,0.004835,0.003397,0.001732,0.000375,0.00049,-0.000332,0.005293,-0.506432,0.000633,0.399283,-257.836491,1.158487,72.045656
10.5366,0.004741,0.003318,-0.000859,0.000297,0.000553,-0.001111,0.00568,-0.506587,0.001633,0.399283,-257.836491,1.158487,72.045656
10.5566,0.00498,0.003467,-0.000633,0.000236,0.000602,-0.001671,0.00568,-0.506587,0.001633,0.399283,-257.836491,1.158487,72.045656
10.5768,0.004997,0.003572,0.00045,0.000189,0.000639,-0.002075,0.004663,-0.506527,-0.000638,0.474283,-257.836431,1.083486,72.045756
10.5967,0.004693,0.003454,0.00058,0.000236,0.000586,-0.001444,0.0049,-0.506485,-0.000181,0.474283,-257.836431,1.083486,72.045756
10.6167,0.00475,0.003508,-0.000209,0.000271,0.000545,-0.000985,0.004989,-0.506546,0.00058,0.398742,-257.836431,1.159028,72.045756
10.6366,0.004968,0.003239,-6.4e-05,0.000316,0.000497,-0.000673,0.004673,-0.506497,-0.00014,0.398742,-257.836431,1.159028,72.045756
10.6565,0.004482,0.003529,0.001145,0.00035,0.00046,-0.000448,0.004673,-0.506497,-0.00014,0.398742,-257.836431,1.159028,72.045756
10.6768,0.00454,0.003348,0.000284,0.000376,0.000432,-0.000285,0.005066,-0.50647,0.001145,0.324192,-257.836431,1.233577,72.045756
10.6969,0.004633,0.003318,-0.000324,0.000361,0.000441,-0.000666,0.00491,-0.506545,0.000792,0.324192,-257.836431,1.233577,72.045756
10.7167,0.005002,0.003357,-0.000608,0.000349,0.000447,-0.000941,0.004469,-0.50668,-0.000326,0.3992,-257.836406,1.15857,72.045794
10.7364,0.004735,0.003316,0.00123,0.000372,0.000436,-0.000425,0.004673,-0.506646,-0.000584,0.3992,-257.836406,1.15857,72.045794
10.7568,0.004877,0.003121,-0.000111,0.000388,0.000429,-4.8e-05,0.004673,-0.506646,-0.000584,0.3992,-257.836406,1.15857,72.045794
10.7764,0.005025,0.003579,0.00076,0.000399,0.000425,0.000228,0.004821,-0.506879,-0.000111,0.324138,-257.836406,1.233632,72.045795
10.797,0.004554,0.00328,0.001507,0.000359,0.000464,-2e-06,0.00506,-0.506694,0.000241,0.324138,-257.836406,1.233632,72.045795
10.8165,0.004619,0.003406,-0.000718,0.000328,0.000495,-0.000167,0.005322,-0.50672,0.001507,0.398987,-257.836406,1.158783,72.045795
10.8366,0.00498,0.003517,0.000793,0.000387,0.000445,0.000107,0.004349,-0.506605,-0.000517,0.398987,-257.836406,1.158783,72.045795
10.8566,0.004799,0.003264,0.000243,0.000432,0.000408,0.000306,0.004349,-0.506605,-0.000517,0.398987,-257.836406,1.158783,72.045795
10.8767,0.005093,0.00315,0.000882,0.000467,0.000379,0.000451,0.004923,-0.506735,0.000243,0.473975,-257.836402,1.083795,72.0458
10.8971,0.005127,0.003405,0.000237,0.000395,0.000451,1.8e-05,0.005174,-0.506782,0.000502,0.473975,-257.836402,1.083795,72.0458
10.9164,0.004716,0.00331,-0.0,0.000338,0.000507,-0.000294,0.005247,-0.506595,0.000237,0.54898,-257.836402,1.00879,72.0458
10.9368,0.004658,0.00314,0.000847,0.000342,0.000503,-0.000262,0.004764,-0.506681,2.1e-05,0.54898,-257.836402,1.00879,72.0458
10.9569,0.004887,0.003184,-0.0016,0.000344,0.0005,-0.000239,0.004764,-0.506681,2.1e-05,0.54898,-257.836402,1.00879,72.0458
10.9768,0.004694,0.0037,0.000243,0.000346,0.000497,-0.000222,0.004077,-0.506808,-0.001605,0.623981,-257.83633,1.083792,72.045918
10.9971,0.004998,0.003378,-0.000671,0.000403,0.000448,0.000225,0.004379,-0.506601,-0.000855,0.623981,-257.83633,1.083792,72.045918
11.0169,0.004841,0.00361,-0.000822,0.000447,0.000411,0.000553,0.004663,-0.506613,-0.000676,0.698972,-257.836214,1.071076,72.046084
11.0367,0.004933,0.003819,0.000456,0.000488,0.000366,0.000774,0.004444,-0.506409,-0.000809,0.698972,-257.836214,1.071076,72.046084
11.0568,0.004606,0.003196,0.001801,0.000519,0.000331,0.000935,0.004444,-0.506409,-0.000809,0.698972,-257.836214,1.071076,72.046084
11.0765,0.004568,0.003326,1.5e-05,0.000542,0.000304,0.001053,0.005524,-0.506803,0.001801,0.773984,-257.836214,0.996065,72.046084
11.097,0.004505,0.003141,0.001862,0.000455,0.000387,0.000158,0.005134,-0.50675,0.001066,0.773984,-257.836214,0.996065,72.046084
11.1166,0.004879,0.003263,-0.00015,0.000387,0.000451,-0.000488,0.005454,-0.506858,0.001862,0.849075,-257.836214,0.920974,72.046084
11.1365,0.004633,0.003446,0.000389,0.000367,0.000475,-0.000407,0.00486,-0.506748,3e-05,0.849075,-257.836214,0.920974,72.046084
11.1566,0.005008,0.003535,7.4e-05,0.000351,0.000494,-0.000349,0.00486,-0.506748,3e-05,0.849075,-257.836214,0.920974,72.046084
11.1765,0.004859,0.003365,0.001816,0.000338,0.000509,-0.000307,0.005046,-0.506465,7.4e-05,0.774166,-257.836212,0.995883,72.046089
11.197,0.004821,0.003732,0.00078,0.000297,0.000536,-0.000678,0.005348,-0.506534,0.000785,0.774166,-257.836212,0.995883,72.046089
11.2163,0.004347,0.003524,0.000838,0.000264,0.000556,-0.000945,0.005228,-0.506255,0.000773,0.760185,-257.836066,1.070882,72.046332
11.2368,0.004794,0.003555,-0.000577,0.000288,0.00052,-0.001164,0.004815,-0.506455,0.000831,0.760185,-257.836066,1.070882,72.046332
11.2569,0.00519,0.003587,0.000629,0.000308,0.000492,-0.001322,0.004815,-0.506455,0.000831,0.760185,-257.836066,1.070882,72.046332
11.2769,0.0046,0.003597,-0.001178,0.000324,0.000468,-0.001436,0.005511,-0.506413,0.000629,0.685178,-257.836066,1.145888,72.046332
11.2971,0.004847,0.00361,-0.001598,0.000344,0.000443,-0.001021,0.004898,-0.506409,-0.000104,0.685178,-257.836066,1.145888,72.046332
11.3168,0.004701,0.003554,-7.5e-05,0.000358,0.000425,-0.00072,0.004032,-0.50639,-0.001598,0.610186,-257.836066,1.22088,72.046332
11.3371,0.004931,0.003337,-0.000589,0.000394,0.00039,-0.000449,0.004608,-0.506441,-0.000207,0.610186,-257.836066,1.22088,72.046332
11.3568,0.004796,0.003125,-0.000375,0.000421,0.000364,-0.000253,0.004608,-0.506441,-0.000207,0.610186,-257.836066,1.22088,72.046332
11.3768,0.005004,0.003312,0.000463,0.000442,0.000344,-0.000111,0.004604,-0.506875,-0.000375,0.535101,-257.836065,1.178081,72.046332
11.3968,0.004944,0.00353,0.000806,0.000406,0.000396,-0.000101,0.004865,-0.506799,-3.1e-05,0.535101,-257.836065,1.178081,72.046332
11.4167,0.004903,0.003392,0.000453,0.000377,0.000437,-9.4e-05,0.005356,-0.506469,0.000805,0.559345,-257.836055,1.103076,72.046344
11.4369,0.004669,0.003316,-0.00075,0.000339,0.000469,-0.000364,0.005153,-0.506596,0.000484,0.559345,-257.836055,1.103076,72.046344
11.4566,0.004898,0.003522,0.000194,0.000309,0.000494,-0.000559,0.005153,-0.506596,0.000484,0.559345,-257.836055,1.103076,72.046344
11.4769,0.005067,0.003485,0.000904,0.000286,0.000513,-0.000699,0.005001,-0.506474,0.000192,0.63435,-257.836002,1.028072,72.046405
11.4973,0.004905,0.003359,-0.000401,0.000271,0.00052,-0.000799,0.005219,-0.50649,0.000485,0.63435,-257.836002,1.028072,72.046405
11.5172,0.004781,0.003244,-0.00028,0.000259,0.000525,-0.000872,0.004701,-0.50664,-0.000402,0.559356,-257.835996,1.103066,72.046427
11.537,0.00496,0.003602,8.9e-05,0.000289,0.000508,-0.000519,0.004645,-0.506744,-0.000292,0.559356,-257.835996,1.103066,72.046427
11.5571,0.004657,0.003434,-0.000612,0.000313,0.000497,-0.000262,0.004645,-0.506744,-0.000292,0.559356,-257.835996,1.103066,72.046427
11.5768,0.004618,0.003484,-0.001493,0.000331,0.000489,-7.5e-05,0.004345,-0.506566,-0.000612,0.484121,-257.835996,1.178301,72.046428
11.5973,0.004686,0.003115,0.000181,0.000422,0.000414,0.000384,0.004148,-0.506546,-0.000967,0.484121,-257.835996,1.178301,72.046428
11.6163,0.004921,0.003377,0.000564,0.000492,0.000357,0.00072,0.004778,-0.506885,0.000181,0.558805,-257.83599,1.103617,72.046434
11.6366,0.005143,0.003261,0.000753,0.000423,0.000416,0.000194,0.005176,-0.506643,0.000535,0.558805,-257.83599,1.103617,72.046434
11.6566,0.004661,0.003379,-0.000951,0.00037,0.000463,-0.000186,0.005176,-0.506643,0.000535,0.558805,-257.83599,1.103617,72.046434
11.6764,0.005197,0.003289,0.000228,0.000328,0.000498,-0.000459,0.004175,-0.506621,-0.000951,0.634267,-257.83599,1.028155,72.046434
11.6969,0.00422,0.00361,-9.8e-05,0.000353,0.000479,-0.000129,0.004639,-0.506657,-0.000471,0.634267,-257.83599,1.028155,72.046434
11.7164,0.004842,0.002843,-0.000192,0.000372,0.000464,0.000111,0.004178,-0.50638,-0.000107,0.586477,-257.835881,1.102688,72.046667
11.7367,0.004478,0.003742,0.000941,0.000346,0.000517,0.000136,0.004691,-0.507084,-0.000185,0.586477,-257.835881,1.102688,72.046667
11.7567,0.004899,0.003678,-8e-05,0.000325,0.000558,0.000155,0.004691,-0.507084,-0.000185,0.586477,-257.835881,1.102688,72.046667
11.7768,0.004454,0.003497,-0.000533,0.00031,0.000592,0.000168,0.004858,-0.506321,-8e-05,0.66142,-257.835874,1.027745,72.046673
11.7965,0.004932,0.003758,0.001619,0.000361,0.000522,0.000224,0.004585,-0.506394,-0.000263,0.66142,-257.835874,1.027745,72.046673
11.8166,0.004891,0.003319,-0.000354,0.000401,0.000466,0.000266,0.005759,-0.506241,0.001619,0.736411,-257.835869,1.006345,72.046677
11.8366,0.005015,0.00334,-0.000339,0.000391,0.00047,0.000249,0.004805,-0.506641,-0.000176,0.736411,-257.835869,1.006345,72.046677
11.8565,0.004745,0.003477,-0.001325,0.000383,0.000473,0.000237,0.004805,-0.506641,-0.000176,0.736411,-257.835869,1.006345,72.046677
11.8765,0.004917,0.00329,-0.000153,0.000377,0.000476,0.000229,0.00407,-0.506522,-0.001325,0.811475,-257.835857,0.931281,72.046685
11.8971,0.005069,0.003533,0.000425,0.000425,0.000433,0.000554,0.004383,-0.506598,-0.000847,0.811475,-257.835857,0.931281,72.046685
11.9164,0.004784,0.003617,0.001549,0.000462,0.000401,0.000791,0.005289,-0.506463,0.000426,0.886477,-257.835784,0.85628,72.046736
11.9366,0.005106,0.003319,0.000546,0.000387,0.000451,-0.000209,0.005548,-0.50639,0.001446,0.886477,-257.835784,0.85628,72.046736
11.9566,0.004832,0.00368,7.4e-05,0.000328,0.00049,-0.000931,0.005548,-0.50639,0.001446,0.886477,-257.835784,0.85628,72.046736
11.9768,0.004689,0.003324,0.000753,0.000282,0.000518,-0.001451,0.00487,-0.50632,7.4e-05,0.961472,-257.835784,0.781284,72.046736
11.9973,0.004919,0.003168,-0.000944,0.000297,0.000498,-0.001267,0.004952,-0.506464,0.000349,0.961472,-257.835784,0.781284,72.046736
12.0166,0.00456,0.003288,0.00067,0.000307,0.000482,-0.001136,0.004438,-0.506831,-0.000944,0.886466,-257.835784,0.85629,72.046736
12.0366,0.004946,0.003554,0.000733,0.000301,0.000495,-0.001137,0.004859,-0.506723,0.000522,0.886466,-257.835784,0.85629,72.046736
12.0564,0.004791,0.003654,0.001983,0.000297,0.000505,-0.001138,0.004859,-0.506723,0.000522,0.886466,-257.835784,0.85629,72.046736
12.0766,0.005161,0.003836,0.000638,0.000294,0.000512,-0.00114,0.005802,-0.506345,0.001983,0.81147,-257.835784,0.931286,72.046736
12.0969,0.004982,0.003273,0.000724,0.000255,0.00053,-0.001601,0.005675,-0.506273,0.001442,0.81147,-257.835784,0.931286,72.046736
12.1169,0.004933,0.003539,0.001299,0.000225,0.000543,-0.001934,0.005351,-0.506727,0.000724,0.73647,-257.835784,1.006287,72.046736
12.1369,0.005017,0.003086,-0.000166,0.000196,0.000568,-0.002082,0.005577,-0.506481,0.001253,0.73647,-257.835784,1.006287,72.046736
12.1569,0.004833,0.003705,0.00148,0.000173,0.000587,-0.002189,0.005577,-0.506481,0.001253,0.73647,-257.835784,1.006287,72.046736
12.1763,0.005026,0.003807,0.000186,0.000155,0.000601,-0.002266,0.005588,-0.506295,0.00148,0.661021,-257.835784,1.081736,72.046736
12.1969,0.004655,0.003613,0.001774,0.000173,0.000571,-0.002159,0.005391,-0.506252,0.000934,0.661021,-257.835784,1.081736,72.046736
12.2168,0.004807,0.003487,0.000127,0.000186,0.000546,-0.002082,0.00556,-0.506386,0.001774,0.586054,-257.835784,1.156703,72.046736
12.2368,0.00495,0.003526,-0.000236,0.000222,0.000515,-0.001684,0.004935,-0.506501,0.000277,0.586054,-257.835784,1.156703,72.046736
12.2567,0.004852,0.00335,-0.000826,0.000249,0.000491,-0.001397,0.004935,-0.506501,0.000277,0.586054,-257.835784,1.156703,72.046736
12.2765,0.004515,0.003669,0.000944,0.000269,0.000474,-0.001189,0.004431,-0.50665,-0.000826,0.511469,-257.835784,1.231288,72.046736
12.2965,0.00508,0.003574,-7.7e-05,0.000313,0.000438,-0.000838,0.00466,-0.506521,-0.000109,0.511469,-257.835784,1.231288,72.046736
12.3164,0.004575,0.003378,0.001646,0.000347,0.000412,-0.000583,0.005041,-0.506426,-7.7e-05,0.436461,-257.835784,1.306296,72.046736
12.3365,0.00488,0.003424,0.000869,0.000292,0.000465,-0.001221,0.005381,-0.506603,0.001488,0.436461,-257.835784,1.306296,72.046736
12.3567,0.004896,0.003434,-0.000568,0.000251,0.000507,-0.00168,0.005381,-0.506603,0.001488,0.436461,-257.835784,1.306296,72.046736
12.3774,0.005137,0.003684,0.000372,0.000219,0.000539,-0.002012,0.004608,-0.506563,-0.000573,0.36144,-257.835757,1.231275,72.046801
12.3966,0.004767,0.003628,0.001725,0.000262,0.000499,-0.001386,0.004893,-0.506464,-0.000199,0.36144,-257.835757,1.231275,72.046801
12.4169,0.005065,0.003317,0.000512,0.000293,0.00047,-0.000931,0.005647,-0.506371,0.001725,0.286463,-257.835757,1.306251,72.046801
12.437,0.004859,0.002854,0.000567,0.000254,0.000512,-0.001034,0.005355,-0.506655,0.000621,0.286463,-257.835757,1.306251,72.046801
12.4571,0.004748,0.003355,0.000172,0.000224,0.000545,-0.001108,0.005355,-0.506655,0.000621,0.286463,-257.835757,1.306251,72.046801
12.477,0.005031,0.00328,-0.000473,0.0002,0.000572,-0.001163,0.004835,-0.506645,0.000172,0.211445,-257.835757,1.296003,72.046802
12.4971,0.004941,0.003014,0.00097,0.000232,0.000548,-0.000827,0.004817,-0.506676,-9.1e-05,0.211445,-257.835757,1.296003,72.046802
12.5164,0.004943,0.003631,0.000556,0.000256,0.000531,-0.000584,0.005436,-0.506986,0.00097,0.13647,-257.835757,1.370978,72.046802
12.537,0.004895,0.003237,0.000171,0.000248,0.000527,-0.000771,0.005245,-0.506424,0.000593,0.13647,-257.835757,1.370978,72.046802
12.5571,0.004901,0.003699,-0.001266,0.000242,0.000523,-0.000905,0.005245,-0.506424,0.000593,0.13647,-257.835757,1.370978,72.046802
12.5766,0.004895,0.003393,0.000643,0.000238,0.00052,-0.001003,0.004256,-0.5063,-0.001266,0.211491,-257.835754,1.295957,72.046812
12.5969,0.005082,0.003352,-0.000752,0.000301,0.000462,-0.00051,0.004647,-0.506424,-0.000494,0.211491,-257.835754,1.295957,72.046812
12.6166,0.005278,0.003728,0.001061,0.000349,0.000418,-0.00015,0.004699,-0.506648,-0.000752,0.136503,-257.835754,1.363505,72.046813
12.6368,0.004499,0.003459,0.001218,0.000293,0.000461,-0.000616,0.005719,-0.506305,0.000899,0.136503,-257.835754,1.363505,72.046813
12.6568,0.004956,0.003686,0.000177,0.000249,0.000494,-0.000952,0.005719,-0.506305,0.000899,0.136503,-257.835754,1.363505,72.046813
12.6763,0.004879,0.003809,-8.8e-05,0.000215,0.000519,-0.001195,0.005046,-0.506314,0.000177,0.211494,-257.835753,1.288514,72.046813
12.6967,0.005185,0.003584,-0.000586,0.000258,0.000471,-0.000931,0.00496,-0.506264,6.9e-05,0.211494,-257.835753,1.288514,72.046813
12.7164,0.005155,0.003372,-0.000753,0.000291,0.000434,-0.000741,0.004886,-0.506416,-0.000586,0.136494,-257.835753,1.363514,72.046813
12.7366,0.005187,0.00336,0.00094,0.000318,0.000426,-0.000205,0.004781,-0.506609,-0.000739,0.136494,-257.835753,1.363514,72.046813
12.7565,0.004809,0.00357,-0.000339,0.000338,0.000422,0.000188,0.004781,-0.506609,-0.000739,0.136494,-257.835753,1.363514,72.046813
12.777,0.005142,0.003264,5.2e-05,0.000352,0.000421,0.000476,0.004641,-0.506421,-0.000352,0.061433,-257.835704,1.288454,72.046972
12.7967,0.005109,0.003305,0.002252,0.000353,0.000423,0.000409,0.004856,-0.506549,-0.000189,0.061433,-257.835704,1.288454,72.046972
12.8166,0.004893,0.003798,-0.000548,0.000353,0.000425,0.000362,0.006258,-0.506694,0.002252,0.136374,-257.835704,1.213513,72.046972
12.8367,0.005324,0.00352,0.000958,0.000387,0.000383,0.000387,0.00476,-0.506246,-0.000299,0.136374,-257.835704,1.213513,72.046972
12.8568,0.005128,0.003259,-0.000188,0.000413,0.000351,0.000405,0.00476,-0.506246,-0.000299,0.136374,-257.835704,1.213513,72.046972
12.8764,0.004982,0.003339,0.000512,0.000434,0.000325,0.000418,0.005032,-0.506741,-0.000188,0.211431,-257.835704,1.138457,72.046972
12.8964,0.004664,0.003689,3.7e-05,0.00038,0.000391,0.000215,0.005118,-0.506708,9.8e-05,0.211431,-257.835704,1.138457,72.046972
12.9164,0.004825,0.00346,0.000469,0.000337,0.000442,6.8e-05,0.004683,-0.506311,3.7e-05,0.286371,-257.835704,1.063516,72.046972
12.9366,0.005016,0.003586,0.001294,0.000321,0.000455,-0.000219,0.005031,-0.506521,0.000432,0.286371,-257.835704,1.063516,72.046972
12.9568,0.005105,0.003568,0.000791,0.000309,0.000464,-0.000427,0.005031,-0.506521,0.000432,0.286371,-257.835704,1.063516,72.046972
12.9765,0.004757,0.003594,0.000165,0.0003,0.000471,-0.000577,0.005509,-0.506431,0.000791,0.361487,-257.835704,0.9884,72.046972
12.9968,0.004802,0.0036,-2.9e-05,0.000283,0.000481,-0.000739,0.005236,-0.506421,0.000535,0.361487,-257.835704,0.9884,72.046972
13.0165,0.005026,0.003393,-1.4e-05,0.00027,0.000487,-0.000856,0.004791,-0.506395,-3.6e-05,0.377209,-257.83565,1.063284,72.047117
13.0366,0.004983,0.00324,0.001018,0.000274,0.000489,-0.000646,0.004998,-0.506588,-1.6e-05,0.377209,-257.83565,1.063284,72.047117
13.0565,0.004783,0.003513,-0.00022,0.000276,0.000491,-0.000495,0.004998,-0.506588,-1.6e-05,0.377209,-257.83565,1.063284,72.047117
13.077,0.005175,0.003323,0.000103,0.000278,0.000493,-0.000385,0.004671,-0.506487,-0.00022,0.302204,-257.83565,1.138289,72.047119
13.0969,0.004903,0.003591,-0.000105,0.00029,0.000484,-0.000267,0.004896,-0.506564,-9e-05,0.302204,-257.83565,1.138289,72.047119
13.1164,0.004715,0.003014,-0.001327,0.0003,0.000477,-0.000181,0.00485,-0.506408,-0.000106,0.377204,-257.835645,1.206813,72.04713
13.1368,0.004849,0.003755,-0.001399,0.000373,0.000449,0.00041,0.004103,-0.506939,-0.001229,0.377204,-257.835645,1.206813,72.04713
13.1568,0.004847,0.003376,0.000875,0.00043,0.00043,0.000847,0.004103,-0.506939,-0.001229,0.377204,-257.835645,1.206813,72.04713
13.177,0.004989,0.003506,0.001748,0.000474,0.000418,0.001167,0.005293,-0.506624,0.000875,0.452483,-257.835643,1.131533,72.047133
13.1969,0.004819,0.00377,0.001034,0.000384,0.000484,0.000155,0.005542,-0.506568,0.001245,0.452483,-257.835643,1.131533,72.047133
13.2166,0.004719,0.003542,0.002611,0.000315,0.000536,-0.000575,0.005346,-0.50623,0.001034,0.527687,-257.835643,1.05633,72.047133
13.2365,0.005154,0.003407,0.001128,0.000238,0.000596,-0.001639,0.005996,-0.506438,0.002488,0.527687,-257.835643,1.05633,72.047133
13.2569,0.00469,0.003276,0.001424,0.000177,0.000641,-0.00241,0.005996,-0.506438,0.002488,0.527687,-257.835643,1.05633,72.047133
13.2766,0.004694,0.003377,-0.000505,0.000131,0.000675,-0.002967,0.005426,-0.50671,0.00141,0.531164,-257.835553,1.131171,72.047365
13.297,0.004688,0.003276,-0.001451,0.000161,0.000647,-0.002488,0.005014,-0.506672,0.000609,0.531164,-257.835553,1.131171,72.047365
13.3167,0.005142,0.004059,-0.000334,0.000183,0.000625,-0.002145,0.003948,-0.506723,-0.001451,0.606187,-257.835553,1.206194,72.047365
13.3365,0.005095,0.003382,-7.6e-05,0.000274,0.000517,-0.001363,0.004877,-0.506013,-0.000437,0.606187,-257.835553,1.206194,72.047365
13.3565,0.004807,0.003557,-0.000527,0.000342,0.000433,-0.000791,0.004877,-0.506013,-0.000437,0.606187,-257.835553,1.206194,72.047365
13.3765,0.004898,0.003504,0.000236,0.000393,0.000368,-0.000374,0.004538,-0.506443,-0.000527,0.531418,-257.835553,1.280963,72.047365
13.3969,0.00543,0.003445,0.00099,0.000408,0.000358,-0.000188,0.004734,-0.506464,-0.000216,0.531418,-257.835553,1.280963,72.047365
13.417,0.005067,0.003545,-0.001781,0.000418,0.000351,-5.3e-05,0.005936,-0.506552,0.000988,0.456447,-257.835529,1.205992,72.047404
13.4365,0.005192,0.003468,0.000435,0.000482,0.000305,0.000613,0.004346,-0.506465,-0.001488,0.456447,-257.835529,1.205992,72.047404
13.4567,0.005021,0.003486,0.001667,0.00053,0.000273,0.001106,0.004346,-0.506465,-0.001488,0.456447,-257.835529,1.205992,72.047404
13.4768,0.005079,0.003497,0.001904,0.000566,0.00025,0.001471,0.005872,-0.506513,0.001667,0.531354,-257.835526,1.131085,72.047408
13.4969,0.004969,0.003416,0.000972,0.000435,0.000371,0.000144,0.005944,-0.506509,0.001763,0.531354,-257.835526,1.131085,72.047408
13.517,0.004829,0.003546,0.000683,0.000333,0.000466,-0.000819,0.005465,-0.506584,0.000972,0.606448,-257.835526,1.055991,72.047408
13.5368,0.004754,0.003297,-0.000713,0.000311,0.00048,-0.001003,0.005202,-0.506465,0.000708,0.606448,-257.835526,1.055991,72.047408
13.5569,0.005272,0.003585,-0.000983,0.000293,0.00049,-0.001136,0.005202,-0.506465,0.000708,0.606448,-257.835526,1.055991,72.047408
13.5766,0.005434,0.003678,0.000413,0.00028,0.000497,-0.001233,0.004771,-0.506415,-0.000983,0.531429,-257.835526,1.13101,72.047408
13.5968,0.00502,0.003674,-0.000989,0.000296,0.000477,-0.00071,0.005119,-0.506378,-0.000427,0.531429,-257.835526,1.13101,72.047408
13.6164,0.004979,0.00348,-0.001187,0.000306,0.000463,-0.000328,0.004516,-0.506326,-0.000989,0.456541,-257.835526,1.205898,72.047408
13.6367,0.004722,0.003517,0.000287,0.000383,0.000405,0.000283,0.004387,-0.506502,-0.001168,0.456541,-257.835526,1.205898,72.047408
13.6564,0.004787,0.003676,6.9e-05,0.000441,0.000361,0.000733,0.004387,-0.506502,-0.001168,0.456541,-257.835526,1.205898,72.047408
13.6767,0.00518,0.003451,0.000231,0.000486,0.000328,0.001064,0.004827,-0.506318,6.4e-05,0.531554,-257.835473,1.138183,72.047504
13.6967,0.005271,0.003589,0.000205,0.000449,0.000353,0.000658,0.00502,-0.506412,0.000132,0.531554,-257.835473,1.138183,72.047504
13.717,0.005042,0.003235,-0.001082,0.000421,0.000371,0.000367,0.005376,-0.506411,0.000205,0.606544,-257.835473,1.063193,72.047504
13.7367,0.004906,0.003391,0.001421,0.00043,0.000382,0.000703,0.004575,-0.506731,-0.00096,0.606544,-257.835473,1.063193,72.047504
13.7568,0.005231,0.003776,0.001416,0.000437,0.000391,0.00095,0.004575,-0.506731,-0.00096,0.606544,-257.835473,1.063193,72.047504
13.7765,0.005114,0.003576,-0.000131,0.000441,0.0004,0.00113,0.005953,-0.506224,0.001416,0.681541,-257.835473,0.988196,72.047504
13.7967,0.005156,0.003836,0.000621,0.000374,0.000441,0.000366,0.005577,-0.506307,0.000774,0.681541,-257.835473,0.988196,72.047504
13.8164,0.005231,0.003302,0.001729,0.000322,0.000473,-0.000185,0.005473,-0.506164,0.000621,0.756736,-257.835473,0.913001,72.047504
13.8367,0.004939,0.003586,-0.001036,0.000226,0.00057,-0.001,0.006058,-0.506651,0.001634,0.756736,-257.835473,0.913001,72.047504
13.8567,0.005044,0.00391,-0.00032,0.000151,0.000646,-0.001588,0.006058,-0.506651,0.001634,0.756736,-257.835473,0.913001,72.047504
13.8765,0.004543,0.003481,-0.00016,9.2e-05,0.000705,-0.002011,0.00489,-0.506079,-0.000324,0.831666,-257.835355,0.987931,72.047667
13.8965,0.005194,0.003172,0.001537,0.000193,0.000596,-0.001358,0.004711,-0.506263,-0.000256,0.831666,-257.835355,0.987931,72.047667
13.9168,0.004843,0.003147,0.000607,0.000271,0.000511,-0.000883,0.005977,-0.506827,0.001537,0.906974,-257.835355,1.063239,72.047667
13.9368,0.004939,0.003266,0.000593,0.000232,0.000562,-0.001035,0.005216,-0.506851,0.000679,0.906974,-257.835355,1.063239,72.047667
13.9566,0.00508,0.00371,0.000314,0.000202,0.000602,-0.001145,0.005216,-0.506851,0.000679,0.906974,-257.835355,1.063239,72.047667
13.9767,0.005028,0.003253,-0.001265,0.000178,0.000633,-0.001225,0.00524,-0.50629,0.000314,0.832029,-257.835355,1.138185,72.047667
13.9969,0.004993,0.003656,4e-05,0.000227,0.000579,-0.000749,0.004888,-0.506478,-0.000335,0.832029,-257.835355,1.138185,72.047667
14.0169,0.005041,0.003648,0.001263,0.000263,0.000538,-0.000403,0.005013,-0.506344,4e-05,0.757322,-257.835355,1.212891,72.047667
14.0368,0.004845,0.003342,0.001166,0.000227,0.000555,-0.000931,0.005629,-0.506351,0.00116,0.757322,-257.835355,1.212891,72.047667
14.0567,0.005189,0.003658,0.000534,0.0002,0.000568,-0.001312,0.005629,-0.506351,0.00116,0.757322,-257.835355,1.212891,72.047667
14.077,0.004888,0.003785,0.000627,0.000178,0.000577,-0.001586,0.005471,-0.506322,0.000519,0.832374,-257.835216,1.246656,72.047961
14.0966,0.005562,0.003688,3.6e-05,0.000192,0.000553,-0.001473,0.005364,-0.506276,0.000561,0.832374,-257.835216,1.246656,72.047961
14.1163,0.0045,0.003226,0.001616,0.000202,0.000533,-0.001393,0.00558,-0.506312,3.6e-05,0.757413,-257.835216,1.321616,72.047961
14.1365,0.005158,0.003826,0.000379,0.000171,0.000573,-0.001803,0.005347,-0.506732,0.001476,0.757413,-257.835216,1.321616,72.047961
14.1569,0.004897,0.003564,-0.000608,0.000148,0.000605,-0.002098,0.005347,-0.506732,0.001476,0.757413,-257.835216,1.321616,72.047961
14.1766,0.004836,0.003492,0.002259,0.000132,0.000629,-0.00231,0.004586,-0.506436,-0.000608,0.68251,-257.835216,1.39652,72.047961
14.1966,0.005071,0.00353,0.000897,0.000161,0.000596,-0.001996,0.005159,-0.506465,0.000563,0.68251,-257.835216,1.39652,72.047961
14.2165,0.005115,0.003566,4.8e-05,0.000183,0.000571,-0.001771,0.005529,-0.50647,0.000897,0.757508,-257.835216,1.471519,72.047961
14.2367,0.005125,0.003829,-0.001164,0.000205,0.000545,-0.001376,0.005175,-0.506437,0.000124,0.757508,-257.835216,1.471519,72.047961
14.2569,0.004999,0.003641,-0.001402,0.000221,0.000527,-0.00109,0.005175,-0.506437,0.000124,0.757508,-257.835216,1.471519,72.047961
14.2767,0.005304,0.003406,0.001861,0.000232,0.000513,-0.000883,0.004284,-0.506358,-0.001402,0.682505,-257.835216,1.460535,72.047961
14.2967,0.005192,0.003737,-0.000646,0.000248,0.000497,-0.000633,0.00509,-0.506454,-6.7e-05,0.682505,-257.835216,1.460535,72.047961
14.3168,0.004963,0.00358,0.001231,0.00026,0.000485,-0.000453,0.004862,-0.506263,-0.000646,0.607505,-257.835216,1.385535,72.047961
14.3367,0.004846,0.003411,-1.3e-05,0.000228,0.000509,-0.000917,0.005525,-0.506405,0.001061,0.607505,-257.835216,1.385535,72.047961
14.3566,0.004947,0.003577,-0.000599,0.000203,0.000528,-0.001251,0.005525,-0.506405,0.001061,0.607505,-257.835216,1.385535,72.047961
14.3764,0.005132,0.003512,1e-06,0.000184,0.000542,-0.001492,0.004648,-0.506409,-0.000612,0.676,-257.835127,1.310544,72.048176
14.3966,0.004994,0.003711,-0.000617,0.000238,0.000495,-0.000929,0.004848,-0.50644,-0.000361,0.676,-257.835127,1.310544,72.048176
14.4165,0.00491,0.003844,-0.000717,0.000278,0.00046,-0.000519,0.004679,-0.506289,-0.000617,0.600898,-257.835127,1.385646,72.048176
14.4365,0.005096,0.003721,0.000613,0.000363,0.000378,-5.1e-05,0.004556,-0.506168,-0.000708,0.600898,-257.835127,1.385646,72.048176
14.4566,0.004977,0.003502,8.6e-05,0.000428,0.000316,0.00029,0.004556,-0.506168,-0.000708,0.600898,-257.835127,1.385646,72.048176
14.4766,0.005294,0.004081,0.000157,0.000478,0.000268,0.00054,0.005026,-0.506487,7.5e-05,0.525886,-257.835062,1.310633,72.048347
14.4967,0.004709,0.003597,-0.00049,0.000444,0.000294,0.000301,0.005169,-0.506254,0.000107,0.525886,-257.835062,1.310633,72.048347
14.5164,0.005204,0.003658,-0.001853,0.000417,0.000314,0.000129,0.004459,-0.506403,-0.00049,0.600875,-257.835062,1.235643,72.048347
14.5369,0.004953,0.00374,0.000228,0.000499,0.000255,0.00084,0.004274,-0.506346,-0.00175,0.600875,-257.835062,1.235643,72.048347
14.5569,0.00506,0.003788,0.001553,0.000561,0.000212,0.001369,0.004274,-0.506346,-0.00175,0.600875,-257.835062,1.235643,72.048347
14.5765,0.005017,0.003562,0.000281,0.000608,0.000181,0.00176,0.005852,-0.506211,0.001553,0.676275,-257.835062,1.160243,72.048347
14.5968,0.005093,0.003649,-0.001191,0.000504,0.000266,0.000683,0.005568,-0.506304,0.00103,0.676275,-257.835062,1.160243,72.048347
14.6164,0.005268,0.003541,-0.000792,0.000425,0.000333,-9.2e-05,0.004486,-0.50635,-0.001191,0.750916,-257.835062,1.085602,72.048347
14.6367,0.004883,0.003515,-0.001171,0.000431,0.000336,0.000308,0.00483,-0.506449,-0.000828,0.750916,-257.835062,1.085602,72.048347
14.6567,0.004988,0.003349,0.000496,0.000434,0.00034,0.000601,0.00483,-0.506449,-0.000828,0.750916,-257.835062,1.085602,72.048347
14.677,0.005292,0.003377,0.000405,0.000435,0.000344,0.000816,0.005242,-0.506649,0.000495,0.676049,-257.835044,1.010735,72.048368
14.6968,0.005089,0.003676,-0.002234,0.000364,0.000417,0.0003,0.005346,-0.506638,0.000459,0.676049,-257.835044,1.010735,72.048368
14.7167,0.004699,0.003695,-0.000143,0.000308,0.000474,-7e-05,0.00395,-0.506323,-0.002234,0.751047,-257.835044,0.935737,72.048368
14.7366,0.004938,0.003804,0.000658,0.000368,0.000413,9e-05,0.004561,-0.506307,-0.000342,0.751047,-257.835044,0.935737,72.048368
14.7566,0.00491,0.003647,-0.00067,0.000414,0.000365,0.000206,0.004561,-0.506307,-0.000342,0.751047,-257.835044,0.935737,72.048368
14.7764,0.005017,0.003591,-0.000386,0.00045,0.000328,0.000291,0.004575,-0.506345,-0.000672,0.82603,-257.834948,1.01072,72.048477
14.7964,0.005193,0.003428,5.1e-05,0.000465,0.000314,0.000461,0.004676,-0.50637,-0.000555,0.82603,-257.834948,1.01072,72.048477
14.8163,0.004852,0.003624,-0.000396,0.000477,0.000304,0.000585,0.005219,-0.506572,5.1e-05,0.843188,-257.834948,0.935624,72.048477
14.8368,0.004811,0.003579,0.000575,0.000479,0.000302,0.000574,0.0047,-0.506393,-0.000357,0.843188,-257.834948,0.935624,72.048477
14.8565,0.005243,0.003628,0.000336,0.00048,0.0003,0.000566,0.0047,-0.506393,-0.000357,0.843188,-257.834948,0.935624,72.048477
14.8768,0.004939,0.003638,0.000609,0.000481,0.000299,0.00056,0.005415,-0.506372,0.000336,0.918193,-257.834948,0.86062,72.048477
14.8966,0.005128,0.003626,0.000881,0.00042,0.000349,0.000128,0.005348,-0.506368,0.000447,0.918193,-257.834948,0.86062,72.048477
14.9164,0.004994,0.003751,-0.000993,0.000372,0.000389,-0.000183,0.005577,-0.506373,0.000881,0.927187,-257.834948,0.785705,72.048477
14.9365,0.005165,0.003682,0.000272,0.000427,0.000338,0.000246,0.004581,-0.50626,-0.000832,0.927187,-257.834948,0.785705,72.048477
14.9569,0.004774,0.003321,0.000922,0.000468,0.0003,0.000561,0.004581,-0.50626,-0.000832,0.927187,-257.834948,0.785705,72.048477
14.977,0.004747,0.003657,0.000331,0.0005,0.00027,0.000791,0.005247,-0.506675,0.000922,0.852012,-257.834913,0.86088,72.048523
14.9971,0.00498,0.003409,0.000828,0.000438,0.00033,0.000164,0.005113,-0.50654,0.000681,0.852012,-257.834913,0.86088,72.048523
15.0163,0.005157,0.003447,0.000683,0.00039,0.000376,-0.000287,0.005403,-0.506591,0.000828,0.926833,-257.834913,0.78606,72.048523
15.0368,0.0046,0.003612,0.000239,0.000325,0.000443,-0.000616,0.005496,-0.506556,0.000695,0.926833,-257.834913,0.78606,72.048523
15.0567,0.005169,0.003264,-0.000637,0.000273,0.000494,-0.000853,0.005496,-0.506556,0.000695,0.926833,-257.834913,0.78606,72.048523
15.077,0.004646,0.003772,-0.000887,0.000233,0.000534,-0.001024,0.004844,-0.506736,-0.000637,0.851665,-257.83491,0.861227,72.048529
15.0968,0.004939,0.003567,-0.001166,0.000298,0.00048,-0.000416,0.00458,-0.506529,-0.000739,0.851665,-257.83491,0.861227,72.048529
15.1163,0.005268,0.003501,-0.000652,0.000348,0.000441,2.9e-05,0.004345,-0.506432,-0.001166,0.776694,-257.83491,0.936198,72.048529
15.1368,0.005407,0.003566,-0.00018,0.00036,0.000432,0.000338,0.004885,-0.506493,-0.000696,0.776694,-257.83491,0.936198,72.048529
15.1566,0.005136,0.003323,0.000897,0.000368,0.000426,0.000564,0.004885,-0.506493,-0.000696,0.776694,-257.83491,0.936198,72.048529
