mach0312/omni-docking-bench/src/icros_test_setup/results/MPPI_sample/timeseries/trial_102.csv
t,x,y,yaw,vx,vy,wz,bl_x,bl_y,bl_yaw,front_steering_joint,front_wheel_joint,rear_steering_joint,rear_wheel_joint
0.0,-0.040889,0.019372,0.0308,-0.004371,0.004901,0.006396,-0.023629,-0.492123,0.030047,-1.110091,-263.673795,-0.223564,68.389911
0.0004,-0.040798,0.01947,0.030566,-0.003595,0.00403,0.005261,-0.024505,-0.491912,0.029115,-1.110091,-263.678985,-0.223564,68.387545
0.0006,-0.041136,0.01972,0.032113,-0.002763,0.003098,0.004043,-0.024505,-0.491912,0.029115,-1.110091,-263.682918,-0.223564,68.385752
0.0009,-0.041437,0.019373,0.032567,-0.00189,0.002119,0.002766,-0.024505,-0.491912,0.029115,-1.110091,-263.684618,-0.223564,68.384977
0.0012,-0.041329,0.019373,0.030513,-0.00097,0.001087,0.001419,-0.023912,-0.491291,0.030491,-1.110091,-263.684623,-0.223564,68.384975
0.0015,-0.041699,0.01926,0.031802,-5e-06,5e-06,7e-06,-0.023957,-0.491199,0.030748,-1.110091,-263.684623,-0.223564,68.384975
0.0017,-0.041689,0.01965,0.029251,0.0,0.0,0.0,-0.023957,-0.491199,0.030748,-1.110091,-263.684623,-0.223564,68.384975
0.002,-0.041489,0.01958,0.031934,0.0,0.0,0.0,-0.024895,-0.490688,0.029808,-1.110091,-263.684623,-0.223564,68.384975
0.0178,-0.041528,0.019712,0.030976,0.0,0.0,0.0,-0.025353,-0.490157,0.031681,-1.110091,-263.684623,-0.223564,68.384975
0.038,-0.041677,0.01948,0.031811,0.0,0.0,0.0,-0.025353,-0.490157,0.031681,-1.110091,-263.684623,-0.223564,68.384975
0.058,-0.041463,0.019408,0.03237,0.0,0.0,0.0,-0.025456,-0.490262,0.031811,-1.110091,-263.684623,-0.223564,68.384975
0.0779,-0.041396,0.019632,0.031204,0.0,0.0,0.0,-0.025253,-0.490287,0.032038,-1.110091,-263.684623,-0.223564,68.384975
0.0977,-0.04126,0.019666,0.032521,0.0,0.0,0.0,-0.025484,-0.49012,0.031204,-1.110091,-263.684623,-0.223564,68.384975
0.1178,-0.041292,0.019231,0.03389,0.001555,-0.001583,-0.007619,-0.024748,-0.490069,0.032407,-1.110091,-263.684623,-0.223564,68.384975
0.1379,-0.041561,0.019721,0.033291,0.001692,-0.001728,-0.008156,-0.024748,-0.490069,0.032407,-1.110091,-263.684623,-0.223564,68.384975
0.1576,-0.041507,0.019314,0.031454,0.001809,-0.001849,-0.008561,-0.024586,-0.489996,0.033291,-1.110091,-263.684623,-0.223564,68.384975
0.1779,-0.040911,0.019492,0.032285,0.001915,-0.001945,-0.008969,-0.024951,-0.490177,0.03253,-1.110091,-263.684623,-0.223564,68.384975
0.1979,-0.041588,0.019632,0.031457,0.002005,-0.002024,-0.009279,-0.024448,-0.490242,0.032285,-1.185112,-263.684623,-0.148543,68.384975
0.2181,-0.041384,0.019821,0.033373,0.002089,-0.002081,-0.009611,-0.02545,-0.490127,0.03153,-1.185112,-263.684623,-0.148543,68.384975
0.2379,-0.041562,0.019556,0.032916,0.002162,-0.002128,-0.009865,-0.02545,-0.490127,0.03153,-1.185112,-263.684623,-0.148543,68.384975
0.2578,-0.041592,0.019682,0.031137,0.002224,-0.002167,-0.01006,-0.024778,-0.490168,0.032916,-1.260026,-263.684622,-0.073629,68.384975
0.278,-0.04136,0.019417,0.03196,0.002274,-0.002203,-0.010287,-0.025159,-0.490128,0.032191,-1.260026,-263.684622,-0.073629,68.384975
0.2979,-0.041365,0.019478,0.031906,0.002317,-0.002233,-0.010463,-0.025064,-0.490323,0.03196,-1.309323,-263.684622,0.001373,68.384975
0.3179,-0.041501,0.019759,0.030316,0.002355,-0.002255,-0.010664,-0.025093,-0.490267,0.03191,-1.309323,-263.684622,0.001373,68.384975
0.3377,-0.041808,0.01956,0.030707,0.002388,-0.002273,-0.010822,-0.025093,-0.490267,0.03191,-1.309323,-263.684622,0.001373,68.384975
0.3578,-0.041564,0.019547,0.032565,0.002417,-0.002287,-0.010946,-0.02615,-0.4902,0.030707,-1.308304,-263.684622,0.076362,68.384975
0.3779,-0.041386,0.019611,0.031354,0.002447,-0.00229,-0.011135,-0.025664,-0.490193,0.031465,-1.308304,-263.684622,0.076362,68.384975
0.3978,-0.041663,0.019611,0.032151,0.002474,-0.002293,-0.011286,-0.025398,-0.490138,0.031354,-1.307688,-263.684621,0.151353,68.384976
0.418,-0.04147,0.019097,0.03108,0.00249,-0.002302,-0.011404,-0.02528,-0.490127,0.032081,-1.307688,-263.684621,0.151353,68.384976
0.4379,-0.041319,0.019756,0.031298,0.002504,-0.00231,-0.011498,-0.02528,-0.490127,0.032081,-1.307688,-263.684621,0.151353,68.384976
0.4582,-0.041231,0.019638,0.031646,0.002516,-0.002316,-0.011572,-0.02536,-0.489994,0.031298,-1.307758,-263.684621,0.226366,68.384976
0.478,-0.041522,0.020055,0.032139,0.002526,-0.002322,-0.011631,-0.025253,-0.490039,0.031438,-1.307758,-263.684621,0.226366,68.384976
0.4975,-0.041487,0.019489,0.030988,0.002534,-0.002327,-0.011678,-0.025134,-0.489681,0.032139,-1.308795,-263.68462,0.301312,68.384976
0.518,-0.041281,0.019704,0.030744,0.002548,-0.002322,-0.011719,-0.025636,-0.490214,0.031091,-1.308795,-263.68462,0.301312,68.384976
0.5379,-0.04149,0.019715,0.031604,0.00256,-0.002316,-0.01175,-0.025636,-0.490214,0.031091,-1.308795,-263.68462,0.301312,68.384976
0.5582,-0.041807,0.019619,0.030663,0.00257,-0.002312,-0.011775,-0.025375,-0.49003,0.031604,-1.30911,-263.68462,0.376368,68.384976
0.578,-0.041425,0.019791,0.032132,0.002578,-0.00231,-0.011794,-0.0257,-0.490076,0.03122,-1.30911,-263.68462,0.376368,68.384976
0.5975,-0.041709,0.019493,0.031587,0.002584,-0.002309,-0.011809,-0.02504,-0.489946,0.032132,-1.306656,-263.684619,0.451307,68.384977
0.618,-0.041437,0.019838,0.031773,0.00259,-0.002307,-0.01182,-0.025554,-0.490226,0.031634,-1.306656,-263.684619,0.451307,68.384977
0.6379,-0.041829,0.019397,0.031136,0.002595,-0.002305,-0.011829,-0.025554,-0.490226,0.031634,-1.306656,-263.684619,0.451307,68.384977
0.6583,-0.041851,0.019621,0.03209,0.002599,-0.002303,-0.011836,-0.025952,-0.490356,0.031136,-1.305763,-263.684615,0.526436,68.384979
0.6781,-0.041741,0.019497,0.032819,0.002605,-0.002298,-0.011843,-0.025763,-0.490258,0.031525,-1.305763,-263.684615,0.526436,68.384979
0.6975,-0.041612,0.019638,0.0309,0.00261,-0.002293,-0.011848,-0.025006,-0.490229,0.032818,-1.304654,-263.684594,0.601438,68.384991
0.7181,-0.041664,0.019982,0.032508,0.002614,-0.002291,-0.011851,-0.025779,-0.490129,0.031073,-1.304654,-263.684594,0.601438,68.384991
0.7378,-0.041491,0.019902,0.032451,0.002616,-0.00229,-0.011853,-0.025779,-0.490129,0.031073,-1.304654,-263.684594,0.601438,68.384991
0.7582,-0.04133,0.019258,0.031163,0.002619,-0.002288,-0.011855,-0.024941,-0.489832,0.032442,-1.303412,-263.684514,0.676313,68.385036
0.7778,-0.041221,0.019729,0.032491,0.002612,-0.002298,-0.011852,-0.025145,-0.490104,0.031916,-1.303412,-263.684514,0.676313,68.385036
0.7975,-0.041447,0.01996,0.031456,0.002606,-0.002306,-0.011851,-0.024646,-0.490007,0.032469,-1.302604,-263.684259,0.751414,68.385181
0.8181,-0.041395,0.019783,0.032596,0.0026,-0.002316,-0.01185,-0.025339,-0.489808,0.031546,-1.302604,-263.684259,0.751414,68.385181
0.8381,-0.042016,0.019417,0.031856,0.002594,-0.002323,-0.011849,-0.025339,-0.489808,0.031546,-1.302604,-263.684259,0.751414,68.385181
0.8583,-0.041475,0.019721,0.031772,0.00259,-0.002329,-0.011848,-0.02575,-0.490342,0.031779,-1.304209,-263.683611,0.826323,68.385546
0.878,-0.041356,0.01984,0.030477,0.002594,-0.002323,-0.011852,-0.025555,-0.490215,0.031767,-1.304209,-263.683611,0.826323,68.385546
0.8975,-0.041162,0.019138,0.032246,0.002598,-0.002318,-0.011854,-0.025782,-0.48995,0.030354,-1.306416,-263.682272,0.901443,68.386296
0.9177,-0.041298,0.019393,0.031545,0.002597,-0.002319,-0.011854,-0.024811,-0.490542,0.032076,-1.306416,-263.682272,0.901443,68.386296
0.9379,-0.041251,0.019136,0.032388,0.002596,-0.00232,-0.011854,-0.024811,-0.490542,0.032076,-1.306416,-263.682272,0.901443,68.386296
0.9584,-0.040973,0.019557,0.031491,0.002596,-0.002321,-0.011854,-0.024665,-0.490655,0.032106,-1.305385,-263.679972,0.976431,68.387588
0.9781,-0.041057,0.019575,0.030858,0.002593,-0.002324,-0.01192,-0.024758,-0.490472,0.031824,-1.305385,-263.679972,0.976431,68.387588
0.9977,-0.040819,0.019829,0.029991,0.002592,-0.002326,-0.011973,-0.025249,-0.490242,0.030547,-1.305705,-263.676695,1.051342,68.389428
1.018,-0.040551,0.019139,0.032218,0.002593,-0.002325,-0.012064,-0.025497,-0.489972,0.030025,-1.305705,-263.676695,1.051342,68.389428
1.0379,-0.041257,0.019569,0.031494,0.002594,-0.002323,-0.012137,-0.025497,-0.489972,0.030025,-1.305705,-263.676695,1.051342,68.389428
1.0577,-0.040423,0.019443,0.029345,0.002595,-0.002323,-0.012197,-0.025089,-0.49027,0.031006,-1.30813,-263.672797,1.091519,68.391622
1.0776,-0.04029,0.019193,0.029217,0.002597,-0.00232,-0.012297,-0.025228,-0.490308,0.030269,-1.30813,-263.672797,1.091519,68.391622
1.0977,-0.039888,0.019209,0.030356,0.002599,-0.002317,-0.012378,-0.025307,-0.49066,0.02883,-1.311265,-263.668763,1.102271,68.393915
1.118,-0.039567,0.018989,0.029496,0.002596,-0.002323,-0.012491,-0.024482,-0.490569,0.030206,-1.311265,-263.668763,1.102271,68.393915
1.1376,-0.039918,0.018855,0.029273,0.002593,-0.002327,-0.012583,-0.024482,-0.490569,0.030206,-1.311265,-263.668763,1.102271,68.393915
1.1579,-0.039552,0.019278,0.029707,0.00259,-0.002331,-0.012659,-0.02488,-0.49102,0.028757,-1.313454,-263.664688,1.110513,68.39625
1.1777,-0.039019,0.019126,0.029494,0.002596,-0.002324,-0.012771,-0.024673,-0.490819,0.029083,-1.313454,-263.664688,1.110513,68.39625
1.1976,-0.038668,0.018871,0.027596,0.002601,-0.002319,-0.012862,-0.023895,-0.490723,0.029092,-1.318854,-263.660537,1.123563,68.398643
1.2181,-0.039145,0.019073,0.030301,0.002607,-0.002313,-0.012978,-0.024533,-0.49092,0.027702,-1.318854,-263.660537,1.123563,68.398643
1.2381,-0.038639,0.019183,0.028492,0.002611,-0.002308,-0.013074,-0.024533,-0.49092,0.027702,-1.318854,-263.660537,1.123563,68.398643
1.2577,-0.03841,0.018538,0.027586,0.002616,-0.002304,-0.013152,-0.023999,-0.490704,0.027956,-1.320478,-263.656349,1.131601,68.401082
1.2777,-0.038431,0.018893,0.028825,0.002615,-0.002307,-0.013253,-0.024126,-0.490945,0.027743,-1.320478,-263.656349,1.131601,68.401082
1.2977,-0.037623,0.018502,0.027809,0.002614,-0.00231,-0.013337,-0.023647,-0.490966,0.028406,-1.32297,-263.652093,1.142462,68.403596
1.3179,-0.037709,0.01843,0.028452,0.00261,-0.002317,-0.01344,-0.023456,-0.491274,0.027842,-1.32297,-263.652093,1.142462,68.403596
1.3377,-0.038248,0.01876,0.026392,0.002607,-0.002322,-0.013525,-0.023456,-0.491274,0.027842,-1.32297,-263.652093,1.142462,68.403596
1.3577,-0.037294,0.018672,0.027069,0.002605,-0.002327,-0.013596,-0.024678,-0.491156,0.025834,-1.325815,-263.647781,1.149645,68.406154
1.378,-0.037343,0.018953,0.025741,0.002611,-0.00232,-0.013691,-0.024178,-0.491161,0.026277,-1.325815,-263.647781,1.149645,68.406154
1.3981,-0.036486,0.018713,0.025966,0.002617,-0.002314,-0.013769,-0.024132,-0.49095,0.025309,-1.330533,-263.643412,1.159848,68.408756
1.4178,-0.036867,0.018517,0.024932,0.00261,-0.002324,-0.013855,-0.023319,-0.491105,0.025887,-1.330533,-263.643412,1.159848,68.408756
1.438,-0.037003,0.018448,0.027074,0.002604,-0.002333,-0.013927,-0.023319,-0.491105,0.025887,-1.330533,-263.643412,1.159848,68.408756
1.4581,-0.036694,0.018531,0.025084,0.0026,-0.00234,-0.013987,-0.023086,-0.491459,0.026499,-1.331428,-263.638997,1.165277,68.41141
1.4778,-0.036638,0.018523,0.025368,0.002602,-0.002338,-0.014059,-0.023411,-0.491407,0.025847,-1.331428,-263.638997,1.165277,68.41141
1.498,-0.036005,0.018578,0.024733,0.002605,-0.002336,-0.014118,-0.023618,-0.491385,0.024925,-1.336295,-263.634529,1.173878,68.414095
1.518,-0.035803,0.018655,0.023648,0.002605,-0.002337,-0.014177,-0.023408,-0.49128,0.024727,-1.336295,-263.634529,1.173878,68.414095
1.538,-0.035866,0.018417,0.023919,0.002606,-0.002337,-0.014226,-0.023408,-0.49128,0.024727,-1.336295,-263.634529,1.173878,68.414095
1.5579,-0.035395,0.018401,0.023103,0.002606,-0.002337,-0.014267,-0.023558,-0.491532,0.02333,-1.337458,-263.63002,1.177993,68.416819
1.5781,-0.035708,0.018224,0.024126,0.002614,-0.002329,-0.01431,-0.023568,-0.491515,0.023167,-1.337458,-263.63002,1.177993,68.416819
1.5977,-0.034956,0.017939,0.022772,0.00262,-0.002321,-0.014345,-0.02332,-0.4917,0.023673,-1.33919,-263.625487,1.182767,68.419569
1.6182,-0.035244,0.018225,0.022178,0.002629,-0.00231,-0.014381,-0.023337,-0.491913,0.022828,-1.33919,-263.625487,1.182767,68.419569
1.6376,-0.035116,0.018318,0.024257,0.002637,-0.002301,-0.01441,-0.023337,-0.491913,0.022828,-1.33919,-263.625487,1.182767,68.419569
1.6575,-0.034752,0.017547,0.023269,0.002644,-0.002293,-0.014434,-0.022634,-0.491626,0.023657,-1.338638,-263.620926,1.184407,68.422354
1.6778,-0.03464,0.017715,0.020565,0.002641,-0.002297,-0.014454,-0.022725,-0.491921,0.023427,-1.338638,-263.620926,1.184407,68.422354
1.6976,-0.034213,0.017869,0.020907,0.002639,-0.002301,-0.014472,-0.024066,-0.492249,0.020103,-1.337129,-263.616362,1.185687,68.425167
1.7176,-0.033789,0.017886,0.021727,0.002652,-0.002284,-0.014498,-0.023592,-0.492043,0.020816,-1.337129,-263.616362,1.185687,68.425167
1.7376,-0.033973,0.018063,0.02091,0.002664,-0.00227,-0.014518,-0.023592,-0.492043,0.020816,-1.337129,-263.616362,1.185687,68.425167
1.7576,-0.033345,0.018135,0.020258,0.002673,-0.002259,-0.014535,-0.023197,-0.491919,0.020305,-1.338174,-263.611784,1.187092,68.427986
1.778,-0.033448,0.017433,0.019777,0.002672,-0.002261,-0.014548,-0.023109,-0.491865,0.020216,-1.338174,-263.611784,1.187092,68.427986
1.7979,-0.033039,0.017834,0.020803,0.002672,-0.002263,-0.01456,-0.023276,-0.492537,0.019315,-1.335205,-263.607204,1.186935,68.430841
1.8178,-0.032982,0.017558,0.01936,0.002667,-0.002271,-0.014571,-0.022499,-0.4921,0.020654,-1.335205,-263.607204,1.186935,68.430841
1.8379,-0.03288,0.017932,0.019837,0.002663,-0.002277,-0.01458,-0.022499,-0.4921,0.020654,-1.335205,-263.607204,1.186935,68.430841
1.8579,-0.032529,0.017713,0.018724,0.002659,-0.002282,-0.014589,-0.022651,-0.49206,0.019228,-1.33571,-263.602602,1.187678,68.433708
1.8781,-0.032703,0.017439,0.020947,0.002662,-0.002279,-0.014602,-0.022776,-0.492128,0.018946,-1.33571,-263.602602,1.187678,68.433708
1.8979,-0.031703,0.017588,0.018309,0.002663,-0.002277,-0.014612,-0.021936,-0.49252,0.020485,-1.337508,-263.598015,1.189232,68.436556
1.9179,-0.032302,0.017841,0.018451,0.002663,-0.002278,-0.014622,-0.022325,-0.492346,0.018472,-1.337508,-263.598015,1.189232,68.436556
1.9377,-0.032134,0.01749,0.018303,0.002662,-0.002279,-0.014631,-0.022325,-0.492346,0.018472,-1.337508,-263.598015,1.189232,68.436556
1.9579,-0.031376,0.017466,0.017514,0.002661,-0.002279,-0.014638,-0.022687,-0.492518,0.017694,-1.337357,-263.593408,1.189719,68.439422
1.9776,-0.031591,0.017248,0.017234,0.002667,-0.002271,-0.014649,-0.022573,-0.492503,0.017548,-1.337357,-263.593408,1.189719,68.439422
1.9976,-0.031221,0.017466,0.017855,0.002671,-0.002264,-0.014657,-0.022717,-0.492747,0.016769,-1.337891,-263.588797,1.190692,68.44229
2.0177,-0.030786,0.017243,0.016278,0.002669,-0.002266,-0.014663,-0.022162,-0.492481,0.017741,-1.337891,-263.588797,1.190692,68.44229
2.0377,-0.031116,0.017301,0.016948,0.002667,-0.002268,-0.014668,-0.022162,-0.492481,0.017741,-1.337891,-263.588797,1.190692,68.44229
2.0579,-0.030679,0.017173,0.016484,0.002666,-0.00227,-0.014673,-0.02236,-0.492718,0.016336,-1.336986,-263.584192,1.190808,68.445167
2.0776,-0.030537,0.017328,0.017034,0.00267,-0.002261,-0.014678,-0.022311,-0.492745,0.016326,-1.336986,-263.584192,1.190808,68.445167
2.0975,-0.030311,0.017081,0.015579,0.002674,-0.002254,-0.014682,-0.021764,-0.492669,0.016567,-1.337752,-263.579569,1.191665,68.448051
2.1178,-0.029886,0.017359,0.014945,0.002678,-0.002246,-0.014684,-0.022311,-0.492845,0.015641,-1.337752,-263.579569,1.191665,68.448051
2.1381,-0.029676,0.017194,0.016754,0.002682,-0.002239,-0.014684,-0.022311,-0.492845,0.015641,-1.337752,-263.579569,1.191665,68.448051
2.1578,-0.029468,0.01711,0.015571,0.002685,-0.002233,-0.014684,-0.021019,-0.492827,0.016141,-1.336885,-263.574954,1.191755,68.450942
2.1778,-0.029093,0.016792,0.013808,0.002672,-0.002249,-0.014679,-0.021213,-0.492838,0.015836,-1.336885,-263.574954,1.191755,68.450942
2.198,-0.029037,0.017064,0.013031,0.002661,-0.002262,-0.014676,-0.021965,-0.493229,0.013342,-1.335542,-263.570353,1.191489,68.453838
2.2181,-0.029078,0.016738,0.013712,0.002667,-0.00225,-0.014626,-0.022349,-0.492926,0.013035,-1.335542,-263.570353,1.191489,68.453838
2.238,-0.028837,0.016846,0.013172,0.002673,-0.00224,-0.014586,-0.022349,-0.492926,0.013035,-1.335542,-263.570353,1.191489,68.453838
2.2581,-0.028188,0.016761,0.013003,0.002677,-0.002232,-0.014554,-0.022007,-0.493203,0.012558,-1.338056,-263.565739,1.192814,68.456722
2.2782,-0.028083,0.016787,0.015225,0.002678,-0.002228,-0.01451,-0.02181,-0.49321,0.01267,-1.338056,-263.565739,1.192814,68.456722
2.2984,-0.02806,0.016829,0.011877,0.002678,-0.002225,-0.014475,-0.020233,-0.493224,0.014762,-1.334546,-263.561166,1.18844,68.45959
2.318,-0.027851,0.016779,0.012198,0.002676,-0.002223,-0.014417,-0.021836,-0.493147,0.012117,-1.334546,-263.561166,1.18844,68.45959
2.338,-0.028032,0.016987,0.011219,0.002674,-0.002222,-0.014371,-0.021836,-0.493147,0.012117,-1.334546,-263.561166,1.18844,68.45959
2.3578,-0.027553,0.01663,0.011776,0.002673,-0.002221,-0.014335,-0.022198,-0.493073,0.010612,-1.333373,-263.556613,1.186203,68.462445
2.3779,-0.027331,0.016545,0.011624,0.002672,-0.002216,-0.014226,-0.021921,-0.49319,0.011016,-1.333373,-263.556613,1.186203,68.462445
2.3977,-0.026924,0.01667,0.010917,0.002672,-0.002212,-0.014141,-0.021317,-0.493491,0.011168,-1.331925,-263.552094,1.182478,68.465268
2.4177,-0.026987,0.016644,0.010303,0.002665,-0.002216,-0.014064,-0.021348,-0.493322,0.010916,-1.331925,-263.552094,1.182478,68.465268
2.4376,-0.027046,0.016224,0.010901,0.00266,-0.00222,-0.014005,-0.021348,-0.493322,0.010916,-1.331925,-263.552094,1.182478,68.465268
2.4581,-0.025819,0.016254,0.010275,0.002655,-0.002224,-0.013959,-0.021374,-0.493837,0.01031,-1.329319,-263.547628,1.17672,68.46805
2.478,-0.026746,0.016148,0.010659,0.002654,-0.002219,-0.013859,-0.021037,-0.4938,0.010227,-1.329319,-263.547628,1.17672,68.46805
2.4979,-0.025864,0.016224,0.010103,0.002653,-0.002215,-0.013783,-0.021225,-0.493893,0.010214,-1.32864,-263.543201,1.172032,68.470784
2.5181,-0.026063,0.016176,0.010059,0.002647,-0.002219,-0.013708,-0.020757,-0.493768,0.010089,-1.32864,-263.543201,1.172032,68.470784
2.5379,-0.026257,0.016214,0.011293,0.002642,-0.002222,-0.01365,-0.020757,-0.493768,0.010089,-1.32864,-263.543201,1.172032,68.470784
2.558,-0.025576,0.015981,0.010241,0.002638,-0.002225,-0.013607,-0.020385,-0.493845,0.010717,-1.326296,-263.53882,1.166639,68.473481
2.5779,-0.025602,0.016447,0.00809,0.002632,-0.002234,-0.013606,-0.020359,-0.493915,0.010456,-1.326296,-263.53882,1.166639,68.473481
2.5977,-0.025669,0.01616,0.008451,0.002627,-0.00224,-0.013606,-0.021391,-0.493607,0.007656,-1.325431,-263.534478,1.161705,68.476133
2.6179,-0.02526,0.015854,0.006942,0.002636,-0.002216,-0.013231,-0.021238,-0.493905,0.007737,-1.325431,-263.534478,1.161705,68.476133
2.6384,-0.024901,0.015927,0.008853,0.002642,-0.002197,-0.01296,-0.021238,-0.493905,0.007737,-1.325431,-263.534478,1.161705,68.476133
2.658,-0.024621,0.016495,0.007151,0.002645,-0.002184,-0.012763,-0.020276,-0.494146,0.008282,-1.326726,-263.530123,1.162251,68.478782
2.6779,-0.024628,0.016012,0.008686,0.002638,-0.002187,-0.012617,-0.020549,-0.493889,0.007754,-1.326726,-263.530123,1.162251,68.478782
2.6974,-0.024621,0.015891,0.007949,0.002631,-0.002191,-0.012511,-0.020115,-0.494036,0.008288,-1.311664,-263.526075,1.130281,68.481214
2.7181,-0.023756,0.015853,0.005937,0.002628,-0.002191,-0.012465,-0.020524,-0.494091,0.007958,-1.311664,-263.526075,1.130281,68.481214
2.7379,-0.024145,0.016003,0.006241,0.002626,-0.002191,-0.012432,-0.020524,-0.494091,0.007958,-1.311664,-263.526075,1.130281,68.481214
2.7583,-0.023327,0.015557,0.007313,0.002624,-0.002191,-0.012406,-0.020851,-0.494078,0.005719,-1.309351,-263.522016,1.121092,68.483628
2.778,-0.023521,0.015752,0.006096,0.002627,-0.002182,-0.012054,-0.020329,-0.494231,0.006307,-1.309351,-263.522016,1.121092,68.483628
2.7978,-0.023173,0.015944,0.005754,0.002629,-0.002176,-0.011805,-0.020328,-0.494308,0.005701,-1.308388,-263.517955,1.11752,68.486033
2.818,-0.023038,0.015629,0.005531,0.002629,-0.002175,-0.011479,-0.020241,-0.494072,0.005731,-1.308388,-263.517955,1.11752,68.486033
2.838,-0.023195,0.015627,0.006854,0.002628,-0.002175,-0.011251,-0.020241,-0.494072,0.005731,-1.308388,-263.517955,1.11752,68.486033
2.8576,-0.022097,0.01555,0.00481,0.002625,-0.002176,-0.011093,-0.01959,-0.49445,0.00637,-1.297723,-263.514122,1.089554,68.488267
2.878,-0.022909,0.015429,0.005643,0.002619,-0.002182,-0.010962,-0.0196,-0.494458,0.005672,-1.297723,-263.514122,1.089554,68.488267
2.8978,-0.022454,0.015301,0.003507,0.002614,-0.002187,-0.010871,-0.019949,-0.49463,0.005299,-1.285553,-263.510482,1.052113,68.490333
2.9179,-0.022124,0.015269,0.004944,0.002654,-0.002154,-0.010143,-0.020601,-0.494693,0.003643,-1.285553,-263.510482,1.052113,68.490333
2.9378,-0.022736,0.015405,0.005737,0.002682,-0.002128,-0.009646,-0.020601,-0.494693,0.003643,-1.285553,-263.510482,1.052113,68.490333
2.9582,-0.021954,0.015484,0.003954,0.002703,-0.002109,-0.009307,-0.019701,-0.494677,0.005284,-1.282837,-263.506814,1.039868,68.49239
2.9781,-0.022085,0.015215,0.00439,0.002689,-0.00212,-0.009416,-0.019785,-0.49462,0.004688,-1.282837,-263.506814,1.039868,68.49239
2.9982,-0.02164,0.015239,0.003487,0.002679,-0.002128,-0.009496,-0.01978,-0.494831,0.004157,-1.236949,-263.504242,0.964978,68.493787
3.0183,-0.021394,0.015098,0.003754,0.002689,-0.002124,-0.009161,-0.01985,-0.494767,0.003538,-1.236949,-263.504242,0.964978,68.493787
3.0378,-0.021516,0.014844,0.005252,0.002696,-0.002121,-0.008929,-0.01985,-0.494767,0.003538,-1.236949,-263.504242,0.964978,68.493787
3.0579,-0.021208,0.015085,0.003653,0.0027,-0.002119,-0.008767,-0.018727,-0.495237,0.00486,-1.244987,-263.50093,0.940501,68.495586
3.0776,-0.020705,0.01546,0.00428,0.002684,-0.002132,-0.008912,-0.018969,-0.495112,0.004316,-1.244987,-263.50093,0.940501,68.495586
3.0975,-0.020429,0.014551,0.001503,0.002671,-0.002143,-0.009015,-0.018442,-0.494597,0.004022,-1.224139,-263.497981,0.875444,68.49715
3.1178,-0.020984,0.014785,0.002788,0.002711,-0.002122,-0.007984,-0.019556,-0.49538,0.001702,-1.224139,-263.497981,0.875444,68.49715
3.1378,-0.021053,0.015124,0.001778,0.002739,-0.002105,-0.007267,-0.019556,-0.49538,0.001702,-1.224139,-263.497981,0.875444,68.49715
3.1582,-0.02036,0.014956,0.002463,0.002758,-0.002092,-0.00677,-0.020036,-0.494964,0.001406,-1.234879,-263.494779,0.899587,68.498847
3.1778,-0.021034,0.014594,0.003071,0.002763,-0.002092,-0.006474,-0.019639,-0.495006,0.001798,-1.234879,-263.494779,0.899587,68.498847
3.1979,-0.020608,0.01465,0.003089,0.002766,-0.002093,-0.006268,-0.019444,-0.495421,0.003004,-1.159946,-263.493973,0.824654,68.499254
3.2178,-0.020288,0.014965,0.002159,0.002744,-0.002103,-0.006678,-0.019068,-0.495355,0.003078,-1.159946,-263.493973,0.824654,68.499254
3.2379,-0.020333,0.014983,0.001728,0.002729,-0.002111,-0.00697,-0.019068,-0.495355,0.003078,-1.159946,-263.493973,0.824654,68.499254
3.2582,-0.019791,0.014766,0.003529,0.002717,-0.002117,-0.007178,-0.019417,-0.495041,0.00164,-1.13384,-263.493138,0.749646,68.499671
3.2779,-0.020393,0.014678,0.002422,0.00271,-0.00213,-0.007046,-0.018825,-0.495122,0.002409,-1.13384,-263.493138,0.749646,68.499671
3.2981,-0.0205,0.014974,0.002254,0.002704,-0.002142,-0.006951,-0.019077,-0.495383,0.00221,-1.174875,-263.490521,0.695366,68.500985
3.3178,-0.020138,0.014835,0.001256,0.002706,-0.002142,-0.00681,-0.019324,-0.495058,0.00224,-1.174875,-263.490521,0.695366,68.500985
3.3379,-0.020045,0.014318,0.001811,0.002708,-0.002142,-0.006709,-0.019324,-0.495058,0.00224,-1.174875,-263.490521,0.695366,68.500985
3.3581,-0.019958,0.014764,0.001446,0.002708,-0.002142,-0.006637,-0.01901,-0.495769,0.001526,-1.170335,-263.487798,0.661196,68.50233
3.3782,-0.019567,0.014702,0.001961,0.002725,-0.002131,-0.006205,-0.019083,-0.495561,0.00146,-1.170335,-263.487798,0.661196,68.50233
3.3981,-0.019737,0.014814,0.001179,0.002738,-0.002123,-0.0059,-0.018484,-0.495362,0.001758,-1.158709,-263.485193,0.614494,68.503607
3.4182,-0.019226,0.014584,0.001383,0.002742,-0.002126,-0.005558,-0.019074,-0.495204,0.00122,-1.158709,-263.485193,0.614494,68.503607
3.4379,-0.019246,0.014829,0.00301,0.002744,-0.002128,-0.005315,-0.019074,-0.495204,0.00122,-1.158709,-263.485193,0.614494,68.503607
3.4579,-0.01943,0.01439,0.00161,0.002745,-0.002131,-0.005142,-0.017622,-0.495236,0.002814,-1.124837,-263.483203,0.539524,68.504583
3.4776,-0.01938,0.014448,-0.001079,0.002712,-0.002158,-0.005525,-0.018018,-0.495398,0.002296,-1.124837,-263.483203,0.539524,68.504583
3.4974,-0.01917,0.014739,2.4e-05,0.002687,-0.002179,-0.005797,-0.019883,-0.495587,-0.001174,-1.090801,-263.481875,0.46451,68.505236
3.5177,-0.01857,0.014401,0.00118,0.002717,-0.002164,-0.004781,-0.019217,-0.495291,-8.2e-05,-1.090801,-263.481875,0.46451,68.505236
3.538,-0.019089,0.01436,0.002071,0.002739,-0.002152,-0.004059,-0.019217,-0.495291,-8.2e-05,-1.090801,-263.481875,0.46451,68.505236
3.5579,-0.018925,0.014018,-0.000467,0.002753,-0.002144,-0.003545,-0.017923,-0.495727,0.001835,-1.131649,-263.479415,0.469133,68.506409
3.5777,-0.018689,0.014308,0.00056,0.002749,-0.002142,-0.00369,-0.018417,-0.495842,0.000867,-1.131649,-263.479415,0.469133,68.506409
3.5976,-0.018575,0.014103,-0.000538,0.002745,-0.002141,-0.003791,-0.018402,-0.495693,0.000557,-1.056625,-263.47937,0.394109,68.506433
3.6179,-0.018942,0.014236,3.4e-05,0.002766,-0.002127,-0.00317,-0.01881,-0.49588,-0.000444,-1.056625,-263.47937,0.394109,68.506433
3.6378,-0.018913,0.01424,0.001438,0.00278,-0.002115,-0.002725,-0.01881,-0.49588,-0.000444,-1.056625,-263.47937,0.394109,68.506433
3.6579,-0.018892,0.014584,0.001615,0.002791,-0.002106,-0.002406,-0.018161,-0.495772,0.001408,-1.018717,-263.479026,0.319162,68.506614
3.6776,-0.018959,0.014342,7.9e-05,0.002752,-0.002131,-0.003173,-0.018121,-0.495628,0.001489,-1.018717,-263.479026,0.319162,68.506614
3.698,-0.018629,0.014353,0.001544,0.002723,-0.002151,-0.003723,-0.018918,-0.495658,7.8e-05,-0.943728,-263.479016,0.244174,68.506621
3.7178,-0.018793,0.014295,0.001712,0.002701,-0.002169,-0.004078,-0.017938,-0.495647,0.001412,-0.943728,-263.479016,0.244174,68.506621
3.7377,-0.019001,0.014256,-0.001302,0.002684,-0.002183,-0.004331,-0.017938,-0.495647,0.001412,-0.943728,-263.479016,0.244174,68.506621
3.7578,-0.018885,0.01455,0.000339,0.002672,-0.002194,-0.004511,-0.01961,-0.495784,-0.001383,-1.018618,-263.478012,0.169284,68.507147
3.7779,-0.01871,0.014611,0.000377,0.00271,-0.002167,-0.003548,-0.019236,-0.495651,-0.000687,-1.018618,-263.478012,0.169284,68.507147
3.7977,-0.018636,0.014157,0.001413,0.002739,-0.002145,-0.002861,-0.018439,-0.495454,0.000243,-1.075842,-263.475928,0.206885,68.508159
3.8179,-0.018464,0.014133,0.001548,0.002714,-0.00216,-0.003405,-0.017959,-0.495811,0.001301,-1.075842,-263.475928,0.206885,68.508159
3.8379,-0.018502,0.014272,-0.00032,0.002697,-0.002171,-0.003792,-0.017959,-0.495811,0.001301,-1.075842,-263.475928,0.206885,68.508159
3.8576,-0.018408,0.013905,-0.000155,0.002685,-0.002179,-0.004069,-0.018654,-0.495736,-0.000336,-1.000965,-263.475725,0.132008,68.508277
3.8775,-0.018327,0.013976,0.000385,0.002709,-0.002164,-0.00344,-0.018584,-0.495883,-0.000264,-1.000965,-263.475725,0.132008,68.508277
3.898,-0.017872,0.014423,-0.000366,0.002728,-0.002152,-0.002993,-0.018048,-0.49609,0.000261,-1.048571,-263.47366,0.113497,68.509313
3.918,-0.018372,0.013952,0.000533,0.002728,-0.002162,-0.002644,-0.018053,-0.495632,-0.00031,-1.048571,-263.47366,0.113497,68.509313
3.9375,-0.017939,0.014152,5.1e-05,0.002726,-0.00217,-0.002395,-0.018053,-0.495632,-0.00031,-1.048571,-263.47366,0.113497,68.509313
3.9581,-0.018157,0.013827,-0.000385,0.002724,-0.002178,-0.002217,-0.017869,-0.495878,-2e-06,-0.973566,-263.472926,0.038492,68.509731
3.9781,-0.017913,0.014155,-0.00011,0.002726,-0.002175,-0.002172,-0.018062,-0.496002,-0.000164,-0.973566,-263.472926,0.038492,68.509731
3.9982,-0.018298,0.013947,-0.001136,0.002727,-0.002173,-0.002137,-0.017955,-0.495854,-0.000123,-0.91379,-263.472647,-0.036511,68.509909
4.018,-0.017981,0.013877,-0.000564,0.00275,-0.002151,-0.001673,-0.018788,-0.496034,-0.001039,-0.91379,-263.472647,-0.036511,68.509909
4.0382,-0.018148,0.014176,0.000733,0.002766,-0.002134,-0.001342,-0.018788,-0.496034,-0.001039,-0.91379,-263.472647,-0.036511,68.509909
4.0579,-0.018096,0.014458,0.000886,0.002778,-0.00212,-0.001105,-0.017739,-0.495848,0.0007,-0.905845,-263.472112,-0.111619,68.510256
4.0779,-0.018031,0.013975,-0.002162,0.002737,-0.002151,-0.001869,-0.017697,-0.495727,0.000772,-0.905845,-263.472112,-0.111619,68.510256
4.0977,-0.017719,0.01407,-0.000652,0.002708,-0.002174,-0.002413,-0.019125,-0.496029,-0.002167,-0.830894,-263.471975,-0.186569,68.510365
4.1177,-0.017858,0.013854,0.000201,0.00272,-0.002169,-0.001981,-0.018144,-0.495939,-0.000784,-0.830894,-263.471975,-0.186569,68.510365
4.1378,-0.017812,0.014031,-0.000407,0.002729,-0.002166,-0.001673,-0.018144,-0.495939,-0.000784,-0.830894,-263.471975,-0.186569,68.510365
4.1579,-0.018065,0.013907,7.7e-05,0.002734,-0.002164,-0.001453,-0.017929,-0.49604,-0.000485,-0.905908,-263.470539,-0.253179,68.511249
4.178,-0.01794,0.01389,-0.002551,0.002731,-0.002166,-0.001566,-0.017957,-0.49607,-0.000265,-0.905908,-263.470539,-0.253179,68.511249
4.1981,-0.017702,0.014071,-0.000598,0.002728,-0.002168,-0.001645,-0.019192,-0.496143,-0.00258,-0.840222,-263.46965,-0.328186,68.511903
4.2182,-0.01772,0.013727,-0.000571,0.002732,-0.002168,-0.001435,-0.018108,-0.49595,-0.000773,-0.840222,-263.46965,-0.328186,68.511903
4.2379,-0.018006,0.013686,-0.001037,0.002735,-0.002168,-0.001285,-0.018108,-0.49595,-0.000773,-0.840222,-263.46965,-0.328186,68.511903
4.2584,-0.017639,0.01396,-0.001203,0.002736,-0.002169,-0.00118,-0.018431,-0.496396,-0.0011,-0.860459,-263.468132,-0.403016,68.51298
4.2779,-0.017417,0.013815,0.001105,0.002752,-0.002152,-0.000926,-0.018346,-0.49626,-0.001149,-0.860459,-263.468132,-0.403016,68.51298
4.2975,-0.017606,0.013245,-0.001189,0.002764,-0.002138,-0.000746,-0.016778,-0.496244,0.001072,-0.812606,-263.466758,-0.477909,68.514048
4.3179,-0.017393,0.013715,-0.000948,0.002777,-0.00212,-0.000692,-0.018087,-0.496715,-0.000999,-0.812606,-263.466758,-0.477909,68.514048
4.3381,-0.017387,0.013365,-0.001558,0.002787,-0.002105,-0.000652,-0.018087,-0.496715,-0.000999,-0.812606,-263.466758,-0.477909,68.514048
4.3581,-0.017228,0.013802,9.2e-05,0.002796,-0.002093,-0.000623,-0.01808,-0.496713,-0.001586,-0.753715,-263.465432,-0.546951,68.51518
4.3777,-0.017216,0.013538,-0.002593,0.002792,-0.002099,-0.000639,-0.017705,-0.496514,-0.000911,-0.753715,-263.465432,-0.546951,68.51518
4.398,-0.016977,0.01329,-0.000956,0.002789,-0.002104,-0.00065,-0.018451,-0.496526,-0.002613,-0.72425,-263.463957,-0.54959,68.516476
4.4181,-0.017111,0.01342,-0.000238,0.002788,-0.002106,-0.000567,-0.017545,-0.496697,-0.001099,-0.72425,-263.463957,-0.54959,68.516476
4.4384,-0.017108,0.013475,-0.001317,0.002788,-0.002107,-0.000506,-0.017545,-0.496697,-0.001099,-0.72425,-263.463957,-0.54959,68.516476
4.4586,-0.016784,0.013463,0.00016,0.002787,-0.002109,-0.00046,-0.017663,-0.496613,-0.001344,-0.730998,-263.46246,-0.54929,68.517782
4.4779,-0.016893,0.01334,-4.9e-05,0.002776,-0.002121,-0.000595,-0.017272,-0.496593,-0.000756,-0.730998,-263.46246,-0.54929,68.517782
4.4975,-0.016494,0.012942,-0.001516,0.002767,-0.002131,-0.000688,-0.016831,-0.496726,-6.3e-05,-0.708818,-263.461025,-0.58051,68.519085
4.5176,-0.016845,0.013239,0.000732,0.002775,-0.002124,-0.000447,-0.017225,-0.497032,-0.001391,-0.708818,-263.461025,-0.58051,68.519085
4.5378,-0.016992,0.013059,-0.000324,0.002781,-0.002118,-0.000276,-0.017225,-0.497032,-0.001391,-0.708818,-263.461025,-0.58051,68.519085
4.5579,-0.016815,0.012904,-0.000966,0.002785,-0.002114,-0.000155,-0.017045,-0.497028,-0.000352,-0.744914,-263.45957,-0.553849,68.520343
4.5779,-0.016528,0.013187,0.001962,0.002779,-0.002115,-0.000458,-0.017139,-0.497065,-0.000604,-0.744914,-263.45957,-0.553849,68.520343
4.5977,-0.01659,0.012884,-0.000579,0.002775,-0.002115,-0.00067,-0.015453,-0.496869,0.001958,-0.670522,-263.458377,-0.627434,68.521498
4.618,-0.016652,0.012864,-0.000139,0.002763,-0.002124,-0.00095,-0.016753,-0.497097,-0.000351,-0.670522,-263.458377,-0.627434,68.521498
4.6379,-0.016111,0.013108,-1e-06,0.002755,-0.002131,-0.001148,-0.016753,-0.497097,-0.000351,-0.670522,-263.458377,-0.627434,68.521498
4.6582,-0.01662,0.012827,-0.000152,0.002749,-0.002136,-0.001287,-0.016013,-0.496968,-2.5e-05,-0.738176,-263.457105,-0.552432,68.522602
4.678,-0.01652,0.013022,-0.00039,0.002731,-0.002155,-0.001528,-0.016278,-0.497059,-7.9e-05,-0.738176,-263.457105,-0.552432,68.522602
4.6976,-0.016516,0.012922,0.000651,0.002717,-0.002169,-0.001699,-0.016651,-0.497032,-0.000421,-0.813304,-263.45585,-0.477304,68.52356
4.718,-0.016189,0.012555,-0.000192,0.002695,-0.002185,-0.002159,-0.016222,-0.497077,0.000553,-0.813304,-263.45585,-0.477304,68.52356
4.7377,-0.016104,0.012675,-0.000708,0.00268,-0.002196,-0.002487,-0.016222,-0.497077,0.000553,-0.813304,-263.45585,-0.477304,68.52356
4.7583,-0.016277,0.013183,-0.00181,0.002669,-0.002204,-0.00272,-0.016368,-0.497403,-0.000768,-0.867831,-263.454413,-0.402408,68.524566
4.7784,-0.016563,0.012597,1.7e-05,0.002694,-0.002188,-0.001984,-0.01669,-0.497178,-0.001191,-0.867831,-263.454413,-0.402408,68.524566
4.7977,-0.016176,0.012717,-0.00054,0.002711,-0.002177,-0.001461,-0.016517,-0.497436,-1.7e-05,-0.942795,-263.453579,-0.327444,68.52505
4.818,-0.015918,0.012492,-0.001176,0.002714,-0.002173,-0.001438,-0.016455,-0.497298,-0.000496,-0.942795,-263.453579,-0.327444,68.52505
4.8382,-0.015849,0.012726,-0.001269,0.002717,-0.002169,-0.001421,-0.016455,-0.497298,-0.000496,-0.942795,-263.453579,-0.327444,68.52505
4.8582,-0.015916,0.013074,-0.002352,0.002719,-0.002167,-0.001409,-0.016417,-0.497336,-0.001315,-0.86767,-263.452434,-0.40257,68.525889
4.8784,-0.015949,0.012415,-0.001138,0.002735,-0.002158,-0.000805,-0.016693,-0.497175,-0.001744,-0.86767,-263.452434,-0.40257,68.525889
4.8981,-0.015957,0.012997,4.5e-05,0.002746,-0.002151,-0.000375,-0.016446,-0.49765,-0.001181,-0.838916,-263.450882,-0.447852,68.527039
4.9183,-0.015454,0.012569,-0.001062,0.002718,-0.002175,-0.000891,-0.015978,-0.497068,-7.4e-05,-0.838916,-263.450882,-0.447852,68.527039
4.9382,-0.015927,0.012647,-0.001296,0.002697,-0.002194,-0.001255,-0.015978,-0.497068,-7.4e-05,-0.838916,-263.450882,-0.447852,68.527039
4.958,-0.015527,0.012433,-0.002074,0.002681,-0.002209,-0.001512,-0.016529,-0.497398,-0.001311,-0.76404,-263.450142,-0.522728,68.527722
4.9785,-0.015525,0.01242,-0.000464,0.002706,-0.002187,-0.000934,-0.016545,-0.497471,-0.001622,-0.76404,-263.450142,-0.522728,68.527722
4.9978,-0.015676,0.012388,-0.000942,0.002725,-0.002169,-0.000522,-0.015693,-0.497635,-0.000501,-0.839145,-263.448855,-0.447622,68.52865
5.0181,-0.015755,0.0122,-0.001441,0.002727,-0.002165,-0.000566,-0.016112,-0.497616,-0.000904,-0.839145,-263.448855,-0.447622,68.52865
5.0379,-0.015622,0.012401,0.000248,0.002729,-0.002162,-0.000596,-0.016112,-0.497616,-0.000904,-0.839145,-263.448855,-0.447622,68.52865
5.0581,-0.015634,0.012199,-0.001079,0.002731,-0.002159,-0.000615,-0.015426,-0.497651,0.000229,-0.764158,-263.447973,-0.52261,68.529437
5.0782,-0.015435,0.012779,-8.6e-05,0.00272,-0.002166,-0.000939,-0.015725,-0.497718,-0.000301,-0.764158,-263.447973,-0.52261,68.529437
5.0979,-0.01516,0.012384,0.000187,0.002713,-0.002171,-0.001167,-0.015396,-0.497286,-0.000105,-0.748064,-263.446562,-0.578547,68.530673
5.1181,-0.015373,0.011933,0.000386,0.002684,-0.002198,-0.001569,-0.01509,-0.497589,0.000159,-0.748064,-263.446562,-0.578547,68.530673
5.138,-0.015164,0.012413,-0.00046,0.002663,-0.00222,-0.001854,-0.01509,-0.497589,0.000159,-0.748064,-263.446562,-0.578547,68.530673
5.1578,-0.015065,0.012122,-0.0015,0.002647,-0.002236,-0.002057,-0.015305,-0.497663,-0.000499,-0.815886,-263.445253,-0.50354,68.531691
5.178,-0.015292,0.012473,5.2e-05,0.00266,-0.002229,-0.001643,-0.015507,-0.497759,-0.00091,-0.815886,-263.445253,-0.50354,68.531691
5.198,-0.014901,0.012312,0.000382,0.002669,-0.002224,-0.00135,-0.015216,-0.497569,1.8e-05,-0.890864,-263.44423,-0.428561,68.53235
5.2182,-0.014923,0.012044,-0.001631,0.00264,-0.002248,-0.0018,-0.014751,-0.497679,0.000346,-0.890864,-263.44423,-0.428561,68.53235
5.238,-0.015205,0.012082,0.00072,0.002619,-0.002267,-0.00212,-0.014751,-0.497679,0.000346,-0.890864,-263.44423,-0.428561,68.53235
5.2579,-0.01474,0.011597,-0.001241,0.002603,-0.002282,-0.002347,-0.014734,-0.498004,0.000667,-0.851663,-263.442721,-0.482781,68.533472
5.2778,-0.0147,0.011712,-0.001832,0.002616,-0.002268,-0.002267,-0.014981,-0.498176,-0.000114,-0.851663,-263.442721,-0.482781,68.533472
5.2979,-0.014526,0.012223,-7e-06,0.002626,-0.002256,-0.002211,-0.015591,-0.498327,-0.001867,-0.926655,-263.441764,-0.407788,68.53405
5.3185,-0.015024,0.012049,-0.000432,0.002619,-0.002269,-0.002127,-0.014627,-0.497831,-0.000183,-0.926655,-263.441764,-0.407788,68.53405
5.3377,-0.014605,0.012092,-0.001196,0.002612,-0.002279,-0.002068,-0.014627,-0.497831,-0.000183,-0.926655,-263.441764,-0.407788,68.53405
5.358,-0.014533,0.011848,-0.000876,0.002606,-0.002288,-0.002027,-0.015115,-0.497993,-0.00128,-0.941375,-263.440142,-0.332794,68.53506
5.3777,-0.014748,0.01187,-0.001808,0.002627,-0.002271,-0.00152,-0.015049,-0.498068,-0.001125,-0.941375,-263.440142,-0.332794,68.53506
5.398,-0.014269,0.011699,-0.00156,0.002642,-0.002259,-0.001162,-0.01559,-0.498199,-0.00187,-0.934222,-263.438459,-0.383023,68.536138
5.4178,-0.014291,0.011593,0.000421,0.002664,-0.002237,-0.000703,-0.015107,-0.498295,-0.001591,-0.934222,-263.438459,-0.383023,68.536138
5.4378,-0.014206,0.011744,-0.000164,0.002681,-0.002219,-0.000377,-0.015107,-0.498295,-0.001591,-0.934222,-263.438459,-0.383023,68.536138
5.4588,-0.014447,0.011577,-0.001571,0.002694,-0.002206,-0.000146,-0.014221,-0.498312,-0.000199,-0.85922,-263.437474,-0.458025,68.536897
5.4782,-0.014575,0.011346,0.000316,0.002686,-0.002211,-0.000375,-0.014628,-0.498363,-0.000758,-0.85922,-263.437474,-0.458025,68.536897
5.4983,-0.014139,0.011448,-0.001296,0.002681,-0.002214,-0.000535,-0.014384,-0.498677,0.000309,-0.784126,-263.436991,-0.533119,68.537365
5.5178,-0.014201,0.011627,0.000638,0.00269,-0.002205,-0.000454,-0.014762,-0.498563,-0.001156,-0.784126,-263.436991,-0.533119,68.537365
5.538,-0.014287,0.011539,-0.000428,0.002696,-0.002197,-0.000397,-0.014762,-0.498563,-0.001156,-0.784126,-263.436991,-0.533119,68.537365
5.5578,-0.013979,0.011941,-0.001528,0.002702,-0.002191,-0.000355,-0.014405,-0.498543,-0.000449,-0.758639,-263.435674,-0.608118,68.538534
5.578,-0.014329,0.011516,-0.0015,0.002693,-0.002201,-0.000451,-0.014537,-0.498356,-0.000889,-0.758639,-263.435674,-0.608118,68.538534
5.5979,-0.013956,0.011493,-0.001467,0.002687,-0.002209,-0.000518,-0.01501,-0.498552,-0.001512,-0.727885,-263.434258,-0.630987,68.539843
5.6182,-0.013906,0.011577,-0.002041,0.002696,-0.002202,-0.000292,-0.014727,-0.498515,-0.001472,-0.727885,-263.434258,-0.630987,68.539843
5.6378,-0.013955,0.011662,-0.001866,0.002702,-0.002197,-0.000133,-0.014727,-0.498515,-0.001472,-0.727885,-263.434258,-0.630987,68.539843
5.6577,-0.01384,0.011137,-0.001347,0.002707,-0.002193,-2e-05,-0.014796,-0.498428,-0.001887,-0.754525,-263.432809,-0.613798,68.541135
5.6779,-0.013675,0.011193,-0.001728,0.002713,-0.002188,0.000148,-0.014674,-0.498615,-0.001669,-0.754525,-263.432809,-0.613798,68.541135
5.6978,-0.013522,0.011442,-0.001384,0.002718,-0.002184,0.000268,-0.014482,-0.498866,-0.001729,-0.683755,-263.431603,-0.678284,68.542335
5.7181,-0.013683,0.011032,-0.000689,0.002709,-0.002195,0.000245,-0.014248,-0.498589,-0.001415,-0.683755,-263.431603,-0.678284,68.542335
5.7379,-0.013843,0.011187,-0.001404,0.002701,-0.002205,0.000231,-0.014248,-0.498589,-0.001415,-0.683755,-263.431603,-0.678284,68.542335
5.758,-0.013619,0.010864,-0.001377,0.002695,-0.002213,0.000222,-0.014451,-0.498899,-0.001393,-0.639074,-263.430315,-0.712422,68.543701
5.7782,-0.013752,0.011,-0.002123,0.002703,-0.0022,0.000197,-0.014385,-0.499006,-0.001385,-0.639074,-263.430315,-0.712422,68.543701
5.7976,-0.013142,0.010912,-0.00124,0.002711,-0.002189,0.00018,-0.01475,-0.499069,-0.002116,-0.656796,-263.428961,-0.716853,68.545123
5.8176,-0.013473,0.010969,-0.001981,0.002707,-0.002193,0.000143,-0.013858,-0.499089,-0.001318,-0.656796,-263.428961,-0.716853,68.545123
5.8378,-0.013483,0.01091,-0.002991,0.002704,-0.002196,0.000117,-0.013858,-0.499089,-0.001318,-0.656796,-263.428961,-0.716853,68.545123
5.8578,-0.013398,0.010702,-0.001831,0.002701,-0.002198,9.9e-05,-0.014896,-0.499179,-0.002983,-0.654148,-263.427599,-0.703309,68.546541
5.8778,-0.013594,0.01105,0.000424,0.002731,-0.002165,0.000576,-0.014653,-0.499238,-0.002513,-0.654148,-263.427599,-0.703309,68.546541
5.8977,-0.013376,0.010496,-0.003126,0.002754,-0.002137,0.000913,-0.013292,-0.49902,0.000427,-0.669482,-263.426225,-0.696494,68.547945
5.9182,-0.013383,0.010513,-0.000863,0.002783,-0.002101,0.001259,-0.014823,-0.499464,-0.002823,-0.669482,-263.426225,-0.696494,68.547945
5.9383,-0.01332,0.010482,-0.001636,0.002806,-0.00207,0.001504,-0.014823,-0.499464,-0.002823,-0.669482,-263.426225,-0.696494,68.547945
5.9578,-0.012908,0.010774,-0.000879,0.002824,-0.002046,0.001678,-0.014083,-0.499577,-0.001616,-0.594355,-263.425418,-0.771622,68.548925
5.9775,-0.01327,0.010583,-0.00159,0.0028,-0.002067,0.001183,-0.013776,-0.499439,-0.001311,-0.594355,-263.425418,-0.771622,68.548925
5.9979,-0.012977,0.01049,-0.001617,0.002783,-0.002084,0.000837,-0.014051,-0.499442,-0.001576,-0.519361,-263.424994,-0.827254,68.549514
6.0178,-0.013085,0.010562,-0.002643,0.002777,-0.002092,0.000736,-0.013822,-0.499505,-0.001613,-0.519361,-263.424994,-0.827254,68.549514
6.0379,-0.013307,0.010514,-0.002106,0.002773,-0.002099,0.000667,-0.013822,-0.499505,-0.001613,-0.519361,-263.424994,-0.827254,68.549514
6.0582,-0.013203,0.01067,-0.001233,0.00277,-0.002104,0.000619,-0.014275,-0.499564,-0.002074,-0.514406,-263.423831,-0.752353,68.550899
6.078,-0.012792,0.010831,-0.000261,0.002773,-0.002101,0.000635,-0.014081,-0.499477,-0.001726,-0.514406,-263.423831,-0.752353,68.550899
6.0975,-0.012553,0.009961,-0.002121,0.002777,-0.002098,0.000646,-0.012841,-0.499234,-0.000242,-0.557333,-263.422573,-0.730817,68.552332
6.1178,-0.012955,0.010461,-0.001973,0.002784,-0.00209,0.000752,-0.013559,-0.499969,-0.001951,-0.557333,-263.422573,-0.730817,68.552332
6.1377,-0.012921,0.010389,-0.001969,0.002789,-0.002084,0.000827,-0.013559,-0.499969,-0.001951,-0.557333,-263.422573,-0.730817,68.552332
6.1576,-0.012749,0.010254,-0.002197,0.002793,-0.002079,0.00088,-0.01381,-0.499698,-0.001942,-0.550281,-263.421271,-0.731599,68.553824
6.1782,-0.013124,0.010555,-0.001387,0.002796,-0.002076,0.000956,-0.013821,-0.499727,-0.002043,-0.550281,-263.421271,-0.731599,68.553824
6.1978,-0.012957,0.010199,-0.000281,0.002798,-0.002074,0.00101,-0.013746,-0.499508,-0.00136,-0.504242,-263.420046,-0.752637,68.555293
6.2177,-0.012262,0.010218,0.000128,0.002765,-0.0021,0.000257,-0.013154,-0.499778,-0.000377,-0.504242,-263.420046,-0.752637,68.555293
6.2378,-0.012747,0.010114,-0.00177,0.002743,-0.002119,-0.000275,-0.013154,-0.499778,-0.000377,-0.504242,-263.420046,-0.752637,68.555293
6.258,-0.01234,0.009989,-0.00104,0.002727,-0.002133,-0.00065,-0.013534,-0.499971,-0.001728,-0.480186,-263.418798,-0.765888,68.556829
6.2777,-0.012405,0.010081,-0.000712,0.002737,-0.002127,-0.000387,-0.013248,-0.499997,-0.00144,-0.480186,-263.418798,-0.765888,68.556829
6.2977,-0.012435,0.010046,-0.002555,0.002743,-0.002123,-0.000201,-0.012753,-0.499929,-0.000711,-0.555284,-263.418551,-0.69079,68.557043
6.318,-0.012421,0.009931,-0.001585,0.002765,-0.002104,0.000322,-0.013652,-0.499951,-0.002395,-0.555284,-263.418551,-0.69079,68.557043
6.3378,-0.012497,0.009844,-0.000267,0.002781,-0.002089,0.000693,-0.013652,-0.499951,-0.002395,-0.555284,-263.418551,-0.69079,68.557043
6.3576,-0.012217,0.010254,-0.001235,0.002793,-0.002077,0.000957,-0.012549,-0.500217,-0.000269,-0.630282,-263.417535,-0.629959,68.558016
6.3778,-0.012176,0.009669,-0.001628,0.00276,-0.002106,0.000368,-0.012662,-0.50003,-0.000667,-0.630282,-263.417535,-0.629959,68.558016
6.3978,-0.01211,0.009762,-0.001008,0.002737,-0.002128,-4.5e-05,-0.012957,-0.500367,-0.001616,-0.555285,-263.416834,-0.704956,68.558871
6.4177,-0.01252,0.009845,-0.00166,0.002732,-0.002134,-0.000138,-0.012651,-0.500252,-0.001062,-0.555285,-263.416834,-0.704956,68.558871
6.4378,-0.012147,0.009919,-0.001844,0.002727,-0.002139,-0.000203,-0.012651,-0.500252,-0.001062,-0.555285,-263.416834,-0.704956,68.558871
6.458,-0.012305,0.009844,-0.001303,0.002724,-0.002143,-0.000247,-0.012996,-0.500149,-0.001843,-0.630195,-263.415737,-0.654536,68.559957
6.4781,-0.01201,0.009902,-0.002047,0.002733,-0.002137,-1.9e-05,-0.012975,-0.500159,-0.001622,-0.630195,-263.415737,-0.654536,68.559957
6.498,-0.012181,0.009805,0.000288,0.002739,-0.002132,0.000142,-0.012975,-0.50016,-0.002054,-0.699916,-263.414432,-0.631445,68.561193
6.5183,-0.012027,0.009771,-0.000527,0.002699,-0.002165,-0.000589,-0.012115,-0.500195,7.6e-05,-0.699916,-263.414432,-0.631445,68.561193
6.538,-0.012334,0.010105,-0.000432,0.002671,-0.002188,-0.001108,-0.012115,-0.500195,7.6e-05,-0.699916,-263.414432,-0.631445,68.561193
6.5577,-0.011935,0.009844,0.000795,0.00265,-0.002207,-0.001476,-0.01245,-0.499977,-0.000427,-0.641482,-263.413188,-0.680984,68.562477
6.5776,-0.012144,0.009606,-0.002231,0.002629,-0.002228,-0.001731,-0.012065,-0.500059,6.9e-05,-0.641482,-263.413188,-0.680984,68.562477
6.5978,-0.012068,0.009705,-0.002239,0.002614,-0.002245,-0.001913,-0.013265,-0.500406,-0.002237,-0.716494,-263.412861,-0.605972,68.562713
6.6179,-0.011832,0.00948,-0.000304,0.002661,-0.0022,-0.000976,-0.013213,-0.500304,-0.002239,-0.716494,-263.412861,-0.605972,68.562713
6.6376,-0.012025,0.010136,-5e-06,0.002697,-0.002164,-0.000305,-0.013213,-0.500304,-0.002239,-0.716494,-263.412861,-0.605972,68.562713
6.6578,-0.012102,0.009437,-0.002464,0.002725,-0.002134,0.000174,-0.012,-0.499888,-1.9e-05,-0.791583,-263.412436,-0.530882,68.562993
6.6778,-0.011708,0.009619,-0.001431,0.002714,-0.002146,-1.1e-05,-0.012555,-0.500167,-0.001026,-0.791583,-263.412436,-0.530882,68.562993
6.6977,-0.011632,0.009482,-0.000305,0.002707,-0.002155,-0.000138,-0.012398,-0.500412,-0.001434,-0.716584,-263.411806,-0.605882,68.563647
6.7181,-0.012388,0.009602,-0.001667,0.002685,-0.002174,-0.000537,-0.011842,-0.50051,-0.00041,-0.716584,-263.411806,-0.605882,68.563647
6.738,-0.011696,0.009447,-0.001257,0.002669,-0.002189,-0.000817,-0.011842,-0.50051,-0.00041,-0.716584,-263.411806,-0.605882,68.563647
6.7579,-0.011874,0.009601,-9.8e-05,0.002656,-0.002201,-0.001014,-0.012229,-0.500639,-0.001263,-0.691145,-263.410461,-0.652882,68.564952
6.778,-0.011726,0.009542,-0.001018,0.00266,-0.002198,-0.000962,-0.012091,-0.50055,-0.000783,-0.691145,-263.410461,-0.652882,68.564952
6.7974,-0.011839,0.00924,-0.00045,0.002662,-0.002195,-0.000924,-0.012191,-0.500501,-0.001034,-0.766256,-263.409486,-0.577771,68.56573
6.8178,-0.011699,0.009391,-0.001521,0.002667,-0.002186,-0.001047,-0.012076,-0.50074,-0.0005,-0.766256,-263.409486,-0.577771,68.56573
6.8379,-0.01167,0.009491,-0.001391,0.002671,-0.002178,-0.001133,-0.012076,-0.50074,-0.0005,-0.766256,-263.409486,-0.577771,68.56573
6.8577,-0.011636,0.009145,-0.000614,0.002675,-0.002172,-0.001193,-0.012272,-0.500597,-0.001428,-0.803371,-263.408005,-0.549635,68.566935
6.8776,-0.011151,0.009581,-0.001583,0.002686,-0.002163,-0.000932,-0.012127,-0.500713,-0.001098,-0.803371,-263.408005,-0.549635,68.566935
6.8976,-0.011193,0.009259,-0.001767,0.002693,-0.002157,-0.000747,-0.011878,-0.500484,-0.001619,-0.825708,-263.406515,-0.494709,68.568083
6.9175,-0.011188,0.009237,-0.000293,0.002704,-0.002151,-0.000316,-0.012071,-0.50072,-0.001755,-0.825708,-263.406515,-0.494709,68.568083
6.9376,-0.011317,0.009277,-0.002481,0.002712,-0.002146,-1.1e-05,-0.012071,-0.50072,-0.001755,-0.825708,-263.406515,-0.494709,68.568083
6.9576,-0.010902,0.009324,-0.001272,0.002717,-0.002143,0.000205,-0.012482,-0.500801,-0.002508,-0.77038,-263.40519,-0.563302,68.569208
6.978,-0.011339,0.009245,-0.002264,0.002725,-0.002137,0.000464,-0.01209,-0.500759,-0.002006,-0.77038,-263.40519,-0.563302,68.569208
6.9982,-0.011243,0.008961,-0.000957,0.00273,-0.002133,0.000647,-0.012444,-0.500793,-0.002264,-0.695388,-263.404416,-0.638294,68.570017
7.0178,-0.011257,0.00898,-0.001091,0.002724,-0.002133,0.000353,-0.011793,-0.501019,-0.001075,-0.695388,-263.404416,-0.638294,68.570017
7.0378,-0.01098,0.009099,-0.002421,0.00272,-0.002132,0.000148,-0.011793,-0.501019,-0.001075,-0.695388,-263.404416,-0.638294,68.570017
7.0578,-0.011075,0.008924,-0.002318,0.002718,-0.002132,6e-06,-0.012142,-0.500957,-0.002409,-0.620387,-263.403594,-0.713295,68.570962
7.0779,-0.010877,0.008974,-0.000473,0.00274,-0.002111,0.000463,-0.012181,-0.501012,-0.00237,-0.620387,-263.403594,-0.713295,68.570962
7.0981,-0.010901,0.008794,-0.000317,0.002756,-0.002095,0.000788,-0.011037,-0.50109,-0.000472,-0.664232,-263.4023,-0.665837,68.572258
7.1181,-0.010861,0.008806,-0.001845,0.002719,-0.002125,7.9e-05,-0.011057,-0.501199,-0.00033,-0.664232,-263.4023,-0.665837,68.572258
7.1379,-0.010896,0.008486,-0.001764,0.002692,-0.002148,-0.000421,-0.011057,-0.501199,-0.00033,-0.664232,-263.4023,-0.665837,68.572258
7.1578,-0.010878,0.008639,-0.001577,0.002673,-0.002166,-0.000773,-0.01172,-0.501573,-0.001746,-0.5891,-263.401453,-0.740969,68.573259
7.1781,-0.010734,0.008852,-0.000432,0.002702,-0.002134,-0.000375,-0.011696,-0.501493,-0.001675,-0.5891,-263.401453,-0.740969,68.573259
7.1977,-0.010808,0.008894,-0.003649,0.002724,-0.002108,-9.3e-05,-0.010925,-0.501171,-0.000435,-0.66397,-263.400941,-0.666099,68.57369
7.2178,-0.010939,0.008597,-0.000802,0.002764,-0.002071,0.000713,-0.012519,-0.501109,-0.003376,-0.66397,-263.400941,-0.666099,68.57369
7.2381,-0.011021,0.008809,-0.001741,0.002793,-0.002043,0.001292,-0.012519,-0.501109,-0.003376,-0.66397,-263.400941,-0.666099,68.57369
7.2578,-0.010645,0.008655,-0.002005,0.002815,-0.00202,0.001707,-0.011796,-0.501278,-0.001745,-0.671526,-263.39956,-0.645472,68.575043
7.2777,-0.010699,0.008908,-0.000754,0.002805,-0.002028,0.001442,-0.01173,-0.501315,-0.001852,-0.671526,-263.39956,-0.645472,68.575043
7.2976,-0.010658,0.008864,-0.001919,0.002797,-0.002034,0.00126,-0.011075,-0.501099,-0.000751,-0.596548,-263.399451,-0.72045,68.575196
7.3183,-0.010316,0.008826,-0.001709,0.002782,-0.002053,0.001126,-0.011589,-0.501132,-0.001819,-0.596548,-263.399451,-0.72045,68.575196
7.3381,-0.010461,0.00852,0.000351,0.00277,-0.002069,0.001035,-0.011589,-0.501132,-0.001819,-0.596548,-263.399451,-0.72045,68.575196
7.3576,-0.0108,0.008689,-0.002287,0.00276,-0.002082,0.000973,-0.010216,-0.501532,0.000376,-0.521552,-263.398741,-0.786424,68.576112
7.3778,-0.010673,0.008307,-0.000341,0.002731,-0.002108,0.000409,-0.010927,-0.501447,-0.000714,-0.521552,-263.398741,-0.786424,68.576112
7.3979,-0.010208,0.008498,-0.000918,0.002711,-0.002127,1.3e-05,-0.01076,-0.501758,-0.000311,-0.494436,-263.397507,-0.770029,68.577625
7.4176,-0.010411,0.008423,-0.002368,0.002693,-0.002146,-0.000186,-0.010679,-0.501528,-0.000862,-0.494436,-263.397507,-0.770029,68.577625
7.4379,-0.010386,0.00886,-0.000656,0.002679,-0.002162,-0.000326,-0.010679,-0.501528,-0.000862,-0.494436,-263.397507,-0.770029,68.577625
7.4578,-0.010234,0.008547,-0.000523,0.002668,-0.002174,-0.000424,-0.010658,-0.501185,-0.00065,-0.569399,-263.396773,-0.695066,68.578361
7.4777,-0.010266,0.008437,-0.001129,0.002645,-0.0022,-0.000624,-0.010587,-0.5013,-0.000597,-0.569399,-263.396773,-0.695066,68.578361
7.4978,-0.010082,0.008567,-0.000433,0.002627,-0.002221,-0.000765,-0.010791,-0.5016,-0.001133,-0.644407,-263.395937,-0.622546,68.579121
7.5176,-0.010237,0.008041,-0.002752,0.002608,-0.00224,-0.000919,-0.010342,-0.501449,-0.000494,-0.644407,-263.395937,-0.622546,68.579121
7.5378,-0.010492,0.008266,0.000209,0.002594,-0.002255,-0.001028,-0.010342,-0.501449,-0.000494,-0.644407,-263.395937,-0.622546,68.579121
7.558,-0.01048,0.008533,-0.001772,0.002582,-0.002267,-0.001105,-0.010309,-0.501794,0.000192,-0.719497,-263.394922,-0.588485,68.579974
7.5779,-0.01039,0.00843,-0.002171,0.002595,-0.002248,-0.001109,-0.010738,-0.501667,-0.000611,-0.719497,-263.394922,-0.588485,68.579974
7.5975,-0.010188,0.008556,-0.002284,0.002606,-0.002233,-0.001112,-0.011435,-0.50162,-0.002195,-0.794491,-263.393757,-0.552498,68.580877
7.6182,-0.010259,0.008622,-0.000394,0.002641,-0.0022,-0.000374,-0.011357,-0.50146,-0.002278,-0.794491,-263.393757,-0.552498,68.580877
7.638,-0.009829,0.008147,-0.002643,0.002668,-0.002174,0.000152,-0.011357,-0.50146,-0.002278,-0.794491,-263.393757,-0.552498,68.580877
7.6582,-0.009839,0.008119,-0.001473,0.002689,-0.002153,0.000527,-0.011072,-0.501941,-0.002687,-0.840838,-263.392255,-0.537561,68.582043
7.6781,-0.010018,0.007929,-0.000753,0.002706,-0.002131,0.000764,-0.010865,-0.501927,-0.0022,-0.840838,-263.392255,-0.537561,68.582043
7.6979,-0.009756,0.007909,-0.001774,0.002719,-0.002114,0.000933,-0.010385,-0.502085,-0.000753,-0.766014,-263.392003,-0.612386,68.582326
7.7176,-0.00956,0.007989,-0.002597,0.002723,-0.002104,0.000836,-0.010634,-0.50209,-0.001681,-0.766014,-263.392003,-0.612386,68.582326
7.7384,-0.00944,0.008332,-0.000451,0.002727,-0.002097,0.00077,-0.010634,-0.50209,-0.001681,-0.766014,-263.392003,-0.612386,68.582326
7.7583,-0.009975,0.008116,-0.000967,0.00273,-0.002091,0.000726,-0.009643,-0.50169,-0.000447,-0.691001,-263.39171,-0.687399,68.582684
7.778,-0.010083,0.007936,-0.001031,0.002687,-0.002136,0.000215,-0.009968,-0.501769,-0.000653,-0.691001,-263.39171,-0.687399,68.582684
7.7979,-0.009686,0.008168,-0.000508,0.002654,-0.002172,-0.000144,-0.010552,-0.50211,-0.001019,-0.615921,-263.390865,-0.748072,68.583671
7.8181,-0.009693,0.008012,-0.000653,0.002632,-0.002194,-0.000451,-0.009996,-0.501859,-0.000552,-0.615921,-263.390865,-0.748072,68.583671
7.8379,-0.009656,0.008398,-0.002435,0.002615,-0.002212,-0.000668,-0.009996,-0.501859,-0.000552,-0.615921,-263.390865,-0.748072,68.583671
7.8576,-0.009803,0.00805,-0.002029,0.002602,-0.002225,-0.000821,-0.01081,-0.501672,-0.002438,-0.690938,-263.389766,-0.673054,68.584735
7.8777,-0.00964,0.008278,-0.002361,0.002632,-0.002198,-0.000162,-0.010811,-0.501793,-0.002272,-0.690938,-263.389766,-0.673054,68.584735
7.8979,-0.009333,0.008035,-0.003103,0.002656,-0.002176,0.000307,-0.010785,-0.50177,-0.002377,-0.765839,-263.388699,-0.598153,68.585619
7.9179,-0.009725,0.008043,-0.00152,0.002688,-0.002145,0.000906,-0.010901,-0.501948,-0.003041,-0.765839,-263.388699,-0.598153,68.585619
7.9382,-0.009533,0.007806,-0.001815,0.002711,-0.00212,0.001333,-0.010901,-0.501948,-0.003041,-0.765839,-263.388699,-0.598153,68.585619
7.958,-0.009691,0.00798,-0.000931,0.002729,-0.0021,0.001638,-0.010391,-0.502248,-0.001813,-0.690712,-263.387903,-0.67328,68.586472
7.9777,-0.009488,0.007567,-0.001276,0.002716,-0.002106,0.001222,-0.010291,-0.50216,-0.00145,-0.690712,-263.387903,-0.67328,68.586472
7.9977,-0.009228,0.007723,0.00063,0.002708,-0.00211,0.000934,-0.010127,-0.502442,-0.001272,-0.615735,-263.387749,-0.748258,68.586688
8.0181,-0.009561,0.007738,-0.001259,0.002632,-0.002175,-0.000213,-0.009012,-0.502292,0.000465,-0.615735,-263.387749,-0.748258,68.586688
8.0377,-0.009353,0.008129,-0.003066,0.002575,-0.002224,-0.001035,-0.009012,-0.502292,0.000465,-0.615735,-263.387749,-0.748258,68.586688
8.0578,-0.009372,0.007761,-0.000251,0.002533,-0.00226,-0.001621,-0.010823,-0.501944,-0.003035,-0.540728,-263.386701,-0.780333,68.58797
8.0777,-0.009239,0.007604,-0.00132,0.002568,-0.002234,-0.000893,-0.010265,-0.502075,-0.001882,-0.540728,-263.386701,-0.780333,68.58797
8.0978,-0.009372,0.007847,-0.002624,0.002594,-0.002213,-0.000373,-0.00991,-0.502397,-0.00132,-0.615746,-263.386665,-0.705316,68.587994
8.118,-0.009419,0.007708,-0.001931,0.002635,-0.002173,0.000233,-0.010642,-0.502172,-0.002514,-0.615746,-263.386665,-0.705316,68.587994
8.1377,-0.009119,0.007652,-0.000885,0.002667,-0.002141,0.000667,-0.010642,-0.502172,-0.002514,-0.615746,-263.386665,-0.705316,68.587994
8.1581,-0.008935,0.00774,-0.001554,0.002692,-0.002115,0.000977,-0.009492,-0.50241,-0.000892,-0.690817,-263.385668,-0.653184,68.588909
8.178,-0.00936,0.007401,-0.002785,0.002668,-0.002138,0.000631,-0.009579,-0.502356,-0.001162,-0.690817,-263.385668,-0.653184,68.588909
8.198,-0.009152,0.007667,-0.001166,0.002651,-0.002156,0.000392,-0.010742,-0.502628,-0.002776,-0.616014,-263.385114,-0.727988,68.589594
8.2181,-0.008963,0.007435,-0.000932,0.00265,-0.002157,0.000293,-0.009834,-0.50236,-0.001309,-0.616014,-263.385114,-0.727988,68.589594
8.2379,-0.009017,0.007242,-0.001286,0.002649,-0.002159,0.000225,-0.009834,-0.50236,-0.001309,-0.616014,-263.385114,-0.727988,68.589594
8.2589,-0.009144,0.007714,-0.002861,0.002648,-0.00216,0.000179,-0.009562,-0.502848,-0.00127,-0.625815,-263.383808,-0.73465,68.59102
8.2779,-0.009254,0.007329,-0.003111,0.00267,-0.002135,0.000406,-0.009965,-0.502633,-0.001904,-0.625815,-263.383808,-0.73465,68.59102
8.2983,-0.008971,0.00721,-0.00034,0.002686,-0.002115,0.000568,-0.010758,-0.502736,-0.003105,-0.658819,-263.382504,-0.708391,68.592378
8.318,-0.008774,0.007186,-0.001062,0.002667,-0.002126,7.3e-05,-0.009294,-0.502788,-0.000603,-0.658819,-263.382504,-0.708391,68.592378
8.3383,-0.009249,0.007492,4e-06,0.002654,-0.002134,-0.000275,-0.009294,-0.502788,-0.000603,-0.658819,-263.382504,-0.708391,68.592378
8.3583,-0.008837,0.007262,-0.002089,0.002645,-0.00214,-0.000519,-0.009147,-0.502587,2.5e-05,-0.583697,-263.381354,-0.741751,68.593681
8.3782,-0.00858,0.007372,-0.002212,0.002641,-0.002145,-0.000573,-0.009442,-0.502657,-0.000831,-0.583697,-263.381354,-0.741751,68.593681
8.3975,-0.008916,0.007295,-0.001413,0.002638,-0.002148,-0.000611,-0.009667,-0.502659,-0.002215,-0.658727,-263.380668,-0.666721,68.594292
8.418,-0.008395,0.007221,-0.001084,0.002652,-0.002136,-0.000328,-0.009638,-0.502702,-0.001482,-0.658727,-263.380668,-0.666721,68.594292
8.4379,-0.009052,0.006962,-0.001795,0.002662,-0.002127,-0.000129,-0.009638,-0.502702,-0.001482,-0.658727,-263.380668,-0.666721,68.594292
8.4583,-0.008815,0.006916,-0.001054,0.00267,-0.00212,1.1e-05,-0.009881,-0.503105,-0.001812,-0.733699,-263.379545,-0.592182,68.59527
8.4791,-0.008816,0.007328,-0.002071,0.002693,-0.002087,0.000114,-0.009656,-0.503104,-0.001506,-0.733699,-263.379545,-0.592182,68.59527
8.4976,-0.008413,0.007307,2.3e-05,0.002712,-0.002061,0.000188,-0.0098,-0.502728,-0.002071,-0.669457,-263.378396,-0.667146,68.596423
8.518,-0.008215,0.007124,-0.000667,0.002647,-0.002128,-0.000406,-0.008518,-0.502699,-0.000158,-0.669457,-263.378396,-0.667146,68.596423
8.5381,-0.008676,0.006866,-0.001219,0.002597,-0.002179,-0.000827,-0.008518,-0.502699,-0.000158,-0.669457,-263.378396,-0.667146,68.596423
8.5584,-0.008282,0.006591,-0.001016,0.002558,-0.00222,-0.001126,-0.009188,-0.503218,-0.001212,-0.622461,-263.37711,-0.676273,68.597761
8.5779,-0.008527,0.007303,-0.001353,0.002586,-0.002184,-0.000858,-0.009022,-0.503303,-0.001133,-0.622461,-263.37711,-0.676273,68.597761
8.598,-0.008541,0.007072,-0.00164,0.002609,-0.002154,-0.000669,-0.009189,-0.502718,-0.00136,-0.697336,-263.37661,-0.601398,68.598146
8.6181,-0.008452,0.006597,0.000579,0.002628,-0.002139,-0.000311,-0.009359,-0.502909,-0.001615,-0.697336,-263.37661,-0.601398,68.598146
8.6383,-0.008418,0.006941,-0.001239,0.002642,-0.002128,-5.9e-05,-0.009359,-0.502909,-0.001615,-0.697336,-263.37661,-0.601398,68.598146
8.6579,-0.008222,0.006717,-0.000963,0.002652,-0.002119,0.00012,-0.008951,-0.50314,-0.001264,-0.772335,-263.37529,-0.589733,68.59928
8.6779,-0.008475,0.006908,-0.000921,0.002649,-0.002119,3.3e-05,-0.008843,-0.503207,-0.001144,-0.772335,-263.37529,-0.589733,68.59928
8.6974,-0.008183,0.007053,-0.001093,0.002646,-0.00212,-2.7e-05,-0.008887,-0.503139,-0.000921,-0.69734,-263.374371,-0.664728,68.600224
8.7177,-0.008043,0.006751,-0.001558,0.002629,-0.002141,-9.5e-05,-0.008751,-0.502966,-0.001078,-0.69734,-263.374371,-0.664728,68.600224
8.7376,-0.008211,0.006528,6.9e-05,0.002615,-0.002158,-0.000142,-0.008751,-0.502966,-0.001078,-0.69734,-263.374371,-0.664728,68.600224
8.7577,-0.008203,0.006164,-0.001344,0.002603,-0.002172,-0.000175,-0.008066,-0.503561,6.8e-05,-0.679242,-263.373019,-0.671553,68.601567
8.7778,-0.008025,0.006365,-0.002239,0.002605,-0.002153,-0.000497,-0.008386,-0.503682,-0.000504,-0.679242,-263.373019,-0.671553,68.601567
8.7977,-0.00801,0.006143,-0.002168,0.002608,-0.002137,-0.000724,-0.009086,-0.503702,-0.002245,-0.719101,-263.37167,-0.670602,68.602863
8.8183,-0.008226,0.006678,-0.003309,0.002662,-0.002067,-0.000133,-0.009109,-0.503845,-0.002175,-0.719101,-263.37167,-0.670602,68.602863
8.8385,-0.007969,0.006478,-0.002115,0.002706,-0.002012,0.000288,-0.009109,-0.503845,-0.002175,-0.719101,-263.37167,-0.670602,68.602863
8.8585,-0.00786,0.00649,-0.000481,0.00274,-0.001968,0.000588,-0.008959,-0.503595,-0.002138,-0.779842,-263.370469,-0.595583,68.603881
8.8782,-0.008052,0.006315,-0.002419,0.002728,-0.001984,0.000513,-0.0086,-0.503569,-0.001464,-0.779842,-263.370469,-0.595583,68.603881
8.8977,-0.007842,0.006612,-8.6e-05,0.002718,-0.001997,0.000463,-0.00926,-0.503704,-0.002417,-0.704753,-263.370083,-0.670672,68.604319
8.9183,-0.008124,0.006339,-0.001359,0.002661,-0.002055,-0.000145,-0.008003,-0.503416,-0.000285,-0.704753,-263.370083,-0.670672,68.604319
8.9382,-0.007862,0.006288,-0.00122,0.002618,-0.0021,-0.000575,-0.008003,-0.503416,-0.000285,-0.704753,-263.370083,-0.670672,68.604319
8.9581,-0.007827,0.006324,-0.001701,0.002585,-0.002135,-0.000879,-0.008405,-0.503774,-0.001211,-0.629726,-263.369164,-0.697944,68.605333
8.978,-0.007496,0.005884,-0.001003,0.00261,-0.002107,-0.000549,-0.008515,-0.50374,-0.001411,-0.629726,-263.369164,-0.697944,68.605333
8.9978,-0.007676,0.006274,-0.001941,0.00263,-0.002085,-0.000315,-0.00797,-0.504145,-0.00101,-0.704707,-263.368504,-0.622963,68.605873
9.018,-0.007633,0.005923,0.000367,0.002654,-0.002059,4.5e-05,-0.008604,-0.503763,-0.001861,-0.704707,-263.368504,-0.622963,68.605873
9.038,-0.007613,0.006218,-0.001498,0.002673,-0.002039,0.000301,-0.008604,-0.503763,-0.001861,-0.704707,-263.368504,-0.622963,68.605873
9.0583,-0.007357,0.006075,-0.001963,0.002688,-0.002023,0.000483,-0.008267,-0.503869,-0.001511,-0.713833,-263.367115,-0.623813,68.607165
9.078,-0.007608,0.006003,-0.000583,0.002691,-0.002018,0.000545,-0.008291,-0.503901,-0.001695,-0.713833,-263.367115,-0.623813,68.607165
9.0983,-0.007588,0.005866,-0.00075,0.002693,-0.002014,0.00059,-0.007852,-0.50404,-0.000577,-0.638926,-263.366299,-0.69872,68.608072
9.1182,-0.007482,0.006104,-0.002558,0.00268,-0.002014,0.000166,-0.007958,-0.504128,-0.000735,-0.638926,-263.366299,-0.69872,68.608072
9.1381,-0.007283,0.006565,-0.000925,0.002671,-0.002014,-0.000132,-0.007958,-0.504128,-0.000735,-0.638926,-263.366299,-0.69872,68.608072
9.1581,-0.007349,0.006152,-0.001401,0.002665,-0.002013,-0.000341,-0.007657,-0.503509,-0.000905,-0.563786,-263.365194,-0.722639,68.609327
9.1782,-0.00708,0.006047,-0.000308,0.002635,-0.002056,-0.000287,-0.007812,-0.503657,-0.001106,-0.563786,-263.365194,-0.722639,68.609327
9.1978,-0.007433,0.005978,-0.000186,0.00261,-0.00209,-0.000249,-0.007188,-0.50399,-0.00031,-0.638746,-263.364383,-0.647678,68.61008
9.2178,-0.006805,0.006082,0.000408,0.00258,-0.00211,-0.000692,-0.007494,-0.504021,-0.000197,-0.638746,-263.364383,-0.647678,68.61008
9.2382,-0.007134,0.005482,-0.001896,0.002558,-0.002125,-0.001005,-0.007494,-0.504021,-0.000197,-0.638746,-263.364383,-0.647678,68.61008
9.2583,-0.007019,0.005888,-0.001053,0.002541,-0.002136,-0.001228,-0.008,-0.504598,-0.001906,-0.709772,-263.363115,-0.638601,68.611278
9.2781,-0.007145,0.006265,-0.001408,0.002578,-0.002089,-0.000727,-0.007808,-0.50441,-0.00156,-0.709772,-263.363115,-0.638601,68.611278
9.2978,-0.006991,0.005997,-0.002699,0.002607,-0.002052,-0.000371,-0.007819,-0.503771,-0.001424,-0.784784,-263.362288,-0.563589,68.6119
9.3184,-0.006494,0.006097,-0.000631,0.00264,-0.002026,0.000285,-0.008319,-0.503983,-0.002591,-0.784784,-263.362288,-0.563589,68.6119
9.3379,-0.007354,0.005839,-0.00169,0.002664,-0.002006,0.000753,-0.008319,-0.503983,-0.002591,-0.784784,-263.362288,-0.563589,68.6119
9.3576,-0.007141,0.005828,-2.2e-05,0.002683,-0.001991,0.001087,-0.008118,-0.504237,-0.001704,-0.718075,-263.361044,-0.610715,68.613044
9.378,-0.006899,0.005927,-0.000101,0.002664,-0.002001,0.000654,-0.007713,-0.50422,-0.00102,-0.718075,-263.361044,-0.610715,68.613044
9.3976,-0.006873,0.005462,-0.00167,0.002651,-0.002009,0.000352,-0.006932,-0.504088,-9.8e-05,-0.643096,-263.360788,-0.685693,68.613366
9.4179,-0.006919,0.005779,-0.00127,0.00266,-0.001991,0.000382,-0.007654,-0.504499,-0.001532,-0.643096,-263.360788,-0.685693,68.613366
9.4379,-0.006958,0.00593,-0.001851,0.002666,-0.001978,0.000405,-0.007654,-0.504499,-0.001532,-0.643096,-263.360788,-0.685693,68.613366
9.4576,-0.006829,0.005569,-0.001672,0.002672,-0.001967,0.000423,-0.007796,-0.504151,-0.001837,-0.594797,-263.359558,-0.697923,68.614696
9.4776,-0.006928,0.005812,-0.00115,0.002671,-0.001972,0.000545,-0.007737,-0.504275,-0.001768,-0.594797,-263.359558,-0.697923,68.614696
9.498,-0.006766,0.005663,-0.000916,0.002669,-0.001977,0.000631,-0.007431,-0.50425,-0.001137,-0.569038,-263.358303,-0.694546,68.616072
9.518,-0.006737,0.005695,-0.00119,0.002636,-0.002007,0.000314,-0.007246,-0.504332,-0.000934,-0.569038,-263.358303,-0.694546,68.616072
9.5381,-0.006563,0.005879,-0.000495,0.002611,-0.002031,9.2e-05,-0.007246,-0.504332,-0.000934,-0.569038,-263.358303,-0.694546,68.616072
9.5576,-0.007122,0.005132,-0.001719,0.002591,-0.002049,-6.5e-05,-0.006708,-0.504201,-0.00047,-0.537555,-263.357099,-0.724344,68.617454
9.5778,-0.006543,0.005138,-0.002609,0.002583,-0.002052,-0.000157,-0.007222,-0.504482,-0.000976,-0.537555,-263.357099,-0.724344,68.617454
9.5975,-0.00639,0.005527,-0.001822,0.002577,-0.002053,-0.000221,-0.007816,-0.504903,-0.002608,-0.612443,-263.356192,-0.659685,68.618347
9.6179,-0.006494,0.005291,-0.001939,0.002591,-0.002039,0.000147,-0.007361,-0.504512,-0.001892,-0.612443,-263.356192,-0.659685,68.618347
9.6377,-0.006541,0.005432,-0.002085,0.0026,-0.002028,0.000408,-0.007361,-0.504512,-0.001892,-0.612443,-263.356192,-0.659685,68.618347
9.6578,-0.00639,0.00533,-0.001294,0.002607,-0.00202,0.000592,-0.00751,-0.504641,-0.002091,-0.687572,-263.355017,-0.639737,68.619463
9.6776,-0.006514,0.00536,-0.001968,0.002616,-0.002004,0.000665,-0.00731,-0.504661,-0.001765,-0.687572,-263.355017,-0.639737,68.619463
9.6978,-0.006457,0.005095,-0.001792,0.002622,-0.001992,0.000717,-0.007463,-0.504682,-0.001959,-0.612578,-263.354187,-0.714731,68.620412
9.7178,-0.006251,0.004944,-0.002122,0.002643,-0.001956,0.000765,-0.007377,-0.504886,-0.001807,-0.612578,-263.354187,-0.714731,68.620412
9.7377,-0.006252,0.005061,-0.001738,0.00266,-0.001928,0.0008,-0.007377,-0.504886,-0.001807,-0.612578,-263.354187,-0.714731,68.620412
9.7578,-0.00598,0.005206,-0.00152,0.002673,-0.001906,0.000826,-0.007041,-0.505013,-0.001712,-0.537704,-263.353099,-0.747263,68.621688
9.778,-0.006464,0.004781,-0.001174,0.002659,-0.001913,0.000784,-0.006914,-0.504933,-0.001631,-0.537704,-263.353099,-0.747263,68.621688
9.7976,-0.006061,0.004994,-0.00024,0.002649,-0.001919,0.000755,-0.006981,-0.505276,-0.001149,-0.483039,-263.351949,-0.733922,68.623059
9.8178,-0.00614,0.004869,-0.002127,0.002586,-0.001961,0.00011,-0.006249,-0.505032,-0.000318,-0.483039,-263.351949,-0.733922,68.623059
9.8377,-0.006045,0.004625,-0.000983,0.002538,-0.001992,-0.000347,-0.006249,-0.505032,-0.000318,-0.483039,-263.351949,-0.733922,68.623059
9.8575,-0.00575,0.004891,-0.001038,0.002502,-0.002015,-0.00067,-0.006436,-0.505455,-0.000952,-0.50316,-263.35075,-0.732018,68.624472
9.8779,-0.005723,0.00458,-0.001625,0.002507,-0.001992,-0.000567,-0.00636,-0.505324,-0.000983,-0.50316,-263.35075,-0.732018,68.624472
9.8981,-0.006157,0.004971,-0.000653,0.002511,-0.001973,-0.000494,-0.006535,-0.505432,-0.001626,-0.578045,-263.350459,-0.657133,68.62472
9.9176,-0.005648,0.004887,-0.00046,0.002504,-0.001978,-0.000567,-0.006493,-0.505064,-0.000736,-0.578045,-263.350459,-0.657133,68.62472
9.9377,-0.005799,0.004758,-0.00089,0.002498,-0.001982,-0.000618,-0.006493,-0.505064,-0.000736,-0.578045,-263.350459,-0.657133,68.62472
9.9581,-0.005363,0.004459,-0.001461,0.002494,-0.001985,-0.000656,-0.006186,-0.50529,-0.000898,-0.653153,-263.349621,-0.587289,68.625466
9.978,-0.005726,0.004905,-0.001554,0.002492,-0.001972,-0.000478,-0.006146,-0.505399,-0.00113,-0.653153,-263.349621,-0.587289,68.625466
9.998,-0.005603,0.004488,-0.002218,0.002489,-0.001962,-0.000353,-0.006452,-0.505145,-0.001569,-0.728085,-263.348493,-0.565961,68.626432
10.0179,-0.005736,0.004979,-0.001735,0.002537,-0.001904,0.000158,-0.006706,-0.50548,-0.002161,-0.728085,-263.348493,-0.565961,68.626432
10.0378,-0.005583,0.004896,-0.000856,0.002574,-0.001859,0.000521,-0.006706,-0.50548,-0.002161,-0.728085,-263.348493,-0.565961,68.626432
10.0578,-0.005444,0.004681,-0.002176,0.002602,-0.001824,0.00078,-0.005919,-0.505183,-0.000871,-0.718813,-263.347215,-0.611793,68.627607
10.0779,-0.005516,0.004701,-0.001433,0.002568,-0.001861,0.000667,-0.006167,-0.505247,-0.001407,-0.718813,-263.347215,-0.611793,68.627607
10.0977,-0.005648,0.004287,-0.001387,0.002541,-0.001891,0.000588,-0.006221,-0.505318,-0.001429,-0.643814,-263.346841,-0.686792,68.62805
10.1177,-0.005052,0.004611,0.000899,0.002557,-0.001853,0.000507,-0.006342,-0.505678,-0.001391,-0.643814,-263.346841,-0.686792,68.62805
10.1379,-0.005138,0.00443,-0.001651,0.00257,-0.001824,0.000451,-0.006342,-0.505678,-0.001391,-0.643814,-263.346841,-0.686792,68.62805
10.1578,-0.005464,0.004395,-0.004251,0.002581,-0.001801,0.000414,-0.005893,-0.505636,-0.001633,-0.568815,-263.345856,-0.72471,68.629177
10.1777,-0.005625,0.004509,-0.002217,0.002614,-0.001767,0.000914,-0.006597,-0.505629,-0.002706,-0.568815,-263.345856,-0.72471,68.629177
10.198,-0.005543,0.004014,-0.001628,0.002639,-0.00174,0.001269,-0.006678,-0.505544,-0.002205,-0.540409,-263.34472,-0.672291,68.630422
10.2176,-0.005265,0.004242,-0.002947,0.002655,-0.001699,0.001109,-0.006397,-0.505949,-0.001679,-0.540409,-263.34472,-0.672291,68.630422
10.238,-0.005329,0.004522,-0.003319,0.002667,-0.001666,0.001,-0.006397,-0.505949,-0.001679,-0.540409,-263.34472,-0.672291,68.630422
10.2581,-0.005423,0.004269,-0.000705,0.002678,-0.001641,0.000926,-0.006968,-0.505514,-0.003298,-0.465501,-263.344165,-0.747199,68.631142
10.2782,-0.005396,0.004523,-0.001847,0.002678,-0.001653,0.001118,-0.00648,-0.505607,-0.002242,-0.465501,-263.344165,-0.747199,68.631142
10.2979,-0.005189,0.00434,-0.002378,0.002677,-0.001663,0.001255,-0.006266,-0.505521,-0.001822,-0.390403,-263.343187,-0.689194,68.632318
10.3176,-0.005041,0.004468,-0.000533,0.002673,-0.001672,0.001388,-0.006386,-0.505649,-0.002328,-0.390403,-263.343187,-0.689194,68.632318
10.3377,-0.005202,0.004619,-0.000924,0.002669,-0.001679,0.001482,-0.006386,-0.505649,-0.002328,-0.390403,-263.343187,-0.689194,68.632318
10.3582,-0.005344,0.004088,-0.001668,0.002666,-0.001685,0.001548,-0.005573,-0.505443,-0.000877,-0.3233,-263.342175,-0.736941,68.633613
10.3776,-0.00492,0.004227,-0.000993,0.002608,-0.001735,0.001122,-0.005813,-0.50564,-0.001191,-0.3233,-263.342175,-0.736941,68.633613
10.3979,-0.004858,0.004397,-0.00048,0.002565,-0.001774,0.000823,-0.005348,-0.505823,-0.000947,-0.270432,-263.341145,-0.778729,68.635008
10.4178,-0.004886,0.004403,-0.000549,0.002459,-0.001857,0.000312,-0.005121,-0.505625,-0.000519,-0.270432,-263.341145,-0.778729,68.635008
10.4377,-0.004954,0.004337,-0.000558,0.002378,-0.00192,-5.2e-05,-0.005121,-0.505625,-0.000519,-0.270432,-263.341145,-0.778729,68.635008
10.4582,-0.004701,0.004328,-0.001444,0.002315,-0.001968,-0.000312,-0.00518,-0.505699,-0.000534,-0.345559,-263.340533,-0.725995,68.635741
10.4779,-0.00495,0.004517,-0.000906,0.002289,-0.001984,-0.00031,-0.005279,-0.505692,-0.000904,-0.345559,-263.340533,-0.725995,68.635741
10.4977,-0.005058,0.004612,-0.001526,0.002269,-0.001996,-0.000312,-0.005407,-0.505486,-0.000906,-0.420431,-263.340454,-0.65489,68.635814
10.5176,-0.004904,0.00397,-0.002771,0.002283,-0.002002,-6.4e-05,-0.005799,-0.505396,-0.001474,-0.420431,-263.340454,-0.65489,68.635814
10.5375,-0.005045,0.004255,-0.001018,0.002293,-0.002007,0.000109,-0.005799,-0.505396,-0.001474,-0.420431,-263.340454,-0.65489,68.635814
10.558,-0.004368,0.004281,-0.001147,0.002301,-0.002012,0.000229,-0.005549,-0.505754,-0.001016,-0.495545,-263.340278,-0.672148,68.635976
10.5779,-0.005096,0.004273,-0.001912,0.002284,-0.002011,0.00014,-0.005303,-0.505741,-0.00107,-0.495545,-263.340278,-0.672148,68.635976
10.5978,-0.005137,0.004121,0.000494,0.002271,-0.00201,7.7e-05,-0.006032,-0.505756,-0.001905,-0.570539,-263.339669,-0.747142,68.636623
10.6179,-0.004844,0.004447,4.8e-05,0.002217,-0.002022,-0.000661,-0.004981,-0.50587,0.000289,-0.570539,-263.339669,-0.747142,68.636623
10.6381,-0.004878,0.004049,-0.001509,0.002177,-0.002028,-0.001188,-0.004981,-0.50587,0.000289,-0.570539,-263.339669,-0.747142,68.636623
10.6581,-0.004822,0.004063,-0.000712,0.002147,-0.002032,-0.001563,-0.005577,-0.506009,-0.001503,-0.645557,-263.338802,-0.736,68.637507
10.678,-0.004639,0.004252,-0.000208,0.00219,-0.001983,-0.001098,-0.005407,-0.505986,-0.001175,-0.645557,-263.338802,-0.736,68.637507
10.6976,-0.004701,0.003944,-2.9e-05,0.002223,-0.001945,-0.000768,-0.00474,-0.505752,-0.00021,-0.720578,-263.338701,-0.660979,68.637574
10.7177,-0.004248,0.004052,-0.002395,0.002168,-0.001969,-0.001076,-0.004718,-0.506031,-4.4e-05,-0.720578,-263.338701,-0.660979,68.637574
10.7381,-0.004685,0.003788,-0.001808,0.002126,-0.001986,-0.001296,-0.004718,-0.506031,-4.4e-05,-0.720578,-263.338701,-0.660979,68.637574
10.7583,-0.004464,0.003998,-0.001631,0.002093,-0.001999,-0.001453,-0.005535,-0.506272,-0.001831,-0.795558,-263.337698,-0.586197,68.638389
10.7779,-0.004467,0.0038,-0.000723,0.002161,-0.001933,-0.000775,-0.005429,-0.506169,-0.001752,-0.795558,-263.337698,-0.586197,68.638389
10.7984,-0.004768,0.004079,0.001067,0.002214,-0.001883,-0.000291,-0.004794,-0.506237,-0.000748,-0.870564,-263.336838,-0.511191,68.638961
10.818,-0.004485,0.004012,-3.3e-05,0.002084,-0.001968,-0.00119,-0.004277,-0.505953,0.000889,-0.870564,-263.336838,-0.511191,68.638961
10.8381,-0.004773,0.004157,6.2e-05,0.001984,-0.00203,-0.00184,-0.004277,-0.505953,0.000889,-0.870564,-263.336838,-0.511191,68.638961
10.858,-0.004714,0.003789,-0.002533,0.001909,-0.002077,-0.002309,-0.00469,-0.505887,5e-05,-0.795554,-263.336157,-0.586201,68.63959
10.8778,-0.004546,0.004115,-0.000764,0.001981,-0.002027,-0.001715,-0.005222,-0.506024,-0.001007,-0.795554,-263.336157,-0.586201,68.63959
10.8974,-0.00435,0.003911,-0.001139,0.002037,-0.001989,-0.001294,-0.004928,-0.505892,-0.000769,-0.870409,-263.335987,-0.511346,68.639676
10.9178,-0.00468,0.00403,-0.000554,0.002064,-0.00197,-0.000933,-0.00493,-0.506071,-0.001106,-0.870409,-263.335987,-0.511346,68.639676
10.9379,-0.004312,0.003409,-0.002337,0.002084,-0.001956,-0.000677,-0.00493,-0.506071,-0.001106,-0.870409,-263.335987,-0.511346,68.639676
10.9579,-0.004565,0.003555,-0.000212,0.002099,-0.001946,-0.000494,-0.005426,-0.506667,-0.002387,-0.938229,-263.334715,-0.531981,68.640549
10.9782,-0.00436,0.003573,-0.001605,0.002165,-0.00185,-0.000203,-0.005109,-0.506585,-0.001505,-0.938229,-263.334715,-0.531981,68.640549
10.9979,-0.004263,0.004048,-0.001668,0.002216,-0.001776,7e-06,-0.005138,-0.506463,-0.001618,-0.863235,-263.333975,-0.606975,68.641191
11.0178,-0.004457,0.003445,-0.000737,0.002215,-0.001805,0.000251,-0.005114,-0.505999,-0.001664,-0.863235,-263.333975,-0.606975,68.641191
11.0376,-0.004632,0.00361,-0.000688,0.002214,-0.001828,0.000424,-0.005114,-0.505999,-0.001664,-0.863235,-263.333975,-0.606975,68.641191
11.0575,-0.004222,0.003495,-0.001649,0.002213,-0.001847,0.000547,-0.004937,-0.506431,-0.000692,-0.788231,-263.333383,-0.676993,68.641784
11.0775,-0.004263,0.003511,0.00085,0.002227,-0.001801,0.000358,-0.004983,-0.506466,-0.001086,-0.788231,-263.333383,-0.676993,68.641784
11.098,-0.004435,0.003508,-0.001801,0.002238,-0.001765,0.000229,-0.003796,-0.506519,0.000855,-0.713126,-263.332869,-0.752098,68.642379
11.1178,-0.004391,0.003522,-0.000431,0.002275,-0.001715,0.000349,-0.005211,-0.506495,-0.001561,-0.713126,-263.332869,-0.752098,68.642379
11.1378,-0.00404,0.00333,-0.000557,0.002304,-0.001677,0.000436,-0.005211,-0.506495,-0.001561,-0.713126,-263.332869,-0.752098,68.642379
11.1577,-0.003934,0.00343,0.000298,0.002327,-0.001648,0.0005,-0.004244,-0.506734,-0.000549,-0.63813,-263.33192,-0.705089,68.643388
11.178,-0.004437,0.003705,-0.001738,0.002209,-0.001685,-5.8e-05,-0.004046,-0.506674,-0.000202,-0.63813,-263.33192,-0.705089,68.643388
11.1977,-0.003837,0.003255,-0.001114,0.002119,-0.001711,-0.000456,-0.005264,-0.506338,-0.001727,-0.563225,-263.33105,-0.69833,68.644372
11.2179,-0.00393,0.003292,-0.001936,0.002116,-0.001689,-0.000277,-0.004476,-0.506712,-0.001166,-0.563225,-263.33105,-0.69833,68.644372
11.2379,-0.004006,0.003736,-0.000552,0.002113,-0.001672,-0.000151,-0.004476,-0.506712,-0.001166,-0.563225,-263.33105,-0.69833,68.644372
11.2579,-0.003746,0.003382,0.00012,0.00211,-0.001659,-6.3e-05,-0.004245,-0.506295,-0.000556,-0.638332,-263.330505,-0.623223,68.644851
11.278,-0.003784,0.003217,-0.003323,0.002019,-0.00173,-0.000414,-0.00401,-0.506432,-0.000279,-0.638332,-263.330505,-0.623223,68.644851
11.2978,-0.003803,0.003466,-0.000254,0.001949,-0.001784,-0.000667,-0.005414,-0.506831,-0.003325,-0.677545,-263.329465,-0.655151,68.645873
11.3179,-0.003889,0.003005,-0.001315,0.001912,-0.001801,-0.000731,-0.004055,-0.506562,-0.000515,-0.677545,-263.329465,-0.655151,68.645873
11.3381,-0.003701,0.003686,-0.001447,0.001883,-0.001814,-0.000779,-0.004055,-0.506562,-0.000515,-0.677545,-263.329465,-0.655151,68.645873
11.3578,-0.004044,0.003556,-0.002404,0.00186,-0.001823,-0.000816,-0.004386,-0.506358,-0.00146,-0.752572,-263.328734,-0.614999,68.646468
11.3778,-0.003811,0.003334,-0.002668,0.001922,-0.001801,-0.000258,-0.004737,-0.506397,-0.001843,-0.752572,-263.328734,-0.614999,68.646468
11.3976,-0.00404,0.0033,-0.000329,0.001971,-0.001785,0.000138,-0.005127,-0.506705,-0.002684,-0.827442,-263.327876,-0.618678,68.647127
11.4178,-0.003712,0.003412,-0.001061,0.001964,-0.001762,-0.000182,-0.004289,-0.506702,-0.000541,-0.827442,-263.327876,-0.618678,68.647127
11.4377,-0.003835,0.002899,-0.00021,0.001959,-0.001745,-0.000406,-0.004289,-0.506702,-0.000541,-0.827442,-263.327876,-0.618678,68.647127
11.4578,-0.003811,0.003444,-0.00096,0.001956,-0.001731,-0.000563,-0.003893,-0.507144,-0.000211,-0.752407,-263.327263,-0.693713,68.647767
11.4777,-0.003387,0.003151,-0.001194,0.001938,-0.001702,-0.000675,-0.004054,-0.506908,-0.000518,-0.752407,-263.327263,-0.693713,68.647767
11.4977,-0.003739,0.003455,-0.001998,0.001924,-0.001679,-0.000754,-0.003943,-0.506896,-0.001209,-0.814831,-263.326288,-0.618658,68.648586
11.5176,-0.003548,0.003183,-0.000708,0.001978,-0.001666,-0.000179,-0.004684,-0.506577,-0.001929,-0.814831,-263.326288,-0.618658,68.648586
11.5377,-0.003689,0.003078,-0.00015,0.002021,-0.001656,0.000229,-0.004684,-0.506577,-0.001929,-0.814831,-263.326288,-0.618658,68.648586
11.5576,-0.003183,0.003017,0.000113,0.002054,-0.001649,0.000521,-0.003689,-0.506988,-0.00018,-0.838303,-263.325199,-0.564693,68.649449
11.5777,-0.003013,0.002809,0.001087,0.00192,-0.00167,-0.000103,-0.003449,-0.506994,-6.3e-05,-0.838303,-263.325199,-0.564693,68.649449
11.5977,-0.003486,0.002834,-0.002854,0.001818,-0.001683,-0.000548,-0.002447,-0.5072,0.001087,-0.76328,-263.32503,-0.639716,68.649645
11.6178,-0.003508,0.002897,-0.000707,0.00194,-0.001562,0.000172,-0.004754,-0.507167,-0.002559,-0.76328,-263.32503,-0.639716,68.649645
11.6383,-0.003411,0.003131,-0.002135,0.002035,-0.00147,0.00069,-0.004754,-0.507167,-0.002559,-0.76328,-263.32503,-0.639716,68.649645
11.6577,-0.003607,0.003123,-0.002495,0.00211,-0.001399,0.001064,-0.004431,-0.506933,-0.002155,-0.837306,-263.324039,-0.638081,68.650471
11.6779,-0.003198,0.003316,0.000402,0.002135,-0.001399,0.001255,-0.004606,-0.506917,-0.002297,-0.837306,-263.324039,-0.638081,68.650471
11.6981,-0.003156,0.003002,-0.001284,0.002155,-0.0014,0.001393,-0.002992,-0.506685,0.000402,-0.762624,-263.324028,-0.712764,68.650485
11.7181,-0.003412,0.003138,-0.001671,0.002053,-0.00146,0.001046,-0.00374,-0.506972,-0.001141,-0.762624,-263.324028,-0.712764,68.650485
11.7381,-0.003156,0.003125,-0.001382,0.001976,-0.001506,0.000801,-0.00374,-0.506972,-0.001141,-0.762624,-263.324028,-0.712764,68.650485
11.7577,-0.003145,0.002823,0.000409,0.001916,-0.00154,0.000628,-0.00386,-0.506876,-0.001382,-0.687382,-263.324018,-0.788006,68.650498
11.7778,-0.00336,0.002774,-0.002493,0.001824,-0.001591,0.000279,-0.003481,-0.506999,-0.000647,-0.687382,-263.324018,-0.788006,68.650498
11.7977,-0.002994,0.002816,-0.001076,0.001754,-0.001629,2.8e-05,-0.004589,-0.507261,-0.002481,-0.612619,-263.323378,-0.787433,68.651276
11.8183,-0.003549,0.003005,-0.000534,0.001741,-0.001609,0.000105,-0.00363,-0.507192,-0.001195,-0.612619,-263.323378,-0.787433,68.651276
11.8377,-0.003009,0.002792,-0.001542,0.00173,-0.001593,0.000158,-0.00363,-0.507192,-0.001195,-0.612619,-263.323378,-0.787433,68.651276
11.8576,-0.002919,0.002627,-0.002822,0.001721,-0.001581,0.000193,-0.00374,-0.507257,-0.001539,-0.687637,-263.322666,-0.753767,68.651994
11.8776,-0.003261,0.002802,0.000121,0.001778,-0.00152,0.000569,-0.003988,-0.50731,-0.002067,-0.687637,-263.322666,-0.753767,68.651994
11.8982,-0.003041,0.00246,-0.000883,0.001822,-0.001474,0.000836,-0.003145,-0.507248,0.000127,-0.704428,-263.321776,-0.778926,68.652947
11.9178,-0.003027,0.002822,-0.001268,0.001777,-0.00144,0.000474,-0.003456,-0.507516,-0.000791,-0.704428,-263.321776,-0.778926,68.652947
11.9379,-0.003084,0.002943,-0.002975,0.001744,-0.001413,0.000219,-0.003456,-0.507516,-0.000791,-0.704428,-263.321776,-0.778926,68.652947
11.9581,-0.003273,0.00226,-0.001352,0.001719,-0.001392,3.9e-05,-0.004569,-0.507085,-0.002963,-0.629439,-263.321408,-0.828336,68.653429
11.9778,-0.002806,0.002478,-0.000773,0.001817,-0.001343,0.000528,-0.004321,-0.507353,-0.002312,-0.629439,-263.321408,-0.828336,68.653429
11.9975,-0.003383,0.002381,-0.000716,0.001894,-0.001306,0.000877,-0.003162,-0.507554,-0.00077,-0.672234,-263.320783,-0.753439,68.654062
12.0178,-0.003162,0.00297,-0.002561,0.001874,-0.001276,0.000444,-0.003693,-0.507615,-0.000721,-0.672234,-263.320783,-0.753439,68.654062
12.0378,-0.003083,0.002643,-0.002198,0.001859,-0.001252,0.000141,-0.003693,-0.507615,-0.000721,-0.672234,-263.320783,-0.753439,68.654062
12.0579,-0.00295,0.002523,-0.000839,0.001849,-0.001233,-7.1e-05,-0.004184,-0.507372,-0.002192,-0.597211,-263.320567,-0.771389,68.654341
12.0779,-0.003213,0.002636,-5.2e-05,0.00187,-0.001241,0.000213,-0.003854,-0.507416,-0.001641,-0.597211,-263.320567,-0.771389,68.654341
12.0977,-0.002897,0.002498,-0.001303,0.001885,-0.001247,0.000414,-0.00321,-0.507387,-5e-05,-0.604213,-263.320094,-0.696409,68.654804
12.1181,-0.003017,0.002511,-0.002975,0.001853,-0.001261,0.000375,-0.00353,-0.507493,-0.001196,-0.604213,-263.320094,-0.696409,68.654804
12.1379,-0.003163,0.002487,-0.000299,0.001827,-0.001272,0.000348,-0.00353,-0.507493,-0.001196,-0.604213,-263.320094,-0.696409,68.654804
12.1582,-0.002961,0.002258,-0.001129,0.001807,-0.00128,0.000328,-0.003254,-0.507555,-0.000287,-0.529091,-263.31942,-0.672035,68.655566
12.1783,-0.003039,0.002768,-0.001983,0.001767,-0.001269,4e-05,-0.003363,-0.507636,-0.000632,-0.529091,-263.31942,-0.672035,68.655566
12.1982,-0.002978,0.00215,-0.000492,0.001737,-0.00126,-0.000165,-0.003994,-0.507271,-0.001973,-0.53853,-263.318582,-0.686244,68.656496
12.218,-0.003046,0.00233,0.000385,0.001703,-0.001223,-0.000312,-0.003291,-0.507803,-0.000617,-0.53853,-263.318582,-0.686244,68.656496
12.238,-0.00302,0.002548,-0.001439,0.001677,-0.001196,-0.000418,-0.003291,-0.507803,-0.000617,-0.53853,-263.318582,-0.686244,68.656496
12.2577,-0.002421,0.002223,-0.000908,0.001656,-0.001174,-0.000494,-0.003705,-0.507486,-0.001441,-0.613563,-263.317996,-0.611212,68.65705
12.2779,-0.002982,0.002481,-0.00195,0.001647,-0.001194,-0.000244,-0.00337,-0.507607,-0.001227,-0.613563,-263.317996,-0.611212,68.65705
12.2979,-0.00251,0.002527,-0.000514,0.001639,-0.001209,-7e-05,-0.003943,-0.507542,-0.001958,-0.688431,-263.317439,-0.536344,68.65752
12.3178,-0.00279,0.002438,-0.001957,0.001533,-0.001282,-0.000195,-0.002871,-0.50748,-0.000639,-0.688431,-263.317439,-0.536344,68.65752
12.3383,-0.00259,0.002471,-0.001365,0.001451,-0.001338,-0.000288,-0.002871,-0.50748,-0.000639,-0.688431,-263.317439,-0.536344,68.65752
12.3581,-0.002743,0.002524,-0.000874,0.001387,-0.001381,-0.000359,-0.003226,-0.507573,-0.001368,-0.651977,-263.316713,-0.611435,68.658228
12.378,-0.002898,0.002421,-0.000332,0.001404,-0.001377,-0.000181,-0.003204,-0.507538,-0.001167,-0.651977,-263.316713,-0.611435,68.658228
12.3978,-0.002579,0.00242,-0.00076,0.001417,-0.001374,-5.7e-05,-0.003046,-0.507597,-0.000335,-0.727018,-263.316329,-0.686475,68.658556
12.418,-0.002559,0.002024,-0.00154,0.001385,-0.001379,-0.000174,-0.002972,-0.507582,-0.000722,-0.727018,-263.316329,-0.686475,68.658556
12.438,-0.002934,0.002451,-0.000337,0.00136,-0.001383,-0.000258,-0.002972,-0.507582,-0.000722,-0.727018,-263.316329,-0.686475,68.658556
12.4577,-0.002662,0.001996,-0.001771,0.001341,-0.001387,-0.00032,-0.003054,-0.5076,-0.000339,-0.782642,-263.315628,-0.757259,68.659241
12.478,-0.002605,0.001867,-0.000534,0.001386,-0.001328,-0.000296,-0.003256,-0.507769,-0.000921,-0.782642,-263.315628,-0.757259,68.659241
12.4981,-0.002518,0.00211,-0.000811,0.00142,-0.001284,-0.000277,-0.00284,-0.508171,-0.000542,-0.857647,-263.314899,-0.726287,68.659871
12.5181,-0.002242,0.002193,-0.001164,0.001397,-0.001238,-0.000303,-0.002922,-0.507916,-0.000788,-0.857647,-263.314899,-0.726287,68.659871
12.5378,-0.002486,0.00198,-0.001524,0.001379,-0.001202,-0.000321,-0.002922,-0.507916,-0.000788,-0.857647,-263.314899,-0.726287,68.659871
12.5581,-0.002533,0.002193,-0.00189,0.001365,-0.001175,-0.000335,-0.003211,-0.508068,-0.001535,-0.79692,-263.314176,-0.665645,68.660513
12.5781,-0.002198,0.002045,-0.000992,0.001432,-0.001115,4.1e-05,-0.003323,-0.507965,-0.001683,-0.79692,-263.314176,-0.665645,68.660513
12.5982,-0.002142,0.001787,-0.000144,0.001484,-0.00107,0.000308,-0.002662,-0.507991,-0.001003,-0.790596,-263.313428,-0.618209,68.661159
12.6178,-0.002321,0.00205,-0.001703,0.001307,-0.00103,-0.000136,-0.002252,-0.508196,-0.000219,-0.790596,-263.313428,-0.618209,68.661159
12.6381,-0.002404,0.002237,-0.00174,0.001174,-0.000999,-0.000454,-0.002252,-0.508196,-0.000219,-0.790596,-263.313428,-0.618209,68.661159
12.658,-0.00207,0.001959,-0.001489,0.001073,-0.000977,-0.000685,-0.003273,-0.507778,-0.001739,-0.715598,-263.313213,-0.693207,68.661402
12.6779,-0.002146,0.00223,-0.002598,0.001159,-0.000995,-0.000216,-0.003092,-0.507886,-0.001638,-0.715598,-263.313213,-0.693207,68.661402
12.6975,-0.002258,0.001836,-0.001383,0.001226,-0.00101,0.000116,-0.003462,-0.507777,-0.002601,-0.790471,-263.313035,-0.618333,68.661524
12.7177,-0.002411,0.00209,-0.001114,0.001277,-0.00097,0.000285,-0.003008,-0.508129,-0.001493,-0.790471,-263.313035,-0.618333,68.661524
12.7381,-0.002117,0.001833,-0.002405,0.001316,-0.00094,0.000408,-0.003008,-0.508129,-0.001493,-0.790471,-263.313035,-0.618333,68.661524
12.7576,-0.002207,0.001892,-0.001176,0.001346,-0.000918,0.000498,-0.003312,-0.508192,-0.002404,-0.715478,-263.31265,-0.693327,68.661931
12.7781,-0.002129,0.002074,0.000147,0.0014,-0.000882,0.000732,-0.003106,-0.508161,-0.001912,-0.715478,-263.31265,-0.693327,68.661931
