mach0312/omni-docking-bench/src/icros_test_setup/results/MPPI_sample/timeseries/trial_131.csv
t,x,y,yaw,vx,vy,wz,bl_x,bl_y,bl_yaw,front_steering_joint,front_wheel_joint,rear_steering_joint,rear_wheel_joint
0.0,-0.030793,-0.029515,0.050908,0.003373,-0.001406,0.002102,-0.005859,-0.538722,0.04883,-0.036138,-259.265927,-0.673097,69.052972
0.0006,-0.030358,-0.029481,0.049843,0.0,0.0,0.0,-0.005745,-0.538641,0.048517,-0.036138,-259.264012,-0.673097,69.05542
0.001,-0.030713,-0.029385,0.049911,0.0,0.0,0.0,-0.005745,-0.538641,0.048517,-0.036138,-259.26266,-0.673097,69.057148
0.0013,-0.030362,-0.029446,0.050624,0.0,0.0,0.0,-0.00607,-0.538737,0.048324,-0.036138,-259.262294,-0.673097,69.057615
0.0016,-0.030288,-0.029028,0.048901,0.0,0.0,0.0,-0.00607,-0.538737,0.048324,-0.036138,-259.262294,-0.673097,69.057615
0.002,-0.030759,-0.029094,0.049503,0.0,0.0,0.0,-0.005248,-0.538352,0.050026,-0.036138,-259.262294,-0.673097,69.057615
0.0023,-0.030871,-0.029356,0.048743,0.0,0.0,0.0,-0.005248,-0.538352,0.050026,-0.036138,-259.262294,-0.673097,69.057615
0.0026,-0.030559,-0.029585,0.050317,0.0,0.0,0.0,-0.004983,-0.538702,0.04997,-0.036138,-259.262294,-0.673097,69.057615
0.0029,-0.030845,-0.029575,0.050599,0.0,0.0,0.0,-0.004983,-0.538702,0.04997,-0.036138,-259.262294,-0.673097,69.057615
0.0032,-0.031046,-0.029134,0.049167,9.5e-05,-3.1e-05,0.0,-0.004983,-0.538702,0.04997,-0.036138,-259.262294,-0.673097,69.057615
0.0165,-0.030723,-0.029402,0.050442,0.0,0.0,0.0,-0.005981,-0.538518,0.049167,-0.036138,-259.262294,-0.673097,69.057615
0.0365,-0.031006,-0.028915,0.050429,0.0,0.0,0.0,-0.005586,-0.538613,0.049686,-0.036138,-259.262294,-0.673097,69.057615
0.0565,-0.030604,-0.029665,0.048277,0.0,0.0,0.0,-0.005298,-0.538267,0.050429,-0.036138,-259.262294,-0.673097,69.057615
0.0767,-0.030481,-0.029133,0.049167,0.0,0.0,0.0,-0.005929,-0.538998,0.048472,-0.036138,-259.262294,-0.673097,69.057615
0.0967,-0.030507,-0.029406,0.050646,0.0,0.0,0.0,-0.005929,-0.538998,0.048472,-0.036138,-259.262294,-0.673097,69.057615
0.1165,-0.030819,-0.029602,0.047846,0.000971,0.005795,-0.009684,-0.004688,-0.538752,0.050646,-0.036138,-259.262294,-0.673097,69.057615
0.1365,-0.030687,-0.029204,0.049877,0.000978,0.006356,-0.01045,-0.005392,-0.53886,0.049513,-0.036138,-259.262294,-0.673097,69.057615
0.1562,-0.030675,-0.028911,0.049987,0.000971,0.006844,-0.011051,-0.00526,-0.53857,0.049877,-0.111155,-259.262294,-0.748113,69.057615
0.1768,-0.03054,-0.02956,0.050394,0.000954,0.007267,-0.01152,-0.005198,-0.538301,0.049977,-0.111155,-259.262294,-0.748113,69.057615
0.1965,-0.030855,-0.029384,0.050125,0.00093,0.007635,-0.011884,-0.005198,-0.538301,0.049977,-0.111155,-259.262294,-0.748113,69.057615
0.2162,-0.030493,-0.029428,0.049534,0.000902,0.007956,-0.012165,-0.005302,-0.538743,0.050125,-0.036161,-259.262294,-0.823107,69.057615
0.2362,-0.03089,-0.029406,0.049466,0.000872,0.008237,-0.01238,-0.005277,-0.538768,0.049879,-0.036161,-259.262294,-0.823107,69.057615
0.2561,-0.030786,-0.029514,0.049483,0.000842,0.008481,-0.012544,-0.005672,-0.538782,0.049466,0.03915,-259.262294,-0.898418,69.057615
0.2764,-0.030604,-0.029332,0.04772,0.000821,0.008694,-0.012671,-0.00557,-0.53888,0.049482,0.03915,-259.262294,-0.898418,69.057615
0.2961,-0.030244,-0.029726,0.050056,0.0008,0.00888,-0.012766,-0.00557,-0.53888,0.049482,0.03915,-259.262294,-0.898418,69.057615
0.3165,-0.030967,-0.029591,0.05034,0.000779,0.009043,-0.012838,-0.004727,-0.539087,0.050056,0.113865,-259.262294,-0.973133,69.057615
0.3367,-0.030923,-0.029179,0.049511,0.000738,0.009188,-0.012888,-0.004962,-0.539029,0.050172,0.113865,-259.262294,-0.973133,69.057615
0.356,-0.030693,-0.029399,0.052046,0.000702,0.009316,-0.012925,-0.005682,-0.538554,0.049511,0.188863,-259.262294,-1.048131,69.057615
0.3763,-0.030877,-0.029477,0.048838,0.00065,0.00943,-0.012948,-0.004292,-0.538695,0.051829,0.188863,-259.262294,-1.048131,69.057615
0.3967,-0.030497,-0.029757,0.048637,0.000605,0.009531,-0.012966,-0.004292,-0.538695,0.051829,0.188863,-259.262294,-1.048131,69.057615
0.4161,-0.030986,-0.029648,0.05019,0.000566,0.009619,-0.01298,-0.005701,-0.539154,0.048637,0.263984,-259.262294,-1.123252,69.057615
0.4363,-0.030499,-0.029744,0.04906,0.00057,0.009692,-0.012999,-0.00558,-0.539094,0.049264,0.263984,-259.262294,-1.123252,69.057615
0.456,-0.030416,-0.029291,0.048897,0.000573,0.009756,-0.013011,-0.005489,-0.53913,0.04906,0.33884,-259.262294,-1.198108,69.057615
0.4761,-0.03079,-0.028903,0.048635,0.000573,0.009813,-0.01302,-0.005489,-0.538719,0.04891,0.33884,-259.262294,-1.198108,69.057615
0.4963,-0.030683,-0.029283,0.049749,0.000571,0.009862,-0.013026,-0.005489,-0.538719,0.04891,0.33884,-259.262294,-1.198108,69.057615
0.5162,-0.030696,-0.029315,0.050822,0.00057,0.009906,-0.01303,-0.005321,-0.538652,0.049749,0.413987,-259.262294,-1.273255,69.057614
0.536,-0.030689,-0.029692,0.049952,0.000556,0.009946,-0.01303,-0.005103,-0.538654,0.050187,0.413987,-259.262294,-1.273255,69.057614
0.5562,-0.030682,-0.029372,0.048936,0.000544,0.009981,-0.01303,-0.005224,-0.539056,0.049952,0.488937,-259.262294,-1.348205,69.057614
0.5763,-0.030376,-0.028955,0.048413,0.000552,0.010009,-0.013034,-0.005691,-0.538786,0.049022,0.488937,-259.262294,-1.348205,69.057614
0.5961,-0.030741,-0.029295,0.049269,0.000558,0.010034,-0.013037,-0.005691,-0.538786,0.049022,0.488937,-259.262294,-1.348205,69.057614
0.616,-0.030854,-0.029259,0.049596,0.000562,0.010056,-0.013038,-0.005624,-0.538676,0.049269,0.563977,-259.262294,-1.423245,69.057614
0.6364,-0.03049,-0.029311,0.04927,0.000563,0.010075,-0.013038,-0.005602,-0.538658,0.049403,0.563977,-259.262294,-1.423245,69.057614
0.6564,-0.030684,-0.029099,0.050648,0.000564,0.010093,-0.013038,-0.005373,-0.538692,0.04927,0.638937,-259.262294,-1.498205,69.057613
0.6765,-0.030598,-0.029154,0.052034,0.000544,0.010111,-0.013034,-0.004906,-0.538465,0.050534,0.638937,-259.262294,-1.498205,69.057613
0.6962,-0.030425,-0.029774,0.048427,0.000526,0.010127,-0.013031,-0.004906,-0.538465,0.050534,0.638937,-259.262294,-1.498205,69.057613
0.7163,-0.030538,-0.029505,0.049947,0.000512,0.010141,-0.013029,-0.005737,-0.539176,0.048427,0.714027,-259.262293,-1.573295,69.057611
0.7363,-0.030562,-0.029116,0.049304,0.000513,0.010152,-0.01303,-0.005463,-0.539049,0.049055,0.714027,-259.262293,-1.573295,69.057611
0.7561,-0.031124,-0.03003,0.050585,0.000514,0.010161,-0.013031,-0.005427,-0.538496,0.049304,0.788962,-259.262292,-1.599055,69.057601
0.7765,-0.030697,-0.029433,0.049324,0.00051,0.01017,-0.013031,-0.005345,-0.539299,0.05047,0.788962,-259.262292,-1.599055,69.057601
0.7974,-0.030408,-0.029099,0.049273,0.000507,0.010178,-0.013031,-0.005345,-0.539299,0.05047,0.788962,-259.262292,-1.599055,69.057601
0.8165,-0.030684,-0.029569,0.050345,0.000505,0.010185,-0.013031,-0.005289,-0.538478,0.04927,0.863828,-259.262287,-1.599148,69.057559
0.8364,-0.03077,-0.029026,0.048702,0.0005,0.010192,-0.013031,-0.00518,-0.538657,0.049704,0.863828,-259.262287,-1.599148,69.057559
0.8567,-0.030612,-0.029316,0.050566,0.000496,0.010197,-0.013031,-0.005942,-0.538415,0.048694,0.938844,-259.262268,-1.598608,69.057412
0.8768,-0.030828,-0.029306,0.049718,0.000486,0.010203,-0.013029,-0.004945,-0.538639,0.050379,0.938844,-259.262268,-1.598608,69.057412
0.8967,-0.030635,-0.029378,0.049838,0.000477,0.010209,-0.013028,-0.004945,-0.538639,0.050379,0.938844,-259.262268,-1.598608,69.057412
0.9161,-0.03084,-0.029252,0.051156,0.000469,0.010214,-0.013027,-0.005227,-0.538719,0.049805,1.013965,-259.262214,-1.598116,69.056981
0.9364,-0.030715,-0.029578,0.051525,0.000466,0.010218,-0.013028,-0.005037,-0.538662,0.050354,1.013965,-259.262214,-1.598116,69.056981
0.9559,-0.030657,-0.029458,0.051771,0.000463,0.010221,-0.013028,-0.004447,-0.538859,0.051469,1.088836,-259.262092,-1.596619,69.056018
0.9761,-0.030632,-0.029031,0.049795,0.000436,0.010227,-0.013024,-0.004281,-0.53878,0.051742,1.088836,-259.262092,-1.596619,69.056018
0.9961,-0.030666,-0.029332,0.04987,0.000413,0.010233,-0.013021,-0.004281,-0.53878,0.051742,1.088836,-259.262092,-1.596619,69.056018
1.0162,-0.030467,-0.029076,0.051687,0.000394,0.010238,-0.013019,-0.005241,-0.538579,0.049716,1.163951,-259.261833,-1.596272,69.053986
1.0361,-0.030266,-0.028865,0.050233,0.000396,0.010241,-0.013022,-0.004784,-0.53849,0.0505,1.163951,-259.261833,-1.596272,69.053986
1.056,-0.030458,-0.028748,0.049651,0.000397,0.010243,-0.013025,-0.004657,-0.53809,0.050063,1.238815,-259.261456,-1.592453,69.051025
1.0761,-0.030385,-0.028882,0.05056,0.00041,0.010243,-0.013111,-0.005105,-0.538111,0.049678,1.238815,-259.261456,-1.592453,69.051025
1.0962,-0.030116,-0.028755,0.049671,0.000421,0.010243,-0.01318,-0.005105,-0.538111,0.049678,1.238815,-259.261456,-1.592453,69.051025
1.1168,-0.030414,-0.028568,0.047698,0.000429,0.010243,-0.013233,-0.004795,-0.537843,0.04931,1.313962,-259.260841,-1.59261,69.046206
1.1363,-0.030315,-0.02825,0.049378,0.000445,0.010242,-0.013331,-0.005333,-0.53787,0.048602,1.313962,-259.260841,-1.59261,69.046206
1.1564,-0.030023,-0.027996,0.048145,0.000457,0.010241,-0.013407,-0.005145,-0.537321,0.048982,1.374614,-259.260008,-1.594229,69.039274
1.1769,-0.029813,-0.028384,0.048152,0.000474,0.010239,-0.01354,-0.005451,-0.537383,0.048196,1.374614,-259.260008,-1.594229,69.039274
1.1964,-0.029748,-0.027987,0.047581,0.000487,0.010237,-0.013646,-0.005451,-0.537383,0.048196,1.374614,-259.260008,-1.594229,69.039274
1.2166,-0.030019,-0.027569,0.046724,0.000498,0.010235,-0.013729,-0.005492,-0.536986,0.047027,1.351616,-259.259176,-1.595601,69.031985
1.2363,-0.029609,-0.027533,0.046724,0.00052,0.010231,-0.013866,-0.005781,-0.536948,0.046839,1.351616,-259.259176,-1.595601,69.031985
1.2561,-0.029244,-0.026841,0.047737,0.000537,0.010227,-0.013975,-0.005787,-0.53666,0.046301,1.307953,-259.258433,-1.597522,69.024755
1.2765,-0.028957,-0.026571,0.046986,0.000527,0.010228,-0.014115,-0.004983,-0.536279,0.047593,1.307953,-259.258433,-1.597522,69.024755
1.2961,-0.029214,-0.027178,0.046983,0.000519,0.010228,-0.014229,-0.004983,-0.536279,0.047593,1.307953,-259.258433,-1.597522,69.024755
1.3166,-0.028474,-0.027018,0.045788,0.000511,0.010228,-0.014321,-0.00526,-0.536201,0.046418,1.263576,-259.257746,-1.599398,69.017493
1.3364,-0.028931,-0.026718,0.047074,0.000511,0.010227,-0.014445,-0.005207,-0.536268,0.046095,1.263576,-259.257746,-1.599398,69.017493
1.3564,-0.029008,-0.025849,0.047106,0.00051,0.010226,-0.014546,-0.004932,-0.53583,0.046623,1.238841,-259.257125,-1.59771,69.009975
1.3765,-0.02855,-0.02606,0.046086,0.000509,0.010225,-0.014671,-0.004987,-0.535316,0.047039,1.238841,-259.257125,-1.59771,69.009975
1.3962,-0.028229,-0.026196,0.046892,0.000507,0.010224,-0.014773,-0.004987,-0.535316,0.047039,1.238841,-259.257125,-1.59771,69.009975
1.4169,-0.028181,-0.025373,0.044975,0.000504,0.010223,-0.014857,-0.004321,-0.535214,0.046293,1.207785,-259.25656,-1.597465,69.002445
1.4366,-0.028217,-0.025271,0.045204,0.000492,0.010224,-0.014962,-0.004701,-0.535019,0.045686,1.207785,-259.25656,-1.597465,69.002445
1.4564,-0.027874,-0.025132,0.042677,0.000481,0.010224,-0.015048,-0.00517,-0.534438,0.04475,1.157366,-259.256078,-1.596927,68.995034
1.4766,-0.027728,-0.025011,0.043638,0.000523,0.010215,-0.015165,-0.006031,-0.534631,0.042838,1.157366,-259.256078,-1.596927,68.995034
1.4967,-0.027564,-0.025112,0.045905,0.000558,0.010207,-0.01526,-0.006031,-0.534631,0.042838,1.157366,-259.256078,-1.596927,68.995034
1.5165,-0.027127,-0.024563,0.043739,0.000586,0.0102,-0.015336,-0.00416,-0.534149,0.045279,1.135633,-259.255625,-1.59555,68.987323
1.5365,-0.027004,-0.024396,0.044812,0.000552,0.010203,-0.015415,-0.004431,-0.534071,0.044582,1.135633,-259.255625,-1.59555,68.987323
1.5564,-0.027138,-0.023767,0.04244,0.000523,0.010206,-0.015481,-0.004156,-0.533688,0.04452,1.060657,-259.25538,-1.600734,68.982614
1.5765,-0.027086,-0.024101,0.043527,0.000542,0.010201,-0.015556,-0.00538,-0.533332,0.042611,1.060657,-259.25538,-1.600734,68.982614
1.5962,-0.027102,-0.024071,0.042799,0.000557,0.010197,-0.015616,-0.00538,-0.533332,0.042611,1.060657,-259.25538,-1.600734,68.982614
1.6162,-0.026802,-0.023873,0.044257,0.000569,0.010193,-0.015665,-0.005279,-0.533237,0.042244,0.985665,-259.255066,-1.597368,68.97587
1.6361,-0.026523,-0.02361,0.042486,0.000558,0.010194,-0.015712,-0.004853,-0.533251,0.043003,0.985665,-259.255066,-1.597368,68.97587
1.6564,-0.026886,-0.023352,0.042775,0.000548,0.010194,-0.015751,-0.004859,-0.532927,0.042145,0.910661,-259.254834,-1.599591,68.970438
1.6764,-0.026509,-0.023471,0.040671,0.000552,0.010192,-0.015781,-0.005058,-0.532878,0.042701,0.910661,-259.254834,-1.599591,68.970438
1.6964,-0.026432,-0.023081,0.042291,0.000554,0.01019,-0.015805,-0.005058,-0.532878,0.042701,0.910661,-259.254834,-1.599591,68.970438
1.7162,-0.026275,-0.022831,0.041616,0.000556,0.010189,-0.015825,-0.004866,-0.532263,0.041733,0.835663,-259.254566,-1.598458,68.963734
1.7362,-0.026295,-0.022723,0.039873,0.000557,0.010187,-0.015841,-0.004944,-0.532273,0.041621,0.835663,-259.254566,-1.598458,68.963734
1.7562,-0.025676,-0.022491,0.040621,0.000558,0.010186,-0.015854,-0.005961,-0.532023,0.039417,0.76061,-259.25429,-1.598779,68.956563
1.7767,-0.025857,-0.022263,0.041196,0.000564,0.010184,-0.015868,-0.005054,-0.532051,0.040489,0.76061,-259.25429,-1.598779,68.956563
1.7964,-0.025577,-0.022463,0.041938,0.000569,0.010182,-0.01588,-0.005054,-0.532051,0.040489,0.76061,-259.25429,-1.598779,68.956563
1.8162,-0.025272,-0.021809,0.039375,0.000573,0.010181,-0.015889,-0.004189,-0.531592,0.04128,0.734544,-259.253993,-1.598848,68.948699
1.8365,-0.024961,-0.021335,0.040382,0.000562,0.010182,-0.015899,-0.004597,-0.531471,0.040432,0.734544,-259.253993,-1.598848,68.948699
1.856,-0.024803,-0.021667,0.038307,0.000552,0.010183,-0.015907,-0.004367,-0.530603,0.03989,0.693494,-259.253703,-1.599605,68.940953
1.8765,-0.024883,-0.021348,0.039997,0.000572,0.010178,-0.015923,-0.005189,-0.531214,0.038425,0.693494,-259.253703,-1.599605,68.940953
1.8966,-0.025159,-0.021242,0.039156,0.000588,0.010175,-0.015936,-0.005189,-0.531214,0.038425,0.693494,-259.253703,-1.599605,68.940953
1.916,-0.02471,-0.020781,0.039909,0.000601,0.010171,-0.015946,-0.005188,-0.530425,0.03849,0.702456,-259.253414,-1.598538,68.933002
1.9362,-0.024784,-0.020821,0.038707,0.000607,0.010169,-0.015957,-0.004852,-0.530355,0.038989,0.702456,-259.253414,-1.598538,68.933002
1.9565,-0.024055,-0.020629,0.038174,0.000612,0.010167,-0.015965,-0.005042,-0.530146,0.038248,0.62747,-259.253146,-1.600996,68.925802
1.9762,-0.024115,-0.020242,0.037224,0.000606,0.010168,-0.01597,-0.004632,-0.530232,0.038157,0.62747,-259.253146,-1.600996,68.925802
1.9962,-0.024565,-0.020752,0.03805,0.000601,0.010168,-0.015974,-0.004632,-0.530232,0.038157,0.62747,-259.253146,-1.600996,68.925802
2.0164,-0.024245,-0.020206,0.035828,0.000597,0.010169,-0.015978,-0.005155,-0.529963,0.037391,0.597877,-259.252854,-1.601517,68.917935
2.0364,-0.02375,-0.019711,0.037648,0.000637,0.01016,-0.015992,-0.005489,-0.52988,0.036677,0.597877,-259.252854,-1.601517,68.917935
2.0562,-0.023139,-0.019419,0.033545,0.00067,0.010152,-0.016003,-0.004547,-0.529026,0.037141,0.602392,-259.252564,-1.600727,68.909969
2.0761,-0.023331,-0.019332,0.035988,0.000726,0.010138,-0.016034,-0.005905,-0.529107,0.033833,0.602392,-259.252564,-1.600727,68.909969
2.0964,-0.023088,-0.019387,0.034041,0.000773,0.010125,-0.016057,-0.005905,-0.529107,0.033833,0.602392,-259.252564,-1.600727,68.909969
2.1161,-0.022829,-0.019082,0.033857,0.000811,0.010114,-0.016074,-0.005719,-0.528717,0.033452,0.527413,-259.252293,-1.604428,68.902943
2.1361,-0.023324,-0.018996,0.034389,0.000836,0.010106,-0.016087,-0.005654,-0.528704,0.033551,0.527413,-259.252293,-1.604428,68.902943
2.1561,-0.02259,-0.01857,0.034123,0.000857,0.010099,-0.016097,-0.00578,-0.528499,0.034081,0.452354,-259.252084,-1.611448,68.898118
2.1763,-0.022724,-0.018665,0.034818,0.00086,0.010096,-0.016099,-0.005242,-0.528283,0.034104,0.452354,-259.252084,-1.611448,68.898118
2.1964,-0.022982,-0.018785,0.034067,0.000863,0.010093,-0.0161,-0.005242,-0.528283,0.034104,0.452354,-259.252084,-1.611448,68.898118
2.2163,-0.022715,-0.018214,0.0338,0.000865,0.010091,-0.016101,-0.005597,-0.528193,0.033599,0.377419,-259.251834,-1.613755,68.892551
2.2361,-0.022561,-0.017967,0.031257,0.000886,0.010085,-0.016101,-0.005547,-0.528047,0.033628,0.377419,-259.251834,-1.613755,68.892551
2.2563,-0.021814,-0.01793,0.032239,0.000904,0.010079,-0.0161,-0.006607,-0.527435,0.030806,0.302357,-259.251515,-1.614205,68.885504
2.2762,-0.022194,-0.017563,0.032293,0.00092,0.010073,-0.016099,-0.005479,-0.527632,0.032096,0.302357,-259.251515,-1.614205,68.885504
2.2961,-0.022096,-0.017846,0.033213,0.000933,0.010068,-0.016097,-0.005479,-0.527632,0.032096,0.302357,-259.251515,-1.614205,68.885504
2.3162,-0.021551,-0.017314,0.031641,0.000945,0.010064,-0.016095,-0.005137,-0.527152,0.032556,0.265508,-259.251148,-1.616155,68.8777
2.3367,-0.021329,-0.017006,0.031575,0.000951,0.010061,-0.016093,-0.005251,-0.527065,0.0321,0.265508,-259.251148,-1.616155,68.8777
2.3565,-0.021268,-0.016923,0.031308,0.000957,0.010058,-0.016091,-0.005209,-0.526434,0.031068,0.242481,-259.250762,-1.618238,68.869803
2.3762,-0.020908,-0.016527,0.031269,0.000971,0.010053,-0.016092,-0.005294,-0.526637,0.031262,0.242481,-259.250762,-1.618238,68.869803
2.3961,-0.021341,-0.016619,0.032679,0.000983,0.010049,-0.016093,-0.005294,-0.526637,0.031262,0.242481,-259.250762,-1.618238,68.869803
2.4163,-0.021019,-0.016307,0.030499,0.000992,0.010045,-0.016093,-0.004651,-0.525927,0.032008,0.236389,-259.250369,-1.618883,68.861844
2.4361,-0.020871,-0.015965,0.031723,0.000996,0.010043,-0.016092,-0.004986,-0.525937,0.031306,0.236389,-259.250369,-1.618883,68.861844
2.4563,-0.020354,-0.015387,0.031775,0.000999,0.010041,-0.016091,-0.004674,-0.525391,0.031215,0.214932,-259.249966,-1.620677,68.853949
2.4761,-0.020219,-0.015644,0.030265,0.000968,0.010048,-0.016086,-0.004195,-0.525136,0.031702,0.214932,-259.249966,-1.620677,68.853949
2.4962,-0.020566,-0.015854,0.028638,0.000943,0.010054,-0.016083,-0.004195,-0.525136,0.031702,0.214932,-259.249966,-1.620677,68.853949
2.5161,-0.019593,-0.014907,0.028926,0.000922,0.010059,-0.016082,-0.005933,-0.525225,0.027966,0.211112,-259.249557,-1.62101,68.845986
2.5361,-0.020159,-0.014922,0.027408,0.000985,0.010041,-0.016101,-0.005477,-0.524956,0.028286,0.211112,-259.249557,-1.62101,68.845986
2.5563,-0.01952,-0.01467,0.028808,0.001037,0.010026,-0.016115,-0.006162,-0.524419,0.026912,0.251615,-259.249186,-1.617149,68.838236
2.5765,-0.019307,-0.0151,0.029507,0.001058,0.010019,-0.016118,-0.004942,-0.52444,0.028624,0.251615,-259.249186,-1.617149,68.838236
2.5964,-0.019496,-0.014511,0.027999,0.001075,0.010013,-0.01612,-0.004942,-0.52444,0.028624,0.251615,-259.249186,-1.617149,68.838236
2.6165,-0.019511,-0.01421,0.027687,0.00109,0.010008,-0.01612,-0.005189,-0.523929,0.027387,0.176651,-259.248803,-1.622921,68.830998
2.6365,-0.018998,-0.0142,0.028192,0.001134,0.009993,-0.016129,-0.005268,-0.52392,0.027437,0.176651,-259.248803,-1.622921,68.830998
2.6565,-0.018441,-0.013581,0.02711,0.00117,0.00998,-0.016135,-0.004597,-0.523681,0.027684,0.147987,-259.248367,-1.625641,68.823131
2.6762,-0.018238,-0.01374,0.025566,0.001169,0.009978,-0.016144,-0.004614,-0.523402,0.027134,0.147987,-259.248367,-1.625641,68.823131
2.6964,-0.018419,-0.014026,0.026253,0.001169,0.009977,-0.016152,-0.004614,-0.523402,0.027134,0.147987,-259.248367,-1.625641,68.823131
2.7164,-0.018045,-0.012956,0.025648,0.001169,0.009976,-0.016158,-0.004994,-0.523444,0.025599,0.10678,-259.247909,-1.629722,68.815401
2.7365,-0.017604,-0.013007,0.026872,0.001199,0.009965,-0.016179,-0.004978,-0.523126,0.025543,0.10678,-259.247909,-1.629722,68.815401
2.7562,-0.017885,-0.012698,0.025791,0.001224,0.009955,-0.016195,-0.003873,-0.522506,0.02636,0.091099,-259.247442,-1.629613,68.807485
2.7765,-0.017243,-0.012914,0.025577,0.001239,0.009948,-0.01621,-0.004656,-0.52251,0.025816,0.091099,-259.247442,-1.629613,68.807485
2.7969,-0.017547,-0.012441,0.024287,0.001252,0.009942,-0.016221,-0.004656,-0.52251,0.025816,0.091099,-259.247442,-1.629613,68.807485
2.8169,-0.017031,-0.012446,0.023715,0.001262,0.009937,-0.01623,-0.005122,-0.521883,0.023625,0.051999,-259.246964,-1.632395,68.799736
2.837,-0.016794,-0.011784,0.025048,0.001307,0.00992,-0.016245,-0.005043,-0.522006,0.023586,0.051999,-259.246964,-1.632395,68.799736
2.8563,-0.016598,-0.011654,0.023907,0.001343,0.009905,-0.016255,-0.003989,-0.521312,0.024539,0.019511,-259.246468,-1.634269,68.791914
2.8769,-0.016558,-0.011908,0.02267,0.001339,0.009903,-0.016254,-0.004368,-0.521475,0.023937,0.019511,-259.246468,-1.634269,68.791914
2.8964,-0.016692,-0.011608,0.023517,0.001335,0.009903,-0.016253,-0.004368,-0.521475,0.023937,0.019511,-259.246468,-1.634269,68.791914
2.9165,-0.01653,-0.011017,0.023175,0.001332,0.009902,-0.016252,-0.004654,-0.52106,0.022851,-0.017419,-259.245943,-1.638423,68.784137
2.9364,-0.016439,-0.011054,0.023278,0.001371,0.009886,-0.016261,-0.004672,-0.52094,0.022905,-0.017419,-259.245943,-1.638423,68.784137
2.9565,-0.015597,-0.010491,0.022054,0.001402,0.009872,-0.016266,-0.004534,-0.520598,0.022758,-0.01814,-259.24541,-1.637885,68.776188
2.9765,-0.015599,-0.010958,0.022463,0.001421,0.009862,-0.016268,-0.004365,-0.520372,0.022092,-0.01814,-259.24541,-1.637885,68.776188
2.9965,-0.015645,-0.010565,0.022054,0.001437,0.009853,-0.016268,-0.004365,-0.520372,0.022092,-0.01814,-259.24541,-1.637885,68.776188
3.0167,-0.015547,-0.010043,0.021495,0.001449,0.009846,-0.016268,-0.00435,-0.520031,0.021382,-0.04466,-259.244855,-1.64145,68.768336
3.0365,-0.015338,-0.00978,0.019749,0.001482,0.009829,-0.016272,-0.00444,-0.519941,0.02135,-0.04466,-259.244855,-1.64145,68.768336
3.0566,-0.014891,-0.009921,0.020033,0.001508,0.009816,-0.016274,-0.005227,-0.519368,0.019233,-0.061988,-259.244274,-1.643942,68.760409
3.0767,-0.014656,-0.009387,0.020067,0.001559,0.009791,-0.016281,-0.004718,-0.519767,0.019944,-0.061988,-259.244274,-1.643942,68.760409
3.0964,-0.014825,-0.009974,0.020127,0.001601,0.00977,-0.016284,-0.004718,-0.519767,0.019944,-0.061988,-259.244274,-1.643942,68.760409
3.1161,-0.014174,-0.009158,0.020962,0.001634,0.009752,-0.016285,-0.004506,-0.519464,0.019455,-0.08184,-259.243675,-1.64699,68.752567
3.1362,-0.014347,-0.009214,0.019145,0.001626,0.00975,-0.016278,-0.004082,-0.519246,0.019994,-0.08184,-259.243675,-1.64699,68.752567
3.1564,-0.014029,-0.008533,0.019689,0.00162,0.009748,-0.016273,-0.004538,-0.518815,0.018637,-0.118279,-259.24303,-1.65357,68.744821
3.1762,-0.014046,-0.008917,0.018771,0.001645,0.009729,-0.016277,-0.004033,-0.518452,0.019573,-0.118279,-259.24303,-1.65357,68.744821
3.1964,-0.014141,-0.008763,0.019427,0.001665,0.009713,-0.016279,-0.004033,-0.518452,0.019573,-0.118279,-259.24303,-1.65357,68.744821
3.2162,-0.013656,-0.008157,0.019254,0.001682,0.0097,-0.01628,-0.004174,-0.518257,0.018745,-0.117117,-259.242379,-1.652876,68.736932
3.2365,-0.013307,-0.007808,0.018896,0.00171,0.00968,-0.016282,-0.00403,-0.518132,0.018873,-0.117117,-259.242379,-1.652876,68.736932
3.2561,-0.013028,-0.007549,0.017256,0.001733,0.009663,-0.016282,-0.003623,-0.51741,0.018382,-0.143524,-259.241706,-1.65621,68.729127
3.2765,-0.012705,-0.007502,0.016799,0.001801,0.009618,-0.016281,-0.004173,-0.517452,0.017329,-0.143524,-259.241706,-1.65621,68.729127
3.2964,-0.012595,-0.007753,0.018239,0.001856,0.009581,-0.016276,-0.004173,-0.517452,0.017329,-0.143524,-259.241706,-1.65621,68.729127
3.3164,-0.012331,-0.007547,0.016045,0.0019,0.009551,-0.016269,-0.003228,-0.517265,0.017562,-0.160992,-259.241007,-1.658945,68.721288
3.3365,-0.012373,-0.007609,0.017812,0.001879,0.009551,-0.01624,-0.0036,-0.517308,0.016859,-0.160992,-259.241007,-1.658945,68.721288
3.3563,-0.012087,-0.006807,0.015351,0.001863,0.00955,-0.016217,-0.003236,-0.517231,0.017307,-0.200339,-259.240251,-1.667988,68.713655
3.3765,-0.012046,-0.006983,0.01521,0.001944,0.009495,-0.016186,-0.004169,-0.516774,0.015492,-0.200339,-259.240251,-1.667988,68.713655
3.3964,-0.011588,-0.006753,0.015256,0.00201,0.00945,-0.016158,-0.004169,-0.516774,0.015492,-0.200339,-259.240251,-1.667988,68.713655
3.4163,-0.011293,-0.005986,0.01432,0.002063,0.009413,-0.016132,-0.003737,-0.516295,0.014579,-0.187891,-259.239495,-1.666252,68.705857
3.4366,-0.012009,-0.006345,0.01482,0.002107,0.009365,-0.016064,-0.003833,-0.5161,0.014395,-0.187891,-259.239495,-1.666252,68.705857
3.4564,-0.010883,-0.00566,0.014425,0.002143,0.009326,-0.016009,-0.004391,-0.515993,0.014313,-0.209992,-259.238661,-1.677499,68.698198
3.4764,-0.010633,-0.00526,0.013923,0.002175,0.009274,-0.015964,-0.003601,-0.515626,0.014389,-0.209992,-259.238661,-1.677499,68.698198
3.4969,-0.010381,-0.005747,0.014563,0.002201,0.009231,-0.015926,-0.003601,-0.515626,0.014389,-0.209992,-259.238661,-1.677499,68.698198
3.5165,-0.010657,-0.005098,0.013402,0.002222,0.009196,-0.015895,-0.00287,-0.515302,0.013893,-0.207426,-259.237785,-1.682532,68.690512
3.5364,-0.010438,-0.005113,0.013621,0.002215,0.009154,-0.015822,-0.003249,-0.515155,0.013615,-0.207426,-259.237785,-1.682532,68.690512
3.5561,-0.009867,-0.004409,0.011823,0.002211,0.00912,-0.015765,-0.003426,-0.514774,0.013118,-0.226292,-259.236879,-1.687817,68.682946
3.5762,-0.00979,-0.004699,0.013101,0.002321,0.008969,-0.015605,-0.003797,-0.514395,0.011914,-0.226292,-259.236879,-1.687817,68.682946
3.5964,-0.009795,-0.00454,0.012021,0.002411,0.008848,-0.015478,-0.003797,-0.514395,0.011914,-0.226292,-259.236879,-1.687817,68.682946
3.6168,-0.009546,-0.004475,0.011555,0.002485,0.008752,-0.015375,-0.003576,-0.51412,0.01136,-0.226155,-259.235971,-1.688207,68.675395
3.6365,-0.009361,-0.004401,0.012274,0.002522,0.008666,-0.015226,-0.003597,-0.514207,0.011363,-0.226155,-259.235971,-1.688207,68.675395
3.6564,-0.008883,-0.003847,0.009313,0.002555,0.008597,-0.01511,-0.003026,-0.514087,0.011792,-0.251697,-259.234961,-1.706898,68.668187
3.6767,-0.009027,-0.003748,0.01084,0.002636,0.008468,-0.014757,-0.00403,-0.513834,0.009511,-0.251697,-259.234961,-1.706898,68.668187
3.6963,-0.008812,-0.003903,0.011518,0.002708,0.008363,-0.014496,-0.00403,-0.513834,0.009511,-0.251697,-259.234961,-1.706898,68.668187
3.7168,-0.008197,-0.003548,0.010236,0.002773,0.008277,-0.014303,-0.002835,-0.513509,0.010887,-0.242181,-259.23391,-1.71318,68.660998
3.7369,-0.008387,-0.003838,0.009154,0.00268,0.008218,-0.014284,-0.002881,-0.513472,0.01055,-0.242181,-259.23391,-1.71318,68.660998
3.7566,-0.008143,-0.003461,0.007357,0.002612,0.008172,-0.014274,-0.003641,-0.513578,0.008743,-0.167179,-259.232895,-1.732362,68.654771
3.7768,-0.00755,-0.003087,0.010598,0.002706,0.008057,-0.013707,-0.004323,-0.513446,0.007455,-0.167179,-259.232895,-1.732362,68.654771
3.7971,-0.007777,-0.003038,0.010462,0.0028,0.007963,-0.013308,-0.004323,-0.513446,0.007455,-0.167179,-259.232895,-1.732362,68.654771
3.8162,-0.007275,-0.002938,0.008638,0.002888,0.007885,-0.013027,-0.002338,-0.512674,0.009877,-0.205985,-259.231855,-1.724208,68.648108
3.8363,-0.007638,-0.002521,0.007013,0.002746,0.007774,-0.01314,-0.002541,-0.512735,0.009311,-0.205985,-259.231855,-1.724208,68.648108
3.8561,-0.007268,-0.002942,0.009068,0.002641,0.007691,-0.013231,-0.004061,-0.512509,0.007013,-0.131015,-259.231855,-1.649238,68.648108
3.8764,-0.007386,-0.002937,0.008389,0.002597,0.007664,-0.013223,-0.002765,-0.512886,0.008892,-0.131015,-259.231855,-1.649238,68.648108
3.8965,-0.007342,-0.002697,0.009085,0.002565,0.007643,-0.013218,-0.002765,-0.512886,0.008892,-0.131015,-259.231855,-1.649238,68.648108
3.9164,-0.007358,-0.002408,0.007351,0.002543,0.007626,-0.013214,-0.002641,-0.512554,0.008862,-0.146571,-259.230915,-1.724259,68.645612
3.9367,-0.006883,-0.002626,0.00865,0.002588,0.007517,-0.013098,-0.003026,-0.512475,0.008223,-0.146571,-259.230915,-1.724259,68.645612
3.9562,-0.006945,-0.002261,0.007722,0.002627,0.007432,-0.01301,-0.002401,-0.512416,0.008316,-0.172939,-259.229894,-1.731397,68.640608
3.9768,-0.006493,-0.00233,0.008435,0.002645,0.007322,-0.012843,-0.002951,-0.512251,0.007757,-0.172939,-259.229894,-1.731397,68.640608
3.9964,-0.006752,-0.002332,0.00921,0.002664,0.007237,-0.012718,-0.002951,-0.512251,0.007757,-0.172939,-259.229894,-1.731397,68.640608
4.0171,-0.006524,-0.002184,0.007792,0.002683,0.00717,-0.012625,-0.001948,-0.512,0.008667,-0.193238,-259.228829,-1.739989,68.634401
4.0368,-0.006337,-0.002304,0.007439,0.002544,0.007092,-0.012615,-0.00218,-0.512033,0.00825,-0.193238,-259.228829,-1.739989,68.634401
4.0563,-0.006274,-0.001833,0.008099,0.002442,0.007035,-0.012612,-0.002544,-0.51229,0.007439,-0.198827,-259.228828,-1.664803,68.634401
4.0766,-0.006281,-0.001679,0.008311,0.002372,0.006956,-0.012557,-0.00218,-0.51186,0.008039,-0.198827,-259.228828,-1.664803,68.634401
4.0964,-0.006515,-0.002148,0.007271,0.002322,0.006898,-0.012515,-0.00218,-0.51186,0.008039,-0.198827,-259.228828,-1.664803,68.634401
4.1163,-0.006066,-0.002225,0.00732,0.002285,0.006854,-0.012483,-0.002742,-0.512018,0.007041,-0.267003,-259.22796,-1.734994,68.631912
4.1368,-0.006407,-0.001804,0.006276,0.002316,0.006879,-0.012265,-0.00257,-0.512082,0.007126,-0.267003,-259.22796,-1.734994,68.631912
4.1567,-0.005837,-0.001238,0.00557,0.002345,0.006897,-0.012105,-0.003142,-0.511608,0.005934,-0.32507,-259.227046,-1.72737,68.626923
4.1767,-0.005978,-0.001516,0.007695,0.002439,0.006674,-0.011602,-0.003007,-0.511256,0.005586,-0.32507,-259.227046,-1.72737,68.626923
4.1964,-0.006016,-0.001801,0.005841,0.002528,0.006502,-0.011248,-0.003007,-0.511256,0.005586,-0.32507,-259.227046,-1.72737,68.626923
4.2164,-0.005868,-0.001572,0.005669,0.002607,0.006368,-0.010999,-0.00296,-0.511561,0.00543,-0.250066,-259.226275,-1.73343,68.622265
4.2365,-0.006059,-0.001067,0.004139,0.002656,0.00635,-0.010778,-0.002958,-0.511536,0.005481,-0.250066,-259.226275,-1.73343,68.622265
4.2561,-0.005098,-0.001267,0.006183,0.002701,0.006334,-0.010622,-0.003948,-0.511063,0.004139,-0.175032,-259.226275,-1.658396,68.622266
4.2763,-0.005122,-0.001004,0.005028,0.002583,0.006262,-0.010606,-0.002126,-0.51124,0.005999,-0.175032,-259.226275,-1.658396,68.622266
4.2962,-0.005476,-0.001435,0.007243,0.002498,0.006209,-0.010596,-0.002126,-0.51124,0.005999,-0.175032,-259.226275,-1.658396,68.622266
4.3164,-0.005434,-0.001254,0.006777,0.002437,0.006169,-0.01059,-0.001782,-0.511422,0.007243,-0.100068,-259.226275,-1.583432,68.622266
4.3369,-0.005093,-0.00127,0.007119,0.002348,0.006183,-0.010778,-0.001862,-0.511349,0.007053,-0.100068,-259.226275,-1.583432,68.622266
4.3563,-0.005689,-0.00128,0.006197,0.002279,0.006197,-0.010914,-0.001463,-0.511257,0.007119,-0.121927,-259.226275,-1.508433,68.622267
4.3768,-0.005664,-0.001251,0.006438,0.00235,0.006173,-0.010876,-0.002432,-0.511269,0.006281,-0.121927,-259.226275,-1.508433,68.622267
4.3967,-0.005427,-0.001435,0.007737,0.002404,0.006154,-0.010844,-0.002432,-0.511269,0.006281,-0.121927,-259.226275,-1.508433,68.622267
4.4165,-0.005501,-0.00113,0.005902,0.002446,0.00614,-0.010816,-0.001481,-0.51142,0.007737,-0.196927,-259.226275,-1.433433,68.622267
4.4364,-0.005372,-0.001517,0.006969,0.002363,0.006152,-0.010907,-0.001893,-0.511298,0.00699,-0.196927,-259.226275,-1.433433,68.622267
4.4565,-0.005596,-0.001074,0.006373,0.002299,0.006164,-0.010972,-0.001818,-0.511505,0.006969,-0.188081,-259.226275,-1.35843,68.622268
4.4767,-0.005265,-0.001289,0.006942,0.002357,0.006111,-0.010909,-0.002301,-0.511102,0.006424,-0.188081,-259.226275,-1.35843,68.622268
4.4964,-0.005639,-0.001396,0.005719,0.002401,0.006071,-0.010856,-0.002301,-0.511102,0.006424,-0.188081,-259.226275,-1.35843,68.622268
4.5167,-0.00561,-0.001406,0.005722,0.002436,0.00604,-0.010812,-0.002723,-0.511388,0.005719,-0.229713,-259.226275,-1.283265,68.622268
4.5367,-0.005617,-0.00136,0.005803,0.002517,0.006103,-0.010588,-0.002711,-0.511392,0.00572,-0.229713,-259.226275,-1.283265,68.622268
4.5561,-0.005736,-0.00115,0.004889,0.002584,0.00615,-0.010424,-0.002657,-0.511352,0.005803,-0.227224,-259.226275,-1.208434,68.622269
4.5764,-0.004898,-0.000985,0.004706,0.002707,0.006107,-0.010115,-0.00319,-0.511163,0.004971,-0.227224,-259.226275,-1.208434,68.622269
4.5966,-0.005543,-0.000979,0.007283,0.002811,0.006072,-0.009894,-0.00319,-0.511163,0.004971,-0.227224,-259.226275,-1.208434,68.622269
4.6166,-0.005634,-0.001382,0.006623,0.002899,0.006043,-0.009737,-0.001828,-0.510966,0.007283,-0.152229,-259.226275,-1.133438,68.622269
4.6365,-0.004969,-0.001356,0.007306,0.002769,0.006032,-0.010026,-0.002002,-0.51113,0.007015,-0.152229,-259.226275,-1.133438,68.622269
4.6563,-0.005678,-0.001401,0.005366,0.002668,0.006027,-0.01024,-0.001243,-0.511342,0.007306,-0.07723,-259.226275,-1.05844,68.622269
4.6766,-0.005124,-0.001281,0.005527,0.002721,0.006102,-0.010036,-0.00279,-0.511389,0.005539,-0.07723,-259.226275,-1.05844,68.622269
4.6967,-0.005533,-0.000885,0.00642,0.002764,0.00616,-0.009884,-0.00279,-0.511389,0.005539,-0.07723,-259.226275,-1.05844,68.622269
4.7162,-0.005436,-0.001188,0.006286,0.002801,0.006204,-0.009772,-0.002259,-0.510874,0.00642,-0.084847,-259.226275,-0.983437,68.62227
4.7366,-0.005297,-0.001301,0.006707,0.002748,0.006132,-0.009857,-0.002247,-0.510999,0.006365,-0.084847,-259.226275,-0.983437,68.62227
4.7562,-0.005768,-0.001515,0.007076,0.002707,0.006079,-0.009914,-0.001876,-0.51129,0.006707,-0.009726,-259.226275,-0.908316,68.62227
4.7764,-0.005431,-0.000931,0.006386,0.002644,0.006185,-0.010064,-0.002136,-0.511484,0.007045,-0.009726,-259.226275,-0.908316,68.62227
4.7965,-0.005745,-0.001287,0.006615,0.002593,0.006269,-0.010171,-0.002136,-0.511484,0.007045,-0.009726,-259.226275,-0.908316,68.62227
4.8163,-0.005395,-0.001713,0.005496,0.002551,0.006335,-0.010246,-0.002371,-0.511275,0.006615,0.008953,-259.226274,-0.833232,68.622271
4.8364,-0.005232,-0.001241,0.006829,0.002572,0.006372,-0.010133,-0.002462,-0.511451,0.006158,0.008953,-259.226274,-0.833232,68.622271
4.8567,-0.005513,-0.001132,0.006928,0.002589,0.0064,-0.010052,-0.001749,-0.511229,0.006829,0.030302,-259.226274,-0.758439,68.622271
4.8765,-0.005491,-0.001427,0.005989,0.002513,0.006336,-0.010131,-0.001958,-0.51113,0.006919,0.030302,-259.226274,-0.758439,68.622271
4.8966,-0.005724,-0.001179,0.007244,0.002454,0.006289,-0.010188,-0.001958,-0.51113,0.006919,0.030302,-259.226274,-0.758439,68.622271
4.9164,-0.005701,-0.000938,0.007488,0.002409,0.006256,-0.010227,-0.00203,-0.511166,0.007244,0.100326,-259.226274,-0.683408,68.622272
4.9365,-0.005248,-0.00141,0.008065,0.002388,0.006207,-0.010334,-0.001969,-0.511066,0.007345,0.100326,-259.226274,-0.683408,68.622272
4.9563,-0.005328,-0.001545,0.006232,0.002369,0.006171,-0.010408,-0.001135,-0.511393,0.008065,0.025248,-259.226274,-0.60833,68.622272
4.9767,-0.005633,-0.001121,0.006045,0.002334,0.00629,-0.010265,-0.002059,-0.511522,0.006396,0.025248,-259.226274,-0.60833,68.622272
4.9966,-0.005342,-0.001221,0.006202,0.002309,0.006381,-0.010168,-0.002059,-0.511522,0.006396,0.025248,-259.226274,-0.60833,68.622272
5.0162,-0.004869,-0.0011,0.005216,0.002292,0.006452,-0.010103,-0.002179,-0.511211,0.006202,-0.04967,-259.226274,-0.533412,68.622273
5.0366,-0.005499,-0.001227,0.005574,0.002312,0.006398,-0.009936,-0.002191,-0.511163,0.005798,-0.04967,-259.226274,-0.533412,68.622273
5.0564,-0.005395,-0.001134,0.006278,0.002331,0.006357,-0.009823,-0.002656,-0.511219,0.005574,0.025328,-259.226274,-0.458414,68.622273
5.0765,-0.00547,-0.00129,0.007033,0.002372,0.00631,-0.009845,-0.002235,-0.511132,0.006215,0.025328,-259.226274,-0.458414,68.622273
5.0966,-0.00544,-0.00103,0.00593,0.002403,0.006274,-0.00986,-0.002235,-0.511132,0.006215,0.025328,-259.226274,-0.458414,68.622273
5.1162,-0.005146,-0.00103,0.00645,0.002427,0.006246,-0.00987,-0.002416,-0.511021,0.00593,0.100339,-259.226274,-0.383403,68.622273
5.1361,-0.004892,-0.001605,0.004668,0.002436,0.006191,-0.009861,-0.002186,-0.511021,0.006143,0.100339,-259.226274,-0.383403,68.622273
5.1562,-0.005409,-0.001495,0.006018,0.002444,0.006149,-0.009854,-0.002511,-0.511599,0.004668,0.089466,-259.226274,-0.308411,68.622274
5.1762,-0.005239,-0.001505,0.005668,0.002463,0.006254,-0.009792,-0.002354,-0.511496,0.005906,0.089466,-259.226274,-0.308411,68.622274
5.1961,-0.005709,-0.001014,0.005217,0.002479,0.006334,-0.00975,-0.002354,-0.511496,0.005906,0.089466,-259.226274,-0.308411,68.622274
5.2163,-0.005638,-0.001105,0.006615,0.002493,0.006394,-0.009722,-0.003048,-0.511008,0.005217,0.053337,-259.226274,-0.233255,68.622274
5.2361,-0.005544,-0.001458,0.006207,0.002598,0.006295,-0.009706,-0.002722,-0.511043,0.005797,0.053337,-259.226274,-0.233255,68.622274
5.2561,-0.005658,-0.001089,0.006291,0.002679,0.006218,-0.009691,-0.002379,-0.511448,0.006207,0.128313,-259.226274,-0.158279,68.622275
5.2761,-0.005427,-0.000999,0.006605,0.002695,0.006183,-0.009773,-0.002443,-0.511111,0.006284,0.128313,-259.226274,-0.158279,68.622275
5.2963,-0.005449,-0.001067,0.006343,0.002705,0.006156,-0.00983,-0.002443,-0.511111,0.006284,0.128313,-259.226274,-0.158279,68.622275
5.3164,-0.005073,-0.001259,0.007108,0.002712,0.006136,-0.009869,-0.002215,-0.511057,0.006343,0.110979,-259.226274,-0.08331,68.622275
5.337,-0.005392,-0.001282,0.005967,0.002592,0.00614,-0.009938,-0.001907,-0.511133,0.006649,0.110979,-259.226274,-0.08331,68.622275
5.3572,-0.005555,-0.001132,0.005777,0.0025,0.006145,-0.009991,-0.002349,-0.511273,0.005967,0.039988,-259.226273,-0.00844,68.622276
5.3774,-0.005592,-0.001273,0.007881,0.002567,0.006137,-0.009878,-0.002584,-0.511138,0.005795,0.039988,-259.226273,-0.00844,68.622276
5.3965,-0.005454,-0.000978,0.006283,0.002621,0.00613,-0.009797,-0.002584,-0.511138,0.005795,0.039988,-259.226273,-0.00844,68.622276
5.4164,-0.005678,-0.001077,0.007283,0.002665,0.006123,-0.00974,-0.00225,-0.510968,0.006283,0.017122,-259.226273,0.066598,68.622276
5.4365,-0.005313,-0.001158,0.006536,0.002623,0.006083,-0.009873,-0.002133,-0.511007,0.006691,0.017122,-259.226273,0.066598,68.622276
5.4564,-0.005704,-0.001167,0.005458,0.00259,0.006053,-0.009967,-0.001979,-0.511148,0.006536,0.065366,-259.226273,0.141562,68.622277
5.4766,-0.005408,-0.001319,0.006378,0.002678,0.006063,-0.009805,-0.002839,-0.511158,0.005552,0.065366,-259.226273,0.141562,68.622277
5.4966,-0.005729,-0.001217,0.007547,0.00275,0.006069,-0.009692,-0.002839,-0.511158,0.005552,0.065366,-259.226273,0.141562,68.622277
5.5167,-0.005422,-0.001237,0.005683,0.002808,0.006073,-0.009613,-0.00188,-0.511202,0.007547,-0.00974,-259.226273,0.216667,68.622277
5.5367,-0.005623,-0.00126,0.005869,0.002731,0.006104,-0.00979,-0.002142,-0.511213,0.006789,-0.00974,-259.226273,0.216667,68.622277
5.5561,-0.005987,-0.001387,0.006161,0.00267,0.006131,-0.00992,-0.002629,-0.511251,0.005869,0.06516,-259.226273,0.291566,68.622277
5.5763,-0.005558,-0.001256,0.007034,0.002748,0.006173,-0.009907,-0.002826,-0.511367,0.006136,0.06516,-259.226273,0.291566,68.622277
5.5967,-0.005692,-0.001176,0.00717,0.002808,0.006206,-0.009896,-0.002826,-0.511367,0.006136,0.06516,-259.226273,0.291566,68.622277
5.6161,-0.005712,-0.001242,0.006952,0.002854,0.006231,-0.009886,-0.002035,-0.511163,0.00717,0.02701,-259.226273,0.366681,68.622278
5.6361,-0.005551,-0.001364,0.006774,0.002752,0.006217,-0.010034,-0.002089,-0.51119,0.007081,0.02701,-259.226273,0.366681,68.622278
5.6561,-0.005618,-0.001491,0.0041,0.002673,0.006209,-0.010142,-0.002096,-0.511353,0.006774,0.067352,-259.226273,0.441571,68.622278
5.677,-0.005593,-0.001495,0.006737,0.002765,0.006244,-0.009558,-0.00342,-0.511477,0.004301,0.067352,-259.226273,0.441571,68.622278
5.6967,-0.005319,-0.000893,0.00675,0.002855,0.006272,-0.009168,-0.00342,-0.511477,0.004301,0.067352,-259.226273,0.441571,68.622278
5.7166,-0.005617,-0.001097,0.007084,0.00294,0.006291,-0.008905,-0.001877,-0.510882,0.00675,0.005482,-259.226273,0.517026,68.622279
5.7365,-0.005759,-0.00109,0.004198,0.00279,0.006181,-0.009287,-0.001928,-0.510963,0.006884,0.005482,-259.226273,0.517026,68.622279
5.7561,-0.005518,-0.001394,0.005904,0.002674,0.006104,-0.009571,-0.003618,-0.511086,0.004198,0.080027,-259.226273,0.591571,68.622279
5.7762,-0.005701,-0.000744,0.00645,0.002706,0.00616,-0.00957,-0.002607,-0.511358,0.00575,0.080027,-259.226273,0.591571,68.622279
5.7961,-0.005226,-0.000929,0.007302,0.002731,0.006204,-0.009571,-0.002607,-0.511358,0.00575,0.080027,-259.226273,0.591571,68.622279
5.8168,-0.005403,-0.001239,0.006867,0.00275,0.006237,-0.009572,-0.001502,-0.510915,0.007302,0.096381,-259.226273,0.666563,68.62228
5.8361,-0.005135,-0.001386,0.007106,0.002569,0.006178,-0.009804,-0.001666,-0.511043,0.007123,0.096381,-259.226273,0.666563,68.62228
5.8563,-0.00557,-0.00144,0.006482,0.002431,0.006139,-0.009976,-0.001511,-0.511373,0.007106,0.141041,-259.226272,0.741897,68.622282
5.8764,-0.005391,-0.001269,0.006589,0.002439,0.006222,-0.010013,-0.002199,-0.511425,0.006537,0.141041,-259.226272,0.741897,68.622282
5.8968,-0.005553,-0.001118,0.004845,0.002443,0.006286,-0.010039,-0.002199,-0.511425,0.006537,0.141041,-259.226272,0.741897,68.622282
5.9168,-0.005617,-0.001097,0.005799,0.002446,0.006337,-0.010056,-0.003082,-0.511112,0.004845,0.066268,-259.226271,0.81667,68.622286
5.9368,-0.005768,-0.001441,0.009556,0.002567,0.006265,-0.009788,-0.002915,-0.511103,0.005222,0.066268,-259.226271,0.81667,68.622286
5.9561,-0.005252,-0.001391,0.004543,0.002668,0.006209,-0.009602,-0.000893,-0.511417,0.009555,0.079531,-259.226266,0.891565,68.622311
5.9763,-0.005496,-0.001173,0.00505,0.002702,0.006253,-0.009393,-0.002758,-0.511389,0.004978,0.079531,-259.226266,0.891565,68.622311
5.9965,-0.005371,-0.001214,0.006963,0.002735,0.006286,-0.009252,-0.002758,-0.511389,0.004978,0.079531,-259.226266,0.891565,68.622311
6.0164,-0.005547,-0.001323,0.004755,0.002765,0.00631,-0.009157,-0.001814,-0.511195,0.006954,0.128225,-259.226236,0.966655,68.62245
6.0364,-0.005215,-0.000909,0.005354,0.002742,0.006292,-0.00934,-0.002354,-0.511245,0.006044,0.128225,-259.226236,0.966655,68.62245
6.0561,-0.005518,-0.00116,0.00442,0.002722,0.00628,-0.009472,-0.002473,-0.510888,0.005334,0.203316,-259.226149,1.041747,68.622824
6.0765,-0.005413,-0.001461,0.005864,0.002822,0.006218,-0.009197,-0.00319,-0.511129,0.004504,0.203316,-259.226149,1.041747,68.622824
6.0964,-0.005516,-0.001167,0.006526,0.002908,0.006169,-0.009007,-0.00319,-0.511129,0.004504,0.203316,-259.226149,1.041747,68.622824
6.1166,-0.005759,-0.000841,0.005943,0.002981,0.006129,-0.008877,-0.002151,-0.511104,0.006448,0.179724,-259.225912,1.116579,68.623881
6.137,-0.005181,-0.00078,0.007149,0.002935,0.006064,-0.009182,-0.00238,-0.510988,0.006235,0.179724,-259.225912,1.116579,68.623881
6.1565,-0.00513,-0.000705,0.005432,0.002895,0.006017,-0.009402,-0.001477,-0.510673,0.007014,0.233004,-259.225304,1.191568,68.626249
6.1765,-0.005168,-0.000789,0.005514,0.0,0.0,0.0,-0.002275,-0.510691,0.005571,0.233004,-259.225304,1.191568,68.626249
6.1967,-0.005204,-0.001191,0.00325,0.0,0.0,0.0,-0.002275,-0.510691,0.005571,0.233004,-259.225304,1.191568,68.626249
6.2164,-0.004524,-0.000524,0.004276,0.0,0.0,0.0,-0.003473,-0.511052,0.003044,0.158005,-259.224674,1.266567,68.628874
6.2361,-0.005154,-0.001045,0.005174,0.0,0.0,0.0,-0.003012,-0.510823,0.003513,0.158005,-259.224674,1.266567,68.628874
6.256,-0.005404,-0.001204,0.005123,0.0,0.0,0.0,-0.002515,-0.511038,0.005174,0.158005,-259.224674,1.266567,68.628874
6.2763,-0.004977,-0.001186,0.007048,0.0,0.0,0.0,-0.002768,-0.511184,0.005128,0.158005,-259.224674,1.266567,68.628874
6.2961,-0.005221,-0.000832,0.005282,0.0,0.0,0.0,-0.002768,-0.511184,0.005128,0.158005,-259.224674,1.266567,68.628874
6.3162,-0.004836,-0.00069,0.006234,0.0,0.0,0.0,-0.002527,-0.510825,0.005282,0.158005,-259.224674,1.266567,68.628874
6.3365,-0.005165,-0.000922,0.004794,0.0,0.0,0.0,-0.002169,-0.510766,0.005674,0.158005,-259.224674,1.266567,68.628874
6.356,-0.004962,-0.000975,0.006462,0.0,0.0,0.0,-0.00272,-0.510917,0.004794,0.158005,-259.224674,1.266567,68.628874
6.3763,-0.004922,-0.000984,0.0047,0.0,0.0,0.0,-0.001757,-0.51096,0.00632,0.158005,-259.224674,1.266567,68.628874
6.3964,-0.004845,-0.000674,0.00672,0.0,0.0,0.0,-0.001757,-0.51096,0.00632,0.158005,-259.224674,1.266567,68.628874
6.4163,-0.005093,-0.000934,0.004999,0.0,0.0,0.0,-0.001418,-0.510662,0.00672,0.158005,-259.224674,1.266567,68.628874
6.4363,-0.005178,-0.000594,0.004267,0.0,0.0,0.0,-0.001888,-0.510773,0.006001,0.158005,-259.224674,1.266567,68.628874
6.4564,-0.004937,-0.000802,0.006262,0.0,0.0,0.0,-0.003001,-0.51059,0.004267,0.158005,-259.224674,1.266567,68.628874
6.4764,-0.005406,-0.000879,0.003891,0.0,0.0,0.0,-0.001856,-0.510774,0.006085,0.158005,-259.224674,1.266567,68.628874
6.4966,-0.004627,-0.001091,0.004998,0.0,0.0,0.0,-0.001856,-0.510774,0.006085,0.158005,-259.224674,1.266567,68.628874
6.5165,-0.005051,-0.001066,0.005615,0.0,0.0,0.0,-0.002078,-0.511084,0.004998,0.158005,-259.224674,1.266567,68.628874
6.5369,-0.004798,-0.000886,0.004702,0.0,0.0,0.0,-0.002123,-0.511074,0.005249,0.158005,-259.224674,1.266567,68.628874
6.5566,-0.004711,-0.000335,0.00537,0.0,0.0,0.0,-0.0024,-0.510881,0.004702,0.158005,-259.224674,1.266567,68.628874
6.5768,-0.004728,-0.000318,0.005338,0.0,0.0,0.0,-0.00201,-0.510378,0.00531,0.158005,-259.224674,1.266567,68.628874
6.5967,-0.004847,-0.00126,0.006114,0.0,0.0,0.0,-0.00201,-0.510378,0.00531,0.158005,-259.224674,1.266567,68.628874
6.6164,-0.004845,-0.000663,0.00559,0.0,0.0,0.0,-0.001729,-0.51125,0.006114,0.158005,-259.224674,1.266567,68.628874
6.6362,-0.005027,-0.000582,0.005888,0.0,0.0,0.0,-0.001837,-0.511007,0.0059,0.158005,-259.224674,1.266567,68.628874
6.6561,-0.00502,-0.000706,0.0058,0.0,0.0,0.0,-0.002024,-0.510574,0.005888,0.158005,-259.224674,1.266567,68.628874
6.6767,-0.004874,-0.000387,0.004275,0.0,0.0,0.0,-0.002058,-0.510687,0.005808,0.158005,-259.224674,1.266567,68.628874
6.6966,-0.00466,-0.000612,0.005116,0.0,0.0,0.0,-0.002058,-0.510687,0.005808,0.158005,-259.224674,1.266567,68.628874
6.7164,-0.005243,-0.000922,0.006612,0.0,0.0,0.0,-0.002051,-0.510606,0.005116,0.158005,-259.224674,1.266567,68.628874
6.7362,-0.004577,-0.000786,0.005251,0.0,0.0,0.0,-0.001974,-0.510736,0.005753,0.158005,-259.224674,1.266567,68.628874
6.7562,-0.004868,-0.00091,0.00524,0.0,0.0,0.0,-0.0019,-0.510779,0.005251,0.158005,-259.224674,1.266567,68.628874
6.7762,-0.004691,-0.00094,0.005152,0.0,0.0,0.0,-0.002169,-0.510892,0.005241,0.158005,-259.224674,1.266567,68.628874
6.7962,-0.004835,-0.000574,0.004884,0.0,0.0,0.0,-0.002169,-0.510892,0.005241,0.158005,-259.224674,1.266567,68.628874
6.8166,-0.005039,-0.000668,0.006225,0.0,0.0,0.0,-0.002344,-0.510568,0.004884,0.158005,-259.224674,1.266567,68.628874
6.8366,-0.004951,-0.000884,0.005958,0.0,0.0,0.0,-0.002147,-0.510605,0.005433,0.158005,-259.224674,1.266567,68.628874
6.8564,-0.005212,-0.00051,0.006946,0.0,0.0,0.0,-0.001913,-0.510875,0.005958,0.158005,-259.224674,1.266567,68.628874
6.8765,-0.004982,-0.001158,0.004041,0.0,0.0,0.0,-0.001691,-0.510531,0.006858,0.158005,-259.224674,1.266567,68.628874
6.8963,-0.004835,-0.000512,0.005337,0.0,0.0,0.0,-0.001691,-0.510531,0.006858,0.158005,-259.224674,1.266567,68.628874
6.9165,-0.005055,-0.000895,0.005764,0.0,0.0,0.0,-0.002113,-0.510504,0.005337,0.158005,-259.224674,1.266567,68.628874
6.9366,-0.004957,-0.000803,0.005556,0.0,0.0,0.0,-0.002114,-0.510661,0.005513,0.158005,-259.224674,1.266567,68.628874
6.9564,-0.004718,-0.000994,0.005874,0.0,0.0,0.0,-0.002124,-0.510795,0.005556,0.158005,-259.224674,1.266567,68.628874
6.9768,-0.005018,-0.000676,0.00701,0.0,0.0,0.0,-0.001757,-0.510969,0.005847,0.158005,-259.224674,1.266567,68.628874
6.9965,-0.00498,-0.000663,0.006113,0.0,0.0,0.0,-0.001757,-0.510969,0.005847,0.158005,-259.224674,1.266567,68.628874
7.0166,-0.005076,-0.000698,0.005222,0.0,0.0,0.0,-0.001862,-0.510654,0.006113,0.158005,-259.224674,1.266567,68.628874
7.0368,-0.005201,-0.000774,0.006001,0.0,0.0,0.0,-0.002091,-0.510669,0.005743,0.158005,-259.224674,1.266567,68.628874
7.0563,-0.005252,-0.000899,0.004759,0.0,0.0,0.0,-0.00214,-0.510765,0.006001,0.158005,-259.224674,1.266567,68.628874
7.0764,-0.004864,-0.001061,0.006113,0.0,0.0,0.0,-0.002763,-0.510882,0.00487,0.158005,-259.224674,1.266567,68.628874
7.0963,-0.00488,-0.000716,0.006573,0.0,0.0,0.0,-0.002763,-0.510882,0.00487,0.158005,-259.224674,1.266567,68.628874
7.1163,-0.004603,-0.000983,0.005027,0.0,0.0,0.0,-0.001528,-0.510705,0.006573,0.158005,-259.224674,1.266567,68.628874
7.1365,-0.004757,-0.00084,0.00474,0.0,0.0,0.0,-0.001736,-0.510816,0.005942,0.158005,-259.224674,1.266567,68.628874
7.1562,-0.005335,-0.000401,0.006747,0.0,0.0,0.0,-0.00234,-0.510834,0.00474,0.158005,-259.224674,1.266567,68.628874
7.1764,-0.004703,-0.000539,0.005786,0.0,0.0,0.0,-0.001935,-0.51043,0.006563,0.158005,-259.224674,1.266567,68.628874
7.1963,-0.00485,-0.001412,0.006341,0.0,0.0,0.0,-0.001935,-0.51043,0.006563,0.158005,-259.224674,1.266567,68.628874
7.2164,-0.004995,-0.000725,0.005369,0.0,0.0,0.0,-0.001616,-0.511402,0.006341,0.158005,-259.224674,1.266567,68.628874
7.2365,-0.005135,-0.001066,0.007604,0.0,0.0,0.0,-0.001877,-0.511124,0.005946,0.158005,-259.224674,1.266567,68.628874
7.2563,-0.00473,-0.000804,0.004955,0.0,0.0,0.0,-0.001257,-0.511051,0.007604,0.158005,-259.224674,1.266567,68.628874
7.2765,-0.004845,-0.000582,0.006271,0.0,0.0,0.0,-0.002117,-0.510821,0.005195,0.158005,-259.224674,1.266567,68.628874
7.2965,-0.004672,-0.000784,0.004408,0.0,0.0,0.0,-0.002117,-0.510821,0.005195,0.158005,-259.224674,1.266567,68.628874
7.3165,-0.004583,-0.000823,0.00595,0.0,0.0,0.0,-0.002424,-0.510779,0.004408,0.158005,-259.224674,1.266567,68.628874
7.3365,-0.004983,-0.000627,0.005364,0.0,0.0,0.0,-0.002067,-0.510793,0.005036,0.158005,-259.224674,1.266567,68.628874
7.3562,-0.004668,-0.000879,0.004185,0.0,0.0,0.0,-0.002247,-0.51062,0.005364,0.158005,-259.224674,1.266567,68.628874
7.3766,-0.004958,-0.000589,0.004902,0.0,0.0,0.0,-0.002508,-0.510852,0.004291,0.158005,-259.224674,1.266567,68.628874
7.3967,-0.005164,-0.000677,0.006557,0.0,0.0,0.0,-0.002508,-0.510852,0.004291,0.158005,-259.224674,1.266567,68.628874
7.4166,-0.00467,-0.000297,0.006087,0.0,0.0,0.0,-0.00182,-0.510666,0.006557,0.158005,-259.224674,1.266567,68.628874
7.4368,-0.004942,-0.000997,0.005887,0.0,0.0,0.0,-0.001716,-0.510512,0.006366,0.158005,-259.224674,1.266567,68.628874
7.4565,-0.004833,-0.00099,0.004861,0.0,0.0,0.0,-0.001939,-0.510988,0.005887,0.158005,-259.224674,1.266567,68.628874
7.4765,-0.004985,-0.000677,0.004978,0.0,0.0,0.0,-0.002316,-0.510984,0.004954,0.158005,-259.224674,1.266567,68.628874
7.4966,-0.004867,-0.000987,0.005293,0.0,0.0,0.0,-0.002316,-0.510984,0.004954,0.158005,-259.224674,1.266567,68.628874
7.5167,-0.004951,-0.000824,0.006125,0.0,0.0,0.0,-0.002168,-0.51098,0.005293,0.158005,-259.224674,1.266567,68.628874
7.5364,-0.00513,-0.000748,0.00493,0.0,0.0,0.0,-0.002029,-0.510913,0.005631,0.158005,-259.224674,1.266567,68.628874
7.5561,-0.005105,-0.000819,0.005123,0.0,0.0,0.0,-0.002616,-0.510742,0.00493,0.158005,-259.224674,1.266567,68.628874
7.5763,-0.004683,-0.000706,0.006671,0.0,0.0,0.0,-0.002503,-0.510806,0.005106,0.158005,-259.224674,1.266567,68.628874
7.5962,-0.004974,-0.00072,0.006451,0.0,0.0,0.0,-0.002503,-0.510806,0.005106,0.158005,-259.224674,1.266567,68.628874
7.6165,-0.005175,-0.0008,0.004408,0.0,0.0,0.0,-0.001684,-0.51071,0.006451,0.158005,-259.224674,1.266567,68.628874
7.6365,-0.00492,-0.000352,0.004865,0.0,0.0,0.0,-0.002189,-0.510744,0.005621,0.158005,-259.224674,1.266567,68.628874
7.656,-0.004917,-0.000985,0.006606,0.0,0.0,0.0,-0.002438,-0.510346,0.004865,0.158005,-259.224674,1.266567,68.628874
7.6767,-0.005045,-0.000616,0.003209,0.0,0.0,0.0,-0.001627,-0.510918,0.006451,0.158005,-259.224674,1.266567,68.628874
7.6963,-0.005363,-0.000793,0.005798,0.0,0.0,0.0,-0.001627,-0.510918,0.006451,0.158005,-259.224674,1.266567,68.628874
7.7162,-0.004798,-0.000879,0.005794,0.0,0.0,0.0,-0.002406,-0.510785,0.005798,0.158005,-259.224674,1.266567,68.628874
7.7363,-0.004604,-0.00069,0.00618,0.0,0.0,0.0,-0.002173,-0.51082,0.005797,0.158005,-259.224674,1.266567,68.628874
7.7561,-0.004661,-0.000794,0.004395,0.0,0.0,0.0,-0.001452,-0.51068,0.00618,0.158005,-259.224674,1.266567,68.628874
7.7766,-0.004708,-0.000596,0.005462,0.0,0.0,0.0,-0.002336,-0.51078,0.004548,0.158005,-259.224674,1.266567,68.628874
7.7964,-0.004575,-0.000964,0.004913,0.0,0.0,0.0,-0.002336,-0.51078,0.004548,0.158005,-259.224674,1.266567,68.628874
7.8164,-0.005019,-0.000694,0.005547,0.0,0.0,0.0,-0.002069,-0.510958,0.004913,0.158005,-259.224674,1.266567,68.628874
7.8363,-0.005007,-0.001043,0.005755,0.0,0.0,0.0,-0.002119,-0.510846,0.005174,0.158005,-259.224674,1.266567,68.628874
7.856,-0.005016,-0.000754,0.003667,0.0,0.0,0.0,-0.002072,-0.511035,0.005755,0.158005,-259.224674,1.266567,68.628874
7.8761,-0.005177,-0.0008,0.00372,0.0,0.0,0.0,-0.003053,-0.510775,0.003848,0.158005,-259.224674,1.266567,68.628874
7.8962,-0.005014,-0.001131,0.006259,0.0,0.0,0.0,-0.003053,-0.510775,0.003848,0.158005,-259.224674,1.266567,68.628874
7.9161,-0.004779,-0.001231,0.007021,0.0,0.0,0.0,-0.001821,-0.511121,0.006259,0.158005,-259.224674,1.266567,68.628874
7.9361,-0.004572,-0.000778,0.006487,0.0,0.0,0.0,-0.00157,-0.51116,0.006566,0.158005,-259.224674,1.266567,68.628874
7.9561,-0.005379,-0.000679,0.004279,0.0,0.0,0.0,-0.001264,-0.510768,0.006487,0.158005,-259.224674,1.266567,68.628874
7.9763,-0.004893,-0.000777,0.004937,0.0,0.0,0.0,-0.003023,-0.510683,0.004477,0.158005,-259.224674,1.266567,68.628874
7.9966,-0.004717,-0.000845,0.006351,0.0,0.0,0.0,-0.003023,-0.510683,0.004477,0.158005,-259.224674,1.266567,68.628874
8.0165,-0.004697,-0.000923,0.006001,0.0,0.0,0.0,-0.001478,-0.510835,0.006351,0.158005,-259.224674,1.266567,68.628874
8.0362,-0.00494,-0.000584,0.006128,0.0,0.0,0.0,-0.001542,-0.510867,0.006208,0.158005,-259.224674,1.266567,68.628874
8.0563,-0.004783,-0.000982,0.004306,0.0,0.0,0.0,-0.001815,-0.510574,0.006128,0.158005,-259.224674,1.266567,68.628874
8.0764,-0.004852,-0.000681,0.004385,0.0,0.0,0.0,-0.002515,-0.51094,0.004475,0.158005,-259.224674,1.266567,68.628874
8.0966,-0.004588,-0.000746,0.005845,0.0,0.0,0.0,-0.002515,-0.51094,0.004475,0.158005,-259.224674,1.266567,68.628874
8.1165,-0.004769,-0.001052,0.005588,0.0,0.0,0.0,-0.001607,-0.510737,0.005845,0.158005,-259.224674,1.266567,68.628874
8.1366,-0.004927,-0.000969,0.00597,0.0,0.0,0.0,-0.001734,-0.510862,0.005741,0.158005,-259.224674,1.266567,68.628874
8.156,-0.004885,-0.000796,0.004636,0.0,0.0,0.0,-0.001882,-0.51096,0.00597,0.158005,-259.224674,1.266567,68.628874
8.1765,-0.004938,-0.000909,0.006077,0.0,0.0,0.0,-0.002464,-0.510806,0.004756,0.158005,-259.224674,1.266567,68.628874
8.1962,-0.004781,-0.000942,0.005673,0.0,0.0,0.0,-0.002464,-0.510806,0.004756,0.158005,-259.224674,1.266567,68.628874
8.2164,-0.005043,-0.000599,0.005033,0.0,0.0,0.0,-0.001888,-0.510934,0.005673,0.158005,-259.224674,1.266567,68.628874
8.2364,-0.005114,-0.000642,0.004921,0.0,0.0,0.0,-0.002128,-0.510794,0.005411,0.158005,-259.224674,1.266567,68.628874
8.256,-0.00484,-0.000835,0.005708,0.0,0.0,0.0,-0.002605,-0.510636,0.004921,0.158005,-259.224674,1.266567,68.628874
8.2765,-0.005018,-0.000953,0.00572,0.0,0.0,0.0,-0.001988,-0.51081,0.005639,0.158005,-259.224674,1.266567,68.628874
8.2964,-0.004856,-0.000545,0.008052,0.0,0.0,0.0,-0.001988,-0.51081,0.005639,0.158005,-259.224674,1.266567,68.628874
8.3161,-0.004738,-0.000756,0.004483,0.0,0.0,0.0,-0.000749,-0.510528,0.008052,0.158005,-259.224674,1.266567,68.628874
8.3364,-0.005207,-0.000902,0.006766,0.0,0.0,0.0,-0.001439,-0.510618,0.006606,0.158005,-259.224674,1.266567,68.628874
8.3563,-0.005048,-0.000968,0.005557,0.0,0.0,0.0,-0.001757,-0.51089,0.006766,0.158005,-259.224674,1.266567,68.628874
8.3765,-0.004884,-0.000652,0.007304,0.0,0.0,0.0,-0.002173,-0.510954,0.005666,0.158005,-259.224674,1.266567,68.628874
8.3968,-0.004627,-0.000601,0.005972,0.0,0.0,0.0,-0.002173,-0.510954,0.005666,0.158005,-259.224674,1.266567,68.628874
8.4164,-0.005199,-0.000663,0.00405,0.0,0.0,0.0,-0.001581,-0.510592,0.005972,0.158005,-259.224674,1.266567,68.628874
8.4365,-0.004847,-0.001028,0.006933,0.0,0.0,0.0,-0.002219,-0.510619,0.005182,0.158005,-259.224674,1.266567,68.628874
8.4563,-0.005199,-0.00058,0.005428,0.0,0.0,0.0,-0.001311,-0.511016,0.006933,0.158005,-259.224674,1.266567,68.628874
8.4763,-0.004843,-0.000665,0.006811,0.0,0.0,0.0,-0.002334,-0.51061,0.005558,0.158005,-259.224674,1.266567,68.628874
8.4966,-0.005131,-0.00088,0.006119,0.0,0.0,0.0,-0.002334,-0.51061,0.005558,0.158005,-259.224674,1.266567,68.628874
8.5163,-0.004911,-0.000856,0.006371,0.0,0.0,0.0,-0.002011,-0.51087,0.006119,0.158005,-259.224674,1.266567,68.628874
8.5365,-0.004766,-0.000596,0.006098,0.0,0.0,0.0,-0.001869,-0.51086,0.006222,0.158005,-259.224674,1.266567,68.628874
8.5564,-0.005431,-0.000797,0.007181,0.0,0.0,0.0,-0.001656,-0.510586,0.006098,0.158005,-259.224674,1.266567,68.628874
8.5765,-0.005259,-0.000786,0.006724,0.0,0.0,0.0,-0.001759,-0.510767,0.007087,0.158005,-259.224674,1.266567,68.628874
8.5964,-0.00532,-0.000626,0.004417,0.0,0.0,0.0,-0.001759,-0.510767,0.007087,0.158005,-259.224674,1.266567,68.628874
8.6164,-0.004907,-0.000887,0.004307,0.0,0.0,0.0,-0.003067,-0.510621,0.004417,0.158005,-259.224674,1.266567,68.628874
8.6363,-0.004966,-0.001027,0.006006,0.0,0.0,0.0,-0.00292,-0.510729,0.004371,0.158005,-259.224674,1.266567,68.628874
8.6563,-0.005208,-0.000974,0.005835,0.0,0.0,0.0,-0.001903,-0.511018,0.006006,0.158005,-259.224674,1.266567,68.628874
8.6763,-0.004722,-0.000556,0.005062,0.0,0.0,0.0,-0.002204,-0.51097,0.00585,0.158005,-259.224674,1.266567,68.628874
8.6963,-0.004756,-0.001121,0.004267,0.0,0.0,0.0,-0.002204,-0.51097,0.00585,0.158005,-259.224674,1.266567,68.628874
8.7164,-0.005294,-0.000833,0.006336,0.0,0.0,0.0,-0.00258,-0.511116,0.004267,0.158005,-259.224674,1.266567,68.628874
8.7364,-0.004936,-0.001121,0.004253,0.0,0.0,0.0,-0.002366,-0.510995,0.005122,0.158005,-259.224674,1.266567,68.628874
8.7564,-0.004683,-0.001014,0.005614,0.0,0.0,0.0,-0.002767,-0.511116,0.004253,0.158005,-259.224674,1.266567,68.628874
8.7765,-0.00517,-0.000703,0.005742,0.0,0.0,0.0,-0.001901,-0.511016,0.005497,0.158005,-259.224674,1.266567,68.628874
8.7966,-0.005035,-0.000725,0.00609,0.0,0.0,0.0,-0.001901,-0.511016,0.005497,0.158005,-259.224674,1.266567,68.628874
8.8165,-0.005186,-0.001082,0.004775,0.0,0.0,0.0,-0.001929,-0.510716,0.00609,0.158005,-259.224674,1.266567,68.628874
8.8366,-0.004823,-0.000916,0.00668,0.0,0.0,0.0,-0.002266,-0.510864,0.00555,0.158005,-259.224674,1.266567,68.628874
8.8561,-0.005349,-0.000554,0.005999,0.0,0.0,0.0,-0.001416,-0.510905,0.00668,0.158005,-259.224674,1.266567,68.628874
8.8766,-0.004678,-0.000755,0.004743,0.0,0.0,0.0,-0.002212,-0.510577,0.006059,0.158005,-259.224674,1.266567,68.628874
8.8963,-0.004848,-0.000759,0.006207,0.0,0.0,0.0,-0.002212,-0.510577,0.006059,0.158005,-259.224674,1.266567,68.628874
8.9163,-0.005075,-0.000968,0.003458,0.0,0.0,0.0,-0.001683,-0.510749,0.006207,0.158005,-259.224674,1.266567,68.628874
8.9362,-0.004386,-0.000865,0.004495,0.0,0.0,0.0,-0.002346,-0.510837,0.005088,0.158005,-259.224674,1.266567,68.628874
8.9562,-0.005081,-0.001231,0.005188,0.0,0.0,0.0,-0.002093,-0.51086,0.004495,0.158005,-259.224674,1.266567,68.628874
8.9763,-0.004889,-0.000885,0.007191,0.0,0.0,0.0,-0.002406,-0.511193,0.005129,0.158005,-259.224674,1.266567,68.628874
8.9966,-0.004833,-0.000667,0.006287,0.0,0.0,0.0,-0.002406,-0.511193,0.005129,0.158005,-259.224674,1.266567,68.628874
9.0167,-0.004939,-0.000551,0.005227,0.0,0.0,0.0,-0.001627,-0.510657,0.006287,0.158005,-259.224674,1.266567,68.628874
9.0365,-0.005038,-0.000726,0.006932,0.0,0.0,0.0,-0.001891,-0.510611,0.005853,0.158005,-259.224674,1.266567,68.628874
9.0565,-0.005044,-0.001019,0.005173,0.0,0.0,0.0,-0.001503,-0.510714,0.006932,0.158005,-259.224674,1.266567,68.628874
9.0767,-0.00507,-0.000371,0.00583,0.0,0.0,0.0,-0.002325,-0.510986,0.005331,0.158005,-259.224674,1.266567,68.628874
9.0966,-0.004771,-0.001055,0.005063,0.0,0.0,0.0,-0.002325,-0.510986,0.005331,0.158005,-259.224674,1.266567,68.628874
9.1164,-0.00484,-0.000709,0.006039,0.0,0.0,0.0,-0.002189,-0.511048,0.005063,0.158005,-259.224674,1.266567,68.628874
9.1365,-0.004736,-0.000687,0.005679,0.0,0.0,0.0,-0.002012,-0.510904,0.005466,0.158005,-259.224674,1.266567,68.628874
9.1562,-0.005048,-0.000852,0.005534,0.0,0.0,0.0,-0.00184,-0.510679,0.005679,0.158005,-259.224674,1.266567,68.628874
9.1762,-0.004827,-0.000909,0.006699,0.0,0.0,0.0,-0.002193,-0.51083,0.005546,0.158005,-259.224674,1.266567,68.628874
9.1963,-0.004779,-0.000883,0.00563,0.0,0.0,0.0,-0.002193,-0.51083,0.005546,0.158005,-259.224674,1.266567,68.628874
9.2163,-0.004659,-0.000866,0.004271,0.0,0.0,0.0,-0.001908,-0.510875,0.00563,0.158005,-259.224674,1.266567,68.628874
9.2364,-0.004657,-0.000726,0.005313,0.0,0.0,0.0,-0.002142,-0.510869,0.005074,0.158005,-259.224674,1.266567,68.628874
9.2563,-0.004817,-0.000863,0.004287,0.0,0.0,0.0,-0.001947,-0.510719,0.005313,0.158005,-259.224674,1.266567,68.628874
9.2764,-0.005012,-0.000783,0.004251,0.0,0.0,0.0,-0.002571,-0.510846,0.004376,0.158005,-259.224674,1.266567,68.628874
9.2964,-0.00497,-0.00102,0.006458,0.0,0.0,0.0,-0.002571,-0.510846,0.004376,0.158005,-259.224674,1.266567,68.628874
9.3164,-0.005058,-0.000561,0.00624,0.0,0.0,0.0,-0.001676,-0.511009,0.006458,0.158005,-259.224674,1.266567,68.628874
9.3364,-0.004794,-0.000791,0.00534,0.0,0.0,0.0,-0.001759,-0.51082,0.006368,0.158005,-259.224674,1.266567,68.628874
9.3567,-0.004668,-0.000714,0.005761,0.0,0.0,0.0,-0.002071,-0.510784,0.00534,0.158005,-259.224674,1.266567,68.628874
9.3766,-0.004992,-0.000896,0.005641,0.0,0.0,0.0,-0.00176,-0.510712,0.005724,0.158005,-259.224674,1.266567,68.628874
9.3965,-0.004932,-0.000723,0.006173,0.0,0.0,0.0,-0.00176,-0.510712,0.005724,0.158005,-259.224674,1.266567,68.628874
9.4161,-0.004796,-0.000614,0.00527,0.0,0.0,0.0,-0.001784,-0.510713,0.006173,0.158005,-259.224674,1.266567,68.628874
9.4363,-0.005038,-0.001063,0.00561,0.0,0.0,0.0,-0.001916,-0.51067,0.005804,0.158005,-259.224674,1.266567,68.628874
9.4563,-0.004759,-0.000858,0.005269,0.0,0.0,0.0,-0.002177,-0.511055,0.00561,0.158005,-259.224674,1.266567,68.628874
9.4763,-0.00481,-0.001187,0.005143,0.0,0.0,0.0,-0.00208,-0.510868,0.005299,0.158005,-259.224674,1.266567,68.628874
9.4964,-0.004887,-0.001073,0.005821,0.0,0.0,0.0,-0.00208,-0.510868,0.005299,0.158005,-259.224674,1.266567,68.628874
9.5163,-0.005231,-0.000468,0.005179,0.0,0.0,0.0,-0.001919,-0.511065,0.005821,0.158005,-259.224674,1.266567,68.628874
9.5361,-0.004781,-0.000873,0.003599,0.0,0.0,0.0,-0.002195,-0.510816,0.005556,0.158005,-259.224674,1.266567,68.628874
9.5563,-0.005057,-0.001002,0.007297,0.0,0.0,0.0,-0.002945,-0.510869,0.003599,0.158005,-259.224674,1.266567,68.628874
9.5762,-0.005074,-0.000973,0.006281,0.0,0.0,0.0,-0.001484,-0.510977,0.006957,0.158005,-259.224674,1.266567,68.628874
9.5963,-0.004907,-0.000914,0.005791,0.0,0.0,0.0,-0.001484,-0.510977,0.006957,0.158005,-259.224674,1.266567,68.628874
9.6161,-0.004961,-0.000356,0.005465,0.0,0.0,0.0,-0.001954,-0.510906,0.005791,0.158005,-259.224674,1.266567,68.628874
9.6362,-0.004987,-0.000672,0.003642,0.0,0.0,0.0,-0.002045,-0.510676,0.005657,0.158005,-259.224674,1.266567,68.628874
9.6563,-0.00496,-0.000776,0.005633,0.0,0.0,0.0,-0.003129,-0.510668,0.003642,0.158005,-259.224674,1.266567,68.628874
9.6761,-0.004816,-0.000641,0.005483,0.0,0.0,0.0,-0.00218,-0.510759,0.005455,0.158005,-259.224674,1.266567,68.628874
9.6962,-0.004992,-0.000993,0.0056,0.0,0.0,0.0,-0.00218,-0.510759,0.005455,0.158005,-259.224674,1.266567,68.628874
9.7164,-0.004772,-0.000196,0.005767,0.0,0.0,0.0,-0.002136,-0.510985,0.0056,0.158005,-259.224674,1.266567,68.628874
9.7365,-0.005031,-0.000996,0.003983,0.0,0.0,0.0,-0.002011,-0.510657,0.005669,0.158005,-259.224674,1.266567,68.628874
9.7562,-0.005143,-0.00084,0.006616,0.0,0.0,0.0,-0.003,-0.510991,0.003983,0.158005,-259.224674,1.266567,68.628874
9.7763,-0.004678,-0.000841,0.006592,0.0,0.0,0.0,-0.001876,-0.510843,0.006386,0.158005,-259.224674,1.266567,68.628874
9.7962,-0.005178,-0.000803,0.005853,0.0,0.0,0.0,-0.001876,-0.510843,0.006386,0.158005,-259.224674,1.266567,68.628874
9.8166,-0.004825,-0.000885,0.005283,0.0,0.0,0.0,-0.002193,-0.510794,0.005853,0.158005,-259.224674,1.266567,68.628874
9.8367,-0.004854,-0.000931,0.005947,0.0,0.0,0.0,-0.002167,-0.510829,0.005618,0.158005,-259.224674,1.266567,68.628874
9.8564,-0.004884,-0.000468,0.005378,0.0,0.0,0.0,-0.001821,-0.510922,0.005947,0.158005,-259.224674,1.266567,68.628874
9.8767,-0.004683,-0.000665,0.00662,0.0,0.0,0.0,-0.002112,-0.510503,0.00543,0.158005,-259.224674,1.266567,68.628874
9.8966,-0.005053,-0.000858,0.005227,0.0,0.0,0.0,-0.002112,-0.510503,0.00543,0.158005,-259.224674,1.266567,68.628874
9.9165,-0.00509,-0.000691,0.004903,0.0,0.0,0.0,-0.002388,-0.510852,0.005227,0.158005,-259.224674,1.266567,68.628874
9.9368,-0.004809,-0.000782,0.004322,0.0,0.0,0.0,-0.00247,-0.510784,0.005094,0.158005,-259.224674,1.266567,68.628874
9.9567,-0.004918,-0.000905,0.00471,0.0,0.0,0.0,-0.002605,-0.510777,0.004322,0.158005,-259.224674,1.266567,68.628874
9.9764,-0.004897,-0.000641,0.005531,0.0,0.0,0.0,-0.002523,-0.510888,0.004675,0.158005,-259.224674,1.266567,68.628874
9.9966,-0.004201,-0.000869,0.005847,0.0,0.0,0.0,-0.002523,-0.510888,0.004675,0.158005,-259.224674,1.266567,68.628874
10.0167,-0.004951,-0.000616,0.006922,0.0,0.0,0.0,-0.001219,-0.51086,0.005847,0.158005,-259.224674,1.266567,68.628874
10.0362,-0.004857,-0.000763,0.005337,0.0,0.0,0.0,-0.001303,-0.510754,0.006291,0.158005,-259.224674,1.266567,68.628874
10.0562,-0.005248,-0.000747,0.004977,0.0,0.0,0.0,-0.002135,-0.510756,0.005337,0.158005,-259.224674,1.266567,68.628874
10.0767,-0.00459,-0.000831,0.005933,0.0,0.0,0.0,-0.00266,-0.510742,0.005008,0.158005,-259.224674,1.266567,68.628874
10.0962,-0.004834,-0.000722,0.005197,0.0,0.0,0.0,-0.00266,-0.510742,0.005008,0.158005,-259.224674,1.266567,68.628874
10.1161,-0.004694,-0.000794,0.007342,0.0,0.0,0.0,-0.002183,-0.510715,0.005197,0.158005,-259.224674,1.266567,68.628874
10.1368,-0.00498,-0.000975,0.004163,0.0,0.0,0.0,-0.001675,-0.510742,0.006081,0.158005,-259.224674,1.266567,68.628874
10.1566,-0.004678,-0.000943,0.007839,0.0,0.0,0.0,-0.002857,-0.510971,0.004163,0.158005,-259.224674,1.266567,68.628874
10.1764,-0.00515,-0.000705,0.005405,0.0,0.0,0.0,-0.000891,-0.510932,0.007483,0.158005,-259.224674,1.266567,68.628874
10.1963,-0.004842,-0.000889,0.00362,0.0,0.0,0.0,-0.000891,-0.510932,0.007483,0.158005,-259.224674,1.266567,68.628874
10.2166,-0.00489,-0.000984,0.006044,0.0,0.0,0.0,-0.002996,-0.510886,0.00362,0.158005,-259.224674,1.266567,68.628874
10.2365,-0.004945,-0.000983,0.005326,0.0,0.0,0.0,-0.00251,-0.510922,0.004612,0.158005,-259.224674,1.266567,68.628874
10.2562,-0.00475,-0.000931,0.005215,0.0,0.0,0.0,-0.002229,-0.510976,0.005326,0.158005,-259.224674,1.266567,68.628874
10.2764,-0.004682,-0.000803,0.006671,0.0,0.0,0.0,-0.002102,-0.510929,0.005224,0.158005,-259.224674,1.266567,68.628874
10.2962,-0.00514,-0.001086,0.004914,0.0,0.0,0.0,-0.002102,-0.510929,0.005224,0.158005,-259.224674,1.266567,68.628874
10.3164,-0.004701,-0.0009,0.004809,0.0,0.0,0.0,-0.002634,-0.51108,0.004914,0.158005,-259.224674,1.266567,68.628874
10.3368,-0.004765,-0.000565,0.006305,0.0,0.0,0.0,-0.002475,-0.511003,0.00487,0.158005,-259.224674,1.266567,68.628874
10.3563,-0.004766,-0.000637,0.005103,0.0,0.0,0.0,-0.001549,-0.510555,0.006305,0.158005,-259.224674,1.266567,68.628874
10.3765,-0.005159,-0.001018,0.003937,0.0,0.0,0.0,-0.002108,-0.510624,0.005211,0.158005,-259.224674,1.266567,68.628874
10.3964,-0.004964,-0.000448,0.005881,0.0,0.0,0.0,-0.002108,-0.510624,0.005211,0.158005,-259.224674,1.266567,68.628874
10.4167,-0.005073,-0.000649,0.006454,0.0,0.0,0.0,-0.001964,-0.510439,0.005881,0.158005,-259.224674,1.266567,68.628874
10.4365,-0.004923,-0.000817,0.00448,0.0,0.0,0.0,-0.001889,-0.510522,0.006118,0.158005,-259.224674,1.266567,68.628874
10.4565,-0.00464,-0.000386,0.004586,0.0,0.0,0.0,-0.002638,-0.510812,0.00448,0.158005,-259.224674,1.266567,68.628874
10.4766,-0.004852,-0.000626,0.004801,0.0,0.0,0.0,-0.00233,-0.510418,0.004577,0.158005,-259.224674,1.266567,68.628874
10.4964,-0.004979,-0.000828,0.004944,0.0,0.0,0.0,-0.00233,-0.510418,0.004577,0.158005,-259.224674,1.266567,68.628874
10.5165,-0.004799,-0.000867,0.006168,0.0,0.0,0.0,-0.002457,-0.510822,0.004944,0.158005,-259.224674,1.266567,68.628874
10.5364,-0.004714,-0.000417,0.005927,0.0,0.0,0.0,-0.002124,-0.510836,0.005451,0.158005,-259.224674,1.266567,68.628874
10.5564,-0.004663,-0.00027,0.004707,0.0,0.0,0.0,-0.001691,-0.510408,0.005927,0.158005,-259.224674,1.266567,68.628874
10.5762,-0.005052,-0.000896,0.00595,0.0,0.0,0.0,-0.002215,-0.510277,0.004809,0.158005,-259.224674,1.266567,68.628874
10.5968,-0.004717,-0.000425,0.00681,0.0,0.0,0.0,-0.002215,-0.510277,0.004809,0.158005,-259.224674,1.266567,68.628874
10.6162,-0.004667,-0.001073,0.00519,0.0,0.0,0.0,-0.001243,-0.510414,0.00681,0.158005,-259.224674,1.266567,68.628874
10.6365,-0.00467,-0.000561,0.006254,0.0,0.0,0.0,-0.001562,-0.510681,0.006145,0.158005,-259.224674,1.266567,68.628874
10.6561,-0.004856,-0.000568,0.005702,0.0,0.0,0.0,-0.001481,-0.510551,0.006254,0.158005,-259.224674,1.266567,68.628874
10.6765,-0.004692,-0.000652,0.005696,0.0,0.0,0.0,-0.001909,-0.510559,0.005749,0.158005,-259.224674,1.266567,68.628874
10.6962,-0.00487,-0.000546,0.007473,0.0,0.0,0.0,-0.001909,-0.510559,0.005749,0.158005,-259.224674,1.266567,68.628874
10.7161,-0.004658,-0.001001,0.004987,0.0,0.0,0.0,-0.001059,-0.510532,0.007473,0.158005,-259.224674,1.266567,68.628874
10.7363,-0.005092,-0.001182,0.006536,0.0,0.0,0.0,-0.001491,-0.510721,0.006456,0.158005,-259.224674,1.266567,68.628874
10.7562,-0.004976,-0.000661,0.004253,0.0,0.0,0.0,-0.001759,-0.511171,0.006536,0.158005,-259.224674,1.266567,68.628874
10.7761,-0.00496,-0.000934,0.006612,0.0,0.0,0.0,-0.002718,-0.5107,0.004446,0.158005,-259.224674,1.266567,68.628874
10.7963,-0.004908,-0.000735,0.004242,0.0,0.0,0.0,-0.002718,-0.5107,0.004446,0.158005,-259.224674,1.266567,68.628874
10.8165,-0.005119,-0.000616,0.005397,0.0,0.0,0.0,-0.002745,-0.51073,0.004242,0.158005,-259.224674,1.266567,68.628874
10.8367,-0.005111,-0.000744,0.004889,0.0,0.0,0.0,-0.002591,-0.510681,0.004711,0.158005,-259.224674,1.266567,68.628874
10.8564,-0.004732,-0.000888,0.005038,0.0,0.0,0.0,-0.002617,-0.510738,0.004889,0.158005,-259.224674,1.266567,68.628874
10.8765,-0.004841,-0.001056,0.004843,0.0,0.0,0.0,-0.002201,-0.510869,0.005025,0.158005,-259.224674,1.266567,68.628874
10.8965,-0.00459,-0.000605,0.005509,0.0,0.0,0.0,-0.002201,-0.510869,0.005025,0.158005,-259.224674,1.266567,68.628874
10.9163,-0.004828,-0.000573,0.00605,0.0,0.0,0.0,-0.001781,-0.510597,0.005509,0.158005,-259.224674,1.266567,68.628874
10.9365,-0.004836,-0.000826,0.00521,0.0,0.0,0.0,-0.001765,-0.510583,0.005731,0.158005,-259.224674,1.266567,68.628874
10.9564,-0.004948,-0.00085,0.006068,0.0,0.0,0.0,-0.002178,-0.510819,0.00521,0.158005,-259.224674,1.266567,68.628874
10.9766,-0.005081,-0.000828,0.004945,0.0,0.0,0.0,-0.001882,-0.510839,0.005991,0.158005,-259.224674,1.266567,68.628874
10.9963,-0.005121,-0.000729,0.005156,0.0,0.0,0.0,-0.001882,-0.510839,0.005991,0.158005,-259.224674,1.266567,68.628874
11.0162,-0.005214,-0.000933,0.004698,0.0,0.0,0.0,-0.002492,-0.510722,0.005156,0.158005,-259.224674,1.266567,68.628874
11.0365,-0.004914,-0.000542,0.00567,0.0,0.0,0.0,-0.002625,-0.510806,0.004969,0.158005,-259.224674,1.266567,68.628874
11.0562,-0.004925,-0.000693,0.005699,0.0,0.0,0.0,-0.002023,-0.510534,0.00567,0.158005,-259.224674,1.266567,68.628874
11.0763,-0.004599,-0.00067,0.00466,0.0,0.0,0.0,-0.002019,-0.510672,0.005697,0.158005,-259.224674,1.266567,68.628874
11.0962,-0.00469,-0.000722,0.003928,0.0,0.0,0.0,-0.002019,-0.510672,0.005697,0.158005,-259.224674,1.266567,68.628874
11.1163,-0.004843,-0.000766,0.005844,0.0,0.0,0.0,-0.002687,-0.510718,0.003928,0.158005,-259.224674,1.266567,68.628874
11.1368,-0.004985,-0.001217,0.004585,0.0,0.0,0.0,-0.002348,-0.510734,0.004715,0.158005,-259.224674,1.266567,68.628874
11.1562,-0.004923,-0.000975,0.004926,0.0,0.0,0.0,-0.002647,-0.511212,0.004585,0.158005,-259.224674,1.266567,68.628874
11.1764,-0.005133,-0.000787,0.004332,0.0,0.0,0.0,-0.00243,-0.510989,0.004898,0.158005,-259.224674,1.266567,68.628874
