mach0312/omni-docking-bench/src/icros_test_setup/results/MPPI_sample/timeseries/trial_118.csv
t,x,y,yaw,vx,vy,wz,bl_x,bl_y,bl_yaw,front_steering_joint,front_wheel_joint,rear_steering_joint,rear_wheel_joint
0.0,-0.01797,-0.021056,0.001064,-0.008032,0.000225,-0.003107,-0.017061,-0.531095,-0.000316,0.205319,-261.396807,-0.258296,69.410012
0.0004,-0.018143,-0.02119,-0.000785,-0.00793,0.000222,-0.003067,-0.01685,-0.531038,0.000829,0.205319,-261.399993,-0.258296,69.406785
0.0007,-0.017978,-0.021522,0.000507,-0.007787,0.000218,-0.003012,-0.01736,-0.531104,0.000371,0.205319,-261.403297,-0.258296,69.40344
0.0011,-0.018056,-0.020826,-0.000405,-0.007602,0.000213,-0.00294,-0.01736,-0.531104,0.000371,0.205319,-261.406602,-0.258296,69.400093
0.0015,-0.018492,-0.020933,-0.000368,-0.007383,0.000207,-0.002856,-0.01736,-0.531104,0.000371,0.205319,-261.409788,-0.258296,69.396867
0.0018,-0.018724,-0.021039,0.000743,-0.00712,0.000199,-0.002754,-0.016526,-0.530968,0.001414,0.205319,-261.412804,-0.258296,69.393813
0.0021,-0.018455,-0.020955,0.001022,-0.006817,0.000191,-0.002637,-0.017414,-0.530895,0.001053,0.205319,-261.412804,-0.258296,69.393813
0.0023,-0.018681,-0.021005,-0.002143,-0.006469,0.000181,-0.002502,-0.017414,-0.530895,0.001053,0.205319,-261.412804,-0.258296,69.393813
0.0026,-0.01874,-0.021093,4.2e-05,-0.006084,0.00017,-0.002353,-0.017414,-0.530895,0.001053,0.205319,-261.412804,-0.258296,69.393813
0.0152,-0.019363,-0.021098,-0.000496,0.0,0.0,0.0,-0.018989,-0.531086,-6.2e-05,0.205319,-261.415445,-0.258296,69.391139
0.0357,-0.019053,-0.020601,-0.000962,0.0,0.0,0.0,-0.019276,-0.53109,-0.000251,0.205319,-261.415445,-0.258296,69.391139
0.0549,-0.018738,-0.02099,5.3e-05,0.0,0.0,0.0,-0.019543,-0.530601,-0.000962,0.205319,-261.415445,-0.258296,69.391139
0.0753,-0.019258,-0.020833,0.001467,0.0,0.0,0.0,-0.018786,-0.530955,-3.8e-05,0.205319,-261.415445,-0.258296,69.391139
0.0954,-0.019099,-0.021251,-0.000301,0.0,0.0,0.0,-0.018786,-0.530955,-3.8e-05,0.205319,-261.415445,-0.258296,69.391139
0.1153,-0.019344,-0.020989,0.000993,0.001619,0.00368,-0.001765,-0.019252,-0.531251,-0.000301,0.205319,-261.415445,-0.258296,69.391139
0.135,-0.018877,-0.020916,-0.000627,0.001775,0.004001,-0.002017,-0.019084,-0.531144,0.000225,0.205319,-261.415445,-0.258296,69.391139
0.1549,-0.019022,-0.021034,-0.002404,0.001911,0.004272,-0.002196,-0.019197,-0.530916,-0.000627,0.280314,-261.415445,-0.183301,69.391139
0.1754,-0.019343,-0.021042,0.000497,0.002072,0.004463,-0.00105,-0.020151,-0.531022,-0.002239,0.280314,-261.415445,-0.183301,69.391139
0.1957,-0.019554,-0.020752,-0.000767,0.002205,0.004628,-0.000236,-0.020151,-0.531022,-0.002239,0.280314,-261.415445,-0.183301,69.391139
0.2152,-0.018804,-0.02105,-0.000755,0.002315,0.00477,0.000336,-0.019946,-0.530752,-0.000767,0.355296,-261.415445,-0.10832,69.391139
0.2355,-0.018911,-0.020992,0.000759,0.002385,0.004913,-1.1e-05,-0.019639,-0.530873,-0.000762,0.355296,-261.415445,-0.10832,69.391139
0.2557,-0.018942,-0.020807,-0.000442,0.002449,0.005032,-0.000247,-0.018523,-0.530992,0.000759,0.430302,-261.415445,-0.033314,69.391139
0.275,-0.018676,-0.021189,0.000526,0.002494,0.005144,-0.000661,-0.01911,-0.530823,-0.000335,0.430302,-261.415445,-0.033314,69.391139
0.2958,-0.019039,-0.020806,0.001167,0.002536,0.005238,-0.000943,-0.01911,-0.530823,-0.000335,0.430302,-261.415445,-0.033314,69.391139
0.3159,-0.019332,-0.021066,-0.000236,0.002574,0.005316,-0.001132,-0.018444,-0.530806,0.001167,0.505323,-261.415445,0.041707,69.391139
0.3352,-0.019151,-0.020995,-0.000817,0.002596,0.005394,-0.001822,-0.018856,-0.530912,0.000593,0.505323,-261.415445,0.041707,69.391139
0.3555,-0.019131,-0.021006,-0.000108,0.00262,0.005459,-0.002296,-0.019568,-0.530994,-0.000817,0.580313,-261.415445,0.116698,69.391139
0.375,-0.018856,-0.021096,-0.001305,0.002652,0.005501,-0.002166,-0.01922,-0.531005,-0.000171,0.580313,-261.415445,0.116698,69.391139
0.3955,-0.019505,-0.021116,0.000522,0.002681,0.005537,-0.002069,-0.01922,-0.531005,-0.000171,0.580313,-261.415445,0.116698,69.391139
0.4154,-0.019098,-0.020766,0.001252,0.002705,0.005567,-0.001994,-0.019239,-0.531115,0.000522,0.655326,-261.415445,0.19171,69.391139
0.4356,-0.019299,-0.020974,0.00079,0.002715,0.005607,-0.002535,-0.018921,-0.530973,0.000819,0.655326,-261.415445,0.19171,69.391139
0.4551,-0.018432,-0.021271,-0.000755,0.002726,0.005639,-0.002908,-0.018896,-0.530974,0.00079,0.730324,-261.415445,0.266708,69.391139
0.4755,-0.019155,-0.021273,0.000654,0.002742,0.005658,-0.00229,-0.018824,-0.531244,-0.000616,0.730324,-261.415445,0.266708,69.391139
0.4958,-0.019026,-0.021136,-8e-05,0.002753,0.005676,-0.001857,-0.018824,-0.531244,-0.000616,0.730324,-261.415445,0.266708,69.391139
0.5152,-0.019057,-0.021336,-0.000897,0.002761,0.005692,-0.001554,-0.019067,-0.531136,-8e-05,0.805301,-261.415445,0.341685,69.391139
0.5355,-0.019009,-0.021278,-0.000674,0.002772,0.005702,-0.001464,-0.019251,-0.531218,-0.000416,0.805301,-261.415445,0.341685,69.391139
0.5554,-0.018985,-0.02141,0.001029,0.002782,0.00571,-0.001401,-0.019353,-0.531278,-0.000674,0.880406,-261.415445,0.416791,69.391139
0.5758,-0.019146,-0.021081,-4.3e-05,0.002765,0.005743,-0.002135,-0.018537,-0.531399,0.000882,0.880406,-261.415445,0.416791,69.391139
0.5956,-0.018885,-0.02075,0.000321,0.002755,0.00577,-0.002647,-0.018537,-0.531399,0.000882,0.880406,-261.415445,0.416791,69.391139
0.6154,-0.018604,-0.021246,1.5e-05,0.00275,0.00579,-0.003002,-0.018721,-0.530749,0.000321,0.955409,-261.415444,0.491793,69.39114
0.6353,-0.019106,-0.021255,0.000616,0.002762,0.00579,-0.002833,-0.018669,-0.530955,0.000195,0.955409,-261.415444,0.491793,69.39114
0.6551,-0.018901,-0.021485,-0.001214,0.002771,0.005791,-0.002714,-0.018792,-0.531255,0.000616,0.963417,-261.415444,0.566883,69.39114
0.6757,-0.019165,-0.020971,0.000103,0.002795,0.005775,-0.001893,-0.019455,-0.531464,-0.00105,0.963417,-261.415444,0.566883,69.39114
0.695,-0.019067,-0.020596,0.001661,0.002811,0.005765,-0.00132,-0.019455,-0.531464,-0.00105,0.963417,-261.415444,0.566883,69.39114
0.7155,-0.018983,-0.021243,-0.001666,0.002822,0.005758,-0.000921,-0.01822,-0.530595,0.001661,0.980242,-261.415442,0.641672,69.391143
0.7353,-0.019039,-0.021085,-0.000539,0.002818,0.005767,-0.001461,-0.018874,-0.530857,0.000311,0.980242,-261.415442,0.641672,69.391143
0.7552,-0.018837,-0.021198,0.000272,0.002818,0.005773,-0.001837,-0.019312,-0.531083,-0.000539,1.055242,-261.415416,0.716672,69.391174
0.7755,-0.018854,-0.021071,0.000499,0.002812,0.005783,-0.002028,-0.018754,-0.531187,0.000198,1.055242,-261.415416,0.716672,69.391174
0.795,-0.019109,-0.021087,0.000674,0.002808,0.005791,-0.002161,-0.018754,-0.531187,0.000198,1.055242,-261.415416,0.716672,69.391174
0.8154,-0.018836,-0.021262,0.000264,0.002806,0.005797,-0.002251,-0.018761,-0.531081,0.000674,1.026114,-261.415357,0.791678,69.391254
0.8355,-0.019357,-0.021116,0.000308,0.002802,0.005804,-0.002501,-0.018736,-0.531154,0.000506,1.026114,-261.415357,0.791678,69.391254
0.8552,-0.018635,-0.021292,-0.000495,0.002801,0.00581,-0.002674,-0.019192,-0.531105,0.000306,1.005392,-261.41522,0.866675,69.391456
0.8753,-0.018988,-0.021167,-0.000444,0.002809,0.005803,-0.002222,-0.018914,-0.531275,-0.000422,1.005392,-261.41522,0.866675,69.391456
0.8958,-0.018776,-0.021055,-0.000772,0.002814,0.005799,-0.001908,-0.018914,-0.531275,-0.000422,1.005392,-261.41522,0.866675,69.391456
0.9156,-0.019246,-0.02089,0.0002,0.002816,0.005797,-0.00169,-0.019147,-0.531023,-0.000783,0.980099,-261.414932,0.941674,69.391912
0.9353,-0.018791,-0.020986,-0.000717,0.002826,0.005788,-0.001566,-0.019144,-0.530965,-0.00038,0.980099,-261.414932,0.941674,69.391912
0.9552,-0.01873,-0.020739,-0.000759,0.002834,0.005781,-0.001481,-0.019116,-0.530919,-0.000732,1.036987,-261.41409,1.016766,69.393036
0.9753,-0.01892,-0.021054,0.000917,0.002846,0.005769,-0.001198,-0.019115,-0.530751,-0.000757,1.036987,-261.41409,1.016766,69.393036
0.9951,-0.019159,-0.021133,0.001053,0.002854,0.005761,-0.001003,-0.019115,-0.530751,-0.000757,1.036987,-261.41409,1.016766,69.393036
1.015,-0.018556,-0.02036,-7.7e-05,0.00286,0.005754,-0.00087,-0.018533,-0.530971,0.001016,1.044414,-261.412544,1.091795,69.395026
1.0353,-0.018834,-0.020822,0.000968,0.002846,0.005769,-0.001574,-0.018549,-0.5307,0.000561,1.044414,-261.412544,1.091795,69.395026
1.0551,-0.018847,-0.020387,-0.000902,0.002838,0.00578,-0.002065,-0.018255,-0.530649,0.000941,1.069752,-261.410285,1.143706,69.397645
1.0753,-0.019159,-0.019831,2.3e-05,0.002861,0.005758,-0.001616,-0.019212,-0.530401,-0.000745,1.069752,-261.410285,1.143706,69.397645
1.0951,-0.018439,-0.020215,-0.000681,0.002879,0.005742,-0.001303,-0.019212,-0.530401,-0.000745,1.069752,-261.410285,1.143706,69.397645
1.116,-0.018346,-0.019917,-0.000549,0.002891,0.005729,-0.001086,-0.018677,-0.529994,-0.00076,1.009971,-261.408334,1.187646,69.400421
1.1352,-0.018297,-0.02007,0.001341,0.002898,0.005722,-0.000972,-0.018644,-0.529937,-0.000685,1.009971,-261.408334,1.187646,69.400421
1.1553,-0.018323,-0.020352,-0.000246,0.002904,0.005716,-0.000894,-0.017526,-0.529897,0.001308,1.052137,-261.406118,1.146035,69.403086
1.1753,-0.018407,-0.019669,0.000232,0.002891,0.005728,-0.001179,-0.018371,-0.530308,-0.000124,1.052137,-261.406118,1.146035,69.403086
1.1952,-0.018691,-0.020193,-0.001416,0.002882,0.005737,-0.001377,-0.018371,-0.530308,-0.000124,1.052137,-261.406118,1.146035,69.403086
1.2154,-0.018087,-0.019838,-0.000384,0.002875,0.005744,-0.001514,-0.019292,-0.529955,-0.001453,1.059009,-261.403757,1.136605,69.405835
1.2354,-0.018184,-0.019507,1e-06,0.002895,0.005725,-0.001082,-0.018863,-0.529879,-0.001017,1.059009,-261.403757,1.136605,69.405835
1.2556,-0.017782,-0.019431,-0.000669,0.002909,0.005711,-0.000781,-0.018094,-0.529328,-4.6e-05,1.032811,-261.401565,1.163703,69.408672
1.2755,-0.018213,-0.019156,-0.001384,0.00291,0.005709,-0.000805,-0.018116,-0.529413,-0.000617,1.032811,-261.401565,1.163703,69.408672
1.2954,-0.017947,-0.01928,-0.000436,0.002911,0.005707,-0.000823,-0.018116,-0.529413,-0.000617,1.032811,-261.401565,1.163703,69.408672
1.3153,-0.017735,-0.019172,-5.7e-05,0.002912,0.005706,-0.000836,-0.018052,-0.529049,-0.000467,1.063499,-261.399248,1.131356,69.411318
1.3352,-0.018192,-0.019429,-0.000562,0.002913,0.005705,-0.001035,-0.017921,-0.529072,-0.000304,1.063499,-261.399248,1.131356,69.411318
1.3552,-0.017477,-0.018548,-0.0005,0.002915,0.005703,-0.001172,-0.018386,-0.529247,-0.000589,1.059947,-261.396863,1.132716,69.414067
1.3753,-0.017543,-0.018706,0.000467,0.002925,0.005693,-0.001144,-0.017787,-0.528602,-0.00051,1.059947,-261.396863,1.132716,69.414067
1.3951,-0.017604,-0.01909,-0.001768,0.002934,0.005685,-0.001124,-0.017787,-0.528602,-0.00051,1.059947,-261.396863,1.132716,69.414067
1.4152,-0.017482,-0.018637,-4.9e-05,0.002941,0.005678,-0.001109,-0.018384,-0.528852,-0.001817,1.041886,-261.394573,1.144572,69.416862
1.4354,-0.017466,-0.018548,-0.000605,0.002955,0.005664,-0.000749,-0.018012,-0.528737,-0.001102,1.041886,-261.394573,1.144572,69.416862
1.4554,-0.017368,-0.018198,0.000747,0.002964,0.005654,-0.000501,-0.017681,-0.528367,-0.00064,1.039154,-261.39225,1.137411,69.419666
1.4753,-0.01699,-0.018175,0.000332,0.002949,0.00567,-0.00136,-0.017042,-0.528204,0.000627,1.039154,-261.39225,1.137411,69.419666
1.4954,-0.017335,-0.01813,-0.000235,0.002941,0.005681,-0.001958,-0.017042,-0.528204,0.000627,1.039154,-261.39225,1.137411,69.419666
1.5149,-0.017347,-0.018009,0.001023,0.002937,0.005688,-0.002375,-0.017334,-0.527899,-0.000256,1.064713,-261.389861,1.109299,69.422267
1.5349,-0.016642,-0.017966,-0.000923,0.002945,0.005683,-0.002446,-0.01711,-0.527918,0.000268,1.064713,-261.389861,1.109299,69.422267
1.5552,-0.016503,-0.017697,0.000231,0.002952,0.005678,-0.002493,-0.017041,-0.527823,-0.000981,0.989712,-261.388241,1.180439,69.424692
1.5754,-0.017244,-0.01735,-7.5e-05,0.002949,0.005682,-0.002432,-0.016438,-0.527701,0.000123,0.989712,-261.388241,1.180439,69.424692
1.5954,-0.017211,-0.017761,-0.000286,0.002947,0.005684,-0.002389,-0.016438,-0.527701,0.000123,0.989712,-261.388241,1.180439,69.424692
1.6154,-0.0168,-0.017344,-0.002346,0.002944,0.005687,-0.002358,-0.017236,-0.527528,-0.000388,0.953204,-261.386245,1.181775,69.427739
1.6355,-0.016699,-0.017472,-0.000347,0.002981,0.005649,-0.00157,-0.017533,-0.527425,-0.001201,0.953204,-261.386245,1.181775,69.427739
1.655,-0.016407,-0.017068,0.001827,0.003008,0.00562,-0.00102,-0.016782,-0.527292,-0.000422,0.964554,-261.38418,1.179056,69.43082
1.6753,-0.016526,-0.017079,-0.001304,0.00297,0.005652,-0.00225,-0.01558,-0.527078,0.001635,0.964554,-261.38418,1.179056,69.43082
1.6957,-0.016613,-0.017386,-0.001448,0.002946,0.005678,-0.00312,-0.01558,-0.527078,0.001635,0.964554,-261.38418,1.179056,69.43082
1.7156,-0.016756,-0.017063,-0.001496,0.002931,0.005699,-0.003731,-0.01724,-0.527177,-0.001485,1.028965,-261.382111,1.121785,69.433278
1.7354,-0.016349,-0.016963,-0.002172,0.002984,0.00565,-0.002391,-0.017342,-0.527106,-0.001494,1.028965,-261.382111,1.121785,69.433278
1.7553,-0.016069,-0.016759,-0.002272,0.003021,0.005613,-0.001444,-0.017406,-0.526861,-0.002232,0.954044,-261.381122,1.196706,69.435145
1.7756,-0.016354,-0.016339,-0.001195,0.003058,0.005576,-0.000446,-0.017241,-0.526761,-0.002272,0.954044,-261.381122,1.196706,69.435145
1.7955,-0.016213,-0.016625,-0.001512,0.003083,0.005547,0.000254,-0.017241,-0.526761,-0.002272,0.954044,-261.381122,1.196706,69.435145
1.8155,-0.016624,-0.016471,0.000154,0.003102,0.005526,0.00074,-0.01687,-0.526411,-0.001567,1.002598,-261.379083,1.135468,69.437747
1.8354,-0.016016,-0.016714,-0.001928,0.003099,0.005526,0.000366,-0.016723,-0.526411,-0.000867,1.002598,-261.379083,1.135468,69.437747
1.8553,-0.016069,-0.016385,-0.001815,0.003099,0.005525,0.000106,-0.01693,-0.526587,-0.001914,1.077683,-261.377155,1.060382,69.439449
1.8753,-0.01602,-0.016373,-0.001403,0.003114,0.005508,0.000428,-0.016985,-0.526396,-0.001823,1.077683,-261.377155,1.060382,69.439449
1.8954,-0.016032,-0.016471,-0.001296,0.003125,0.005496,0.00065,-0.016985,-0.526396,-0.001823,1.077683,-261.377155,1.060382,69.439449
1.9158,-0.015718,-0.01604,-0.000438,0.003133,0.005486,0.000802,-0.016564,-0.52624,-0.001292,1.064591,-261.374611,1.054552,69.441948
1.9355,-0.015867,-0.016052,-0.000844,0.003122,0.005497,0.00044,-0.016296,-0.526132,-0.000945,1.064591,-261.374611,1.054552,69.441948
1.955,-0.015804,-0.015595,-0.000392,0.003115,0.005504,0.000191,-0.016201,-0.525884,-0.000819,1.087887,-261.372017,1.010661,69.444216
1.9752,-0.015672,-0.015965,-0.00196,0.003111,0.005507,-0.000293,-0.016017,-0.525613,-0.000429,1.087887,-261.372017,1.010661,69.444216
1.9955,-0.015671,-0.01578,-0.002078,0.00311,0.005508,-0.000623,-0.016017,-0.525613,-0.000429,1.087887,-261.372017,1.010661,69.444216
2.0157,-0.015558,-0.015537,-0.001847,0.00311,0.005508,-0.000846,-0.016603,-0.525555,-0.002071,1.064752,-261.36952,1.046535,69.446633
2.0357,-0.01524,-0.015407,-0.000378,0.003138,0.005479,-0.000166,-0.016547,-0.525521,-0.001979,1.064752,-261.36952,1.046535,69.446633
2.0552,-0.015369,-0.015221,-0.002946,0.003158,0.005458,0.000312,-0.015341,-0.525245,-0.000403,1.013481,-261.367345,1.094207,69.449141
2.0754,-0.015357,-0.015386,-0.002537,0.003189,0.005424,0.000953,-0.016729,-0.525213,-0.002718,1.013481,-261.367345,1.094207,69.449141
2.0952,-0.015315,-0.01516,-0.001264,0.003212,0.005399,0.0014,-0.016729,-0.525213,-0.002718,1.013481,-261.367345,1.094207,69.449141
2.1151,-0.015215,-0.015052,-0.000851,0.003228,0.005379,0.001709,-0.01584,-0.524953,-0.001252,1.060969,-261.365005,1.030661,69.451362
2.1354,-0.015146,-0.014962,-0.00224,0.00321,0.005395,0.001124,-0.015749,-0.52497,-0.001088,1.060969,-261.365005,1.030661,69.451362
2.1551,-0.015434,-0.014962,-0.001432,0.003199,0.005406,0.000724,-0.016204,-0.524818,-0.002197,1.105129,-261.36263,0.955649,69.453148
2.1753,-0.01494,-0.014754,-0.001858,0.003205,0.005399,0.000676,-0.016164,-0.524942,-0.001499,1.105129,-261.36263,0.955649,69.453148
2.1956,-0.015564,-0.014669,-0.001684,0.003211,0.005393,0.000646,-0.016164,-0.524942,-0.001499,1.105129,-261.36263,0.955649,69.453148
2.2152,-0.014745,-0.014871,-0.002074,0.003216,0.005388,0.000627,-0.016295,-0.524452,-0.001655,1.070261,-261.36009,0.998349,69.455397
2.2357,-0.015183,-0.014228,-0.001264,0.003229,0.005373,0.000779,-0.016082,-0.524596,-0.001821,1.070261,-261.36009,0.998349,69.455397
2.2549,-0.014937,-0.014097,-0.000906,0.00324,0.005362,0.000885,-0.015725,-0.524056,-0.001244,1.062406,-261.357447,0.99967,69.457778
2.2749,-0.014546,-0.014483,-0.001192,0.003238,0.005363,0.00048,-0.015423,-0.524085,-0.000934,1.062406,-261.357447,0.99967,69.457778
2.296,-0.014849,-0.014318,-0.00154,0.003238,0.005362,0.000204,-0.015423,-0.524085,-0.000934,1.062406,-261.357447,0.99967,69.457778
2.3153,-0.014774,-0.014084,-0.000296,0.003241,0.00536,1.6e-05,-0.015497,-0.52409,-0.001502,1.068789,-261.354777,0.979158,69.460081
2.3359,-0.01481,-0.013944,-0.000593,0.003241,0.005359,-4.8e-05,-0.015267,-0.524064,-0.001043,1.068789,-261.354777,0.979158,69.460081
2.3554,-0.014375,-0.014038,-0.001255,0.003243,0.005358,-8.9e-05,-0.015016,-0.523783,-0.000592,1.027829,-261.35242,1.026185,69.462432
2.3755,-0.014741,-0.013907,-8.1e-05,0.003241,0.00536,-3e-05,-0.01501,-0.524006,-0.001194,1.027829,-261.35242,1.026185,69.462432
2.3952,-0.014499,-0.013724,-0.00225,0.00324,0.005362,1.2e-05,-0.01501,-0.524006,-0.001194,1.027829,-261.35242,1.026185,69.462432
2.4154,-0.013996,-0.013646,-0.0018,0.003238,0.005364,4.2e-05,-0.01551,-0.523499,-0.002253,1.022085,-261.34993,1.031053,69.464958
2.4356,-0.014599,-0.01375,-0.000485,0.003261,0.005338,0.0005,-0.015249,-0.523533,-0.002067,1.022085,-261.34993,1.031053,69.464958
2.4553,-0.014188,-0.012865,-0.000976,0.003278,0.005319,0.000817,-0.014743,-0.52358,-0.000484,1.029736,-261.34742,1.025458,69.467451
2.4752,-0.014447,-0.013194,-0.001252,0.003283,0.005311,0.00044,-0.014685,-0.522918,-0.000933,1.029736,-261.34742,1.025458,69.467451
2.4954,-0.014227,-0.013242,-0.003352,0.00329,0.005302,0.000181,-0.014685,-0.522918,-0.000933,1.029736,-261.34742,1.025458,69.467451
2.5153,-0.014061,-0.013094,-0.000409,0.003297,0.005294,5e-06,-0.015806,-0.523029,-0.00332,1.05767,-261.344893,0.973498,69.469657
2.5354,-0.013756,-0.012966,-0.000514,0.003321,0.005267,0.000493,-0.01516,-0.523032,-0.00212,1.05767,-261.344893,0.973498,69.469657
2.5553,-0.01366,-0.012663,0.0001,0.00334,0.005247,0.000832,-0.013919,-0.522807,-0.000514,1.014071,-261.342535,1.013593,69.472013
2.5754,-0.013984,-0.012918,-0.002356,0.003311,0.005276,-0.000137,-0.013631,-0.522667,4.7e-05,1.014071,-261.342535,1.013593,69.472013
2.5957,-0.013802,-0.012774,-0.000449,0.003292,0.005299,-0.000806,-0.013631,-0.522667,4.7e-05,1.014071,-261.342535,1.013593,69.472013
2.6153,-0.014015,-0.012029,-0.000966,0.003279,0.005316,-0.001266,-0.0139,-0.522569,-0.000416,1.044977,-261.340046,0.956889,69.474182
2.6353,-0.014213,-0.012514,-0.000873,0.003295,0.005297,-0.001166,-0.014135,-0.522323,-0.000639,1.044977,-261.340046,0.956889,69.474182
2.655,-0.013807,-0.012454,-0.001063,0.003309,0.005282,-0.001091,-0.014585,-0.5224,-0.000896,0.969969,-261.338527,1.031897,69.476057
2.6752,-0.01369,-0.012575,-0.001281,0.003326,0.005264,-0.000799,-0.014366,-0.522443,-0.00105,0.969969,-261.338527,1.031897,69.476057
2.6953,-0.013386,-0.012068,-3.9e-05,0.003338,0.005249,-0.000594,-0.014366,-0.522443,-0.00105,0.969969,-261.338527,1.031897,69.476057
2.715,-0.013393,-0.012143,0.000257,0.003348,0.005238,-0.00045,-0.013271,-0.521852,-8.4e-05,0.948831,-261.336306,1.063187,69.478719
2.7353,-0.013046,-0.011831,-2.1e-05,0.003335,0.005252,-0.001007,-0.013252,-0.521947,5.1e-05,0.948831,-261.336306,1.063187,69.478719
2.7553,-0.013063,-0.012057,-0.002727,0.003326,0.005262,-0.001392,-0.012954,-0.52167,-3.5e-05,0.977287,-261.334001,1.025007,69.481203
2.7754,-0.013148,-0.011732,-0.001144,0.003364,0.005223,-0.000339,-0.014314,-0.522013,-0.002486,0.977287,-261.334001,1.025007,69.481203
2.7954,-0.013437,-0.012134,-0.001102,0.003391,0.005193,0.000405,-0.014314,-0.522013,-0.002486,0.977287,-261.334001,1.025007,69.481203
2.8154,-0.013104,-0.011747,0.001043,0.00341,0.005171,0.000927,-0.013871,-0.521931,-0.001156,0.924888,-261.331958,1.072502,69.483775
2.8351,-0.013249,-0.011514,-0.001582,0.003387,0.005193,0.000108,-0.01332,-0.521831,-0.000254,0.924888,-261.331958,1.072502,69.483775
2.8553,-0.012477,-0.010834,-0.001901,0.003372,0.005209,-0.000457,-0.013991,-0.521413,-0.001569,0.999983,-261.330343,0.997406,69.485162
2.8753,-0.013267,-0.011407,-0.000274,0.003405,0.005169,4.8e-05,-0.013489,-0.520877,-0.001873,0.999983,-261.330343,0.997406,69.485162
2.8952,-0.012763,-0.011571,-0.000742,0.003431,0.005136,0.000401,-0.013489,-0.520877,-0.001873,0.999983,-261.330343,0.997406,69.485162
2.9151,-0.013195,-0.010807,-0.000387,0.003451,0.005111,0.000647,-0.013004,-0.521358,-0.00076,0.970907,-261.328006,1.019823,69.487682
2.9351,-0.012885,-0.011065,-0.002069,0.003441,0.005121,0.000127,-0.013148,-0.521106,-0.000609,0.970907,-261.328006,1.019823,69.487682
2.9553,-0.01252,-0.010705,-0.000142,0.003435,0.005127,-0.00023,-0.013844,-0.520921,-0.002051,1.0109,-261.325725,0.944868,69.489734
2.9753,-0.013082,-0.011092,2e-06,0.00343,0.005132,-0.000657,-0.012695,-0.520717,-0.000306,1.0109,-261.325725,0.944868,69.489734
2.9951,-0.01303,-0.010845,-0.001113,0.003427,0.005135,-0.000948,-0.012695,-0.520717,-0.000306,1.0109,-261.325725,0.944868,69.489734
3.0153,-0.012971,-0.010739,-0.000656,0.003426,0.005136,-0.001146,-0.013463,-0.520645,-0.001122,0.967554,-261.323463,0.992914,69.492083
3.0352,-0.012469,-0.010679,0.000172,0.00345,0.005107,-0.00091,-0.013383,-0.52066,-0.000932,0.967554,-261.323463,0.992914,69.492083
3.0551,-0.012408,-0.010053,-0.000109,0.003468,0.005084,-0.000743,-0.01228,-0.520529,0.000138,0.913117,-261.321397,1.039944,69.494578
3.0753,-0.012373,-0.010053,-0.000805,0.003471,0.005078,-0.00113,-0.012443,-0.520087,-8.9e-05,0.913117,-261.321397,1.039944,69.494578
3.0955,-0.01236,-0.010521,-0.000721,0.003476,0.005072,-0.001397,-0.012443,-0.520087,-8.9e-05,0.913117,-261.321397,1.039944,69.494578
3.115,-0.012409,-0.010181,-0.001712,0.003481,0.005066,-0.00158,-0.012585,-0.520312,-0.000752,0.927936,-261.319123,1.011262,69.497145
3.135,-0.012332,-0.009874,-0.000657,0.0035,0.005043,-0.001082,-0.012853,-0.520234,-0.001146,0.927936,-261.319123,1.011262,69.497145
3.1551,-0.012255,-0.009925,-0.002046,0.003514,0.005026,-0.000734,-0.012565,-0.519725,-0.000704,0.867024,-261.317135,1.047318,69.499719
3.175,-0.012151,-0.009871,-0.001825,0.003549,0.004982,-0.000101,-0.01323,-0.519899,-0.001932,0.867024,-261.317135,1.047318,69.499719
3.1952,-0.011826,-0.009915,0.000175,0.003576,0.004947,0.00034,-0.01323,-0.519899,-0.001932,0.867024,-261.317135,1.047318,69.499719
3.215,-0.011956,-0.009906,-0.000557,0.003596,0.004919,0.000644,-0.011601,-0.51972,0.000146,0.916036,-261.314992,1.000112,69.502135
3.2354,-0.011803,-0.009786,-0.001921,0.003569,0.004951,-0.000145,-0.011848,-0.519774,-0.000146,0.916036,-261.314992,1.000112,69.502135
3.2548,-0.01203,-0.009765,-0.00148,0.003549,0.004975,-0.00069,-0.012691,-0.519657,-0.001906,0.975728,-261.312932,0.925091,69.503991
3.2755,-0.011378,-0.009106,-0.000641,0.003569,0.004951,-0.000281,-0.012772,-0.519749,-0.001517,0.975728,-261.312932,0.925091,69.503991
3.2955,-0.011684,-0.0099,-0.001471,0.003584,0.004932,4e-06,-0.012772,-0.519749,-0.001517,0.975728,-261.312932,0.925091,69.503991
3.315,-0.011646,-0.009344,-0.000979,0.003595,0.004917,0.000202,-0.012305,-0.519717,-0.001497,0.908855,-261.310919,0.98917,69.506243
3.3352,-0.011799,-0.009186,-0.00152,0.003594,0.004917,0.000218,-0.012225,-0.519545,-0.001289,0.908855,-261.310919,0.98917,69.506243
3.355,-0.011378,-0.008929,-8.5e-05,0.003594,0.004917,0.000228,-0.012469,-0.519042,-0.001514,0.951288,-261.308655,0.927361,69.508434
3.3753,-0.011599,-0.009103,-0.000281,0.003587,0.004921,-0.000397,-0.011509,-0.518931,-0.000212,0.951288,-261.308655,0.927361,69.508434
3.3955,-0.011007,-0.008888,6.9e-05,0.003583,0.004923,-0.000828,-0.011509,-0.518931,-0.000212,0.951288,-261.308655,0.927361,69.508434
3.4154,-0.011084,-0.008956,-0.001963,0.003582,0.004923,-0.001124,-0.010822,-0.518683,7.9e-05,0.952899,-261.306174,0.925905,69.510825
3.4352,-0.010922,-0.009032,-0.002262,0.003586,0.004916,-0.001006,-0.011313,-0.518769,-0.000743,0.952899,-261.306174,0.925905,69.510825
3.455,-0.011331,-0.008719,-0.001604,0.00359,0.004911,-0.000923,-0.011983,-0.518904,-0.00229,0.877895,-261.30437,1.000909,69.512989
3.4757,-0.010976,-0.008283,-0.002436,0.003622,0.004868,-0.000366,-0.01213,-0.518728,-0.001666,0.877895,-261.30437,1.000909,69.512989
3.4957,-0.010934,-0.008386,-0.00247,0.003647,0.004835,2.2e-05,-0.01213,-0.518728,-0.001666,0.877895,-261.30437,1.000909,69.512989
3.5158,-0.010399,-0.008492,-0.002163,0.003666,0.004808,0.00029,-0.012043,-0.51818,-0.002509,0.880548,-261.302122,0.990391,69.515599
3.5358,-0.011262,-0.008526,-0.002143,0.003693,0.004771,0.000797,-0.011808,-0.518281,-0.002374,0.880548,-261.302122,0.990391,69.515599
3.5553,-0.010531,-0.008186,-0.000602,0.003713,0.004742,0.001148,-0.012257,-0.518396,-0.002136,0.936785,-261.300051,0.915507,69.517576
3.5758,-0.010809,-0.008221,-0.000983,0.003696,0.004759,0.000546,-0.010968,-0.518199,-0.000748,0.936785,-261.300051,0.915507,69.517576
3.5958,-0.010433,-0.008091,-0.001495,0.003684,0.004772,0.000131,-0.010968,-0.518199,-0.000748,0.936785,-261.300051,0.915507,69.517576
3.6158,-0.010529,-0.008033,-0.001548,0.003676,0.004781,-0.000154,-0.011062,-0.517918,-0.001455,0.972091,-261.297768,0.840517,69.519478
3.6361,-0.0103,-0.008136,-0.001236,0.003691,0.004759,6.3e-05,-0.01115,-0.517945,-0.001488,0.972091,-261.297768,0.840517,69.519478
3.6554,-0.010745,-0.007795,-0.000866,0.003703,0.004742,0.000215,-0.010825,-0.517999,-0.001232,0.921348,-261.295579,0.905187,69.521621
3.6758,-0.010556,-0.007688,-0.003159,0.003711,0.004726,-6e-06,-0.011151,-0.517806,-0.000897,0.921348,-261.295579,0.905187,69.521621
3.6956,-0.010716,-0.007682,0.000365,0.003719,0.004712,-0.000157,-0.011151,-0.517806,-0.000897,0.921348,-261.295579,0.905187,69.521621
3.7158,-0.010568,-0.007515,-0.001565,0.003726,0.0047,-0.000259,-0.010375,-0.517484,0.000374,0.92105,-261.293139,0.894132,69.523979
3.7358,-0.009872,-0.007893,-0.000948,0.003731,0.004689,-0.000618,-0.010759,-0.517474,-0.00041,0.92105,-261.293139,0.894132,69.523979
3.7552,-0.009955,-0.007265,-0.000165,0.003736,0.004678,-0.000864,-0.010239,-0.517747,-0.000956,0.883772,-261.290859,0.916543,69.526355
3.7757,-0.009942,-0.007069,-0.00215,0.003727,0.004688,-0.001136,-0.010052,-0.517304,-0.000241,0.883772,-261.290859,0.916543,69.526355
3.7957,-0.010257,-0.00745,-0.000367,0.003721,0.004694,-0.001321,-0.010052,-0.517304,-0.000241,0.883772,-261.290859,0.916543,69.526355
3.8153,-0.009499,-0.007222,-0.000122,0.003717,0.004698,-0.001447,-0.010295,-0.517264,-0.000401,0.837862,-261.288731,0.948295,69.528796
3.8353,-0.010219,-0.006932,-0.001274,0.003716,0.004699,-0.001501,-0.009978,-0.517225,-0.000291,0.837862,-261.288731,0.948295,69.528796
3.855,-0.00945,-0.007083,-0.002941,0.003715,0.004699,-0.001536,-0.010756,-0.516788,-0.001319,0.798345,-261.286696,0.983287,69.531358
3.8754,-0.009614,-0.00683,-0.001486,0.003768,0.004633,-0.000345,-0.010926,-0.517047,-0.002798,0.798345,-261.286696,0.983287,69.531358
3.8955,-0.00969,-0.006711,-0.000943,0.003806,0.004581,0.000503,-0.010926,-0.517047,-0.002798,0.798345,-261.286696,0.983287,69.531358
3.9153,-0.009416,-0.006596,-0.002364,0.003834,0.004541,0.001099,-0.010015,-0.516515,-0.001007,0.79149,-261.284584,0.988101,69.534056
3.935,-0.009502,-0.006306,-0.000119,0.003845,0.004511,0.000955,-0.010243,-0.516524,-0.001564,0.79149,-261.284584,0.988101,69.534056
3.9553,-0.009499,-0.00667,-0.001726,0.003856,0.004486,0.000856,-0.009517,-0.51625,-0.000113,0.86647,-261.283602,0.913122,69.534883
3.9754,-0.009078,-0.006355,-0.000634,0.003862,0.004471,0.0008,-0.010302,-0.51663,-0.001587,0.86647,-261.283602,0.913122,69.534883
3.9953,-0.009096,-0.006717,-0.002803,0.003868,0.004458,0.000761,-0.010302,-0.51663,-0.001587,0.86647,-261.283602,0.913122,69.534883
4.0154,-0.009008,-0.00628,-0.000922,0.003874,0.004448,0.000735,-0.010402,-0.516567,-0.002779,0.914728,-261.281627,0.83802,69.536611
4.0352,-0.009256,-0.00663,-0.002314,0.003882,0.004434,0.000932,-0.010013,-0.516433,-0.002024,0.914728,-261.281627,0.83802,69.536611
4.0551,-0.00906,-0.006013,-0.001975,0.003888,0.004423,0.001067,-0.010316,-0.516491,-0.002291,0.901539,-261.279189,0.801253,69.538784
4.0755,-0.008866,-0.00592,-0.001383,0.003908,0.004384,0.001148,-0.010083,-0.516047,-0.002002,0.901539,-261.279189,0.801253,69.538784
4.096,-0.008843,-0.005894,-0.002602,0.003924,0.004352,0.001202,-0.010083,-0.516047,-0.002002,0.901539,-261.279189,0.801253,69.538784
4.1156,-0.008608,-0.006092,-0.003054,0.003937,0.004327,0.001238,-0.010008,-0.51571,-0.002558,0.917105,-261.276676,0.770255,69.540914
4.1355,-0.009257,-0.005916,-0.00233,0.00396,0.004286,0.001586,-0.010054,-0.515842,-0.002753,0.917105,-261.276676,0.770255,69.540914
4.1557,-0.008285,-0.005819,0.000283,0.003977,0.004253,0.001824,-0.010322,-0.51578,-0.002291,0.911785,-261.274154,0.736664,69.542999
4.1756,-0.008773,-0.005711,-0.000165,0.003916,0.004321,0.000492,-0.008328,-0.515808,5.8e-05,0.911785,-261.274154,0.736664,69.542999
4.1955,-0.008737,-0.005605,-0.000582,0.003874,0.004375,-0.000429,-0.008328,-0.515808,5.8e-05,0.911785,-261.274154,0.736664,69.542999
4.215,-0.008324,-0.005319,-0.002596,0.003843,0.004417,-0.00106,-0.008881,-0.515441,-0.000512,0.933028,-261.271693,0.668173,69.544865
4.2354,-0.008792,-0.005827,0.000304,0.003878,0.00436,-0.000663,-0.009178,-0.515371,-0.00136,0.933028,-261.271693,0.668173,69.544865
4.255,-0.008596,-0.005381,-0.00081,0.003905,0.004314,-0.000379,-0.008606,-0.515795,0.000303,0.858031,-261.271182,0.74317,69.545469
4.2755,-0.008553,-0.005446,-0.001588,0.003912,0.004297,-0.000543,-0.008972,-0.515416,-0.000712,0.858031,-261.271182,0.74317,69.545469
4.2955,-0.008424,-0.005498,-0.001998,0.003919,0.004283,-0.000652,-0.008972,-0.515416,-0.000712,0.858031,-261.271182,0.74317,69.545469
4.315,-0.008122,-0.005726,-0.002011,0.003926,0.00427,-0.000723,-0.009314,-0.515362,-0.002006,0.807561,-261.269445,0.818179,69.547311
4.335,-0.008552,-0.005398,-0.000107,0.003946,0.004245,-9e-05,-0.009231,-0.515496,-0.002009,0.807561,-261.269445,0.818179,69.547311
4.3549,-0.008077,-0.004941,-0.001658,0.003961,0.004226,0.000353,-0.008491,-0.515272,-0.000128,0.772925,-261.267405,0.876187,69.549593
4.3753,-0.008337,-0.005204,-0.002357,0.00398,0.004183,0.000423,-0.00888,-0.514962,-0.001527,0.772925,-261.267405,0.876187,69.549593
4.3953,-0.008006,-0.00504,-0.000967,0.003995,0.004148,0.000472,-0.00888,-0.514962,-0.001527,0.772925,-261.267405,0.876187,69.549593
4.415,-0.008265,-0.004792,-0.0017,0.004007,0.00412,0.000505,-0.008362,-0.514893,-0.000955,0.842487,-261.265445,0.801124,69.551449
4.4351,-0.007767,-0.004867,-0.001232,0.004013,0.004099,0.000382,-0.008657,-0.514835,-0.001255,0.842487,-261.265445,0.801124,69.551449
4.4549,-0.00778,-0.004852,-0.003079,0.004019,0.004081,0.000298,-0.00827,-0.514739,-0.001216,0.835406,-261.263121,0.760457,69.553602
4.475,-0.007551,-0.00464,-0.000648,0.004054,0.004027,0.000989,-0.009245,-0.514833,-0.002909,0.835406,-261.263121,0.760457,69.553602
4.4949,-0.007981,-0.004658,0.000182,0.004079,0.003986,0.001472,-0.009245,-0.514833,-0.002909,0.835406,-261.263121,0.760457,69.553602
4.5149,-0.007545,-0.004631,-0.000413,0.004097,0.003954,0.001804,-0.007721,-0.514488,0.000195,0.814835,-261.260797,0.770261,69.555822
4.5352,-0.00733,-0.004471,-0.002075,0.004053,0.003988,0.000541,-0.007716,-0.514527,-5.2e-05,0.814835,-261.260797,0.770261,69.555822
4.555,-0.007135,-0.004471,-0.000303,0.004025,0.004014,-0.00033,-0.008312,-0.514391,-0.002046,0.889804,-261.259235,0.695262,69.55702
4.5753,-0.007606,-0.004329,-0.001178,0.003996,0.004041,-0.000684,-0.007373,-0.514461,-0.000449,0.889804,-261.259235,0.695262,69.55702
4.5954,-0.007528,-0.004174,-0.000405,0.003973,0.004062,-0.000922,-0.007373,-0.514461,-0.000449,0.889804,-261.259235,0.695262,69.55702
4.6153,-0.007641,-0.004588,-0.0025,0.003955,0.004078,-0.001079,-0.007631,-0.51407,-0.000405,0.814663,-261.25787,0.770403,69.558456
4.6356,-0.007118,-0.004201,-0.002229,0.003986,0.004022,-0.000718,-0.008141,-0.514268,-0.001256,0.814663,-261.25787,0.770403,69.558456
4.655,-0.00712,-0.004204,-0.002284,0.00401,0.003979,-0.000462,-0.008164,-0.514108,-0.002249,0.739805,-261.256379,0.845261,69.560216
4.6756,-0.007221,-0.00412,-0.001999,0.004044,0.003922,0.000208,-0.008271,-0.514191,-0.002282,0.739805,-261.256379,0.845261,69.560216
4.6956,-0.007368,-0.004144,-0.001407,0.004069,0.003879,0.000677,-0.008271,-0.514191,-0.002282,0.739805,-261.256379,0.845261,69.560216
4.7155,-0.007004,-0.004012,-0.001108,0.004088,0.003846,0.001003,-0.007921,-0.513981,-0.001426,0.744708,-261.254237,0.815735,69.562514
4.7354,-0.006992,-0.003734,-0.001814,0.004086,0.003827,0.000741,-0.007758,-0.513974,-0.001298,0.744708,-261.254237,0.815735,69.562514
4.7551,-0.006958,-0.004245,-0.000597,0.004086,0.003811,0.00056,-0.007837,-0.513653,-0.001799,0.819431,-261.252707,0.741013,69.563832
4.7751,-0.006896,-0.003728,-0.002295,0.004054,0.00385,9.8e-05,-0.00731,-0.514187,-0.000705,0.819431,-261.252707,0.741013,69.563832
4.7951,-0.006738,-0.003604,-0.000317,0.00403,0.003879,-0.000218,-0.00731,-0.514187,-0.000705,0.819431,-261.252707,0.741013,69.563832
4.815,-0.0064,-0.003469,-0.002049,0.004011,0.003902,-0.000433,-0.006735,-0.51345,-0.000295,0.793531,-261.250449,0.703855,69.56591
4.8353,-0.006211,-0.003941,-0.002473,0.004022,0.003833,-0.000394,-0.007008,-0.51344,-0.001015,0.793531,-261.250449,0.703855,69.56591
4.855,-0.006651,-0.003347,-0.001678,0.00403,0.003778,-0.000364,-0.007367,-0.513841,-0.002482,0.736602,-261.2487,0.778945,69.567777
4.8752,-0.006516,-0.00325,-0.001775,0.004065,0.003698,4.6e-05,-0.00749,-0.513384,-0.001748,0.736602,-261.2487,0.778945,69.567777
4.8952,-0.006289,-0.003249,-0.002493,0.004091,0.003636,0.00033,-0.00749,-0.513384,-0.001748,0.736602,-261.2487,0.778945,69.567777
4.9152,-0.006566,-0.003123,-0.001735,0.004112,0.003587,0.000527,-0.007393,-0.51309,-0.002509,0.722954,-261.246558,0.781649,69.570041
4.935,-0.006516,-0.003184,-0.000801,0.00414,0.003507,0.000874,-0.007397,-0.513085,-0.002192,0.722954,-261.246558,0.781649,69.570041
4.9552,-0.006139,-0.002938,-0.00144,0.004161,0.003445,0.001112,-0.006821,-0.51309,-0.00079,0.760106,-261.244733,0.706681,69.571729
4.975,-0.005972,-0.002942,-0.001415,0.004153,0.003405,0.000874,-0.006864,-0.512946,-0.001383,0.760106,-261.244733,0.706681,69.571729
4.9952,-0.006226,-0.002995,-0.001504,0.004148,0.003372,0.000711,-0.006864,-0.512946,-0.001383,0.760106,-261.244733,0.706681,69.571729
5.0151,-0.005711,-0.002853,-0.001701,0.004145,0.003346,0.000599,-0.006858,-0.512878,-0.001473,0.780967,-261.242887,0.631692,69.573304
5.0352,-0.005568,-0.002647,-0.002001,0.004142,0.003315,0.000618,-0.006727,-0.512854,-0.001563,0.780967,-261.242887,0.631692,69.573304
5.0552,-0.006085,-0.002584,-0.001894,0.004139,0.00329,0.000633,-0.006461,-0.512544,-0.001982,0.73022,-261.240753,0.623312,69.575262
5.0751,-0.005906,-0.002735,-0.00125,0.004161,0.003213,0.000814,-0.006994,-0.512575,-0.0019,0.73022,-261.240753,0.623312,69.575262
5.0955,-0.005968,-0.002725,-0.002057,0.004178,0.003152,0.000938,-0.006994,-0.512575,-0.0019,0.73022,-261.240753,0.623312,69.575262
5.115,-0.005871,-0.002583,-0.000893,0.004191,0.003105,0.001023,-0.006844,-0.512586,-0.00203,0.72628,-261.238547,0.611759,69.577276
5.1353,-0.005591,-0.002454,-0.000469,0.004182,0.003083,0.000916,-0.006617,-0.512569,-0.001573,0.72628,-261.238547,0.611759,69.577276
5.1549,-0.005317,-0.00252,-0.000881,0.004174,0.003065,0.000843,-0.005708,-0.512364,-0.000439,0.727184,-261.236506,0.536894,69.579048
5.1753,-0.00529,-0.002593,-0.002225,0.004111,0.003083,0.00039,-0.005756,-0.512502,-0.000843,0.727184,-261.236506,0.536894,69.579048
5.1952,-0.00569,-0.002647,9.9e-05,0.004061,0.003095,7.9e-05,-0.005756,-0.512502,-0.000843,0.727184,-261.236506,0.536894,69.579048
5.2155,-0.005294,-0.002541,-0.001373,0.004022,0.003103,-0.000132,-0.005466,-0.512519,0.000135,0.708915,-261.234323,0.54853,69.58099
5.2355,-0.005128,-0.002318,-0.001351,0.00398,0.003119,-0.000495,-0.00566,-0.512513,-0.000472,0.708915,-261.234323,0.54853,69.58099
5.2553,-0.005219,-0.002373,-0.001799,0.003947,0.00313,-0.000744,-0.005721,-0.512247,-0.00135,0.644471,-261.232835,0.623534,69.582507
5.2755,-0.005127,-0.002606,-0.001176,0.003968,0.00308,-0.000204,-0.006097,-0.512358,-0.001761,0.644471,-261.232835,0.623534,69.582507
5.2952,-0.004914,-0.00198,-0.001018,0.003983,0.003043,0.000172,-0.006097,-0.512358,-0.001761,0.644471,-261.232835,0.623534,69.582507
5.3152,-0.004725,-0.002008,-0.001493,0.003993,0.003015,0.000434,-0.005302,-0.51188,-0.001038,0.595775,-261.231343,0.698525,69.584175
5.3354,-0.005007,-0.002369,-0.00151,0.003958,0.002939,0.000344,-0.005362,-0.51192,-0.001227,0.595775,-261.231343,0.698525,69.584175
5.3553,-0.00491,-0.001851,-0.002569,0.003929,0.002881,0.000282,-0.005682,-0.512297,-0.001503,0.670788,-261.229783,0.623512,69.585639
5.3755,-0.00484,-0.002011,-0.001233,0.003972,0.002796,0.000835,-0.006169,-0.511885,-0.002476,0.670788,-261.229783,0.623512,69.585639
5.3957,-0.004715,-0.00208,-0.000655,0.004005,0.002731,0.001218,-0.006169,-0.511885,-0.002476,0.670788,-261.229783,0.623512,69.585639
5.4155,-0.004471,-0.00218,-0.000613,0.004031,0.002682,0.001481,-0.004885,-0.511961,-0.000643,0.660615,-261.227809,0.603507,69.587532
5.4353,-0.004983,-0.002013,0.000298,0.00392,0.002736,0.000705,-0.004825,-0.512037,-0.00063,0.660615,-261.227809,0.603507,69.587532
5.4554,-0.00465,-0.001569,-0.002169,0.003835,0.002777,0.000171,-0.004765,-0.511964,0.000317,0.72709,-261.226672,0.528475,69.588461
5.4753,-0.004514,-0.002048,-0.001651,0.003867,0.002678,0.000522,-0.005669,-0.511599,-0.001957,0.72709,-261.226672,0.528475,69.588461
5.4955,-0.004624,-0.001671,-0.001818,0.003892,0.002602,0.000766,-0.005669,-0.511599,-0.001957,0.72709,-261.226672,0.528475,69.588461
5.5154,-0.00456,-0.001887,-0.0014,0.003911,0.002544,0.000935,-0.005421,-0.511576,-0.001811,0.652049,-261.22512,0.603516,69.589973
5.5354,-0.004093,-0.001375,-0.001933,0.003896,0.00253,0.000896,-0.005347,-0.511691,-0.001643,0.652049,-261.22512,0.603516,69.589973
5.5553,-0.004059,-0.001431,-0.001175,0.003884,0.002519,0.000869,-0.004988,-0.511311,-0.001915,0.672608,-261.223646,0.528541,69.591265
5.5753,-0.003947,-0.002005,0.000705,0.003814,0.002469,0.000648,-0.004682,-0.511417,-0.001237,0.672608,-261.223646,0.528541,69.591265
5.5954,-0.00415,-0.00194,-0.001655,0.003759,0.002431,0.000496,-0.004682,-0.511417,-0.001237,0.672608,-261.223646,0.528541,69.591265
5.6152,-0.004226,-0.001289,-0.000479,0.003715,0.002402,0.000393,-0.00484,-0.51184,-0.00162,0.665571,-261.221769,0.473042,69.592923
5.635,-0.004187,-0.001275,-0.000941,0.003673,0.002426,0.00027,-0.00467,-0.511602,-0.001148,0.665571,-261.221769,0.473042,69.592923
5.6549,-0.003732,-0.001468,8.7e-05,0.003639,0.002443,0.000185,-0.004558,-0.511205,-0.00093,0.618233,-261.220089,0.527037,69.594507
5.6752,-0.004034,-0.001141,0.000164,0.003487,0.002452,-0.000526,-0.003756,-0.511442,2e-06,0.618233,-261.220089,0.527037,69.594507
5.695,-0.003831,-0.001527,0.000429,0.003369,0.002458,-0.001016,-0.003756,-0.511442,2e-06,0.618233,-261.220089,0.527037,69.594507
5.7151,-0.003816,-0.001164,-4.8e-05,0.003278,0.002463,-0.001353,-0.003465,-0.511428,0.000437,0.61241,-261.218361,0.569557,69.596186
5.7352,-0.003706,-0.001339,0.000277,0.003185,0.002436,-0.001721,-0.003603,-0.511307,0.000237,0.61241,-261.218361,0.569557,69.596186
5.755,-0.003381,-0.001134,-0.002438,0.003114,0.002416,-0.001973,-0.003529,-0.511315,0.000269,0.537386,-261.217884,0.64458,69.596791
5.7749,-0.004161,-0.00152,-0.000506,0.003204,0.002324,-0.000856,-0.004528,-0.511147,-0.002204,0.537386,-261.217884,0.64458,69.596791
5.795,-0.003597,-0.001625,8.3e-05,0.003271,0.002255,-6.7e-05,-0.004528,-0.511147,-0.002204,0.537386,-261.217884,0.64458,69.596791
5.8153,-0.003788,-0.00148,-0.000485,0.003322,0.002203,0.000485,-0.003513,-0.511596,6.6e-05,0.462388,-261.217481,0.719579,69.597366
5.8353,-0.003653,-0.001237,0.001512,0.00323,0.002305,-0.000231,-0.003721,-0.511545,-0.000161,0.462388,-261.217481,0.719579,69.597366
5.8548,-0.003595,-0.000816,-0.001328,0.00316,0.002382,-0.000725,-0.002849,-0.511215,0.001511,0.537232,-261.216966,0.644734,69.597841
5.875,-0.004002,-0.000754,-0.000841,0.003187,0.002243,-0.000518,-0.004143,-0.51085,-0.001074,0.537232,-261.216966,0.644734,69.597841
5.8952,-0.003554,-0.001523,-0.001919,0.003209,0.002137,-0.000375,-0.004143,-0.51085,-0.001074,0.537232,-261.216966,0.644734,69.597841
5.9156,-0.003397,-0.001303,-0.001396,0.003226,0.002056,-0.000275,-0.004414,-0.511434,-0.001945,0.550587,-261.215646,0.719722,69.599349
5.935,-0.003124,-0.001221,-0.001848,0.00325,0.002119,0.000119,-0.004276,-0.51137,-0.001723,0.550587,-261.215646,0.719722,69.599349
5.9548,-0.00331,-0.001256,-0.001064,0.003269,0.002168,0.000391,-0.003986,-0.511167,-0.001857,0.529503,-261.214451,0.644593,69.600603
5.9751,-0.003371,-0.001277,0.000177,0.003226,0.002192,0.00028,-0.003861,-0.511246,-0.001132,0.529503,-261.214451,0.644593,69.600603
5.9953,-0.003573,-0.000938,-0.00171,0.003192,0.00221,0.000203,-0.003861,-0.511246,-0.001132,0.529503,-261.214451,0.644593,69.600603
6.0151,-0.00331,-0.000925,-0.002592,0.003166,0.002224,0.00015,-0.004352,-0.510875,-0.001704,0.604518,-261.213337,0.569578,69.601644
6.0349,-0.003308,-0.000856,0.000518,0.003233,0.002126,0.00058,-0.004455,-0.510887,-0.002065,0.604518,-261.213337,0.569578,69.601644
6.0548,-0.003099,-0.000592,-0.001385,0.003285,0.002052,0.000876,-0.002945,-0.510787,0.000523,0.631513,-261.211801,0.592732,69.603139
6.0751,-0.002931,-0.00071,6.5e-05,0.003228,0.001931,0.000669,-0.003722,-0.510606,-0.001211,0.631513,-261.211801,0.592732,69.603139
6.0952,-0.003022,-0.000839,-0.00048,0.003184,0.001839,0.000527,-0.003722,-0.510606,-0.001211,0.631513,-261.211801,0.592732,69.603139
6.1153,-0.002688,-0.000335,-0.001444,0.00315,0.001769,0.000428,-0.003179,-0.51078,-0.000462,0.667045,-261.210715,0.517806,69.604078
6.1353,-0.003419,-0.000767,-0.001146,0.003049,0.00172,0.000171,-0.003268,-0.510593,-0.000858,0.667045,-261.210715,0.517806,69.604078
6.1549,-0.002919,-0.000618,-0.000323,0.002971,0.001683,-6e-06,-0.003923,-0.510721,-0.001134,0.59202,-261.209517,0.446472,69.605195
6.175,-0.003174,-0.000384,0.000473,0.002887,0.00167,-0.000403,-0.003155,-0.510625,-0.000395,0.59202,-261.209517,0.446472,69.605195
6.1952,-0.002889,-0.000859,-0.000501,0.002824,0.00166,-0.000676,-0.003155,-0.510625,-0.000395,0.59202,-261.209517,0.446472,69.605195
6.2153,-0.00295,-0.000841,-0.001425,0.002775,0.001652,-0.000863,-0.00304,-0.5108,-0.000501,0.517056,-261.208369,0.516375,69.606344
6.2355,-0.002381,-0.000515,-0.001276,0.002763,0.001696,-0.00071,-0.003292,-0.51081,-0.000884,0.517056,-261.208369,0.516375,69.606344
6.2554,-0.002629,-0.000448,-0.000518,0.002753,0.00173,-0.000602,-0.002984,-0.510488,-0.001286,0.441876,-261.207737,0.591555,69.607089
6.2751,-0.002601,-0.000575,-0.001879,0.002675,0.001653,-0.000679,-0.002899,-0.51045,-0.000591,0.441876,-261.207737,0.591555,69.607089
6.2951,-0.002594,-0.000259,-0.00238,0.002615,0.001596,-0.000733,-0.002899,-0.51045,-0.000591,0.441876,-261.207737,0.591555,69.607089
6.3154,-0.00255,-0.000613,-0.000852,0.002568,0.001554,-0.000771,-0.003699,-0.51019,-0.002404,0.45943,-261.206581,0.651093,69.608392
6.335,-0.002337,-0.000496,-0.001712,0.002626,0.001481,-0.000172,-0.003392,-0.510356,-0.001767,0.45943,-261.206581,0.651093,69.608392
6.355,-0.002313,2.4e-05,-0.001739,0.00267,0.001426,0.000244,-0.003134,-0.510449,-0.001735,0.398901,-261.205534,0.667582,69.60962
6.3752,-0.002393,-0.000573,-0.001252,0.002667,0.001281,0.000536,-0.00319,-0.510014,-0.001739,0.398901,-261.205534,0.667582,69.60962
6.3955,-0.002275,-0.000524,0.000419,0.002664,0.001173,0.000735,-0.00319,-0.510014,-0.001739,0.398901,-261.205534,0.667582,69.60962
6.4153,-0.002311,-0.000164,-3.3e-05,0.002661,0.001091,0.000868,-0.002024,-0.510502,0.000416,0.473881,-261.205113,0.592602,69.610022
6.4353,-0.002152,-0.00019,-0.002363,0.00242,0.001159,-0.000168,-0.002139,-0.510367,0.00024,0.473881,-261.205113,0.592602,69.610022
6.4552,-0.002449,-0.00039,-0.001378,0.00224,0.001212,-0.00089,-0.003351,-0.510185,-0.002362,0.547122,-261.205013,0.517652,69.610109
6.475,-0.001936,-0.000107,-0.000513,0.002331,0.001235,-0.000428,-0.003168,-0.510372,-0.001461,0.547122,-261.205013,0.517652,69.610109
6.495,-0.002364,-0.00014,-0.000399,0.002402,0.001253,-0.000105,-0.003168,-0.510372,-0.001461,0.547122,-261.205013,0.517652,69.610109
6.515,-0.002139,-0.000554,-0.001247,0.002456,0.001268,0.000121,-0.002545,-0.510126,-0.000403,0.472005,-261.204786,0.592769,69.610385
6.5352,-0.002383,-0.000333,-0.000987,0.002393,0.001267,-0.000103,-0.002637,-0.510301,-0.000751,0.472005,-261.204786,0.592769,69.610385
6.5548,-0.0023,-0.00041,0.000308,0.002345,0.001266,-0.000256,-0.002831,-0.510302,-0.000987,0.499987,-261.203981,0.517789,69.611171
6.575,-0.002178,-0.000156,-0.001095,0.002204,0.00131,-0.000927,-0.0022,-0.510399,0.000195,0.499987,-261.203981,0.517789,69.611171
6.5959,-0.001874,-0.000464,0.000246,0.002098,0.001343,-0.001392,-0.0022,-0.510399,0.000195,0.499987,-261.203981,0.517789,69.611171
6.6151,-0.002315,-7.7e-05,-0.001112,0.002018,0.001369,-0.001713,-0.001657,-0.510414,0.000236,0.441891,-261.20301,0.545323,69.612198
6.6352,-0.001873,-0.000327,0.000111,0.001948,0.001357,-0.001614,-0.002146,-0.510271,-0.000316,0.441891,-261.20301,0.545323,69.612198
6.6551,-0.00202,-0.000275,-0.002226,0.001895,0.001349,-0.001545,-0.001813,-0.510325,0.000109,0.366878,-261.202972,0.620336,69.612256
6.675,-0.00199,-7.6e-05,0.000142,0.002048,0.00133,-0.000622,-0.003039,-0.510278,-0.002023,0.366878,-261.202972,0.620336,69.612256
6.6954,-0.001637,-8.4e-05,-0.00114,0.002165,0.001316,2.9e-05,-0.003039,-0.510278,-0.002023,0.366878,-261.202972,0.620336,69.612256
6.7156,-0.001997,-0.000155,-0.001639,0.002255,0.001307,0.000485,-0.002199,-0.510072,-0.001151,0.291888,-261.202796,0.695326,69.612526
6.7357,-0.002107,-0.000215,-0.000527,0.002206,0.00125,0.000487,-0.002451,-0.510104,-0.001348,0.291888,-261.202796,0.695326,69.612526
6.7555,-0.002198,7.1e-05,-0.001425,0.002168,0.001208,0.000487,-0.002371,-0.510213,-0.000527,0.366799,-261.202738,0.620415,69.612578
6.7756,-0.002003,-0.000226,-0.000861,0.002223,0.001132,0.000477,-0.002876,-0.509953,-0.001347,0.366799,-261.202738,0.620415,69.612578
6.7951,-0.001981,-0.000241,8.3e-05,0.002266,0.001074,0.00047,-0.002876,-0.509953,-0.001347,0.366799,-261.202738,0.620415,69.612578
6.8152,-0.002343,5.1e-05,0.000438,0.0023,0.001029,0.000465,-0.001922,-0.510233,8.2e-05,0.441891,-261.202552,0.545323,69.612744
6.8352,-0.001679,-4.1e-05,-0.00047,0.0,0.0,0.0,-0.002001,-0.510116,0.000228,0.441891,-261.202552,0.545323,69.612744
