mach0312/omni-docking-bench/src/icros_test_setup/results/MPPI_sample/timeseries/trial_017.csv
t,x,y,yaw,vx,vy,wz,bl_x,bl_y,bl_yaw,front_steering_joint,front_wheel_joint,rear_steering_joint,rear_wheel_joint
0.0,0.069077,0.018541,-0.087809,0.0,0.0,0.0,0.026319,-0.489642,-0.085102,0.244301,-264.678535,-0.45043,62.836039
0.0003,0.069556,0.018348,-0.087496,0.0,0.0,0.0,0.025717,-0.489124,-0.086138,0.244301,-264.679001,-0.45043,62.835537
0.0007,0.06941,0.018879,-0.086269,0.0,0.0,0.0,0.025717,-0.489124,-0.086138,0.244301,-264.679001,-0.45043,62.835537
0.001,0.069348,0.018422,-0.086125,0.0,0.0,0.0,0.025159,-0.489201,-0.086888,0.244301,-264.679001,-0.45043,62.835537
0.0013,0.069317,0.018489,-0.087769,0.0,0.0,0.0,0.025159,-0.489201,-0.086888,0.244301,-264.679001,-0.45043,62.835537
0.0016,0.069036,0.018834,-0.086999,0.0,0.0,0.0,0.025159,-0.489201,-0.086888,0.244301,-264.679001,-0.45043,62.835537
0.0018,0.069291,0.018658,-0.087487,0.0,0.0,0.0,0.025064,-0.489223,-0.086811,0.244301,-264.679001,-0.45043,62.835537
0.0021,0.069243,0.018494,-0.086684,0.0,0.0,0.0,0.024656,-0.489301,-0.087007,0.244301,-264.679001,-0.45043,62.835537
0.0157,0.069496,0.018326,-0.08554,0.0,0.0,0.0,0.024729,-0.48938,-0.08745,0.244301,-264.679001,-0.45043,62.835537
0.0362,0.069264,0.018451,-0.086988,0.0,0.0,0.0,0.025924,-0.48981,-0.08554,0.244301,-264.679001,-0.45043,62.835537
0.0559,0.069019,0.018702,-0.086829,0.0,0.0,0.0,0.02553,-0.489733,-0.086129,0.244301,-264.679001,-0.45043,62.835537
0.0759,0.069349,0.018662,-0.089546,0.0,0.0,0.0,0.024792,-0.489376,-0.086829,0.244301,-264.679001,-0.45043,62.835537
0.096,0.069244,0.018441,-0.08588,0.0,0.0,0.0,0.023824,-0.489301,-0.089333,0.244301,-264.679001,-0.45043,62.835537
0.1156,0.068935,0.018506,-0.085696,-0.005928,0.000556,0.008754,0.023824,-0.489301,-0.089333,0.244301,-264.679001,-0.45043,62.835537
0.136,0.069034,0.018896,-0.086032,-0.00646,0.000603,0.009371,0.025283,-0.489622,-0.085696,0.244301,-264.679001,-0.45043,62.835537
0.156,0.069716,0.018789,-0.08683,-0.006941,0.000679,0.009882,0.025254,-0.489457,-0.085833,0.244301,-264.679001,-0.45043,62.835537
0.176,0.068884,0.018509,-0.086198,-0.007353,0.000745,0.010283,0.025488,-0.48929,-0.08683,0.169608,-264.679001,-0.375737,62.835537
0.196,0.069309,0.018543,-0.086076,-0.007705,0.000803,0.010665,0.025021,-0.489572,-0.086252,0.169608,-264.679001,-0.375737,62.835537
0.2163,0.069026,0.018836,-0.087225,-0.008006,0.000856,0.010967,0.025021,-0.489572,-0.086252,0.169608,-264.679001,-0.375737,62.835537
0.236,0.069087,0.018568,-0.08761,-0.008264,0.000904,0.011203,0.024598,-0.489225,-0.087225,0.09453,-264.679001,-0.300659,62.835537
0.2561,0.069344,0.018758,-0.085656,-0.008476,0.000935,0.01139,0.024543,-0.489327,-0.087382,0.09453,-264.679001,-0.300659,62.835537
0.2759,0.06901,0.018753,-0.087081,-0.008659,0.000965,0.011535,0.025713,-0.489372,-0.085656,0.019514,-264.679001,-0.225644,62.835537
0.2961,0.068853,0.018474,-0.085996,-0.008819,0.000995,0.011647,0.024736,-0.489319,-0.086971,0.019514,-264.679001,-0.225644,62.835537
0.3161,0.069367,0.018924,-0.086507,-0.008958,0.001023,0.011734,0.024736,-0.489319,-0.086971,0.019514,-264.679001,-0.225644,62.835537
0.3361,0.069289,0.01895,-0.087484,-0.009077,0.001048,0.011802,0.025303,-0.489169,-0.086507,-0.055746,-264.679001,-0.150384,62.835537
0.3559,0.069053,0.018579,-0.088703,-0.009182,0.001072,0.011855,0.025068,-0.489141,-0.086908,-0.055746,-264.679001,-0.150384,62.835537
0.3759,0.069518,0.019016,-0.08582,-0.009274,0.001094,0.011895,0.023874,-0.489416,-0.088703,-0.130494,-264.679001,-0.075635,62.835537
0.3963,0.069002,0.018745,-0.08731,-0.009361,0.001123,0.011925,0.025632,-0.489135,-0.086075,-0.130494,-264.679001,-0.075635,62.835537
0.4162,0.069261,0.018533,-0.086486,-0.009436,0.001148,0.011948,0.025632,-0.489135,-0.086075,-0.130494,-264.679001,-0.075635,62.835537
0.436,0.069264,0.018616,-0.086344,-0.009501,0.001169,0.011966,0.025208,-0.489561,-0.086486,-0.205395,-264.679001,-0.000735,62.835537
0.4557,0.069231,0.018785,-0.085463,-0.009559,0.001189,0.01198,0.025239,-0.489529,-0.086427,-0.205395,-264.679001,-0.000735,62.835537
0.476,0.069328,0.018788,-0.086161,-0.009609,0.001206,0.01199,0.025698,-0.489353,-0.085463,-0.280542,-264.679001,0.074412,62.835537
0.4963,0.069224,0.018676,-0.087663,-0.009651,0.001221,0.011998,0.025463,-0.489323,-0.086098,-0.280542,-264.679001,0.074412,62.835537
0.516,0.069178,0.018603,-0.085936,-0.009689,0.001233,0.012004,0.025463,-0.489323,-0.086098,-0.280542,-264.679001,0.074412,62.835537
0.5359,0.069278,0.018886,-0.086733,-0.009721,0.001244,0.012008,0.025405,-0.489515,-0.085936,-0.355363,-264.679004,0.149234,62.835534
0.5562,0.06914,0.018736,-0.086002,-0.009748,0.001252,0.012012,0.025281,-0.489386,-0.086259,-0.355363,-264.679004,0.149234,62.835534
0.5759,0.069523,0.018796,-0.085778,-0.009771,0.001258,0.012015,0.02533,-0.489378,-0.086001,-0.430363,-264.67904,0.224233,62.835502
0.5966,0.069464,0.018725,-0.086545,-0.009797,0.001272,0.012016,0.025787,-0.489333,-0.085797,-0.430363,-264.67904,0.224233,62.835502
0.6164,0.069022,0.018728,-0.085402,-0.00982,0.001284,0.012017,0.025787,-0.489333,-0.085797,-0.430363,-264.67904,0.224233,62.835502
0.6359,0.069219,0.01874,-0.085222,-0.00984,0.001293,0.012017,0.025501,-0.489409,-0.085388,-0.505499,-264.679256,0.299369,62.835311
0.6562,0.069187,0.018479,-0.085623,-0.009856,0.001301,0.012018,0.025624,-0.489409,-0.085319,-0.505499,-264.679256,0.299369,62.835311
0.676,0.069145,0.018779,-0.086828,-0.00987,0.001307,0.012018,0.025514,-0.489639,-0.085572,-0.580352,-264.68015,0.374223,62.834522
0.696,0.068917,0.01867,-0.086536,-0.009872,0.001299,0.01202,0.024972,-0.489331,-0.086706,-0.580352,-264.68015,0.374223,62.834522
0.7164,0.068958,0.019004,-0.086448,-0.009873,0.001292,0.012021,0.024972,-0.489331,-0.086706,-0.580352,-264.68015,0.374223,62.834522
0.7355,0.068979,0.018904,-0.087061,-0.009875,0.001287,0.012022,0.024732,-0.489047,-0.086247,-0.655355,-264.682509,0.449226,62.832443
0.7559,0.068719,0.018738,-0.088013,-0.009868,0.001273,0.012023,0.02467,-0.489089,-0.086554,-0.655355,-264.682509,0.449226,62.832443
0.7756,0.067908,0.019122,-0.086731,-0.009863,0.001261,0.012023,0.023641,-0.48923,-0.087712,-0.71815,-264.686692,0.524226,62.828747
0.7957,0.067983,0.018771,-0.088285,-0.009841,0.001232,0.012125,0.02371,-0.488983,-0.086804,-0.71815,-264.686692,0.524226,62.828747
0.816,0.068236,0.019076,-0.087215,-0.009824,0.001208,0.012205,0.02371,-0.488983,-0.086804,-0.71815,-264.686692,0.524226,62.828747
0.836,0.067185,0.018924,-0.08652,-0.009809,0.001189,0.012268,0.023411,-0.488898,-0.086717,-0.717358,-264.691861,0.552566,62.824172
0.8557,0.067438,0.018683,-0.084073,-0.009789,0.001164,0.012385,0.023245,-0.488998,-0.08658,-0.717358,-264.691861,0.552566,62.824172
0.8755,0.066802,0.01899,-0.085046,-0.009772,0.001145,0.012478,0.024305,-0.489452,-0.083684,-0.724515,-264.697079,0.571223,62.819527
0.8959,0.06652,0.019215,-0.084816,-0.009767,0.001138,0.012614,0.023536,-0.489188,-0.084912,-0.724515,-264.697079,0.571223,62.819527
0.9159,0.066226,0.019086,-0.083786,-0.009763,0.001133,0.012724,0.023536,-0.489188,-0.084912,-0.724515,-264.697079,0.571223,62.819527
0.9358,0.065911,0.019486,-0.082674,-0.009759,0.001129,0.012812,0.023143,-0.489044,-0.083266,-0.731172,-264.702298,0.585276,62.814866
0.9557,0.065712,0.019524,-0.085713,-0.00975,0.001118,0.012941,0.02336,-0.488925,-0.082967,-0.731172,-264.702298,0.585276,62.814866
0.9754,0.064699,0.01979,-0.082746,-0.009742,0.001109,0.013044,0.021747,-0.488542,-0.085308,-0.742393,-264.707563,0.601353,62.810161
0.9956,0.064771,0.019256,-0.08281,-0.009713,0.001075,0.013182,0.022459,-0.488469,-0.082956,-0.742393,-264.707563,0.601353,62.810161
1.0158,0.064907,0.019475,-0.083739,-0.009688,0.001048,0.013294,0.022459,-0.488469,-0.082956,-0.742393,-264.707563,0.601353,62.810161
1.0356,0.064081,0.019681,-0.082736,-0.009667,0.001026,0.013384,0.021848,-0.488658,-0.083192,-0.749979,-264.712872,0.613361,62.805411
1.0557,0.063717,0.019592,-0.082708,-0.00964,0.000999,0.013502,0.021836,-0.488615,-0.082947,-0.749979,-264.712872,0.613361,62.805411
1.076,0.062992,0.019666,-0.082683,-0.009618,0.000976,0.013599,0.021283,-0.488607,-0.082285,-0.760711,-264.718154,0.63674,62.800652
1.0962,0.06319,0.019955,-0.083115,-0.00958,0.000939,0.013718,0.020894,-0.48859,-0.082624,-0.760711,-264.718154,0.63674,62.800652
1.116,0.063195,0.019824,-0.082417,-0.009549,0.000909,0.013815,0.020894,-0.48859,-0.082624,-0.760711,-264.718154,0.63674,62.800652
1.1358,0.062312,0.019977,-0.082433,-0.009523,0.000885,0.013895,0.020813,-0.488371,-0.08185,-0.767635,-264.723478,0.651172,62.795835
1.1561,0.062321,0.01975,-0.081372,-0.009489,0.000853,0.013997,0.020567,-0.48833,-0.082022,-0.767635,-264.723478,0.651172,62.795835
1.176,0.061647,0.019835,-0.081016,-0.009461,0.000828,0.014082,0.02057,-0.488511,-0.080934,-0.77737,-264.728794,0.673673,62.790988
1.1963,0.061636,0.019857,-0.081557,-0.009435,0.000806,0.01418,0.020376,-0.488492,-0.08099,-0.77737,-264.728794,0.673673,62.790988
1.2163,0.061797,0.019679,-0.081426,-0.009414,0.000788,0.014261,0.020376,-0.488492,-0.08099,-0.77737,-264.728794,0.673673,62.790988
1.2356,0.060798,0.020077,-0.080634,-0.009396,0.000773,0.014327,0.019927,-0.488565,-0.080841,-0.783677,-264.734133,0.687733,62.786093
1.2556,0.060804,0.019913,-0.079248,-0.009368,0.000748,0.014405,0.019794,-0.48843,-0.080685,-0.783677,-264.734133,0.687733,62.786093
1.2757,0.059897,0.020096,-0.078739,-0.009344,0.000728,0.014469,0.020139,-0.488439,-0.078801,-0.792102,-264.739416,0.703925,62.781225
1.2957,0.05995,0.020229,-0.080364,-0.009324,0.000712,0.014532,0.019799,-0.488332,-0.078721,-0.792102,-264.739416,0.703925,62.781225
1.3159,0.060364,0.019951,-0.079448,-0.009307,0.000699,0.014584,0.019799,-0.488332,-0.078721,-0.792102,-264.739416,0.703925,62.781225
1.3358,0.059257,0.019772,-0.078648,-0.009292,0.000688,0.014627,0.019501,-0.488379,-0.078844,-0.797095,-264.744789,0.71472,62.776255
1.3556,0.059188,0.020308,-0.079901,-0.009274,0.000674,0.014668,0.019323,-0.488488,-0.07869,-0.797095,-264.744789,0.71472,62.776255
1.3757,0.058445,0.020396,-0.077904,-0.009258,0.000662,0.014703,0.018193,-0.48802,-0.079441,-0.802793,-264.750103,0.725776,62.771319
1.3959,0.058457,0.020344,-0.077953,-0.009224,0.000634,0.014739,0.018694,-0.488052,-0.078009,-0.802793,-264.750103,0.725776,62.771319
1.4158,0.058188,0.02037,-0.078094,-0.009195,0.000611,0.014768,0.018694,-0.488052,-0.078009,-0.802793,-264.750103,0.725776,62.771319
1.4357,0.057332,0.020182,-0.078813,-0.009171,0.000592,0.014792,0.018018,-0.488018,-0.077481,-0.805681,-264.755433,0.731937,62.766356
1.4558,0.057671,0.020454,-0.07831,-0.009126,0.000557,0.014819,0.017632,-0.488099,-0.077953,-0.805681,-264.755433,0.731937,62.766356
1.4755,0.056677,0.02076,-0.074721,-0.009089,0.000529,0.014841,0.017483,-0.487941,-0.077839,-0.809635,-264.760737,0.744067,62.761384
1.4956,0.056438,0.020465,-0.077132,-0.009075,0.000521,0.01486,0.018488,-0.487826,-0.07498,-0.809635,-264.760737,0.744067,62.761384
1.5156,0.056983,0.020365,-0.076475,-0.009064,0.000514,0.014876,0.018488,-0.487826,-0.07498,-0.809635,-264.760737,0.744067,62.761384
1.536,0.056269,0.020325,-0.07578,-0.009054,0.000508,0.014889,0.017642,-0.488093,-0.075854,-0.812354,-264.766014,0.753951,62.756405
1.5558,0.056023,0.020148,-0.076252,-0.00903,0.000491,0.014905,0.017605,-0.488135,-0.075752,-0.812354,-264.766014,0.753951,62.756405
1.5757,0.054793,0.020676,-0.075606,-0.00901,0.000477,0.014919,0.016886,-0.488332,-0.075777,-0.814754,-264.77129,0.758813,62.751417
1.596,0.055145,0.020943,-0.075226,-0.008957,0.000438,0.014937,0.016311,-0.487907,-0.075597,-0.814754,-264.77129,0.758813,62.751417
1.6164,0.054971,0.0204,-0.075575,-0.008912,0.000406,0.014952,0.016311,-0.487907,-0.075597,-0.814754,-264.77129,0.758813,62.751417
1.636,0.054043,0.020479,-0.074291,-0.008875,0.00038,0.014963,0.016089,-0.488096,-0.074949,-0.816503,-264.776552,0.764088,62.746427
1.6557,0.053893,0.020839,-0.073531,-0.008842,0.000358,0.014974,0.016087,-0.488098,-0.074611,-0.816503,-264.776552,0.764088,62.746427
1.6759,0.053141,0.020977,-0.072291,-0.008814,0.00034,0.014982,0.016146,-0.48775,-0.073057,-0.820371,-264.781737,0.778811,62.741458
1.6958,0.053002,0.020831,-0.072843,-0.00879,0.000326,0.014992,0.016276,-0.487695,-0.072336,-0.820371,-264.781737,0.778811,62.741458
1.7157,0.053333,0.020953,-0.073175,-0.00877,0.000314,0.014999,0.016276,-0.487695,-0.072336,-0.820371,-264.781737,0.778811,62.741458
1.7358,0.052581,0.020777,-0.073939,-0.008753,0.000304,0.015004,0.01568,-0.487641,-0.072548,-0.822354,-264.786915,0.785182,62.736477
1.756,0.052766,0.020655,-0.072255,-0.008713,0.000278,0.015014,0.015323,-0.487713,-0.073041,-0.822354,-264.786915,0.785182,62.736477
1.7759,0.05165,0.020988,-0.07107,-0.00868,0.000257,0.015021,0.01567,-0.487984,-0.071776,-0.824601,-264.792069,0.79144,62.731498
1.796,0.05182,0.020888,-0.070817,-0.008657,0.000244,0.015027,0.015443,-0.487749,-0.071114,-0.824601,-264.792069,0.79144,62.731498
1.8159,0.051566,0.02117,-0.070093,-0.008639,0.000234,0.015031,0.015443,-0.487749,-0.071114,-0.824601,-264.792069,0.79144,62.731498
1.8355,0.050975,0.021394,-0.071677,-0.008623,0.000225,0.015034,0.015487,-0.487541,-0.069465,-0.826845,-264.797191,0.798871,62.726526
1.856,0.050775,0.021074,-0.070417,-0.008593,0.000207,0.01504,0.015022,-0.487437,-0.070295,-0.826845,-264.797191,0.798871,62.726526
1.8759,0.050079,0.020822,-0.070588,-0.008568,0.000192,0.015044,0.014619,-0.487635,-0.069939,-0.828893,-264.802293,0.804411,62.721555
1.8961,0.050041,0.021164,-0.070747,-0.008529,0.000169,0.01505,0.01414,-0.487882,-0.070506,-0.828893,-264.802293,0.804411,62.721555
1.9161,0.049888,0.021252,-0.070423,-0.008497,0.000151,0.015054,0.01414,-0.487882,-0.070506,-0.828893,-264.802293,0.804411,62.721555
1.9355,0.049386,0.021408,-0.06981,-0.00847,0.000136,0.015056,0.013644,-0.487451,-0.069792,-0.83065,-264.807372,0.809762,62.716588
1.9557,0.04963,0.021333,-0.071526,-0.008426,0.00011,0.015061,0.013671,-0.487406,-0.069728,-0.83065,-264.807372,0.809762,62.716588
1.9759,0.048669,0.020852,-0.068197,-0.008388,8.9e-05,0.015064,0.012914,-0.487339,-0.071047,-0.833747,-264.812405,0.819046,62.711635
1.996,0.04864,0.021432,-0.067716,-0.008371,8.1e-05,0.015065,0.013812,-0.487905,-0.068429,-0.833747,-264.812405,0.819046,62.711635
2.0159,0.048122,0.02105,-0.070318,-0.008357,7.5e-05,0.015065,0.013812,-0.487905,-0.068429,-0.833747,-264.812405,0.819046,62.711635
2.0359,0.047518,0.021367,-0.067291,-0.008345,7e-05,0.015064,0.01194,-0.487662,-0.069689,-0.836346,-264.817406,0.826708,62.706686
2.0559,0.047722,0.021417,-0.068754,-0.008286,3.7e-05,0.015071,0.012426,-0.487584,-0.068635,-0.836346,-264.817406,0.826708,62.706686
2.0759,0.046879,0.021461,-0.068,-0.008236,1.1e-05,0.015074,0.01242,-0.487358,-0.068275,-0.83791,-264.822394,0.830291,62.70174
2.0958,0.046742,0.021566,-0.066986,-0.008185,-1.6e-05,0.015078,0.01223,-0.487359,-0.068,-0.83791,-264.822394,0.830291,62.70174
2.1157,0.046834,0.021273,-0.067195,-0.008142,-3.7e-05,0.01508,0.01223,-0.487359,-0.068,-0.83791,-264.822394,0.830291,62.70174
2.1358,0.046295,0.021105,-0.065185,-0.008106,-5.5e-05,0.01508,0.012247,-0.487552,-0.066565,-0.841567,-264.82733,0.840395,62.696811
2.1556,0.046507,0.021439,-0.066683,-0.008094,-5.9e-05,0.015078,0.012544,-0.487655,-0.065931,-0.841567,-264.82733,0.840395,62.696811
2.1759,0.045359,0.021326,-0.065942,-0.008083,-6.2e-05,0.015076,0.012267,-0.487413,-0.066204,-0.846116,-264.832209,0.851996,62.691899
2.1957,0.045429,0.02116,-0.066192,-0.008047,-7.9e-05,0.015078,0.011786,-0.487551,-0.065941,-0.846116,-264.832209,0.851996,62.691899
2.2157,0.045037,0.021289,-0.067005,-0.008017,-9.3e-05,0.015079,0.011786,-0.487551,-0.065941,-0.846116,-264.832209,0.851996,62.691899
2.2356,0.044169,0.021548,-0.064939,-0.007992,-0.000104,0.015079,0.010552,-0.487547,-0.066374,-0.847013,-264.837091,0.853721,62.686979
2.2556,0.044948,0.021686,-0.063474,-0.007934,-0.000132,0.015083,0.010726,-0.487475,-0.065715,-0.847013,-264.837091,0.853721,62.686979
2.2755,0.043721,0.021735,-0.064616,-0.007885,-0.000154,0.015086,0.012344,-0.487274,-0.062994,-0.850411,-264.841931,0.86163,62.682076
2.2958,0.044057,0.021778,-0.064344,-0.007848,-0.00017,0.015086,0.010915,-0.487206,-0.064447,-0.850411,-264.841931,0.86163,62.682076
2.3159,0.044004,0.021428,-0.063979,-0.007817,-0.000183,0.015086,0.010915,-0.487206,-0.064447,-0.850411,-264.841931,0.86163,62.682076
2.3359,0.042931,0.021743,-0.063603,-0.00779,-0.000193,0.015085,0.011068,-0.487514,-0.063348,-0.854634,-264.846727,0.871123,62.677187
2.3555,0.042987,0.021761,-0.062615,-0.007769,-0.000202,0.015084,0.010805,-0.487395,-0.06338,-0.854634,-264.846727,0.871123,62.677187
2.3756,0.042033,0.02177,-0.063352,-0.007751,-0.000208,0.015082,0.010826,-0.48723,-0.062136,-0.858395,-264.851489,0.879096,62.672308
2.3957,0.04231,0.021377,-0.062568,-0.007698,-0.00023,0.015086,0.00983,-0.487208,-0.063217,-0.858395,-264.851489,0.879096,62.672308
2.4158,0.042405,0.021313,-0.063111,-0.007654,-0.000248,0.015087,0.00983,-0.487208,-0.063217,-0.858395,-264.851489,0.879096,62.672308
2.4361,0.041448,0.021167,-0.064633,-0.007618,-0.000262,0.015087,0.009915,-0.48766,-0.06248,-0.860021,-264.85624,0.882287,62.667429
2.4558,0.041094,0.021763,-0.061974,-0.007575,-0.000278,0.015088,0.009306,-0.487703,-0.063282,-0.860021,-264.85624,0.882287,62.667429
2.4757,0.040711,0.021747,-0.06204,-0.007539,-0.000291,0.015088,0.009265,-0.487252,-0.061494,-0.865798,-264.860929,0.893724,62.662579
2.4959,0.040727,0.021567,-0.062258,-0.007496,-0.000307,0.015088,0.009094,-0.48727,-0.061966,-0.865798,-264.860929,0.893724,62.662579
2.5156,0.040843,0.021683,-0.060924,-0.00746,-0.000319,0.015088,0.009094,-0.48727,-0.061966,-0.865798,-264.860929,0.893724,62.662579
2.5358,0.039921,0.02174,-0.060908,-0.00743,-0.000329,0.015087,0.009476,-0.487364,-0.060293,-0.869326,-264.865598,0.900292,62.65773
2.5556,0.039613,0.021695,-0.061029,-0.007412,-0.000335,0.015085,0.009195,-0.487343,-0.060472,-0.869326,-264.865598,0.900292,62.65773
2.576,0.039259,0.021695,-0.060744,-0.007396,-0.000339,0.015083,0.008271,-0.487352,-0.060549,-0.87433,-264.870223,0.909257,62.6529
2.5959,0.039126,0.021777,-0.059868,-0.007348,-0.000355,0.015085,0.008284,-0.487363,-0.060702,-0.87433,-264.870223,0.909257,62.6529
2.6157,0.039205,0.021859,-0.060884,-0.007308,-0.000368,0.015085,0.008284,-0.487363,-0.060702,-0.87433,-264.870223,0.909257,62.6529
2.6361,0.038235,0.021774,-0.059074,-0.007275,-0.000379,0.015085,0.007863,-0.487192,-0.060252,-0.8759,-264.874843,0.911857,62.648069
2.6561,0.038093,0.022341,-0.060718,-0.007233,-0.000392,0.015086,0.007933,-0.48725,-0.059701,-0.8759,-264.874843,0.911857,62.648069
2.676,0.037642,0.022113,-0.05866,-0.007198,-0.000403,0.015085,0.006914,-0.486718,-0.060239,-0.881873,-264.87941,0.921912,62.643264
2.696,0.037836,0.021613,-0.059997,-0.007156,-0.000416,0.015086,0.007656,-0.486984,-0.058777,-0.881873,-264.87941,0.921912,62.643264
2.7157,0.037911,0.021884,-0.059037,-0.00712,-0.000426,0.015086,0.007656,-0.486984,-0.058777,-0.881873,-264.87941,0.921912,62.643264
2.7356,0.037164,0.021889,-0.057291,-0.00709,-0.000434,0.015085,0.007518,-0.487227,-0.058406,-0.88579,-264.883957,0.928238,62.638464
2.7559,0.036999,0.021572,-0.059101,-0.00707,-0.000439,0.015083,0.007664,-0.487246,-0.05788,-0.88579,-264.883957,0.928238,62.638464
2.776,0.036361,0.022062,-0.055058,-0.007053,-0.000443,0.01508,0.00665,-0.487538,-0.058621,-0.891417,-264.888463,0.936993,62.633683
2.796,0.03588,0.022036,-0.056683,-0.007059,-0.000439,0.015076,0.008133,-0.487199,-0.055359,-0.891417,-264.888463,0.936993,62.633683
2.8159,0.036233,0.021838,-0.057895,-0.007064,-0.000436,0.015072,0.008133,-0.487199,-0.055359,-0.891417,-264.888463,0.936993,62.633683
2.8365,0.035839,0.022053,-0.055934,-0.007068,-0.000434,0.01507,0.006427,-0.487309,-0.057264,-0.893353,-264.892963,0.939823,62.628902
2.856,0.03605,0.022182,-0.057672,-0.007016,-0.000449,0.015074,0.006761,-0.487244,-0.056648,-0.893353,-264.892963,0.939823,62.628902
2.8756,0.034306,0.021722,-0.055232,-0.006973,-0.000461,0.015077,0.006428,-0.486971,-0.057192,-0.892424,-264.897469,0.937995,62.624121
2.8957,0.034797,0.02209,-0.056724,-0.006915,-0.000476,0.01508,0.006166,-0.487453,-0.055383,-0.892424,-264.897469,0.937995,62.624121
2.9157,0.034701,0.021847,-0.054182,-0.006867,-0.000488,0.015082,0.006166,-0.487453,-0.055383,-0.892424,-264.897469,0.937995,62.624121
2.9358,0.033944,0.021573,-0.053284,-0.006827,-0.000497,0.015082,0.006789,-0.487408,-0.053552,-0.897819,-264.901936,0.946027,62.61936
2.9559,0.034097,0.021969,-0.055864,-0.006821,-0.000498,0.015078,0.006753,-0.487528,-0.05337,-0.897819,-264.901936,0.946027,62.61936
2.976,0.033274,0.022052,-0.054712,-0.006816,-0.000498,0.015075,0.005404,-0.487239,-0.055385,-0.906226,-264.906349,0.957939,62.614628
2.9958,0.033116,0.022027,-0.05511,-0.006749,-0.000513,0.015079,0.005375,-0.48719,-0.054749,-0.906226,-264.906349,0.957939,62.614628
3.016,0.033431,0.022134,-0.054623,-0.006693,-0.000526,0.015082,0.005375,-0.48719,-0.054749,-0.906226,-264.906349,0.957939,62.614628
3.0362,0.032659,0.022075,-0.052935,-0.006646,-0.000536,0.015083,0.005301,-0.48711,-0.053992,-0.906709,-264.910773,0.95851,62.609885
3.0562,0.032512,0.021971,-0.05278,-0.00661,-0.000543,0.015082,0.00542,-0.487152,-0.053491,-0.906709,-264.910773,0.95851,62.609885
3.0759,0.031813,0.021902,-0.051218,-0.006579,-0.000549,0.015081,0.005395,-0.487324,-0.0523,-0.917126,-264.915124,0.972373,62.605188
3.0959,0.032057,0.022086,-0.053138,-0.006569,-0.00055,0.015077,0.005665,-0.48742,-0.051292,-0.917126,-264.915124,0.972373,62.605188
3.1162,0.031816,0.022028,-0.052658,-0.006561,-0.000551,0.015074,0.005665,-0.48742,-0.051292,-0.917126,-264.915124,0.972373,62.605188
3.1357,0.031106,0.021983,-0.051344,-0.006554,-0.000552,0.015071,0.004695,-0.487273,-0.052023,-0.921178,-264.919472,0.977623,62.600483
3.1559,0.030995,0.021915,-0.053063,-0.006507,-0.00056,0.015074,0.004758,-0.487303,-0.051681,-0.921178,-264.919472,0.977623,62.600483
3.1758,0.030295,0.02178,-0.051661,-0.006468,-0.000567,0.015075,0.003736,-0.487374,-0.052583,-0.922565,-264.923813,0.979295,62.595782
3.1962,0.030348,0.022136,-0.050304,-0.006401,-0.000578,0.015079,0.003928,-0.487525,-0.05172,-0.922565,-264.923813,0.979295,62.595782
3.2159,0.030452,0.021906,-0.050526,-0.006345,-0.000586,0.015081,0.003928,-0.487525,-0.05172,-0.922565,-264.923813,0.979295,62.595782
3.2358,0.029777,0.021955,-0.05048,-0.006298,-0.000593,0.015081,0.004423,-0.487453,-0.049895,-0.928129,-264.928125,0.98618,62.5911
3.2559,0.029694,0.021841,-0.050219,-0.006274,-0.000597,0.015079,0.004237,-0.487431,-0.050061,-0.928129,-264.928125,0.98618,62.5911
3.2757,0.029046,0.022039,-0.049045,-0.006253,-0.0006,0.015077,0.003892,-0.487525,-0.049741,-0.939692,-264.932372,0.999814,62.586463
3.2958,0.029052,0.021895,-0.04996,-0.006227,-0.000603,0.015076,0.004019,-0.487364,-0.049084,-0.939692,-264.932372,0.999814,62.586463
3.316,0.029002,0.022319,-0.049622,-0.006205,-0.000606,0.015074,0.004019,-0.487364,-0.049084,-0.939692,-264.932372,0.999814,62.586463
3.3356,0.028024,0.022179,-0.04895,-0.006187,-0.000608,0.015073,0.003443,-0.487066,-0.048991,-0.942586,-264.936627,1.003204,62.581812
3.3557,0.028194,0.022036,-0.04896,-0.006137,-0.000614,0.015076,0.00326,-0.487126,-0.048902,-0.942586,-264.936627,1.003204,62.581812
3.3757,0.027539,0.021602,-0.047002,-0.006095,-0.000618,0.015077,0.003036,-0.487363,-0.04848,-0.947031,-264.940861,1.008279,62.577175
3.3957,0.027425,0.021904,-0.04786,-0.006078,-0.00062,0.015075,0.003519,-0.487793,-0.047109,-0.947031,-264.940861,1.008279,62.577175
3.4158,0.027264,0.022192,-0.048559,-0.006063,-0.000621,0.015072,0.003519,-0.487793,-0.047109,-0.947031,-264.940861,1.008279,62.577175
3.4357,0.026547,0.021888,-0.048332,-0.006051,-0.000622,0.01507,0.002252,-0.48722,-0.047928,-0.953673,-264.945073,1.015604,62.572551
3.4564,0.026646,0.022023,-0.049138,-0.005972,-0.000628,0.015077,0.002081,-0.487343,-0.048022,-0.953673,-264.945073,1.015604,62.572551
3.4756,0.026237,0.022137,-0.046946,-0.005907,-0.000633,0.015081,0.001402,-0.487372,-0.048656,-0.956685,-264.949267,1.018855,62.567942
3.4959,0.026135,0.022213,-0.046644,-0.005859,-0.000637,0.015082,0.002209,-0.487308,-0.04708,-0.956685,-264.949267,1.018855,62.567942
3.5157,0.026425,0.022584,-0.046325,-0.005819,-0.00064,0.015083,0.002209,-0.487308,-0.04708,-0.956685,-264.949267,1.018855,62.567942
3.536,0.025826,0.0218,-0.044896,-0.005785,-0.000642,0.015082,0.002561,-0.486884,-0.045697,-0.967777,-264.953415,1.030356,62.563369
3.5556,0.025204,0.022327,-0.046039,-0.00578,-0.000642,0.015078,0.002685,-0.487213,-0.045298,-0.967777,-264.953415,1.030356,62.563369
3.5757,0.024615,0.021654,-0.044506,-0.005776,-0.000643,0.015075,0.001548,-0.487145,-0.04556,-0.976989,-264.957539,1.039901,62.558811
3.5957,0.025022,0.021818,-0.046099,-0.005739,-0.000645,0.015076,0.001881,-0.48778,-0.044576,-0.976989,-264.957539,1.039901,62.558811
3.6156,0.024612,0.022004,-0.045871,-0.005708,-0.000646,0.015077,0.001881,-0.48778,-0.044576,-0.976989,-264.957539,1.039901,62.558811
3.6359,0.024283,0.022032,-0.043453,-0.005682,-0.000647,0.015076,0.000984,-0.487476,-0.04524,-0.97743,-264.961671,1.040434,62.554244
3.6557,0.02446,0.02207,-0.044896,-0.005638,-0.000649,0.015078,0.001422,-0.487482,-0.044439,-0.97743,-264.961671,1.040434,62.554244
3.676,0.023268,0.022342,-0.043037,-0.005602,-0.00065,0.015079,0.001389,-0.487428,-0.044417,-0.984863,-264.965774,1.047821,62.549702
3.6956,0.023543,0.021748,-0.043559,-0.005568,-0.000651,0.01508,0.001322,-0.487208,-0.043136,-0.984863,-264.965774,1.047821,62.549702
3.7161,0.023531,0.022127,-0.044584,-0.00554,-0.000651,0.01508,0.001322,-0.487208,-0.043136,-0.984863,-264.965774,1.047821,62.549702
3.7359,0.023041,0.021824,-0.043041,-0.005516,-0.000652,0.015079,0.000566,-0.487383,-0.043954,-0.991313,-264.969861,1.054094,62.545172
3.7562,0.022946,0.021882,-0.041818,-0.005471,-0.000652,0.015081,0.000756,-0.487516,-0.043508,-0.991313,-264.969861,1.054094,62.545172
3.7758,0.022172,0.021943,-0.042344,-0.005433,-0.000652,0.015082,0.001448,-0.487686,-0.041338,-0.998211,-264.973927,1.060786,62.540658
3.7957,0.022314,0.021829,-0.043404,-0.005398,-0.000652,0.015082,0.000652,-0.487608,-0.042228,-0.998211,-264.973927,1.060786,62.540658
3.8159,0.022007,0.022006,-0.042732,-0.005369,-0.000652,0.015082,0.000652,-0.487608,-0.042228,-0.998211,-264.973927,1.060786,62.540658
3.8356,0.021154,0.021976,-0.041907,-0.005344,-0.000652,0.015081,-7e-06,-0.487546,-0.042101,-1.00522,-264.977977,1.067329,62.53616
3.8557,0.021356,0.021803,-0.041309,-0.005289,-0.00065,0.015084,-0.000117,-0.48756,-0.041949,-1.00522,-264.977977,1.067329,62.53616
3.8756,0.020886,0.022192,-0.040097,-0.005243,-0.000648,0.015086,0.000124,-0.487776,-0.040831,-1.012618,-264.982006,1.074208,62.531681
3.8955,0.021023,0.021917,-0.041106,-0.00523,-0.000649,0.015083,0.000405,-0.487433,-0.040138,-1.012618,-264.982006,1.074208,62.531681
3.9157,0.021041,0.022109,-0.039324,-0.005219,-0.000649,0.015081,0.000405,-0.487433,-0.040138,-1.012618,-264.982006,1.074208,62.531681
3.936,0.02048,0.02202,-0.040549,-0.005211,-0.000649,0.015078,0.000771,-0.487516,-0.038694,-1.021563,-264.986014,1.082192,62.527224
3.956,0.020249,0.021734,-0.039389,-0.005202,-0.000649,0.015076,0.000352,-0.487536,-0.039378,-1.021563,-264.986014,1.082192,62.527224
3.9757,0.019591,0.021842,-0.040241,-0.005194,-0.000649,0.015075,-1e-06,-0.487884,-0.038908,-1.024008,-264.990022,1.084563,62.522764
3.996,0.02003,0.022097,-0.038834,-0.005131,-0.000644,0.01508,-0.000852,-0.487759,-0.040097,-1.024008,-264.990022,1.084563,62.522764
4.0159,0.019285,0.021937,-0.038371,-0.005078,-0.00064,0.015083,-0.000852,-0.487759,-0.040097,-1.024008,-264.990022,1.084563,62.522764
4.0361,0.018964,0.02195,-0.037789,-0.005034,-0.000637,0.015085,-0.000498,-0.487707,-0.03774,-1.025318,-264.994026,1.085791,62.518308
4.0559,0.018801,0.022142,-0.039173,-0.005019,-0.000637,0.015082,-0.000444,-0.4877,-0.037687,-1.025318,-264.994026,1.085791,62.518308
4.0758,0.01818,0.022083,-0.03756,-0.005007,-0.000637,0.01508,-0.001332,-0.48748,-0.038696,-1.039938,-264.99798,1.098319,62.51391
4.0958,0.018806,0.022261,-0.037455,-0.00497,-0.000634,0.015081,-0.001014,-0.487551,-0.037641,-1.039938,-264.99798,1.098319,62.51391
4.1158,0.018084,0.021899,-0.038295,-0.00494,-0.000632,0.015082,-0.001014,-0.487551,-0.037641,-1.039938,-264.99798,1.098319,62.51391
4.1355,0.017791,0.021747,-0.037434,-0.004914,-0.000631,0.015081,-0.001652,-0.487745,-0.037664,-1.04222,-265.001951,1.100427,62.509491
4.1559,0.017645,0.021667,-0.035876,-0.004869,-0.000626,0.015083,-0.001531,-0.487809,-0.037497,-1.04222,-265.001951,1.100427,62.509491
4.1756,0.017035,0.022123,-0.036989,-0.00483,-0.000622,0.015084,-0.000805,-0.488019,-0.035397,-1.050652,-265.005898,1.107661,62.5051
4.1958,0.016974,0.022188,-0.037096,-0.00479,-0.000618,0.015084,-0.001741,-0.487574,-0.036821,-1.050652,-265.005898,1.107661,62.5051
4.2156,0.017021,0.021678,-0.03504,-0.004757,-0.000615,0.015084,-0.001741,-0.487574,-0.036821,-1.050652,-265.005898,1.107661,62.5051
4.236,0.016437,0.022014,-0.035081,-0.004729,-0.000612,0.015083,-0.001048,-0.488028,-0.03441,-1.058566,-265.009833,1.114239,62.500725
4.256,0.016273,0.021727,-0.035356,-0.00473,-0.000613,0.015078,-0.001235,-0.487885,-0.03461,-1.058566,-265.009833,1.114239,62.500725
4.2761,0.015952,0.02213,-0.035205,-0.004731,-0.000614,0.015074,-0.001907,-0.487969,-0.034875,-1.068042,-265.01375,1.122155,62.496374
4.296,0.01603,0.021879,-0.032423,-0.004697,-0.00061,0.015076,-0.001998,-0.487597,-0.035144,-1.068042,-265.01375,1.122155,62.496374
4.3162,0.015668,0.021921,-0.035027,-0.004669,-0.000607,0.015076,-0.001998,-0.487597,-0.035144,-1.068042,-265.01375,1.122155,62.496374
4.3358,0.015355,0.02187,-0.03364,-0.004645,-0.000604,0.015076,-0.002391,-0.487785,-0.034396,-1.067523,-265.017673,1.12189,62.492014
4.356,0.01509,0.022106,-0.033765,-0.004618,-0.0006,0.015075,-0.002172,-0.48781,-0.034015,-1.067523,-265.017673,1.12189,62.492014
4.3758,0.014343,0.021906,-0.033115,-0.004594,-0.000597,0.015075,-0.002275,-0.487618,-0.033286,-1.075738,-265.021577,1.128623,62.48768
4.3957,0.014509,0.02213,-0.033632,-0.00456,-0.000592,0.015076,-0.002526,-0.487797,-0.033106,-1.075738,-265.021577,1.128623,62.48768
4.4164,0.014385,0.022003,-0.031618,-0.004531,-0.000588,0.015075,-0.002526,-0.487797,-0.033106,-1.075738,-265.021577,1.128623,62.48768
4.4363,0.013978,0.021722,-0.032187,-0.004507,-0.000585,0.015075,-0.001931,-0.487761,-0.030986,-1.080589,-265.025512,1.132573,62.483314
4.4564,0.01383,0.021939,-0.031264,-0.004505,-0.000586,0.015071,-0.002167,-0.487871,-0.031423,-1.080589,-265.025512,1.132573,62.483314
4.4761,0.013502,0.021689,-0.030777,-0.004503,-0.000586,0.015068,-0.002254,-0.487826,-0.030789,-1.089095,-265.029362,1.139396,62.479048
4.4963,0.013524,0.02191,-0.030791,-0.004499,-0.000586,0.015066,-0.002205,-0.488048,-0.030754,-1.089095,-265.029362,1.139396,62.479048
4.5164,0.013145,0.022119,-0.031538,-0.004496,-0.000586,0.015064,-0.002205,-0.488048,-0.030754,-1.089095,-265.029362,1.139396,62.479048
4.5359,0.013005,0.02218,-0.032122,-0.004493,-0.000586,0.015063,-0.003127,-0.487646,-0.030907,-1.089272,-265.033251,1.139665,62.474738
4.5557,0.01298,0.021834,-0.030381,-0.004446,-0.000577,0.015067,-0.003249,-0.487612,-0.031326,-1.089272,-265.033251,1.139665,62.474738
4.5759,0.012284,0.02193,-0.028898,-0.004407,-0.000569,0.01507,-0.002656,-0.487945,-0.029901,-1.089978,-265.037137,1.140318,62.470431
4.5965,0.012222,0.021757,-0.030862,-0.004409,-0.000571,0.015067,-0.002477,-0.487866,-0.028963,-1.089978,-265.037137,1.140318,62.470431
4.6164,0.012037,0.021891,-0.030464,-0.004411,-0.000572,0.015064,-0.002477,-0.487866,-0.028963,-1.089978,-265.037137,1.140318,62.470431
4.6362,0.011615,0.021502,-0.027475,-0.004413,-0.000573,0.015062,-0.003683,-0.487891,-0.029831,-1.098907,-265.041007,1.147208,62.466151
4.6561,0.011931,0.021867,-0.029045,-0.004381,-0.000567,0.015064,-0.003188,-0.488059,-0.028816,-1.098907,-265.041007,1.147208,62.466151
4.6765,0.011038,0.022056,-0.02837,-0.004354,-0.000562,0.015066,-0.003021,-0.487932,-0.028565,-1.09794,-265.044883,1.146637,62.461863
4.6961,0.01072,0.021896,-0.02841,-0.004325,-0.000556,0.015067,-0.003394,-0.48776,-0.028362,-1.09794,-265.044883,1.146637,62.461863
4.7162,0.011043,0.022164,-0.029112,-0.004301,-0.000552,0.015068,-0.003394,-0.48776,-0.028362,-1.09794,-265.044883,1.146637,62.461863
4.7358,0.010255,0.021735,-0.027202,-0.004281,-0.000548,0.015067,-0.003985,-0.487639,-0.028482,-1.103992,-265.048749,1.151303,62.457591
4.7557,0.010362,0.021961,-0.026915,-0.004244,-0.00054,0.015069,-0.003856,-0.487819,-0.027888,-1.103992,-265.048749,1.151303,62.457591
4.7757,0.009788,0.022075,-0.027163,-0.004212,-0.000534,0.01507,-0.0035,-0.487868,-0.026436,-1.11142,-265.052605,1.157101,62.453337
4.7963,0.009808,0.021538,-0.027783,-0.004181,-0.000527,0.015071,-0.00402,-0.487749,-0.027073,-1.11142,-265.052605,1.157101,62.453337
4.8158,0.009413,0.021517,-0.026525,-0.004154,-0.000522,0.015071,-0.00402,-0.487749,-0.027073,-1.11142,-265.052605,1.157101,62.453337
4.8358,0.009153,0.021867,-0.026863,-0.004132,-0.000518,0.01507,-0.00429,-0.488322,-0.025894,-1.118519,-265.056456,1.16252,62.449098
4.8563,0.009219,0.022159,-0.026375,-0.004093,-0.000508,0.015071,-0.004414,-0.488172,-0.026215,-1.118519,-265.056456,1.16252,62.449098
4.8763,0.008452,0.021605,-0.024782,-0.004061,-0.000501,0.015071,-0.004362,-0.487676,-0.025895,-1.126778,-265.060297,1.168892,62.44488
4.8963,0.008398,0.021834,-0.024333,-0.004044,-0.000498,0.015068,-0.004209,-0.488188,-0.024858,-1.126778,-265.060297,1.168892,62.44488
4.9161,0.008354,0.021923,-0.025783,-0.00403,-0.000495,0.015066,-0.004209,-0.488188,-0.024858,-1.126778,-265.060297,1.168892,62.44488
4.9359,0.008163,0.022021,-0.024135,-0.004019,-0.000493,0.015064,-0.004965,-0.487924,-0.025153,-1.134269,-265.064134,1.174521,62.440678
4.9557,0.008256,0.021403,-0.024858,-0.003993,-0.000487,0.015063,-0.004651,-0.487888,-0.024667,-1.134269,-265.064134,1.174521,62.440678
4.9757,0.007266,0.021694,-0.026281,-0.003971,-0.000482,0.015063,-0.004549,-0.488452,-0.024377,-1.138371,-265.067968,1.177763,62.436482
4.9963,0.007344,0.021807,-0.021586,-0.003891,-0.000456,0.015071,-0.005996,-0.48816,-0.026081,-1.138371,-265.067968,1.177763,62.436482
5.0164,0.007419,0.02167,-0.022166,-0.003824,-0.000436,0.015076,-0.005996,-0.48816,-0.026081,-1.138371,-265.067968,1.177763,62.436482
5.0362,0.006506,0.021686,-0.024154,-0.003769,-0.00042,0.015079,-0.004051,-0.488221,-0.021534,-1.143376,-265.071797,1.181553,62.432299
5.0562,0.006448,0.021496,-0.023214,-0.003779,-0.000426,0.015067,-0.004782,-0.488201,-0.02252,-1.143376,-265.071797,1.181553,62.432299
5.076,0.006154,0.021816,-0.022149,-0.003787,-0.000431,0.015058,-0.00551,-0.488377,-0.022739,-1.165758,-265.075583,1.197747,62.428207
5.0963,0.006804,0.021741,-0.022192,-0.003779,-0.00043,0.015052,-0.005183,-0.48809,-0.02218,-1.165758,-265.075583,1.197747,62.428207
5.1163,0.006035,0.021774,-0.023636,-0.003771,-0.000429,0.015046,-0.005183,-0.48809,-0.02218,-1.165758,-265.075583,1.197747,62.428207
5.1362,0.005636,0.021423,-0.022686,-0.003765,-0.000428,0.015042,-0.006177,-0.488097,-0.023006,-1.162964,-265.079395,1.196008,62.424076
5.156,0.00588,0.021691,-0.021012,-0.003719,-0.000413,0.015045,-0.006096,-0.48824,-0.022804,-1.162964,-265.079395,1.196008,62.424076
5.1758,0.005393,0.021976,-0.021618,-0.00368,-0.0004,0.015047,-0.004956,-0.488208,-0.020532,-1.164776,-265.083208,1.197551,62.419946
5.1964,0.004983,0.021636,-0.020234,-0.003675,-0.000401,0.015041,-0.005576,-0.487933,-0.021494,-1.164776,-265.083208,1.197551,62.419946
5.2162,0.005051,0.021656,-0.021991,-0.003671,-0.000401,0.015036,-0.005576,-0.487933,-0.021494,-1.164776,-265.083208,1.197551,62.419946
5.2358,0.004658,0.021624,-0.019384,-0.003668,-0.000401,0.015031,-0.006318,-0.488234,-0.021362,-1.174295,-265.087012,1.204407,62.415845
5.2557,0.004725,0.021507,-0.019604,-0.00365,-0.000396,0.015026,-0.005893,-0.488254,-0.020488,-1.174295,-265.087012,1.204407,62.415845
5.276,0.003821,0.021717,-0.019367,-0.003634,-0.000391,0.015021,-0.00539,-0.488405,-0.019125,-1.175047,-265.090817,1.205186,62.411742
5.2964,0.003727,0.021877,-0.020506,-0.003619,-0.000388,0.015009,-0.006002,-0.488207,-0.019321,-1.175047,-265.090817,1.205186,62.411742
5.3158,0.003807,0.02162,-0.018501,-0.003606,-0.000386,0.014999,-0.006002,-0.488207,-0.019321,-1.175047,-265.090817,1.205186,62.411742
5.3362,0.003171,0.02155,-0.018588,-0.003596,-0.000384,0.014991,-0.00578,-0.488306,-0.017872,-1.178486,-265.094618,1.207711,62.407651
5.3561,0.00341,0.021734,-0.018981,-0.003587,-0.000387,0.014964,-0.006012,-0.48833,-0.01809,-1.178486,-265.094618,1.207711,62.407651
5.3762,0.002571,0.02172,-0.018334,-0.00358,-0.000389,0.014943,-0.006384,-0.488184,-0.018503,-1.181789,-265.098415,1.210347,62.403568
5.396,0.002831,0.021577,-0.0191,-0.003544,-0.000378,0.014935,-0.006751,-0.488194,-0.018325,-1.181789,-265.098415,1.210347,62.403568
5.4163,0.002596,0.021637,-0.015939,-0.003515,-0.000369,0.014928,-0.006751,-0.488194,-0.018325,-1.181789,-265.098415,1.210347,62.403568
5.436,0.002137,0.021687,-0.015908,-0.00349,-0.000361,0.014922,-0.005683,-0.488313,-0.015313,-1.181977,-265.102186,1.210984,62.399508
5.4564,0.002835,0.021564,-0.015623,-0.003511,-0.000393,0.014798,-0.005819,-0.488288,-0.015482,-1.181977,-265.102186,1.210984,62.399508
5.4757,0.001618,0.021771,-0.016579,-0.003529,-0.000417,0.014702,-0.005244,-0.488384,-0.015147,-1.191343,-265.105965,1.217842,62.395458
5.4959,0.00198,0.021624,-0.015726,-0.003507,-0.000412,0.014682,-0.006718,-0.488177,-0.016446,-1.191343,-265.105965,1.217842,62.395458
5.516,0.00124,0.02166,-0.016163,-0.003489,-0.000407,0.014665,-0.006718,-0.488177,-0.016446,-1.191343,-265.105965,1.217842,62.395458
5.5359,0.000792,0.021711,-0.015601,-0.003473,-0.000403,0.014652,-0.007149,-0.488288,-0.015553,-1.179867,-265.109642,1.211541,62.391473
5.5559,0.001169,0.021763,-0.016312,-0.003442,-0.000401,0.014597,-0.007172,-0.488265,-0.015502,-1.179867,-265.109642,1.211541,62.391473
5.5757,0.000526,0.021631,-0.015278,-0.003416,-0.000398,0.014553,-0.00726,-0.488181,-0.015846,-1.184746,-265.113329,1.215196,62.387485
5.5958,0.000854,0.021607,-0.014829,-0.003391,-0.000395,0.014507,-0.007271,-0.488299,-0.015305,-1.184746,-265.113329,1.215196,62.387485
5.6158,0.000998,0.021491,-0.014945,-0.00337,-0.000392,0.014472,-0.007271,-0.488299,-0.015305,-1.184746,-265.113329,1.215196,62.387485
5.6362,-0.000101,0.021687,-0.014235,-0.003352,-0.000389,0.014444,-0.006766,-0.488467,-0.014336,-1.188222,-265.116989,1.218255,62.383529
5.6559,0.000224,0.021244,-0.01442,-0.003348,-0.000402,0.014341,-0.007025,-0.488385,-0.014225,-1.188222,-265.116989,1.218255,62.383529
5.6758,-0.000567,0.02145,-0.012567,-0.003344,-0.000411,0.014263,-0.007238,-0.488714,-0.013958,-1.192428,-265.120617,1.221717,62.37961
5.6957,-0.000172,0.022142,-0.014478,-0.003339,-0.000441,0.014031,-0.007005,-0.488528,-0.012669,-1.192428,-265.120617,1.221717,62.37961
5.7157,-0.000861,0.021555,-0.012697,-0.003336,-0.000461,0.01386,-0.007005,-0.488528,-0.012669,-1.192428,-265.120617,1.221717,62.37961
5.7359,-0.001126,0.021672,-0.011967,-0.003334,-0.000473,0.013734,-0.007477,-0.48842,-0.012101,-1.187834,-265.124195,1.219454,62.375725
5.7561,-0.000984,0.021617,-0.011971,-0.00332,-0.000487,0.013546,-0.007392,-0.488369,-0.011978,-1.187834,-265.124195,1.219454,62.375725
5.7761,-0.001712,0.021717,-0.011011,-0.003308,-0.000493,0.013408,-0.007195,-0.48836,-0.011534,-1.172115,-265.127613,1.210928,62.371958
5.7958,-0.001384,0.021527,-0.013614,-0.003305,-0.000517,0.013152,-0.007321,-0.488263,-0.011037,-1.172115,-265.127613,1.210928,62.371958
5.8159,-0.001733,0.021854,-0.012742,-0.003302,-0.00053,0.012969,-0.007321,-0.488263,-0.011037,-1.172115,-265.127613,1.210928,62.371958
5.8358,-0.001946,0.021231,-0.010802,-0.003301,-0.000536,0.012838,-0.00837,-0.488123,-0.012182,-1.164776,-265.13096,1.206742,62.368245
5.8557,-0.002083,0.02129,-0.012432,-0.00327,-0.000515,0.012829,-0.008012,-0.488377,-0.011554,-1.164776,-265.13096,1.206742,62.368245
5.876,-0.002499,0.021934,-0.01075,-0.003245,-0.000496,0.012823,-0.008528,-0.488686,-0.012026,-1.146384,-265.134142,1.195466,62.36467
5.8962,-0.002532,0.021733,-0.010763,-0.003228,-0.000496,0.012702,-0.008035,-0.488096,-0.010844,-1.146384,-265.134142,1.195466,62.36467
5.9163,-0.002428,0.021523,-0.010873,-0.003215,-0.000494,0.012615,-0.008035,-0.488096,-0.010844,-1.146384,-265.134142,1.195466,62.36467
5.936,-0.003269,0.021768,-0.010334,-0.003204,-0.00049,0.012554,-0.008109,-0.488466,-0.010337,-1.154329,-265.137347,1.199251,62.361099
5.9562,-0.003021,0.021594,-0.01054,-0.003182,-0.00049,0.012406,-0.0083,-0.488362,-0.010274,-1.154329,-265.137347,1.199251,62.361099
5.9757,-0.003486,0.021204,-0.008306,-0.003163,-0.000488,0.0123,-0.008498,-0.488393,-0.010141,-1.150977,-265.14049,1.196579,62.357595
5.9958,-0.003772,0.021477,-0.007416,-0.00317,-0.000527,0.011801,-0.007797,-0.488745,-0.008449,-1.150977,-265.14049,1.196579,62.357595
6.0161,-0.003295,0.021517,-0.009186,-0.003175,-0.000551,0.011457,-0.007797,-0.488745,-0.008449,-1.150977,-265.14049,1.196579,62.357595
6.0355,-0.004087,0.021521,-0.00925,-0.003179,-0.000564,0.01122,-0.008112,-0.488481,-0.008671,-1.147652,-265.143571,1.194233,62.354155
6.0563,-0.003757,0.02153,-0.007571,-0.003161,-0.000552,0.011155,-0.00841,-0.488474,-0.008848,-1.147652,-265.143571,1.194233,62.354155
6.0757,-0.004505,0.021594,-0.008576,-0.003146,-0.00054,0.011112,-0.007715,-0.488472,-0.007229,-1.102786,-265.146265,1.165851,62.35107
6.0959,-0.004427,0.020995,-0.00789,-0.003123,-0.000531,0.010983,-0.00878,-0.488396,-0.008438,-1.102786,-265.146265,1.165851,62.35107
6.1157,-0.004351,0.021455,-0.008086,-0.003104,-0.000521,0.010895,-0.00878,-0.488396,-0.008438,-1.102786,-265.146265,1.165851,62.35107
6.1362,-0.004788,0.021217,-0.006781,-0.003088,-0.00051,0.010834,-0.008607,-0.488549,-0.007621,-1.104275,-265.149062,1.165211,62.34788
6.1559,-0.004526,0.02145,-0.008493,-0.003085,-0.000529,0.010462,-0.008475,-0.488642,-0.007225,-1.104275,-265.149062,1.165211,62.34788
6.1756,-0.005556,0.021329,-0.00708,-0.003083,-0.000539,0.010207,-0.008956,-0.488547,-0.008148,-1.102587,-265.151799,1.161919,62.344774
6.196,-0.005476,0.021338,-0.007601,-0.003056,-0.000529,0.010013,-0.009153,-0.488649,-0.007158,-1.102587,-265.151799,1.161919,62.344774
6.216,-0.004671,0.021307,-0.00673,-0.003034,-0.000519,0.00988,-0.009153,-0.488649,-0.007158,-1.102587,-265.151799,1.161919,62.344774
6.2359,-0.005538,0.021393,-0.0065,-0.003015,-0.000507,0.00979,-0.00823,-0.488703,-0.00631,-1.074682,-265.154344,1.143646,62.34185
6.2557,-0.005625,0.021298,-0.007229,-0.003024,-0.000525,0.009476,-0.008499,-0.488662,-0.006339,-1.074682,-265.154344,1.143646,62.34185
6.2759,-0.006028,0.021492,-0.005152,-0.003032,-0.000535,0.009261,-0.009408,-0.488704,-0.006918,-1.06713,-265.156838,1.135635,62.338995
6.296,-0.006468,0.021405,-0.006805,-0.003029,-0.000554,0.008756,-0.008728,-0.48852,-0.005294,-1.06713,-265.156838,1.135635,62.338995
6.3161,-0.006016,0.021402,-0.006012,-0.003027,-0.000564,0.008413,-0.008728,-0.48852,-0.005294,-1.06713,-265.156838,1.135635,62.338995
6.336,-0.006441,0.021446,-0.005591,-0.003027,-0.000568,0.008181,-0.009207,-0.488611,-0.005631,-1.036243,-265.159167,1.115397,62.336297
6.3555,-0.006424,0.021322,-0.005288,-0.003007,-0.00055,0.00812,-0.009255,-0.488587,-0.005572,-1.036243,-265.159167,1.115397,62.336297
6.3754,-0.006627,0.021456,-0.004562,-0.002991,-0.000533,0.00808,-0.009208,-0.488687,-0.005051,-0.971293,-265.161115,1.072582,62.333997
6.3957,-0.006981,0.021333,-0.006585,-0.002985,-0.000541,0.007696,-0.008981,-0.488553,-0.004594,-0.971293,-265.161115,1.072582,62.333997
6.416,-0.006749,0.02176,-0.004981,-0.002981,-0.000544,0.007434,-0.008981,-0.488553,-0.004594,-0.971293,-265.161115,1.072582,62.333997
6.4359,-0.007303,0.02128,-0.006511,-0.00298,-0.000543,0.007257,-0.009414,-0.488255,-0.004643,-0.973969,-265.163243,1.070329,62.331505
6.4559,-0.007304,0.021587,-0.005691,-0.002949,-0.000506,0.007414,-0.009922,-0.488443,-0.005366,-0.973969,-265.163243,1.070329,62.331505
6.4759,-0.007569,0.021475,-0.004912,-0.002923,-0.000477,0.007523,-0.010294,-0.488421,-0.005477,-0.917103,-265.165059,1.03119,62.329355
6.4959,-0.00729,0.021392,-0.004547,-0.002893,-0.000459,0.007451,-0.010098,-0.488511,-0.004952,-0.917103,-265.165059,1.03119,62.329355
6.5156,-0.007847,0.02149,-0.004849,-0.002868,-0.000444,0.0074,-0.010098,-0.488511,-0.004952,-0.917103,-265.165059,1.03119,62.329355
6.5361,-0.007604,0.021423,-0.005581,-0.002848,-0.000431,0.007363,-0.010439,-0.488523,-0.004543,-0.95341,-265.167027,1.047948,62.327073
6.5558,-0.007832,0.021198,-0.004067,-0.002818,-0.000412,0.007326,-0.010457,-0.488544,-0.004924,-0.95341,-265.167027,1.047948,62.327073
6.5755,-0.008114,0.021068,-0.002969,-0.002793,-0.000396,0.007299,-0.009997,-0.488811,-0.003833,-0.959848,-265.169011,1.046828,62.324798
6.5957,-0.008197,0.021407,-0.005657,-0.002787,-0.000414,0.006504,-0.009666,-0.488919,-0.003034,-0.959848,-265.169011,1.046828,62.324798
6.6156,-0.008293,0.021253,-0.004031,-0.002784,-0.000425,0.005953,-0.009666,-0.488919,-0.003034,-0.959848,-265.169011,1.046828,62.324798
6.636,-0.008386,0.021163,-0.004224,-0.002782,-0.00043,0.005574,-0.010466,-0.488759,-0.003725,-0.968448,-265.17098,1.048714,62.322561
6.6557,-0.008698,0.021407,-0.002103,-0.002757,-0.000404,0.005681,-0.010509,-0.488791,-0.003891,-0.968448,-265.17098,1.048714,62.322561
6.6759,-0.008491,0.021279,-0.003424,-0.002736,-0.000384,0.005756,-0.009819,-0.488599,-0.001995,-0.893445,-265.171931,0.973711,62.321455
6.6955,-0.00869,0.021116,-0.004428,-0.002729,-0.000384,0.005549,-0.010198,-0.488706,-0.003272,-0.893445,-265.171931,0.973711,62.321455
6.7161,-0.008776,0.021294,-0.004257,-0.002724,-0.000381,0.005404,-0.010198,-0.488706,-0.003272,-0.893445,-265.171931,0.973711,62.321455
6.7362,-0.008601,0.021092,-0.004748,-0.00272,-0.000378,0.005304,-0.011059,-0.488717,-0.004024,-0.852617,-265.173545,0.958985,62.319606
6.7557,-0.008958,0.021392,-0.003215,-0.002689,-0.000337,0.005643,-0.011057,-0.488794,-0.004291,-0.852617,-265.173545,0.958985,62.319606
6.7757,-0.008963,0.021459,-0.002253,-0.002664,-0.000308,0.005879,-0.01068,-0.488616,-0.003053,-0.810784,-265.175057,0.926104,62.317872
6.7957,-0.009126,0.02103,-0.003066,-0.002671,-0.000329,0.005184,-0.010164,-0.488547,-0.002313,-0.810784,-265.175057,0.926104,62.317872
6.816,-0.009225,0.021025,-0.003825,-0.002679,-0.000343,0.004698,-0.010164,-0.488547,-0.002313,-0.810784,-265.175057,0.926104,62.317872
6.8362,-0.009043,0.021139,-0.003692,-0.002685,-0.000351,0.00436,-0.011273,-0.488982,-0.003609,-0.885937,-265.176541,0.971369,62.316215
6.8562,-0.009156,0.021171,-0.0031,-0.002654,-0.000314,0.004709,-0.011141,-0.488932,-0.003619,-0.885937,-265.176541,0.971369,62.316215
6.8761,-0.00908,0.021216,-0.002982,-0.002628,-0.000288,0.004952,-0.010774,-0.488831,-0.00303,-0.810915,-265.177207,0.896348,62.315456
6.8957,-0.009569,0.021369,-0.002783,-0.002625,-0.000291,0.004852,-0.010617,-0.488786,-0.002983,-0.810915,-265.177207,0.896348,62.315456
6.9159,-0.009525,0.021316,-0.002791,-0.002622,-0.000293,0.004782,-0.010617,-0.488786,-0.002983,-0.810915,-265.177207,0.896348,62.315456
6.9356,-0.009759,0.021418,-0.002386,-0.00262,-0.000293,0.004732,-0.011058,-0.488693,-0.002585,-0.80562,-265.178718,0.900042,62.313773
6.9558,-0.009969,0.021227,-0.001471,-0.002605,-0.00029,0.004468,-0.011037,-0.488649,-0.002481,-0.80562,-265.178718,0.900042,62.313773
6.9758,-0.010029,0.021387,-0.001804,-0.002592,-0.000286,0.004283,-0.010802,-0.488782,-0.001322,-0.78102,-265.180181,0.882264,62.312138
6.996,-0.009546,0.021173,-0.001383,-0.002586,-0.000288,0.0038,-0.010942,-0.488625,-0.001762,-0.78102,-265.180181,0.882264,62.312138
7.0158,-0.010005,0.020782,-0.001947,-0.002582,-0.000287,0.00346,-0.010942,-0.488625,-0.001762,-0.78102,-265.180181,0.882264,62.312138
7.0363,-0.010518,0.021262,-0.000635,-0.002579,-0.000284,0.003223,-0.011099,-0.489228,-0.00178,-0.731987,-265.181482,0.841727,62.310685
7.0562,-0.009992,0.020733,-0.000865,-0.002567,-0.000277,0.002812,-0.011005,-0.489027,-0.001287,-0.731987,-265.181482,0.841727,62.310685
7.076,-0.010186,0.021415,-0.002041,-0.002558,-0.00027,0.002521,-0.010475,-0.489271,-0.000805,-0.657313,-265.182141,0.767053,62.309952
7.0959,-0.00994,0.021331,-0.002765,-0.002552,-0.000259,0.00265,-0.011159,-0.488648,-0.001923,-0.657313,-265.182141,0.767053,62.309952
7.1158,-0.010542,0.021227,-0.003364,-0.002548,-0.00025,0.00274,-0.011159,-0.488648,-0.001923,-0.657313,-265.182141,0.767053,62.309952
7.1359,-0.010445,0.020962,-0.002113,-0.002544,-0.000244,0.002803,-0.012295,-0.488773,-0.003318,-0.582345,-265.182565,0.692085,62.309487
7.156,-0.010734,0.020853,-0.002414,-0.002512,-0.000205,0.003275,-0.011987,-0.48888,-0.002826,-0.582345,-265.182565,0.692085,62.309487
7.1759,-0.010541,0.021378,-0.001204,-0.002485,-0.000179,0.003605,-0.012041,-0.489152,-0.002332,-0.523357,-265.183654,0.655417,62.308297
7.196,-0.010594,0.021137,-0.001463,-0.002488,-0.000192,0.003083,-0.011234,-0.488667,-0.001296,-0.523357,-265.183654,0.655417,62.308297
7.216,-0.010416,0.021332,-0.002651,-0.002492,-0.0002,0.002714,-0.011234,-0.488667,-0.001296,-0.523357,-265.183654,0.655417,62.308297
7.236,-0.010461,0.02098,-0.000948,-0.002494,-0.000206,0.002453,-0.011828,-0.488672,-0.002574,-0.598461,-265.184357,0.730521,62.307543
7.2566,-0.010663,0.021132,-0.001886,-0.002486,-0.000197,0.002587,-0.011475,-0.488814,-0.001903,-0.598461,-265.184357,0.730521,62.307543
7.2761,-0.010646,0.02122,-0.001938,-0.00248,-0.000191,0.002682,-0.011671,-0.488871,-0.001835,-0.523601,-265.185032,0.655661,62.306817
7.296,-0.01059,0.021004,-0.002495,-0.002469,-0.000183,0.002762,-0.01164,-0.488787,-0.001926,-0.523601,-265.185032,0.655661,62.306817
7.3163,-0.010645,0.021505,-0.000134,-0.00246,-0.000177,0.002818,-0.01164,-0.488787,-0.001926,-0.523601,-265.185032,0.655661,62.306817
7.3358,-0.010758,0.021062,-0.002187,-0.002453,-0.000173,0.002856,-0.010816,-0.488503,-2.3e-05,-0.528295,-265.186173,0.635492,62.305593
7.3558,-0.011214,0.021254,-0.000608,-0.002461,-0.000185,0.002342,-0.011258,-0.488681,-0.00089,-0.528295,-265.186173,0.635492,62.305593
7.3758,-0.011544,0.021178,0.000213,-0.002468,-0.000193,0.001975,-0.011599,-0.488751,-0.00052,-0.569825,-265.187292,0.663296,62.304396
7.3958,-0.011175,0.021139,-0.00169,-0.002465,-0.000195,0.001175,-0.011454,-0.488815,0.000152,-0.569825,-265.187292,0.663296,62.304396
7.4159,-0.011584,0.021218,-0.000637,-0.002464,-0.000194,0.000592,-0.011454,-0.488815,0.000152,-0.569825,-265.187292,0.663296,62.304396
7.4359,-0.011379,0.021214,0.000163,-0.002464,-0.00019,0.000171,-0.01195,-0.488785,-0.000597,-0.494854,-265.187738,0.588325,62.303923
7.456,-0.010662,0.021048,-0.0015,-0.002458,-0.000179,0.0001,-0.011689,-0.488785,-0.000283,-0.494854,-265.187738,0.588325,62.303923
7.4758,-0.011459,0.021134,-0.002247,-0.002454,-0.000169,4.9e-05,-0.011427,-0.488952,-0.0015,-0.419832,-265.187738,0.513304,62.303922
7.4961,-0.011011,0.021313,-0.000513,-0.002425,-0.000116,0.001008,-0.0125,-0.488873,-0.00218,-0.419832,-265.187738,0.513304,62.303922
7.5159,-0.011187,0.021274,-0.001334,-0.002399,-8.4e-05,0.001689,-0.0125,-0.488873,-0.00218,-0.419832,-265.187738,0.513304,62.303922
7.536,-0.011322,0.021139,-0.001325,-0.002376,-6.5e-05,0.002172,-0.011867,-0.488726,-0.001334,-0.344843,-265.187739,0.438314,62.303921
7.5556,-0.011146,0.021304,-0.001792,-0.002375,-7.7e-05,0.002087,-0.01192,-0.488781,-0.00133,-0.344843,-265.187739,0.438314,62.303921
7.5759,-0.011126,0.021172,-0.000738,-0.002375,-8.5e-05,0.002027,-0.012109,-0.488698,-0.001752,-0.419921,-265.188416,0.513392,62.303229
7.5961,-0.011368,0.021325,-0.000125,-0.002385,-0.000103,0.001716,-0.01156,-0.488816,-0.000828,-0.419921,-265.188416,0.513392,62.303229
7.6161,-0.011565,0.021213,-0.003314,-0.002395,-0.000115,0.001494,-0.01156,-0.488816,-0.000828,-0.419921,-265.188416,0.513392,62.303229
7.6363,-0.011526,0.020516,3.2e-05,-0.002403,-0.000124,0.001337,-0.013353,-0.488788,-0.003231,-0.451946,-265.189455,0.508477,62.302158
7.656,-0.011528,0.021126,-0.000955,-0.002371,-9.3e-05,0.001791,-0.012618,-0.48907,-0.001899,-0.451946,-265.189455,0.508477,62.302158
7.6757,-0.011864,0.021166,-1.6e-05,-0.002345,-7.2e-05,0.002112,-0.012049,-0.488875,-0.000931,-0.376892,-265.18992,0.433422,62.301678
7.6964,-0.01159,0.021237,-0.000369,-0.002349,-8.7e-05,0.001387,-0.011889,-0.488838,-9.2e-05,-0.376892,-265.18992,0.433422,62.301678
7.7159,-0.011623,0.020898,-0.000568,-0.002353,-9.7e-05,0.000863,-0.011889,-0.488838,-9.2e-05,-0.376892,-265.18992,0.433422,62.301678
7.7356,-0.011425,0.020963,-0.000364,-0.002358,-0.000103,0.000485,-0.011985,-0.489104,-0.000506,-0.451996,-265.190697,0.508526,62.300881
7.7561,-0.011756,0.020859,-0.000532,-0.00236,-0.000102,0.000405,-0.011841,-0.489077,-0.000441,-0.451996,-265.190697,0.508526,62.300881
7.7758,-0.011731,0.021075,0.000594,-0.002362,-0.000101,0.000349,-0.012029,-0.489141,-0.000531,-0.377156,-265.190712,0.433686,62.300866
7.796,-0.011763,0.021152,-0.002667,-0.002377,-0.000113,-0.000182,-0.011479,-0.488943,0.000498,-0.377156,-265.190712,0.433686,62.300866
7.8164,-0.011797,0.021052,0.000449,-0.00239,-0.000121,-0.000568,-0.011479,-0.488943,0.000498,-0.377156,-265.190712,0.433686,62.300866
7.8358,-0.011776,0.020723,-0.000325,-0.002401,-0.000125,-0.000847,-0.011572,-0.488948,0.000451,-0.302028,-265.190749,0.358558,62.300829
7.8559,-0.011866,0.021126,-0.000637,-0.002402,-0.000118,-0.000851,-0.011722,-0.489081,0.000138,-0.302028,-265.190749,0.358558,62.300829
7.8756,-0.011535,0.020973,-0.00102,-0.002403,-0.000112,-0.000857,-0.012191,-0.488874,-0.000637,-0.227146,-265.190749,0.283677,62.300829
7.8959,-0.011836,0.021327,-0.000658,-0.002395,-9.2e-05,-0.000233,-0.012066,-0.489014,-0.000987,-0.227146,-265.190749,0.283677,62.300829
7.9159,-0.011715,0.020827,0.000749,-0.002388,-8e-05,0.000208,-0.012066,-0.489014,-0.000987,-0.227146,-265.190749,0.283677,62.300829
7.9359,-0.011867,0.021084,-0.001127,-0.002382,-7.4e-05,0.00052,-0.011333,-0.489173,0.000749,-0.152023,-265.190749,0.208554,62.300828
7.9557,-0.011928,0.021243,-0.000335,-0.002384,-8.3e-05,0.000207,-0.011788,-0.489067,-2.1e-05,-0.152023,-265.190749,0.208554,62.300828
7.976,-0.011816,0.021038,-0.000743,-0.002387,-8.9e-05,-1.8e-05,-0.012169,-0.488759,-0.000319,-0.101762,-265.191639,0.163075,62.299931
7.9962,-0.01137,0.021405,-0.001834,-0.002378,-8e-05,0.000202,-0.012196,-0.488945,-0.000705,-0.101762,-265.191639,0.163075,62.299931
8.0159,-0.011804,0.020887,0.001053,-0.002371,-7.5e-05,0.000358,-0.012196,-0.488945,-0.000705,-0.101762,-265.191639,0.163075,62.299931
8.036,-0.011561,0.020925,-0.000569,-0.002365,-7.1e-05,0.000468,-0.011321,-0.489114,0.001058,-0.02677,-265.192162,0.088083,62.299409
8.0557,-0.011905,0.021093,0.000786,-0.002376,-8.5e-05,-4.8e-05,-0.011543,-0.489099,0.000397,-0.02677,-265.192162,0.088083,62.299409
8.0757,-0.01195,0.021047,0.000173,-0.002385,-9.4e-05,-0.000422,-0.011571,-0.488909,0.000799,-0.090778,-265.193001,0.149715,62.298564
8.0957,-0.012104,0.021213,-0.000653,-0.002386,-9.5e-05,-0.000601,-0.011842,-0.488949,0.000223,-0.090778,-265.193001,0.149715,62.298564
8.116,-0.011917,0.021488,-0.000946,-0.002387,-9.5e-05,-0.00073,-0.011842,-0.488949,0.000223,-0.090778,-265.193001,0.149715,62.298564
8.1358,-0.011835,0.021223,-0.000359,-0.002389,-9.4e-05,-0.000823,-0.012418,-0.488513,-0.000945,-0.015583,-265.193181,0.07452,62.298386
8.1557,-0.01198,0.021008,0.000414,-0.002384,-8.2e-05,-0.00037,-0.012258,-0.48862,-0.000706,-0.015583,-265.193181,0.07452,62.298386
8.176,-0.01215,0.02126,-0.000376,-0.002381,-7.5e-05,-5e-05,-0.011778,-0.488992,0.000413,0.059229,-265.193306,-0.000292,62.298262
8.196,-0.012055,0.021072,-0.001086,-0.002374,-7.2e-05,-4.4e-05,-0.012294,-0.488761,-0.000308,0.059229,-265.193306,-0.000292,62.298262
8.2158,-0.012027,0.021042,-0.001265,-0.002369,-6.9e-05,-4e-05,-0.012294,-0.488761,-0.000308,0.059229,-265.193306,-0.000292,62.298262
8.2358,-0.011981,0.021229,0.000343,-0.002364,-6.7e-05,-3.8e-05,-0.01277,-0.48896,-0.001267,0.044316,-265.194249,0.018915,62.29732
8.2559,-0.012263,0.021198,-0.000295,-0.002355,-5.9e-05,0.000134,-0.012389,-0.488884,-0.000612,0.044316,-265.194249,0.018915,62.29732
8.2757,-0.012167,0.021053,-0.000724,-0.002347,-5.4e-05,0.000256,-0.012489,-0.488804,-0.000297,0.038065,-265.195194,0.018608,62.296375
8.2957,-0.012413,0.02106,-0.000553,-0.002333,-4.5e-05,0.000384,-0.012535,-0.488935,-0.000685,0.038065,-265.195194,0.018608,62.296375
8.3156,-0.012038,0.021094,-0.001309,-0.002321,-3.8e-05,0.000475,-0.012535,-0.488935,-0.000685,0.038065,-265.195194,0.018608,62.296375
8.3358,-0.012482,0.021261,8.3e-05,-0.002311,-3.3e-05,0.00054,-0.012787,-0.488907,-0.0013,-0.036928,-265.195974,0.089561,62.295593
8.356,-0.012142,0.020954,-9.9e-05,-0.0023,-2.8e-05,0.000614,-0.012655,-0.488839,-0.000737,-0.036928,-265.195974,0.089561,62.295593
8.3759,-0.012726,0.021449,-0.000527,-0.002291,-2.4e-05,0.000667,-0.012253,-0.489047,-8.6e-05,-0.111936,-265.196736,0.1558,62.294828
8.3959,-0.012449,0.021116,-0.000376,-0.002279,-2e-05,0.000567,-0.012933,-0.488595,-0.000487,-0.111936,-265.196736,0.1558,62.294828
8.4157,-0.012787,0.021091,-0.000187,-0.002269,-1.6e-05,0.000496,-0.012933,-0.488595,-0.000487,-0.111936,-265.196736,0.1558,62.294828
8.4361,-0.012597,0.021197,-0.000604,-0.002261,-1.3e-05,0.000445,-0.012973,-0.48891,-0.000161,-0.165845,-265.197609,0.18622,62.293952
8.4558,-0.012556,0.021025,0.000966,-0.002248,-6e-06,0.000325,-0.012956,-0.488867,-0.000337,-0.165845,-265.197609,0.18622,62.293952
8.4761,-0.012915,0.021115,-0.001429,-0.002238,-0.0,0.00024,-0.012128,-0.488975,0.000978,-0.113984,-265.19843,0.125013,62.293129
8.4959,-0.013177,0.021204,-0.000907,-0.002212,2.4e-05,0.000642,-0.013488,-0.488894,-0.001173,-0.113984,-265.19843,0.125013,62.293129
8.5161,-0.012621,0.021014,-0.000291,-0.002191,4.1e-05,0.000927,-0.013488,-0.488894,-0.001173,-0.113984,-265.19843,0.125013,62.293129
8.5357,-0.012957,0.020936,-0.001841,-0.002172,5.2e-05,0.001128,-0.012854,-0.488986,-0.000282,-0.065274,-265.199246,0.065548,62.292313
8.5557,-0.012754,0.021116,-0.000165,-0.002159,5.6e-05,0.001129,-0.013288,-0.489018,-0.000915,-0.065274,-265.199246,0.065548,62.292313
8.5758,-0.01274,0.020928,-0.001388,-0.002149,5.9e-05,0.00113,-0.012849,-0.488884,-0.000163,-0.140269,-265.199383,0.140542,62.292178
8.5962,-0.012902,0.021037,-0.000962,-0.002136,6.7e-05,0.001327,-0.013395,-0.489055,-0.001277,-0.140269,-265.199383,0.140542,62.292178
8.6161,-0.013062,0.021144,0.000424,-0.002125,7.2e-05,0.001466,-0.013395,-0.489055,-0.001277,-0.140269,-265.199383,0.140542,62.292178
8.6361,-0.013174,0.020792,-0.001381,-0.002115,7.5e-05,0.001565,-0.012882,-0.488856,0.000437,-0.215271,-265.199735,0.215545,62.291832
8.6562,-0.013,0.020934,-0.003023,-0.002111,6.8e-05,0.001104,-0.01329,-0.488999,-0.0003,-0.215271,-265.199735,0.215545,62.291832
8.6759,-0.013081,0.021441,-0.001633,-0.002109,6.4e-05,0.000774,-0.014558,-0.489063,-0.003015,-0.290269,-265.19996,0.290542,62.291613
8.6962,-0.012873,0.020826,-0.000472,-0.002095,8.6e-05,0.001318,-0.013973,-0.488604,-0.001758,-0.290269,-265.19996,0.290542,62.291613
8.7164,-0.0128,0.021215,-0.001087,-0.002083,9.8e-05,0.001704,-0.013973,-0.488604,-0.001758,-0.290269,-265.19996,0.290542,62.291613
8.7363,-0.012923,0.021087,-0.000455,-0.002071,0.000106,0.001977,-0.013427,-0.488783,-0.001059,-0.249196,-265.200683,0.215541,62.290899
8.7558,-0.01297,0.021011,0.000641,-0.002075,9.1e-05,0.001671,-0.013326,-0.488835,-0.000811,-0.249196,-265.200683,0.215541,62.290899
8.7755,-0.01313,0.020579,-0.000205,-0.002079,8.1e-05,0.001453,-0.012647,-0.488989,0.000644,-0.324193,-265.200741,0.290537,62.290844
8.7956,-0.012928,0.020981,-0.000826,-0.002077,7.5e-05,0.000931,-0.013181,-0.489382,-0.000128,-0.324193,-265.200741,0.290537,62.290844
8.8157,-0.013147,0.020933,-9.8e-05,-0.002075,7.3e-05,0.000555,-0.013181,-0.489382,-0.000128,-0.324193,-265.200741,0.290537,62.290844
8.8355,-0.013139,0.021236,-0.000194,-0.002075,7.2e-05,0.000286,-0.013262,-0.489065,-5.5e-05,-0.399195,-265.20142,0.365539,62.290183
8.8557,-0.013322,0.02097,-0.001287,-0.002081,6.8e-05,8.1e-05,-0.01326,-0.488941,-0.000107,-0.399195,-265.20142,0.365539,62.290183
8.8756,-0.012933,0.021001,-0.000543,-0.002087,6.5e-05,-6.5e-05,-0.013981,-0.48903,-0.001285,-0.324096,-265.201466,0.29044,62.290138
8.8959,-0.013303,0.020822,-0.000162,-0.002091,6.9e-05,0.000108,-0.013275,-0.489001,-0.000606,-0.324096,-265.201466,0.29044,62.290138
8.9158,-0.013337,0.02115,-0.001012,-0.002094,7.1e-05,0.000232,-0.013275,-0.489001,-0.000606,-0.324096,-265.201466,0.29044,62.290138
8.9358,-0.013295,0.02141,-0.001923,-0.002097,7.2e-05,0.00032,-0.013856,-0.488849,-0.001011,-0.249023,-265.201492,0.215368,62.290112
8.9559,-0.013322,0.02113,-0.000497,-0.002084,9.2e-05,0.000805,-0.014027,-0.488744,-0.001382,-0.249023,-265.201492,0.215368,62.290112
8.9757,-0.013306,0.021328,-0.002129,-0.002072,0.000104,0.00115,-0.013611,-0.48887,-0.000488,-0.17419,-265.201942,0.140534,62.289664
8.9961,-0.013424,0.021205,0.000203,-0.002055,0.000126,0.001703,-0.014334,-0.488686,-0.002004,-0.17419,-265.201942,0.140534,62.289664
9.0163,-0.013248,0.021009,-0.000562,-0.002039,0.000138,0.002095,-0.014334,-0.488686,-0.002004,-0.17419,-265.201942,0.140534,62.289664
9.0356,-0.01297,0.020826,-0.000916,-0.002026,0.000145,0.002372,-0.01357,-0.48899,-0.000549,-0.249601,-265.202289,0.215946,62.289329
9.0557,-0.013458,0.020926,-0.000977,-0.002029,0.000127,0.001888,-0.01352,-0.489065,-0.000697,-0.249601,-265.202289,0.215946,62.289329
9.0757,-0.013109,0.021215,-0.000164,-0.002032,0.000114,0.001544,-0.013957,-0.489074,-0.000977,-0.324503,-265.202296,0.290847,62.289322
9.0956,-0.013649,0.020834,-0.000395,-0.002047,9.4e-05,0.00105,-0.013261,-0.488811,-0.000236,-0.324503,-265.202296,0.290847,62.289322
9.1157,-0.013305,0.020881,-0.000981,-0.002061,7.9e-05,0.000696,-0.013261,-0.488811,-0.000236,-0.324503,-265.202296,0.290847,62.289322
9.1357,-0.013499,0.021119,-0.000796,-0.002073,6.9e-05,0.000444,-0.013856,-0.489118,-0.000948,-0.399207,-265.202831,0.365551,62.288809
9.1557,-0.013216,0.021205,1.2e-05,-0.002061,8.3e-05,0.000624,-0.013882,-0.489021,-0.000882,-0.399207,-265.202831,0.365551,62.288809
9.1758,-0.01336,0.02134,6e-05,-0.002051,9.4e-05,0.000751,-0.013218,-0.488795,1.6e-05,-0.324174,-265.202937,0.290518,62.288704
9.196,-0.01363,0.021357,-0.001231,-0.002066,7.9e-05,0.000328,-0.01332,-0.488673,5.6e-05,-0.324174,-265.202937,0.290518,62.288704
9.2158,-0.013699,0.021319,0.000402,-0.002079,6.8e-05,2.4e-05,-0.01332,-0.488673,5.6e-05,-0.324174,-265.202937,0.290518,62.288704
9.2358,-0.013573,0.021118,0.001139,-0.00209,6.1e-05,-0.000194,-0.013559,-0.488679,0.000429,-0.263109,-265.203586,0.215488,62.288067
9.2563,-0.013647,0.020755,-0.000722,-0.002097,5.6e-05,-0.000685,-0.013338,-0.48876,0.000718,-0.263109,-265.203586,0.215488,62.288067
9.2763,-0.013519,0.020949,-0.001099,-0.002102,5.5e-05,-0.001041,-0.01402,-0.489245,-0.000721,-0.188158,-265.203634,0.140538,62.288019
9.2961,-0.013373,0.021106,0.000261,-0.002082,9.1e-05,-0.000331,-0.014073,-0.489072,-0.001057,-0.188158,-265.203634,0.140538,62.288019
9.316,-0.013407,0.021304,-0.00097,-0.002064,0.000114,0.000172,-0.014073,-0.489072,-0.001057,-0.188158,-265.203634,0.140538,62.288019
9.336,-0.013253,0.021229,-0.000331,-0.002049,0.000129,0.000529,-0.013902,-0.488695,-0.00097,-0.113185,-265.203635,0.065564,62.288018
9.3562,-0.013595,0.021001,-0.000152,-0.002053,0.000122,0.00059,-0.013707,-0.488726,-0.00071,-0.113185,-265.203635,0.065564,62.288018
9.3759,-0.013761,0.021188,0.001831,-0.002056,0.000117,0.000633,-0.013727,-0.488997,-0.000139,-0.188172,-265.204336,0.094651,62.287331
9.396,-0.013677,0.021349,-0.0008,-0.002076,8.6e-05,-0.000428,-0.012898,-0.488825,0.001681,-0.188172,-265.204336,0.094651,62.287331
9.416,-0.013819,0.021305,-0.000415,-0.002095,6.6e-05,-0.001222,-0.012898,-0.488825,0.001681,-0.188172,-265.204336,0.094651,62.287331
9.4356,-0.014023,0.021238,-0.000507,-0.002111,5.4e-05,-0.001813,-0.014111,-0.488691,-0.00039,-0.240079,-265.205127,0.130345,62.286556
9.4557,-0.013831,0.02105,-0.00111,-0.002093,8.7e-05,-0.001206,-0.014191,-0.488719,-0.000436,-0.240079,-265.205127,0.130345,62.286556
9.4758,-0.013757,0.021122,-0.000467,-0.002078,0.000109,-0.00078,-0.014397,-0.48895,-0.00111,-0.165408,-265.205127,0.055674,62.286556
9.4964,-0.01368,0.020834,-0.000443,-0.002067,0.000124,-0.000432,-0.01403,-0.488884,-0.000523,-0.165408,-265.205127,0.055674,62.286556
9.5161,-0.013702,0.021031,-0.00087,-0.002058,0.000134,-0.000188,-0.01403,-0.488884,-0.000523,-0.165408,-265.205127,0.055674,62.286556
9.5357,-0.013828,0.020885,-0.000637,-0.00205,0.00014,-1.6e-05,-0.014148,-0.488969,-0.00087,-0.090431,-265.205148,-0.019304,62.286534
9.5559,-0.013724,0.021011,-0.001886,-0.002037,0.000151,0.000247,-0.01415,-0.489028,-0.000776,-0.090431,-265.205148,-0.019304,62.286534
9.5761,-0.014026,0.021522,0.000214,-0.002025,0.000158,0.000432,-0.014747,-0.488984,-0.001887,-0.063352,-265.205924,-0.073089,62.285758
9.5962,-0.013932,0.020813,-0.001746,-0.00203,0.000146,0.000119,-0.013994,-0.488523,2.7e-05,-0.063352,-265.205924,-0.073089,62.285758
9.6155,-0.013838,0.021474,0.000377,-0.002033,0.000138,-0.000106,-0.013994,-0.488523,2.7e-05,-0.063352,-265.205924,-0.073089,62.285758
9.6359,-0.014027,0.021205,0.000345,-0.002036,0.000132,-0.000268,-0.013694,-0.488523,0.000383,-0.138346,-265.206389,0.001904,62.285302
9.6563,-0.013733,0.021257,0.001155,-0.002043,0.000124,-0.000566,-0.013764,-0.488634,0.000368,-0.138346,-265.206389,0.001904,62.285302
9.6757,-0.013798,0.021031,-0.000597,-0.002049,0.000118,-0.000781,-0.013176,-0.48874,0.001154,-0.06335,-265.206785,-0.073092,62.284902
9.696,-0.014093,0.021072,-0.001013,-0.002041,0.000131,-0.000487,-0.014024,-0.488949,-0.000445,-0.06335,-265.206785,-0.073092,62.284902
9.7158,-0.013627,0.02118,7.3e-05,-0.002035,0.000139,-0.000278,-0.014024,-0.488949,-0.000445,-0.06335,-265.206785,-0.073092,62.284902
9.7358,-0.014092,0.021187,0.000646,-0.00203,0.000145,-0.00013,-0.013607,-0.488819,7.1e-05,0.011749,-265.20695,-0.148191,62.284733
9.7558,-0.013965,0.020832,0.000241,-0.002037,0.000134,-0.000435,-0.013672,-0.488817,0.000303,0.011749,-265.20695,-0.148191,62.284733
9.7757,-0.014173,0.021274,-9.8e-05,-0.002043,0.000127,-0.000654,-0.013904,-0.489164,0.000237,-0.032174,-265.207721,-0.110217,62.283957
9.7958,-0.014157,0.021147,-0.000675,-0.002034,0.000136,-0.000607,-0.014199,-0.488763,-7e-05,-0.032174,-265.207721,-0.110217,62.283957
9.816,-0.014004,0.021379,-0.000302,-0.002026,0.000144,-0.000575,-0.014199,-0.488763,-7e-05,-0.032174,-265.207721,-0.110217,62.283957
9.836,-0.013646,0.021281,-0.000883,-0.00202,0.000149,-0.000552,-0.014198,-0.488618,-0.000309,0.042985,-265.208106,-0.185376,62.283563
9.8561,-0.013998,0.021341,-0.000761,-0.002017,0.000155,-0.00027,-0.014161,-0.488659,-0.000544,0.042985,-265.208106,-0.185376,62.283563
9.8757,-0.014185,0.021276,-0.000188,-0.002015,0.000158,-7e-05,-0.014446,-0.488655,-0.000777,0.092584,-265.208854,-0.236391,62.282797
9.896,-0.014241,0.021154,-0.000834,-0.002008,0.000161,-9.6e-05,-0.014299,-0.488718,-0.000242,0.092584,-265.208854,-0.236391,62.282797
9.9161,-0.014455,0.020974,-0.001079,-0.002002,0.000164,-0.000115,-0.014299,-0.488718,-0.000242,0.092584,-265.208854,-0.236391,62.282797
9.9358,-0.014389,0.021323,-0.001055,-0.001997,0.000166,-0.000128,-0.015049,-0.489022,-0.001086,0.017583,-265.209271,-0.161389,62.282378
9.9561,-0.014367,0.021158,0.000544,-0.001971,0.000193,0.000327,-0.015004,-0.48888,-0.001074,0.017583,-265.209271,-0.161389,62.282378
9.9755,-0.014263,0.021429,0.000299,-0.001948,0.000211,0.000649,-0.014148,-0.488837,0.000541,-0.043816,-265.210009,-0.121746,62.281636
9.9961,-0.01426,0.02082,-0.000368,-0.001958,0.000192,0.000122,-0.014116,-0.488591,0.000316,-0.043816,-265.210009,-0.121746,62.281636
10.0162,-0.014399,0.020793,0.000739,-0.001966,0.000179,-0.00026,-0.014116,-0.488591,0.000316,-0.043816,-265.210009,-0.121746,62.281636
10.0359,-0.014628,0.021167,-0.000447,-0.001973,0.00017,-0.000535,-0.014035,-0.489206,0.00074,-0.119185,-265.210139,-0.046377,62.281512
10.0558,-0.014217,0.021181,0.000285,-0.001964,0.000177,-0.000697,-0.014376,-0.489051,0.000249,-0.119185,-265.210139,-0.046377,62.281512
10.0756,-0.014601,0.020981,-0.001809,-0.001956,0.000183,-0.000813,-0.01409,-0.488818,0.000284,-0.044431,-265.210358,-0.12113,62.281286
10.096,-0.014557,0.020982,0.00015,-0.001924,0.000234,0.000124,-0.015401,-0.489001,-0.00163,-0.044431,-265.210358,-0.12113,62.281286
10.1158,-0.014322,0.021221,-0.000466,-0.001897,0.000265,0.000789,-0.015401,-0.489001,-0.00163,-0.044431,-265.210358,-0.12113,62.281286
10.1359,-0.014235,0.021277,-0.0,-0.001874,0.000284,0.001263,-0.01458,-0.488778,-0.00047,0.030469,-265.210553,-0.196031,62.281082
10.1559,-0.014214,0.021235,-0.000992,-0.001883,0.00026,0.000871,-0.014442,-0.488755,-0.000279,0.030469,-265.210553,-0.196031,62.281082
10.1758,-0.014533,0.021412,0.000504,-0.00189,0.000242,0.000591,-0.014721,-0.488765,-0.000992,-0.044405,-265.210553,-0.121156,62.281082
10.196,-0.014432,0.021118,-0.001048,-0.001905,0.000219,4.2e-05,-0.014311,-0.488601,0.000388,-0.044405,-265.210553,-0.121156,62.281082
10.2159,-0.014834,0.02095,-0.000464,-0.001917,0.000204,-0.000356,-0.014311,-0.488601,0.000388,-0.044405,-265.210553,-0.121156,62.281082
10.2358,-0.014552,0.020836,-0.000583,-0.001928,0.000193,-0.000643,-0.015086,-0.489048,-0.000463,-0.119792,-265.210701,-0.04577,62.280941
10.2558,-0.014328,0.020966,-0.001821,-0.00191,0.000214,-0.000352,-0.014991,-0.489095,-0.000512,-0.119792,-265.210701,-0.04577,62.280941
10.2759,-0.014137,0.021587,0.001577,-0.001895,0.00023,-0.000147,-0.015267,-0.489032,-0.001821,-0.045191,-265.210828,-0.12037,62.280808
10.296,-0.014461,0.021154,-0.000965,-0.001933,0.00019,-0.000877,-0.013514,-0.48847,0.00126,-0.045191,-265.210828,-0.12037,62.280808
10.3158,-0.014071,0.021509,-0.000734,-0.001965,0.000162,-0.001416,-0.013514,-0.48847,0.00126,-0.045191,-265.210828,-0.12037,62.280808
10.3358,-0.014622,0.021117,0.000352,-0.001993,0.000142,-0.001811,-0.014521,-0.488482,-0.00074,-0.074015,-265.211553,-0.167082,62.280076
10.3561,-0.014284,0.021192,0.001829,-0.001987,0.000161,-0.001296,-0.014497,-0.488645,-0.000294,-0.074015,-265.211553,-0.167082,62.280076
10.376,-0.014265,0.020952,-0.000161,-0.001983,0.000173,-0.000934,-0.013351,-0.488807,0.001829,0.000983,-265.211553,-0.242079,62.280075
10.3962,-0.014325,0.021072,7.2e-05,-0.001979,0.000179,-0.000865,-0.014246,-0.489023,4e-05,0.000983,-265.211553,-0.242079,62.280075
10.4162,-0.014369,0.021139,-0.001348,-0.001975,0.000183,-0.000817,-0.014246,-0.489023,4e-05,0.000983,-265.211553,-0.242079,62.280075
10.4362,-0.014564,0.021361,0.000136,-0.001972,0.000186,-0.000784,-0.015092,-0.488856,-0.00136,0.075989,-265.211902,-0.317085,62.27971
10.4561,-0.014215,0.021421,-0.000642,-0.001958,0.000204,-0.000312,-0.014855,-0.488767,-0.000756,0.075989,-265.211902,-0.317085,62.27971
10.4755,-0.014324,0.020925,-0.001563,-0.001946,0.000216,2.1e-05,-0.014601,-0.488573,-0.000665,0.147202,-265.212638,-0.325139,62.278942
10.4957,-0.014544,0.02107,5e-06,-0.001925,0.000242,0.00065,-0.015081,-0.489032,-0.001489,0.147202,-265.212638,-0.325139,62.278942
10.5161,-0.014667,0.021009,0.000197,-0.001906,0.000257,0.001096,-0.015081,-0.489032,-0.001489,0.147202,-265.212638,-0.325139,62.278942
10.5361,-0.014537,0.021385,0.000153,-0.00189,0.000265,0.001412,-0.014578,-0.48899,0.000194,0.072049,-265.212753,-0.249987,62.278827
10.5562,-0.01457,0.021107,-0.002643,-0.001893,0.000245,0.000745,-0.014531,-0.488836,0.000177,0.072049,-265.212753,-0.249987,62.278827
10.5754,-0.014757,0.020867,0.001073,-0.001897,0.000231,0.000262,-0.015918,-0.488891,-0.002643,-0.002905,-265.212753,-0.175033,62.278827
10.5961,-0.014423,0.02147,-8.4e-05,-0.0019,0.00022,-0.000371,-0.014352,-0.489113,0.000763,-0.002905,-265.212753,-0.175033,62.278827
10.6161,-0.014457,0.020889,-0.001369,-0.001902,0.000214,-0.000833,-0.014352,-0.489113,0.000763,-0.002905,-265.212753,-0.175033,62.278827
10.6361,-0.014801,0.021126,0.000877,-0.001904,0.000212,-0.00117,-0.015187,-0.489108,-0.00137,-0.07797,-265.213052,-0.099968,62.278534
10.656,-0.014797,0.021428,0.00047,-0.001896,0.000229,-0.000751,-0.014855,-0.489013,-0.000465,-0.07797,-265.213052,-0.099968,62.278534
10.6756,-0.014754,0.020931,-0.000148,-0.001889,0.00024,-0.000454,-0.014559,-0.488572,0.00047,-0.003146,-265.213068,-0.174792,62.278516
10.6959,-0.015016,0.021243,-0.002086,-0.001885,0.000243,-0.000453,-0.014805,-0.489024,-9.2e-05,-0.003146,-265.213068,-0.174792,62.278516
10.7165,-0.014737,0.021211,-9e-06,-0.001881,0.000246,-0.000452,-0.014805,-0.489024,-9.2e-05,-0.003146,-265.213068,-0.174792,62.278516
10.736,-0.014713,0.021656,-0.000522,-0.001878,0.000248,-0.000451,-0.01481,-0.488781,-2.5e-05,0.019965,-265.213722,-0.249793,62.277839
10.756,-0.014633,0.021177,-0.001289,-0.001881,0.000246,-0.000376,-0.014887,-0.488603,-0.000228,0.019965,-265.213722,-0.249793,62.277839
10.7758,-0.014808,0.021275,0.000438,-0.001884,0.000244,-0.000323,-0.01535,-0.488814,-0.001303,0.014777,-265.214467,-0.271813,62.277065
10.7962,-0.014568,0.021132,1.5e-05,-0.001889,0.000235,-0.000561,-0.014658,-0.488733,0.000279,0.014777,-265.214467,-0.271813,62.277065
10.8161,-0.014699,0.021173,0.000614,-0.001893,0.00023,-0.000732,-0.014658,-0.488733,0.000279,0.014777,-265.214467,-0.271813,62.277065
10.8358,-0.014658,0.021312,-0.000868,-0.001897,0.000226,-0.000855,-0.014461,-0.488818,0.000602,-0.024647,-265.215182,-0.229731,62.276331
10.8557,-0.015463,0.021213,-0.000674,-0.001898,0.000228,-0.000796,-0.014727,-0.488764,8e-06,-0.024647,-265.215182,-0.229731,62.276331
10.8756,-0.015092,0.021124,-0.001426,-0.0019,0.000229,-0.000754,-0.015832,-0.488783,-0.000682,0.050352,-265.215507,-0.30473,62.275987
10.8961,-0.014813,0.021284,-0.001306,-0.00187,0.00027,3.2e-05,-0.015821,-0.488867,-0.001361,0.050352,-265.215507,-0.30473,62.275987
10.9162,-0.014884,0.021025,-0.000724,-0.001846,0.000297,0.000589,-0.015821,-0.488867,-0.001361,0.050352,-265.215507,-0.30473,62.275987
10.9356,-0.014775,0.020997,-0.000353,-0.001824,0.000314,0.000986,-0.015324,-0.488966,-0.000752,0.121449,-265.216191,-0.347934,62.275264
10.9557,-0.015239,0.021128,0.000833,-0.001818,0.000307,0.000849,-0.015182,-0.48898,-0.000593,0.121449,-265.216191,-0.347934,62.275264
10.976,-0.014799,0.021111,0.000826,-0.001813,0.000303,0.000752,-0.014814,-0.488872,0.000833,0.046546,-265.216191,-0.27303,62.275264
10.9959,-0.015178,0.020855,4.8e-05,-0.001831,0.000273,-3.9e-05,-0.014417,-0.488887,0.000827,0.046546,-265.216191,-0.27303,62.275264
11.0157,-0.014996,0.021596,-0.001499,-0.001847,0.000253,-0.00062,-0.014417,-0.488887,0.000827,0.046546,-265.216191,-0.27303,62.275264
11.0361,-0.01498,0.021099,-0.000153,-0.001861,0.00024,-0.001044,-0.015761,-0.488403,-0.001499,-0.028457,-265.216195,-0.198027,62.275261
11.0558,-0.014746,0.020798,-0.000366,-0.001851,0.000263,-0.000389,-0.015475,-0.488606,-0.000952,-0.028457,-265.216195,-0.198027,62.275261
11.076,-0.015342,0.021161,-0.000517,-0.001842,0.000277,7.5e-05,-0.014942,-0.489201,-0.000368,0.046544,-265.216312,-0.273028,62.275134
11.096,-0.0153,0.021321,-0.002126,-0.001828,0.000287,0.000156,-0.015549,-0.48887,-0.000504,0.046544,-265.216312,-0.273028,62.275134
11.1157,-0.014632,0.021113,-0.000458,-0.001817,0.000295,0.000213,-0.015549,-0.48887,-0.000504,0.046544,-265.216312,-0.273028,62.275134
11.136,-0.015082,0.020989,0.000556,-0.001807,0.000301,0.000253,-0.014891,-0.488884,-0.000462,-0.028579,-265.216552,-0.197905,62.274895
11.1557,-0.014918,0.021143,0.000561,-0.001815,0.000288,2.5e-05,-0.014856,-0.488936,-4.3e-05,-0.028579,-265.216552,-0.197905,62.274895
11.1759,-0.015032,0.021276,-0.001511,-0.001822,0.000278,-0.000138,-0.014653,-0.488855,0.000561,-0.10357,-265.216829,-0.122915,62.274626
11.1957,-0.015139,0.021438,0.000281,-0.00181,0.000299,0.000452,-0.015701,-0.488735,-0.001326,-0.10357,-265.216829,-0.122915,62.274626
11.2157,-0.014948,0.021335,-0.000253,-0.001799,0.000311,0.000871,-0.015701,-0.488735,-0.001326,-0.10357,-265.216829,-0.122915,62.274626
11.2356,-0.015124,0.02147,-0.001123,-0.001789,0.000317,0.001168,-0.015147,-0.488654,-0.000258,-0.106123,-265.217501,-0.196473,62.273945
11.2558,-0.015092,0.021442,0.000671,-0.001791,0.000306,0.000991,-0.01538,-0.488602,-0.000612,-0.106123,-265.217501,-0.196473,62.273945
11.2761,-0.015173,0.021569,-0.00114,-0.001793,0.000298,0.000864,-0.01475,-0.488558,0.000671,-0.181116,-265.217503,-0.121481,62.273942
11.2962,-0.015422,0.021392,-0.001889,-0.00179,0.000298,0.000977,-0.015666,-0.488442,-0.000981,-0.181116,-265.217503,-0.121481,62.273942
11.3156,-0.01507,0.021453,-0.002031,-0.001787,0.000297,0.001058,-0.015666,-0.488442,-0.000981,-0.181116,-265.217503,-0.121481,62.273942
11.3361,-0.015135,0.021588,-0.000747,-0.001785,0.000296,0.001115,-0.016116,-0.488544,-0.002029,-0.256221,-265.217608,-0.046376,62.273846
11.356,-0.015008,0.021228,-0.000459,-0.001777,0.000306,0.001435,-0.015872,-0.48849,-0.001506,-0.256221,-265.217608,-0.046376,62.273846
11.3757,-0.014952,0.021479,0.00128,-0.001769,0.000311,0.001662,-0.015249,-0.488771,-0.000457,-0.331119,-265.217713,0.028523,62.273752
11.3961,-0.015159,0.021296,0.000272,-0.001798,0.000268,0.000521,-0.014381,-0.488542,0.001131,-0.331119,-265.217713,0.028523,62.273752
11.4163,-0.01509,0.020563,0.000301,-0.001824,0.000238,-0.000329,-0.014381,-0.488542,0.001131,-0.331119,-265.217713,0.028523,62.273752
11.4362,-0.015039,0.021044,-0.001038,-0.001847,0.000219,-0.000956,-0.014938,-0.489436,0.000302,-0.40621,-265.217738,0.103614,62.273731
11.4562,-0.015382,0.021247,-0.000855,-0.001834,0.000243,-0.000711,-0.015201,-0.489236,-0.000257,-0.40621,-265.217738,0.103614,62.273731
11.4758,-0.01493,0.021045,-0.00272,-0.001823,0.000261,-0.000539,-0.015818,-0.488753,-0.000855,-0.330973,-265.217738,0.028377,62.273731
11.496,-0.015468,0.021022,-0.002287,-0.001795,0.000333,0.000729,-0.016272,-0.488935,-0.002553,-0.330973,-265.217738,0.028377,62.273731
11.5159,-0.015324,0.021123,-0.00105,-0.00177,0.000375,0.001636,-0.016272,-0.488935,-0.002553,-0.330973,-265.217738,0.028377,62.273731
11.5356,-0.01533,0.021276,0.000152,-0.001748,0.000398,0.002283,-0.015861,-0.488877,-0.00105,-0.256307,-265.21775,-0.04629,62.273719
11.5558,-0.01521,0.021363,-0.002704,-0.001744,0.000375,0.001743,-0.015614,-0.488815,-0.000561,-0.256307,-265.21775,-0.04629,62.273719
11.5754,-0.015235,0.021342,-0.001662,-0.001741,0.000358,0.00136,-0.016589,-0.488635,-0.002704,-0.331313,-265.21775,0.028716,62.273719
11.5955,-0.015077,0.021122,-7.9e-05,-0.00173,0.000364,0.001722,-0.016126,-0.488655,-0.001752,-0.331313,-265.21775,0.028716,62.273719
11.6158,-0.015233,0.020953,0.000505,-0.00172,0.000367,0.001981,-0.016126,-0.488655,-0.001752,-0.331313,-265.21775,0.028716,62.273719
11.6357,-0.015052,0.021169,-0.00111,-0.001711,0.000367,0.002165,-0.014985,-0.489045,0.00051,-0.406411,-265.217857,0.103815,62.273627
11.6557,-0.015281,0.021454,-6.1e-05,-0.001719,0.000342,0.001462,-0.015252,-0.488955,-0.000171,-0.406411,-265.217857,0.103815,62.273627
11.6755,-0.015565,0.020977,-0.00023,-0.001727,0.000325,0.000955,-0.015312,-0.488546,-6.1e-05,-0.481635,-265.217863,0.179039,62.273622
11.6957,-0.015305,0.021005,-6.4e-05,-0.001723,0.000322,0.000617,-0.015651,-0.488982,-0.000216,-0.481635,-265.217863,0.179039,62.273622
11.7159,-0.015102,0.021276,0.001342,-0.001721,0.000322,0.000377,-0.015651,-0.488982,-0.000216,-0.481635,-265.217863,0.179039,62.273622
11.7355,-0.015108,0.021091,0.001786,-0.00172,0.000323,0.000206,-0.014489,-0.48871,0.001382,-0.484083,-265.218631,0.148621,62.272934
11.7556,-0.015419,0.02115,-0.001148,-0.001753,0.000286,-0.000712,-0.014378,-0.488789,0.001551,-0.484083,-265.218631,0.148621,62.272934
11.7756,-0.015301,0.021213,-0.000665,-0.001782,0.000261,-0.001396,-0.016013,-0.488848,-0.001145,-0.409153,-265.218731,0.07369,62.272837
11.7959,-0.015263,0.021035,0.000116,-0.001775,0.000286,-0.000766,-0.015673,-0.488792,-0.000708,-0.409153,-265.218731,0.07369,62.272837
11.8158,-0.015411,0.021028,-0.001067,-0.00177,0.000303,-0.000322,-0.015673,-0.488792,-0.000708,-0.409153,-265.218731,0.07369,62.272837
11.8359,-0.015565,0.020938,-0.000526,-0.001765,0.000313,-9e-06,-0.015955,-0.488972,-0.001067,-0.334158,-265.218731,-0.001305,62.272837
11.8559,-0.015174,0.020697,-0.000528,-0.001751,0.000329,0.000291,-0.015906,-0.489008,-0.000847,-0.334158,-265.218731,-0.001305,62.272837
11.8756,-0.014992,0.021247,-0.001361,-0.00174,0.000341,0.000503,-0.015466,-0.489299,-0.000525,-0.259156,-265.219016,-0.076307,62.272552
11.8959,-0.015013,0.020981,-0.001153,-0.001739,0.000344,0.000889,-0.015667,-0.488802,-0.001286,-0.259156,-265.219016,-0.076307,62.272552
11.9161,-0.014957,0.021396,-0.000373,-0.001738,0.000344,0.001162,-0.015667,-0.488802,-0.001286,-0.259156,-265.219016,-0.076307,62.272552
11.936,-0.015433,0.021201,-0.000474,-0.001737,0.000342,0.001355,-0.015207,-0.488593,-0.000357,-0.334153,-265.219621,-0.019474,62.271985
11.9557,-0.015265,0.021265,-0.00134,-0.001745,0.000326,0.001011,-0.015403,-0.488675,-0.000403,-0.334153,-265.219621,-0.019474,62.271985
11.9757,-0.015478,0.021313,-8.2e-05,-0.001751,0.000314,0.000765,-0.015953,-0.488734,-0.001338,-0.409148,-265.219692,0.055521,62.271923
11.996,-0.015658,0.021507,-0.000693,-0.001753,0.000308,0.000476,-0.015559,-0.488691,-0.000194,-0.409148,-265.219692,0.055521,62.271923
12.0161,-0.015323,0.020839,0.001377,-0.001755,0.000305,0.000268,-0.015559,-0.488691,-0.000194,-0.409148,-265.219692,0.055521,62.271923
12.0361,-0.015601,0.021347,-0.002335,-0.001757,0.000303,0.00012,-0.014693,-0.489148,0.001408,-0.419676,-265.220447,0.08733,62.271232
12.0561,-0.015669,0.021359,9.3e-05,-0.001754,0.000306,-2.4e-05,-0.015563,-0.488943,-0.000125,-0.419676,-265.220447,0.08733,62.271232
12.0756,-0.015534,0.020868,-0.000294,-0.001752,0.000309,-0.000127,-0.015634,-0.488639,9.7e-05,-0.344573,-265.220613,0.012227,62.271068
12.0959,-0.015275,0.021187,-0.001259,-0.001745,0.000319,-0.000126,-0.01568,-0.489089,-0.00026,-0.344573,-265.220613,0.012227,62.271068
12.1159,-0.015721,0.021332,-0.000498,-0.001739,0.000327,-0.000126,-0.01568,-0.489089,-0.00026,-0.344573,-265.220613,0.012227,62.271068
12.1359,-0.015375,0.021017,-0.000665,-0.001734,0.000333,-0.000125,-0.01599,-0.488666,-0.000496,-0.269568,-265.220758,-0.062778,62.270921
12.1559,-0.016062,0.021379,-0.00211,-0.001731,0.00034,4.5e-05,-0.015878,-0.488796,-0.000565,-0.269568,-265.220758,-0.062778,62.270921
12.1757,-0.015521,0.021465,0.00119,-0.001728,0.000344,0.000166,-0.017166,-0.488615,-0.002109,-0.194568,-265.221105,-0.137778,62.270568
12.1956,-0.015643,0.021514,-0.000934,-0.001748,0.000318,-0.000503,-0.015109,-0.488541,0.000906,-0.194568,-265.221105,-0.137778,62.270568
12.2155,-0.015579,0.02123,0.000114,-0.001766,0.000302,-0.000994,-0.015109,-0.488541,0.000906,-0.194568,-265.221105,-0.137778,62.270568
12.2363,-0.015712,0.0213,-0.002019,-0.00178,0.00029,-0.001352,-0.015589,-0.488756,0.00012,-0.252476,-265.221782,-0.139487,62.269906
12.256,-0.016,0.021061,0.000474,-0.001766,0.000318,-0.000718,-0.016065,-0.488731,-0.000748,-0.252476,-265.221782,-0.139487,62.269906
12.2757,-0.015805,0.021095,-0.000229,-0.001754,0.000336,-0.000269,-0.015758,-0.488939,0.000474,-0.177431,-265.221782,-0.214532,62.269906
12.2956,-0.015358,0.021242,-0.001135,-0.001745,0.000343,-0.000279,-0.015907,-0.488908,-0.000165,-0.177431,-265.221782,-0.214532,62.269906
12.3157,-0.015463,0.021479,-0.000469,-0.001738,0.000349,-0.000286,-0.015907,-0.488908,-0.000165,-0.177431,-265.221782,-0.214532,62.269906
12.3357,-0.015492,0.021549,-0.001071,-0.001732,0.000354,-0.000291,-0.015764,-0.488509,-0.000478,-0.102565,-265.222379,-0.278139,62.269288
12.3556,-0.015889,0.021309,0.00028,-0.001734,0.000354,1.5e-05,-0.015883,-0.488484,-0.000721,-0.102565,-265.222379,-0.278139,62.269288
12.3757,-0.016053,0.02162,-0.000158,-0.001737,0.000352,0.000232,-0.015801,-0.48868,0.000271,-0.101334,-265.223073,-0.297836,62.268566
12.3957,-0.016149,0.021488,0.000271,-0.001734,0.000349,5.4e-05,-0.016107,-0.488406,-0.000121,-0.101334,-265.223073,-0.297836,62.268566
12.4157,-0.015568,0.020938,-0.001232,-0.001732,0.000347,-7.4e-05,-0.016107,-0.488406,-0.000121,-0.101334,-265.223073,-0.297836,62.268566
12.4361,-0.015766,0.021135,-0.000115,-0.001731,0.000346,-0.000165,-0.016223,-0.489056,-0.001232,-0.176488,-265.223337,-0.222682,62.26831
12.4562,-0.015731,0.021528,-0.000364,-0.00172,0.00036,0.000138,-0.016065,-0.488978,-0.000781,-0.176488,-265.223337,-0.222682,62.26831
12.4761,-0.016146,0.021311,-2e-06,-0.00171,0.000369,0.000354,-0.01597,-0.488461,-0.00037,-0.14069,-265.224012,-0.252613,62.26762
12.4964,-0.015879,0.021219,-0.001236,-0.001705,0.000367,9.4e-05,-0.016134,-0.488668,-3.5e-05,-0.14069,-265.224012,-0.252613,62.26762
12.5163,-0.016014,0.021187,0.0012,-0.001701,0.000367,-9.2e-05,-0.016134,-0.488668,-3.5e-05,-0.14069,-265.224012,-0.252613,62.26762
12.5362,-0.016094,0.021412,-0.001494,-0.001698,0.000368,-0.000225,-0.015429,-0.488808,0.001201,-0.215692,-265.224278,-0.17761,62.267368
12.5563,-0.015433,0.021436,-0.000171,-0.001698,0.000366,-0.000398,-0.016012,-0.488718,0.000106,-0.215692,-265.224278,-0.17761,62.267368
12.5757,-0.016344,0.021466,0.000398,-0.001699,0.000365,-0.000522,-0.015561,-0.488556,-0.000175,-0.140693,-265.224783,-0.25261,62.266845
12.5959,-0.016277,0.02144,0.00133,-0.001699,0.000363,-0.000739,-0.016091,-0.488535,0.000346,-0.140693,-265.224783,-0.25261,62.266845
12.6162,-0.016246,0.021582,-0.000534,-0.001699,0.000363,-0.000894,-0.016091,-0.488535,0.000346,-0.140693,-265.224783,-0.25261,62.266845
12.636,-0.01601,0.021308,-0.001295,-0.0017,0.000364,-0.001007,-0.016563,-0.488409,-0.000545,-0.065688,-265.225204,-0.327614,62.266392
12.6559,-0.016255,0.021475,0.000356,-0.001688,0.000386,-0.000425,-0.01661,-0.488519,-0.000842,-0.065688,-265.225204,-0.327614,62.266392
12.6754,-0.01624,0.021371,-7.6e-05,-0.001679,0.000399,-1.2e-05,-0.016088,-0.488521,0.000351,0.009307,-265.225384,-0.40261,62.266186
12.6956,-0.016457,0.021435,0.000904,-0.001677,0.000396,-0.000168,-0.016263,-0.488619,-3.8e-05,0.009307,-265.225384,-0.40261,62.266186
12.7158,-0.016066,0.021256,0.000123,-0.001676,0.000394,-0.000279,-0.016263,-0.488619,-3.8e-05,0.009307,-265.225384,-0.40261,62.266186
12.7358,-0.016307,0.0217,-0.000461,-0.001675,0.000393,-0.000358,-0.016022,-0.488741,0.000119,-0.065694,-265.225563,-0.327609,62.266007
12.7558,-0.01617,0.021442,0.000225,-0.001677,0.00039,-0.000367,-0.016242,-0.488555,-0.000125,-0.065694,-265.225563,-0.327609,62.266007
12.7755,-0.016091,0.021064,0.000763,-0.001679,0.000388,-0.000373,-0.016107,-0.488546,0.000214,-0.103552,-265.226212,-0.349951,62.265319
12.7959,-0.016207,0.021689,-0.001711,-0.001684,0.00038,-0.000814,-0.01574,-0.488902,0.000715,-0.103552,-265.226212,-0.349951,62.265319
12.816,-0.01641,0.021309,-0.001146,-0.001688,0.000375,-0.001133,-0.01574,-0.488902,0.000715,-0.103552,-265.226212,-0.349951,62.265319
12.8356,-0.016343,0.021678,0.000405,-0.001691,0.000372,-0.001365,-0.017065,-0.488674,-0.001162,-0.095177,-265.226885,-0.351937,62.264605
12.8556,-0.016532,0.021288,-0.000161,-0.001679,0.000393,-0.000854,-0.016695,-0.488529,-0.000526,-0.095177,-265.226885,-0.351937,62.264605
12.8758,-0.016438,0.02138,-0.001437,-0.001669,0.000408,-0.000492,-0.016616,-0.488711,-0.000162,-0.020272,-265.226911,-0.426842,62.264575
12.8963,-0.016166,0.021292,0.000589,-0.001651,0.000437,0.000202,-0.017123,-0.488627,-0.001328,-0.020272,-265.226911,-0.426842,62.264575
12.916,-0.016354,0.021684,0.000762,-0.001635,0.000454,0.000695,-0.017123,-0.488627,-0.001328,-0.020272,-265.226911,-0.426842,62.264575
12.936,-0.016319,0.021545,-0.001346,-0.00162,0.000464,0.001045,-0.016032,-0.488299,0.000742,-0.064146,-265.227552,-0.401123,62.26388
12.956,-0.016294,0.021384,0.000161,-0.001627,0.000443,0.000628,-0.016436,-0.48836,-0.000109,-0.064146,-265.227552,-0.401123,62.26388
12.976,-0.016547,0.021232,-0.002557,-0.001633,0.000428,0.00033,-0.016212,-0.488616,0.000161,-0.139031,-265.227552,-0.326238,62.26388
12.9956,-0.016474,0.0214,-0.000363,-0.001605,0.000479,0.001256,-0.017705,-0.488753,-0.002314,-0.139031,-265.227552,-0.326238,62.26388
13.0165,-0.015988,0.021616,0.00047,-0.00158,0.00051,0.001916,-0.017705,-0.488753,-0.002314,-0.139031,-265.227552,-0.326238,62.26388
13.0356,-0.016585,0.021432,-0.00072,-0.001558,0.000529,0.002385,-0.015765,-0.48838,0.00047,-0.214021,-265.227722,-0.251248,62.263719
13.0557,-0.016179,0.021218,0.000671,-0.001576,0.000486,0.001539,-0.016255,-0.488457,-2e-05,-0.214021,-265.227722,-0.251248,62.263719
13.0755,-0.016474,0.0216,9.9e-05,-0.001591,0.000454,0.000929,-0.015836,-0.488782,0.000671,-0.289161,-265.227722,-0.176108,62.263719
13.0956,-0.01603,0.021415,-0.001287,-0.001602,0.000433,0.000404,-0.016375,-0.488432,0.000147,-0.289161,-265.227722,-0.176108,62.263719
13.116,-0.016612,0.021392,-0.000114,-0.001612,0.000418,2.7e-05,-0.016375,-0.488432,0.000147,-0.289161,-265.227722,-0.176108,62.263719
13.1356,-0.01615,0.021625,-0.000952,-0.001621,0.000407,-0.000244,-0.016678,-0.488606,-0.000113,-0.364229,-265.2278,-0.10104,62.263654
13.1559,-0.016542,0.021426,0.001315,-0.001621,0.000411,-0.000106,-0.016662,-0.488512,-0.000454,-0.364229,-265.2278,-0.10104,62.263654
13.1761,-0.0165,0.021445,-0.000178,-0.001622,0.000414,-6e-06,-0.015883,-0.488571,0.001316,-0.289406,-265.227942,-0.175863,62.263506
13.196,-0.016849,0.021253,2.1e-05,-0.001624,0.00041,-0.000162,-0.016528,-0.488556,-4.4e-05,-0.289406,-265.227942,-0.175863,62.263506
13.2158,-0.016382,0.02151,0.000407,-0.001627,0.000409,-0.000273,-0.016528,-0.488556,-4.4e-05,-0.289406,-265.227942,-0.175863,62.263506
13.2356,-0.016716,0.021372,5.8e-05,-0.001629,0.000408,-0.000352,-0.016235,-0.488474,0.000407,-0.247728,-265.228535,-0.250851,62.262913
13.2563,-0.016443,0.021626,-0.000301,-0.001633,0.000403,-0.000574,-0.016426,-0.488535,0.000265,-0.247728,-265.228535,-0.250851,62.262913
13.2755,-0.016117,0.021277,-5.5e-05,-0.001637,0.000401,-0.000734,-0.016629,-0.488366,-0.000305,-0.1727,-265.22894,-0.325878,62.262481
13.2957,-0.016649,0.021627,0.000234,-0.001643,0.0004,-0.000663,-0.01619,-0.48869,-7.8e-05,-0.1727,-265.22894,-0.325878,62.262481
13.3159,-0.016175,0.021829,0.000383,-0.001649,0.000398,-0.000612,-0.01619,-0.48869,-7.8e-05,-0.1727,-265.22894,-0.325878,62.262481
13.3356,-0.01622,0.021449,2e-05,-0.001654,0.000397,-0.000575,-0.016005,-0.488165,0.000376,-0.097712,-265.229174,-0.400866,62.262218
13.3562,-0.016658,0.021426,-0.000211,-0.001667,0.000385,-0.000718,-0.016091,-0.488321,0.000231,-0.097712,-265.229174,-0.400866,62.262218
13.376,-0.016453,0.021949,0.000598,-0.001678,0.000376,-0.00082,-0.016815,-0.488562,-0.000228,-0.027547,-265.229782,-0.424582,62.261551
13.3958,-0.016629,0.02173,-0.00074,-0.001687,0.000368,-0.001043,-0.016215,-0.4881,0.000518,-0.027547,-265.229782,-0.424582,62.261551
13.416,-0.016196,0.021693,-0.000131,-0.001695,0.000362,-0.001203,-0.016215,-0.4881,0.000518,-0.027547,-265.229782,-0.424582,62.261551
13.4357,-0.016872,0.021457,0.001457,-0.001702,0.000358,-0.001319,-0.016319,-0.488293,-0.000157,0.047659,-265.230322,-0.481767,62.260943
13.4559,-0.016583,0.021631,-0.000944,-0.001702,0.00036,-0.001392,-0.016248,-0.488393,0.000499,0.047659,-265.230322,-0.481767,62.260943
13.4754,-0.016545,0.021623,0.000554,-0.001702,0.000363,-0.001444,-0.017086,-0.488364,-0.000957,0.122565,-265.230599,-0.556673,62.260619
13.4959,-0.016273,0.021575,-0.001429,-0.001701,0.000367,-0.00144,-0.016337,-0.488375,0.000418,0.122565,-265.230599,-0.556673,62.260619
13.5158,-0.016613,0.021852,-0.00195,-0.0017,0.000371,-0.001437,-0.016337,-0.488375,0.000418,0.122565,-265.230599,-0.556673,62.260619
13.536,-0.01666,0.021623,-0.00146,-0.001699,0.000374,-0.001434,-0.017648,-0.488137,-0.00198,0.197436,-265.231001,-0.631544,62.260143
13.5566,-0.016893,0.021592,-0.000191,-0.001674,0.000431,-0.000257,-0.017552,-0.488234,-0.001769,0.197436,-265.231001,-0.631544,62.260143
13.5759,-0.016677,0.022053,-0.001052,-0.001653,0.000464,0.000582,-0.017037,-0.488397,-0.00023,0.272592,-265.231626,-0.634325,62.259399
13.5963,-0.016945,0.021395,-0.001645,-0.001645,0.00046,0.000778,-0.017202,-0.487979,-0.000993,0.272592,-265.231626,-0.634325,62.259399
13.6161,-0.016887,0.021595,-0.001297,-0.001638,0.000455,0.000919,-0.017202,-0.487979,-0.000993,0.272592,-265.231626,-0.634325,62.259399
13.6356,-0.016945,0.021271,-0.000135,-0.001632,0.000451,0.00102,-0.017548,-0.488405,-0.001297,0.197246,-265.231626,-0.558979,62.259399
13.656,-0.016852,0.021588,-0.000427,-0.001614,0.000458,0.000992,-0.017323,-0.488542,-0.000807,0.197246,-265.231626,-0.558979,62.259399
13.676,-0.016957,0.021418,0.000104,-0.001599,0.000464,0.000973,-0.01707,-0.488412,-0.000427,0.122366,-265.231626,-0.484099,62.259399
13.696,-0.017005,0.021393,-0.002209,-0.001595,0.000456,0.000489,-0.016918,-0.488567,5.9e-05,0.122366,-265.231626,-0.484099,62.259399
13.716,-0.016829,0.021709,-0.000583,-0.001592,0.000451,0.00014,-0.016918,-0.488567,5.9e-05,0.122366,-265.231626,-0.484099,62.259399
13.7356,-0.017096,0.021822,-0.000507,-0.00159,0.000449,-0.000111,-0.017126,-0.488291,-0.000583,0.047609,-265.231626,-0.409342,62.259399
13.7564,-0.016383,0.021871,-0.00171,-0.001588,0.000453,4.8e-05,-0.017219,-0.488245,-0.000552,0.047609,-265.231626,-0.409342,62.259399
13.776,-0.016974,0.021453,-9e-06,-0.001586,0.000456,0.000161,-0.017268,-0.488126,-0.001713,-0.027258,-265.23178,-0.334475,62.259241
13.7959,-0.016613,0.021929,-0.001509,-0.001585,0.000454,2.5e-05,-0.017005,-0.488509,-0.000162,-0.027258,-265.23178,-0.334475,62.259241
13.8167,-0.016519,0.021699,-0.0001,-0.001584,0.000454,-7.2e-05,-0.017005,-0.488509,-0.000162,-0.027258,-265.23178,-0.334475,62.259241
13.8357,-0.016841,0.021595,-0.00108,-0.001583,0.000454,-0.000141,-0.016582,-0.488298,-0.000101,-0.102257,-265.231897,-0.259476,62.259127
13.8559,-0.016848,0.021967,-0.0004,-0.001587,0.000453,1e-05,-0.016931,-0.488344,-0.000522,-0.102257,-265.231897,-0.259476,62.259127
13.8758,-0.016767,0.021554,3.6e-05,-0.00159,0.000451,0.000117,-0.017088,-0.488024,-0.000405,-0.17796,-265.23236,-0.328711,62.258651
13.8958,-0.017016,0.021483,-0.00046,-0.001595,0.000443,-9.4e-05,-0.01678,-0.48841,-2e-06,-0.17796,-265.23236,-0.328711,62.258651
13.9162,-0.017159,0.021324,-0.001846,-0.001599,0.000438,-0.000245,-0.01678,-0.48841,-2e-06,-0.17796,-265.23236,-0.328711,62.258651
13.9361,-0.017196,0.021585,-0.001831,-0.001603,0.000434,-0.000354,-0.018143,-0.488664,-0.001846,-0.252403,-265.232784,-0.254268,62.258237
13.9557,-0.016929,0.021654,-0.001522,-0.001574,0.000487,0.000553,-0.018143,-0.488562,-0.00184,-0.252403,-265.232784,-0.254268,62.258237
13.9758,-0.017007,0.021517,-0.000953,-0.001548,0.00052,0.001198,-0.017737,-0.488337,-0.001526,-0.177554,-265.233179,-0.329117,62.257815
13.9959,-0.017014,0.021504,-0.002339,-0.00154,0.000517,0.001222,-0.017515,-0.48847,-0.001002,-0.177554,-265.233179,-0.329117,62.257815
14.016,-0.016913,0.021454,0.00037,-0.001533,0.000514,0.00124,-0.017515,-0.48847,-0.001002,-0.177554,-265.233179,-0.329117,62.257815
14.0358,-0.017049,0.021274,0.000242,-0.001527,0.000512,0.001254,-0.016724,-0.488546,0.00037,-0.252686,-265.233179,-0.253985,62.257815
14.0559,-0.016994,0.021672,-0.002926,-0.001535,0.000491,0.000563,-0.016812,-0.488624,0.000315,-0.252686,-265.233179,-0.253985,62.257815
14.0757,-0.016758,0.021845,0.001021,-0.001543,0.000477,6.1e-05,-0.018487,-0.488326,-0.002926,-0.328305,-265.233181,-0.178366,62.257813
14.0958,-0.017295,0.021428,-0.000321,-0.001566,0.00045,-0.000476,-0.016438,-0.48817,0.000669,-0.328305,-265.233181,-0.178366,62.257813
14.1159,-0.01681,0.021339,0.000402,-0.001586,0.000432,-0.000867,-0.016438,-0.48817,0.000669,-0.328305,-265.233181,-0.178366,62.257813
14.1359,-0.017141,0.021637,-0.001106,-0.001602,0.000418,-0.00115,-0.016661,-0.488645,0.000405,-0.321575,-265.233737,-0.25262,62.257265
14.1559,-0.017273,0.021664,0.00074,-0.001596,0.000434,-0.000877,-0.017098,-0.488527,-0.000218,-0.321575,-265.233737,-0.25262,62.257265
14.1757,-0.017122,0.021525,-0.00028,-0.001592,0.000446,-0.000683,-0.016896,-0.488336,0.00074,-0.246373,-265.233738,-0.327822,62.257263
14.1956,-0.017171,0.021667,-0.000602,-0.001586,0.000455,-0.000562,-0.017231,-0.488463,-0.000188,-0.246373,-265.233738,-0.327822,62.257263
14.2159,-0.016996,0.021593,-0.001247,-0.001581,0.000463,-0.000476,-0.017231,-0.488463,-0.000188,-0.246373,-265.233738,-0.327822,62.257263
14.2361,-0.017299,0.021544,-0.000698,-0.001577,0.000468,-0.000415,-0.01765,-0.488401,-0.001251,-0.171582,-265.233911,-0.402613,62.257066
14.256,-0.01697,0.021313,-0.001055,-0.001564,0.000488,9.7e-05,-0.017654,-0.488422,-0.001026,-0.171582,-265.233911,-0.402613,62.257066
14.2758,-0.016928,0.021826,-0.001445,-0.001553,0.0005,0.000461,-0.017557,-0.488673,-0.001068,-0.135421,-265.234528,-0.429032,62.256395
14.2961,-0.017268,0.021717,-0.000882,-0.001548,0.000508,0.000922,-0.017657,-0.488218,-0.001412,-0.135421,-265.234528,-0.429032,62.256395
14.3159,-0.017207,0.021669,-0.000474,-0.001542,0.000512,0.00125,-0.017657,-0.488218,-0.001412,-0.135421,-265.234528,-0.429032,62.256395
14.3361,-0.017029,0.021666,0.000228,-0.001536,0.000512,0.001482,-0.017451,-0.48833,-0.000474,-0.210405,-265.234558,-0.354048,62.256368
14.3563,-0.017042,0.021849,-0.000693,-0.001538,0.000496,0.000984,-0.017229,-0.488332,-0.000184,-0.210405,-265.234558,-0.354048,62.256368
14.3757,-0.017128,0.021842,4.1e-05,-0.001541,0.000484,0.000626,-0.017395,-0.488151,-0.000693,-0.285518,-265.234558,-0.278935,62.256368
14.3961,-0.017196,0.021807,-0.000256,-0.001548,0.000471,0.000283,-0.017133,-0.488158,-2.5e-05,-0.285518,-265.234558,-0.278935,62.256368
14.4163,-0.017076,0.021538,-0.000627,-0.001555,0.000462,3.7e-05,-0.017133,-0.488158,-2.5e-05,-0.285518,-265.234558,-0.278935,62.256368
14.4361,-0.017351,0.021575,-0.001892,-0.001562,0.000455,-0.000139,-0.01741,-0.488458,-0.000625,-0.360396,-265.234706,-0.204057,62.256238
14.4562,-0.017215,0.021376,0.000361,-0.001548,0.000479,0.000353,-0.017778,-0.488444,-0.001137,-0.360396,-265.234706,-0.204057,62.256238
14.476,-0.017082,0.022059,-0.001038,-0.001535,0.000495,0.000702,-0.017061,-0.488615,0.000361,-0.285393,-265.235086,-0.27906,62.255848
14.4962,-0.017099,0.021806,-0.000144,-0.001537,0.000491,0.000825,-0.017563,-0.488001,-0.000912,-0.285393,-265.235086,-0.27906,62.255848
14.5162,-0.017217,0.021532,-0.001042,-0.001539,0.000487,0.000912,-0.017563,-0.488001,-0.000912,-0.285393,-265.235086,-0.27906,62.255848
14.5359,-0.016945,0.02203,-0.000692,-0.00154,0.000484,0.000975,-0.017759,-0.488465,-0.001041,-0.360383,-265.235187,-0.20407,62.255761
14.5558,-0.017402,0.02163,-0.000639,-0.001535,0.000485,0.001012,-0.017571,-0.488262,-0.000898,-0.360383,-265.235187,-0.20407,62.255761
14.5761,-0.016967,0.021621,0.000973,-0.001532,0.000486,0.001039,-0.017734,-0.488368,-0.000638,-0.435603,-265.235265,-0.12885,62.255696
14.5957,-0.01754,0.021707,-0.0022,-0.001549,0.000459,0.000171,-0.016576,-0.488377,0.000839,-0.435603,-265.235265,-0.12885,62.255696
14.6157,-0.017329,0.022133,-0.000581,-0.001564,0.000441,-0.000468,-0.016576,-0.488377,0.000839,-0.435603,-265.235265,-0.12885,62.255696
14.6357,-0.016957,0.021716,-0.001953,-0.001577,0.00043,-0.000936,-0.017641,-0.487861,-0.000574,-0.510571,-265.235445,-0.053882,62.255551
14.6559,-0.017315,0.021711,-0.000256,-0.001568,0.000459,-0.000212,-0.01777,-0.488033,-0.001135,-0.510571,-265.235445,-0.053882,62.255551
14.6764,-0.01718,0.021829,-0.000465,-0.001561,0.000475,0.000301,-0.017445,-0.488289,-0.000256,-0.435755,-265.235445,-0.128698,62.255551
14.6962,-0.017541,0.02184,-0.000974,-0.00156,0.000475,0.000284,-0.017419,-0.488182,-0.000446,-0.435755,-265.235445,-0.128698,62.255551
14.7162,-0.017511,0.021404,-0.000774,-0.001559,0.000474,0.000272,-0.017419,-0.488182,-0.000446,-0.435755,-265.235445,-0.128698,62.255551
14.7362,-0.017314,0.021812,-0.000293,-0.001558,0.000474,0.000264,-0.017967,-0.488577,-0.000763,-0.399659,-265.236076,-0.184394,62.254959
14.7559,-0.017321,0.021526,0.000296,-0.001545,0.000486,0.000328,-0.017769,-0.488417,-0.00057,-0.399659,-265.236076,-0.184394,62.254959
14.7757,-0.017645,0.021803,-0.001542,-0.001534,0.000496,0.000373,-0.01722,-0.488459,0.000304,-0.387054,-265.236745,-0.198111,62.254327
14.7956,-0.017092,0.021584,-0.001335,-0.001517,0.000519,0.000843,-0.018324,-0.488219,-0.001374,-0.387054,-265.236745,-0.198111,62.254327
14.8161,-0.017126,0.021519,-0.000342,-0.001502,0.000534,0.001176,-0.018324,-0.488219,-0.001374,-0.387054,-265.236745,-0.198111,62.254327
