mach0312/omni-docking-bench/src/icros_test_setup/results/MPPI_sample/timeseries/trial_097.csv
t,x,y,yaw,vx,vy,wz,bl_x,bl_y,bl_yaw,front_steering_joint,front_wheel_joint,rear_steering_joint,rear_wheel_joint
0.0,-0.035328,0.028359,0.063731,-0.012598,0.001428,0.016358,-0.000813,-0.48096,0.063695,-0.7363,-263.305835,0.596966,67.639412
0.0005,-0.035948,0.028003,0.065397,-0.007996,0.000906,0.010382,-0.000813,-0.48096,0.063695,-0.7363,-263.31284,0.596966,67.633136
0.0008,-0.036306,0.028515,0.064848,-0.007063,0.0008,0.00917,-0.001699,-0.480745,0.063651,-0.7363,-263.319398,0.596966,67.627261
0.0013,-0.036665,0.027977,0.064013,-0.006059,0.000687,0.007867,-0.001699,-0.480745,0.063651,-0.7363,-263.325004,0.596966,67.622238
0.0016,-0.036893,0.027965,0.064941,-0.004986,0.000565,0.006474,-0.001659,-0.480644,0.063844,-0.7363,-263.329793,0.596966,67.617948
0.0019,-0.036388,0.02823,0.067249,-0.003845,0.000436,0.004992,-0.001659,-0.480644,0.063844,-0.7363,-263.333059,0.596966,67.615022
0.0022,-0.036718,0.028009,0.064901,-0.002634,0.000298,0.003419,-0.001636,-0.48063,0.065447,-0.7363,-263.335135,0.596966,67.613162
0.0024,-0.037345,0.028412,0.06556,-0.001353,0.000153,0.001757,-0.002888,-0.481318,0.063903,-0.7363,-263.335135,0.596966,67.613162
0.0027,-0.037736,0.028082,0.066331,-2e-06,0.0,3e-06,-0.002888,-0.481318,0.063903,-0.7363,-263.335135,0.596966,67.613162
0.0029,-0.037699,0.028009,0.067377,0.0,0.0,0.0,-0.002888,-0.481318,0.063903,-0.7363,-263.335135,0.596966,67.613162
0.0156,-0.037795,0.027949,0.066164,0.0,0.0,0.0,-0.00395,-0.480769,0.066284,-0.7363,-263.335135,0.596966,67.613162
0.0355,-0.03752,0.028172,0.066411,0.0,0.0,0.0,-0.004076,-0.480935,0.066164,-0.7363,-263.335136,0.596966,67.613161
0.0557,-0.037723,0.027896,0.065476,0.0,0.0,0.0,-0.003911,-0.48084,0.066266,-0.7363,-263.335136,0.596966,67.613161
0.0758,-0.037674,0.028395,0.066383,0.0,0.0,0.0,-0.004354,-0.481011,0.065476,-0.7363,-263.335136,0.596966,67.613161
0.0956,-0.037815,0.028345,0.065186,0.0,0.0,0.0,-0.003886,-0.480526,0.066307,-0.7363,-263.335136,0.596966,67.613161
0.116,-0.037417,0.027987,0.066453,-0.002005,-0.005242,-0.005631,-0.003886,-0.480526,0.066307,-0.7363,-263.335136,0.596966,67.613161
0.1354,-0.037137,0.028167,0.065653,-0.002179,-0.00571,-0.006013,-0.003551,-0.480887,0.066453,-0.7363,-263.335136,0.596966,67.613161
0.1555,-0.037445,0.028282,0.066988,-0.002336,-0.006106,-0.006506,-0.003603,-0.480824,0.066123,-0.7363,-263.335136,0.596966,67.613161
0.1754,-0.037387,0.028386,0.066884,-0.002467,-0.00644,-0.006869,-0.003307,-0.480574,0.066988,-0.661383,-263.335137,0.671883,67.613161
0.1955,-0.037748,0.028129,0.066021,-0.002592,-0.006725,-0.007329,-0.003302,-0.480482,0.066893,-0.661383,-263.335137,0.671883,67.613161
0.2157,-0.037744,0.028399,0.067415,-0.002698,-0.006966,-0.007673,-0.003302,-0.480482,0.066893,-0.661383,-263.335137,0.671883,67.613161
0.2357,-0.037586,0.028432,0.064889,-0.002786,-0.00717,-0.007931,-0.003389,-0.480442,0.067415,-0.586319,-263.335137,0.738247,67.613161
0.2555,-0.037193,0.028309,0.065907,-0.002844,-0.007342,-0.008294,-0.003853,-0.480464,0.066375,-0.586319,-263.335137,0.738247,67.613161
0.2756,-0.03751,0.028043,0.067374,-0.002893,-0.007488,-0.00857,-0.003605,-0.480583,0.065907,-0.511326,-263.335138,0.695773,67.61316
0.2957,-0.037612,0.028251,0.067226,-0.002957,-0.007613,-0.008915,-0.003214,-0.48078,0.067241,-0.511326,-263.335138,0.695773,67.61316
0.3159,-0.037517,0.027976,0.067349,-0.00301,-0.007719,-0.009184,-0.003214,-0.48078,0.067241,-0.511326,-263.335138,0.695773,67.61316
0.3355,-0.037632,0.028475,0.066826,-0.003055,-0.007808,-0.009391,-0.003195,-0.480868,0.067349,-0.436348,-263.335138,0.661806,67.61316
0.3557,-0.037619,0.028077,0.066834,-0.00309,-0.007884,-0.009658,-0.003352,-0.480671,0.067135,-0.436348,-263.335138,0.661806,67.61316
0.3757,-0.038118,0.028297,0.066863,-0.003119,-0.007947,-0.009867,-0.003559,-0.480784,0.066834,-0.361267,-263.335139,0.596154,67.61316
0.396,-0.037403,0.028427,0.066074,-0.003126,-0.007999,-0.010115,-0.004002,-0.480582,0.066861,-0.361267,-263.335139,0.596154,67.61316
0.4157,-0.037468,0.02798,0.065315,-0.003131,-0.008043,-0.01031,-0.004002,-0.480582,0.066861,-0.361267,-263.335139,0.596154,67.61316
0.4356,-0.037746,0.028092,0.064819,-0.003136,-0.00808,-0.010463,-0.004181,-0.480932,0.065315,-0.286318,-263.335139,0.551926,67.61316
0.4559,-0.037632,0.0285,0.066304,-0.003123,-0.00811,-0.010672,-0.004397,-0.480893,0.065113,-0.286318,-263.335139,0.551926,67.61316
0.4753,-0.037854,0.027961,0.066046,-0.003112,-0.008135,-0.010837,-0.003842,-0.48038,0.066304,-0.211491,-263.33514,0.494324,67.61316
0.4957,-0.037518,0.027812,0.066263,-0.003112,-0.008157,-0.010966,-0.004163,-0.480877,0.066069,-0.211491,-263.33514,0.494324,67.61316
0.5155,-0.037557,0.028283,0.067381,-0.003112,-0.008175,-0.011067,-0.004163,-0.480877,0.066069,-0.211491,-263.33514,0.494324,67.61316
0.5359,-0.037464,0.028074,0.066161,-0.003112,-0.008191,-0.011147,-0.003219,-0.48056,0.067381,-0.136486,-263.33514,0.453262,67.61316
0.556,-0.037728,0.028119,0.065413,-0.003138,-0.008208,-0.011208,-0.003437,-0.480663,0.066877,-0.136486,-263.33514,0.453262,67.61316
0.5754,-0.037673,0.028164,0.067199,-0.003159,-0.008222,-0.011256,-0.004391,-0.48079,0.065413,-0.061252,-263.335141,0.418353,67.61316
0.5954,-0.037329,0.028043,0.064563,-0.003175,-0.008233,-0.011294,-0.003514,-0.480694,0.067038,-0.061252,-263.335141,0.418353,67.61316
0.6155,-0.037803,0.028028,0.067197,-0.003188,-0.008243,-0.011325,-0.003514,-0.480694,0.067038,-0.061252,-263.335141,0.418353,67.61316
0.6357,-0.037736,0.028245,0.066831,-0.0032,-0.008251,-0.011349,-0.003559,-0.480821,0.067197,0.013545,-263.335142,0.403023,67.613159
0.6559,-0.037362,0.028183,0.064881,-0.003206,-0.008258,-0.011369,-0.003608,-0.480736,0.067045,0.013545,-263.335142,0.403023,67.613159
0.6761,-0.037444,0.028194,0.066056,-0.003211,-0.008264,-0.011385,-0.004296,-0.480744,0.064881,0.088677,-263.335142,0.39113,67.613159
0.6962,-0.037371,0.028346,0.06495,-0.003207,-0.008268,-0.011398,-0.003829,-0.480699,0.065944,0.088677,-263.335142,0.39113,67.613159
0.716,-0.037676,0.02813,0.065788,-0.003204,-0.008272,-0.011409,-0.003829,-0.480699,0.065944,0.088677,-263.335142,0.39113,67.613159
0.7359,-0.037592,0.028449,0.067058,-0.003202,-0.008275,-0.011417,-0.004149,-0.480767,0.065788,0.163713,-263.335143,0.387473,67.613159
0.7555,-0.037531,0.028346,0.066852,-0.0032,-0.008278,-0.011424,-0.003846,-0.480617,0.066313,0.163713,-263.335143,0.387473,67.613159
0.7756,-0.037391,0.028501,0.065806,-0.003198,-0.008281,-0.011429,-0.003462,-0.480514,0.066852,0.238693,-263.335143,0.38631,67.613159
0.7957,-0.037768,0.028248,0.065849,-0.003198,-0.008283,-0.011433,-0.003821,-0.480405,0.065894,0.238693,-263.335143,0.38631,67.613159
0.8157,-0.03709,0.028223,0.066589,-0.003198,-0.008286,-0.011436,-0.003821,-0.480405,0.065894,0.238693,-263.335143,0.38631,67.613159
0.8359,-0.037611,0.028107,0.066762,-0.003198,-0.008287,-0.011439,-0.003155,-0.480647,0.066589,0.313758,-263.335144,0.38626,67.613159
0.8558,-0.037624,0.02841,0.06569,-0.003214,-0.008291,-0.01144,-0.003328,-0.480691,0.066658,0.313758,-263.335144,0.38626,67.613159
0.876,-0.037568,0.028036,0.067487,-0.003227,-0.008293,-0.011441,-0.004146,-0.48049,0.06569,0.38849,-263.335145,0.386378,67.613159
0.8968,-0.037525,0.028208,0.064848,-0.003241,-0.008295,-0.011442,-0.003265,-0.480775,0.067323,0.38849,-263.335145,0.386378,67.613159
0.9158,-0.037949,0.028265,0.067468,-0.003253,-0.008297,-0.011443,-0.003265,-0.480775,0.067323,0.38849,-263.335145,0.386378,67.613159
0.9359,-0.037693,0.028029,0.067258,-0.003262,-0.008299,-0.011443,-0.003567,-0.480575,0.067468,0.463515,-263.335145,0.38441,67.613159
0.956,-0.037253,0.028153,0.066877,-0.003263,-0.0083,-0.011445,-0.003506,-0.480674,0.067382,0.463515,-263.335145,0.38441,67.613159
0.9758,-0.037758,0.028535,0.06753,-0.003264,-0.0083,-0.011446,-0.003171,-0.480707,0.066877,0.538514,-263.335146,0.381827,67.613159
0.9963,-0.037836,0.028326,0.067305,-0.003271,-0.008302,-0.011446,-0.003328,-0.480338,0.067472,0.538514,-263.335146,0.381827,67.613159
1.0156,-0.037631,0.028166,0.065824,-0.003278,-0.008303,-0.011447,-0.003328,-0.480338,0.067472,0.538514,-263.335146,0.381827,67.613159
1.0355,-0.037547,0.028125,0.068404,-0.003284,-0.008304,-0.011447,-0.004085,-0.480729,0.065824,0.613516,-263.335147,0.381647,67.613158
1.0559,-0.037168,0.027985,0.068228,-0.00328,-0.008304,-0.011448,-0.003515,-0.48071,0.066876,0.613516,-263.335147,0.381647,67.613158
1.0758,-0.037771,0.028313,0.065295,-0.003277,-0.008304,-0.011449,-0.002399,-0.480828,0.068228,0.688632,-263.335147,0.380223,67.613158
1.096,-0.037553,0.028189,0.068812,-0.003247,-0.008301,-0.011452,-0.004319,-0.480619,0.06554,0.688632,-263.335147,0.380223,67.613158
1.1162,-0.03785,0.028352,0.067155,-0.003222,-0.008299,-0.011454,-0.004319,-0.480619,0.06554,0.688632,-263.335147,0.380223,67.613158
1.136,-0.037442,0.027987,0.065966,-0.003201,-0.008297,-0.011455,-0.003627,-0.480498,0.067155,0.763702,-263.335151,0.380593,67.613157
1.1557,-0.037625,0.028365,0.066022,-0.003204,-0.008298,-0.011454,-0.003706,-0.480662,0.066675,0.763702,-263.335151,0.380593,67.613157
1.1761,-0.03777,0.028264,0.066274,-0.003207,-0.008299,-0.011453,-0.003979,-0.480524,0.066021,0.838514,-263.335164,0.386059,67.613154
1.1961,-0.037279,0.027978,0.06765,-0.003199,-0.008298,-0.011453,-0.003994,-0.480608,0.066251,0.838514,-263.335164,0.386059,67.613154
1.2163,-0.037953,0.028256,0.066249,-0.003193,-0.008298,-0.011453,-0.003994,-0.480608,0.066251,0.838514,-263.335164,0.386059,67.613154
1.2361,-0.037693,0.02801,0.065846,-0.003188,-0.008298,-0.011453,-0.004193,-0.480628,0.066245,0.913519,-263.335225,0.386173,67.613141
1.2558,-0.037361,0.028063,0.068024,-0.003177,-0.008297,-0.011454,-0.00417,-0.480733,0.066082,0.913519,-263.335225,0.386173,67.613141
1.2753,-0.037682,0.028243,0.067138,-0.003168,-0.008297,-0.011454,-0.002701,-0.480766,0.068013,0.988552,-263.335439,0.387993,67.613094
1.296,-0.03779,0.027709,0.067582,-0.003187,-0.008299,-0.011452,-0.003411,-0.48062,0.067201,0.988552,-263.335439,0.387993,67.613094
1.3159,-0.03769,0.028054,0.067302,-0.003203,-0.008301,-0.011451,-0.003411,-0.48062,0.067201,0.988552,-263.335439,0.387993,67.613094
1.3357,-0.03757,0.02826,0.066339,-0.003216,-0.008302,-0.01145,-0.003412,-0.480822,0.067262,1.064034,-263.336036,0.389702,67.612963
1.3558,-0.037581,0.028467,0.065708,-0.003222,-0.008302,-0.01145,-0.003558,-0.480742,0.066878,1.064034,-263.336036,0.389702,67.612963
1.3753,-0.037302,0.028144,0.065398,-0.003227,-0.008303,-0.01145,-0.004127,-0.480492,0.06563,1.138648,-263.337493,0.386544,67.612639
1.396,-0.03788,0.028169,0.066594,-0.003215,-0.008302,-0.011451,-0.003987,-0.480746,0.065414,1.138648,-263.337493,0.386544,67.612639
1.4159,-0.037302,0.028067,0.065984,-0.003205,-0.008301,-0.011452,-0.003987,-0.480746,0.065414,1.138648,-263.337493,0.386544,67.612639
1.4356,-0.037376,0.027944,0.066719,-0.003197,-0.0083,-0.011452,-0.003745,-0.480976,0.065781,1.213739,-263.340267,0.385695,67.612021
1.4559,-0.037483,0.027725,0.065613,-0.003202,-0.008301,-0.011452,-0.003601,-0.480971,0.066144,1.213739,-263.340267,0.385695,67.612021
1.4761,-0.037423,0.027722,0.065737,-0.003207,-0.008301,-0.011451,-0.004116,-0.481362,0.065366,1.288647,-263.344601,0.38771,67.611063
1.4959,-0.037404,0.027608,0.064471,-0.003198,-0.0083,-0.01156,-0.003941,-0.481201,0.065693,1.288647,-263.344601,0.38771,67.611063
1.5162,-0.037407,0.027656,0.063968,-0.00319,-0.008299,-0.011647,-0.003941,-0.481201,0.065693,1.288647,-263.344601,0.38771,67.611063
1.5361,-0.037282,0.027174,0.065354,-0.003184,-0.008297,-0.011715,-0.004908,-0.481624,0.063531,1.363671,-263.3503,0.387062,67.6098
1.5555,-0.037167,0.027421,0.064324,-0.003153,-0.008293,-0.011831,-0.004538,-0.481708,0.064227,1.363671,-263.3503,0.387062,67.6098
1.576,-0.037222,0.026681,0.065707,-0.003128,-0.008289,-0.011923,-0.004466,-0.481787,0.063962,1.36761,-263.356445,0.344463,67.608483
1.5959,-0.037152,0.026968,0.063088,-0.003128,-0.008287,-0.012048,-0.003798,-0.482196,0.06555,1.36761,-263.356445,0.344463,67.608483
1.6159,-0.037109,0.026537,0.065069,-0.003129,-0.008286,-0.01215,-0.003798,-0.482196,0.06555,1.36761,-263.356445,0.344463,67.608483
1.6356,-0.036812,0.026202,0.063905,-0.003129,-0.008284,-0.012231,-0.004053,-0.482731,0.064581,1.372544,-263.362662,0.311338,67.607197
1.6556,-0.036874,0.026739,0.063252,-0.003111,-0.00828,-0.01235,-0.004142,-0.482781,0.06425,1.372544,-263.362662,0.311338,67.607197
1.6758,-0.036694,0.026088,0.064265,-0.003096,-0.008276,-0.012447,-0.004715,-0.482497,0.062882,1.374759,-263.368773,0.254447,67.605967
1.6957,-0.037255,0.025951,0.063659,-0.003087,-0.008273,-0.012572,-0.004011,-0.482841,0.064129,1.374759,-263.368773,0.254447,67.605967
1.7159,-0.037177,0.025907,0.063673,-0.003079,-0.00827,-0.012675,-0.004011,-0.482841,0.064129,1.374759,-263.368773,0.254447,67.605967
1.7359,-0.036917,0.025546,0.062412,-0.003072,-0.008267,-0.012757,-0.00483,-0.483403,0.063166,1.378211,-263.375078,0.214447,67.604732
1.7561,-0.036628,0.025369,0.062294,-0.003026,-0.008258,-0.012874,-0.004956,-0.483467,0.062797,1.378211,-263.375078,0.214447,67.604732
1.7762,-0.036438,0.025247,0.060997,-0.002987,-0.008251,-0.012968,-0.004955,-0.483895,0.061912,1.381765,-263.381239,0.153568,67.60356
1.7961,-0.036549,0.025303,0.062646,-0.002936,-0.008241,-0.013086,-0.005319,-0.483824,0.061056,1.381765,-263.381239,0.153568,67.60356
1.8159,-0.03631,0.024999,0.063122,-0.002892,-0.008232,-0.013182,-0.005319,-0.483824,0.061056,1.381765,-263.381239,0.153568,67.60356
1.8358,-0.036516,0.024395,0.06139,-0.002856,-0.008225,-0.01326,-0.004239,-0.484326,0.062597,1.388142,-263.387616,0.110218,67.602395
1.8558,-0.036189,0.025004,0.060009,-0.002845,-0.008222,-0.013357,-0.004657,-0.484496,0.062039,1.388142,-263.387616,0.110218,67.602395
1.8758,-0.036236,0.024994,0.060701,-0.002835,-0.008219,-0.013436,-0.005672,-0.484327,0.059617,1.397612,-263.393795,0.044296,67.601329
1.8959,-0.03633,0.02449,0.059846,-0.002803,-0.008212,-0.013532,-0.005332,-0.484101,0.060591,1.397612,-263.393795,0.044296,67.601329
1.9159,-0.035888,0.024625,0.06058,-0.002775,-0.008206,-0.01361,-0.005332,-0.484101,0.060591,1.397612,-263.393795,0.044296,67.601329
1.9357,-0.035751,0.023798,0.060395,-0.002752,-0.008201,-0.013673,-0.005106,-0.484781,0.060033,1.399877,-263.400289,0.004563,67.600225
1.956,-0.036235,0.024164,0.061482,-0.002734,-0.008196,-0.013746,-0.00506,-0.485022,0.060119,1.399877,-263.400289,0.004563,67.600225
1.9757,-0.035934,0.024086,0.0592,-0.002719,-0.008192,-0.013806,-0.004966,-0.485124,0.06107,1.406052,-263.406636,-0.054518,67.599182
1.9957,-0.035657,0.02391,0.059974,-0.002681,-0.008183,-0.013869,-0.005695,-0.485042,0.059342,1.406052,-263.406636,-0.054518,67.599182
2.0158,-0.03554,0.023694,0.059215,-0.002649,-0.008176,-0.013921,-0.005695,-0.485042,0.059342,1.406052,-263.406636,-0.054518,67.599182
2.0356,-0.035311,0.023562,0.057431,-0.002622,-0.008169,-0.013964,-0.00545,-0.485753,0.058649,1.408671,-263.413253,-0.088083,67.59811
2.0558,-0.035682,0.023345,0.059926,-0.002591,-0.008162,-0.014006,-0.005704,-0.485729,0.058079,1.408671,-263.413253,-0.088083,67.59811
2.0757,-0.035161,0.0229,0.057634,-0.002565,-0.008156,-0.014041,-0.005203,-0.485994,0.059498,1.415063,-263.419765,-0.136104,67.59709
2.0958,-0.034807,0.022901,0.05825,-0.002536,-0.008149,-0.014075,-0.005738,-0.486244,0.057771,1.415063,-263.419765,-0.136104,67.59709
2.1158,-0.03507,0.023025,0.058275,-0.002512,-0.008143,-0.014102,-0.005738,-0.486244,0.057771,1.415063,-263.419765,-0.136104,67.59709
2.1355,-0.034924,0.022374,0.057334,-0.002492,-0.008138,-0.014125,-0.005453,-0.486452,0.057695,1.418692,-263.426486,-0.162312,67.596058
2.1556,-0.034688,0.022782,0.057434,-0.002477,-0.008134,-0.014148,-0.005568,-0.486634,0.057475,1.418692,-263.426486,-0.162312,67.596058
2.1758,-0.034533,0.022442,0.056458,-0.002465,-0.00813,-0.014167,-0.005475,-0.486634,0.056995,1.423242,-263.433126,-0.193884,67.595063
2.1954,-0.034749,0.022224,0.055194,-0.002446,-0.008125,-0.014188,-0.005734,-0.486749,0.056483,1.423242,-263.433126,-0.193884,67.595063
2.2159,-0.034763,0.022209,0.056826,-0.00243,-0.008121,-0.014206,-0.005734,-0.486749,0.056483,1.423242,-263.433126,-0.193884,67.595063
2.2359,-0.034571,0.021673,0.057756,-0.002417,-0.008118,-0.01422,-0.00588,-0.487312,0.056236,1.424948,-263.439878,-0.208721,67.594061
2.2558,-0.034415,0.021579,0.056491,-0.002405,-0.008114,-0.014236,-0.005585,-0.487418,0.056787,1.424948,-263.439878,-0.208721,67.594061
2.2755,-0.034274,0.021499,0.05597,-0.002394,-0.008111,-0.01425,-0.005682,-0.487868,0.056042,1.42796,-263.446617,-0.230549,67.593075
2.2956,-0.034044,0.021534,0.054994,-0.002375,-0.008106,-0.014266,-0.005742,-0.48773,0.055953,1.42796,-263.446617,-0.230549,67.593075
2.3156,-0.033849,0.021513,0.056527,-0.002359,-0.008102,-0.014279,-0.005742,-0.48773,0.055953,1.42796,-263.446617,-0.230549,67.593075
2.3355,-0.033911,0.021119,0.054909,-0.002345,-0.008098,-0.01429,-0.005116,-0.488017,0.055932,1.429345,-263.453395,-0.242201,67.592091
2.3558,-0.033758,0.021436,0.055452,-0.002341,-0.008097,-0.014302,-0.005454,-0.488096,0.055446,1.429345,-263.453395,-0.242201,67.592091
2.3756,-0.033654,0.020626,0.05287,-0.002338,-0.008095,-0.014312,-0.005552,-0.488039,0.055,1.432311,-263.460146,-0.262283,67.591126
2.3964,-0.033333,0.020649,0.054302,-0.002278,-0.008079,-0.014329,-0.006602,-0.488619,0.053038,1.432311,-263.460146,-0.262283,67.591126
2.4158,-0.033764,0.020692,0.054662,-0.002227,-0.008066,-0.014343,-0.006602,-0.488619,0.053038,1.432311,-263.460146,-0.262283,67.591126
2.4355,-0.033191,0.020432,0.053896,-0.002184,-0.008054,-0.014353,-0.00598,-0.48889,0.054063,1.432798,-263.466939,-0.269416,67.590156
2.4557,-0.032951,0.020365,0.053863,-0.002177,-0.008053,-0.014362,-0.005882,-0.488904,0.053926,1.432798,-263.466939,-0.269416,67.590156
2.4759,-0.032963,0.02014,0.053033,-0.00217,-0.008051,-0.014368,-0.005548,-0.489147,0.053421,1.441674,-263.473505,-0.315097,67.589267
2.496,-0.03345,0.020069,0.053584,-0.00216,-0.008049,-0.014376,-0.005899,-0.489156,0.053045,1.441674,-263.473505,-0.315097,67.589267
2.5158,-0.033199,0.020261,0.053289,-0.002152,-0.008046,-0.014383,-0.005899,-0.489156,0.053045,1.441674,-263.473505,-0.315097,67.589267
2.5356,-0.032818,0.019433,0.051715,-0.002145,-0.008045,-0.014388,-0.006108,-0.489355,0.052689,1.442514,-263.480281,-0.321999,67.588353
2.5557,-0.032812,0.019768,0.051274,-0.002116,-0.008036,-0.014396,-0.006259,-0.489612,0.05222,1.442514,-263.480281,-0.321999,67.588353
2.5753,-0.032511,0.018848,0.049899,-0.002092,-0.00803,-0.014402,-0.006729,-0.489821,0.050817,1.444048,-263.487056,-0.333455,67.587447
2.5961,-0.032371,0.01874,0.051411,-0.002021,-0.008008,-0.014414,-0.007047,-0.49047,0.049955,1.444048,-263.487056,-0.333455,67.587447
2.6158,-0.032263,0.019397,0.051967,-0.001962,-0.00799,-0.014422,-0.007047,-0.49047,0.049955,1.444048,-263.487056,-0.333455,67.587447
2.6356,-0.031879,0.018579,0.050774,-0.001912,-0.007975,-0.014428,-0.005841,-0.490252,0.051368,1.447115,-263.493793,-0.351336,67.586562
2.6556,-0.032235,0.018609,0.048868,-0.001924,-0.007979,-0.014429,-0.005911,-0.490498,0.051059,1.447115,-263.493793,-0.351336,67.586562
2.6753,-0.032221,0.018288,0.048739,-0.001933,-0.007982,-0.01443,-0.007368,-0.491023,0.048436,1.457386,-263.500167,-0.412782,67.585774
2.6956,-0.031922,0.018337,0.048268,-0.001861,-0.007959,-0.014437,-0.007375,-0.491111,0.048695,1.457386,-263.500167,-0.412782,67.585774
2.7158,-0.031478,0.018529,0.049147,-0.001801,-0.007939,-0.014442,-0.007375,-0.491111,0.048695,1.457386,-263.500167,-0.412782,67.585774
2.7356,-0.031747,0.017809,0.048729,-0.001751,-0.007924,-0.014446,-0.006487,-0.491191,0.048547,1.456207,-263.506911,-0.405954,67.584935
2.7554,-0.031358,0.01818,0.047487,-0.001737,-0.00792,-0.014446,-0.006667,-0.491393,0.048552,1.456207,-263.506911,-0.405954,67.584935
2.7758,-0.031112,0.017611,0.049483,-0.001725,-0.007917,-0.014446,-0.007189,-0.49148,0.047062,1.466589,-263.51314,-0.474232,67.584207
2.7954,-0.031005,0.01795,0.048959,-0.001742,-0.007923,-0.014442,-0.006005,-0.491751,0.049243,1.466589,-263.51314,-0.474232,67.584207
2.8158,-0.031278,0.017872,0.048474,-0.001757,-0.007928,-0.014439,-0.006005,-0.491751,0.049243,1.466589,-263.51314,-0.474232,67.584207
2.8359,-0.031101,0.017245,0.047553,-0.001768,-0.007931,-0.014437,-0.006622,-0.491863,0.047871,1.468085,-263.519862,-0.483448,67.583428
2.8558,-0.031059,0.017277,0.049254,-0.001736,-0.007921,-0.014439,-0.006725,-0.492031,0.047671,1.468085,-263.519862,-0.483448,67.583428
2.8758,-0.030763,0.017024,0.047318,-0.00171,-0.007912,-0.014441,-0.005993,-0.492358,0.048797,1.465613,-263.52656,-0.464476,67.582642
2.8959,-0.030504,0.016752,0.047322,-0.001687,-0.007904,-0.014442,-0.006585,-0.492414,0.047425,1.465613,-263.52656,-0.464476,67.582642
2.9155,-0.030515,0.017129,0.047736,-0.001669,-0.007898,-0.014443,-0.006585,-0.492414,0.047425,1.465613,-263.52656,-0.464476,67.582642
2.9358,-0.030458,0.016775,0.046173,-0.001653,-0.007892,-0.014443,-0.006234,-0.492621,0.047138,1.468949,-263.533225,-0.488124,67.581875
2.9559,-0.03062,0.016384,0.045063,-0.001638,-0.007887,-0.014444,-0.006519,-0.492684,0.046675,1.468949,-263.533225,-0.488124,67.581875
2.976,-0.030227,0.016137,0.04593,-0.001625,-0.007882,-0.014444,-0.007687,-0.493349,0.044607,1.472209,-263.539881,-0.51199,67.581123
2.9957,-0.030219,0.015808,0.046447,-0.001581,-0.007866,-0.014448,-0.006904,-0.493343,0.045768,1.472209,-263.539881,-0.51199,67.581123
3.0156,-0.030531,0.01633,0.044937,-0.001544,-0.007852,-0.014451,-0.006904,-0.493343,0.045768,1.472209,-263.539881,-0.51199,67.581123
3.0355,-0.029869,0.015946,0.044144,-0.001513,-0.007841,-0.014452,-0.007674,-0.493487,0.044334,1.473835,-263.546592,-0.524185,67.580373
3.056,-0.029862,0.0158,0.044117,-0.00145,-0.007816,-0.014457,-0.007551,-0.493555,0.044185,1.473835,-263.546592,-0.524185,67.580373
3.0759,-0.029605,0.015428,0.04359,-0.001397,-0.007795,-0.01446,-0.007405,-0.493943,0.043679,1.48026,-263.55297,-0.577631,67.579684
3.0959,-0.029591,0.015092,0.043504,-0.001348,-0.007776,-0.014461,-0.007385,-0.494086,0.043576,1.48026,-263.55297,-0.577631,67.579684
3.1159,-0.029531,0.015296,0.043874,-0.001308,-0.00776,-0.014462,-0.007385,-0.494086,0.043576,1.48026,-263.55297,-0.577631,67.579684
3.1361,-0.0292,0.015108,0.044163,-0.001274,-0.007747,-0.014462,-0.007204,-0.494522,0.043304,1.486982,-263.559265,-0.638407,67.579028
3.1557,-0.029581,0.014842,0.041162,-0.001257,-0.00774,-0.014459,-0.006996,-0.494506,0.043589,1.486982,-263.559265,-0.638407,67.579028
3.1757,-0.028916,0.014543,0.04434,-0.001242,-0.007734,-0.014456,-0.008622,-0.494956,0.040734,1.494075,-263.56545,-0.705609,67.578405
3.1958,-0.028965,0.014548,0.043914,-0.001245,-0.007735,-0.014452,-0.006509,-0.494967,0.044011,1.494075,-263.56545,-0.705609,67.578405
3.2157,-0.029193,0.014559,0.041805,-0.001248,-0.007736,-0.014449,-0.006509,-0.494967,0.044011,1.494075,-263.56545,-0.705609,67.578405
3.2361,-0.028416,0.014749,0.041971,-0.001251,-0.007736,-0.014446,-0.007917,-0.495319,0.041204,1.495948,-263.57206,-0.722547,67.577746
3.2561,-0.029237,0.013927,0.042297,-0.00119,-0.007709,-0.014449,-0.007552,-0.495144,0.041449,1.495948,-263.57206,-0.722547,67.577746
3.2753,-0.028509,0.013929,0.042351,-0.00114,-0.007687,-0.014451,-0.007701,-0.495864,0.041838,1.495408,-263.578705,-0.715221,67.577083
3.2964,-0.028152,0.014272,0.0413,-0.001116,-0.007676,-0.014453,-0.006983,-0.495647,0.042287,1.495408,-263.578705,-0.715221,67.577083
3.316,-0.028117,0.013984,0.041224,-0.001096,-0.007667,-0.014454,-0.006983,-0.495647,0.042287,1.495408,-263.578705,-0.715221,67.577083
3.336,-0.027982,0.013717,0.041806,-0.00108,-0.00766,-0.014455,-0.007131,-0.495881,0.040665,1.501848,-263.584811,-0.784809,67.576489
3.3559,-0.028013,0.013518,0.041726,-0.00106,-0.007651,-0.014454,-0.006948,-0.495898,0.04106,1.501848,-263.584811,-0.784809,67.576489
3.3756,-0.027545,0.013191,0.039133,-0.001044,-0.007643,-0.014452,-0.006762,-0.496278,0.041276,1.505397,-263.591253,-0.824801,67.575869
3.396,-0.027827,0.013407,0.038879,-0.000983,-0.007613,-0.014455,-0.007519,-0.496418,0.039302,1.505397,-263.591253,-0.824801,67.575869
3.4159,-0.027773,0.013353,0.040291,-0.000933,-0.007588,-0.014456,-0.007519,-0.496418,0.039302,1.505397,-263.591253,-0.824801,67.575869
3.436,-0.026732,0.01285,0.039709,-0.000891,-0.007568,-0.014456,-0.007261,-0.496552,0.039691,1.507487,-263.597808,-0.847926,67.575242
3.4563,-0.027043,0.012898,0.03999,-0.000881,-0.007563,-0.014454,-0.006945,-0.49667,0.039629,1.507487,-263.597808,-0.847926,67.575242
3.4758,-0.026873,0.013013,0.036966,-0.000873,-0.007559,-0.014452,-0.00667,-0.496895,0.039609,1.51651,-263.603255,-0.92305,67.57473
3.4961,-0.027069,0.012307,0.038731,-0.000812,-0.007528,-0.01445,-0.00791,-0.49667,0.037172,1.51651,-263.603255,-0.92305,67.57473
3.516,-0.027225,0.012195,0.038005,-0.000761,-0.007502,-0.014447,-0.00791,-0.49667,0.037172,1.51651,-263.603255,-0.92305,67.57473
3.5356,-0.026405,0.01211,0.036873,-0.000719,-0.007481,-0.014444,-0.007871,-0.497744,0.037418,1.517586,-263.609609,-0.96771,67.574134
3.5559,-0.02669,0.012068,0.039242,-0.000658,-0.007447,-0.014443,-0.007765,-0.497698,0.037129,1.517586,-263.609609,-0.96771,67.574134
3.5757,-0.026049,0.011856,0.036551,-0.000608,-0.00742,-0.014441,-0.006693,-0.497735,0.038866,1.526728,-263.614964,-1.042665,67.573635
3.5957,-0.026549,0.01188,0.036748,-0.000586,-0.007407,-0.014433,-0.007352,-0.497807,0.036728,1.526728,-263.614964,-1.042665,67.573635
3.6159,-0.026021,0.011819,0.037715,-0.000567,-0.007397,-0.014425,-0.007352,-0.497807,0.036728,1.526728,-263.614964,-1.042665,67.573635
3.6357,-0.025899,0.011741,0.036761,-0.000552,-0.007389,-0.014419,-0.006803,-0.498066,0.037235,1.533354,-263.620151,-1.117713,67.573147
3.6559,-0.02613,0.011472,0.036198,-0.000558,-0.007392,-0.014407,-0.00695,-0.498032,0.036984,1.533354,-263.620151,-1.117713,67.573147
3.6759,-0.026055,0.011446,0.03591,-0.000564,-0.007394,-0.014397,-0.007681,-0.498405,0.035786,1.536736,-263.625972,-1.192669,67.572601
3.6956,-0.025925,0.011367,0.037062,-0.000514,-0.007365,-0.014393,-0.00774,-0.498251,0.035879,1.536736,-263.625972,-1.192669,67.572601
3.7159,-0.025706,0.011199,0.036159,-0.000474,-0.007341,-0.014389,-0.00774,-0.498251,0.035879,1.536736,-263.625972,-1.192669,67.572601
3.7359,-0.025601,0.010859,0.035912,-0.00044,-0.007322,-0.014385,-0.007281,-0.498777,0.035557,1.53598,-263.63245,-1.187679,67.571998
3.7556,-0.025344,0.011044,0.03531,-0.000416,-0.007307,-0.014381,-0.007286,-0.498828,0.035634,1.53598,-263.63245,-1.187679,67.571998
3.7754,-0.025455,0.010859,0.035678,-0.000397,-0.007294,-0.014377,-0.007345,-0.498842,0.034911,1.543501,-263.638076,-1.262699,67.571464
3.7953,-0.025386,0.010537,0.033904,-0.000381,-0.007284,-0.014369,-0.007271,-0.498829,0.035591,1.543501,-263.638076,-1.262699,67.571464
3.8153,-0.024718,0.010738,0.034914,-0.000369,-0.007276,-0.014362,-0.007271,-0.498829,0.035591,1.543501,-263.638076,-1.262699,67.571464
3.8356,-0.025015,0.010172,0.034355,-0.000359,-0.00727,-0.014357,-0.006921,-0.499246,0.034334,1.546135,-263.644279,-1.310107,67.570871
3.8559,-0.02506,0.010395,0.033979,-0.000334,-0.007253,-0.014355,-0.007156,-0.499394,0.034276,1.546135,-263.644279,-1.310107,67.570871
3.8757,-0.025228,0.009805,0.033808,-0.000313,-0.007239,-0.014352,-0.007738,-0.49954,0.033526,1.548438,-263.650628,-1.335904,67.570261
3.8958,-0.02474,0.009923,0.033066,-0.00023,-0.007182,-0.014357,-0.007967,-0.499883,0.03376,1.548438,-263.650628,-1.335904,67.570261
3.9154,-0.024106,0.010053,0.031727,-0.000161,-0.007135,-0.01436,-0.007967,-0.499883,0.03376,1.548438,-263.650628,-1.335904,67.570261
3.9355,-0.024201,0.009648,0.033866,-0.000104,-0.007097,-0.014361,-0.007932,-0.499988,0.031137,1.551219,-263.656923,-1.368403,67.569648
3.9557,-0.024408,0.009415,0.033232,-7.3e-05,-0.007076,-0.014359,-0.007523,-0.500052,0.032185,1.551219,-263.656923,-1.368403,67.569648
3.9755,-0.023721,0.009188,0.032077,-4.8e-05,-0.007058,-0.014357,-0.007461,-0.500468,0.032899,1.56423,-263.661538,-1.443424,67.56916
3.9958,-0.02412,0.009544,0.031876,-1.4e-05,-0.007033,-0.014353,-0.007373,-0.500551,0.032134,1.56423,-263.661538,-1.443424,67.56916
4.0159,-0.02391,0.009572,0.03013,1.4e-05,-0.007012,-0.014349,-0.007373,-0.500551,0.032134,1.56423,-263.661538,-1.443424,67.56916
4.0354,-0.023401,0.008857,0.03173,3.7e-05,-0.006995,-0.014345,-0.008541,-0.500449,0.029616,1.567766,-263.666941,-1.518365,67.568576
4.0554,-0.0238,0.009174,0.032649,9.7e-05,-0.00695,-0.014342,-0.008006,-0.500655,0.030413,1.567766,-263.666941,-1.518365,67.568576
4.0759,-0.023297,0.008953,0.031133,0.000147,-0.006914,-0.014339,-0.007145,-0.500758,0.03223,1.573127,-263.672733,-1.591588,67.567926
4.0959,-0.023324,0.008753,0.03028,0.00016,-0.006903,-0.014335,-0.007397,-0.500806,0.031207,1.573127,-263.672733,-1.591588,67.567926
4.1157,-0.02309,0.009074,0.030296,0.000171,-0.006895,-0.014332,-0.007397,-0.500806,0.031207,1.573127,-263.672733,-1.591588,67.567926
4.1356,-0.022752,0.008394,0.030529,0.00018,-0.006887,-0.014329,-0.007628,-0.500965,0.02973,1.580159,-263.678651,-1.650218,67.567228
4.1561,-0.023055,0.008236,0.031069,0.000208,-0.006865,-0.014333,-0.007446,-0.50116,0.029989,1.580159,-263.678651,-1.650218,67.567228
4.1757,-0.021907,0.008168,0.029102,0.000231,-0.006846,-0.014336,-0.0072,-0.501738,0.030612,1.582292,-263.684879,-1.666944,67.566482
4.196,-0.022441,0.007876,0.029207,0.000251,-0.006826,-0.014342,-0.007078,-0.501638,0.029214,1.582292,-263.684879,-1.666944,67.566482
4.2162,-0.022242,0.008147,0.030361,0.000268,-0.00681,-0.014346,-0.007078,-0.501638,0.029214,1.582292,-263.684879,-1.666944,67.566482
4.2356,-0.022114,0.007698,0.027446,0.000282,-0.006797,-0.014349,-0.006742,-0.501903,0.029764,1.585583,-263.691062,-1.69101,67.56572
4.2557,-0.022097,0.007921,0.028349,0.000326,-0.006758,-0.014354,-0.007293,-0.502018,0.028764,1.585583,-263.691062,-1.69101,67.56572
4.2759,-0.02149,0.007296,0.028439,0.000362,-0.006727,-0.014358,-0.007626,-0.502089,0.027895,1.588944,-263.697231,-1.713391,67.564932
4.2958,-0.021836,0.007633,0.028254,0.000401,-0.00669,-0.014366,-0.007044,-0.502472,0.028367,1.588944,-263.697231,-1.713391,67.564932
4.316,-0.021653,0.007481,0.029761,0.000433,-0.006659,-0.014371,-0.007044,-0.502472,0.028367,1.588944,-263.697231,-1.713391,67.564932
4.3357,-0.021485,0.007326,0.028102,0.000459,-0.006634,-0.014375,-0.006477,-0.502293,0.029761,1.594174,-263.697232,-1.638452,67.564932
4.3559,-0.021904,0.007024,0.028787,0.000453,-0.006635,-0.014344,-0.006751,-0.502365,0.02909,1.594174,-263.697232,-1.638452,67.564932
4.3758,-0.021461,0.007734,0.027313,0.000449,-0.006636,-0.014319,-0.007225,-0.502764,0.028787,1.600567,-263.697233,-1.563443,67.564932
4.3959,-0.021701,0.00734,0.028432,0.000479,-0.006613,-0.014263,-0.007505,-0.502138,0.027447,1.600567,-263.697233,-1.563443,67.564932
4.4156,-0.021579,0.007754,0.02839,0.000503,-0.006593,-0.014216,-0.007505,-0.502138,0.027447,1.600567,-263.697233,-1.563443,67.564932
4.436,-0.021533,0.007259,0.028401,0.000523,-0.006578,-0.014178,-0.007102,-0.50204,0.02839,1.599964,-263.697233,-1.488441,67.564932
4.4559,-0.021861,0.007683,0.026904,0.000517,-0.006583,-0.014101,-0.007081,-0.502241,0.028394,1.599964,-263.697233,-1.488441,67.564932
4.4754,-0.021389,0.007416,0.029264,0.000512,-0.006587,-0.014038,-0.008141,-0.502132,0.026904,1.605118,-263.697234,-1.413447,67.564932
4.4958,-0.021935,0.007116,0.026777,0.000481,-0.006609,-0.013948,-0.006617,-0.502345,0.029052,1.605118,-263.697234,-1.413447,67.564932
4.5157,-0.021749,0.007622,0.027021,0.000455,-0.006627,-0.013875,-0.006617,-0.502345,0.029052,1.605118,-263.697234,-1.413447,67.564932
4.5356,-0.02166,0.00708,0.028145,0.000434,-0.006643,-0.013817,-0.007971,-0.502191,0.02702,1.604547,-263.697234,-1.338439,67.564932
4.5556,-0.021598,0.007546,0.029589,0.000485,-0.006602,-0.013729,-0.0077,-0.502407,0.02748,1.604547,-263.697234,-1.338439,67.564932
4.5756,-0.02162,0.007544,0.027193,0.000527,-0.006568,-0.013656,-0.00651,-0.502231,0.029589,1.599563,-263.697235,-1.263452,67.564932
4.596,-0.021377,0.007184,0.02747,0.00055,-0.006552,-0.013541,-0.007655,-0.502265,0.027383,1.599563,-263.697235,-1.263452,67.564932
4.6161,-0.021529,0.007159,0.027704,0.000569,-0.00654,-0.013446,-0.007655,-0.502265,0.027383,1.599563,-263.697235,-1.263452,67.564932
4.6358,-0.021845,0.007939,0.028553,0.000584,-0.00653,-0.01337,-0.007402,-0.502645,0.027704,1.606118,-263.697236,-1.188136,67.564932
4.6555,-0.021553,0.007584,0.027609,0.00058,-0.006535,-0.013245,-0.007355,-0.502324,0.028049,1.606118,-263.697236,-1.188136,67.564932
4.6753,-0.021812,0.007042,0.027647,0.000576,-0.00654,-0.013145,-0.007475,-0.502221,0.027609,1.6105,-263.697236,-1.113326,67.564933
4.6954,-0.021435,0.007185,0.029584,0.000611,-0.006511,-0.012991,-0.007692,-0.502715,0.027643,1.6105,-263.697236,-1.113326,67.564933
4.7154,-0.021533,0.007122,0.028394,0.000638,-0.006487,-0.012867,-0.007692,-0.502715,0.027643,1.6105,-263.697236,-1.113326,67.564933
4.7357,-0.021855,0.007631,0.029075,0.000661,-0.006469,-0.012769,-0.007054,-0.502673,0.028394,1.610322,-263.697237,-1.038441,67.564933
4.7555,-0.022057,0.007587,0.026472,0.000624,-0.006501,-0.012594,-0.007044,-0.502459,0.028673,1.610322,-263.697237,-1.038441,67.564933
4.776,-0.021588,0.007396,0.028575,0.000593,-0.006528,-0.012456,-0.008558,-0.502234,0.026472,1.617104,-263.697237,-0.963309,67.564933
4.7961,-0.021626,0.007166,0.029079,0.000571,-0.006548,-0.012248,-0.007163,-0.50238,0.028375,1.617104,-263.697237,-0.963309,67.564933
4.816,-0.021695,0.00729,0.027298,0.000553,-0.006566,-0.012085,-0.007163,-0.50238,0.028375,1.617104,-263.697237,-0.963309,67.564933
4.8357,-0.02168,0.007704,0.027329,0.000538,-0.006581,-0.011958,-0.007775,-0.50252,0.027298,1.612727,-263.697238,-0.888437,67.564933
4.8555,-0.021602,0.007232,0.026664,0.000559,-0.006568,-0.011861,-0.007762,-0.502353,0.027311,1.612727,-263.697238,-0.888437,67.564933
4.8758,-0.021428,0.007418,0.027169,0.000576,-0.006557,-0.011785,-0.008005,-0.502587,0.026663,1.60949,-263.697239,-0.81344,67.564933
4.8959,-0.021429,0.007247,0.028022,0.000584,-0.006553,-0.011724,-0.00761,-0.50241,0.027127,1.60949,-263.697239,-0.81344,67.564933
4.9157,-0.02192,0.007202,0.027356,0.000591,-0.00655,-0.011676,-0.00761,-0.50241,0.027127,1.60949,-263.697239,-0.81344,67.564933
4.9354,-0.021851,0.007144,0.028476,0.000597,-0.006548,-0.011638,-0.00797,-0.502607,0.027356,1.61264,-263.697239,-0.738267,67.564933
4.9555,-0.021635,0.007315,0.027551,0.000617,-0.006531,-0.011609,-0.00771,-0.502624,0.027811,1.61264,-263.697239,-0.738267,67.564933
4.9753,-0.02183,0.007483,0.028087,0.000634,-0.006518,-0.011586,-0.007586,-0.502492,0.027551,1.614473,-263.69724,-0.663445,67.564933
4.9954,-0.021426,0.007462,0.028603,0.000621,-0.006531,-0.011564,-0.007514,-0.502332,0.028039,1.614473,-263.69724,-0.663445,67.564933
5.0158,-0.021575,0.007306,0.028142,0.000611,-0.006541,-0.011547,-0.007514,-0.502332,0.028039,1.614473,-263.69724,-0.663445,67.564933
5.0361,-0.021499,0.0074,0.028198,0.000602,-0.00655,-0.011534,-0.007224,-0.502492,0.028142,1.617369,-263.69724,-0.588446,67.564933
5.0557,-0.021514,0.007155,0.029952,0.000582,-0.006567,-0.011522,-0.007182,-0.502454,0.028165,1.617369,-263.69724,-0.588446,67.564933
5.0757,-0.021692,0.007517,0.028943,0.000565,-0.006581,-0.011513,-0.00624,-0.502616,0.029952,1.615068,-263.697241,-0.513442,67.564933
5.0958,-0.021822,0.007434,0.027203,0.000522,-0.006615,-0.011503,-0.006872,-0.5023,0.029032,1.615068,-263.697241,-0.513442,67.564933
5.1158,-0.021694,0.00728,0.028604,0.000488,-0.006642,-0.011496,-0.006872,-0.5023,0.029032,1.615068,-263.697241,-0.513442,67.564933
5.1356,-0.021854,0.007518,0.027573,0.000459,-0.006665,-0.011491,-0.007108,-0.502511,0.028603,1.612247,-263.697241,-0.438384,67.564933
5.1556,-0.021602,0.007153,0.028774,0.000474,-0.006653,-0.011491,-0.007387,-0.502421,0.028185,1.612247,-263.697241,-0.438384,67.564933
5.1753,-0.02155,0.007274,0.027335,0.000487,-0.006644,-0.011491,-0.00693,-0.502636,0.028774,1.604329,-263.697242,-0.363445,67.564933
5.1954,-0.021589,0.007377,0.026002,0.000513,-0.006622,-0.011492,-0.00755,-0.502544,0.027463,1.604329,-263.697242,-0.363445,67.564933
5.2158,-0.021422,0.007421,0.02886,0.000535,-0.006604,-0.011493,-0.00755,-0.502544,0.027463,1.604329,-263.697242,-0.363445,67.564933
5.2359,-0.021451,0.007566,0.027829,0.000552,-0.00659,-0.011493,-0.006705,-0.502367,0.02886,1.606397,-263.697242,-0.288389,67.564933
5.2562,-0.021676,0.007722,0.027074,0.000517,-0.006619,-0.011487,-0.006929,-0.502314,0.028444,1.606397,-263.697242,-0.288389,67.564933
5.2758,-0.021805,0.00784,0.02774,0.000488,-0.006642,-0.011483,-0.007871,-0.502091,0.027074,1.611365,-263.697243,-0.213448,67.564933
5.2957,-0.021769,0.007573,0.027437,0.000493,-0.006641,-0.011483,-0.007679,-0.501975,0.027679,1.611365,-263.697243,-0.213448,67.564933
5.3156,-0.021609,0.007643,0.029836,0.000497,-0.006641,-0.011483,-0.007679,-0.501975,0.027679,1.611365,-263.697243,-0.213448,67.564933
5.3358,-0.021773,0.007083,0.025903,0.0005,-0.006641,-0.011483,-0.006395,-0.502131,0.029836,1.606502,-263.697243,-0.138446,67.564933
5.3555,-0.021582,0.007243,0.025567,0.000499,-0.006642,-0.011482,-0.007274,-0.50238,0.028242,1.606502,-263.697243,-0.138446,67.564933
5.3756,-0.021933,0.007559,0.028758,0.000498,-0.006642,-0.011482,-0.008544,-0.50259,0.025567,1.607381,-263.697244,-0.063445,67.564933
5.3957,-0.021726,0.007778,0.027101,0.000497,-0.006643,-0.011482,-0.007383,-0.502262,0.028472,1.607381,-263.697244,-0.063445,67.564933
5.4155,-0.021883,0.007725,0.028178,0.000497,-0.006644,-0.011482,-0.007383,-0.502262,0.028472,1.607381,-263.697244,-0.063445,67.564933
5.4355,-0.021463,0.007578,0.028241,0.000497,-0.006644,-0.011482,-0.007514,-0.502072,0.028178,1.607244,-263.697246,0.011559,67.564933
5.4555,-0.022162,0.007239,0.029241,0.000487,-0.006653,-0.01148,-0.007331,-0.502131,0.028203,1.607244,-263.697246,0.011559,67.564933
5.4754,-0.022,0.007675,0.027427,0.000479,-0.00666,-0.01148,-0.007251,-0.502543,0.02924,1.607165,-263.697253,0.086558,67.564933
5.4957,-0.022092,0.007517,0.027757,0.00051,-0.006636,-0.011483,-0.007946,-0.50217,0.02759,1.607165,-263.697253,0.086558,67.564933
5.5158,-0.021505,0.007765,0.026176,0.000535,-0.006617,-0.011485,-0.007946,-0.50217,0.02759,1.607165,-263.697253,0.086558,67.564933
5.5357,-0.021813,0.00779,0.027983,0.000555,-0.006601,-0.011486,-0.008156,-0.502062,0.026173,1.605841,-263.697289,0.161605,67.564935
5.5558,-0.021682,0.007166,0.029266,0.000564,-0.006595,-0.011486,-0.007908,-0.502041,0.026907,1.605841,-263.697289,0.161605,67.564935
5.5754,-0.021575,0.007282,0.027924,0.000572,-0.00659,-0.011485,-0.006758,-0.50262,0.029258,1.611539,-263.697408,0.236557,67.564941
5.5957,-0.021743,0.007537,0.027059,0.000566,-0.006593,-0.011484,-0.007284,-0.502529,0.028041,1.611539,-263.697408,0.236557,67.564941
5.6157,-0.021655,0.00712,0.02741,0.000562,-0.006595,-0.011483,-0.007284,-0.502529,0.028041,1.611539,-263.697408,0.236557,67.564941
5.6356,-0.021561,0.007699,0.027559,0.000558,-0.006596,-0.011482,-0.007675,-0.502708,0.027377,1.612807,-263.69779,0.311617,67.564961
5.6557,-0.021667,0.007387,0.028449,0.000571,-0.006585,-0.011483,-0.007607,-0.502467,0.027447,1.612807,-263.69779,0.311617,67.564961
5.6756,-0.02183,0.007432,0.028901,0.000582,-0.006575,-0.011484,-0.007156,-0.502443,0.028388,1.611788,-263.698713,0.386596,67.565008
5.6958,-0.021435,0.007156,0.028097,0.000554,-0.006597,-0.011481,-0.007098,-0.502365,0.028851,1.611788,-263.698713,0.386596,67.565008
5.716,-0.021806,0.007074,0.027373,0.000531,-0.006615,-0.011478,-0.007098,-0.502365,0.028851,1.611788,-263.698713,0.386596,67.565008
5.7356,-0.021461,0.007199,0.02688,0.000512,-0.006629,-0.011477,-0.007837,-0.502828,0.027212,1.613567,-263.700543,0.461555,67.565106
5.7555,-0.021347,0.007058,0.026497,0.000559,-0.006588,-0.011483,-0.007802,-0.502753,0.027059,1.613567,-263.700543,0.461555,67.565106
5.7754,-0.021402,0.006884,0.027592,0.000597,-0.006554,-0.011487,-0.007822,-0.50289,0.026277,1.608332,-263.703839,0.536557,67.56526
5.7955,-0.021115,0.00706,0.026851,0.000613,-0.006538,-0.01158,-0.007375,-0.502926,0.027464,1.608332,-263.703839,0.536557,67.56526
5.8156,-0.021418,0.00704,0.027636,0.000627,-0.006524,-0.011653,-0.007375,-0.502926,0.027464,1.608332,-263.703839,0.536557,67.56526
5.8359,-0.021287,0.007048,0.026255,0.000638,-0.006512,-0.011711,-0.0073,-0.502981,0.027258,1.614738,-263.70813,0.611615,67.565499
5.8559,-0.021393,0.006938,0.024338,0.00066,-0.006491,-0.011812,-0.007544,-0.502921,0.0268,1.614738,-263.70813,0.611615,67.565499
5.8758,-0.020986,0.006223,0.026263,0.000679,-0.006472,-0.011893,-0.008966,-0.503038,0.024113,1.617441,-263.711461,0.68669,67.565719
5.8958,-0.020932,0.006592,0.024984,0.000739,-0.00641,-0.011999,-0.007709,-0.503559,0.026069,1.617441,-263.711461,0.68669,67.565719
5.9158,-0.020835,0.006544,0.02747,0.000788,-0.006359,-0.012084,-0.007709,-0.503559,0.026069,1.617441,-263.711461,0.68669,67.565719
5.9357,-0.020681,0.006408,0.026241,0.000828,-0.006317,-0.012151,-0.006804,-0.503429,0.027168,1.620191,-263.714826,0.761696,67.565974
5.9558,-0.020776,0.005979,0.02617,0.000816,-0.006323,-0.012234,-0.007007,-0.503443,0.026748,1.620191,-263.714826,0.761696,67.565974
5.9757,-0.020253,0.006336,0.027212,0.000806,-0.006328,-0.012301,-0.00741,-0.503976,0.025924,1.631014,-263.71836,0.836701,67.566328
5.996,-0.020335,0.006345,0.024972,0.000768,-0.006354,-0.012387,-0.006463,-0.503523,0.027092,1.631014,-263.71836,0.836701,67.566328
6.0161,-0.020409,0.006162,0.024292,0.000737,-0.006375,-0.012457,-0.006463,-0.503523,0.027092,1.631014,-263.71836,0.836701,67.566328
6.0355,-0.020318,0.006219,0.025741,0.000712,-0.006391,-0.012514,-0.007991,-0.503883,0.023913,1.628981,-263.722468,0.911719,67.566753
6.0554,-0.020226,0.006062,0.02376,0.000781,-0.006322,-0.012609,-0.007656,-0.503794,0.024627,1.628981,-263.722468,0.911719,67.566753
6.0753,-0.019947,0.005782,0.025017,0.000838,-0.006265,-0.012686,-0.008088,-0.503941,0.023474,1.621506,-263.726526,0.986683,67.567169
6.0959,-0.019728,0.005467,0.023774,0.00088,-0.006219,-0.012783,-0.007269,-0.504055,0.024864,1.621506,-263.726526,0.986683,67.567169
6.1157,-0.019559,0.005489,0.025647,0.000915,-0.006181,-0.012861,-0.007269,-0.504055,0.024864,1.621506,-263.726526,0.986683,67.567169
6.1356,-0.019732,0.005287,0.024566,0.000943,-0.006149,-0.012924,-0.006442,-0.504585,0.025156,1.630532,-263.731714,1.056406,67.567798
6.1556,-0.019344,0.005707,0.025004,0.000971,-0.00611,-0.013018,-0.006749,-0.504602,0.024859,1.630532,-263.731714,1.056406,67.567798
6.1755,-0.019199,0.005035,0.02351,0.000994,-0.006077,-0.013095,-0.006559,-0.504328,0.024594,1.637853,-263.737318,1.07506,67.568588
6.1961,-0.019208,0.005156,0.023694,0.001049,-0.006009,-0.013199,-0.007153,-0.504791,0.023583,1.637853,-263.737318,1.07506,67.568588
6.2156,-0.018991,0.005501,0.023256,0.001094,-0.005954,-0.013283,-0.007153,-0.504791,0.023583,1.637853,-263.737318,1.07506,67.568588
6.2354,-0.018817,0.00504,0.024938,0.001131,-0.005908,-0.01335,-0.007085,-0.504612,0.022712,1.641283,-263.742931,1.093338,67.569448
6.2556,-0.018863,0.004948,0.023004,0.00113,-0.005901,-0.013431,-0.006674,-0.504719,0.023564,1.641283,-263.742931,1.093338,67.569448
6.2757,-0.018494,0.004657,0.022815,0.00113,-0.005895,-0.013497,-0.007092,-0.505104,0.022581,1.651022,-263.748544,1.104369,67.570448
6.296,-0.018253,0.004729,0.022369,0.001174,-0.005835,-0.013575,-0.006878,-0.50521,0.022773,1.651022,-263.748544,1.104369,67.570448
6.3154,-0.018169,0.004777,0.023336,0.001209,-0.005786,-0.013638,-0.006878,-0.50521,0.022773,1.651022,-263.748544,1.104369,67.570448
6.3359,-0.018104,0.004472,0.020653,0.001238,-0.005746,-0.01369,-0.006216,-0.505328,0.022775,1.650544,-263.754187,1.122288,67.571485
6.3559,-0.017856,0.004231,0.022531,0.001267,-0.005701,-0.013745,-0.006763,-0.505393,0.021844,1.650544,-263.754187,1.122288,67.571485
6.3758,-0.017532,0.004032,0.021377,0.001291,-0.005665,-0.01379,-0.006323,-0.505821,0.022096,1.658305,-263.759853,1.128785,67.572643
6.3957,-0.017803,0.003677,0.021166,0.001331,-0.005598,-0.013849,-0.006602,-0.505858,0.021417,1.658305,-263.759853,1.128785,67.572643
6.4156,-0.017635,0.003804,0.01994,0.001363,-0.005543,-0.013897,-0.006602,-0.505858,0.021417,1.658305,-263.759853,1.128785,67.572643
6.4355,-0.017069,0.003893,0.020172,0.00139,-0.005498,-0.013935,-0.007408,-0.50633,0.019364,1.662163,-263.765499,1.13301,67.573858
6.4556,-0.016777,0.004044,0.021256,0.00146,-0.00539,-0.01399,-0.007146,-0.506224,0.019628,1.662163,-263.765499,1.13301,67.573858
6.4755,-0.017125,0.003404,0.021114,0.001518,-0.005303,-0.014034,-0.005889,-0.506015,0.020813,1.669664,-263.771122,1.138699,67.575183
6.4959,-0.017057,0.003341,0.019692,0.001533,-0.005256,-0.014081,-0.006313,-0.506449,0.021064,1.669664,-263.771122,1.138699,67.575183
6.5158,-0.016987,0.003283,0.020483,0.001544,-0.005217,-0.014119,-0.006313,-0.506449,0.021064,1.669664,-263.771122,1.138699,67.575183
6.536,-0.016249,0.003365,0.018171,0.001553,-0.005185,-0.01415,-0.006473,-0.50683,0.019897,1.67975,-263.776704,1.136091,67.576624
6.5559,-0.016607,0.003551,0.017081,0.001599,-0.005101,-0.014193,-0.006675,-0.506741,0.019119,1.67975,-263.776704,1.136091,67.576624
6.5758,-0.016044,0.002621,0.018032,0.001635,-0.005033,-0.014227,-0.007844,-0.506538,0.016633,1.682672,-263.782246,1.148516,67.578134
6.596,-0.016143,0.002962,0.017553,0.001702,-0.004901,-0.014273,-0.006936,-0.507236,0.017881,1.682672,-263.782246,1.148516,67.578134
6.6161,-0.015814,0.002622,0.018243,0.001757,-0.004794,-0.014309,-0.006936,-0.507236,0.017881,1.682672,-263.782246,1.148516,67.578134
6.6356,-0.015491,0.002381,0.016951,0.001801,-0.004707,-0.014338,-0.006438,-0.507502,0.017648,1.68939,-263.787769,1.150268,67.579735
6.6559,-0.015476,0.002732,0.01745,0.001837,-0.004612,-0.014368,-0.006597,-0.507544,0.017295,1.68939,-263.787769,1.150268,67.579735
6.6758,-0.014894,0.002274,0.018467,0.001865,-0.004535,-0.014391,-0.006517,-0.507339,0.016994,1.703772,-263.793191,1.152308,67.581504
6.6956,-0.014619,0.002162,0.017536,0.001829,-0.004517,-0.014413,-0.005563,-0.50762,0.018318,1.703772,-263.793191,1.152308,67.581504
6.7158,-0.014761,0.002373,0.01537,0.0018,-0.004501,-0.01443,-0.005563,-0.50762,0.018318,1.703772,-263.793191,1.152308,67.581504
6.7355,-0.014204,0.002274,0.016358,0.001775,-0.004487,-0.014446,-0.006842,-0.507755,0.014769,1.709883,-263.79857,1.157604,67.583361
6.7561,-0.014574,0.002369,0.016184,0.001814,-0.004412,-0.014451,-0.006429,-0.507737,0.015353,1.709883,-263.79857,1.157604,67.583361
6.7755,-0.014447,0.001971,0.01511,0.001844,-0.004351,-0.014455,-0.006263,-0.507705,0.015728,1.703407,-263.803887,1.182108,67.585216
6.7958,-0.013928,0.002001,0.014838,0.00189,-0.004259,-0.01446,-0.006698,-0.507955,0.01514,1.703407,-263.803887,1.182108,67.585216
6.8157,-0.01404,0.002176,0.015217,0.001927,-0.004185,-0.014464,-0.006698,-0.507955,0.01514,1.703407,-263.803887,1.182108,67.585216
6.8356,-0.013337,0.001633,0.014863,0.001957,-0.004126,-0.014465,-0.0062,-0.507946,0.014613,1.709839,-263.809207,1.180098,67.587152
6.8559,-0.013157,0.001732,0.014031,0.001953,-0.004084,-0.014461,-0.006009,-0.508116,0.014646,1.709839,-263.809207,1.180098,67.587152
6.8758,-0.013094,0.001676,0.012633,0.00195,-0.004051,-0.014458,-0.005937,-0.508348,0.013571,1.720643,-263.814438,1.176988,67.589187
6.896,-0.013115,0.001879,0.012209,0.001983,-0.00397,-0.014385,-0.006587,-0.508296,0.012691,1.720643,-263.814438,1.176988,67.589187
6.9158,-0.013104,0.001613,0.01454,0.002009,-0.003904,-0.014326,-0.006587,-0.508296,0.012691,1.720643,-263.814438,1.176988,67.589187
6.9359,-0.012252,0.001617,0.014545,0.002029,-0.003851,-0.01428,-0.005606,-0.508501,0.013936,1.72102,-263.819643,1.183498,67.59125
6.9555,-0.012349,0.00148,0.012268,0.00197,-0.00384,-0.014301,-0.00528,-0.50845,0.014115,1.72102,-263.819643,1.183498,67.59125
6.9754,-0.011939,0.001571,0.012299,0.001922,-0.003829,-0.014319,-0.006027,-0.508603,0.011816,1.730797,-263.824728,1.176039,67.593356
6.9956,-0.011797,0.0013,0.012369,0.001911,-0.003808,-0.014245,-0.005694,-0.508414,0.012236,1.730797,-263.824728,1.176039,67.593356
7.0154,-0.011764,0.001147,0.012375,0.001902,-0.00379,-0.014188,-0.005694,-0.508414,0.012236,1.730797,-263.824728,1.176039,67.593356
7.0356,-0.01166,0.000891,0.012251,0.001893,-0.003775,-0.014143,-0.005372,-0.508972,0.011782,1.722474,-263.829767,1.198099,67.595447
7.0555,-0.012149,0.001011,0.010834,0.001884,-0.003659,-0.01409,-0.005379,-0.509031,0.011906,1.722474,-263.829767,1.198099,67.595447
7.0754,-0.011172,0.001105,0.010536,0.001876,-0.003566,-0.014049,-0.006562,-0.509078,0.010384,1.722154,-263.83479,1.199572,67.597535
7.0955,-0.011321,0.000685,0.010672,0.001893,-0.003504,-0.013875,-0.005862,-0.508891,0.0105,1.722154,-263.83479,1.199572,67.597535
7.1156,-0.011353,0.00089,0.009684,0.001905,-0.003453,-0.013742,-0.005862,-0.508891,0.0105,1.722154,-263.83479,1.199572,67.597535
7.1357,-0.010815,0.000466,0.009187,0.001914,-0.003413,-0.01364,-0.006335,-0.509234,0.009098,1.723998,-263.839691,1.212836,67.59967
7.1557,-0.0109,0.000908,0.011631,0.001951,-0.003283,-0.01336,-0.006242,-0.509365,0.009067,1.723998,-263.839691,1.212836,67.59967
7.1753,-0.010337,0.000677,0.007994,0.001978,-0.003179,-0.013152,-0.004906,-0.509164,0.011199,1.732381,-263.844435,1.199582,67.601774
7.1956,-0.010061,0.000363,0.009131,0.001995,-0.003106,-0.012843,-0.00614,-0.5093,0.008249,1.732381,-263.844435,1.199582,67.601774
7.2159,-0.010233,0.000147,0.009138,0.002006,-0.003048,-0.012618,-0.00614,-0.5093,0.008249,1.732381,-263.844435,1.199582,67.601774
7.2356,-0.010239,0.000789,0.010297,0.002013,-0.003001,-0.012455,-0.005573,-0.509832,0.009138,1.657317,-263.844435,1.183837,67.601774
7.2555,-0.010128,0.000551,0.00994,0.001971,-0.002938,-0.01253,-0.005336,-0.50957,0.009606,1.657317,-263.844435,1.183837,67.601774
7.2757,-0.010203,0.000907,0.010332,0.001937,-0.002887,-0.012587,-0.005059,-0.509424,0.00994,1.582457,-263.844434,1.158837,67.601774
7.2955,-0.010208,0.000729,0.00991,0.001864,-0.002961,-0.012677,-0.004945,-0.509097,0.010297,1.582457,-263.844434,1.158837,67.601774
7.3158,-0.010128,0.000384,0.009325,0.001806,-0.003018,-0.012746,-0.004945,-0.509097,0.010297,1.582457,-263.844434,1.158837,67.601774
7.3358,-0.010336,0.000692,0.008894,0.001761,-0.003063,-0.012798,-0.005372,-0.509593,0.009325,1.507348,-263.844434,1.187295,67.601774
7.3555,-0.010181,0.000637,0.009914,0.001779,-0.003008,-0.01268,-0.005547,-0.509469,0.00915,1.507348,-263.844434,1.187295,67.601774
7.3756,-0.010023,0.000479,0.008735,0.001793,-0.002964,-0.012588,-0.005111,-0.509381,0.009734,1.582246,-263.846373,1.216082,67.602667
7.3957,-0.010189,0.000761,0.008708,0.001802,-0.002927,-0.01245,-0.005527,-0.509493,0.008813,1.582246,-263.846373,1.216082,67.602667
7.4156,-0.00989,0.000399,0.009966,0.001809,-0.002898,-0.012343,-0.005527,-0.509493,0.008813,1.582246,-263.846373,1.216082,67.602667
7.4358,-0.009462,0.000424,0.00751,0.001814,-0.002875,-0.01226,-0.004768,-0.509661,0.009607,1.657349,-263.849302,1.208051,67.604037
7.4559,-0.010136,0.000199,0.008434,0.00179,-0.002839,-0.012168,-0.005119,-0.50963,0.008704,1.657349,-263.849302,1.208051,67.604037
7.4758,-0.009628,8.8e-05,0.010349,0.001769,-0.00281,-0.012096,-0.005785,-0.509864,0.008088,1.732334,-263.853019,1.196118,67.605788
7.4958,-0.009282,0.000506,0.009687,0.001696,-0.002743,-0.012207,-0.004478,-0.509887,0.010126,1.732334,-263.853019,1.196118,67.605788
7.5159,-0.009963,0.000281,0.009466,0.001637,-0.002691,-0.012291,-0.004478,-0.509887,0.010126,1.732334,-263.853019,1.196118,67.605788
7.5356,-0.00906,-0.000311,0.008933,0.001591,-0.00265,-0.012354,-0.00506,-0.509813,0.00896,1.742599,-263.857157,1.201968,67.60775
7.5556,-0.009189,-0.000142,0.007224,0.001587,-0.002582,-0.012249,-0.004823,-0.510022,0.008891,1.742599,-263.857157,1.201968,67.60775
7.5758,-0.008658,-2.5e-05,0.008459,0.001583,-0.002528,-0.012168,-0.005456,-0.510208,0.006852,1.725569,-263.861071,1.256654,67.609703
7.5957,-0.00859,2.6e-05,0.006149,0.001545,-0.002485,-0.012006,-0.004441,-0.510029,0.008295,1.725569,-263.861071,1.256654,67.609703
7.6162,-0.008761,4.3e-05,0.006871,0.001514,-0.00245,-0.011885,-0.004441,-0.510029,0.008295,1.725569,-263.861071,1.256654,67.609703
7.6357,-0.008743,-0.00031,0.006312,0.001488,-0.002422,-0.011796,-0.005189,-0.51005,0.006362,1.728401,-263.865107,1.258532,67.611765
7.6557,-0.008096,0.000115,0.008008,0.001554,-0.002355,-0.011289,-0.005319,-0.510165,0.006283,1.728401,-263.865107,1.258532,67.611765
7.6755,-0.007695,-0.00018,0.007345,0.001602,-0.002301,-0.01093,-0.003964,-0.509945,0.007633,1.724112,-263.868994,1.269193,67.613763
7.6957,-0.008104,-0.000196,0.005992,0.001491,-0.002274,-0.010911,-0.003948,-0.510151,0.007352,1.724112,-263.868994,1.269193,67.613763
7.7155,-0.00814,-0.000198,0.006243,0.001402,-0.002252,-0.0109,-0.003948,-0.510151,0.007352,1.724112,-263.868994,1.269193,67.613763
7.7361,-0.008474,-0.00051,0.006647,0.001331,-0.002233,-0.010893,-0.004957,-0.510188,0.006243,1.649127,-263.868994,1.219635,67.613763
7.7559,-0.007855,-0.000652,0.005059,0.00139,-0.002174,-0.010685,-0.005008,-0.510315,0.006407,1.649127,-263.868994,1.219635,67.613763
7.7756,-0.007708,-9.3e-05,0.00452,0.001436,-0.002128,-0.010537,-0.005241,-0.510682,0.004797,1.719423,-263.87149,1.278371,67.615376
7.796,-0.007852,-0.000515,0.006075,0.00152,-0.002115,-0.009883,-0.005386,-0.510142,0.004532,1.719423,-263.87149,1.278371,67.615376
7.8158,-0.00761,-0.000326,0.006477,0.00158,-0.002106,-0.00943,-0.005386,-0.510142,0.004532,1.719423,-263.87149,1.278371,67.615376
7.8356,-0.007456,-0.000148,0.00516,0.001624,-0.0021,-0.009115,-0.004247,-0.510403,0.006044,1.737003,-263.874902,1.2489,67.61716
7.856,-0.007413,-0.000551,0.004633,0.001564,-0.002066,-0.009229,-0.004474,-0.510307,0.005635,1.737003,-263.874902,1.2489,67.61716
7.8755,-0.007468,-0.000458,0.005499,0.001516,-0.002039,-0.009319,-0.005051,-0.510545,0.004633,1.661934,-263.874902,1.17383,67.617161
7.8958,-0.007501,-0.000343,0.00528,0.001502,-0.001983,-0.00933,-0.004696,-0.510458,0.005425,1.661934,-263.874902,1.17383,67.617161
7.9156,-0.007345,-0.000543,0.005357,0.00149,-0.001939,-0.00934,-0.004696,-0.510458,0.005425,1.661934,-263.874902,1.17383,67.617161
7.9358,-0.007895,-0.000607,0.005506,0.001479,-0.001904,-0.00935,-0.004613,-0.510536,0.005357,1.586886,-263.874901,1.177362,67.617161
7.9558,-0.00746,-0.000548,0.007227,0.00148,-0.001856,-0.009353,-0.004806,-0.510561,0.005418,1.586886,-263.874901,1.177362,67.617161
7.976,-0.007404,-0.000275,0.006267,0.001481,-0.001819,-0.009354,-0.003774,-0.510535,0.007227,1.511927,-263.874901,1.200143,67.617161
7.9957,-0.006897,-0.000389,0.003982,0.001411,-0.001859,-0.009566,-0.004168,-0.51029,0.006357,1.511927,-263.874901,1.200143,67.617161
8.0156,-0.007443,-0.000386,0.006918,0.001356,-0.00189,-0.00972,-0.004168,-0.51029,0.006357,1.511927,-263.874901,1.200143,67.617161
8.0355,-0.007536,-0.000244,0.004274,0.001313,-0.001914,-0.009831,-0.003914,-0.510374,0.006918,1.436801,-263.874901,1.20742,67.617161
8.0557,-0.007664,-0.000647,0.004196,0.001321,-0.001925,-0.00977,-0.004509,-0.510318,0.005828,1.436801,-263.874901,1.20742,67.617161
8.076,-0.007513,-0.000262,0.004889,0.001327,-0.001934,-0.009721,-0.005521,-0.510656,0.004125,1.511714,-263.875623,1.260139,67.617547
8.0959,-0.00735,-0.000155,0.006114,0.001391,-0.001951,-0.009388,-0.005065,-0.510293,0.004816,1.511714,-263.875623,1.260139,67.617547
8.1161,-0.007188,-0.000477,0.005136,0.00144,-0.001965,-0.009148,-0.005065,-0.510293,0.004816,1.511714,-263.875623,1.260139,67.617547
8.1358,-0.007256,-0.000681,0.004565,0.001479,-0.001977,-0.008975,-0.004555,-0.510506,0.004956,1.586573,-263.877019,1.250619,67.618285
8.1559,-0.007168,-0.000616,0.004865,0.001478,-0.001925,-0.008827,-0.004706,-0.51058,0.004776,1.586573,-263.877019,1.250619,67.618285
8.1754,-0.007001,-0.000371,0.005328,0.001476,-0.001884,-0.00872,-0.004687,-0.51061,0.004865,1.511579,-263.877019,1.175625,67.618285
8.1957,-0.007524,-0.000719,0.004834,0.001428,-0.0019,-0.008753,-0.00432,-0.510386,0.005286,1.511579,-263.877019,1.175625,67.618285
8.216,-0.007037,-0.00056,0.005041,0.001389,-0.001912,-0.008772,-0.00432,-0.510386,0.005286,1.511579,-263.877019,1.175625,67.618285
8.2358,-0.007065,-0.000494,0.003325,0.001358,-0.001921,-0.008782,-0.004466,-0.510553,0.005041,1.436578,-263.877018,1.165643,67.618285
8.2558,-0.00707,-0.001009,0.004514,0.001396,-0.001892,-0.008517,-0.004837,-0.510528,0.004337,1.436578,-263.877018,1.165643,67.618285
8.2756,-0.007145,-0.000514,0.005111,0.001425,-0.001869,-0.00833,-0.004768,-0.511004,0.004514,1.361436,-263.877018,1.194947,67.618286
8.2958,-0.007326,-0.000436,0.004342,0.001411,-0.00185,-0.008384,-0.004558,-0.51055,0.00506,1.361436,-263.877018,1.194947,67.618286
8.3156,-0.007293,-0.000587,0.005229,0.001401,-0.001835,-0.008419,-0.004558,-0.51055,0.00506,1.361436,-263.877018,1.194947,67.618286
8.3354,-0.007165,-0.000427,0.006146,0.001393,-0.001823,-0.00844,-0.004626,-0.51058,0.005229,1.286438,-263.877018,1.154148,67.618286
8.3556,-0.007126,-0.000209,0.003696,0.001364,-0.001826,-0.008532,-0.004383,-0.510514,0.005604,1.286438,-263.877018,1.154148,67.618286
8.3753,-0.007204,-0.000356,0.005307,0.001341,-0.001829,-0.00859,-0.005241,-0.510206,0.003696,1.211567,-263.877017,1.174756,67.618286
8.3958,-0.007041,-0.000576,0.00598,0.001344,-0.00187,-0.008519,-0.004564,-0.510336,0.005163,1.211567,-263.877017,1.174756,67.618286
8.4157,-0.007005,-0.00049,0.005578,0.001348,-0.001902,-0.008463,-0.004564,-0.510336,0.005163,1.211567,-263.877017,1.174756,67.618286
8.4357,-0.007128,-0.000491,0.004225,0.00135,-0.001928,-0.008419,-0.00416,-0.510482,0.005578,1.136569,-263.877017,1.196949,67.618286
8.4558,-0.007166,-0.000371,0.005265,0.001346,-0.001914,-0.008349,-0.004495,-0.510484,0.00502,1.136569,-263.877017,1.196949,67.618286
8.4754,-0.007197,-0.000295,0.005075,0.001343,-0.001903,-0.008297,-0.004481,-0.510364,0.005265,1.061441,-263.877017,1.173094,67.618286
8.4957,-0.007126,-6.5e-05,0.004771,0.001349,-0.001938,-0.008276,-0.004597,-0.510295,0.005092,1.061441,-263.877017,1.173094,67.618286
8.5155,-0.006851,-0.000269,0.005446,0.001355,-0.001966,-0.008259,-0.004597,-0.510295,0.005092,1.061441,-263.877017,1.173094,67.618286
8.5354,-0.007129,-0.000192,0.004702,0.001359,-0.001988,-0.008245,-0.004073,-0.510262,0.005446,0.986546,-263.877017,1.169467,67.618286
8.5555,-0.007556,-0.000407,0.003212,0.001334,-0.002022,-0.008247,-0.004338,-0.510231,0.005147,0.986546,-263.877017,1.169467,67.618286
8.5754,-0.0071,-0.000645,0.00518,0.001314,-0.002049,-0.008248,-0.005917,-0.510404,0.003212,0.911565,-263.877016,1.151344,67.618286
8.5955,-0.006717,-0.000289,0.005813,0.001325,-0.001979,-0.008218,-0.004583,-0.510618,0.005011,0.911565,-263.877016,1.151344,67.618286
8.616,-0.006918,-0.000469,0.004897,0.001334,-0.001925,-0.008196,-0.004583,-0.510618,0.005011,0.911565,-263.877016,1.151344,67.618286
8.6354,-0.007016,-0.000621,0.00453,0.00134,-0.001883,-0.00818,-0.00442,-0.510463,0.004897,0.836461,-263.877016,1.156473,67.618287
8.6562,-0.007189,-0.000615,0.004823,0.001344,-0.001869,-0.008098,-0.004538,-0.510526,0.004746,0.836461,-263.877016,1.156473,67.618287
8.6759,-0.007263,-0.000431,0.00539,0.001346,-0.001858,-0.00804,-0.004729,-0.51061,0.004823,0.76148,-263.877016,1.164341,67.618287
8.696,-0.007048,-0.000374,0.003173,0.001342,-0.001872,-0.008148,-0.004533,-0.51044,0.00534,0.76148,-263.877016,1.164341,67.618287
8.7163,-0.007508,-0.000457,0.005137,0.00134,-0.001884,-0.008225,-0.004533,-0.51044,0.00534,0.76148,-263.877016,1.164341,67.618287
8.7354,-0.007087,-0.000585,0.00468,0.001338,-0.001893,-0.00828,-0.004888,-0.51045,0.005137,0.686473,-263.877016,1.155644,67.618287
8.7555,-0.006701,-0.000514,0.005909,0.001367,-0.001884,-0.008222,-0.004812,-0.510503,0.004952,0.686473,-263.877016,1.155644,67.618287
8.7762,-0.007082,-0.00025,0.003258,0.001389,-0.001877,-0.008181,-0.003688,-0.510506,0.005909,0.611576,-263.877015,1.170692,67.618287
8.7958,-0.006979,-0.00043,0.00557,0.001458,-0.00191,-0.007724,-0.005226,-0.510276,0.003556,0.611576,-263.877015,1.170692,67.618287
8.8159,-0.007287,-0.00055,0.004711,0.001509,-0.001936,-0.007409,-0.005226,-0.510276,0.003556,0.611576,-263.877015,1.170692,67.618287
8.8359,-0.007312,-0.000409,0.0058,0.001548,-0.001958,-0.007193,-0.004884,-0.510544,0.004711,0.536524,-263.877015,1.15183,67.618287
8.8561,-0.00776,-0.000409,0.006083,0.001517,-0.001941,-0.007498,-0.00467,-0.510486,0.005152,0.536524,-263.877015,1.15183,67.618287
8.8758,-0.007307,-0.000432,0.003964,0.001492,-0.001928,-0.007719,-0.004658,-0.510399,0.006083,0.461574,-263.877015,1.07688,67.618287
8.8957,-0.007413,-0.000188,0.005407,0.00153,-0.001925,-0.007608,-0.005228,-0.510426,0.004156,0.461574,-263.877015,1.07688,67.618287
8.9156,-0.007075,-0.00047,0.003415,0.001559,-0.001922,-0.007532,-0.005228,-0.510426,0.004156,0.461574,-263.877015,1.07688,67.618287
8.9356,-0.007221,-0.00046,0.004516,0.001582,-0.001921,-0.007479,-0.005334,-0.510467,0.003415,0.386574,-263.877014,1.079046,67.618287
8.9557,-0.006998,-0.000529,0.005445,0.0016,-0.001911,-0.007351,-0.005166,-0.510462,0.003861,0.386574,-263.877014,1.079046,67.618287
8.9759,-0.006992,-0.000595,0.005298,0.001613,-0.001903,-0.007263,-0.004221,-0.510522,0.005445,0.311579,-263.877014,1.03202,67.618287
8.996,-0.006904,-0.000373,0.005542,0.001524,-0.001875,-0.007588,-0.004283,-0.510582,0.005312,0.311579,-263.877014,1.03202,67.618287
9.016,-0.007135,-0.000409,0.003742,0.001454,-0.001853,-0.007823,-0.004283,-0.510582,0.005312,0.311579,-263.877014,1.03202,67.618287
9.0357,-0.00725,-0.000741,0.005165,0.001399,-0.001835,-0.007991,-0.005226,-0.510405,0.003742,0.236575,-263.877014,1.003873,67.618288
9.056,-0.007491,-0.000641,0.004372,0.001434,-0.001828,-0.007852,-0.004977,-0.510539,0.004322,0.236575,-263.877014,1.003873,67.618288
9.0759,-0.007675,-0.000356,0.003208,0.001461,-0.001822,-0.007753,-0.005261,-0.510636,0.004372,0.161458,-263.877014,1.07899,67.618288
9.0958,-0.006948,-0.000281,0.004483,0.001558,-0.00184,-0.007351,-0.005971,-0.510378,0.003309,0.161458,-263.877014,1.07899,67.618288
9.1159,-0.007227,-0.000884,0.005128,0.001634,-0.001856,-0.007073,-0.005971,-0.510378,0.003309,0.161458,-263.877014,1.07899,67.618288
9.1358,-0.007225,-0.000415,0.004582,0.001694,-0.00187,-0.006883,-0.004612,-0.510878,0.005128,0.086454,-263.877014,1.105924,67.618288
9.1557,-0.007216,-0.000664,0.003645,0.001637,-0.001827,-0.007223,-0.004724,-0.510688,0.004907,0.086454,-263.877014,1.105924,67.618288
9.1758,-0.007311,-0.000525,0.005532,0.001592,-0.001793,-0.007468,-0.005357,-0.51066,0.003645,0.011417,-263.877013,1.030888,67.618288
9.1958,-0.00712,-0.000546,0.00471,0.00154,-0.001804,-0.007747,-0.004568,-0.51053,0.005361,0.011417,-263.877013,1.030888,67.618288
9.2157,-0.007355,-0.000187,0.003717,0.0015,-0.001812,-0.007948,-0.004568,-0.51053,0.005361,0.011417,-263.877013,1.030888,67.618288
9.2355,-0.007223,-0.00039,0.00351,0.001468,-0.001817,-0.008091,-0.005459,-0.510183,0.003717,-0.063433,-263.877013,1.048913,67.618288
9.2556,-0.007171,-0.00037,0.00473,0.001534,-0.001864,-0.007696,-0.005448,-0.510266,0.003633,-0.063433,-263.877013,1.048913,67.618288
9.2762,-0.007015,-0.000806,0.005436,0.001584,-0.001902,-0.007422,-0.004759,-0.510365,0.00473,-0.138426,-263.877013,1.123906,67.618288
9.2961,-0.007067,-0.000339,0.004821,0.0015,-0.001831,-0.007715,-0.004286,-0.510762,0.005376,-0.138426,-263.877013,1.123906,67.618288
9.3162,-0.007053,-0.000229,0.003894,0.001433,-0.001774,-0.007927,-0.004286,-0.510762,0.005376,-0.138426,-263.877013,1.123906,67.618288
9.336,-0.0073,-0.000503,0.006017,0.001381,-0.00173,-0.00808,-0.005067,-0.510225,0.003894,-0.213593,-263.877013,1.048738,67.618288
9.3561,-0.007328,-0.00038,0.00522,0.001393,-0.001792,-0.008031,-0.004728,-0.510334,0.004755,-0.213593,-263.877013,1.048738,67.618288
9.3754,-0.007368,-0.00068,0.005545,0.001402,-0.001841,-0.007996,-0.004666,-0.510373,0.00522,-0.288439,-263.877012,1.123585,67.618288
9.3963,-0.00725,-0.00033,0.006914,0.001387,-0.001814,-0.008159,-0.004551,-0.510646,0.005516,-0.288439,-263.877012,1.123585,67.618288
9.4157,-0.006861,-0.000413,0.003558,0.001375,-0.001792,-0.008276,-0.004551,-0.510646,0.005516,-0.288439,-263.877012,1.123585,67.618288
9.4355,-0.006844,-0.00065,0.005286,0.001366,-0.001775,-0.008359,-0.005047,-0.51041,0.003558,-0.363428,-263.877012,1.13887,67.618288
9.4558,-0.007152,-0.000517,0.004766,0.001384,-0.001787,-0.008082,-0.004677,-0.510506,0.004268,-0.363428,-263.877012,1.13887,67.618288
9.4755,-0.006944,-0.000374,0.003462,0.001397,-0.001796,-0.00789,-0.004721,-0.510511,0.004766,-0.438557,-263.877012,1.181453,67.618289
9.4957,-0.006963,-0.000304,0.003519,0.001454,-0.001824,-0.007531,-0.00514,-0.510383,0.003573,-0.438557,-263.877012,1.181453,67.618289
9.5156,-0.007472,-0.00018,0.004917,0.001498,-0.001847,-0.007284,-0.00514,-0.510383,0.003573,-0.438557,-263.877012,1.181453,67.618289
9.5359,-0.00744,-0.000766,0.003881,0.001531,-0.001866,-0.007116,-0.004964,-0.510174,0.004917,-0.513565,-263.877012,1.137817,67.618289
9.5555,-0.006843,-0.000545,0.004304,0.001548,-0.00188,-0.007282,-0.005168,-0.510415,0.004492,-0.513565,-263.877012,1.137817,67.618289
9.576,-0.007373,-0.000267,0.003911,0.001563,-0.001891,-0.007401,-0.004648,-0.51054,0.004304,-0.588566,-263.877011,1.062816,67.618289
9.5959,-0.006984,-0.000298,0.002904,0.001592,-0.001922,-0.007323,-0.005317,-0.510287,0.003944,-0.588566,-263.877011,1.062816,67.618289
9.6155,-0.007172,-0.000455,0.005005,0.001615,-0.001948,-0.00727,-0.005317,-0.510287,0.003944,-0.588566,-263.877011,1.062816,67.618289
9.6359,-0.006745,-0.000397,0.004429,0.001633,-0.001968,-0.007233,-0.004619,-0.510449,0.005005,-0.663606,-263.877011,1.034493,67.618289
9.6555,-0.007399,-0.000274,0.001628,0.001576,-0.001961,-0.00744,-0.004565,-0.510426,0.004771,-0.663606,-263.877011,1.034493,67.618289
9.6758,-0.006858,-0.000794,0.003552,0.00153,-0.001956,-0.007588,-0.006569,-0.510273,0.001628,-0.738427,-263.877009,0.98277,67.61829
9.6958,-0.007152,-9.9e-05,0.005095,0.001564,-0.001877,-0.007268,-0.005183,-0.510744,0.003379,-0.738427,-263.877009,0.98277,67.61829
9.7158,-0.007106,-0.00045,0.005035,0.001589,-0.001815,-0.007049,-0.005183,-0.510744,0.003379,-0.738427,-263.877009,0.98277,67.61829
9.7357,-0.007359,-0.00063,0.004801,0.001606,-0.001767,-0.006898,-0.004538,-0.510443,0.005035,-0.813423,-263.877004,1.05173,67.618292
9.7557,-0.00715,-0.000154,0.00461,0.001562,-0.001784,-0.007245,-0.004689,-0.510517,0.00494,-0.813423,-263.877004,1.05173,67.618292
9.7755,-0.007155,-0.000486,0.003798,0.001529,-0.001798,-0.007494,-0.004798,-0.510149,0.004607,-0.888436,-263.876965,0.989931,67.618311
9.7957,-0.007117,-0.000349,0.003495,0.001556,-0.001815,-0.007369,-0.005183,-0.510455,0.003865,-0.888436,-263.876965,0.989931,67.618311
9.8156,-0.006856,-0.000294,0.003284,0.001577,-0.001828,-0.007282,-0.005183,-0.510455,0.003865,-0.888436,-263.876965,0.989931,67.618311
9.8358,-0.007463,-0.000207,0.004211,0.001593,-0.001839,-0.007222,-0.005177,-0.510293,0.003275,-0.963641,-263.876878,1.065135,67.618353
9.8557,-0.007361,-0.000353,0.00556,0.001611,-0.001887,-0.007111,-0.005233,-0.510256,0.003655,-0.963641,-263.876878,1.065135,67.618353
9.8759,-0.006997,-0.000418,0.00439,0.001626,-0.001925,-0.007034,-0.004517,-0.510351,0.005535,-1.038537,-263.876572,1.016165,67.618496
9.8961,-0.007073,-0.000485,0.003197,0.001586,-0.001931,-0.00723,-0.004736,-0.510408,0.004492,-1.038537,-263.876572,1.016165,67.618496
9.9157,-0.007353,-0.000291,0.005348,0.001556,-0.001935,-0.007369,-0.004736,-0.510408,0.004492,-1.038537,-263.876572,1.016165,67.618496
9.9357,-0.007139,-0.000491,0.004744,0.001533,-0.001938,-0.007468,-0.0046,-0.510304,0.00527,-1.113429,-263.875854,0.969755,67.618817
9.9556,-0.007377,-0.000577,0.005569,0.001502,-0.001949,-0.007679,-0.004645,-0.51038,0.005048,-1.113429,-263.875854,0.969755,67.618817
9.9756,-0.006298,-0.000794,0.004661,0.001479,-0.001958,-0.007829,-0.00451,-0.510592,0.005476,-1.188422,-263.874772,1.041872,67.61931
9.9957,-0.006968,-0.000749,0.006372,0.001379,-0.001861,-0.007855,-0.00397,-0.510772,0.004726,-1.188422,-263.874772,1.041872,67.61931
10.0157,-0.006833,-0.000556,0.004199,0.0013,-0.001785,-0.007873,-0.00397,-0.510772,0.004726,-1.188422,-263.874772,1.041872,67.61931
10.0357,-0.006645,-0.000583,0.004191,0.001238,-0.001726,-0.007886,-0.004645,-0.5106,0.004,-1.263582,-263.873065,1.088353,67.620098
10.0558,-0.006507,-0.000125,0.004312,0.00127,-0.001725,-0.007726,-0.004583,-0.510597,0.004055,-1.263582,-263.873065,1.088353,67.620098
10.0758,-0.006385,-0.000378,0.004332,0.001294,-0.001723,-0.007618,-0.004277,-0.510157,0.004146,-1.338538,-263.871277,1.163309,67.620992
10.0961,-0.006388,-0.000682,0.002934,0.001265,-0.00178,-0.007629,-0.004183,-0.510354,0.004305,-1.338538,-263.871277,1.163309,67.620992
10.116,-0.006818,-0.000814,0.003316,0.001243,-0.001823,-0.007642,-0.004183,-0.510354,0.004305,-1.338538,-263.871277,1.163309,67.620992
10.1358,-0.006288,-0.000626,0.002713,0.001225,-0.001856,-0.007655,-0.005073,-0.510882,0.003002,-1.370577,-263.868717,1.154891,67.622252
10.1554,-0.006263,-0.000479,0.003726,0.00131,-0.001779,-0.007167,-0.004999,-0.510786,0.002849,-1.370577,-263.868717,1.154891,67.622252
10.1757,-0.005907,-0.000689,0.003127,0.001374,-0.001719,-0.006837,-0.004324,-0.510534,0.003484,-1.385367,-263.866069,1.160795,67.623477
10.1958,-0.006238,-0.000909,0.003316,0.001352,-0.001692,-0.006735,-0.004311,-0.510677,0.003146,-1.385367,-263.866069,1.160795,67.623477
10.2158,-0.006025,-0.000651,0.003449,0.001333,-0.00167,-0.006671,-0.004311,-0.510677,0.003146,-1.385367,-263.866069,1.160795,67.623477
10.2356,-0.005457,-0.000649,0.003173,0.001316,-0.001653,-0.006634,-0.004219,-0.510707,0.003211,-1.341811,-263.864068,1.085746,67.624407
10.256,-0.005931,-0.000879,0.003183,0.001271,-0.001633,-0.006626,-0.00406,-0.510689,0.003168,-1.341811,-263.864068,1.085746,67.624407
10.2756,-0.005888,-0.000823,0.002689,0.001234,-0.001617,-0.006626,-0.004266,-0.510929,0.002973,-1.344001,-263.861737,1.068891,67.625497
10.2956,-0.005735,-0.000976,0.004384,0.001259,-0.001561,-0.006447,-0.004493,-0.510833,0.002703,-1.344001,-263.861737,1.068891,67.625497
10.3162,-0.005423,-0.000538,0.002421,0.001277,-0.001517,-0.006327,-0.004493,-0.510833,0.002703,-1.344001,-263.861737,1.068891,67.625497
10.3358,-0.005026,-0.001289,0.002653,0.00129,-0.001483,-0.006246,-0.004137,-0.510603,0.002148,-1.356234,-263.859464,1.100802,67.626565
10.3557,-0.005015,-0.001288,0.002586,0.00124,-0.001428,-0.006019,-0.003946,-0.510883,0.002318,-1.356234,-263.859464,1.100802,67.626565
10.3757,-0.005667,-0.000882,0.002636,0.001197,-0.001386,-0.005864,-0.003656,-0.511332,0.002392,-1.331924,-263.857346,1.065429,67.6276
10.3958,-0.005252,-0.001241,0.002985,0.001189,-0.001349,-0.005885,-0.004259,-0.510924,0.002603,-1.331924,-263.857346,1.065429,67.6276
10.416,-0.00545,-0.001202,0.003401,0.001182,-0.001321,-0.005904,-0.004259,-0.510924,0.002603,-1.331924,-263.857346,1.065429,67.6276
10.4356,-0.004592,-0.001324,0.001275,0.001176,-0.001298,-0.005922,-0.003665,-0.511257,0.003155,-1.334355,-263.855304,1.071741,67.6286
10.4556,-0.004831,-0.001179,0.001743,0.0011,-0.00117,-0.005829,-0.003772,-0.511291,0.002364,-1.334355,-263.855304,1.071741,67.6286
10.4761,-0.004682,-0.000836,0.000243,0.001038,-0.001071,-0.005768,-0.003905,-0.511219,0.001558,-1.335918,-263.853311,1.101445,67.629625
10.4961,-0.004677,-0.0012,0.000628,0.001135,-0.001093,-0.004662,-0.004498,-0.510872,0.000351,-1.335918,-263.853311,1.101445,67.629625
10.5162,-0.004816,-0.001106,0.001745,0.001199,-0.00111,-0.003874,-0.004498,-0.510872,0.000351,-1.335918,-263.853311,1.101445,67.629625
10.5355,-0.00441,-0.001136,0.000613,0.001241,-0.001123,-0.003311,-0.003886,-0.511147,0.001521,-1.348513,-263.85157,1.170256,67.63061
10.5559,-0.004652,-0.001152,0.001404,0.001182,-0.001065,-0.003348,-0.003967,-0.511147,0.001128,-1.348513,-263.85157,1.170256,67.63061
10.5753,-0.004805,-0.001311,0.002588,0.001134,-0.00102,-0.003379,-0.003936,-0.511151,0.001403,-1.273494,-263.851563,1.095236,67.630613
10.5959,-0.004332,-0.001404,0.00121,0.001004,-0.000945,-0.004072,-0.003525,-0.511295,0.002484,-1.273494,-263.851563,1.095236,67.630613
10.6158,-0.004598,-0.001311,0.001578,0.000905,-0.000887,-0.004577,-0.003525,-0.511295,0.002484,-1.273494,-263.851563,1.095236,67.630613
10.636,-0.004481,-0.00171,0.001411,0.000829,-0.000841,-0.004941,-0.003788,-0.511315,0.001559,-1.218439,-263.851396,1.020228,67.630691
10.6559,-0.0044,-0.001339,0.000685,0.000828,-0.000765,-0.004731,-0.003776,-0.511477,0.001496,-1.218439,-263.851396,1.020228,67.630691
10.6759,-0.00445,-0.001311,0.000661,0.000825,-0.000705,-0.004581,-0.004036,-0.51135,0.000622,-1.293433,-263.850741,1.095222,67.631078
10.6959,-0.004237,-0.001265,0.00182,0.000885,-0.000702,-0.004016,-0.004105,-0.511315,0.000654,-1.293433,-263.850741,1.095222,67.631078
10.7156,-0.004759,-0.001539,0.001142,0.000928,-0.000699,-0.003612,-0.004105,-0.511315,0.000654,-1.293433,-263.850741,1.095222,67.631078
10.7355,-0.003916,-0.00153,0.000585,0.000958,-0.000697,-0.003324,-0.004148,-0.511563,0.000984,-1.339582,-263.849554,1.170228,67.63182
10.7554,-0.004303,-0.001316,0.000688,0.000948,-0.000648,-0.003204,-0.003927,-0.511552,0.000803,-1.339582,-263.849554,1.170228,67.63182
10.7753,-0.004588,-0.001067,0.001542,0.000938,-0.000609,-0.003119,-0.003942,-0.511324,0.000647,-1.264504,-263.849122,1.095149,67.632065
10.7958,-0.004073,-0.001284,0.002021,0.000914,-0.000698,-0.003414,-0.003814,-0.51109,0.00146,-1.264504,-263.849122,1.095149,67.632065
10.8155,-0.004097,-0.001433,0.001456,0.000897,-0.000766,-0.003623,-0.003814,-0.51109,0.00146,-1.264504,-263.849122,1.095149,67.632065
10.8354,-0.004339,-0.001041,0.000404,0.000885,-0.000819,-0.003773,-0.00333,-0.511448,0.001368,-1.213655,-263.848408,1.020234,67.632491
10.8556,-0.004215,-0.001589,-0.000249,0.000857,-0.000799,-0.003619,-0.003655,-0.511284,0.000964,-1.213655,-263.848408,1.020234,67.632491
10.8753,-0.003942,-0.00126,0.000468,0.000834,-0.000784,-0.003508,-0.004316,-0.511612,-0.000357,-1.288637,-263.847241,1.033552,67.633113
10.8954,-0.004325,-0.001476,-0.000124,0.000841,-0.000768,-0.00311,-0.003755,-0.511291,0.000391,-1.288637,-263.847241,1.033552,67.633113
10.9156,-0.004285,-0.001044,0.00095,0.000842,-0.000756,-0.002825,-0.003755,-0.511291,0.000391,-1.288637,-263.847241,1.033552,67.633113
10.9355,-0.004066,-0.001403,0.001169,0.000841,-0.000748,-0.002621,-0.003765,-0.511077,0.000804,-1.293227,-263.846029,1.020192,67.633747
10.9559,-0.004012,-0.001276,0.000106,0.000812,-0.000765,-0.002784,-0.003642,-0.511212,0.000935,-1.293227,-263.846029,1.020192,67.633747
10.9758,-0.003802,-0.00114,0.000492,0.00079,-0.000778,-0.002899,-0.003948,-0.511285,7.1e-05,-1.227071,-263.845625,0.945304,67.633941
10.9956,-0.004026,-0.00137,0.000467,0.000776,-0.000795,-0.002712,-0.00359,-0.511155,0.000448,-1.227071,-263.845625,0.945304,67.633941
11.0155,-0.003918,-0.001539,0.000756,0.000764,-0.000808,-0.002578,-0.00359,-0.511155,0.000448,-1.227071,-263.845625,0.945304,67.633941
11.0356,-0.003685,-0.001527,0.00011,0.000752,-0.000819,-0.002482,-0.003501,-0.511569,0.000642,-1.270009,-263.844625,0.898598,67.634417
11.0555,-0.003277,-0.001526,0.001609,0.000725,-0.000724,-0.002398,-0.00355,-0.511556,0.000412,-1.270009,-263.844625,0.898598,67.634417
11.0755,-0.003633,-0.00161,0.000243,0.000702,-0.000651,-0.002338,-0.00244,-0.511543,0.001554,-1.259178,-263.843947,0.823585,67.634701
11.0956,-0.003812,-0.001635,0.000714,0.000661,-0.000574,-0.002264,-0.003411,-0.511604,0.00036,-1.259178,-263.843947,0.823585,67.634701
11.116,-0.003807,-0.00167,0.000923,0.000628,-0.000514,-0.002211,-0.003411,-0.511604,0.00036,-1.259178,-263.843947,0.823585,67.634701
11.1356,-0.003829,-0.00155,-0.00014,0.000601,-0.000467,-0.002173,-0.003307,-0.511697,0.000826,-1.244879,-263.843074,0.835905,67.635117
11.1557,-0.003812,-0.00145,-0.000844,0.000598,-0.00043,-0.00218,-0.003546,-0.51164,0.000421,-1.244879,-263.843074,0.835905,67.635117
11.176,-0.003495,-0.001587,-0.000999,0.000595,-0.0004,-0.002184,-0.004227,-0.511462,-0.000897,-1.247731,-263.842484,0.910904,67.635444
11.196,-0.00342,-0.001676,0.000311,0.000698,-0.0004,-0.001438,-0.004023,-0.511577,-0.000993,-1.247731,-263.842484,0.910904,67.635444
11.2164,-0.003426,-0.00116,-0.001186,0.000772,-0.0004,-0.000899,-0.004023,-0.511577,-0.000993,-1.247731,-263.842484,0.910904,67.635444
11.2364,-0.003356,-0.001813,-0.000741,0.000826,-0.000401,-0.000511,-0.004009,-0.511174,-0.001266,-1.240151,-263.841847,0.986069,67.635829
11.256,-0.003307,-0.001349,-0.000499,0.000853,-0.000431,-0.0002,-0.003895,-0.511436,-0.001062,-1.240151,-263.841847,0.986069,67.635829
11.2759,-0.003407,-0.00179,-0.001253,0.000872,-0.000455,2.4e-05,-0.003561,-0.511349,-0.000499,-1.165307,-263.841847,0.911225,67.635829
11.2957,-0.003186,-0.00171,0.001433,0.00089,-0.000405,0.000242,-0.004002,-0.511749,-0.001184,-1.165307,-263.841847,0.911225,67.635829
11.3159,-0.003414,-0.001703,-0.000465,0.000902,-0.000366,0.000399,-0.004002,-0.511749,-0.001184,-1.165307,-263.841847,0.911225,67.635829
11.3357,-0.003421,-0.001494,0.000426,0.00091,-0.000336,0.000514,-0.003651,-0.511703,-0.000465,-1.090316,-263.841847,0.836234,67.635829
11.3555,-0.003524,-0.001565,-0.001364,0.000816,-0.00033,2e-05,-0.003468,-0.511617,-0.000101,-1.090316,-263.841847,0.836234,67.635829
11.3756,-0.003178,-0.001266,-0.001858,0.000745,-0.000324,-0.000333,-0.004219,-0.511564,-0.001364,-1.015208,-263.841847,0.761126,67.635829
11.3956,-0.003505,-0.001811,0.000407,0.000839,-0.000409,0.000253,-0.004134,-0.511292,-0.001813,-1.015208,-263.841847,0.761126,67.635829
11.4156,-0.003912,-0.001567,-0.00176,0.000907,-0.000477,0.000678,-0.004134,-0.511292,-0.001813,-1.015208,-263.841847,0.761126,67.635829
11.4355,-0.003786,-0.001388,-0.000407,0.000958,-0.000531,0.000987,-0.00481,-0.511566,-0.00176,-0.940307,-263.841847,0.686225,67.635829
11.4559,-0.003355,-0.00152,1.8e-05,0.001009,-0.000543,0.000934,-0.004476,-0.511493,-0.001206,-0.940307,-263.841847,0.686225,67.635829
11.4756,-0.003319,-0.001669,-0.000304,0.001051,-0.000553,0.0009,-0.003346,-0.51152,1.8e-05,-0.86528,-263.841847,0.611198,67.635829
11.4958,-0.003628,-0.001763,0.00039,0.000923,-0.000488,0.000386,-0.003464,-0.511657,-0.000279,-0.86528,-263.841847,0.611198,67.635829
11.5163,-0.003601,-0.001568,-7.9e-05,0.000826,-0.000437,2.2e-05,-0.003464,-0.511657,-0.000279,-0.86528,-263.841847,0.611198,67.635829
11.5355,-0.003609,-0.00148,-0.001847,0.000752,-0.000397,-0.000237,-0.003642,-0.511568,-7.9e-05,-0.789957,-263.841847,0.535875,67.635829
11.556,-0.003814,-0.001135,0.001159,0.000789,-0.000415,-0.000147,-0.004009,-0.511532,-0.000793,-0.789957,-263.841847,0.535875,67.635829
11.5758,-0.003382,-0.001437,-0.000462,0.000818,-0.00043,-8e-05,-0.003223,-0.511134,0.001159,-0.715309,-263.841847,0.461227,67.635829
11.5956,-0.003571,-0.001471,-0.000318,0.000773,-0.000459,-0.000287,-0.003582,-0.51141,-0.000317,-0.715309,-263.841847,0.461227,67.635829
11.6157,-0.003481,-0.001319,0.000425,0.00074,-0.000482,-0.000432,-0.003582,-0.51141,-0.000317,-0.715309,-263.841847,0.461227,67.635829
11.6358,-0.003402,-0.001568,8.5e-05,0.000715,-0.000499,-0.000534,-0.003264,-0.511319,0.000425,-0.640286,-263.841847,0.386204,67.635829
11.6559,-0.003518,-0.001514,-0.000415,0.000637,-0.000504,-0.000946,-0.003303,-0.511421,0.000285,-0.640286,-263.841847,0.386204,67.635829
11.6756,-0.003348,-0.001639,0.001391,0.00058,-0.000507,-0.001239,-0.00373,-0.511514,-0.000415,-0.715435,-263.841846,0.311055,67.63583
11.6956,-0.003561,-0.001811,-0.000466,0.000406,-0.000436,-0.001952,-0.002737,-0.511627,0.001227,-0.715435,-263.841846,0.311055,67.63583
11.7157,-0.00366,-0.001708,-0.000248,0.000275,-0.00038,-0.002466,-0.002737,-0.511627,0.001227,-0.715435,-263.841846,0.311055,67.63583
11.7358,-0.003278,-0.001933,0.000612,0.000176,-0.000335,-0.002835,-0.003785,-0.511709,-0.00025,-0.790259,-263.841822,0.385879,67.635841
11.7559,-0.003357,-0.001786,0.00047,0.000245,-0.00028,-0.002483,-0.003448,-0.511801,0.000105,-0.790259,-263.841822,0.385879,67.635841
11.7755,-0.003275,-0.001322,0.000246,0.000296,-0.000237,-0.002233,-0.003117,-0.511786,0.00047,-0.865375,-263.841822,0.460995,67.635841
11.7959,-0.003519,-0.001498,0.000787,0.000296,-0.000304,-0.002142,-0.003147,-0.511362,0.000265,-0.865375,-263.841822,0.460995,67.635841
11.816,-0.003554,-0.001631,-0.001598,0.000295,-0.000355,-0.002077,-0.003147,-0.511362,0.000265,-0.865375,-263.841822,0.460995,67.635841
11.8357,-0.003484,-0.001584,9e-06,0.000295,-0.000395,-0.002031,-0.004369,-0.51163,-0.001598,-0.940423,-263.841822,0.536043,67.635841
11.8558,-0.00337,-0.001837,0.001025,0.000443,-0.000387,-0.001352,-0.004005,-0.511611,-0.00094,-0.940423,-263.841822,0.536043,67.635841
11.876,-0.003792,-0.001393,-0.000948,0.000556,-0.000382,-0.000862,-0.002848,-0.511837,0.001025,-1.015357,-263.841822,0.610978,67.635841
11.8963,-0.003095,-0.001695,-2.9e-05,0.00066,-0.000427,-0.000588,-0.004156,-0.51143,-0.000782,-1.015357,-263.841822,0.610978,67.635841
11.9159,-0.003418,-0.001706,6.2e-05,0.00074,-0.000464,-0.000391,-0.004156,-0.51143,-0.000782,-1.015357,-263.841822,0.610978,67.635841
11.9359,-0.003293,-0.00133,-0.001773,0.000803,-0.000494,-0.000249,-0.003383,-0.511707,5.7e-05,-1.0217,-263.841769,0.535897,67.635869
11.9557,-0.003543,-0.001486,0.000476,0.00079,-0.000474,-0.000192,-0.003718,-0.511552,-0.000697,-1.0217,-263.841769,0.535897,67.635869
11.9755,-0.003417,-0.001525,8e-06,0.000778,-0.000458,-0.00015,-0.0033,-0.511486,0.000476,-0.946778,-263.841769,0.460976,67.635869
11.9959,-0.003281,-0.001534,-0.001987,0.000704,-0.000448,-0.000535,-0.003403,-0.511522,4.6e-05,-0.946778,-263.841769,0.460976,67.635869
12.0157,-0.003598,-0.00137,-0.000301,0.000649,-0.000439,-0.00081,-0.003403,-0.511522,4.6e-05,-0.946778,-263.841769,0.460976,67.635869
12.0358,-0.003203,-0.001773,-0.000352,0.000608,-0.000431,-0.001005,-0.003751,-0.51137,-0.000301,-0.871625,-263.841769,0.385822,67.635869
12.0556,-0.00339,-0.001751,-0.001562,0.000615,-0.000426,-0.000935,-0.003599,-0.511537,-0.000322,-0.871625,-263.841769,0.385822,67.635869
12.0759,-0.003343,-0.001968,-0.001219,0.00062,-0.000422,-0.000885,-0.004176,-0.511757,-0.001579,-0.946502,-263.841509,0.310946,67.636006
12.0955,-0.003027,-0.001359,-0.000307,0.000686,-0.000334,-0.000374,-0.003982,-0.51195,-0.00125,-0.946502,-263.841509,0.310946,67.636006
12.1155,-0.003741,-0.001577,-0.00108,0.000733,-0.000265,-7e-06,-0.003982,-0.51195,-0.00125,-0.946502,-263.841509,0.310946,67.636006
12.1359,-0.003828,-0.001676,-0.000859,0.000766,-0.000212,0.000257,-0.004273,-0.511589,-0.001108,-0.998318,-263.841164,0.235934,67.636196
12.156,-0.003465,-0.001766,-0.00014,0.00083,-0.000257,0.000328,-0.004268,-0.511626,-0.001009,-0.998318,-263.841164,0.235934,67.636196
12.1755,-0.00337,-0.001757,-0.000947,0.00088,-0.000292,0.00038,-0.003536,-0.511766,-0.00014,-0.923376,-263.841164,0.160992,67.636196
12.1956,-0.0035,-0.001797,-0.001276,0.000856,-0.000272,0.000352,-0.003826,-0.511758,-0.000877,-0.923376,-263.841164,0.160992,67.636196
12.216,-0.00366,-0.002035,-7.4e-05,0.000837,-0.000257,0.000332,-0.003826,-0.511758,-0.000877,-0.923376,-263.841164,0.160992,67.636196
12.2357,-0.003151,-0.001556,-0.000636,0.000822,-0.000245,0.000318,-0.003698,-0.512035,-7.4e-05,-0.848367,-263.841164,0.085983,67.636196
12.2561,-0.003626,-0.001601,-0.000543,0.000762,-0.000212,-4e-06,-0.003607,-0.511838,-0.000305,-0.848367,-263.841164,0.085983,67.636196
12.2754,-0.003106,-0.001684,-0.00135,0.000717,-0.000184,-0.000233,-0.003903,-0.511601,-0.000543,-0.77333,-263.841164,0.010947,67.636196
12.2955,-0.003193,-0.001391,-5e-05,0.000743,-0.000203,0.000114,-0.003803,-0.511677,-0.001286,-0.77333,-263.841164,0.010947,67.636196
12.3156,-0.003536,-0.001591,0.000377,0.000759,-0.000217,0.000363,-0.003803,-0.511677,-0.001286,-0.77333,-263.841164,0.010947,67.636196
12.3354,-0.003668,-0.001759,0.000701,0.00077,-0.000229,0.000542,-0.00334,-0.511592,0.000375,-0.698143,-263.841122,-0.058468,67.636234
12.3556,-0.003602,-0.001644,-0.000343,0.000665,-0.00024,-0.000306,-0.003328,-0.511661,0.000508,-0.698143,-263.841122,-0.058468,67.636234
12.3753,-0.003607,-0.001567,-0.000496,0.000588,-0.000246,-0.000911,-0.003777,-0.511644,-0.000343,-0.623413,-263.841122,-0.133198,67.636234
12.3957,-0.003521,-0.001927,-0.001413,0.000634,-0.000282,-0.000784,-0.003852,-0.511574,-0.000482,-0.623413,-263.841122,-0.133198,67.636234
12.4155,-0.003437,-0.001668,1.5e-05,0.00067,-0.00031,-0.000691,-0.003852,-0.511574,-0.000482,-0.623413,-263.841122,-0.133198,67.636234
12.4359,-0.003333,-0.001382,-0.000798,0.000698,-0.000332,-0.000623,-0.003429,-0.511668,1.5e-05,-0.698374,-263.841122,-0.058238,67.636234
12.456,-0.00328,-0.001589,0.001864,0.000674,-0.000345,-0.000663,-0.003558,-0.51155,-0.000321,-0.698374,-263.841122,-0.058238,67.636234
12.476,-0.0034,-0.00154,-0.000201,0.0,0.0,0.0,-0.002315,-0.511595,0.001851,-0.773522,-263.840858,0.01691,67.636419
12.4956,-0.003625,-0.00176,-0.001701,0.0,0.0,0.0,-0.003402,-0.511545,-2.9e-05,-0.773522,-263.840858,0.01691,67.636419
12.5158,-0.003387,-0.001839,-0.000872,0.0,0.0,0.0,-0.003402,-0.511545,-2.9e-05,-0.773522,-263.840858,0.01691,67.636419
12.5357,-0.003741,-0.001842,-0.001259,0.0,0.0,0.0,-0.003832,-0.511839,-0.000872,-0.773522,-263.840858,0.01691,67.636419
12.556,-0.003241,-0.001567,-0.002675,0.0,0.0,0.0,-0.004061,-0.51184,-0.001033,-0.773522,-263.840858,0.01691,67.636419
12.5761,-0.003449,-0.001558,0.000817,0.0,0.0,0.0,-0.004605,-0.511565,-0.002675,-0.773522,-263.840858,0.01691,67.636419
12.5957,-0.00372,-0.001502,-0.000514,0.0,0.0,0.0,-0.003167,-0.511559,0.000518,-0.773522,-263.840858,0.01691,67.636419
12.6157,-0.003267,-0.00163,-0.001733,0.0,0.0,0.0,-0.003167,-0.511559,0.000518,-0.773522,-263.840858,0.01691,67.636419
12.6356,-0.003485,-0.001543,-0.000839,0.0,0.0,0.0,-0.004151,-0.511629,-0.001733,-0.773522,-263.840858,0.01691,67.636419
12.6557,-0.003086,-0.001749,-0.000302,0.0,0.0,0.0,-0.004053,-0.511593,-0.001364,-0.773522,-263.840858,0.01691,67.636419
12.6757,-0.003514,-0.001592,-0.00193,0.0,0.0,0.0,-0.00324,-0.511749,-0.000302,-0.773522,-263.840858,0.01691,67.636419
12.6961,-0.003524,-0.001234,-0.001999,0.0,0.0,0.0,-0.004392,-0.511605,-0.001793,-0.773522,-263.840858,0.01691,67.636419
12.7162,-0.003534,-0.001798,-0.001138,0.0,0.0,0.0,-0.004392,-0.511605,-0.001793,-0.773522,-263.840858,0.01691,67.636419
12.7355,-0.003575,-0.001688,-0.000365,0.0,0.0,0.0,-0.004115,-0.511797,-0.001138,-0.773522,-263.840858,0.01691,67.636419
12.7558,-0.003033,-0.001553,2.9e-05,0.0,0.0,0.0,-0.00397,-0.511753,-0.000822,-0.773522,-263.840858,0.01691,67.636419
12.7756,-0.003556,-0.001808,0.000511,0.0,0.0,0.0,-0.003018,-0.511553,2.9e-05,-0.773522,-263.840858,0.01691,67.636419
12.7958,-0.003174,-0.001275,-0.000201,0.0,0.0,0.0,-0.003271,-0.511785,0.000469,-0.773522,-263.840858,0.01691,67.636419
12.8156,-0.003247,-0.001646,-0.000164,0.0,0.0,0.0,-0.003271,-0.511785,0.000469,-0.773522,-263.840858,0.01691,67.636419
12.8359,-0.003483,-0.001878,1.9e-05,0.0,0.0,0.0,-0.003331,-0.511646,-0.000164,-0.773522,-263.840858,0.01691,67.636419
12.856,-0.003567,-0.001852,-8.2e-05,0.0,0.0,0.0,-0.003389,-0.511741,-8.8e-05,-0.773522,-263.840858,0.01691,67.636419
12.8757,-0.003278,-0.00174,0.000385,0.0,0.0,0.0,-0.003609,-0.511852,-8.2e-05,-0.773522,-263.840858,0.01691,67.636419
12.8957,-0.003272,-0.001683,0.000949,0.0,0.0,0.0,-0.003128,-0.51175,0.000344,-0.773522,-263.840858,0.01691,67.636419
12.9158,-0.003285,-0.00172,-3.4e-05,0.0,0.0,0.0,-0.003128,-0.51175,0.000344,-0.773522,-263.840858,0.01691,67.636419
12.9358,-0.003332,-0.001458,0.00105,0.0,0.0,0.0,-0.003302,-0.51172,-3.4e-05,-0.773522,-263.840858,0.01691,67.636419
12.9556,-0.003314,-0.001559,0.000505,0.0,0.0,0.0,-0.003094,-0.511612,0.000412,-0.773522,-263.840858,0.01691,67.636419
12.9755,-0.003633,-0.001241,0.000663,0.0,0.0,0.0,-0.003057,-0.511559,0.000505,-0.773522,-263.840858,0.01691,67.636419
12.9959,-0.00341,-0.001233,-0.002146,0.0,0.0,0.0,-0.003274,-0.511268,0.00065,-0.773522,-263.840858,0.01691,67.636419
13.0157,-0.003417,-0.001821,-0.001225,0.0,0.0,0.0,-0.003274,-0.511268,0.00065,-0.773522,-263.840858,0.01691,67.636419
13.0359,-0.003585,-0.001638,-0.000873,0.0,0.0,0.0,-0.004042,-0.511821,-0.001225,-0.773522,-263.840858,0.01691,67.636419
13.0559,-0.00347,-0.001594,-0.000442,0.0,0.0,0.0,-0.004037,-0.511746,-0.00108,-0.773522,-263.840858,0.01691,67.636419
13.0755,-0.003783,-0.001825,0.000598,0.0,0.0,0.0,-0.003695,-0.511594,-0.000442,-0.773522,-263.840858,0.01691,67.636419
13.0957,-0.003309,-0.001795,0.000644,0.0,0.0,0.0,-0.003497,-0.511805,0.000509,-0.773522,-263.840858,0.01691,67.636419
13.1157,-0.003144,-0.001258,-5.8e-05,0.0,0.0,0.0,-0.003497,-0.511805,0.000509,-0.773522,-263.840858,0.01691,67.636419
13.1356,-0.003532,-0.001362,-0.001314,0.0,0.0,0.0,-0.003174,-0.511258,-5.8e-05,-0.773522,-263.840858,0.01691,67.636419
13.1561,-0.003161,-0.001514,-0.000502,0.0,0.0,0.0,-0.003597,-0.511301,-0.000576,-0.773522,-263.840858,0.01691,67.636419
13.1756,-0.002975,-0.001735,0.001115,0.0,0.0,0.0,-0.003417,-0.511514,-0.000502,-0.773522,-263.840858,0.01691,67.636419
13.1959,-0.003043,-0.001708,-0.000242,0.0,0.0,0.0,-0.002496,-0.511715,0.00097,-0.773522,-263.840858,0.01691,67.636419
13.2162,-0.0037,-0.00131,-0.001304,0.0,0.0,0.0,-0.002496,-0.511715,0.00097,-0.773522,-263.840858,0.01691,67.636419
13.2357,-0.003669,-0.001736,0.000294,0.0,0.0,0.0,-0.004365,-0.51131,-0.001304,-0.773522,-263.840858,0.01691,67.636419
13.2556,-0.003409,-0.001745,-0.001331,0.0,0.0,0.0,-0.00402,-0.511484,-0.000651,-0.773522,-263.840858,0.01691,67.636419
13.2756,-0.003832,-0.001846,-0.000375,0.0,0.0,0.0,-0.004088,-0.511744,-0.001331,-0.773522,-263.840858,0.01691,67.636419
13.2954,-0.003364,-0.001757,-0.000547,0.0,0.0,0.0,-0.004029,-0.511837,-0.000457,-0.773522,-263.840858,0.01691,67.636419
13.3154,-0.003486,-0.001159,-0.00187,0.0,0.0,0.0,-0.004029,-0.511837,-0.000457,-0.773522,-263.840858,0.01691,67.636419
13.3356,-0.003572,-0.001688,-0.000907,0.0,0.0,0.0,-0.00444,-0.511158,-0.00187,-0.773522,-263.840858,0.01691,67.636419
13.3555,-0.003213,-0.001511,-0.001058,0.0,0.0,0.0,-0.004273,-0.511376,-0.001473,-0.773522,-263.840858,0.01691,67.636419
13.3757,-0.003091,-0.001852,0.001477,0.0,0.0,0.0,-0.003752,-0.511511,-0.001058,-0.773522,-263.840858,0.01691,67.636419
13.3958,-0.00339,-0.001763,-0.001394,0.0,0.0,0.0,-0.002466,-0.511821,0.001248,-0.773522,-263.840858,0.01691,67.636419
13.4156,-0.003269,-0.001689,-0.001236,0.0,0.0,0.0,-0.002466,-0.511821,0.001248,-0.773522,-263.840858,0.01691,67.636419
13.4355,-0.003761,-0.001857,-0.000443,0.0,0.0,0.0,-0.003899,-0.511689,-0.001236,-0.773522,-263.840858,0.01691,67.636419
13.4556,-0.003377,-0.001419,-0.000116,0.0,0.0,0.0,-0.003935,-0.511758,-0.000909,-0.773522,-263.840858,0.01691,67.636419
13.4757,-0.003392,-0.001629,-0.00034,0.0,0.0,0.0,-0.003437,-0.511419,-0.000116,-0.773522,-263.840858,0.01691,67.636419
13.4957,-0.003287,-0.001721,0.000178,0.0,0.0,0.0,-0.003554,-0.511612,-0.000321,-0.773522,-263.840858,0.01691,67.636419
13.5155,-0.003174,-0.001384,-0.000381,0.0,0.0,0.0,-0.003554,-0.511612,-0.000321,-0.773522,-263.840858,0.01691,67.636419
13.5357,-0.003309,-0.002053,-0.00096,0.0,0.0,0.0,-0.003369,-0.511384,-0.000381,-0.773522,-263.840858,0.01691,67.636419
13.5559,-0.003556,-0.001468,-0.001168,0.0,0.0,0.0,-0.003544,-0.511656,-0.000617,-0.773522,-263.840858,0.01691,67.636419
13.5754,-0.003459,-0.001578,0.000713,0.0,0.0,0.0,-0.004152,-0.511468,-0.001168,-0.773522,-263.840858,0.01691,67.636419
13.5958,-0.0035,-0.001838,-0.001681,0.0,0.0,0.0,-0.00319,-0.511568,0.000544,-0.773522,-263.840858,0.01691,67.636419
13.6158,-0.003237,-0.001777,-0.001002,0.0,0.0,0.0,-0.00319,-0.511568,0.000544,-0.773522,-263.840858,0.01691,67.636419
13.6357,-0.003403,-0.001599,-0.002655,0.0,0.0,0.0,-0.003748,-0.511777,-0.001002,-0.773522,-263.840858,0.01691,67.636419
13.6556,-0.003329,-0.001956,-0.002058,0.0,0.0,0.0,-0.004162,-0.511703,-0.00168,-0.773522,-263.840858,0.01691,67.636419
13.6762,-0.003389,-0.00139,0.001079,0.0,0.0,0.0,-0.004378,-0.511955,-0.002058,-0.773522,-263.840858,0.01691,67.636419
13.6957,-0.003155,-0.001659,-0.000345,0.0,0.0,0.0,-0.00297,-0.511438,0.000812,-0.773522,-263.840858,0.01691,67.636419
13.7156,-0.003499,-0.001499,-0.000285,0.0,0.0,0.0,-0.00297,-0.511438,0.000812,-0.773522,-263.840858,0.01691,67.636419
13.7355,-0.003653,-0.001599,-9.4e-05,0.0,0.0,0.0,-0.003644,-0.511498,-0.000285,-0.773522,-263.840858,0.01691,67.636419
13.7556,-0.003448,-0.001426,-0.000143,0.0,0.0,0.0,-0.003667,-0.51154,-0.000207,-0.773522,-263.840858,0.01691,67.636419
13.7754,-0.00345,-0.001611,-0.000341,0.0,0.0,0.0,-0.003521,-0.511426,-0.000143,-0.773522,-263.840858,0.01691,67.636419
13.7957,-0.00364,-0.001582,-0.001493,0.0,0.0,0.0,-0.003614,-0.511594,-0.000323,-0.773522,-263.840858,0.01691,67.636419
13.8156,-0.003695,-0.001665,-0.001268,0.0,0.0,0.0,-0.003614,-0.511594,-0.000323,-0.773522,-263.840858,0.01691,67.636419
13.836,-0.003759,-0.001348,-0.00046,0.0,0.0,0.0,-0.004341,-0.511665,-0.001268,-0.773522,-263.840858,0.01691,67.636419
13.8557,-0.003426,-0.001428,-0.000814,0.0,0.0,0.0,-0.004199,-0.511535,-0.000936,-0.773522,-263.840858,0.01691,67.636419
13.8755,-0.003509,-0.0018,-0.000546,0.0,0.0,0.0,-0.003841,-0.511428,-0.000814,-0.773522,-263.840858,0.01691,67.636419
13.8957,-0.003726,-0.00161,-0.000694,0.0,0.0,0.0,-0.003792,-0.511769,-0.000569,-0.773522,-263.840858,0.01691,67.636419
13.9157,-0.003174,-0.001665,0.000124,0.0,0.0,0.0,-0.003792,-0.511769,-0.000569,-0.773522,-263.840858,0.01691,67.636419
13.9357,-0.00356,-0.00162,-0.000147,0.0,0.0,0.0,-0.003111,-0.511665,0.000124,-0.773522,-263.840858,0.01691,67.636419
13.9555,-0.003275,-0.00142,-0.000734,0.0,0.0,0.0,-0.003325,-0.511647,1.4e-05,-0.773522,-263.840858,0.01691,67.636419
13.9757,-0.003509,-0.001333,-3.2e-05,0.0,0.0,0.0,-0.003649,-0.51142,-0.000734,-0.773522,-263.840858,0.01691,67.636419
13.9959,-0.003394,-0.001525,-0.00058,0.0,0.0,0.0,-0.003537,-0.511341,-9.4e-05,-0.773522,-263.840858,0.01691,67.636419
14.0159,-0.003665,-0.001741,-2.3e-05,0.0,0.0,0.0,-0.003537,-0.511341,-9.4e-05,-0.773522,-263.840858,0.01691,67.636419
14.0357,-0.003577,-0.001749,0.000907,0.0,0.0,0.0,-0.003677,-0.511741,-2.3e-05,-0.773522,-263.840858,0.01691,67.636419
14.0556,-0.003084,-0.001446,-0.000527,0.0,0.0,0.0,-0.003445,-0.511744,0.00036,-0.773522,-263.840858,0.01691,67.636419
14.0755,-0.003613,-0.001734,-0.001946,0.0,0.0,0.0,-0.003353,-0.511446,-0.000527,-0.773522,-263.840858,0.01691,67.636419
14.0956,-0.003459,-0.001758,-0.001578,0.0,0.0,0.0,-0.0045,-0.511709,-0.001826,-0.773522,-263.840858,0.01691,67.636419
14.1156,-0.003371,-0.001673,-0.001788,0.0,0.0,0.0,-0.0045,-0.511709,-0.001826,-0.773522,-263.840858,0.01691,67.636419
14.1354,-0.00362,-0.001517,1.2e-05,0.0,0.0,0.0,-0.004283,-0.511672,-0.001788,-0.773522,-263.840858,0.01691,67.636419
14.1556,-0.00313,-0.001907,0.000183,0.0,0.0,0.0,-0.004006,-0.511608,-0.001042,-0.773522,-263.840858,0.01691,67.636419
14.1757,-0.003801,-0.001726,0.000459,0.0,0.0,0.0,-0.003037,-0.511907,0.000183,-0.773522,-263.840858,0.01691,67.636419
14.1962,-0.003482,-0.001275,4.1e-05,0.0,0.0,0.0,-0.003522,-0.511741,0.000435,-0.773522,-263.840858,0.01691,67.636419
14.2165,-0.003151,-0.001669,-0.001977,0.0,0.0,0.0,-0.003522,-0.511741,0.000435,-0.773522,-263.840858,0.01691,67.636419
14.2358,-0.003538,-0.001846,-0.000542,0.0,0.0,0.0,-0.004159,-0.511668,-0.001977,-0.773522,-263.840858,0.01691,67.636419
14.2559,-0.003266,-0.001608,-0.000722,0.0,0.0,0.0,-0.004018,-0.511741,-0.001391,-0.773522,-263.840858,0.01691,67.636419
14.2758,-0.003862,-0.001436,-0.001652,0.0,0.0,0.0,-0.003634,-0.511608,-0.000722,-0.773522,-263.840858,0.01691,67.636419
14.2958,-0.003144,-0.00135,-0.000724,0.0,0.0,0.0,-0.004612,-0.51145,-0.001572,-0.773522,-263.840858,0.01691,67.636419
14.3159,-0.003515,-0.001841,0.000118,0.0,0.0,0.0,-0.004612,-0.51145,-0.001572,-0.773522,-263.840858,0.01691,67.636419
14.3356,-0.003173,-0.001793,-0.001054,0.0,0.0,0.0,-0.003455,-0.511841,0.000118,-0.773522,-263.840858,0.01691,67.636419
14.3556,-0.003467,-0.001699,0.000585,0.0,0.0,0.0,-0.00356,-0.511821,-0.000362,-0.773522,-263.840858,0.01691,67.636419
14.3753,-0.003648,-0.001689,-0.001548,0.0,0.0,0.0,-0.003169,-0.511699,0.000585,-0.773522,-263.840858,0.01691,67.636419
14.3956,-0.003791,-0.001697,0.000113,0.0,0.0,0.0,-0.004322,-0.51169,-0.001355,-0.773522,-263.840858,0.01691,67.636419
14.4155,-0.003499,-0.001726,-0.000666,0.0,0.0,0.0,-0.004322,-0.51169,-0.001355,-0.773522,-263.840858,0.01691,67.636419
14.4355,-0.003768,-0.00163,-0.000862,0.0,0.0,0.0,-0.003838,-0.511726,-0.000666,-0.773522,-263.840858,0.01691,67.636419
14.4557,-0.003352,-0.001686,-0.002691,0.0,0.0,0.0,-0.00399,-0.511686,-0.000746,-0.773522,-263.840858,0.01691,67.636419
14.476,-0.003556,-0.001446,0.000223,0.0,0.0,0.0,-0.004724,-0.511684,-0.002691,-0.773522,-263.840858,0.01691,67.636419
14.4958,-0.003254,-0.001526,-0.001369,0.0,0.0,0.0,-0.003555,-0.511467,-3.4e-05,-0.773522,-263.840858,0.01691,67.636419
14.5158,-0.003182,-0.001957,-0.000872,0.0,0.0,0.0,-0.003555,-0.511467,-3.4e-05,-0.773522,-263.840858,0.01691,67.636419
14.5357,-0.003449,-0.00182,-0.001586,0.0,0.0,0.0,-0.003627,-0.511957,-0.000872,-0.773522,-263.840858,0.01691,67.636419
14.5559,-0.003437,-0.001507,3.6e-05,0.0,0.0,0.0,-0.003884,-0.511901,-0.001162,-0.773522,-263.840858,0.01691,67.636419
14.5754,-0.003013,-0.001496,-0.001348,0.0,0.0,0.0,-0.003418,-0.511507,3.6e-05,-0.773522,-263.840858,0.01691,67.636419
14.5955,-0.003639,-0.001587,-0.000789,0.0,0.0,0.0,-0.003676,-0.511496,-0.001227,-0.773522,-263.840858,0.01691,67.636419
14.6157,-0.003327,-0.00201,-0.001465,0.0,0.0,0.0,-0.003676,-0.511496,-0.001227,-0.773522,-263.840858,0.01691,67.636419
14.6356,-0.00328,-0.001583,-0.001257,0.0,0.0,0.0,-0.004074,-0.512009,-0.001465,-0.773522,-263.840858,0.01691,67.636419
14.6558,-0.003513,-0.001561,-0.0016,0.0,0.0,0.0,-0.004011,-0.511834,-0.001379,-0.773522,-263.840858,0.01691,67.636419
14.6758,-0.003528,-0.001305,-0.001018,0.0,0.0,0.0,-0.004329,-0.511561,-0.0016,-0.773522,-263.840858,0.01691,67.636419
14.6959,-0.003339,-0.00141,-0.000141,0.0,0.0,0.0,-0.004072,-0.511327,-0.001069,-0.773522,-263.840858,0.01691,67.636419
14.7161,-0.003439,-0.001854,-0.001438,0.0,0.0,0.0,-0.004072,-0.511327,-0.001069,-0.773522,-263.840858,0.01691,67.636419
14.7358,-0.003167,-0.001679,-0.002252,0.0,0.0,0.0,-0.004173,-0.511853,-0.001438,-0.773522,-263.840858,0.01691,67.636419
14.756,-0.003761,-0.002063,-0.000641,0.0,0.0,0.0,-0.00423,-0.511782,-0.001768,-0.773522,-263.840858,0.01691,67.636419
14.7757,-0.003568,-0.001997,-0.001261,0.0,0.0,0.0,-0.004088,-0.512063,-0.000641,-0.773522,-263.840858,0.01691,67.636419
14.7958,-0.003339,-0.00162,-0.001864,0.0,0.0,0.0,-0.004201,-0.512002,-0.001208,-0.773522,-263.840858,0.01691,67.636419
14.8155,-0.003177,-0.001533,3.4e-05,0.0,0.0,0.0,-0.004201,-0.512002,-0.001208,-0.773522,-263.840858,0.01691,67.636419
14.8357,-0.003365,-0.001528,-0.000513,0.0,0.0,0.0,-0.00316,-0.511533,3.4e-05,-0.773522,-263.840858,0.01691,67.636419
14.8556,-0.003726,-0.001768,-0.002521,0.0,0.0,0.0,-0.003353,-0.511531,-0.000192,-0.773522,-263.840858,0.01691,67.636419
14.8758,-0.003393,-0.002125,-4e-06,0.0,0.0,0.0,-0.005012,-0.511766,-0.002521,-0.773522,-263.840858,0.01691,67.636419
14.8956,-0.003427,-0.001596,-6.1e-05,0.0,0.0,0.0,-0.003534,-0.512094,-0.000221,-0.773522,-263.840858,0.01691,67.636419
14.9157,-0.00361,-0.001652,0.000174,0.0,0.0,0.0,-0.003534,-0.512094,-0.000221,-0.773522,-263.840858,0.01691,67.636419
14.9357,-0.003688,-0.001476,-0.000336,0.0,0.0,0.0,-0.003521,-0.511652,0.000174,-0.773522,-263.840858,0.01691,67.636419
14.9559,-0.003491,-0.001631,6.4e-05,0.0,0.0,0.0,-0.003662,-0.511579,-3.7e-05,-0.773522,-263.840858,0.01691,67.636419
14.9756,-0.003525,-0.001254,0.000833,0.0,0.0,0.0,-0.003459,-0.511631,6.4e-05,-0.773522,-263.840858,0.01691,67.636419
14.9958,-0.003405,-0.001447,-0.001634,0.0,0.0,0.0,-0.00313,-0.511286,0.000768,-0.773522,-263.840858,0.01691,67.636419
15.016,-0.003204,-0.00154,-0.000664,0.0,0.0,0.0,-0.00313,-0.511286,0.000768,-0.773522,-263.840858,0.01691,67.636419
15.0356,-0.003808,-0.002159,-0.000327,0.0,0.0,0.0,-0.003543,-0.511539,-0.000664,-0.773522,-263.840858,0.01691,67.636419
15.0557,-0.00332,-0.001402,-0.00018,0.0,0.0,0.0,-0.00372,-0.511793,-0.000526,-0.773522,-263.840858,0.01691,67.636419
15.0754,-0.003552,-0.001533,-0.000625,0.0,0.0,0.0,-0.003412,-0.511402,-0.00018,-0.773522,-263.840858,0.01691,67.636419
15.0955,-0.003012,-0.001558,0.000558,0.0,0.0,0.0,-0.003831,-0.511522,-0.000587,-0.773522,-263.840858,0.01691,67.636419
15.1156,-0.003501,-0.001242,-0.000906,0.0,0.0,0.0,-0.003831,-0.511522,-0.000587,-0.773522,-263.840858,0.01691,67.636419
