mach0312/omni-docking-bench/src/icros_test_setup/results/MPPI_sample/timeseries/trial_125.csv
t,x,y,yaw,vx,vy,wz,bl_x,bl_y,bl_yaw,front_steering_joint,front_wheel_joint,rear_steering_joint,rear_wheel_joint
0.0,0.026618,-0.023152,-0.08704,-0.007499,-0.000232,0.000101,-0.017326,-0.531439,-0.087913,0.022653,-260.489042,0.03909,69.884992
0.0004,0.026193,-0.023649,-0.08706,-0.007481,-0.000231,0.000101,-0.017449,-0.532051,-0.087789,0.022653,-260.491772,0.03909,69.882261
0.0007,0.026409,-0.023114,-0.088522,-0.007425,-0.000229,0.0001,-0.017473,-0.531779,-0.088052,0.022653,-260.494706,0.03909,69.879325
0.001,0.02636,-0.023063,-0.087025,-0.007331,-0.000226,9.9e-05,-0.017473,-0.531779,-0.088052,0.022653,-260.497698,0.03909,69.876332
0.0013,0.025986,-0.023314,-0.088452,-0.0072,-0.000222,9.7e-05,-0.017939,-0.531254,-0.08819,0.022653,-260.500688,0.03909,69.87334
0.0017,0.026072,-0.023133,-0.088421,-0.007032,-0.000217,9.5e-05,-0.017939,-0.531254,-0.08819,0.022653,-260.50355,0.03909,69.870477
0.0019,0.025148,-0.023189,-0.088063,-0.006826,-0.000211,9.2e-05,-0.017636,-0.531338,-0.0874,0.022653,-260.50355,0.03909,69.870477
0.0022,0.025608,-0.022777,-0.087335,-0.006583,-0.000203,8.9e-05,-0.017636,-0.531338,-0.0874,0.022653,-260.50355,0.03909,69.870477
0.0026,0.02574,-0.023391,-0.088737,-0.006301,-0.000195,8.5e-05,-0.017636,-0.531338,-0.0874,0.022653,-260.50355,0.03909,69.870477
0.0167,0.025115,-0.023227,-0.087812,0.0,0.0,0.0,-0.019732,-0.531369,-0.088733,0.022653,-260.506194,0.03909,69.867832
0.0369,0.025031,-0.022815,-0.087675,0.0,0.0,0.0,-0.019714,-0.531323,-0.088351,0.022653,-260.506194,0.03909,69.867832
0.0573,0.025283,-0.023385,-0.087059,0.0,0.0,0.0,-0.019627,-0.530856,-0.087675,0.022653,-260.506194,0.03909,69.867832
0.0769,0.025185,-0.02325,-0.087711,0.0,0.0,0.0,-0.019104,-0.531408,-0.087106,0.022653,-260.506194,0.03909,69.867832
0.0967,0.025235,-0.023109,-0.087676,0.0,0.0,0.0,-0.019104,-0.531408,-0.087106,0.022653,-260.506194,0.03909,69.867832
0.117,0.025309,-0.02328,-0.088264,0.002285,0.002813,0.006591,-0.019423,-0.53115,-0.087676,0.022653,-260.506194,0.03909,69.867832
0.1371,0.025122,-0.022882,-0.087667,0.002504,0.003067,0.007051,-0.019514,-0.531209,-0.087915,0.022653,-260.506194,0.03909,69.867832
0.1565,0.024959,-0.022893,-0.086322,0.00269,0.003286,0.007411,-0.019531,-0.530924,-0.087667,0.097331,-260.506194,-0.035588,69.867832
0.1768,0.025279,-0.02325,-0.088582,0.002843,0.003476,0.007694,-0.019058,-0.530988,-0.086444,0.097331,-260.506194,-0.035588,69.867832
0.1967,0.02509,-0.023046,-0.086404,0.002973,0.00364,0.007914,-0.019058,-0.530988,-0.086444,0.097331,-260.506194,-0.035588,69.867832
0.2169,0.025576,-0.023159,-0.086603,0.003083,0.003781,0.008087,-0.018921,-0.531143,-0.086404,0.172241,-260.506194,-0.110499,69.867832
0.2372,0.025075,-0.023155,-0.086601,0.003166,0.00391,0.00822,-0.018762,-0.531187,-0.086486,0.172241,-260.506194,-0.110499,69.867832
0.2567,0.02539,-0.023194,-0.08711,0.003237,0.004021,0.008323,-0.019036,-0.531244,-0.086601,0.24737,-260.506194,-0.185628,69.867832
0.2766,0.025155,-0.023256,-0.086369,0.003299,0.004115,0.008403,-0.018985,-0.531259,-0.087067,0.24737,-260.506194,-0.185628,69.867832
0.2968,0.025316,-0.023164,-0.088117,0.003352,0.004196,0.008466,-0.018985,-0.531259,-0.087067,0.24737,-260.506194,-0.185628,69.867832
0.3167,0.025127,-0.023147,-0.087633,0.003397,0.004265,0.008514,-0.019566,-0.531185,-0.088117,0.322372,-260.506193,-0.26063,69.867832
0.3367,0.025479,-0.023144,-0.087365,0.003448,0.004316,0.008552,-0.019542,-0.531187,-0.087917,0.322372,-260.506193,-0.26063,69.867832
0.3565,0.024565,-0.022816,-0.088981,0.00349,0.004361,0.008582,-0.01902,-0.531199,-0.087365,0.397372,-260.506193,-0.268506,69.867832
0.3768,0.0253,-0.023305,-0.08748,0.003553,0.004379,0.008606,-0.020605,-0.530833,-0.088842,0.397372,-260.506193,-0.268506,69.867832
0.3972,0.025061,-0.023067,-0.088531,0.003606,0.004395,0.008624,-0.020605,-0.530833,-0.088842,0.397372,-260.506193,-0.268506,69.867832
0.4168,0.025153,-0.022947,-0.089266,0.003651,0.00441,0.008638,-0.020031,-0.53107,-0.088531,0.472356,-260.506192,-0.247062,69.867832
0.4371,0.025363,-0.023178,-0.088058,0.003674,0.004435,0.008648,-0.020146,-0.531007,-0.088832,0.472356,-260.506192,-0.247062,69.867832
0.457,0.025245,-0.023165,-0.086624,0.003694,0.004456,0.008656,-0.019489,-0.531202,-0.088058,0.547369,-260.506192,-0.232767,69.867832
0.4771,0.024797,-0.023274,-0.087048,0.00368,0.004499,0.008661,-0.01893,-0.531248,-0.086747,0.547369,-260.506192,-0.232767,69.867832
0.4969,0.025104,-0.022818,-0.087609,0.003669,0.004535,0.008665,-0.01893,-0.531248,-0.086747,0.547369,-260.506192,-0.232767,69.867832
0.5172,0.025483,-0.023113,-0.087926,0.00366,0.004565,0.008668,-0.019519,-0.530862,-0.087609,0.622328,-260.506189,-0.221094,69.867833
0.5368,0.02487,-0.023115,-0.089224,0.003669,0.004579,0.008671,-0.01943,-0.530978,-0.087739,0.622328,-260.506189,-0.221094,69.867833
0.5572,0.025278,-0.022941,-0.089865,0.003677,0.004591,0.008673,-0.020574,-0.531086,-0.089224,0.697366,-260.506178,-0.196644,69.867837
0.5768,0.025715,-0.022958,-0.08755,0.003705,0.004584,0.008675,-0.020498,-0.530899,-0.089814,0.697366,-260.506178,-0.196644,69.867837
0.5969,0.025306,-0.023441,-0.088569,0.003729,0.004579,0.008676,-0.020498,-0.530899,-0.089814,0.697366,-260.506178,-0.196644,69.867837
0.6169,0.025101,-0.023026,-0.08626,0.003749,0.004576,0.008678,-0.019803,-0.53144,-0.088566,0.772608,-260.506131,-0.189647,69.867854
0.6367,0.025092,-0.023209,-0.08952,0.003737,0.004596,0.008678,-0.019413,-0.531315,-0.087635,0.772608,-260.506131,-0.189647,69.867854
0.6568,0.02533,-0.023138,-0.087806,0.003726,0.004612,0.008678,-0.020495,-0.531162,-0.089511,0.84724,-260.505947,-0.19084,69.86792
0.6767,0.02513,-0.023791,-0.086864,0.003722,0.004623,0.008678,-0.019493,-0.531172,-0.087961,0.84724,-260.505947,-0.19084,69.86792
0.6967,0.024972,-0.02341,-0.0867,0.003719,0.004633,0.008678,-0.019493,-0.531172,-0.087961,0.84724,-260.505947,-0.19084,69.86792
0.7171,0.025191,-0.023417,-0.088092,0.003716,0.004641,0.008678,-0.019163,-0.531478,-0.086664,0.922245,-260.505459,-0.182478,69.868095
0.7372,0.025372,-0.023504,-0.087446,0.003707,0.004653,0.008678,-0.01938,-0.53146,-0.087271,0.922245,-260.505459,-0.182478,69.868095
0.7569,0.025121,-0.023103,-0.088341,0.003699,0.004663,0.008678,-0.019128,-0.531526,-0.087383,0.997817,-260.504392,-0.175678,69.868475
0.7767,0.025523,-0.022801,-0.088105,0.003707,0.004661,0.008678,-0.019808,-0.531149,-0.088254,0.997817,-260.504392,-0.175678,69.868475
0.7968,0.025613,-0.023337,-0.087458,0.003714,0.00466,0.008679,-0.019808,-0.531149,-0.088254,0.997817,-260.504392,-0.175678,69.868475
0.8167,0.025302,-0.022886,-0.088466,0.00372,0.004658,0.008679,-0.018841,-0.531311,-0.087299,1.072322,-260.502412,-0.170439,69.869174
0.8373,0.025185,-0.022914,-0.088127,0.003712,0.004667,0.008679,-0.019202,-0.531132,-0.087754,1.072322,-260.502412,-0.170439,69.869174
0.8567,0.025623,-0.022389,-0.087192,0.003706,0.004674,0.008679,-0.019599,-0.530838,-0.087931,1.147228,-260.499318,-0.170989,69.870272
0.8767,0.025021,-0.023006,-0.086155,0.003706,0.004676,0.008739,-0.018853,-0.53048,-0.087245,1.147228,-260.499318,-0.170989,69.870272
0.897,0.024745,-0.023032,-0.086744,0.003706,0.004677,0.008788,-0.018853,-0.53048,-0.087245,1.147228,-260.499318,-0.170989,69.870272
0.9166,0.025661,-0.022551,-0.086849,0.003706,0.004679,0.008828,-0.01928,-0.530947,-0.086407,1.215095,-260.495371,-0.167514,69.871666
0.9365,0.025042,-0.02235,-0.085887,0.003703,0.004682,0.008893,-0.018975,-0.530798,-0.086549,1.215095,-260.495371,-0.167514,69.871666
0.9565,0.025302,-0.022618,-0.085227,0.0037,0.004686,0.008945,-0.018577,-0.530333,-0.085608,1.218169,-260.491106,-0.190132,69.873166
0.9767,0.025206,-0.022341,-0.086919,0.003681,0.004701,0.009019,-0.018145,-0.530724,-0.085246,1.218169,-260.491106,-0.190132,69.873166
0.9966,0.025104,-0.022188,-0.087609,0.003666,0.004713,0.009079,-0.018145,-0.530724,-0.085246,1.218169,-260.491106,-0.190132,69.873166
1.0166,0.025231,-0.022352,-0.084221,0.003653,0.004724,0.009128,-0.019349,-0.530051,-0.087237,1.221178,-260.486806,-0.207195,69.874672
1.0368,0.02519,-0.021862,-0.08628,0.003664,0.004717,0.009198,-0.01864,-0.530233,-0.085954,1.221178,-260.486806,-0.207195,69.874672
1.0568,0.024927,-0.021874,-0.08541,0.003672,0.004711,0.009255,-0.018631,-0.529827,-0.085993,1.229923,-260.482482,-0.228912,69.876156
1.0769,0.025055,-0.021408,-0.085824,0.003684,0.004703,0.009331,-0.018577,-0.529991,-0.085447,1.229923,-260.482482,-0.228912,69.876156
1.0966,0.024997,-0.021933,-0.084227,0.003693,0.004697,0.009394,-0.018577,-0.529991,-0.085447,1.229923,-260.482482,-0.228912,69.876156
1.1166,0.025175,-0.021544,-0.084944,0.003701,0.004692,0.009445,-0.01774,-0.529943,-0.083844,1.230244,-260.478118,-0.250949,69.877661
1.1368,0.025423,-0.021574,-0.085862,0.003695,0.004697,0.009515,-0.017864,-0.529825,-0.084247,1.230244,-260.478118,-0.250949,69.877661
1.1572,0.024948,-0.021371,-0.083591,0.00369,0.004702,0.009573,-0.018184,-0.529559,-0.085566,1.230779,-260.473688,-0.2831,69.879199
1.1771,0.024867,-0.021271,-0.085167,0.003686,0.004705,0.009648,-0.017663,-0.529583,-0.083702,1.230779,-260.473688,-0.2831,69.879199
1.197,0.02501,-0.021303,-0.085846,0.003684,0.004708,0.00971,-0.017663,-0.529583,-0.083702,1.230779,-260.473688,-0.2831,69.879199
1.2165,0.024822,-0.02134,-0.083419,0.003682,0.00471,0.009761,-0.018551,-0.529246,-0.085454,1.234313,-260.469299,-0.30086,69.880716
1.2368,0.025089,-0.021019,-0.085094,0.003696,0.004699,0.009829,-0.018171,-0.529357,-0.084572,1.234313,-260.469299,-0.30086,69.880716
1.2568,0.024749,-0.021253,-0.084522,0.003708,0.004691,0.009885,-0.018128,-0.529036,-0.084787,1.238579,-260.464844,-0.327692,69.882251
1.2769,0.024687,-0.020514,-0.08398,0.00372,0.004682,0.009953,-0.018283,-0.529389,-0.08453,1.238579,-260.464844,-0.327692,69.882251
1.2968,0.025173,-0.020746,-0.083338,0.00373,0.004675,0.010009,-0.018283,-0.529389,-0.08453,1.238579,-260.464844,-0.327692,69.882251
1.3166,0.024982,-0.020631,-0.081493,0.003739,0.004669,0.010056,-0.01711,-0.528794,-0.082926,1.237979,-260.460335,-0.348368,69.883818
1.3367,0.025291,-0.020538,-0.082526,0.003724,0.00468,0.010111,-0.016857,-0.528832,-0.082299,1.237979,-260.460335,-0.348368,69.883818
1.3564,0.024688,-0.020805,-0.082083,0.003713,0.004689,0.010156,-0.01662,-0.528665,-0.082209,1.237831,-260.455811,-0.375153,69.885407
1.3769,0.024823,-0.020321,-0.081465,0.003704,0.004696,0.010205,-0.017074,-0.529043,-0.082078,1.237831,-260.455811,-0.375153,69.885407
1.3967,0.02512,-0.020373,-0.084,0.003697,0.004702,0.010245,-0.017074,-0.529043,-0.082078,1.237831,-260.455811,-0.375153,69.885407
1.4168,0.024874,-0.020343,-0.081995,0.003692,0.004706,0.010278,-0.017499,-0.528393,-0.083575,1.242284,-260.45119,-0.38713,69.887018
1.4371,0.024675,-0.020091,-0.082402,0.003703,0.004698,0.010312,-0.017224,-0.528472,-0.082857,1.242284,-260.45119,-0.38713,69.887018
1.4569,0.024502,-0.019798,-0.080695,0.003712,0.004691,0.01034,-0.017175,-0.528222,-0.082079,1.246553,-260.446597,-0.402303,69.888608
1.4769,0.02489,-0.019774,-0.080802,0.003715,0.00469,0.010367,-0.016649,-0.528139,-0.080797,1.246553,-260.446597,-0.402303,69.888608
1.4967,0.024526,-0.019901,-0.08048,0.003716,0.004688,0.010389,-0.016649,-0.528139,-0.080797,1.246553,-260.446597,-0.402303,69.888608
1.5171,0.024729,-0.019882,-0.081159,0.003718,0.004687,0.010408,-0.016304,-0.528068,-0.080049,1.24549,-260.441965,-0.412302,69.890224
1.5375,0.024618,-0.019481,-0.081416,0.003714,0.00469,0.010427,-0.016413,-0.528102,-0.080454,1.24549,-260.441965,-0.412302,69.890224
1.5573,0.024745,-0.019417,-0.080647,0.003711,0.004693,0.010443,-0.016729,-0.527652,-0.081085,1.246051,-260.437285,-0.422039,69.891861
1.577,0.024349,-0.019835,-0.081056,0.003715,0.004689,0.010461,-0.016364,-0.527745,-0.080665,1.246051,-260.437285,-0.422039,69.891861
1.5967,0.024252,-0.019182,-0.07935,0.003719,0.004687,0.010475,-0.016364,-0.527745,-0.080665,1.246051,-260.437285,-0.422039,69.891861
1.6167,0.024498,-0.019321,-0.080476,0.003722,0.004684,0.010487,-0.016005,-0.527396,-0.078916,1.247355,-260.432643,-0.426359,69.893481
1.6371,0.024556,-0.019417,-0.080121,0.003727,0.00468,0.010501,-0.016186,-0.527486,-0.079498,1.247355,-260.432643,-0.426359,69.893481
1.6564,0.024531,-0.018749,-0.078591,0.003731,0.004677,0.010512,-0.016132,-0.527642,-0.079787,1.246981,-260.427957,-0.433057,69.895124
1.6772,0.024495,-0.018781,-0.081163,0.003724,0.004682,0.010525,-0.015555,-0.527208,-0.078675,1.246981,-260.427957,-0.433057,69.895124
1.6968,0.024178,-0.019196,-0.078815,0.003719,0.004686,0.010536,-0.015555,-0.527208,-0.078675,1.246981,-260.427957,-0.433057,69.895124
1.7167,0.02444,-0.018791,-0.078274,0.003714,0.004689,0.010544,-0.015805,-0.527431,-0.078376,1.246493,-260.423285,-0.437074,69.896767
1.7367,0.02446,-0.018743,-0.079124,0.00371,0.004692,0.010554,-0.015637,-0.527328,-0.078284,1.246493,-260.423285,-0.437074,69.896767
1.7569,0.024269,-0.017872,-0.078496,0.003707,0.004695,0.010562,-0.015722,-0.527007,-0.078788,1.248701,-260.418593,-0.440445,69.898409
1.7769,0.024515,-0.018617,-0.077538,0.00373,0.004676,0.010573,-0.015716,-0.526358,-0.078505,1.248701,-260.418593,-0.440445,69.898409
1.7967,0.024225,-0.0188,-0.078816,0.00375,0.004661,0.010581,-0.015716,-0.526358,-0.078505,1.248701,-260.418593,-0.440445,69.898409
1.8173,0.024347,-0.018225,-0.076611,0.003765,0.004648,0.010588,-0.015759,-0.527033,-0.078374,1.249731,-260.413895,-0.442434,69.900049
1.837,0.02451,-0.018387,-0.078056,0.003754,0.004657,0.010595,-0.015304,-0.526888,-0.077606,1.249731,-260.413895,-0.442434,69.900049
1.8564,0.024213,-0.017857,-0.078222,0.003745,0.004664,0.010601,-0.015127,-0.526695,-0.077719,1.244152,-260.409207,-0.449959,69.90172
1.877,0.024316,-0.018325,-0.078108,0.003759,0.004652,0.010608,-0.015586,-0.526327,-0.078159,1.244152,-260.409207,-0.449959,69.90172
1.8973,0.024238,-0.017938,-0.076453,0.003771,0.004643,0.010614,-0.015586,-0.526327,-0.078159,1.244152,-260.409207,-0.449959,69.90172
1.9166,0.024053,-0.01793,-0.078028,0.003781,0.004635,0.010619,-0.014544,-0.526265,-0.076009,1.246437,-260.404507,-0.450375,69.903383
1.9372,0.024206,-0.01775,-0.07635,0.003774,0.004641,0.010624,-0.014994,-0.52629,-0.076778,1.246437,-260.404507,-0.450375,69.903383
1.9569,0.023639,-0.017367,-0.075757,0.003768,0.004645,0.010628,-0.014564,-0.526126,-0.076012,1.243106,-260.399806,-0.455098,69.905068
1.9774,0.023941,-0.01746,-0.077241,0.003772,0.004642,0.010633,-0.014919,-0.525917,-0.075763,1.243106,-260.399806,-0.455098,69.905068
1.9967,0.024387,-0.017637,-0.076176,0.003775,0.004639,0.010637,-0.014919,-0.525917,-0.075763,1.243106,-260.399806,-0.455098,69.905068
2.0169,0.024003,-0.017378,-0.075895,0.003777,0.004637,0.01064,-0.014254,-0.525976,-0.075731,1.244531,-260.395109,-0.455601,69.906745
2.0366,0.024595,-0.017603,-0.074888,0.003764,0.004647,0.010644,-0.014401,-0.525928,-0.075747,1.244531,-260.395109,-0.455601,69.906745
2.0568,0.023771,-0.016929,-0.076033,0.003752,0.004656,0.010646,-0.013431,-0.526035,-0.074549,1.24375,-260.390406,-0.457938,69.908429
2.0771,0.024159,-0.017027,-0.074491,0.003767,0.004644,0.01065,-0.014825,-0.5255,-0.075884,1.24375,-260.390406,-0.457938,69.908429
2.0971,0.024341,-0.017129,-0.075583,0.003779,0.004634,0.010653,-0.014825,-0.5255,-0.075884,1.24375,-260.390406,-0.457938,69.908429
2.1173,0.02412,-0.016757,-0.074232,0.003789,0.004626,0.010655,-0.013998,-0.52549,-0.075137,1.246374,-260.385698,-0.457329,69.910101
2.1367,0.024078,-0.016614,-0.075654,0.003771,0.004639,0.010657,-0.01386,-0.525414,-0.074722,1.246374,-260.385698,-0.457329,69.910101
2.1564,0.023707,-0.016412,-0.074647,0.003756,0.00465,0.010659,-0.014337,-0.525017,-0.075314,1.242724,-260.380996,-0.460966,69.911793
2.1769,0.023865,-0.016217,-0.075937,0.003771,0.004639,0.010662,-0.014321,-0.524987,-0.07469,1.242724,-260.380996,-0.460966,69.911793
2.1969,0.023849,-0.016683,-0.073253,0.003782,0.004629,0.010664,-0.014321,-0.524987,-0.07469,1.242724,-260.380996,-0.460966,69.911793
2.2174,0.024058,-0.016467,-0.072818,0.003792,0.004622,0.010666,-0.013306,-0.525132,-0.072806,1.246121,-260.376287,-0.459702,69.913469
2.2369,0.024101,-0.01635,-0.073799,0.003761,0.004645,0.010667,-0.013181,-0.525104,-0.072759,1.246121,-260.376287,-0.459702,69.913469
2.2567,0.023797,-0.016277,-0.073743,0.003736,0.004663,0.010668,-0.013371,-0.524824,-0.073459,1.242615,-260.371552,-0.462951,69.915175
2.2771,0.023747,-0.016038,-0.073008,0.003739,0.004661,0.01067,-0.013742,-0.52488,-0.073708,1.242615,-260.371552,-0.462951,69.915175
2.2972,0.023667,-0.015815,-0.072508,0.003742,0.004658,0.010671,-0.013742,-0.52488,-0.073708,1.242615,-260.371552,-0.462951,69.915175
2.3168,0.023682,-0.015721,-0.073346,0.003745,0.004656,0.010672,-0.013111,-0.524293,-0.072065,1.248277,-260.366871,-0.460246,69.916831
2.3367,0.023482,-0.016214,-0.072367,0.003751,0.004651,0.010674,-0.013326,-0.524295,-0.072532,1.248277,-260.366871,-0.460246,69.916831
2.3564,0.023788,-0.016025,-0.071485,0.003756,0.004646,0.010675,-0.013263,-0.52474,-0.072028,1.247442,-260.362157,-0.461355,69.918504
2.3768,0.023619,-0.015719,-0.071118,0.003727,0.004668,0.010676,-0.012686,-0.524717,-0.071515,1.247442,-260.362157,-0.461355,69.918504
2.397,0.023453,-0.015503,-0.071572,0.003703,0.004686,0.010676,-0.012686,-0.524717,-0.071515,1.247442,-260.362157,-0.461355,69.918504
2.4165,0.023469,-0.015499,-0.072436,0.003683,0.004701,0.010677,-0.012846,-0.524014,-0.071125,1.246315,-260.357445,-0.462687,69.920183
2.4367,0.023438,-0.015502,-0.071036,0.0037,0.004687,0.010678,-0.013068,-0.524053,-0.071605,1.246315,-260.357445,-0.462687,69.920183
2.4569,0.023314,-0.015353,-0.069208,0.003713,0.004677,0.01068,-0.012631,-0.524075,-0.070695,1.253671,-260.352726,-0.459003,69.921824
2.4769,0.023333,-0.015298,-0.071656,0.003686,0.004696,0.01068,-0.012009,-0.52412,-0.069325,1.253671,-260.352726,-0.459003,69.921824
2.4971,0.023323,-0.015532,-0.071918,0.003664,0.004712,0.010681,-0.012009,-0.52412,-0.069325,1.253671,-260.352726,-0.459003,69.921824
2.517,0.023347,-0.014973,-0.071408,0.003647,0.004725,0.010681,-0.013155,-0.524029,-0.071471,1.250631,-260.348008,-0.461362,69.923482
2.5374,0.023594,-0.015223,-0.071389,0.003676,0.004702,0.010683,-0.013088,-0.523863,-0.071394,1.250631,-260.348008,-0.461362,69.923482
2.5574,0.023173,-0.014913,-0.06962,0.003701,0.004683,0.010684,-0.012657,-0.523782,-0.071049,1.257309,-260.343282,-0.45826,69.925108
2.5771,0.023503,-0.014913,-0.069876,0.003701,0.004682,0.010685,-0.01233,-0.52368,-0.069731,1.257309,-260.343282,-0.45826,69.925108
2.5968,0.023366,-0.014926,-0.0704,0.003702,0.004682,0.010686,-0.01233,-0.52368,-0.069731,1.257309,-260.343282,-0.45826,69.925108
2.6168,0.023383,-0.01451,-0.06776,0.003702,0.004681,0.010686,-0.01234,-0.523478,-0.069954,1.251868,-260.338564,-0.46189,69.92676
2.6375,0.023605,-0.014112,-0.068687,0.003693,0.004687,0.010687,-0.011834,-0.5234,-0.069006,1.251868,-260.338564,-0.46189,69.92676
2.6567,0.023333,-0.013874,-0.070398,0.003686,0.004692,0.010688,-0.011269,-0.522768,-0.068345,1.251769,-260.333801,-0.4624,69.928429
2.677,0.023486,-0.014386,-0.068397,0.003727,0.004659,0.01069,-0.012434,-0.522617,-0.07022,1.251769,-260.333801,-0.4624,69.928429
2.6969,0.023115,-0.014091,-0.06911,0.00376,0.004632,0.010692,-0.012434,-0.522617,-0.07022,1.251769,-260.333801,-0.4624,69.928429
2.7168,0.02325,-0.013734,-0.067558,0.003787,0.00461,0.010693,-0.011937,-0.52269,-0.068666,1.25337,-260.329119,-0.461909,69.930062
2.7371,0.02296,-0.014022,-0.067493,0.003781,0.004614,0.010694,-0.011615,-0.522621,-0.068172,1.25337,-260.329119,-0.461909,69.930062
2.7564,0.022818,-0.013833,-0.067895,0.003775,0.004618,0.010694,-0.011304,-0.522721,-0.067147,1.243111,-260.324406,-0.469422,69.931762
2.7765,0.023023,-0.0136,-0.06712,0.003775,0.004618,0.010695,-0.011737,-0.522657,-0.067819,1.243111,-260.324406,-0.469422,69.931762
2.7965,0.023148,-0.014029,-0.068333,0.003775,0.004618,0.010695,-0.011737,-0.522657,-0.067819,1.243111,-260.324406,-0.469422,69.931762
2.8167,0.022815,-0.013526,-0.066555,0.003774,0.004618,0.010695,-0.011505,-0.522658,-0.067887,1.244311,-260.319716,-0.469114,69.933449
2.8366,0.022656,-0.013254,-0.066288,0.003763,0.004627,0.010695,-0.011322,-0.522531,-0.067295,1.244311,-260.319716,-0.469114,69.933449
2.8571,0.023125,-0.013132,-0.067134,0.003753,0.004634,0.010696,-0.010996,-0.521995,-0.065946,1.244403,-260.315007,-0.46933,69.935142
2.8769,0.022984,-0.013311,-0.067721,0.003755,0.004631,0.010697,-0.011072,-0.521977,-0.067006,1.244403,-260.315007,-0.46933,69.935142
2.8966,0.022955,-0.013306,-0.066604,0.003756,0.004629,0.010697,-0.011072,-0.521977,-0.067006,1.244403,-260.315007,-0.46933,69.935142
2.9167,0.022391,-0.012962,-0.066071,0.003757,0.004628,0.010698,-0.010818,-0.521992,-0.066155,1.246548,-260.310296,-0.468361,69.936824
2.9365,0.022827,-0.013003,-0.066534,0.003757,0.004626,0.010699,-0.010987,-0.521913,-0.06607,1.246548,-260.310296,-0.468361,69.936824
2.9567,0.022893,-0.013158,-0.065512,0.003758,0.004625,0.010699,-0.010951,-0.521735,-0.066193,1.246108,-260.30558,-0.469517,69.938511
2.9769,0.02297,-0.013051,-0.066859,0.003735,0.004642,0.010699,-0.010527,-0.522029,-0.065554,1.246108,-260.30558,-0.469517,69.938511
2.9967,0.022809,-0.012676,-0.066902,0.003716,0.004656,0.010699,-0.010527,-0.522029,-0.065554,1.246108,-260.30558,-0.469517,69.938511
3.0166,0.022604,-0.012349,-0.063677,0.003701,0.004667,0.010699,-0.011116,-0.521352,-0.066454,1.246002,-260.300875,-0.470023,69.940195
3.037,0.022685,-0.012659,-0.064591,0.003717,0.004653,0.0107,-0.010582,-0.521316,-0.065276,1.246002,-260.300875,-0.470023,69.940195
3.0568,0.022565,-0.012158,-0.064447,0.00373,0.004642,0.010701,-0.010107,-0.521454,-0.06425,1.251698,-260.296159,-0.467265,69.941852
3.077,0.022594,-0.012139,-0.063693,0.003735,0.004637,0.010702,-0.010258,-0.521124,-0.064412,1.251698,-260.296159,-0.467265,69.941852
3.097,0.022962,-0.012325,-0.06694,0.003739,0.004632,0.010703,-0.010258,-0.521124,-0.064412,1.251698,-260.296159,-0.467265,69.941852
3.117,0.022694,-0.011829,-0.063901,0.003742,0.004629,0.010704,-0.010983,-0.520999,-0.066491,1.248673,-260.291437,-0.469853,69.943528
3.1369,0.022154,-0.011918,-0.06417,0.003763,0.004611,0.010705,-0.010506,-0.520891,-0.065373,1.248673,-260.291437,-0.469853,69.943528
3.1568,0.022097,-0.011788,-0.062375,0.003781,0.004596,0.010706,-0.010423,-0.52073,-0.06383,1.247468,-260.286736,-0.471639,69.945205
3.1766,0.022383,-0.011921,-0.063141,0.003767,0.004605,0.010707,-0.009752,-0.520784,-0.062487,1.247468,-260.286736,-0.471639,69.945205
3.1967,0.022273,-0.011852,-0.06276,0.003757,0.004612,0.010708,-0.009752,-0.520784,-0.062487,1.247468,-260.286736,-0.471639,69.945205
3.2167,0.022478,-0.011725,-0.063091,0.003748,0.004618,0.010708,-0.009544,-0.520666,-0.062312,1.243473,-260.282035,-0.474678,69.946904
3.2371,0.022641,-0.01152,-0.063008,0.003737,0.004625,0.010708,-0.009578,-0.520663,-0.062576,1.243473,-260.282035,-0.474678,69.946904
3.2567,0.021976,-0.011599,-0.062039,0.003729,0.004631,0.010709,-0.009342,-0.520368,-0.062664,1.246723,-260.277328,-0.47382,69.948589
3.2766,0.022113,-0.011494,-0.062503,0.003727,0.004631,0.010709,-0.009609,-0.520587,-0.062079,1.246723,-260.277328,-0.47382,69.948589
3.2967,0.02248,-0.011304,-0.061275,0.003725,0.004632,0.010709,-0.009609,-0.520587,-0.062079,1.246723,-260.277328,-0.47382,69.948589
3.3167,0.022229,-0.011137,-0.061777,0.003724,0.004632,0.01071,-0.008583,-0.520163,-0.060827,1.248636,-260.272617,-0.473319,69.950265
3.337,0.022112,-0.011051,-0.061422,0.003703,0.004646,0.010711,-0.008837,-0.520142,-0.061161,1.248636,-260.272617,-0.473319,69.950265
3.3567,0.02234,-0.010886,-0.060159,0.003685,0.004657,0.010711,-0.009066,-0.51995,-0.061081,1.249097,-260.2679,-0.473724,69.951941
3.3771,0.022057,-0.010979,-0.061417,0.003655,0.004677,0.010712,-0.008381,-0.519956,-0.060222,1.249097,-260.2679,-0.473724,69.951941
3.397,0.02216,-0.01106,-0.062092,0.003631,0.004692,0.010712,-0.008381,-0.519956,-0.060222,1.249097,-260.2679,-0.473724,69.951941
3.4169,0.021859,-0.010611,-0.060843,0.003611,0.004705,0.010713,-0.009321,-0.519892,-0.061644,1.252857,-260.263191,-0.472822,69.953594
3.4372,0.022286,-0.010647,-0.060184,0.003647,0.004676,0.010714,-0.009233,-0.51978,-0.061268,1.252857,-260.263191,-0.472822,69.953594
3.4567,0.022022,-0.010325,-0.059334,0.003677,0.004653,0.010715,-0.008265,-0.519581,-0.059842,1.260161,-260.258434,-0.470707,69.955226
3.4767,0.022226,-0.010157,-0.060647,0.003663,0.00466,0.010716,-0.008219,-0.519433,-0.059356,1.260161,-260.258434,-0.470707,69.955226
3.4969,0.022192,-0.010288,-0.060047,0.003652,0.004667,0.010717,-0.008219,-0.519433,-0.059356,1.260161,-260.258434,-0.470707,69.955226
3.5168,0.022217,-0.010315,-0.059867,0.003643,0.004672,0.010718,-0.008249,-0.519186,-0.059603,1.25351,-260.253761,-0.475135,69.956865
3.5366,0.022012,-0.010131,-0.059724,0.003645,0.004668,0.010719,-0.00825,-0.519253,-0.059659,1.25351,-260.253761,-0.475135,69.956865
3.557,0.021662,-0.009942,-0.057972,0.003648,0.004664,0.010719,-0.008304,-0.519079,-0.059382,1.256798,-260.249022,-0.475177,69.958511
3.5769,0.022227,-0.009806,-0.057572,0.003639,0.004668,0.01072,-0.007914,-0.519079,-0.058067,1.256798,-260.249022,-0.475177,69.958511
3.5972,0.021946,-0.010022,-0.060353,0.003632,0.004671,0.010721,-0.007914,-0.519079,-0.058067,1.256798,-260.249022,-0.475177,69.958511
3.6171,0.02195,-0.009831,-0.058004,0.003626,0.004673,0.010722,-0.008651,-0.518909,-0.059906,1.256249,-260.244329,-0.476474,69.960145
3.6371,0.021706,-0.009766,-0.057476,0.003647,0.004656,0.010723,-0.008211,-0.518914,-0.059081,1.256249,-260.244329,-0.476474,69.960145
3.6569,0.021695,-0.009818,-0.058223,0.003663,0.004642,0.010723,-0.007467,-0.518782,-0.057134,1.258224,-260.239612,-0.477124,69.961778
3.6768,0.02207,-0.009329,-0.056047,0.003659,0.004644,0.010724,-0.00793,-0.518931,-0.058108,1.258224,-260.239612,-0.477124,69.961778
3.6971,0.021632,-0.009376,-0.056402,0.003656,0.004644,0.010724,-0.00793,-0.518931,-0.058108,1.258224,-260.239612,-0.477124,69.961778
3.7169,0.021766,-0.009056,-0.056717,0.003654,0.004645,0.010725,-0.006954,-0.518379,-0.055954,1.254503,-260.234869,-0.480014,69.963441
3.737,0.021568,-0.008808,-0.057381,0.003626,0.00466,0.010726,-0.007016,-0.518296,-0.056227,1.254503,-260.234869,-0.480014,69.963441
3.7565,0.021334,-0.009188,-0.056305,0.003603,0.004672,0.010727,-0.007557,-0.517829,-0.057043,1.255303,-260.230193,-0.480534,69.965077
3.7768,0.021784,-0.009181,-0.0567,0.003609,0.004665,0.010728,-0.007377,-0.518322,-0.056355,1.255303,-260.230193,-0.480534,69.965077
3.7972,0.021544,-0.008796,-0.057172,0.003613,0.00466,0.010729,-0.007377,-0.518322,-0.056355,1.255303,-260.230193,-0.480534,69.965077
3.8165,0.021545,-0.008693,-0.056175,0.003616,0.004655,0.010729,-0.007436,-0.517776,-0.056723,1.260147,-260.22548,-0.480716,69.966702
3.8365,0.021558,-0.008619,-0.05661,0.00364,0.004632,0.010731,-0.007277,-0.5178,-0.056449,1.260147,-260.22548,-0.480716,69.966702
3.8569,0.021493,-0.009262,-0.055587,0.003659,0.004613,0.010733,-0.007175,-0.517661,-0.056269,1.258703,-260.220769,-0.48327,69.968336
3.8767,0.021297,-0.008994,-0.056421,0.003614,0.004645,0.010732,-0.006865,-0.518394,-0.05563,1.258703,-260.220769,-0.48327,69.968336
3.8972,0.021416,-0.008368,-0.055926,0.003579,0.00467,0.010731,-0.006865,-0.518394,-0.05563,1.258703,-260.220769,-0.48327,69.968336
3.9168,0.021367,-0.00831,-0.056533,0.00355,0.00469,0.01073,-0.006927,-0.517386,-0.055476,1.254193,-260.216066,-0.487983,69.969994
3.9368,0.021478,-0.008441,-0.054474,0.003599,0.004646,0.010733,-0.007123,-0.517409,-0.055858,1.254193,-260.216066,-0.487983,69.969994
3.9571,0.021243,-0.008046,-0.05498,0.003638,0.004611,0.010735,-0.00617,-0.517542,-0.054134,1.264942,-260.211366,-0.483395,69.971592
3.9768,0.021107,-0.008062,-0.054373,0.003648,0.004597,0.010737,-0.006721,-0.517292,-0.054886,1.264942,-260.211366,-0.483395,69.971592
3.997,0.021104,-0.007865,-0.056722,0.003656,0.004586,0.010739,-0.006721,-0.517292,-0.054886,1.264942,-260.211366,-0.483395,69.971592
4.017,0.021079,-0.007626,-0.053929,0.003663,0.004576,0.01074,-0.007646,-0.516861,-0.056273,1.255851,-260.206679,-0.49117,69.973239
4.0373,0.021306,-0.007944,-0.052652,0.003722,0.004522,0.010743,-0.007123,-0.516849,-0.055263,1.255851,-260.206679,-0.49117,69.973239
4.0566,0.02134,-0.007737,-0.05318,0.00377,0.004478,0.010745,-0.005409,-0.517098,-0.052309,1.25301,-260.201991,-0.496149,69.974904
4.0776,0.021207,-0.007659,-0.053123,0.003688,0.00453,0.010745,-0.005731,-0.517016,-0.053084,1.25301,-260.201991,-0.496149,69.974904
4.0969,0.021029,-0.007737,-0.056171,0.003624,0.00457,0.010744,-0.005731,-0.517016,-0.053084,1.25301,-260.201991,-0.496149,69.974904
4.1168,0.020774,-0.007312,-0.05403,0.003573,0.004602,0.010743,-0.007435,-0.516755,-0.055723,1.241771,-260.197327,-0.505197,69.976626
4.1366,0.020728,-0.007025,-0.051447,0.003663,0.004526,0.010745,-0.007143,-0.516657,-0.054978,1.241771,-260.197327,-0.505197,69.976626
4.1564,0.021106,-0.006796,-0.052371,0.003735,0.004466,0.010747,-0.005378,-0.516211,-0.051108,1.261039,-260.192649,-0.501527,69.978253
4.1768,0.020841,-0.006848,-0.051576,0.003704,0.004473,0.010749,-0.005571,-0.516099,-0.052266,1.261039,-260.192649,-0.501527,69.978253
4.1971,0.020848,-0.006388,-0.052557,0.00368,0.004478,0.01075,-0.005571,-0.516099,-0.052266,1.261039,-260.192649,-0.501527,69.978253
4.2166,0.020687,-0.006674,-0.051964,0.003661,0.004481,0.010751,-0.00578,-0.515508,-0.052114,1.244306,-260.188052,-0.51164,69.979943
4.2371,0.020611,-0.007096,-0.052747,0.003693,0.004439,0.010753,-0.00577,-0.515683,-0.052001,1.244306,-260.188052,-0.51164,69.979943
4.2569,0.020623,-0.006766,-0.05063,0.003718,0.004405,0.010755,-0.006153,-0.51625,-0.052404,1.250766,-260.183402,-0.51757,69.981627
4.2767,0.020411,-0.006795,-0.051861,0.00366,0.004442,0.010753,-0.005268,-0.516118,-0.050771,1.250766,-260.183402,-0.51757,69.981627
4.2966,0.021118,-0.006743,-0.051008,0.003615,0.00447,0.010751,-0.005268,-0.516118,-0.050771,1.250766,-260.183402,-0.51757,69.981627
4.3169,0.020504,-0.006385,-0.050222,0.003579,0.004492,0.01075,-0.004721,-0.515903,-0.050558,1.244102,-260.178769,-0.526866,69.983347
4.3369,0.020943,-0.006352,-0.051754,0.003527,0.004515,0.01075,-0.004855,-0.515817,-0.050369,1.244102,-260.178769,-0.526866,69.983347
4.3566,0.020378,-0.00634,-0.051506,0.003485,0.004532,0.01075,-0.005319,-0.515533,-0.051413,1.257767,-260.174142,-0.525063,69.984994
4.3767,0.020776,-0.006284,-0.050034,0.003561,0.004469,0.010751,-0.005821,-0.515645,-0.05148,1.257767,-260.174142,-0.525063,69.984994
4.3965,0.02064,-0.006149,-0.051435,0.00362,0.004419,0.010752,-0.005821,-0.515645,-0.05148,1.257767,-260.174142,-0.525063,69.984994
4.4164,0.020288,-0.00588,-0.051007,0.003667,0.004379,0.010752,-0.005425,-0.515293,-0.050986,1.266498,-260.169496,-0.52815,69.986605
4.437,0.020658,-0.005853,-0.049338,0.003706,0.004333,0.010755,-0.005525,-0.515241,-0.050943,1.266498,-260.169496,-0.52815,69.986605
4.4564,0.020433,-0.005964,-0.049104,0.003736,0.004297,0.010757,-0.004371,-0.5151,-0.048998,1.247553,-260.164911,-0.537852,69.988301
4.4765,0.020338,-0.00562,-0.049491,0.003649,0.004339,0.010758,-0.004574,-0.51532,-0.049077,1.247553,-260.164911,-0.537852,69.988301
4.4968,0.020809,-0.005971,-0.049462,0.003582,0.004371,0.010759,-0.004574,-0.51532,-0.049077,1.247553,-260.164911,-0.537852,69.988301
4.5165,0.019961,-0.005533,-0.050152,0.003529,0.004394,0.010758,-0.004241,-0.515176,-0.049012,1.239668,-260.160325,-0.546589,69.990046
4.5367,0.020208,-0.005539,-0.050018,0.003532,0.004373,0.01076,-0.004775,-0.515041,-0.049422,1.239668,-260.160325,-0.546589,69.990046
4.5568,0.020455,-0.005589,-0.048088,0.003534,0.004356,0.01076,-0.005172,-0.514767,-0.049678,1.259402,-260.155748,-0.552553,69.991693
4.5766,0.020294,-0.005521,-0.04895,0.003461,0.004379,0.010762,-0.004153,-0.514972,-0.048211,1.259402,-260.155748,-0.552553,69.991693
4.5967,0.020259,-0.005579,-0.049936,0.003404,0.004395,0.010764,-0.004153,-0.514972,-0.048211,1.259402,-260.155748,-0.552553,69.991693
4.6166,0.02031,-0.005224,-0.048361,0.00336,0.004407,0.010764,-0.005041,-0.514768,-0.049486,1.257985,-260.151153,-0.559931,69.993363
4.637,0.020079,-0.005017,-0.048576,0.003421,0.004345,0.010765,-0.004736,-0.51469,-0.04897,1.257985,-260.151153,-0.559931,69.993363
4.6567,0.020458,-0.004908,-0.046828,0.003468,0.004296,0.010765,-0.004572,-0.514281,-0.048235,1.273863,-260.146596,-0.572892,69.994949
4.6765,0.019775,-0.005277,-0.046215,0.003354,0.004305,0.010773,-0.003513,-0.514336,-0.046937,1.273863,-260.146596,-0.572892,69.994949
4.697,0.019762,-0.004434,-0.046966,0.003266,0.004309,0.010777,-0.003513,-0.514336,-0.046937,1.273863,-260.146596,-0.572892,69.994949
4.7169,0.020039,-0.00484,-0.045435,0.003199,0.00431,0.01078,-0.004029,-0.513699,-0.046516,1.262026,-260.142048,-0.58133,69.996603
4.737,0.020212,-0.004493,-0.047097,0.003199,0.004245,0.010785,-0.003644,-0.513929,-0.046025,1.262026,-260.142048,-0.58133,69.996603
4.7564,0.019953,-0.004189,-0.047993,0.003198,0.004194,0.010788,-0.003694,-0.513799,-0.046764,1.285207,-260.137641,-0.618053,69.998126
4.7769,0.020099,-0.004443,-0.045797,0.003336,0.00405,0.01079,-0.004435,-0.513613,-0.047866,1.285207,-260.137641,-0.618053,69.998126
4.7971,0.019983,-0.004446,-0.046561,0.003443,0.00394,0.010792,-0.004435,-0.513613,-0.047866,1.285207,-260.137641,-0.618053,69.998126
4.8166,0.019656,-0.004005,-0.045967,0.003525,0.003855,0.010792,-0.003613,-0.513726,-0.046112,1.282438,-260.133187,-0.642787,69.999709
4.8369,0.019705,-0.004231,-0.044925,0.003475,0.003843,0.010794,-0.003664,-0.513602,-0.046003,1.282438,-260.133187,-0.642787,69.999709
4.8571,0.019869,-0.004087,-0.046041,0.003436,0.003832,0.010794,-0.003084,-0.513602,-0.044589,1.245365,-260.128891,-0.660064,70.001447
4.8768,0.019801,-0.004206,-0.042119,0.003392,0.003822,0.010794,-0.003552,-0.513546,-0.045896,1.245365,-260.128891,-0.660064,70.001447
4.8968,0.019551,-0.004192,-0.045856,0.003358,0.003812,0.010793,-0.003552,-0.513546,-0.045896,1.245365,-260.128891,-0.660064,70.001447
4.9172,0.019608,-0.003461,-0.046876,0.003332,0.003803,0.010791,-0.003677,-0.513503,-0.045407,1.252395,-260.124526,-0.67676,70.0032
4.9372,0.019349,-0.003797,-0.044982,0.003393,0.003721,0.010791,-0.003908,-0.513241,-0.045951,1.252395,-260.124526,-0.67676,70.0032
4.9569,0.019459,-0.003773,-0.046087,0.003441,0.003657,0.01079,-0.003474,-0.513166,-0.044641,1.2606,-260.120192,-0.696642,70.004925
4.9771,0.019317,-0.003745,-0.044081,0.00349,0.003599,0.010788,-0.003981,-0.51322,-0.045939,1.2606,-260.120192,-0.696642,70.004925
4.9969,0.019588,-0.003942,-0.043634,0.003527,0.003555,0.010787,-0.003981,-0.51322,-0.045939,1.2606,-260.120192,-0.696642,70.004925
5.0167,0.019766,-0.003305,-0.043336,0.003556,0.003521,0.010785,-0.002508,-0.513311,-0.043184,1.246854,-260.115887,-0.705871,70.006726
5.0369,0.019381,-0.003622,-0.041603,0.003275,0.003583,0.0108,-0.002418,-0.513096,-0.043194,1.246854,-260.115887,-0.705871,70.006726
5.0568,0.019446,-0.003204,-0.042951,0.003065,0.003625,0.010809,-0.001713,-0.513073,-0.041261,1.232473,-260.111618,-0.711513,70.008597
5.0767,0.019473,-0.00331,-0.042042,0.002917,0.003595,0.010818,-0.002377,-0.51276,-0.042775,1.232473,-260.111618,-0.711513,70.008597
5.0965,0.019612,-0.002972,-0.04259,0.002806,0.003568,0.010822,-0.002377,-0.51276,-0.042775,1.232473,-260.111618,-0.711513,70.008597
5.1168,0.019501,-0.003046,-0.043561,0.002722,0.003546,0.010822,-0.001979,-0.512376,-0.042177,1.279603,-260.107712,-0.770664,70.010159
5.137,0.019123,-0.003334,-0.041024,0.002652,0.003467,0.010825,-0.002267,-0.512438,-0.042703,1.279603,-260.107712,-0.770664,70.010159
5.1567,0.019279,-0.003005,-0.041961,0.0026,0.003406,0.010824,-0.001711,-0.512807,-0.040713,1.308881,-260.103916,-0.844389,70.011639
5.1769,0.019211,-0.002945,-0.041111,0.002505,0.0034,0.010819,-0.002075,-0.512573,-0.041835,1.308881,-260.103916,-0.844389,70.011639
5.1968,0.019365,-0.003151,-0.041636,0.002435,0.003393,0.010814,-0.002075,-0.512573,-0.041835,1.308881,-260.103916,-0.844389,70.011639
5.2166,0.019156,-0.002877,-0.041793,0.002382,0.003387,0.010807,-0.001752,-0.512576,-0.041199,1.316806,-260.099914,-0.889164,70.013235
5.2369,0.01878,-0.002545,-0.042067,0.002303,0.003378,0.010804,-0.001903,-0.512501,-0.041391,1.316806,-260.099914,-0.889164,70.013235
5.2564,0.018905,-0.002569,-0.040927,0.002243,0.00337,0.010799,-0.002591,-0.511993,-0.041735,1.336664,-260.095956,-0.932908,70.014777
5.2766,0.018989,-0.002484,-0.039586,0.002252,0.003271,0.010798,-0.002014,-0.512123,-0.040982,1.336664,-260.095956,-0.932908,70.014777
5.2965,0.018782,-0.002346,-0.040803,0.002258,0.003195,0.010795,-0.002014,-0.512123,-0.040982,1.336664,-260.095956,-0.932908,70.014777
5.3169,0.018661,-0.002563,-0.042776,0.002264,0.003137,0.010792,-0.001924,-0.511787,-0.040359,1.349377,-260.09194,-0.963157,70.016322
5.3369,0.018415,-0.00241,-0.041209,0.002383,0.003012,0.010784,-0.002415,-0.511898,-0.041298,1.349377,-260.09194,-0.963157,70.016322
5.3578,0.018391,-0.00206,-0.040899,0.002474,0.002918,0.010778,-0.002415,-0.511898,-0.041298,1.349377,-260.09194,-0.963157,70.016322
5.3772,0.018359,-0.002503,-0.040024,0.00257,0.002781,0.010775,-0.002463,-0.511648,-0.040882,1.342178,-260.087962,-0.990627,70.017967
5.3968,0.018711,-0.002172,-0.038911,0.002643,0.002678,0.010772,-0.002463,-0.511648,-0.040882,1.342178,-260.087962,-0.990627,70.017967
5.4169,0.017677,-0.002181,-0.040986,0.002699,0.002599,0.01077,-0.001023,-0.51167,-0.038469,1.316094,-260.084123,-0.977044,70.019696
5.4371,0.017967,-0.002229,-0.038657,0.002592,0.002587,0.010776,-0.001896,-0.51169,-0.039432,1.316094,-260.084123,-0.977044,70.019696
5.4568,0.018509,-0.002039,-0.04046,0.002514,0.002575,0.010779,-0.001655,-0.51177,-0.038318,1.284793,-260.080356,-0.974806,70.021589
5.4768,0.01831,-0.002062,-0.039557,0.002509,0.002539,0.010776,-0.002073,-0.511631,-0.040246,1.284793,-260.080356,-0.974806,70.021589
5.4967,0.018139,-0.002038,-0.038232,0.002505,0.002511,0.010774,-0.002073,-0.511631,-0.040246,1.284793,-260.080356,-0.974806,70.021589
5.517,0.01788,-0.001803,-0.037803,0.002504,0.00249,0.010771,-0.001248,-0.511564,-0.037793,1.302895,-260.076654,-1.010645,70.023433
5.5371,0.018432,-0.002177,-0.03934,0.002278,0.002483,0.010782,-0.001296,-0.511501,-0.037746,1.302895,-260.076654,-1.010645,70.023433
5.557,0.018107,-0.001701,-0.038473,0.002112,0.002476,0.010788,-0.001544,-0.511706,-0.038997,1.301408,-260.072899,-1.02136,70.025347
5.5768,0.017862,-0.001693,-0.036711,0.002065,0.002416,0.010788,-0.001508,-0.511355,-0.038503,1.301408,-260.072899,-1.02136,70.025347
5.5966,0.018243,-0.002015,-0.039088,0.002031,0.00237,0.010786,-0.001508,-0.511355,-0.038503,1.301408,-260.072899,-1.02136,70.025347
5.6167,0.017914,-0.001855,-0.038232,0.002007,0.002335,0.010783,-0.001604,-0.511536,-0.038686,1.34189,-260.069585,-1.096357,70.026993
5.6371,0.017815,-0.001748,-0.037371,0.002006,0.002347,0.010775,-0.001585,-0.511504,-0.038454,1.34189,-260.069585,-1.096357,70.026993
5.6568,0.017864,-0.001317,-0.037396,0.002006,0.002355,0.010768,-0.001174,-0.511321,-0.037034,1.349547,-260.065996,-1.129727,70.028838
5.6768,0.017746,-0.001134,-0.037444,0.001906,0.002227,0.01078,-0.001197,-0.510989,-0.037346,1.349547,-260.065996,-1.129727,70.028838
5.6969,0.017864,-0.002047,-0.037284,0.001832,0.00213,0.010786,-0.001197,-0.510989,-0.037346,1.349547,-260.065996,-1.129727,70.028838
5.7169,0.017428,-0.00108,-0.036799,0.001779,0.002056,0.010788,-0.001059,-0.511597,-0.036833,1.349856,-260.062334,-1.127135,70.030708
5.7366,0.017607,-0.001404,-0.034913,0.001718,0.00208,0.010785,-0.001161,-0.511236,-0.036767,1.349856,-260.062334,-1.127135,70.030708
5.7564,0.017499,-0.001137,-0.036503,0.001673,0.002097,0.010783,-0.000141,-0.511035,-0.034596,1.367871,-260.059054,-1.196881,70.032518
5.7767,0.017434,-0.00141,-0.035682,0.001618,0.001978,0.010786,-0.001047,-0.510811,-0.036365,1.367871,-260.059054,-1.196881,70.032518
5.7966,0.017231,-0.001127,-0.036235,0.001577,0.001888,0.010787,-0.001047,-0.510811,-0.036365,1.367871,-260.059054,-1.196881,70.032518
5.8169,0.017596,-0.001385,-0.036212,0.001548,0.00182,0.010786,-0.001173,-0.510709,-0.035792,1.380419,-260.055577,-1.213938,70.034401
5.837,0.017262,-0.001079,-0.034948,0.001524,0.001779,0.010783,-0.001041,-0.510838,-0.035911,1.380419,-260.055577,-1.213938,70.034401
5.8564,0.016864,-0.001433,-0.03289,0.001507,0.001747,0.010781,-0.000508,-0.510713,-0.034615,1.388714,-260.052261,-1.256882,70.036346
5.8767,0.017043,-0.000834,-0.034129,0.00107,0.001832,0.010783,4e-05,-0.511114,-0.033031,1.388714,-260.052261,-1.256882,70.036346
5.8966,0.017235,-0.001178,-0.035062,0.000741,0.001895,0.010784,4e-05,-0.511114,-0.033031,1.388714,-260.052261,-1.256882,70.036346
5.917,0.016682,-0.00098,-0.034812,0.000494,0.001942,0.010782,-0.000577,-0.510793,-0.03461,1.391818,-260.048882,-1.268716,70.038367
5.937,0.016894,-0.001089,-0.034218,0.00064,0.001838,0.010774,-0.000769,-0.510736,-0.034641,1.391818,-260.048882,-1.268716,70.038367
5.9569,0.016385,-0.00076,-0.035187,0.000748,0.001762,0.010769,-0.00054,-0.510765,-0.034073,1.46682,-260.047425,-1.343718,70.039164
5.9772,0.016478,-0.000958,-0.035505,0.001072,0.001587,0.010733,-0.001467,-0.510471,-0.035082,1.46682,-260.047425,-1.343718,70.039164
5.9969,0.017001,-0.000706,-0.032825,0.001317,0.001457,0.010706,-0.001467,-0.510471,-0.035082,1.46682,-260.047425,-1.343718,70.039164
6.0167,0.016912,-0.001107,-0.034662,0.001503,0.001361,0.010686,0.000294,-0.510365,-0.032412,1.481312,-260.044365,-1.416625,70.040945
6.0368,0.016468,-0.000991,-0.034166,0.001136,0.001342,0.010698,-0.00013,-0.510534,-0.033277,1.481312,-260.044365,-1.416625,70.040945
6.057,0.016539,-0.000989,-0.033324,0.000864,0.001325,0.010702,-0.000925,-0.510666,-0.033941,1.406436,-260.042262,-1.34175,70.042354
6.0767,0.016241,-0.000716,-0.034802,0.000819,0.001373,0.010681,-0.000494,-0.510701,-0.033368,1.406436,-260.042262,-1.34175,70.042354
6.097,0.016011,-0.000623,-0.03296,0.000786,0.001409,0.010664,-0.000494,-0.510701,-0.033368,1.406436,-260.042262,-1.34175,70.042354
6.117,0.016277,-0.00098,-0.032362,0.000762,0.001436,0.01065,-0.000761,-0.510297,-0.03256,1.46128,-260.039443,-1.406427,70.044237
6.1372,0.016173,-0.000555,-0.032067,0.000769,0.001366,0.010641,-0.00054,-0.51046,-0.032434,1.46128,-260.039443,-1.406427,70.044237
6.1565,0.015835,-0.000763,-0.031771,0.000775,0.001313,0.010634,-0.000153,-0.510249,-0.03173,1.475139,-260.036274,-1.421586,70.046273
6.1766,0.016179,-0.001039,-0.031186,0.0007,0.001284,0.010631,-0.000344,-0.51048,-0.03175,1.475139,-260.036274,-1.421586,70.046273
6.1967,0.01616,-0.000601,-0.031379,0.000644,0.001262,0.010626,-0.000344,-0.51048,-0.03175,1.475139,-260.036274,-1.421586,70.046273
6.2174,0.015403,-0.000657,-0.029476,0.000603,0.001245,0.010622,0.000194,-0.510296,-0.030934,1.47187,-260.033136,-1.422369,70.048369
6.237,0.015516,-0.000621,-0.032197,0.000307,0.001176,0.01063,0.00027,-0.510346,-0.030294,1.47187,-260.033136,-1.422369,70.048369
6.2567,0.015396,-0.000309,-0.030019,8.5e-05,0.001123,0.010633,-0.000882,-0.510319,-0.031867,1.493004,-260.030112,-1.456333,70.050426
6.2769,0.015702,-0.000587,-0.03086,5.8e-05,0.00098,0.010633,3e-06,-0.510099,-0.030168,1.493004,-260.030112,-1.456333,70.050426
6.2972,0.015646,-0.000512,-0.030114,3.7e-05,0.000871,0.010631,3e-06,-0.510099,-0.030168,1.493004,-260.030112,-1.456333,70.050426
6.3167,0.015325,-0.000355,-0.03015,2e-05,0.000788,0.010629,0.000296,-0.510243,-0.029759,1.559676,-260.027685,-1.531334,70.052138
6.3369,0.015291,-0.000585,-0.03016,-6.2e-05,0.000765,0.010619,0.000158,-0.51019,-0.029876,1.559676,-260.027685,-1.531334,70.052138
6.3564,0.015027,-0.000335,-0.03134,-0.000123,0.000746,0.01061,-8.6e-05,-0.510329,-0.029827,1.568014,-260.024836,-1.567246,70.05437
6.3768,0.014966,-0.000514,-0.029899,0.000253,0.000688,0.010579,-0.000875,-0.510105,-0.031187,1.568014,-260.024836,-1.567246,70.05437
6.3969,0.014814,-0.000703,-0.0306,0.000537,0.000648,0.010558,-0.000875,-0.510105,-0.031187,1.568014,-260.024836,-1.567246,70.05437
6.4172,0.014978,-0.00032,-0.029736,0.000753,0.000619,0.010544,-0.000794,-0.510433,-0.030162,1.587876,-260.021992,-1.59232,70.056627
6.4371,0.014568,-0.000274,-0.029324,0.00079,0.000681,0.010541,-0.00055,-0.510293,-0.029941,1.587876,-260.021992,-1.59232,70.056627
6.4569,0.014677,-0.000781,-0.029428,0.00082,0.000728,0.01054,-0.000378,-0.510044,-0.02914,1.51287,-260.020443,-1.517315,70.057908
6.4768,0.0145,-0.000328,-0.03062,0.000752,0.000854,0.010543,-0.000334,-0.510512,-0.029392,1.51287,-260.020443,-1.517315,70.057908
6.497,0.01436,-0.000392,-0.027906,0.000702,0.000949,0.010545,-0.000334,-0.510512,-0.029392,1.51287,-260.020443,-1.517315,70.057908
6.5168,0.014291,-0.000283,-0.029177,0.000666,0.001021,0.010548,0.000158,-0.510169,-0.027537,1.456851,-260.018028,-1.442316,70.059839
6.5369,0.014374,-0.000239,-0.028419,0.000559,0.000941,0.010558,-0.000143,-0.510124,-0.028163,1.456851,-260.018028,-1.442316,70.059839
6.5567,0.014427,-0.000163,-0.027436,0.00048,0.00088,0.010564,-9.6e-05,-0.510001,-0.028087,1.481789,-260.015051,-1.448548,70.062009
6.5767,0.01416,-9.3e-05,-0.028549,0.000182,0.000767,0.010591,0.000395,-0.509972,-0.027473,1.481789,-260.015051,-1.448548,70.062009
6.5967,0.013944,-0.000146,-0.028121,-4.2e-05,0.000678,0.010608,0.000395,-0.509972,-0.027473,1.481789,-260.015051,-1.448548,70.062009
6.6172,0.01416,-7.8e-05,-0.02837,-0.00021,0.00061,0.010618,-0.000376,-0.509909,-0.027694,1.505487,-260.012192,-1.484935,70.064185
6.637,0.013721,-0.000374,-0.028282,-1.1e-05,0.000523,0.010608,-0.000345,-0.50989,-0.027924,1.505487,-260.012192,-1.484935,70.064185
6.6569,0.013852,-0.000257,-0.028337,0.000138,0.000458,0.010604,-0.000701,-0.510157,-0.028053,1.580673,-260.010256,-1.560121,70.065789
6.6768,0.013684,-0.00034,-0.027943,0.000354,0.000477,0.010583,-0.000606,-0.51006,-0.028305,1.580673,-260.010256,-1.560121,70.065789
6.6971,0.01347,-0.000301,-0.028918,0.000517,0.000493,0.01057,-0.000606,-0.51006,-0.028305,1.580673,-260.010256,-1.560121,70.065789
6.7173,0.013269,-0.000378,-0.027653,0.000641,0.000506,0.010561,-0.00127,-0.510069,-0.028484,1.550937,-260.007536,-1.547915,70.068149
6.7374,0.013396,-0.000325,-0.027638,0.000907,0.000526,0.010542,-0.00109,-0.510114,-0.028094,1.550937,-260.007536,-1.547915,70.068149
6.7566,0.012901,-0.000282,-0.025673,0.001109,0.000544,0.01053,-0.000681,-0.510117,-0.027357,1.478968,-260.005247,-1.473176,70.070108
6.7768,0.013217,-0.000651,-0.027286,0.000929,0.000574,0.010538,-0.000236,-0.510113,-0.025815,1.478968,-260.005247,-1.473176,70.070108
6.7965,0.013573,-0.000264,-0.025874,0.000797,0.000595,0.010543,-0.000236,-0.510113,-0.025815,1.478968,-260.005247,-1.473176,70.070108
6.8169,0.013456,0.000183,-0.026458,0.000699,0.00061,0.010545,0.000416,-0.510076,-0.025512,1.413121,-260.002923,-1.398327,70.072079
6.8369,0.012866,-0.000178,-0.025722,0.000416,0.000526,0.01056,0.000235,-0.509895,-0.025858,1.413121,-260.002923,-1.398327,70.072079
6.8569,0.013029,0.00036,-0.025337,0.000205,0.000461,0.010568,-0.00023,-0.509992,-0.025418,1.47196,-260.000357,-1.451475,70.074207
6.8768,0.013208,-0.000552,-0.025008,0.000114,0.000251,0.010573,8.1e-05,-0.50952,-0.025329,1.47196,-260.000357,-1.451475,70.074207
6.897,0.013028,-0.000108,-0.024199,4.5e-05,9e-05,0.010574,8.1e-05,-0.50952,-0.025329,1.47196,-260.000357,-1.451475,70.074207
6.9167,0.012614,-2.1e-05,-0.024307,-7e-06,-3.3e-05,0.010571,0.000697,-0.509943,-0.023835,1.541189,-259.998078,-1.526596,70.076182
6.9368,0.012673,2.3e-05,-0.025959,-0.000229,3.9e-05,0.010562,0.000503,-0.509911,-0.023985,1.541189,-259.998078,-1.526596,70.076182
6.9569,0.01219,-0.000317,-0.024759,-0.000397,9.1e-05,0.010552,-0.000565,-0.509806,-0.025639,1.571884,-259.995623,-1.571873,70.078661
6.9766,0.012281,0.000123,-0.025573,-0.000111,0.000216,0.010535,-0.000447,-0.510131,-0.024818,1.571884,-259.995623,-1.571873,70.078661
6.9967,0.012221,-0.000331,-0.023727,0.000104,0.000314,0.010526,-0.000447,-0.510131,-0.024818,1.571884,-259.995623,-1.571873,70.078661
7.0165,0.012345,-4.7e-05,-0.024806,0.000265,0.000391,0.010522,0.000107,-0.510184,-0.023336,1.63143,-259.993295,-1.633156,70.080926
7.0369,0.012055,0.000171,-0.025053,0.000221,0.000426,0.010532,-6.5e-05,-0.510061,-0.0239,1.63143,-259.993295,-1.633156,70.080926
7.0565,0.011838,-0.000182,-0.024185,0.00019,0.000453,0.01054,-0.000719,-0.50966,-0.024814,1.556455,-259.991351,-1.55818,70.082647
7.0771,0.011914,0.00012,-0.02332,0.000358,0.000444,0.010527,-0.000515,-0.510001,-0.024228,1.556455,-259.991351,-1.55818,70.082647
7.097,0.012098,-0.000245,-0.024557,0.000485,0.00044,0.010519,-0.000515,-0.510001,-0.024228,1.556455,-259.991351,-1.55818,70.082647
7.117,0.011875,-3.8e-05,-0.022674,0.000581,0.000437,0.010514,-0.000417,-0.510073,-0.024121,1.543292,-259.98862,-1.539128,70.085019
7.137,0.011708,-0.000323,-0.024105,0.000483,0.00044,0.010522,-0.000118,-0.510002,-0.023479,1.543292,-259.98862,-1.539128,70.085019
7.1571,0.011308,0.00029,-0.022241,0.000411,0.000441,0.010527,-0.000568,-0.510163,-0.023807,1.48623,-259.986178,-1.473944,70.087152
7.1771,0.011561,0.000377,-0.024044,0.000339,0.000284,0.010543,-8.1e-05,-0.509635,-0.022365,1.48623,-259.986178,-1.473944,70.087152
7.197,0.011411,-0.000396,-0.023009,0.000285,0.000164,0.010553,-8.1e-05,-0.509635,-0.022365,1.48623,-259.986178,-1.473944,70.087152
7.2173,0.011226,0.000173,-0.024466,0.000245,7.3e-05,0.01056,-0.000306,-0.510243,-0.022579,1.511066,-259.983486,-1.502292,70.0895
7.2369,0.01104,0.000102,-0.022475,0.000471,0.000155,0.010543,-0.000691,-0.510008,-0.023304,1.511066,-259.983486,-1.502292,70.0895
7.2565,0.011113,-0.000316,-0.022619,0.000642,0.000219,0.010533,-0.000413,-0.509767,-0.022147,1.533285,-259.980934,-1.532431,70.091995
7.2771,0.011292,0.000236,-0.021111,0.000661,0.000331,0.010537,-0.000421,-0.510149,-0.022561,1.533285,-259.980934,-1.532431,70.091995
7.2969,0.01111,-0.000179,-0.022376,0.000677,0.000416,0.010541,-0.000421,-0.510149,-0.022561,1.533285,-259.980934,-1.532431,70.091995
7.3168,0.010894,0.000216,-0.021122,0.00069,0.000482,0.010546,-0.000277,-0.510044,-0.021987,1.474649,-259.978567,-1.467927,70.094207
7.3368,0.010692,2e-06,-0.02025,0.000564,0.000424,0.010564,-0.00011,-0.50989,-0.021586,1.474649,-259.978567,-1.467927,70.094207
7.3566,0.010629,-1.7e-05,-0.018575,0.000471,0.00038,0.010576,0.000387,-0.509879,-0.019916,1.471451,-259.975791,-1.455529,70.096602
7.3766,0.010891,0.000238,-0.021185,-8.5e-05,0.000355,0.010603,0.001092,-0.509924,-0.018672,1.471451,-259.975791,-1.455529,70.096602
7.3969,0.010798,0.00021,-0.021841,-0.000507,0.000333,0.010619,0.001092,-0.509924,-0.018672,1.471451,-259.975791,-1.455529,70.096602
7.4166,0.010154,0.000188,-0.019479,-0.000828,0.000314,0.010629,-0.000321,-0.509654,-0.021416,1.502029,-259.973151,-1.493466,70.09895
7.437,0.010144,-0.000144,-0.021692,-0.000577,0.000195,0.010618,-9.6e-05,-0.509677,-0.020569,1.502029,-259.973151,-1.493466,70.09895
7.4566,0.009518,9.1e-05,-0.020948,-0.000393,0.000107,0.010613,-0.000918,-0.510022,-0.021599,1.577029,-259.972401,-1.568466,70.099631
7.4768,0.010102,-6e-06,-0.021092,0.000134,9.1e-05,0.010565,-0.001143,-0.509817,-0.021002,1.577029,-259.972401,-1.568466,70.099631
7.497,0.01033,8.7e-05,-0.020283,0.000535,8.4e-05,0.010531,-0.001143,-0.509817,-0.021002,1.577029,-259.972401,-1.568466,70.099631
7.5168,0.009778,0.000185,-0.019415,0.00084,8.4e-05,0.010507,-2.8e-05,-0.509804,-0.019885,1.63041,-259.970039,-1.632414,70.101917
7.5367,0.009854,-0.00022,-0.019393,0.000647,7.1e-05,0.010521,-6.8e-05,-0.509769,-0.019649,1.63041,-259.970039,-1.632414,70.101917
7.5564,0.009716,-6.2e-05,-0.019143,0.000506,6e-05,0.010529,-3.5e-05,-0.510124,-0.019289,1.555401,-259.969227,-1.557405,70.102708
7.5766,0.00997,0.000372,-0.018712,0.000393,0.000142,0.010517,-4.5e-05,-0.509983,-0.01915,1.555401,-259.969227,-1.557405,70.102708
7.5969,0.009741,0.000406,-0.017483,0.00031,0.000203,0.010506,-4.5e-05,-0.509983,-0.01915,1.555401,-259.969227,-1.557405,70.102708
7.6171,0.010084,0.000427,-0.017288,0.000248,0.000249,0.010496,0.000844,-0.509514,-0.017097,1.492995,-259.966942,-1.491536,70.104951
7.6367,0.009863,-0.000137,-0.01854,-0.000235,9.3e-05,0.010508,0.001019,-0.509507,-0.01713,1.492995,-259.966942,-1.491536,70.104951
7.6565,0.00918,0.00024,-0.017927,-0.000602,-2.9e-05,0.01051,0.000415,-0.510042,-0.018222,1.53353,-259.964408,-1.530527,70.107296
7.6769,0.009413,0.000193,-0.019594,-0.000485,-4.9e-05,0.010486,7.1e-05,-0.509709,-0.017937,1.53353,-259.964408,-1.530527,70.107296
7.6969,0.00959,0.000214,-0.018213,-0.000399,-6.4e-05,0.010469,7.1e-05,-0.509709,-0.017937,1.53353,-259.964408,-1.530527,70.107296
7.7165,0.009667,0.000244,-0.018131,-0.000336,-7.5e-05,0.010456,0.000296,-0.509702,-0.017961,1.608522,-259.962944,-1.605519,70.108773
7.7372,0.009276,-0.000108,-0.018648,-0.000414,-9e-05,0.010441,0.000346,-0.50969,-0.018001,1.608522,-259.962944,-1.605519,70.108773
7.7567,0.008694,0.000388,-0.017443,-0.000472,-0.000103,0.010428,-0.000245,-0.510022,-0.018318,1.624055,-259.960441,-1.622825,70.111336
7.7765,0.009129,0.000685,-0.017409,-0.000272,-0.000161,0.010399,-0.000206,-0.50958,-0.017506,1.624055,-259.960441,-1.622825,70.111336
7.7966,0.008473,2e-05,-0.017426,-0.000123,-0.000203,0.010378,-0.000206,-0.50958,-0.017506,1.624055,-259.960441,-1.622825,70.111336
7.8165,0.008768,0.000251,-0.01878,-1.2e-05,-0.000235,0.010363,-0.000433,-0.509906,-0.016997,1.645957,-259.957964,-1.643568,70.113894
7.8372,0.008936,0.00021,-0.016003,0.000233,-0.000165,0.010344,-0.000588,-0.509806,-0.017672,1.645957,-259.957964,-1.643568,70.113894
7.8566,0.00835,0.000101,-0.017826,0.000418,-0.000111,0.010332,0.000775,-0.509731,-0.015723,1.572743,-259.9559,-1.572604,70.116117
7.8767,0.00856,0.000239,-0.017708,0.000564,-6.7e-05,0.010319,-0.000604,-0.50981,-0.017623,1.572743,-259.9559,-1.572604,70.116117
7.8967,0.008359,0.000671,-0.01644,0.000676,-3.2e-05,0.01031,-0.000604,-0.50981,-0.017623,1.572743,-259.9559,-1.572604,70.116117
7.9169,0.008315,0.00018,-0.015173,0.000761,-5e-06,0.010305,-1e-05,-0.509264,-0.016067,1.503513,-259.953753,-1.505832,70.11834
7.9369,0.008284,6e-06,-0.016494,0.00046,-0.00012,0.010306,0.000234,-0.50947,-0.015655,1.503513,-259.953753,-1.505832,70.11834
7.9566,0.008364,0.000361,-0.015819,0.000236,-0.000209,0.010302,-0.000105,-0.509925,-0.016197,1.450387,-259.951447,-1.450572,70.12065
7.9766,0.008483,-2.7e-05,-0.015374,5.6e-05,-0.000223,0.010312,0.000264,-0.509605,-0.015836,1.450387,-259.951447,-1.450572,70.12065
7.9968,0.007931,0.000179,-0.015795,-7.9e-05,-0.000234,0.010318,0.000264,-0.509605,-0.015836,1.450387,-259.951447,-1.450572,70.12065
8.017,0.007862,0.000392,-0.015615,-0.00018,-0.000244,0.010321,-0.000115,-0.509764,-0.015449,1.525375,-259.949495,-1.52556,70.122736
8.0371,0.007881,7.8e-05,-0.01465,-8.9e-05,-0.000222,0.010303,-0.000108,-0.509677,-0.015476,1.525375,-259.949495,-1.52556,70.122736
8.0569,0.007974,6.7e-05,-0.015018,-2.1e-05,-0.000205,0.010289,0.000405,-0.509873,-0.014373,1.600256,-259.947449,-1.598256,70.124946
8.0769,0.007684,0.000126,-0.015675,-0.00016,-0.000103,0.010289,0.000322,-0.509876,-0.014956,1.600256,-259.947449,-1.598256,70.124946
8.0969,0.007533,-0.000416,-0.0148,-0.000264,-2.7e-05,0.010289,0.000322,-0.509876,-0.014956,1.600256,-259.947449,-1.598256,70.124946
8.117,0.007564,0.000275,-0.013981,-0.000342,3.1e-05,0.010289,-1.5e-05,-0.510369,-0.01438,1.574266,-259.945078,-1.574047,70.127477
8.1369,0.0073,-4.2e-05,-0.015315,-0.000328,0.000167,0.010264,0.000168,-0.510087,-0.014169,1.574266,-259.945078,-1.574047,70.127477
8.1567,0.007153,0.000411,-0.014533,-0.000318,0.000271,0.010245,-0.00052,-0.509981,-0.015013,1.624921,-259.942713,-1.625448,70.129819
8.1767,0.006741,0.00063,-0.015813,-0.000124,0.000122,0.010234,-0.000271,-0.509556,-0.014547,1.624921,-259.942713,-1.625448,70.129819
8.1968,0.006861,0.000206,-0.014097,2.1e-05,1.1e-05,0.010228,-0.000271,-0.509556,-0.014547,1.624921,-259.942713,-1.625448,70.129819
8.2166,0.006602,0.000287,-0.014717,0.000129,-7.1e-05,0.010225,-0.000342,-0.509732,-0.013677,1.619513,-259.940142,-1.623918,70.132177
8.2365,0.006915,0.000307,-0.015297,0.000339,-7.1e-05,0.010212,-0.000572,-0.509701,-0.014051,1.619513,-259.940142,-1.623918,70.132177
8.2569,0.006363,0.000482,-0.013562,0.000498,-7e-05,0.010204,-0.000882,-0.509635,-0.01502,1.549876,-259.938047,-1.550349,70.134321
8.2767,0.006563,0.000383,-0.013049,0.000621,-0.000154,0.010183,-0.000582,-0.509486,-0.013678,1.549876,-259.938047,-1.550349,70.134321
8.2965,0.006641,0.000278,-0.013842,0.000714,-0.000217,0.010166,-0.000582,-0.509486,-0.013678,1.549876,-259.938047,-1.550349,70.134321
8.3164,0.006579,0.000377,-0.013009,0.000786,-0.000264,0.010154,-0.000399,-0.509676,-0.013461,1.490135,-259.935836,-1.491916,70.136582
8.3368,0.006846,0.000338,-0.013333,0.000707,-0.000237,0.010133,-0.000257,-0.509637,-0.013232,1.490135,-259.935836,-1.491916,70.136582
8.3564,0.005961,-0.000137,-0.011703,0.000651,-0.000217,0.010115,7e-05,-0.509625,-0.013028,1.439152,-259.933602,-1.449813,70.139011
8.3766,0.006143,-0.000275,-0.011889,0.000502,-1.4e-05,0.010025,1e-06,-0.510059,-0.011808,1.439152,-259.933602,-1.449813,70.139011
8.3966,0.006285,-6.7e-05,-0.012169,0.000391,0.000138,0.009954,1e-06,-0.510059,-0.011808,1.439152,-259.933602,-1.449813,70.139011
8.4167,0.0061,1.9e-05,-0.011765,0.000309,0.000253,0.009899,0.000106,-0.510038,-0.011752,1.462077,-259.931235,-1.469411,70.141549
8.4368,0.005838,-7e-05,-0.01261,0.0002,0.000316,0.009854,0.000107,-0.510001,-0.011709,1.462077,-259.931235,-1.469411,70.141549
8.4566,0.005917,0.000248,-0.011305,0.000118,0.000363,0.009819,-0.000584,-0.510022,-0.012323,1.521782,-259.92894,-1.517511,70.14366
8.4765,0.005801,7.2e-05,-0.011715,6.2e-05,0.000291,0.009773,8.8e-05,-0.509745,-0.011379,1.521782,-259.92894,-1.517511,70.14366
8.4968,0.005964,0.000316,-0.009689,2e-05,0.000236,0.009735,8.8e-05,-0.509745,-0.011379,1.521782,-259.92894,-1.517511,70.14366
8.5168,0.00553,0.000116,-0.009799,-1.2e-05,0.000194,0.009704,0.001028,-0.509645,-0.00929,1.55227,-259.926472,-1.549881,70.145846
8.5368,0.005665,0.000408,-0.010648,-0.000348,0.000176,0.009511,0.000826,-0.509731,-0.009453,1.55227,-259.926472,-1.549881,70.145846
8.5567,0.005399,4.2e-05,-0.010744,-0.0006,0.000159,0.009361,0.000234,-0.509557,-0.010345,1.572781,-259.924063,-1.572916,70.148102
8.5768,0.005369,0.000537,-0.011615,-0.000411,0.000197,0.009352,-5.4e-05,-0.509896,-0.010695,1.572781,-259.924063,-1.572916,70.148102
8.5968,0.005498,0.000839,-0.009476,-0.000271,0.000228,0.009347,-5.4e-05,-0.509896,-0.010695,1.572781,-259.924063,-1.572916,70.148102
8.617,0.005101,0.000291,-0.011567,-0.000166,0.000253,0.009346,0.000653,-0.509133,-0.009195,1.647699,-259.92238,-1.647834,70.149695
8.637,0.005431,0.000334,-0.009464,-0.000148,4.9e-05,0.009297,6.5e-05,-0.509352,-0.010122,1.647699,-259.92238,-1.647834,70.149695
8.6565,0.004868,0.000232,-0.009428,-0.000135,-0.000106,0.009258,0.000599,-0.509636,-0.009186,1.598717,-259.920163,-1.601305,70.151724
8.6767,0.005015,0.000185,-0.009195,-0.00014,-5.7e-05,0.009144,0.000108,-0.509735,-0.009393,1.598717,-259.920163,-1.601305,70.151724
8.6971,0.004728,4.9e-05,-0.010194,-0.000143,-2.2e-05,0.009056,0.000108,-0.509735,-0.009393,1.598717,-259.920163,-1.601305,70.151724
8.7168,0.004737,0.000239,-0.010284,-0.000145,4e-06,0.008989,-0.000476,-0.509928,-0.009806,1.595057,-259.917946,-1.594162,70.154027
8.7374,0.004686,0.000314,-0.009504,0.000113,6.1e-05,0.00898,-0.00049,-0.509851,-0.009955,1.595057,-259.917946,-1.594162,70.154027
8.7568,0.00437,0.00029,-0.010038,0.000308,0.000107,0.008975,-0.000165,-0.509662,-0.009217,1.597251,-259.915744,-1.59729,70.156224
8.7768,0.004519,0.000171,-0.009793,0.000535,7.2e-05,0.008968,-0.000699,-0.509682,-0.009952,1.597251,-259.915744,-1.59729,70.156224
8.7965,0.004678,0.000523,-0.00755,0.000707,4.8e-05,0.008965,-0.000699,-0.509682,-0.009952,1.597251,-259.915744,-1.59729,70.156224
8.8172,0.004618,0.000301,-0.007142,0.000838,3.1e-05,0.008964,0.000837,-0.509459,-0.007249,1.522147,-259.913945,-1.522186,70.157955
8.8374,0.004369,0.000495,-0.007738,0.000274,-3e-06,0.008596,0.000895,-0.509552,-0.00717,1.522147,-259.913945,-1.522186,70.157955
8.8571,0.004231,0.000477,-0.009396,-0.000152,-3.5e-05,0.008331,0.000438,-0.509489,-0.007532,1.447144,-259.912366,-1.447183,70.159517
8.8771,0.003936,0.000346,-0.007176,0.000102,-0.000111,0.008387,-0.000468,-0.5095,-0.009213,1.447144,-259.912366,-1.447183,70.159517
8.897,0.004186,0.000183,-0.008682,0.000293,-0.000166,0.008433,-0.000468,-0.5095,-0.009213,1.447144,-259.912366,-1.447183,70.159517
8.9171,0.004031,0.000195,-0.005072,0.000435,-0.000207,0.008469,-0.000237,-0.509798,-0.008519,1.522024,-259.911417,-1.522063,70.160479
8.9369,0.004016,0.000149,-0.008502,0.000148,-9.2e-05,0.008195,0.000447,-0.509799,-0.007098,1.522024,-259.911417,-1.522063,70.160479
8.9572,0.003949,-0.000233,-0.006661,-6.7e-05,-9e-06,0.007994,-0.000307,-0.509839,-0.008242,1.483338,-259.909499,-1.490023,70.162555
8.9766,0.003829,0.000583,-0.00616,-0.000231,0.000216,0.007775,0.000478,-0.510189,-0.006786,1.483338,-259.909499,-1.490023,70.162555
8.997,0.003412,0.000121,-0.006628,-0.000356,0.000385,0.007616,0.000478,-0.510189,-0.006786,1.483338,-259.909499,-1.490023,70.162555
9.0166,0.003535,0.000168,-0.006801,-0.000451,0.000513,0.007501,3.2e-05,-0.509868,-0.006383,1.55844,-259.908067,-1.565126,70.163993
9.037,0.00384,0.000335,-0.006858,-0.000339,0.000465,0.007362,4.7e-05,-0.509849,-0.006525,1.55844,-259.908067,-1.565126,70.163993
9.0565,0.003557,0.000214,-0.005197,-0.000257,0.000432,0.007261,0.000336,-0.509642,-0.006694,1.63334,-259.906663,-1.640026,70.165116
9.0767,0.003652,3.9e-05,-0.007517,-0.000539,0.000388,0.006919,0.000857,-0.509767,-0.005318,1.63334,-259.906663,-1.640026,70.165116
9.0969,0.003667,0.000194,-0.006978,-0.00075,0.000352,0.006674,0.000857,-0.509767,-0.005318,1.63334,-259.906663,-1.640026,70.165116
9.1172,0.003202,0.000287,-0.006063,-0.000909,0.000322,0.006498,9.8e-05,-0.509775,-0.006675,1.623507,-259.904718,-1.634844,70.166718
9.137,0.003712,0.000377,-0.00531,-0.000707,0.000273,0.00659,0.000101,-0.509744,-0.006389,1.623507,-259.904718,-1.634844,70.166718
9.157,0.00305,0.000337,-0.006206,-0.000557,0.000238,0.00666,0.001004,-0.509616,-0.00531,1.548525,-259.904718,-1.559861,70.166718
9.1773,0.003458,-0.000155,-0.00719,-0.000398,0.000174,0.006646,-9e-06,-0.50965,-0.006121,1.548525,-259.904718,-1.559861,70.166718
9.1974,0.003565,0.000311,-0.007342,-0.00028,0.000126,0.006635,-9e-06,-0.50965,-0.006121,1.548525,-259.904718,-1.559861,70.166718
9.2172,0.002885,0.000196,-0.007513,-0.000191,9.1e-05,0.006627,-0.000184,-0.509671,-0.00721,1.623435,-259.903901,-1.634772,70.167446
9.2371,0.003028,0.000746,-0.007601,8.5e-05,8.2e-05,0.006791,-0.000494,-0.509719,-0.007317,1.623435,-259.903901,-1.634772,70.167446
9.2565,0.002816,4.7e-05,-0.005269,0.000292,7.8e-05,0.006915,-0.000854,-0.509236,-0.007391,1.616811,-259.902252,-1.618917,70.169023
9.2768,0.003227,0.000478,-0.005849,0.000219,0.000164,0.006657,4e-05,-0.509882,-0.005448,1.616811,-259.902252,-1.618917,70.169023
9.297,0.002896,0.000408,-0.006188,0.000167,0.000226,0.006471,4e-05,-0.509882,-0.005448,1.616811,-259.902252,-1.618917,70.169023
9.3169,0.002939,0.000148,-0.004532,0.00013,0.000272,0.006337,-0.000256,-0.50958,-0.006,1.541814,-259.901133,-1.54392,70.170101
9.3373,0.00319,0.000172,-0.007059,7.3e-05,0.000224,0.006226,0.000101,-0.509687,-0.005386,1.541814,-259.901133,-1.54392,70.170101
9.3573,0.002714,0.000441,-0.007156,3.2e-05,0.000186,0.006145,-0.000405,-0.509807,-0.006855,1.539528,-259.899478,-1.534798,70.171539
9.377,0.002536,0.000349,-0.005473,0.000402,9.3e-05,0.006372,-0.000887,-0.509569,-0.007118,1.539528,-259.899478,-1.534798,70.171539
9.3968,0.002869,0.00019,-0.00486,0.000682,2.7e-05,0.006545,-0.000887,-0.509569,-0.007118,1.539528,-259.899478,-1.534798,70.171539
9.4171,0.00271,0.000314,-0.006178,0.000894,-2e-05,0.006676,0.000391,-0.509796,-0.004607,1.562697,-259.897934,-1.561853,70.172938
9.4373,0.002737,0.000395,-0.004273,0.000666,3.7e-05,0.006417,5.7e-05,-0.509747,-0.00521,1.562697,-259.897934,-1.561853,70.172938
9.4569,0.002684,0.000139,-0.005357,0.000497,7.6e-05,0.006235,0.00056,-0.509601,-0.004218,1.487701,-259.897519,-1.486856,70.173357
9.4768,0.002681,0.000197,-0.005867,0.000396,0.000138,0.006102,1e-05,-0.50983,-0.005247,1.487701,-259.897519,-1.486856,70.173357
9.4971,0.002688,0.000305,-0.003946,0.000321,0.000183,0.006005,1e-05,-0.50983,-0.005247,1.487701,-259.897519,-1.486856,70.173357
9.5167,0.002533,0.000458,-0.004027,0.000266,0.000217,0.005936,0.000696,-0.509689,-0.003702,1.44345,-259.896057,-1.438287,70.174762
9.5373,0.002752,0.000232,-0.005911,-3.8e-05,0.000173,0.00549,0.00061,-0.509627,-0.003807,1.44345,-259.896057,-1.438287,70.174762
9.5564,0.002312,9.7e-05,-0.005129,-0.000265,0.000137,0.005178,-0.000255,-0.509753,-0.005739,1.501767,-259.894667,-1.493031,70.175996
9.5767,0.002432,0.00027,-0.004867,-3.6e-05,0.000194,0.005307,-0.000299,-0.509883,-0.005176,1.501767,-259.894667,-1.493031,70.175996
9.5968,0.002356,0.000528,-0.005613,0.000135,0.00024,0.005403,-0.000299,-0.509883,-0.005176,1.501767,-259.894667,-1.493031,70.175996
9.6168,0.002287,0.000475,-0.005064,0.000264,0.000277,0.005475,-0.000506,-0.509462,-0.005515,1.576719,-259.89407,-1.567982,70.176544
9.6367,0.001985,-0.00021,-0.004112,0.000404,0.000139,0.005552,-0.000421,-0.509485,-0.00532,1.576719,-259.89407,-1.567982,70.176544
9.6569,0.002187,0.000531,-0.004964,0.00051,3.6e-05,0.005608,-0.000106,-0.510199,-0.00397,1.50172,-259.892892,-1.492983,70.177542
9.6766,0.002307,0.000327,-0.003673,0.00055,-2e-05,0.00555,-0.000322,-0.509529,-0.004866,1.50172,-259.892892,-1.492983,70.177542
9.6969,0.002425,0.000286,-0.002516,0.000581,-6.3e-05,0.005509,-0.000322,-0.509529,-0.004866,1.50172,-259.892892,-1.492983,70.177542
9.7166,0.002178,0.000398,-0.002748,0.000605,-9.6e-05,0.00548,0.001159,-0.509711,-0.00232,1.426717,-259.89172,-1.421514,70.178691
9.7366,0.001872,0.000578,-0.002713,7.3e-05,-4.1e-05,0.004687,0.001005,-0.509666,-0.002472,1.426717,-259.89172,-1.421514,70.178691
9.7565,0.001999,0.000767,-0.003002,-0.000326,-1e-06,0.004138,0.000507,-0.509423,-0.002544,1.386795,-259.890443,-1.396828,70.18004
9.7766,0.00182,0.000239,-0.003324,-0.000417,-0.000151,0.003941,0.000473,-0.509249,-0.002951,1.386795,-259.890443,-1.396828,70.18004
9.7968,0.002037,0.000513,-0.00316,-0.000486,-0.000265,0.003805,0.000473,-0.509249,-0.002951,1.386795,-259.890443,-1.396828,70.18004
9.8166,0.001813,0.000424,-0.004437,-0.000538,-0.000353,0.003711,0.000426,-0.509484,-0.003152,1.461808,-259.890396,-1.471842,70.180088
9.837,0.001931,0.000306,-0.004159,-0.000399,-0.000323,0.003864,7.1e-05,-0.509519,-0.003672,1.461808,-259.890396,-1.471842,70.180088
9.8566,0.002312,0.000465,-0.004751,-0.000296,-0.000299,0.003975,-0.000191,-0.50969,-0.004159,1.386821,-259.890396,-1.396854,70.180088
9.8772,0.001975,0.000305,-0.003768,-0.000138,-0.000281,0.00431,-0.000118,-0.509544,-0.004696,1.386821,-259.890396,-1.396854,70.180088
9.8976,0.002058,0.000181,-0.003514,-2.1e-05,-0.000265,0.004556,-0.000118,-0.509544,-0.004696,1.386821,-259.890396,-1.396854,70.180088
9.917,0.00212,-5.2e-05,-0.00406,6.7e-05,-0.000252,0.004734,0.000266,-0.509817,-0.003506,1.461819,-259.890352,-1.471853,70.180143
9.9367,0.001964,0.000554,-0.002481,7e-06,-7.2e-05,0.00459,0.000178,-0.50991,-0.003729,1.461819,-259.890352,-1.471853,70.180143
9.9566,0.002001,0.000493,-0.003139,-3.8e-05,6.2e-05,0.004488,0.000701,-0.509451,-0.002358,1.536819,-259.889495,-1.546853,70.181164
9.9768,0.001937,0.000157,-0.004345,-0.000187,-2e-06,0.00421,0.000427,-0.5095,-0.003064,1.536819,-259.889495,-1.546853,70.181164
9.997,0.001965,0.000412,-0.003463,-0.000297,-5.2e-05,0.004013,0.000427,-0.5095,-0.003064,1.536819,-259.889495,-1.546853,70.181164
10.0171,0.001863,0.000543,-0.004006,-0.00038,-9.1e-05,0.003874,0.000197,-0.509583,-0.003285,1.584388,-259.888435,-1.585021,70.182176
10.0371,0.001551,0.000536,-0.002524,-0.000271,-0.000118,0.003928,4.3e-05,-0.509529,-0.00356,1.584388,-259.888435,-1.585021,70.182176
10.0564,0.001986,2.9e-05,-0.002337,-0.000191,-0.000138,0.003966,0.000261,-0.509464,-0.002461,1.659569,-259.887969,-1.660202,70.182678
10.0771,0.001548,4e-06,-0.002111,-0.000427,2.6e-05,0.00356,0.000746,-0.509924,-0.002345,1.659569,-259.887969,-1.660202,70.182678
10.097,0.002072,0.00034,-0.004956,-0.000604,0.000149,0.003274,0.000746,-0.509924,-0.002345,1.659569,-259.887969,-1.660202,70.182678
10.117,0.00142,0.000166,-0.00235,-0.000736,0.000241,0.003075,-0.000463,-0.50966,-0.00479,1.654004,-259.887056,-1.645092,70.183701
10.1374,0.001495,0.000413,-0.003714,-0.000433,0.000207,0.003401,-0.000188,-0.50973,-0.003788,1.654004,-259.887056,-1.645092,70.183701
10.1564,0.001406,0.000452,-0.003436,-0.000208,0.000187,0.003641,-0.000399,-0.509583,-0.003714,1.579008,-259.887056,-1.570096,70.183701
10.1768,0.001428,0.000684,-0.003411,2.6e-05,0.000102,0.00371,-0.000351,-0.509548,-0.003461,1.579008,-259.887056,-1.570096,70.183701
10.1969,0.001447,0.00037,-0.002999,0.000202,4e-05,0.00376,-0.000351,-0.509548,-0.003461,1.579008,-259.887056,-1.570096,70.183701
10.217,0.001574,0.000253,-0.001832,0.000335,-5e-06,0.003797,-8.9e-05,-0.509622,-0.002882,1.654015,-259.886311,-1.645104,70.184331
10.2366,0.001716,0.000196,-0.002031,0.000185,2.4e-05,0.003471,0.000215,-0.509673,-0.00243,1.654015,-259.886311,-1.645104,70.184331
10.2567,0.001589,0.000153,-0.004015,7.5e-05,4.5e-05,0.003242,0.00068,-0.509803,-0.002006,1.578668,-259.886122,-1.569756,70.184522
10.277,0.00185,0.000286,-0.003007,0.000249,0.000112,0.003518,-0.000355,-0.50984,-0.003832,1.578668,-259.886122,-1.569756,70.184522
10.2969,0.001596,8.3e-05,-0.002778,0.00038,0.000166,0.003718,-0.000355,-0.50984,-0.003832,1.578668,-259.886122,-1.569756,70.184522
10.3172,0.001315,0.000243,-0.002527,0.000479,0.000208,0.003863,0.000182,-0.509913,-0.00265,1.533652,-259.885353,-1.531918,70.185256
10.3372,0.001602,0.000205,-0.003147,0.000342,0.00026,0.003567,0.000119,-0.509848,-0.002585,1.533652,-259.885353,-1.531918,70.185256
10.3572,0.001449,0.000294,-0.00298,0.000241,0.000299,0.003359,0.0,-0.509789,-0.003094,1.458496,-259.884916,-1.456762,70.185625
10.3772,0.001396,0.000234,-0.003018,0.000247,0.000265,0.003359,-6.3e-05,-0.509712,-0.002988,1.458496,-259.884916,-1.456762,70.185625
10.3966,0.001679,0.000208,-0.002894,0.000251,0.00024,0.003359,-6.3e-05,-0.509712,-0.002988,1.458496,-259.884916,-1.456762,70.185625
10.4168,0.001446,0.000125,-0.000981,0.000255,0.000221,0.00336,0.000212,-0.509777,-0.002755,1.468653,-259.88398,-1.434203,70.186325
10.437,0.001505,0.000425,-0.003445,4e-06,0.00026,0.002998,0.000513,-0.509816,-0.002015,1.468653,-259.88398,-1.434203,70.186325
10.4569,0.001769,0.000103,-0.002407,-0.000183,0.000287,0.002744,-0.000244,-0.509565,-0.003338,1.459187,-259.883067,-1.432605,70.187064
10.477,0.001425,0.000366,-0.002879,-0.000302,0.000327,0.002752,0.000471,-0.509866,-0.002485,1.459187,-259.883067,-1.432605,70.187064
10.497,0.001705,0.000482,-0.002054,-0.000393,0.000356,0.002758,0.000471,-0.509866,-0.002485,1.459187,-259.883067,-1.432605,70.187064
10.5168,0.001336,0.000653,-0.00262,-0.000461,0.000377,0.002764,0.000658,-0.509515,-0.002036,1.534181,-259.882942,-1.5076,70.187153
10.5379,0.001218,0.000402,-0.003257,-0.000479,0.000217,0.002694,0.000382,-0.509444,-0.002278,1.534181,-259.882942,-1.5076,70.187153
10.5564,0.001224,0.000352,-0.002692,-0.000494,9.5e-05,0.002643,-0.000443,-0.509596,-0.003257,1.458753,-259.882942,-1.432171,70.187153
10.5767,0.001238,0.000289,-0.002255,-0.000256,7.6e-05,0.00276,-0.000175,-0.509642,-0.002743,1.458753,-259.882942,-1.432171,70.187153
10.5971,0.001343,0.000562,-0.002298,-7.9e-05,6.3e-05,0.002844,-0.000175,-0.509642,-0.002743,1.458753,-259.882942,-1.432171,70.187153
10.6168,0.000938,0.000329,-0.001919,5.3e-05,5.5e-05,0.002904,0.000171,-0.509437,-0.002298,1.384177,-259.882942,-1.357595,70.187153
10.6372,0.001431,0.000385,-0.003246,3.5e-05,1e-05,0.002723,8.1e-05,-0.509535,-0.002138,1.384177,-259.882942,-1.357595,70.187153
10.6567,0.001275,0.000142,-0.001087,2.3e-05,-2.5e-05,0.002594,-0.000222,-0.509611,-0.00321,1.459624,-259.882656,-1.433043,70.187421
10.6769,0.00119,0.000288,-0.002956,-0.000222,8.1e-05,0.002123,0.000636,-0.509835,-0.001276,1.459624,-259.882656,-1.433043,70.187421
10.6973,0.001483,0.000384,-0.001272,-0.000405,0.000159,0.001792,0.000636,-0.509835,-0.001276,1.459624,-259.882656,-1.433043,70.187421
10.7171,0.000873,0.000306,-0.001322,-0.000542,0.000216,0.001559,0.000836,-0.509616,-0.001198,1.534179,-259.882234,-1.507598,70.187857
10.737,0.000979,7.7e-05,-0.001853,-0.000624,0.00018,0.001382,0.00058,-0.509647,-0.00124,1.534179,-259.882234,-1.507598,70.187857
10.7565,0.001102,0.000585,-0.000798,-0.000685,0.000153,0.001255,3.4e-05,-0.509922,-0.001853,1.459047,-259.882234,-1.432465,70.187857
10.7769,0.00093,0.000449,-0.001853,-0.000757,5.6e-05,0.001001,0.000635,-0.509461,-0.000894,1.459047,-259.882234,-1.432465,70.187857
10.7969,0.001064,0.000229,-0.001782,-0.00081,-1.8e-05,0.00082,0.000635,-0.509461,-0.000894,1.459047,-259.882234,-1.432465,70.187857
10.8169,0.001331,0.000434,-0.00298,-0.00085,-7.5e-05,0.00069,0.000155,-0.509771,-0.001782,1.384173,-259.882234,-1.357592,70.187857
10.8372,0.001244,0.000758,-0.001863,-0.000605,-4.1e-05,0.001172,1.6e-05,-0.509687,-0.002267,1.384173,-259.882234,-1.357592,70.187857
10.8565,0.001351,0.000634,-0.00217,-0.000423,-1.1e-05,0.001523,0.000294,-0.509241,-0.001863,1.309186,-259.882234,-1.282604,70.187857
10.877,0.001137,-5.3e-05,-0.002024,0.0,0.0,0.0,0.000248,-0.509354,-0.002142,1.309186,-259.882234,-1.282604,70.187857
