mach0312/omni-docking-bench/src/icros_test_setup/results/MPPI_sample/timeseries/trial_069.csv
t,x,y,yaw,vx,vy,wz,bl_x,bl_y,bl_yaw,front_steering_joint,front_wheel_joint,rear_steering_joint,rear_wheel_joint
0.0,0.060043,-0.021504,-0.067851,-0.007003,-0.001478,-0.002651,0.025603,-0.530722,-0.06975,0.416448,-259.603091,-0.020074,68.387996
0.0004,0.059771,-0.021973,-0.068724,-0.006752,-0.001425,-0.002556,0.025603,-0.530722,-0.06975,0.416448,-259.606427,-0.020074,68.384945
0.0007,0.059545,-0.021879,-0.068739,-0.006463,-0.001365,-0.002447,0.025841,-0.530677,-0.068701,0.416448,-259.609658,-0.020074,68.381989
0.001,0.059803,-0.022133,-0.068608,-0.006136,-0.001295,-0.002323,0.025841,-0.530677,-0.068701,0.416448,-259.612612,-0.020074,68.379287
0.0012,0.05936,-0.022018,-0.069261,-0.005772,-0.001219,-0.002185,0.025824,-0.530395,-0.068318,0.416448,-259.615295,-0.020074,68.376833
0.0015,0.059321,-0.021847,-0.068369,-0.005369,-0.001133,-0.002032,0.025824,-0.530395,-0.068318,0.416448,-259.615295,-0.020074,68.376833
0.0018,0.059189,-0.021868,-0.068288,-0.004922,-0.001039,-0.001863,0.026044,-0.530576,-0.067551,0.416448,-259.615295,-0.020074,68.376833
0.0022,0.058836,-0.02173,-0.067801,-0.004445,-0.000938,-0.001683,0.026044,-0.530576,-0.067551,0.416448,-259.615295,-0.020074,68.376833
0.0172,0.059136,-0.022574,-0.068259,0.0,0.0,0.0,0.024371,-0.530681,-0.068305,0.416448,-259.615295,-0.020074,68.376833
0.0367,0.059013,-0.021983,-0.067793,0.0,0.0,0.0,0.024143,-0.531416,-0.068337,0.416448,-259.617445,-0.020074,68.374866
0.0569,0.059134,-0.022067,-0.068288,0.0,0.0,0.0,0.02425,-0.531174,-0.068125,0.416448,-259.617445,-0.020074,68.374866
0.0764,0.058895,-0.02231,-0.068507,0.0,0.0,0.0,0.024334,-0.530879,-0.068288,0.416448,-259.617445,-0.020074,68.374866
0.0967,0.058902,-0.022284,-0.069153,0.0,0.0,0.0,0.024013,-0.531095,-0.068489,0.416448,-259.617445,-0.020074,68.374866
0.1164,0.059056,-0.022297,-0.067738,-0.002408,0.003121,0.006923,0.024013,-0.531095,-0.068489,0.416448,-259.617445,-0.020074,68.374866
0.1365,0.059237,-0.022088,-0.068094,-0.002604,0.003385,0.007363,0.024536,-0.531128,-0.067738,0.416448,-259.617445,-0.020074,68.374866
0.1567,0.059012,-0.022263,-0.067906,-0.002775,0.003595,0.007706,0.024536,-0.531037,-0.067884,0.416448,-259.617445,-0.020074,68.374866
0.1764,0.059555,-0.022259,-0.069132,-0.002918,0.00377,0.007963,0.024407,-0.531087,-0.067906,0.341533,-259.617445,0.054841,68.374866
0.1967,0.059323,-0.022088,-0.069145,-0.003037,0.003918,0.008166,0.024333,-0.531045,-0.069022,0.341533,-259.617445,0.054841,68.374866
0.2166,0.058587,-0.021846,-0.069173,-0.003136,0.004041,0.008319,0.024333,-0.531045,-0.069022,0.341533,-259.617445,0.054841,68.374866
0.2366,0.059118,-0.021951,-0.068822,-0.003218,0.004145,0.008431,0.023336,-0.530627,-0.069173,0.266661,-259.617446,0.129713,68.374866
0.2564,0.059269,-0.022249,-0.068475,-0.003283,0.004234,0.008527,0.023627,-0.530674,-0.06903,0.266661,-259.617446,0.129713,68.374866
0.2769,0.059249,-0.022115,-0.068925,-0.003338,0.004308,0.008597,0.024374,-0.531054,-0.068475,0.191656,-259.617446,0.204718,68.374866
0.297,0.059163,-0.021956,-0.068854,-0.003387,0.004366,0.008659,0.024147,-0.530916,-0.068886,0.191656,-259.617446,0.204718,68.374866
0.3168,0.059115,-0.022335,-0.069327,-0.003427,0.004414,0.008704,0.024147,-0.530916,-0.068886,0.191656,-259.617446,0.204718,68.374866
0.3367,0.059163,-0.02245,-0.069734,-0.00346,0.004454,0.008735,0.023787,-0.53111,-0.069327,0.116527,-259.617446,0.275225,68.374866
0.3569,0.059063,-0.022072,-0.069846,-0.00348,0.004497,0.00881,0.023722,-0.531151,-0.069493,0.116527,-259.617446,0.275225,68.374866
0.3766,0.058869,-0.022249,-0.069136,-0.003496,0.004534,0.008868,0.02347,-0.530828,-0.069846,0.041669,-259.617447,0.249297,68.374865
0.3966,0.059201,-0.021826,-0.068146,-0.00351,0.004564,0.008912,0.023624,-0.531014,-0.069195,0.041669,-259.617447,0.249297,68.374865
0.4167,0.058927,-0.022413,-0.069536,-0.003522,0.004589,0.008946,0.023624,-0.531014,-0.069195,0.041669,-259.617447,0.249297,68.374865
0.4367,0.058862,-0.022209,-0.06894,-0.003531,0.00461,0.008971,0.023492,-0.53118,-0.069536,-0.033514,-259.617447,0.247217,68.374865
0.4565,0.05924,-0.022037,-0.06928,-0.003537,0.004629,0.00899,0.023588,-0.531107,-0.069298,-0.033514,-259.617447,0.247217,68.374865
0.4766,0.058491,-0.021815,-0.068692,-0.003543,0.004646,0.009004,0.023935,-0.530814,-0.06928,-0.108348,-259.617447,0.241333,68.374865
0.4964,0.059237,-0.022162,-0.068573,-0.003553,0.004653,0.009013,0.023525,-0.53063,-0.068744,-0.108348,-259.617447,0.241333,68.374865
0.5166,0.059265,-0.021972,-0.068991,-0.003562,0.004658,0.009019,0.023525,-0.53063,-0.068744,-0.108348,-259.617447,0.241333,68.374865
0.5366,0.05857,-0.02195,-0.069042,-0.003569,0.004663,0.009023,0.024108,-0.530758,-0.068991,-0.183454,-259.617448,0.236226,68.374865
0.5566,0.058931,-0.022109,-0.068337,-0.003577,0.004664,0.009026,0.02381,-0.530749,-0.069012,-0.183454,-259.617448,0.236226,68.374865
0.5768,0.058674,-0.022144,-0.070105,-0.003584,0.004666,0.009027,0.024106,-0.530918,-0.068337,-0.258427,-259.617448,0.233363,68.374865
0.597,0.059005,-0.022456,-0.06734,-0.003578,0.004681,0.00903,0.02305,-0.530893,-0.069952,-0.258427,-259.617448,0.233363,68.374865
0.6169,0.059303,-0.022276,-0.069523,-0.003572,0.004694,0.009031,0.02305,-0.530893,-0.069952,-0.258427,-259.617448,0.233363,68.374865
0.6371,0.058843,-0.022255,-0.068573,-0.003568,0.004705,0.009032,0.023875,-0.531044,-0.069523,-0.333454,-259.617449,0.232294,68.374865
0.6569,0.059021,-0.022626,-0.068509,-0.003573,0.004704,0.009031,0.023884,-0.531049,-0.069136,-0.333454,-259.617449,0.232294,68.374865
0.6768,0.059276,-0.022209,-0.069121,-0.003576,0.004704,0.00903,0.024109,-0.53143,-0.068509,-0.408335,-259.617449,0.223635,68.374865
0.6966,0.059269,-0.022115,-0.068824,-0.003582,0.004701,0.009028,0.024057,-0.531029,-0.069068,-0.408335,-259.617449,0.223635,68.374865
0.7167,0.059205,-0.022355,-0.067938,-0.003587,0.004699,0.009027,0.024057,-0.531029,-0.069068,-0.408335,-259.617449,0.223635,68.374865
0.7369,0.059159,-0.022263,-0.068326,-0.003591,0.004697,0.009026,0.024583,-0.531179,-0.067938,-0.483424,-259.61745,0.222894,68.374864
0.7569,0.058875,-0.022403,-0.068487,-0.003597,0.004691,0.009024,0.024484,-0.531135,-0.068097,-0.483424,-259.61745,0.222894,68.374864
0.7764,0.059577,-0.022315,-0.067039,-0.003603,0.004686,0.009023,0.023974,-0.531208,-0.068487,-0.558379,-259.61745,0.223422,68.374864
0.797,0.05942,-0.022094,-0.068383,-0.003616,0.004671,0.009021,0.025291,-0.531172,-0.067162,-0.558379,-259.61745,0.223422,68.374864
0.8169,0.058899,-0.022212,-0.067457,-0.003627,0.004659,0.009019,0.025291,-0.531172,-0.067162,-0.558379,-259.61745,0.223422,68.374864
0.8369,0.058853,-0.0221,-0.068125,-0.003636,0.004649,0.009018,0.024522,-0.531052,-0.067457,-0.633495,-259.617452,0.224989,68.374863
0.8567,0.059145,-0.022112,-0.069555,-0.003636,0.00465,0.009018,0.024362,-0.530996,-0.067733,-0.633495,-259.617452,0.224989,68.374863
0.8768,0.05931,-0.022243,-0.068409,-0.003635,0.004651,0.009018,0.0237,-0.530879,-0.069555,-0.708459,-259.617463,0.231962,68.37486
0.8969,0.05941,-0.022189,-0.068389,-0.003635,0.004652,0.009019,0.024384,-0.531035,-0.068507,-0.708459,-259.617463,0.231962,68.37486
0.9165,0.058836,-0.022501,-0.070491,-0.003635,0.004653,0.009019,0.024384,-0.531035,-0.068507,-0.708459,-259.617463,0.231962,68.37486
0.937,0.058891,-0.022127,-0.067612,-0.003635,0.004653,0.009019,0.022913,-0.531232,-0.070487,-0.783465,-259.617511,0.231438,68.374843
0.9569,0.058909,-0.022355,-0.06798,-0.003623,0.004668,0.009021,0.02354,-0.531121,-0.069302,-0.783465,-259.617511,0.231438,68.374843
0.9766,0.059067,-0.022179,-0.06828,-0.003613,0.00468,0.009022,0.02426,-0.531173,-0.067971,-0.858425,-259.617677,0.231003,68.374786
0.9969,0.059116,-0.022341,-0.068795,-0.003615,0.004678,0.009021,0.02427,-0.531005,-0.068253,-0.858425,-259.617677,0.231003,68.374786
1.0168,0.058835,-0.022446,-0.068994,-0.003617,0.004676,0.00902,0.02427,-0.531005,-0.068253,-0.858425,-259.617677,0.231003,68.374786
1.0368,0.058651,-0.022059,-0.067625,-0.003619,0.004674,0.00902,0.023656,-0.531214,-0.06896,-0.933473,-259.618126,0.225815,68.374632
1.0571,0.059416,-0.021779,-0.068823,-0.003614,0.00468,0.00902,0.023873,-0.531079,-0.068404,-0.933473,-259.618126,0.225815,68.374632
1.077,0.058812,-0.022107,-0.068969,-0.00361,0.004685,0.009021,0.024311,-0.530537,-0.06876,-1.008453,-259.61917,0.226643,68.374273
1.0969,0.059141,-0.022031,-0.069176,-0.003608,0.004688,0.009021,0.023719,-0.530863,-0.068948,-1.008453,-259.61917,0.226643,68.374273
1.1171,0.058908,-0.022,-0.067668,-0.003607,0.00469,0.00902,0.023719,-0.530863,-0.068948,-1.008453,-259.61917,0.226643,68.374273
1.1371,0.058545,-0.021885,-0.067583,-0.003605,0.004692,0.00902,0.024347,-0.530745,-0.067508,-1.083489,-259.621122,0.224378,68.373605
1.1569,0.058504,-0.022107,-0.068028,-0.003612,0.004684,0.009019,0.024238,-0.530725,-0.067521,-1.083489,-259.621122,0.224378,68.373605
1.1771,0.058213,-0.021936,-0.068025,-0.003617,0.004677,0.009018,0.023754,-0.53082,-0.067832,-1.158472,-259.624172,0.222949,68.372562
1.1969,0.058216,-0.021605,-0.068427,-0.003613,0.004682,0.009065,0.023561,-0.530757,-0.067999,-1.158472,-259.624172,0.222949,68.372562
1.2169,0.058067,-0.021702,-0.067612,-0.003609,0.004687,0.009103,0.023561,-0.530757,-0.067999,-1.158472,-259.624172,0.222949,68.372562
1.2366,0.05788,-0.021515,-0.067499,-0.003606,0.00469,0.009135,0.023484,-0.530348,-0.067266,-1.229539,-259.628151,0.225705,68.371196
1.2571,0.057874,-0.021604,-0.067833,-0.003609,0.004687,0.009186,0.023468,-0.530329,-0.067321,-1.229539,-259.628151,0.225705,68.371196
1.2768,0.057579,-0.02104,-0.068129,-0.003611,0.004685,0.009228,0.023202,-0.530274,-0.067543,-1.233089,-259.632495,0.241695,68.369714
1.2973,0.057917,-0.020899,-0.067736,-0.003612,0.004683,0.009291,0.022884,-0.529885,-0.068065,-1.233089,-259.632495,0.241695,68.369714
1.3169,0.057636,-0.021048,-0.067047,-0.003613,0.004681,0.009342,0.022884,-0.529885,-0.068065,-1.233089,-259.632495,0.241695,68.369714
1.3366,0.057326,-0.020843,-0.068707,-0.003614,0.00468,0.009384,0.023331,-0.529698,-0.066664,-1.234267,-259.636848,0.257672,68.368227
1.357,0.057509,-0.021527,-0.067118,-0.003618,0.004675,0.009445,0.022894,-0.52965,-0.067464,-1.234267,-259.636848,0.257672,68.368227
1.3771,0.056693,-0.020685,-0.066985,-0.003622,0.00467,0.009495,0.023201,-0.530224,-0.066823,-1.236724,-259.641212,0.283144,68.366737
1.397,0.057012,-0.021012,-0.066815,-0.003621,0.00467,0.009561,0.022606,-0.529592,-0.066957,-1.236724,-259.641212,0.283144,68.366737
1.4171,0.056752,-0.020766,-0.06587,-0.003621,0.00467,0.009615,0.022606,-0.529592,-0.066957,-1.236724,-259.641212,0.283144,68.366737
1.4372,0.056329,-0.02078,-0.066109,-0.003622,0.00467,0.009659,0.023045,-0.529456,-0.065475,-1.237759,-259.645628,0.302295,68.365225
1.4572,0.056564,-0.020706,-0.066772,-0.003626,0.004665,0.009719,0.022861,-0.52952,-0.065692,-1.237759,-259.645628,0.302295,68.365225
1.4767,0.055854,-0.020153,-0.065577,-0.003629,0.004661,0.009768,0.022432,-0.529416,-0.066469,-1.240677,-259.650043,0.327352,68.363713
1.4967,0.056189,-0.020462,-0.064643,-0.003633,0.004655,0.009831,0.022429,-0.529079,-0.065637,-1.240677,-259.650043,0.327352,68.363713
1.5171,0.055913,-0.020221,-0.065562,-0.003637,0.004651,0.009883,0.022429,-0.529079,-0.065637,-1.240677,-259.650043,0.327352,68.363713
1.5372,0.055241,-0.019955,-0.064355,-0.00364,0.004647,0.009926,0.022362,-0.528922,-0.065155,-1.241704,-259.654509,0.34532,68.36218
1.557,0.055345,-0.020117,-0.063223,-0.003644,0.004641,0.009983,0.022379,-0.528889,-0.064784,-1.241704,-259.654509,0.34532,68.36218
1.5771,0.055057,-0.019844,-0.06547,-0.003648,0.004636,0.01003,0.023017,-0.528945,-0.06291,-1.243195,-259.658978,0.370896,68.360637
1.5968,0.05477,-0.020221,-0.062904,-0.003646,0.004639,0.010088,0.021807,-0.528761,-0.06522,-1.243195,-259.658978,0.370896,68.360637
1.617,0.055373,-0.019619,-0.063416,-0.003644,0.004641,0.010136,0.021807,-0.528761,-0.06522,-1.243195,-259.658978,0.370896,68.360637
1.6369,0.054642,-0.019362,-0.062875,-0.003643,0.004642,0.010176,0.022913,-0.528392,-0.062998,-1.24398,-259.663509,0.387626,68.359066
1.657,0.054721,-0.019534,-0.064611,-0.00366,0.004621,0.010221,0.022767,-0.528353,-0.062899,-1.24398,-259.663509,0.387626,68.359066
1.6765,0.054563,-0.018852,-0.062051,-0.003674,0.004602,0.010258,0.021687,-0.528316,-0.064289,-1.247087,-259.668067,0.40754,68.357486
1.6969,0.054175,-0.019139,-0.063712,-0.003694,0.004576,0.010297,0.022829,-0.5279,-0.062222,-1.247087,-259.668067,0.40754,68.357486
1.7168,0.054551,-0.01935,-0.063733,-0.003711,0.004554,0.01033,0.022829,-0.5279,-0.062222,-1.247087,-259.668067,0.40754,68.357486
1.7368,0.053825,-0.018864,-0.063662,-0.003725,0.004535,0.010357,0.021929,-0.528114,-0.063307,-1.244734,-259.672648,0.424988,68.355876
1.7569,0.053852,-0.019075,-0.063087,-0.003721,0.00454,0.010387,0.021679,-0.52797,-0.063408,-1.244734,-259.672648,0.424988,68.355876
1.7767,0.05381,-0.018698,-0.062319,-0.003718,0.004544,0.010411,0.021592,-0.527912,-0.062763,-1.240396,-259.67718,0.44798,68.354244
1.7966,0.053786,-0.018902,-0.06177,-0.003724,0.004536,0.010433,0.022004,-0.527718,-0.062341,-1.240396,-259.67718,0.44798,68.354244
1.8166,0.053437,-0.018701,-0.060972,-0.003728,0.00453,0.010451,0.022004,-0.527718,-0.062341,-1.240396,-259.67718,0.44798,68.354244
1.8369,0.052899,-0.018487,-0.061824,-0.003732,0.004525,0.010466,0.022217,-0.527554,-0.060538,-1.242121,-259.681803,0.454147,68.352584
1.857,0.052799,-0.018271,-0.063288,-0.003736,0.004519,0.010481,0.021852,-0.527513,-0.061029,-1.242121,-259.681803,0.454147,68.352584
1.8766,0.052496,-0.018269,-0.061814,-0.00374,0.004515,0.010494,0.020435,-0.527099,-0.062957,-1.241364,-259.686385,0.46393,68.350926
1.8967,0.05232,-0.018125,-0.061039,-0.003734,0.004521,0.010509,0.020935,-0.527269,-0.061901,-1.241364,-259.686385,0.46393,68.350926
1.9169,0.052471,-0.018334,-0.061391,-0.00373,0.004526,0.01052,0.020935,-0.527269,-0.061901,-1.241364,-259.686385,0.46393,68.350926
1.9371,0.052057,-0.018075,-0.061056,-0.003726,0.004531,0.01053,0.021036,-0.527175,-0.060952,-1.240967,-259.691008,0.468917,68.349248
1.9567,0.052244,-0.017952,-0.059952,-0.003725,0.004531,0.01054,0.020979,-0.527132,-0.060944,-1.240967,-259.691008,0.468917,68.349248
1.9766,0.0518,-0.017888,-0.058994,-0.003725,0.004532,0.010549,0.021578,-0.526885,-0.059617,-1.243138,-259.695638,0.471677,68.347575
1.997,0.051785,-0.017481,-0.05805,-0.003736,0.004517,0.010556,0.021712,-0.526983,-0.059031,-1.243138,-259.695638,0.471677,68.347575
2.0172,0.051724,-0.01766,-0.06106,-0.003745,0.004505,0.010562,0.021712,-0.526983,-0.059031,-1.243138,-259.695638,0.471677,68.347575
2.0365,0.051257,-0.017452,-0.05932,-0.003753,0.004494,0.010568,0.020459,-0.526511,-0.060619,-1.243575,-259.700275,0.47399,68.3459
2.0569,0.051336,-0.01762,-0.060632,-0.003754,0.004492,0.010575,0.020674,-0.526506,-0.060033,-1.243575,-259.700275,0.47399,68.3459
2.0768,0.050666,-0.017327,-0.05987,-0.003755,0.004491,0.010582,0.020323,-0.526534,-0.060296,-1.240548,-259.7049,0.481277,68.344208
2.0965,0.050906,-0.017296,-0.057049,-0.00375,0.004497,0.01059,0.02016,-0.526416,-0.05989,-1.240548,-259.7049,0.481277,68.344208
2.1168,0.050946,-0.017215,-0.059558,-0.003745,0.004502,0.010596,0.02016,-0.526416,-0.05989,-1.240548,-259.7049,0.481277,68.344208
2.1365,0.0505,-0.01661,-0.059073,-0.003741,0.004506,0.010601,0.020444,-0.526114,-0.059116,-1.240541,-259.709531,0.483609,68.342512
2.1565,0.050615,-0.017325,-0.058742,-0.00375,0.004494,0.010605,0.020405,-0.52593,-0.059048,-1.240541,-259.709531,0.483609,68.342512
2.1765,0.050453,-0.017028,-0.057909,-0.003757,0.004484,0.010609,0.020563,-0.526295,-0.058405,-1.242425,-259.714173,0.484305,68.34082
2.1966,0.050018,-0.016563,-0.059018,-0.003765,0.004473,0.010612,0.020899,-0.526176,-0.057935,-1.242425,-259.714173,0.484305,68.34082
2.2166,0.050012,-0.016738,-0.057687,-0.003772,0.004464,0.010616,0.020899,-0.526176,-0.057935,-1.242425,-259.714173,0.484305,68.34082
2.2368,0.049485,-0.016828,-0.055983,-0.003778,0.004456,0.010619,0.020462,-0.525694,-0.057244,-1.24062,-259.718808,0.488108,68.339119
2.2572,0.049862,-0.016689,-0.057786,-0.003785,0.004447,0.010622,0.020646,-0.525809,-0.056672,-1.24062,-259.718808,0.488108,68.339119
2.2764,0.049161,-0.016152,-0.057994,-0.003791,0.004438,0.010624,0.020295,-0.525688,-0.057445,-1.238337,-259.723426,0.492843,68.337408
2.2966,0.048828,-0.015953,-0.058472,-0.003791,0.004437,0.010629,0.019657,-0.525322,-0.057928,-1.238337,-259.723426,0.492843,68.337408
2.3168,0.049289,-0.016245,-0.057031,-0.003791,0.004436,0.010632,0.019657,-0.525322,-0.057928,-1.238337,-259.723426,0.492843,68.337408
2.3369,0.04892,-0.016089,-0.056196,-0.003791,0.004435,0.010635,0.020071,-0.525222,-0.056586,-1.236879,-259.728052,0.495874,68.335684
2.3566,0.048286,-0.016017,-0.055639,-0.0038,0.004423,0.010636,0.020137,-0.525225,-0.056376,-1.236879,-259.728052,0.495874,68.335684
2.3766,0.048304,-0.016068,-0.055187,-0.003806,0.004413,0.010638,0.019812,-0.52508,-0.0553,-1.236897,-259.732679,0.497808,68.333958
2.3967,0.048121,-0.015519,-0.056047,-0.003811,0.004407,0.01064,0.020135,-0.525265,-0.05518,-1.236897,-259.732679,0.497808,68.333958
2.4167,0.048327,-0.015705,-0.0561,-0.003814,0.004402,0.010642,0.020135,-0.525265,-0.05518,-1.236897,-259.732679,0.497808,68.333958
2.4372,0.047843,-0.015457,-0.055232,-0.003817,0.004398,0.010643,0.019582,-0.524709,-0.055654,-1.235127,-259.7373,0.50085,68.332223
2.4572,0.047816,-0.015581,-0.054631,-0.003823,0.004388,0.010644,0.019608,-0.524675,-0.055432,-1.235127,-259.7373,0.50085,68.332223
2.4766,0.047359,-0.015138,-0.054886,-0.003828,0.004381,0.010645,0.019854,-0.524673,-0.054291,-1.233894,-259.741924,0.503484,68.330478
2.4973,0.04723,-0.015304,-0.054072,-0.003835,0.004371,0.010646,0.019416,-0.524389,-0.054818,-1.233894,-259.741924,0.503484,68.330478
2.5169,0.047339,-0.01529,-0.055062,-0.00384,0.004362,0.010647,0.019416,-0.524389,-0.054818,-1.233894,-259.741924,0.503484,68.330478
2.5368,0.046479,-0.015051,-0.053076,-0.003845,0.004355,0.010648,0.019122,-0.524325,-0.054616,-1.232532,-259.746532,0.505949,68.32873
2.557,0.047057,-0.014532,-0.05495,-0.003847,0.004351,0.01065,0.019226,-0.524306,-0.053946,-1.232532,-259.746532,0.505949,68.32873
2.5768,0.046651,-0.014744,-0.054282,-0.003849,0.004348,0.010651,0.018932,-0.523616,-0.05461,-1.230478,-259.751138,0.509573,68.326969
2.5965,0.045868,-0.014931,-0.053231,-0.003854,0.00434,0.010652,0.01897,-0.523951,-0.054294,-1.230478,-259.751138,0.509573,68.326969
2.6165,0.046185,-0.014953,-0.053486,-0.003858,0.004334,0.010652,0.01897,-0.523951,-0.054294,-1.230478,-259.751138,0.509573,68.326969
2.6364,0.045948,-0.014338,-0.053147,-0.003861,0.004328,0.010653,0.018769,-0.524033,-0.05304,-1.229998,-259.755744,0.510838,68.325204
2.6564,0.045617,-0.014416,-0.054339,-0.003863,0.004325,0.010654,0.018787,-0.523842,-0.053032,-1.229998,-259.755744,0.510838,68.325204
2.677,0.045489,-0.01401,-0.052477,-0.003864,0.004322,0.010655,0.017802,-0.523519,-0.053999,-1.228445,-259.760346,0.513676,68.32343
2.6968,0.045538,-0.014676,-0.052637,-0.003873,0.004308,0.010655,0.01865,-0.523319,-0.052593,-1.228445,-259.760346,0.513676,68.32343
2.7169,0.045476,-0.014109,-0.053125,-0.003881,0.004296,0.010655,0.01865,-0.523319,-0.052593,-1.228445,-259.760346,0.513676,68.32343
2.7369,0.04525,-0.014151,-0.05177,-0.003887,0.004286,0.010655,0.018243,-0.5232,-0.05268,-1.228092,-259.764949,0.51469,68.321653
2.757,0.045199,-0.013852,-0.053116,-0.003891,0.00428,0.010656,0.018479,-0.523289,-0.052254,-1.228092,-259.764949,0.51469,68.321653
2.7769,0.044777,-0.01379,-0.050897,-0.003893,0.004276,0.010656,0.018006,-0.52299,-0.052778,-1.225095,-259.769538,0.51917,68.319862
2.7973,0.044429,-0.013522,-0.049313,-0.003903,0.004262,0.010656,0.018755,-0.523111,-0.05104,-1.225095,-259.769538,0.51917,68.319862
2.8173,0.04456,-0.013506,-0.051457,-0.00391,0.00425,0.010656,0.018755,-0.523111,-0.05104,-1.225095,-259.769538,0.51917,68.319862
2.8369,0.044028,-0.0135,-0.049736,-0.003917,0.00424,0.010656,0.018175,-0.522644,-0.05101,-1.224328,-259.774122,0.520665,68.318068
2.8573,0.044439,-0.013586,-0.050757,-0.003924,0.004228,0.010656,0.01836,-0.522714,-0.05044,-1.224328,-259.774122,0.520665,68.318068
2.8767,0.043326,-0.013694,-0.049611,-0.00393,0.004218,0.010656,0.018446,-0.522788,-0.050418,-1.221312,-259.778708,0.524949,68.316253
2.8973,0.04391,-0.013084,-0.051876,-0.003924,0.004226,0.010658,0.018062,-0.523038,-0.049659,-1.221312,-259.778708,0.524949,68.316253
2.9172,0.043489,-0.013064,-0.050801,-0.003919,0.004234,0.01066,0.018062,-0.523038,-0.049659,-1.221312,-259.778708,0.524949,68.316253
2.9364,0.043235,-0.013046,-0.051237,-0.003914,0.00424,0.010662,0.017437,-0.522222,-0.050356,-1.219542,-259.783283,0.527667,68.314431
2.9565,0.042913,-0.012699,-0.049661,-0.003915,0.004237,0.010662,0.017284,-0.522265,-0.050673,-1.219542,-259.783283,0.527667,68.314431
2.9768,0.042647,-0.012768,-0.050102,-0.003916,0.004234,0.010663,0.01748,-0.521931,-0.049324,-1.221652,-259.787835,0.525948,68.312631
2.9968,0.042326,-0.012968,-0.049446,-0.003917,0.00423,0.010663,0.017133,-0.522103,-0.050015,-1.221652,-259.787835,0.525948,68.312631
3.0173,0.042676,-0.013092,-0.049251,-0.003918,0.004228,0.010663,0.017133,-0.522103,-0.050015,-1.221652,-259.787835,0.525948,68.312631
3.037,0.042623,-0.012505,-0.049997,-0.003919,0.004225,0.010663,0.017411,-0.522287,-0.048801,-1.22135,-259.79241,0.526913,68.310818
3.0566,0.042334,-0.012504,-0.04936,-0.003922,0.00422,0.010663,0.017284,-0.522099,-0.049227,-1.22135,-259.79241,0.526913,68.310818
3.0768,0.041772,-0.012973,-0.048997,-0.003925,0.004216,0.010663,0.017053,-0.521742,-0.04902,-1.220809,-259.797004,0.528291,68.308994
3.0972,0.042164,-0.012252,-0.046124,-0.003914,0.004231,0.010665,0.016808,-0.522306,-0.048984,-1.220809,-259.797004,0.528291,68.308994
3.1166,0.042056,-0.012594,-0.048105,-0.003905,0.004243,0.010667,0.016808,-0.522306,-0.048984,-1.220809,-259.797004,0.528291,68.308994
3.1368,0.041589,-0.011935,-0.047685,-0.003898,0.004253,0.010668,0.017378,-0.521821,-0.047662,-1.220096,-259.801558,0.529437,68.307182
3.1567,0.041551,-0.012225,-0.046971,-0.003915,0.004227,0.010665,0.017319,-0.521607,-0.04762,-1.220096,-259.801558,0.529437,68.307182
3.1765,0.040922,-0.011955,-0.0478,-0.003929,0.004206,0.010663,0.017487,-0.521522,-0.046632,-1.223521,-259.806138,0.52599,68.305379
3.1969,0.040966,-0.011661,-0.046906,-0.003935,0.004195,0.010662,0.016627,-0.521378,-0.047683,-1.223521,-259.806138,0.52599,68.305379
3.2165,0.040976,-0.011778,-0.046504,-0.003939,0.004187,0.010662,0.016627,-0.521378,-0.047683,-1.223521,-259.806138,0.52599,68.305379
3.2369,0.040482,-0.011708,-0.047609,-0.003944,0.00418,0.010662,0.017112,-0.521043,-0.046059,-1.219453,-259.810694,0.530913,68.303561
3.2565,0.040818,-0.011669,-0.046676,-0.003955,0.004161,0.01066,0.016726,-0.521058,-0.04664,-1.219453,-259.810694,0.530913,68.303561
3.2768,0.040239,-0.011523,-0.04617,-0.003965,0.004145,0.010659,0.016902,-0.520974,-0.046336,-1.217428,-259.81525,0.534001,68.301729
3.2968,0.040155,-0.011154,-0.046656,-0.003975,0.004129,0.010659,0.016713,-0.520972,-0.046168,-1.217428,-259.81525,0.534001,68.301729
3.3168,0.039905,-0.011624,-0.045187,-0.003983,0.004116,0.010658,0.016713,-0.520972,-0.046168,-1.217428,-259.81525,0.534001,68.301729
3.3366,0.03976,-0.011432,-0.046573,-0.00399,0.004104,0.010658,0.016709,-0.520922,-0.04474,-1.214535,-259.819803,0.537886,68.29988
3.3569,0.039259,-0.011109,-0.04531,-0.003992,0.0041,0.010659,0.016407,-0.520884,-0.04544,-1.214535,-259.819803,0.537886,68.29988
3.3768,0.03927,-0.010643,-0.046583,-0.003994,0.004096,0.010659,0.016037,-0.520449,-0.04497,-1.211247,-259.824337,0.54248,68.298018
3.3971,0.039172,-0.010912,-0.045303,-0.004001,0.004082,0.010659,0.01556,-0.520114,-0.046426,-1.211247,-259.824337,0.54248,68.298018
3.4168,0.038854,-0.011001,-0.043503,-0.004006,0.004071,0.010659,0.01556,-0.520114,-0.046426,-1.211247,-259.824337,0.54248,68.298018
3.4371,0.038875,-0.010685,-0.04506,-0.004011,0.004062,0.010659,0.016515,-0.52034,-0.043057,-1.210637,-259.828863,0.543758,68.296154
3.4568,0.038676,-0.010899,-0.042578,-0.004021,0.004044,0.010658,0.01625,-0.52025,-0.043812,-1.210637,-259.828863,0.543758,68.296154
3.4765,0.037672,-0.010514,-0.043864,-0.00403,0.00403,0.010657,0.016846,-0.520302,-0.042238,-1.208179,-259.833395,0.548049,68.29427
3.4968,0.03831,-0.010575,-0.042753,-0.004029,0.00403,0.010659,0.01543,-0.52004,-0.043712,-1.208179,-259.833395,0.548049,68.29427
3.5167,0.037766,-0.010531,-0.044417,-0.004028,0.00403,0.01066,0.01543,-0.52004,-0.043712,-1.208179,-259.833395,0.548049,68.29427
3.5368,0.037639,-0.010328,-0.04442,-0.004027,0.00403,0.010661,0.01496,-0.519853,-0.043972,-1.205576,-259.837896,0.551494,68.292383
3.5568,0.03784,-0.010397,-0.044667,-0.004023,0.004033,0.010662,0.014955,-0.519821,-0.044104,-1.205576,-259.837896,0.551494,68.292383
3.5764,0.037239,-0.010013,-0.042875,-0.004021,0.004035,0.010663,0.014945,-0.519753,-0.044326,-1.205887,-259.842409,0.552235,68.290491
3.5969,0.037496,-0.010277,-0.043311,-0.004031,0.004017,0.010661,0.015333,-0.519556,-0.042989,-1.205887,-259.842409,0.552235,68.290491
3.6164,0.037165,-0.010027,-0.042181,-0.00404,0.004002,0.01066,0.015333,-0.519556,-0.042989,-1.205887,-259.842409,0.552235,68.290491
3.6365,0.036856,-0.010283,-0.042865,-0.004047,0.003989,0.010659,0.015498,-0.519398,-0.041735,-1.206597,-259.846934,0.552196,68.288598
3.6569,0.036917,-0.010076,-0.042841,-0.004052,0.00398,0.010659,0.015274,-0.51955,-0.042151,-1.206597,-259.846934,0.552196,68.288598
3.6767,0.036614,-0.009765,-0.042144,-0.004056,0.003973,0.010659,0.014953,-0.519476,-0.042503,-1.202873,-259.85143,0.557134,68.286693
3.6964,0.036273,-0.009479,-0.040185,-0.004062,0.003961,0.010658,0.015107,-0.519319,-0.042158,-1.202873,-259.85143,0.557134,68.286693
3.7165,0.036386,-0.009519,-0.043385,-0.004067,0.003952,0.010658,0.015107,-0.519319,-0.042158,-1.202873,-259.85143,0.557134,68.286693
3.7367,0.035616,-0.009614,-0.042017,-0.004071,0.003943,0.010658,0.014105,-0.518865,-0.042939,-1.201651,-259.855918,0.558951,68.284783
3.7569,0.035697,-0.009184,-0.040199,-0.004067,0.003947,0.010659,0.014122,-0.518967,-0.042514,-1.201651,-259.855918,0.558951,68.284783
3.7766,0.035237,-0.009512,-0.041279,-0.004063,0.00395,0.01066,0.015077,-0.518641,-0.039859,-1.19936,-259.860404,0.562323,68.282858
3.7973,0.03541,-0.009373,-0.042878,-0.00406,0.003953,0.010661,0.014264,-0.519032,-0.041133,-1.19936,-259.860404,0.562323,68.282858
3.8174,0.035277,-0.009463,-0.040782,-0.004058,0.003955,0.010662,0.014264,-0.519032,-0.041133,-1.19936,-259.860404,0.562323,68.282858
3.8367,0.035019,-0.009168,-0.041015,-0.004056,0.003957,0.010663,0.01432,-0.518866,-0.040333,-1.200308,-259.864899,0.562341,68.280934
3.8567,0.034725,-0.009202,-0.041223,-0.00406,0.003949,0.010662,0.014215,-0.518795,-0.040558,-1.200308,-259.864899,0.562341,68.280934
3.8764,0.034591,-0.00848,-0.038965,-0.004063,0.003943,0.010662,0.013584,-0.518638,-0.040885,-1.201183,-259.869384,0.562187,68.27902
3.8966,0.034169,-0.008596,-0.040559,-0.004089,0.003896,0.010656,0.014616,-0.518135,-0.039119,-1.201183,-259.869384,0.562187,68.27902
3.9168,0.034631,-0.008832,-0.039061,-0.00411,0.003857,0.010653,0.014616,-0.518135,-0.039119,-1.201183,-259.869384,0.562187,68.27902
3.9369,0.034097,-0.008325,-0.040625,-0.004128,0.003825,0.01065,0.014552,-0.518271,-0.038615,-1.200169,-259.873874,0.56378,68.277095
3.9572,0.034188,-0.008471,-0.039533,-0.004135,0.003811,0.01065,0.014051,-0.5181,-0.039392,-1.200169,-259.873874,0.56378,68.277095
3.977,0.033334,-0.008004,-0.038843,-0.00414,0.0038,0.010651,0.013906,-0.517946,-0.039196,-1.190599,-259.878303,0.575787,68.275136
3.9968,0.033813,-0.008438,-0.036819,-0.004149,0.00378,0.01065,0.013556,-0.517641,-0.038858,-1.190599,-259.878303,0.575787,68.275136
4.0169,0.033506,-0.008899,-0.039141,-0.004156,0.003765,0.01065,0.013556,-0.517641,-0.038858,-1.190599,-259.878303,0.575787,68.275136
4.0367,0.033394,-0.008199,-0.03778,-0.004162,0.003751,0.01065,0.013382,-0.518342,-0.038695,-1.188748,-259.88275,0.578767,68.273155
4.0571,0.033032,-0.008289,-0.038779,-0.004155,0.003762,0.010653,0.01367,-0.518115,-0.038268,-1.188748,-259.88275,0.578767,68.273155
4.0769,0.032501,-0.007981,-0.03779,-0.004149,0.003771,0.010655,0.013132,-0.517781,-0.038441,-1.1853,-259.887174,0.584462,68.271161
4.0968,0.0326,-0.007966,-0.038273,-0.00415,0.003767,0.010655,0.013218,-0.517625,-0.03783,-1.1853,-259.887174,0.584462,68.271161
4.117,0.032892,-0.00814,-0.037098,-0.004151,0.003763,0.010656,0.013218,-0.517625,-0.03783,-1.1853,-259.887174,0.584462,68.271161
4.1366,0.032115,-0.007714,-0.03734,-0.004151,0.003759,0.010656,0.013809,-0.517625,-0.036652,-1.187136,-259.891607,0.583028,68.269173
4.1568,0.031986,-0.007665,-0.034854,-0.00416,0.003743,0.010655,0.013489,-0.517497,-0.036883,-1.187136,-259.891607,0.583028,68.269173
4.1765,0.031833,-0.007511,-0.035747,-0.004167,0.003729,0.010654,0.014086,-0.517231,-0.034515,-1.186572,-259.896038,0.584882,68.267181
4.1968,0.031512,-0.007594,-0.036879,-0.004184,0.003697,0.010651,0.013641,-0.517183,-0.035626,-1.186572,-259.896038,0.584882,68.267181
4.2168,0.031789,-0.007695,-0.036877,-0.004198,0.00367,0.010649,0.013641,-0.517183,-0.035626,-1.186572,-259.896038,0.584882,68.267181
4.2367,0.031035,-0.007201,-0.035842,-0.004209,0.003648,0.010648,0.012818,-0.517186,-0.036431,-1.184149,-259.900456,0.588017,68.265179
4.2573,0.030984,-0.007661,-0.03598,-0.004208,0.003646,0.01065,0.012775,-0.517039,-0.036138,-1.184149,-259.900456,0.588017,68.265179
4.2765,0.030621,-0.006944,-0.03583,-0.004207,0.003644,0.010651,0.012508,-0.51721,-0.03564,-1.177713,-259.904839,0.59608,68.26315
4.2971,0.03064,-0.007173,-0.036425,-0.004209,0.003634,0.010651,0.012359,-0.516664,-0.035795,-1.177713,-259.904839,0.59608,68.26315
4.3171,0.030614,-0.007249,-0.034798,-0.004212,0.003625,0.010651,0.012359,-0.516664,-0.035795,-1.177713,-259.904839,0.59608,68.26315
4.3367,0.030098,-0.007082,-0.03557,-0.004213,0.003617,0.010651,0.012699,-0.516782,-0.034351,-1.177861,-259.909244,0.597184,68.26111
4.3566,0.030238,-0.006999,-0.03453,-0.004212,0.003617,0.010653,0.012375,-0.516754,-0.034802,-1.177861,-259.909244,0.597184,68.26111
4.3763,0.029895,-0.006682,-0.033236,-0.00421,0.003616,0.010653,0.012502,-0.516576,-0.034193,-1.176368,-259.913624,0.600956,68.25907
4.3972,0.029954,-0.006407,-0.035206,-0.004229,0.00358,0.01065,0.012903,-0.516409,-0.033302,-1.176368,-259.913624,0.600956,68.25907
4.417,0.029373,-0.007027,-0.034549,-0.004244,0.003551,0.010648,0.012903,-0.516409,-0.033302,-1.176368,-259.913624,0.600956,68.25907
4.4374,0.029113,-0.006461,-0.03495,-0.004256,0.003526,0.010646,0.011586,-0.516566,-0.034104,-1.176639,-259.918003,0.601553,68.25703
4.4569,0.028905,-0.006587,-0.033361,-0.004239,0.003549,0.010651,0.011446,-0.516378,-0.034398,-1.176639,-259.918003,0.601553,68.25703
4.4765,0.028628,-0.00665,-0.033196,-0.004225,0.003567,0.010654,0.011763,-0.516187,-0.033023,-1.16943,-259.922351,0.610263,68.254957
4.4967,0.029027,-0.006046,-0.033811,-0.00422,0.003573,0.010655,0.0117,-0.516347,-0.033163,-1.16943,-259.922351,0.610263,68.254957
4.5165,0.028716,-0.006422,-0.033439,-0.004215,0.003578,0.010656,0.0117,-0.516347,-0.033163,-1.16943,-259.922351,0.610263,68.254957
4.5366,0.028035,-0.006169,-0.033457,-0.004212,0.003582,0.010657,0.011494,-0.515982,-0.032993,-1.173694,-259.926719,0.607879,68.252899
4.5567,0.028566,-0.006375,-0.034054,-0.004214,0.003571,0.010656,0.011262,-0.515924,-0.033131,-1.173694,-259.926719,0.607879,68.252899
4.5767,0.027652,-0.006092,-0.033648,-0.004216,0.003562,0.010655,0.011071,-0.515961,-0.033715,-1.175379,-259.931099,0.607327,68.250845
4.5967,0.028011,-0.005982,-0.033007,-0.004204,0.003572,0.010657,0.010538,-0.515811,-0.033637,-1.175379,-259.931099,0.607327,68.250845
4.6167,0.027982,-0.006158,-0.033414,-0.004194,0.00358,0.010658,0.010538,-0.515811,-0.033637,-1.175379,-259.931099,0.607327,68.250845
4.6364,0.027388,-0.006095,-0.031796,-0.004186,0.003587,0.010659,0.010772,-0.515719,-0.032969,-1.174321,-259.935459,0.609889,68.248791
4.6567,0.027738,-0.005721,-0.032491,-0.004191,0.003575,0.010658,0.010917,-0.515749,-0.032439,-1.174321,-259.935459,0.609889,68.248791
4.6766,0.026915,-0.005701,-0.03179,-0.004195,0.003566,0.010657,0.011041,-0.515333,-0.032151,-1.177748,-259.939839,0.609564,68.246744
4.6967,0.026971,-0.006122,-0.030988,-0.004205,0.003541,0.010654,0.010727,-0.515428,-0.031804,-1.177748,-259.939839,0.609564,68.246744
4.7169,0.027166,-0.005742,-0.032349,-0.004213,0.003521,0.010652,0.010727,-0.515428,-0.031804,-1.177748,-259.939839,0.609564,68.246744
4.7366,0.026414,-0.005503,-0.030363,-0.004219,0.003504,0.010651,0.010501,-0.515321,-0.031903,-1.176258,-259.944204,0.611791,68.244695
4.7567,0.026623,-0.00528,-0.03135,-0.004228,0.003482,0.01065,0.010658,-0.515281,-0.03122,-1.176258,-259.944204,0.611791,68.244695
4.7765,0.026159,-0.00527,-0.030701,-0.004236,0.003464,0.010649,0.010507,-0.514914,-0.031012,-1.171864,-259.948541,0.618235,68.242628
4.7973,0.02568,-0.004906,-0.030288,-0.004247,0.003434,0.010647,0.010497,-0.515014,-0.030712,-1.171864,-259.948541,0.618235,68.242628
4.8175,0.025842,-0.004981,-0.031869,-0.004257,0.003409,0.010646,0.010497,-0.515014,-0.030712,-1.171864,-259.948541,0.618235,68.242628
4.8365,0.025311,-0.004937,-0.029226,-0.004265,0.003388,0.010645,0.009418,-0.51457,-0.031421,-1.168996,-259.952867,0.622487,68.240545
4.8571,0.025286,-0.004673,-0.03095,-0.00427,0.003363,0.010644,0.009793,-0.514613,-0.030496,-1.168996,-259.952867,0.622487,68.240545
4.8765,0.024839,-0.004896,-0.027559,-0.004274,0.003342,0.010643,0.009371,-0.514317,-0.030612,-1.163635,-259.957168,0.630503,68.238437
4.897,0.024835,-0.004814,-0.027943,-0.004293,0.003301,0.010641,0.010651,-0.514662,-0.027817,-1.163635,-259.957168,0.630503,68.238437
4.9168,0.02519,-0.004518,-0.029284,-0.004309,0.003269,0.010639,0.010651,-0.514662,-0.027817,-1.163635,-259.957168,0.630503,68.238437
4.937,0.024347,-0.004362,-0.029179,-0.004322,0.003242,0.010639,0.010082,-0.514155,-0.02884,-1.161114,-259.961464,0.636507,68.236309
4.9569,0.024315,-0.004628,-0.028656,-0.004334,0.003199,0.010637,0.009808,-0.514134,-0.028928,-1.161114,-259.961464,0.636507,68.236309
4.9767,0.024117,-0.004471,-0.02844,-0.004344,0.003164,0.010635,0.009569,-0.514312,-0.028319,-1.153144,-259.965716,0.645673,68.23415
4.9969,0.023883,-0.004121,-0.028044,-0.004342,0.003156,0.010637,0.009604,-0.514264,-0.028414,-1.153144,-259.965716,0.645673,68.23415
5.0168,0.02408,-0.004723,-0.027983,-0.004341,0.00315,0.010639,0.009604,-0.514264,-0.028414,-1.153144,-259.965716,0.645673,68.23415
5.0367,0.023687,-0.004162,-0.02767,-0.004339,0.003144,0.01064,0.009633,-0.514386,-0.02754,-1.148156,-259.969947,0.654163,68.231962
5.0568,0.023414,-0.004309,-0.026129,-0.00434,0.003134,0.010641,0.00959,-0.514197,-0.027542,-1.148156,-259.969947,0.654163,68.231962
5.0769,0.023085,-0.004264,-0.027706,-0.004341,0.003126,0.010642,0.009955,-0.514031,-0.025791,-1.147931,-259.974178,0.658124,68.229768
5.0968,0.02304,-0.00421,-0.026501,-0.004331,0.003128,0.010643,0.009033,-0.51406,-0.027531,-1.147931,-259.974178,0.658124,68.229768
5.1168,0.023409,-0.004306,-0.027571,-0.004324,0.003128,0.010644,0.009033,-0.51406,-0.027531,-1.147931,-259.974178,0.658124,68.229768
5.1369,0.022531,-0.004034,-0.026836,-0.004317,0.003129,0.010645,0.009172,-0.513977,-0.027127,-1.147167,-259.9784,0.660633,68.22757
5.1568,0.0229,-0.004013,-0.02808,-0.004318,0.003115,0.010644,0.009017,-0.513909,-0.026955,-1.147167,-259.9784,0.660633,68.22757
5.1764,0.022114,-0.0036,-0.026095,-0.004319,0.003104,0.010644,0.008446,-0.513709,-0.027743,-1.149337,-259.982616,0.663148,68.225381
5.1968,0.022172,-0.003568,-0.024884,-0.004331,0.003054,0.01064,0.008769,-0.513446,-0.026221,-1.149337,-259.982616,0.663148,68.225381
5.217,0.022258,-0.003952,-0.027463,-0.004341,0.003015,0.010637,0.008769,-0.513446,-0.026221,-1.149337,-259.982616,0.663148,68.225381
5.237,0.021355,-0.003631,-0.025524,-0.004348,0.002982,0.010636,0.008077,-0.513626,-0.027019,-1.148243,-259.986831,0.666524,68.223182
5.2575,0.021581,-0.003486,-0.025577,-0.00433,0.002991,0.010638,0.008165,-0.513543,-0.026349,-1.148243,-259.986831,0.666524,68.223182
5.2763,0.020989,-0.003425,-0.02449,-0.004315,0.002998,0.01064,0.0084,-0.51322,-0.025235,-1.140658,-259.990987,0.679578,68.220954
5.2965,0.021412,-0.003457,-0.02603,-0.004326,0.00296,0.010638,0.008485,-0.513263,-0.024538,-1.140658,-259.990987,0.679578,68.220954
5.3165,0.020793,-0.003503,-0.025649,-0.004334,0.00293,0.010637,0.008485,-0.513263,-0.024538,-1.140658,-259.990987,0.679578,68.220954
5.3365,0.020586,-0.003259,-0.023813,-0.004341,0.002905,0.010636,0.007537,-0.513206,-0.025205,-1.144319,-259.995151,0.681587,68.218736
5.3569,0.020796,-0.003091,-0.023718,-0.004329,0.002895,0.010637,0.007885,-0.513154,-0.024587,-1.144319,-259.995151,0.681587,68.218736
5.3768,0.020319,-0.003484,-0.024124,-0.00432,0.002886,0.010639,0.008565,-0.512852,-0.02338,-1.138243,-259.999284,0.691138,68.216487
5.3968,0.020091,-0.003054,-0.024992,-0.004313,0.00289,0.010641,0.008061,-0.513285,-0.024036,-1.138243,-259.999284,0.691138,68.216487
5.4168,0.020441,-0.003326,-0.023627,-0.004307,0.002892,0.010642,0.008061,-0.513285,-0.024036,-1.138243,-259.999284,0.691138,68.216487
5.4366,0.019342,-0.002785,-0.024172,-0.004302,0.002895,0.010644,0.008214,-0.513059,-0.023182,-1.139358,-260.003414,0.696308,68.214236
5.4572,0.019612,-0.002955,-0.022625,-0.004303,0.002857,0.010642,0.007708,-0.512873,-0.023532,-1.139358,-260.003414,0.696308,68.214236
5.4763,0.019283,-0.002628,-0.023422,-0.004303,0.002828,0.010642,0.007939,-0.512729,-0.022286,-1.141383,-260.007547,0.697597,68.211991
5.4967,0.018952,-0.002824,-0.021767,-0.004305,0.002764,0.010641,0.007386,-0.512505,-0.023302,-1.141383,-260.007547,0.697597,68.211991
5.5165,0.019483,-0.00225,-0.022072,-0.004306,0.002713,0.010641,0.007386,-0.512505,-0.023302,-1.141383,-260.007547,0.697597,68.211991
5.5368,0.018596,-0.002882,-0.022363,-0.004306,0.002673,0.010642,0.00805,-0.512004,-0.021627,-1.138521,-260.011652,0.706397,68.20973
5.5571,0.018788,-0.002494,-0.021978,-0.004327,0.002604,0.01064,0.007679,-0.512297,-0.021877,-1.138521,-260.011652,0.706397,68.20973
5.5765,0.018492,-0.002454,-0.02072,-0.004343,0.002549,0.01064,0.007445,-0.512283,-0.021641,-1.131865,-260.015675,0.726544,68.207443
5.5965,0.01836,-0.002742,-0.021504,-0.004362,0.002507,0.010639,0.007875,-0.512335,-0.020786,-1.131865,-260.015675,0.726544,68.207443
5.6166,0.018396,-0.002849,-0.021538,-0.004377,0.002473,0.01064,0.007875,-0.512335,-0.020786,-1.131865,-260.015675,0.726544,68.207443
5.6366,0.017914,-0.002636,-0.023001,-0.004389,0.002446,0.010641,0.007234,-0.512621,-0.021094,-1.123241,-260.019681,0.737916,68.2051
5.6566,0.017838,-0.002388,-0.020904,-0.004332,0.002492,0.010651,0.006783,-0.512559,-0.021825,-1.123241,-260.019681,0.737916,68.2051
5.6763,0.017169,-0.002162,-0.022069,-0.004287,0.002527,0.010659,0.00704,-0.512196,-0.020567,-1.114663,-260.023652,0.74568,68.202719
5.6965,0.017182,-0.002305,-0.021582,-0.004212,0.002494,0.010666,0.006011,-0.512048,-0.021912,-1.114663,-260.023652,0.74568,68.202719
5.7165,0.017614,-0.002108,-0.019617,-0.004153,0.002468,0.010672,0.006011,-0.512048,-0.021912,-1.114663,-260.023652,0.74568,68.202719
5.7364,0.016506,-0.002452,-0.019857,-0.004105,0.002449,0.010679,0.007433,-0.511901,-0.019172,-1.127867,-260.027648,0.748585,68.200381
5.7565,0.016756,-0.002168,-0.018324,-0.004136,0.002417,0.010677,0.006978,-0.512074,-0.019403,-1.127867,-260.027648,0.748585,68.200381
5.7764,0.016412,-0.001901,-0.02028,-0.004161,0.002392,0.010676,0.007285,-0.512004,-0.017991,-1.141617,-260.031509,0.781443,68.198118
5.7967,0.016457,-0.00196,-0.01962,-0.004135,0.002346,0.010679,0.006174,-0.511811,-0.020053,-1.141617,-260.031509,0.781443,68.198118
5.8166,0.016321,-0.002216,-0.021003,-0.004114,0.002311,0.010682,0.006174,-0.511811,-0.020053,-1.141617,-260.031509,0.781443,68.198118
5.8365,0.015939,-0.00202,-0.019044,-0.004097,0.002284,0.010686,0.005438,-0.512,-0.020556,-1.134052,-260.035437,0.781478,68.195777
5.8568,0.016028,-0.001984,-0.01896,-0.004036,0.002301,0.010694,0.005737,-0.511959,-0.019893,-1.134052,-260.035437,0.781478,68.195777
5.8766,0.015107,-0.001807,-0.018343,-0.003988,0.002316,0.0107,0.00623,-0.511818,-0.018621,-1.135524,-260.039298,0.802887,68.193434
5.8968,0.015628,-0.001676,-0.016692,-0.003964,0.002284,0.010702,0.005789,-0.511726,-0.018351,-1.135524,-260.039298,0.802887,68.193434
5.9165,0.015202,-0.001751,-0.021983,-0.003945,0.00226,0.010705,0.005789,-0.511726,-0.018351,-1.135524,-260.039298,0.802887,68.193434
5.9365,0.014765,-0.001785,-0.018309,-0.00393,0.002242,0.010707,0.003828,-0.511528,-0.021537,-1.147498,-260.043165,0.813648,68.191121
5.9569,0.01512,-0.001527,-0.019471,-0.003754,0.00222,0.010715,0.004461,-0.511586,-0.020171,-1.147498,-260.043165,0.813648,68.191121
5.9767,0.014465,-0.001382,-0.017289,-0.003619,0.002205,0.010724,0.005067,-0.511357,-0.019131,-1.150036,-260.047005,0.830027,68.188797
5.997,0.014323,-0.001531,-0.016253,-0.003664,0.002128,0.010722,0.005593,-0.511307,-0.017427,-1.150036,-260.047005,0.830027,68.188797
6.017,0.014199,-0.001516,-0.019248,-0.003699,0.002068,0.010722,0.005593,-0.511307,-0.017427,-1.150036,-260.047005,0.830027,68.188797
6.0367,0.014088,-0.001182,-0.017904,-0.003727,0.002021,0.010723,0.004241,-0.511331,-0.018821,-1.178848,-260.050616,0.876268,68.186642
6.057,0.013915,-0.001507,-0.016986,-0.003617,0.001973,0.01073,0.004519,-0.511226,-0.018394,-1.178848,-260.050616,0.876268,68.186642
6.0764,0.013992,-0.001345,-0.016467,-0.003532,0.001939,0.010738,0.005136,-0.511368,-0.016647,-1.160599,-260.054331,0.882118,68.184311
6.0967,0.01408,-0.0016,-0.015778,-0.00359,0.001922,0.010733,0.00555,-0.511281,-0.016466,-1.160599,-260.054331,0.882118,68.184311
6.1167,0.013136,-0.001325,-0.016519,-0.003636,0.001908,0.01073,0.00555,-0.511281,-0.016466,-1.160599,-260.054331,0.882118,68.184311
6.1368,0.012705,-0.00137,-0.015862,-0.003673,0.001897,0.010727,0.004568,-0.511174,-0.016081,-1.176831,-260.057925,0.917957,68.18204
6.1568,0.012951,-0.001395,-0.016205,-0.003585,0.001884,0.010725,0.004571,-0.511219,-0.01594,-1.176831,-260.057925,0.917957,68.18204
6.1764,0.012282,-0.001101,-0.014164,-0.003516,0.001875,0.010724,0.004572,-0.511266,-0.015866,-1.160705,-260.061573,0.902713,68.179691
6.1966,0.012701,-0.001496,-0.01538,-0.003525,0.001837,0.010702,0.005008,-0.511066,-0.0143,-1.160705,-260.061573,0.902713,68.179691
6.2168,0.012506,-0.001228,-0.016383,-0.003532,0.001808,0.010685,0.005008,-0.511066,-0.0143,-1.160705,-260.061573,0.902713,68.179691
6.2372,0.012183,-0.001069,-0.014334,-0.003538,0.001785,0.010672,0.004006,-0.51108,-0.015939,-1.175475,-260.065186,0.925945,68.177377
6.2569,0.012214,-0.000828,-0.014835,-0.00345,0.001762,0.010675,0.004338,-0.511045,-0.015242,-1.175475,-260.065186,0.925945,68.177377
6.2766,0.011648,-0.001061,-0.014063,-0.003382,0.001746,0.010679,0.004537,-0.510714,-0.014496,-1.16799,-260.068794,0.928886,68.175015
6.2972,0.012106,-0.001082,-0.014947,-0.003352,0.001724,0.010666,0.004476,-0.510983,-0.014084,-1.16799,-260.068794,0.928886,68.175015
6.3166,0.011744,-0.000643,-0.014866,-0.003329,0.001708,0.010657,0.004476,-0.510983,-0.014084,-1.16799,-260.068794,0.928886,68.175015
6.337,0.010908,-0.00055,-0.014276,-0.00331,0.001696,0.010649,0.004024,-0.510513,-0.014426,-1.182525,-260.072311,0.954636,68.172711
6.357,0.011048,-0.001238,-0.013426,-0.003203,0.001553,0.010647,0.003847,-0.510498,-0.014314,-1.182525,-260.072311,0.954636,68.172711
6.3768,0.010789,-0.000923,-0.012945,-0.003122,0.001449,0.010648,0.004096,-0.511137,-0.013087,-1.187119,-260.075842,0.967908,68.17038
6.3971,0.010787,-0.000723,-0.013493,-0.003109,0.001489,0.010615,0.004174,-0.5109,-0.012941,-1.187119,-260.075842,0.967908,68.17038
6.4169,0.010978,-0.000606,-0.013627,-0.003098,0.00152,0.010588,0.004174,-0.5109,-0.012941,-1.187119,-260.075842,0.967908,68.17038
6.4369,0.010259,-0.000219,-0.011947,-0.00309,0.001543,0.010567,0.003903,-0.510499,-0.013198,-1.196718,-260.079123,1.017462,68.168098
6.4566,0.010531,-0.000557,-0.012373,-0.003065,0.001422,0.010536,0.003995,-0.510364,-0.012644,-1.196718,-260.079123,1.017462,68.168098
6.4766,0.009757,-0.000634,-0.012195,-0.003045,0.001331,0.010513,0.004123,-0.510467,-0.012037,-1.202027,-260.082542,1.00906,68.165785
6.4971,0.010175,-0.000721,-0.014631,-0.002959,0.001318,0.010476,0.00359,-0.51058,-0.01216,-1.202027,-260.082542,1.00906,68.165785
6.517,0.010087,-0.000232,-0.010384,-0.002893,0.00131,0.010448,0.00359,-0.51058,-0.01216,-1.202027,-260.082542,1.00906,68.165785
6.5368,0.010326,-0.000413,-0.010345,-0.002842,0.001305,0.010427,0.004665,-0.510148,-0.009947,-1.196529,-260.08585,1.031676,68.163428
6.5567,0.009442,-0.000678,-0.011105,-0.002991,0.001251,0.010255,0.004809,-0.510239,-0.01006,-1.196529,-260.08585,1.031676,68.163428
6.5768,0.009497,-0.000254,-0.010826,-0.003107,0.001208,0.010124,0.003691,-0.510604,-0.01078,-1.216054,-260.089064,1.059277,68.161148
6.5966,0.008728,-0.000359,-0.011173,-0.003074,0.001153,0.01009,0.003947,-0.510254,-0.010806,-1.216054,-260.089064,1.059277,68.161148
6.6168,0.009225,-0.000442,-0.011286,-0.003049,0.001111,0.010065,0.003947,-0.510254,-0.010806,-1.216054,-260.089064,1.059277,68.161148
6.6365,0.008832,-7.7e-05,-0.011361,-0.003029,0.00108,0.010048,0.003348,-0.510361,-0.010889,-1.172815,-260.092077,1.012537,68.158944
6.6567,0.008992,-0.000712,-0.011546,-0.002877,0.001026,0.01005,0.003205,-0.510223,-0.01104,-1.172815,-260.092077,1.012537,68.158944
6.6767,0.008497,4.6e-05,-0.010933,-0.002762,0.000989,0.010055,0.003009,-0.510643,-0.011229,-1.173436,-260.095178,1.031113,68.156609
6.6968,0.008502,-0.000487,-0.010508,-0.002617,0.000882,0.010051,0.002924,-0.509986,-0.010943,-1.173436,-260.095178,1.031113,68.156609
6.7168,0.008068,4e-06,-0.010156,-0.002506,0.000807,0.010051,0.002924,-0.509986,-0.010943,-1.173436,-260.095178,1.031113,68.156609
6.737,0.00822,-0.000238,-0.009855,-0.002423,0.000754,0.010054,0.002779,-0.509929,-0.009755,-1.201172,-260.09809,1.078657,68.154382
6.7566,0.007765,-0.000206,-0.009537,-0.002367,0.000741,0.009954,0.002935,-0.510039,-0.00975,-1.201172,-260.09809,1.078657,68.154382
6.7766,0.007558,-0.000121,-0.008744,-0.002324,0.000732,0.009879,0.002831,-0.51016,-0.009245,-1.232858,-260.100758,1.148072,68.152226
6.7968,0.007902,3.4e-05,-0.010344,-0.002324,0.000756,0.009703,0.003072,-0.510105,-0.008773,-1.232858,-260.100758,1.148072,68.152226
6.8168,0.00816,-0.00016,-0.009896,-0.002323,0.000775,0.00957,0.003072,-0.510105,-0.008773,-1.232858,-260.100758,1.148072,68.152226
6.8372,0.007192,-0.00023,-0.008129,-0.002322,0.00079,0.00947,0.003017,-0.510103,-0.009483,-1.239898,-260.103608,1.157605,68.14992
6.8568,0.00731,6e-06,-0.008849,-0.002311,0.000812,0.009411,0.003017,-0.510143,-0.008897,-1.239898,-260.103608,1.157605,68.14992
6.8764,0.006994,6.1e-05,-0.008793,-0.002302,0.00083,0.009367,0.002723,-0.509948,-0.008547,-1.231197,-260.106372,1.13555,68.147736
6.8965,0.007019,-0.000117,-0.006288,-0.00219,0.000756,0.009312,0.002525,-0.509921,-0.008755,-1.231197,-260.106372,1.13555,68.147736
6.9165,0.006906,1.3e-05,-0.007139,-0.002105,0.000704,0.009273,0.002525,-0.509921,-0.008755,-1.231197,-260.106372,1.13555,68.147736
6.9367,0.006594,-0.00023,-0.007818,-0.002041,0.000669,0.009246,0.003169,-0.509939,-0.006747,-1.232861,-260.109152,1.130853,68.145572
6.9564,0.00636,-0.000217,-0.006007,-0.002085,0.0007,0.008967,0.002928,-0.510047,-0.007139,-1.232861,-260.109152,1.130853,68.145572
6.9768,0.006261,0.000206,-0.00935,-0.002118,0.000724,0.008761,0.003235,-0.510187,-0.005728,-1.258221,-260.111675,1.181717,68.143527
6.9965,0.006256,-0.000152,-0.005902,-0.00182,0.000622,0.008878,0.001637,-0.509806,-0.009029,-1.258221,-260.111675,1.181717,68.143527
7.0168,0.006323,-9.2e-05,-0.008453,-0.001597,0.000554,0.008972,0.001637,-0.509806,-0.009029,-1.258221,-260.111675,1.181717,68.143527
7.0366,0.00627,-0.000133,-0.008334,-0.00143,0.00051,0.009048,0.001926,-0.510044,-0.008099,-1.235359,-260.114162,1.141584,68.14156
7.0568,0.006186,1.4e-05,-0.007981,-0.001395,0.000591,0.008995,0.001955,-0.51007,-0.008155,-1.235359,-260.114162,1.141584,68.14156
7.0768,0.00603,-5.4e-05,-0.007011,-0.001368,0.000653,0.008954,0.002084,-0.509959,-0.007816,-1.310366,-260.11561,1.216591,68.140342
7.0969,0.005413,-0.000148,-0.007852,-0.001465,0.000703,0.008734,0.002422,-0.510034,-0.007071,-1.310366,-260.11561,1.216591,68.140342
7.1169,0.006011,-0.000161,-0.005289,-0.001537,0.000739,0.00857,0.002422,-0.510034,-0.007071,-1.310366,-260.11561,1.216591,68.140342
7.1367,0.005766,0.000296,-0.006974,-0.001592,0.000765,0.008447,0.003263,-0.51013,-0.004958,-1.350881,-260.117831,1.291604,68.13857
7.1566,0.005266,0.000359,-0.005465,-0.001721,0.000765,0.008079,0.002823,-0.509946,-0.005751,-1.350881,-260.117831,1.291604,68.13857
7.1769,0.005396,-0.000171,-0.005147,-0.00182,0.000764,0.007813,0.002433,-0.509612,-0.005223,-1.308299,-260.120042,1.223237,68.136885
7.1969,0.00537,6.2e-05,-0.005387,-0.001879,0.000807,0.007469,0.00274,-0.510116,-0.005142,-1.308299,-260.120042,1.223237,68.136885
7.217,0.005205,-5e-06,-0.006287,-0.001926,0.00084,0.007225,0.00274,-0.510116,-0.005142,-1.308299,-260.120042,1.223237,68.136885
7.237,0.005134,-6.1e-05,-0.006644,-0.001961,0.000864,0.007051,0.001933,-0.509968,-0.006005,-1.253236,-260.122053,1.148245,68.135367
7.2573,0.005346,-5.3e-05,-0.005708,-0.001776,0.000817,0.007163,0.001849,-0.509998,-0.006236,-1.253236,-260.122053,1.148245,68.135367
7.2769,0.004587,1e-05,-0.006281,-0.001636,0.000786,0.007249,0.002383,-0.510022,-0.005518,-1.208288,-260.123903,1.073271,68.134041
7.297,0.004787,0.000534,-0.005245,-0.001425,0.000747,0.007302,0.001468,-0.509983,-0.006205,-1.208288,-260.123903,1.073271,68.134041
7.3166,0.004275,0.000233,-0.005209,-0.001266,0.000724,0.007343,0.001468,-0.509983,-0.006205,-1.208288,-260.123903,1.073271,68.134041
7.3368,0.004775,0.000257,-0.005345,-0.001145,0.000711,0.007375,0.001559,-0.509731,-0.004948,-1.266667,-260.125792,1.148246,68.132661
7.3571,0.004439,0.000393,-0.004249,-0.001133,0.000618,0.007143,0.001752,-0.50973,-0.00508,-1.266667,-260.125792,1.148246,68.132661
7.3765,0.0046,0.000395,-0.003798,-0.001125,0.00055,0.006979,0.002244,-0.509586,-0.004092,-1.34156,-260.127236,1.223139,68.131589
7.3973,0.004263,0.000438,-0.004125,-0.001317,0.000496,0.006494,0.002626,-0.509599,-0.003816,-1.34156,-260.127236,1.223139,68.131589
7.4167,0.00449,0.000263,-0.004195,-0.001467,0.000453,0.006154,0.002626,-0.509599,-0.003816,-1.34156,-260.127236,1.223139,68.131589
7.4371,0.004367,0.000184,-0.003376,-0.001583,0.000418,0.005916,0.002306,-0.50971,-0.003916,-1.34123,-260.129125,1.27665,68.130107
7.4566,0.004064,0.000324,-0.004812,-0.001636,0.000425,0.005702,0.00244,-0.50975,-0.003662,-1.34123,-260.129125,1.27665,68.130107
7.4765,0.004262,0.000978,-0.004983,-0.001677,0.00043,0.005553,0.001591,-0.509664,-0.004723,-1.2662,-260.129921,1.20162,68.129451
7.4966,0.004255,0.000344,-0.003923,-0.001505,0.000169,0.005778,0.001708,-0.50907,-0.004957,-1.2662,-260.129921,1.20162,68.129451
7.5167,0.004225,0.000156,-0.004887,-0.001377,-2.3e-05,0.00595,0.001708,-0.50907,-0.004957,-1.2662,-260.129921,1.20162,68.129451
7.5368,0.003857,-0.000436,-0.00408,-0.001281,-0.000166,0.006081,0.001696,-0.509828,-0.004748,-1.191176,-260.130899,1.126597,68.128654
7.5566,0.003981,0.000486,-0.003865,-0.001235,8.2e-05,0.006067,0.001723,-0.510069,-0.004463,-1.191176,-260.130899,1.126597,68.128654
7.577,0.003674,0.000447,-0.003527,-0.0012,0.000266,0.006053,0.001977,-0.509513,-0.003718,-1.224379,-260.132053,1.201449,68.127404
7.597,0.003746,0.000441,-0.004136,-0.001208,0.000216,0.005763,0.001883,-0.509547,-0.003536,-1.224379,-260.132053,1.201449,68.127404
7.6172,0.003717,0.000115,-0.003039,-0.001216,0.00018,0.005558,0.001883,-0.509547,-0.003536,-1.224379,-260.132053,1.201449,68.127404
7.6367,0.003757,0.000359,-0.003243,-0.001222,0.000154,0.005414,0.00212,-0.509872,-0.002801,-1.276855,-260.133609,1.234352,68.126039
7.6569,0.003643,7e-05,-0.003866,-0.001284,0.000221,0.005116,0.002108,-0.509776,-0.002953,-1.276855,-260.133609,1.234352,68.126039
7.6767,0.00354,0.000125,-0.00418,-0.001332,0.000271,0.004906,0.001635,-0.509921,-0.003701,-1.231305,-260.135006,1.200874,68.124752
7.6966,0.003395,0.000464,-0.004004,-0.00119,0.000324,0.005117,0.001427,-0.509875,-0.004129,-1.231305,-260.135006,1.200874,68.124752
7.7168,0.003262,0.000508,-0.003783,-0.001084,0.000366,0.00527,0.001427,-0.509875,-0.004129,-1.231305,-260.135006,1.200874,68.124752
7.7366,0.003223,-3.1e-05,-0.004037,-0.001003,0.0004,0.005381,0.001286,-0.509479,-0.003606,-1.183865,-260.136218,1.125766,68.12371
7.7569,0.003453,0.00047,-0.00421,-0.000881,0.000347,0.005351,0.001231,-0.5097,-0.003761,-1.183865,-260.136218,1.125766,68.12371
7.7768,0.003385,0.00063,-0.004182,-0.00079,0.000311,0.005331,0.001282,-0.509517,-0.0041,-1.258756,-260.137212,1.200657,68.122915
7.7973,0.003012,0.000194,-0.003475,-0.000719,0.000172,0.005425,0.001254,-0.509378,-0.004169,-1.258756,-260.137212,1.200657,68.122915
7.817,0.002943,-8.8e-05,-0.002076,-0.000666,6.9e-05,0.005495,0.001254,-0.509378,-0.004169,-1.258756,-260.137212,1.200657,68.122915
7.8367,0.002583,0.000407,-0.002957,-0.000626,-7e-06,0.005547,0.001858,-0.510077,-0.001917,-1.333882,-260.138261,1.275784,68.122039
7.8568,0.002741,0.000337,-0.002945,-0.00069,0.000122,0.004963,0.001536,-0.509878,-0.002323,-1.333882,-260.138261,1.275784,68.122039
7.8764,0.002853,0.000303,-0.003231,-0.000741,0.00022,0.004553,0.001222,-0.509661,-0.002808,-1.387792,-260.139333,1.350702,68.120963
7.8968,0.002872,-0.000111,-0.003277,-0.00069,0.000217,0.004578,0.001206,-0.509691,-0.003188,-1.387792,-260.139333,1.350702,68.120963
7.9168,0.002585,0.000403,-0.002065,-0.000652,0.000216,0.004597,0.001206,-0.509691,-0.003188,-1.387792,-260.139333,1.350702,68.120963
7.937,0.002655,0.000114,-0.002865,-0.000623,0.000216,0.004612,0.001505,-0.509588,-0.001896,-1.32863,-260.140431,1.288987,68.120016
7.9569,0.002728,0.000338,-0.002079,-0.000645,0.000224,0.004289,0.001375,-0.509707,-0.00227,-1.32863,-260.140431,1.288987,68.120016
7.9764,0.002621,0.000207,-0.003195,-0.000662,0.000232,0.004063,0.00165,-0.509654,-0.001941,-1.368237,-260.141598,1.33566,68.119009
7.9968,0.002883,2.3e-05,-0.003143,-0.000583,0.000257,0.004194,0.00105,-0.509778,-0.003075,-1.368237,-260.141598,1.33566,68.119009
8.0165,0.002799,0.000271,-0.00226,-0.000523,0.000277,0.00429,0.00105,-0.509778,-0.003075,-1.368237,-260.141598,1.33566,68.119009
8.0366,0.002531,0.000478,-0.003055,-0.000477,0.000294,0.00436,0.001621,-0.509719,-0.0021,-1.331292,-260.142646,1.284411,68.118129
8.0566,0.002705,0.000428,-0.003572,-0.000528,0.000264,0.004196,0.001354,-0.509637,-0.002471,-1.331292,-260.142646,1.284411,68.118129
8.0768,0.002278,0.000293,-0.002673,-0.000567,0.000242,0.004081,0.000871,-0.509561,-0.003461,-1.406327,-260.143605,1.359446,68.117355
8.0968,0.002123,0.000166,-0.002544,-0.000462,0.000224,0.004094,0.000911,-0.509692,-0.002734,-1.406327,-260.143605,1.359446,68.117355
8.1168,0.002111,0.00064,-0.0013,-0.000382,0.000214,0.004105,0.000911,-0.509692,-0.002734,-1.406327,-260.143605,1.359446,68.117355
8.1365,0.002062,0.000718,-0.002768,-0.000321,0.000208,0.004115,0.001425,-0.50935,-0.001137,-1.366293,-260.144669,1.323898,68.11647
8.1569,0.002161,0.000249,-0.001558,-0.000319,6.6e-05,0.003732,0.001107,-0.50932,-0.001782,-1.366293,-260.144669,1.323898,68.11647
8.1765,0.002145,0.000409,-0.001714,-0.000319,-3.7e-05,0.003466,0.001358,-0.509746,-0.001462,-1.441123,-260.145475,1.398729,68.115786
8.197,0.002422,0.000334,0.000162,-0.00038,2e-06,0.003247,0.001277,-0.509603,-0.001688,-1.441123,-260.145475,1.398729,68.115786
8.2169,0.002075,0.000324,-0.001303,-0.000427,3e-05,0.003093,0.001277,-0.509603,-0.001688,-1.441123,-260.145475,1.398729,68.115786
8.2364,0.002301,0.000373,-0.000808,-0.000464,5.1e-05,0.002986,0.001398,-0.509677,-0.001161,-1.418496,-260.1463,1.423654,68.114933
8.2566,0.00198,0.00019,-0.001954,-0.000573,9.6e-05,0.002576,0.001597,-0.509656,-0.001,-1.418496,-260.1463,1.423654,68.114933
8.2767,0.002227,0.00046,-0.000114,-0.000658,0.00013,0.002289,0.000973,-0.509808,-0.001885,-1.343702,-260.146861,1.34886,68.1144
8.2971,0.002174,0.000216,-0.000878,-0.000826,0.00014,0.001689,0.002061,-0.509564,-0.000269,-1.343702,-260.146861,1.34886,68.1144
8.3169,0.002091,0.000508,-0.001513,-0.000958,0.000147,0.001266,0.002061,-0.509564,-0.000269,-1.343702,-260.146861,1.34886,68.1144
8.3366,0.00194,0.000615,0.000505,-0.00106,0.000152,0.000969,0.001315,-0.509491,-0.001492,-1.268702,-260.146998,1.27386,68.114283
8.3571,0.002039,0.000629,-0.00108,-0.001046,9.5e-05,0.000981,0.001673,-0.509448,-0.000679,-1.268702,-260.146998,1.27386,68.114283
8.3772,0.001842,0.000312,-0.000892,-0.001036,5.3e-05,0.000993,0.001488,-0.509371,-0.00108,-1.19371,-260.146998,1.198868,68.114283
8.3973,0.002069,0.000688,-0.002325,-0.000959,8.5e-05,0.001127,0.001396,-0.50966,-0.000909,-1.19371,-260.146998,1.198868,68.114283
8.4169,0.001999,0.000343,-0.001863,-0.000902,0.00011,0.001224,0.001396,-0.50966,-0.000909,-1.19371,-260.146998,1.198868,68.114283
8.4369,0.001904,0.000375,-0.000892,-0.000859,0.00013,0.001295,0.00105,-0.509656,-0.001863,-1.118558,-260.146998,1.123716,68.114283
8.4568,0.001964,0.00032,-0.00098,-0.000776,0.000135,0.001617,0.00121,-0.509643,-0.001474,-1.118558,-260.146998,1.123716,68.114283
8.4766,0.002208,0.000567,-0.000626,-0.000713,0.000139,0.001849,0.001464,-0.50968,-0.000979,-1.043703,-260.147001,1.048861,68.11428
8.497,0.001984,0.000727,-0.002927,-0.000827,0.000107,0.001612,0.001853,-0.509454,-0.000656,-1.043703,-260.147001,1.048861,68.11428
8.5165,0.001797,0.000542,-0.00178,-0.000916,8.1e-05,0.001444,0.001853,-0.509454,-0.000656,-1.043703,-260.147001,1.048861,68.11428
8.537,0.001792,0.000121,9.9e-05,-0.000984,6e-05,0.001323,0.000865,-0.509453,-0.001714,-1.058732,-260.147491,0.973675,68.113869
8.5565,0.001694,0.000626,-0.001888,-0.000881,7.2e-05,0.001398,0.001261,-0.509626,-0.000967,-1.058732,-260.147491,0.973675,68.113869
8.5768,0.001636,0.000712,-0.00079,-0.000804,8.2e-05,0.001452,0.00073,-0.509373,-0.001887,-0.983897,-260.147506,0.898841,68.113855
8.5965,0.001604,0.000715,-0.001268,-0.000713,-3.7e-05,0.001444,0.001189,-0.509295,-0.000885,-0.983897,-260.147506,0.898841,68.113855
8.6166,0.001665,0.000386,5.1e-05,-0.000644,-0.000124,0.00144,0.001189,-0.509295,-0.000885,-0.983897,-260.147506,0.898841,68.113855
8.6366,0.001584,0.00052,-0.000394,-0.000593,-0.000187,0.001439,0.001669,-0.509612,9.3e-05,-0.908805,-260.147849,0.823749,68.113544
8.6567,0.002026,0.00039,-0.002166,-0.000655,-0.000124,0.00103,0.001549,-0.509557,-0.000103,-0.908805,-260.147849,0.823749,68.113544
8.6764,0.001838,0.000546,-0.000463,-0.000702,-7.7e-05,0.000737,0.000913,-0.509611,-0.00215,-0.862192,-260.147988,0.898778,68.113358
8.6972,0.001671,0.000114,2.4e-05,0.0,0.0,0.0,0.001542,-0.509468,-0.000606,-0.862192,-260.147988,0.898778,68.113358
8.7167,0.001795,0.000477,4.1e-05,0.0,0.0,0.0,0.001542,-0.509468,-0.000606,-0.862192,-260.147988,0.898778,68.113358
