mach0312/omni-docking-bench/src/icros_test_setup/results/MPPI_sample/timeseries/trial_010.csv
t,x,y,yaw,vx,vy,wz,bl_x,bl_y,bl_yaw,front_steering_joint,front_wheel_joint,rear_steering_joint,rear_wheel_joint
0.0,0.019667,0.019939,-0.001616,0.003975,0.003553,0.000307,0.018959,-0.49105,-0.000318,0.754987,-264.1527,0.702592,62.295976
0.0004,0.020171,0.020242,0.000416,0.003062,0.002737,0.000236,0.018959,-0.49105,-0.000318,0.754987,-264.147857,0.702592,62.300598
0.0008,0.019787,0.020115,-0.001294,0.002105,0.001882,0.000162,0.019176,-0.490927,-5e-06,0.754987,-264.143969,0.702592,62.304308
0.0011,0.020023,0.020189,-0.000115,0.001081,0.000967,8.3e-05,0.019176,-0.490927,-5e-06,0.754987,-264.140851,0.702592,62.307284
0.0014,0.02031,0.020449,0.001344,0.0,0.0,0.0,0.019287,-0.490498,-0.000153,0.754987,-264.13918,0.702592,62.308878
0.0017,0.020076,0.020329,0.000497,0.0,0.0,0.0,0.019287,-0.490498,-0.000153,0.754987,-264.138586,0.702592,62.309445
0.002,0.019986,0.020216,0.002368,0.0,0.0,0.0,0.019799,-0.490415,0.000245,0.754987,-264.138586,0.702592,62.309445
0.0022,0.020052,0.020395,0.000639,0.0,0.0,0.0,0.019799,-0.490415,0.000245,0.754987,-264.138586,0.702592,62.309445
0.0025,0.020187,0.020655,-0.000117,0.0,0.0,0.0,0.019799,-0.490415,0.000245,0.754987,-264.138586,0.702592,62.309445
0.0059,0.020329,0.02031,0.001249,0.0,0.0,0.0,0.020128,-0.489345,-0.000117,0.754987,-264.138586,0.702592,62.309445
0.0258,0.02033,0.020686,0.001079,0.0,0.0,0.0,0.020472,-0.489486,0.000444,0.754987,-264.138586,0.702592,62.309445
0.0463,0.019904,0.020463,0.000755,0.0,0.0,0.0,0.02088,-0.489314,0.001079,0.754987,-264.138586,0.702592,62.309445
0.066,0.020485,0.020027,0.001039,0.0,0.0,0.0,0.020342,-0.489517,0.000784,0.754987,-264.138586,0.702592,62.309445
0.0863,0.02048,0.020031,0.001319,0.0,0.0,0.0,0.020342,-0.489517,0.000784,0.754987,-264.138586,0.702592,62.309445
0.1061,0.020411,0.020366,0.00073,0.0,0.0,0.0,0.021153,-0.489968,0.001319,0.754987,-264.138586,0.702592,62.309445
0.1262,0.020193,0.02049,0.001047,-0.002602,-0.00194,-0.002961,0.021002,-0.489831,0.001078,0.754987,-264.138586,0.702592,62.309445
0.1461,0.020459,0.020258,0.000548,-0.002829,-0.002076,-0.003098,0.020727,-0.48951,0.001047,0.754987,-264.138586,0.702592,62.309445
0.1662,0.020267,0.020377,-0.001703,-0.003018,-0.002205,-0.002909,0.020737,-0.489722,0.000593,0.754987,-264.138586,0.702592,62.309445
0.1862,0.0206,0.020207,-3.7e-05,-0.003185,-0.002315,-0.002768,0.020737,-0.489722,0.000593,0.754987,-264.138586,0.702592,62.309445
0.2064,0.020166,0.020086,0.000403,-0.003185,-0.002315,-0.002768,0.020581,-0.489793,-3.7e-05,0.829982,-264.138587,0.627597,62.309444
0.2259,0.020201,0.020819,0.000325,-0.003452,-0.002506,-0.002143,0.020493,-0.489844,0.000148,0.829982,-264.138587,0.627597,62.309444
0.2457,0.020072,0.02037,-0.000648,-0.003561,-0.00258,-0.001958,0.020363,-0.489185,0.000322,0.899048,-264.138671,0.552201,62.309391
0.2659,0.020287,0.020552,0.000266,-0.003641,-0.002674,-0.001432,0.019797,-0.48959,-0.000561,0.899048,-264.138671,0.552201,62.309391
0.2861,0.020347,0.020211,0.001265,-0.003712,-0.00275,-0.00106,0.019797,-0.48959,-0.000561,0.899048,-264.138671,0.552201,62.309391
0.3064,0.020027,0.020538,0.001093,-0.003712,-0.00275,-0.00106,0.020916,-0.48985,0.001228,0.824436,-264.139762,0.477589,62.308588
0.3263,0.019972,0.020313,0.00079,-0.003869,-0.00279,-0.002267,0.020773,-0.489701,0.001169,0.824436,-264.139762,0.477589,62.308588
0.3462,0.020534,0.020154,0.000641,-0.003931,-0.002811,-0.002615,0.020271,-0.489764,0.00076,0.749439,-264.141523,0.515299,62.307096
0.3661,0.019838,0.020016,3e-05,-0.003986,-0.002835,-0.002566,0.020801,-0.489843,0.000651,0.749439,-264.141523,0.515299,62.307096
0.3861,0.01988,0.020531,0.000344,-0.004034,-0.002855,-0.002531,0.020801,-0.489843,0.000651,0.749439,-264.141523,0.515299,62.307096
0.406,0.020186,0.019778,-0.001163,-0.004034,-0.002855,-0.002531,0.019989,-0.489521,0.000307,0.824441,-264.142493,0.440298,62.30642
0.4265,0.020146,0.020142,0.000819,-0.00408,-0.002948,-0.001571,0.01982,-0.489813,-0.000296,0.824441,-264.142493,0.440298,62.30642
0.4458,0.019705,0.020345,-0.000895,-0.004099,-0.002979,-0.001294,0.020465,-0.489931,0.000761,0.828897,-264.144341,0.365305,62.305107
0.4666,0.019942,0.020099,8.8e-05,-0.004107,-0.003022,-0.000858,0.019351,-0.489683,-0.000751,0.828897,-264.144341,0.365305,62.305107
0.4859,0.019728,0.020102,-0.000506,-0.004114,-0.003056,-0.000554,0.019351,-0.489683,-0.000751,0.828897,-264.144341,0.365305,62.305107
0.506,0.019631,0.019615,0.000526,-0.004114,-0.003056,-0.000554,0.01935,-0.489982,-0.00055,0.753835,-264.145882,0.440367,62.303821
0.5272,0.020119,0.020122,0.001834,-0.004144,-0.003062,-0.000786,0.019559,-0.490155,-0.000119,0.753835,-264.145882,0.440367,62.303821
0.5459,0.019534,0.019929,0.000807,-0.004157,-0.003066,-0.000854,0.020963,-0.489941,0.001817,0.689747,-264.147317,0.515336,62.302494
0.5659,0.019369,0.019748,-8e-05,-0.004179,-0.003048,-0.001484,0.020037,-0.490062,0.000901,0.689747,-264.147317,0.515336,62.302494
0.5858,0.019441,0.019901,-0.000551,-0.004197,-0.003038,-0.001926,0.020037,-0.490062,0.000901,0.689747,-264.147317,0.515336,62.302494
0.6061,0.019422,0.019735,0.000403,-0.004197,-0.003038,-0.001926,0.01899,-0.490224,-0.000585,0.712006,-264.149456,0.549282,62.300595
0.626,0.019319,0.01949,-0.000424,-0.004202,-0.003076,-0.001389,0.019229,-0.490255,-0.000189,0.712006,-264.149456,0.549282,62.300595
0.646,0.019262,0.018986,-0.001641,-0.004204,-0.003087,-0.001234,0.019011,-0.490579,-0.000462,0.787009,-264.15111,0.474279,62.299319
0.6667,0.019349,0.019572,-0.000924,-0.00421,-0.003127,-0.000441,0.018464,-0.490984,-0.001555,0.787009,-264.15111,0.474279,62.299319
0.6864,0.019002,0.019544,0.001586,-0.004215,-0.003153,0.000118,0.018464,-0.490984,-0.001555,0.787009,-264.15111,0.474279,62.299319
0.7061,0.01893,0.019254,0.000136,-0.004215,-0.003153,0.000118,0.019645,-0.490577,0.001537,0.740276,-264.153259,0.506786,62.297504
0.7265,0.019272,0.019421,0.000631,-0.004242,-0.003093,-0.001513,0.019364,-0.49066,0.000964,0.740276,-264.153259,0.506786,62.297504
0.7458,0.018885,0.019716,0.000334,-0.004251,-0.003076,-0.001985,0.019514,-0.490636,0.000626,0.665735,-264.154482,0.581327,62.296261
0.7659,0.018817,0.019365,0.000169,-0.004245,-0.003082,-0.001973,0.019093,-0.490319,0.00036,0.665735,-264.154482,0.581327,62.296261
0.7859,0.019124,0.019532,0.000267,-0.004239,-0.003088,-0.001963,0.019093,-0.490319,0.00036,0.665735,-264.154482,0.581327,62.296261
0.8062,0.019156,0.019216,-0.0007,-0.004239,-0.003088,-0.001963,0.019172,-0.490533,0.000236,0.740704,-264.155684,0.506358,62.295337
0.8261,0.018857,0.019176,0.000824,-0.00424,-0.003106,-0.001437,0.019007,-0.490644,-0.000155,0.740704,-264.155684,0.506358,62.295337
0.8458,0.018915,0.019009,-0.00028,-0.004241,-0.00311,-0.001285,0.019163,-0.490908,0.000772,0.790898,-264.157727,0.431042,62.293764
0.8664,0.018624,0.019534,0.000385,-0.004243,-0.003111,-0.001159,0.018802,-0.490988,-0.000187,0.790898,-264.157727,0.431042,62.293764
0.886,0.018864,0.019177,-0.001135,-0.004246,-0.00311,-0.001072,0.018802,-0.490988,-0.000187,0.790898,-264.157727,0.431042,62.293764
0.9063,0.018711,0.019529,0.000723,-0.004246,-0.00311,-0.001072,0.018127,-0.490939,-0.001183,0.742917,-264.159776,0.501621,62.292043
0.9259,0.018912,0.018808,-0.001395,-0.004232,-0.003135,-0.00076,0.018495,-0.490762,-0.000417,0.742917,-264.159776,0.501621,62.292043
0.9461,0.018705,0.019146,-0.000446,-0.004227,-0.003143,-0.000675,0.018067,-0.491289,-0.001428,0.725446,-264.162017,0.524428,62.290106
0.966,0.018489,0.018805,-0.001418,-0.004224,-0.003148,-0.000551,0.018434,-0.490897,-0.000534,0.725446,-264.162017,0.524428,62.290106
0.986,0.018638,0.018933,-0.000789,-0.004221,-0.003152,-0.000463,0.018434,-0.490897,-0.000534,0.725446,-264.162017,0.524428,62.290106
1.0067,0.018403,0.018641,-0.000833,-0.004221,-0.003152,-0.000463,0.018067,-0.491192,-0.000816,0.699293,-264.164119,0.573522,62.288191
1.0261,0.018522,0.018326,0.001649,-0.004216,-0.003169,-9.5e-05,0.018012,-0.491272,-0.000826,0.699293,-264.164119,0.573522,62.288191
1.0457,0.01812,0.01871,-0.000559,-0.004214,-0.003174,1.1e-05,0.01923,-0.491773,0.001634,0.683128,-264.166267,0.597033,62.286176
1.0662,0.01821,0.017996,0.001187,-0.004211,-0.003166,-0.000172,0.017955,-0.491339,-0.000361,0.683128,-264.166267,0.597033,62.286176
1.086,0.018209,0.01869,0.001093,-0.004209,-0.003162,-0.000299,0.017955,-0.491339,-0.000361,0.683128,-264.166267,0.597033,62.286176
1.1061,0.017885,0.017914,-0.000631,-0.004209,-0.003162,-0.000299,0.018601,-0.491435,0.001093,0.644454,-264.168248,0.64641,62.284193
1.1259,0.018173,0.018483,-0.001144,-0.004228,-0.003118,-0.001176,0.018157,-0.491715,0.000388,0.644454,-264.168248,0.64641,62.284193
1.1458,0.017772,0.018215,-0.00155,-0.004235,-0.003104,-0.001426,0.017459,-0.491615,-0.001153,0.671454,-264.170359,0.616021,62.282167
1.166,0.017834,0.018324,-0.000617,-0.004223,-0.003154,-0.000603,0.017008,-0.491777,-0.001524,0.671454,-264.170359,0.616021,62.282167
1.1858,0.017544,0.018149,0.000794,-0.004212,-0.003189,-1.9e-05,0.017008,-0.491777,-0.001524,0.671454,-264.170359,0.616021,62.282167
1.206,0.017526,0.017898,9.8e-05,-0.004212,-0.003189,-1.9e-05,0.017831,-0.491942,0.00076,0.747048,-264.17193,0.540427,62.280872
1.2261,0.017493,0.018008,-9e-05,-0.004226,-0.003136,-0.001141,0.017714,-0.492017,0.000487,0.747048,-264.17193,0.540427,62.280872
1.2461,0.017717,0.018023,-0.000563,-0.004231,-0.00312,-0.001461,0.01735,-0.492064,-9.5e-05,0.672703,-264.173459,0.614771,62.279347
1.2659,0.017334,0.017864,-0.001626,-0.004228,-0.003135,-0.001103,0.01742,-0.491986,-0.000528,0.672703,-264.173459,0.614771,62.279347
1.286,0.01779,0.018065,-0.000866,-0.004226,-0.003145,-0.000851,0.01742,-0.491986,-0.000528,0.672703,-264.173459,0.614771,62.279347
1.3065,0.017234,0.01791,-0.001577,-0.004226,-0.003145,-0.000851,0.017231,-0.492026,-0.000901,0.748173,-264.175027,0.539301,62.278061
1.3264,0.017267,0.017944,0.000384,-0.00421,-0.003193,1e-05,0.016893,-0.492062,-0.001178,0.748173,-264.175027,0.539301,62.278061
1.3463,0.017127,0.017918,-0.000115,-0.004203,-0.003206,0.000259,0.017331,-0.492154,0.000357,0.714309,-264.177229,0.555764,62.276104
1.3665,0.016825,0.017932,-0.000454,-0.004199,-0.003189,-0.00016,0.017082,-0.492091,-8.1e-05,0.714309,-264.177229,0.555764,62.276104
1.3862,0.017025,0.017253,2.8e-05,-0.004195,-0.003178,-0.000453,0.017082,-0.492091,-8.1e-05,0.714309,-264.177229,0.555764,62.276104
1.4058,0.017408,0.017796,0.000939,-0.004195,-0.003178,-0.000453,0.016914,-0.492839,3e-05,0.638833,-264.17869,0.631239,62.274589
1.4258,0.016461,0.017496,-0.000118,-0.004219,-0.003129,-0.001272,0.017307,-0.492584,0.000411,0.638833,-264.17869,0.631239,62.274589
1.446,0.017046,0.01737,-0.00247,-0.004228,-0.003113,-0.001505,0.016275,-0.492599,-0.000132,0.688826,-264.180747,0.605053,62.272657
1.4664,0.016676,0.017707,-0.002286,-0.00421,-0.003185,-0.000384,0.015824,-0.492631,-0.002261,0.688826,-264.180747,0.605053,62.272657
1.4863,0.017107,0.017327,0.000677,-0.004196,-0.003236,0.00042,0.015824,-0.492631,-0.002261,0.688826,-264.180747,0.605053,62.272657
1.5061,0.016708,0.017405,-0.001649,-0.004196,-0.003236,0.00042,0.017328,-0.492769,0.000638,0.761841,-264.18241,0.530354,62.271302
1.5264,0.016283,0.017292,-0.000689,-0.004198,-0.003195,-0.000161,0.016711,-0.492708,-0.000311,0.761841,-264.18241,0.530354,62.271302
1.5457,0.016844,0.017236,-0.00148,-0.004199,-0.003182,-0.000326,0.015869,-0.492755,-0.000691,0.686747,-264.183365,0.605449,62.270289
1.566,0.016711,0.017392,-0.002394,-0.004191,-0.003208,0.000122,0.016066,-0.492765,-0.001409,0.686747,-264.183365,0.605449,62.270289
1.5865,0.016448,0.017495,0.000231,-0.004185,-0.003225,0.000437,0.016066,-0.492765,-0.001409,0.686747,-264.183365,0.605449,62.270289
1.6062,0.015909,0.0168,-0.002043,-0.004185,-0.003225,0.000437,0.01639,-0.492639,0.000218,0.677893,-264.185514,0.617692,62.268236
1.626,0.016393,0.017129,-0.000118,-0.004159,-0.003227,0.000188,0.015767,-0.492876,-0.000679,0.677893,-264.185514,0.617692,62.268236
1.6458,0.016219,0.016774,0.000818,-0.00415,-0.003229,0.000117,0.016219,-0.492958,-0.000106,0.615307,-264.187269,0.692706,62.266368
1.6664,0.016206,0.017179,8.5e-05,-0.004172,-0.003188,-0.000731,0.016597,-0.493208,0.000743,0.615307,-264.187269,0.692706,62.266368
1.6857,0.016129,0.016659,-0.000806,-0.004189,-0.003157,-0.001323,0.016597,-0.493208,0.000743,0.615307,-264.187269,0.692706,62.266368
1.7064,0.016027,0.01686,0.00034,-0.004189,-0.003157,-0.001323,0.01555,-0.493472,-0.000801,0.650444,-264.189291,0.671978,62.264312
1.7263,0.015811,0.016871,-0.000718,-0.004183,-0.003172,-0.00097,0.015794,-0.493353,-0.000338,0.650444,-264.189291,0.671978,62.264312
1.7465,0.016162,0.016854,-0.001187,-0.004181,-0.003175,-0.000865,0.015372,-0.493186,-0.000735,0.7251,-264.190555,0.597323,62.26326
1.7661,0.015936,0.016774,-0.000998,-0.004172,-0.003204,-0.000373,0.015536,-0.493152,-0.001147,0.7251,-264.190555,0.597323,62.26326
1.7858,0.015865,0.016868,-0.002215,-0.004164,-0.003225,-2.5e-05,0.015536,-0.493152,-0.001147,0.7251,-264.190555,0.597323,62.26326
1.806,0.016104,0.016398,-0.000119,-0.004164,-0.003225,-2.5e-05,0.014564,-0.493261,-0.00225,0.724952,-264.192751,0.564356,62.261315
1.8266,0.015766,0.016703,-0.00153,-0.004146,-0.003262,0.000577,0.015146,-0.493415,-0.001387,0.724952,-264.192751,0.564356,62.261315
1.8463,0.0158,0.016202,0.000113,-0.004139,-0.003273,0.000749,0.014876,-0.49338,-0.001532,0.66128,-264.194482,0.639363,62.25959
1.8661,0.015512,0.016421,0.000946,-0.004152,-0.003235,0.000145,0.015771,-0.493767,-2.3e-05,0.66128,-264.194482,0.639363,62.25959
1.8863,0.015393,0.016293,0.00067,-0.004163,-0.003206,-0.000275,0.015771,-0.493767,-2.3e-05,0.66128,-264.194482,0.639363,62.25959
1.9059,0.015379,0.016381,-0.000466,-0.004163,-0.003206,-0.000275,0.015593,-0.493817,0.000693,0.597371,-264.196103,0.714618,62.257785
1.926,0.015932,0.016294,-0.000455,-0.004164,-0.003178,-0.001016,0.015392,-0.493749,0.000223,0.597371,-264.196103,0.714618,62.257785
1.9463,0.015043,0.016378,-0.000817,-0.004164,-0.003171,-0.001226,0.015594,-0.493787,-0.00046,0.67211,-264.197814,0.639879,62.25614
1.9661,0.01545,0.016108,0.000348,-0.004147,-0.003203,-0.000811,0.014708,-0.493641,-0.000785,0.67211,-264.197814,0.639879,62.25614
1.9862,0.014853,0.015868,0.000577,-0.004132,-0.003227,-0.000518,0.014708,-0.493641,-0.000785,0.67211,-264.197814,0.639879,62.25614
2.006,0.015283,0.016012,-0.001716,-0.004132,-0.003227,-0.000518,0.01502,-0.494231,0.000544,0.747115,-264.199493,0.564873,62.254726
2.0259,0.01495,0.015797,-0.000451,-0.004129,-0.003225,-0.000504,0.014748,-0.49414,-0.000411,0.747115,-264.199493,0.564873,62.254726
2.046,0.014748,0.015693,-0.000992,-0.004128,-0.003224,-0.0005,0.014598,-0.494298,-0.000466,0.708824,-264.201527,0.613591,62.252837
2.0658,0.015055,0.015717,-0.001981,-0.004121,-0.003242,-0.000213,0.014267,-0.494311,-0.000946,0.708824,-264.201527,0.613591,62.252837
2.0857,0.014805,0.016063,-0.000689,-0.004115,-0.003255,-1.2e-05,0.014267,-0.494311,-0.000946,0.708824,-264.201527,0.613591,62.252837
2.1058,0.015151,0.01567,0.001032,-0.004115,-0.003255,-1.2e-05,0.014281,-0.494072,-0.00071,0.707338,-264.203714,0.61544,62.250801
2.126,0.014314,0.015765,-0.001089,-0.004124,-0.003219,-0.000686,0.014856,-0.494197,3e-05,0.707338,-264.203714,0.61544,62.250801
2.1459,0.014594,0.015156,-0.001217,-0.004128,-0.003209,-0.000878,0.013637,-0.49433,-0.001089,0.670269,-264.205666,0.668133,62.248852
2.1659,0.014662,0.015681,-0.001092,-0.004125,-0.003235,-0.000353,0.013937,-0.494802,-0.001205,0.670269,-264.205666,0.668133,62.248852
2.1858,0.014758,0.015514,-0.000145,-0.004123,-0.003252,1.8e-05,0.013937,-0.494802,-0.001205,0.670269,-264.205666,0.668133,62.248852
2.2058,0.014379,0.015616,-0.001179,-0.004123,-0.003252,1.8e-05,0.014545,-0.494596,-0.000173,0.736812,-264.207481,0.59366,62.247251
2.2259,0.014379,0.015582,0.000421,-0.004114,-0.00325,-6.8e-05,0.014204,-0.494519,-0.000602,0.736812,-264.207481,0.59366,62.247251
2.2461,0.013801,0.01535,-0.001402,-0.00411,-0.00325,-9.3e-05,0.014485,-0.494505,0.000422,0.666308,-264.20924,0.669101,62.245488
2.2658,0.014274,0.015339,0.000454,-0.004086,-0.003284,0.000209,0.013202,-0.494641,-0.001243,0.666308,-264.20924,0.669101,62.245488
2.2858,0.014305,0.014797,-0.001383,-0.004065,-0.003309,0.00042,0.013202,-0.494641,-0.001243,0.666308,-264.20924,0.669101,62.245488
2.3059,0.0141,0.015259,-0.00014,-0.004065,-0.003309,0.00042,0.013428,-0.495338,-0.001387,0.67757,-264.211343,0.660533,62.243413
2.3258,0.013832,0.015184,-0.000988,-0.004074,-0.003295,0.00037,0.013656,-0.495107,-0.000873,0.67757,-264.211343,0.660533,62.243413
2.3461,0.014056,0.015117,0.00076,-0.004078,-0.00329,0.000355,0.013208,-0.494913,-0.000975,0.644129,-264.213228,0.720066,62.241408
2.3658,0.013819,0.015364,0.000119,-0.004095,-0.003251,-0.000487,0.014326,-0.494891,0.000604,0.644129,-264.213228,0.720066,62.241408
2.3862,0.014166,0.015119,0.000183,-0.004109,-0.003223,-0.001075,0.014326,-0.494891,0.000604,0.644129,-264.213228,0.720066,62.241408
2.406,0.013807,0.014484,0.000526,-0.004109,-0.003223,-0.001075,0.014089,-0.495019,0.000198,0.645805,-264.215267,0.710196,62.23926
2.4261,0.01384,0.014807,-0.002272,-0.00413,-0.00319,-0.0015,0.014064,-0.495236,0.000333,0.645805,-264.215267,0.710196,62.23926
2.4457,0.013422,0.014428,-0.001073,-0.004137,-0.00318,-0.001619,0.012607,-0.495251,-0.002285,0.720814,-264.216548,0.635188,62.238162
2.4658,0.013805,0.014784,-9.9e-05,-0.004121,-0.003225,-0.000889,0.012847,-0.495546,-0.001183,0.720814,-264.216548,0.635188,62.238162
2.4858,0.013841,0.014842,-7.5e-05,-0.004108,-0.003257,-0.000372,0.012847,-0.495546,-0.001183,0.720814,-264.216548,0.635188,62.238162
2.5061,0.013196,0.014548,-0.000762,-0.004108,-0.003257,-0.000372,0.013692,-0.495249,-0.000113,0.789127,-264.21808,0.56019,62.236941
2.5261,0.013142,0.014619,-0.000717,-0.004096,-0.003255,-0.00046,0.013319,-0.495342,-0.000382,0.789127,-264.21808,0.56019,62.236941
2.5457,0.013354,0.014504,-0.000792,-0.004091,-0.003255,-0.000484,0.01267,-0.495466,-0.000728,0.714126,-264.219829,0.63519,62.235283
2.5658,0.012895,0.01477,-0.000268,-0.004081,-0.00327,-0.000284,0.01292,-0.495497,-0.000786,0.714126,-264.219829,0.63519,62.235283
2.5858,0.012858,0.013775,-0.000998,-0.004073,-0.003281,-0.000143,0.01292,-0.495497,-0.000786,0.714126,-264.219829,0.63519,62.235283
2.6062,0.013035,0.014625,-0.002228,-0.004073,-0.003281,-0.000143,0.012178,-0.49636,-0.001018,0.714814,-264.221993,0.626178,62.233266
2.626,0.013433,0.014481,-0.003415,-0.00404,-0.003339,0.000612,0.012044,-0.495974,-0.001514,0.714814,-264.221993,0.626178,62.233266
2.6461,0.012984,0.014219,-0.000331,-0.004027,-0.003357,0.000829,0.011566,-0.495617,-0.003419,0.690977,-264.224038,0.664934,62.231264
2.6662,0.012698,0.014156,-0.00046,-0.004026,-0.003341,0.000532,0.012693,-0.495771,-0.000617,0.690977,-264.224038,0.664934,62.231264
2.6864,0.012527,0.013933,-0.001297,-0.004026,-0.00333,0.000325,0.012693,-0.495771,-0.000617,0.690977,-264.224038,0.664934,62.231264
2.7067,0.012821,0.014336,-0.00035,-0.004026,-0.00333,0.000325,0.011732,-0.496174,-0.001273,0.616022,-264.225576,0.739926,62.229524
2.7264,0.0127,0.014042,-0.000732,-0.004005,-0.003344,0.00033,0.012086,-0.49598,-0.000896,0.616022,-264.225576,0.739926,62.229524
2.7462,0.012452,0.014076,-0.000116,-0.003997,-0.00335,0.000331,0.012203,-0.49606,-0.000722,0.660925,-264.227538,0.719586,62.227465
2.7663,0.01252,0.014098,0.000439,-0.003996,-0.003334,-6.6e-05,0.012369,-0.495941,-0.00017,0.660925,-264.227538,0.719586,62.227465
2.7864,0.012723,0.013914,-0.000817,-0.003996,-0.003324,-0.000342,0.012369,-0.495941,-0.00017,0.660925,-264.227538,0.719586,62.227465
2.8071,0.012167,0.01356,0.001129,-0.003996,-0.003324,-0.000342,0.012139,-0.496225,-0.000803,0.667104,-264.22957,0.726625,62.225329
2.8265,0.012248,0.013438,-0.001337,-0.004015,-0.003293,-0.000797,0.012362,-0.496328,-2.7e-05,0.667104,-264.22957,0.726625,62.225329
2.8457,0.011939,0.013646,-0.000191,-0.004022,-0.003283,-0.000925,0.011453,-0.496656,-0.001347,0.723929,-264.231474,0.662125,62.22352
2.8661,0.01192,0.014013,-0.000485,-0.004012,-0.003293,-0.00087,0.011806,-0.496382,-0.000283,0.723929,-264.231474,0.662125,62.22352
2.8869,0.011655,0.013724,-0.000368,-0.004004,-0.003302,-0.000831,0.011806,-0.496382,-0.000283,0.723929,-264.231474,0.662125,62.22352
2.9064,0.011983,0.013395,9.6e-05,-0.004004,-0.003302,-0.000831,0.011316,-0.4964,-0.000403,0.76318,-264.233483,0.594241,62.221768
2.9264,0.012104,0.013794,-0.000913,-0.003983,-0.003316,-0.000858,0.011588,-0.496498,-0.000204,0.76318,-264.233483,0.594241,62.221768
2.946,0.011851,0.013413,-5e-06,-0.003976,-0.003322,-0.000864,0.011511,-0.49631,-0.00094,0.760465,-264.235685,0.60932,62.219823
2.9666,0.011686,0.013478,0.000519,-0.003978,-0.003318,-0.00093,0.011812,-0.496568,-9e-05,0.760465,-264.235685,0.60932,62.219823
2.9858,0.011642,0.01292,5.7e-05,-0.003981,-0.003314,-0.000976,0.011812,-0.496568,-9e-05,0.760465,-264.235685,0.60932,62.219823
3.0059,0.011437,0.013146,0.000268,-0.003981,-0.003314,-0.000976,0.011505,-0.497219,2.1e-05,0.769343,-264.237906,0.612693,62.217873
3.0263,0.011766,0.013234,-0.001413,-0.003994,-0.003295,-0.001231,0.011515,-0.497082,0.000121,0.769343,-264.237906,0.612693,62.217873
3.0459,0.011351,0.012685,-0.000619,-0.003999,-0.003289,-0.001304,0.01092,-0.49687,-0.001443,0.77646,-264.240128,0.599175,62.215952
3.0661,0.011143,0.012815,-0.000594,-0.003993,-0.00331,-0.000904,0.01102,-0.497284,-0.000686,0.77646,-264.240128,0.599175,62.215952
3.0864,0.011521,0.012762,-0.002056,-0.003988,-0.003324,-0.000623,0.01102,-0.497284,-0.000686,0.77646,-264.240128,0.599175,62.215952
3.106,0.0111,0.013114,-0.000523,-0.003988,-0.003324,-0.000623,0.010312,-0.497368,-0.002108,0.796094,-264.242345,0.557406,62.214125
3.126,0.011249,0.013256,-0.000487,-0.003947,-0.003397,0.000325,0.010514,-0.497179,-0.001441,0.796094,-264.242345,0.557406,62.214125
3.1457,0.011237,0.012893,-0.002007,-0.003931,-0.00342,0.000598,0.010891,-0.496835,-0.000505,0.748562,-264.244234,0.632631,62.212405
3.1661,0.011074,0.012649,0.000193,-0.003908,-0.003454,0.000971,0.010269,-0.497087,-0.001874,0.748562,-264.244234,0.632631,62.212405
3.1859,0.011213,0.012896,-0.002108,-0.003887,-0.00348,0.00123,0.010269,-0.497087,-0.001874,0.748562,-264.244234,0.632631,62.212405
3.2065,0.010916,0.012469,-0.003155,-0.003887,-0.00348,0.00123,0.010026,-0.497194,-0.002098,0.674089,-264.245559,0.707103,62.210953
3.2259,0.011008,0.012428,-0.001031,-0.003835,-0.003553,0.001953,0.009718,-0.497342,-0.002531,0.674089,-264.245559,0.707103,62.210953
3.2461,0.010809,0.012173,-0.000796,-0.003816,-0.003576,0.002158,0.010388,-0.497651,-0.001006,0.612009,-264.246967,0.782396,62.209249
3.2662,0.010831,0.012452,-0.000862,-0.003833,-0.003527,0.001536,0.010397,-0.497815,-0.000813,0.612009,-264.246967,0.782396,62.209249
3.2861,0.010564,0.012032,2.9e-05,-0.003847,-0.003492,0.001107,0.010397,-0.497815,-0.000813,0.612009,-264.246967,0.782396,62.209249
3.3062,0.01027,0.01197,-0.001023,-0.003847,-0.003492,0.001107,0.010463,-0.49807,8.7e-05,0.537321,-264.248216,0.857084,62.207501
3.3263,0.010638,0.012676,-0.001519,-0.003868,-0.003434,0.00019,0.010154,-0.498066,-0.000366,0.537321,-264.248216,0.857084,62.207501
3.3463,0.009954,0.011972,-0.000621,-0.003876,-0.003417,-6.6e-05,0.009759,-0.497417,-0.001487,0.612431,-264.249842,0.825426,62.205567
3.3661,0.01034,0.012207,-0.000709,-0.00386,-0.003428,-6.5e-05,0.009642,-0.49798,-0.000695,0.612431,-264.249842,0.825426,62.205567
3.3862,0.010489,0.012308,-0.001013,-0.003847,-0.003438,-6e-05,0.009642,-0.49798,-0.000695,0.612431,-264.249842,0.825426,62.205567
3.4062,0.01005,0.012153,-0.001534,-0.003847,-0.003438,-6e-05,0.009864,-0.497787,-0.001008,0.687397,-264.251228,0.750459,62.204195
3.4263,0.009809,0.011863,0.000549,-0.00382,-0.003481,0.000408,0.009606,-0.497822,-0.001224,0.687397,-264.251228,0.750459,62.204195
3.446,0.010155,0.012029,-0.001332,-0.00381,-0.003495,0.000545,0.009973,-0.498241,0.000547,0.734541,-264.253205,0.723976,62.202236
3.466,0.010375,0.011798,-0.001951,-0.003803,-0.003503,0.000614,0.009514,-0.498,-0.001166,0.734541,-264.253205,0.723976,62.202236
3.4864,0.010102,0.012,-0.000839,-0.003797,-0.003508,0.000663,0.009514,-0.498,-0.001166,0.734541,-264.253205,0.723976,62.202236
3.5065,0.009797,0.011455,-0.001342,-0.003797,-0.003508,0.000663,0.009529,-0.498133,-0.000818,0.692757,-264.25501,0.787737,62.200267
3.526,0.010245,0.011873,-0.001989,-0.003793,-0.003506,0.00061,0.009341,-0.498318,-0.001031,0.692757,-264.25501,0.787737,62.200267
3.5462,0.009146,0.011692,-0.00017,-0.003791,-0.003505,0.000595,0.00911,-0.498237,-0.001968,0.685251,-264.256962,0.800533,62.198097
3.5664,0.009221,0.011602,-0.001003,-0.003775,-0.0035,0.0002,0.009058,-0.498308,-0.00033,0.685251,-264.256962,0.800533,62.198097
3.5858,0.009687,0.011345,0.000366,-0.003762,-0.003498,-7.4e-05,0.009058,-0.498308,-0.00033,0.685251,-264.256962,0.800533,62.198097
3.6057,0.009433,0.011194,0.000553,-0.003762,-0.003498,-7.4e-05,0.009716,-0.498801,0.000391,0.692041,-264.25893,0.795601,62.195932
3.6261,0.008993,0.011436,-0.001965,-0.003827,-0.003418,-0.001139,0.009697,-0.49882,0.00046,0.692041,-264.25893,0.795601,62.195932
3.6457,0.009077,0.01106,0.000381,-0.003851,-0.003391,-0.001442,0.007883,-0.498663,-0.001967,0.755439,-264.260784,0.742619,62.1941
3.6658,0.009226,0.010907,-0.000663,-0.00385,-0.00339,-0.001491,0.009144,-0.49892,0.000175,0.755439,-264.260784,0.742619,62.1941
3.6861,0.009458,0.010933,-0.001819,-0.003849,-0.003389,-0.001523,0.009144,-0.49892,0.000175,0.755439,-264.260784,0.742619,62.1941
3.7058,0.009205,0.011007,-0.000443,-0.003849,-0.003389,-0.001523,0.008439,-0.499152,-0.001846,0.830508,-264.262118,0.66755,62.193034
3.7262,0.009331,0.011238,-3e-05,-0.003826,-0.003459,-0.000249,0.00865,-0.499097,-0.001275,0.830508,-264.262118,0.66755,62.193034
3.746,0.008857,0.010946,0.000265,-0.003817,-0.003479,0.000123,0.009212,-0.498856,-6.9e-05,0.842851,-264.26409,0.59261,62.191477
3.766,0.008785,0.01094,-0.000717,-0.003821,-0.003453,-0.000433,0.009007,-0.499041,0.000233,0.842851,-264.26409,0.59261,62.191477
3.7864,0.008974,0.011154,8.3e-05,-0.003824,-0.003435,-0.00082,0.009007,-0.499041,0.000233,0.842851,-264.26409,0.59261,62.191477
3.8065,0.009053,0.010602,-0.000235,-0.003824,-0.003435,-0.00082,0.008927,-0.498923,7.7e-05,0.767846,-264.265205,0.667614,62.19034
3.8264,0.009511,0.010872,-0.001316,-0.003825,-0.003422,-0.000995,0.00892,-0.499126,-5.1e-05,0.767846,-264.265205,0.667614,62.19034
3.8462,0.009065,0.011107,-0.000938,-0.003826,-0.003418,-0.001044,0.00872,-0.499234,-0.001342,0.799866,-264.267358,0.654562,62.188449
3.8663,0.008606,0.01048,-0.00178,-0.003807,-0.003451,-0.000582,0.008593,-0.498929,-0.000975,0.799866,-264.267358,0.654562,62.188449
3.8865,0.009078,0.010613,-0.000267,-0.003792,-0.003476,-0.000256,0.008593,-0.498929,-0.000975,0.799866,-264.267358,0.654562,62.188449
3.9064,0.008646,0.010429,0.001025,-0.003792,-0.003476,-0.000256,0.008784,-0.499528,-0.00031,0.814478,-264.26956,0.628441,62.186581
3.9261,0.008586,0.010064,-0.002254,-0.003833,-0.003412,-0.000986,0.008924,-0.499562,0.000233,0.814478,-264.26956,0.628441,62.186581
3.946,0.008584,0.010271,-0.000257,-0.003849,-0.003391,-0.001196,0.007335,-0.500027,-0.002262,0.763883,-264.271324,0.703577,62.184888
3.9662,0.008317,0.01017,-0.001143,-0.003843,-0.003402,-0.000963,0.008348,-0.499761,-0.000437,0.763883,-264.271324,0.703577,62.184888
3.9861,0.008481,0.010471,-0.001658,-0.003838,-0.00341,-0.000799,0.008348,-0.499761,-0.000437,0.763883,-264.271324,0.703577,62.184888
4.0063,0.008408,0.01046,-0.000279,-0.003838,-0.00341,-0.000799,0.007505,-0.499645,-0.001696,0.819587,-264.273163,0.62872,62.183362
4.026,0.008431,0.00992,-0.000653,-0.003775,-0.003485,-2e-05,0.007802,-0.499615,-0.001119,0.819587,-264.273163,0.62872,62.183362
4.046,0.007948,0.00972,0.000386,-0.003751,-0.003509,0.000206,0.007978,-0.500187,-0.000678,0.793068,-264.275311,0.650591,62.181467
4.0659,0.007962,0.010168,-0.002447,-0.003773,-0.003468,-0.000405,0.008125,-0.500277,0.000295,0.793068,-264.275311,0.650591,62.181467
4.0859,0.007469,0.010078,-0.001262,-0.00379,-0.003438,-0.000831,0.008125,-0.500277,0.000295,0.793068,-264.275311,0.650591,62.181467
4.106,0.007927,0.010094,-0.00222,-0.00379,-0.003438,-0.000831,0.006704,-0.500029,-0.00126,0.733827,-264.276832,0.725665,62.179896
4.1258,0.008318,0.009862,-0.000214,-0.003661,-0.003572,0.00034,0.006727,-0.499991,-0.001651,0.733827,-264.276832,0.725665,62.179896
4.1456,0.008015,0.010065,-0.001585,-0.003614,-0.003617,0.000683,0.008106,-0.500231,-0.000236,0.805462,-264.278706,0.658199,62.178254
4.166,0.00763,0.009885,-0.000137,-0.003605,-0.003629,0.000856,0.007278,-0.499964,-0.001472,0.805462,-264.278706,0.658199,62.178254
4.186,0.008075,0.00972,-0.000337,-0.003597,-0.003637,0.000976,0.007278,-0.499964,-0.001472,0.805462,-264.278706,0.658199,62.178254
4.2059,0.007954,0.009852,0.000393,-0.003597,-0.003637,0.000976,0.00782,-0.500355,-0.000329,0.730435,-264.279724,0.733226,62.177111
4.2257,0.007594,0.009785,-0.000636,-0.003667,-0.003539,-0.000152,0.007947,-0.50028,-3.4e-05,0.730435,-264.279724,0.733226,62.177111
4.2458,0.007808,0.009624,-0.000961,-0.003693,-0.003507,-0.000472,0.007182,-0.500298,-0.000617,0.701882,-264.281125,0.808108,62.17546
4.2659,0.007608,0.00939,-0.001592,-0.003686,-0.003522,-0.000209,0.007302,-0.500373,-0.00093,0.701882,-264.281125,0.808108,62.17546
4.2858,0.007596,0.009202,-0.000511,-0.00368,-0.003532,-2.2e-05,0.007302,-0.500373,-0.00093,0.701882,-264.281125,0.808108,62.17546
4.306,0.007427,0.009289,-0.000647,-0.00368,-0.003532,-2.2e-05,0.007218,-0.500908,-0.000523,0.776987,-264.282726,0.733003,62.173979
4.3259,0.00739,0.00941,-0.001879,-0.003689,-0.003513,-0.000111,0.007154,-0.500837,-0.000576,0.776987,-264.282726,0.733003,62.173979
4.3462,0.006914,0.009388,-7.7e-05,-0.003692,-0.003506,-0.000135,0.006317,-0.500699,-0.00188,0.76685,-264.284727,0.762972,62.171985
4.3662,0.007229,0.009347,-0.000467,-0.003665,-0.003514,-0.000354,0.00682,-0.500626,-0.000234,0.76685,-264.284727,0.762972,62.171985
4.3864,0.007199,0.009358,-0.000448,-0.003643,-0.003522,-0.000506,0.00682,-0.500626,-0.000234,0.76685,-264.284727,0.762972,62.171985
4.4062,0.007489,0.009208,-0.001704,-0.003643,-0.003522,-0.000506,0.006817,-0.500787,-0.000453,0.771164,-264.286776,0.747689,62.169982
4.4264,0.007179,0.009102,9.8e-05,-0.003618,-0.003559,-8e-06,0.006719,-0.500806,-0.000963,0.771164,-264.286776,0.747689,62.169982
4.4464,0.006958,0.009102,-0.002262,-0.003609,-0.00357,0.000136,0.007117,-0.501007,8.2e-05,0.810511,-264.288818,0.722734,62.168105
4.4662,0.006743,0.008868,-0.000141,-0.003557,-0.003629,0.000704,0.005917,-0.500912,-0.002052,0.810511,-264.288818,0.722734,62.168105
4.4862,0.006555,0.009062,-0.00106,-0.003514,-0.003673,0.001104,0.005917,-0.500912,-0.002052,0.810511,-264.288818,0.722734,62.168105
4.5062,0.006892,0.008777,-0.001653,-0.003514,-0.003673,0.001104,0.005878,-0.501072,-0.001055,0.768185,-264.290626,0.791516,62.166255
4.5261,0.006673,0.009029,-0.000926,-0.003465,-0.00369,0.00103,0.005932,-0.501149,-0.001298,0.768185,-264.290626,0.791516,62.166255
4.5457,0.00665,0.008509,-0.002629,-0.003447,-0.003698,0.001009,0.006109,-0.501063,-0.0009,0.706313,-264.292116,0.86652,62.164452
4.5662,0.006465,0.008572,0.000361,-0.00341,-0.003741,0.001481,0.005366,-0.501461,-0.002497,0.706313,-264.292116,0.86652,62.164452
4.5858,0.006667,0.008501,-0.00109,-0.003379,-0.003772,0.001811,0.005366,-0.501461,-0.002497,0.706313,-264.292116,0.86652,62.164452
4.6064,0.00617,0.008672,0.000136,-0.003379,-0.003772,0.001811,0.00597,-0.501649,-0.001049,0.729432,-264.293915,0.896655,62.162303
4.6262,0.006664,0.008464,-0.000788,-0.003419,-0.00369,0.00072,0.006064,-0.501536,-0.000563,0.729432,-264.293915,0.896655,62.162303
4.6458,0.006132,0.008389,-0.0005,-0.003433,-0.003664,0.000413,0.006168,-0.501641,-0.000737,0.667962,-264.295428,0.964979,62.160218
4.6661,0.006373,0.008372,-0.000593,-0.003438,-0.003649,0.000175,0.005894,-0.501617,-0.000516,0.667962,-264.295428,0.964979,62.160218
4.6864,0.006134,0.008033,-0.001697,-0.003442,-0.003638,1.2e-05,0.005894,-0.501617,-0.000516,0.667962,-264.295428,0.964979,62.160218
4.7065,0.006436,0.008271,-0.000299,-0.003442,-0.003638,1.2e-05,0.005175,-0.502066,-0.001679,0.743437,-264.296702,0.889503,62.158846
4.7263,0.00627,0.008177,-0.000422,-0.003445,-0.003643,0.000353,0.005625,-0.501938,-0.001103,0.743437,-264.296702,0.889503,62.158846
4.746,0.005929,0.008091,-0.001273,-0.003445,-0.003643,0.000454,0.005963,-0.501921,-0.000421,0.812094,-264.298387,0.814566,62.157157
4.7659,0.006235,0.007879,-0.002176,-0.003423,-0.003659,0.000562,0.005336,-0.501915,-0.001196,0.812094,-264.298387,0.814566,62.157157
4.786,0.005836,0.007714,-0.000689,-0.003404,-0.00367,0.000639,0.005336,-0.501915,-0.001196,0.812094,-264.298387,0.814566,62.157157
4.8064,0.00573,0.007808,-0.00112,-0.003404,-0.00367,0.000639,0.005346,-0.502431,-0.000671,0.773794,-264.300232,0.849802,62.155158
4.8261,0.005972,0.007482,-0.000316,-0.003402,-0.003647,0.000445,0.005254,-0.502351,-0.000851,0.773794,-264.300232,0.849802,62.155158
4.8458,0.005739,0.007519,-0.000909,-0.003401,-0.00364,0.000391,0.005703,-0.502634,-0.000296,0.766845,-264.302106,0.873103,62.153059
4.8661,0.005526,0.007779,-0.001152,-0.003413,-0.003624,0.000358,0.00531,-0.502501,-0.000851,0.766845,-264.302106,0.873103,62.153059
4.8862,0.00531,0.007844,-0.000207,-0.003422,-0.003612,0.000336,0.00531,-0.502501,-0.000851,0.766845,-264.302106,0.873103,62.153059
4.9062,0.005347,0.007521,-0.001016,-0.003422,-0.003612,0.000336,0.005064,-0.502306,-0.000191,0.785462,-264.304004,0.850896,62.151023
4.9261,0.005348,0.007665,-0.000528,-0.00337,-0.003622,-1.8e-05,0.004954,-0.502392,-0.000517,0.785462,-264.304004,0.850896,62.151023
4.946,0.005255,0.007331,-0.001213,-0.003351,-0.003627,-0.000117,0.00497,-0.50245,-0.000517,0.783113,-264.305944,0.839961,62.148963
4.9661,0.005239,0.007381,0.000142,-0.003326,-0.003648,0.000148,0.004656,-0.502657,-0.001162,0.783113,-264.305944,0.839961,62.148963
4.9864,0.005278,0.007026,0.001266,-0.003306,-0.003663,0.000336,0.004656,-0.502657,-0.001162,0.783113,-264.305944,0.839961,62.148963
5.0061,0.005042,0.007262,0.000398,-0.003306,-0.003663,0.000336,0.005792,-0.503117,0.001262,0.834729,-264.307826,0.81506,62.147121
5.0263,0.00524,0.00704,0.000296,-0.003447,-0.003516,-0.001334,0.005556,-0.502981,0.000913,0.834729,-264.307826,0.81506,62.147121
5.0458,0.005047,0.007148,-0.000551,-0.003496,-0.003467,-0.001816,0.005291,-0.503071,0.000307,0.807978,-264.309647,0.86366,62.145184
5.0662,0.004959,0.007087,-0.000776,-0.003467,-0.003497,-0.001386,0.004808,-0.502877,-0.000473,0.807978,-264.309647,0.86366,62.145184
5.0861,0.00473,0.007623,-0.001121,-0.003442,-0.003518,-0.001081,0.004808,-0.502877,-0.000473,0.807978,-264.309647,0.86366,62.145184
5.1067,0.005219,0.006986,-0.001112,-0.003442,-0.003518,-0.001081,0.004123,-0.502415,-0.001134,0.882973,-264.310227,0.788665,62.144759
5.1264,0.005135,0.007005,-0.000986,-0.00331,-0.003625,-0.000176,0.004335,-0.502664,-0.001126,0.882973,-264.310227,0.788665,62.144759
5.1461,0.005033,0.006415,-0.0007,-0.003262,-0.003661,8.9e-05,0.004538,-0.503093,-0.001014,0.881696,-264.312096,0.713656,62.143214
5.1659,0.004586,0.006629,-0.000696,-0.003303,-0.003615,0.000105,0.004658,-0.503546,-0.00073,0.881696,-264.312096,0.713656,62.143214
5.1863,0.004713,0.00666,0.001173,-0.003335,-0.003578,0.000116,0.004658,-0.503546,-0.00073,0.881696,-264.312096,0.713656,62.143214
5.2063,0.004959,0.006457,0.000677,-0.003335,-0.003578,0.000116,0.00521,-0.503446,0.00117,0.835503,-264.31349,0.788651,62.141797
5.2263,0.004764,0.006356,-0.000496,-0.003472,-0.003432,-0.001476,0.005236,-0.503498,0.00097,0.835503,-264.31349,0.788651,62.141797
5.2462,0.004472,0.006615,-0.001113,-0.003519,-0.003384,-0.001938,0.004408,-0.503754,-0.000493,0.810504,-264.315354,0.830207,62.139894
5.2667,0.004512,0.006289,-8.2e-05,-0.00343,-0.003455,-0.001189,0.003944,-0.503424,-0.001057,0.810504,-264.315354,0.830207,62.139894
5.2864,0.004338,0.006362,0.000122,-0.003358,-0.003507,-0.000656,0.003944,-0.503424,-0.001057,0.810504,-264.315354,0.830207,62.139894
5.3062,0.00438,0.006155,-0.001602,-0.003358,-0.003507,-0.000656,0.004364,-0.503677,0.000108,0.885479,-264.315944,0.755232,62.139468
5.3259,0.004777,0.006219,-0.001103,-0.003303,-0.003515,-0.000389,0.004028,-0.503751,-0.000603,0.885479,-264.315944,0.755232,62.139468
5.3462,0.004529,0.005699,-0.00098,-0.003283,-0.003517,-0.000311,0.004109,-0.50389,-0.001123,0.860939,-264.317979,0.746503,62.137663
5.3661,0.004516,0.006543,-0.000441,-0.003302,-0.003488,-3.6e-05,0.004031,-0.504271,-0.000994,0.860939,-264.317979,0.746503,62.137663
5.3861,0.004322,0.006091,-0.000223,-0.003316,-0.003462,0.000155,0.004031,-0.504271,-0.000994,0.860939,-264.317979,0.746503,62.137663
5.406,0.004334,0.006062,0.000115,-0.003316,-0.003462,0.000155,0.004076,-0.504051,-0.000236,0.845969,-264.31989,0.791971,62.135858
5.4261,0.004265,0.005911,0.000919,-0.003332,-0.00341,-0.000465,0.004193,-0.50402,-9.1e-05,0.845969,-264.31989,0.791971,62.135858
5.4463,0.003933,0.005767,-0.000977,-0.003337,-0.003393,-0.000644,0.004634,-0.504193,0.000923,0.793009,-264.321669,0.820373,62.134027
5.466,0.003825,0.006145,-0.00223,-0.003281,-0.003414,-0.000393,0.003538,-0.504234,-0.000804,0.793009,-264.321669,0.820373,62.134027
5.4866,0.003964,0.00586,-0.00143,-0.003236,-0.003429,-0.000216,0.003538,-0.504234,-0.000804,0.793009,-264.321669,0.820373,62.134027
5.5059,0.004224,0.005968,-0.000782,-0.003236,-0.003429,-0.000216,0.003117,-0.50426,-0.001452,0.848416,-264.32339,0.745589,62.132497
5.526,0.004064,0.005622,-0.000497,-0.003139,-0.003479,0.000289,0.003417,-0.504173,-0.001158,0.848416,-264.32339,0.745589,62.132497
5.5461,0.003823,0.005737,-0.001609,-0.003104,-0.003494,0.000437,0.003714,-0.50448,-0.000504,0.833128,-264.325209,0.794762,62.130751
5.566,0.004185,0.005426,-0.000306,-0.003036,-0.003522,0.000692,0.003061,-0.504287,-0.00151,0.833128,-264.325209,0.794762,62.130751
5.5861,0.003521,0.005748,-0.000244,-0.002981,-0.003542,0.000872,0.003061,-0.504287,-0.00151,0.833128,-264.325209,0.794762,62.130751
5.6063,0.003783,0.005345,-0.001321,-0.002981,-0.003542,0.000872,0.003282,-0.504379,-0.000229,0.804948,-264.326779,0.868697,62.129041
5.626,0.003821,0.005036,-0.000505,-0.002953,-0.003496,0.000399,0.003199,-0.504506,-0.000672,0.804948,-264.326779,0.868697,62.129041
5.6461,0.003673,0.005409,-0.000426,-0.002943,-0.003481,0.000267,0.003476,-0.505068,-0.00048,0.790082,-264.328339,0.939072,62.127182
5.6658,0.003809,0.005099,-0.000368,-0.002976,-0.003441,5.8e-05,0.003453,-0.50464,-0.00043,0.790082,-264.328339,0.939072,62.127182
5.6862,0.003624,0.005103,-0.000997,-0.003002,-0.003409,-8.7e-05,0.003453,-0.50464,-0.00043,0.790082,-264.328339,0.939072,62.127182
5.7063,0.00315,0.005578,-0.000534,-0.003002,-0.003409,-8.7e-05,0.003002,-0.505031,-0.000987,0.845361,-264.329968,0.891537,62.125461
5.7263,0.003351,0.004967,-0.000519,-0.002929,-0.003401,5.6e-05,0.002938,-0.504798,-0.000801,0.845361,-264.329968,0.891537,62.125461
5.7459,0.003069,0.004634,-0.001649,-0.002903,-0.003397,0.0001,0.002995,-0.505137,-0.000521,0.856553,-264.331725,0.841034,62.123736
5.7662,0.003429,0.005064,-0.001514,-0.00281,-0.003382,0.000478,0.002292,-0.50535,-0.001548,0.856553,-264.331725,0.841034,62.123736
5.7863,0.003073,0.005147,-0.000201,-0.002735,-0.003367,0.000747,0.002292,-0.50535,-0.001548,0.856553,-264.331725,0.841034,62.123736
5.806,0.003124,0.005152,-0.000357,-0.002735,-0.003367,0.000747,0.002851,-0.504993,-0.000197,0.854661,-264.333472,0.872429,62.121952
5.8262,0.002896,0.004666,-0.001709,-0.002749,-0.003325,-3e-05,0.002875,-0.504949,-0.000263,0.854661,-264.333472,0.872429,62.121952
5.8471,0.002562,0.004611,-0.001143,-0.002753,-0.003313,-0.00025,0.001948,-0.505428,-0.001688,0.816519,-264.334888,0.947707,62.120285
5.8658,0.002777,0.004451,-0.002276,-0.002627,-0.003317,6.1e-05,0.001972,-0.505398,-0.001197,0.816519,-264.334888,0.947707,62.120285
5.8863,0.002501,0.004706,-0.002341,-0.002528,-0.003319,0.000285,0.001972,-0.505398,-0.001197,0.816519,-264.334888,0.947707,62.120285
5.9063,0.002562,0.004304,-0.001006,-0.002528,-0.003319,0.000285,0.001217,-0.505401,-0.002347,0.891434,-264.336266,0.872792,62.11898
5.926,0.003088,0.004789,-0.001529,-0.002248,-0.003334,0.000984,0.00155,-0.505535,-0.001794,0.891434,-264.336266,0.872792,62.11898
5.9463,0.00252,0.004501,-0.000348,-0.00215,-0.003338,0.001193,0.002234,-0.505307,-0.001521,0.893697,-264.33775,0.944255,62.117395
5.9662,0.002685,0.004491,-3.4e-05,-0.002217,-0.003287,0.000718,0.002329,-0.505487,-0.000452,0.893697,-264.33775,0.944255,62.117395
5.9863,0.002362,0.004221,-0.001847,-0.00227,-0.003251,0.000388,0.002329,-0.505487,-0.000452,0.893697,-264.33775,0.944255,62.117395
6.0062,0.002675,0.004248,0.000428,-0.00227,-0.003251,0.000388,0.00135,-0.505878,-0.001814,0.881476,-264.338734,1.019096,62.116056
6.026,0.00283,0.004618,-0.000802,-0.002264,-0.00317,0.0004,0.001971,-0.505838,-0.000897,0.881476,-264.338734,1.019096,62.116056
6.0462,0.002385,0.00403,-0.000512,-0.00226,-0.003142,0.000406,0.002352,-0.505482,-0.00079,0.925224,-264.340182,0.993727,62.114458
6.0659,0.002386,0.004206,-0.00198,-0.002294,-0.003093,0.000231,0.002141,-0.505931,-0.000536,0.925224,-264.340182,0.993727,62.114458
6.0862,0.002356,0.004175,0.000349,-0.002321,-0.003055,0.000108,0.002141,-0.505931,-0.000536,0.925224,-264.340182,0.993727,62.114458
6.1067,0.002183,0.004142,-0.001205,-0.002321,-0.003055,0.000108,0.00244,-0.505956,0.000366,0.907852,-264.341641,0.982885,62.112839
6.1262,0.002491,0.004168,-0.000738,-0.002337,-0.002998,-0.000316,0.002086,-0.505933,-0.000251,0.907852,-264.341641,0.982885,62.112839
6.146,0.002142,0.003839,-4.8e-05,-0.002342,-0.00298,-0.000436,0.002043,-0.505926,-0.000735,0.910565,-264.343097,0.931369,62.111343
6.1665,0.002162,0.003469,-0.000614,-0.002363,-0.002933,-0.000594,0.002108,-0.506146,-0.000104,0.910565,-264.343097,0.931369,62.111343
6.186,0.002063,0.003846,0.000951,-0.00238,-0.002896,-0.000703,0.002108,-0.506146,-0.000104,0.910565,-264.343097,0.931369,62.111343
6.2063,0.002002,0.003831,-0.00048,-0.00238,-0.002896,-0.000703,0.00246,-0.506266,0.000934,0.945872,-264.344535,0.858855,62.110056
6.226,0.0022,0.003672,0.000413,-0.002433,-0.002806,-0.001279,0.002166,-0.50624,0.000362,0.945872,-264.344535,0.858855,62.110056
6.2461,0.001976,0.003595,-0.000698,-0.00245,-0.002776,-0.001445,0.002338,-0.506416,0.000392,0.949774,-264.346091,0.803425,62.108751
6.2658,0.001545,0.003478,-0.001153,-0.002372,-0.002768,-0.001038,0.001682,-0.506411,-0.0006,0.949774,-264.346091,0.803425,62.108751
6.2858,0.002169,0.003424,-0.002663,-0.00231,-0.002759,-0.000749,0.001682,-0.506411,-0.0006,0.949774,-264.346091,0.803425,62.108751
6.3062,0.001906,0.003522,0.000565,-0.00231,-0.002759,-0.000749,0.000741,-0.506658,-0.002702,0.980649,-264.347326,0.728431,62.107883
6.3264,0.001914,0.003362,2.2e-05,-0.002094,-0.002742,0.00023,0.001321,-0.506595,-0.001385,0.980649,-264.347326,0.728431,62.107883
6.3458,0.001755,0.003018,7e-06,-0.00202,-0.002732,0.00052,0.001856,-0.50672,-0.0,0.948026,-264.34881,0.783578,62.106661
6.3659,0.001664,0.002739,-0.001198,-0.002082,-0.002614,2.6e-05,0.001763,-0.506962,5e-06,0.948026,-264.34881,0.783578,62.106661
6.3865,0.001676,0.003508,-0.000642,-0.002129,-0.002525,-0.00032,0.001763,-0.506962,5e-06,0.948026,-264.34881,0.783578,62.106661
6.4063,0.001765,0.003386,7.4e-05,-0.002129,-0.002525,-0.00032,0.001304,-0.506544,-0.000636,0.874158,-264.349409,0.858589,62.105964
6.4262,0.00163,0.003243,0.000374,-0.002046,-0.002555,-0.000441,0.001502,-0.506578,-0.000347,0.874158,-264.349409,0.858589,62.105964
6.4459,0.001883,0.003149,0.000529,-0.002018,-0.002566,-0.000472,0.001755,-0.506835,0.000364,0.906763,-264.350744,0.830442,62.104745
6.4658,0.002049,0.003098,-0.00043,-0.002146,-0.002487,-0.00094,0.002113,-0.506854,0.000513,0.906763,-264.350744,0.830442,62.104745
6.4861,0.001905,0.003249,0.000745,-0.002245,-0.002427,-0.001269,0.002113,-0.506854,0.000513,0.906763,-264.350744,0.830442,62.104745
6.5059,0.001804,0.003078,-0.000497,-0.002245,-0.002427,-0.001269,0.002204,-0.506854,0.000726,0.955444,-264.352088,0.845788,62.103576
6.526,0.001369,0.002845,-0.00039,-0.002317,-0.002358,-0.001397,0.001928,-0.506894,0.000225,0.955444,-264.352088,0.845788,62.103576
6.5464,0.00155,0.002737,-0.0005,-0.002341,-0.002334,-0.001435,0.001138,-0.507195,-0.000406,0.959339,-264.352849,0.770689,62.103033
6.566,0.001707,0.002917,-0.000815,-0.002225,-0.002291,-0.001087,0.001278,-0.507259,-0.000492,0.959339,-264.352849,0.770689,62.103033
6.5867,0.001919,0.002913,-0.0012,-0.002135,-0.002255,-0.000839,0.001278,-0.507259,-0.000492,0.959339,-264.352849,0.770689,62.103033
6.6062,0.001435,0.003007,0.000129,-0.002135,-0.002255,-0.000839,0.001263,-0.507137,-0.001223,0.940638,-264.353603,0.695582,62.102509
6.6261,0.001571,0.002964,-0.002507,-0.002029,-0.002266,-0.000353,0.001351,-0.507086,-0.000694,0.940638,-264.353603,0.695582,62.102509
6.6461,0.001045,0.002783,0.000301,-0.001993,-0.002268,-0.000211,0.000225,-0.507106,-0.002533,0.913746,-264.354993,0.684692,62.101414
6.6662,0.001537,0.002637,-0.001322,-0.001911,-0.002239,-0.00057,0.001126,-0.507212,9.6e-05,0.913746,-264.354993,0.684692,62.101414
6.686,0.001324,0.002849,-0.000879,-0.001847,-0.002218,-0.000818,0.001126,-0.507212,9.6e-05,0.913746,-264.354993,0.684692,62.101414
6.7062,0.001206,0.002785,-0.00255,-0.001847,-0.002218,-0.000818,0.000813,-0.507217,-0.000889,0.877041,-264.355893,0.76022,62.100569
6.7263,0.001361,0.002569,-0.000633,-0.001424,-0.002269,0.00027,0.000437,-0.507223,-0.001566,0.877041,-264.355893,0.76022,62.100569
6.7461,0.001422,0.002636,-0.000941,-0.001282,-0.002284,0.000598,0.000987,-0.507491,-0.000655,0.951507,-264.357022,0.749413,62.099702
6.7661,0.001241,0.002674,-0.001818,-0.00132,-0.002243,0.000569,0.000943,-0.507378,-0.000917,0.951507,-264.357022,0.749413,62.099702
6.7862,0.001397,0.002456,-0.001822,-0.001348,-0.002212,0.000549,0.000943,-0.507378,-0.000917,0.951507,-264.357022,0.749413,62.099702
6.8068,0.001237,0.002165,-0.001133,-0.001348,-0.002212,0.000549,0.00046,-0.507552,-0.001821,0.981953,-264.357118,0.824411,62.09958
6.8262,0.00158,0.002153,-0.001227,-0.001201,-0.002107,0.001003,0.000537,-0.507663,-0.001552,0.981953,-264.357118,0.824411,62.09958
6.8459,0.001347,0.002694,-0.001222,-0.00115,-0.00207,0.001136,0.000938,-0.507868,-0.001223,0.948008,-264.357424,0.899447,62.099198
6.8659,0.001159,0.002618,-0.000668,-0.001157,-0.002097,0.001081,0.000739,-0.507348,-0.001222,0.948008,-264.357424,0.899447,62.099198
6.8862,0.001418,0.002277,-0.001143,-0.001163,-0.002118,0.001043,0.000739,-0.507348,-0.001222,0.948008,-264.357424,0.899447,62.099198
6.906,0.001519,0.002589,-0.001074,-0.001163,-0.002118,0.001043,0.00082,-0.507744,-0.001133,0.874677,-264.357612,0.974885,62.098884
6.9264,0.001357,0.002306,-0.001217,-0.001261,-0.002044,0.000936,0.00088,-0.507611,-0.001108,0.874677,-264.357612,0.974885,62.098884
6.9462,0.001116,0.002304,-0.002081,-0.001293,-0.002019,0.000903,0.000714,-0.507728,-0.001202,0.905108,-264.358012,1.049404,62.09825
6.9664,0.00086,0.002685,-0.001741,-0.001091,-0.002011,0.001215,0.000109,-0.5077,-0.002006,0.905108,-264.358012,1.049404,62.09825
6.9862,0.001078,0.002376,-0.003165,-0.000935,-0.002003,0.001438,0.000109,-0.5077,-0.002006,0.905108,-264.358012,1.049404,62.09825
7.0064,0.001363,0.002331,-0.000764,-0.000935,-0.002003,0.001438,-0.000586,-0.507697,-0.003131,0.848381,-264.358718,1.104626,62.097211
7.026,0.000831,0.002334,-0.000682,-0.000688,-0.001998,0.001812,3.9e-05,-0.507695,-0.00217,0.848381,-264.358718,1.104626,62.097211
7.0463,0.001214,0.002019,-0.001576,-0.000606,-0.001995,0.001923,0.000461,-0.507708,-0.000653,0.877122,-264.359116,1.179482,62.096387
7.0664,0.000994,0.002384,-0.001637,-0.00068,-0.001917,0.001758,0.000414,-0.507957,-0.00149,0.877122,-264.359116,1.179482,62.096387
7.086,0.001002,0.00227,0.000183,-0.000735,-0.001859,0.001641,0.000414,-0.507957,-0.00149,0.877122,-264.359116,1.179482,62.096387
7.1062,0.001337,0.002266,-0.000477,-0.000735,-0.001859,0.001641,0.001078,-0.507769,0.000221,0.934809,-264.359316,1.254481,62.095755
7.1263,0.001441,0.002232,-0.001338,-0.001125,-0.001784,0.00028,0.001083,-0.507759,-6.1e-05,0.934809,-264.359316,1.254481,62.095755
7.146,0.000856,0.001927,-0.001252,-0.001258,-0.001763,-0.00011,0.000738,-0.507818,-0.001293,0.861514,-264.359703,1.319299,62.094741
7.1661,0.001033,0.002078,-0.000844,-0.001131,-0.001727,0.000197,0.000264,-0.508052,-0.001253,0.861514,-264.359703,1.319299,62.094741
7.1859,0.000848,0.001755,-0.001649,-0.001034,-0.001698,0.000418,0.000264,-0.508052,-0.001253,0.861514,-264.359703,1.319299,62.094741
7.2064,0.00097,0.00246,0.000613,-0.001034,-0.001698,0.000418,4e-06,-0.50825,-0.001648,0.936456,-264.359766,1.244357,62.094681
7.226,0.000915,0.002374,-0.001763,-0.001039,-0.001671,0.000275,0.000522,-0.507963,-0.000732,0.936456,-264.359766,1.244357,62.094681
7.246,0.000884,0.002461,-0.000446,-0.00104,-0.001662,0.000237,-4e-06,-0.507662,-0.001753,0.948849,-264.360235,1.169357,62.094098
7.2658,0.001165,0.001722,-0.000622,0.0,0.0,0.0,0.000595,-0.507552,-0.000564,0.948849,-264.360235,1.169357,62.094098
