mach0312/omni-docking-bench/src/icros_test_setup/results/MPPI_sample/timeseries/trial_068.csv
t,x,y,yaw,vx,vy,wz,bl_x,bl_y,bl_yaw,front_steering_joint,front_wheel_joint,rear_steering_joint,rear_wheel_joint
0.0,-0.009002,-0.021978,0.052372,0.005748,-0.001497,0.004166,0.016884,-0.531143,0.051841,0.180311,-259.899833,-0.61275,68.611997
0.0007,-0.008898,-0.022165,0.052046,0.0,0.0,0.0,0.016884,-0.531143,0.051841,0.180311,-259.897496,-0.61275,68.614808
0.001,-0.008889,-0.021972,0.053721,0.0,0.0,0.0,0.0178,-0.531189,0.053057,0.180311,-259.895847,-0.61275,68.616791
0.0013,-0.009562,-0.021863,0.053564,0.0,0.0,0.0,0.0178,-0.531189,0.053057,0.180311,-259.8954,-0.61275,68.617329
0.0017,-0.008862,-0.021978,0.05265,0.0,0.0,0.0,0.0178,-0.531189,0.053057,0.180311,-259.8954,-0.61275,68.617329
0.002,-0.009142,-0.022032,0.054978,0.0,0.0,0.0,0.018047,-0.531246,0.054018,0.180311,-259.8954,-0.61275,68.617329
0.0024,-0.008866,-0.02185,0.051697,0.0,0.0,0.0,0.018138,-0.531254,0.054114,0.180311,-259.8954,-0.61275,68.617329
0.0027,-0.009143,-0.022252,0.051863,0.0,0.0,0.0,0.018138,-0.531254,0.054114,0.180311,-259.8954,-0.61275,68.617329
0.0029,-0.009278,-0.022182,0.0519,0.0,0.0,0.0,0.01756,-0.531106,0.052826,0.180311,-259.8954,-0.61275,68.617329
0.0032,-0.009315,-0.021769,0.053156,0.0,0.0,0.0,0.01756,-0.531106,0.052826,0.180311,-259.8954,-0.61275,68.617329
0.0184,-0.008806,-0.022071,0.05297,0.0,0.0,0.0,0.017727,-0.531089,0.053042,0.180311,-259.8954,-0.61275,68.617329
0.0388,-0.00933,-0.021761,0.051152,0.0,0.0,0.0,0.017727,-0.531089,0.053042,0.180311,-259.8954,-0.61275,68.617329
0.0586,-0.009097,-0.022084,0.052362,0.0,0.0,0.0,0.016746,-0.531094,0.051152,0.180311,-259.8954,-0.61275,68.617329
0.0786,-0.00928,-0.021771,0.053259,0.0,0.0,0.0,0.017089,-0.531212,0.051641,0.180311,-259.8954,-0.61275,68.617329
0.0984,-0.009008,-0.022065,0.053675,0.0,0.0,0.0,0.01787,-0.531048,0.053259,0.180311,-259.8954,-0.61275,68.617329
0.1185,-0.00873,-0.022462,0.053216,-0.004271,0.005866,-0.010519,0.01831,-0.531305,0.053637,0.180311,-259.8954,-0.61275,68.617329
0.1386,-0.008889,-0.021824,0.053594,-0.004627,0.006399,-0.011321,0.01831,-0.531305,0.053637,0.180311,-259.8954,-0.61275,68.617329
0.1585,-0.009068,-0.021977,0.05282,-0.004923,0.006857,-0.011951,0.01843,-0.531091,0.053594,0.180311,-259.8954,-0.61275,68.617329
0.1794,-0.008938,-0.022047,0.052857,-0.005168,0.007251,-0.012496,0.018198,-0.531162,0.05328,0.180311,-259.8954,-0.61275,68.617329
0.1986,-0.009123,-0.02201,0.052807,-0.005371,0.00759,-0.012921,0.018006,-0.531334,0.052856,0.10527,-259.895402,-0.687791,68.617322
0.2185,-0.008974,-0.021856,0.051788,-0.005527,0.00789,-0.013362,0.017816,-0.531302,0.052812,0.10527,-259.895402,-0.687791,68.617322
0.2387,-0.008927,-0.021784,0.052525,-0.005656,0.008149,-0.013709,0.017816,-0.531302,0.052812,0.10527,-259.895402,-0.687791,68.617322
0.2592,-0.009241,-0.02215,0.053597,-0.005762,0.008372,-0.013983,0.017846,-0.53108,0.052523,0.056119,-259.895415,-0.762747,68.617282
0.2783,-0.008808,-0.021948,0.052055,-0.005853,0.008562,-0.0142,0.017942,-0.531218,0.052965,0.056119,-259.895415,-0.762747,68.617282
0.2982,-0.008898,-0.022099,0.054948,-0.005928,0.008727,-0.01437,0.017722,-0.531253,0.052048,0.029171,-259.895465,-0.83787,68.617129
0.319,-0.008739,-0.021753,0.052878,-0.006008,0.008855,-0.014506,0.018986,-0.531322,0.054687,0.029171,-259.895465,-0.83787,68.617129
0.3383,-0.008991,-0.021782,0.053248,-0.006075,0.008965,-0.014612,0.018986,-0.531322,0.054687,0.029171,-259.895465,-0.83787,68.617129
0.3585,-0.008867,-0.021717,0.051679,-0.00613,0.009061,-0.014697,0.018128,-0.53104,0.053215,0.008434,-259.89562,-0.912754,68.616644
0.3786,-0.009097,-0.021937,0.054826,-0.00616,0.009158,-0.014764,0.017861,-0.531036,0.052587,0.008434,-259.89562,-0.912754,68.616644
0.3985,-0.009527,-0.02176,0.055539,-0.006184,0.009241,-0.014817,0.018804,-0.53113,0.054757,-0.013911,-259.89603,-0.987776,68.61537
0.4183,-0.009411,-0.021736,0.053302,-0.006221,0.009299,-0.01486,0.018782,-0.530985,0.055466,-0.013911,-259.89603,-0.987776,68.61537
0.4383,-0.008999,-0.021563,0.052785,-0.006252,0.009349,-0.014894,0.018782,-0.530985,0.055466,-0.013911,-259.89603,-0.987776,68.61537
0.4586,-0.009108,-0.0215,0.05316,-0.006278,0.009393,-0.014922,0.017791,-0.530736,0.05259,-0.030944,-259.896876,-1.062741,68.61273
0.4786,-0.00889,-0.021848,0.05099,-0.006287,0.009442,-0.014944,0.017859,-0.530741,0.052799,-0.030944,-259.896876,-1.062741,68.61273
0.4982,-0.009625,-0.021764,0.050641,-0.006293,0.009483,-0.014962,0.01696,-0.531023,0.050722,-0.044496,-259.898355,-1.13774,68.60813
0.5183,-0.009042,-0.021759,0.053333,-0.006258,0.009548,-0.015111,0.016251,-0.531094,0.050634,-0.044496,-259.898355,-1.13774,68.60813
0.5384,-0.009162,-0.02119,0.051694,-0.006228,0.009604,-0.015227,0.016251,-0.531094,0.050634,-0.044496,-259.898355,-1.13774,68.60813
0.5584,-0.008755,-0.021078,0.051565,-0.006201,0.009651,-0.015319,0.016945,-0.530195,0.051181,-0.054751,-259.900449,-1.212743,68.601601
0.5783,-0.009228,-0.021092,0.051245,-0.006212,0.009666,-0.015481,0.017156,-0.530243,0.051278,-0.054751,-259.900449,-1.212743,68.601601
0.5986,-0.008965,-0.020773,0.051208,-0.006221,0.00968,-0.015609,0.01669,-0.530135,0.050772,-0.047529,-259.902859,-1.255421,68.59384
0.6187,-0.009002,-0.020562,0.052068,-0.00623,0.009691,-0.015803,0.017089,-0.530092,0.051145,-0.047529,-259.902859,-1.255421,68.59384
0.6382,-0.009471,-0.020478,0.049393,-0.006236,0.0097,-0.015959,0.017089,-0.530092,0.051145,-0.047529,-259.902859,-1.255421,68.59384
0.6587,-0.008902,-0.020149,0.049428,-0.006241,0.009708,-0.016083,0.015432,-0.529468,0.048746,-0.02354,-259.905325,-1.257642,68.585837
0.6787,-0.008509,-0.019922,0.050028,-0.006226,0.009729,-0.016265,0.015753,-0.529447,0.04895,-0.02354,-259.905325,-1.257642,68.585837
0.6987,-0.008787,-0.019818,0.049337,-0.006213,0.009746,-0.016412,0.016787,-0.528993,0.04953,0.018332,-259.907752,-1.261515,68.577865
0.7186,-0.009302,-0.019471,0.049743,-0.006222,0.009745,-0.016604,0.016393,-0.529164,0.049329,0.018332,-259.907752,-1.261515,68.577865
0.7387,-0.009049,-0.019156,0.05075,-0.006229,0.009745,-0.01676,0.016393,-0.529164,0.049329,0.018332,-259.907752,-1.261515,68.577865
0.7584,-0.008895,-0.018982,0.049977,-0.006234,0.009744,-0.016886,0.016545,-0.52811,0.05007,0.04465,-259.910211,-1.266304,68.56967
0.7786,-0.008834,-0.019137,0.049647,-0.00626,0.009726,-0.017054,0.016528,-0.528161,0.049954,0.04465,-259.910211,-1.266304,68.56967
0.7982,-0.008714,-0.018959,0.047684,-0.006282,0.009711,-0.017192,0.016269,-0.528219,0.049128,0.090946,-259.91263,-1.269443,68.561553
0.8184,-0.008853,-0.018728,0.047793,-0.006276,0.009717,-0.01736,0.015646,-0.52835,0.047787,0.090946,-259.91263,-1.269443,68.561553
0.8384,-0.008698,-0.01874,0.048887,-0.006271,0.009722,-0.017497,0.015646,-0.52835,0.047787,0.090946,-259.91263,-1.269443,68.561553
0.8587,-0.00855,-0.01829,0.04644,-0.006266,0.009726,-0.01761,0.015947,-0.527744,0.048179,0.124945,-259.915116,-1.269456,68.553242
0.8788,-0.00858,-0.018306,0.046589,-0.006273,0.009719,-0.017751,0.015582,-0.527698,0.047393,0.124945,-259.915116,-1.269456,68.553242
0.8985,-0.008544,-0.017818,0.04536,-0.006279,0.009714,-0.017868,0.014963,-0.527459,0.04604,0.16286,-259.917608,-1.273907,68.544838
0.919,-0.008715,-0.017754,0.045852,-0.006268,0.009722,-0.018002,0.014603,-0.527293,0.04539,0.16286,-259.917608,-1.273907,68.544838
0.9383,-0.008346,-0.017794,0.046384,-0.006258,0.009728,-0.018113,0.014603,-0.527293,0.04539,0.16286,-259.917608,-1.273907,68.544838
0.9584,-0.008461,-0.01715,0.045497,-0.00625,0.009733,-0.018205,0.015025,-0.526858,0.045648,0.188578,-259.92013,-1.275296,68.53633
0.9783,-0.008504,-0.017371,0.045206,-0.006263,0.009722,-0.018308,0.014873,-0.526715,0.0455,0.188578,-259.92013,-1.275296,68.53633
0.9981,-0.008505,-0.016519,0.045195,-0.006273,0.009712,-0.018394,0.014334,-0.526555,0.044636,0.218169,-259.922658,-1.279581,68.527736
1.0184,-0.008545,-0.016984,0.044879,-0.006287,0.009699,-0.018485,0.01451,-0.52603,0.045121,0.218169,-259.922658,-1.279581,68.527736
1.0386,-0.007997,-0.017018,0.04398,-0.006299,0.009687,-0.018561,0.01451,-0.52603,0.045121,0.218169,-259.922658,-1.279581,68.527736
1.0587,-0.008265,-0.016429,0.044627,-0.006309,0.009678,-0.018623,0.014148,-0.526134,0.043218,0.238028,-259.925218,-1.279819,68.519064
1.0787,-0.008402,-0.016079,0.044686,-0.006312,0.009674,-0.018688,0.014255,-0.526001,0.043707,0.238028,-259.925218,-1.279819,68.519064
1.0986,-0.008108,-0.016095,0.042984,-0.006314,0.009671,-0.018742,0.014168,-0.525274,0.044099,0.262619,-259.927808,-1.279635,68.510349
1.1184,-0.008005,-0.01559,0.042885,-0.006314,0.00967,-0.018795,0.013828,-0.525579,0.043051,0.262619,-259.927808,-1.279635,68.510349
1.1387,-0.008182,-0.015794,0.042318,-0.006314,0.009669,-0.018839,0.013828,-0.525579,0.043051,0.262619,-259.927808,-1.279635,68.510349
1.1585,-0.008127,-0.015144,0.040629,-0.006314,0.009668,-0.018875,0.013113,-0.524945,0.041535,0.274127,-259.930442,-1.28026,68.501499
1.1788,-0.00794,-0.015287,0.041542,-0.006304,0.009673,-0.018912,0.012859,-0.524806,0.041062,0.274127,-259.930442,-1.28026,68.501499
1.1988,-0.007897,-0.014836,0.041117,-0.006296,0.009678,-0.018943,0.013029,-0.524551,0.040948,0.28653,-259.93305,-1.281274,68.492737
1.2187,-0.007524,-0.014737,0.040805,-0.006306,0.009669,-0.018976,0.01305,-0.524403,0.041064,0.28653,-259.93305,-1.281274,68.492737
1.2387,-0.007672,-0.015113,0.041433,-0.006313,0.009661,-0.019003,0.01305,-0.524403,0.041064,0.28653,-259.93305,-1.281274,68.492737
1.2589,-0.00746,-0.014511,0.040628,-0.00632,0.009654,-0.019026,0.013173,-0.524281,0.040641,0.291839,-259.935679,-1.282706,68.483875
1.2786,-0.007533,-0.014037,0.039126,-0.006336,0.00964,-0.01905,0.013174,-0.524158,0.040544,0.291839,-259.935679,-1.282706,68.483875
1.2983,-0.00726,-0.013818,0.038365,-0.006349,0.009628,-0.019071,0.012204,-0.523348,0.038521,0.301513,-259.938325,-1.282028,68.475002
1.3187,-0.007108,-0.013405,0.039943,-0.006353,0.009623,-0.019094,0.012283,-0.523419,0.038348,0.301513,-259.938325,-1.282028,68.475002
1.3383,-0.007298,-0.014001,0.03913,-0.006357,0.009619,-0.019112,0.012283,-0.523419,0.038348,0.301513,-259.938325,-1.282028,68.475002
1.3588,-0.006999,-0.013668,0.037934,-0.00636,0.009615,-0.019128,0.012372,-0.523219,0.038333,0.307935,-259.940986,-1.28078,68.466135
1.3786,-0.007233,-0.013469,0.037251,-0.00637,0.009606,-0.019146,0.012327,-0.523207,0.038079,0.307935,-259.940986,-1.28078,68.466135
1.3983,-0.006897,-0.013056,0.034993,-0.006378,0.009598,-0.01916,0.011546,-0.522816,0.036641,0.31423,-259.943658,-1.28062,68.457253
1.4184,-0.007122,-0.012901,0.036642,-0.006353,0.009616,-0.019176,0.010989,-0.522735,0.035111,0.31423,-259.943658,-1.28062,68.457253
1.4386,-0.007275,-0.012824,0.036371,-0.006331,0.009631,-0.01919,0.010989,-0.522735,0.035111,0.31423,-259.943658,-1.28062,68.457253
1.4586,-0.007161,-0.012201,0.037138,-0.006314,0.009644,-0.019201,0.010988,-0.522094,0.035568,0.318656,-259.946344,-1.279856,68.448361
1.4788,-0.006863,-0.012467,0.037166,-0.006332,0.009626,-0.019213,0.011276,-0.52195,0.036114,0.318656,-259.946344,-1.279856,68.448361
1.4987,-0.006789,-0.011893,0.032899,-0.006348,0.009611,-0.019223,0.011876,-0.521815,0.036556,0.318712,-259.949007,-1.283532,68.439435
1.5189,-0.007019,-0.011595,0.033272,-0.006328,0.009624,-0.019234,0.010138,-0.521619,0.033181,0.318712,-259.949007,-1.283532,68.439435
1.5389,-0.006569,-0.011857,0.035163,-0.006312,0.009635,-0.019243,0.010138,-0.521619,0.033181,0.318712,-259.949007,-1.283532,68.439435
1.5584,-0.00662,-0.011445,0.034492,-0.006298,0.009643,-0.01925,0.011081,-0.521147,0.034356,0.323651,-259.951685,-1.281809,68.430527
1.5787,-0.006798,-0.011412,0.033038,-0.006337,0.009608,-0.019258,0.011003,-0.5211,0.03432,0.323651,-259.951685,-1.281809,68.430527
1.5984,-0.006491,-0.010839,0.032501,-0.00637,0.009578,-0.019265,0.009837,-0.520833,0.032424,0.323822,-259.95434,-1.284582,68.421611
1.6184,-0.006621,-0.010857,0.033365,-0.006378,0.009569,-0.019271,0.010049,-0.520578,0.032464,0.323822,-259.95434,-1.284582,68.421611
1.6389,-0.006741,-0.011298,0.033078,-0.006385,0.009561,-0.019276,0.010049,-0.520578,0.032464,0.323822,-259.95434,-1.284582,68.421611
1.6584,-0.006419,-0.010532,0.033007,-0.006391,0.009554,-0.019281,0.009846,-0.520627,0.03227,0.330802,-259.957031,-1.280765,68.41271
1.679,-0.006457,-0.010603,0.032055,-0.006401,0.009544,-0.019285,0.010043,-0.520431,0.032477,0.330802,-259.957031,-1.280765,68.41271
1.6983,-0.006061,-0.009959,0.031703,-0.006409,0.009535,-0.019289,0.009675,-0.520043,0.03144,0.334589,-259.959734,-1.279674,68.403817
1.7185,-0.006323,-0.010277,0.030346,-0.006443,0.009502,-0.019292,0.010055,-0.519718,0.031648,0.334589,-259.959734,-1.279674,68.403817
1.7386,-0.005835,-0.009883,0.031404,-0.006471,0.009474,-0.019295,0.010055,-0.519718,0.031648,0.334589,-259.959734,-1.279674,68.403817
1.7585,-0.005992,-0.009402,0.031554,-0.006494,0.009452,-0.019297,0.009898,-0.519241,0.030597,0.337034,-259.962455,-1.278721,68.394897
1.7786,-0.005891,-0.009476,0.028153,-0.006531,0.009414,-0.019298,0.009948,-0.519157,0.030895,0.337034,-259.962455,-1.278721,68.394897
1.7987,-0.005594,-0.009649,0.028698,-0.006562,0.009383,-0.019299,0.00825,-0.51898,0.027539,0.345007,-259.965211,-1.274022,68.386029
1.8188,-0.005968,-0.009092,0.028619,-0.006535,0.009404,-0.019301,0.008962,-0.519385,0.028568,0.345007,-259.965211,-1.274022,68.386029
1.8386,-0.005679,-0.008972,0.02813,-0.006513,0.009421,-0.019303,0.008962,-0.519385,0.028568,0.345007,-259.965211,-1.274022,68.386029
1.8584,-0.005814,-0.008666,0.027859,-0.006495,0.009435,-0.019304,0.00838,-0.518385,0.027322,0.351169,-259.967999,-1.270235,68.377186
1.8784,-0.005816,-0.008465,0.027381,-0.00649,0.009431,-0.019303,0.008352,-0.518375,0.027447,0.351169,-259.967999,-1.270235,68.377186
1.8988,-0.005706,-0.007797,0.025772,-0.006486,0.009428,-0.019302,0.007932,-0.517979,0.026766,0.347863,-259.970766,-1.273843,68.368296
1.9188,-0.005389,-0.008149,0.02773,-0.006462,0.009433,-0.019299,0.007468,-0.517643,0.025826,0.347863,-259.970766,-1.273843,68.368296
1.9392,-0.005396,-0.008266,0.027008,-0.006444,0.009436,-0.019296,0.007468,-0.517643,0.025826,0.347863,-259.970766,-1.273843,68.368296
1.9589,-0.005395,-0.007777,0.026428,-0.006428,0.009438,-0.019293,0.008091,-0.517687,0.02619,0.349101,-259.973523,-1.274136,68.359435
1.9791,-0.005169,-0.007812,0.026779,-0.006453,0.009409,-0.019292,0.008056,-0.517611,0.026193,0.349101,-259.973523,-1.274136,68.359435
1.9982,-0.005358,-0.007618,0.023714,-0.006473,0.009385,-0.01929,0.008273,-0.517333,0.026161,0.349881,-259.976259,-1.276674,68.350567
2.0184,-0.005314,-0.007042,0.02584,-0.00642,0.009416,-0.019288,0.006863,-0.517447,0.023903,0.349881,-259.976259,-1.276674,68.350567
2.0389,-0.005271,-0.006798,0.026503,-0.006377,0.009441,-0.019287,0.006863,-0.517447,0.023903,0.349881,-259.976259,-1.276674,68.350567
2.059,-0.00548,-0.007052,0.024333,-0.006341,0.00946,-0.019285,0.007962,-0.516232,0.025693,0.354597,-259.979019,-1.274003,68.341719
2.0794,-0.004871,-0.006721,0.024833,-0.006404,0.009385,-0.019277,0.007513,-0.516458,0.025052,0.354597,-259.979019,-1.274003,68.341719
2.0982,-0.005233,-0.005981,0.024231,-0.006455,0.009323,-0.019271,0.007583,-0.516267,0.024217,0.350447,-259.981717,-1.280656,68.33286
2.1185,-0.004448,-0.006538,0.024494,-0.006503,0.009248,-0.01926,0.007154,-0.515855,0.024198,0.350447,-259.981717,-1.280656,68.33286
2.1383,-0.004859,-0.006182,0.022452,-0.006542,0.009188,-0.019251,0.007154,-0.515855,0.024198,0.350447,-259.981717,-1.280656,68.33286
2.1582,-0.004574,-0.005698,0.021197,-0.006575,0.009138,-0.019243,0.006313,-0.51567,0.021648,0.36232,-259.98447,-1.27382,68.324064
2.1785,-0.005283,-0.005521,0.022484,-0.006546,0.009129,-0.019235,0.00625,-0.515591,0.021371,0.36232,-259.98447,-1.27382,68.324064
2.1984,-0.004281,-0.005263,0.020768,-0.006523,0.009121,-0.019228,0.005968,-0.515107,0.021875,0.378511,-259.987286,-1.265879,68.315348
2.2185,-0.004493,-0.004993,0.021086,-0.006529,0.009071,-0.019216,0.006267,-0.515134,0.020837,0.378511,-259.987286,-1.265879,68.315348
2.2387,-0.004826,-0.005511,0.020316,-0.006534,0.00903,-0.019206,0.006267,-0.515134,0.020837,0.378511,-259.987286,-1.265879,68.315348
2.2592,-0.004119,-0.00514,0.019518,-0.006539,0.008996,-0.019198,0.005253,-0.515029,0.01951,0.3823,-259.990097,-1.267805,68.306607
2.2788,-0.004682,-0.004911,0.021049,-0.00647,0.009005,-0.019188,0.005456,-0.514991,0.01942,0.3823,-259.990097,-1.267805,68.306607
2.2982,-0.004254,-0.004322,0.019082,-0.006416,0.00901,-0.01918,0.005839,-0.514516,0.020438,0.395372,-259.992923,-1.265118,68.297941
2.3197,-0.004559,-0.004166,0.019026,-0.006413,0.008923,-0.01916,0.005499,-0.514241,0.019173,0.395372,-259.992923,-1.265118,68.297941
2.3383,-0.004097,-0.00468,0.020634,-0.00641,0.008852,-0.019144,0.005499,-0.514241,0.019173,0.395372,-259.992923,-1.265118,68.297941
2.3588,-0.004373,-0.004081,0.018861,-0.006409,0.008795,-0.019132,0.006149,-0.5142,0.019831,0.398822,-259.995706,-1.270588,68.289269
2.3789,-0.00452,-0.003899,0.019862,-0.006443,0.00871,-0.01912,0.005751,-0.514072,0.019346,0.398822,-259.995706,-1.270588,68.289269
2.3985,-0.003982,-0.003729,0.018032,-0.006471,0.008642,-0.019111,0.005402,-0.513525,0.019259,0.423604,-259.99849,-1.267496,68.280771
2.4186,-0.004315,-0.003538,0.016248,-0.006454,0.008553,-0.019086,0.00522,-0.513622,0.018111,0.423604,-259.99849,-1.267496,68.280771
2.4385,-0.004049,-0.003297,0.017042,-0.006441,0.00848,-0.019066,0.00522,-0.513622,0.018111,0.423604,-259.99849,-1.267496,68.280771
2.4584,-0.004304,-0.002935,0.015643,-0.006433,0.008422,-0.01905,0.004366,-0.512867,0.016243,0.437944,-260.001337,-1.262422,68.272274
2.4784,-0.003721,-0.002966,0.015682,-0.006275,0.008288,-0.018986,0.004054,-0.512828,0.015909,0.437944,-260.001337,-1.262422,68.272274
2.4986,-0.004059,-0.002698,0.015651,-0.006156,0.00818,-0.018933,0.00407,-0.512641,0.01508,0.463177,-260.004184,-1.260439,68.263935
2.5189,-0.003564,-0.00235,0.016767,-0.006049,0.008055,-0.018875,0.003925,-0.512623,0.015569,0.463177,-260.004184,-1.260439,68.263935
2.5387,-0.003562,-0.002605,0.016518,-0.00597,0.007956,-0.018826,0.003925,-0.512623,0.015569,0.463177,-260.004184,-1.260439,68.263935
2.5589,-0.00355,-0.00193,0.015596,-0.005912,0.007877,-0.018787,0.004605,-0.512206,0.015745,0.502438,-260.006923,-1.26854,68.255872
2.5793,-0.003826,-0.001965,0.01475,-0.005977,0.007648,-0.018744,0.004494,-0.512031,0.015596,0.502438,-260.006923,-1.26854,68.255872
2.5986,-0.003466,-0.00166,0.014423,-0.006032,0.007471,-0.01871,0.003508,-0.511665,0.014162,0.546611,-260.009604,-1.274288,68.248032
2.6193,-0.003481,-0.00158,0.013267,-0.005972,0.007242,-0.018628,0.003845,-0.5116,0.014369,0.546611,-260.009604,-1.274288,68.248032
2.6392,-0.003273,-0.002141,0.01437,-0.005932,0.007064,-0.018562,0.003845,-0.5116,0.014369,0.546611,-260.009604,-1.274288,68.248032
2.6585,-0.003163,-0.001526,0.014115,-0.005906,0.006925,-0.01851,0.003804,-0.511786,0.013603,0.5805,-260.01243,-1.261849,68.240261
2.6787,-0.003014,-0.001201,0.014062,-0.005893,0.006823,-0.018428,0.003869,-0.511624,0.013723,0.5805,-260.01243,-1.261849,68.240261
2.6982,-0.003049,-0.001122,0.012849,-0.005886,0.006743,-0.018364,0.003977,-0.510944,0.013503,0.638099,-260.015222,-1.257499,68.232985
2.719,-0.003114,-0.001093,0.012411,-0.005818,0.006528,-0.01824,0.003536,-0.511058,0.012878,0.638099,-260.015222,-1.257499,68.232985
2.7392,-0.00303,-0.00081,0.011302,-0.00577,0.00636,-0.018143,0.003536,-0.511058,0.012878,0.638099,-260.015222,-1.257499,68.232985
2.7592,-0.002565,-0.000657,0.010535,-0.005739,0.00623,-0.018068,0.002483,-0.510496,0.010529,0.649764,-260.018168,-1.254061,68.225453
2.7783,-0.002808,-0.000892,0.011151,-0.005464,0.005948,-0.01773,0.002578,-0.510515,0.010443,0.649764,-260.018168,-1.254061,68.225453
2.7983,-0.00269,-0.00034,0.012081,-0.005264,0.005729,-0.017475,0.0027,-0.510671,0.010596,0.697054,-260.02106,-1.249912,68.218423
2.8187,-0.002568,-0.000721,0.010216,-0.005315,0.005518,-0.01745,0.003396,-0.510326,0.011926,0.697054,-260.02106,-1.249912,68.218423
2.8387,-0.0026,-0.000441,0.012093,-0.00536,0.005354,-0.017431,0.003396,-0.510326,0.011926,0.697054,-260.02106,-1.249912,68.218423
2.8585,-0.002474,-0.000186,0.009324,-0.005398,0.005226,-0.017418,0.003356,-0.510179,0.0114,0.754064,-260.023793,-1.260253,68.211903
2.8783,-0.002631,0.000259,0.010053,-0.005305,0.00506,-0.017237,0.002895,-0.510147,0.010478,0.754064,-260.023793,-1.260253,68.211903
2.8984,-0.002651,0.000196,0.009454,-0.005239,0.00493,-0.0171,0.002326,-0.509553,0.009509,0.786636,-260.026784,-1.242808,68.205346
2.9185,-0.002062,3.9e-05,0.009958,-0.004968,0.004684,-0.016829,0.002176,-0.509752,0.009431,0.786636,-260.026784,-1.242808,68.205346
2.9386,-0.002222,0.000268,0.008789,-0.00477,0.004491,-0.016628,0.002176,-0.509752,0.009431,0.786636,-260.026784,-1.242808,68.205346
2.9585,-0.002005,6.6e-05,0.008862,-0.004626,0.00434,-0.016481,0.002042,-0.509509,0.008079,0.810951,-260.029803,-1.242344,68.198899
2.9785,-0.001931,0.000638,0.007588,-0.004516,0.004183,-0.016162,0.00221,-0.509651,0.008318,0.810951,-260.029803,-1.242344,68.198899
2.9983,-0.002227,0.000659,0.005504,-0.004436,0.00406,-0.015933,0.001805,-0.509224,0.007118,0.886077,-260.032441,-1.260062,68.193477
3.0184,-0.001993,0.000725,0.008397,-0.003812,0.003831,-0.015057,0.000684,-0.509317,0.005626,0.886077,-260.032441,-1.260062,68.193477
3.0385,-0.002019,0.000501,0.007935,-0.003332,0.003644,-0.014446,0.000684,-0.509317,0.005626,0.886077,-260.032441,-1.260062,68.193477
3.0591,-0.001986,0.000596,0.006855,-0.002966,0.003493,-0.014024,0.001842,-0.509316,0.007273,0.906973,-260.035301,-1.259579,68.187723
3.0785,-0.002053,0.000752,0.006111,-0.003072,0.003403,-0.014099,0.001685,-0.509327,0.007026,0.906973,-260.035301,-1.259579,68.187723
3.0985,-0.001534,0.001032,0.007288,-0.003154,0.003331,-0.014161,0.000995,-0.50916,0.005805,0.981973,-260.036929,-1.329584,68.184282
3.1184,-0.001867,0.000759,0.006551,-0.003319,0.003187,-0.014221,0.002077,-0.508968,0.007146,0.981973,-260.036929,-1.329584,68.184282
3.1391,-0.001764,0.001371,0.005639,-0.003448,0.003075,-0.014267,0.002077,-0.508968,0.007146,0.981973,-260.036929,-1.329584,68.184282
3.1585,-0.001298,0.001045,0.00515,-0.003549,0.002988,-0.014303,0.000985,-0.508489,0.005073,1.035366,-260.039281,-1.313336,68.17957
3.1786,-0.001378,0.00107,0.006476,-0.003278,0.002803,-0.013753,0.001109,-0.508659,0.00504,1.035366,-260.039281,-1.313336,68.17957
3.1986,-0.001099,0.001227,0.006091,-0.003074,0.002656,-0.013366,0.001814,-0.508827,0.006033,1.01766,-260.041908,-1.276855,68.174806
3.2186,-0.00123,0.001199,0.004708,-0.003227,0.002603,-0.013385,0.001984,-0.508764,0.006063,1.01766,-260.041908,-1.276855,68.174806
3.2386,-0.001295,0.001221,0.00486,-0.003345,0.002562,-0.013402,0.001984,-0.508764,0.006063,1.01766,-260.041908,-1.276855,68.174806
3.2589,-0.00136,0.0012,0.005128,-0.003437,0.002529,-0.013416,0.001059,-0.508666,0.00432,1.061772,-260.044342,-1.293982,68.170466
3.2791,-0.001094,0.00142,0.00423,-0.003216,0.002462,-0.012981,0.001124,-0.508705,0.004585,1.061772,-260.044342,-1.293982,68.170466
3.2985,-0.00116,0.00113,0.002178,-0.003048,0.002408,-0.012674,0.000956,-0.508497,0.003813,1.025463,-260.046895,-1.260635,68.166128
3.3185,-0.001162,0.001331,0.003257,-0.002555,0.002422,-0.011503,3.5e-05,-0.508832,0.002304,1.025463,-260.046895,-1.260635,68.166128
3.3389,-0.001346,0.001416,0.003639,-0.002165,0.002421,-0.010689,3.5e-05,-0.508832,0.002304,1.025463,-260.046895,-1.260635,68.166128
3.3583,-0.001001,0.001552,0.002177,-0.001861,0.002412,-0.010127,0.000383,-0.508481,0.003116,1.051481,-260.049309,-1.279003,68.161962
3.3783,-0.000851,0.001677,0.003449,-0.001698,0.002293,-0.009912,0.000258,-0.508456,0.002675,1.051481,-260.049309,-1.279003,68.161962
3.3983,-0.000478,0.001833,0.001473,-0.001572,0.002198,-0.009767,0.000856,-0.508255,0.003173,1.112601,-260.050745,-1.353942,68.158961
3.4189,-0.000931,0.001634,0.001176,-0.001502,0.002054,-0.009148,0.000326,-0.508171,0.001619,1.112601,-260.050745,-1.353942,68.158961
3.4392,-0.00053,0.001618,0.001615,-0.001446,0.001939,-0.008718,0.000326,-0.508171,0.001619,1.112601,-260.050745,-1.353942,68.158961
3.4585,-0.000567,0.001561,0.001866,-0.001402,0.001846,-0.00842,0.000232,-0.508296,0.001234,1.175496,-260.05226,-1.380594,68.155875
3.4786,-0.000193,0.001763,0.002704,-0.001366,0.00182,-0.00812,0.000286,-0.508343,0.001445,1.175496,-260.05226,-1.380594,68.155875
3.4982,-0.000299,0.001856,0.000993,-0.001338,0.001798,-0.007909,0.001141,-0.508176,0.002435,1.168741,-260.05369,-1.372858,68.153028
3.5186,-0.000793,0.001601,-0.000577,-0.001317,0.001732,-0.007581,0.00029,-0.508144,0.00111,1.168741,-260.05369,-1.372858,68.153028
3.5392,-0.00036,0.001772,0.001856,-0.0013,0.00168,-0.007349,0.00029,-0.508144,0.00111,1.168741,-260.05369,-1.372858,68.153028
3.5585,-5.4e-05,0.001946,0.001361,-0.001288,0.001638,-0.007185,0.000531,-0.508152,0.001525,1.155125,-260.055014,-1.37158,68.150326
3.5784,-0.000208,0.001685,0.000478,-0.001381,0.001596,-0.007234,0.000569,-0.508103,0.00142,1.155125,-260.055014,-1.37158,68.150326
3.5984,0.000169,0.002155,0.000418,-0.001452,0.001564,-0.007269,-5e-06,-0.508264,0.000252,1.132788,-260.056215,-1.360244,68.147891
3.6184,7.7e-05,0.001998,0.000676,-0.001424,0.001491,-0.006742,0.000343,-0.507883,0.000389,1.132788,-260.056215,-1.360244,68.147891
3.6386,-0.000147,0.002198,0.000248,-0.001402,0.001432,-0.006366,0.000343,-0.507883,0.000389,1.132788,-260.056215,-1.360244,68.147891
3.6589,2.4e-05,0.002221,0.000488,-0.001386,0.001386,-0.006098,-7.9e-05,-0.507738,-4.9e-05,1.1031,-260.057472,-1.333495,68.145479
3.6785,-0.000315,0.002139,-0.001013,-0.00128,0.001328,-0.005771,5.7e-05,-0.507747,0.000135,1.1031,-260.057472,-1.333495,68.145479
3.6981,1.8e-05,0.001946,-0.000662,-0.001198,0.001281,-0.005536,-0.000873,-0.50782,-0.001191,1.035621,-260.058471,-1.305879,68.143534
3.7185,0.000119,0.002088,-0.000666,-0.001011,0.001331,-0.004961,-0.000369,-0.508032,-0.000716,1.035621,-260.058471,-1.305879,68.143534
3.7383,0.000142,0.00197,0.001394,-0.000863,0.001365,-0.004548,-0.000369,-0.508032,-0.000716,1.035621,-260.058471,-1.305879,68.143534
3.7582,-0.000107,0.001816,0.000455,-0.000748,0.001388,-0.004251,0.000803,-0.507976,0.001164,1.052192,-260.059431,-1.319213,68.141623
3.7784,0.000386,0.002131,-0.000691,-0.000967,0.001396,-0.004828,0.000518,-0.508055,0.000846,1.052192,-260.059431,-1.319213,68.141623
3.7987,-0.000384,0.002057,-0.0008,-0.001134,0.001403,-0.005238,1.2e-05,-0.507829,-0.000814,1.0166,-260.059949,-1.385319,68.140143
3.819,-0.000184,0.002312,-0.001357,-0.000861,0.001419,-0.004695,-0.000721,-0.507931,-0.000808,1.0166,-260.059949,-1.385319,68.140143
3.8387,0.000166,0.002419,-0.001068,-0.000647,0.001428,-0.0043,-0.000721,-0.507931,-0.000808,1.0166,-260.059949,-1.385319,68.140143
3.8588,0.000431,0.002081,-0.000448,-0.000479,0.001431,-0.004013,-0.000424,-0.507525,-0.001276,1.007881,-260.060756,-1.329224,68.138342
3.8786,0.000514,0.002101,-0.001247,-0.000521,0.00135,-0.00373,-0.000177,-0.507677,-0.000967,1.007881,-260.060756,-1.329224,68.138342
3.8987,0.000253,0.002543,5.8e-05,-0.000552,0.001287,-0.003525,-0.000133,-0.50787,-0.001326,1.082849,-260.061038,-1.404192,68.137363
3.9188,0.000586,0.002354,-0.001626,-0.000709,0.001191,-0.003813,0.000246,-0.507491,-6.4e-05,1.082849,-260.061038,-1.404192,68.137363
3.939,0.000305,0.002314,-0.002106,-0.00083,0.001117,-0.004014,0.000246,-0.507491,-6.4e-05,1.082849,-260.061038,-1.404192,68.137363
3.9586,0.000412,0.002116,-0.000949,-0.000924,0.00106,-0.004154,-0.000789,-0.507637,-0.002239,1.007707,-260.061409,-1.411704,68.136105
3.9785,0.000151,0.002648,-0.0014,-0.000779,0.0011,-0.003517,-0.000497,-0.507732,-0.001725,1.007707,-260.061409,-1.411704,68.136105
3.9984,5.7e-05,0.00225,-0.000591,-0.000664,0.001127,-0.003052,-0.000588,-0.507322,-0.001515,1.0118,-260.062017,-1.336701,68.13481
4.0188,0.000488,0.002759,-0.002438,-0.000653,0.001126,-0.003159,-0.000275,-0.507711,-0.000677,1.0118,-260.062017,-1.336701,68.13481
4.0392,0.000908,0.002277,-0.002263,-0.000645,0.001124,-0.003231,-0.000275,-0.507711,-0.000677,1.0118,-260.062017,-1.336701,68.13481
4.0584,0.000723,0.002863,-0.0009,-0.000639,0.001123,-0.003279,-0.000262,-0.507694,-0.002342,0.93684,-260.062259,-1.352472,68.13406
4.0785,8.5e-05,0.002665,-0.001077,-0.000711,0.001068,-0.002849,-5.1e-05,-0.507465,-0.001768,0.93684,-260.062259,-1.352472,68.13406
4.0986,0.000614,0.002886,-0.000428,-0.000764,0.001024,-0.002535,-0.000485,-0.507299,-0.001182,0.942587,-260.062693,-1.369034,68.132788
4.1187,0.000802,0.002608,-0.002211,-0.000907,0.000919,-0.002874,0.000319,-0.507128,-0.000498,0.942587,-260.062693,-1.369034,68.132788
4.1388,0.000476,0.00238,-0.001137,-0.001018,0.000837,-0.003113,0.000319,-0.507128,-0.000498,0.942587,-260.062693,-1.369034,68.132788
4.1587,0.000344,0.002484,-0.002301,-0.001106,0.000773,-0.003281,-0.000108,-0.507614,-0.001152,0.867453,-260.062742,-1.2939,68.132646
4.1791,0.000539,0.00272,-0.002658,-0.000958,0.000838,-0.002886,-0.000417,-0.507571,-0.001645,0.867453,-260.062742,-1.2939,68.132646
4.1983,0.00072,0.002409,-0.001553,-0.000844,0.000885,-0.002597,-0.000845,-0.507257,-0.002745,0.838978,-260.063292,-1.21841,68.131653
4.2188,0.000799,0.002778,-0.000286,-0.000843,0.000918,-0.002377,-0.000143,-0.507559,-0.001664,0.838978,-260.063292,-1.21841,68.131653
4.2388,0.000327,0.002656,-0.002733,-0.000842,0.000942,-0.002218,-0.000143,-0.507559,-0.001664,0.838978,-260.063292,-1.21841,68.131653
4.2591,0.00054,0.002115,-0.001634,-0.00084,0.000959,-0.002101,-0.001091,-0.507316,-0.002811,0.764479,-260.0636,-1.241544,68.13092
4.2786,0.000796,0.002944,-0.002613,-0.000654,0.001002,-0.001766,-0.000771,-0.507543,-0.002344,0.764479,-260.0636,-1.241544,68.13092
4.2989,0.000486,0.002432,-0.002274,-0.000508,0.001031,-0.001521,-0.000538,-0.507052,-0.002618,0.689519,-260.063627,-1.212396,68.130849
4.3184,0.000512,0.00266,-0.001844,-0.000426,0.001039,-0.001353,-0.000661,-0.50752,-0.002305,0.689519,-260.063627,-1.212396,68.130849
4.3385,0.000668,0.002397,-0.002157,-0.000361,0.001044,-0.00123,-0.000661,-0.50752,-0.002305,0.689519,-260.063627,-1.212396,68.130849
4.3586,0.000594,0.002431,-0.000401,-0.00031,0.001047,-0.001141,-0.000432,-0.507602,-0.002157,0.614605,-260.063627,-1.28731,68.130849
4.3784,0.000289,0.003264,-0.002305,-0.000445,0.00104,-0.00142,-0.0001,-0.507588,-0.001447,0.614605,-260.063627,-1.28731,68.130849
4.3982,0.000683,0.00297,-0.001487,-0.000547,0.001035,-0.001618,-0.000886,-0.506735,-0.002305,0.539605,-260.063627,-1.36231,68.130849
4.4185,0.000465,0.002643,-0.002644,-0.000605,0.00092,-0.001715,-0.000137,-0.507007,-0.001549,0.539605,-260.063627,-1.36231,68.130849
4.4386,0.000334,0.002528,-0.000934,-0.00065,0.000831,-0.001781,-0.000137,-0.507007,-0.001549,0.539605,-260.063627,-1.36231,68.130849
4.4587,0.000531,0.002466,-0.002472,-0.000686,0.000762,-0.001825,-0.000142,-0.507471,-0.000934,0.464155,-260.063627,-1.306625,68.130848
4.4784,0.000171,0.002485,-0.004014,-0.000644,0.000813,-0.00185,-0.000381,-0.507496,-0.00156,0.464155,-260.063627,-1.306625,68.130848
4.4988,0.000288,0.002207,-0.000211,-0.000612,0.000851,-0.001866,-0.001895,-0.507489,-0.004065,0.475027,-260.0639,-1.232079,68.13014
4.5191,0.000498,0.003027,-0.002307,-0.000716,0.000934,-0.002351,-8e-06,-0.507765,-0.000561,0.475027,-260.0639,-1.232079,68.13014
4.5389,0.000587,0.002997,-0.00344,-0.000794,0.000998,-0.002696,-8e-06,-0.507765,-0.000561,0.475027,-260.0639,-1.232079,68.13014
4.5585,0.000435,0.002441,-0.001392,-0.000853,0.001047,-0.002942,-0.001192,-0.506966,-0.003515,0.439994,-260.064159,-1.272707,68.129344
4.5783,0.00079,0.002761,-0.002648,-0.000669,0.001013,-0.002264,-0.000822,-0.507202,-0.002662,0.439994,-260.064159,-1.272707,68.129344
4.5982,0.000444,0.002537,-0.002355,-0.000521,0.000981,-0.001764,-0.000569,-0.507227,-0.002673,0.514993,-260.064284,-1.279312,68.129015
4.6183,0.000796,0.002641,-0.002278,-0.000417,0.00099,-0.001482,-0.000741,-0.50744,-0.002385,0.514993,-260.064284,-1.279312,68.129015
4.6385,0.000623,0.002543,-0.002876,-0.000336,0.000995,-0.001275,-0.000741,-0.50744,-0.002385,0.514993,-260.064284,-1.279312,68.129015
4.6583,0.00091,0.002767,-0.001707,-0.000271,0.000997,-0.001122,-0.000848,-0.507448,-0.002889,0.439987,-260.064319,-1.322688,68.128878
4.6785,0.000596,0.002468,-0.002673,-0.000296,0.000969,-0.001,-0.00049,-0.50736,-0.002413,0.439987,-260.064319,-1.322688,68.128878
4.6984,0.000697,0.00237,-0.003601,-0.000314,0.000946,-0.000911,-0.000767,-0.50753,-0.002673,0.36499,-260.064319,-1.397685,68.128878
4.7186,0.000826,0.00266,-0.002475,-0.000163,0.001028,-0.0005,-0.001112,-0.50762,-0.003531,0.36499,-260.064319,-1.397685,68.128878
4.7387,0.000898,0.003036,-0.002674,-4.2e-05,0.001087,-0.000198,-0.001112,-0.50762,-0.003531,0.36499,-260.064319,-1.397685,68.128878
4.7589,0.000755,0.002573,-0.002388,5.4e-05,0.001131,2.2e-05,-0.000466,-0.506962,-0.002674,0.289574,-260.064319,-1.365041,68.128878
4.779,0.000896,0.002828,-0.002133,-4.7e-05,0.001028,-0.000132,-0.000465,-0.507148,-0.002559,0.289574,-260.064319,-1.365041,68.128878
4.7983,0.0007,0.002599,-0.003876,-0.000126,0.000948,-0.000241,-0.000191,-0.507171,-0.002133,0.364154,-260.064319,-1.43962,68.128878
4.8186,0.000744,0.002762,-0.002301,-1e-06,0.00098,4e-05,-0.001179,-0.507377,-0.00372,0.364154,-260.064319,-1.43962,68.128878
4.8386,0.00061,0.002472,-0.001304,9.9e-05,0.001001,0.000247,-0.001179,-0.507377,-0.00372,0.364154,-260.064319,-1.43962,68.128878
4.8584,0.0005,0.002421,-0.002574,0.000178,0.001016,0.000397,-5.5e-05,-0.507528,-0.001304,0.439156,-260.064319,-1.45641,68.128878
4.8787,0.000689,0.002373,-0.000345,1.3e-05,0.001015,-0.000165,-0.000361,-0.507548,-0.001817,0.439156,-260.064319,-1.45641,68.128878
4.8986,0.000593,0.003257,-0.000268,-0.000113,0.001015,-0.000562,0.000513,-0.507627,-0.000345,0.514149,-260.064319,-1.381417,68.128878
4.9184,0.000703,0.002906,-0.00198,-0.000453,0.000873,-0.001595,0.000462,-0.506824,-0.000275,0.514149,-260.064319,-1.381417,68.128878
4.9394,0.000507,0.002668,-0.003936,-0.000713,0.000761,-0.002328,0.000462,-0.506824,-0.000275,0.514149,-260.064319,-1.381417,68.128878
4.9588,0.000571,0.002942,-0.002161,-0.000913,0.000673,-0.002846,-0.0015,-0.507328,-0.003936,0.589151,-260.064319,-1.456419,68.128878
4.9787,0.000585,0.002753,-0.002779,-0.00065,0.000749,-0.002038,-0.001104,-0.507217,-0.003211,0.589151,-260.064319,-1.456419,68.128878
4.9985,0.000548,0.002766,-0.002025,-0.000441,0.000799,-0.001434,-0.000835,-0.507242,-0.002789,0.664289,-260.064381,-1.381282,68.128763
5.0187,0.000526,0.00286,-0.00199,-0.000422,0.000794,-0.001361,-0.00051,-0.507234,-0.002081,0.664289,-260.064381,-1.381282,68.128763
5.0386,0.000556,0.002459,-0.002161,-0.000407,0.000789,-0.001304,-0.00051,-0.507234,-0.002081,0.664289,-260.064381,-1.381282,68.128763
5.0587,0.000483,0.002555,-0.001022,-0.000396,0.000784,-0.001261,-0.000546,-0.50754,-0.002162,0.588899,-260.064384,-1.313552,68.128752
5.0788,0.000262,0.00248,-0.001933,-0.000439,0.000827,-0.001384,-0.000338,-0.507501,-0.001696,0.588899,-260.064384,-1.313552,68.128752
5.0986,0.000596,0.002926,-0.003362,-0.000472,0.00086,-0.001471,-0.000724,-0.507519,-0.001933,0.514365,-260.064384,-1.321498,68.128751
5.119,0.000889,0.002695,-0.002487,-0.000308,0.000858,-0.000997,-0.001083,-0.507111,-0.003234,0.514365,-260.064384,-1.321498,68.128751
5.1384,0.000475,0.002652,-0.002227,-0.000178,0.000852,-0.000649,-0.001083,-0.507111,-0.003234,0.514365,-260.064384,-1.321498,68.128751
5.1585,0.000565,0.002388,-0.001557,-7.3e-05,0.000843,-0.000394,-0.000661,-0.507345,-0.00223,0.439417,-260.064393,-1.308322,68.128718
5.1786,0.000754,0.002706,-0.001516,-0.000146,0.000865,-0.00066,-0.000484,-0.507454,-0.001954,0.439417,-260.064393,-1.308322,68.128718
5.1987,0.000502,0.002832,-0.002254,-0.000201,0.000882,-0.000849,-1.9e-05,-0.507294,-0.001516,0.514504,-260.064393,-1.383408,68.128718
5.2188,0.000683,0.002504,-0.002091,-0.000212,0.000846,-0.00089,-0.000589,-0.507178,-0.002185,0.514504,-260.064393,-1.383408,68.128718
5.2389,0.000511,0.002642,-0.00152,-0.000221,0.000817,-0.000919,-0.000589,-0.507178,-0.002185,0.514504,-260.064393,-1.383408,68.128718
5.2588,0.000533,0.002403,-0.001981,-0.000227,0.000796,-0.000938,-0.000264,-0.507357,-0.00152,0.43959,-260.064393,-1.428109,68.128718
5.2787,0.000462,0.0028,-0.001379,-0.000305,0.000823,-0.001147,-0.00035,-0.507453,-0.001705,0.43959,-260.064393,-1.428109,68.128718
5.2983,0.000453,0.002809,-0.002265,-0.000363,0.000844,-0.001295,-0.000241,-0.507199,-0.001379,0.36457,-260.064393,-1.406269,68.128718
5.3186,0.000834,0.00269,-0.001174,-0.000316,0.000825,-0.001205,-0.000664,-0.507191,-0.002191,0.36457,-260.064393,-1.406269,68.128718
5.3387,0.00043,0.003002,-0.002247,-0.000279,0.000809,-0.00114,-0.000664,-0.507191,-0.002191,0.36457,-260.064393,-1.406269,68.128718
5.3585,0.000497,0.002727,-0.002497,-0.000251,0.000796,-0.001092,-0.000717,-0.506996,-0.002248,0.28943,-260.064395,-1.352243,68.12871
5.3786,0.000632,0.002766,-0.001771,-0.00021,0.000775,-0.000998,-0.000741,-0.507109,-0.00235,0.28943,-260.064395,-1.352243,68.12871
5.3983,0.00072,0.002584,-0.002093,-0.000178,0.000758,-0.00093,-0.000271,-0.507233,-0.001771,0.214573,-260.064395,-1.400891,68.128709
5.4188,0.000394,0.0027,-0.001105,-0.00027,0.000781,-0.000989,-0.000341,-0.507399,-0.002065,0.214573,-260.064395,-1.400891,68.128709
5.4387,0.000588,0.002736,-8.1e-05,-0.00034,0.0008,-0.001032,-0.000341,-0.507399,-0.002065,0.214573,-260.064395,-1.400891,68.128709
5.4587,0.000631,0.002323,-0.00162,-0.000394,0.000816,-0.001063,0.000546,-0.507264,-8.1e-05,0.139497,-260.064395,-1.437572,68.128709
5.4786,0.000807,0.002209,-0.00147,-0.000625,0.000825,-0.001706,0.000244,-0.507432,-0.000709,0.139497,-260.064395,-1.437572,68.128709
5.4987,0.000791,0.003149,-0.001978,-0.000801,0.000834,-0.002163,5.8e-05,-0.50779,-0.00147,0.064491,-260.064396,-1.362566,68.128706
5.5187,0.000764,0.002861,-0.002879,-0.000791,0.000757,-0.001933,-0.000194,-0.506932,-0.001933,0.064491,-260.064396,-1.362566,68.128706
5.5386,0.000793,0.00261,-0.001615,-0.000784,0.000696,-0.001765,-0.000194,-0.506932,-0.001933,0.064491,-260.064396,-1.362566,68.128706
5.5586,0.000342,0.002871,-0.002476,-0.000779,0.000648,-0.001642,-3.1e-05,-0.507388,-0.001616,0.139513,-260.064401,-1.287544,68.128692
5.5789,0.000606,0.002792,-0.002338,-0.000716,0.000682,-0.001536,-0.000398,-0.50728,-0.001971,0.139513,-260.064401,-1.287544,68.128692
5.5989,0.00072,0.002551,-0.002142,-0.000668,0.000707,-0.001459,-0.00059,-0.507202,-0.002347,0.214497,-260.064461,-1.21256,68.128566
5.6187,0.000571,0.00289,-0.001697,-0.000635,0.000756,-0.001329,-0.000392,-0.507425,-0.002161,0.214497,-260.064461,-1.21256,68.128566
5.6391,0.000626,0.002918,-0.00268,-0.000608,0.000792,-0.001236,-0.000392,-0.507425,-0.002161,0.214497,-260.064461,-1.21256,68.128566
5.6587,0.000884,0.002606,-0.002534,-0.000587,0.00082,-0.001168,-0.000767,-0.507052,-0.002737,0.268976,-260.064719,-1.174887,68.127919
5.6791,0.00048,0.002561,-0.002763,-0.000509,0.000808,-0.000943,-0.000621,-0.50719,-0.002659,0.268976,-260.064719,-1.174887,68.127919
5.6986,0.000561,0.002733,-0.000747,-0.000448,0.000797,-0.000779,-0.00093,-0.507436,-0.002764,0.193823,-260.064728,-1.205106,68.127895
5.7187,0.000135,0.003069,-0.00328,-0.000612,0.00078,-0.001394,8.3e-05,-0.507281,-0.000924,0.193823,-260.064728,-1.205106,68.127895
5.7391,0.000479,0.002941,-0.001159,-0.000737,0.000768,-0.001831,8.3e-05,-0.507281,-0.000924,0.193823,-260.064728,-1.205106,68.127895
5.7587,0.000939,0.002667,-0.002808,-0.000833,0.000759,-0.002141,-0.000112,-0.507058,-0.001159,0.118786,-260.064728,-1.232706,68.127895
5.7788,0.000919,0.002843,-0.002349,-0.000797,0.000743,-0.001953,-0.000268,-0.507169,-0.001831,0.118786,-260.064728,-1.232706,68.127895
5.7987,0.000193,0.002747,-0.002829,-0.00077,0.000729,-0.001816,-0.000279,-0.507155,-0.002351,0.1936,-260.064739,-1.187833,68.127871
5.8188,0.000662,0.002474,-0.002647,-0.000515,0.000786,-0.00138,-0.001163,-0.507243,-0.002786,0.1936,-260.064739,-1.187833,68.127871
5.8388,0.000754,0.003033,-0.001667,-0.000313,0.000824,-0.001062,-0.001163,-0.507243,-0.002786,0.1936,-260.064739,-1.187833,68.127871
5.8585,0.00088,0.002804,-0.002808,-0.000154,0.00085,-0.000831,-0.000107,-0.506956,-0.00169,0.26859,-260.064849,-1.173978,68.127615
5.8786,0.000612,0.00286,-0.002793,-0.000269,0.000783,-0.000891,-0.000287,-0.50705,-0.002141,0.26859,-260.064849,-1.173978,68.127615
5.8982,0.000569,0.002926,-0.002803,-0.000356,0.000732,-0.000934,-0.000813,-0.507138,-0.002793,0.193432,-260.064849,-1.249136,68.127615
5.9188,0.000665,0.002842,-0.002132,-0.000268,0.000729,-0.000731,-0.000856,-0.507078,-0.002802,0.193432,-260.064849,-1.249136,68.127615
5.9383,0.000671,0.002723,-0.001755,-0.000198,0.000724,-0.000584,-0.000856,-0.507078,-0.002802,0.193432,-260.064849,-1.249136,68.127615
5.9584,0.000684,0.002641,-0.002557,-0.000144,0.000719,-0.000478,-0.000224,-0.507276,-0.001755,0.11848,-260.064849,-1.303783,68.127614
5.9787,0.000826,0.002753,-0.001967,-0.000231,0.000733,-0.000662,-0.000387,-0.507309,-0.002085,0.11848,-260.064849,-1.303783,68.127614
5.9985,0.00086,0.002475,-0.001818,-0.000297,0.000745,-0.000794,-0.000177,-0.507246,-0.001967,0.043479,-260.064849,-1.378784,68.127614
6.0183,0.000621,0.003034,-0.003438,-0.00045,0.000785,-0.000993,-7.6e-05,-0.507501,-0.00183,0.043479,-260.064849,-1.378784,68.127614
6.0388,0.000691,0.002666,-0.001841,-0.000565,0.000817,-0.001135,-7.6e-05,-0.507501,-0.00183,0.043479,-260.064849,-1.378784,68.127614
6.0586,0.000829,0.0027,-0.001327,-0.000652,0.000843,-0.001235,-0.000249,-0.507333,-0.001841,-0.031548,-260.064849,-1.333573,68.127614
6.0787,0.000332,0.003023,-0.002639,-0.000712,0.000826,-0.001391,-8.5e-05,-0.507319,-0.001631,-0.031548,-260.064849,-1.333573,68.127614
6.0986,0.000429,0.002513,-0.003089,-0.000758,0.000814,-0.001501,-0.001025,-0.506959,-0.002663,-0.106517,-260.065003,-1.258604,68.12721
6.1184,0.000668,0.002721,-0.001077,-0.000506,0.000889,-0.001068,-0.001136,-0.507439,-0.003054,-0.106517,-260.065003,-1.258604,68.12721
6.1389,0.000724,0.00311,-0.003308,-0.000306,0.000943,-0.000752,-0.001136,-0.507439,-0.003054,-0.106517,-260.065003,-1.258604,68.12721
6.1586,0.000763,0.002856,-0.002553,-0.000149,0.000982,-0.000521,-0.000973,-0.506874,-0.003327,-0.03149,-260.065105,-1.183577,68.12696
6.1784,0.001063,0.00251,-0.002283,-0.000125,0.000903,-0.000366,-0.000796,-0.506983,-0.003013,-0.03149,-260.065105,-1.183577,68.12696
6.1989,0.000663,0.002627,-0.00248,-0.000105,0.00084,-0.000254,-0.000101,-0.507489,-0.002283,-0.106445,-260.065105,-1.258532,68.12696
6.2188,0.000565,0.002698,-0.002455,-0.000147,0.00085,-0.000359,-0.000557,-0.507382,-0.002463,-0.106445,-260.065105,-1.258532,68.12696
6.2385,0.000633,0.002539,-0.002007,-0.00018,0.000859,-0.000434,-0.000557,-0.507382,-0.002463,-0.106445,-260.065105,-1.258532,68.12696
6.2584,0.000912,0.002623,-0.0033,-0.000204,0.000866,-0.000488,-0.000391,-0.50746,-0.002007,-0.181362,-260.065105,-1.333448,68.12696
6.2787,0.00067,0.002723,-0.002147,-0.000226,0.00088,-0.000501,-0.000546,-0.507425,-0.002532,-0.181362,-260.065105,-1.333448,68.12696
6.2984,0.00038,0.002923,-0.002226,-0.000243,0.000892,-0.000511,-0.000425,-0.507275,-0.002147,-0.25635,-260.065105,-1.397363,68.12696
6.3191,0.000311,0.002691,-0.001713,-0.000205,0.000845,-0.000636,-0.000725,-0.507094,-0.002219,-0.25635,-260.065105,-1.397363,68.12696
6.339,0.000589,0.002897,-0.002313,-0.000175,0.000808,-0.000725,-0.000725,-0.507094,-0.002219,-0.25635,-260.065105,-1.397363,68.12696
6.3592,0.000423,0.00265,-0.003257,-0.000153,0.000778,-0.000787,-0.000591,-0.507102,-0.002313,-0.331355,-260.065105,-1.371343,68.12696
6.3789,0.000661,0.002841,-0.002062,-0.000104,0.000784,-0.000659,-0.000853,-0.507201,-0.002695,-0.331355,-260.065105,-1.371343,68.12696
6.3985,0.000867,0.002794,-0.001518,-6.5e-05,0.000788,-0.000567,-0.000391,-0.507158,-0.002062,-0.406383,-260.065105,-1.446372,68.12696
6.4189,0.00038,0.003147,-0.001428,-0.000302,0.000754,-0.000949,5.1e-05,-0.507201,-0.001565,-0.406383,-260.065105,-1.446372,68.12696
6.4389,0.000451,0.003167,-0.003732,-0.000483,0.000728,-0.00122,5.1e-05,-0.507201,-0.001565,-0.406383,-260.065105,-1.446372,68.12696
6.4593,0.000715,0.00287,-0.002137,-0.000622,0.00071,-0.001412,-0.001453,-0.50683,-0.003732,-0.481469,-260.065105,-1.513987,68.12696
6.4784,0.000688,0.003072,-0.001305,-0.000442,0.000707,-0.000997,-0.001017,-0.506951,-0.003087,-0.481469,-260.065105,-1.513987,68.12696
6.4987,0.000232,0.00273,-0.00291,-0.0003,0.0007,-0.000692,2.2e-05,-0.506927,-0.001305,-0.406561,-260.065105,-1.439079,68.12696
6.5188,0.001026,0.002412,-0.003741,-0.000147,0.000747,-0.000578,-0.001127,-0.507234,-0.002753,-0.406561,-260.065105,-1.439079,68.12696
6.5386,0.000773,0.002737,-0.003595,-2.7e-05,0.000782,-0.000495,-0.001127,-0.507234,-0.002753,-0.406561,-260.065105,-1.439079,68.12696
6.5588,0.000703,0.002867,-0.002857,6.7e-05,0.000808,-0.000434,-0.001062,-0.507257,-0.003599,-0.481577,-260.065124,-1.364064,68.126906
6.5791,0.000849,0.002792,-0.002221,8.2e-05,0.000814,-0.000215,-0.000938,-0.507206,-0.003301,-0.481577,-260.065124,-1.364064,68.126906
6.5988,0.000591,0.002926,-0.00243,9.6e-05,0.000817,-5.6e-05,-0.000284,-0.507206,-0.002221,-0.556534,-260.065124,-1.439021,68.126906
6.619,0.000807,0.002817,-0.002731,2.5e-05,0.000775,-0.000241,-0.000617,-0.507084,-0.002412,-0.556534,-260.065124,-1.439021,68.126906
6.6389,0.000754,0.003038,-0.001326,-3e-05,0.000743,-0.000373,-0.000617,-0.507084,-0.002412,-0.556534,-260.065124,-1.439021,68.126906
6.6587,0.000851,0.002987,-0.003194,-7.2e-05,0.000718,-0.000467,7.8e-05,-0.506962,-0.001326,-0.631674,-260.065124,-1.514161,68.126906
6.6786,0.000786,0.002502,-0.001534,-0.000205,0.000666,-0.000659,-0.000271,-0.506982,-0.002088,-0.631674,-260.065124,-1.514161,68.126906
6.6985,0.000761,0.002811,-0.00207,-0.000308,0.000626,-0.000795,4e-06,-0.507498,-0.001534,-0.706624,-260.065124,-1.499273,68.126906
6.7186,0.000585,0.002849,-0.003281,-0.00039,0.00064,-0.000917,-0.000269,-0.507215,-0.002022,-0.706624,-260.065124,-1.499273,68.126906
6.7388,0.000948,0.003128,-0.004487,-0.000454,0.000651,-0.001003,-0.000269,-0.507215,-0.002022,-0.706624,-260.065124,-1.499273,68.126906
6.7587,0.00057,0.002867,-0.003208,-0.000503,0.00066,-0.001063,-0.001342,-0.506862,-0.004492,-0.631551,-260.065144,-1.4242,68.126835
6.7787,0.000521,0.002655,-0.002675,-0.000312,0.000691,-0.00051,-0.00123,-0.506971,-0.003969,-0.631551,-260.065144,-1.4242,68.126835
6.7984,0.000597,0.002756,-0.002452,-0.000159,0.000709,-9.9e-05,-0.000843,-0.507344,-0.002675,-0.55662,-260.065145,-1.349269,68.126835
6.8189,0.000654,0.002521,-0.00266,-0.000159,0.000727,-0.000251,-0.00067,-0.507251,-0.002471,-0.55662,-260.065145,-1.349269,68.126835
6.8389,0.000888,0.002716,-0.00369,-0.000159,0.000742,-0.000359,-0.00067,-0.507251,-0.002471,-0.55662,-260.065145,-1.349269,68.126835
6.8584,0.000453,0.002841,-0.001725,-0.000158,0.000753,-0.000436,-0.000994,-0.507281,-0.00369,-0.631662,-260.065145,-1.366495,68.126835
6.8783,0.000916,0.003037,-0.002597,-0.000136,0.000764,-0.000351,-0.000758,-0.50723,-0.002872,-0.631662,-260.065145,-1.366495,68.126835
6.8982,0.000592,0.002444,-0.004045,-0.000119,0.000772,-0.00029,-0.000409,-0.506961,-0.002597,-0.706783,-260.065145,-1.41658,68.126834
6.9184,0.000707,0.002641,-0.002001,4.9e-05,0.000881,5.5e-05,-0.001381,-0.507501,-0.003923,-0.706783,-260.065145,-1.41658,68.126834
6.9388,0.000454,0.002767,-0.001695,0.000184,0.000963,0.000309,-0.001381,-0.507501,-0.003923,-0.706783,-260.065145,-1.41658,68.126834
6.9589,0.000562,0.002919,-0.00251,0.000292,0.001024,0.000494,-0.00041,-0.507232,-0.001695,-0.78169,-260.065145,-1.446528,68.126834
6.9788,0.000816,0.002617,-0.003123,0.000155,0.000949,-9e-06,-0.000537,-0.507169,-0.002031,-0.78169,-260.065145,-1.446528,68.126834
6.9986,0.000815,0.002738,-0.002943,5.1e-05,0.000891,-0.000364,-0.000776,-0.50738,-0.003123,-0.706619,-260.065145,-1.371457,68.126834
7.0189,0.000608,0.00303,-0.002085,1e-05,0.000877,-0.000276,-0.000693,-0.50727,-0.002958,-0.706619,-260.065145,-1.371457,68.126834
7.0385,0.000794,0.003038,-0.00265,-2e-05,0.000865,-0.000211,-0.000693,-0.50727,-0.002958,-0.706619,-260.065145,-1.371457,68.126834
7.0586,0.000602,0.002755,-0.002227,-4.3e-05,0.000856,-0.000164,-0.000557,-0.50696,-0.00265,-0.781522,-260.065145,-1.446361,68.126834
7.0785,0.000474,0.00299,-0.002269,-9.9e-05,0.000803,-0.000297,-0.000548,-0.507075,-0.002478,-0.781522,-260.065145,-1.446361,68.126834
7.0983,0.00047,0.002436,-0.003238,-0.000144,0.000762,-0.00039,-0.000683,-0.507009,-0.002269,-0.856392,-260.065145,-1.52123,68.126834
7.1186,0.000763,0.002855,-0.003013,-1.5e-05,0.000855,-0.000232,-0.001138,-0.507513,-0.003154,-0.856392,-260.065145,-1.52123,68.126834
7.1386,0.000466,0.002635,-0.001969,8.6e-05,0.000926,-0.000117,-0.001138,-0.507513,-0.003154,-0.856392,-260.065145,-1.52123,68.126834
7.1585,0.000225,0.002724,-0.003339,0.000166,0.000979,-3.4e-05,-0.000539,-0.507363,-0.00197,-0.931505,-260.065152,-1.446117,68.126821
7.1787,0.00061,0.003018,-0.001999,0.000171,0.000965,-0.000186,-0.000919,-0.507327,-0.002525,-0.931505,-260.065152,-1.446117,68.126821
7.1986,0.000588,0.002913,-0.001908,0.000176,0.000954,-0.000295,-0.00041,-0.506981,-0.001999,-1.006395,-260.065152,-1.521006,68.126821
7.219,0.000733,0.003056,-0.002733,2.4e-05,0.000872,-0.00061,-0.000387,-0.507076,-0.001916,-1.006395,-260.065152,-1.521006,68.126821
7.2389,0.000567,0.002846,-0.002068,-9.2e-05,0.000808,-0.000832,-0.000387,-0.507076,-0.001916,-1.006395,-260.065152,-1.521006,68.126821
7.2589,0.00076,0.002709,-0.00246,-0.000183,0.00076,-0.000989,-0.000488,-0.507153,-0.002068,-0.931401,-260.065152,-1.596,68.126821
7.2787,0.000646,0.002775,-0.002401,-0.000224,0.000752,-0.000976,-0.00049,-0.507208,-0.002226,-0.931401,-260.065152,-1.596,68.126821
7.2985,0.00084,0.002835,-0.001267,-0.000256,0.000747,-0.000966,-0.00058,-0.507217,-0.00241,-0.856393,-260.06518,-1.520992,68.12666
7.3185,0.000681,0.002734,-0.001013,-0.000468,0.000717,-0.001321,0.000124,-0.507169,-0.001371,-0.856393,-260.06518,-1.520992,68.12666
7.339,0.000613,0.002856,-0.002493,-0.000631,0.000694,-0.001572,0.000124,-0.507169,-0.001371,-0.856393,-260.06518,-1.520992,68.12666
7.3585,0.000581,0.002775,-0.002452,-0.000757,0.000678,-0.00175,-0.00066,-0.507137,-0.002499,-0.78137,-260.065199,-1.445969,68.126573
7.3786,0.000684,0.002714,-0.003015,-0.000625,0.0007,-0.001432,-0.000664,-0.507171,-0.002481,-0.78137,-260.065199,-1.445969,68.126573
7.3985,0.000766,0.002659,-0.002313,-0.000523,0.000714,-0.0012,-0.000854,-0.507284,-0.003015,-0.706362,-260.065199,-1.370961,68.126573
7.4188,0.000369,0.002825,-0.004008,-0.000504,0.000744,-0.001068,-0.000451,-0.507335,-0.002373,-0.706362,-260.065199,-1.370961,68.126573
7.4386,0.00101,0.002777,-0.001838,-0.000489,0.000766,-0.000972,-0.000451,-0.507335,-0.002373,-0.706362,-260.065199,-1.370961,68.126573
7.4585,0.000473,0.002825,-0.004037,-0.000477,0.000783,-0.000903,7.3e-05,-0.507222,-0.001838,-0.631225,-260.065199,-1.295824,68.126573
7.4785,0.000647,0.002689,-0.002891,-0.000425,0.000779,-0.000725,-0.000612,-0.507201,-0.002745,-0.631225,-260.065199,-1.295824,68.126573
7.4984,0.000661,0.00258,-0.002867,-0.000384,0.000775,-0.000596,-0.000835,-0.507294,-0.002906,-0.556281,-260.065316,-1.227709,68.126261
7.5187,0.00026,0.002724,-0.001659,-0.000295,0.000822,-0.000461,-0.000805,-0.507406,-0.002872,-0.556281,-260.065316,-1.227709,68.126261
7.5385,0.000971,0.003149,-0.00193,-0.000226,0.000858,-0.000365,-0.000805,-0.507406,-0.002872,-0.556281,-260.065316,-1.227709,68.126261
7.5586,0.000745,0.002417,-0.002788,-0.000172,0.000885,-0.000296,-1.9e-05,-0.506841,-0.001939,-0.6312,-260.065389,-1.245821,68.126105
7.5786,0.000786,0.002772,-0.00286,-0.000279,0.000826,-0.000457,-0.000285,-0.507138,-0.002282,-0.6312,-260.065389,-1.245821,68.126105
7.5986,0.000466,0.002696,-0.00203,-0.000362,0.000781,-0.000571,-0.000672,-0.507226,-0.00286,-0.706275,-260.065389,-1.320896,68.126105
7.6196,0.0008,0.002774,-0.002274,-0.000337,0.00079,-0.000722,-0.000578,-0.507296,-0.002105,-0.706275,-260.065389,-1.320896,68.126105
7.6392,0.000525,0.002958,-0.00104,-0.000318,0.000796,-0.000828,-0.000578,-0.507296,-0.002105,-0.706275,-260.065389,-1.320896,68.126105
7.659,0.000413,0.002965,-0.003183,-0.000304,0.000801,-0.000903,-1.5e-05,-0.507023,-0.001055,-0.781163,-260.065524,-1.261128,68.12582
7.6789,0.000926,0.00291,-0.002583,-0.000315,0.00075,-0.001027,-0.000507,-0.507025,-0.001931,-0.781163,-260.065524,-1.261128,68.12582
7.6984,0.000375,0.002673,-0.002415,-0.000324,0.000711,-0.001114,-0.000399,-0.507069,-0.002605,-0.706018,-260.065645,-1.336273,68.125395
7.7185,0.001022,0.002877,-0.002378,-0.000244,0.00075,-0.000984,-0.000818,-0.507302,-0.002432,-0.706018,-260.065645,-1.336273,68.125395
7.7388,0.000721,0.002859,-0.004143,-0.000181,0.00078,-0.00089,-0.000818,-0.507302,-0.002432,-0.706018,-260.065645,-1.336273,68.125395
7.7582,0.000515,0.002972,-0.001818,-0.000132,0.000802,-0.000823,-0.001391,-0.507137,-0.004143,-0.631015,-260.065645,-1.341876,68.125394
7.7785,0.000704,0.00295,-0.003517,-6e-05,0.000794,-0.000525,-0.000996,-0.507093,-0.003204,-0.631015,-260.065645,-1.341876,68.125394
7.7982,0.00062,0.002926,-0.003075,-2e-06,0.000786,-0.000308,-0.00109,-0.507046,-0.003518,-0.705874,-260.065646,-1.416736,68.12539
7.8186,0.000752,0.003142,-0.003535,3.6e-05,0.000772,-0.000181,-0.00096,-0.50707,-0.003113,-0.705874,-260.065646,-1.416736,68.12539
7.8387,0.000466,0.002905,-0.002529,6.7e-05,0.000759,-8.9e-05,-0.00096,-0.50707,-0.003113,-0.705874,-260.065646,-1.416736,68.12539
7.8584,0.000627,0.003068,-0.00249,9.1e-05,0.000749,-2.3e-05,-0.000823,-0.507094,-0.002529,-0.781006,-260.065646,-1.491868,68.12539
7.8785,0.000833,0.002947,-0.002172,5.8e-05,0.000718,-0.00018,-0.00075,-0.507027,-0.002513,-0.781006,-260.065646,-1.491868,68.12539
7.8981,0.000513,0.002654,-0.003174,3.2e-05,0.000694,-0.000292,-0.000274,-0.507052,-0.002172,-0.85598,-260.065646,-1.566842,68.12539
7.9183,0.000303,0.003002,-0.001907,8.9e-05,0.000751,-0.000178,-0.001035,-0.507318,-0.003088,-0.85598,-260.065646,-1.566842,68.12539
7.9384,0.000525,0.003059,-0.003703,0.000135,0.000795,-9.6e-05,-0.001035,-0.507318,-0.003088,-0.85598,-260.065646,-1.566842,68.12539
7.9585,0.001015,0.002964,-0.003753,0.000171,0.000828,-3.8e-05,-0.001363,-0.506937,-0.003703,-0.930994,-260.065646,-1.607854,68.12539
7.9788,0.000742,0.003111,-0.00148,0.000216,0.000803,0.000189,-0.001171,-0.506977,-0.003723,-0.930994,-260.065646,-1.607854,68.12539
7.9986,0.000898,0.003099,-0.001505,0.000253,0.000782,0.000354,-1.2e-05,-0.506888,-0.00148,-0.855937,-260.065646,-1.532797,68.12539
8.0184,0.000779,0.002894,-0.003045,-7e-05,0.000695,-0.000341,0.000118,-0.506899,-0.001502,-0.855937,-260.065646,-1.532797,68.12539
8.0387,0.000337,0.003062,-0.002922,-0.000318,0.000627,-0.000832,0.000118,-0.506899,-0.001502,-0.855937,-260.065646,-1.532797,68.12539
8.0584,0.00053,0.002982,-0.002394,-0.00051,0.000575,-0.001178,-0.001153,-0.506936,-0.002922,-0.781,-260.065646,-1.45786,68.12539
8.0785,0.000708,0.003051,-0.002802,-0.000357,0.000595,-0.000953,-0.000965,-0.506969,-0.002707,-0.781,-260.065646,-1.45786,68.12539
8.0982,0.000932,0.003077,-0.00193,-0.000239,0.000607,-0.000788,-0.000721,-0.506947,-0.002802,-0.706012,-260.065646,-1.382872,68.12539
8.119,0.000454,0.002758,-0.003297,-0.000384,0.000566,-0.000925,-0.00011,-0.506924,-0.002005,-0.706012,-260.065646,-1.382872,68.12539
8.1387,0.00064,0.003039,-0.00276,-0.000496,0.000535,-0.001021,-0.00011,-0.506924,-0.002005,-0.706012,-260.065646,-1.382872,68.12539
8.159,0.000704,0.002886,-0.004956,-0.000583,0.000511,-0.001088,-0.000772,-0.506947,-0.002775,-0.630985,-260.065695,-1.354335,68.12519
8.1794,0.00064,0.003098,-0.002062,-0.000375,0.000576,-0.000603,-0.0012,-0.507011,-0.003664,-0.630985,-260.065695,-1.354335,68.12519
8.1987,0.000321,0.003238,-0.003929,-0.00021,0.000621,-0.000245,-0.000411,-0.506901,-0.002062,-0.555978,-260.065695,-1.279329,68.12519
8.2186,0.000775,0.003096,-0.00342,-9e-06,0.000636,4e-05,-0.001572,-0.50677,-0.003767,-0.555978,-260.065695,-1.279329,68.12519
8.2387,0.00069,0.002735,-0.001952,0.000153,0.000644,0.000249,-0.001572,-0.50677,-0.003767,-0.555978,-260.065695,-1.279329,68.12519
8.2585,0.000375,0.00321,-0.001799,0.000282,0.000647,0.000403,-0.000306,-0.507264,-0.001952,-0.630977,-260.065695,-1.304687,68.125189
8.2788,0.000741,0.003026,-0.003302,9.8e-05,0.000629,-0.000134,-0.000404,-0.507067,-0.001889,-0.630977,-260.065695,-1.304687,68.125189
8.2985,0.00104,0.002787,-0.002867,-4.2e-05,0.000615,-0.000513,-0.000943,-0.506971,-0.003302,-0.556002,-260.065695,-1.229712,68.125189
8.3187,0.000658,0.00271,-0.001802,-0.000136,0.000633,-0.000403,-0.000466,-0.507191,-0.002904,-0.556002,-260.065695,-1.229712,68.125189
8.3386,0.001049,0.002748,-0.003143,-0.000208,0.000648,-0.000323,-0.000466,-0.507191,-0.002904,-0.556002,-260.065695,-1.229712,68.125189
8.3584,0.000994,0.003102,-0.000487,-0.000261,0.00066,-0.000265,-0.000554,-0.507249,-0.003143,-0.631042,-260.065695,-1.304752,68.125189
8.3787,0.000698,0.002879,-0.003305,-0.000429,0.000638,-0.00053,-2.9e-05,-0.507107,-0.002069,-0.631042,-260.065695,-1.304752,68.125189
8.3981,0.000402,0.002881,-0.003011,-0.000558,0.000621,-0.000717,-0.000988,-0.507117,-0.003306,-0.705886,-260.065702,-1.263208,68.125178
8.4187,0.000721,0.002752,-0.002752,-0.000358,0.000667,-0.000511,-0.001121,-0.507117,-0.003036,-0.705886,-260.065702,-1.263208,68.125178
8.4384,0.000681,0.002912,-0.002063,-0.0002,0.0007,-0.000359,-0.001121,-0.507117,-0.003036,-0.705886,-260.065702,-1.263208,68.125178
8.4588,0.000693,0.002714,-0.000789,-7.7e-05,0.000723,-0.000249,-0.000371,-0.507086,-0.002064,-0.630788,-260.065714,-1.18811,68.125155
8.4787,0.000354,0.002972,-0.003137,-0.000268,0.0007,-0.000739,-0.000102,-0.507167,-0.001545,-0.630788,-260.065714,-1.18811,68.125155
8.4989,0.000643,0.002775,-0.003143,-0.000414,0.000683,-0.001085,-0.001246,-0.507026,-0.003137,-0.7057,-260.065714,-1.263022,68.125154
8.5187,0.000728,0.003044,-0.002656,-0.000281,0.000725,-0.000742,-0.000984,-0.507206,-0.003143,-0.7057,-260.065714,-1.263022,68.125154
8.5392,0.000541,0.002998,-0.001374,-0.000177,0.000755,-0.000491,-0.000984,-0.507206,-0.003143,-0.7057,-260.065714,-1.263022,68.125154
8.559,0.000793,0.00285,-0.001608,-9.4e-05,0.000776,-0.000308,-0.00016,-0.507001,-0.001374,-0.630506,-260.065714,-1.272529,68.125154
8.5788,0.000427,0.003045,-0.002572,-0.000276,0.000722,-0.000817,-0.000108,-0.50706,-0.001467,-0.630506,-260.065714,-1.272529,68.125154
8.5988,0.000842,0.002893,-0.003347,-0.000415,0.000681,-0.001176,-0.000885,-0.506953,-0.002572,-0.705327,-260.065714,-1.347349,68.125154
8.6189,0.000682,0.00277,-0.003688,-0.000318,0.000697,-0.000769,-0.000867,-0.50709,-0.003277,-0.705327,-260.065714,-1.347349,68.125154
8.6386,0.000606,0.003168,-0.002086,-0.000241,0.000706,-0.000471,-0.000867,-0.50709,-0.003277,-0.705327,-260.065714,-1.347349,68.125154
8.6586,0.000735,0.002748,-0.003162,-0.000179,0.000711,-0.000253,-0.000458,-0.506831,-0.002086,-0.630345,-260.065714,-1.282662,68.125154
8.6788,0.000902,0.003317,-0.003365,-0.000188,0.000681,-0.00034,-0.000633,-0.507005,-0.002533,-0.630345,-260.065714,-1.282662,68.125154
8.6987,0.000423,0.003174,-0.001051,-0.000194,0.000657,-0.000401,-0.000814,-0.50668,-0.003365,-0.705556,-260.065714,-1.357874,68.125154
8.7188,0.000661,0.003093,-0.000644,-0.00033,0.000589,-0.000975,-0.000177,-0.506812,-0.001263,-0.705556,-260.065714,-1.357874,68.125154
8.7387,0.000299,0.003562,-0.001536,-0.000434,0.000536,-0.001381,-0.000177,-0.506812,-0.001263,-0.705556,-260.065714,-1.357874,68.125154
8.7586,0.000582,0.00284,-0.002034,-0.000515,0.000494,-0.001666,-0.000484,-0.506437,-0.001537,-0.780439,-260.065724,-1.358627,68.125135
8.7786,0.000607,0.003059,-0.003144,-0.000495,0.00046,-0.001657,-0.000473,-0.506731,-0.00174,-0.780439,-260.065724,-1.358627,68.125135
8.7986,0.000374,0.003075,-0.002268,-0.000481,0.000433,-0.001648,-0.000997,-0.506939,-0.003144,-0.705507,-260.065724,-1.283695,68.125135
8.819,0.00036,0.002905,-0.002883,-0.000383,0.000463,-0.001406,-0.000801,-0.506925,-0.002342,-0.705507,-260.065724,-1.283695,68.125135
8.8386,0.000722,0.002754,-0.0035,-0.000306,0.000485,-0.001231,-0.000801,-0.506925,-0.002342,-0.705507,-260.065724,-1.283695,68.125135
8.8588,0.000483,0.00301,-0.003197,-0.000246,0.0005,-0.001105,-0.001063,-0.507243,-0.0035,-0.630403,-260.065724,-1.248522,68.125135
8.8788,0.000671,0.0032,-0.001736,-0.000132,0.000575,-0.000685,-0.001098,-0.507137,-0.003375,-0.630403,-260.065724,-1.248522,68.125135
8.8985,0.000747,0.003009,-0.001699,-3.9e-05,0.00063,-0.000379,-0.000215,-0.506799,-0.001736,-0.555398,-260.065724,-1.323527,68.125135
8.9188,0.000628,0.002932,-0.00196,-0.00023,0.00059,-0.000759,-0.000128,-0.506975,-0.001702,-0.555398,-260.065724,-1.323527,68.125135
8.939,0.000715,0.002632,-0.002741,-0.000376,0.00056,-0.001029,-0.000128,-0.506975,-0.001702,-0.555398,-260.065724,-1.323527,68.125135
8.9585,0.000238,0.003248,-0.002865,-0.000488,0.000538,-0.001219,-0.000684,-0.507366,-0.002741,-0.630501,-260.065724,-1.39863,68.125135
8.9788,0.000354,0.002716,-0.00146,-0.000359,0.000587,-0.000946,-0.000907,-0.507111,-0.002793,-0.630501,-260.065724,-1.39863,68.125135
8.9986,0.000433,0.003265,-0.002465,-0.000258,0.000622,-0.000748,-0.000391,-0.507283,-0.00146,-0.555591,-260.065724,-1.32372,68.125135
9.0183,0.000988,0.002617,-0.003175,-0.000211,0.00058,-0.000742,-0.000795,-0.506769,-0.002398,-0.555591,-260.065724,-1.32372,68.125135
9.0388,0.000342,0.002807,-0.003536,-0.000175,0.000546,-0.000737,-0.000795,-0.506769,-0.002398,-0.555591,-260.065724,-1.32372,68.125135
9.0587,0.000461,0.002971,-0.003451,-0.000147,0.000518,-0.000732,-0.001472,-0.507164,-0.003567,-0.570785,-260.065844,-1.336412,68.124697
9.0785,0.000942,0.003055,-0.002025,2e-05,0.000601,-0.000375,-0.001402,-0.507104,-0.003523,-0.570785,-260.065844,-1.336412,68.124697
9.0982,0.000524,0.002853,-0.002576,0.000153,0.000662,-0.000115,-9.4e-05,-0.506932,-0.002042,-0.496356,-260.065891,-1.410842,68.124419
9.1187,0.000581,0.00294,-0.00362,9.4e-05,0.000665,-0.000241,-0.000727,-0.507125,-0.002529,-0.496356,-260.065891,-1.410842,68.124419
9.1382,0.000809,0.003136,-0.001768,5e-05,0.000668,-0.000332,-0.000727,-0.507125,-0.002529,-0.496356,-260.065891,-1.410842,68.124419
9.1582,0.00042,0.002861,-0.002743,1.6e-05,0.000671,-0.000396,-9.3e-05,-0.506863,-0.001768,-0.421491,-260.065891,-1.335977,68.124419
9.1788,0.000493,0.002888,-0.000526,-8.5e-05,0.000633,-0.000578,-0.000458,-0.506976,-0.00217,-0.421491,-260.065891,-1.335977,68.124419
9.1981,0.000807,0.003417,-0.001207,-0.000164,0.000604,-0.000706,0.000225,-0.507112,-0.000526,-0.496598,-260.065891,-1.411083,68.124419
9.2184,0.000724,0.00327,-0.001272,-0.000411,0.000509,-0.001249,0.000194,-0.506628,-0.001148,-0.496598,-260.065891,-1.411083,68.124419
9.2391,0.00087,0.003063,-0.002124,-0.000601,0.000436,-0.001633,0.000194,-0.506628,-0.001148,-0.496598,-260.065891,-1.411083,68.124419
9.2586,0.000601,0.003007,-0.003148,-0.000748,0.000379,-0.001904,-0.000215,-0.506931,-0.002131,-0.57162,-260.06591,-1.413773,68.124336
9.2784,0.000755,0.003037,-0.001737,-0.000666,0.000418,-0.00153,-0.000525,-0.506954,-0.002531,-0.57162,-260.06591,-1.413773,68.124336
9.2984,0.000277,0.003046,-0.004227,-0.000602,0.000446,-0.001258,-0.000131,-0.506963,-0.001737,-0.496597,-260.06591,-1.338749,68.124336
9.3185,0.000848,0.003195,-0.001743,-0.000293,0.000553,-0.000658,-0.001721,-0.506951,-0.004002,-0.496597,-260.06591,-1.338749,68.124336
9.3383,0.00069,0.002867,-0.003116,-4.5e-05,0.00063,-0.00021,-0.001721,-0.506951,-0.004002,-0.496597,-260.06591,-1.338749,68.124336
9.36,0.000898,0.002805,-0.001582,0.000155,0.000684,0.000122,-0.000899,-0.50713,-0.003116,-0.421618,-260.06591,-1.26377,68.124336
9.3787,0.000794,0.003227,-0.002805,3.1e-05,0.000678,-8.2e-05,-0.000513,-0.507155,-0.002518,-0.421618,-260.06591,-1.26377,68.124336
9.3987,0.000129,0.002976,-0.003247,-6.3e-05,0.000675,-0.000226,-0.000636,-0.506771,-0.002805,-0.34676,-260.06591,-1.188913,68.124336
9.4186,0.000474,0.00317,-0.002335,0.000102,0.000703,-0.000106,-0.001452,-0.507001,-0.00321,-0.34676,-260.06591,-1.188913,68.124336
9.4389,0.000781,0.003374,-0.003185,0.000233,0.000722,-1.8e-05,-0.001452,-0.507001,-0.00321,-0.34676,-260.06591,-1.188913,68.124336
9.4586,0.000867,0.003057,-0.002049,0.000336,0.000736,4.7e-05,-0.000844,-0.506624,-0.003185,-0.421942,-260.06591,-1.264095,68.124336
9.4787,0.000674,0.003002,-0.00252,0.00019,0.00065,-6.5e-05,-0.00057,-0.506755,-0.002718,-0.421942,-260.06591,-1.264095,68.124336
9.4987,0.000873,0.003029,-0.002395,7.7e-05,0.000583,-0.000145,-0.000611,-0.506996,-0.00252,-0.346972,-260.06591,-1.189124,68.124336
9.5185,0.001057,0.002559,-0.002281,-6.5e-05,0.000561,-0.000312,-0.000372,-0.506972,-0.002406,-0.346972,-260.06591,-1.189124,68.124336
9.539,0.000622,0.003209,-0.000502,-0.000174,0.000544,-0.000431,-0.000372,-0.506972,-0.002406,-0.346972,-260.06591,-1.189124,68.124336
9.5584,0.000656,0.002892,-0.004536,-0.000258,0.000532,-0.000516,0.000366,-0.506791,-0.000502,-0.421929,-260.06591,-1.264082,68.124336
9.5786,0.000938,0.00279,-0.002781,-0.0003,0.000516,-0.000684,-0.000447,-0.506917,-0.002123,-0.421929,-260.06591,-1.264082,68.124336
9.5982,0.000455,0.00313,-0.003276,-0.000333,0.000504,-0.000802,-0.000483,-0.507203,-0.002786,-0.496829,-260.065949,-1.274695,68.124234
9.6187,0.000731,0.002969,-0.00215,-0.000185,0.000536,-0.000509,-0.001157,-0.506894,-0.003237,-0.496829,-260.065949,-1.274695,68.124234
9.6385,0.000977,0.003118,-0.003122,-6.7e-05,0.000558,-0.000296,-0.001157,-0.506894,-0.003237,-0.496829,-260.065949,-1.274695,68.124234
9.6582,0.000772,0.003033,-0.002272,2.6e-05,0.000573,-0.000141,-0.000616,-0.506879,-0.003123,-0.421522,-260.065953,-1.247006,68.124221
9.6784,0.000963,0.003134,-0.001518,-6.5e-05,0.000549,-0.000176,-0.000522,-0.506914,-0.002775,-0.421522,-260.065953,-1.247006,68.124221
9.6984,0.000504,0.00287,-0.001849,-0.000135,0.000531,-0.0002,0.000189,-0.506866,-0.001518,-0.496335,-260.065953,-1.321819,68.124221
9.7189,0.000702,0.003,-0.002205,-0.000225,0.000546,-0.000584,-0.000385,-0.507107,-0.001821,-0.496335,-260.065953,-1.321819,68.124221
9.7386,0.000758,0.003068,-0.001051,-0.000294,0.000558,-0.000856,-0.000385,-0.507107,-0.001821,-0.496335,-260.065953,-1.321819,68.124221
9.7589,0.000676,0.003092,-0.001681,-0.000348,0.000568,-0.001047,0.000222,-0.506932,-0.001051,-0.571347,-260.065953,-1.367588,68.12422
9.7785,0.000644,0.003431,-0.003295,-0.00052,0.000531,-0.001411,5.8e-05,-0.506922,-0.001307,-0.571347,-260.065953,-1.367588,68.12422
9.7986,0.0005,0.003173,-0.00159,-0.000653,0.000502,-0.001668,-0.001037,-0.506566,-0.003295,-0.496481,-260.065953,-1.292723,68.12422
9.8185,0.000906,0.002561,-0.003089,-0.000628,0.000475,-0.001657,-0.000377,-0.506803,-0.001744,-0.496481,-260.065953,-1.292723,68.12422
9.8384,0.00068,0.003078,-0.003168,-0.000609,0.000454,-0.001646,-0.000377,-0.506803,-0.001744,-0.496481,-260.065953,-1.292723,68.12422
9.8585,0.000794,0.003333,-0.003066,-0.000596,0.000436,-0.001636,-0.000936,-0.506919,-0.003168,-0.42148,-260.065953,-1.217722,68.12422
9.8786,0.000819,0.003027,-0.002814,-0.00047,0.000458,-0.001147,-0.000868,-0.506816,-0.003127,-0.42148,-260.065953,-1.217722,68.12422
9.8982,0.001139,0.002873,-0.00235,-0.00037,0.000471,-0.000788,-0.000616,-0.506971,-0.002814,-0.346493,-260.065953,-1.177524,68.12422
9.9189,0.000687,0.002875,-0.001953,-0.000497,0.000494,-0.000769,-0.000109,-0.507112,-0.002391,-0.346493,-260.065953,-1.177524,68.12422
9.9389,0.000804,0.003065,-0.002075,-0.000594,0.000512,-0.000756,-0.000109,-0.507112,-0.002391,-0.346493,-260.065953,-1.177524,68.12422
9.9584,0.000648,0.002724,-0.002051,-0.000667,0.000527,-0.000746,-0.000256,-0.506931,-0.002078,-0.2714,-260.065968,-1.200671,68.124179
9.9787,0.000414,0.003603,-0.00245,-0.000658,0.000537,-0.000863,-0.000314,-0.507072,-0.002067,-0.2714,-260.065968,-1.200671,68.124179
9.9985,0.000739,0.002847,-0.001639,-0.000652,0.000546,-0.000945,-0.000841,-0.50639,-0.002457,-0.196361,-260.066043,-1.125632,68.124046
10.0186,0.000863,0.003196,-0.001667,-0.000693,0.000549,-0.001151,-0.00016,-0.507088,-0.001708,-0.196361,-260.066043,-1.125632,68.124046
10.0387,0.00053,0.002963,-0.002913,-0.000724,0.000553,-0.001297,-0.00016,-0.507088,-0.001708,-0.196361,-260.066043,-1.125632,68.124046
10.0587,0.000601,0.002866,-0.00342,-0.000749,0.000556,-0.0014,-0.000965,-0.507026,-0.002926,-0.12135,-260.066133,-1.050621,68.123868
10.0784,0.000116,0.003149,-0.002916,-0.00054,0.000607,-0.000974,-0.001037,-0.507067,-0.003124,-0.12135,-260.066133,-1.050621,68.123868
10.0984,0.000587,0.002848,-0.002649,-0.000374,0.000642,-0.000661,-0.001371,-0.506848,-0.002916,-0.046453,-260.066138,-1.082731,68.123858
10.1185,0.000421,0.003029,-0.002808,0.0,0.0,0.0,-0.000819,-0.507123,-0.002673,-0.046453,-260.066138,-1.082731,68.123858
10.1386,0.000746,0.002594,-0.001945,0.0,0.0,0.0,-0.000819,-0.507123,-0.002673,-0.046453,-260.066138,-1.082731,68.123858
10.1584,0.000674,0.002703,-0.002543,0.0,0.0,0.0,-0.000246,-0.507404,-0.001946,-0.121461,-260.066139,-1.157739,68.123855
