mach0312/omni-docking-bench/src/icros_test_setup/results/MPPI_sample/timeseries/trial_026.csv
t,x,y,yaw,vx,vy,wz,bl_x,bl_y,bl_yaw,front_steering_joint,front_wheel_joint,rear_steering_joint,rear_wheel_joint
0.0,0.041189,0.03242,-0.229725,0.001834,-0.00375,0.05,-0.074056,-0.464123,-0.232678,-1.545568,-266.590725,1.551828,65.530674
0.0004,0.040216,0.032733,-0.225129,0.004167,-0.003504,0.05,-0.074056,-0.464123,-0.232678,-1.591803,-266.600827,1.58694,65.51753
0.0007,0.040541,0.032062,-0.227483,0.00517,-0.00361,0.05,-0.075344,-0.464111,-0.233398,-1.638553,-266.611003,1.624226,65.504629
0.001,0.039265,0.032205,-0.223565,0.00471,-0.003018,0.05,-0.075344,-0.464111,-0.233398,-1.675583,-266.62141,1.653267,65.491415
0.0013,0.039076,0.032057,-0.225457,0.005975,-0.002893,0.05,-0.075271,-0.464129,-0.233134,-1.711237,-266.632065,1.683322,65.478133
0.0015,0.039457,0.032437,-0.222531,0.006131,-0.002695,0.05,-0.075271,-0.464129,-0.233134,-1.740314,-266.642884,1.710258,65.465002
0.0018,0.038228,0.032154,-0.222562,0.005835,-0.003168,0.05,-0.07413,-0.464319,-0.229359,-1.66582,-266.643844,1.635764,65.461711
0.002,0.037831,0.032751,-0.222282,0.006972,-0.00262,0.05,-0.073881,-0.464621,-0.228138,-1.66582,-266.643844,1.635764,65.461711
0.0022,0.037939,0.032441,-0.221741,0.00749,-0.003117,0.05,-0.073881,-0.464621,-0.228138,-1.66582,-266.643844,1.635764,65.461711
0.0025,0.037858,0.032355,-0.221986,0.007315,-0.002842,0.05,-0.073881,-0.464621,-0.228138,-1.66582,-266.643844,1.635764,65.461711
0.0159,0.037784,0.032281,-0.221271,0.0,0.0,0.0,-0.074258,-0.465053,-0.22175,-1.66582,-266.643844,1.635764,65.461711
0.0358,0.038212,0.032364,-0.221486,0.0,0.0,0.0,-0.074145,-0.465285,-0.221271,-1.590659,-266.643844,1.560603,65.461711
0.0561,0.037926,0.032488,-0.220603,0.0,0.0,0.0,-0.074016,-0.465242,-0.221359,-1.590659,-266.643844,1.560603,65.461711
0.0764,0.038152,0.032161,-0.221256,0.0,0.0,0.0,-0.073671,-0.465153,-0.220603,-1.590659,-266.643844,1.560603,65.461711
0.096,0.037975,0.032351,-0.221288,0.0,0.0,0.0,-0.073761,-0.465384,-0.221198,-1.590659,-266.643844,1.560603,65.461711
0.1163,0.03788,0.031992,-0.219789,0.004925,0.000671,0.016978,-0.073761,-0.465384,-0.221198,-1.590659,-266.643844,1.560603,65.461711
0.1362,0.038083,0.032091,-0.220403,0.005354,0.000739,0.016986,-0.073312,-0.465739,-0.219789,-1.590659,-266.643844,1.560603,65.461711
0.1557,0.037941,0.032333,-0.220861,0.005719,0.000797,0.01653,-0.073354,-0.465672,-0.220038,-1.590659,-266.643844,1.560603,65.461711
0.1757,0.038217,0.032116,-0.221291,0.006028,0.000845,0.016159,-0.073785,-0.465279,-0.220861,-1.515693,-266.643844,1.485638,65.461711
0.1957,0.038102,0.032149,-0.223224,0.006292,0.000886,0.015583,-0.073728,-0.465432,-0.221252,-1.515693,-266.643844,1.485638,65.461711
0.2158,0.03789,0.032392,-0.221339,0.006518,0.00092,0.015114,-0.073728,-0.465432,-0.221252,-1.515693,-266.643844,1.485638,65.461711
0.2359,0.037827,0.032204,-0.220866,0.006711,0.000948,0.014733,-0.074073,-0.465166,-0.221339,-1.440706,-266.643844,1.410651,65.461711
0.256,0.037941,0.032571,-0.221874,0.006875,0.00097,0.01422,-0.074003,-0.465264,-0.221147,-1.440706,-266.643844,1.410651,65.461711
0.276,0.038117,0.032387,-0.222155,0.007016,0.000988,0.013799,-0.074289,-0.464928,-0.221874,-1.365707,-266.643844,1.335651,65.461711
0.2962,0.038365,0.032203,-0.222667,0.007137,0.001003,0.013314,-0.074255,-0.465066,-0.22213,-1.365707,-266.643844,1.335651,65.461711
0.3161,0.03813,0.032447,-0.221484,0.007241,0.001013,0.012914,-0.074255,-0.465066,-0.22213,-1.365707,-266.643844,1.335651,65.461711
0.3358,0.038011,0.032128,-0.220885,0.007331,0.001021,0.012583,-0.073906,-0.465094,-0.221484,-1.290666,-266.643844,1.260611,65.461711
0.3562,0.038017,0.032501,-0.221352,0.007408,0.001024,0.012173,-0.073833,-0.465251,-0.221241,-1.290666,-266.643844,1.260611,65.461711
0.3763,0.037922,0.032203,-0.221904,0.007475,0.001026,0.011837,-0.073953,-0.465055,-0.221352,-1.215708,-266.643844,1.185653,65.461711
0.3958,0.03799,0.032505,-0.223179,0.007533,0.001029,0.011416,-0.07429,-0.465271,-0.221854,-1.215708,-266.643844,1.185653,65.461711
0.4161,0.038513,0.032264,-0.221426,0.007584,0.001031,0.011073,-0.07429,-0.465271,-0.221854,-1.215708,-266.643844,1.185653,65.461711
0.436,0.037684,0.032157,-0.220496,0.007627,0.001031,0.010792,-0.073494,-0.465285,-0.221426,-1.140703,-266.643844,1.110647,65.461711
0.4561,0.037862,0.032309,-0.221039,0.007664,0.001027,0.010343,-0.073645,-0.465372,-0.221043,-1.140703,-266.643844,1.110647,65.461711
0.476,0.037901,0.032457,-0.221037,0.007696,0.001022,0.009983,-0.073952,-0.465283,-0.221039,-1.065575,-266.643844,1.03552,65.461711
0.4961,0.037834,0.032403,-0.222678,0.007724,0.001016,0.009694,-0.073915,-0.465149,-0.221037,-1.065575,-266.643844,1.03552,65.461711
0.5158,0.03825,0.032069,-0.220694,0.007748,0.001009,0.009462,-0.073915,-0.465149,-0.221037,-1.065575,-266.643844,1.03552,65.461711
0.5357,0.037578,0.032324,-0.222062,0.007769,0.001003,0.009276,-0.073392,-0.465562,-0.220694,-0.990702,-266.643844,0.960647,65.461711
0.5557,0.037803,0.032076,-0.221897,0.007788,0.001,0.009127,-0.073944,-0.465395,-0.221252,-0.990702,-266.643844,0.960647,65.461711
0.5761,0.037689,0.032017,-0.22129,0.007804,0.000996,0.009007,-0.074438,-0.46542,-0.221897,-0.915709,-266.643844,0.885654,65.461711
0.596,0.038201,0.032631,-0.220877,0.00782,0.000997,0.00891,-0.074267,-0.465535,-0.221345,-0.915709,-266.643844,0.885654,65.461711
0.6165,0.038018,0.032204,-0.220255,0.007833,0.000996,0.008833,-0.074267,-0.465535,-0.221345,-0.915709,-266.643844,0.885654,65.461711
0.636,0.03805,0.032427,-0.223045,0.007844,0.000996,0.008771,-0.073406,-0.465475,-0.220255,-0.840711,-266.643844,0.810656,65.461711
0.6561,0.03817,0.032721,-0.221056,0.007853,0.000991,0.00872,-0.07399,-0.465244,-0.221457,-0.840711,-266.643844,0.810656,65.461711
0.6761,0.038029,0.03264,-0.220532,0.00786,0.000987,0.00868,-0.073653,-0.464869,-0.221056,-0.765016,-266.643844,0.73496,65.461711
0.6963,0.038056,0.032424,-0.221586,0.007864,0.000977,0.008647,-0.073544,-0.464995,-0.22058,-0.765016,-266.643844,0.73496,65.461711
0.7159,0.038017,0.032006,-0.22171,0.007868,0.000969,0.008621,-0.073544,-0.464995,-0.22058,-0.765016,-266.643844,0.73496,65.461711
0.7362,0.037853,0.032367,-0.220664,0.007871,0.000962,0.0086,-0.074131,-0.46551,-0.22171,-0.690712,-266.643844,0.660656,65.461711
0.7561,0.037932,0.03244,-0.222901,0.007877,0.000964,0.008583,-0.073984,-0.465409,-0.221277,-0.690712,-266.643844,0.660656,65.461711
0.7762,0.038246,0.032347,-0.222266,0.007881,0.000965,0.008569,-0.074809,-0.464943,-0.222901,-0.615521,-266.643844,0.585466,65.461711
0.7959,0.037782,0.032276,-0.221531,0.007885,0.000965,0.008558,-0.074226,-0.465095,-0.222313,-0.615521,-266.643844,0.585466,65.461711
0.8162,0.037988,0.03185,-0.220363,0.007888,0.000965,0.008549,-0.074226,-0.465095,-0.222313,-0.615521,-266.643844,0.585466,65.461711
0.8361,0.037846,0.032806,-0.222304,0.007891,0.000965,0.008541,-0.07349,-0.465817,-0.220363,-0.540116,-266.643844,0.51006,65.461711
0.8559,0.038183,0.032087,-0.222115,0.007893,0.000965,0.008535,-0.073939,-0.465342,-0.221149,-0.540116,-266.643844,0.51006,65.461711
0.8759,0.03812,0.032271,-0.220893,0.007895,0.000964,0.008531,-0.074166,-0.465384,-0.222115,-0.465701,-266.643844,0.435645,65.461711
0.896,0.038214,0.032265,-0.221762,0.007896,0.000962,0.008527,-0.073668,-0.465342,-0.220999,-0.465701,-266.643844,0.435645,65.461711
0.9162,0.037925,0.032585,-0.221445,0.007897,0.000961,0.008523,-0.073668,-0.465342,-0.220999,-0.465701,-266.643844,0.435645,65.461711
0.9361,0.037579,0.03205,-0.220933,0.007898,0.000959,0.008521,-0.074091,-0.464961,-0.221445,-0.390593,-266.643844,0.360537,65.461711
0.9558,0.038016,0.032591,-0.221079,0.007899,0.00096,0.008519,-0.074128,-0.465202,-0.221237,-0.390593,-266.643844,0.360537,65.461711
0.9763,0.038176,0.032594,-0.221887,0.0079,0.00096,0.008517,-0.073818,-0.464996,-0.221079,-0.315703,-266.643844,0.285647,65.461711
0.9959,0.037445,0.032269,-0.221841,0.0079,0.000957,0.008515,-0.074039,-0.464911,-0.221817,-0.315703,-266.643844,0.285647,65.461711
1.016,0.037834,0.032225,-0.221853,0.0079,0.000955,0.008514,-0.074039,-0.464911,-0.221817,-0.315703,-266.643844,0.285647,65.461711
1.0358,0.037837,0.032805,-0.221233,0.0079,0.000954,0.008513,-0.074385,-0.465276,-0.221853,-0.240563,-266.643844,0.210507,65.461711
1.0559,0.038135,0.032345,-0.22199,0.007901,0.000955,0.008512,-0.074259,-0.465068,-0.221601,-0.240563,-266.643844,0.210507,65.461711
1.0763,0.037618,0.03199,-0.220771,0.007902,0.000956,0.008512,-0.074152,-0.46514,-0.22199,-0.165711,-266.643844,0.135656,65.461711
1.096,0.037987,0.032778,-0.223326,0.007904,0.00096,0.008511,-0.07407,-0.46559,-0.220875,-0.165711,-266.643844,0.135656,65.461711
1.1159,0.037801,0.03228,-0.220559,0.007905,0.000963,0.008511,-0.07407,-0.46559,-0.220875,-0.165711,-266.643844,0.135656,65.461711
1.1359,0.038014,0.032525,-0.221473,0.007907,0.000966,0.00851,-0.073774,-0.465365,-0.220559,-0.090533,-266.643844,0.060477,65.461711
1.156,0.038081,0.032054,-0.222652,0.007906,0.000963,0.00851,-0.073872,-0.465224,-0.22093,-0.090533,-266.643844,0.060477,65.461711
1.1762,0.037846,0.032444,-0.221416,0.007906,0.000961,0.008509,-0.074536,-0.465357,-0.222652,-0.015704,-266.643844,-0.014351,65.461711
1.1959,0.038327,0.032227,-0.220692,0.007906,0.000961,0.008509,-0.074188,-0.465127,-0.221522,-0.015704,-266.643844,-0.014351,65.461711
1.2162,0.037888,0.032557,-0.22167,0.007906,0.000961,0.008509,-0.074188,-0.465127,-0.221522,-0.015704,-266.643844,-0.014351,65.461711
1.2362,0.038248,0.03264,-0.220087,0.007906,0.000961,0.008509,-0.07424,-0.464965,-0.22167,0.059425,-266.643844,-0.08948,65.461711
1.2561,0.038193,0.032486,-0.221456,0.007905,0.000957,0.008509,-0.073774,-0.465002,-0.221028,0.059425,-266.643844,-0.08948,65.461711
1.276,0.038205,0.032258,-0.222436,0.007904,0.000954,0.008509,-0.073829,-0.465059,-0.221456,0.134294,-266.643843,-0.164349,65.461712
1.2966,0.037647,0.032177,-0.220165,0.007905,0.000956,0.008509,-0.07426,-0.465166,-0.222346,0.134294,-266.643843,-0.164349,65.461712
1.3162,0.038264,0.032098,-0.221442,0.007906,0.000959,0.008508,-0.07426,-0.465166,-0.222346,0.134294,-266.643843,-0.164349,65.461712
1.3361,0.037917,0.032452,-0.220988,0.007907,0.000961,0.008508,-0.07375,-0.465449,-0.221442,0.209388,-266.643837,-0.239443,65.461718
1.3561,0.038191,0.032197,-0.222332,0.007906,0.00096,0.008508,-0.0738,-0.465325,-0.221257,0.209388,-266.643837,-0.239443,65.461718
1.3761,0.037938,0.032518,-0.220906,0.007906,0.00096,0.008508,-0.074263,-0.465251,-0.22233,0.2843,-266.643788,-0.314355,65.461761
1.3961,0.038028,0.032268,-0.221791,0.007906,0.000957,0.008508,-0.073851,-0.465103,-0.221034,0.2843,-266.643788,-0.314355,65.461761
1.4162,0.037847,0.032788,-0.219983,0.007905,0.000955,0.008508,-0.073851,-0.465103,-0.221034,0.2843,-266.643788,-0.314355,65.461761
1.4361,0.037838,0.032063,-0.22127,0.007904,0.000953,0.008508,-0.07342,-0.464926,-0.219969,0.359294,-266.643552,-0.38935,65.461972
1.4562,0.037787,0.032232,-0.220716,0.007904,0.000951,0.008508,-0.073705,-0.465174,-0.220524,0.359294,-266.643552,-0.38935,65.461972
1.4763,0.038265,0.032222,-0.221133,0.007903,0.00095,0.008508,-0.073816,-0.465406,-0.220675,0.434941,-266.642791,-0.464997,65.462654
1.4962,0.037765,0.032171,-0.22167,0.007903,0.00095,0.008508,-0.073613,-0.465363,-0.221091,0.434941,-266.642791,-0.464997,65.462654
1.5162,0.037885,0.032356,-0.222145,0.007903,0.00095,0.008508,-0.073613,-0.465363,-0.221091,0.434941,-266.642791,-0.464997,65.462654
1.5361,0.038161,0.032125,-0.219247,0.007903,0.000951,0.008508,-0.074331,-0.465139,-0.222009,0.509382,-266.641059,-0.49307,65.464206
1.5558,0.038049,0.032131,-0.221426,0.007904,0.000951,0.008508,-0.073681,-0.465355,-0.220881,0.509382,-266.641059,-0.49307,65.464206
1.576,0.038431,0.032389,-0.221544,0.007904,0.000951,0.008508,-0.07378,-0.465443,-0.22125,0.58429,-266.638291,-0.492964,65.466686
1.596,0.037969,0.032373,-0.221321,0.007903,0.00095,0.008548,-0.073639,-0.465174,-0.221509,0.58429,-266.638291,-0.492964,65.466686
1.616,0.03811,0.032427,-0.219899,0.007902,0.000949,0.00858,-0.073639,-0.465174,-0.221509,0.58429,-266.638291,-0.492964,65.466686
1.6359,0.038603,0.03218,-0.221996,0.007902,0.000948,0.008607,-0.072835,-0.465322,-0.219575,0.659333,-266.634647,-0.492895,65.469951
1.6562,0.038417,0.032592,-0.221262,0.0079,0.000945,0.008656,-0.073145,-0.465319,-0.220516,0.659333,-266.634647,-0.492895,65.469951
1.6761,0.038983,0.032431,-0.218575,0.007899,0.000942,0.008697,-0.073255,-0.465001,-0.220988,0.665669,-266.630634,-0.499203,65.473547
1.6958,0.038828,0.032432,-0.220338,0.007895,0.000931,0.008759,-0.071742,-0.465397,-0.21878,0.665669,-266.630634,-0.499203,65.473547
1.7159,0.03866,0.031881,-0.218277,0.007891,0.000922,0.00881,-0.071742,-0.465397,-0.21878,0.665669,-266.630634,-0.499203,65.473547
1.736,0.038751,0.032073,-0.218574,0.007888,0.000914,0.008851,-0.071448,-0.466051,-0.217913,0.669695,-266.626607,-0.505238,65.477154
1.756,0.038651,0.032261,-0.220826,0.007886,0.000912,0.008913,-0.071567,-0.46595,-0.21814,0.669695,-266.626607,-0.505238,65.477154
1.7757,0.03925,0.032331,-0.219569,0.007885,0.00091,0.008964,-0.072806,-0.465381,-0.220544,0.675508,-266.622575,-0.51762,65.480775
1.7961,0.038956,0.03218,-0.218792,0.007883,0.000906,0.009033,-0.071906,-0.465422,-0.219641,0.675508,-266.622575,-0.51762,65.480775
1.8159,0.038822,0.032153,-0.220039,0.007881,0.000904,0.00909,-0.071906,-0.465422,-0.219641,0.675508,-266.622575,-0.51762,65.480775
1.8359,0.039065,0.032766,-0.218453,0.00788,0.000901,0.009136,-0.072164,-0.465585,-0.219664,0.680651,-266.618514,-0.524842,65.484422
1.856,0.039261,0.032426,-0.218037,0.007878,0.000899,0.009201,-0.071838,-0.465395,-0.219123,0.680651,-266.618514,-0.524842,65.484422
1.8758,0.039156,0.032313,-0.21799,0.007876,0.000896,0.009254,-0.070808,-0.465525,-0.217747,0.688357,-266.614427,-0.535818,65.488093
1.896,0.0395,0.03249,-0.218058,0.007873,0.000891,0.009325,-0.071106,-0.465612,-0.21796,0.688357,-266.614427,-0.535818,65.488093
1.9159,0.039097,0.032471,-0.219692,0.007871,0.000887,0.009383,-0.071106,-0.465612,-0.21796,0.688357,-266.614427,-0.535818,65.488093
1.9362,0.039429,0.032518,-0.217807,0.007869,0.000884,0.00943,-0.07172,-0.465306,-0.219308,0.693586,-266.610362,-0.543184,65.491744
1.9559,0.039442,0.032144,-0.218534,0.007867,0.00088,0.009496,-0.071301,-0.465361,-0.218658,0.693586,-266.610362,-0.543184,65.491744
1.9761,0.039804,0.032018,-0.21852,0.007865,0.000878,0.009549,-0.070875,-0.465753,-0.218234,0.701118,-266.606248,-0.554717,65.495442
1.9959,0.039905,0.032577,-0.217953,0.007864,0.000877,0.009617,-0.070754,-0.465847,-0.218481,0.701118,-266.606248,-0.554717,65.495442
2.016,0.039202,0.032217,-0.215921,0.007863,0.000877,0.009672,-0.070754,-0.465847,-0.218481,0.701118,-266.606248,-0.554717,65.495442
2.0359,0.039781,0.03216,-0.217126,0.007862,0.000876,0.009718,-0.069735,-0.465975,-0.215522,0.706305,-266.602112,-0.562116,65.499161
2.056,0.039516,0.03276,-0.218044,0.007858,0.000869,0.009774,-0.069841,-0.465934,-0.216137,0.706305,-266.602112,-0.562116,65.499161
2.076,0.039884,0.03218,-0.216648,0.007855,0.000864,0.00982,-0.070559,-0.465191,-0.217736,0.71394,-266.597969,-0.571766,65.502885
2.096,0.040124,0.03245,-0.214782,0.007852,0.000858,0.009871,-0.069803,-0.465838,-0.216727,0.71394,-266.597969,-0.571766,65.502885
2.1161,0.039637,0.032353,-0.216141,0.00785,0.000854,0.009912,-0.069803,-0.465838,-0.216727,0.71394,-266.597969,-0.571766,65.502885
2.1365,0.040157,0.03207,-0.217054,0.007848,0.000851,0.009945,-0.06941,-0.465815,-0.215731,0.717957,-266.593801,-0.578892,65.506635
2.1564,0.040048,0.032115,-0.216912,0.007846,0.000846,0.009979,-0.06948,-0.46588,-0.216224,0.717957,-266.593801,-0.578892,65.506635
2.1759,0.040558,0.032413,-0.21376,0.007844,0.000842,0.010006,-0.069462,-0.465961,-0.216596,0.722965,-266.589627,-0.587211,65.510395
2.196,0.040406,0.03236,-0.214588,0.007837,0.000827,0.010032,-0.06778,-0.465979,-0.213994,0.722965,-266.589627,-0.587211,65.510395
2.216,0.040145,0.032314,-0.215959,0.007832,0.000815,0.010054,-0.06778,-0.465979,-0.213994,0.722965,-266.589627,-0.587211,65.510395
2.2361,0.040389,0.03281,-0.213964,0.007828,0.000804,0.010071,-0.068812,-0.465875,-0.21554,0.725293,-266.585436,-0.591521,65.514172
2.2561,0.040172,0.032578,-0.213622,0.007825,0.000798,0.010089,-0.068404,-0.465751,-0.214852,0.725293,-266.585436,-0.591521,65.514172
2.2762,0.040462,0.032372,-0.214455,0.007823,0.000793,0.010104,-0.0677,-0.465857,-0.213302,0.726431,-266.581251,-0.599259,65.517962
2.2961,0.040524,0.031877,-0.213659,0.007821,0.000788,0.01012,-0.068028,-0.465938,-0.214338,0.726431,-266.581251,-0.599259,65.517962
2.316,0.040517,0.032472,-0.21537,0.007819,0.000783,0.010133,-0.068028,-0.465938,-0.214338,0.726431,-266.581251,-0.599259,65.517962
2.3358,0.040714,0.032186,-0.213905,0.007817,0.00078,0.010143,-0.068148,-0.465783,-0.214947,0.727396,-266.577063,-0.602279,65.521757
2.3558,0.040868,0.032343,-0.214059,0.007815,0.000776,0.010155,-0.067865,-0.465954,-0.214474,0.727396,-266.577063,-0.602279,65.521757
2.3759,0.040162,0.032136,-0.213872,0.007814,0.000773,0.010165,-0.067222,-0.466046,-0.213736,0.72852,-266.572872,-0.605833,65.525561
2.3959,0.040517,0.032751,-0.213962,0.007814,0.000773,0.010175,-0.067995,-0.466228,-0.213844,0.72852,-266.572872,-0.605833,65.525561
2.4161,0.041098,0.032367,-0.214836,0.007814,0.000774,0.010184,-0.067995,-0.466228,-0.213844,0.72852,-266.572872,-0.605833,65.525561
2.4361,0.040982,0.032475,-0.21254,0.007814,0.000774,0.010192,-0.067301,-0.465947,-0.214411,0.729154,-266.568682,-0.607742,65.529367
2.4561,0.04087,0.032517,-0.214068,0.00781,0.000765,0.0102,-0.066978,-0.465993,-0.213602,0.729154,-266.568682,-0.607742,65.529367
2.4762,0.041051,0.032258,-0.215299,0.007808,0.000758,0.010207,-0.067225,-0.465871,-0.213744,0.730386,-266.564463,-0.609087,65.533199
2.496,0.041071,0.03228,-0.212364,0.007808,0.000758,0.010215,-0.067842,-0.465962,-0.215166,0.730386,-266.564463,-0.609087,65.533199
2.5164,0.041304,0.032271,-0.211999,0.007808,0.000759,0.010222,-0.067842,-0.465962,-0.215166,0.730386,-266.564463,-0.609087,65.533199
2.5359,0.040691,0.032446,-0.211815,0.007808,0.000759,0.010227,-0.065683,-0.466349,-0.211575,0.730313,-266.560295,-0.611684,65.536992
2.5565,0.041361,0.0325,-0.211797,0.007803,0.000747,0.010233,-0.065987,-0.466275,-0.211622,0.730313,-266.560295,-0.611684,65.536992
2.5764,0.041134,0.032251,-0.211119,0.007799,0.000737,0.010238,-0.065602,-0.466133,-0.211471,0.73126,-266.556099,-0.612569,65.540809
2.5961,0.040999,0.032522,-0.211861,0.007796,0.000728,0.010244,-0.065714,-0.4664,-0.211134,0.73126,-266.556099,-0.612569,65.540809
2.6161,0.041103,0.03251,-0.211216,0.007793,0.00072,0.010249,-0.065714,-0.4664,-0.211134,0.73126,-266.556099,-0.612569,65.540809
2.636,0.04157,0.032568,-0.210583,0.00779,0.000714,0.010253,-0.065492,-0.466195,-0.210788,0.730747,-266.551911,-0.615563,65.54463
2.6562,0.041347,0.032358,-0.211812,0.007786,0.000703,0.010257,-0.065269,-0.466187,-0.210655,0.730747,-266.551911,-0.615563,65.54463
2.6757,0.041677,0.032486,-0.209695,0.007782,0.000693,0.010261,-0.065623,-0.466274,-0.211485,0.730294,-266.547728,-0.618907,65.548455
2.6961,0.04144,0.032641,-0.211439,0.007777,0.000682,0.010265,-0.064575,-0.466337,-0.209839,0.730294,-266.547728,-0.618907,65.548455
2.7158,0.041776,0.032438,-0.210685,0.007773,0.000672,0.010268,-0.064575,-0.466337,-0.209839,0.730294,-266.547728,-0.618907,65.548455
2.736,0.041566,0.032639,-0.211029,0.00777,0.000664,0.010271,-0.064555,-0.466325,-0.210256,0.729728,-266.543525,-0.621539,65.552309
2.7565,0.041779,0.032472,-0.20862,0.007768,0.000658,0.010274,-0.064817,-0.466212,-0.210534,0.729728,-266.543525,-0.621539,65.552309
2.776,0.041573,0.032593,-0.208041,0.007766,0.000653,0.010276,-0.063603,-0.4665,-0.208296,0.728808,-266.539387,-0.62528,65.556116
2.7961,0.041828,0.032674,-0.20882,0.007761,0.000641,0.010279,-0.063737,-0.46642,-0.208048,0.728808,-266.539387,-0.62528,65.556116
2.8159,0.042026,0.032431,-0.21075,0.007757,0.000632,0.010281,-0.063737,-0.46642,-0.208048,0.728808,-266.539387,-0.62528,65.556116
2.8359,0.042268,0.032705,-0.208711,0.007753,0.000623,0.010282,-0.064339,-0.466326,-0.210319,0.728551,-266.535194,-0.626722,65.559978
2.8561,0.041751,0.032663,-0.208075,0.007751,0.000618,0.010284,-0.063905,-0.466289,-0.209588,0.728551,-266.535194,-0.626722,65.559978
2.8759,0.042271,0.032421,-0.208778,0.007749,0.000613,0.010286,-0.06336,-0.466368,-0.207751,0.72747,-266.531067,-0.630302,65.563793
2.896,0.042002,0.032543,-0.210693,0.007747,0.000607,0.010287,-0.063415,-0.466494,-0.208673,0.72747,-266.531067,-0.630302,65.563793
2.9162,0.042119,0.032511,-0.207732,0.007745,0.000602,0.010289,-0.063415,-0.466494,-0.208673,0.72747,-266.531067,-0.630302,65.563793
2.9362,0.042247,0.032724,-0.207902,0.007743,0.000597,0.01029,-0.062741,-0.466566,-0.207301,0.727143,-266.526894,-0.631602,65.567657
2.956,0.042177,0.032362,-0.20897,0.007739,0.000588,0.010291,-0.062822,-0.466456,-0.207506,0.727143,-266.526894,-0.631602,65.567657
2.9757,0.042304,0.032493,-0.206537,0.007736,0.00058,0.010292,-0.063381,-0.466575,-0.208646,0.726596,-266.52278,-0.633514,65.571472
2.9959,0.042622,0.032393,-0.20787,0.007732,0.000572,0.010293,-0.062369,-0.466662,-0.20671,0.726596,-266.52278,-0.633514,65.571472
3.0158,0.042393,0.032242,-0.207556,0.007729,0.000565,0.010294,-0.062369,-0.466662,-0.20671,0.726596,-266.52278,-0.633514,65.571472
3.0359,0.042603,0.032561,-0.205866,0.007727,0.000559,0.010295,-0.06238,-0.466855,-0.207125,0.725915,-266.518643,-0.635484,65.575316
3.0562,0.042231,0.032632,-0.20717,0.007724,0.000553,0.010295,-0.062045,-0.466784,-0.206562,0.725915,-266.518643,-0.635484,65.575316
3.0761,0.042464,0.032736,-0.20632,0.007722,0.000548,0.010296,-0.062427,-0.466496,-0.206843,0.725062,-266.514514,-0.637939,65.579163
3.096,0.042806,0.032228,-0.206506,0.007719,0.00054,0.010297,-0.062039,-0.466454,-0.20635,0.725062,-266.514514,-0.637939,65.579163
3.1165,0.042834,0.032411,-0.204037,0.007716,0.000533,0.010297,-0.062039,-0.466454,-0.20635,0.725062,-266.514514,-0.637939,65.579163
3.1361,0.042851,0.032952,-0.206058,0.007714,0.000528,0.010298,-0.060183,-0.467052,-0.203606,0.724608,-266.510389,-0.63924,65.583012
3.1565,0.042466,0.032321,-0.204778,0.007708,0.000515,0.010298,-0.06068,-0.466735,-0.204553,0.724608,-266.510389,-0.63924,65.583012
3.1757,0.042898,0.032437,-0.205668,0.007703,0.000503,0.010299,-0.060999,-0.467056,-0.204451,0.723767,-266.506267,-0.64152,65.586867
3.1958,0.042763,0.032635,-0.204882,0.007702,0.0005,0.010299,-0.061221,-0.466838,-0.205546,0.723767,-266.506267,-0.64152,65.586867
3.2161,0.042844,0.03262,-0.20549,0.007701,0.000497,0.010299,-0.061221,-0.466838,-0.205546,0.723767,-266.506267,-0.64152,65.586867
3.2359,0.04301,0.032702,-0.204633,0.0077,0.000495,0.0103,-0.060901,-0.466695,-0.20506,0.722711,-266.502154,-0.644241,65.590725
3.2565,0.042877,0.032773,-0.204221,0.007696,0.000487,0.0103,-0.06075,-0.466685,-0.204834,0.722711,-266.502154,-0.644241,65.590725
3.2759,0.042874,0.03278,-0.20304,0.007694,0.000481,0.0103,-0.060311,-0.466663,-0.203894,0.722348,-266.498039,-0.645242,65.59459
3.2963,0.043143,0.032564,-0.204614,0.007688,0.000469,0.0103,-0.059982,-0.466738,-0.203093,0.722348,-266.498039,-0.645242,65.59459
3.3163,0.043214,0.032471,-0.203095,0.007684,0.000458,0.010301,-0.059982,-0.466738,-0.203093,0.722348,-266.498039,-0.645242,65.59459
3.3363,0.04332,0.032664,-0.2036,0.00768,0.00045,0.010301,-0.059337,-0.467092,-0.202666,0.721728,-266.493959,-0.646815,65.598427
3.3561,0.043102,0.032302,-0.203886,0.007677,0.000442,0.010301,-0.059487,-0.46698,-0.202995,0.721728,-266.493959,-0.646815,65.598427
3.3759,0.04313,0.032267,-0.204557,0.007674,0.000435,0.010301,-0.059918,-0.46717,-0.203557,0.720375,-266.489855,-0.650212,65.602302
3.3959,0.043383,0.032756,-0.203866,0.007675,0.000438,0.010301,-0.060412,-0.467107,-0.204461,0.720375,-266.489855,-0.650212,65.602302
3.4161,0.043492,0.032725,-0.203659,0.007676,0.000441,0.010301,-0.060412,-0.467107,-0.204461,0.720375,-266.489855,-0.650212,65.602302
3.4361,0.043317,0.032574,-0.20356,0.007678,0.000443,0.010301,-0.05934,-0.466781,-0.20323,0.719688,-266.485791,-0.651921,65.606147
3.4563,0.043568,0.032174,-0.201338,0.007674,0.000435,0.010301,-0.059483,-0.466833,-0.203314,0.719688,-266.485791,-0.651921,65.606147
3.4759,0.043797,0.032739,-0.201517,0.007671,0.000427,0.010301,-0.058179,-0.467559,-0.201009,0.72007,-266.481682,-0.650933,65.61003
3.496,0.043637,0.032858,-0.201237,0.007664,0.000412,0.010301,-0.058264,-0.466989,-0.201465,0.72007,-266.481682,-0.650933,65.61003
3.5161,0.043539,0.032489,-0.201746,0.007658,0.000399,0.010301,-0.058264,-0.466989,-0.201465,0.72007,-266.481682,-0.650933,65.61003
3.5364,0.043953,0.032631,-0.201437,0.007653,0.000389,0.010301,-0.058339,-0.467214,-0.201318,0.719349,-266.477593,-0.652688,65.613902
3.5563,0.043973,0.03254,-0.202412,0.00765,0.000381,0.010301,-0.058195,-0.467152,-0.201318,0.719349,-266.477593,-0.652688,65.613902
3.576,0.043399,0.032435,-0.200274,0.007647,0.000374,0.010301,-0.058316,-0.467084,-0.202089,0.717625,-266.473565,-0.656995,65.617734
3.5962,0.043667,0.032767,-0.201549,0.007644,0.000369,0.010301,-0.05807,-0.467347,-0.200421,0.717625,-266.473565,-0.656995,65.617734
3.6163,0.043878,0.032936,-0.203104,0.007642,0.000364,0.010301,-0.05807,-0.467347,-0.200421,0.717625,-266.473565,-0.656995,65.617734
3.636,0.043798,0.03233,-0.201718,0.00764,0.00036,0.010301,-0.058677,-0.46663,-0.202672,0.716963,-266.469508,-0.658614,65.621602
3.6561,0.044015,0.032642,-0.200824,0.007639,0.000358,0.010301,-0.058522,-0.466919,-0.202236,0.716963,-266.469508,-0.658614,65.621602
3.6758,0.044054,0.032349,-0.201499,0.007638,0.000355,0.010301,-0.057478,-0.467145,-0.200496,0.716325,-266.465438,-0.660122,65.625487
3.6959,0.043757,0.032616,-0.199925,0.007637,0.000353,0.010301,-0.057963,-0.46732,-0.201405,0.716325,-266.465438,-0.660122,65.625487
3.716,0.043861,0.031802,-0.200425,0.007636,0.00035,0.010301,-0.057963,-0.46732,-0.201405,0.716325,-266.465438,-0.660122,65.625487
3.7359,0.044416,0.032709,-0.200174,0.007635,0.000349,0.0103,-0.057358,-0.468038,-0.199996,0.716095,-266.461406,-0.660623,65.62934
3.7559,0.044066,0.032831,-0.200453,0.007633,0.000343,0.0103,-0.057173,-0.467665,-0.200019,0.716095,-266.461406,-0.660623,65.62934
3.7759,0.0445,0.032554,-0.198943,0.007631,0.000339,0.0103,-0.057242,-0.466995,-0.200125,0.715752,-266.457356,-0.661361,65.633212
3.7963,0.04437,0.031959,-0.199119,0.007624,0.000324,0.0103,-0.056367,-0.467353,-0.199033,0.715752,-266.457356,-0.661361,65.633212
3.8161,0.044257,0.032413,-0.199466,0.007619,0.000313,0.010301,-0.056367,-0.467353,-0.199033,0.715752,-266.457356,-0.661361,65.633212
3.8357,0.044237,0.032558,-0.200129,0.007614,0.000303,0.010301,-0.056482,-0.467524,-0.199035,0.715295,-266.453315,-0.662446,65.637081
3.8558,0.044724,0.032521,-0.199562,0.007612,0.000298,0.0103,-0.056716,-0.467424,-0.199429,0.715295,-266.453315,-0.662446,65.637081
3.8756,0.044741,0.03254,-0.197911,0.00761,0.000294,0.0103,-0.056139,-0.467396,-0.199233,0.713706,-266.449278,-0.666442,65.640964
3.8957,0.044717,0.032553,-0.198642,0.007604,0.000282,0.0103,-0.055576,-0.467497,-0.198007,0.713706,-266.449278,-0.666442,65.640964
3.9158,0.044864,0.031953,-0.200016,0.007599,0.000271,0.0103,-0.055576,-0.467497,-0.198007,0.713706,-266.449278,-0.666442,65.640964
3.9358,0.045232,0.032527,-0.197976,0.007595,0.000262,0.0103,-0.056152,-0.467931,-0.199587,0.713322,-266.445255,-0.667351,65.644836
3.9557,0.044519,0.03245,-0.19823,0.007593,0.000259,0.0103,-0.055673,-0.467764,-0.198873,0.713322,-266.445255,-0.667351,65.644836
3.976,0.044899,0.032747,-0.196501,0.007592,0.000256,0.0103,-0.05568,-0.467602,-0.197903,0.71189,-266.441244,-0.670939,65.648713
3.9962,0.044884,0.032194,-0.196761,0.007585,0.000241,0.0103,-0.054747,-0.467454,-0.196605,0.71189,-266.441244,-0.670939,65.648713
4.016,0.044998,0.032407,-0.196219,0.007579,0.000229,0.0103,-0.054747,-0.467454,-0.196605,0.71189,-266.441244,-0.670939,65.648713
4.0358,0.044846,0.032086,-0.197544,0.007574,0.000218,0.0103,-0.05412,-0.467857,-0.195789,0.711607,-266.43724,-0.671567,65.652587
4.0561,0.045184,0.032223,-0.196245,0.007571,0.000213,0.0103,-0.054542,-0.467919,-0.196452,0.711607,-266.43724,-0.671567,65.652587
4.0762,0.045098,0.032528,-0.196563,0.007569,0.000208,0.010299,-0.054022,-0.468028,-0.195917,0.709937,-266.433222,-0.675794,65.656492
4.0961,0.044765,0.032618,-0.197382,0.007565,0.000201,0.010299,-0.054458,-0.467681,-0.196501,0.709937,-266.433222,-0.675794,65.656492
4.1162,0.045231,0.032575,-0.197397,0.007562,0.000195,0.010299,-0.054458,-0.467681,-0.196501,0.709937,-266.433222,-0.675794,65.656492
4.1358,0.045204,0.032211,-0.195545,0.00756,0.00019,0.010299,-0.054479,-0.467574,-0.196969,0.709447,-266.429255,-0.676958,65.660354
4.1568,0.045107,0.032408,-0.195549,0.007557,0.000184,0.010299,-0.054202,-0.467783,-0.196338,0.709447,-266.429255,-0.676958,65.660354
4.176,0.045094,0.032537,-0.193904,0.007555,0.00018,0.010299,-0.05375,-0.467913,-0.195219,0.708611,-266.425263,-0.678976,65.664249
4.196,0.045223,0.03239,-0.195051,0.007549,0.000167,0.010299,-0.053215,-0.467908,-0.193998,0.708611,-266.425263,-0.678976,65.664249
4.2161,0.045355,0.032007,-0.19608,0.007543,0.000156,0.010299,-0.053215,-0.467908,-0.193998,0.708611,-266.425263,-0.678976,65.664249
4.2362,0.045344,0.031958,-0.195084,0.007539,0.000147,0.010299,-0.053695,-0.468274,-0.19565,0.708149,-266.421262,-0.680077,65.668157
4.2561,0.045469,0.03283,-0.196568,0.007539,0.000148,0.010298,-0.053584,-0.46832,-0.195359,0.708149,-266.421262,-0.680077,65.668157
4.2759,0.045671,0.03227,-0.193496,0.00754,0.000149,0.010298,-0.053903,-0.46739,-0.196245,0.706727,-266.417332,-0.683703,65.672013
4.2963,0.044992,0.032284,-0.195043,0.007534,0.000138,0.010298,-0.05252,-0.468141,-0.193726,0.706727,-266.417332,-0.683703,65.672013
4.3163,0.045413,0.032303,-0.194218,0.007529,0.000128,0.010298,-0.05252,-0.468141,-0.193726,0.706727,-266.417332,-0.683703,65.672013
4.336,0.045816,0.032279,-0.194173,0.007525,0.00012,0.010298,-0.052706,-0.468163,-0.193787,0.706778,-266.413349,-0.683454,65.675919
4.3559,0.045758,0.032307,-0.193994,0.007522,0.000114,0.010298,-0.052622,-0.468159,-0.193898,0.706778,-266.413349,-0.683454,65.675919
4.3758,0.045424,0.032225,-0.193063,0.00752,0.00011,0.010297,-0.052326,-0.468169,-0.193668,0.705493,-266.409406,-0.686722,65.679801
4.396,0.045871,0.032113,-0.192496,0.007517,0.000105,0.010297,-0.052405,-0.46829,-0.193101,0.705493,-266.409406,-0.686722,65.679801
4.4158,0.045945,0.032459,-0.192206,0.007515,0.0001,0.010297,-0.052405,-0.46829,-0.193101,0.705493,-266.409406,-0.686722,65.679801
4.4358,0.045648,0.031957,-0.191878,0.007513,9.7e-05,0.010297,-0.051168,-0.468205,-0.191776,0.70503,-266.405459,-0.687856,65.683691
4.4562,0.046081,0.032555,-0.192924,0.007507,8.5e-05,0.010297,-0.051313,-0.468407,-0.191768,0.70503,-266.405459,-0.687856,65.683691
4.4764,0.045835,0.032449,-0.191881,0.007502,7.4e-05,0.010297,-0.051466,-0.468026,-0.192597,0.704439,-266.401519,-0.689287,65.687581
4.4963,0.04578,0.032043,-0.192699,0.007496,6.4e-05,0.010297,-0.051417,-0.468178,-0.191929,0.704439,-266.401519,-0.689287,65.687581
4.5162,0.046063,0.032614,-0.192275,0.007492,5.6e-05,0.010297,-0.051417,-0.468178,-0.191929,0.704439,-266.401519,-0.689287,65.687581
4.5358,0.046009,0.03219,-0.190656,0.007488,4.9e-05,0.010297,-0.051085,-0.468045,-0.191844,0.703471,-266.397585,-0.691833,65.691478
4.5558,0.046029,0.032385,-0.190802,0.007483,3.9e-05,0.010297,-0.050868,-0.468264,-0.191313,0.703471,-266.397585,-0.691833,65.691478
4.5762,0.046396,0.032238,-0.191321,0.007478,3e-05,0.010297,-0.050456,-0.468404,-0.190473,0.702383,-266.393632,-0.694686,65.695405
4.5958,0.046232,0.032403,-0.191172,0.007474,2.3e-05,0.010297,-0.050564,-0.468455,-0.191246,0.702383,-266.393632,-0.694686,65.695405
4.616,0.045966,0.032399,-0.190749,0.007471,1.6e-05,0.010297,-0.050564,-0.468455,-0.191246,0.702383,-266.393632,-0.694686,65.695405
4.636,0.046256,0.032071,-0.190263,0.007468,1e-05,0.010297,-0.050422,-0.468408,-0.190322,0.70158,-266.389724,-0.696816,65.699298
4.656,0.046211,0.032411,-0.190449,0.007464,4e-06,0.010297,-0.05029,-0.468549,-0.190247,0.70158,-266.389724,-0.696816,65.699298
4.676,0.046354,0.032579,-0.18934,0.007461,-2e-06,0.010296,-0.0501,-0.468412,-0.190124,0.700714,-266.385832,-0.699078,65.703184
4.6957,0.046117,0.032095,-0.191108,0.007454,-1.6e-05,0.010297,-0.049662,-0.468318,-0.189391,0.700714,-266.385832,-0.699078,65.703184
4.716,0.046484,0.032379,-0.191013,0.007447,-2.7e-05,0.010297,-0.049662,-0.468318,-0.189391,0.700714,-266.385832,-0.699078,65.703184
4.7359,0.046669,0.032058,-0.191147,0.007442,-3.7e-05,0.010297,-0.050035,-0.468404,-0.190583,0.700158,-266.381923,-0.70052,65.707094
4.7558,0.046271,0.031951,-0.189101,0.007441,-3.8e-05,0.010296,-0.050078,-0.468514,-0.190768,0.700158,-266.381923,-0.70052,65.707094
4.7759,0.04657,0.032263,-0.187678,0.007441,-3.9e-05,0.010296,-0.049366,-0.469003,-0.188775,0.698708,-266.378048,-0.704459,65.710988
4.7959,0.046464,0.032163,-0.18881,0.007434,-5.2e-05,0.010296,-0.048643,-0.468804,-0.187759,0.698708,-266.378048,-0.704459,65.710988
4.816,0.046383,0.032189,-0.187384,0.007428,-6.3e-05,0.010296,-0.048643,-0.468804,-0.187759,0.698708,-266.378048,-0.704459,65.710988
4.8364,0.046689,0.032389,-0.187554,0.007423,-7.2e-05,0.010296,-0.048319,-0.468943,-0.186954,0.6986,-266.374161,-0.70466,65.714895
4.8563,0.047088,0.032589,-0.189002,0.007417,-8.3e-05,0.010296,-0.048318,-0.468838,-0.187148,0.6986,-266.374161,-0.70466,65.714895
4.876,0.046956,0.032162,-0.189102,0.007411,-9.2e-05,0.010296,-0.048498,-0.468375,-0.188674,0.697199,-266.37029,-0.708478,65.718804
4.8966,0.046886,0.032177,-0.187115,0.00741,-9.4e-05,0.010296,-0.048863,-0.468715,-0.189046,0.697199,-266.37029,-0.708478,65.718804
4.9163,0.046608,0.032186,-0.187579,0.007409,-9.6e-05,0.010296,-0.048863,-0.468715,-0.189046,0.697199,-266.37029,-0.708478,65.718804
4.9364,0.046908,0.032226,-0.18778,0.007408,-9.8e-05,0.010296,-0.048193,-0.46893,-0.187147,0.696367,-266.366426,-0.710758,65.722715
4.9562,0.046909,0.032342,-0.188738,0.007404,-0.000105,0.010296,-0.0482,-0.468888,-0.187353,0.696367,-266.366426,-0.710758,65.722715
4.9768,0.047162,0.031977,-0.186496,0.007401,-0.000111,0.010295,-0.048546,-0.468648,-0.18841,0.696083,-266.362558,-0.711409,65.726633
4.996,0.047221,0.031915,-0.186565,0.007396,-0.00012,0.010295,-0.047497,-0.469131,-0.186661,0.696083,-266.362558,-0.711409,65.726633
5.0159,0.046735,0.032314,-0.187373,0.007391,-0.000128,0.010295,-0.047497,-0.469131,-0.186661,0.696083,-266.362558,-0.711409,65.726633
5.0359,0.047321,0.032013,-0.185949,0.007387,-0.000134,0.010295,-0.047964,-0.468822,-0.186943,0.695524,-266.358702,-0.712886,65.730547
5.0558,0.047162,0.032119,-0.186298,0.007383,-0.000141,0.010295,-0.047519,-0.468983,-0.186484,0.695524,-266.358702,-0.712886,65.730547
5.076,0.046921,0.032175,-0.184333,0.00738,-0.000147,0.010295,-0.047072,-0.469104,-0.185971,0.694521,-266.354857,-0.715622,65.734462
5.096,0.047527,0.032226,-0.184085,0.007372,-0.00016,0.010295,-0.046592,-0.46918,-0.184464,0.694521,-266.354857,-0.715622,65.734462
5.1159,0.0472,0.032368,-0.184952,0.007366,-0.000171,0.010295,-0.046592,-0.46918,-0.184464,0.694521,-266.354857,-0.715622,65.734462
5.1358,0.047536,0.032237,-0.184436,0.007361,-0.000181,0.010295,-0.046287,-0.468997,-0.184522,0.693975,-266.351022,-0.71711,65.738372
5.1558,0.047056,0.032111,-0.185183,0.007353,-0.000194,0.010296,-0.046134,-0.469051,-0.184438,0.693975,-266.351022,-0.71711,65.738372
5.1757,0.047241,0.032038,-0.185213,0.007346,-0.000205,0.010296,-0.046619,-0.469218,-0.184856,0.692606,-266.347198,-0.720991,65.742291
5.1959,0.047499,0.031975,-0.183987,0.007345,-0.000207,0.010295,-0.046662,-0.46924,-0.185164,0.692606,-266.347198,-0.720991,65.742291
5.216,0.047724,0.031967,-0.18364,0.007344,-0.000209,0.010295,-0.046662,-0.46924,-0.185164,0.692606,-266.347198,-0.720991,65.742291
5.2361,0.047449,0.032056,-0.183141,0.007343,-0.00021,0.010295,-0.045106,-0.469522,-0.183208,0.691611,-266.343378,-0.723857,65.746218
5.2563,0.047393,0.031472,-0.184443,0.007335,-0.000224,0.010295,-0.045204,-0.469486,-0.183131,0.691611,-266.343378,-0.723857,65.746218
5.2761,0.047483,0.031767,-0.182065,0.007328,-0.000236,0.010295,-0.045912,-0.469927,-0.184115,0.691379,-266.339571,-0.724372,65.750133
5.2959,0.047712,0.03171,-0.183171,0.007322,-0.000245,0.010295,-0.044942,-0.469817,-0.182234,0.691379,-266.339571,-0.724372,65.750133
5.316,0.047516,0.031856,-0.184782,0.007317,-0.000253,0.010295,-0.044942,-0.469817,-0.182234,0.691379,-266.339571,-0.724372,65.750133
5.3364,0.047921,0.032013,-0.184517,0.007313,-0.00026,0.010295,-0.045887,-0.469528,-0.18435,0.690336,-266.33577,-0.727381,65.754057
5.356,0.047886,0.031628,-0.184317,0.007313,-0.00026,0.010294,-0.045756,-0.469455,-0.184369,0.690336,-266.33577,-0.727381,65.754057
5.3763,0.0478,0.031798,-0.181565,0.007313,-0.00026,0.010294,-0.045356,-0.469785,-0.183989,0.68934,-266.331979,-0.730208,65.757983
5.3961,0.047944,0.032154,-0.182756,0.007306,-0.000271,0.010294,-0.044375,-0.469819,-0.181767,0.68934,-266.331979,-0.730208,65.757983
5.4162,0.048013,0.031818,-0.182525,0.0073,-0.000281,0.010294,-0.044375,-0.469819,-0.181767,0.68934,-266.331979,-0.730208,65.757983
5.4362,0.047809,0.031727,-0.181284,0.007295,-0.000289,0.010294,-0.04426,-0.469776,-0.182094,0.689318,-266.328189,-0.730157,65.761909
5.4564,0.047784,0.031701,-0.182659,0.00729,-0.000297,0.010294,-0.044177,-0.46984,-0.181716,0.689318,-266.328189,-0.730157,65.761909
5.4762,0.048145,0.031806,-0.182944,0.007286,-0.000305,0.010294,-0.044627,-0.469866,-0.182329,0.688128,-266.324415,-0.733589,65.765834
5.4959,0.048205,0.032016,-0.180107,0.007285,-0.000307,0.010294,-0.044624,-0.469703,-0.182869,0.688128,-266.324415,-0.733589,65.765834
5.5161,0.047926,0.031763,-0.180767,0.007284,-0.000308,0.010294,-0.044624,-0.469703,-0.182869,0.688128,-266.324415,-0.733589,65.765834
5.5359,0.048353,0.031596,-0.181706,0.007283,-0.00031,0.010294,-0.043466,-0.469995,-0.180335,0.687493,-266.320621,-0.735416,65.769788
5.5561,0.048288,0.031649,-0.180242,0.007276,-0.00032,0.010294,-0.043575,-0.470008,-0.18086,0.687493,-266.320621,-0.735416,65.769788
5.5757,0.048043,0.031845,-0.182197,0.007271,-0.000328,0.010294,-0.042913,-0.470141,-0.179916,0.687241,-266.316869,-0.736015,65.773701
5.5961,0.048229,0.031498,-0.17962,0.00727,-0.000331,0.010293,-0.044226,-0.469753,-0.18198,0.687241,-266.316869,-0.736015,65.773701
5.616,0.048191,0.031644,-0.181959,0.007269,-0.000333,0.010293,-0.044226,-0.469753,-0.18198,0.687241,-266.316869,-0.736015,65.773701
5.6358,0.047949,0.031954,-0.179901,0.007268,-0.000334,0.010293,-0.043799,-0.470005,-0.181528,0.686505,-266.313113,-0.738171,65.777629
5.6562,0.048461,0.032154,-0.179991,0.007263,-0.000341,0.010293,-0.043565,-0.469936,-0.180818,0.686505,-266.313113,-0.738171,65.777629
5.6759,0.04855,0.031785,-0.179579,0.00726,-0.000347,0.010293,-0.042613,-0.469659,-0.179663,0.686235,-266.309355,-0.738855,65.781561
5.6961,0.048071,0.031418,-0.178405,0.00725,-0.000362,0.010293,-0.042538,-0.469984,-0.17957,0.686235,-266.309355,-0.738855,65.781561
5.7162,0.048568,0.03168,-0.178964,0.007241,-0.000375,0.010294,-0.042538,-0.469984,-0.17957,0.686235,-266.309355,-0.738855,65.781561
5.7358,0.0485,0.031422,-0.178434,0.007234,-0.000386,0.010294,-0.04192,-0.470243,-0.178532,0.685719,-266.305603,-0.740351,65.785495
5.756,0.048344,0.031236,-0.179014,0.007226,-0.000399,0.010294,-0.041926,-0.470347,-0.178443,0.685719,-266.305603,-0.740351,65.785495
5.7756,0.048915,0.031805,-0.179467,0.00722,-0.000409,0.010294,-0.042241,-0.470667,-0.178685,0.684619,-266.301858,-0.743761,65.789437
5.7959,0.048376,0.031843,-0.179353,0.007214,-0.000418,0.010294,-0.042122,-0.470063,-0.179385,0.684619,-266.301858,-0.743761,65.789437
5.8159,0.048824,0.031486,-0.178684,0.007209,-0.000425,0.010294,-0.042122,-0.470063,-0.179385,0.684619,-266.301858,-0.743761,65.789437
5.8361,0.048698,0.031474,-0.17874,0.007205,-0.000431,0.010294,-0.041526,-0.470464,-0.178254,0.683329,-266.298142,-0.74777,65.793367
5.8561,0.048829,0.031575,-0.178579,0.007201,-0.000438,0.010293,-0.041674,-0.470447,-0.178401,0.683329,-266.298142,-0.74777,65.793367
5.8759,0.048715,0.031447,-0.17737,0.007197,-0.000443,0.010293,-0.04154,-0.470369,-0.178251,0.682449,-266.294429,-0.750452,65.797307
5.8958,0.048524,0.031794,-0.177509,0.007191,-0.000452,0.010293,-0.041283,-0.470538,-0.177433,0.682449,-266.294429,-0.750452,65.797307
5.9158,0.048701,0.031619,-0.178245,0.007187,-0.000459,0.010293,-0.041283,-0.470538,-0.177433,0.682449,-266.294429,-0.750452,65.797307
5.9359,0.04888,0.031592,-0.176429,0.007183,-0.000465,0.010293,-0.04143,-0.470372,-0.177814,0.681971,-266.290714,-0.751877,65.801255
5.9559,0.048824,0.031339,-0.176054,0.007177,-0.000473,0.010293,-0.041068,-0.47043,-0.177193,0.681971,-266.290714,-0.751877,65.801255
5.9758,0.048805,0.031236,-0.178662,0.007172,-0.00048,0.010293,-0.040278,-0.470832,-0.175728,0.68113,-266.287014,-0.754429,65.8052
5.9958,0.048882,0.031408,-0.176884,0.007175,-0.000476,0.010292,-0.041687,-0.470665,-0.178399,0.68113,-266.287014,-0.754429,65.8052
6.0158,0.048779,0.031573,-0.176899,0.007177,-0.000473,0.010292,-0.041687,-0.470665,-0.178399,0.68113,-266.287014,-0.754429,65.8052
6.0357,0.048847,0.031643,-0.175649,0.007179,-0.000471,0.010291,-0.040678,-0.470541,-0.176469,0.680523,-266.283332,-0.756303,65.809135
6.0561,0.048856,0.030938,-0.175922,0.00717,-0.000484,0.010292,-0.04048,-0.470537,-0.176086,0.680523,-266.283332,-0.756303,65.809135
6.0763,0.049224,0.031008,-0.174985,0.007162,-0.000495,0.010292,-0.040179,-0.471246,-0.175593,0.680838,-266.279629,-0.755083,65.813086
6.0965,0.049298,0.031506,-0.174555,0.007154,-0.000508,0.010292,-0.039605,-0.47121,-0.175021,0.680838,-266.279629,-0.755083,65.813086
6.1161,0.048571,0.031516,-0.174674,0.007147,-0.000518,0.010292,-0.039605,-0.47121,-0.175021,0.680838,-266.279629,-0.755083,65.813086
6.1363,0.049535,0.031181,-0.175389,0.007141,-0.000526,0.010292,-0.039769,-0.470796,-0.174244,0.679895,-266.275953,-0.758072,65.817022
6.1562,0.049315,0.031401,-0.175682,0.007133,-0.000537,0.010292,-0.039609,-0.470885,-0.174658,0.679895,-266.275953,-0.758072,65.817022
6.1761,0.04941,0.031643,-0.173749,0.007127,-0.000546,0.010292,-0.039602,-0.470805,-0.175354,0.678729,-266.272284,-0.761846,65.820969
6.1962,0.049374,0.031334,-0.174559,0.007114,-0.000565,0.010293,-0.038821,-0.470693,-0.173876,0.678729,-266.272284,-0.761846,65.820969
6.2162,0.049656,0.031196,-0.175858,0.007103,-0.00058,0.010293,-0.038821,-0.470693,-0.173876,0.678729,-266.272284,-0.761846,65.820969
6.2359,0.049198,0.031243,-0.175417,0.007094,-0.000593,0.010293,-0.039281,-0.471012,-0.175428,0.677987,-266.268624,-0.764286,65.824918
6.2564,0.049352,0.031635,-0.17367,0.007094,-0.000593,0.010293,-0.039463,-0.470987,-0.175374,0.677987,-266.268624,-0.764286,65.824918
6.2759,0.049768,0.031081,-0.174528,0.007094,-0.000593,0.010292,-0.038557,-0.470751,-0.173343,0.676286,-266.264988,-0.770099,65.828869
6.2962,0.049794,0.030745,-0.174785,0.007089,-0.0006,0.010292,-0.038758,-0.471137,-0.174405,0.676286,-266.264988,-0.770099,65.828869
6.3162,0.049438,0.030959,-0.173858,0.007085,-0.000605,0.010292,-0.038758,-0.471137,-0.174405,0.676286,-266.264988,-0.770099,65.828869
6.3359,0.049253,0.031175,-0.174155,0.007082,-0.00061,0.010292,-0.038495,-0.471428,-0.173427,0.676266,-266.26135,-0.770024,65.832821
6.3558,0.049894,0.031139,-0.173209,0.00708,-0.000613,0.010291,-0.038714,-0.471308,-0.173672,0.676266,-266.26135,-0.770024,65.832821
6.3762,0.049795,0.031036,-0.172221,0.007078,-0.000616,0.010291,-0.037783,-0.471287,-0.172881,0.675601,-266.25772,-0.772054,65.836774
6.3961,0.049869,0.031339,-0.172747,0.007068,-0.00063,0.010291,-0.037609,-0.47141,-0.172263,0.675601,-266.25772,-0.772054,65.836774
6.4163,0.049887,0.03132,-0.173003,0.007059,-0.000642,0.010291,-0.037609,-0.47141,-0.172263,0.675601,-266.25772,-0.772054,65.836774
6.4361,0.049549,0.03095,-0.1725,0.007052,-0.000652,0.010292,-0.037618,-0.471143,-0.172572,0.675353,-266.254093,-0.772746,65.840729
6.4562,0.049816,0.03103,-0.172345,0.007046,-0.00066,0.010291,-0.037737,-0.47129,-0.172493,0.675353,-266.254093,-0.772746,65.840729
6.4765,0.049768,0.03079,-0.171683,0.007041,-0.000667,0.010291,-0.037427,-0.471474,-0.172016,0.674045,-266.250474,-0.777209,65.844695
6.4961,0.04994,0.031017,-0.170786,0.007037,-0.000673,0.010291,-0.037356,-0.471696,-0.171695,0.674045,-266.250474,-0.777209,65.844695
6.516,0.049805,0.030962,-0.169991,0.007033,-0.000678,0.010291,-0.037356,-0.471696,-0.171695,0.674045,-266.250474,-0.777209,65.844695
6.5363,0.050194,0.030697,-0.170848,0.00703,-0.000682,0.010291,-0.036188,-0.471764,-0.169561,0.673501,-266.24688,-0.779025,65.848642
6.5561,0.04977,0.030904,-0.169767,0.007019,-0.000698,0.010291,-0.036287,-0.471819,-0.170033,0.673501,-266.24688,-0.779025,65.848642
6.576,0.050087,0.030761,-0.16854,0.007009,-0.000711,0.010292,-0.036176,-0.471825,-0.169436,0.672906,-266.243285,-0.780941,65.852601
6.5963,0.049995,0.031088,-0.16876,0.006995,-0.00073,0.010292,-0.035517,-0.471998,-0.168606,0.672906,-266.243285,-0.780941,65.852601
6.6163,0.049974,0.030793,-0.171488,0.006983,-0.000745,0.010292,-0.035517,-0.471998,-0.168606,0.672906,-266.243285,-0.780941,65.852601
6.6363,0.050074,0.030506,-0.168959,0.006973,-0.000758,0.010292,-0.036772,-0.471806,-0.171056,0.671911,-266.239687,-0.784504,65.85658
6.6565,0.05019,0.030877,-0.170223,0.006972,-0.00076,0.010292,-0.036287,-0.471993,-0.170133,0.671911,-266.239687,-0.784504,65.85658
6.6764,0.05043,0.031246,-0.168753,0.006971,-0.000761,0.010291,-0.035992,-0.471813,-0.169897,0.670283,-266.236121,-0.790495,65.860552
6.6963,0.050399,0.030949,-0.169284,0.006958,-0.000779,0.010292,-0.035272,-0.471534,-0.168822,0.670283,-266.236121,-0.790495,65.860552
6.7164,0.050082,0.030612,-0.16861,0.006946,-0.000794,0.010292,-0.035272,-0.471534,-0.168822,0.670283,-266.236121,-0.790495,65.860552
6.7363,0.050579,0.030857,-0.169357,0.006936,-0.000807,0.010292,-0.035223,-0.472235,-0.168183,0.670165,-266.232587,-0.790741,65.864489
6.7562,0.050153,0.030965,-0.168404,0.006932,-0.000812,0.010292,-0.035255,-0.472086,-0.168612,0.670165,-266.232587,-0.790741,65.864489
6.7765,0.05052,0.030525,-0.167281,0.006929,-0.000816,0.010292,-0.035115,-0.471882,-0.168077,0.669035,-266.229047,-0.794955,65.868455
6.7962,0.050501,0.030762,-0.168167,0.00692,-0.000828,0.010292,-0.034449,-0.472317,-0.167336,0.669035,-266.229047,-0.794955,65.868455
6.8161,0.050272,0.030512,-0.166857,0.006912,-0.000838,0.010292,-0.034449,-0.472317,-0.167336,0.669035,-266.229047,-0.794955,65.868455
6.836,0.050522,0.030604,-0.168,0.006906,-0.000846,0.010292,-0.03415,-0.472487,-0.166426,0.668227,-266.225517,-0.797761,65.872423
6.8559,0.050249,0.030731,-0.168355,0.0069,-0.000853,0.010292,-0.034364,-0.472387,-0.167015,0.668227,-266.225517,-0.797761,65.872423
6.8759,0.050541,0.030964,-0.166437,0.006895,-0.000859,0.010291,-0.034994,-0.472121,-0.168027,0.667488,-266.221996,-0.800447,65.876393
6.8958,0.050268,0.030351,-0.167372,0.006885,-0.000873,0.010292,-0.034032,-0.472004,-0.166561,0.667488,-266.221996,-0.800447,65.876393
6.9159,0.050166,0.030666,-0.16633,0.006876,-0.000884,0.010292,-0.034032,-0.472004,-0.166561,0.667488,-266.221996,-0.800447,65.876393
6.9363,0.04999,0.030432,-0.166849,0.006869,-0.000893,0.010292,-0.033993,-0.472379,-0.165899,0.666708,-266.218487,-0.803159,65.880364
6.9559,0.050712,0.030274,-0.166817,0.006868,-0.000894,0.010291,-0.034249,-0.472432,-0.166231,0.666708,-266.218487,-0.803159,65.880364
6.9762,0.050632,0.030253,-0.166054,0.006867,-0.000895,0.010291,-0.033758,-0.472711,-0.166488,0.665566,-266.214995,-0.807471,65.884337
6.9958,0.050603,0.030403,-0.166426,0.006863,-0.0009,0.01029,-0.033664,-0.472734,-0.166077,0.665566,-266.214995,-0.807471,65.884337
7.0162,0.050371,0.03037,-0.167304,0.00686,-0.000904,0.01029,-0.033664,-0.472734,-0.166077,0.665566,-266.214995,-0.807471,65.884337
7.0361,0.050847,0.030342,-0.166427,0.006858,-0.000907,0.01029,-0.034279,-0.472594,-0.166872,0.665437,-266.211504,-0.807708,65.888311
7.0562,0.050581,0.030116,-0.165805,0.006858,-0.000907,0.01029,-0.033988,-0.472611,-0.166643,0.665437,-266.211504,-0.807708,65.888311
7.0761,0.051051,0.030132,-0.165084,0.006858,-0.000907,0.010289,-0.033382,-0.472955,-0.165477,0.664978,-266.208018,-0.809167,65.892286
7.0961,0.0505,0.030289,-0.16548,0.006849,-0.000919,0.010289,-0.032806,-0.472939,-0.165103,0.664978,-266.208018,-0.809167,65.892286
7.1164,0.050763,0.030418,-0.16377,0.006841,-0.000928,0.01029,-0.032806,-0.472939,-0.165103,0.664978,-266.208018,-0.809167,65.892286
7.1361,0.050888,0.030473,-0.165521,0.006835,-0.000936,0.01029,-0.03211,-0.472842,-0.163339,0.664936,-266.204532,-0.809088,65.896261
7.1563,0.050914,0.030496,-0.165482,0.006824,-0.00095,0.01029,-0.032498,-0.472735,-0.164179,0.664936,-266.204532,-0.809088,65.896261
7.1764,0.050921,0.030529,-0.163503,0.006815,-0.000961,0.01029,-0.032887,-0.472602,-0.165154,0.664237,-266.201057,-0.811816,65.900237
7.1964,0.050953,0.030473,-0.163862,0.006803,-0.000975,0.010291,-0.032155,-0.472667,-0.163636,0.664237,-266.201057,-0.811816,65.900237
7.2165,0.051224,0.030101,-0.164205,0.006793,-0.000987,0.010291,-0.032155,-0.472667,-0.163636,0.664237,-266.201057,-0.811816,65.900237
7.2361,0.051048,0.030143,-0.163691,0.006784,-0.000998,0.010291,-0.031869,-0.473125,-0.163773,0.663203,-266.197599,-0.816016,65.904215
7.2563,0.05076,0.030113,-0.165099,0.006779,-0.001004,0.010291,-0.031915,-0.4731,-0.163691,0.663203,-266.197599,-0.816016,65.904215
7.2757,0.05125,0.030305,-0.165017,0.006774,-0.00101,0.010291,-0.03285,-0.473018,-0.164771,0.662064,-266.194159,-0.82082,65.908194
7.2958,0.051366,0.03012,-0.16255,0.006774,-0.00101,0.010291,-0.032546,-0.472793,-0.164978,0.662064,-266.194159,-0.82082,65.908194
7.3159,0.051209,0.030198,-0.161415,0.006775,-0.001009,0.01029,-0.032546,-0.472793,-0.164978,0.662064,-266.194159,-0.82082,65.908194
7.3367,0.050931,0.030141,-0.162526,0.006775,-0.001009,0.01029,-0.030482,-0.473259,-0.160985,0.661642,-266.190725,-0.822463,65.912177
7.3566,0.051035,0.02998,-0.162008,0.00676,-0.001027,0.01029,-0.03089,-0.473222,-0.161545,0.661642,-266.190725,-0.822463,65.912177
7.3757,0.051247,0.030199,-0.162425,0.006747,-0.001042,0.010291,-0.031019,-0.473409,-0.161678,0.66159,-266.187291,-0.822262,65.916158
7.3966,0.051226,0.030056,-0.162619,0.006739,-0.001052,0.010291,-0.031196,-0.473121,-0.16234,0.66159,-266.187291,-0.822262,65.916158
7.4163,0.050778,0.029823,-0.163327,0.006732,-0.001059,0.010291,-0.031196,-0.473121,-0.16234,0.66159,-266.187291,-0.822262,65.916158
7.4363,0.051359,0.029985,-0.160592,0.006727,-0.001066,0.010291,-0.031877,-0.473479,-0.162895,0.660608,-266.183874,-0.82662,65.920141
7.4568,0.050975,0.030021,-0.159962,0.006725,-0.001068,0.010291,-0.031166,-0.473478,-0.161917,0.660608,-266.183874,-0.82662,65.920141
7.4761,0.051143,0.029861,-0.162688,0.006723,-0.00107,0.01029,-0.030049,-0.473536,-0.15963,0.659872,-266.180469,-0.829706,65.924126
7.4959,0.051531,0.030177,-0.161941,0.006723,-0.001071,0.01029,-0.031317,-0.47342,-0.162381,0.659872,-266.180469,-0.829706,65.924126
7.516,0.051263,0.029917,-0.159814,0.006723,-0.001071,0.01029,-0.031317,-0.47342,-0.162381,0.659872,-266.180469,-0.829706,65.924126
7.5361,0.051642,0.029738,-0.160389,0.006722,-0.001071,0.010289,-0.029624,-0.473674,-0.159382,0.65969,-266.177066,-0.830287,65.928112
7.5558,0.05122,0.029742,-0.161084,0.006706,-0.001091,0.01029,-0.029666,-0.473701,-0.159736,0.65969,-266.177066,-0.830287,65.928112
7.576,0.051104,0.029638,-0.160854,0.006691,-0.001107,0.010291,-0.030372,-0.473724,-0.160756,0.659597,-266.173663,-0.83031,65.932098
7.596,0.051579,0.029651,-0.160306,0.006691,-0.001108,0.01029,-0.030549,-0.473777,-0.160828,0.659597,-266.173663,-0.83031,65.932098
7.616,0.051735,0.030151,-0.160769,0.00669,-0.001108,0.01029,-0.030549,-0.473777,-0.160828,0.659597,-266.173663,-0.83031,65.932098
7.6364,0.051792,0.029712,-0.15989,0.00669,-0.001109,0.01029,-0.029635,-0.473363,-0.160337,0.658591,-266.17028,-0.835141,65.936085
7.6559,0.051617,0.029845,-0.159411,0.006676,-0.001125,0.01029,-0.029511,-0.473542,-0.160108,0.658591,-266.17028,-0.835141,65.936085
7.6762,0.051503,0.029358,-0.157762,0.006664,-0.001138,0.010291,-0.029134,-0.473757,-0.159083,0.658484,-266.166896,-0.835289,65.940073
7.6962,0.051797,0.029661,-0.158552,0.006649,-0.001155,0.010291,-0.028658,-0.474263,-0.157864,0.658484,-266.166896,-0.835289,65.940073
7.7163,0.051244,0.0297,-0.158497,0.006636,-0.001169,0.010292,-0.028658,-0.474263,-0.157864,0.658484,-266.166896,-0.835289,65.940073
7.7361,0.051542,0.029686,-0.159509,0.006626,-0.00118,0.010292,-0.028982,-0.473999,-0.158065,0.657657,-266.163529,-0.839284,65.944062
7.7561,0.051564,0.029382,-0.158565,0.00662,-0.001186,0.010292,-0.029145,-0.473945,-0.158597,0.657657,-266.163529,-0.839284,65.944062
7.7759,0.051845,0.029991,-0.158232,0.006616,-0.001192,0.010292,-0.028763,-0.47429,-0.158236,0.656525,-266.160185,-0.844937,65.948054
7.7961,0.052029,0.029446,-0.156897,0.006602,-0.001206,0.010292,-0.028529,-0.4737,-0.158215,0.656525,-266.160185,-0.844937,65.948054
7.8164,0.051858,0.029665,-0.157654,0.006591,-0.001219,0.010293,-0.028529,-0.4737,-0.158215,0.656525,-266.160185,-0.844937,65.948054
7.836,0.051997,0.029484,-0.157596,0.006581,-0.001229,0.010293,-0.027947,-0.474103,-0.157223,0.656181,-266.156846,-0.846453,65.952046
7.8562,0.051451,0.029693,-0.157551,0.00657,-0.001242,0.010293,-0.027956,-0.474151,-0.157324,0.656181,-266.156846,-0.846453,65.952046
7.8761,0.051859,0.029177,-0.155957,0.00656,-0.001252,0.010293,-0.028367,-0.474062,-0.157224,0.655174,-266.153527,-0.851594,65.95604
7.8958,0.05175,0.028804,-0.157348,0.006549,-0.001264,0.010293,-0.027438,-0.474586,-0.156055,0.655174,-266.153527,-0.851594,65.95604
7.9158,0.051779,0.029108,-0.1565,0.00654,-0.001274,0.010293,-0.027438,-0.474586,-0.156055,0.655174,-266.153527,-0.851594,65.95604
7.936,0.05174,0.029255,-0.156739,0.006532,-0.001282,0.010293,-0.027448,-0.474754,-0.156069,0.654574,-266.15022,-0.854658,65.960037
7.9558,0.051758,0.029114,-0.157029,0.006528,-0.001286,0.010293,-0.027589,-0.474659,-0.156292,0.654574,-266.15022,-0.854658,65.960037
7.9761,0.052019,0.028967,-0.156078,0.006525,-0.00129,0.010292,-0.027798,-0.474684,-0.1567,0.653767,-266.146929,-0.858781,65.964035
7.9961,0.05194,0.029341,-0.155009,0.00652,-0.001295,0.010292,-0.027297,-0.474824,-0.156118,0.653767,-266.146929,-0.858781,65.964035
8.0161,0.052056,0.028884,-0.155949,0.006516,-0.001299,0.010291,-0.027297,-0.474824,-0.156118,0.653767,-266.146929,-0.858781,65.964035
8.0359,0.052241,0.029166,-0.156202,0.006512,-0.001303,0.010291,-0.026894,-0.475022,-0.155518,0.653509,-266.143642,-0.859792,65.968034
8.0562,0.052371,0.029516,-0.155397,0.006505,-0.00131,0.010291,-0.026947,-0.474872,-0.155746,0.653509,-266.143642,-0.859792,65.968034
8.0762,0.052101,0.029162,-0.153833,0.006499,-0.001317,0.010291,-0.026364,-0.474412,-0.155069,0.653085,-266.140355,-0.861568,65.972043
8.0963,0.052154,0.029132,-0.154799,0.006481,-0.001336,0.010292,-0.026062,-0.474784,-0.153924,0.653085,-266.140355,-0.861568,65.972043
8.1163,0.052015,0.028837,-0.154905,0.006465,-0.001352,0.010293,-0.026062,-0.474784,-0.153924,0.653085,-266.140355,-0.861568,65.972043
8.1362,0.052067,0.029154,-0.153726,0.006452,-0.001365,0.010293,-0.026411,-0.475153,-0.154475,0.652707,-266.137075,-0.863441,65.976053
8.1564,0.052288,0.02898,-0.154501,0.006446,-0.001371,0.010293,-0.02622,-0.47503,-0.154113,0.652707,-266.137075,-0.863441,65.976053
8.1763,0.051742,0.029011,-0.153071,0.006441,-0.001377,0.010293,-0.025999,-0.475019,-0.154175,0.651611,-266.133847,-0.870217,65.980035
8.1967,0.052109,0.028972,-0.152754,0.006433,-0.001385,0.010293,-0.026007,-0.475029,-0.153154,0.651611,-266.133847,-0.870217,65.980035
8.2166,0.052408,0.028863,-0.155286,0.006426,-0.001392,0.010292,-0.026007,-0.475029,-0.153154,0.651611,-266.133847,-0.870217,65.980035
8.2359,0.052216,0.028863,-0.151921,0.00642,-0.001398,0.010292,-0.026212,-0.475099,-0.154854,0.651281,-266.130608,-0.871869,65.984038
8.2564,0.052441,0.028568,-0.15256,0.006413,-0.001405,0.010292,-0.025682,-0.475176,-0.153627,0.651281,-266.130608,-0.871869,65.984038
8.2759,0.052457,0.028939,-0.152961,0.006407,-0.001411,0.010292,-0.024865,-0.475585,-0.152227,0.650732,-266.12738,-0.87473,65.988043
8.2961,0.052364,0.028644,-0.151401,0.006395,-0.001424,0.010292,-0.025204,-0.475154,-0.152877,0.650732,-266.12738,-0.87473,65.988043
8.3159,0.052084,0.028776,-0.153264,0.006385,-0.001434,0.010293,-0.025204,-0.475154,-0.152877,0.650732,-266.12738,-0.87473,65.988043
8.3358,0.052614,0.028726,-0.151937,0.006376,-0.001443,0.010293,-0.025519,-0.475345,-0.152833,0.650381,-266.12416,-0.876609,65.992049
8.3562,0.052112,0.028752,-0.153251,0.006369,-0.001449,0.010293,-0.025106,-0.475378,-0.152419,0.650381,-266.12416,-0.876609,65.992049
8.3761,0.052495,0.028639,-0.151467,0.006364,-0.001455,0.010293,-0.025547,-0.475347,-0.152923,0.649677,-266.120958,-0.881032,65.996055
8.3962,0.052353,0.028436,-0.151246,0.006352,-0.001467,0.010293,-0.024547,-0.47551,-0.151582,0.649677,-266.120958,-0.881032,65.996055
8.4162,0.052442,0.028454,-0.152239,0.006342,-0.001476,0.010293,-0.024547,-0.47551,-0.151582,0.649677,-266.120958,-0.881032,65.996055
8.4363,0.052483,0.028555,-0.151561,0.006334,-0.001484,0.010293,-0.024647,-0.475748,-0.151808,0.649367,-266.117757,-0.882762,66.00007
8.4559,0.052581,0.028319,-0.150896,0.006329,-0.001489,0.010293,-0.024564,-0.475699,-0.151657,0.649367,-266.117757,-0.882762,66.00007
8.476,0.052275,0.028163,-0.151611,0.006325,-0.001493,0.010293,-0.023893,-0.475963,-0.150569,0.648729,-266.114578,-0.886967,66.00408
8.4961,0.051948,0.028569,-0.150774,0.006326,-0.001492,0.010292,-0.024668,-0.475989,-0.151506,0.648729,-266.114578,-0.886967,66.00408
8.5161,0.05245,0.028434,-0.15023,0.006326,-0.001492,0.010291,-0.024668,-0.475989,-0.151506,0.648729,-266.114578,-0.886967,66.00408
8.5361,0.052584,0.02804,-0.150682,0.006327,-0.001491,0.010291,-0.023627,-0.475923,-0.1498,0.648488,-266.11141,-0.88818,66.008083
8.5562,0.052219,0.028343,-0.152189,0.006314,-0.001504,0.010292,-0.023739,-0.476039,-0.150109,0.648488,-266.11141,-0.88818,66.008083
8.5756,0.052414,0.028481,-0.150937,0.006303,-0.001515,0.010292,-0.024904,-0.47584,-0.151858,0.64839,-266.108223,-0.887817,66.012108
8.596,0.052398,0.028109,-0.149314,0.006299,-0.001518,0.010292,-0.024315,-0.475734,-0.150997,0.64839,-266.108223,-0.887817,66.012108
8.616,0.052728,0.02856,-0.149807,0.006296,-0.001521,0.010292,-0.024315,-0.475734,-0.150997,0.64839,-266.108223,-0.887817,66.012108
8.6364,0.052453,0.028094,-0.148834,0.006294,-0.001524,0.010291,-0.023138,-0.47583,-0.149378,0.64794,-266.10505,-0.891219,66.016133
8.6561,0.052471,0.028332,-0.148978,0.006276,-0.001541,0.010293,-0.023123,-0.476028,-0.149097,0.64794,-266.10505,-0.891219,66.016133
8.6762,0.052461,0.028299,-0.149381,0.006261,-0.001555,0.010293,-0.023038,-0.476096,-0.148654,0.647685,-266.101912,-0.892414,66.020121
8.6962,0.052708,0.028071,-0.149894,0.006253,-0.001563,0.010294,-0.023397,-0.476032,-0.149302,0.647685,-266.101912,-0.892414,66.020121
8.7162,0.052397,0.028173,-0.147587,0.006246,-0.001569,0.010294,-0.023397,-0.476032,-0.149302,0.647685,-266.101912,-0.892414,66.020121
8.7361,0.052645,0.027984,-0.146532,0.00624,-0.001575,0.010293,-0.022349,-0.476385,-0.147156,0.647172,-266.098778,-0.896968,66.024128
8.7559,0.052754,0.028228,-0.147455,0.006218,-0.001595,0.010295,-0.022106,-0.476464,-0.146854,0.647172,-266.098778,-0.896968,66.024128
8.7761,0.052816,0.028015,-0.146538,0.0062,-0.001612,0.010296,-0.021986,-0.476317,-0.147126,0.646752,-266.095651,-0.899862,66.028142
8.7958,0.052413,0.028194,-0.148492,0.006178,-0.001632,0.010297,-0.021672,-0.476504,-0.146574,0.646752,-266.095651,-0.899862,66.028142
8.8161,0.05219,0.027641,-0.149826,0.006159,-0.001649,0.010298,-0.021672,-0.476504,-0.146574,0.646752,-266.095651,-0.899862,66.028142
8.836,0.052935,0.028208,-0.147727,0.006143,-0.001663,0.010298,-0.023689,-0.476751,-0.149395,0.646216,-266.092546,-0.905399,66.032157
8.856,0.052451,0.02758,-0.147507,0.006154,-0.001654,0.010296,-0.023031,-0.476555,-0.14867,0.646216,-266.092546,-0.905399,66.032157
8.8761,0.052883,0.027552,-0.147935,0.006162,-0.001646,0.010295,-0.022319,-0.476964,-0.147178,0.645491,-266.089472,-0.913038,66.036173
8.896,0.053031,0.028112,-0.145752,0.00616,-0.001648,0.010294,-0.022282,-0.47689,-0.14785,0.645491,-266.089472,-0.913038,66.036173
8.9162,0.052908,0.027735,-0.147488,0.006159,-0.00165,0.010293,-0.022282,-0.47689,-0.14785,0.645491,-266.089472,-0.913038,66.036173
8.9358,0.052699,0.027425,-0.146174,0.006158,-0.001651,0.010293,-0.021794,-0.476834,-0.147058,0.645529,-266.086387,-0.910446,66.040191
8.9559,0.05289,0.028009,-0.145499,0.006148,-0.00166,0.010293,-0.02168,-0.476969,-0.146648,0.645529,-266.086387,-0.910446,66.040191
8.9764,0.053152,0.027699,-0.145323,0.006139,-0.001668,0.010293,-0.020867,-0.476682,-0.145171,0.645252,-266.083304,-0.910939,66.04421
8.9962,0.0525,0.027573,-0.14704,0.006114,-0.00169,0.010295,-0.020707,-0.476907,-0.145293,0.645252,-266.083304,-0.910939,66.04421
9.0161,0.053252,0.027823,-0.145605,0.006093,-0.001709,0.010296,-0.020707,-0.476907,-0.145293,0.645252,-266.083304,-0.910939,66.04421
9.0361,0.053051,0.027388,-0.145551,0.006076,-0.001724,0.010297,-0.0205,-0.476886,-0.145174,0.644952,-266.080226,-0.913546,66.048235
9.0566,0.053113,0.027383,-0.145031,0.006061,-0.001737,0.010298,-0.020643,-0.477035,-0.145279,0.644952,-266.080226,-0.913546,66.048235
9.0759,0.052927,0.027273,-0.144082,0.006049,-0.001748,0.010298,-0.02041,-0.477345,-0.144702,0.644365,-266.077195,-0.922078,66.052247
9.0959,0.052562,0.027195,-0.144253,0.006036,-0.001759,0.010298,-0.020301,-0.477438,-0.144121,0.644365,-266.077195,-0.922078,66.052247
9.1162,0.052571,0.027396,-0.144806,0.006026,-0.001768,0.010298,-0.020301,-0.477438,-0.144121,0.644365,-266.077195,-0.922078,66.052247
9.1365,0.052631,0.026952,-0.144367,0.006017,-0.001776,0.010298,-0.020782,-0.477375,-0.144375,0.644062,-266.07417,-0.925622,66.056269
9.1559,0.052766,0.027407,-0.144211,0.006018,-0.001775,0.010297,-0.020738,-0.477537,-0.144322,0.644062,-266.07417,-0.925622,66.056269
9.1762,0.052917,0.027587,-0.143124,0.006019,-0.001774,0.010296,-0.020346,-0.477382,-0.143884,0.64378,-266.071153,-0.92869,66.060298
9.1959,0.052948,0.027259,-0.144074,0.006,-0.00179,0.010297,-0.019863,-0.477218,-0.143174,0.64378,-266.071153,-0.92869,66.060298
9.2159,0.053043,0.027159,-0.142909,0.005985,-0.001803,0.010298,-0.019863,-0.477218,-0.143174,0.64378,-266.071153,-0.92869,66.060298
9.2361,0.052916,0.027338,-0.142687,0.005972,-0.001814,0.010298,-0.019354,-0.477752,-0.142479,0.643498,-266.068148,-0.929543,66.064317
9.256,0.05274,0.026449,-0.142795,0.005957,-0.001826,0.010299,-0.01943,-0.477653,-0.142514,0.643498,-266.068148,-0.929543,66.064317
9.2761,0.052859,0.027356,-0.14289,0.005945,-0.001836,0.010299,-0.019658,-0.478444,-0.142467,0.643139,-266.06516,-0.935711,66.068348
9.2958,0.052987,0.027079,-0.142148,0.00594,-0.001841,0.010299,-0.019749,-0.477534,-0.142839,0.643139,-266.06516,-0.935711,66.068348
9.3161,0.052895,0.02689,-0.143437,0.005935,-0.001845,0.010298,-0.019749,-0.477534,-0.142839,0.643139,-266.06516,-0.935711,66.068348
9.336,0.053118,0.026946,-0.140961,0.005931,-0.001848,0.010298,-0.019772,-0.477984,-0.143006,0.64294,-266.062184,-0.939171,66.072381
9.3562,0.052605,0.027125,-0.142739,0.005923,-0.001855,0.010298,-0.019233,-0.478002,-0.14211,0.64294,-266.062184,-0.939171,66.072381
9.3756,0.052753,0.026365,-0.141422,0.005917,-0.001861,0.010297,-0.019767,-0.477773,-0.142413,0.642676,-266.059226,-0.940958,66.076402
9.3959,0.052922,0.026825,-0.141436,0.005915,-0.001862,0.010297,-0.019176,-0.478484,-0.141488,0.642676,-266.059226,-0.940958,66.076402
9.4159,0.052742,0.026717,-0.141966,0.005913,-0.001864,0.010296,-0.019176,-0.478484,-0.141488,0.642676,-266.059226,-0.940958,66.076402
9.4364,0.052842,0.026809,-0.140126,0.005912,-0.001865,0.010296,-0.019184,-0.478265,-0.141535,0.642519,-266.056274,-0.942855,66.080424
9.4559,0.053243,0.026882,-0.140429,0.005902,-0.001873,0.010296,-0.018841,-0.478249,-0.140926,0.642519,-266.056274,-0.942855,66.080424
9.4761,0.052814,0.026719,-0.139546,0.005893,-0.001881,0.010296,-0.017963,-0.478183,-0.140102,0.642327,-266.053321,-0.943431,66.084452
9.4962,0.052945,0.02691,-0.140049,0.005872,-0.001898,0.010298,-0.0181,-0.478315,-0.139579,0.642327,-266.053321,-0.943431,66.084452
9.5162,0.05322,0.026777,-0.140763,0.005854,-0.001912,0.010299,-0.0181,-0.478315,-0.139579,0.642327,-266.053321,-0.943431,66.084452
9.5359,0.053293,0.026405,-0.139308,0.005838,-0.001924,0.010299,-0.0181,-0.478291,-0.140333,0.64222,-266.050378,-0.945865,66.088481
9.5558,0.05319,0.026455,-0.139606,0.005823,-0.001936,0.0103,-0.017839,-0.478452,-0.139866,0.64222,-266.050378,-0.945865,66.088481
9.5767,0.053085,0.026547,-0.139658,0.005809,-0.001947,0.0103,-0.017602,-0.478669,-0.139279,0.642178,-266.04745,-0.952863,66.092528
9.596,0.052904,0.026694,-0.140656,0.005799,-0.001955,0.010301,-0.017866,-0.478512,-0.139598,0.642178,-266.04745,-0.952863,66.092528
9.6158,0.052753,0.02598,-0.140052,0.00579,-0.001961,0.0103,-0.017866,-0.478512,-0.139598,0.642178,-266.04745,-0.952863,66.092528
9.6358,0.053146,0.026488,-0.139015,0.005783,-0.001967,0.0103,-0.018212,-0.479141,-0.139624,0.642137,-266.044559,-0.956585,66.096545
9.6559,0.053075,0.026164,-0.138476,0.005782,-0.001968,0.010299,-0.017901,-0.478927,-0.139322,0.642137,-266.044559,-0.956585,66.096545
9.6762,0.053262,0.026192,-0.138561,0.005781,-0.001969,0.010298,-0.017149,-0.479042,-0.138148,0.642,-266.04167,-0.959846,66.100579
9.696,0.053131,0.026444,-0.137435,0.005766,-0.001981,0.010299,-0.017167,-0.478935,-0.138509,0.642,-266.04167,-0.959846,66.100579
9.7159,0.053226,0.026084,-0.137135,0.005752,-0.001991,0.0103,-0.017167,-0.478935,-0.138509,0.642,-266.04167,-0.959846,66.100579
9.7362,0.053321,0.026007,-0.13927,0.005741,-0.001999,0.0103,-0.016266,-0.479242,-0.136704,0.641852,-266.038782,-0.960032,66.104612
9.7565,0.052949,0.026283,-0.138569,0.005725,-0.002011,0.0103,-0.016735,-0.479179,-0.137705,0.641852,-266.038782,-0.960032,66.104612
9.7756,0.053402,0.025707,-0.137481,0.005712,-0.002021,0.010301,-0.017324,-0.478916,-0.138242,0.641875,-266.035918,-0.965065,66.108641
9.796,0.052767,0.026027,-0.139449,0.0057,-0.00203,0.010301,-0.016555,-0.479436,-0.13753,0.641875,-266.035918,-0.965065,66.108641
9.8159,0.052925,0.025884,-0.136877,0.00569,-0.002038,0.010301,-0.016555,-0.479436,-0.13753,0.641875,-266.035918,-0.965065,66.108641
9.8359,0.053063,0.025715,-0.136203,0.005681,-0.002044,0.010301,-0.01644,-0.479462,-0.136447,0.641944,-266.033069,-0.968734,66.112669
9.8558,0.053362,0.025715,-0.135845,0.005669,-0.002053,0.010301,-0.01631,-0.479516,-0.136298,0.641944,-266.033069,-0.968734,66.112669
9.8761,0.053216,0.025977,-0.136998,0.005658,-0.002061,0.010301,-0.015536,-0.479675,-0.135517,0.641965,-266.030233,-0.972568,66.116703
9.8961,0.053178,0.025932,-0.136175,0.005648,-0.002068,0.010301,-0.016345,-0.479288,-0.136848,0.641965,-266.030233,-0.972568,66.116703
9.916,0.052984,0.025957,-0.133978,0.00564,-0.002075,0.010301,-0.016345,-0.479288,-0.136848,0.641965,-266.030233,-0.972568,66.116703
9.9359,0.053053,0.025894,-0.135584,0.005633,-0.00208,0.010301,-0.014918,-0.47959,-0.133547,0.642016,-266.027407,-0.975383,66.120738
9.9561,0.052961,0.025971,-0.136738,0.005605,-0.002099,0.010303,-0.015287,-0.479536,-0.13433,0.642016,-266.027407,-0.975383,66.120738
9.9762,0.052896,0.025736,-0.13769,0.005581,-0.002116,0.010304,-0.016389,-0.479359,-0.13641,0.64202,-266.024594,-0.97851,66.124774
9.9962,0.05302,0.025381,-0.135316,0.0056,-0.002102,0.010301,-0.017032,-0.479435,-0.137559,0.64202,-266.024594,-0.97851,66.124774
10.0162,0.052988,0.025489,-0.134992,0.005616,-0.002091,0.010299,-0.017032,-0.479435,-0.137559,0.64202,-266.024594,-0.97851,66.124774
10.036,0.052668,0.025605,-0.134017,0.005629,-0.002082,0.010297,-0.01543,-0.479991,-0.134561,0.642523,-266.021803,-0.984837,66.128815
10.0562,0.053198,0.025415,-0.133245,0.005609,-0.002096,0.010298,-0.015423,-0.479935,-0.134288,0.642523,-266.021803,-0.984837,66.128815
10.076,0.053199,0.025498,-0.13459,0.005592,-0.002108,0.010299,-0.014387,-0.480154,-0.132917,0.641794,-266.018993,-0.97878,66.132848
10.096,0.053556,0.025538,-0.135844,0.005572,-0.002122,0.0103,-0.015155,-0.479916,-0.134433,0.641794,-266.018993,-0.97878,66.132848
10.1165,0.052919,0.025127,-0.135299,0.005556,-0.002134,0.010301,-0.015155,-0.479916,-0.134433,0.641794,-266.018993,-0.97878,66.132848
10.136,0.053454,0.025072,-0.134798,0.005542,-0.002144,0.010302,-0.015653,-0.48033,-0.134869,0.642085,-266.016206,-0.983342,66.136875
10.1562,0.053141,0.02541,-0.134011,0.00554,-0.002145,0.010301,-0.015397,-0.480333,-0.134791,0.642085,-266.016206,-0.983342,66.136875
10.176,0.053263,0.025213,-0.13186,0.005539,-0.002146,0.0103,-0.014834,-0.480108,-0.133683,0.642534,-266.013435,-0.989573,66.140916
10.1963,0.052841,0.025113,-0.133542,0.005501,-0.002171,0.010303,-0.013872,-0.480343,-0.132,0.642534,-266.013435,-0.989573,66.140916
10.2164,0.052867,0.02536,-0.133369,0.005469,-0.002193,0.010305,-0.013872,-0.480343,-0.132,0.642534,-266.013435,-0.989573,66.140916
10.2364,0.053243,0.025069,-0.133931,0.005442,-0.00221,0.010306,-0.014732,-0.480231,-0.132938,0.642389,-266.010668,-0.989837,66.144953
10.2562,0.053002,0.02521,-0.131295,0.005441,-0.002211,0.010305,-0.014758,-0.480299,-0.133296,0.642389,-266.010668,-0.989837,66.144953
10.2762,0.053174,0.025018,-0.133247,0.00544,-0.002212,0.010304,-0.013604,-0.480492,-0.130968,0.643838,-266.007956,-1.001563,66.148976
10.2959,0.053013,0.02503,-0.130884,0.005435,-0.002216,0.010303,-0.014484,-0.480469,-0.133024,0.643838,-266.007956,-1.001563,66.148976
10.3162,0.053221,0.024955,-0.132894,0.00543,-0.002219,0.010302,-0.014484,-0.480469,-0.133024,0.643838,-266.007956,-1.001563,66.148976
10.3361,0.053266,0.024908,-0.132506,0.005426,-0.002222,0.010301,-0.014142,-0.48067,-0.132462,0.643573,-266.005236,-1.001755,66.153015
10.3562,0.053511,0.025251,-0.129636,0.005416,-0.002229,0.010301,-0.014107,-0.480665,-0.132431,0.643573,-266.005236,-1.001755,66.153015
10.376,0.053154,0.02493,-0.131355,0.005407,-0.002235,0.010301,-0.012255,-0.480562,-0.129307,0.643434,-266.002523,-1.00335,66.157053
10.3959,0.053501,0.024349,-0.131741,0.005385,-0.002249,0.010302,-0.013511,-0.480671,-0.131154,0.643434,-266.002523,-1.00335,66.157053
10.4164,0.052989,0.024738,-0.130313,0.005366,-0.002262,0.010303,-0.013511,-0.480671,-0.131154,0.643434,-266.002523,-1.00335,66.157053
10.4361,0.053196,0.024658,-0.131456,0.00535,-0.002272,0.010303,-0.01307,-0.48106,-0.129881,0.643582,-265.999815,-1.005598,66.161098
10.4558,0.052783,0.024584,-0.130619,0.005335,-0.002281,0.010303,-0.013286,-0.481025,-0.130479,0.643582,-265.999815,-1.005598,66.161098
10.4758,0.053011,0.02405,-0.130249,0.005322,-0.00229,0.010303,-0.013484,-0.481165,-0.130292,0.64448,-265.997141,-1.012391,66.165133
10.4961,0.052965,0.024503,-0.129618,0.005317,-0.002293,0.010302,-0.013243,-0.481593,-0.130236,0.64448,-265.997141,-1.012391,66.165133
10.5158,0.052881,0.024758,-0.12987,0.005312,-0.002296,0.010301,-0.013243,-0.481593,-0.130236,0.64448,-265.997141,-1.012391,66.165133
10.536,0.053364,0.02432,-0.130106,0.005308,-0.002299,0.010301,-0.012959,-0.481071,-0.12944,0.644876,-265.994478,-1.015695,66.169171
10.5563,0.053152,0.024667,-0.127657,0.005291,-0.00231,0.010301,-0.012871,-0.481208,-0.129663,0.644876,-265.994478,-1.015695,66.169171
10.5761,0.053169,0.023866,-0.12869,0.005276,-0.002319,0.010302,-0.011617,-0.481278,-0.127328,0.64485,-265.991824,-1.017264,66.173205
10.5963,0.053174,0.024225,-0.129971,0.005254,-0.002332,0.010303,-0.012213,-0.481863,-0.128548,0.64485,-265.991824,-1.017264,66.173205
10.616,0.053215,0.024354,-0.129103,0.005235,-0.002344,0.010303,-0.012213,-0.481863,-0.128548,0.64485,-265.991824,-1.017264,66.173205
10.6361,0.053391,0.024218,-0.129316,0.005219,-0.002353,0.010303,-0.012238,-0.481526,-0.128672,0.645423,-265.989183,-1.021033,66.177244
10.6561,0.053029,0.023717,-0.128516,0.005204,-0.002363,0.010304,-0.012271,-0.481539,-0.128883,0.645423,-265.989183,-1.021033,66.177244
10.6762,0.052975,0.024019,-0.128716,0.005191,-0.00237,0.010303,-0.012179,-0.482172,-0.128188,0.646609,-265.986569,-1.027758,66.181281
10.696,0.053043,0.024229,-0.127437,0.005188,-0.002372,0.010302,-0.012454,-0.481804,-0.128652,0.646609,-265.986569,-1.027758,66.181281
10.7162,0.05293,0.023838,-0.127677,0.005185,-0.002374,0.010301,-0.012454,-0.481804,-0.128652,0.646609,-265.986569,-1.027758,66.181281
10.7361,0.053321,0.023923,-0.126809,0.005183,-0.002375,0.0103,-0.011806,-0.482137,-0.127246,0.647106,-265.983968,-1.030967,66.185318
10.7564,0.053222,0.023869,-0.127012,0.005159,-0.00239,0.010301,-0.011527,-0.482088,-0.127018,0.647106,-265.983968,-1.030967,66.185318
10.7758,0.053358,0.023655,-0.125246,0.005138,-0.002402,0.010302,-0.011225,-0.482119,-0.126683,0.646925,-265.981369,-1.031776,66.189359
10.7961,0.053056,0.024042,-0.126083,0.005091,-0.002427,0.010306,-0.010419,-0.482334,-0.125356,0.646925,-265.981369,-1.031776,66.189359
10.8158,0.053124,0.02364,-0.127702,0.005052,-0.002449,0.010308,-0.010419,-0.482334,-0.125356,0.646925,-265.981369,-1.031776,66.189359
10.836,0.053143,0.0239,-0.126714,0.005019,-0.002467,0.01031,-0.011627,-0.482334,-0.127271,0.648078,-265.978792,-1.037023,66.193396
10.8561,0.052917,0.023639,-0.127826,0.005021,-0.002466,0.010307,-0.011475,-0.482217,-0.126995,0.648078,-265.978792,-1.037023,66.193396
10.8761,0.053307,0.023492,-0.126892,0.005023,-0.002466,0.010305,-0.011948,-0.482298,-0.127499,0.651803,-265.976275,-1.050698,66.197423
10.8959,0.052842,0.023717,-0.127128,0.005022,-0.002467,0.010303,-0.011298,-0.482402,-0.126935,0.651803,-265.976275,-1.050698,66.197423
10.9158,0.052896,0.023545,-0.125672,0.005021,-0.002468,0.010302,-0.011298,-0.482402,-0.126935,0.651803,-265.976275,-1.050698,66.197423
10.9357,0.05341,0.023227,-0.127011,0.00502,-0.002469,0.0103,-0.010832,-0.482561,-0.125241,0.651183,-265.973749,-1.050136,66.201462
10.9559,0.052821,0.023508,-0.126879,0.005011,-0.002474,0.0103,-0.010956,-0.482619,-0.125913,0.651183,-265.973749,-1.050136,66.201462
10.9761,0.05267,0.023556,-0.123536,0.005004,-0.002478,0.010299,-0.011565,-0.482491,-0.126551,0.650736,-265.971225,-1.050417,66.2055
10.9958,0.052935,0.023105,-0.124199,0.004976,-0.002493,0.010301,-0.01029,-0.482557,-0.12379,0.650736,-265.971225,-1.050417,66.2055
11.0159,0.052825,0.023504,-0.125026,0.004953,-0.002506,0.010303,-0.01029,-0.482557,-0.12379,0.650736,-265.971225,-1.050417,66.2055
11.0358,0.053312,0.023384,-0.124607,0.004934,-0.002516,0.010303,-0.010577,-0.482645,-0.124594,0.65103,-265.968709,-1.052234,66.209538
11.056,0.052922,0.023388,-0.125969,0.004921,-0.002523,0.010303,-0.010351,-0.482666,-0.12455,0.65103,-265.968709,-1.052234,66.209538
11.0759,0.052897,0.023257,-0.123694,0.004911,-0.002529,0.010303,-0.011007,-0.48267,-0.125641,0.65334,-265.966206,-1.060238,66.213605
11.0962,0.053357,0.023154,-0.121712,0.004896,-0.002537,0.010303,-0.010091,-0.482838,-0.123821,0.65334,-265.966206,-1.060238,66.213605
11.1162,0.052812,0.023152,-0.125044,0.004883,-0.002543,0.010302,-0.010091,-0.482838,-0.123821,0.65334,-265.966206,-1.060238,66.213605
11.1361,0.052529,0.023295,-0.123034,0.004872,-0.002549,0.010302,-0.010606,-0.482995,-0.124617,0.653935,-265.963752,-1.062815,66.21761
11.156,0.052895,0.023102,-0.125685,0.004873,-0.002549,0.0103,-0.010363,-0.482952,-0.123928,0.653935,-265.963752,-1.062815,66.21761
11.1758,0.052825,0.023014,-0.125123,0.004873,-0.002549,0.010299,-0.010891,-0.482975,-0.125356,0.65506,-265.961295,-1.067105,66.221647
11.1962,0.052769,0.022395,-0.122036,0.004888,-0.002541,0.010296,-0.01082,-0.483002,-0.125127,0.65506,-265.961295,-1.067105,66.221647
11.2164,0.053101,0.022755,-0.123368,0.004901,-0.002535,0.010294,-0.01082,-0.483002,-0.125127,0.65506,-265.961295,-1.067105,66.221647
11.2363,0.052687,0.022624,-0.121995,0.004912,-0.002529,0.010292,-0.009467,-0.4835,-0.122936,0.654738,-265.958838,-1.066934,66.225684
11.2559,0.052812,0.022429,-0.121916,0.004882,-0.002544,0.010295,-0.009409,-0.483549,-0.122507,0.654738,-265.958838,-1.066934,66.225684
11.2762,0.053134,0.022648,-0.122111,0.004858,-0.002556,0.010297,-0.009066,-0.483885,-0.121588,0.653441,-265.956365,-1.063683,66.229727
11.2962,0.052819,0.022554,-0.12132,0.004824,-0.002573,0.0103,-0.008988,-0.483587,-0.12205,0.653441,-265.956365,-1.063683,66.229727
11.3164,0.052509,0.022752,-0.121868,0.004796,-0.002587,0.010302,-0.008988,-0.483587,-0.12205,0.653441,-265.956365,-1.063683,66.229727
11.3358,0.052783,0.022354,-0.121127,0.004773,-0.002598,0.010303,-0.009302,-0.483596,-0.121437,0.655136,-265.953909,-1.06856,66.233772
11.3559,0.05265,0.022273,-0.122764,0.004758,-0.002606,0.010303,-0.009089,-0.483741,-0.121259,0.655136,-265.953909,-1.06856,66.233772
11.3758,0.052963,0.022363,-0.120522,0.004745,-0.002612,0.010302,-0.009663,-0.483988,-0.122439,0.658657,-265.951509,-1.078083,66.237785
11.3959,0.052765,0.02267,-0.120633,0.004716,-0.002626,0.010304,-0.008465,-0.483947,-0.120677,0.658657,-265.951509,-1.078083,66.237785
11.416,0.052634,0.022155,-0.119913,0.004692,-0.002638,0.010305,-0.008465,-0.483947,-0.120677,0.658657,-265.951509,-1.078083,66.237785
11.4361,0.052585,0.022159,-0.1213,0.004671,-0.002647,0.010305,-0.008191,-0.484315,-0.119482,0.659648,-265.949108,-1.081211,66.24182
11.456,0.052472,0.022094,-0.121312,0.00466,-0.002653,0.010304,-0.008549,-0.484241,-0.12017,0.659648,-265.949108,-1.081211,66.24182
11.4761,0.052563,0.021924,-0.119625,0.00465,-0.002658,0.010303,-0.009108,-0.484259,-0.120984,0.662806,-265.946737,-1.08935,66.245856
11.496,0.052684,0.021505,-0.117489,0.004637,-0.002664,0.010303,-0.008363,-0.484421,-0.119726,0.662806,-265.946737,-1.08935,66.245856
11.516,0.052289,0.021789,-0.118337,0.004627,-0.002669,0.010302,-0.008363,-0.484421,-0.119726,0.662806,-265.946737,-1.08935,66.245856
11.5363,0.052474,0.021704,-0.118987,0.004618,-0.002673,0.010301,-0.007742,-0.484777,-0.117906,0.663481,-265.94438,-1.091648,66.249884
11.556,0.052659,0.021558,-0.119099,0.004596,-0.002683,0.010302,-0.007853,-0.484757,-0.118296,0.663481,-265.94438,-1.091648,66.249884
11.5757,0.052695,0.021531,-0.118563,0.004577,-0.002692,0.010302,-0.007802,-0.484931,-0.118771,0.664609,-265.942024,-1.095123,66.253934
11.596,0.052441,0.02199,-0.118752,0.004556,-0.002701,0.010303,-0.007638,-0.484896,-0.118564,0.664609,-265.942024,-1.095123,66.253934
11.616,0.0527,0.021691,-0.118594,0.004538,-0.002709,0.010303,-0.007638,-0.484896,-0.118564,0.664609,-265.942024,-1.095123,66.253934
11.6359,0.052357,0.021876,-0.118023,0.004524,-0.002716,0.010303,-0.007466,-0.484861,-0.118166,0.666528,-265.939705,-1.099586,66.257949
11.6562,0.052037,0.021588,-0.118323,0.004506,-0.002723,0.010303,-0.00754,-0.484759,-0.118058,0.666528,-265.939705,-1.099586,66.257949
11.676,0.052276,0.021593,-0.118289,0.004492,-0.00273,0.010303,-0.008035,-0.484949,-0.117996,0.669046,-265.937396,-1.105407,66.261984
11.6962,0.052114,0.021733,-0.118353,0.004493,-0.00273,0.010301,-0.007915,-0.484857,-0.118248,0.669046,-265.937396,-1.105407,66.261984
11.7162,0.052302,0.021362,-0.11921,0.004495,-0.002729,0.010299,-0.007915,-0.484857,-0.118248,0.669046,-265.937396,-1.105407,66.261984
11.736,0.052513,0.021553,-0.116929,0.004496,-0.002729,0.010298,-0.008179,-0.485154,-0.11878,0.670569,-265.935107,-1.108907,66.266009
11.756,0.051958,0.021262,-0.116307,0.004491,-0.002731,0.010297,-0.007673,-0.485093,-0.117977,0.670569,-265.935107,-1.108907,66.266009
11.7761,0.052112,0.021077,-0.118013,0.004487,-0.002733,0.010297,-0.007093,-0.485395,-0.115978,0.669771,-265.932813,-1.108324,66.27004
11.7958,0.052196,0.021384,-0.116945,0.004492,-0.002731,0.010295,-0.00784,-0.485384,-0.117783,0.669771,-265.932813,-1.108324,66.27004
11.8158,0.052492,0.021068,-0.117648,0.004497,-0.002729,0.010294,-0.00784,-0.485384,-0.117783,0.669771,-265.932813,-1.108324,66.27004
11.8358,0.052264,0.021178,-0.117201,0.0045,-0.002728,0.010292,-0.007196,-0.485543,-0.117216,0.670061,-265.93052,-1.10929,66.274075
11.8559,0.052075,0.020719,-0.116349,0.004483,-0.002735,0.010294,-0.007248,-0.485468,-0.11716,0.670061,-265.93052,-1.10929,66.274075
11.8757,0.052204,0.021496,-0.116731,0.004469,-0.002741,0.010295,-0.006997,-0.485936,-0.116022,0.669016,-265.928228,-1.107743,66.2781
11.8961,0.052167,0.021397,-0.114962,0.00445,-0.002749,0.010296,-0.007169,-0.48512,-0.11665,0.669016,-265.928228,-1.107743,66.2781
11.9159,0.052272,0.020887,-0.114632,0.004434,-0.002756,0.010297,-0.007169,-0.48512,-0.11665,0.669016,-265.928228,-1.107743,66.2781
11.936,0.05205,0.020838,-0.11528,0.004421,-0.002762,0.010298,-0.00589,-0.485901,-0.114201,0.670823,-265.925941,-1.111229,66.282139
11.9558,0.052296,0.020577,-0.114951,0.004379,-0.002778,0.010302,-0.006169,-0.485865,-0.114597,0.670823,-265.925941,-1.111229,66.282139
11.9759,0.05209,0.020651,-0.114347,0.004344,-0.002792,0.010304,-0.006071,-0.48616,-0.114626,0.673512,-265.923686,-1.116452,66.286156
11.9961,0.052053,0.020991,-0.113224,0.004313,-0.002804,0.010306,-0.006091,-0.486037,-0.114355,0.673512,-265.923686,-1.116452,66.286156
12.0159,0.052107,0.020281,-0.113411,0.004287,-0.002814,0.010307,-0.006091,-0.486037,-0.114355,0.673512,-265.923686,-1.116452,66.286156
12.0359,0.05195,0.021004,-0.113945,0.004266,-0.002823,0.010307,-0.005442,-0.486579,-0.112981,0.678475,-265.921455,-1.124812,66.290183
12.056,0.052157,0.020696,-0.11237,0.004233,-0.002835,0.010309,-0.005668,-0.486227,-0.113329,0.678475,-265.921455,-1.124812,66.290183
12.0761,0.052205,0.020476,-0.113839,0.004205,-0.002846,0.01031,-0.004906,-0.486191,-0.112043,0.683262,-265.919259,-1.133186,66.294201
12.0958,0.051994,0.020917,-0.112869,0.004181,-0.002855,0.01031,-0.005649,-0.486225,-0.113666,0.683262,-265.919259,-1.133186,66.294201
12.1159,0.051787,0.020488,-0.114097,0.004162,-0.002862,0.01031,-0.005649,-0.486225,-0.113666,0.683262,-265.919259,-1.133186,66.294201
12.1363,0.051574,0.020381,-0.111627,0.004145,-0.002869,0.010309,-0.006115,-0.486334,-0.113667,0.687267,-265.917087,-1.139723,66.298219
12.1563,0.051773,0.020568,-0.113056,0.004136,-0.002873,0.010308,-0.005739,-0.486395,-0.112786,0.687267,-265.917087,-1.139723,66.298219
12.1761,0.052042,0.020546,-0.111631,0.004128,-0.002876,0.010306,-0.005642,-0.486282,-0.112727,0.690914,-265.914937,-1.146062,66.30224
12.1959,0.052048,0.020338,-0.11196,0.004084,-0.002891,0.01031,-0.004848,-0.486286,-0.111717,0.690914,-265.914937,-1.146062,66.30224
12.2161,0.05166,0.020192,-0.112505,0.004048,-0.002904,0.010312,-0.004848,-0.486286,-0.111717,0.690914,-265.914937,-1.146062,66.30224
12.2362,0.051528,0.019857,-0.112999,0.004017,-0.002914,0.010313,-0.005438,-0.486723,-0.112074,0.691679,-265.912789,-1.147873,66.30627
12.2567,0.051664,0.019899,-0.113396,0.004029,-0.002911,0.010308,-0.005642,-0.486808,-0.112404,0.691679,-265.912789,-1.147873,66.30627
12.2756,0.051512,0.02034,-0.112039,0.004038,-0.002908,0.010305,-0.005928,-0.486931,-0.113069,0.700103,-265.910699,-1.15961,66.310269
12.2963,0.051581,0.020134,-0.112194,0.004039,-0.002909,0.010303,-0.00554,-0.48651,-0.112115,0.700103,-265.910699,-1.15961,66.310269
12.3162,0.051606,0.019851,-0.112041,0.00404,-0.002909,0.010301,-0.00554,-0.48651,-0.112115,0.700103,-265.910699,-1.15961,66.310269
12.3358,0.051242,0.020056,-0.110991,0.00404,-0.002909,0.010299,-0.005261,-0.487091,-0.11161,0.69768,-265.908588,-1.157263,66.314294
12.3557,0.051621,0.019824,-0.111259,0.004033,-0.002912,0.010299,-0.005238,-0.486989,-0.111304,0.69768,-265.908588,-1.157263,66.314294
12.376,0.051417,0.019692,-0.110406,0.004026,-0.002915,0.010299,-0.004887,-0.487129,-0.110932,0.696787,-265.906481,-1.156964,66.318314
12.396,0.051286,0.019949,-0.109059,0.004003,-0.002922,0.0103,-0.00478,-0.487202,-0.110435,0.696787,-265.906481,-1.156964,66.318314
12.4159,0.05147,0.019451,-0.110762,0.003984,-0.002928,0.010301,-0.00478,-0.487202,-0.110435,0.696787,-265.906481,-1.156964,66.318314
12.4359,0.051813,0.019597,-0.10925,0.003968,-0.002934,0.010302,-0.004749,-0.487563,-0.110332,0.697701,-265.904383,-1.158471,66.322325
12.4559,0.051445,0.019754,-0.110268,0.003938,-0.002943,0.010304,-0.004341,-0.487497,-0.10984,0.697701,-265.904383,-1.158471,66.322325
12.476,0.05127,0.019354,-0.108637,0.003913,-0.002951,0.010305,-0.004563,-0.487255,-0.109941,0.702372,-265.902303,-1.164643,66.326345
12.4962,0.051237,0.019721,-0.10976,0.00388,-0.002961,0.010307,-0.004066,-0.487612,-0.108732,0.702372,-265.902303,-1.164643,66.326345
12.5165,0.051131,0.01945,-0.110151,0.003853,-0.002969,0.010308,-0.004066,-0.487612,-0.108732,0.702372,-265.902303,-1.164643,66.326345
12.5357,0.051178,0.0191,-0.109633,0.00383,-0.002976,0.010309,-0.004784,-0.4876,-0.109721,0.707026,-265.900237,-1.170405,66.330374
12.5559,0.051242,0.019082,-0.108684,0.00384,-0.002973,0.010305,-0.004699,-0.487716,-0.109634,0.707026,-265.900237,-1.170405,66.330374
12.5762,0.051477,0.019153,-0.109227,0.003849,-0.002971,0.010302,-0.003968,-0.488015,-0.108359,0.714171,-265.898225,-1.179034,66.334356
12.5966,0.051212,0.019245,-0.108179,0.00383,-0.002977,0.010303,-0.004099,-0.487832,-0.109132,0.714171,-265.898225,-1.179034,66.334356
12.6162,0.051041,0.018798,-0.109092,0.003815,-0.002982,0.010303,-0.004099,-0.487832,-0.109132,0.714171,-265.898225,-1.179034,66.334356
12.6364,0.05086,0.018992,-0.108561,0.003802,-0.002986,0.010303,-0.00434,-0.488312,-0.108661,0.71191,-265.896192,-1.177021,66.338368
12.6562,0.050804,0.019451,-0.108969,0.003805,-0.002985,0.010301,-0.004346,-0.488202,-0.10857,0.71191,-265.896192,-1.177021,66.338368
12.6765,0.051487,0.019046,-0.107535,0.003807,-0.002984,0.010299,-0.00455,-0.487631,-0.108641,0.715838,-265.894178,-1.181858,66.342375
12.6965,0.050802,0.019395,-0.108046,0.003763,-0.002996,0.010303,-0.003362,-0.487979,-0.107618,0.715838,-265.894178,-1.181858,66.342375
12.7163,0.050927,0.018739,-0.106984,0.003726,-0.003006,0.010306,-0.003362,-0.487979,-0.107618,0.715838,-265.894178,-1.181858,66.342375
12.7359,0.050852,0.019201,-0.108107,0.003695,-0.003015,0.010308,-0.003386,-0.488486,-0.106553,0.714991,-265.892159,-1.181255,66.34639
12.756,0.05131,0.019003,-0.107102,0.003686,-0.003018,0.010307,-0.003693,-0.48823,-0.107141,0.714991,-265.892159,-1.181255,66.34639
12.7761,0.050884,0.018378,-0.10541,0.003678,-0.003021,0.010306,-0.003102,-0.488182,-0.106775,0.726025,-265.89019,-1.192963,66.350381
12.7964,0.050671,0.019001,-0.107491,0.003632,-0.003032,0.010309,-0.002798,-0.488744,-0.105512,0.726025,-265.89019,-1.192963,66.350381
12.8162,0.050685,0.018858,-0.107261,0.003594,-0.003041,0.010312,-0.002798,-0.488744,-0.105512,0.726025,-265.89019,-1.192963,66.350381
12.8364,0.05027,0.018694,-0.108018,0.003563,-0.003049,0.010313,-0.003773,-0.488354,-0.106829,0.727289,-265.888223,-1.194717,66.354381
12.8561,0.05069,0.018615,-0.107475,0.003596,-0.003041,0.010305,-0.004135,-0.488362,-0.107258,0.727289,-265.888223,-1.194717,66.354381
12.876,0.050757,0.018054,-0.104893,0.003624,-0.003034,0.0103,-0.003914,-0.488551,-0.107148,0.739456,-265.886299,-1.206659,66.358372
12.8961,0.050541,0.018636,-0.106032,0.003587,-0.003043,0.010303,-0.002743,-0.489098,-0.105068,0.739456,-265.886299,-1.206659,66.358372
12.9162,0.050338,0.018442,-0.104867,0.003555,-0.003051,0.010305,-0.002743,-0.489098,-0.105068,0.739456,-265.886299,-1.206659,66.358372
12.9363,0.050642,0.017999,-0.105514,0.003529,-0.003057,0.010306,-0.002909,-0.488898,-0.104437,0.732022,-265.884357,-1.200091,66.36236
12.9561,0.050508,0.018202,-0.104225,0.003517,-0.003061,0.010305,-0.002958,-0.489022,-0.104821,0.732022,-265.884357,-1.200091,66.36236
12.9761,0.050619,0.018045,-0.103784,0.003507,-0.003064,0.010304,-0.00245,-0.489139,-0.103899,0.742227,-265.882446,-1.209927,66.36635
12.996,0.05064,0.017968,-0.106123,0.003464,-0.003073,0.010307,-0.002231,-0.48921,-0.103778,0.742227,-265.882446,-1.209927,66.36635
13.0161,0.050828,0.018046,-0.103762,0.003428,-0.003081,0.01031,-0.002231,-0.48921,-0.103778,0.742227,-265.882446,-1.209927,66.36635
13.0359,0.050051,0.01762,-0.10416,0.003398,-0.003088,0.010311,-0.001863,-0.489353,-0.103332,0.74424,-265.880541,-1.212193,66.370341
13.056,0.050493,0.017692,-0.10465,0.003377,-0.003093,0.01031,-0.002299,-0.489476,-0.103618,0.74424,-265.880541,-1.212193,66.370341
13.0763,0.050232,0.017832,-0.103549,0.00336,-0.003097,0.010309,-0.002684,-0.489627,-0.104322,0.756868,-265.87868,-1.223443,66.374316
13.096,0.050082,0.017806,-0.101294,0.003356,-0.003098,0.010307,-0.002497,-0.489459,-0.103603,0.756868,-265.87868,-1.223443,66.374316
13.1157,0.050376,0.017497,-0.102167,0.003352,-0.0031,0.010305,-0.002497,-0.489459,-0.103603,0.756868,-265.87868,-1.223443,66.374316
13.136,0.050297,0.017415,-0.104996,0.003349,-0.003101,0.010303,-0.001512,-0.489986,-0.101736,0.760905,-265.876825,-1.227233,66.378304
13.1559,0.050365,0.01761,-0.104575,0.003332,-0.003104,0.010303,-0.002165,-0.489918,-0.103012,0.760905,-265.876825,-1.227233,66.378304
13.1767,0.050005,0.017323,-0.102735,0.003318,-0.003107,0.010303,-0.002775,-0.489714,-0.104247,0.761375,-265.874975,-1.22831,66.382293
13.196,0.049632,0.01729,-0.102276,0.003315,-0.003108,0.010301,-0.002336,-0.489968,-0.102857,0.761375,-265.874975,-1.22831,66.382293
13.2162,0.049527,0.01733,-0.10191,0.003312,-0.003109,0.010299,-0.002336,-0.489968,-0.102857,0.761375,-265.874975,-1.22831,66.382293
13.2362,0.050142,0.017479,-0.102366,0.00331,-0.003109,0.010298,-0.002232,-0.490167,-0.101478,0.765016,-265.873136,-1.231482,66.386279
13.2562,0.049679,0.017211,-0.102182,0.003297,-0.003112,0.010298,-0.002113,-0.490056,-0.101788,0.765016,-265.873136,-1.231482,66.386279
13.2761,0.049689,0.017293,-0.100254,0.003285,-0.003114,0.010298,-0.002249,-0.490238,-0.101854,0.765377,-265.871299,-1.232168,66.390264
13.296,0.049543,0.017336,-0.101177,0.00324,-0.003122,0.010303,-0.001432,-0.49016,-0.100383,0.765377,-265.871299,-1.232168,66.390264
13.3159,0.049946,0.016918,-0.102573,0.003202,-0.003129,0.010306,-0.001432,-0.49016,-0.100383,0.765377,-265.871299,-1.232168,66.390264
13.3359,0.049754,0.017186,-0.100565,0.003171,-0.003135,0.010308,-0.00215,-0.490545,-0.102141,0.768376,-265.869472,-1.234699,66.394248
13.3558,0.049733,0.016899,-0.102057,0.003169,-0.003135,0.010306,-0.001852,-0.490437,-0.101454,0.768376,-265.869472,-1.234699,66.394248
13.3761,0.049281,0.016865,-0.100467,0.003167,-0.003136,0.010304,-0.002136,-0.490556,-0.101731,0.783854,-265.867692,-1.246433,66.398204
13.3959,0.049287,0.016694,-0.099439,0.003168,-0.003136,0.010301,-0.001891,-0.490568,-0.100568,0.783854,-265.867692,-1.246433,66.398204
13.416,0.049517,0.016598,-0.100173,0.003169,-0.003136,0.010299,-0.001891,-0.490568,-0.100568,0.783854,-265.867692,-1.246433,66.398204
13.4359,0.049391,0.016668,-0.099649,0.003169,-0.003136,0.010298,-0.001367,-0.490989,-0.099741,0.783726,-265.865903,-1.246705,66.402182
13.4559,0.04947,0.016615,-0.098872,0.003141,-0.003141,0.0103,-0.001345,-0.49093,-0.099654,0.783726,-265.865903,-1.246705,66.402182
13.476,0.049295,0.016691,-0.100234,0.003117,-0.003145,0.010301,-0.000782,-0.491004,-0.098544,0.782871,-265.864115,-1.246469,66.40616
13.4964,0.049522,0.016714,-0.098681,0.003114,-0.003145,0.0103,-0.001647,-0.490778,-0.100064,0.782871,-265.864115,-1.246469,66.40616
13.5163,0.04942,0.01642,-0.099369,0.003111,-0.003146,0.010299,-0.001647,-0.490778,-0.100064,0.782871,-265.864115,-1.246469,66.40616
13.5362,0.048762,0.016388,-0.098499,0.003109,-0.003147,0.010298,-0.001059,-0.491207,-0.098939,0.790133,-265.862343,-1.251725,66.410135
13.5563,0.049031,0.016559,-0.099243,0.003082,-0.003151,0.0103,-0.001182,-0.491196,-0.098709,0.790133,-265.862343,-1.251725,66.410135
13.5759,0.049111,0.016421,-0.097704,0.00306,-0.003154,0.010301,-0.001411,-0.491041,-0.098914,0.790789,-265.860575,-1.252519,66.41411
13.5973,0.04905,0.016103,-0.098859,0.003014,-0.00316,0.010306,-0.000701,-0.491143,-0.097792,0.790789,-265.860575,-1.252519,66.41411
13.616,0.049235,0.016278,-0.099931,0.002975,-0.003166,0.010309,-0.000701,-0.491143,-0.097792,0.790789,-265.860575,-1.252519,66.41411
13.6358,0.04883,0.016146,-0.096682,0.002943,-0.00317,0.010311,-0.001531,-0.491321,-0.099501,0.79793,-265.858817,-1.257519,66.418092
13.6561,0.049222,0.016258,-0.097042,0.002937,-0.003172,0.010308,-0.001042,-0.491402,-0.098264,0.79793,-265.858817,-1.257519,66.418092
13.6759,0.049104,0.016061,-0.098531,0.002932,-0.003173,0.010307,-0.000109,-0.491451,-0.096719,0.815657,-265.857112,-1.269385,66.422028
13.6958,0.048668,0.015937,-0.098218,0.002925,-0.003174,0.010305,-0.000988,-0.491469,-0.098378,0.815657,-265.857112,-1.269385,66.422028
13.7158,0.048657,0.016231,-0.096104,0.002919,-0.003175,0.010303,-0.000988,-0.491469,-0.098378,0.815657,-265.857112,-1.269385,66.422028
13.736,0.048789,0.016022,-0.097502,0.002914,-0.003176,0.010302,-0.000172,-0.491559,-0.095676,0.816812,-265.855406,-1.270487,66.425977
13.7559,0.048451,0.015632,-0.097159,0.002877,-0.00318,0.010305,-0.00044,-0.491575,-0.096373,0.816812,-265.855406,-1.270487,66.425977
13.7761,0.048734,0.015483,-0.096798,0.002846,-0.003184,0.010307,-0.000939,-0.492072,-0.096831,0.818827,-265.853702,-1.272211,66.429934
13.7959,0.048873,0.01545,-0.094961,0.002831,-0.003186,0.010306,-0.000587,-0.49213,-0.096784,0.818827,-265.853702,-1.272211,66.429934
13.816,0.048513,0.015598,-0.096394,0.002818,-0.003188,0.010305,-0.000587,-0.49213,-0.096784,0.818827,-265.853702,-1.272211,66.429934
13.8361,0.048702,0.015399,-0.095155,0.002807,-0.003189,0.010304,-0.000466,-0.492179,-0.095963,0.829722,-265.85202,-1.279079,66.433883
13.8561,0.048409,0.015348,-0.095665,0.002772,-0.003192,0.010306,-0.000167,-0.492241,-0.095588,0.829722,-265.85202,-1.279079,66.433883
13.8761,0.047992,0.015279,-0.094341,0.002743,-0.003195,0.010308,-0.000227,-0.492429,-0.095337,0.835606,-265.850347,-1.282956,66.437834
13.8959,0.048196,0.015491,-0.095006,0.002712,-0.003198,0.010309,-6.2e-05,-0.492457,-0.094414,0.835606,-265.850347,-1.282956,66.437834
13.9161,0.048269,0.01509,-0.096244,0.002686,-0.003201,0.01031,-6.2e-05,-0.492457,-0.094414,0.835606,-265.850347,-1.282956,66.437834
13.9361,0.04792,0.015211,-0.093239,0.002664,-0.003203,0.01031,-0.000638,-0.492694,-0.095813,0.846375,-265.848695,-1.289404,66.441777
13.956,0.048001,0.015505,-0.094367,0.002655,-0.003204,0.010308,-0.000191,-0.492662,-0.094722,0.846375,-265.848695,-1.289404,66.441777
13.9764,0.048157,0.01484,-0.093995,0.002647,-0.003205,0.010306,2e-05,-0.492336,-0.094039,0.859857,-265.847066,-1.297369,66.445714
13.9957,0.048029,0.01487,-0.0937,0.002611,-0.003208,0.010308,0.00027,-0.492862,-0.093982,0.859857,-265.847066,-1.297369,66.445714
14.0158,0.047944,0.015258,-0.094322,0.002581,-0.00321,0.01031,0.00027,-0.492862,-0.093982,0.859857,-265.847066,-1.297369,66.445714
14.0361,0.048364,0.015628,-0.095852,0.002556,-0.003212,0.01031,9e-06,-0.492619,-0.093892,0.86243,-265.845439,-1.299088,66.449658
14.056,0.048087,0.014882,-0.095485,0.002563,-0.003213,0.010306,-0.000168,-0.492393,-0.094651,0.86243,-265.845439,-1.299088,66.449658
14.076,0.0477,0.014645,-0.093421,0.002569,-0.003213,0.010303,-0.000465,-0.492903,-0.095159,0.87875,-265.843846,-1.308164,66.453573
14.0963,0.04746,0.014302,-0.093843,0.002558,-0.003214,0.010302,7.7e-05,-0.493117,-0.093556,0.87875,-265.843846,-1.308164,66.453573
14.116,0.04761,0.014789,-0.093786,0.002549,-0.003215,0.010301,7.7e-05,-0.493117,-0.093556,0.87875,-265.843846,-1.308164,66.453573
14.136,0.047344,0.014605,-0.093263,0.002542,-0.003215,0.0103,-5.7e-05,-0.493113,-0.093355,0.87544,-265.842244,-1.306813,66.457507
14.1563,0.047408,0.014605,-0.093632,0.002545,-0.003215,0.010298,-8.4e-05,-0.493156,-0.093268,0.87544,-265.842244,-1.306813,66.457507
14.1765,0.047554,0.014702,-0.091746,0.002548,-0.003215,0.010296,-0.000204,-0.49327,-0.093305,0.880152,-265.840646,-1.309538,66.461446
14.1961,0.04739,0.014876,-0.092054,0.002498,-0.003217,0.010302,0.000725,-0.493172,-0.091891,0.880152,-265.840646,-1.309538,66.461446
14.216,0.047343,0.014267,-0.092101,0.002456,-0.003219,0.010306,0.000725,-0.493172,-0.091891,0.880152,-265.840646,-1.309538,66.461446
14.2363,0.04711,0.014629,-0.092071,0.002422,-0.003221,0.010308,0.000531,-0.493715,-0.09167,0.878463,-265.83905,-1.308793,66.465381
14.2566,0.047425,0.014521,-0.091,0.002412,-0.003222,0.010306,0.000415,-0.493526,-0.091784,0.878463,-265.83905,-1.308793,66.465381
14.2761,0.046648,0.014617,-0.090441,0.002405,-0.003223,0.010305,0.001146,-0.493477,-0.090674,0.903535,-265.837506,-1.321601,66.469255
14.2968,0.047214,0.014443,-0.090552,0.002382,-0.003224,0.010305,0.000651,-0.493325,-0.090446,0.903535,-265.837506,-1.321601,66.469255
14.316,0.046841,0.014485,-0.091253,0.002363,-0.003226,0.010305,0.000651,-0.493325,-0.090446,0.903535,-265.837506,-1.321601,66.469255
14.3364,0.046778,0.013761,-0.089411,0.002347,-0.003227,0.010305,0.000454,-0.493537,-0.090822,0.906465,-265.835942,-1.323305,66.473191
14.3562,0.046614,0.01374,-0.090686,0.002324,-0.003228,0.010305,0.000787,-0.493827,-0.090192,0.906465,-265.835942,-1.323305,66.473191
14.3757,0.046926,0.013827,-0.089905,0.002305,-0.003228,0.010305,0.000492,-0.494273,-0.090359,0.917483,-265.834405,-1.329066,66.477093
14.3962,0.046743,0.013839,-0.090241,0.002268,-0.003229,0.010307,0.001081,-0.494133,-0.08993,0.917483,-265.834405,-1.329066,66.477093
14.4157,0.046655,0.013984,-0.089176,0.002237,-0.003229,0.010308,0.001081,-0.494133,-0.08993,0.917483,-265.834405,-1.329066,66.477093
14.4359,0.046394,0.01407,-0.08959,0.002211,-0.00323,0.010309,0.00132,-0.494132,-0.088745,0.926135,-265.832874,-1.333336,66.481006
14.4558,0.046619,0.013518,-0.088784,0.002188,-0.00323,0.010309,0.001103,-0.494048,-0.08904,0.926135,-265.832874,-1.333336,66.481006
14.476,0.046214,0.013809,-0.087798,0.002169,-0.003231,0.010308,0.001459,-0.494581,-0.088458,0.945967,-265.831373,-1.342686,66.484887
14.4961,0.046528,0.013466,-0.090343,0.002125,-0.003231,0.010311,0.001494,-0.494264,-0.087841,0.945967,-265.831373,-1.342686,66.484887
14.5158,0.046211,0.013443,-0.087911,0.002088,-0.003231,0.010312,0.001494,-0.494264,-0.087841,0.945967,-265.831373,-1.342686,66.484887
14.5358,0.046005,0.013289,-0.089136,0.002057,-0.003231,0.010313,0.001513,-0.49473,-0.08748,0.954776,-265.829874,-1.346906,66.488789
14.5562,0.046376,0.013529,-0.089521,0.002053,-0.003231,0.010309,0.001153,-0.494729,-0.088104,0.954776,-265.829874,-1.346906,66.488789
14.5761,0.045925,0.013453,-0.088412,0.00205,-0.003232,0.010306,0.000836,-0.494536,-0.089197,0.980057,-265.828414,-1.358199,66.492642
14.5967,0.046012,0.013645,-0.089597,0.002067,-0.003232,0.0103,0.000891,-0.494559,-0.088467,0.980057,-265.828414,-1.358199,66.492642
14.6161,0.046283,0.013391,-0.087701,0.002081,-0.003232,0.010295,0.000891,-0.494559,-0.088467,0.980057,-265.828414,-1.358199,66.492642
14.6364,0.046062,0.013082,-0.086206,0.002093,-0.003233,0.010292,0.001686,-0.494791,-0.087269,0.980897,-265.82694,-1.358804,66.49654
14.6564,0.045681,0.013252,-0.089665,0.002028,-0.00323,0.0103,0.001883,-0.494902,-0.086788,0.980897,-265.82694,-1.358804,66.49654
14.6764,0.045564,0.013129,-0.08665,0.001975,-0.003228,0.010305,7e-05,-0.494807,-0.089337,0.969939,-265.825463,-1.354397,66.500429
14.6962,0.045484,0.013134,-0.086956,0.001973,-0.003229,0.010302,0.001305,-0.494949,-0.086882,0.969939,-265.825463,-1.354397,66.500429
14.7164,0.045637,0.013166,-0.086288,0.001971,-0.003229,0.010299,0.001305,-0.494949,-0.086882,0.969939,-265.825463,-1.354397,66.500429
14.7364,0.045824,0.01255,-0.086454,0.001969,-0.003229,0.010297,0.001755,-0.495076,-0.085863,0.998427,-265.824026,-1.366255,66.50426
14.7564,0.045537,0.013087,-0.086171,0.00193,-0.003228,0.010299,0.001776,-0.495282,-0.086054,0.998427,-265.824026,-1.366255,66.50426
14.7756,0.045324,0.012553,-0.086022,0.001898,-0.003226,0.010301,0.001698,-0.495128,-0.085843,0.998979,-265.822571,-1.366836,66.508147
14.7958,0.045571,0.013208,-0.085465,0.001888,-0.003226,0.010299,0.001527,-0.495528,-0.085989,0.998979,-265.822571,-1.366836,66.508147
14.8159,0.045284,0.012644,-0.086054,0.00188,-0.003225,0.010297,0.001527,-0.495528,-0.085989,0.998979,-265.822571,-1.366836,66.508147
14.8358,0.045355,0.012411,-0.084573,0.001873,-0.003225,0.010296,0.001518,-0.495609,-0.085625,1.01634,-265.821137,-1.373959,66.512008
14.8562,0.045203,0.012563,-0.085291,0.001843,-0.003223,0.010297,0.001833,-0.495689,-0.085148,1.01634,-265.821137,-1.373959,66.512008
14.8766,0.045098,0.012473,-0.085701,0.001817,-0.003222,0.010298,0.001808,-0.49569,-0.084964,1.021875,-265.819702,-1.376368,66.515884
14.8963,0.045688,0.012221,-0.085485,0.001824,-0.003222,0.010294,0.001488,-0.495666,-0.085598,1.021875,-265.819702,-1.376368,66.515884
