mach0312/omni-docking-bench/src/icros_test_setup/results/MPPI_sample/timeseries/trial_016.csv
t,x,y,yaw,vx,vy,wz,bl_x,bl_y,bl_yaw,front_steering_joint,front_wheel_joint,rear_steering_joint,rear_wheel_joint
0.0,-0.018327,0.0195,0.069922,0.001354,9.7e-05,0.000764,0.016686,-0.489161,0.069593,0.394244,-264.512259,-0.266656,62.648209
0.0005,-0.018675,0.019551,0.070567,0.0,0.0,0.0,0.01725,-0.489124,0.070423,0.394244,-264.510597,-0.266656,62.6498
0.0009,-0.018572,0.019657,0.070874,0.0,0.0,0.0,0.01725,-0.489124,0.070423,0.394244,-264.510595,-0.266656,62.649802
0.0012,-0.018363,0.019467,0.07172,0.0,0.0,0.0,0.016256,-0.489362,0.068547,0.394244,-264.510595,-0.266656,62.649802
0.0015,-0.018484,0.019714,0.06928,0.0,0.0,0.0,0.016256,-0.489362,0.068547,0.394244,-264.510595,-0.266656,62.649802
0.0018,-0.018782,0.019841,0.069654,0.0,0.0,0.0,0.016256,-0.489362,0.068547,0.394244,-264.510595,-0.266656,62.649802
0.0022,-0.018557,0.019346,0.069725,0.0,0.0,0.0,0.016877,-0.489469,0.069402,0.394244,-264.510595,-0.266656,62.649802
0.0026,-0.018705,0.019273,0.068088,0.0001,8e-06,0.0,0.016877,-0.489469,0.069402,0.394244,-264.510595,-0.266656,62.649802
0.0029,-0.018553,0.019414,0.069774,0.0001,8e-06,0.0,0.016986,-0.48914,0.069592,0.394244,-264.510595,-0.266656,62.649802
0.0032,-0.018807,0.019293,0.071079,0.0001,8e-06,0.0,0.016986,-0.48914,0.069592,0.394244,-264.510595,-0.266656,62.649802
0.0168,-0.018281,0.019274,0.069156,0.0,0.0,0.0,0.017413,-0.489419,0.071079,0.319366,-264.510593,-0.191777,62.649803
0.0368,-0.018314,0.019513,0.069627,0.0,0.0,0.0,0.016999,-0.4895,0.069318,0.319366,-264.510593,-0.191777,62.649803
0.0572,-0.018551,0.019541,0.07045,0.0,0.0,0.0,0.016999,-0.4895,0.069318,0.319366,-264.510593,-0.191777,62.649803
0.0768,-0.018606,0.019409,0.069234,0.0,0.0,0.0,0.017349,-0.489194,0.07045,0.319366,-264.510593,-0.191777,62.649803
0.0969,-0.018279,0.019619,0.070166,0.0,0.0,0.0,0.017075,-0.489265,0.069955,0.319366,-264.510593,-0.191777,62.649803
0.1172,-0.018531,0.019633,0.06906,-0.002413,-0.000329,-0.005391,0.017476,-0.489126,0.070166,0.319366,-264.510593,-0.191777,62.649803
0.1373,-0.01848,0.019598,0.068957,-0.002637,-0.000374,-0.005793,0.016736,-0.489149,0.069161,0.319366,-264.510593,-0.191777,62.649803
0.1567,-0.018429,0.019357,0.070182,-0.002831,-0.000412,-0.006105,0.016736,-0.489149,0.069161,0.319366,-264.510593,-0.191777,62.649803
0.1768,-0.01828,0.019622,0.070648,-0.003,-0.000445,-0.006346,0.017334,-0.489387,0.070182,0.394253,-264.510593,-0.266665,62.649803
0.1969,-0.018548,0.019738,0.069954,-0.003168,-0.000455,-0.00653,0.017491,-0.489273,0.070371,0.394253,-264.510593,-0.266665,62.649803
0.2171,-0.018523,0.019745,0.071127,-0.003313,-0.000464,-0.006671,0.017099,-0.489015,0.069954,0.469252,-264.510594,-0.341664,62.649803
0.237,-0.018409,0.019442,0.069602,-0.003439,-0.000472,-0.006778,0.017677,-0.488969,0.071044,0.469252,-264.510594,-0.341664,62.649803
0.2568,-0.018498,0.019402,0.068795,-0.003548,-0.000479,-0.00686,0.017677,-0.488969,0.071044,0.469252,-264.510594,-0.341664,62.649803
0.2768,-0.018307,0.019839,0.069461,-0.003644,-0.000486,-0.006921,0.01656,-0.489392,0.068795,0.544938,-264.510595,-0.41735,62.649802
0.2965,-0.01842,0.019423,0.070576,-0.003711,-0.000506,-0.006968,0.016776,-0.489204,0.069067,0.544938,-264.510595,-0.41735,62.649802
0.3169,-0.018474,0.019268,0.069559,-0.003769,-0.000524,-0.007002,0.017542,-0.489308,0.070575,0.619358,-264.510619,-0.49177,62.649781
0.3369,-0.01854,0.019495,0.070452,-0.003832,-0.00053,-0.007027,0.017024,-0.489481,0.069651,0.619358,-264.510619,-0.49177,62.649781
0.357,-0.018341,0.019419,0.07102,-0.003887,-0.000535,-0.007046,0.017024,-0.489481,0.069651,0.619358,-264.510619,-0.49177,62.649781
0.3769,-0.018772,0.019411,0.0713,-0.003935,-0.00054,-0.007059,0.017836,-0.489298,0.071004,0.694257,-264.510782,-0.566669,62.649639
0.3969,-0.018333,0.019823,0.069829,-0.00399,-0.000533,-0.007067,0.017722,-0.489296,0.071123,0.694257,-264.510782,-0.566669,62.649639
0.4166,-0.018684,0.019193,0.070114,-0.004037,-0.000527,-0.007073,0.017211,-0.488942,0.069772,0.769355,-264.511505,-0.641766,62.649008
0.4366,-0.018678,0.019382,0.068887,-0.004067,-0.000532,-0.007077,0.017058,-0.489501,0.070081,0.769355,-264.511505,-0.641766,62.649008
0.4569,-0.018632,0.019101,0.069261,-0.004092,-0.000537,-0.007079,0.017058,-0.489501,0.070081,0.769355,-264.511505,-0.641766,62.649008
0.4766,-0.018516,0.019331,0.069196,-0.004115,-0.000541,-0.00708,0.016545,-0.4897,0.069066,0.844352,-264.513217,-0.716764,62.647504
0.4967,-0.018982,0.019616,0.069506,-0.004126,-0.000552,-0.00708,0.016613,-0.489601,0.069096,0.844352,-264.513217,-0.716764,62.647504
0.5165,-0.018449,0.019538,0.068838,-0.004136,-0.000561,-0.00708,0.016311,-0.489178,0.069285,0.868679,-264.51572,-0.743406,62.645309
0.5371,-0.018775,0.019437,0.070059,-0.004139,-0.000575,-0.007138,0.016597,-0.489249,0.068865,0.868679,-264.51572,-0.743406,62.645309
0.5569,-0.01887,0.019373,0.070256,-0.004142,-0.000587,-0.007184,0.016597,-0.489249,0.068865,0.868679,-264.51572,-0.743406,62.645309
0.5765,-0.018823,0.019487,0.068798,-0.004145,-0.000597,-0.007221,0.01676,-0.489404,0.069961,0.868213,-264.518278,-0.738172,62.643074
0.5969,-0.019186,0.019781,0.068962,-0.004148,-0.000606,-0.00728,0.016525,-0.489368,0.069449,0.868213,-264.518278,-0.738172,62.643074
0.6167,-0.018625,0.019528,0.068355,-0.00415,-0.000613,-0.007327,0.015827,-0.489035,0.068733,0.879339,-264.520866,-0.743804,62.640831
0.6373,-0.01861,0.019329,0.06853,-0.004141,-0.00063,-0.007393,0.016168,-0.489261,0.068377,0.879339,-264.520866,-0.743804,62.640831
0.6569,-0.019114,0.019773,0.069093,-0.004135,-0.000644,-0.007446,0.016168,-0.489261,0.068377,0.879339,-264.520866,-0.743804,62.640831
0.6767,-0.01872,0.018959,0.068927,-0.004129,-0.000655,-0.007489,0.015925,-0.489048,0.068787,0.886582,-264.523495,-0.749349,62.638562
0.6968,-0.018759,0.019294,0.068935,-0.004126,-0.000665,-0.007551,0.016104,-0.489376,0.068809,0.886582,-264.523495,-0.749349,62.638562
0.7172,-0.018998,0.019512,0.067521,-0.004123,-0.000673,-0.007601,0.016241,-0.489525,0.068698,0.902412,-264.526144,-0.759254,62.636299
0.7372,-0.018583,0.019464,0.067967,-0.004103,-0.000695,-0.00767,0.015477,-0.489345,0.067611,0.902412,-264.526144,-0.759254,62.636299
0.757,-0.018875,0.019294,0.068264,-0.004087,-0.000712,-0.007725,0.015477,-0.489345,0.067611,0.902412,-264.526144,-0.759254,62.636299
0.7769,-0.018576,0.01965,0.068237,-0.004074,-0.000728,-0.007769,0.015743,-0.489558,0.067946,0.911155,-264.528828,-0.766412,62.634015
0.7973,-0.01874,0.019255,0.067634,-0.004075,-0.000732,-0.007833,0.015909,-0.489402,0.068028,0.911155,-264.528828,-0.766412,62.634015
0.8166,-0.018577,0.019448,0.065187,-0.004076,-0.000735,-0.007885,0.0156,-0.48961,0.067388,0.930869,-264.531531,-0.778407,62.631749
0.8365,-0.018974,0.019205,0.068727,-0.004045,-0.000762,-0.007954,0.014725,-0.489483,0.065372,0.930869,-264.531531,-0.778407,62.631749
0.8568,-0.018702,0.018795,0.067004,-0.00402,-0.000785,-0.008011,0.014725,-0.489483,0.065372,0.930869,-264.531531,-0.778407,62.631749
0.8768,-0.018643,0.018991,0.066198,-0.003999,-0.000805,-0.008057,0.015277,-0.490103,0.066675,0.937394,-264.534281,-0.785961,62.629445
0.897,-0.018908,0.019223,0.066664,-0.004004,-0.000805,-0.00812,0.015183,-0.490021,0.066442,0.937394,-264.534281,-0.785961,62.629445
0.9168,-0.018792,0.019375,0.066737,-0.004008,-0.000804,-0.008172,0.014941,-0.489678,0.06641,0.961117,-264.537045,-0.799798,62.627174
0.9366,-0.018636,0.019409,0.067545,-0.004003,-0.000812,-0.008234,0.015188,-0.489507,0.066696,0.961117,-264.537045,-0.799798,62.627174
0.9567,-0.018897,0.019075,0.065575,-0.003998,-0.000819,-0.008284,0.015188,-0.489507,0.066696,0.961117,-264.537045,-0.799798,62.627174
0.9768,-0.018763,0.01921,0.066174,-0.003994,-0.000824,-0.008325,0.014358,-0.489873,0.065234,0.965673,-264.539861,-0.807088,62.624858
0.9964,-0.01906,0.018792,0.066167,-0.003979,-0.000838,-0.00837,0.014589,-0.489796,0.065584,0.965673,-264.539861,-0.807088,62.624858
1.0165,-0.018576,0.019275,0.065839,-0.003967,-0.000849,-0.008407,0.014536,-0.490126,0.065904,0.97642,-264.542699,-0.817687,62.622534
1.0372,-0.018939,0.019353,0.065759,-0.003964,-0.000854,-0.008441,0.014932,-0.489667,0.065831,0.97642,-264.542699,-0.817687,62.622534
1.0566,-0.018827,0.018837,0.065409,-0.003961,-0.000858,-0.008469,0.014932,-0.489667,0.065831,0.97642,-264.542699,-0.817687,62.622534
1.0769,-0.018851,0.019338,0.064728,-0.003959,-0.000861,-0.008492,0.014345,-0.490119,0.065058,0.985406,-264.545565,-0.823981,62.620203
1.0967,-0.018521,0.019403,0.066328,-0.003942,-0.000875,-0.008515,0.014242,-0.48991,0.064883,0.985406,-264.545565,-0.823981,62.620203
1.1172,-0.018598,0.018902,0.063719,-0.003928,-0.000887,-0.008534,0.015158,-0.489511,0.066058,0.991179,-264.548457,-0.82956,62.617857
1.137,-0.018967,0.019005,0.06495,-0.003911,-0.000902,-0.008553,0.013979,-0.490018,0.063904,0.991179,-264.548457,-0.82956,62.617857
1.1571,-0.018813,0.018888,0.063726,-0.003896,-0.000914,-0.008569,0.013979,-0.490018,0.063904,0.991179,-264.548457,-0.82956,62.617857
1.177,-0.018444,0.01897,0.064665,-0.003884,-0.000924,-0.008582,0.013504,-0.490124,0.063369,0.998582,-264.551353,-0.833371,62.615525
1.197,-0.018324,0.019002,0.06542,-0.003872,-0.000934,-0.008597,0.013896,-0.490064,0.063855,0.998582,-264.551353,-0.833371,62.615525
1.2165,-0.018526,0.018809,0.063387,-0.003863,-0.000943,-0.008609,0.014895,-0.489945,0.065146,1.008679,-264.554262,-0.838175,62.613207
1.2366,-0.018515,0.018972,0.063787,-0.003856,-0.000949,-0.008622,0.013879,-0.490147,0.063539,1.008679,-264.554262,-0.838175,62.613207
1.2565,-0.018163,0.018957,0.063796,-0.00385,-0.000955,-0.008633,0.013879,-0.490147,0.063539,1.008679,-264.554262,-0.838175,62.613207
1.277,-0.01868,0.018738,0.062476,-0.003845,-0.00096,-0.008642,0.014193,-0.490056,0.063436,1.013665,-264.557182,-0.840657,62.610892
1.2968,-0.018818,0.018687,0.062788,-0.003837,-0.000967,-0.008652,0.013758,-0.490147,0.063006,1.013665,-264.557182,-0.840657,62.610892
1.3167,-0.018339,0.018809,0.063748,-0.00383,-0.000972,-0.008661,0.013063,-0.490346,0.062513,1.018436,-264.560114,-0.843357,62.608578
1.3366,-0.018019,0.018975,0.063303,-0.003834,-0.000971,-0.008671,0.014049,-0.490174,0.063626,1.018436,-264.560114,-0.843357,62.608578
1.3569,-0.018683,0.018417,0.063386,-0.003837,-0.000969,-0.008679,0.014049,-0.490174,0.063626,1.018436,-264.560114,-0.843357,62.608578
1.3768,-0.018831,0.018596,0.063798,-0.003839,-0.000968,-0.008685,0.013465,-0.490609,0.063023,1.021888,-264.563047,-0.845143,62.606272
1.3968,-0.018379,0.018875,0.062744,-0.003833,-0.000973,-0.008693,0.013536,-0.490516,0.063298,1.021888,-264.563047,-0.845143,62.606272
1.4169,-0.017982,0.019051,0.063253,-0.003828,-0.000978,-0.008699,0.01348,-0.49016,0.062468,1.02153,-264.565991,-0.8461,62.603954
1.437,-0.018312,0.018771,0.061985,-0.003831,-0.000976,-0.008707,0.014181,-0.489951,0.063169,1.02153,-264.565991,-0.8461,62.603954
1.457,-0.018371,0.019097,0.062116,-0.003834,-0.000974,-0.008713,0.014181,-0.489951,0.063169,1.02153,-264.565991,-0.8461,62.603954
1.4766,-0.018215,0.018682,0.059861,-0.003836,-0.000973,-0.008718,0.01313,-0.48997,0.061752,1.024164,-264.568933,-0.847516,62.601643
1.4967,-0.018776,0.018829,0.061922,-0.003798,-0.001,-0.008724,0.012772,-0.490153,0.06094,1.024164,-264.568933,-0.847516,62.601643
1.5164,-0.018298,0.01888,0.061008,-0.003767,-0.001022,-0.008729,0.012664,-0.490232,0.061644,1.023697,-264.571887,-0.848216,62.599319
1.5372,-0.018074,0.01835,0.061574,-0.003742,-0.00104,-0.008735,0.012779,-0.490179,0.06105,1.023697,-264.571887,-0.848216,62.599319
1.5565,-0.018698,0.018368,0.06155,-0.003721,-0.001055,-0.00874,0.012779,-0.490179,0.06105,1.023697,-264.571887,-0.848216,62.599319
1.5767,-0.018129,0.018546,0.060916,-0.003703,-0.001068,-0.008744,0.012519,-0.490718,0.061186,1.035609,-264.574834,-0.852499,62.597036
1.5977,-0.018302,0.018482,0.061187,-0.003694,-0.001076,-0.008748,0.012666,-0.490638,0.061033,1.035609,-264.574834,-0.852499,62.597036
1.6172,-0.018228,0.018464,0.060668,-0.003686,-0.001082,-0.008751,0.012768,-0.490604,0.060909,1.046795,-264.577789,-0.856599,62.594779
1.6369,-0.017972,0.018108,0.060767,-0.00368,-0.001087,-0.008755,0.012694,-0.4906,0.060675,1.046795,-264.577789,-0.856599,62.594779
1.6567,-0.018598,0.01868,0.059706,-0.003674,-0.001092,-0.008758,0.012694,-0.4906,0.060675,1.046795,-264.577789,-0.856599,62.594779
1.677,-0.018266,0.018593,0.059991,-0.00367,-0.001096,-0.00876,0.011683,-0.490466,0.059341,1.050016,-264.58075,-0.857812,62.592526
1.6968,-0.018086,0.018175,0.058789,-0.003638,-0.001117,-0.008763,0.011923,-0.490482,0.059566,1.050016,-264.58075,-0.857812,62.592526
1.7171,-0.018104,0.018669,0.059725,-0.003611,-0.001136,-0.008765,0.011765,-0.490986,0.05851,1.05326,-264.583713,-0.859023,62.590282
1.737,-0.018288,0.018124,0.059958,-0.003602,-0.001143,-0.008768,0.01228,-0.490474,0.059601,1.05326,-264.583713,-0.859023,62.590282
1.7573,-0.018228,0.01885,0.058654,-0.003594,-0.001149,-0.00877,0.01228,-0.490474,0.059601,1.05326,-264.583713,-0.859023,62.590282
1.7771,-0.017973,0.018347,0.059078,-0.003587,-0.001154,-0.008772,0.01152,-0.49033,0.058288,1.06297,-264.586681,-0.862744,62.588062
1.7966,-0.018291,0.01819,0.059912,-0.003565,-0.00117,-0.008774,0.011758,-0.490514,0.058571,1.06297,-264.586681,-0.862744,62.588062
1.8164,-0.018257,0.01821,0.05836,-0.003546,-0.001182,-0.008775,0.012135,-0.490939,0.059634,1.067233,-264.589654,-0.864258,62.585852
1.8368,-0.017877,0.018225,0.060176,-0.00353,-0.001193,-0.008777,0.01154,-0.490926,0.058457,1.067233,-264.589654,-0.864258,62.585852
1.8568,-0.01818,0.018154,0.058766,-0.003518,-0.001202,-0.008778,0.01154,-0.490926,0.058457,1.067233,-264.589654,-0.864258,62.585852
1.8769,-0.017809,0.018572,0.057928,-0.003507,-0.00121,-0.00878,0.011628,-0.491023,0.058398,1.074133,-264.592628,-0.866974,62.583663
1.8967,-0.018379,0.018612,0.058952,-0.0035,-0.001215,-0.008781,0.011648,-0.490847,0.058165,1.074133,-264.592628,-0.866974,62.583663
1.9168,-0.018027,0.018146,0.057117,-0.003494,-0.001219,-0.008782,0.01156,-0.490547,0.058673,1.080594,-264.595602,-0.869487,62.581493
1.9368,-0.018215,0.018234,0.057912,-0.003473,-0.001233,-0.008783,0.011124,-0.490982,0.057243,1.080594,-264.595602,-0.869487,62.581493
1.9568,-0.017989,0.018225,0.056412,-0.003455,-0.001244,-0.008784,0.011124,-0.490982,0.057243,1.080594,-264.595602,-0.869487,62.581493
1.9767,-0.018368,0.018162,0.05644,-0.003441,-0.001254,-0.008785,0.010622,-0.491023,0.056044,1.08279,-264.598583,-0.870284,62.579325
1.9967,-0.017984,0.018287,0.056881,-0.003407,-0.001275,-0.008786,0.010516,-0.491031,0.056162,1.08279,-264.598583,-0.870284,62.579325
2.0169,-0.017877,0.018422,0.057512,-0.003378,-0.001293,-0.008788,0.010902,-0.490934,0.0566,1.091439,-264.601563,-0.873948,62.577183
2.0366,-0.01786,0.018075,0.057889,-0.003382,-0.001292,-0.008788,0.011383,-0.490755,0.057415,1.091439,-264.601563,-0.873948,62.577183
2.0576,-0.017832,0.018161,0.056199,-0.003384,-0.001291,-0.008789,0.011383,-0.490755,0.057415,1.091439,-264.601563,-0.873948,62.577183
2.0766,-0.017856,0.018279,0.056077,-0.003387,-0.001291,-0.008789,0.010676,-0.491096,0.05583,1.101361,-264.604549,-0.878539,62.575067
2.0967,-0.018149,0.018074,0.056278,-0.003367,-0.001303,-0.00879,0.010682,-0.491032,0.055889,1.101361,-264.604549,-0.878539,62.575067
2.1167,-0.017928,0.018004,0.054953,-0.003351,-0.001313,-0.008791,0.010433,-0.491166,0.055998,1.100316,-264.607533,-0.877691,62.57295
2.1366,-0.018167,0.017958,0.05689,-0.00332,-0.001332,-0.008792,0.010109,-0.491223,0.055031,1.100316,-264.607533,-0.877691,62.57295
2.1566,-0.017715,0.018048,0.055895,-0.003293,-0.001347,-0.008792,0.010109,-0.491223,0.055031,1.100316,-264.607533,-0.877691,62.57295
2.1766,-0.017393,0.017924,0.055198,-0.003271,-0.001361,-0.008793,0.01064,-0.491219,0.055527,1.105893,-264.610521,-0.88026,62.570847
2.1967,-0.01779,0.017728,0.055327,-0.003275,-0.001359,-0.008794,0.010667,-0.491259,0.05535,1.105893,-264.610521,-0.88026,62.570847
2.2171,-0.017663,0.017629,0.055522,-0.003278,-0.001358,-0.008794,0.010311,-0.491541,0.055048,1.11841,-264.613504,-0.886499,62.568784
2.2374,-0.017676,0.01801,0.05514,-0.003285,-0.001355,-0.008794,0.010603,-0.491583,0.055463,1.11841,-264.613504,-0.886499,62.568784
2.2567,-0.017732,0.018265,0.05549,-0.00329,-0.001352,-0.008794,0.010603,-0.491583,0.055463,1.11841,-264.613504,-0.886499,62.568784
2.2768,-0.017758,0.018047,0.055237,-0.003295,-0.00135,-0.008794,0.010419,-0.491015,0.055121,1.117488,-264.616498,-0.885784,62.566711
2.2969,-0.017709,0.017804,0.053891,-0.003281,-0.001359,-0.008794,0.010396,-0.491087,0.055126,1.117488,-264.616498,-0.885784,62.566711
2.3169,-0.017223,0.017823,0.055117,-0.003269,-0.001366,-0.008794,0.009659,-0.491505,0.05361,1.114996,-264.619493,-0.884278,62.564632
2.3368,-0.01751,0.018195,0.054909,-0.003279,-0.00136,-0.008794,0.010757,-0.491414,0.054966,1.114996,-264.619493,-0.884278,62.564632
2.3569,-0.017643,0.017355,0.053359,-0.003288,-0.001356,-0.008794,0.010757,-0.491414,0.054966,1.114996,-264.619493,-0.884278,62.564632
2.3768,-0.017605,0.017663,0.055058,-0.003294,-0.001352,-0.008794,0.009424,-0.491983,0.052992,1.118994,-264.622486,-0.886257,62.562565
2.3971,-0.017523,0.017622,0.054611,-0.003272,-0.001365,-0.008794,0.00983,-0.49182,0.053789,1.118994,-264.622486,-0.886257,62.562565
2.4168,-0.017215,0.017783,0.052149,-0.003253,-0.001375,-0.008794,0.010212,-0.491666,0.05433,1.115144,-264.625481,-0.884154,62.560486
2.4368,-0.01742,0.01755,0.052219,-0.003215,-0.001396,-0.008795,0.009438,-0.491539,0.052328,1.115144,-264.625481,-0.884154,62.560486
2.4565,-0.0176,0.017558,0.052057,-0.003184,-0.001414,-0.008796,0.009438,-0.491539,0.052328,1.115144,-264.625481,-0.884154,62.560486
2.4768,-0.017482,0.017488,0.053165,-0.003158,-0.001429,-0.008797,0.008804,-0.491815,0.05169,1.121493,-264.628473,-0.88751,62.558427
2.4967,-0.01741,0.017601,0.052745,-0.003128,-0.001445,-0.008798,0.009122,-0.491813,0.05225,1.121493,-264.628473,-0.88751,62.558427
2.5169,-0.016918,0.017176,0.053562,-0.003104,-0.001459,-0.008799,0.00938,-0.49174,0.052466,1.136131,-264.63146,-0.89567,62.556415
2.5366,-0.01745,0.017791,0.052115,-0.003137,-0.001441,-0.008798,0.01029,-0.492063,0.05345,1.136131,-264.63146,-0.89567,62.556415
2.5573,-0.017407,0.017395,0.052089,-0.003164,-0.001427,-0.008798,0.01029,-0.492063,0.05345,1.136131,-264.63146,-0.89567,62.556415
2.5766,-0.017715,0.017429,0.052229,-0.003186,-0.001415,-0.008797,0.00902,-0.491981,0.051722,1.144364,-264.634462,-0.900415,62.554416
2.5969,-0.016906,0.017373,0.051317,-0.003147,-0.001436,-0.008797,0.00896,-0.491945,0.051889,1.144364,-264.634462,-0.900415,62.554416
2.6167,-0.01701,0.01779,0.052816,-0.003114,-0.001454,-0.008798,0.009155,-0.492006,0.051037,1.131964,-264.637451,-0.893056,62.552391
2.6369,-0.017337,0.017359,0.051561,-0.003117,-0.001453,-0.008798,0.009842,-0.491545,0.052646,1.131964,-264.637451,-0.893056,62.552391
2.6567,-0.017077,0.017356,0.05177,-0.003118,-0.001453,-0.008798,0.009842,-0.491545,0.052646,1.131964,-264.637451,-0.893056,62.552391
2.6765,-0.017196,0.017279,0.052747,-0.00312,-0.001453,-0.008798,0.009187,-0.492028,0.051403,1.142792,-264.64045,-0.899385,62.55039
2.6966,-0.016961,0.017171,0.049753,-0.003111,-0.001458,-0.008798,0.009381,-0.492029,0.051916,1.142792,-264.64045,-0.899385,62.55039
2.717,-0.017001,0.017467,0.049228,-0.003104,-0.001462,-0.008797,0.008306,-0.492249,0.049475,1.142116,-264.643447,-0.898596,62.548389
2.737,-0.016833,0.017091,0.052465,-0.00304,-0.001494,-0.008798,0.008109,-0.491947,0.049236,1.142116,-264.643447,-0.898596,62.548389
2.7566,-0.017064,0.017319,0.05161,-0.002986,-0.001521,-0.0088,0.008109,-0.491947,0.049236,1.142116,-264.643447,-0.898596,62.548389
2.7767,-0.016611,0.016975,0.051022,-0.002942,-0.001544,-0.008801,0.009119,-0.49207,0.051241,1.144491,-264.64645,-0.899867,62.546392
2.7972,-0.017298,0.01701,0.049272,-0.00296,-0.001536,-0.008801,0.009218,-0.492197,0.051109,1.144491,-264.64645,-0.899867,62.546392
2.8168,-0.016627,0.017019,0.048794,-0.002975,-0.00153,-0.008801,0.00773,-0.492424,0.048996,1.168718,-264.649418,-0.91586,62.544486
2.8366,-0.016746,0.017438,0.050768,-0.002945,-0.001546,-0.008801,0.008199,-0.492381,0.048798,1.168718,-264.649418,-0.91586,62.544486
2.8567,-0.016747,0.01704,0.048786,-0.002919,-0.001559,-0.008801,0.008199,-0.492381,0.048798,1.168718,-264.649418,-0.91586,62.544486
2.8766,-0.016685,0.016926,0.049666,-0.002898,-0.001571,-0.008801,0.008002,-0.492423,0.048418,1.163983,-264.652418,-0.912275,62.542546
2.8969,-0.016741,0.017072,0.049766,-0.002884,-0.001578,-0.008801,0.008245,-0.49244,0.048883,1.163983,-264.652418,-0.912275,62.542546
2.9167,-0.016688,0.016785,0.049327,-0.002873,-0.001585,-0.008801,0.00854,-0.492351,0.049487,1.175503,-264.655427,-0.919824,62.540633
2.9366,-0.016785,0.017053,0.048478,-0.002876,-0.001584,-0.008801,0.008461,-0.492577,0.049327,1.175503,-264.655427,-0.919824,62.540633
2.9565,-0.016831,0.017491,0.049637,-0.002878,-0.001584,-0.008801,0.008461,-0.492577,0.049327,1.175503,-264.655427,-0.919824,62.540633
2.977,-0.016743,0.017048,0.049212,-0.00288,-0.001584,-0.0088,0.008358,-0.491952,0.04927,1.179398,-264.65843,-0.922288,62.538737
2.9966,-0.016763,0.016973,0.04974,-0.002867,-0.00159,-0.0088,0.008339,-0.492115,0.049204,1.179398,-264.65843,-0.922288,62.538737
3.0167,-0.016583,0.016756,0.049095,-0.002857,-0.001596,-0.0088,0.008505,-0.492451,0.049459,1.178343,-264.661448,-0.921115,62.536829
3.0368,-0.016305,0.016512,0.048177,-0.002862,-0.001594,-0.0088,0.008446,-0.492617,0.049113,1.178343,-264.661448,-0.921115,62.536829
3.057,-0.016474,0.017038,0.047814,-0.002867,-0.001592,-0.0088,0.008446,-0.492617,0.049113,1.178343,-264.661448,-0.921115,62.536829
3.0768,-0.016633,0.016728,0.048146,-0.002871,-0.00159,-0.0088,0.007785,-0.492452,0.047446,1.181857,-264.66446,-0.923455,62.534934
3.097,-0.01651,0.016576,0.047295,-0.002843,-0.001604,-0.0088,0.007823,-0.492553,0.047688,1.181857,-264.66446,-0.923455,62.534934
3.1164,-0.016743,0.016998,0.047715,-0.00282,-0.001615,-0.0088,0.007512,-0.492909,0.047014,1.179805,-264.667474,-0.921765,62.533034
3.1366,-0.016383,0.016721,0.046337,-0.002788,-0.00163,-0.008801,0.007572,-0.492466,0.047641,1.179805,-264.667474,-0.921765,62.533034
3.1568,-0.016152,0.016281,0.047952,-0.002761,-0.001643,-0.008802,0.007572,-0.492466,0.047641,1.179805,-264.667474,-0.921765,62.533034
3.1768,-0.016469,0.016773,0.047227,-0.002739,-0.001653,-0.008802,0.00818,-0.493206,0.047585,1.187276,-264.670486,-0.927275,62.531156
3.1967,-0.016515,0.016424,0.046507,-0.002748,-0.00165,-0.008803,0.00793,-0.492988,0.047394,1.187276,-264.670486,-0.927275,62.531156
3.2167,-0.01618,0.016079,0.045743,-0.002754,-0.001648,-0.008803,0.007111,-0.493081,0.046229,1.199242,-264.673501,-0.936452,62.529309
3.2369,-0.016466,0.016593,0.046854,-0.002728,-0.00166,-0.008803,0.007134,-0.493367,0.045768,1.199242,-264.673501,-0.936452,62.529309
3.2569,-0.016263,0.016416,0.047,-0.002705,-0.00167,-0.008803,0.007134,-0.493367,0.045768,1.199242,-264.673501,-0.936452,62.529309
3.2765,-0.016104,0.016592,0.044161,-0.002687,-0.001679,-0.008803,0.007586,-0.493095,0.046633,1.197064,-264.676503,-0.93455,62.527464
3.2967,-0.016054,0.016192,0.047826,-0.002663,-0.00169,-0.008804,0.007097,-0.493029,0.045589,1.197064,-264.676503,-0.93455,62.527464
3.3168,-0.016111,0.016323,0.045081,-0.002644,-0.001699,-0.008805,0.008245,-0.493283,0.047545,1.206925,-264.679519,-0.942429,62.525638
3.337,-0.01609,0.01648,0.045667,-0.002625,-0.001708,-0.008805,0.006987,-0.493172,0.045281,1.206925,-264.679519,-0.942429,62.525638
3.3566,-0.015995,0.016175,0.04637,-0.002609,-0.001715,-0.008806,0.006987,-0.493172,0.045281,1.206925,-264.679519,-0.942429,62.525638
3.3766,-0.015984,0.016236,0.045043,-0.002596,-0.001722,-0.008806,0.007538,-0.493352,0.046002,1.213232,-264.682533,-0.947597,62.523831
3.3969,-0.016157,0.015918,0.043286,-0.002603,-0.001719,-0.008807,0.007298,-0.493318,0.045569,1.213232,-264.682533,-0.947597,62.523831
3.417,-0.015509,0.016279,0.045639,-0.00261,-0.001716,-0.008806,0.005832,-0.493663,0.043006,1.220309,-264.685559,-0.953532,62.522036
3.4369,-0.015395,0.016004,0.045125,-0.002627,-0.001709,-0.008806,0.007593,-0.493233,0.045404,1.220309,-264.685559,-0.953532,62.522036
3.4566,-0.016045,0.016232,0.044543,-0.002642,-0.001703,-0.008805,0.007593,-0.493233,0.045404,1.220309,-264.685559,-0.953532,62.522036
3.4765,-0.015699,0.015966,0.043615,-0.002654,-0.001698,-0.008805,0.006559,-0.493339,0.044175,1.218332,-264.688577,-0.951644,62.520241
3.497,-0.01551,0.016195,0.043304,-0.002613,-0.001715,-0.008805,0.006538,-0.493433,0.043905,1.218332,-264.688577,-0.951644,62.520241
3.5165,-0.01583,0.015735,0.045392,-0.00258,-0.001729,-0.008806,0.006486,-0.493384,0.043024,1.211948,-264.691601,-0.946037,62.518425
3.5369,-0.015474,0.016165,0.043934,-0.002595,-0.001723,-0.008806,0.007237,-0.493712,0.045177,1.211948,-264.691601,-0.946037,62.518425
3.5572,-0.015701,0.016278,0.044106,-0.002607,-0.001717,-0.008806,0.007237,-0.493712,0.045177,1.211948,-264.691601,-0.946037,62.518425
3.5769,-0.015377,0.015807,0.044953,-0.002617,-0.001713,-0.008805,0.006682,-0.493303,0.043739,1.22261,-264.694611,-0.955469,62.516646
3.5969,-0.01535,0.01613,0.042395,-0.002609,-0.001717,-0.008805,0.00702,-0.493464,0.044191,1.22261,-264.694611,-0.955469,62.516646
3.6164,-0.015386,0.015782,0.043118,-0.002602,-0.00172,-0.008805,0.006184,-0.493469,0.042115,1.217213,-264.697632,-0.950608,62.514846
3.6367,-0.015339,0.015761,0.042535,-0.002576,-0.001731,-0.008805,0.006557,-0.493723,0.043016,1.217213,-264.697632,-0.950608,62.514846
3.6567,-0.015473,0.015578,0.044513,-0.002555,-0.00174,-0.008806,0.006557,-0.493723,0.043016,1.217213,-264.697632,-0.950608,62.514846
3.6769,-0.015085,0.015751,0.04299,-0.002537,-0.001748,-0.008806,0.007115,-0.493994,0.044144,1.219471,-264.700655,-0.952485,62.513051
3.6965,-0.015281,0.015805,0.042483,-0.00255,-0.001743,-0.008806,0.006988,-0.493915,0.043632,1.219471,-264.700655,-0.952485,62.513051
3.7164,-0.015214,0.015456,0.04144,-0.00256,-0.001739,-0.008806,0.006301,-0.493794,0.042203,1.228762,-264.703673,-0.960835,62.511284
3.7367,-0.01503,0.015506,0.041286,-0.002514,-0.001757,-0.008807,0.005945,-0.494081,0.041495,1.228762,-264.703673,-0.960835,62.511284
3.7571,-0.015254,0.015791,0.042301,-0.002475,-0.001773,-0.008808,0.005945,-0.494081,0.041495,1.228762,-264.703673,-0.960835,62.511284
3.7769,-0.015171,0.015361,0.04096,-0.002444,-0.001785,-0.008809,0.006209,-0.49383,0.041932,1.225499,-264.706697,-0.957814,62.509505
3.7971,-0.015206,0.015575,0.042869,-0.002419,-0.001796,-0.00881,0.005996,-0.493993,0.041496,1.225499,-264.706697,-0.957814,62.509505
3.8167,-0.014818,0.0157,0.041014,-0.002399,-0.001804,-0.00881,0.006576,-0.494016,0.04259,1.242106,-264.7097,-0.973693,62.507781
3.8366,-0.015012,0.015217,0.040822,-0.002387,-0.00181,-0.008811,0.006133,-0.493887,0.041142,1.242106,-264.7097,-0.973693,62.507781
3.8567,-0.014831,0.015539,0.040771,-0.002377,-0.001814,-0.008811,0.006133,-0.493887,0.041142,1.242106,-264.7097,-0.973693,62.507781
3.8772,-0.014744,0.015602,0.039717,-0.002369,-0.001818,-0.008811,0.00586,-0.494117,0.040403,1.248589,-264.712726,-0.980026,62.50606
3.8968,-0.014676,0.015284,0.040702,-0.002341,-0.001829,-0.008811,0.005705,-0.494077,0.040081,1.248589,-264.712726,-0.980026,62.50606
3.9166,-0.014588,0.015207,0.040999,-0.002318,-0.001838,-0.008812,0.006003,-0.494355,0.040421,1.252846,-264.71576,-0.984055,62.504347
3.9369,-0.014771,0.015105,0.040652,-0.002338,-0.00183,-0.008812,0.006285,-0.494367,0.040935,1.252846,-264.71576,-0.984055,62.504347
3.957,-0.014757,0.015513,0.041292,-0.002354,-0.001824,-0.008811,0.006285,-0.494367,0.040935,1.252846,-264.71576,-0.984055,62.504347
3.9769,-0.014871,0.015185,0.038511,-0.002367,-0.001819,-0.00881,0.006202,-0.494133,0.040923,1.260101,-264.718784,-0.99157,62.502658
3.9971,-0.015003,0.015176,0.038599,-0.002337,-0.001831,-0.008811,0.005613,-0.494265,0.039911,1.260101,-264.718784,-0.99157,62.502658
4.0169,-0.014612,0.015248,0.039757,-0.002313,-0.00184,-0.008811,0.004605,-0.494505,0.038318,1.253129,-264.721811,-0.984177,62.50095
4.0365,-0.014742,0.015122,0.039511,-0.002291,-0.001848,-0.008811,0.00556,-0.494367,0.039613,1.253129,-264.721811,-0.984177,62.50095
4.0566,-0.014625,0.015134,0.040081,-0.002273,-0.001855,-0.008812,0.00556,-0.494367,0.039613,1.253129,-264.721811,-0.984177,62.50095
4.0766,-0.014223,0.014972,0.038235,-0.002259,-0.001861,-0.008812,0.005717,-0.494538,0.039713,1.260828,-264.724837,-0.992226,62.499262
4.0969,-0.014387,0.015114,0.039305,-0.002248,-0.001865,-0.008812,0.005526,-0.494595,0.039073,1.260828,-264.724837,-0.992226,62.499262
4.1167,-0.014501,0.015106,0.039259,-0.00224,-0.001868,-0.008812,0.005583,-0.494554,0.039023,1.268516,-264.727866,-1.000438,62.497592
4.1376,-0.014403,0.015056,0.039338,-0.002231,-0.001872,-0.008813,0.005518,-0.494509,0.039223,1.268516,-264.727866,-1.000438,62.497592
4.1577,-0.014525,0.014573,0.037297,-0.002223,-0.001875,-0.008813,0.005518,-0.494509,0.039223,1.268516,-264.727866,-1.000438,62.497592
4.1768,-0.014246,0.014822,0.037494,-0.002217,-0.001877,-0.008813,0.004401,-0.495155,0.036927,1.271209,-264.730901,-1.003342,62.495926
4.197,-0.014655,0.015264,0.038956,-0.002162,-0.001896,-0.008814,0.004579,-0.49503,0.037112,1.271209,-264.730901,-1.003342,62.495926
4.2165,-0.014249,0.014819,0.036202,-0.002117,-0.001911,-0.008815,0.005139,-0.494411,0.038676,1.274393,-264.73394,-1.006773,62.494265
4.2366,-0.014087,0.014594,0.03796,-0.002057,-0.00193,-0.008817,0.00429,-0.494811,0.036411,1.274393,-264.73394,-1.006773,62.494265
4.2569,-0.014238,0.014724,0.03883,-0.002008,-0.001946,-0.008818,0.00429,-0.494811,0.036411,1.274393,-264.73394,-1.006773,62.494265
4.2768,-0.013716,0.014368,0.038691,-0.001967,-0.001959,-0.00882,0.005476,-0.494974,0.038464,1.288391,-264.736951,-1.023452,62.492653
4.2969,-0.014393,0.01475,0.038399,-0.002027,-0.001939,-0.008819,0.005683,-0.495096,0.038514,1.288391,-264.736951,-1.023452,62.492653
4.3169,-0.013836,0.01465,0.038055,-0.002076,-0.001923,-0.008817,0.005127,-0.494938,0.038122,1.309124,-264.739945,-1.049693,62.491097
4.3366,-0.014184,0.014678,0.036209,-0.002104,-0.001914,-0.008816,0.005527,-0.49498,0.038047,1.309124,-264.739945,-1.049693,62.491097
4.3567,-0.014013,0.01464,0.036737,-0.002127,-0.001906,-0.008814,0.005527,-0.49498,0.038047,1.309124,-264.739945,-1.049693,62.491097
4.3767,-0.013948,0.014556,0.037648,-0.002146,-0.0019,-0.008813,0.004635,-0.495098,0.036372,1.293975,-264.74295,-1.030649,62.4895
4.3968,-0.01388,0.014785,0.035744,-0.002123,-0.001908,-0.008813,0.004875,-0.495102,0.036849,1.293975,-264.74295,-1.030649,62.4895
4.4167,-0.013525,0.01426,0.037031,-0.002104,-0.001915,-0.008812,0.00428,-0.494952,0.035465,1.284191,-264.745979,-1.018469,62.487868
4.4371,-0.01359,0.014602,0.037184,-0.002118,-0.001911,-0.008812,0.005258,-0.495355,0.036878,1.284191,-264.745979,-1.018469,62.487868
4.4571,-0.01346,0.01446,0.034829,-0.002128,-0.001907,-0.008811,0.005258,-0.495355,0.036878,1.284191,-264.745979,-1.018469,62.487868
4.4769,-0.013528,0.014443,0.034078,-0.002137,-0.001904,-0.00881,0.004214,-0.495313,0.034461,1.290055,-264.749013,-1.025289,62.486248
4.4969,-0.013232,0.014532,0.034118,-0.002064,-0.001927,-0.008811,0.004055,-0.495301,0.034262,1.290055,-264.749013,-1.025289,62.486248
4.5167,-0.013592,0.014306,0.035275,-0.002003,-0.001946,-0.008813,0.004099,-0.495234,0.033838,1.285423,-264.752048,-1.019567,62.484617
4.5369,-0.013563,0.014233,0.035226,-0.001977,-0.001955,-0.008814,0.004366,-0.495367,0.035139,1.285423,-264.752048,-1.019567,62.484617
4.5567,-0.013084,0.014196,0.035082,-0.001954,-0.001963,-0.008815,0.004366,-0.495367,0.035139,1.285423,-264.752048,-1.019567,62.484617
4.5765,-0.012928,0.014415,0.033092,-0.001936,-0.00197,-0.008816,0.004724,-0.495573,0.034718,1.303937,-264.755047,-1.042962,62.483047
4.5967,-0.013062,0.014016,0.034138,-0.001924,-0.001974,-0.008816,0.004393,-0.495472,0.034003,1.303937,-264.755047,-1.042962,62.483047
4.6169,-0.013286,0.014064,0.035409,-0.001913,-0.001978,-0.008816,0.004286,-0.495751,0.033859,1.313335,-264.758069,-1.054941,62.481486
4.637,-0.01321,0.014041,0.03235,-0.001931,-0.001973,-0.008816,0.004722,-0.495632,0.035255,1.313335,-264.758069,-1.054941,62.481486
4.6572,-0.013287,0.01384,0.03433,-0.001945,-0.001969,-0.008815,0.004722,-0.495632,0.035255,1.313335,-264.758069,-1.054941,62.481486
4.6769,-0.0132,0.013934,0.03366,-0.001956,-0.001966,-0.008814,0.004141,-0.495945,0.033961,1.316534,-264.761111,-1.058989,62.479924
4.6966,-0.013275,0.013764,0.035265,-0.001925,-0.001975,-0.008814,0.00406,-0.495886,0.033796,1.316534,-264.761111,-1.058989,62.479924
4.7171,-0.013139,0.013846,0.031617,-0.001899,-0.001983,-0.008815,0.004646,-0.495983,0.034985,1.310626,-264.764148,-1.050892,62.478352
4.7373,-0.012669,0.013995,0.03355,-0.001811,-0.002006,-0.008817,0.003145,-0.495911,0.031936,1.310626,-264.764148,-1.050892,62.478352
4.7572,-0.012959,0.014013,0.031831,-0.00174,-0.002025,-0.008819,0.003145,-0.495911,0.031936,1.310626,-264.764148,-1.050892,62.478352
4.7771,-0.012775,0.013901,0.033467,-0.001681,-0.002041,-0.008821,0.003195,-0.495814,0.031463,1.31858,-264.767182,-1.061578,62.476798
4.7972,-0.012676,0.013447,0.033448,-0.001666,-0.002046,-0.008822,0.00363,-0.495824,0.032233,1.31858,-264.767182,-1.061578,62.476798
4.817,-0.012364,0.01363,0.033235,-0.001654,-0.002051,-0.008823,0.00433,-0.496331,0.033179,1.348256,-264.770095,-1.105325,62.475366
4.8368,-0.01256,0.013497,0.032669,-0.001714,-0.002034,-0.008821,0.004557,-0.496114,0.033216,1.348256,-264.770095,-1.105325,62.475366
4.8568,-0.012837,0.014088,0.031499,-0.001763,-0.00202,-0.008819,0.004557,-0.496114,0.033216,1.348256,-264.770095,-1.105325,62.475366
4.8768,-0.012584,0.013722,0.032209,-0.001803,-0.002008,-0.008817,0.003158,-0.495747,0.03113,1.352019,-264.773141,-1.110763,62.473877
4.8969,-0.012443,0.013366,0.032539,-0.001751,-0.002023,-0.008817,0.003428,-0.495866,0.031527,1.352019,-264.773141,-1.110763,62.473877
4.917,-0.01232,0.013287,0.03239,-0.001709,-0.002035,-0.008818,0.004095,-0.496428,0.032264,1.331619,-264.776121,-1.080427,62.472378
4.9368,-0.012297,0.013349,0.030719,-0.001739,-0.002027,-0.008817,0.004184,-0.496447,0.032364,1.331619,-264.776121,-1.080427,62.472378
4.9567,-0.012309,0.013752,0.030716,-0.001764,-0.00202,-0.008816,0.004184,-0.496447,0.032364,1.331619,-264.776121,-1.080427,62.472378
4.9767,-0.012274,0.013433,0.031086,-0.001783,-0.002015,-0.008815,0.003286,-0.496094,0.03035,1.344392,-264.779142,-1.099095,62.470886
4.9973,-0.012067,0.013203,0.032765,-0.001737,-0.002027,-0.008815,0.003396,-0.496196,0.030606,1.344392,-264.779142,-1.099095,62.470886
5.0168,-0.012118,0.013304,0.031109,-0.001699,-0.002038,-0.008815,0.004585,-0.496589,0.032485,1.334242,-264.78217,-1.083901,62.469369
5.037,-0.011943,0.013073,0.029869,-0.001704,-0.002037,-0.008815,0.00382,-0.496466,0.031221,1.334242,-264.78217,-1.083901,62.469369
5.0571,-0.012179,0.012923,0.029969,-0.001708,-0.002037,-0.008815,0.00382,-0.496466,0.031221,1.334242,-264.78217,-1.083901,62.469369
5.077,-0.011946,0.013347,0.02997,-0.001712,-0.002036,-0.008814,0.003035,-0.496935,0.029603,1.345697,-264.785195,-1.100824,62.467878
5.0968,-0.012196,0.013126,0.029536,-0.001667,-0.002047,-0.008815,0.003151,-0.496736,0.029711,1.345697,-264.785195,-1.100824,62.467878
5.1169,-0.011977,0.01298,0.030786,-0.001631,-0.002057,-0.008816,0.002813,-0.496718,0.029255,1.344068,-264.78824,-1.0981,62.466375
5.1366,-0.011906,0.012923,0.030619,-0.00164,-0.002055,-0.008817,0.003637,-0.496777,0.030634,1.344068,-264.78824,-1.0981,62.466375
5.1571,-0.011732,0.013051,0.028329,-0.001647,-0.002053,-0.008817,0.003637,-0.496777,0.030634,1.344068,-264.78824,-1.0981,62.466375
5.1768,-0.01152,0.013096,0.027628,-0.001653,-0.002052,-0.008817,0.002649,-0.496832,0.027963,1.354995,-264.791268,-1.115048,62.464902
5.1969,-0.01146,0.013388,0.029712,-0.001576,-0.002069,-0.008818,0.002608,-0.496792,0.027784,1.354995,-264.791268,-1.115048,62.464902
5.2167,-0.011456,0.013095,0.029896,-0.001513,-0.002084,-0.00882,0.00364,-0.496454,0.029431,1.352078,-264.794313,-1.11041,62.463414
5.2364,-0.011709,0.012711,0.028732,-0.001551,-0.002075,-0.00882,0.003773,-0.496661,0.02984,1.352078,-264.794313,-1.11041,62.463414
5.2567,-0.011395,0.013034,0.028745,-0.001581,-0.002068,-0.008819,0.003773,-0.496661,0.02984,1.352078,-264.794313,-1.11041,62.463414
5.2765,-0.011429,0.012946,0.029135,-0.001606,-0.002062,-0.008818,0.003203,-0.496843,0.028382,1.370927,-264.797299,-1.141199,62.461991
5.2967,-0.011273,0.012741,0.02806,-0.001592,-0.002066,-0.008818,0.003287,-0.49685,0.028645,1.370927,-264.797299,-1.141199,62.461991
5.3164,-0.010974,0.013085,0.025933,-0.00158,-0.002069,-0.008817,0.002987,-0.497124,0.027782,1.358424,-264.800323,-1.120724,62.460526
5.3367,-0.011196,0.012816,0.028585,-0.001491,-0.002088,-0.00882,0.002311,-0.49678,0.026079,1.358424,-264.800323,-1.120724,62.460526
5.357,-0.011386,0.012358,0.027605,-0.001419,-0.002104,-0.008822,0.002311,-0.49678,0.026079,1.358424,-264.800323,-1.120724,62.460526
5.3767,-0.010861,0.012476,0.026894,-0.001359,-0.002117,-0.008824,0.002627,-0.497536,0.027237,1.361876,-264.80337,-1.126014,62.459057
5.3967,-0.01075,0.012381,0.027718,-0.001352,-0.002119,-0.008826,0.002713,-0.497465,0.027053,1.361876,-264.80337,-1.126014,62.459057
5.4168,-0.010898,0.012391,0.027677,-0.001346,-0.002121,-0.008827,0.003346,-0.497488,0.027453,1.391689,-264.806254,-1.177242,62.457717
5.4366,-0.01088,0.012414,0.029843,-0.001383,-0.002113,-0.008826,0.003224,-0.497423,0.027645,1.391689,-264.806254,-1.177242,62.457717
5.4567,-0.01064,0.012497,0.027189,-0.001413,-0.002106,-0.008824,0.003224,-0.497423,0.027645,1.391689,-264.806254,-1.177242,62.457717
5.4767,-0.010918,0.012469,0.028007,-0.001437,-0.002101,-0.008823,0.003171,-0.497404,0.02682,1.393453,-264.809301,-1.180261,62.456305
5.4967,-0.01054,0.012731,0.025492,-0.001458,-0.002096,-0.008822,0.003243,-0.497385,0.027263,1.393453,-264.809301,-1.180261,62.456305
5.5167,-0.010203,0.012459,0.026228,-0.001475,-0.002093,-0.008821,0.002416,-0.497171,0.025214,1.381182,-264.812327,-1.158642,62.454882
5.5366,-0.010272,0.012367,0.024983,-0.001475,-0.002093,-0.00882,0.003102,-0.497351,0.026123,1.381182,-264.812327,-1.158642,62.454882
5.5565,-0.010562,0.012347,0.027006,-0.001476,-0.002093,-0.00882,0.003102,-0.497351,0.026123,1.381182,-264.812327,-1.158642,62.454882
5.5766,-0.010359,0.012268,0.024147,-0.001476,-0.002093,-0.008819,0.00315,-0.497556,0.026639,1.376168,-264.815372,-1.14997,62.45344
5.5968,-0.010376,0.012309,0.025168,-0.001443,-0.002101,-0.00882,0.002651,-0.497578,0.025569,1.376168,-264.815372,-1.14997,62.45344
5.6171,-0.01032,0.012247,0.025752,-0.001416,-0.002107,-0.008821,0.002413,-0.497597,0.024888,1.375926,-264.818421,-1.149327,62.451997
5.6366,-0.010266,0.012277,0.025716,-0.001404,-0.002109,-0.008821,0.002772,-0.497588,0.025655,1.375926,-264.818421,-1.149327,62.451997
5.6571,-0.010042,0.012433,0.025257,-0.001394,-0.002112,-0.008822,0.002772,-0.497588,0.025655,1.375926,-264.818421,-1.149327,62.451997
5.6767,-0.009871,0.012028,0.024521,-0.001386,-0.002114,-0.008822,0.002781,-0.497494,0.02489,1.384087,-264.82146,-1.163399,62.450573
5.6969,-0.010189,0.012363,0.02525,-0.001375,-0.002116,-0.008823,0.002714,-0.497638,0.024695,1.384087,-264.82146,-1.163399,62.450573
5.7164,-0.009977,0.012108,0.023604,-0.001365,-0.002118,-0.008823,0.002645,-0.497543,0.024971,1.388084,-264.824502,-1.170367,62.449155
5.7371,-0.010014,0.011863,0.025256,-0.001306,-0.002129,-0.008825,0.00211,-0.497735,0.023713,1.388084,-264.824502,-1.170367,62.449155
5.7573,-0.010178,0.011816,0.024047,-0.001259,-0.002138,-0.008827,0.00211,-0.497735,0.023713,1.388084,-264.824502,-1.170367,62.449155
5.7766,-0.009675,0.011922,0.024175,-0.001219,-0.002146,-0.008828,0.00203,-0.498126,0.023678,1.390922,-264.827553,-1.175387,62.447738
5.7971,-0.009963,0.011683,0.023548,-0.001206,-0.002148,-0.00883,0.002278,-0.498056,0.023839,1.390922,-264.827553,-1.175387,62.447738
5.8168,-0.009778,0.011895,0.023798,-0.001195,-0.00215,-0.008831,0.002009,-0.498243,0.023274,1.410403,-264.830526,-1.21145,62.446388
5.8368,-0.009648,0.011966,0.022958,-0.001189,-0.002152,-0.008831,0.002325,-0.49799,0.023737,1.410403,-264.830526,-1.21145,62.446388
5.8567,-0.009834,0.011749,0.0227,-0.001184,-0.002153,-0.008832,0.002325,-0.49799,0.023737,1.410403,-264.830526,-1.21145,62.446388
5.8769,-0.009339,0.010944,0.022176,-0.00118,-0.002153,-0.008832,0.001694,-0.498211,0.022331,1.413686,-264.833579,-1.217756,62.445006
5.8968,-0.0095,0.011273,0.024042,-0.001135,-0.00216,-0.008833,0.001801,-0.498515,0.022225,1.413686,-264.833579,-1.217756,62.445006
5.9168,-0.009296,0.011022,0.023122,-0.001097,-0.002166,-0.008834,0.002724,-0.498649,0.02376,1.41566,-264.836639,-1.221473,62.443625
5.9372,-0.009724,0.011426,0.021614,-0.001139,-0.002157,-0.008835,0.002513,-0.498829,0.023163,1.41566,-264.836639,-1.221473,62.443625
5.9571,-0.009553,0.011669,0.02193,-0.001172,-0.002149,-0.008835,0.002513,-0.498829,0.023163,1.41566,-264.836639,-1.221473,62.443625
5.9766,-0.0087,0.011433,0.0211,-0.0012,-0.002143,-0.008835,0.001587,-0.498299,0.021564,1.426682,-264.839667,-1.243274,62.442273
5.9967,-0.009201,0.011829,0.021727,-0.001145,-0.002152,-0.008836,0.001776,-0.498373,0.021331,1.426682,-264.839667,-1.243274,62.442273
6.0166,-0.009166,0.011667,0.021938,-0.001101,-0.00216,-0.008838,0.001843,-0.498119,0.02145,1.412984,-264.842673,-1.217488,62.440908
6.0367,-0.008886,0.011162,0.021269,-0.001085,-0.002164,-0.008839,0.002002,-0.498205,0.021876,1.412984,-264.842673,-1.217488,62.440908
6.0568,-0.00888,0.011264,0.022451,-0.001071,-0.002167,-0.008839,0.002002,-0.498205,0.021876,1.412984,-264.842673,-1.217488,62.440908
6.0764,-0.008736,0.010975,0.022108,-0.00106,-0.002169,-0.00884,0.002526,-0.498698,0.022086,1.42611,-264.845688,-1.242986,62.439558
6.0969,-0.00832,0.011205,0.021387,-0.001108,-0.00216,-0.008839,0.002526,-0.498791,0.022053,1.42611,-264.845688,-1.242986,62.439558
6.1171,-0.008453,0.011084,0.020714,-0.001147,-0.002152,-0.008838,0.002555,-0.498749,0.021106,1.431654,-264.848743,-1.253687,62.438198
6.1369,-0.008315,0.011206,0.020229,-0.001141,-0.002152,-0.008837,0.002147,-0.498805,0.020734,1.431654,-264.848743,-1.253687,62.438198
6.157,-0.008681,0.010832,0.020394,-0.001137,-0.002153,-0.008837,0.002147,-0.498805,0.020734,1.431654,-264.848743,-1.253687,62.438198
6.1769,-0.008884,0.010921,0.019805,-0.001134,-0.002153,-0.008837,0.001673,-0.499152,0.020028,1.42007,-264.851761,-1.231261,62.436838
6.1969,-0.008442,0.010918,0.019452,-0.001069,-0.002162,-0.008839,0.001484,-0.499092,0.019896,1.42007,-264.851761,-1.231261,62.436838
6.2165,-0.00833,0.010915,0.019195,-0.001017,-0.002169,-0.00884,0.001444,-0.499055,0.019171,1.421734,-264.854821,-1.234533,62.435461
6.2371,-0.008201,0.011196,0.020236,-0.00097,-0.002176,-0.008842,0.001456,-0.499,0.019179,1.421734,-264.854821,-1.234533,62.435461
6.2571,-0.008034,0.0112,0.018944,-0.000932,-0.002181,-0.008844,0.001456,-0.499,0.019179,1.421734,-264.854821,-1.234533,62.435461
6.2769,-0.007873,0.010632,0.019876,-0.000901,-0.002186,-0.008845,0.001587,-0.498798,0.018582,1.437226,-264.85781,-1.26579,62.434135
6.2969,-0.008175,0.010388,0.019229,-0.000915,-0.002184,-0.008845,0.001857,-0.498999,0.019066,1.437226,-264.85781,-1.26579,62.434135
6.317,-0.007942,0.010556,0.016699,-0.000926,-0.002183,-0.008844,0.001605,-0.499587,0.018953,1.452615,-264.860809,-1.297701,62.432824
6.3373,-0.007896,0.01064,0.019124,-0.000815,-0.002191,-0.008845,0.000662,-0.499395,0.01688,1.452615,-264.860809,-1.297701,62.432824
6.3571,-0.007806,0.01066,0.019671,-0.000724,-0.002198,-0.008846,0.000662,-0.499395,0.01688,1.452615,-264.860809,-1.297701,62.432824
6.3767,-0.007668,0.010809,0.016852,-0.00065,-0.002204,-0.008847,0.002189,-0.499333,0.019302,1.449273,-264.863863,-1.29063,62.431485
6.3972,-0.007708,0.010188,0.019169,-0.000694,-0.0022,-0.008848,0.001664,-0.499255,0.018249,1.449273,-264.863863,-1.29063,62.431485
6.4171,-0.007286,0.010562,0.020205,-0.00073,-0.002197,-0.008848,0.00205,-0.499781,0.018921,1.485526,-264.866564,-1.365656,62.43033
6.4371,-0.007315,0.010638,0.019307,-0.000887,-0.002166,-0.008841,0.002933,-0.499376,0.020081,1.485526,-264.866564,-1.365656,62.43033
6.4569,-0.007594,0.010217,0.01804,-0.001015,-0.002141,-0.008834,0.002933,-0.499376,0.020081,1.485526,-264.866564,-1.365656,62.43033
6.4771,-0.007088,0.010708,0.018973,-0.001119,-0.002121,-0.008827,0.001577,-0.499792,0.017672,1.475078,-264.869596,-1.347023,62.429025
6.4969,-0.007139,0.010395,0.01866,-0.001116,-0.002125,-0.008824,0.001984,-0.499562,0.018158,1.475078,-264.869596,-1.347023,62.429025
6.5167,-0.006917,0.010156,0.017495,-0.001113,-0.002127,-0.008822,0.002351,-0.49957,0.018435,1.422971,-264.872027,-1.272012,62.427918
6.5366,-0.007278,0.010698,0.017062,-0.001119,-0.002127,-0.008815,0.002033,-0.499752,0.017565,1.422971,-264.872027,-1.272012,62.427918
6.5566,-0.007189,0.010573,0.017468,-0.001123,-0.002127,-0.008809,0.002033,-0.499752,0.017565,1.422971,-264.872027,-1.272012,62.427918
6.5765,-0.007159,0.010286,0.017062,-0.001127,-0.002127,-0.008805,0.001675,-0.499437,0.017105,1.42373,-264.875021,-1.241821,62.42656
6.5969,-0.006998,0.00986,0.017537,-0.001083,-0.002135,-0.008802,0.001615,-0.499531,0.017045,1.42373,-264.875021,-1.241821,62.42656
6.6167,-0.006716,0.010059,0.016533,-0.001048,-0.002141,-0.0088,0.00191,-0.50013,0.017256,1.421695,-264.878051,-1.23701,62.425186
6.6371,-0.006802,0.01009,0.017223,-0.001035,-0.002143,-0.008797,0.001731,-0.499898,0.016584,1.421695,-264.878051,-1.23701,62.425186
6.6569,-0.006787,0.010139,0.015464,-0.001025,-0.002144,-0.008795,0.001731,-0.499898,0.016584,1.421695,-264.878051,-1.23701,62.425186
6.6768,-0.007184,0.010176,0.01678,-0.001016,-0.002145,-0.008794,0.001058,-0.49989,0.015098,1.432301,-264.881061,-1.257466,62.423838
6.6969,-0.006289,0.009726,0.015763,-0.000948,-0.002153,-0.008791,0.001179,-0.499845,0.015731,1.432301,-264.881061,-1.257466,62.423838
6.7168,-0.006673,0.009886,0.01699,-0.000893,-0.002159,-0.00879,0.001719,-0.500279,0.015484,1.436378,-264.884095,-1.265591,62.422485
6.737,-0.006694,0.009565,0.017402,-0.000938,-0.002151,-0.008789,0.001967,-0.500065,0.016845,1.436378,-264.884095,-1.265591,62.422485
6.7569,-0.00609,0.010382,0.01492,-0.000974,-0.002145,-0.008788,0.001967,-0.500065,0.016845,1.436378,-264.884095,-1.265591,62.422485
6.7768,-0.006494,0.009848,0.014886,-0.001004,-0.00214,-0.008787,0.001483,-0.49965,0.01456,1.452729,-264.887069,-1.299421,62.421178
6.7969,-0.006571,0.009578,0.015054,-0.000951,-0.002147,-0.00878,0.001318,-0.499846,0.014655,1.452729,-264.887069,-1.299421,62.421178
6.8169,-0.006228,0.00913,0.015675,-0.000908,-0.002153,-0.008774,0.001075,-0.500431,0.01478,1.437876,-264.890031,-1.269205,62.419857
6.8368,-0.006015,0.009648,0.014935,-0.00093,-0.002145,-0.008773,0.001702,-0.500777,0.01558,1.437876,-264.890031,-1.269205,62.419857
6.8569,-0.006083,0.00989,0.014113,-0.000948,-0.002138,-0.008772,0.001702,-0.500777,0.01558,1.437876,-264.890031,-1.269205,62.419857
6.877,-0.005858,0.009559,0.013398,-0.000963,-0.002133,-0.00877,0.001079,-0.500149,0.01375,1.450556,-264.893017,-1.294944,62.418542
6.8969,-0.006057,0.009809,0.01532,-0.000887,-0.00214,-0.008758,0.001032,-0.500259,0.013566,1.450556,-264.893017,-1.294944,62.418542
6.9168,-0.005702,0.009433,0.015121,-0.000826,-0.002146,-0.008748,0.001727,-0.500199,0.015041,1.442972,-264.896025,-1.28062,62.417202
6.9373,-0.005817,0.008965,0.014043,-0.00089,-0.002135,-0.008751,0.001983,-0.500485,0.0151,1.442972,-264.896025,-1.28062,62.417202
6.957,-0.006015,0.009616,0.013972,-0.000941,-0.002126,-0.008753,0.001983,-0.500485,0.0151,1.442972,-264.896025,-1.28062,62.417202
6.9769,-0.005633,0.009717,0.014489,-0.000983,-0.002119,-0.008754,0.001078,-0.500422,0.013616,1.461007,-264.898957,-1.318043,62.415917
6.9967,-0.005656,0.009549,0.013835,-0.000941,-0.002125,-0.008749,0.00135,-0.500354,0.013929,1.461007,-264.898957,-1.318043,62.415917
7.0168,-0.005284,0.009374,0.014191,-0.000907,-0.002129,-0.008745,0.001371,-0.500467,0.013566,1.439867,-264.901865,-1.275142,62.414614
7.0367,-0.005612,0.009355,0.01412,-0.000946,-0.002122,-0.008745,0.001902,-0.500568,0.014125,1.439867,-264.901865,-1.275142,62.414614
7.057,-0.00587,0.009354,0.013406,-0.000977,-0.002116,-0.008745,0.001902,-0.500568,0.014125,1.439867,-264.901865,-1.275142,62.414614
7.0769,-0.005439,0.009321,0.011546,-0.001003,-0.002111,-0.008745,0.00093,-0.500689,0.013044,1.450008,-264.904846,-1.295614,62.413292
7.0971,-0.00523,0.009172,0.013259,-0.000884,-0.00212,-0.008726,0.000729,-0.500681,0.012389,1.450008,-264.904846,-1.295614,62.413292
7.1168,-0.005145,0.008952,0.012161,-0.000789,-0.002128,-0.008712,0.001501,-0.50085,0.012984,1.437045,-264.907818,-1.269806,62.411955
7.1368,-0.005011,0.00888,0.012713,-0.000758,-0.002129,-0.008697,0.001094,-0.501,0.012218,1.437045,-264.907818,-1.269806,62.411955
7.157,-0.005338,0.009203,0.010993,-0.000733,-0.00213,-0.008684,0.001094,-0.501,0.012218,1.437045,-264.907818,-1.269806,62.411955
7.1767,-0.005248,0.00881,0.013486,-0.000713,-0.00213,-0.008674,0.000238,-0.50085,0.010653,1.465311,-264.910612,-1.328631,62.410728
7.1969,-0.004764,0.009103,0.010888,-0.00066,-0.002134,-0.008653,0.000802,-0.500979,0.011767,1.465311,-264.910612,-1.328631,62.410728
7.2167,-0.00446,0.008593,0.010225,-0.000618,-0.002136,-0.008637,0.000767,-0.500934,0.010615,1.475068,-264.913572,-1.349331,62.409441
7.237,-0.005355,0.00878,0.011451,-0.00058,-0.002139,-0.008551,0.000754,-0.501344,0.010246,1.475068,-264.913572,-1.349331,62.409441
7.2566,-0.004627,0.009014,0.011842,-0.000548,-0.002141,-0.008485,0.000754,-0.501344,0.010246,1.475068,-264.913572,-1.349331,62.409441
7.2765,-0.004481,0.008204,0.011369,-0.000523,-0.002142,-0.008434,0.001387,-0.501038,0.011485,1.48766,-264.916508,-1.376515,62.408178
7.2966,-0.004371,0.009025,0.011407,-0.000579,-0.002131,-0.008449,0.001356,-0.501345,0.011396,1.48766,-264.916508,-1.376515,62.408178
7.3168,-0.00409,0.008677,0.011249,-0.000624,-0.002122,-0.008461,0.00143,-0.501009,0.011141,1.499205,-264.919404,-1.39873,62.406968
7.3366,-0.004577,0.008402,0.011142,-0.000693,-0.002111,-0.008461,0.001627,-0.50127,0.011226,1.499205,-264.919404,-1.39873,62.406968
7.3567,-0.004561,0.008522,0.009675,-0.000748,-0.002101,-0.008461,0.001627,-0.50127,0.011226,1.499205,-264.919404,-1.39873,62.406968
7.3766,-0.004055,0.008241,0.011296,-0.000793,-0.002094,-0.008461,0.000349,-0.501542,0.009328,1.485359,-264.922275,-1.368579,62.405748
7.3967,-0.004012,0.008578,0.010363,-0.00074,-0.002098,-0.008401,0.000897,-0.501627,0.010087,1.485359,-264.922275,-1.368579,62.405748
7.4167,-0.003904,0.008359,0.010003,-0.000697,-0.002101,-0.008355,0.001249,-0.501459,0.010106,1.462041,-264.925062,-1.318364,62.404537
7.4367,-0.00387,0.008724,0.010099,-0.000703,-0.002099,-0.008312,0.001201,-0.501605,0.01,1.462041,-264.925062,-1.318364,62.404537
7.4571,-0.00433,0.008903,0.011004,-0.000707,-0.002097,-0.008278,0.001201,-0.501605,0.01,1.462041,-264.925062,-1.318364,62.404537
7.4766,-0.003909,0.008353,0.009311,-0.00071,-0.002096,-0.008253,0.001253,-0.501154,0.010658,1.474379,-264.927917,-1.342765,62.403321
7.4967,-0.003928,0.008158,0.008316,-0.000695,-0.002098,-0.008239,0.001084,-0.501353,0.010078,1.474379,-264.927917,-1.342765,62.403321
7.5168,-0.003865,0.008264,0.008636,-0.000682,-0.0021,-0.008228,0.000291,-0.501891,0.008053,1.471572,-264.930786,-1.334076,62.402109
7.5369,-0.003825,0.008131,0.010437,-0.000604,-0.002103,-0.008076,0.000516,-0.501735,0.008572,1.471572,-264.930786,-1.334076,62.402109
7.557,-0.003709,0.008322,0.008336,-0.000541,-0.002104,-0.007965,0.000516,-0.501735,0.008572,1.471572,-264.930786,-1.334076,62.402109
7.5769,-0.003333,0.007935,0.008943,-0.00049,-0.002104,-0.007883,0.000515,-0.501748,0.007992,1.475407,-264.933645,-1.34181,62.400909
7.5968,-0.003481,0.008346,0.008104,-0.00049,-0.002099,-0.007792,0.000803,-0.501879,0.008341,1.475407,-264.933645,-1.34181,62.400909
7.6169,-0.003538,0.008189,0.008185,-0.000489,-0.002094,-0.007725,0.000637,-0.501701,0.007865,1.500048,-264.936281,-1.391855,62.399863
7.6369,-0.003297,0.008109,0.009054,-0.000464,-0.002092,-0.007648,0.000635,-0.501789,0.008143,1.500048,-264.936281,-1.391855,62.399863
7.6568,-0.003257,0.008192,0.009465,-0.000444,-0.002089,-0.007592,0.000635,-0.501789,0.008143,1.500048,-264.936281,-1.391855,62.399863
7.6767,-0.003642,0.008225,0.007382,-0.000427,-0.002087,-0.007551,0.00155,-0.501873,0.009142,1.499208,-264.939012,-1.38672,62.398795
7.6967,-0.003376,0.007847,0.006549,-0.000458,-0.00208,-0.00755,0.000968,-0.501838,0.008389,1.499208,-264.939012,-1.38672,62.398795
7.7168,-0.003354,0.007952,0.008116,-0.000482,-0.002075,-0.007549,-4.9e-05,-0.502208,0.006309,1.507138,-264.941685,-1.403295,62.397776
7.7369,-0.002912,0.00748,0.006981,-0.00047,-0.002069,-0.007489,0.00071,-0.50205,0.007943,1.507138,-264.941685,-1.403295,62.397776
7.7569,-0.002898,0.007718,0.008003,-0.00046,-0.002064,-0.007444,0.00071,-0.50205,0.007943,1.507138,-264.941685,-1.403295,62.397776
7.7769,-0.002932,0.007566,0.006164,-0.000451,-0.002059,-0.007412,0.001164,-0.502352,0.007689,1.498759,-264.94435,-1.382794,62.396749
7.7974,-0.003035,0.007644,0.007816,-0.000463,-0.002044,-0.007233,0.000773,-0.502391,0.00703,1.498759,-264.94435,-1.382794,62.396749
7.8167,-0.002514,0.007467,0.007501,-0.00047,-0.00203,-0.007104,0.000937,-0.502406,0.007581,1.502351,-264.946985,-1.389842,62.395748
7.8369,-0.002412,0.007426,0.006237,-0.000548,-0.00201,-0.007086,0.001279,-0.502512,0.007496,1.502351,-264.946985,-1.389842,62.395748
7.8571,-0.002701,0.007767,0.006911,-0.00061,-0.001993,-0.007073,0.001279,-0.502512,0.007496,1.502351,-264.946985,-1.389842,62.395748
7.8771,-0.002062,0.007476,0.007012,-0.000659,-0.001979,-0.007063,0.000805,-0.502306,0.006616,1.49713,-264.949518,-1.369913,62.394813
7.8966,-0.002636,0.007394,0.006256,-0.000674,-0.00197,-0.006921,0.001085,-0.502397,0.006739,1.49713,-264.949518,-1.369913,62.394813
7.9169,-0.002393,0.007718,0.005722,-0.000685,-0.001962,-0.006819,0.000536,-0.502653,0.006053,1.466404,-264.951806,-1.295551,62.393936
7.9371,-0.002459,0.007488,0.004447,-0.00062,-0.001955,-0.00652,0.000525,-0.502309,0.00574,1.466404,-264.951806,-1.295551,62.393936
7.9575,-0.002457,0.00714,0.007402,-0.000567,-0.001949,-0.00631,0.000525,-0.502309,0.00574,1.466404,-264.951806,-1.295551,62.393936
7.9771,-0.002257,0.007482,0.006658,-0.000523,-0.001943,-0.006164,0.00129,-0.502928,0.00712,1.459535,-264.954237,-1.269426,62.393027
7.997,-0.002513,0.007624,0.006359,-0.000586,-0.001925,-0.006291,0.001226,-0.502769,0.006903,1.459535,-264.954237,-1.269426,62.393027
8.0167,-0.001887,0.007302,0.006045,-0.000636,-0.001911,-0.006385,0.000714,-0.502427,0.006165,1.479424,-264.956501,-1.291285,62.392278
8.0369,-0.002354,0.007427,0.004877,-0.000671,-0.001899,-0.006283,0.001153,-0.502668,0.006046,1.479424,-264.956501,-1.291285,62.392278
8.0567,-0.002199,0.007574,0.006544,-0.000698,-0.001888,-0.006209,0.001153,-0.502668,0.006046,1.479424,-264.956501,-1.291285,62.392278
8.0766,-0.002301,0.006849,0.004864,-0.000719,-0.00188,-0.006156,0.001114,-0.502494,0.006282,1.461811,-264.95879,-1.261349,62.39146
8.0969,-0.001712,0.007132,0.004578,-0.000676,-0.001873,-0.006031,0.000733,-0.502766,0.005679,1.461811,-264.95879,-1.261349,62.39146
8.1167,-0.002036,0.007277,0.006083,-0.000642,-0.001866,-0.005943,0.000602,-0.50292,0.004392,1.443934,-264.960943,-1.205452,62.390698
8.1367,-0.00195,0.007185,0.006088,-0.000655,-0.001859,-0.005932,0.001023,-0.502735,0.005921,1.443934,-264.960943,-1.205452,62.390698
8.1569,-0.0022,0.007256,0.004914,-0.000665,-0.001854,-0.005924,0.001023,-0.502735,0.005921,1.443934,-264.960943,-1.205452,62.390698
8.1767,-0.001903,0.006927,0.004313,-0.000673,-0.001849,-0.005919,0.00028,-0.502816,0.004667,1.45456,-264.963142,-1.221756,62.389952
8.1966,-0.001655,0.006937,0.003884,-0.00058,-0.001836,-0.005526,0.000284,-0.502927,0.004495,1.45456,-264.963142,-1.221756,62.389952
8.2164,-0.001669,0.007034,0.003458,-0.000505,-0.001824,-0.005254,0.000305,-0.503118,0.003696,1.448216,-264.965338,-1.206629,62.389199
8.2366,-0.001622,0.006701,0.004328,-0.000427,-0.001809,-0.004707,0.000112,-0.502979,0.00347,1.448216,-264.965338,-1.206629,62.389199
8.2572,-0.001674,0.006501,0.003118,-0.000363,-0.001794,-0.004332,0.000112,-0.502979,0.00347,1.448216,-264.965338,-1.206629,62.389199
8.2768,-0.001762,0.006693,0.004419,-0.00031,-0.00178,-0.004078,-0.000105,-0.503573,0.002899,1.470759,-264.967336,-1.220885,62.388617
8.2969,-0.001581,0.00679,0.004919,-0.000267,-0.001751,-0.003904,0.00013,-0.503474,0.003478,1.470759,-264.967336,-1.220885,62.388617
8.3164,-0.00148,0.006796,0.002278,-0.000232,-0.001726,-0.003787,0.000919,-0.503257,0.004797,1.498422,-264.96893,-1.159704,62.388328
8.337,-0.001455,0.006834,0.002418,-0.000157,-0.001711,-0.003317,-0.000208,-0.50321,0.002498,1.498422,-264.96893,-1.159704,62.388328
8.3571,-0.001167,0.006732,0.00371,-9.5e-05,-0.001696,-0.002997,-0.000208,-0.50321,0.002498,1.498422,-264.96893,-1.159704,62.388328
8.3768,-0.001726,0.006507,0.004189,-4.5e-05,-0.001682,-0.002781,0.000716,-0.503335,0.003555,1.513412,-264.970511,-1.194387,62.388081
8.3969,-0.001239,0.006525,0.003949,-0.000124,-0.001667,-0.003106,0.000592,-0.503405,0.003794,1.513412,-264.970511,-1.194387,62.388081
8.4167,-0.001185,0.007126,0.00344,-0.000187,-0.001655,-0.003339,0.000775,-0.503471,0.003949,1.557492,-264.970511,-1.119428,62.388081
8.4371,-0.001514,0.006429,0.003472,-0.000235,-0.001659,-0.003403,0.000588,-0.502923,0.003485,1.557492,-264.970511,-1.119428,62.388081
8.4574,-0.001397,0.006746,0.003745,-0.000274,-0.001663,-0.003447,0.000588,-0.502923,0.003485,1.557492,-264.970511,-1.119428,62.388081
8.4768,-0.001148,0.00669,0.003145,-0.000304,-0.001666,-0.003476,0.000506,-0.503319,0.003608,1.520148,-264.971956,-1.116968,62.387915
8.4969,-0.001413,0.006337,0.002602,-0.000315,-0.001657,-0.003462,0.000485,-0.503322,0.003407,1.520148,-264.971956,-1.116968,62.387915
8.5167,-0.000885,0.006713,0.003292,-0.000324,-0.001649,-0.00345,-9.3e-05,-0.5037,0.002519,1.490732,-264.973087,-1.042071,62.387751
8.537,-0.001327,0.006384,0.003004,-0.000372,-0.001639,-0.003371,0.000717,-0.503322,0.003221,1.490732,-264.973087,-1.042071,62.387751
8.5568,-0.001753,0.006491,0.003675,-0.000409,-0.00163,-0.003312,0.000717,-0.503322,0.003221,1.490732,-264.973087,-1.042071,62.387751
8.5769,-0.001442,0.00623,0.003349,-0.000438,-0.001623,-0.00327,0.00011,-0.503567,0.003547,1.48471,-264.974425,-0.966947,62.387552
8.5973,-0.001184,0.006294,0.003054,-0.000367,-0.001608,-0.003314,0.000172,-0.503656,0.003451,1.48471,-264.974425,-0.966947,62.387552
8.6171,-0.000651,0.006747,0.002754,-0.00031,-0.001596,-0.003343,0.00037,-0.50372,0.003019,1.450289,-264.974901,-0.891882,62.387477
8.637,-0.001244,0.00652,0.002744,-0.000364,-0.001593,-0.003115,0.000713,-0.503302,0.00278,1.450289,-264.974901,-0.891882,62.387477
8.6572,-0.000958,0.006318,0.002953,-0.000405,-0.001591,-0.002954,0.000713,-0.503302,0.00278,1.450289,-264.974901,-0.891882,62.387477
8.6769,-0.001292,0.006298,0.002399,-0.000437,-0.001589,-0.00284,0.000537,-0.50374,0.002826,1.485711,-264.97622,-0.962742,62.38728
8.6968,-0.000955,0.006062,0.002074,-0.000394,-0.001573,-0.002699,0.000292,-0.503731,0.00264,1.485711,-264.97622,-0.962742,62.38728
8.7166,-0.000775,0.0062,0.002535,-0.000359,-0.001559,-0.0026,0.000103,-0.503937,0.002074,1.440009,-264.976221,-0.887869,62.38728
8.737,-0.001012,0.006179,0.00222,-0.000368,-0.001543,-0.002468,0.000482,-0.50381,0.002496,1.440009,-264.976221,-0.887869,62.38728
8.757,-0.000961,0.006401,0.003063,-0.000373,-0.001529,-0.002375,0.000482,-0.50381,0.002496,1.440009,-264.976221,-0.887869,62.38728
8.7769,-0.001019,0.006445,0.002832,-0.000377,-0.001517,-0.002309,0.000601,-0.503596,0.003063,1.457091,-264.976221,-0.81272,62.38728
8.7969,-0.001,0.006367,0.00224,-0.00038,-0.001521,-0.002441,0.00053,-0.503579,0.00297,1.457091,-264.976221,-0.81272,62.38728
8.8169,-0.00095,0.006277,0.003533,-0.000383,-0.001524,-0.002532,0.000142,-0.503632,0.00224,1.442603,-264.976221,-0.737866,62.38728
8.8371,-0.001162,0.006069,0.002242,-0.000427,-0.00152,-0.002739,0.000787,-0.503711,0.003415,1.442603,-264.976221,-0.737866,62.38728
8.8568,-0.000835,0.00629,0.002189,-0.000463,-0.001518,-0.002882,0.000787,-0.503711,0.003415,1.442603,-264.976221,-0.737866,62.38728
8.8769,-0.000782,0.006464,0.003414,-0.000491,-0.001516,-0.002979,0.000282,-0.503709,0.002189,1.446637,-264.976222,-0.662871,62.38728
8.897,-0.000862,0.006342,0.001966,-0.000482,-0.001517,-0.002785,0.000561,-0.503637,0.002693,1.446637,-264.976222,-0.662871,62.38728
8.9168,-0.00106,0.006266,0.003124,-0.000474,-0.001518,-0.002647,0.000129,-0.503696,0.001889,1.424547,-264.977325,-0.587706,62.387091
8.9371,-0.001136,0.006137,0.004167,-0.000454,-0.001516,-0.00267,0.000498,-0.503731,0.003015,1.424547,-264.977325,-0.587706,62.387091
8.9568,-0.001098,0.006769,0.001463,-0.000438,-0.001514,-0.002685,0.000498,-0.503731,0.003015,1.424547,-264.977325,-0.587706,62.387091
8.9771,-0.001024,0.006378,0.00312,-0.000425,-0.001513,-0.002696,-0.000353,-0.503236,0.001452,1.420681,-264.97744,-0.512751,62.387074
8.9969,-0.001086,0.006138,0.004943,-0.000342,-0.001523,-0.002352,2.3e-05,-0.503394,0.002133,1.420681,-264.97744,-0.512751,62.387074
9.0167,-0.001413,0.006146,0.001929,-0.000276,-0.00153,-0.002116,0.001429,-0.50388,0.0049,1.43704,-264.978071,-0.437852,62.386985
9.0367,-0.001106,0.005804,0.001995,-0.000167,-0.001513,-0.001968,-0.000273,-0.503857,0.002177,1.43704,-264.978071,-0.437852,62.386985
9.057,-0.000822,0.006322,0.003391,-8.1e-05,-0.0015,-0.001868,-0.000273,-0.503857,0.002177,1.43704,-264.978071,-0.437852,62.386985
9.0766,-0.000891,0.006521,0.003761,-1.2e-05,-0.001488,-0.0018,0.000908,-0.503675,0.003391,1.473399,-264.978072,-0.362715,62.386985
9.0967,-0.000827,0.005983,0.001789,-0.000153,-0.001489,-0.002217,0.000957,-0.503593,0.003543,1.473399,-264.978072,-0.362715,62.386985
9.1168,-0.001133,0.006107,0.001506,-0.000268,-0.001491,-0.002512,8.5e-05,-0.504016,0.001789,1.548355,-264.978072,-0.437671,62.386985
9.137,-0.00135,0.005927,0.002883,-0.000156,-0.001482,-0.00193,-0.000327,-0.503903,0.00153,1.548355,-264.978072,-0.437671,62.386985
9.1571,-0.001335,0.006073,0.001578,-6.7e-05,-0.001473,-0.001531,-0.000327,-0.503903,0.00153,1.548355,-264.978072,-0.437671,62.386985
9.1771,-0.001164,0.006166,0.002901,6e-06,-0.001464,-0.001258,-0.000533,-0.503943,0.001549,1.482584,-264.978402,-0.362628,62.386956
9.197,-0.001059,0.006357,0.003024,4.5e-05,-0.001456,-0.001319,-0.000194,-0.5039,0.002087,1.482584,-264.978402,-0.362628,62.386956
9.2167,-0.001019,0.006073,0.002103,7.7e-05,-0.00145,-0.001365,0.000484,-0.50364,0.003024,1.557575,-264.978402,-0.437618,62.386956
9.2367,-0.000978,0.006134,0.004087,5.1e-05,-0.001447,-0.001439,9.3e-05,-0.5039,0.002187,1.557575,-264.978402,-0.437618,62.386956
9.257,-0.001192,0.006505,0.001585,3e-05,-0.001444,-0.001491,9.3e-05,-0.5039,0.002187,1.557575,-264.978402,-0.437618,62.386956
9.2766,-0.001109,0.006051,0.00177,1.4e-05,-0.001442,-0.001528,-0.000383,-0.503495,0.001585,1.604378,-264.978402,-0.512474,62.386956
9.2972,-0.001269,0.006379,0.002118,6.7e-05,-0.001447,-0.001327,-0.000312,-0.503678,0.00166,1.604378,-264.978402,-0.512474,62.386956
9.3167,-0.000779,0.00637,0.002859,0.000109,-0.00145,-0.001189,-0.000189,-0.50362,0.002118,1.576879,-264.978402,-0.587473,62.386956
9.3371,-0.001044,0.006144,0.003705,-3e-06,-0.001456,-0.001546,0.000604,-0.503628,0.002795,1.576879,-264.978402,-0.587473,62.386956
9.3568,-0.000746,0.006331,0.003027,-9.2e-05,-0.001463,-0.001797,0.000604,-0.503628,0.002795,1.576879,-264.978402,-0.587473,62.386956
9.3768,-0.00128,0.006583,0.001732,-0.000165,-0.001469,-0.001972,0.000798,-0.503666,0.003027,1.620984,-264.978402,-0.662629,62.386956
9.3968,-0.00102,0.006157,0.001656,-0.000175,-0.001477,-0.001986,0.000311,-0.503564,0.002499,1.620984,-264.978402,-0.662629,62.386956
9.4171,-0.000551,0.006,0.002209,-0.000183,-0.001485,-0.001994,-0.000175,-0.503842,0.001656,1.546138,-264.978403,-0.587783,62.386956
9.4369,-0.000912,0.005952,0.002784,-0.000233,-0.001471,-0.001858,0.000512,-0.503986,0.002163,1.546138,-264.978403,-0.587783,62.386956
9.4573,-0.000984,0.006337,0.003469,-0.000271,-0.001459,-0.001763,0.000512,-0.503986,0.002163,1.546138,-264.978403,-0.587783,62.386956
9.4772,-0.000898,0.006107,0.002094,-0.000301,-0.00145,-0.001696,0.000785,-0.50366,0.003469,1.503081,-264.978403,-0.512602,62.386956
9.4967,-0.000729,0.006253,0.002639,-0.000317,-0.001455,-0.001933,0.000534,-0.503754,0.002908,1.503081,-264.978403,-0.512602,62.386956
9.5165,-0.001079,0.006232,0.002187,-0.000331,-0.00146,-0.002098,0.000617,-0.503745,0.002639,1.450336,-264.978403,-0.437654,62.386956
9.5366,-0.001068,0.006282,0.002084,-0.000272,-0.001462,-0.001955,8.6e-05,-0.503765,0.002226,1.450336,-264.978403,-0.437654,62.386956
9.5571,-0.000844,0.006369,0.00198,-0.000225,-0.001463,-0.001856,8.6e-05,-0.503765,0.002226,1.450336,-264.978403,-0.437654,62.386956
9.5769,-0.000871,0.005971,0.001708,-0.000187,-0.001464,-0.001789,0.000165,-0.50363,0.00198,1.450566,-264.978403,-0.362639,62.386956
9.5968,-0.000692,0.00614,0.002862,-0.000163,-0.001463,-0.00159,9.9e-05,-0.503791,0.00187,1.450566,-264.978403,-0.362639,62.386956
9.6166,-0.001107,0.006068,0.001859,-0.000143,-0.001463,-0.001454,0.000768,-0.503858,0.002862,1.497676,-264.978403,-0.287632,62.386956
9.6369,-0.0008,0.006396,0.001814,-9.4e-05,-0.001454,-0.001393,-8e-05,-0.503925,0.001944,1.497676,-264.978403,-0.287632,62.386956
9.6566,-0.001175,0.006513,0.003775,-5.4e-05,-0.001448,-0.001352,-8e-05,-0.503925,0.001944,1.497676,-264.978403,-0.287632,62.386956
9.6767,-0.00087,0.006242,0.001615,-2.3e-05,-0.001442,-0.001326,0.00075,-0.503483,0.003775,1.510074,-264.978403,-0.212648,62.386956
9.6967,-0.000922,0.006417,0.002677,-7.7e-05,-0.001454,-0.001676,0.000427,-0.503594,0.0029,1.510074,-264.978403,-0.212648,62.386956
9.7163,-0.00093,0.006074,0.002442,-0.00012,-0.001465,-0.001922,0.000443,-0.503581,0.002677,1.560373,-264.978403,-0.287539,62.386956
9.737,-0.000879,0.006178,0.004741,-0.000145,-0.001461,-0.001933,0.000325,-0.503896,0.002461,1.560373,-264.978403,-0.287539,62.386956
9.7566,-0.001277,0.006014,0.001284,-0.000165,-0.001457,-0.001939,0.000325,-0.503896,0.002461,1.560373,-264.978403,-0.287539,62.386956
9.7766,-0.001209,0.006548,0.003132,-0.00018,-0.001454,-0.001943,-0.000622,-0.503986,0.001284,1.525312,-264.978403,-0.21244,62.386956
9.7967,-0.000845,0.006146,0.002721,-0.000102,-0.001453,-0.001774,-0.000208,-0.503766,0.002042,1.525312,-264.978403,-0.21244,62.386956
9.8166,-0.00108,0.005918,0.001582,-4e-05,-0.001453,-0.001659,0.000543,-0.503853,0.002721,1.50256,-264.978403,-0.137469,62.386956
9.8367,-0.001176,0.006297,0.002228,8e-06,-0.00144,-0.001416,-0.000204,-0.504062,0.001679,1.50256,-264.978403,-0.137469,62.386956
9.8566,-0.001154,0.006294,0.002935,4.7e-05,-0.001429,-0.001251,-0.000204,-0.504062,0.001679,1.50256,-264.978403,-0.137469,62.386956
9.8766,-0.000937,0.005943,0.003892,7.8e-05,-0.001419,-0.001138,0.000343,-0.503704,0.002935,1.554555,-264.978403,-0.212517,62.386956
9.8969,-0.000838,0.00624,0.002544,-2.9e-05,-0.001424,-0.001671,0.000632,-0.503847,0.003328,1.554555,-264.978403,-0.212517,62.386956
9.9166,-0.000885,0.006175,0.001636,-0.000115,-0.001429,-0.002052,0.00046,-0.503758,0.002544,1.607544,-264.978403,-0.287488,62.386956
9.9369,-0.000908,0.006163,0.001668,-8.9e-05,-0.001435,-0.001703,-7e-06,-0.503818,0.001713,1.607544,-264.978403,-0.287488,62.386956
9.9572,-0.001321,0.006213,0.002386,-6.7e-05,-0.001438,-0.001463,-7e-06,-0.503818,0.001713,1.607544,-264.978403,-0.287488,62.386956
9.9769,-0.001092,0.006367,0.003597,-4.9e-05,-0.00144,-0.001298,-0.000104,-0.503786,0.002386,1.532541,-264.978404,-0.212484,62.386956
9.9969,-0.000975,0.005999,0.003078,-6.5e-05,-0.001449,-0.001645,0.00024,-0.503722,0.002878,1.532541,-264.978404,-0.212484,62.386956
10.0167,-0.000913,0.006334,0.001879,-7.8e-05,-0.001457,-0.001891,0.000595,-0.503999,0.003078,1.548854,-264.978404,-0.28737,62.386956
10.0369,-0.001069,0.006753,0.002039,-7.5e-05,-0.001462,-0.001718,9.6e-05,-0.503696,0.00199,1.548854,-264.978404,-0.28737,62.386956
10.0571,-0.000997,0.005787,0.004731,-7.2e-05,-0.001465,-0.001598,9.6e-05,-0.503696,0.00199,1.548854,-264.978404,-0.28737,62.386956
10.0767,-0.000919,0.006022,0.004628,-6.9e-05,-0.001468,-0.001516,0.001415,-0.504208,0.004731,1.540758,-264.978404,-0.212387,62.386956
10.0969,-0.000649,0.006177,0.004299,-0.000278,-0.001437,-0.002253,0.001426,-0.504113,0.004689,1.540758,-264.978404,-0.212387,62.386956
10.117,-0.001247,0.006155,0.003628,-0.000445,-0.001416,-0.002795,0.001544,-0.503818,0.004299,1.542063,-264.978404,-0.287415,62.386956
10.1366,-0.000998,0.006404,0.004042,-0.000455,-0.001429,-0.002945,0.000686,-0.50384,0.003687,1.542063,-264.978404,-0.287415,62.386956
10.1572,-0.001035,0.006492,0.003854,-0.000464,-0.001439,-0.003048,0.000686,-0.50384,0.003687,1.542063,-264.978404,-0.287415,62.386956
10.1767,-0.000993,0.006445,0.002676,-0.000473,-0.001448,-0.003119,0.000927,-0.503517,0.00383,1.466974,-264.978664,-0.362504,62.386912
10.1966,-0.000674,0.006434,0.002755,-0.000484,-0.001466,-0.003072,0.000708,-0.503532,0.003373,1.466974,-264.978664,-0.362504,62.386912
10.2167,-0.000784,0.006172,0.001135,-0.000492,-0.00148,-0.003036,0.00073,-0.503568,0.002749,1.430735,-264.978752,-0.437446,62.386895
10.2366,-0.001288,0.006434,0.001784,-0.000376,-0.001489,-0.002123,-0.000123,-0.503805,0.001278,1.430735,-264.978752,-0.437446,62.386895
10.2567,-0.000744,0.006329,0.002103,-0.000281,-0.001491,-0.001504,-0.000123,-0.503805,0.001278,1.430735,-264.978752,-0.437446,62.386895
10.277,-0.001143,0.006284,0.002438,-0.000204,-0.001489,-0.001087,0.000318,-0.503701,0.002042,1.424206,-264.979404,-0.512451,62.386775
10.297,-0.000937,0.005977,0.003511,-0.000195,-0.001488,-0.001224,0.000228,-0.50371,0.002197,1.424206,-264.979404,-0.512451,62.386775
10.3177,-0.001083,0.006141,0.002933,-0.000187,-0.001487,-0.001326,0.000854,-0.50402,0.003511,1.476288,-264.979404,-0.437508,62.386775
10.3371,-0.000997,0.005866,0.00348,-0.000215,-0.001483,-0.001692,0.000463,-0.503875,0.002999,1.476288,-264.979404,-0.437508,62.386775
10.3566,-0.000613,0.006084,0.003404,-0.000239,-0.001479,-0.001954,0.000463,-0.503875,0.002999,1.476288,-264.979404,-0.437508,62.386775
10.3766,-0.000505,0.005932,0.000603,-0.000258,-0.001476,-0.002139,0.001123,-0.503913,0.003404,1.489394,-264.979404,-0.36246,62.386775
10.397,-0.001155,0.006116,0.003002,-0.000305,-0.001465,-0.001987,0.00058,-0.503977,0.002252,1.489394,-264.979404,-0.36246,62.386775
10.4169,-0.00075,0.006199,0.002738,-0.000341,-0.001456,-0.001882,0.000377,-0.503882,0.003002,1.478314,-264.979404,-0.28735,62.386775
10.4366,-0.000983,0.006062,0.003362,-0.000369,-0.001457,-0.002006,0.000623,-0.503807,0.002761,1.478314,-264.979404,-0.28735,62.386775
10.457,-0.000882,0.005882,0.003048,-0.000391,-0.001458,-0.002093,0.000623,-0.503807,0.002761,1.478314,-264.979404,-0.28735,62.386775
10.4769,-0.000823,0.006192,0.00346,-0.000409,-0.001459,-0.002154,0.000672,-0.504116,0.003048,1.440613,-264.979404,-0.212411,62.386775
10.497,-0.001083,0.006149,0.002035,-0.00045,-0.001452,-0.002349,0.000783,-0.503989,0.003217,1.440613,-264.979404,-0.212411,62.386775
10.5171,-0.000981,0.006171,0.00197,-0.000483,-0.001447,-0.002486,-4.5e-05,-0.50385,0.002035,1.424345,-264.979411,-0.137328,62.386774
10.5366,-0.000874,0.005902,0.001651,-0.000384,-0.001449,-0.002105,1.8e-05,-0.50383,0.001976,1.424345,-264.979411,-0.137328,62.386774
10.5571,-0.000765,0.006106,0.002192,-0.000305,-0.001451,-0.001844,1.8e-05,-0.50383,0.001976,1.424345,-264.979411,-0.137328,62.386774
10.5766,-0.000981,0.006362,0.001829,-0.000242,-0.001451,-0.001666,0.000333,-0.503953,0.002088,1.409206,-264.980607,-0.146915,62.38658
10.5972,-0.001171,0.005934,0.001899,-0.00022,-0.001451,-0.001545,0.000179,-0.503834,0.001973,1.409206,-264.980607,-0.146915,62.38658
10.6167,-0.000814,0.006128,0.003631,-0.000202,-0.001451,-0.001463,-0.000202,-0.504065,0.001899,1.473183,-264.980607,-0.071884,62.38658
10.6368,-0.000688,0.006024,0.003146,-0.000304,-0.001446,-0.00194,0.000932,-0.503885,0.003484,1.473183,-264.980607,-0.071884,62.38658
10.6568,-0.000759,0.006193,0.002634,-0.000388,-0.001444,-0.002281,0.000932,-0.503885,0.003484,1.473183,-264.980607,-0.071884,62.38658
10.6766,-0.000687,0.006057,0.002439,-0.000455,-0.001443,-0.002523,0.000584,-0.503805,0.002634,1.484906,-264.980607,0.003246,62.38658
10.6966,-0.000912,0.00623,0.001719,-0.000456,-0.001445,-0.002373,0.000573,-0.503861,0.002554,1.484906,-264.980607,0.003246,62.38658
10.717,-0.000891,0.005813,0.001431,-0.000456,-0.001446,-0.002268,-4.1e-05,-0.50379,0.001685,1.419356,-264.981139,-0.071732,62.386498
10.737,-0.001075,0.006043,0.001465,-0.000334,-0.001434,-0.001707,-0.000152,-0.504154,0.00145,1.419356,-264.981139,-0.071732,62.386498
10.7573,-0.000942,0.005762,0.002505,-0.000236,-0.001422,-0.001324,-0.000152,-0.504154,0.00145,1.419356,-264.981139,-0.071732,62.386498
10.7769,-0.000615,0.005792,0.001247,-0.000158,-0.001411,-0.001066,0.000326,-0.504267,0.002455,1.411026,-264.981724,0.003285,62.386404
10.7971,-0.001333,0.006146,0.00221,-0.000156,-0.001396,-0.001117,0.000199,-0.504246,0.001949,1.411026,-264.981724,0.003285,62.386404
10.8172,-0.000792,0.005895,0.000547,-0.000155,-0.001384,-0.001156,-0.000205,-0.503853,0.00221,1.486103,-264.981724,0.078362,62.386404
10.8369,-0.001177,0.005787,0.000967,-4e-05,-0.001382,-0.000559,-0.000486,-0.504083,0.00069,1.486103,-264.981724,0.078362,62.386404
10.8571,-0.001067,0.006004,0.002049,5.3e-05,-0.001378,-0.000153,-0.000486,-0.504083,0.00069,1.486103,-264.981724,0.078362,62.386404
10.8771,-0.000825,0.006262,0.004099,0.000128,-0.001373,0.000124,-2.2e-05,-0.503995,0.002049,1.496787,-264.981724,0.153254,62.386404
10.8968,-0.00053,0.006072,0.002955,3.3e-05,-0.001382,-0.000629,0.000506,-0.503888,0.00289,1.496787,-264.981724,0.153254,62.386404
10.9169,-0.001134,0.005871,0.00238,-4.5e-05,-0.00139,-0.001173,0.000977,-0.503926,0.002955,1.57182,-264.981724,0.228287,62.386404
10.9371,-0.000918,0.006082,0.003596,-5.2e-05,-0.001388,-0.001397,0.000154,-0.504111,0.002427,1.57182,-264.981724,0.228287,62.386404
10.9568,-0.00073,0.005958,0.002359,-5.8e-05,-0.001385,-0.001555,0.000154,-0.504111,0.002427,1.57182,-264.981724,0.228287,62.386404
10.9768,-0.001024,0.00576,0.002489,-6.4e-05,-0.001383,-0.001666,0.000473,-0.50404,0.002359,1.549464,-264.981724,0.303347,62.386404
10.9969,-0.001019,0.006003,0.002284,-0.000112,-0.00138,-0.001737,0.000379,-0.504122,0.002413,1.549464,-264.981724,0.303347,62.386404
11.0169,-0.000904,0.006289,0.003437,-0.000149,-0.001378,-0.001785,0.000146,-0.503996,0.002284,1.544033,-264.981724,0.378287,62.386404
11.0369,-0.000712,0.006118,0.00293,-0.000236,-0.001394,-0.002137,0.000787,-0.503733,0.003336,1.544033,-264.981724,0.378287,62.386404
11.0571,-0.000514,0.00585,-0.000383,-0.000307,-0.001408,-0.002385,0.000787,-0.503733,0.003336,1.544033,-264.981724,0.378287,62.386404
11.0766,-0.00104,0.005864,0.003868,-0.000364,-0.00142,-0.002558,-0.00071,-0.50415,-0.000383,1.510438,-264.981725,0.453218,62.386404
11.0969,-0.001025,0.006061,0.002535,-0.000283,-0.001418,-0.001859,-4e-05,-0.504143,0.001351,1.510438,-264.981725,0.453218,62.386404
11.1166,-0.000979,0.006274,0.003886,-0.000218,-0.001412,-0.001381,0.000268,-0.503937,0.002535,1.449298,-264.981725,0.378305,62.386404
11.1366,-0.001126,0.00644,0.002322,-0.000311,-0.001422,-0.001961,0.000951,-0.503737,0.00379,1.449298,-264.981725,0.378305,62.386404
11.157,-0.000851,0.005908,0.001871,-0.000388,-0.001432,-0.002379,0.000951,-0.503737,0.00379,1.449298,-264.981725,0.378305,62.386404
11.1771,-0.001154,0.006209,0.002697,-0.000452,-0.001441,-0.002679,0.000103,-0.504091,0.001871,1.474578,-264.981725,0.453884,62.386404
11.197,-0.000987,0.006015,0.002195,-0.000381,-0.00144,-0.002335,0.000152,-0.503966,0.002212,1.474578,-264.981725,0.453884,62.386404
11.217,-0.001137,0.006118,0.001787,-0.000325,-0.001438,-0.002099,0.000133,-0.503984,0.002195,1.424997,-264.981725,0.379281,62.386404
11.2372,-0.001446,0.005764,0.000719,-0.000221,-0.001437,-0.001767,-0.000198,-0.503889,0.001818,1.424997,-264.981725,0.379281,62.386404
11.2572,-0.000726,0.006147,0.002498,-0.000137,-0.001435,-0.001542,-0.000198,-0.503889,0.001818,1.424997,-264.981725,0.379281,62.386404
11.2772,-0.001066,0.006137,0.000569,-7.1e-05,-0.001433,-0.00139,0.000536,-0.503906,0.002418,1.451995,-264.982725,0.447634,62.386272
11.2971,-0.000882,0.005928,0.002781,-5.5e-05,-0.001433,-0.001215,0.0,-0.503895,0.001655,1.451995,-264.982725,0.447634,62.386272
11.3164,-0.000347,0.005745,0.002251,-4.1e-05,-0.001432,-0.001097,0.000537,-0.50407,0.002781,1.526603,-264.982725,0.522242,62.386272
11.3371,-0.000506,0.006053,0.002358,-0.00017,-0.001408,-0.001283,0.000779,-0.504238,0.002296,1.526603,-264.982725,0.522242,62.386272
11.3567,-0.001093,0.006149,0.002478,-0.000272,-0.001389,-0.001414,0.000779,-0.504238,0.002296,1.526603,-264.982725,0.522242,62.386272
11.3769,-0.001292,0.006107,0.00398,-0.000352,-0.001374,-0.001506,0.000171,-0.50385,0.002478,1.55134,-264.982725,0.597356,62.386272
11.3967,-0.001064,0.00587,0.001847,-0.000331,-0.001389,-0.001855,0.000397,-0.503865,0.003078,1.55134,-264.982725,0.597356,62.386272
11.4172,-0.000755,0.006083,0.001572,-0.000317,-0.001402,-0.002102,-0.000124,-0.504135,0.001839,1.476425,-264.982865,0.672271,62.386237
11.4369,-0.001249,0.006033,0.002085,-0.000257,-0.001408,-0.001678,3.1e-05,-0.503937,0.001597,1.476425,-264.982865,0.672271,62.386237
11.4568,-0.000805,0.006066,0.00242,-0.000208,-0.001411,-0.001388,3.1e-05,-0.503937,0.001597,1.476425,-264.982865,0.672271,62.386237
11.4765,-0.000877,0.005942,0.005533,-0.000168,-0.001413,-0.001189,0.000427,-0.503945,0.002403,1.453374,-264.983079,0.597293,62.386211
11.4969,-0.000592,0.005894,0.00097,-0.000294,-0.001407,-0.001794,0.001042,-0.503989,0.003671,1.453374,-264.983079,0.597293,62.386211
11.5165,-0.00086,0.005951,0.001851,-0.000397,-0.001404,-0.002229,-9.7e-05,-0.504106,0.00097,1.492391,-264.983079,0.672289,62.386211
11.5366,-0.000883,0.005945,0.000773,-0.000325,-0.001404,-0.001841,6.8e-05,-0.504053,0.001771,1.492391,-264.983079,0.672289,62.386211
11.5566,-0.00092,0.006025,0.002501,-0.000267,-0.001403,-0.001575,6.8e-05,-0.504053,0.001771,1.492391,-264.983079,0.672289,62.386211
11.5766,-0.000803,0.006246,-0.000627,-0.00022,-0.001401,-0.001394,0.000355,-0.503973,0.0025,1.4281,-264.983084,0.597283,62.38621
11.5966,-0.000824,0.005624,0.003281,-0.000132,-0.001406,-0.001008,-0.000248,-0.503884,0.001223,1.4281,-264.983084,0.597283,62.38621
11.6169,-0.000725,0.005667,0.001962,-6.1e-05,-0.001408,-0.000746,0.000849,-0.504373,0.003281,1.473339,-264.983086,0.672274,62.386209
11.6366,-0.001004,0.006255,0.002068,-0.000103,-0.001388,-0.000955,0.000329,-0.504336,0.002084,1.473339,-264.983086,0.672274,62.386209
11.6568,-0.000874,0.006289,0.002621,-0.000135,-0.001371,-0.001104,0.000329,-0.504336,0.002084,1.473339,-264.983086,0.672274,62.386209
11.6766,-0.000607,0.006157,0.002879,-0.000162,-0.001358,-0.001209,0.000463,-0.503709,0.002621,1.537985,-264.983086,0.747334,62.386209
11.6966,-0.000986,0.005707,0.002732,-0.000223,-0.001375,-0.001533,0.000626,-0.503763,0.002727,1.537985,-264.983086,0.747334,62.386209
11.7168,-0.001148,0.005882,0.002603,-0.000273,-0.001389,-0.001761,0.000407,-0.504291,0.002732,1.493888,-264.98309,0.822328,62.386208
11.7368,-0.000635,0.006008,0.00151,-0.00024,-0.001387,-0.001877,0.000198,-0.504131,0.002614,1.493888,-264.98309,0.822328,62.386208
11.7571,-0.000863,0.005811,0.003016,-0.000215,-0.001385,-0.001957,0.000198,-0.504131,0.002614,1.493888,-264.98309,0.822328,62.386208
11.7768,-0.000592,0.005838,0.002359,-0.000196,-0.001383,-0.002013,0.000664,-0.504243,0.002944,1.460449,-264.984049,0.854879,62.386047
11.7969,-0.000737,0.006121,0.002138,-0.000265,-0.001374,-0.002077,0.000641,-0.504215,0.002695,1.460449,-264.984049,0.854879,62.386047
11.8169,-0.000758,0.005389,0.00328,-0.000319,-0.001367,-0.002121,0.00035,-0.503902,0.002103,1.495785,-264.984622,0.7798,62.385993
11.8374,-0.000627,0.005957,0.002702,-0.000405,-0.001341,-0.002307,0.000862,-0.504544,0.003168,1.495785,-264.984622,0.7798,62.385993
11.8577,-0.000495,0.006251,0.004059,-0.000473,-0.001321,-0.002436,0.000862,-0.504544,0.003168,1.495785,-264.984622,0.7798,62.385993
11.8766,-0.001,0.005604,0.000784,-0.000527,-0.001304,-0.002524,0.001575,-0.503746,0.004058,1.45168,-264.984628,0.704899,62.385992
11.8967,-0.000976,0.005672,0.004368,-0.000534,-0.001322,-0.002439,0.000695,-0.504009,0.002734,1.45168,-264.984628,0.704899,62.385992
11.9167,-0.000918,0.005759,0.002355,-0.00054,-0.001336,-0.002378,0.001251,-0.504323,0.004368,1.387655,-264.984628,0.630028,62.385992
11.9367,-0.001053,0.005583,0.000564,-0.000488,-0.001337,-0.00226,0.000371,-0.504247,0.002538,1.387655,-264.984628,0.630028,62.385992
11.9569,-0.001035,0.005637,0.001521,-0.000447,-0.001338,-0.002179,0.000371,-0.504247,0.002538,1.387655,-264.984628,0.630028,62.385992
11.9768,-0.000747,0.005601,0.002301,-0.000415,-0.001338,-0.002123,-0.00026,-0.504363,0.001521,1.379622,-264.984628,0.554603,62.385992
11.9969,-0.000912,0.006027,0.001464,-0.00033,-0.001331,-0.001793,2.2e-05,-0.504377,0.001841,1.379622,-264.984628,0.554603,62.385992
12.0168,-0.000495,0.005548,0.002749,-0.000262,-0.001324,-0.001567,-0.000165,-0.503974,0.001462,1.414608,-264.984662,0.479911,62.385987
12.0374,-0.000958,0.00559,0.002466,-0.000352,-0.001311,-0.001731,0.000809,-0.504407,0.002631,1.414608,-264.984662,0.479911,62.385987
12.0569,-0.00097,0.005916,0.003809,-0.000422,-0.001301,-0.001846,0.000809,-0.504407,0.002631,1.414608,-264.984662,0.479911,62.385987
12.0767,-0.000927,0.005695,0.002653,-0.000478,-0.001294,-0.001927,0.000972,-0.504082,0.003808,1.456608,-264.984684,0.554784,62.385982
12.0968,-0.001009,0.005722,0.001074,-0.000499,-0.001306,-0.002225,0.00075,-0.504172,0.003337,1.456608,-264.984684,0.554784,62.385982
12.1171,-0.001002,0.005665,0.00033,-0.000517,-0.001317,-0.002436,-0.000464,-0.504285,0.001063,1.381518,-264.984866,0.479695,62.385947
12.1369,-0.0007,0.005785,0.002023,-0.00027,-0.001315,-0.001247,-0.000795,-0.50433,0.000406,1.381518,-264.984866,0.479695,62.385947
12.1573,-0.000992,0.005883,0.002823,-7.4e-05,-0.001307,-0.000436,-0.000795,-0.50433,0.000406,1.381518,-264.984866,0.479695,62.385947
12.1771,-0.000507,0.005555,0.001293,8.2e-05,-0.001296,0.000115,0.000448,-0.504115,0.002823,1.388559,-264.984866,0.404778,62.385947
12.1973,-0.000408,0.005686,0.003546,1.4e-05,-0.0013,-0.000383,0.000329,-0.504248,0.002205,1.388559,-264.984866,0.404778,62.385947
12.2175,-0.000683,0.005938,0.002215,-4.1e-05,-0.001303,-0.000742,0.001401,-0.504311,0.003546,1.463608,-264.984866,0.479826,62.385947
12.2369,-0.000647,0.005849,0.000575,-0.000119,-0.001313,-0.001051,0.000533,-0.504083,0.002336,1.463608,-264.984866,0.479826,62.385947
12.2569,-0.00086,0.005759,0.002708,-0.000182,-0.001321,-0.001271,0.000533,-0.504083,0.002336,1.463608,-264.984866,0.479826,62.385947
12.2767,-0.000406,0.00592,0.000573,-0.000232,-0.001329,-0.001426,0.000521,-0.504239,0.002708,1.538554,-264.984866,0.554772,62.385947
12.2971,-0.00066,0.005252,0.002931,-0.000228,-0.001332,-0.00133,0.000264,-0.504174,0.001843,1.538554,-264.984866,0.554772,62.385947
12.3174,-0.000664,0.005697,0.002613,-0.000224,-0.001334,-0.001264,0.000835,-0.504746,0.002931,1.465583,-264.984871,0.629812,62.385945
12.337,-0.00077,0.006198,0.002184,-0.000294,-0.001325,-0.001533,0.000683,-0.504342,0.002642,1.465583,-264.984871,0.629812,62.385945
12.3567,-0.000602,0.005833,0.001724,-0.000349,-0.001319,-0.001722,0.000683,-0.504342,0.002642,1.465583,-264.984871,0.629812,62.385945
12.3766,-0.000623,0.005833,0.000853,-0.000394,-0.001313,-0.001854,0.000277,-0.504167,0.001724,1.464647,-264.984875,0.70478,62.385944
12.3967,-0.000738,0.00579,0.001036,-0.000328,-0.001323,-0.001398,8.9e-05,-0.504167,0.001371,1.464647,-264.984875,0.70478,62.385944
12.4164,-0.000415,0.005942,0.001306,-0.000275,-0.001329,-0.001086,-0.000213,-0.504222,0.00102,1.411186,-264.985157,0.629785,62.385895
12.4366,-0.000488,0.005701,0.000645,-0.000256,-0.001339,-0.000827,0.000209,-0.504073,0.001279,1.411186,-264.985157,0.629785,62.385895
12.4566,-0.000656,0.00599,0.002943,-0.000239,-0.001345,-0.000651,0.000209,-0.504073,0.001279,1.411186,-264.985157,0.629785,62.385895
12.4766,-0.000792,0.005754,0.002016,-0.000225,-0.001349,-0.000533,0.000845,-0.504008,0.002943,1.433411,-264.985162,0.704784,62.385893
12.4966,-0.000719,0.005617,0.001744,-0.000272,-0.001351,-0.000994,0.000598,-0.504104,0.002567,1.433411,-264.985162,0.704784,62.385893
12.5168,-0.000353,0.005774,0.001774,-0.000311,-0.001353,-0.001322,0.000171,-0.504382,0.001744,1.437011,-264.985162,0.779785,62.385893
12.5367,-0.000628,0.005485,0.001848,-0.000337,-0.001347,-0.001228,0.000512,-0.504242,0.001771,1.437011,-264.985162,0.779785,62.385893
12.5568,-0.001182,0.005858,0.001081,-0.000357,-0.001341,-0.001163,0.000512,-0.504242,0.001771,1.437011,-264.985162,0.779785,62.385893
12.5766,-0.000615,0.005891,0.002258,-0.000373,-0.001337,-0.001117,-0.000635,-0.504158,0.001064,1.427887,-264.985422,0.85476,62.385818
12.5966,-0.001014,0.005695,0.001294,-0.000261,-0.001337,-0.000987,-0.000161,-0.504139,0.001546,1.427887,-264.985422,0.85476,62.385818
12.6165,-0.001004,0.005825,0.002365,-0.000173,-0.001336,-0.000898,-0.000361,-0.504326,0.001275,1.388099,-264.985848,0.929757,62.385662
12.6369,-0.000469,0.005313,0.001539,-0.000154,-0.001337,-0.001145,0.000151,-0.504188,0.002266,1.388099,-264.985848,0.929757,62.385662
12.6568,-0.000721,0.005718,0.001529,-0.00014,-0.001337,-0.001318,0.000151,-0.504188,0.002266,1.388099,-264.985848,0.929757,62.385662
12.6766,-0.000995,0.005463,0.00254,-0.000129,-0.001338,-0.00144,5.8e-05,-0.504284,0.001527,1.463164,-264.985882,1.004822,62.385647
12.6964,-0.000872,0.005523,0.00384,-0.000127,-0.001327,-0.001387,0.000156,-0.504386,0.001937,1.463164,-264.985882,1.004822,62.385647
12.7167,-0.001187,0.005732,0.001384,-0.000124,-0.001318,-0.001349,0.001085,-0.504484,0.003828,1.51251,-264.986099,1.079784,62.385601
12.737,-0.000619,0.00559,0.002201,-3e-05,-0.001312,-0.001173,-0.000344,-0.504287,0.001599,1.51251,-264.986099,1.079784,62.385601
12.757,-0.000664,0.006139,0.001649,4.4e-05,-0.001307,-0.001053,-0.000344,-0.504287,0.001599,1.51251,-264.986099,1.079784,62.385601
12.777,-0.000852,0.005261,0.00292,0.000103,-0.001302,-0.000972,0.000174,-0.503881,0.001628,1.512824,-264.986424,1.154839,62.385524
12.7972,-0.000979,0.005591,0.003049,2.2e-05,-0.001305,-0.001147,0.000358,-0.504223,0.002139,1.512824,-264.986424,1.154839,62.385524
12.8166,-0.000864,0.00577,0.002013,-4.1e-05,-0.001307,-0.00127,0.000576,-0.504407,0.003049,1.587765,-264.986428,1.229779,62.385522
12.8373,-0.000601,0.005639,0.003237,-6.2e-05,-0.00131,-0.001341,0.000199,-0.504245,0.002105,1.587765,-264.986428,1.229779,62.385522
12.8567,-0.001204,0.005697,0.000787,-7.8e-05,-0.001311,-0.00139,0.000199,-0.504245,0.002105,1.587765,-264.986428,1.229779,62.385522
12.8767,-0.000727,0.005573,0.001714,-9.2e-05,-0.001313,-0.001424,-0.000803,-0.50432,0.00077,1.551043,-264.986692,1.304831,62.385455
12.8966,-0.000727,0.005428,0.001727,6e-06,-0.001305,-0.001003,-0.000416,-0.504365,0.001153,1.551043,-264.986692,1.304831,62.385455
12.9166,-0.000907,0.00577,0.000473,8.4e-05,-0.001297,-0.000715,0.000152,-0.50461,0.001685,1.528886,-264.987507,1.36718,62.385286
12.9366,-0.000939,0.005564,0.001509,0.000173,-0.001297,-0.000205,-0.000593,-0.504266,0.000578,1.528886,-264.987507,1.36718,62.385286
12.9567,-0.000537,0.005996,0.002731,0.000244,-0.001294,0.000145,-0.000593,-0.504266,0.000578,1.528886,-264.987507,1.36718,62.385286
12.9767,-0.000613,0.005687,0.001179,0.000302,-0.00129,0.000384,0.000856,-0.504013,0.002725,1.603958,-264.987647,1.442251,62.385216
12.9967,-0.000955,0.005615,0.000582,0.00016,-0.001296,-0.000168,0.000498,-0.504138,0.002086,1.603958,-264.987647,1.442251,62.385216
13.0168,-0.000835,0.005719,0.003415,4.7e-05,-0.001301,-0.000561,-0.000658,-0.504385,0.000582,1.52887,-264.987647,1.367164,62.385216
13.0371,-0.00099,0.005436,0.001317,-8.3e-05,-0.001299,-0.001208,0.00077,-0.504287,0.003168,1.52887,-264.987647,1.367164,62.385216
13.0568,-0.000694,0.005276,0.002386,-0.000189,-0.001299,-0.001671,0.00077,-0.504287,0.003168,1.52887,-264.987647,1.367164,62.385216
13.077,-0.000648,0.005809,0.002818,-0.000275,-0.0013,-0.002,0.000522,-0.50474,0.002378,1.599234,-264.987863,1.442116,62.38509
13.097,-0.000855,0.005401,0.001106,-0.000329,-0.001288,-0.002016,0.000631,-0.504518,0.002556,1.599234,-264.987863,1.442116,62.38509
13.1167,-0.000632,0.005985,0.003078,-0.000372,-0.001278,-0.002024,-0.000291,-0.504598,0.001106,1.524289,-264.987863,1.367171,62.38509
13.137,-0.000797,0.005752,0.001387,-0.000431,-0.001293,-0.002159,0.00083,-0.504064,0.002905,1.524289,-264.987863,1.367171,62.38509
13.1571,-0.000809,0.005488,0.001374,-0.000479,-0.001307,-0.002251,0.00083,-0.504064,0.002905,1.524289,-264.987863,1.367171,62.38509
13.1769,-0.000796,0.005595,0.002903,-0.000517,-0.001318,-0.002314,-0.000108,-0.504511,0.001374,1.449285,-264.987863,1.292167,62.38509
13.1968,-0.000434,0.005569,0.004743,-0.000444,-0.001309,-0.001993,0.000212,-0.504467,0.001992,1.449285,-264.987863,1.292167,62.38509
13.2164,-0.000637,0.005733,0.00196,-0.000386,-0.001301,-0.001771,0.001985,-0.504425,0.004743,1.383763,-264.987863,1.217223,62.38509
13.2368,-0.000455,0.005474,0.002225,-0.000394,-0.001303,-0.001713,0.000509,-0.504281,0.00221,1.383763,-264.987863,1.217223,62.38509
13.2569,-0.000748,0.005032,0.001343,-0.000401,-0.001305,-0.001673,0.000509,-0.504281,0.00221,1.383763,-264.987863,1.217223,62.38509
13.2766,-0.000713,0.005356,0.002381,-0.000405,-0.001306,-0.001646,-6.3e-05,-0.504968,0.001343,1.410149,-264.987864,1.14224,62.38509
13.2967,-0.000633,0.005527,0.002519,-0.000349,-0.001273,-0.001435,0.000168,-0.504834,0.001768,1.410149,-264.987864,1.14224,62.38509
13.317,-0.001133,0.005663,0.002623,-0.000305,-0.001245,-0.001291,0.000652,-0.504472,0.002518,1.397156,-264.987877,1.067193,62.385087
13.3368,-0.000698,0.005559,0.003232,-0.000274,-0.001256,-0.00154,0.000246,-0.504348,0.002613,1.397156,-264.987877,1.067193,62.385087
13.3566,-0.000696,0.005738,0.000891,-0.000251,-0.001264,-0.001716,0.000246,-0.504348,0.002613,1.397156,-264.987877,1.067193,62.385087
13.3766,-0.000792,0.005192,0.002618,-0.000234,-0.001271,-0.001841,-0.000253,-0.504308,0.000843,1.422167,-264.988604,0.992236,62.384893
13.3967,-0.000881,0.005394,0.000823,-0.000198,-0.001267,-0.001479,6.9e-05,-0.504515,0.001558,1.422167,-264.988604,0.992236,62.384893
13.4165,-0.000536,0.00525,0.002629,-0.000168,-0.001263,-0.001231,-0.000461,-0.504608,0.000821,1.473463,-264.988646,0.917258,62.384888
13.4365,-0.000935,0.00562,0.002196,-0.000262,-0.00124,-0.001438,0.00069,-0.504736,0.002464,1.473463,-264.988646,0.917258,62.384888
13.4573,-0.000518,0.005553,0.000649,-0.000335,-0.001221,-0.001584,0.00069,-0.504736,0.002464,1.473463,-264.988646,0.917258,62.384888
13.4768,-0.000778,0.005452,0.002225,-0.000393,-0.001207,-0.001686,-0.000188,-0.504455,0.000641,1.487404,-264.988775,0.992323,62.384854
13.4969,-0.000356,0.005233,0.001259,-0.000317,-0.001217,-0.001235,3.3e-05,-0.504493,0.001282,1.487404,-264.988775,0.992323,62.384854
13.517,-0.000473,0.005503,0.001942,-0.000256,-0.001223,-0.000928,0.000286,-0.504767,0.001259,1.412444,-264.988779,0.917363,62.384853
13.5371,-0.000757,0.005272,0.00213,-0.000293,-0.001222,-0.000994,0.000496,-0.504521,0.00188,1.412444,-264.988779,0.917363,62.384853
13.5576,-0.000884,0.005418,0.002968,-0.000322,-0.001222,-0.001042,0.000496,-0.504521,0.00188,1.412444,-264.988779,0.917363,62.384853
13.5769,-0.000664,0.005529,0.000997,-0.000344,-0.001221,-0.001077,0.000626,-0.504593,0.002956,1.428619,-264.988978,0.992401,62.384775
13.5969,-0.000399,0.005064,0.00206,-0.000322,-0.001221,-0.00122,0.000308,-0.504545,0.002159,1.428619,-264.988978,0.992401,62.384775
13.6167,-0.0009,0.005218,0.001248,-0.000305,-0.001221,-0.001321,0.000641,-0.504972,0.002027,1.389574,-264.989713,1.022247,62.384521
13.6371,-0.000528,0.00546,0.001283,-0.000202,-0.001203,-0.00101,-0.000183,-0.504801,0.001316,1.389574,-264.989713,1.022247,62.384521
13.657,-0.000291,0.005324,0.002214,-0.00012,-0.001188,-0.000797,-0.000183,-0.504801,0.001316,1.389574,-264.989713,1.022247,62.384521
13.6767,-0.000842,0.005557,0.002472,-5.5e-05,-0.001174,-0.000653,0.000827,-0.504719,0.002166,1.421295,-264.99043,0.94725,62.384341
13.6971,-0.000485,0.005321,0.003354,-0.000163,-0.001173,-0.000975,0.000657,-0.50461,0.002286,1.421295,-264.99043,0.94725,62.384341
13.717,-0.000624,0.005418,0.00161,-0.000248,-0.001173,-0.001201,0.001225,-0.504677,0.003354,1.496423,-264.990433,1.022379,62.384339
13.738,-0.000663,0.005586,-0.001281,-0.000246,-0.001178,-0.001139,0.000283,-0.50459,0.001755,1.496423,-264.990433,1.022379,62.384339
13.7569,-0.000891,0.005264,0.002815,-0.000244,-0.001182,-0.001095,0.000283,-0.50459,0.001755,1.496423,-264.990433,1.022379,62.384339
13.7766,-0.000853,0.005209,0.002622,-0.000243,-0.001185,-0.001066,0.000535,-0.504779,0.002768,1.441604,-264.991151,1.057874,62.384151
13.7971,-0.000954,0.005142,0.001983,-0.00028,-0.001176,-0.001416,0.000513,-0.504789,0.002702,1.441604,-264.991151,1.057874,62.384151
13.8166,-0.000415,0.005083,0.001889,-0.00031,-0.001169,-0.001663,5e-05,-0.504891,0.001953,1.43927,-264.991809,1.132842,62.383943
13.8368,-0.000592,0.005405,0.001967,-0.000344,-0.001152,-0.001511,0.000505,-0.504915,0.001893,1.43927,-264.991809,1.132842,62.383943
13.8566,-0.000451,0.005555,0.001261,-0.000371,-0.001138,-0.001405,0.000505,-0.504915,0.001893,1.43927,-264.991809,1.132842,62.383943
13.877,-0.000704,0.004952,0.001703,-0.000391,-0.001126,-0.00133,0.000192,-0.504445,0.001261,1.429829,-264.991809,1.057865,62.383943
13.8964,-0.00023,0.005279,0.003794,-0.000342,-0.001135,-0.001075,0.000181,-0.504692,0.001442,1.429829,-264.991809,1.057865,62.383943
13.9172,-0.000481,0.004989,0.000731,-0.000303,-0.001141,-0.000901,0.001704,-0.50472,0.003791,1.371952,-264.991879,0.983,62.383925
13.9369,-0.000727,0.005235,0.002131,-0.00025,-0.001127,-0.000557,5.4e-05,-0.504985,0.001005,1.371952,-264.991879,0.983,62.383925
13.9565,-0.000448,0.00534,0.001319,-0.000208,-0.001114,-0.000322,5.4e-05,-0.504985,0.001005,1.371952,-264.991879,0.983,62.383925
13.9768,-0.000974,0.005434,0.000804,-0.000174,-0.001102,-0.000162,0.000214,-0.504698,0.001288,1.393711,-264.992432,1.057997,62.383711
13.9966,-0.000808,0.005092,0.001163,-0.000114,-0.001113,-0.000101,-0.000105,-0.504648,0.001087,1.393711,-264.992432,1.057997,62.383711
14.0166,-0.000604,0.005201,0.001434,-6.7e-05,-0.001122,-6.1e-05,-0.000216,-0.504912,0.001162,1.426978,-264.992503,1.132996,62.383651
14.0366,-0.000533,0.004913,0.002818,-6.7e-05,-0.001119,-0.000194,9.7e-05,-0.504809,0.001411,1.426978,-264.992503,1.132996,62.383651
14.0572,-0.000909,0.00531,0.000906,-6.8e-05,-0.001116,-0.000288,9.7e-05,-0.504809,0.001411,1.426978,-264.992503,1.132996,62.383651
14.077,-0.000838,0.005145,0.001647,-6.8e-05,-0.001114,-0.000356,-0.000448,-0.504694,0.000906,1.502045,-264.992543,1.208063,62.383614
14.0971,-0.000567,0.005449,0.00371,3e-06,-0.001113,-0.000307,-0.000265,-0.504759,0.001207,1.502045,-264.992543,1.208063,62.383614
14.1168,-0.000432,0.005257,0.003089,5.9e-05,-0.001112,-0.000273,0.001324,-0.504557,0.003707,1.519381,-264.992683,1.283003,62.383519
14.137,-0.000393,0.005364,0.002492,-0.000159,-0.001102,-0.000991,0.001159,-0.504725,0.003144,1.519381,-264.992683,1.283003,62.383519
14.1572,-0.000791,0.005331,0.001833,-0.000334,-0.001097,-0.001506,0.001159,-0.504725,0.003144,1.519381,-264.992683,1.283003,62.383519
14.1768,-0.000432,0.004918,0.002793,-0.000473,-0.001096,-0.00187,0.000143,-0.504674,0.001831,1.594396,-264.992743,1.358018,62.383475
14.1967,-0.000316,0.00488,0.000794,-0.000464,-0.001098,-0.001795,0.000489,-0.50484,0.002223,1.594396,-264.992743,1.358018,62.383475
14.2167,-0.000471,0.005411,0.00148,-0.000456,-0.0011,-0.001741,8.9e-05,-0.50512,0.000794,1.519383,-264.992743,1.283005,62.383475
14.2373,-0.000866,0.005151,0.001825,-0.000411,-0.001118,-0.001343,0.000266,-0.504636,0.001418,1.519383,-264.992743,1.283005,62.383475
14.2566,-0.000371,0.00543,0.000784,-0.000375,-0.001132,-0.001069,0.000266,-0.504636,0.001418,1.519383,-264.992743,1.283005,62.383475
14.2766,-0.000436,0.005433,0.001887,-0.000346,-0.001142,-0.000882,2.9e-05,-0.50457,0.000784,1.444409,-264.992743,1.208031,62.383475
14.2966,-0.000259,0.004859,0.001011,-0.000317,-0.001154,-0.000664,0.000232,-0.504569,0.001235,1.444409,-264.992743,1.208031,62.383475
14.3167,-0.000567,0.005007,0.002603,-0.000293,-0.001164,-0.000517,0.00025,-0.505163,0.000995,1.369409,-264.993163,1.133031,62.383305
14.3373,-0.000592,0.005098,0.000983,-0.000366,-0.001137,-0.000934,0.000716,-0.505007,0.002461,1.369409,-264.993163,1.133031,62.383305
14.3572,-0.000863,0.005518,0.001689,-0.000425,-0.001117,-0.00123,0.000716,-0.505007,0.002461,1.369409,-264.993163,1.133031,62.383305
14.3771,-0.000478,0.004601,0.001996,-0.000472,-0.0011,-0.001438,-1.3e-05,-0.504522,0.00167,1.375127,-264.993668,1.208171,62.383005
14.3972,-0.000578,0.005039,0.001744,-0.000408,-0.001099,-0.001316,0.000209,-0.504881,0.0018,1.375127,-264.993668,1.208171,62.383005
14.4166,-0.000411,0.004966,0.003035,-0.000359,-0.001098,-0.001232,0.000311,-0.50496,0.001744,1.336784,-264.993668,1.133308,62.383005
14.4371,-0.000873,0.005044,0.001171,-0.000487,-0.001077,-0.001594,0.001058,-0.505025,0.002912,1.336784,-264.993668,1.133308,62.383005
14.4568,-0.000727,0.004985,0.001534,-0.000588,-0.001061,-0.001849,0.001058,-0.505025,0.002912,1.336784,-264.993668,1.133308,62.383005
14.4771,-0.000555,0.005046,0.001911,-0.000669,-0.001049,-0.002026,5.4e-05,-0.50502,0.001529,1.379313,-264.993749,1.058313,62.382983
14.497,-0.000718,0.005002,0.000278,-0.000566,-0.001052,-0.001658,0.000203,-0.504993,0.001684,1.379313,-264.993749,1.058313,62.382983
14.517,-0.000782,0.005436,0.002479,-0.000484,-0.001053,-0.001405,-0.000576,-0.504998,0.000278,1.304316,-264.993749,0.983316,62.382983
14.5367,-0.000581,0.005287,0.001917,-0.000449,-0.001079,-0.001493,0.000389,-0.504601,0.002285,1.304316,-264.993749,0.983316,62.382983
14.5569,-0.000476,0.005336,0.001365,-0.000423,-0.001101,-0.001555,0.000389,-0.504601,0.002285,1.304316,-264.993749,0.983316,62.382983
14.5766,-0.000792,0.005066,0.001218,-0.000402,-0.001119,-0.001599,0.00022,-0.504664,0.001364,1.322862,-264.993751,0.908275,62.382983
14.5967,-0.000746,0.005028,0.000469,-0.00033,-0.001125,-0.001187,6e-05,-0.504774,0.001305,1.322862,-264.993751,0.908275,62.382983
14.6167,-0.000385,0.004981,0.000385,-0.000273,-0.001128,-0.000906,-0.000507,-0.504972,0.000469,1.381077,-264.993754,0.833319,62.382982
14.6365,-0.000327,0.005361,0.001649,-0.000176,-0.001118,-0.000214,-0.000218,-0.505015,0.000393,1.381077,-264.993754,0.833319,62.382982
14.6572,-0.001219,0.004747,0.001453,-9.8e-05,-0.001106,0.00026,-0.000218,-0.505015,0.000393,1.381077,-264.993754,0.833319,62.382982
14.6772,-0.000389,0.005012,0.0015,-3.6e-05,-0.001094,0.000584,-0.000481,-0.505263,0.001443,1.409952,-264.993919,0.908297,62.382921
14.6967,-0.000573,0.005027,0.000757,7e-06,-0.00107,0.000246,-0.000132,-0.505152,0.001465,1.409952,-264.993919,0.908297,62.382921
14.7169,-0.000716,0.004984,0.001062,4e-05,-0.00105,3e-06,-0.000187,-0.504973,0.000757,1.484973,-264.993919,0.983318,62.38292
14.7368,-0.000636,0.005159,0.001988,6.9e-05,-0.001045,3.7e-05,-0.000175,-0.505012,0.001035,1.484973,-264.993919,0.983318,62.38292
14.7568,-0.000484,0.00514,0.001269,9.3e-05,-0.00104,5.9e-05,-0.000175,-0.505012,0.001035,1.484973,-264.993919,0.983318,62.38292
14.7767,-0.000648,0.004612,0.00152,0.000111,-0.001036,7.2e-05,0.000163,-0.504859,0.001269,1.560042,-264.993919,1.058387,62.38292
14.7965,-0.000668,0.005031,0.000713,6e-05,-0.001028,-8.4e-05,0.000148,-0.505072,0.00137,1.560042,-264.993919,1.058387,62.38292
14.8168,-9.9e-05,0.004975,0.001795,2.1e-05,-0.001022,-0.000194,-0.000305,-0.504969,0.000713,1.635145,-264.99392,1.13349,62.382919
14.8368,-0.000502,0.005151,-0.000406,-0.000127,-0.001014,-0.000415,0.000715,-0.505019,0.001697,1.635145,-264.99392,1.13349,62.382919
14.857,-0.000661,0.005014,-0.000395,-0.000242,-0.001009,-0.000569,0.000715,-0.505019,0.001697,1.635145,-264.99392,1.13349,62.382919
14.8771,-0.000208,0.004842,0.000268,-0.000333,-0.001006,-0.000676,-0.000863,-0.504987,-0.000395,1.588776,-264.993933,1.208323,62.382909
14.8971,-0.000559,0.005049,0.000289,-0.000153,-0.00101,0.000228,-0.000543,-0.505056,-0.000127,1.588776,-264.993933,1.208323,62.382909
14.9171,-0.000801,0.005141,0.001133,-1.1e-05,-0.001009,0.000856,-0.000413,-0.504959,0.000284,1.513777,-264.994084,1.133324,62.382838
