mach0312/omni-docking-bench/src/icros_test_setup/results/MPPI_sample/timeseries/trial_049.csv
t,x,y,yaw,vx,vy,wz,bl_x,bl_y,bl_yaw,front_steering_joint,front_wheel_joint,rear_steering_joint,rear_wheel_joint
0.0,0.008437,-0.021443,-0.050703,-0.002096,-0.000515,-0.000584,-0.017307,-0.53072,-0.05218,0.394317,-261.757534,0.075367,71.823874
0.0003,0.007942,-0.021841,-0.050783,-0.001081,-0.000266,-0.000301,-0.017062,-0.530557,-0.05099,0.394317,-261.76088,0.075367,71.820776
0.0007,0.00833,-0.021537,-0.052018,-2e-06,-0.0,-0.0,-0.017068,-0.530681,-0.050793,0.394317,-261.763323,0.075367,71.818514
0.001,0.008122,-0.021748,-0.050383,0.0,0.0,0.0,-0.017068,-0.530681,-0.050793,0.394317,-261.765054,0.075367,71.816911
0.0013,0.008242,-0.021787,-0.050764,0.0,0.0,0.0,-0.017884,-0.530647,-0.051523,0.394317,-261.765521,0.075367,71.816479
0.0017,0.008084,-0.021783,-0.051432,0.0,0.0,0.0,-0.017884,-0.530647,-0.051523,0.394317,-261.765521,0.075367,71.816479
0.0019,0.008147,-0.021544,-0.04968,0.0,0.0,0.0,-0.017604,-0.530807,-0.050778,0.394317,-261.765521,0.075367,71.816479
0.0022,0.007744,-0.02169,-0.050481,0.0,0.0,0.0,-0.017604,-0.530807,-0.050778,0.394317,-261.765521,0.075367,71.816479
0.0024,0.008074,-0.021176,-0.051217,0.0,0.0,0.0,-0.017604,-0.530807,-0.050778,0.394317,-261.765521,0.075367,71.816479
0.0168,0.008249,-0.021582,-0.050394,0.0,0.0,0.0,-0.018035,-0.530507,-0.051217,0.394317,-261.765521,0.075367,71.816479
0.0372,0.007849,-0.021562,-0.050075,0.0,0.0,0.0,-0.017793,-0.530681,-0.050882,0.394317,-261.765521,0.075367,71.816479
0.0565,0.00809,-0.021518,-0.049672,0.0,0.0,0.0,-0.017678,-0.530923,-0.050075,0.394317,-261.765521,0.075367,71.816479
0.0769,0.007821,-0.021699,-0.050134,0.0,0.0,0.0,-0.017272,-0.530892,-0.049708,0.394317,-261.765521,0.075367,71.816479
0.0969,0.008182,-0.021466,-0.052777,0.0,0.0,0.0,-0.017272,-0.530892,-0.049708,0.394317,-261.765521,0.075367,71.816479
0.1168,0.007697,-0.021557,-0.05084,0.00064,-0.000388,0.009254,-0.018722,-0.530756,-0.052777,0.394317,-261.765521,0.075367,71.816479
0.137,0.007863,-0.021467,-0.05137,0.000707,-0.000438,0.010037,-0.018519,-0.530813,-0.051994,0.394317,-261.765521,0.075367,71.816479
0.1567,0.008132,-0.021532,-0.049473,0.000759,-0.00048,0.010675,-0.018324,-0.530794,-0.05137,0.469309,-261.765521,0.000375,71.816479
0.1772,0.008251,-0.021813,-0.052386,0.000768,-0.000489,0.011254,-0.017202,-0.530898,-0.049647,0.469309,-261.765521,0.000375,71.816479
0.1968,0.008027,-0.021539,-0.053042,0.000773,-0.000496,0.011724,-0.017202,-0.530898,-0.049647,0.469309,-261.765521,0.000375,71.816479
0.2166,0.00819,-0.021239,-0.051559,0.000775,-0.000501,0.012105,-0.019012,-0.530822,-0.053042,0.544302,-261.765521,-0.074619,71.816479
0.2365,0.007981,-0.021467,-0.049742,0.00081,-0.000528,0.012412,-0.018636,-0.530715,-0.052435,0.544302,-261.765521,-0.074619,71.816479
0.2563,0.008207,-0.02161,-0.051613,0.000836,-0.000551,0.012661,-0.017377,-0.530836,-0.049742,0.619306,-261.765521,-0.149622,71.816479
0.2766,0.007743,-0.021409,-0.052771,0.000839,-0.000556,0.012863,-0.018039,-0.530922,-0.051446,0.619306,-261.765521,-0.149622,71.816479
0.2966,0.008057,-0.021724,-0.050397,0.00084,-0.00056,0.013027,-0.018039,-0.530922,-0.051446,0.619306,-261.765521,-0.149622,71.816479
0.3164,0.008047,-0.021289,-0.052471,0.00084,-0.000564,0.013159,-0.017635,-0.531077,-0.050397,0.694304,-261.765521,-0.22462,71.816479
0.3367,0.008028,-0.021568,-0.050054,0.00084,-0.000567,0.013266,-0.018071,-0.530876,-0.051246,0.694304,-261.765521,-0.22462,71.816479
0.3563,0.007773,-0.021801,-0.051584,0.00084,-0.000569,0.013353,-0.017489,-0.530929,-0.050054,0.769293,-261.765521,-0.299609,71.816479
0.3765,0.008124,-0.021647,-0.051916,0.000843,-0.000574,0.013424,-0.018429,-0.531105,-0.051445,0.769293,-261.765521,-0.299609,71.816479
0.3964,0.007933,-0.021698,-0.051875,0.000845,-0.000577,0.013482,-0.018429,-0.531105,-0.051445,0.769293,-261.765521,-0.299609,71.816479
0.4163,0.008267,-0.021307,-0.050237,0.000846,-0.000581,0.013529,-0.018511,-0.531011,-0.051875,0.844305,-261.765521,-0.374621,71.816479
0.4364,0.007986,-0.02128,-0.05159,0.000843,-0.00058,0.013568,-0.018037,-0.53087,-0.05121,0.844305,-261.765521,-0.374621,71.816479
0.4566,0.007654,-0.02189,-0.051652,0.00084,-0.00058,0.0136,-0.018313,-0.530601,-0.05159,0.919315,-261.765521,-0.449631,71.816479
0.4767,0.008017,-0.021442,-0.052282,0.000845,-0.000586,0.013627,-0.018644,-0.531156,-0.051646,0.919315,-261.765521,-0.449631,71.816479
0.4967,0.008016,-0.021921,-0.051985,0.000849,-0.00059,0.013648,-0.018644,-0.531156,-0.051646,0.919315,-261.765521,-0.449631,71.816479
0.5165,0.008215,-0.022101,-0.051546,0.000853,-0.000594,0.013667,-0.018485,-0.531232,-0.051985,0.994301,-261.765521,-0.524617,71.816479
0.5367,0.008268,-0.021872,-0.051449,0.000844,-0.000589,0.013682,-0.018313,-0.53131,-0.051807,0.994301,-261.765521,-0.524617,71.816479
0.5566,0.008046,-0.021819,-0.051914,0.000837,-0.000585,0.013695,-0.017959,-0.531197,-0.051449,1.069295,-261.765521,-0.599611,71.816479
0.5766,0.007989,-0.021493,-0.050171,0.000836,-0.000585,0.013705,-0.018378,-0.531138,-0.051872,1.069295,-261.765521,-0.599611,71.816479
0.5968,0.007887,-0.021581,-0.050191,0.000836,-0.000586,0.013714,-0.018378,-0.531138,-0.051872,1.069295,-261.765521,-0.599611,71.816479
0.6164,0.008004,-0.021323,-0.050869,0.000835,-0.000586,0.013722,-0.0177,-0.530939,-0.050191,1.144357,-261.765521,-0.674673,71.816479
0.6364,0.007996,-0.021329,-0.049188,0.000828,-0.000582,0.013728,-0.017792,-0.530828,-0.050464,1.144357,-261.765521,-0.674673,71.816479
0.6567,0.008139,-0.021855,-0.051225,0.000822,-0.000578,0.013733,-0.01708,-0.530712,-0.049188,1.219307,-261.765521,-0.749623,71.816479
0.6765,0.007985,-0.021703,-0.049747,0.000813,-0.000572,0.013738,-0.017894,-0.531143,-0.051042,1.219307,-261.765521,-0.749623,71.816479
0.6964,0.007852,-0.02186,-0.050469,0.000805,-0.000567,0.013742,-0.017894,-0.531143,-0.051042,1.219307,-261.765521,-0.749623,71.816479
0.7165,0.00795,-0.021656,-0.050815,0.000799,-0.000562,0.013745,-0.017876,-0.531211,-0.050469,1.294311,-261.765521,-0.824627,71.816479
0.7369,0.008244,-0.02142,-0.051819,0.000794,-0.000559,0.013748,-0.017908,-0.531124,-0.05061,1.294311,-261.765521,-0.824627,71.816479
0.7565,0.007876,-0.021338,-0.050387,0.000791,-0.000557,0.013751,-0.018172,-0.530736,-0.051819,1.369307,-261.76552,-0.899624,71.81648
0.7766,0.008363,-0.021412,-0.051429,0.000796,-0.00056,0.013752,-0.017843,-0.530695,-0.050516,1.369307,-261.76552,-0.899624,71.81648
0.7964,0.008142,-0.021289,-0.051474,0.000799,-0.000563,0.013754,-0.017843,-0.530695,-0.050516,1.369307,-261.76552,-0.899624,71.81648
0.8167,0.008369,-0.021567,-0.051233,0.000802,-0.000565,0.013755,-0.018098,-0.530613,-0.051472,1.444307,-261.765511,-0.974623,71.81649
0.8365,0.007847,-0.021586,-0.050779,0.000806,-0.000568,0.013756,-0.017954,-0.53073,-0.051374,1.444307,-261.765511,-0.974623,71.81649
0.8564,0.007966,-0.022316,-0.052753,0.000809,-0.000571,0.013757,-0.018038,-0.530928,-0.050774,1.468746,-261.765469,-1.049724,71.816539
0.8767,0.008054,-0.021646,-0.051074,0.000815,-0.000575,0.013758,-0.018846,-0.531545,-0.052574,1.468746,-261.765469,-1.049724,71.816539
0.8969,0.008026,-0.021412,-0.050519,0.000819,-0.000578,0.013759,-0.018846,-0.531545,-0.052574,1.468746,-261.765469,-1.049724,71.816539
0.9171,0.007815,-0.021351,-0.050526,0.000823,-0.000581,0.013759,-0.017723,-0.530762,-0.050494,1.467862,-261.765323,-1.124633,71.816706
0.9366,0.008157,-0.021832,-0.04984,0.00082,-0.000579,0.01376,-0.01781,-0.530737,-0.050504,1.467862,-261.765323,-1.124633,71.816706
0.9568,0.008064,-0.021828,-0.048796,0.000817,-0.000577,0.013761,-0.017243,-0.5312,-0.049786,1.466016,-261.764921,-1.199625,71.817166
0.9768,0.007964,-0.021584,-0.051358,0.000782,-0.000553,0.013762,-0.016851,-0.53122,-0.048883,1.466016,-261.764921,-1.199625,71.817166
0.9973,0.007969,-0.021464,-0.050048,0.000754,-0.000533,0.013763,-0.016851,-0.53122,-0.048883,1.466016,-261.764921,-1.199625,71.817166
1.0167,0.007868,-0.021988,-0.051515,0.00073,-0.000517,0.013764,-0.017525,-0.530831,-0.049891,1.466763,-261.764041,-1.274621,71.818175
1.0369,0.007994,-0.021569,-0.051507,0.00074,-0.000522,0.013764,-0.017875,-0.531027,-0.050531,1.466763,-261.764041,-1.274621,71.818175
1.0563,0.007724,-0.021614,-0.050299,0.000747,-0.000527,0.013764,-0.018243,-0.5309,-0.051301,1.478493,-261.762537,-1.349729,71.819874
1.0766,0.007647,-0.0215,-0.049166,0.000756,-0.000533,0.013853,-0.017945,-0.530963,-0.050377,1.478493,-261.762537,-1.349729,71.819874
1.0967,0.007434,-0.021659,-0.050883,0.000764,-0.000538,0.013924,-0.017945,-0.530963,-0.050377,1.478493,-261.762537,-1.349729,71.819874
1.117,0.007557,-0.021562,-0.049625,0.00077,-0.000542,0.01398,-0.018474,-0.531016,-0.05046,1.476272,-261.760202,-1.424701,71.822519
1.1367,0.007534,-0.021823,-0.049967,0.000781,-0.000549,0.014087,-0.018174,-0.530985,-0.050073,1.476272,-261.760202,-1.424701,71.822519
1.1563,0.007242,-0.021278,-0.04911,0.00079,-0.000555,0.014173,-0.017916,-0.531204,-0.049547,1.474741,-261.757178,-1.486149,71.82595
1.1766,0.007095,-0.021587,-0.048654,0.000795,-0.000559,0.014316,-0.017804,-0.530713,-0.049128,1.474741,-261.757178,-1.486149,71.82595
1.1968,0.007218,-0.021391,-0.050012,0.0008,-0.000561,0.014431,-0.017804,-0.530713,-0.049128,1.474741,-261.757178,-1.486149,71.82595
1.2167,0.006871,-0.021812,-0.049716,0.000804,-0.000564,0.014524,-0.018246,-0.530778,-0.049418,1.473562,-261.753922,-1.485222,71.829648
1.237,0.007067,-0.021578,-0.048212,0.000815,-0.000571,0.014668,-0.018334,-0.530944,-0.04947,1.473562,-261.753922,-1.485222,71.829648
1.2567,0.006935,-0.021483,-0.046685,0.000824,-0.000577,0.014785,-0.017486,-0.531005,-0.047747,1.47432,-261.750584,-1.485789,71.833435
1.2771,0.006361,-0.021617,-0.047927,0.0008,-0.00056,0.014942,-0.01692,-0.530935,-0.046757,1.47432,-261.750584,-1.485789,71.833435
1.297,0.006442,-0.021746,-0.048333,0.00078,-0.000545,0.015071,-0.01692,-0.530935,-0.046757,1.47432,-261.750584,-1.485789,71.833435
1.3167,0.006202,-0.021464,-0.046792,0.000764,-0.000533,0.015175,-0.018165,-0.531176,-0.047712,1.473578,-261.747181,-1.485199,71.837299
1.3374,0.006061,-0.021485,-0.046745,0.000774,-0.000539,0.015315,-0.017953,-0.531069,-0.047267,1.473578,-261.747181,-1.485199,71.837299
1.357,0.005878,-0.021812,-0.045846,0.000783,-0.000543,0.015431,-0.017747,-0.530946,-0.046263,1.483511,-261.743688,-1.492965,71.841215
1.3765,0.005808,-0.02159,-0.045579,0.000776,-0.000538,0.015576,-0.017516,-0.531248,-0.045858,1.483511,-261.743688,-1.492965,71.841215
1.3966,0.006003,-0.021558,-0.045907,0.000772,-0.000534,0.015696,-0.017516,-0.531248,-0.045858,1.483511,-261.743688,-1.492965,71.841215
1.4166,0.005434,-0.021433,-0.046727,0.000768,-0.00053,0.015795,-0.01737,-0.531045,-0.045261,1.4829,-261.740122,-1.492443,71.845214
1.4365,0.00531,-0.021565,-0.046002,0.000777,-0.000536,0.015922,-0.017779,-0.530979,-0.045781,1.4829,-261.740122,-1.492443,71.845214
1.4563,0.005163,-0.022086,-0.043978,0.000785,-0.000541,0.016027,-0.018119,-0.531043,-0.045497,1.486755,-261.736461,-1.495476,71.849298
1.4765,0.005281,-0.02175,-0.043345,0.000771,-0.00053,0.016153,-0.017334,-0.531545,-0.044087,1.486755,-261.736461,-1.495476,71.849298
1.4966,0.005623,-0.021931,-0.044979,0.000759,-0.000521,0.016258,-0.017334,-0.531545,-0.044087,1.486755,-261.736461,-1.495476,71.849298
1.5168,0.004709,-0.021613,-0.04454,0.00075,-0.000514,0.016344,-0.017276,-0.531439,-0.044308,1.486086,-261.732753,-1.494916,71.853437
1.5366,0.004498,-0.021314,-0.044607,0.000753,-0.000515,0.016448,-0.017566,-0.531307,-0.044325,1.486086,-261.732753,-1.494916,71.853437
1.5568,0.004603,-0.021866,-0.042679,0.000756,-0.000516,0.016534,-0.018221,-0.530824,-0.044087,1.491739,-261.728955,-1.499448,71.857644
1.5768,0.00447,-0.021203,-0.042505,0.000752,-0.000512,0.016631,-0.017256,-0.531349,-0.042784,1.491739,-261.728955,-1.499448,71.857644
1.597,0.004361,-0.021517,-0.042403,0.000748,-0.000509,0.016711,-0.017256,-0.531349,-0.042784,1.491739,-261.728955,-1.499448,71.857644
1.6169,0.003993,-0.022078,-0.042825,0.000745,-0.000506,0.016777,-0.017227,-0.531082,-0.041711,1.492037,-261.725111,-1.499666,71.8619
1.6367,0.004182,-0.021476,-0.039797,0.00075,-0.000508,0.016847,-0.017474,-0.5313,-0.042085,1.492037,-261.725111,-1.499666,71.8619
1.6567,0.003451,-0.021601,-0.042152,0.000755,-0.000511,0.016905,-0.016086,-0.531089,-0.039262,1.494429,-261.721187,-1.501589,71.866229
1.677,0.003638,-0.02181,-0.042916,0.000772,-0.000522,0.016961,-0.017885,-0.531144,-0.0419,1.494429,-261.721187,-1.501589,71.866229
1.6969,0.003474,-0.021924,-0.043357,0.000786,-0.000532,0.017008,-0.017885,-0.531144,-0.0419,1.494429,-261.721187,-1.501589,71.866229
1.7168,0.003544,-0.021674,-0.040145,0.000798,-0.00054,0.017047,-0.018601,-0.531467,-0.042654,1.494041,-261.717249,-1.501252,71.870574
1.737,0.002858,-0.021812,-0.040195,0.000803,-0.000543,0.017086,-0.01789,-0.531384,-0.041513,1.494041,-261.717249,-1.501252,71.870574
1.7566,0.002936,-0.021916,-0.037426,0.000808,-0.000546,0.017118,-0.017611,-0.531418,-0.039657,1.490138,-261.713276,-1.498057,71.874979
1.7764,0.002779,-0.02194,-0.039846,0.00077,-0.00052,0.017153,-0.016248,-0.53155,-0.037559,1.490138,-261.713276,-1.498057,71.874979
1.7966,0.002523,-0.02195,-0.040467,0.000739,-0.000498,0.017182,-0.016248,-0.53155,-0.037559,1.490138,-261.713276,-1.498057,71.874979
1.8164,0.002583,-0.021744,-0.038487,0.000714,-0.00048,0.017206,-0.018078,-0.531557,-0.039758,1.489445,-261.709324,-1.497488,71.879363
1.8367,0.002403,-0.021864,-0.038264,0.000729,-0.00049,0.01723,-0.017645,-0.531481,-0.039149,1.489445,-261.709324,-1.497488,71.879363
1.8564,0.002028,-0.021896,-0.038019,0.000742,-0.000498,0.01725,-0.017084,-0.531507,-0.037719,1.499742,-261.70531,-1.505937,71.88376
1.8765,0.002331,-0.021953,-0.038631,0.000745,-0.000499,0.017272,-0.017334,-0.531527,-0.037968,1.499742,-261.70531,-1.505937,71.88376
1.8966,0.001843,-0.021997,-0.039104,0.000747,-0.0005,0.01729,-0.017334,-0.531527,-0.037968,1.499742,-261.70531,-1.505937,71.88376
1.9165,0.001424,-0.021576,-0.036019,0.000749,-0.0005,0.017306,-0.018065,-0.531629,-0.038385,1.497022,-261.701289,-1.503655,71.888178
1.9368,0.001014,-0.021985,-0.038489,0.000759,-0.000507,0.017322,-0.017597,-0.531473,-0.037322,1.497022,-261.701289,-1.503655,71.888178
1.9563,0.000826,-0.021965,-0.035813,0.000767,-0.000512,0.017336,-0.018587,-0.531624,-0.037937,1.496531,-261.697234,-1.503225,71.892634
1.9764,0.001016,-0.021311,-0.037081,0.00077,-0.000514,0.017352,-0.01752,-0.531638,-0.035948,1.496531,-261.697234,-1.503225,71.892634
1.9964,0.001395,-0.021681,-0.036489,0.000772,-0.000515,0.017364,-0.01752,-0.531638,-0.035948,1.496531,-261.697234,-1.503225,71.892634
2.0162,0.00066,-0.022047,-0.035739,0.000774,-0.000516,0.017375,-0.017179,-0.531364,-0.035769,1.494798,-261.693214,-1.501787,71.89706
2.0364,0.001105,-0.021666,-0.034196,0.000774,-0.000516,0.017387,-0.017333,-0.531513,-0.035673,1.494798,-261.693214,-1.501787,71.89706
2.0568,0.000605,-0.02177,-0.034348,0.000774,-0.000516,0.017397,-0.016307,-0.531385,-0.033642,1.494259,-261.689155,-1.501335,71.901532
2.0768,0.000408,-0.021895,-0.034311,0.000764,-0.000509,0.017408,-0.016855,-0.531463,-0.034259,1.494259,-261.689155,-1.501335,71.901532
2.0971,0.000464,-0.022064,-0.033706,0.000756,-0.000503,0.017418,-0.016855,-0.531463,-0.034259,1.494259,-261.689155,-1.501335,71.901532
2.1167,-0.000194,-0.021743,-0.034181,0.000749,-0.000498,0.017425,-0.016691,-0.531797,-0.032976,1.494405,-261.685101,-1.501451,71.905997
2.1371,-0.000251,-0.021716,-0.033171,0.000746,-0.000496,0.017434,-0.017065,-0.531657,-0.033381,1.494405,-261.685101,-1.501451,71.905997
2.1563,-0.000163,-0.022114,-0.032413,0.000744,-0.000493,0.01744,-0.017142,-0.531452,-0.03261,1.497075,-261.681041,-1.503646,71.910454
2.1766,-0.000836,-0.022018,-0.031602,0.000731,-0.000484,0.017448,-0.016731,-0.53181,-0.032402,1.497075,-261.681041,-1.503646,71.910454
2.1966,-0.000276,-0.022047,-0.032614,0.00072,-0.000477,0.017454,-0.016731,-0.53181,-0.032402,1.497075,-261.681041,-1.503646,71.910454
2.2169,-0.000766,-0.021844,-0.03149,0.000712,-0.00047,0.01746,-0.016876,-0.531798,-0.031881,1.497732,-261.676959,-1.504181,71.91493
2.2365,-0.001098,-0.021604,-0.031513,0.00071,-0.000469,0.017465,-0.016851,-0.531716,-0.031639,1.497732,-261.676959,-1.504181,71.91493
2.2564,-0.001105,-0.021925,-0.031486,0.000709,-0.000468,0.017469,-0.017144,-0.531366,-0.030958,1.501097,-261.672873,-1.506971,71.919391
2.2772,-0.001081,-0.021776,-0.030125,0.000718,-0.000473,0.017474,-0.017158,-0.531647,-0.031414,1.501097,-261.672873,-1.506971,71.919391
2.2965,-0.001385,-0.021788,-0.032092,0.000725,-0.000478,0.017477,-0.017158,-0.531647,-0.031414,1.501097,-261.672873,-1.506971,71.919391
2.3169,-0.001483,-0.021816,-0.031371,0.00073,-0.000481,0.01748,-0.01772,-0.531546,-0.031363,1.50139,-261.668777,-1.507205,71.923861
2.3367,-0.001694,-0.0218,-0.030552,0.000749,-0.000494,0.017483,-0.017617,-0.531556,-0.031282,1.50139,-261.668777,-1.507205,71.923861
2.3568,-0.002156,-0.02179,-0.029455,0.000763,-0.000504,0.017485,-0.017251,-0.531578,-0.029998,1.499263,-261.664695,-1.505418,71.928328
2.3768,-0.002057,-0.021938,-0.028583,0.000766,-0.000506,0.017489,-0.017181,-0.53157,-0.029474,1.499263,-261.664695,-1.505418,71.928328
2.3969,-0.002071,-0.02193,-0.028964,0.000768,-0.000508,0.017491,-0.017181,-0.53157,-0.029474,1.499263,-261.664695,-1.505418,71.928328
2.4169,-0.002419,-0.022194,-0.028202,0.00077,-0.000509,0.017494,-0.01681,-0.531738,-0.028233,1.495912,-261.660622,-1.502644,71.932802
2.4368,-0.002455,-0.021887,-0.027987,0.000757,-0.000501,0.017496,-0.016802,-0.531844,-0.028136,1.495912,-261.660622,-1.502644,71.932802
2.4563,-0.002652,-0.022173,-0.028402,0.000747,-0.000494,0.017499,-0.016702,-0.531704,-0.027428,1.495266,-261.656541,-1.502117,71.93729
2.4768,-0.003005,-0.021995,-0.028023,0.000744,-0.000492,0.017501,-0.017095,-0.531945,-0.028286,1.495266,-261.656541,-1.502117,71.93729
2.4968,-0.002876,-0.021748,-0.028309,0.000742,-0.00049,0.017503,-0.017095,-0.531945,-0.028286,1.495266,-261.656541,-1.502117,71.93729
2.5166,-0.003454,-0.022078,-0.028745,0.00074,-0.000488,0.017504,-0.017281,-0.531566,-0.027577,1.497614,-261.652448,-1.50406,71.941777
2.5366,-0.003165,-0.021702,-0.026451,0.000757,-0.0005,0.017505,-0.01762,-0.531692,-0.027973,1.497614,-261.652448,-1.50406,71.941777
2.5566,-0.003643,-0.021555,-0.025477,0.00077,-0.000509,0.017506,-0.01663,-0.531539,-0.025895,1.498394,-261.648361,-1.5047,71.946253
2.5766,-0.003538,-0.022177,-0.026663,0.000765,-0.000506,0.017508,-0.016634,-0.531404,-0.025486,1.498394,-261.648361,-1.5047,71.946253
2.5966,-0.003544,-0.022051,-0.025932,0.00076,-0.000503,0.017509,-0.016634,-0.531404,-0.025486,1.498394,-261.648361,-1.5047,71.946253
2.6165,-0.004342,-0.02158,-0.02477,0.000757,-0.0005,0.017511,-0.016736,-0.531902,-0.025199,1.495275,-261.64427,-1.502123,71.950752
2.6366,-0.004188,-0.021789,-0.025768,0.000753,-0.000498,0.017512,-0.01683,-0.531707,-0.024937,1.495275,-261.64427,-1.502123,71.950752
2.6563,-0.005076,-0.022046,-0.023894,0.00075,-0.000496,0.017513,-0.017305,-0.531637,-0.025213,1.496719,-261.640189,-1.50332,71.955231
2.6765,-0.004651,-0.02201,-0.022978,0.000756,-0.0005,0.017514,-0.017264,-0.531877,-0.023985,1.496719,-261.640189,-1.50332,71.955231
2.6964,-0.004657,-0.021945,-0.023688,0.000761,-0.000503,0.017514,-0.017264,-0.531877,-0.023985,1.496719,-261.640189,-1.50332,71.955231
2.7164,-0.004993,-0.021719,-0.022913,0.000765,-0.000506,0.017515,-0.016706,-0.531823,-0.022955,1.497401,-261.636091,-1.503883,71.959725
2.7363,-0.004867,-0.021768,-0.023286,0.000758,-0.000501,0.017516,-0.016691,-0.531727,-0.022852,1.497401,-261.636091,-1.503883,71.959725
2.7563,-0.00541,-0.021645,-0.021756,0.000752,-0.000497,0.017516,-0.016718,-0.531646,-0.022731,1.495866,-261.631999,-1.50261,71.964222
2.7764,-0.005483,-0.022033,-0.023471,0.000748,-0.000494,0.017517,-0.016522,-0.531535,-0.02181,1.495866,-261.631999,-1.50261,71.964222
2.7964,-0.005182,-0.022207,-0.022216,0.000744,-0.000491,0.017518,-0.016522,-0.531535,-0.02181,1.495866,-261.631999,-1.50261,71.964222
2.8167,-0.005787,-0.021988,-0.021597,0.000741,-0.000489,0.017519,-0.016481,-0.532103,-0.021486,1.497223,-261.627912,-1.503733,71.968704
2.8368,-0.00573,-0.022017,-0.021106,0.000732,-0.000483,0.017519,-0.016609,-0.532009,-0.021447,1.497223,-261.627912,-1.503733,71.968704
2.8568,-0.005975,-0.022605,-0.020947,0.000724,-0.000478,0.01752,-0.01647,-0.531919,-0.02055,1.498334,-261.623809,-1.504654,71.973198
2.8769,-0.005961,-0.021802,-0.020936,0.000711,-0.000469,0.017521,-0.016641,-0.532446,-0.020887,1.498334,-261.623809,-1.504654,71.973198
2.8966,-0.006246,-0.022298,-0.020435,0.0007,-0.000461,0.017522,-0.016641,-0.532446,-0.020887,1.498334,-261.623809,-1.504654,71.973198
2.9168,-0.006828,-0.022194,-0.019481,0.000691,-0.000454,0.017522,-0.016637,-0.532212,-0.019705,1.500049,-261.619717,-1.506079,71.977671
2.9371,-0.006603,-0.021927,-0.018862,0.000692,-0.000455,0.017522,-0.016686,-0.532167,-0.019527,1.500049,-261.619717,-1.506079,71.977671
2.9567,-0.006843,-0.022043,-0.017971,0.000693,-0.000455,0.017521,-0.016201,-0.531852,-0.018306,1.503421,-261.615611,-1.508897,71.98214
2.9769,-0.006797,-0.022082,-0.019112,0.000682,-0.000448,0.017517,-0.016023,-0.531952,-0.017972,1.503421,-261.615611,-1.508897,71.98214
2.9969,-0.007119,-0.022181,-0.017462,0.000672,-0.000441,0.017514,-0.016023,-0.531952,-0.017972,1.503421,-261.615611,-1.508897,71.98214
3.0168,-0.007679,-0.022157,-0.019136,0.000665,-0.000436,0.017511,-0.015995,-0.532123,-0.01673,1.503257,-261.61151,-1.508754,71.986603
3.0371,-0.007066,-0.022262,-0.01802,0.000671,-0.000439,0.017507,-0.016579,-0.532101,-0.017625,1.503257,-261.61151,-1.508754,71.986603
3.0571,-0.007591,-0.021786,-0.017435,0.000675,-0.000442,0.017503,-0.016235,-0.532193,-0.017463,1.506087,-261.607399,-1.511142,71.991062
3.0772,-0.007848,-0.022364,-0.018248,0.000683,-0.000448,0.017498,-0.016459,-0.531753,-0.017409,1.506087,-261.607399,-1.511142,71.991062
3.097,-0.007778,-0.021817,-0.017936,0.000689,-0.000452,0.017495,-0.016459,-0.531753,-0.017409,1.506087,-261.607399,-1.511142,71.991062
3.1168,-0.007689,-0.022374,-0.016629,0.000694,-0.000455,0.017491,-0.016896,-0.531754,-0.017203,1.504992,-261.603286,-1.510209,71.995529
3.1373,-0.008054,-0.022452,-0.014556,0.000698,-0.000458,0.017484,-0.0166,-0.531977,-0.016886,1.504992,-261.603286,-1.510209,71.995529
3.1563,-0.008798,-0.022112,-0.01543,0.000701,-0.000461,0.017478,-0.015456,-0.532413,-0.014,1.503008,-261.599191,-1.508535,71.999987
3.1766,-0.008561,-0.022077,-0.012956,0.000701,-0.000462,0.017446,-0.016558,-0.532084,-0.015275,1.503008,-261.599191,-1.508535,71.999987
3.1966,-0.008826,-0.022082,-0.015567,0.0007,-0.000463,0.01742,-0.016558,-0.532084,-0.015275,1.503008,-261.599191,-1.508535,71.999987
3.2166,-0.008906,-0.021959,-0.014299,0.0007,-0.000464,0.017399,-0.016736,-0.53204,-0.014835,1.502269,-261.595096,-1.507923,72.00445
3.2364,-0.00895,-0.022564,-0.01422,0.0007,-0.000466,0.01736,-0.016514,-0.531988,-0.014533,1.502269,-261.595096,-1.507923,72.00445
3.2567,-0.009185,-0.022143,-0.014988,0.0007,-0.000467,0.017328,-0.01618,-0.532528,-0.013665,1.502048,-261.591022,-1.507788,72.008894
3.2769,-0.009421,-0.022217,-0.013126,0.000704,-0.00047,0.017312,-0.016768,-0.532127,-0.014839,1.502048,-261.591022,-1.507788,72.008894
3.2969,-0.009343,-0.022353,-0.013784,0.000707,-0.000473,0.017298,-0.016768,-0.532127,-0.014839,1.502048,-261.591022,-1.507788,72.008894
3.3168,-0.009859,-0.022476,-0.013619,0.00071,-0.000475,0.017287,-0.016344,-0.532325,-0.01306,1.50167,-261.586958,-1.507497,72.013332
3.3366,-0.009662,-0.022379,-0.012641,0.000701,-0.000473,0.017209,-0.016531,-0.53237,-0.013206,1.50167,-261.586958,-1.507497,72.013332
3.3568,-0.010392,-0.022328,-0.012286,0.000693,-0.00047,0.017146,-0.016086,-0.532354,-0.012092,1.500517,-261.582901,-1.506555,72.01777
3.3772,-0.009892,-0.02209,-0.010888,0.000688,-0.000474,0.017031,-0.016612,-0.532295,-0.012247,1.500517,-261.582901,-1.506555,72.01777
3.3968,-0.010303,-0.022173,-0.009688,0.000684,-0.000476,0.01694,-0.016612,-0.532295,-0.012247,1.500517,-261.582901,-1.506555,72.01777
3.4167,-0.010379,-0.022212,-0.012337,0.00068,-0.000477,0.016868,-0.015215,-0.532169,-0.008975,1.501614,-261.578876,-1.507539,72.022171
3.4373,-0.010323,-0.022113,-0.011573,0.00065,-0.000475,0.016608,-0.015836,-0.532173,-0.010332,1.501614,-261.578876,-1.507539,72.022171
3.4568,-0.011208,-0.022338,-0.010561,0.000626,-0.000471,0.01641,-0.016204,-0.532095,-0.011043,1.50169,-261.574964,-1.50779,72.026462
3.4771,-0.011059,-0.022465,-0.008787,0.000626,-0.000475,0.016289,-0.01656,-0.532292,-0.010576,1.50169,-261.574964,-1.50779,72.026462
3.4969,-0.011148,-0.021882,-0.011786,0.000625,-0.000477,0.016196,-0.01656,-0.532292,-0.010576,1.50169,-261.574964,-1.50779,72.026462
3.517,-0.011395,-0.022253,-0.009027,0.000625,-0.000477,0.016124,-0.017132,-0.531866,-0.011101,1.505308,-261.571145,-1.511174,72.030656
3.5366,-0.011323,-0.022044,-0.008136,0.00063,-0.000485,0.016017,-0.016668,-0.532018,-0.010177,1.505308,-261.571145,-1.511174,72.030656
3.5565,-0.01193,-0.022242,-0.007665,0.000635,-0.000491,0.015936,-0.015452,-0.532043,-0.007622,1.504213,-261.567364,-1.510355,72.034821
3.5766,-0.01189,-0.022353,-0.010203,0.000599,-0.000495,0.015429,-0.01581,-0.532214,-0.00764,1.504213,-261.567364,-1.510355,72.034821
3.5965,-0.011603,-0.022523,-0.007945,0.000572,-0.000493,0.015063,-0.01581,-0.532214,-0.00764,1.504213,-261.567364,-1.510355,72.034821
3.6167,-0.012491,-0.022332,-0.007281,0.000551,-0.000488,0.014797,-0.015629,-0.532528,-0.007282,1.502203,-261.563674,-1.508768,72.038901
3.6369,-0.012025,-0.02219,-0.00656,0.00053,-0.000482,0.014509,-0.015862,-0.532445,-0.007205,1.502203,-261.563674,-1.508768,72.038901
3.6566,-0.012443,-0.022443,-0.006726,0.000513,-0.000474,0.014301,-0.015353,-0.532194,-0.006089,1.506421,-261.560253,-1.512999,72.04271
3.6765,-0.012453,-0.022459,-0.008058,0.000497,-0.00047,0.014022,-0.015827,-0.532411,-0.006647,1.506421,-261.560253,-1.512999,72.04271
3.6966,-0.012331,-0.022162,-0.007371,0.000484,-0.000464,0.013822,-0.015827,-0.532411,-0.006647,1.506421,-261.560253,-1.512999,72.04271
3.7166,-0.012473,-0.022294,-0.006192,0.000474,-0.000457,0.013679,-0.016069,-0.532168,-0.006774,1.508735,-261.556943,-1.515116,72.046399
3.737,-0.013069,-0.02227,-0.007345,0.000471,-0.000455,0.01353,-0.015886,-0.532218,-0.006465,1.508735,-261.556943,-1.515116,72.046399
3.7563,-0.013027,-0.022175,-0.00582,0.00047,-0.000452,0.013423,-0.0168,-0.532271,-0.006908,1.510798,-261.553783,-1.517015,72.049923
3.7768,-0.01303,-0.02249,-0.00501,0.000471,-0.000457,0.013203,-0.016067,-0.532177,-0.005896,1.510798,-261.553783,-1.517015,72.049923
3.7966,-0.012966,-0.022319,-0.005717,0.000473,-0.000459,0.013045,-0.016067,-0.532177,-0.005896,1.510798,-261.553783,-1.517015,72.049923
3.8166,-0.013704,-0.022398,-0.005158,0.000475,-0.000459,0.012933,-0.015862,-0.53233,-0.005155,1.510229,-261.550679,-1.516549,72.053389
3.8367,-0.013493,-0.022271,-0.006126,0.000469,-0.00046,0.012629,-0.016052,-0.532357,-0.005092,1.510229,-261.550679,-1.516549,72.053389
3.8565,-0.014022,-0.02218,-0.002286,0.000464,-0.000459,0.012414,-0.016602,-0.532276,-0.005713,1.506997,-261.547694,-1.513988,72.056741
3.8767,-0.013843,-0.022205,-0.004191,0.000444,-0.000457,0.0113,-0.01531,-0.532188,-0.002564,1.506997,-261.547694,-1.513988,72.056741
3.8966,-0.013477,-0.022376,-0.005063,0.000428,-0.000447,0.010525,-0.01531,-0.532188,-0.002564,1.506997,-261.547694,-1.513988,72.056741
3.9163,-0.013972,-0.022224,-0.004937,0.000416,-0.000432,0.009992,-0.016039,-0.532389,-0.004544,1.505703,-261.544839,-1.513115,72.059962
3.937,-0.014096,-0.022889,-0.001117,0.000436,-0.00042,0.010367,-0.016223,-0.532321,-0.004646,1.505703,-261.544839,-1.513115,72.059962
3.9566,-0.014176,-0.022316,-0.003088,0.00045,-0.000414,0.010642,-0.014652,-0.532902,-0.000799,1.49763,-261.542571,-1.507271,72.062573
3.9767,-0.014204,-0.022055,-0.00427,0.000437,-0.000407,0.010206,-0.015649,-0.532369,-0.00286,1.49763,-261.542571,-1.507271,72.062573
3.9967,-0.014416,-0.02246,-0.003121,0.000428,-0.000399,0.009903,-0.015649,-0.532369,-0.00286,1.49763,-261.542571,-1.507271,72.062573
4.0166,-0.014448,-0.022439,-0.002059,0.00042,-0.000389,0.009692,-0.015989,-0.532475,-0.002675,1.496941,-261.540128,-1.50576,72.065348
4.037,-0.014616,-0.02244,-0.004947,0.000417,-0.000383,0.009324,-0.015786,-0.532462,-0.002372,1.496941,-261.540128,-1.50576,72.065348
4.0568,-0.014793,-0.022503,-0.002387,0.000415,-0.000376,0.009066,-0.017126,-0.532446,-0.004639,1.494988,-261.537912,-1.504314,72.067874
4.0767,-0.01495,-0.022151,-0.002708,0.000422,-0.000373,0.008976,-0.016115,-0.532497,-0.002583,1.494988,-261.537912,-1.504314,72.067874
4.097,-0.014824,-0.022654,-0.002675,0.000427,-0.000371,0.008913,-0.016115,-0.532497,-0.002583,1.494988,-261.537912,-1.504314,72.067874
4.1169,-0.01499,-0.022556,-0.00145,0.000432,-0.000369,0.008867,-0.016171,-0.532668,-0.002295,1.490534,-261.53583,-1.50071,72.070257
4.1369,-0.015255,-0.022679,-0.000423,0.000432,-0.000364,0.008508,-0.015984,-0.532622,-0.001896,1.490534,-261.53583,-1.50071,72.070257
4.1563,-0.015263,-0.022476,-0.000366,0.000431,-0.000358,0.008252,-0.015457,-0.53269,-0.000143,1.485401,-261.533817,-1.496241,72.072562
4.1767,-0.015048,-0.022169,-0.002412,0.000426,-0.000358,0.007238,-0.01545,-0.532496,-0.000332,1.485401,-261.533817,-1.496241,72.072562
4.1967,-0.015214,-0.022475,-0.002755,0.000423,-0.00035,0.00651,-0.01545,-0.532496,-0.000332,1.485401,-261.533817,-1.496241,72.072562
4.2164,-0.015676,-0.022517,-0.001496,0.000421,-0.000338,0.00599,-0.016601,-0.532488,-0.00241,1.478935,-261.531939,-1.491067,72.074726
4.2368,-0.015428,-0.022378,-0.001131,0.000445,-0.000336,0.006483,-0.016533,-0.532502,-0.001999,1.478935,-261.531939,-1.491067,72.074726
4.2567,-0.015694,-0.022581,-5e-05,0.000463,-0.000338,0.006838,-0.015992,-0.532388,-0.000946,1.44458,-261.530639,-1.465767,72.076287
4.2765,-0.015323,-0.022368,-0.000485,0.00046,-0.000338,0.006107,-0.015744,-0.532564,-0.000122,1.44458,-261.530639,-1.465767,72.076287
4.2967,-0.015476,-0.022635,-0.001693,0.000458,-0.000333,0.005582,-0.015744,-0.532564,-0.000122,1.44458,-261.530639,-1.465767,72.076287
4.317,-0.015821,-0.022798,0.000397,0.000457,-0.000326,0.005205,-0.01632,-0.532648,-0.001406,1.450803,-261.529093,-1.468614,72.078101
4.3371,-0.015904,-0.022396,-0.000141,0.000459,-0.000316,0.005214,-0.016033,-0.532711,-0.000641,1.450803,-261.529093,-1.468614,72.078101
4.3573,-0.015614,-0.0222,-6.3e-05,0.000461,-0.000308,0.005218,-0.015962,-0.532406,1.9e-05,1.411859,-261.527979,-1.441057,72.079464
4.3766,-0.015716,-0.022683,0.000495,0.000464,-0.000307,0.004899,-0.015674,-0.532219,-4.7e-05,1.411859,-261.527979,-1.441057,72.079464
4.3965,-0.015514,-0.022215,-0.000345,0.000466,-0.000304,0.004668,-0.015674,-0.532219,-4.7e-05,1.411859,-261.527979,-1.441057,72.079464
4.417,-0.015901,-0.022852,-0.000439,0.000468,-0.0003,0.004501,-0.015671,-0.532228,-0.000127,1.412142,-261.526812,-1.439736,72.080874
4.4365,-0.016281,-0.022756,0.000475,0.000468,-0.000294,0.004477,-0.015852,-0.532481,-0.000227,1.412142,-261.526812,-1.439736,72.080874
4.4564,-0.015979,-0.022655,0.00051,0.000468,-0.000288,0.004457,-0.016024,-0.532766,0.000616,1.381959,-261.525837,-1.41849,72.082081
4.4765,-0.015832,-0.022701,0.001126,0.000463,-0.000288,0.004051,-0.015746,-0.532665,0.000526,1.381959,-261.525837,-1.41849,72.082081
4.4966,-0.016345,-0.022642,0.001798,0.00046,-0.000285,0.003757,-0.015746,-0.532665,0.000526,1.381959,-261.525837,-1.41849,72.082081
4.5165,-0.016022,-0.022729,-0.000484,0.000457,-0.000282,0.003544,-0.015408,-0.532653,0.001985,1.380885,-261.524845,-1.416615,72.0833
4.5364,-0.016087,-0.02268,0.000697,0.000456,-0.000283,0.003163,-0.015756,-0.532685,0.001002,1.380885,-261.524845,-1.416615,72.0833
4.5565,-0.016388,-0.022591,0.001038,0.000455,-0.000283,0.002887,-0.015718,-0.532688,0.000804,1.332501,-261.524109,-1.385953,72.084246
4.5769,-0.016141,-0.022749,0.001342,0.000458,-0.000283,0.002676,-0.015846,-0.532599,0.001023,1.332501,-261.524109,-1.385953,72.084246
4.5965,-0.015842,-0.022444,0.000643,0.000461,-0.000283,0.002522,-0.015846,-0.532599,0.001023,1.332501,-261.524109,-1.385953,72.084246
4.6164,-0.015717,-0.02241,0.000118,0.000463,-0.000281,0.002408,-0.015497,-0.532455,0.000754,1.272824,-261.523534,-1.352145,72.085024
4.637,-0.016469,-0.022723,0.001935,0.000459,-0.00027,0.002581,-0.015561,-0.532438,0.000503,1.272824,-261.523534,-1.352145,72.085024
4.6563,-0.016169,-0.022836,0.00303,0.000455,-0.000262,0.002701,-0.015469,-0.53273,0.002004,1.199633,-261.523077,-1.312389,72.085673
4.6765,-0.016095,-0.022618,0.000801,0.000425,-0.000271,0.001826,-0.014694,-0.532825,0.002947,1.199633,-261.523077,-1.312389,72.085673
4.6966,-0.016116,-0.0223,0.001247,0.000404,-0.00027,0.001179,-0.014694,-0.532825,0.002947,1.199633,-261.523077,-1.312389,72.085673
4.7166,-0.016122,-0.022623,0.000336,0.000388,-0.000264,0.000706,-0.015462,-0.53231,0.001354,1.254189,-261.522522,-1.337162,72.086418
4.7369,-0.0164,-0.02287,0.001434,0.000404,-0.000252,0.001169,-0.015666,-0.532444,0.000936,1.254189,-261.522522,-1.337162,72.086418
4.7579,-0.016381,-0.022646,0.001075,0.000416,-0.000245,0.001489,-0.015668,-0.532869,0.001434,1.178816,-261.522522,-1.261789,72.086418
4.7773,-0.016291,-0.022658,0.001572,0.000425,-0.000242,0.001619,-0.015808,-0.53268,0.001129,1.178816,-261.522522,-1.261789,72.086418
4.7971,-0.016382,-0.022183,0.000721,0.000431,-0.00024,0.001706,-0.015808,-0.53268,0.001129,1.178816,-261.522522,-1.261789,72.086418
4.8169,-0.016375,-0.022602,0.000519,0.000436,-0.00024,0.001764,-0.016005,-0.532189,0.00076,1.104336,-261.522325,-1.224882,72.086727
4.8372,-0.016095,-0.022917,0.002289,0.000451,-0.000244,0.002035,-0.016048,-0.532364,0.000663,1.104336,-261.522325,-1.224882,72.086727
4.8569,-0.016099,-0.022783,0.002074,0.000463,-0.000248,0.002226,-0.014915,-0.532924,0.002344,1.090029,-261.521955,-1.250872,72.087271
4.8767,-0.01591,-0.022859,0.001147,0.000439,-0.000249,0.001718,-0.01503,-0.532795,0.0021,1.090029,-261.521955,-1.250872,72.087271
4.897,-0.016403,-0.022712,-2e-05,0.000421,-0.000246,0.001346,-0.01503,-0.532795,0.0021,1.090029,-261.521955,-1.250872,72.087271
4.917,-0.016415,-0.022607,0.001431,0.000406,-0.000241,0.001076,-0.016396,-0.532721,6e-05,1.164587,-261.521539,-1.290704,72.08785
4.9375,-0.016543,-0.022578,0.002145,0.000423,-0.000238,0.001564,-0.016104,-0.532675,0.000628,1.164587,-261.521539,-1.290704,72.08785
4.9565,-0.016659,-0.022636,0.001575,0.000435,-0.000238,0.001908,-0.015448,-0.532578,0.002148,1.089617,-261.52152,-1.215734,72.087881
4.9768,-0.016149,-0.022456,0.000185,0.000439,-0.000248,0.001673,-0.015818,-0.53263,0.001628,1.089617,-261.52152,-1.215734,72.087881
4.9968,-0.016261,-0.022363,0.001276,0.000443,-0.000254,0.001502,-0.015818,-0.53263,0.001628,1.089617,-261.52152,-1.215734,72.087881
5.0172,-0.016086,-0.022741,0.002848,0.000447,-0.000258,0.001376,-0.015594,-0.532372,0.00135,1.132061,-261.521141,-1.270324,72.088425
5.0366,-0.016401,-0.022686,0.001599,0.000436,-0.000255,0.001144,-0.015205,-0.532521,0.001961,1.132061,-261.521141,-1.270324,72.088425
5.0568,-0.016809,-0.022956,0.002739,0.000427,-0.000252,0.000975,-0.01558,-0.532689,0.001618,1.057064,-261.521017,-1.195326,72.088625
5.0768,-0.016541,-0.022664,0.000137,0.00042,-0.000256,0.000596,-0.015427,-0.53293,0.002639,1.057064,-261.521017,-1.195326,72.088625
5.0968,-0.016305,-0.02269,0.003077,0.000415,-0.000257,0.000321,-0.015427,-0.53293,0.002639,1.057064,-261.521017,-1.195326,72.088625
5.117,-0.016267,-0.022815,0.000602,0.000411,-0.000256,0.000122,-0.014735,-0.532688,0.00308,0.982053,-261.520999,-1.120316,72.088656
5.1368,-0.016425,-0.022769,0.001704,0.000404,-0.000245,0.000197,-0.015233,-0.53274,0.002073,0.982053,-261.520999,-1.120316,72.088656
5.1567,-0.016465,-0.022629,0.00322,0.000398,-0.000236,0.000249,-0.015556,-0.532769,0.001704,0.907058,-261.520999,-1.04532,72.088656
5.1771,-0.016283,-0.022875,-0.000193,0.000388,-0.000237,-8.9e-05,-0.014889,-0.53264,0.003083,0.907058,-261.520999,-1.04532,72.088656
5.197,-0.016568,-0.022806,0.002287,0.00038,-0.000235,-0.000335,-0.014889,-0.53264,0.003083,0.907058,-261.520999,-1.04532,72.088656
5.2167,-0.016436,-0.022677,0.000753,0.000373,-0.000232,-0.000515,-0.015402,-0.532805,0.002287,0.83206,-261.520999,-0.970322,72.088656
5.2369,-0.015967,-0.022973,0.001741,0.000384,-0.000223,-7.8e-05,-0.015662,-0.532754,0.001673,0.83206,-261.520999,-0.970322,72.088656
5.2566,-0.016203,-0.022708,0.00132,0.000392,-0.000218,0.000228,-0.015079,-0.532972,0.001741,0.757068,-261.520999,-0.895331,72.088656
5.2767,-0.016549,-0.022327,0.001141,0.000393,-0.000209,0.000591,-0.015489,-0.532731,0.001358,0.757068,-261.520999,-0.895331,72.088656
5.2969,-0.016349,-0.02256,0.001795,0.000393,-0.000205,0.000846,-0.015489,-0.532731,0.001358,0.757068,-261.520999,-0.895331,72.088656
5.3167,-0.01645,-0.022784,0.00115,0.000392,-0.000203,0.001026,-0.015433,-0.532559,0.001795,0.682059,-261.520999,-0.820322,72.088656
5.3369,-0.016332,-0.022518,8.3e-05,0.000396,-0.000207,0.001069,-0.015608,-0.53265,0.001534,0.682059,-261.520999,-0.820322,72.088656
5.3565,-0.016046,-0.022331,0.002411,0.0004,-0.000212,0.001098,-0.016288,-0.532519,8.7e-05,0.757052,-261.520964,-0.895314,72.088712
5.377,-0.016283,-0.022461,0.002608,0.000391,-0.000217,0.000832,-0.014951,-0.532347,0.002199,0.757052,-261.520964,-0.895314,72.088712
5.3976,-0.016629,-0.022849,0.002103,0.000385,-0.000219,0.000641,-0.014951,-0.532347,0.002199,0.757052,-261.520964,-0.895314,72.088712
5.4171,-0.016578,-0.02261,0.001608,0.000379,-0.000219,0.000503,-0.01555,-0.53285,0.002117,0.83206,-261.520888,-0.970322,72.088833
5.437,-0.016644,-0.023071,0.003439,0.000386,-0.000222,0.000525,-0.015635,-0.532752,0.00191,0.83206,-261.520888,-0.970322,72.088833
5.4567,-0.016061,-0.022419,0.000749,0.000391,-0.000225,0.000539,-0.01489,-0.533068,0.003439,0.756855,-261.520888,-0.946805,72.088834
5.4766,-0.016591,-0.023138,0.002699,0.000398,-0.000219,0.000981,-0.015605,-0.532479,0.000999,0.756855,-261.520888,-0.946805,72.088834
5.4968,-0.016524,-0.022514,0.001489,0.000403,-0.000217,0.001293,-0.015605,-0.532479,0.000999,0.756855,-261.520888,-0.946805,72.088834
5.5164,-0.016331,-0.023189,0.003976,0.000407,-0.000217,0.001515,-0.015764,-0.532514,0.00149,0.682045,-261.520885,-0.955964,72.088838
5.5365,-0.016521,-0.022767,0.001629,0.000396,-0.000227,0.001023,-0.015175,-0.532784,0.002492,0.682045,-261.520885,-0.955964,72.088838
5.5569,-0.016763,-0.022732,0.000978,0.000388,-0.000231,0.000667,-0.015689,-0.532767,0.00163,0.757033,-261.520874,-1.030953,72.088854
5.5766,-0.016436,-0.022624,0.001864,0.000407,-0.000233,0.001051,-0.016206,-0.532736,0.001044,0.757033,-261.520874,-1.030953,72.088854
5.5965,-0.016156,-0.022784,0.001656,0.000421,-0.000236,0.001322,-0.016206,-0.532736,0.001044,0.757033,-261.520874,-1.030953,72.088854
5.6166,-0.01615,-0.02266,0.001063,0.000433,-0.00024,0.001514,-0.015308,-0.532785,0.001661,0.681982,-261.520846,-1.025069,72.088904
5.6364,-0.01614,-0.022809,0.001085,0.000422,-0.000236,0.001467,-0.015428,-0.532735,0.001422,0.681982,-261.520846,-1.025069,72.088904
5.6568,-0.0164,-0.022869,0.001308,0.000414,-0.000232,0.001433,-0.015585,-0.53281,0.001089,0.756929,-261.520813,-1.100015,72.088955
5.6765,-0.016586,-0.022619,0.001956,0.000412,-0.000231,0.00147,-0.015722,-0.532864,0.001291,0.756929,-261.520813,-1.100015,72.088955
5.6967,-0.016245,-0.022584,0.00213,0.000411,-0.000229,0.001495,-0.015722,-0.532864,0.001291,0.756929,-261.520813,-1.100015,72.088955
5.7166,-0.016137,-0.022802,0.001153,0.000409,-0.000229,0.001513,-0.015152,-0.532587,0.002148,0.832298,-261.520716,-1.175384,72.089104
5.7369,-0.016235,-0.022523,0.001335,0.000401,-0.000229,0.001323,-0.015318,-0.532677,0.001733,0.832298,-261.520716,-1.175384,72.089104
5.7568,-0.01642,-0.02269,0.001181,0.000395,-0.000229,0.001187,-0.015547,-0.532526,0.001357,0.907311,-261.520562,-1.229689,72.089338
5.7767,-0.016451,-0.022442,0.002161,0.000403,-0.000228,0.001338,-0.015794,-0.532675,0.001197,0.907311,-261.520562,-1.229689,72.089338
5.7968,-0.016099,-0.02273,0.001991,0.000408,-0.000229,0.001445,-0.015794,-0.532675,0.001197,0.907311,-261.520562,-1.229689,72.089338
5.8168,-0.016121,-0.022473,0.00184,0.000413,-0.00023,0.001522,-0.015068,-0.532738,0.002039,0.89823,-261.520319,-1.177766,72.089733
5.8368,-0.016679,-0.022681,0.001894,0.0004,-0.000231,0.001231,-0.015113,-0.53263,0.001962,0.89823,-261.520319,-1.177766,72.089733
5.8567,-0.016661,-0.022707,0.002239,0.00039,-0.000229,0.001021,-0.015704,-0.532685,0.001927,0.973301,-261.520091,-1.229045,72.090078
5.8767,-0.016641,-0.023128,0.002046,0.000393,-0.000237,0.000768,-0.015534,-0.532704,0.002213,0.973301,-261.520091,-1.229045,72.090078
5.8967,-0.016215,-0.022798,0.000823,0.000395,-0.000241,0.000586,-0.015534,-0.532704,0.002213,0.973301,-261.520091,-1.229045,72.090078
5.9166,-0.01657,-0.022789,0.001049,0.000398,-0.000243,0.000456,-0.015788,-0.532803,0.000846,0.89839,-261.519976,-1.154134,72.090273
5.9367,-0.016258,-0.022744,0.001109,0.000405,-0.000235,0.000956,-0.015888,-0.532797,0.000932,0.89839,-261.519976,-1.154134,72.090273
5.9566,-0.016541,-0.023055,0.00148,0.000411,-0.00023,0.00131,-0.015693,-0.532743,0.001109,0.823487,-261.519976,-1.079231,72.090273
5.9767,-0.016301,-0.022577,0.001847,0.000408,-0.000229,0.001307,-0.015779,-0.53303,0.001451,0.823487,-261.519976,-1.079231,72.090273
5.9967,-0.016528,-0.022777,0.003071,0.000406,-0.000228,0.001304,-0.015779,-0.53303,0.001451,0.823487,-261.519976,-1.079231,72.090273
6.0168,-0.016266,-0.02306,0.001427,0.000405,-0.000228,0.001301,-0.01495,-0.53278,0.003105,0.898849,-261.519797,-1.154593,72.090556
6.0368,-0.016514,-0.022722,0.000222,0.000393,-0.000232,0.000891,-0.015189,-0.532895,0.002424,0.898849,-261.519797,-1.154593,72.090556
6.0563,-0.016402,-0.022756,0.000557,0.000383,-0.000233,0.000594,-0.016389,-0.532729,0.000261,0.950714,-261.519536,-1.193703,72.090967
6.0764,-0.016404,-0.022904,0.001529,0.0004,-0.000229,0.001265,-0.01614,-0.532754,0.000533,0.950714,-261.519536,-1.193703,72.090967
6.0971,-0.016441,-0.022637,0.002788,0.000413,-0.000229,0.001742,-0.01614,-0.532754,0.000533,0.950714,-261.519536,-1.193703,72.090967
6.1168,-0.016384,-0.022512,0.00244,0.000422,-0.000231,0.002082,-0.015019,-0.532635,0.002788,0.875615,-261.519536,-1.118604,72.090968
6.1371,-0.016388,-0.022953,0.001844,0.00041,-0.000246,0.001391,-0.015069,-0.532585,0.002646,0.875615,-261.519536,-1.118604,72.090968
6.1563,-0.016341,-0.022995,0.001808,0.000401,-0.000252,0.000887,-0.015446,-0.532953,0.001851,0.950509,-261.51948,-1.193497,72.091046
6.1767,-0.016209,-0.02288,0.002004,0.000393,-0.000243,0.00085,-0.015421,-0.532991,0.001813,0.950509,-261.51948,-1.193497,72.091046
6.1968,-0.016205,-0.023047,0.001163,0.000387,-0.000236,0.000821,-0.015421,-0.532991,0.001813,0.950509,-261.51948,-1.193497,72.091046
6.2164,-0.01607,-0.022304,0.002089,0.000381,-0.00023,0.000799,-0.015609,-0.533048,0.001169,0.875482,-261.519449,-1.118471,72.091101
6.237,-0.016819,-0.023007,0.0007,0.000379,-0.000223,0.000902,-0.015364,-0.532746,0.001543,0.875482,-261.519449,-1.118471,72.091101
6.2565,-0.016214,-0.022847,0.001362,0.000378,-0.000218,0.000974,-0.016459,-0.533009,0.000707,0.800506,-261.519399,-1.082051,72.09119
6.2767,-0.016591,-0.022075,0.003138,0.00038,-0.000214,0.001138,-0.015604,-0.532861,0.001304,0.800506,-261.519399,-1.082051,72.09119
6.2966,-0.016308,-0.022711,0.002109,0.000381,-0.000211,0.001253,-0.015604,-0.532861,0.001304,0.800506,-261.519399,-1.082051,72.09119
6.3167,-0.016471,-0.022613,0.001546,0.000382,-0.00021,0.001334,-0.015218,-0.532719,0.002148,0.785033,-261.519196,-1.135926,72.091531
6.3365,-0.016431,-0.022798,0.002408,0.000382,-0.000217,0.00112,-0.015405,-0.532676,0.001907,0.785033,-261.519196,-1.135926,72.091531
6.3565,-0.016445,-0.0228,0.001711,0.000383,-0.000221,0.000965,-0.015197,-0.532799,0.002424,0.860033,-261.519078,-1.210925,72.091711
6.3765,-0.016657,-0.023032,0.003022,0.000384,-0.000222,0.000912,-0.015539,-0.5328,0.001775,0.860033,-261.519078,-1.210925,72.091711
6.3966,-0.016751,-0.022472,0.002601,0.000385,-0.000223,0.000874,-0.015539,-0.5328,0.001775,0.860033,-261.519078,-1.210925,72.091711
6.4166,-0.016541,-0.023063,0.004683,0.000386,-0.000223,0.000846,-0.015412,-0.532477,0.002633,0.78503,-261.518912,-1.135922,72.091991
6.4365,-0.016559,-0.022873,0.002466,0.000376,-0.000238,0.000217,-0.014897,-0.532715,0.003473,0.78503,-261.518912,-1.135922,72.091991
6.4566,-0.016396,-0.022883,0.002624,0.000369,-0.000244,-0.000244,-0.015292,-0.532877,0.002486,0.71006,-261.518772,-1.089541,72.092232
6.4766,-0.016779,-0.022796,0.00349,0.000363,-0.000235,-0.000287,-0.015077,-0.532881,0.002614,0.71006,-261.518772,-1.089541,72.092232
6.4965,-0.016473,-0.022577,0.001837,0.000358,-0.000227,-0.000319,-0.015077,-0.532881,0.002614,0.71006,-261.518772,-1.089541,72.092232
6.5165,-0.016368,-0.022825,0.002183,0.000353,-0.00022,-0.000343,-0.015536,-0.532576,0.001837,0.634855,-261.518772,-1.014335,72.092232
6.5364,-0.016324,-0.022971,0.000836,0.000361,-0.000214,-0.000106,-0.015415,-0.532682,0.001985,0.634855,-261.518772,-1.014335,72.092232
6.5563,-0.016516,-0.022813,0.001474,0.000368,-0.000212,6.1e-05,-0.015897,-0.532971,0.000836,0.55933,-261.518772,-0.938811,72.092232
6.5766,-0.01632,-0.022543,0.001936,0.000379,-0.000208,0.000438,-0.015776,-0.532826,0.001418,0.55933,-261.518772,-0.938811,72.092232
6.5965,-0.016662,-0.022782,0.001029,0.000387,-0.000207,0.000704,-0.015776,-0.532826,0.001418,0.55933,-261.518772,-0.938811,72.092232
6.6166,-0.016545,-0.022759,0.002446,0.000393,-0.000209,0.000892,-0.016138,-0.532782,0.001029,0.484993,-261.518772,-0.864474,72.092232
6.6365,-0.016434,-0.023067,0.002898,0.000399,-0.000214,0.000937,-0.015796,-0.532772,0.001605,0.484993,-261.518772,-0.864474,72.092232
6.6566,-0.016503,-0.022696,0.001723,0.000405,-0.000219,0.000969,-0.014953,-0.533066,0.002903,0.560018,-261.518731,-0.939498,72.092299
6.6768,-0.016094,-0.023043,0.000809,0.000404,-0.000223,0.000891,-0.015564,-0.532728,0.001829,0.560018,-261.518731,-0.939498,72.092299
6.6968,-0.016343,-0.022731,0.001469,0.000404,-0.000226,0.000835,-0.015564,-0.532728,0.001829,0.560018,-261.518731,-0.939498,72.092299
6.7168,-0.016535,-0.02277,0.003194,0.000403,-0.000228,0.000795,-0.015587,-0.532734,0.001483,0.634936,-261.51865,-1.014417,72.092432
6.7371,-0.016296,-0.022745,0.001885,0.000396,-0.000229,0.000618,-0.015309,-0.532748,0.002181,0.634936,-261.51865,-1.014417,72.092432
6.7566,-0.016616,-0.022974,0.002582,0.000391,-0.000229,0.000491,-0.015323,-0.53275,0.001908,0.568253,-261.518477,-1.056406,72.092729
6.7766,-0.016327,-0.022487,0.002372,0.000384,-0.000231,0.000267,-0.015301,-0.532952,0.002521,0.568253,-261.518477,-1.056406,72.092729
6.7968,-0.016406,-0.022857,0.001502,0.000379,-0.00023,0.000106,-0.015301,-0.532952,0.002521,0.568253,-261.518477,-1.056406,72.092729
6.8164,-0.016427,-0.022586,0.003569,0.000374,-0.000228,-9e-06,-0.015639,-0.532857,0.001503,0.493342,-261.518467,-0.981495,72.092746
6.8368,-0.016405,-0.022812,0.002906,0.000372,-0.000225,-2.6e-05,-0.015214,-0.532744,0.002353,0.493342,-261.518467,-0.981495,72.092746
6.8567,-0.016086,-0.022933,0.002899,0.00037,-0.000222,-3.8e-05,-0.014923,-0.53281,0.002906,0.418249,-261.518467,-0.906402,72.092746
6.8767,-0.016754,-0.023124,0.001492,0.000351,-0.000214,-0.000249,-0.014636,-0.53292,0.0029,0.418249,-261.518467,-0.906402,72.092746
6.8967,-0.016334,-0.023043,0.003688,0.000335,-0.000206,-0.000401,-0.014636,-0.53292,0.0029,0.418249,-261.518467,-0.906402,72.092746
6.9168,-0.01634,-0.02287,0.00255,0.000323,-0.000198,-0.000509,-0.014453,-0.53304,0.003688,0.343342,-261.518467,-0.831496,72.092746
6.9367,-0.016467,-0.023129,0.004376,0.000314,-0.000195,-0.000698,-0.014691,-0.53297,0.003227,0.343342,-261.518467,-0.831496,72.092746
6.957,-0.016632,-0.022646,0.002593,0.000306,-0.000191,-0.000833,-0.014235,-0.533125,0.004376,0.268341,-261.518467,-0.756495,72.092746
6.9768,-0.016395,-0.022852,0.003341,0.000319,-0.000194,-0.000762,-0.015214,-0.532687,0.002752,0.268341,-261.518467,-0.756495,72.092746
6.9969,-0.016132,-0.023047,2.1e-05,0.000329,-0.000196,-0.000712,-0.015214,-0.532687,0.002752,0.268341,-261.518467,-0.756495,72.092746
7.0166,-0.016003,-0.022727,0.001744,0.000337,-0.000198,-0.000677,-0.016121,-0.533047,2.1e-05,0.193338,-261.518467,-0.681491,72.092746
7.0367,-0.01618,-0.022987,0.000972,0.000352,-0.000186,0.000274,-0.01571,-0.532916,0.000723,0.193338,-261.518467,-0.681491,72.092746
7.0569,-0.016464,-0.022726,0.002375,0.000361,-0.000181,0.000948,-0.015684,-0.532986,0.000972,0.118341,-261.518467,-0.606495,72.092746
7.0768,-0.01629,-0.022767,0.003231,0.000361,-0.000192,0.000713,-0.015292,-0.532749,0.002248,0.118341,-261.518467,-0.606495,72.092746
7.0971,-0.016639,-0.022797,0.002058,0.000361,-0.0002,0.000543,-0.015292,-0.532749,0.002248,0.118341,-261.518467,-0.606495,72.092746
7.1164,-0.016365,-0.023036,0.003531,0.000362,-0.000205,0.000418,-0.015589,-0.532796,0.002058,0.193337,-261.518467,-0.681491,72.092746
7.1367,-0.016372,-0.023098,0.002193,0.000359,-0.00021,0.00017,-0.015169,-0.532893,0.002662,0.193337,-261.518467,-0.681491,72.092746
7.1563,-0.016022,-0.02308,0.003554,0.000356,-0.000212,-1e-05,-0.015248,-0.533099,0.002198,0.139543,-261.518404,-0.756619,72.092847
7.1765,-0.016094,-0.022975,0.00306,0.000329,-0.000206,-0.000398,-0.014302,-0.533079,0.003433,0.139543,-261.518404,-0.756619,72.092847
7.1966,-0.01659,-0.023155,0.000957,0.000306,-0.000198,-0.000678,-0.014302,-0.533079,0.003433,0.139543,-261.518404,-0.756619,72.092847
7.2168,-0.016583,-0.022888,0.002621,0.000288,-0.000188,-0.000881,-0.016101,-0.533155,0.000957,0.064665,-261.518404,-0.681741,72.092847
7.2367,-0.01668,-0.023003,0.003476,0.000311,-0.000182,-0.000318,-0.015753,-0.533045,0.001635,0.064665,-261.518404,-0.681741,72.092847
7.2567,-0.016517,-0.023011,0.002288,0.000329,-0.00018,7.6e-05,-0.014908,-0.533,0.003476,-0.010323,-261.518404,-0.606753,72.092847
7.2768,-0.016571,-0.022732,0.00232,0.000332,-0.000184,2.6e-05,-0.01531,-0.533008,0.002395,-0.010323,-261.518404,-0.606753,72.092847
7.2968,-0.016147,-0.022878,0.00243,0.000335,-0.000187,-1.1e-05,-0.01531,-0.533008,0.002395,-0.010323,-261.518404,-0.606753,72.092847
7.3169,-0.016359,-0.023156,0.002019,0.000337,-0.00019,-3.9e-05,-0.014906,-0.532877,0.002431,-0.085323,-261.51839,-0.602483,72.092862
7.3366,-0.016214,-0.023221,0.003984,0.000333,-0.000186,-6e-06,-0.01508,-0.532991,0.002262,-0.085323,-261.51839,-0.602483,72.092862
7.3565,-0.016453,-0.022908,0.002136,0.00033,-0.000183,1.6e-05,-0.014182,-0.533217,0.003984,-0.160369,-261.518387,-0.527438,72.092865
7.3765,-0.016823,-0.022562,0.002532,0.000333,-0.000185,1.7e-05,-0.015261,-0.532934,0.002297,-0.160369,-261.518387,-0.527438,72.092865
7.3966,-0.016166,-0.02327,0.002339,0.000335,-0.000187,1.7e-05,-0.015261,-0.532934,0.002297,-0.160369,-261.518387,-0.527438,72.092865
7.4166,-0.016559,-0.022713,0.003074,0.000337,-0.000188,1.7e-05,-0.01497,-0.53327,0.00234,-0.235417,-261.51836,-0.529152,72.092893
7.4365,-0.016346,-0.022726,0.001546,0.00033,-0.000188,-0.000116,-0.014978,-0.533044,0.002637,-0.235417,-261.51836,-0.529152,72.092893
7.4566,-0.016465,-0.022957,0.002636,0.000324,-0.000187,-0.00021,-0.015553,-0.532727,0.001546,-0.310327,-261.518304,-0.531771,72.09295
7.4768,-0.016736,-0.022684,0.002542,0.000326,-0.000188,-0.000241,-0.015159,-0.532935,0.002538,-0.310327,-261.518304,-0.531771,72.09295
7.4967,-0.016439,-0.022903,0.001749,0.000328,-0.000189,-0.000262,-0.015159,-0.532935,0.002538,-0.310327,-261.518304,-0.531771,72.09295
7.5166,-0.016329,-0.022624,0.001908,0.000329,-0.000189,-0.000278,-0.015546,-0.532902,0.001749,-0.385321,-261.518304,-0.456776,72.09295
7.5366,-0.016702,-0.023231,0.001499,0.00034,-0.000187,1.3e-05,-0.015469,-0.532788,0.001814,-0.385321,-261.518304,-0.456776,72.09295
7.5567,-0.016315,-0.023016,0.001986,0.000349,-0.000187,0.000219,-0.015937,-0.53323,0.001499,-0.460382,-261.518303,-0.381715,72.092951
7.5766,-0.016467,-0.022596,0.00246,0.000348,-0.000186,0.000308,-0.015359,-0.533034,0.001943,-0.460382,-261.518303,-0.381715,72.092951
7.5966,-0.016479,-0.023258,0.001801,0.000347,-0.000185,0.00037,-0.015359,-0.533034,0.001943,-0.460382,-261.518303,-0.381715,72.092951
7.6167,-0.015936,-0.02322,0.001327,0.000346,-0.000185,0.000414,-0.01556,-0.533258,0.001801,-0.385393,-261.5183,-0.456705,72.092955
7.6366,-0.016624,-0.022727,0.001837,0.000343,-0.00018,0.000595,-0.015437,-0.533242,0.001608,-0.385393,-261.5183,-0.456705,72.092955
7.6567,-0.0164,-0.022701,0.001821,0.00034,-0.000177,0.000724,-0.015688,-0.532726,0.001837,-0.3104,-261.5183,-0.531698,72.092955
7.6765,-0.016676,-0.023127,0.002599,0.00035,-0.000185,0.000718,-0.015491,-0.532702,0.001822,-0.3104,-261.5183,-0.531698,72.092955
7.6964,-0.016399,-0.023057,0.002099,0.000357,-0.000192,0.000714,-0.015491,-0.532702,0.001822,-0.3104,-261.5183,-0.531698,72.092955
7.717,-0.016551,-0.02286,0.003294,0.000363,-0.000198,0.000711,-0.015328,-0.533056,0.002099,-0.235429,-261.5183,-0.606668,72.092955
7.737,-0.016522,-0.023065,0.000446,0.000356,-0.000204,0.000402,-0.015142,-0.532975,0.002586,-0.235429,-261.5183,-0.606668,72.092955
7.7568,-0.016511,-0.02299,0.002197,0.000351,-0.000207,0.000179,-0.016295,-0.533065,0.000446,-0.160443,-261.5183,-0.681655,72.092955
7.7766,-0.016825,-0.022799,0.002692,0.000354,-0.000205,0.000236,-0.01547,-0.532995,0.002042,-0.160443,-261.5183,-0.681655,72.092955
7.7965,-0.016603,-0.022886,0.002784,0.000356,-0.000204,0.000277,-0.01547,-0.532995,0.002042,-0.160443,-261.5183,-0.681655,72.092955
7.8164,-0.016432,-0.022802,0.002934,0.000358,-0.000204,0.000305,-0.015171,-0.532891,0.00279,-0.235506,-261.518185,-0.733438,72.093105
7.8366,-0.01668,-0.022691,0.003339,0.000354,-0.000209,1.6e-05,-0.015074,-0.532854,0.002849,-0.235506,-261.518185,-0.733438,72.093105
7.8564,-0.016689,-0.023117,0.001105,0.000351,-0.000212,-0.000193,-0.014971,-0.532691,0.003344,-0.160561,-261.518114,-0.808382,72.093209
7.8765,-0.016598,-0.022483,0.003359,0.000367,-0.000207,0.000312,-0.01602,-0.533078,0.00131,-0.160561,-261.518114,-0.808382,72.093209
7.8971,-0.016525,-0.022769,0.002845,0.000379,-0.000206,0.000667,-0.01602,-0.533078,0.00131,-0.160561,-261.518114,-0.808382,72.093209
7.9167,-0.016836,-0.022704,0.001442,0.000388,-0.000207,0.000918,-0.015074,-0.532767,0.002845,-0.235568,-261.518114,-0.733375,72.093209
7.9368,-0.016389,-0.022787,0.002738,0.000389,-0.000217,0.000673,-0.015494,-0.532741,0.002271,-0.235568,-261.518114,-0.733375,72.093209
7.9568,-0.016332,-0.022478,0.002657,0.00039,-0.000224,0.000497,-0.014992,-0.532785,0.002738,-0.160467,-261.518114,-0.808477,72.093209
7.9768,-0.016626,-0.023049,0.001828,0.000383,-0.000228,0.000222,-0.014978,-0.532503,0.002664,-0.160467,-261.518114,-0.808477,72.093209
7.9968,-0.016231,-0.022708,0.002887,0.000378,-0.000229,2.3e-05,-0.014978,-0.532503,0.002664,-0.160467,-261.518114,-0.808477,72.093209
8.0166,-0.016316,-0.022764,0.001344,0.000374,-0.000228,-0.00012,-0.014757,-0.532707,0.002888,-0.08548,-261.518099,-0.883463,72.093233
8.0364,-0.016578,-0.022688,0.004997,0.000369,-0.000221,-6.5e-05,-0.015113,-0.53273,0.002259,-0.08548,-261.518099,-0.883463,72.093233
8.0567,-0.015937,-0.022819,0.0025,0.000365,-0.000215,-2.6e-05,-0.01403,-0.532681,0.004997,-0.160388,-261.518099,-0.808555,72.093233
8.0767,-0.016655,-0.022603,0.000903,0.000347,-0.000207,-0.000177,-0.014606,-0.532805,0.002723,-0.160388,-261.518099,-0.808555,72.093233
8.0968,-0.016584,-0.023064,0.001097,0.000333,-0.0002,-0.000285,-0.014606,-0.532805,0.002723,-0.160388,-261.518099,-0.808555,72.093233
8.1169,-0.016516,-0.022861,0.004081,0.000321,-0.000192,-0.000363,-0.016025,-0.533064,0.001097,-0.235388,-261.518097,-0.733556,72.093235
8.137,-0.01616,-0.022778,0.00135,0.000329,-0.000192,-0.000259,-0.015378,-0.53298,0.00231,-0.235388,-261.518097,-0.733556,72.093235
8.1571,-0.016237,-0.022885,0.002265,0.000335,-0.000192,-0.000185,-0.015472,-0.532778,0.00135,-0.310376,-261.518097,-0.658568,72.093235
8.1774,-0.016529,-0.022964,0.001456,0.000334,-0.000188,-8.1e-05,-0.015117,-0.532874,0.002183,-0.310376,-261.518097,-0.658568,72.093235
8.197,-0.01627,-0.022968,0.002056,0.000334,-0.000185,-8e-06,-0.015117,-0.532874,0.002183,-0.310376,-261.518097,-0.658568,72.093235
8.2168,-0.016541,-0.022849,4.5e-05,0.000333,-0.000183,4.4e-05,-0.015221,-0.532967,0.002056,-0.385396,-261.518096,-0.583548,72.093236
8.2371,-0.016259,-0.023003,0.001032,0.000347,-0.000181,0.000514,-0.015752,-0.532919,0.001234,-0.385396,-261.518096,-0.583548,72.093236
8.2567,-0.016274,-0.022609,0.003054,0.000358,-0.000182,0.000846,-0.015722,-0.533008,0.001033,-0.438105,-261.517957,-0.563147,72.093385
8.2769,-0.016065,-0.022719,0.003654,0.000349,-0.000194,0.000402,-0.014806,-0.532643,0.002875,-0.438105,-261.517957,-0.563147,72.093385
8.2969,-0.016375,-0.023023,0.001384,0.000343,-0.0002,8.2e-05,-0.014806,-0.532643,0.002875,-0.438105,-261.517957,-0.563147,72.093385
8.3168,-0.016498,-0.022819,0.001288,0.000338,-0.000203,-0.00015,-0.015669,-0.533023,0.001384,-0.363067,-261.517957,-0.638184,72.093385
8.3368,-0.016305,-0.022899,0.003573,0.000352,-0.000197,0.000328,-0.015739,-0.53294,0.001345,-0.363067,-261.517957,-0.638184,72.093385
8.3567,-0.01657,-0.022905,0.00332,0.000362,-0.000194,0.000664,-0.014482,-0.532896,0.003573,-0.438066,-261.517952,-0.563185,72.093389
8.3767,-0.016374,-0.02302,0.002961,0.000351,-0.000207,0.000124,-0.014842,-0.532901,0.003343,-0.438066,-261.517952,-0.563185,72.093389
8.3967,-0.016674,-0.022688,4.5e-05,0.000343,-0.000213,-0.00027,-0.014842,-0.532901,0.003343,-0.438066,-261.517952,-0.563185,72.093389
8.4167,-0.016298,-0.022576,0.002905,0.000337,-0.000214,-0.000556,-0.016651,-0.532688,4.5e-05,-0.36306,-261.517952,-0.638191,72.093389
8.4366,-0.016109,-0.022704,0.001333,0.000362,-0.000209,0.000113,-0.015902,-0.532642,0.001214,-0.36306,-261.517952,-0.638191,72.093389
8.4568,-0.016265,-0.022878,0.002336,0.000381,-0.000209,0.000584,-0.015429,-0.532703,0.001333,-0.438018,-261.517952,-0.563234,72.093389
8.4767,-0.01629,-0.022857,0.002484,0.000371,-0.000208,0.000451,-0.015105,-0.532861,0.002246,-0.438018,-261.517952,-0.563234,72.093389
8.4966,-0.016039,-0.022926,0.00343,0.000363,-0.000206,0.000354,-0.015105,-0.532861,0.002246,-0.438018,-261.517952,-0.563234,72.093389
8.5166,-0.016529,-0.022754,0.001798,0.000357,-0.000204,0.000283,-0.01429,-0.532923,0.00343,-0.363018,-261.517952,-0.638233,72.093389
8.5366,-0.016375,-0.023159,0.003056,0.000346,-0.000204,3.5e-05,-0.014832,-0.532853,0.002761,-0.363018,-261.517952,-0.638233,72.093389
8.5568,-0.016602,-0.022537,0.00244,0.000337,-0.000202,-0.000143,-0.014814,-0.533158,0.003057,-0.287924,-261.517927,-0.713328,72.093426
8.5766,-0.01652,-0.023037,0.001871,0.000348,-0.000207,-0.000173,-0.015309,-0.532591,0.002495,-0.287924,-261.517927,-0.713328,72.093426
8.5965,-0.01659,-0.022372,0.002103,0.000356,-0.000211,-0.000195,-0.015309,-0.532591,0.002495,-0.287924,-261.517927,-0.713328,72.093426
8.6166,-0.016664,-0.02297,0.001297,0.000363,-0.000215,-0.000212,-0.015518,-0.532371,0.002103,-0.362826,-261.517926,-0.638426,72.093427
8.6365,-0.016646,-0.022587,0.000703,0.000379,-0.000215,8e-05,-0.015716,-0.532616,0.001773,-0.362826,-261.517926,-0.638426,72.093427
8.6563,-0.016558,-0.022838,0.00377,0.00039,-0.000217,0.000285,-0.016287,-0.532587,0.000703,-0.437832,-261.517925,-0.563419,72.093427
8.6764,-0.016387,-0.023079,0.002239,0.000375,-0.000225,-0.000206,-0.014778,-0.532813,0.003505,-0.437832,-261.517925,-0.563419,72.093427
8.6966,-0.016408,-0.022832,0.00231,0.000363,-0.000228,-0.000563,-0.014778,-0.532813,0.003505,-0.437832,-261.517925,-0.563419,72.093427
8.7167,-0.016558,-0.022761,0.002504,0.000354,-0.000226,-0.000821,-0.015229,-0.532831,0.002311,-0.362735,-261.517913,-0.638517,72.093444
8.7364,-0.016504,-0.022774,0.001907,0.000356,-0.000217,-0.000611,-0.01525,-0.532802,0.00239,-0.362735,-261.517913,-0.638517,72.093444
8.7563,-0.01632,-0.022917,0.002351,0.000358,-0.000211,-0.000462,-0.015532,-0.532773,0.001907,-0.437641,-261.517913,-0.56361,72.093444
8.7767,-0.016529,-0.023282,0.001278,0.000355,-0.000203,-0.000327,-0.015156,-0.532904,0.002313,-0.437641,-261.517913,-0.56361,72.093444
8.7965,-0.016317,-0.022783,0.00289,0.000352,-0.000198,-0.000232,-0.015156,-0.532904,0.002313,-0.437641,-261.517913,-0.56361,72.093444
8.8165,-0.016076,-0.02263,0.001845,0.000349,-0.000195,-0.000165,-0.014843,-0.532781,0.00289,-0.512738,-261.517913,-0.488514,72.093444
8.8365,-0.016715,-0.022672,0.002564,0.000345,-0.000193,-0.000179,-0.014962,-0.532719,0.002465,-0.512738,-261.517913,-0.488514,72.093444
8.8563,-0.016388,-0.02338,0.002682,0.000342,-0.000192,-0.000189,-0.015405,-0.532672,0.002563,-0.587666,-261.517868,-0.413585,72.09348
8.8769,-0.016351,-0.023033,0.000881,0.000331,-0.000188,-0.000275,-0.015055,-0.533314,0.002671,-0.587666,-261.517868,-0.413585,72.09348
8.8969,-0.016287,-0.022968,0.002868,0.000323,-0.000184,-0.000336,-0.015055,-0.533314,0.002671,-0.587666,-261.517868,-0.413585,72.09348
8.9169,-0.016494,-0.022754,0.002504,0.000315,-0.000181,-0.000379,-0.014818,-0.53297,0.002865,-0.662633,-261.517796,-0.338618,72.093534
8.937,-0.016109,-0.022678,0.002062,0.000316,-0.000182,-0.000429,-0.014979,-0.532882,0.002719,-0.662633,-261.517796,-0.338618,72.093534
8.9563,-0.016678,-0.022703,0.001277,0.000316,-0.000182,-0.000464,-0.015058,-0.532677,0.002062,-0.737647,-261.517795,-0.263605,72.093535
8.9766,-0.016645,-0.022811,0.002936,0.000344,-0.000185,0.000106,-0.015945,-0.532701,0.001343,-0.737647,-261.517795,-0.263605,72.093535
8.9966,-0.016498,-0.023264,0.002081,0.000365,-0.00019,0.000508,-0.015945,-0.532701,0.001343,-0.737647,-261.517795,-0.263605,72.093535
9.0167,-0.016436,-0.0231,0.001966,0.000382,-0.000197,0.000791,-0.015437,-0.533263,0.002081,-0.812802,-261.517795,-0.18845,72.093535
9.0366,-0.016522,-0.023398,0.001736,0.000373,-0.000198,0.00068,-0.015435,-0.533197,0.002035,-0.812802,-261.517795,-0.18845,72.093535
9.0565,-0.016229,-0.023157,0.002631,0.000367,-0.000199,0.000599,-0.015637,-0.533397,0.001736,-0.737948,-261.517795,-0.263304,72.093535
9.0767,-0.01633,-0.022753,0.002646,0.00035,-0.000198,0.000336,-0.014954,-0.533177,0.002551,-0.737948,-261.517795,-0.263304,72.093535
9.0967,-0.016508,-0.022596,0.002308,0.000337,-0.000195,0.000147,-0.014954,-0.533177,0.002551,-0.737948,-261.517795,-0.263304,72.093535
9.1168,-0.016384,-0.022937,0.002602,0.000326,-0.000191,1.1e-05,-0.015331,-0.532594,0.002308,-0.66296,-261.517795,-0.338292,72.093535
9.137,-0.016414,-0.023177,0.001034,0.000333,-0.000195,-3.9e-05,-0.01522,-0.532732,0.002427,-0.66296,-261.517795,-0.338292,72.093535
9.1565,-0.016457,-0.022931,0.001648,0.000338,-0.000198,-7.5e-05,-0.015883,-0.533179,0.001034,-0.587971,-261.517742,-0.41328,72.093589
9.1766,-0.016515,-0.022906,0.003428,0.000349,-0.000194,0.000256,-0.015638,-0.532951,0.001598,-0.587971,-261.517742,-0.41328,72.093589
9.1971,-0.016582,-0.022841,0.000639,0.000357,-0.000193,0.000489,-0.015638,-0.532951,0.001598,-0.587971,-261.517742,-0.41328,72.093589
9.2166,-0.01635,-0.022702,0.002268,0.000363,-0.000194,0.000655,-0.016243,-0.532849,0.000636,-0.624859,-261.517578,-0.423595,72.093735
9.2371,-0.016643,-0.023052,0.001592,0.000374,-0.000197,0.00089,-0.015785,-0.532786,0.001345,-0.624859,-261.517578,-0.423595,72.093735
9.2567,-0.016633,-0.022945,0.000626,0.000382,-0.000201,0.001057,-0.01583,-0.533052,0.001592,-0.549126,-261.517578,-0.499328,72.093735
9.2767,-0.016247,-0.022953,0.002565,0.000397,-0.000206,0.001494,-0.016269,-0.532954,0.000714,-0.549126,-261.517578,-0.499328,72.093735
9.2967,-0.016263,-0.023031,0.002729,0.000409,-0.000212,0.001805,-0.016269,-0.532954,0.000714,-0.549126,-261.517578,-0.499328,72.093735
9.3169,-0.016699,-0.022826,0.00271,0.000418,-0.000218,0.002026,-0.014871,-0.533029,0.002729,-0.475002,-261.517578,-0.573453,72.093735
9.337,-0.016853,-0.023055,0.002311,0.000399,-0.000231,0.001322,-0.015052,-0.532946,0.002721,-0.475002,-261.517578,-0.573453,72.093735
9.357,-0.016287,-0.023024,0.003698,0.000385,-0.000236,0.000808,-0.015674,-0.533054,0.002311,-0.400094,-261.517578,-0.64836,72.093735
9.3767,-0.016211,-0.022888,0.002224,0.000359,-0.000239,0.00017,-0.014516,-0.533024,0.003573,-0.400094,-261.517578,-0.64836,72.093735
9.3967,-0.016406,-0.022783,0.003581,0.000339,-0.000235,-0.0003,-0.014516,-0.533024,0.003573,-0.400094,-261.517578,-0.64836,72.093735
9.4172,-0.016272,-0.022912,0.003352,0.000323,-0.000228,-0.000643,-0.01458,-0.53278,0.003581,-0.325103,-261.517578,-0.723351,72.093735
9.4369,-0.016311,-0.022582,0.001866,0.000315,-0.000221,-0.000867,-0.014573,-0.532834,0.003486,-0.325103,-261.517578,-0.723351,72.093735
9.4569,-0.016759,-0.02256,0.002333,0.000308,-0.000213,-0.001029,-0.01536,-0.532581,0.001866,-0.400521,-261.517578,-0.647934,72.093735
9.477,-0.015948,-0.023117,0.002143,0.000332,-0.00021,-0.000715,-0.015553,-0.53256,0.002297,-0.400521,-261.517578,-0.647934,72.093735
9.4972,-0.016351,-0.022888,0.002876,0.000351,-0.000211,-0.000495,-0.015553,-0.53256,0.002297,-0.400521,-261.517578,-0.647934,72.093735
9.5168,-0.016203,-0.023208,0.003324,0.000366,-0.000214,-0.000341,-0.014884,-0.532886,0.002876,-0.475472,-261.517578,-0.572982,72.093735
9.5368,-0.016535,-0.02292,0.002263,0.000349,-0.000208,-0.000515,-0.014732,-0.533015,0.003058,-0.475472,-261.517578,-0.572982,72.093735
9.5566,-0.016109,-0.023033,0.002132,0.000335,-0.000201,-0.000642,-0.01538,-0.532918,0.002263,-0.550114,-261.517578,-0.49834,72.093735
9.5767,-0.016668,-0.023204,0.00329,0.000331,-0.000188,-0.000383,-0.015054,-0.533022,0.002144,-0.550114,-261.517578,-0.49834,72.093735
9.5969,-0.016535,-0.022614,0.001796,0.000327,-0.00018,-0.000201,-0.015054,-0.533022,0.002144,-0.550114,-261.517578,-0.49834,72.093735
9.6168,-0.016416,-0.022912,0.002018,0.000323,-0.000174,-7.3e-05,-0.015619,-0.532613,0.001796,-0.625101,-261.517578,-0.423353,72.093735
9.6369,-0.016616,-0.022569,0.001754,0.000338,-0.000178,0.000128,-0.015525,-0.532734,0.001886,-0.625101,-261.517578,-0.423353,72.093735
9.6563,-0.016015,-0.022656,0.00117,0.000349,-0.000183,0.00027,-0.015711,-0.532574,0.001752,-0.593954,-261.517428,-0.380837,72.093869
9.6764,-0.016077,-0.022785,0.002719,0.000357,-0.000181,0.00068,-0.015445,-0.532648,0.001222,-0.593954,-261.517428,-0.380837,72.093869
9.6968,-0.01653,-0.023148,0.002235,0.000362,-0.000181,0.00097,-0.015445,-0.532648,0.001222,-0.593954,-261.517428,-0.380837,72.093869
9.7168,-0.016313,-0.022867,0.003279,0.000365,-0.000182,0.001175,-0.01539,-0.533146,0.002235,-0.518962,-261.517428,-0.455828,72.093869
9.7368,-0.016105,-0.022696,0.002082,0.000356,-0.000193,0.00072,-0.015092,-0.533034,0.00265,-0.518962,-261.517428,-0.455828,72.093869
9.7566,-0.016369,-0.023045,0.003522,0.000348,-0.000199,0.00039,-0.015043,-0.532695,0.002082,-0.443961,-261.517428,-0.530829,72.093869
9.7764,-0.016142,-0.022966,0.002111,0.000332,-0.000204,-9.3e-05,-0.014615,-0.533011,0.003393,-0.443961,-261.517428,-0.530829,72.093869
9.7967,-0.016288,-0.022923,0.002511,0.000319,-0.000204,-0.000444,-0.014615,-0.533011,0.003393,-0.443961,-261.517428,-0.530829,72.093869
9.8164,-0.016338,-0.023132,0.002468,0.000309,-0.000201,-0.000698,-0.015007,-0.532921,0.002511,-0.368967,-261.517428,-0.605823,72.093869
9.8367,-0.016352,-0.022923,0.001274,0.00031,-0.000192,-0.000563,-0.015037,-0.533007,0.002494,-0.368967,-261.517428,-0.605823,72.093869
9.8564,-0.016077,-0.023084,0.002543,0.00031,-0.000185,-0.000469,-0.015702,-0.532923,0.001274,-0.443968,-261.517428,-0.530822,72.093869
9.8764,-0.016362,-0.022957,0.0019,0.000304,-0.000176,-0.000377,-0.014865,-0.533067,0.002426,-0.443968,-261.517428,-0.530822,72.093869
9.8966,-0.016245,-0.023053,0.002526,0.000299,-0.00017,-0.000312,-0.014865,-0.533067,0.002426,-0.443968,-261.517428,-0.530822,72.093869
9.9165,-0.016462,-0.022923,0.001078,0.000295,-0.000165,-0.000266,-0.014957,-0.533051,0.002526,-0.518963,-261.517428,-0.455828,72.093869
9.9366,-0.016291,-0.023008,0.001853,0.000305,-0.000163,-3.1e-05,-0.015346,-0.532999,0.001936,-0.518963,-261.517428,-0.455828,72.093869
9.9564,-0.01653,-0.022828,0.002482,0.000313,-0.000164,0.000135,-0.015346,-0.533007,0.001853,-0.593966,-261.517427,-0.380824,72.09387
9.9767,-0.016541,-0.02298,0.00218,0.000321,-0.000173,5e-05,-0.015272,-0.532842,0.002427,-0.593966,-261.517427,-0.380824,72.09387
9.9969,-0.015942,-0.022932,0.001734,0.000328,-0.00018,-1.2e-05,-0.015272,-0.532842,0.002427,-0.593966,-261.517427,-0.380824,72.09387
10.0163,-0.016547,-0.022525,0.001297,0.000333,-0.000185,-5.6e-05,-0.015057,-0.532932,0.001734,-0.5189,-261.517422,-0.455891,72.093876
10.0367,-0.016551,-0.022653,0.002197,0.000341,-0.000181,0.000287,-0.015389,-0.532769,0.001559,-0.5189,-261.517422,-0.455891,72.093876
10.0568,-0.016572,-0.023018,0.003827,0.000347,-0.00018,0.00053,-0.015421,-0.532657,0.002195,-0.582268,-261.517274,-0.426594,72.094012
10.0764,-0.016343,-0.023033,0.002151,0.000333,-0.000196,-7.5e-05,-0.014691,-0.532983,0.003683,-0.582268,-261.517274,-0.426594,72.094012
10.0965,-0.01632,-0.022578,0.00131,0.000323,-0.000203,-0.000518,-0.014691,-0.532983,0.003683,-0.582268,-261.517274,-0.426594,72.094012
10.1166,-0.015994,-0.023177,0.003364,0.000315,-0.000205,-0.000841,-0.015652,-0.532577,0.00131,-0.507229,-261.517274,-0.501632,72.094012
10.1368,-0.016274,-0.022872,0.001836,0.00032,-0.000193,-0.000517,-0.015099,-0.532818,0.002138,-0.507229,-261.517274,-0.501632,72.094012
10.1566,-0.015933,-0.022763,0.002329,0.000323,-0.000185,-0.00029,-0.015338,-0.532871,0.001836,-0.582183,-261.517274,-0.426678,72.094012
10.177,-0.016303,-0.022977,0.002831,0.000318,-0.000178,-0.000191,-0.014798,-0.532772,0.002285,-0.582183,-261.517274,-0.426678,72.094012
10.1965,-0.016146,-0.022826,0.001585,0.000313,-0.000172,-0.000123,-0.014798,-0.532772,0.002285,-0.582183,-261.517274,-0.426678,72.094012
10.2166,-0.016375,-0.02325,0.002816,0.00031,-0.000169,-7.5e-05,-0.015337,-0.532826,0.001585,-0.657188,-261.517269,-0.351673,72.094015
10.2365,-0.016284,-0.023121,0.001875,0.000313,-0.000167,4.1e-05,-0.015176,-0.532997,0.002084,-0.657188,-261.517269,-0.351673,72.094015
10.2567,-0.016424,-0.022933,0.001465,0.000315,-0.000167,0.000122,-0.015318,-0.533125,0.001873,-0.605949,-261.517127,-0.377897,72.094141
10.2766,-0.016112,-0.022541,0.001552,0.000329,-0.000168,0.00044,-0.015643,-0.532951,0.001503,-0.605949,-261.517127,-0.377897,72.094141
10.2967,-0.01668,-0.02304,0.003575,0.00034,-0.000172,0.000664,-0.015643,-0.532951,0.001503,-0.605949,-261.517127,-0.377897,72.094141
10.317,-0.01609,-0.023037,0.002032,0.000348,-0.000176,0.000823,-0.014856,-0.533037,0.003575,-0.530958,-261.517119,-0.452888,72.09415
10.3372,-0.016472,-0.023216,0.000539,0.000338,-0.000187,0.000361,-0.014936,-0.533037,0.002948,-0.530958,-261.517119,-0.452888,72.09415
10.3567,-0.015972,-0.02303,0.002694,0.000331,-0.000193,2.6e-05,-0.016197,-0.533216,0.000539,-0.455956,-261.517119,-0.52789,72.09415
10.3768,-0.016259,-0.022857,0.000847,0.000317,-0.000185,-5.7e-05,-0.014735,-0.533044,0.00251,-0.455956,-261.517119,-0.52789,72.09415
10.397,-0.016492,-0.022723,0.001589,0.000307,-0.000179,-0.000118,-0.014735,-0.533044,0.00251,-0.455956,-261.517119,-0.52789,72.09415
10.4164,-0.016277,-0.02285,0.00169,0.000298,-0.000173,-0.000162,-0.015668,-0.53273,0.00159,-0.490941,-261.516976,-0.56358,72.0943
10.4365,-0.016546,-0.022922,0.00118,0.000317,-0.000173,0.000181,-0.015564,-0.532779,0.001631,-0.490941,-261.516976,-0.56358,72.0943
10.4568,-0.016191,-0.022693,0.001609,0.000332,-0.000176,0.000423,-0.015944,-0.532922,0.00118,-0.565818,-261.516964,-0.488703,72.094308
10.4767,-0.016324,-0.022977,0.004155,0.000341,-0.000178,0.000621,-0.015423,-0.532713,0.00157,-0.565818,-261.516964,-0.488703,72.094308
10.4967,-0.016535,-0.023219,0.002174,0.000348,-0.000181,0.000761,-0.015423,-0.532713,0.00157,-0.565818,-261.516964,-0.488703,72.094308
10.5168,-0.016422,-0.022994,0.002175,0.000353,-0.000184,0.00086,-0.015426,-0.533218,0.002174,-0.490812,-261.516964,-0.563709,72.094308
10.5365,-0.016251,-0.022664,0.001725,0.00035,-0.00019,0.000668,-0.01538,-0.533126,0.002174,-0.490812,-261.516964,-0.563709,72.094308
10.5566,-0.016007,-0.023138,0.00145,0.000347,-0.000193,0.000531,-0.015371,-0.532664,0.001725,-0.415756,-261.516964,-0.638765,72.094308
10.5766,-0.016723,-0.022554,0.002532,0.000342,-0.000184,0.00074,-0.015277,-0.533094,0.001475,-0.415756,-261.516964,-0.638765,72.094308
10.5965,-0.016143,-0.022832,0.001406,0.000337,-0.000178,0.000889,-0.015277,-0.533094,0.001475,-0.415756,-261.516964,-0.638765,72.094308
10.6167,-0.016273,-0.023244,0.002679,0.000333,-0.000174,0.000994,-0.015426,-0.532832,0.001406,-0.340815,-261.516964,-0.713707,72.094308
10.6365,-0.016548,-0.022846,0.001417,0.000331,-0.000178,0.000867,-0.015215,-0.532999,0.001925,-0.340815,-261.516964,-0.713707,72.094308
10.6564,-0.016276,-0.023423,0.001001,0.000328,-0.00018,0.000776,-0.015825,-0.532846,0.001417,-0.265816,-261.516964,-0.788706,72.094308
10.6765,-0.016398,-0.022733,0.001738,0.000334,-0.000175,0.001127,-0.015771,-0.533373,0.001037,-0.265816,-261.516964,-0.788706,72.094308
10.6965,-0.016131,-0.023002,0.003826,0.000337,-0.000173,0.001376,-0.015771,-0.533373,0.001037,-0.265816,-261.516964,-0.788706,72.094308
10.7165,-0.016078,-0.022882,0.003985,0.00034,-0.000173,0.001553,-0.014179,-0.532998,0.003826,-0.190695,-261.516964,-0.863827,72.094308
10.7364,-0.01617,-0.022845,0.001053,0.000311,-0.000193,0.000646,-0.014125,-0.532949,0.00389,-0.190695,-261.516964,-0.863827,72.094308
10.7568,-0.016133,-0.022782,0.003542,0.000288,-0.000201,-3.1e-05,-0.015632,-0.532845,0.001053,-0.115816,-261.516964,-0.938706,72.094308
10.7767,-0.016137,-0.022677,0.002432,0.000283,-0.000199,-0.000364,-0.014449,-0.532785,0.003309,-0.115816,-261.516964,-0.938706,72.094308
10.7967,-0.016248,-0.022922,0.00069,0.000278,-0.000195,-0.000607,-0.014449,-0.532785,0.003309,-0.115816,-261.516964,-0.938706,72.094308
10.8165,-0.016354,-0.02322,0.000219,0.000274,-0.000189,-0.000784,-0.015896,-0.532922,0.00069,-0.190818,-261.516964,-0.863703,72.094308
10.8369,-0.016254,-0.022726,0.003452,0.000308,-0.000179,0.000324,-0.016036,-0.533043,0.000499,-0.190818,-261.516964,-0.863703,72.094308
10.8566,-0.016039,-0.022883,0.002094,0.000331,-0.000177,0.001111,-0.014493,-0.532723,0.003452,-0.265818,-261.516964,-0.788703,72.094308
10.8769,-0.016357,-0.022749,0.00362,0.000325,-0.000181,0.000853,-0.014929,-0.532868,0.002214,-0.265818,-261.516964,-0.788703,72.094308
10.897,-0.01621,-0.02302,0.004221,0.00032,-0.000182,0.000664,-0.014929,-0.532868,0.002214,-0.265818,-261.516964,-0.788703,72.094308
10.9167,-0.016348,-0.022932,0.002123,0.000316,-0.000182,0.000525,-0.014057,-0.533015,0.004221,-0.190727,-261.516964,-0.863795,72.094308
10.937,-0.016031,-0.022915,0.0033,0.000304,-0.00019,2e-05,-0.014548,-0.532981,0.003368,-0.190727,-261.516964,-0.863795,72.094308
10.9564,-0.016165,-0.022818,0.003303,0.000295,-0.000191,-0.000349,-0.014348,-0.532912,0.0033,-0.115823,-261.516964,-0.938698,72.094309
10.9765,-0.016158,-0.023017,-3e-06,0.000288,-0.000189,-0.000597,-0.014469,-0.532824,0.003303,-0.115823,-261.516964,-0.938698,72.094309
10.9965,-0.016477,-0.023283,0.002512,0.000282,-0.000185,-0.000777,-0.014469,-0.532824,0.003303,-0.115823,-261.516964,-0.938698,72.094309
11.0168,-0.016417,-0.023245,0.001881,0.000278,-0.00018,-0.000908,-0.015196,-0.533281,0.002512,-0.190915,-261.516964,-0.863606,72.094309
11.0367,-0.016642,-0.023121,0.002904,0.000287,-0.000171,-0.000614,-0.015302,-0.533266,0.002257,-0.190915,-261.516964,-0.863606,72.094309
11.0569,-0.016462,-0.022772,0.002458,0.000293,-0.000166,-0.000409,-0.015161,-0.533119,0.002904,-0.265824,-261.516964,-0.788697,72.094309
11.0765,-0.016548,-0.022835,0.002078,0.000305,-0.000171,-0.000361,-0.015204,-0.532802,0.002498,-0.265824,-261.516964,-0.788697,72.094309
11.0964,-0.016335,-0.022564,0.001781,0.000314,-0.000175,-0.000328,-0.015204,-0.532802,0.002498,-0.265824,-261.516964,-0.788697,72.094309
11.1166,-0.016336,-0.022918,0.001906,0.000322,-0.000179,-0.000306,-0.015426,-0.532564,0.001781,-0.340832,-261.516964,-0.713689,72.094309
11.1368,-0.016119,-0.022981,0.000131,0.000334,-0.000178,-1.1e-05,-0.015401,-0.532707,0.001831,-0.340832,-261.516964,-0.713689,72.094309
11.1566,-0.016583,-0.023306,0.000902,0.000344,-0.00018,0.000196,-0.016052,-0.532981,0.000131,-0.41582,-261.516964,-0.638701,72.094309
11.1771,-0.016514,-0.022981,0.001827,0.000358,-0.000179,0.000828,-0.016117,-0.533277,0.000832,-0.41582,-261.516964,-0.638701,72.094309
11.1967,-0.016573,-0.023024,0.001615,0.000368,-0.000181,0.001277,-0.016117,-0.533277,0.000832,-0.41582,-261.516964,-0.638701,72.094309
11.2167,-0.016521,-0.022585,0.001645,0.000376,-0.000184,0.001593,-0.015744,-0.533027,0.001617,-0.340813,-261.516915,-0.713709,72.094372
11.2367,-0.01586,-0.023109,0.00258,0.000381,-0.000197,0.001433,-0.015718,-0.532849,0.001629,-0.340813,-261.516915,-0.713709,72.094372
11.2563,-0.01594,-0.022622,0.001779,0.000386,-0.000206,0.001316,-0.014544,-0.533107,0.00258,-0.265803,-261.516915,-0.788719,72.094372
11.2768,-0.016028,-0.023093,0.001742,0.000374,-0.000205,0.001133,-0.014988,-0.532665,0.001851,-0.265803,-261.516915,-0.788719,72.094372
11.2968,-0.016241,-0.022949,-0.000422,0.000364,-0.000203,0.001002,-0.014988,-0.532665,0.001851,-0.265803,-261.516915,-0.788719,72.094372
11.3167,-0.01631,-0.023012,0.002753,0.000356,-0.000201,0.000907,-0.016456,-0.532949,-0.000422,-0.190808,-261.516915,-0.863714,72.094372
11.3371,-0.016173,-0.022779,0.002468,0.000365,-0.000198,0.001314,-0.015832,-0.532974,0.000856,-0.190808,-261.516915,-0.863714,72.094372
11.3563,-0.01636,-0.022899,0.002727,0.000371,-0.000198,0.001603,-0.014914,-0.532777,0.002468,-0.115819,-261.516915,-0.938703,72.094372
11.3766,-0.016111,-0.023056,0.001794,0.00036,-0.00021,0.001016,-0.014964,-0.532886,0.002704,-0.115819,-261.516915,-0.938703,72.094372
11.3964,-0.0162,-0.022957,0.002456,0.000352,-0.000215,0.000589,-0.014964,-0.532886,0.002704,-0.115819,-261.516915,-0.938703,72.094372
11.4168,-0.016289,-0.022787,0.000858,0.000344,-0.000216,0.000279,-0.014948,-0.532955,0.002456,-0.040775,-261.516915,-1.013746,72.094372
11.4364,-0.016179,-0.022432,0.003216,0.000346,-0.000208,0.000414,-0.015313,-0.532887,0.001809,-0.040775,-261.516915,-1.013746,72.094372
11.4566,-0.016336,-0.022979,0.000974,0.000347,-0.000203,0.000509,-0.014533,-0.532433,0.003221,-0.115739,-261.516839,-0.938783,72.094486
11.4768,-0.016089,-0.023232,0.003102,0.000357,-0.000199,0.000874,-0.015724,-0.532931,0.001172,-0.115739,-261.516839,-0.938783,72.094486
11.4966,-0.016375,-0.023282,0.002333,0.000365,-0.000197,0.001132,-0.015724,-0.532931,0.001172,-0.115739,-261.516839,-0.938783,72.094486
11.5165,-0.016112,-0.022994,0.002473,0.00037,-0.000197,0.001315,-0.015184,-0.533281,0.002334,-0.040681,-261.516831,-0.976343,72.0945
11.5368,-0.016003,-0.023029,0.001543,0.000355,-0.000201,0.000915,-0.015048,-0.533164,0.00239,-0.040681,-261.516831,-0.976343,72.0945
11.5563,-0.016603,-0.022682,0.002565,0.000343,-0.000201,0.000626,-0.015216,-0.533028,0.001543,0.034258,-261.516831,-1.051282,72.0945
11.5765,-0.016151,-0.023019,0.000511,0.000348,-0.000209,0.000385,-0.015288,-0.532711,0.002473,0.034258,-261.516831,-1.051282,72.0945
11.5969,-0.016287,-0.023129,0.00243,0.000353,-0.000215,0.000212,-0.015288,-0.532711,0.002473,0.034258,-261.516831,-1.051282,72.0945
11.6166,-0.016312,-0.022725,0.003465,0.000357,-0.000218,8.7e-05,-0.015047,-0.533128,0.002431,0.109261,-261.516826,-1.038987,72.094509
11.6366,-0.01629,-0.023117,0.002678,0.000345,-0.000214,-0.000141,-0.014842,-0.532962,0.002854,0.109261,-261.516826,-1.038987,72.094509
11.6565,-0.016204,-0.022795,0.003086,0.000336,-0.000209,-0.000305,-0.014925,-0.533116,0.002678,0.034264,-261.516826,-0.963991,72.094509
11.6764,-0.016052,-0.023142,0.001743,0.000326,-0.000204,-0.000491,-0.014657,-0.532822,0.003049,0.034264,-261.516826,-0.963991,72.094509
11.6966,-0.016167,-0.022934,0.003251,0.000318,-0.000199,-0.000624,-0.014657,-0.532822,0.003049,0.034264,-261.516826,-0.963991,72.094509
11.7163,-0.016482,-0.022934,0.002694,0.000311,-0.000194,-0.00072,-0.014509,-0.532931,0.003251,-0.040739,-261.516826,-0.888987,72.094509
11.7364,-0.016073,-0.02322,0.002851,0.000306,-0.000189,-0.00078,-0.014752,-0.532932,0.003025,-0.040739,-261.516826,-0.888987,72.094509
11.7564,-0.016314,-0.022769,0.002841,0.000302,-0.000184,-0.000823,-0.014619,-0.533218,0.002851,-0.115729,-261.516826,-0.813997,72.094509
11.7765,-0.016253,-0.022812,0.002463,0.000303,-0.000181,-0.000788,-0.014843,-0.532806,0.002842,-0.115729,-261.516826,-0.813997,72.094509
11.7966,-0.016122,-0.022854,0.002379,0.000303,-0.000178,-0.000763,-0.014843,-0.532806,0.002842,-0.115729,-261.516826,-0.813997,72.094509
11.8163,-0.01641,-0.022944,0.002192,0.000303,-0.000177,-0.000746,-0.014909,-0.532852,0.002379,-0.190827,-261.516826,-0.7389,72.094509
11.8364,-0.016357,-0.023194,0.003679,0.000308,-0.000171,-0.000525,-0.015068,-0.53289,0.002302,-0.190827,-261.516826,-0.7389,72.094509
11.8565,-0.015905,-0.023172,0.003642,0.000311,-0.000168,-0.000369,-0.014481,-0.533191,0.003679,-0.265991,-261.516826,-0.663736,72.094509
11.8765,-0.016222,-0.023032,0.002898,0.000284,-0.000165,-0.000726,-0.014086,-0.533171,0.003645,-0.265991,-261.516826,-0.663736,72.094509
11.8965,-0.016337,-0.02298,0.003523,0.000262,-0.000159,-0.000984,-0.014086,-0.533171,0.003645,-0.265991,-261.516826,-0.663736,72.094509
11.9166,-0.016712,-0.022972,0.001841,0.000244,-0.000151,-0.00117,-0.01454,-0.532977,0.003523,-0.340734,-261.516826,-0.588993,72.094509
11.9364,-0.016257,-0.023373,0.001186,0.000258,-0.000152,-0.001031,-0.01504,-0.532975,0.002841,-0.340734,-261.516826,-0.588993,72.094509
11.9563,-0.016457,-0.023116,0.002248,0.000269,-0.000153,-0.000933,-0.015652,-0.533373,0.001186,-0.415732,-261.516826,-0.513994,72.094509
11.9765,-0.016503,-0.0227,0.000357,0.000282,-0.00015,-0.000591,-0.015341,-0.533138,0.002153,-0.415732,-261.516826,-0.513994,72.094509
11.9964,-0.016256,-0.022948,0.00128,0.000292,-0.00015,-0.000351,-0.015341,-0.533138,0.002153,-0.415732,-261.516826,-0.513994,72.094509
12.0165,-0.016108,-0.022939,0.002421,0.0003,-0.000152,-0.000182,-0.015603,-0.532948,0.00128,-0.490736,-261.516826,-0.438991,72.094509
12.0364,-0.016175,-0.023002,0.001412,0.000308,-0.000151,0.000115,-0.015305,-0.532943,0.001747,-0.490736,-261.516826,-0.438991,72.094509
12.0571,-0.016291,-0.022701,0.002697,0.000314,-0.000152,0.000324,-0.015454,-0.533002,0.001411,-0.565739,-261.516811,-0.363987,72.09452
12.0769,-0.016096,-0.023123,0.002193,0.000316,-0.000163,0.000128,-0.014965,-0.532727,0.00258,-0.565739,-261.516811,-0.363987,72.09452
12.0968,-0.016265,-0.022835,0.001261,0.000317,-0.00017,-1.3e-05,-0.014965,-0.532727,0.00258,-0.565739,-261.516811,-0.363987,72.09452
12.1168,-0.016091,-0.022886,0.002188,0.000318,-0.000176,-0.000114,-0.015622,-0.532835,0.001261,-0.49074,-261.516811,-0.438986,72.09452
12.1371,-0.016177,-0.023095,0.000543,0.000326,-0.000172,0.000211,-0.01536,-0.532855,0.001637,-0.49074,-261.516811,-0.438986,72.09452
12.1564,-0.016407,-0.022782,0.002701,0.000332,-0.000171,0.00044,-0.015895,-0.533098,0.000542,-0.565725,-261.516728,-0.364002,72.094589
12.1765,-0.015947,-0.022729,0.001496,0.000332,-0.00018,0.000238,-0.015107,-0.532809,0.002507,-0.565725,-261.516728,-0.364002,72.094589
12.1966,-0.016326,-0.023009,0.001952,0.000333,-0.000186,9.2e-05,-0.015107,-0.532809,0.002507,-0.565725,-261.516728,-0.364002,72.094589
12.2167,-0.016219,-0.023078,0.002376,0.000334,-0.000189,-1.2e-05,-0.015331,-0.533008,0.001952,-0.490706,-261.516728,-0.439021,72.094589
12.2365,-0.01602,-0.022627,0.002004,0.000332,-0.000185,6.7e-05,-0.0152,-0.533036,0.002123,-0.490706,-261.516728,-0.439021,72.094589
12.2566,-0.016112,-0.022834,0.003111,0.000331,-0.000183,0.000123,-0.014988,-0.532631,0.002004,-0.533205,-261.516586,-0.49933,72.094728
12.2765,-0.016222,-0.022881,0.002715,0.000318,-0.000184,-0.000171,-0.014566,-0.532814,0.003013,-0.533205,-261.516586,-0.49933,72.094728
12.2965,-0.01628,-0.023332,0.001801,0.000308,-0.000183,-0.000382,-0.014566,-0.532814,0.003013,-0.533205,-261.516586,-0.49933,72.094728
12.3167,-0.016181,-0.022855,0.001501,0.0003,-0.000181,-0.000534,-0.015357,-0.533334,0.001802,-0.458152,-261.516544,-0.574383,72.094779
12.3369,-0.016058,-0.023096,0.001861,0.000309,-0.000171,-9.9e-05,-0.015382,-0.533125,0.001671,-0.458152,-261.516544,-0.574383,72.094779
12.3568,-0.016332,-0.022916,0.001343,0.000314,-0.000166,0.000208,-0.015108,-0.533095,0.001861,-0.533949,-261.516544,-0.498585,72.094779
12.377,-0.016319,-0.022924,0.002346,0.000327,-0.000166,0.000558,-0.015601,-0.532931,0.001386,-0.533949,-261.516544,-0.498585,72.094779
12.397,-0.016196,-0.023046,0.002234,0.000337,-0.000168,0.000805,-0.015601,-0.532931,0.001386,-0.533949,-261.516544,-0.498585,72.094779
12.4167,-0.016163,-0.022937,0.000299,0.000345,-0.000172,0.000979,-0.015057,-0.533045,0.002234,-0.459646,-261.516541,-0.572889,72.094783
12.4368,-0.015928,-0.022925,0.003631,0.000345,-0.000173,0.001072,-0.015443,-0.533002,0.00145,-0.459646,-261.516541,-0.572889,72.094783
12.4567,-0.016076,-0.022993,0.002635,0.000346,-0.000175,0.001137,-0.014076,-0.532921,0.003631,-0.384797,-261.516541,-0.647738,72.094783
12.4768,-0.016117,-0.023146,0.001771,0.000329,-0.000181,0.000667,-0.014677,-0.532985,0.002719,-0.384797,-261.516541,-0.647738,72.094783
12.4968,-0.016264,-0.022709,0.002462,0.000315,-0.000183,0.000327,-0.014677,-0.532985,0.002719,-0.384797,-261.516541,-0.647738,72.094783
12.5167,-0.016345,-0.023224,0.002893,0.000305,-0.000182,8.2e-05,-0.015009,-0.532707,0.002462,-0.309653,-261.516541,-0.722881,72.094783
12.537,-0.016044,-0.023164,0.001266,0.000305,-0.000183,-6.7e-05,-0.014951,-0.53292,0.00264,-0.309653,-261.516541,-0.722881,72.094783
12.5564,-0.015901,-0.023031,0.001654,0.000305,-0.000184,-0.000174,-0.015391,-0.533168,0.001268,-0.384632,-261.516437,-0.64979,72.094903
12.5766,-0.01631,-0.022905,0.003035,0.000305,-0.000171,0.000177,-0.015086,-0.533043,0.00162,-0.384632,-261.516437,-0.64979,72.094903
12.5969,-0.015961,-0.022886,0.003222,0.000304,-0.000162,0.000426,-0.015086,-0.533043,0.00162,-0.384632,-261.516437,-0.64979,72.094903
12.6167,-0.016253,-0.022933,0.001317,0.000303,-0.000157,0.000601,-0.014318,-0.532884,0.003222,-0.459599,-261.516436,-0.574823,72.094904
12.6371,-0.0163,-0.023023,0.000629,0.000299,-0.000162,0.000383,-0.014845,-0.532904,0.002428,-0.459599,-261.516436,-0.574823,72.094904
12.6564,-0.016478,-0.023306,0.003225,0.000296,-0.000165,0.000227,-0.01598,-0.533023,0.000629,-0.384302,-261.516436,-0.65012,72.094904
12.6765,-0.016059,-0.023256,0.001135,0.000292,-0.000171,-8.4e-05,-0.01494,-0.533277,0.002983,-0.384302,-261.516436,-0.65012,72.094904
12.6965,-0.016161,-0.022526,0.002402,0.000289,-0.000173,-0.000309,-0.01494,-0.533277,0.002983,-0.384302,-261.516436,-0.65012,72.094904
12.7167,-0.016046,-0.022725,0.001813,0.000286,-0.000174,-0.00047,-0.014934,-0.532526,0.002403,-0.309689,-261.516416,-0.724734,72.094933
12.7368,-0.016494,-0.022814,0.002578,0.000297,-0.000171,-0.000273,-0.01501,-0.532606,0.002164,-0.309689,-261.516416,-0.724734,72.094933
12.7565,-0.016329,-0.022812,0.00076,0.000305,-0.00017,-0.000134,-0.015179,-0.532813,0.002578,-0.384688,-261.516416,-0.649734,72.094933
12.7765,-0.01654,-0.022835,0.001812,0.00033,-0.000171,0.000549,-0.015874,-0.532812,0.000922,-0.384688,-261.516416,-0.649734,72.094933
12.7966,-0.015799,-0.023031,0.002079,0.000348,-0.000175,0.001033,-0.015874,-0.532812,0.000922,-0.384688,-261.516416,-0.649734,72.094933
12.8168,-0.016311,-0.023078,0.002663,0.000362,-0.00018,0.001375,-0.014738,-0.53303,0.002079,-0.459986,-261.516412,-0.574436,72.094936
12.837,-0.016552,-0.022341,0.001503,0.000344,-0.000183,0.000991,-0.014824,-0.533048,0.002312,-0.459986,-261.516412,-0.574436,72.094936
12.8567,-0.016067,-0.022887,0.001182,0.000329,-0.000183,0.000714,-0.015785,-0.532341,0.001503,-0.385284,-261.516412,-0.649138,72.094936
12.8767,-0.016472,-0.022897,0.002659,0.000337,-0.000181,0.001002,-0.015494,-0.532838,0.001211,-0.385284,-261.516412,-0.649138,72.094936
12.8965,-0.016257,-0.022975,0.002097,0.000343,-0.00018,0.001205,-0.015494,-0.532838,0.001211,-0.385284,-261.516412,-0.649138,72.094936
12.9168,-0.015999,-0.023087,0.002685,0.000348,-0.000181,0.001348,-0.015187,-0.532974,0.002097,-0.310287,-261.516412,-0.724136,72.094936
12.9369,-0.016087,-0.022967,0.002175,0.000337,-0.000187,0.000959,-0.01496,-0.533019,0.002337,-0.310287,-261.516412,-0.724136,72.094936
12.9565,-0.016271,-0.023117,0.002767,0.000328,-0.000189,0.000678,-0.014977,-0.532966,0.002175,-0.235287,-261.516412,-0.799136,72.094936
12.9768,-0.016448,-0.023023,0.00215,0.000318,-0.000191,0.000337,-0.014871,-0.533102,0.002713,-0.235287,-261.516412,-0.799136,72.094936
12.9968,-0.016292,-0.022859,0.002548,0.00031,-0.00019,9.1e-05,-0.014871,-0.533102,0.002713,-0.235287,-261.516412,-0.799136,72.094936
13.0168,-0.015791,-0.022802,0.002247,0.000304,-0.000188,-8.7e-05,-0.014993,-0.532857,0.002548,-0.160285,-261.516412,-0.874137,72.094936
13.0368,-0.016399,-0.023376,0.001421,0.000303,-0.000184,-0.000107,-0.014852,-0.532834,0.002426,-0.160285,-261.516412,-0.874137,72.094936
13.0566,-0.016052,-0.023121,0.002053,0.000302,-0.00018,-0.000121,-0.015674,-0.533376,0.001421,-0.235284,-261.516412,-0.799138,72.094936
13.0768,-0.016225,-0.023263,0.001763,0.000301,-0.000171,4.5e-05,-0.015067,-0.533143,0.001995,-0.235284,-261.516412,-0.799138,72.094936
13.0968,-0.016225,-0.023257,0.003407,0.000299,-0.000165,0.000162,-0.015067,-0.533143,0.001995,-0.235284,-261.516412,-0.799138,72.094936
13.1173,-0.016247,-0.023205,0.001987,0.000298,-0.000161,0.000245,-0.014487,-0.533254,0.003407,-0.310286,-261.516412,-0.724137,72.094936
13.1374,-0.01615,-0.022836,0.00162,0.000289,-0.000164,-2.2e-05,-0.014788,-0.533234,0.002835,-0.310286,-261.516412,-0.724137,72.094936
13.1569,-0.016404,-0.023457,0.00286,0.000282,-0.000164,-0.000214,-0.015322,-0.532837,0.001621,-0.23526,-261.51638,-0.799163,72.094983
13.1768,-0.016488,-0.022969,0.003013,0.000279,-0.000163,-0.00032,-0.014979,-0.533399,0.002747,-0.23526,-261.51638,-0.799163,72.094983
13.1966,-0.016352,-0.022934,0.003709,0.000276,-0.000161,-0.000396,-0.014979,-0.533399,0.002747,-0.23526,-261.51638,-0.799163,72.094983
13.2165,-0.016164,-0.022958,0.002176,0.000274,-0.000159,-0.000451,-0.01446,-0.532931,0.003709,-0.310239,-261.51638,-0.724184,72.094983
13.2375,-0.016494,-0.02299,0.003064,0.000274,-0.000162,-0.000609,-0.014702,-0.532941,0.003086,-0.310239,-261.51638,-0.724184,72.094983
13.2567,-0.016371,-0.022931,0.00163,0.000274,-0.000163,-0.000723,-0.014931,-0.532988,0.003064,-0.385233,-261.51638,-0.64919,72.094983
13.2766,-0.016098,-0.022902,0.003362,0.000293,-0.00016,-0.000273,-0.015484,-0.532935,0.001761,-0.385233,-261.51638,-0.64919,72.094983
13.2966,-0.016841,-0.023271,0.001764,0.000308,-0.00016,4.4e-05,-0.015484,-0.532935,0.001761,-0.385233,-261.51638,-0.64919,72.094983
13.3167,-0.016475,-0.023105,0.002031,0.00032,-0.000163,0.000267,-0.015941,-0.53327,0.001764,-0.46023,-261.51638,-0.574192,72.094983
13.3367,-0.016235,-0.022856,0.001368,0.000331,-0.000169,0.000375,-0.015737,-0.533203,0.001872,-0.46023,-261.51638,-0.574192,72.094983
13.3565,-0.016054,-0.023141,0.000444,0.00034,-0.000175,0.00045,-0.015537,-0.532856,0.001368,-0.385234,-261.516378,-0.649189,72.094985
13.3769,-0.016079,-0.023112,0.001938,0.000348,-0.00017,0.001168,-0.015803,-0.533117,0.000523,-0.385234,-261.516378,-0.649189,72.094985
13.3977,-0.016037,-0.023028,0.003352,0.000354,-0.00017,0.001679,-0.015803,-0.533117,0.000523,-0.385234,-261.516378,-0.649189,72.094985
13.4166,-0.016257,-0.023034,0.002053,0.000357,-0.000171,0.002044,-0.014328,-0.533025,0.003352,-0.310093,-261.516378,-0.724329,72.094985
13.4368,-0.016516,-0.023132,0.002363,0.000338,-0.000187,0.001301,-0.014677,-0.533028,0.002837,-0.310093,-261.516378,-0.724329,72.094985
13.4567,-0.016438,-0.022894,0.000603,0.000323,-0.000193,0.000757,-0.015311,-0.533131,0.002363,-0.235221,-261.516378,-0.799201,72.094985
13.4765,-0.016195,-0.022594,0.001792,0.000345,-0.000194,0.001272,-0.016059,-0.532915,0.000755,-0.235221,-261.516378,-0.799201,72.094985
13.4971,-0.016046,-0.022569,0.002537,0.000363,-0.000198,0.001636,-0.016059,-0.532915,0.000755,-0.235221,-261.516378,-0.799201,72.094985
13.5163,-0.016132,-0.023199,0.002092,0.000376,-0.000202,0.001893,-0.014751,-0.532567,0.002537,-0.159986,-261.516378,-0.874436,72.094985
13.5367,-0.016442,-0.0234,0.003338,0.000362,-0.000209,0.001354,-0.014876,-0.532817,0.002361,-0.159986,-261.516378,-0.874436,72.094985
13.5567,-0.016396,-0.022625,0.001777,0.00035,-0.000211,0.000962,-0.01474,-0.533397,0.003338,-0.085226,-261.516378,-0.949197,72.094985
13.5767,-0.0163,-0.023051,0.000846,0.000357,-0.000215,0.000856,-0.015421,-0.532695,0.00192,-0.085226,-261.516378,-0.949197,72.094985
13.5969,-0.016287,-0.022742,0.001461,0.000362,-0.000217,0.000778,-0.015421,-0.532695,0.00192,-0.085226,-261.516378,-0.949197,72.094985
13.6167,-0.016044,-0.022732,0.001994,0.000367,-0.000218,0.00072,-0.015542,-0.532742,0.001461,-0.010224,-261.516378,-1.024198,72.094985
13.6372,-0.016336,-0.022821,0.002311,0.000367,-0.000214,0.000784,-0.015333,-0.532737,0.001678,-0.010224,-261.516378,-1.024198,72.094985
13.6567,-0.016145,-0.023237,0.000672,0.000367,-0.000211,0.000828,-0.015157,-0.53282,0.002311,0.064769,-261.516377,-1.062545,72.094987
13.6765,-0.016539,-0.022774,0.003636,0.000367,-0.000202,0.001277,-0.015744,-0.533199,0.000821,0.064769,-261.516377,-1.062545,72.094987
13.6966,-0.016489,-0.022775,0.000722,0.000367,-0.000196,0.001596,-0.015744,-0.533199,0.000821,0.064769,-261.516377,-1.062545,72.094987
13.7167,-0.016298,-0.02286,0.003297,0.000366,-0.000193,0.001822,-0.016121,-0.532775,0.000722,0.139772,-261.516377,-1.098293,72.094987
13.7365,-0.016511,-0.023217,0.002502,0.000368,-0.000204,0.001531,-0.015506,-0.532809,0.001775,0.139772,-261.516377,-1.098293,72.094987
13.7567,-0.016003,-0.022801,0.002176,0.00037,-0.000211,0.00132,-0.015235,-0.533216,0.002502,0.214769,-261.516377,-1.17329,72.094987
13.7772,-0.016166,-0.023028,0.000877,0.000357,-0.000211,0.000989,-0.014924,-0.532837,0.002205,0.214769,-261.516377,-1.17329,72.094987
13.7971,-0.016257,-0.02279,0.003511,0.000347,-0.000208,0.000751,-0.014924,-0.532837,0.002205,0.214769,-261.516377,-1.17329,72.094987
13.8167,-0.016439,-0.023251,0.002543,0.000338,-0.000205,0.00058,-0.014467,-0.532787,0.003511,0.289768,-261.516377,-1.221441,72.094988
13.8372,-0.016179,-0.022721,0.000991,0.000327,-0.000208,0.00013,-0.014743,-0.532976,0.003115,0.289768,-261.516377,-1.221441,72.094988
13.8567,-0.016151,-0.022696,0.001561,0.000319,-0.000208,-0.000195,-0.01567,-0.532724,0.000999,0.364764,-261.516315,-1.146445,72.095097
13.877,-0.016261,-0.023065,0.002595,0.000331,-0.000198,0.000215,-0.015383,-0.532698,0.001512,0.364764,-261.516315,-1.146445,72.095097
13.8968,-0.016365,-0.02311,0.002013,0.000341,-0.000193,0.000505,-0.015383,-0.532698,0.001512,0.364764,-261.516315,-1.146445,72.095097
13.9167,-0.016092,-0.022856,0.001901,0.000347,-0.000191,0.000709,-0.015338,-0.533109,0.002013,0.289761,-261.516315,-1.071442,72.095097
13.9367,-0.016147,-0.023103,0.00184,0.000344,-0.00019,0.000649,-0.015251,-0.533006,0.001968,0.289761,-261.516315,-1.071442,72.095097
13.9568,-0.016079,-0.023085,0.00187,0.000341,-0.00019,0.000605,-0.015207,-0.533103,0.001843,0.364758,-261.516282,-1.062502,72.095152
13.977,-0.016179,-0.022992,0.002172,0.000334,-0.000185,0.000616,-0.015132,-0.533086,0.001868,0.364758,-261.516282,-1.062502,72.095152
13.9967,-0.015881,-0.023101,0.001409,0.000328,-0.000181,0.000622,-0.015132,-0.533086,0.001868,0.364758,-261.516282,-1.062502,72.095152
14.0167,-0.016083,-0.022861,0.002296,0.000323,-0.000177,0.000627,-0.015151,-0.533107,0.001428,0.439762,-261.516163,-1.022987,72.095355
14.0369,-0.016444,-0.022799,0.002707,0.000318,-0.000173,0.000666,-0.015052,-0.533007,0.001785,0.439762,-261.516163,-1.022987,72.095355
14.0566,-0.016252,-0.022937,0.001903,0.000314,-0.00017,0.000694,-0.015055,-0.532802,0.002722,0.514763,-261.516045,-1.04751,72.095552
14.0768,-0.016311,-0.023005,0.002404,0.000318,-0.000174,0.00063,-0.015261,-0.532924,0.001978,0.514763,-261.516045,-1.04751,72.095552
14.0968,-0.016469,-0.022875,0.002969,0.000321,-0.000177,0.000584,-0.015261,-0.532924,0.001978,0.514763,-261.516045,-1.04751,72.095552
14.1169,-0.015859,-0.023066,0.00214,0.000324,-0.00018,0.00055,-0.014947,-0.532878,0.002986,0.589763,-261.515944,-1.084176,72.095722
14.1366,-0.016203,-0.023234,0.001649,0.000318,-0.000184,0.000264,-0.014873,-0.532954,0.002646,0.589763,-261.515944,-1.084176,72.095722
14.1566,-0.016492,-0.022993,0.001248,0.000312,-0.000185,5.8e-05,-0.015355,-0.533237,0.001661,0.514769,-261.515848,-1.009671,72.095884
14.1767,-0.016164,-0.023056,0.002327,0.00033,-0.000183,0.000496,-0.015805,-0.533017,0.00129,0.514769,-261.515848,-1.009671,72.095884
14.1967,-0.016375,-0.023094,0.002188,0.000343,-0.000183,0.000805,-0.015805,-0.533017,0.00129,0.514769,-261.515848,-1.009671,72.095884
14.2165,-0.0159,-0.022819,0.00262,0.000354,-0.000185,0.001024,-0.015259,-0.533093,0.002188,0.439757,-261.515848,-0.934659,72.095884
14.2372,-0.016175,-0.022847,0.002461,0.000343,-0.000189,0.000713,-0.014977,-0.532981,0.002364,0.439757,-261.515848,-0.934659,72.095884
14.2563,-0.016493,-0.022607,0.002457,0.000334,-0.00019,0.000489,-0.014919,-0.532845,0.002461,0.51476,-261.515845,-1.009662,72.095889
14.2764,-0.015984,-0.023177,0.002013,0.00034,-0.000199,0.000291,-0.015211,-0.532627,0.002457,0.51476,-261.515845,-1.009662,72.095889
14.2966,-0.016241,-0.022935,0.003031,0.000346,-0.000205,0.000149,-0.015211,-0.532627,0.002457,0.51476,-261.515845,-1.009662,72.095889
14.3165,-0.016087,-0.02291,0.003773,0.00035,-0.000209,4.7e-05,-0.014688,-0.532937,0.003043,0.439757,-261.515773,-0.971846,72.09601
14.3365,-0.016127,-0.023294,0.002409,0.000331,-0.000207,-0.000332,-0.014472,-0.532925,0.003344,0.439757,-261.515773,-0.971846,72.09601
14.3563,-0.016157,-0.022952,0.00334,0.000316,-0.000202,-0.000606,-0.014898,-0.533293,0.002409,0.364718,-261.515773,-0.896806,72.09601
14.3763,-0.016156,-0.022754,0.002386,0.000303,-0.000194,-0.000776,-0.014492,-0.532979,0.00326,0.364718,-261.515773,-0.896806,72.09601
14.3963,-0.016265,-0.023077,0.002448,0.000292,-0.000186,-0.000899,-0.014492,-0.532979,0.00326,0.364718,-261.515773,-0.896806,72.09601
14.4168,-0.016021,-0.023092,0.002267,0.000283,-0.000179,-0.000987,-0.015017,-0.533076,0.002448,0.289633,-261.515773,-0.821721,72.09601
14.4374,-0.016345,-0.023017,0.002906,0.000284,-0.000167,-0.000723,-0.014954,-0.533082,0.002374,0.289633,-261.515773,-0.821721,72.09601
14.4565,-0.016099,-0.023136,0.002221,0.000285,-0.00016,-0.000537,-0.014863,-0.533015,0.002906,0.214771,-261.515773,-0.746859,72.09601
14.4767,-0.015973,-0.022984,0.001648,0.000285,-0.000154,-0.000371,-0.014956,-0.533123,0.002289,0.214771,-261.515773,-0.746859,72.09601
14.4965,-0.0161,-0.022868,0.002473,0.000285,-0.00015,-0.000254,-0.014956,-0.533123,0.002289,0.214771,-261.515773,-0.746859,72.09601
14.5164,-0.016168,-0.022793,0.00119,0.000284,-0.000148,-0.000171,-0.014839,-0.532867,0.002473,0.139668,-261.515773,-0.671757,72.09601
14.5364,-0.016131,-0.023086,0.001921,0.000293,-0.000149,3e-05,-0.015134,-0.532837,0.001949,0.139668,-261.515773,-0.671757,72.09601
14.5562,-0.016232,-0.022992,0.002825,0.0003,-0.000151,0.000172,-0.015152,-0.533085,0.001921,0.06477,-261.515773,-0.596858,72.09601
14.5764,-0.0162,-0.022949,0.002503,0.000296,-0.000157,-4.4e-05,-0.014822,-0.532998,0.002748,0.06477,-261.515773,-0.596858,72.09601
14.5964,-0.01614,-0.022887,0.001477,0.000292,-0.000161,-0.000199,-0.014822,-0.532998,0.002748,0.06477,-261.515773,-0.596858,72.09601
14.6163,-0.016401,-0.022823,0.002181,0.00029,-0.000162,-0.000311,-0.015382,-0.532889,0.00148,-0.01036,-261.515726,-0.671989,72.096071
14.6369,-0.016363,-0.02298,0.002853,0.000303,-0.000161,1.2e-05,-0.015343,-0.532861,0.001769,-0.01036,-261.515726,-0.671989,72.096071
14.6567,-0.015948,-0.023181,0.000548,0.000313,-0.000161,0.00024,-0.014907,-0.532978,0.002853,-0.085321,-261.515726,-0.597028,72.096071
14.6769,-0.01606,-0.022989,0.002855,0.000321,-0.000155,0.000901,-0.015602,-0.533163,0.000749,-0.085321,-261.515726,-0.597028,72.096071
14.6968,-0.016037,-0.023105,0.002071,0.000326,-0.000154,0.001371,-0.015602,-0.533163,0.000749,-0.085321,-261.515726,-0.597028,72.096071
14.7166,-0.016121,-0.022767,0.002214,0.000329,-0.000154,0.001704,-0.014972,-0.533107,0.002077,-0.04798,-261.515653,-0.671978,72.096173
14.7364,-0.016475,-0.023172,0.002284,0.000321,-0.000165,0.001299,-0.014979,-0.532969,0.002133,-0.04798,-261.515653,-0.671978,72.096173
14.7563,-0.016595,-0.023,0.001745,0.000315,-0.000171,0.001007,-0.01531,-0.533171,0.002284,0.027014,-261.515653,-0.746973,72.096173
