mach0312/omni-docking-bench/src/icros_test_setup/results/MPPI_sample/timeseries/trial_144.csv
t,x,y,yaw,vx,vy,wz,bl_x,bl_y,bl_yaw,front_steering_joint,front_wheel_joint,rear_steering_joint,rear_wheel_joint
0.0,-0.025834,-0.023189,0.08652,0.006717,-0.000347,0.002254,0.016327,-0.531425,0.085418,0.152103,-258.302546,-0.251094,66.125056
0.0004,-0.026092,-0.023398,0.086025,0.006246,-0.000322,0.002095,0.016327,-0.531425,0.085418,0.152103,-258.299246,-0.251094,66.128424
0.0007,-0.026128,-0.023438,0.086888,0.005732,-0.000296,0.001923,0.016712,-0.531256,0.085666,0.152103,-258.296208,-0.251094,66.131523
0.001,-0.02591,-0.023069,0.085594,0.005172,-0.000267,0.001735,0.016712,-0.531256,0.085666,0.152103,-258.293676,-0.251094,66.134107
0.0014,-0.025845,-0.023225,0.087617,0.004567,-0.000236,0.001532,0.016712,-0.531256,0.085666,0.152103,-258.291583,-0.251094,66.136243
0.0016,-0.025719,-0.022869,0.086651,0.003919,-0.000202,0.001315,0.018345,-0.531161,0.088508,0.152103,-258.291583,-0.251094,66.136243
0.0018,-0.025409,-0.023221,0.086516,0.003222,-0.000166,0.001081,0.016805,-0.531567,0.085193,0.152103,-258.291583,-0.251094,66.136243
0.0021,-0.025366,-0.023077,0.087064,0.002479,-0.000128,0.000832,0.016805,-0.531567,0.085193,0.152103,-258.291583,-0.251094,66.136243
0.0166,-0.025346,-0.023423,0.08736,0.0,0.0,0.0,0.018661,-0.531282,0.086535,0.152103,-258.291583,-0.251094,66.136243
0.0367,-0.025021,-0.023337,0.086448,0.0,0.0,0.0,0.019286,-0.531473,0.087405,0.152103,-258.290282,-0.251094,66.137571
0.0565,-0.024866,-0.023324,0.087574,0.0,0.0,0.0,0.019191,-0.531456,0.087023,0.152103,-258.290282,-0.251094,66.137571
0.0765,-0.024679,-0.023163,0.088075,0.0,0.0,0.0,0.01974,-0.531369,0.087574,0.152103,-258.290282,-0.251094,66.137571
0.0967,-0.025267,-0.023356,0.085383,0.0,0.0,0.0,0.020142,-0.531203,0.088029,0.152103,-258.290282,-0.251094,66.137571
0.1167,-0.025212,-0.023268,0.086689,-0.004196,0.003285,-0.004767,0.020142,-0.531203,0.088029,0.152103,-258.290282,-0.251094,66.137571
0.1367,-0.02513,-0.023318,0.086409,-0.004564,0.003543,-0.005198,0.018944,-0.531353,0.086689,0.152103,-258.290282,-0.251094,66.137571
0.1564,-0.025384,-0.023377,0.086341,-0.004848,0.003778,-0.005573,0.018919,-0.531379,0.086575,0.152103,-258.290282,-0.251094,66.137571
0.1763,-0.025084,-0.023319,0.087056,-0.005086,0.003974,-0.00589,0.018596,-0.531477,0.086341,0.077026,-258.290282,-0.326171,66.137571
0.1967,-0.025546,-0.023238,0.086593,-0.005289,0.004133,-0.00617,0.0192,-0.531396,0.086993,0.077026,-258.290282,-0.326171,66.137571
0.217,-0.025392,-0.023361,0.086902,-0.005459,0.004265,-0.006406,0.0192,-0.531396,0.086993,0.077026,-258.290282,-0.326171,66.137571
0.237,-0.025493,-0.023519,0.087277,-0.005601,0.004375,-0.006607,0.018873,-0.531436,0.086902,0.002045,-258.290283,-0.401152,66.137569
0.2569,-0.025291,-0.023196,0.086127,-0.005712,0.004473,-0.006788,0.018908,-0.531493,0.087053,0.002045,-258.290283,-0.401152,66.137569
0.2769,-0.025524,-0.023237,0.085827,-0.005805,0.004555,-0.006941,0.018579,-0.531306,0.086127,-0.060568,-258.29029,-0.476091,66.137557
0.2972,-0.02566,-0.023305,0.086376,-0.005872,0.004632,-0.007083,0.018228,-0.531355,0.085853,-0.060568,-258.29029,-0.476091,66.137557
0.3168,-0.025444,-0.023154,0.086246,-0.005927,0.004697,-0.007203,0.018228,-0.531355,0.085853,-0.060568,-258.29029,-0.476091,66.137557
0.3365,-0.025365,-0.02293,0.086631,-0.005974,0.00475,-0.007304,0.018482,-0.531257,0.086244,-0.054262,-258.290319,-0.551093,66.137504
0.3564,-0.025568,-0.02334,0.086042,-0.006022,0.004787,-0.007429,0.018596,-0.531159,0.086401,-0.054262,-258.290319,-0.551093,66.137504
0.3763,-0.025021,-0.023059,0.088002,-0.006062,0.004818,-0.007533,0.01825,-0.53145,0.086036,-0.048435,-258.29041,-0.62614,66.137337
0.3966,-0.025024,-0.023138,0.087591,-0.006115,0.004827,-0.00762,0.019647,-0.531122,0.087806,-0.048435,-258.29041,-0.62614,66.137337
0.4169,-0.025433,-0.023282,0.086682,-0.006159,0.004834,-0.007693,0.019647,-0.531122,0.087806,-0.048435,-258.29041,-0.62614,66.137337
0.4366,-0.025412,-0.023429,0.085281,-0.006196,0.004841,-0.007754,0.018687,-0.531354,0.086657,-0.035742,-258.290658,-0.701092,66.136878
0.4563,-0.025275,-0.023121,0.087057,-0.006198,0.004873,-0.007804,0.018416,-0.531442,0.086095,-0.035742,-258.290658,-0.701092,66.136878
0.4765,-0.025256,-0.022995,0.087867,-0.006199,0.0049,-0.007847,0.01901,-0.531163,0.087008,-0.017077,-258.291255,-0.776095,66.135779
0.4966,-0.025317,-0.023104,0.087158,-0.006225,0.0049,-0.007884,0.019452,-0.531039,0.087787,-0.017077,-258.291255,-0.776095,66.135779
0.5171,-0.0253,-0.02306,0.086957,-0.006248,0.0049,-0.007914,0.019452,-0.531039,0.087787,-0.017077,-258.291255,-0.776095,66.135779
0.537,-0.025277,-0.023176,0.088006,-0.006267,0.0049,-0.00794,0.018859,-0.531064,0.086828,-0.017358,-258.292345,-0.851096,66.133757
0.5569,-0.025072,-0.02289,0.085667,-0.006275,0.004907,-0.007962,0.019126,-0.531112,0.087295,-0.017358,-258.292345,-0.851096,66.133757
0.5767,-0.025483,-0.022864,0.087408,-0.006283,0.004912,-0.007981,0.018409,-0.530929,0.085499,-0.008031,-258.294102,-0.926109,66.130508
0.5966,-0.025496,-0.022697,0.085109,-0.006288,0.004918,-0.008041,0.018967,-0.530913,0.087208,-0.008031,-258.294102,-0.926109,66.130508
0.6167,-0.025463,-0.022963,0.08577,-0.006293,0.004923,-0.00809,0.018967,-0.530913,0.087208,-0.008031,-258.294102,-0.926109,66.130508
0.6368,-0.025877,-0.022646,0.085136,-0.006296,0.004927,-0.008131,0.017969,-0.530921,0.085464,-0.006053,-258.296404,-1.000108,66.126247
0.657,-0.02567,-0.022688,0.086119,-0.006277,0.00495,-0.008192,0.017745,-0.530852,0.085295,-0.006053,-258.296404,-1.000108,66.126247
0.6766,-0.025689,-0.022759,0.086047,-0.006261,0.004968,-0.008242,0.017984,-0.530659,0.08586,0.006192,-258.298915,-1.003999,66.121569
0.697,-0.02556,-0.022169,0.086967,-0.006254,0.004978,-0.008313,0.018116,-0.530846,0.086017,0.006192,-258.298915,-1.003999,66.121569
0.7163,-0.026006,-0.022623,0.086006,-0.006248,0.004986,-0.00837,0.018116,-0.530846,0.086017,0.006192,-258.298915,-1.003999,66.121569
0.7363,-0.025874,-0.022434,0.084441,-0.006242,0.004993,-0.008418,0.017524,-0.530553,0.085661,0.010422,-258.301417,-1.011502,66.116854
0.7565,-0.026108,-0.02208,0.086141,-0.006226,0.005008,-0.008486,0.017336,-0.530558,0.085125,0.010422,-258.301417,-1.011502,66.116854
0.7763,-0.026071,-0.021652,0.085118,-0.006213,0.005021,-0.008541,0.017558,-0.530048,0.085873,0.023704,-258.303906,-1.018722,66.112111
0.7963,-0.025711,-0.021932,0.083637,-0.006213,0.00502,-0.008615,0.0173,-0.52982,0.085172,0.023704,-258.303906,-1.018722,66.112111
0.8167,-0.025895,-0.021803,0.084366,-0.006213,0.00502,-0.008676,0.0173,-0.52982,0.085172,0.023704,-258.303906,-1.018722,66.112111
0.8367,-0.025893,-0.022142,0.084013,-0.006213,0.00502,-0.008725,0.016804,-0.529801,0.084009,0.0315,-258.306392,-1.025341,66.10732
0.8566,-0.026062,-0.021665,0.085837,-0.006199,0.005032,-0.008792,0.016813,-0.530002,0.08397,0.0315,-258.306392,-1.025341,66.10732
0.8766,-0.026429,-0.021382,0.084241,-0.006187,0.005041,-0.008848,0.017451,-0.529645,0.085561,0.049639,-258.308862,-1.030136,66.102528
0.8969,-0.026288,-0.021514,0.084249,-0.006178,0.005048,-0.008919,0.016564,-0.529573,0.084352,0.049639,-258.308862,-1.030136,66.102528
0.9165,-0.025981,-0.021869,0.083736,-0.006171,0.005053,-0.008978,0.016564,-0.529573,0.084352,0.049639,-258.308862,-1.030136,66.102528
0.9367,-0.02626,-0.021255,0.084695,-0.006164,0.005058,-0.009026,0.016399,-0.529894,0.083366,0.058477,-258.311341,-1.036045,66.097673
0.9565,-0.026255,-0.021134,0.083834,-0.006156,0.005063,-0.009089,0.016567,-0.52968,0.083871,0.058477,-258.311341,-1.036045,66.097673
0.9765,-0.026551,-0.020796,0.082318,-0.00615,0.005068,-0.009142,0.016243,-0.5292,0.083548,0.073612,-258.313798,-1.042866,66.092807
0.9966,-0.0264,-0.02097,0.083845,-0.006129,0.005083,-0.009206,0.015449,-0.529073,0.082412,0.073612,-258.313798,-1.042866,66.092807
1.0166,-0.026492,-0.021201,0.0831,-0.006112,0.005096,-0.009259,0.015449,-0.529073,0.082412,0.073612,-258.313798,-1.042866,66.092807
1.0366,-0.026322,-0.020691,0.083106,-0.006097,0.005106,-0.009303,0.015566,-0.529251,0.082718,0.083634,-258.316267,-1.047185,66.087888
1.0566,-0.026422,-0.021093,0.080399,-0.00609,0.00511,-0.009355,0.015719,-0.529097,0.082834,0.083634,-258.316267,-1.047185,66.087888
1.0764,-0.026402,-0.02052,0.080671,-0.006084,0.005113,-0.009399,0.014331,-0.5293,0.080104,0.094139,-258.318704,-1.056376,66.082956
1.0972,-0.026527,-0.020319,0.081849,-0.006056,0.005133,-0.009445,0.014652,-0.528894,0.080604,0.094139,-258.318704,-1.056376,66.082956
1.1166,-0.026765,-0.020328,0.083681,-0.006033,0.005149,-0.009484,0.014652,-0.528894,0.080604,0.094139,-258.318704,-1.056376,66.082956
1.1366,-0.026623,-0.020178,0.080841,-0.006014,0.005163,-0.009515,0.015592,-0.528351,0.083288,0.102697,-258.321152,-1.059909,66.077975
1.1565,-0.02649,-0.020509,0.081083,-0.006018,0.005157,-0.009547,0.015135,-0.528395,0.082233,0.102697,-258.321152,-1.059909,66.077975
1.1765,-0.026794,-0.019675,0.081882,-0.006022,0.005152,-0.009574,0.014614,-0.528686,0.080781,0.107437,-258.323561,-1.069519,66.072991
1.1967,-0.02724,-0.020275,0.082095,-0.006026,0.005146,-0.009599,0.01488,-0.528025,0.081764,0.107437,-258.323561,-1.069519,66.072991
1.2165,-0.026971,-0.02031,0.080568,-0.006029,0.005142,-0.00962,0.01488,-0.528025,0.081764,0.107437,-258.323561,-1.069519,66.072991
1.2365,-0.026512,-0.019734,0.080441,-0.006032,0.005139,-0.009638,0.013806,-0.528461,0.080167,0.114947,-258.325984,-1.069903,66.067979
1.2563,-0.027012,-0.019702,0.081659,-0.006007,0.005157,-0.009655,0.014045,-0.528286,0.080233,0.114947,-258.325984,-1.069903,66.067979
1.2765,-0.02691,-0.019484,0.081733,-0.005987,0.005172,-0.00967,0.014383,-0.527855,0.081353,0.123301,-258.328412,-1.070158,66.062958
1.2968,-0.026946,-0.019355,0.082121,-0.005996,0.005163,-0.009685,0.014685,-0.527781,0.081683,0.123301,-258.328412,-1.070158,66.062958
1.3167,-0.026746,-0.019355,0.078973,-0.006003,0.005155,-0.009698,0.014685,-0.527781,0.081683,0.123301,-258.328412,-1.070158,66.062958
1.3368,-0.027171,-0.019703,0.081031,-0.00601,0.005149,-0.009709,0.01322,-0.527568,0.078567,0.121942,-258.330828,-1.07534,66.057915
1.3567,-0.026865,-0.019385,0.079086,-0.005986,0.005167,-0.00972,0.013552,-0.527734,0.079524,0.121942,-258.330828,-1.07534,66.057915
1.3765,-0.026832,-0.018645,0.080434,-0.005966,0.005181,-0.00973,0.013222,-0.527642,0.078776,0.129096,-258.333249,-1.073771,66.05288
1.3964,-0.027359,-0.019043,0.078039,-0.005978,0.00517,-0.009741,0.014055,-0.527045,0.080275,0.129096,-258.333249,-1.073771,66.05288
1.4166,-0.026942,-0.019002,0.07935,-0.005988,0.005161,-0.00975,0.014055,-0.527045,0.080275,0.129096,-258.333249,-1.073771,66.05288
1.4366,-0.027189,-0.018241,0.078179,-0.005996,0.005154,-0.009757,0.013217,-0.5272,0.078943,0.126869,-258.335654,-1.078492,66.047833
1.4566,-0.026949,-0.018966,0.076478,-0.005974,0.00517,-0.009766,0.012954,-0.526968,0.078586,0.126869,-258.335654,-1.078492,66.047833
1.4764,-0.026728,-0.018764,0.078565,-0.005955,0.005184,-0.009773,0.011814,-0.527326,0.076168,0.133584,-258.338072,-1.07599,66.042787
1.4966,-0.027306,-0.018769,0.078391,-0.005941,0.005194,-0.00978,0.01316,-0.527195,0.078341,0.133584,-258.338072,-1.07599,66.042787
1.517,-0.027051,-0.018537,0.078579,-0.005929,0.005202,-0.009786,0.01316,-0.527195,0.078341,0.133584,-258.338072,-1.07599,66.042787
1.5365,-0.027194,-0.018196,0.078303,-0.005918,0.005209,-0.009791,0.012718,-0.526767,0.07817,0.131012,-258.340473,-1.080321,66.037733
1.5565,-0.027557,-0.018357,0.077035,-0.005906,0.005217,-0.009797,0.01268,-0.52669,0.078177,0.131012,-258.340473,-1.080321,66.037733
1.5766,-0.027622,-0.017876,0.075991,-0.005896,0.005223,-0.009803,0.011491,-0.526692,0.076722,0.129503,-258.34286,-1.084269,66.032669
1.5964,-0.027583,-0.018003,0.07678,-0.005842,0.00526,-0.009808,0.011121,-0.526422,0.076039,0.129503,-258.34286,-1.084269,66.032669
1.6166,-0.027427,-0.017741,0.077107,-0.005797,0.00529,-0.009813,0.011121,-0.526422,0.076039,0.129503,-258.34286,-1.084269,66.032669
1.6368,-0.027565,-0.017791,0.077938,-0.005759,0.005314,-0.009816,0.011596,-0.526027,0.076696,0.128794,-258.345235,-1.086613,66.02761
1.6563,-0.027452,-0.017704,0.07646,-0.005757,0.005313,-0.009821,0.011787,-0.526091,0.07715,0.128794,-258.345235,-1.086613,66.02761
1.6766,-0.027633,-0.017466,0.075241,-0.005755,0.005311,-0.009825,0.01131,-0.52606,0.076148,0.117767,-258.347544,-1.099777,66.022557
1.6967,-0.027341,-0.017328,0.076811,-0.00572,0.005334,-0.009828,0.010748,-0.526019,0.075307,0.117767,-258.347544,-1.099777,66.022557
1.7166,-0.027504,-0.01762,0.077385,-0.00569,0.005352,-0.009831,0.010748,-0.526019,0.075307,0.117767,-258.347544,-1.099777,66.022557
1.7369,-0.027197,-0.017289,0.076776,-0.005664,0.005367,-0.009834,0.011665,-0.52589,0.076973,0.119154,-258.349878,-1.100142,66.017446
1.7569,-0.027444,-0.017073,0.075505,-0.005682,0.005352,-0.009837,0.011742,-0.525823,0.076843,0.119154,-258.349878,-1.100142,66.017446
1.7763,-0.027369,-0.016792,0.076018,-0.005696,0.005339,-0.009839,0.010836,-0.525464,0.075195,0.112341,-258.352138,-1.108696,66.012408
1.7964,-0.027658,-0.016857,0.074761,-0.005706,0.00533,-0.009842,0.011305,-0.525325,0.075927,0.112341,-258.352138,-1.108696,66.012408
1.8164,-0.027728,-0.016768,0.075684,-0.005714,0.005322,-0.009844,0.011305,-0.525325,0.075927,0.112341,-258.352138,-1.108696,66.012408
1.8367,-0.027707,-0.016742,0.075415,-0.005721,0.005316,-0.009846,0.01058,-0.525104,0.075272,0.117096,-258.354432,-1.105582,66.007331
1.8564,-0.027465,-0.016588,0.075409,-0.005706,0.005326,-0.009848,0.010607,-0.525158,0.075284,0.117096,-258.354432,-1.105582,66.007331
1.8764,-0.027696,-0.016595,0.073318,-0.005693,0.005334,-0.009849,0.010763,-0.524984,0.075096,0.121208,-258.356736,-1.103169,66.002257
1.8966,-0.027921,-0.016529,0.073746,-0.005649,0.005363,-0.009851,0.009751,-0.525195,0.073461,0.121208,-258.356736,-1.103169,66.002257
1.9168,-0.027566,-0.016442,0.074339,-0.005612,0.005386,-0.009852,0.009751,-0.525195,0.073461,0.121208,-258.356736,-1.103169,66.002257
1.9366,-0.027599,-0.016385,0.075212,-0.005581,0.005405,-0.009853,0.010058,-0.524828,0.073926,0.119106,-258.35904,-1.105843,65.997156
1.9567,-0.028054,-0.015895,0.072856,-0.005585,0.0054,-0.009855,0.010306,-0.524853,0.074414,0.119106,-258.35904,-1.105843,65.997156
1.9767,-0.02774,-0.016313,0.073769,-0.005588,0.005396,-0.009856,0.008882,-0.524385,0.072546,0.109395,-258.361271,-1.116314,65.992103
1.9971,-0.027396,-0.01613,0.073273,-0.005569,0.005407,-0.009857,0.009753,-0.52487,0.073644,0.109395,-258.361271,-1.116314,65.992103
2.0166,-0.028144,-0.01627,0.071826,-0.005552,0.005416,-0.009858,0.009753,-0.52487,0.073644,0.109395,-258.361271,-1.116314,65.992103
2.0367,-0.027433,-0.015509,0.073716,-0.005539,0.005424,-0.009858,0.008207,-0.524747,0.071415,0.111187,-258.36352,-1.115547,65.987019
2.0566,-0.027909,-0.01573,0.073183,-0.005505,0.005443,-0.009859,0.008969,-0.524466,0.072315,0.111187,-258.36352,-1.115547,65.987019
2.0761,-0.027905,-0.015321,0.072197,-0.005476,0.005459,-0.00986,0.009192,-0.524205,0.072869,0.107455,-258.365744,-1.12007,65.981943
2.0963,-0.028127,-0.015234,0.071296,-0.005462,0.005465,-0.009862,0.008902,-0.524004,0.072242,0.107455,-258.365744,-1.12007,65.981943
2.1164,-0.027702,-0.015359,0.073276,-0.005449,0.00547,-0.009863,0.008902,-0.524004,0.072242,0.107455,-258.365744,-1.12007,65.981943
2.1368,-0.027641,-0.015408,0.072761,-0.005439,0.005474,-0.009863,0.009391,-0.523779,0.072863,0.102479,-258.367948,-1.12573,65.976852
2.1569,-0.02826,-0.0152,0.071509,-0.005455,0.005461,-0.009864,0.00938,-0.523869,0.072774,0.102479,-258.367948,-1.12573,65.976852
2.1767,-0.028241,-0.014914,0.07196,-0.005468,0.005451,-0.009865,0.007994,-0.523735,0.071196,0.100697,-258.370134,-1.12897,65.971765
2.1967,-0.028006,-0.015076,0.070218,-0.005441,0.005466,-0.009866,0.008381,-0.523598,0.07188,0.100697,-258.370134,-1.12897,65.971765
2.2169,-0.027914,-0.014893,0.071822,-0.005419,0.005478,-0.009866,0.008381,-0.523598,0.07188,0.100697,-258.370134,-1.12897,65.971765
2.2364,-0.027657,-0.014579,0.071057,-0.0054,0.005488,-0.009867,0.008439,-0.523367,0.071409,0.104632,-258.372329,-1.126168,65.96669
2.2566,-0.027981,-0.014545,0.072116,-0.005397,0.005487,-0.009868,0.008457,-0.523313,0.071219,0.104632,-258.372329,-1.126168,65.96669
2.2768,-0.028143,-0.014446,0.070775,-0.005394,0.005487,-0.009869,0.008582,-0.523057,0.071802,0.099409,-258.3745,-1.132254,65.961601
2.2968,-0.028294,-0.014343,0.069499,-0.005372,0.005498,-0.009869,0.007972,-0.523151,0.070851,0.099409,-258.3745,-1.132254,65.961601
2.3167,-0.028069,-0.014445,0.071313,-0.005354,0.005507,-0.00987,0.007972,-0.523151,0.070851,0.099409,-258.3745,-1.132254,65.961601
2.3365,-0.028373,-0.014081,0.069797,-0.005339,0.005514,-0.00987,0.008029,-0.522935,0.0709,0.099818,-258.376669,-1.132712,65.956514
2.3567,-0.027877,-0.013958,0.070262,-0.005319,0.005524,-0.009871,0.007658,-0.522871,0.070399,0.099818,-258.376669,-1.132712,65.956514
2.3765,-0.028041,-0.013648,0.068948,-0.005301,0.005532,-0.009871,0.007745,-0.522537,0.069949,0.095955,-258.378814,-1.137547,65.951429
2.3966,-0.028246,-0.013888,0.068773,-0.005273,0.005545,-0.009872,0.007141,-0.522437,0.069018,0.095955,-258.378814,-1.137547,65.951429
2.4166,-0.02819,-0.013601,0.070205,-0.005249,0.005556,-0.009872,0.007141,-0.522437,0.069018,0.095955,-258.378814,-1.137547,65.951429
2.4368,-0.028034,-0.013353,0.068519,-0.005229,0.005565,-0.009873,0.007348,-0.52213,0.069793,0.093448,-258.380942,-1.140837,65.946346
2.4566,-0.028175,-0.013944,0.068283,-0.005221,0.005566,-0.009873,0.00713,-0.522116,0.069224,0.093448,-258.380942,-1.140837,65.946346
2.4765,-0.028587,-0.013416,0.06722,-0.005215,0.005566,-0.009874,0.006444,-0.52259,0.067969,0.088647,-258.383039,-1.147132,65.941264
2.4968,-0.028534,-0.01275,0.067294,-0.005119,0.005613,-0.009873,0.005727,-0.522284,0.067269,0.088647,-258.383039,-1.147132,65.941264
2.5169,-0.028572,-0.013069,0.070025,-0.00504,0.005651,-0.009872,0.005727,-0.522284,0.067269,0.088647,-258.383039,-1.147132,65.941264
2.5366,-0.028239,-0.012549,0.068261,-0.004974,0.005681,-0.009871,0.006878,-0.521602,0.069612,0.088721,-258.385133,-1.148219,65.936178
2.5567,-0.028658,-0.012995,0.068192,-0.005005,0.005658,-0.009872,0.006716,-0.521479,0.069012,0.088721,-258.385133,-1.148219,65.936178
2.5765,-0.027857,-0.01259,0.067997,-0.00503,0.00564,-0.009872,0.005924,-0.521642,0.067881,0.069789,-258.387101,-1.169125,65.931159
2.597,-0.028608,-0.01299,0.067833,-0.005054,0.005624,-0.009872,0.006709,-0.521424,0.067971,0.069789,-258.387101,-1.169125,65.931159
2.6167,-0.028048,-0.012608,0.066076,-0.005073,0.005611,-0.009872,0.006709,-0.521424,0.067971,0.069789,-258.387101,-1.169125,65.931159
2.6369,-0.02814,-0.01225,0.067294,-0.005089,0.0056,-0.009873,0.005401,-0.521274,0.065663,0.077215,-258.389118,-1.163811,65.926077
2.6568,-0.027844,-0.012611,0.066928,-0.005044,0.005622,-0.009872,0.005679,-0.521176,0.066275,0.077215,-258.389118,-1.163811,65.926077
2.6763,-0.027963,-0.011856,0.066985,-0.005007,0.00564,-0.009872,0.00609,-0.521303,0.066614,0.084186,-258.391156,-1.158334,65.921011
2.6965,-0.028063,-0.012338,0.065867,-0.005023,0.005627,-0.009873,0.006158,-0.520756,0.066935,0.084186,-258.391156,-1.158334,65.921011
2.7164,-0.028434,-0.011785,0.067933,-0.005036,0.005617,-0.009873,0.006158,-0.520756,0.066935,0.084186,-258.391156,-1.158334,65.921011
2.7364,-0.028559,-0.012146,0.065231,-0.005047,0.005609,-0.009874,0.005961,-0.520388,0.067521,0.077642,-258.393165,-1.165454,65.915932
2.7563,-0.028238,-0.011891,0.064535,-0.005007,0.005628,-0.009873,0.005407,-0.520641,0.066526,0.077642,-258.393165,-1.165454,65.915932
2.7769,-0.028381,-0.011438,0.06646,-0.004974,0.005643,-0.009873,0.004481,-0.520662,0.064222,0.083263,-258.395189,-1.161684,65.910861
2.7963,-0.028607,-0.011507,0.06409,-0.004957,0.005648,-0.009873,0.005396,-0.520333,0.066256,0.083263,-258.395189,-1.161684,65.910861
2.8164,-0.02794,-0.011323,0.066604,-0.004943,0.005652,-0.009873,0.005396,-0.520333,0.066256,0.083263,-258.395189,-1.161684,65.910861
2.8365,-0.028508,-0.011365,0.06584,-0.004931,0.005656,-0.009873,0.00578,-0.519971,0.066193,0.077639,-258.397179,-1.167981,65.905799
2.8564,-0.028101,-0.011538,0.06445,-0.004936,0.005649,-0.009873,0.005454,-0.520064,0.066001,0.077639,-258.397179,-1.167981,65.905799
2.8767,-0.028565,-0.010678,0.064818,-0.004939,0.005644,-0.009873,0.004577,-0.520309,0.064136,0.075756,-258.39916,-1.171495,65.90072
2.8967,-0.028215,-0.010816,0.063749,-0.004878,0.005669,-0.009873,0.00447,-0.519658,0.064745,0.075756,-258.39916,-1.171495,65.90072
2.9166,-0.028291,-0.01099,0.064858,-0.004827,0.005688,-0.009872,0.00447,-0.519658,0.064745,0.075756,-258.39916,-1.171495,65.90072
2.9367,-0.028806,-0.01039,0.065161,-0.004785,0.005703,-0.009872,0.004542,-0.519696,0.064446,0.078115,-258.401142,-1.170523,65.895648
2.9567,-0.028233,-0.010767,0.06368,-0.004756,0.005712,-0.009871,0.004459,-0.51951,0.064694,0.078115,-258.401142,-1.170523,65.895648
2.9769,-0.028407,-0.010413,0.063354,-0.004731,0.005719,-0.009871,0.004059,-0.519563,0.063368,0.067963,-258.403052,-1.183515,65.890604
2.9964,-0.028437,-0.010213,0.062897,-0.004663,0.005743,-0.009869,0.003889,-0.519396,0.063339,0.067963,-258.403052,-1.183515,65.890604
3.0165,-0.028198,-0.010487,0.063328,-0.004607,0.005762,-0.009868,0.003889,-0.519396,0.063339,0.067963,-258.403052,-1.183515,65.890604
3.0368,-0.028505,-0.01009,0.06342,-0.004561,0.005776,-0.009867,0.003866,-0.519239,0.062916,0.065338,-258.404947,-1.187946,65.88554
3.0573,-0.028474,-0.009967,0.063517,-0.004526,0.005784,-0.009866,0.003821,-0.519141,0.063075,0.065338,-258.404947,-1.187946,65.88554
3.077,-0.02825,-0.009974,0.063374,-0.004497,0.00579,-0.009865,0.003743,-0.518765,0.063205,0.054756,-258.406768,-1.202006,65.880498
3.0966,-0.028161,-0.009733,0.061843,-0.0045,0.005782,-0.009866,0.004017,-0.518927,0.063345,0.054756,-258.406768,-1.202006,65.880498
3.1166,-0.028206,-0.010216,0.0635,-0.004502,0.005775,-0.009867,0.004017,-0.518927,0.063345,0.054756,-258.406768,-1.202006,65.880498
3.1362,-0.028405,-0.009602,0.062291,-0.004503,0.005769,-0.009867,0.003954,-0.518958,0.063088,0.052227,-258.408565,-1.207142,65.875451
3.1562,-0.027901,-0.009683,0.062497,-0.004476,0.005774,-0.009866,0.003682,-0.518791,0.062716,0.052227,-258.408565,-1.207142,65.875451
3.1774,-0.028419,-0.009766,0.063226,-0.004454,0.005778,-0.009866,0.003797,-0.518513,0.062183,0.057073,-258.410369,-1.206084,65.870401
3.1964,-0.028293,-0.009444,0.060369,-0.004451,0.005774,-0.009866,0.003794,-0.518712,0.063097,0.057073,-258.410369,-1.206084,65.870401
3.2163,-0.028042,-0.009107,0.063065,-0.004448,0.005771,-0.009866,0.003794,-0.518712,0.063097,0.057073,-258.410369,-1.206084,65.870401
3.2363,-0.028282,-0.008811,0.060425,-0.004445,0.005768,-0.009866,0.003899,-0.517863,0.062652,0.055534,-258.412154,-1.209953,65.865355
3.2562,-0.028629,-0.009064,0.061404,-0.004425,0.005761,-0.009869,0.003312,-0.517843,0.061697,0.055534,-258.412154,-1.209953,65.865355
3.2766,-0.028361,-0.008822,0.059973,-0.004409,0.005755,-0.00987,0.002516,-0.517929,0.061091,0.057945,-258.413934,-1.210376,65.860317
3.2966,-0.027927,-0.008629,0.060011,-0.004256,0.005791,-0.009866,0.002227,-0.517898,0.060057,0.057945,-258.413934,-1.210376,65.860317
3.3164,-0.028246,-0.008852,0.060954,-0.004133,0.005818,-0.009862,0.002227,-0.517898,0.060057,0.057945,-258.413934,-1.210376,65.860317
3.3363,-0.027819,-0.008006,0.060463,-0.004033,0.005838,-0.009858,0.002623,-0.517675,0.060541,0.06191,-258.4157,-1.212771,65.855287
3.3562,-0.028446,-0.008981,0.060854,-0.00404,0.005819,-0.00986,0.002754,-0.517403,0.060462,0.06191,-258.4157,-1.212771,65.855287
3.3764,-0.028467,-0.0079,0.060874,-0.004044,0.005803,-0.00986,0.002434,-0.517863,0.060547,0.045275,-258.417289,-1.242976,65.850356
3.3964,-0.02843,-0.007968,0.060116,-0.004033,0.005785,-0.00986,0.002543,-0.517019,0.060834,0.045275,-258.417289,-1.242976,65.850356
3.4164,-0.028022,-0.008153,0.060036,-0.004023,0.005769,-0.00986,0.002543,-0.517019,0.060834,0.045275,-258.417289,-1.242976,65.850356
3.4365,-0.028223,-0.007745,0.059526,-0.004016,0.005756,-0.009859,0.002396,-0.517003,0.059625,0.054191,-258.418902,-1.24127,65.845377
3.4564,-0.028473,-0.007937,0.060413,-0.003973,0.005752,-0.009856,0.002261,-0.51691,0.059537,0.054191,-258.418902,-1.24127,65.845377
3.4768,-0.028284,-0.007663,0.060693,-0.003939,0.005748,-0.009853,0.002181,-0.516832,0.060101,0.06587,-258.420508,-1.242206,65.840412
3.4969,-0.028246,-0.00719,0.05786,-0.003969,0.005721,-0.009854,0.002603,-0.516724,0.060626,0.06587,-258.420508,-1.242206,65.840412
3.517,-0.028733,-0.007633,0.059329,-0.003993,0.005699,-0.009854,0.002603,-0.516724,0.060626,0.06587,-258.420508,-1.242206,65.840412
3.5363,-0.028433,-0.007412,0.057825,-0.004012,0.005681,-0.009854,0.001328,-0.516505,0.058916,0.068407,-258.422089,-1.247779,65.835444
3.5566,-0.028132,-0.006969,0.058961,-0.003801,0.005706,-0.009848,0.001189,-0.516501,0.058417,0.068407,-258.422089,-1.247779,65.835444
3.5764,-0.027926,-0.007066,0.057223,-0.003634,0.005723,-0.009842,0.001784,-0.515911,0.05865,0.083916,-258.42369,-1.240434,65.830527
3.5966,-0.028341,-0.006567,0.058354,-0.003523,0.005718,-0.009836,0.001281,-0.516196,0.057329,0.083916,-258.42369,-1.240434,65.830527
3.6162,-0.028041,-0.006885,0.056601,-0.003436,0.005711,-0.009831,0.001281,-0.516196,0.057329,0.083916,-258.42369,-1.240434,65.830527
3.6369,-0.028076,-0.00655,0.058326,-0.003366,0.005705,-0.009825,0.000648,-0.515842,0.056196,0.079018,-258.425124,-1.270489,65.825693
3.6567,-0.027781,-0.00657,0.056264,-0.003271,0.005679,-0.009821,0.001036,-0.515751,0.057011,0.079018,-258.425124,-1.270489,65.825693
3.6765,-0.028144,-0.006523,0.056225,-0.003195,0.005656,-0.009815,0.000781,-0.515588,0.055953,0.087753,-258.426467,-1.290763,65.820852
3.6966,-0.028066,-0.006315,0.056025,-0.003035,0.005641,-0.009811,0.000532,-0.515698,0.056187,0.087753,-258.426467,-1.290763,65.820852
3.7168,-0.028148,-0.006417,0.056109,-0.002909,0.005626,-0.009805,0.000532,-0.515698,0.056187,0.087753,-258.426467,-1.290763,65.820852
3.7371,-0.027755,-0.005966,0.055298,-0.002809,0.005613,-0.009798,0.000307,-0.515387,0.055702,0.105752,-258.427743,-1.303113,65.816055
3.7565,-0.028126,-0.006071,0.05431,-0.00269,0.005572,-0.009793,0.000341,-0.51528,0.055492,0.105752,-258.427743,-1.303113,65.816055
3.7767,-0.027806,-0.006148,0.055541,-0.002597,0.005537,-0.009787,-0.000537,-0.515151,0.054007,0.131388,-258.428847,-1.333139,65.811407
3.7966,-0.027876,-0.005909,0.055363,-0.00254,0.005511,-0.009779,0.000405,-0.515334,0.055385,0.131388,-258.428847,-1.333139,65.811407
3.8162,-0.0282,-0.005673,0.055849,-0.002495,0.005489,-0.009771,0.000405,-0.515334,0.055385,0.131388,-258.428847,-1.333139,65.811407
3.8368,-0.02779,-0.005252,0.055339,-0.002459,0.00547,-0.009763,0.00015,-0.514659,0.05545,0.168022,-258.429874,-1.348969,65.806804
3.8566,-0.027568,-0.005408,0.054801,-0.002395,0.005381,-0.009761,0.000247,-0.514557,0.055358,0.168022,-258.429874,-1.348969,65.806804
3.8764,-0.027785,-0.005118,0.054981,-0.002345,0.00531,-0.009756,0.00028,-0.514475,0.054495,0.197686,-258.430861,-1.358949,65.802199
3.8969,-0.027564,-0.005439,0.056247,-0.002307,0.005227,-0.009751,0.00024,-0.51435,0.054923,0.197686,-258.430861,-1.358949,65.802199
3.9168,-0.027477,-0.005232,0.055314,-0.002279,0.00516,-0.009745,0.00024,-0.51435,0.054923,0.197686,-258.430861,-1.358949,65.802199
3.9371,-0.027402,-0.004938,0.054,-0.002257,0.005107,-0.009738,0.000618,-0.514253,0.054939,0.269793,-258.431756,-1.36561,65.797967
3.9567,-0.027744,-0.004816,0.054214,-0.002286,0.005044,-0.00973,0.000406,-0.514206,0.054515,0.269793,-258.431756,-1.36561,65.797967
3.9764,-0.027534,-0.004872,0.055321,-0.002308,0.004993,-0.009722,-0.00018,-0.513926,0.05394,0.344735,-258.43261,-1.369427,65.793966
3.9965,-0.027249,-0.00455,0.053522,-0.002376,0.004932,-0.009713,0.000587,-0.51407,0.055185,0.344735,-258.43261,-1.369427,65.793966
4.0166,-0.027039,-0.004859,0.053601,-0.002429,0.004884,-0.009705,0.000587,-0.51407,0.055185,0.344735,-258.43261,-1.369427,65.793966
4.0365,-0.027692,-0.004526,0.051891,-0.002471,0.004848,-0.009697,0.00018,-0.513929,0.053206,0.388242,-258.433577,-1.36269,65.789635
4.0568,-0.027691,-0.004481,0.053451,-0.002245,0.004794,-0.0097,-0.000408,-0.51387,0.052626,0.388242,-258.433577,-1.36269,65.789635
4.0763,-0.0272,-0.004273,0.052728,-0.002072,0.004751,-0.009698,-0.00053,-0.513604,0.053146,0.410462,-258.434641,-1.345308,65.785271
4.0963,-0.027182,-0.004369,0.053897,-0.00195,0.004667,-0.009694,-0.000345,-0.51356,0.05275,0.410462,-258.434641,-1.345308,65.785271
4.1165,-0.027114,-0.004406,0.052943,-0.001857,0.004601,-0.009687,-0.000345,-0.51356,0.05275,0.410462,-258.434641,-1.345308,65.785271
4.1367,-0.026918,-0.004019,0.053048,-0.001785,0.004547,-0.009679,-0.000206,-0.513531,0.05261,0.48543,-258.435426,-1.379048,65.781686
4.157,-0.027168,-0.003785,0.053387,-0.001804,0.004483,-0.009664,-8.3e-05,-0.51342,0.052746,0.48543,-258.435426,-1.379048,65.781686
4.1763,-0.027096,-0.004335,0.05101,-0.001819,0.004433,-0.009651,5e-06,-0.512967,0.053194,0.560413,-258.435995,-1.401732,65.779
4.1965,-0.027157,-0.00375,0.052706,-0.001599,0.004409,-0.009641,-0.000993,-0.513601,0.051203,0.560413,-258.435995,-1.401732,65.779
4.2164,-0.026765,-0.003944,0.05088,-0.001427,0.00439,-0.009629,-0.000993,-0.513601,0.051203,0.560413,-258.435995,-1.401732,65.779
4.2363,-0.026782,-0.003552,0.051187,-0.001294,0.004373,-0.009617,-0.000898,-0.513137,0.050557,0.63539,-258.436745,-1.396452,65.775628
4.2566,-0.027297,-0.003644,0.051637,-0.001217,0.004259,-0.009605,-0.000821,-0.513018,0.050774,0.63539,-258.436745,-1.396452,65.775628
4.2766,-0.02679,-0.003286,0.05388,-0.001158,0.00417,-0.00959,-0.000996,-0.512905,0.051507,0.710431,-258.437085,-1.445221,65.773855
4.2968,-0.027383,-0.003435,0.049848,-0.001521,0.003997,-0.00956,0.000531,-0.512574,0.05367,0.710431,-258.437085,-1.445221,65.773855
4.3164,-0.026778,-0.003399,0.05264,-0.001801,0.003871,-0.009533,0.000531,-0.512574,0.05367,0.710431,-258.437085,-1.445221,65.773855
4.3363,-0.026606,-0.003701,0.052207,-0.002016,0.003781,-0.00951,3.4e-05,-0.512633,0.052507,0.785549,-258.437361,-1.455844,65.772494
4.3563,-0.026697,-0.003327,0.051468,-0.002026,0.003775,-0.009468,2.1e-05,-0.512779,0.052369,0.785549,-258.437361,-1.455844,65.772494
4.3768,-0.026803,-0.003295,0.050039,-0.002035,0.003771,-0.009434,-0.000519,-0.512549,0.051203,0.788359,-258.438359,-1.380817,65.769075
4.3969,-0.026823,-0.003212,0.051717,-0.001688,0.003711,-0.00943,-0.00123,-0.512642,0.050126,0.788359,-258.438359,-1.380817,65.769075
4.4169,-0.026769,-0.002727,0.05066,-0.001419,0.003664,-0.009419,-0.00123,-0.512642,0.050126,0.788359,-258.438359,-1.380817,65.769075
4.4366,-0.026787,-0.003348,0.051789,-0.001211,0.003626,-0.009404,-0.001036,-0.511921,0.050269,0.774461,-258.439484,-1.360517,65.765221
4.4568,-0.026584,-0.003279,0.049091,-0.001158,0.003507,-0.009389,-0.000783,-0.512205,0.05084,0.774461,-258.439484,-1.360517,65.765221
4.4769,-0.02658,-0.00318,0.049641,-0.001117,0.003416,-0.009373,-0.001571,-0.512634,0.049016,0.849319,-258.439738,-1.435376,65.76424
4.4969,-0.026534,-0.003165,0.049662,-0.000959,0.003416,-0.009342,-0.001303,-0.512558,0.049577,0.849319,-258.439738,-1.435376,65.76424
4.5167,-0.026457,-0.003112,0.049069,-0.000836,0.003415,-0.009313,-0.001303,-0.512558,0.049577,0.849319,-258.439738,-1.435376,65.76424
4.5368,-0.026175,-0.002507,0.049066,-0.000739,0.003412,-0.009288,-0.001461,-0.512454,0.048953,0.92432,-258.440049,-1.449173,65.763121
4.5564,-0.026525,-0.003144,0.0503,-0.000642,0.003332,-0.009255,-0.001341,-0.512221,0.048986,0.92432,-258.440049,-1.449173,65.763121
4.5764,-0.02623,-0.003309,0.050048,-0.000567,0.003269,-0.009225,-0.000889,-0.512481,0.050253,0.999316,-258.440206,-1.489578,65.762521
4.5967,-0.026466,-0.002912,0.050788,-0.000701,0.00334,-0.009151,-0.000732,-0.512653,0.050064,0.999316,-258.440206,-1.489578,65.762521
4.6165,-0.026299,-0.002942,0.049726,-0.000801,0.003395,-0.009092,-0.000732,-0.512653,0.050064,0.999316,-258.440206,-1.489578,65.762521
4.6367,-0.02643,-0.003002,0.048382,-0.000878,0.003439,-0.009045,-0.000957,-0.51229,0.049666,1.074362,-258.440359,-1.507142,65.761958
4.6565,-0.026783,-0.002779,0.049569,-0.000785,0.00339,-0.009006,-0.001282,-0.512334,0.049143,1.074362,-258.440359,-1.507142,65.761958
4.6762,-0.026223,-0.00268,0.049556,-0.000713,0.003353,-0.008971,-0.001542,-0.512061,0.049326,1.149316,-258.441121,-1.473181,65.758926
4.6967,-0.026754,-0.002874,0.049183,-0.000724,0.00326,-0.008946,-0.001013,-0.51205,0.049524,1.149316,-258.441121,-1.473181,65.758926
4.7166,-0.026511,-0.00297,0.04935,-0.000733,0.00319,-0.008924,-0.001013,-0.51205,0.049524,1.149316,-258.441121,-1.473181,65.758926
4.7363,-0.026218,-0.002716,0.048456,-0.000741,0.003137,-0.008905,-0.001385,-0.51223,0.04903,1.224393,-258.441887,-1.49021,65.755901
4.757,-0.026293,-0.002535,0.048302,-0.000632,0.003113,-0.008895,-0.001442,-0.512171,0.048761,1.224393,-258.441887,-1.49021,65.755901
4.7765,-0.025975,-0.002547,0.048686,-0.000548,0.003093,-0.008885,-0.001697,-0.511843,0.048023,1.259452,-258.442834,-1.48464,65.752527
4.7967,-0.025961,-0.002589,0.049428,-0.000538,0.003021,-0.00889,-0.001206,-0.511928,0.048611,1.259452,-258.442834,-1.48464,65.752527
4.8166,-0.025897,-0.002745,0.048881,-0.000531,0.002966,-0.008893,-0.001206,-0.511928,0.048611,1.259452,-258.442834,-1.48464,65.752527
4.8366,-0.025739,-0.002358,0.048163,-0.000526,0.002924,-0.008894,-0.001004,-0.512021,0.048548,1.334448,-258.443692,-1.506517,65.749472
4.8565,-0.025329,-0.002595,0.047502,-0.000558,0.002887,-0.008906,-0.001081,-0.511904,0.048354,1.334448,-258.443692,-1.506517,65.749472
4.8763,-0.025403,-0.002062,0.047068,-0.000582,0.00286,-0.008915,-0.001133,-0.511928,0.047222,1.36411,-258.444705,-1.507948,65.746163
4.8965,-0.025282,-0.002069,0.047701,-0.000497,0.002719,-0.008943,-0.001385,-0.511529,0.047067,1.36411,-258.444705,-1.507948,65.746163
4.9165,-0.02563,-0.002292,0.049252,-0.000433,0.002611,-0.008962,-0.001385,-0.511529,0.047067,1.36411,-258.444705,-1.507948,65.746163
4.9367,-0.025067,-0.002205,0.049044,-0.000385,0.002529,-0.008975,-0.000551,-0.511556,0.048882,1.349416,-258.445758,-1.500845,65.742854
4.9567,-0.025519,-0.001995,0.047705,-0.000681,0.002498,-0.008958,-0.000356,-0.511557,0.048905,1.349416,-258.445758,-1.500845,65.742854
4.9761,-0.025244,-0.002345,0.047782,-0.000907,0.002478,-0.008946,-0.001213,-0.511345,0.047458,1.424297,-258.44679,-1.522788,65.740073
4.9964,-0.024945,-0.001756,0.047098,-0.000898,0.002504,-0.00896,-0.000914,-0.511722,0.04774,1.424297,-258.44679,-1.522788,65.740073
5.0169,-0.025454,-0.001871,0.047607,-0.000892,0.002524,-0.008972,-0.000914,-0.511722,0.04774,1.424297,-258.44679,-1.522788,65.740073
5.0367,-0.025221,-0.001614,0.047748,-0.000887,0.002539,-0.008982,-0.001209,-0.511226,0.047357,1.349348,-258.447608,-1.457104,65.737979
5.0565,-0.025209,-0.002057,0.046569,-0.000809,0.002361,-0.009022,-0.001082,-0.511142,0.047484,1.349348,-258.447608,-1.457104,65.737979
5.0766,-0.025106,-0.001668,0.045596,-0.000751,0.002226,-0.00905,-0.001497,-0.511431,0.046306,1.277755,-258.448745,-1.459828,65.735012
5.097,-0.025084,-0.001897,0.045881,-0.000508,0.002103,-0.009117,-0.001827,-0.511162,0.04565,1.277755,-258.448745,-1.459828,65.735012
5.1172,-0.025118,-0.001322,0.046127,-0.00032,0.002008,-0.009164,-0.001827,-0.511162,0.04565,1.277755,-258.448745,-1.459828,65.735012
5.1364,-0.024793,-0.001561,0.045806,-0.000174,0.001932,-0.009196,-0.001635,-0.510695,0.045776,1.346974,-258.449995,-1.474192,65.732135
5.1567,-0.024519,-0.001875,0.046164,-0.000115,0.001762,-0.009242,-0.00156,-0.510818,0.045748,1.346974,-258.449995,-1.474192,65.732135
5.1762,-0.024485,-0.001193,0.045813,-7e-05,0.001631,-0.009275,-0.000992,-0.511298,0.046001,1.421967,-258.450814,-1.547785,65.73046
5.1965,-0.024344,-0.001429,0.046543,-0.000163,0.001507,-0.009276,-0.001116,-0.510714,0.045821,1.421967,-258.450814,-1.547785,65.73046
5.2168,-0.024784,-0.001526,0.04601,-0.000234,0.001413,-0.009277,-0.001116,-0.510714,0.045821,1.421967,-258.450814,-1.547785,65.73046
5.2366,-0.024462,-0.001179,0.046062,-0.000289,0.001342,-0.009276,-0.001335,-0.510935,0.045716,1.496964,-258.452033,-1.561228,65.728255
5.2564,-0.024324,-0.001295,0.044983,-0.00031,0.001325,-0.009271,-0.001191,-0.510808,0.045823,1.496964,-258.452033,-1.561228,65.728255
5.2766,-0.024334,-0.001207,0.044216,-0.000326,0.001311,-0.009267,-0.001401,-0.510738,0.044693,1.504149,-258.453737,-1.529645,65.725497
5.2966,-0.024149,-0.001509,0.043835,-0.000181,0.001254,-0.009291,-0.001756,-0.510709,0.044244,1.504149,-258.453737,-1.529645,65.725497
5.3166,-0.024147,-0.001183,0.044601,-6.8e-05,0.001209,-0.009306,-0.001756,-0.510709,0.044244,1.504149,-258.453737,-1.529645,65.725497
5.3363,-0.023708,-0.001124,0.045135,1.8e-05,0.001172,-0.009314,-0.001424,-0.510622,0.044214,1.495928,-258.455479,-1.524027,65.72271
5.3566,-0.024028,-0.001733,0.044441,-9.1e-05,0.001122,-0.009302,-0.001129,-0.510609,0.044545,1.495928,-258.455479,-1.524027,65.72271
5.3761,-0.024025,-0.001493,0.043492,-0.000173,0.001085,-0.009293,-0.001372,-0.511197,0.044182,1.570926,-258.457053,-1.573473,65.720318
5.3963,-0.023669,-0.001195,0.043161,-6.3e-05,0.001186,-0.009291,-0.00181,-0.511025,0.04354,1.570926,-258.457053,-1.573473,65.720318
5.4165,-0.023921,-0.001582,0.044151,2.4e-05,0.001261,-0.00929,-0.00181,-0.511025,0.04354,1.570926,-258.457053,-1.573473,65.720318
5.4368,-0.023439,-0.001139,0.043838,9.2e-05,0.001317,-0.00929,-0.00142,-0.511042,0.043776,1.53305,-258.458823,-1.545159,65.717712
5.4565,-0.02343,-0.000986,0.044285,6e-06,0.001328,-0.009276,-0.001286,-0.510877,0.043758,1.53305,-258.458823,-1.545159,65.717712
5.4764,-0.023287,-0.001272,0.042395,-5.9e-05,0.001337,-0.009267,-0.000851,-0.510447,0.044012,1.591811,-258.460434,-1.583893,65.715128
5.4964,-0.023484,-0.001224,0.04465,-1.6e-05,0.001304,-0.009278,-0.001599,-0.51078,0.042525,1.591811,-258.460434,-1.583893,65.715128
5.5172,-0.023267,-0.001135,0.042948,1.8e-05,0.001279,-0.009286,-0.001599,-0.51078,0.042525,1.591811,-258.460434,-1.583893,65.715128
5.5364,-0.022944,-0.000927,0.043991,4.3e-05,0.00126,-0.009291,-0.001375,-0.51061,0.042568,1.557213,-258.462117,-1.562403,65.712403
5.5568,-0.022766,-0.001071,0.042118,-9.9e-05,0.001166,-0.009292,-0.001033,-0.510533,0.043092,1.557213,-258.462117,-1.562403,65.712403
5.5761,-0.022887,-0.001026,0.042635,-0.000208,0.001098,-0.009293,-0.001292,-0.510579,0.041825,1.5806,-258.463863,-1.577038,65.709662
5.5965,-0.023184,-0.000968,0.042746,-0.00025,0.001059,-0.009301,-0.001162,-0.510562,0.04255,1.5806,-258.463863,-1.577038,65.709662
5.6164,-0.02308,-0.000907,0.04243,-0.000283,0.00103,-0.009307,-0.001162,-0.510562,0.04255,1.5806,-258.463863,-1.577038,65.709662
5.6362,-0.022516,-0.001199,0.043097,-0.000308,0.001009,-0.009312,-0.001457,-0.510405,0.042067,1.525442,-258.46557,-1.540134,65.707137
5.6565,-0.022828,-0.000769,0.042717,-0.000351,0.000984,-0.009316,-0.001088,-0.51053,0.042442,1.525442,-258.46557,-1.540134,65.707137
5.6762,-0.022399,-0.000823,0.042189,-0.000384,0.000966,-0.009318,-0.00106,-0.510272,0.042422,1.505016,-258.467426,-1.524805,65.704483
5.6966,-0.022249,-0.000833,0.041179,-0.000465,0.000889,-0.009334,-0.000906,-0.510359,0.042195,1.505016,-258.467426,-1.524805,65.704483
5.7166,-0.022682,-0.000959,0.041876,-0.000529,0.000832,-0.009346,-0.000906,-0.510359,0.042195,1.505016,-258.467426,-1.524805,65.704483
5.7367,-0.022501,-0.00085,0.041151,-0.000578,0.00079,-0.009356,-0.001349,-0.510472,0.041488,1.489803,-258.469311,-1.513253,65.701831
5.7563,-0.022066,-0.000837,0.040823,-0.00046,0.000786,-0.009385,-0.00142,-0.510446,0.041307,1.489803,-258.469311,-1.513253,65.701831
5.7768,-0.022131,-0.000596,0.04084,-0.00037,0.000781,-0.009406,-0.001271,-0.510389,0.040535,1.454032,-258.471225,-1.482219,65.699312
5.7965,-0.022143,-0.000849,0.040565,-0.000328,0.000681,-0.009431,-0.001306,-0.510189,0.040798,1.454032,-258.471225,-1.482219,65.699312
5.8166,-0.021954,-0.000932,0.040897,-0.000296,0.000605,-0.009447,-0.001306,-0.510189,0.040798,1.454032,-258.471225,-1.482219,65.699312
5.8365,-0.021857,-0.000769,0.038795,-0.000271,0.000547,-0.009458,-0.001118,-0.510475,0.040521,1.496357,-258.473128,-1.514137,65.696812
5.8566,-0.021847,-0.000661,0.039869,-0.000202,0.000594,-0.009459,-0.00151,-0.510435,0.039775,1.496357,-258.473128,-1.514137,65.696812
5.8763,-0.021384,-0.000612,0.038768,-0.000148,0.000628,-0.009459,-0.001528,-0.510239,0.039572,1.518963,-258.475203,-1.527917,65.694304
5.8967,-0.021737,-0.000824,0.039766,-7.5e-05,0.000595,-0.009475,-0.00161,-0.510229,0.038822,1.518963,-258.475203,-1.527917,65.694304
5.9165,-0.021594,-0.000632,0.039107,-2e-05,0.000569,-0.009485,-0.00161,-0.510229,0.038822,1.518963,-258.475203,-1.527917,65.694304
5.9369,-0.021552,-0.000672,0.037634,2.4e-05,0.000548,-0.009491,-0.001662,-0.510216,0.038717,1.542113,-258.477233,-1.547734,65.691779
5.9567,-0.021295,-0.001175,0.038634,0.000142,0.000537,-0.009509,-0.001951,-0.510252,0.038226,1.542113,-258.477233,-1.547734,65.691779
5.9767,-0.021241,-0.000397,0.038539,0.000233,0.000527,-0.00952,-0.001596,-0.510778,0.038341,1.575321,-258.479269,-1.57454,65.689319
5.9965,-0.021242,-0.000466,0.038645,0.000217,0.000459,-0.009523,-0.001591,-0.510086,0.038506,1.575321,-258.479269,-1.57454,65.689319
6.0167,-0.021098,-0.000636,0.036448,0.000204,0.000407,-0.009524,-0.001591,-0.510086,0.038506,1.575321,-258.479269,-1.57454,65.689319
6.0364,-0.021019,-0.000654,0.039006,0.000195,0.000368,-0.009524,-0.002506,-0.510276,0.036066,1.614882,-258.481301,-1.607562,65.686882
6.0566,-0.021162,-0.000324,0.037625,0.000272,0.000403,-0.009527,-0.001937,-0.51027,0.037236,1.614882,-258.481301,-1.607562,65.686882
6.0764,-0.020787,-0.000672,0.036919,0.000331,0.000428,-0.009529,-0.001972,-0.509951,0.037322,1.606554,-258.483475,-1.602303,65.684415
6.097,-0.020892,-0.000196,0.037962,0.000384,0.000453,-0.00953,-0.001963,-0.51029,0.03694,1.606554,-258.483475,-1.602303,65.684415
6.1165,-0.02048,-0.00079,0.038668,0.000425,0.000471,-0.009531,-0.001963,-0.51029,0.03694,1.606554,-258.483475,-1.602303,65.684415
6.1363,-0.020431,-0.000694,0.036026,0.000458,0.000484,-0.009531,-0.000751,-0.51039,0.038276,1.632202,-258.485597,-1.623802,65.681956
6.1569,-0.020312,-0.000826,0.037371,0.000294,0.000533,-0.009504,-0.001283,-0.510377,0.037315,1.632202,-258.485597,-1.623802,65.681956
6.1763,-0.019977,-0.000573,0.036115,0.00017,0.000571,-0.009485,-0.001244,-0.510454,0.037071,1.656353,-258.48771,-1.64326,65.679462
6.1968,-0.020307,-0.001124,0.036282,0.000153,0.000555,-0.009488,-0.001534,-0.510258,0.036184,1.656353,-258.48771,-1.64326,65.679462
6.2169,-0.020378,-0.000691,0.036386,0.00014,0.000543,-0.00949,-0.001534,-0.510258,0.036184,1.656353,-258.48771,-1.64326,65.679462
6.2363,-0.019503,-0.000623,0.036469,0.00013,0.000534,-0.009492,-0.001819,-0.510331,0.036019,1.603316,-258.489642,-1.597483,65.677108
6.2565,-0.020115,-0.000352,0.037036,9.6e-05,0.000548,-0.009487,-0.001446,-0.510309,0.036161,1.603316,-258.489642,-1.597483,65.677108
6.2767,-0.019808,-0.00033,0.036103,7.1e-05,0.000559,-0.009484,-0.001228,-0.509985,0.036735,1.595547,-258.491744,-1.59137,65.67458
6.2967,-0.019586,-0.000268,0.03595,4e-05,0.000448,-0.009498,-0.001385,-0.509995,0.036143,1.595547,-258.491744,-1.59137,65.67458
6.3165,-0.0199,-0.000594,0.035653,1.5e-05,0.000365,-0.009507,-0.001385,-0.509995,0.036143,1.595547,-258.491744,-1.59137,65.67458
6.3368,-0.019439,-0.000495,0.035216,-4e-06,0.000303,-0.009513,-0.001718,-0.510246,0.035257,1.584308,-258.493831,-1.581929,65.672048
6.3567,-0.019328,-0.000122,0.034145,4.2e-05,0.000339,-0.009515,-0.001622,-0.510216,0.035195,1.584308,-258.493831,-1.581929,65.672048
6.3766,-0.019329,-0.000326,0.035188,7.7e-05,0.000366,-0.009517,-0.001918,-0.509815,0.033844,1.570096,-258.496023,-1.570166,65.669615
6.3967,-0.019061,-0.000448,0.035527,5.7e-05,0.000302,-0.009523,-0.001433,-0.509993,0.035057,1.570096,-258.496023,-1.570166,65.669615
6.4169,-0.019013,-0.000358,0.034401,4.1e-05,0.000254,-0.009528,-0.001433,-0.509993,0.035057,1.570096,-258.496023,-1.570166,65.669615
6.4363,-0.018837,-0.000247,0.035182,2.8e-05,0.000218,-0.00953,-0.001469,-0.510041,0.034005,1.584999,-258.498187,-1.583316,65.66716
6.4565,-0.018558,-0.000495,0.034984,-4.1e-05,0.00019,-0.009524,-0.001235,-0.509994,0.034441,1.584999,-258.498187,-1.583316,65.66716
6.4765,-0.018701,-1.6e-05,0.034158,-9.4e-05,0.00017,-0.009519,-0.000719,-0.510176,0.034681,1.575825,-258.500423,-1.575462,65.66475
6.4965,-0.018514,-1.6e-05,0.03324,-0.000133,6.2e-05,-0.009531,-0.001235,-0.509758,0.034188,1.575825,-258.500423,-1.575462,65.66475
6.5164,-0.018826,-0.000366,0.035174,-0.000163,-1.9e-05,-0.009538,-0.001235,-0.509758,0.034188,1.575825,-258.500423,-1.575462,65.66475
6.5364,-0.018314,-0.000218,0.034395,-0.000187,-8.1e-05,-0.009543,-0.000895,-0.510044,0.034781,1.554071,-258.502648,-1.555021,65.66239
6.5569,-0.018448,-0.000314,0.033572,-0.000338,-3.7e-05,-0.009521,-0.000847,-0.509991,0.034579,1.554071,-258.502648,-1.555021,65.66239
6.5765,-0.018229,-0.000329,0.032974,-0.000452,-2e-06,-0.009506,-0.001335,-0.510029,0.033269,1.539167,-258.504998,-1.538282,65.660104
6.5967,-0.01801,-0.000198,0.031624,-0.000364,5e-05,-0.009512,-0.001409,-0.51005,0.032984,1.539167,-258.504998,-1.538282,65.660104
6.6165,-0.018128,-0.000376,0.032284,-0.000296,8.9e-05,-0.009517,-0.001409,-0.51005,0.032984,1.539167,-258.504998,-1.538282,65.660104
6.6364,-0.017879,-0.000213,0.031844,-0.000244,0.000118,-0.00952,-0.001683,-0.510111,0.031913,1.493054,-258.507181,-1.492988,65.657924
6.657,-0.018128,-0.000336,0.033571,-0.000134,0.000139,-0.009532,-0.001668,-0.510046,0.031841,1.493054,-258.507181,-1.492988,65.657924
6.6767,-0.017639,-0.000538,0.032263,-5e-05,0.000153,-0.009539,-0.001017,-0.510046,0.03328,1.527997,-258.509364,-1.529695,65.655651
6.6969,-0.017729,-0.000194,0.032726,-0.000131,0.000242,-0.009515,-0.001173,-0.510253,0.032336,1.527997,-258.509364,-1.529695,65.655651
6.7165,-0.018047,-0.000555,0.032057,-0.000192,0.000311,-0.009498,-0.001173,-0.510253,0.032336,1.527997,-258.509364,-1.529695,65.655651
6.737,-0.017829,-0.000378,0.032793,-0.000238,0.000363,-0.009487,-0.001703,-0.510286,0.031673,1.562054,-258.51155,-1.562501,65.653346
6.7566,-0.017246,3.1e-05,0.032748,-0.000185,0.000386,-0.009493,-0.001465,-0.510213,0.032076,1.562054,-258.51155,-1.562501,65.653346
6.7767,-0.017484,-0.000338,0.031219,-0.000144,0.000404,-0.009498,-0.000555,-0.509684,0.032456,1.527075,-258.513655,-1.532224,65.65096
6.7966,-0.017175,-0.000557,0.03271,-0.000105,0.000358,-0.009511,-0.001478,-0.510054,0.031311,1.527075,-258.513655,-1.532224,65.65096
6.8167,-0.017443,0.000163,0.030206,-7.5e-05,0.000323,-0.009519,-0.001478,-0.510054,0.031311,1.527075,-258.513655,-1.532224,65.65096
6.8363,-0.017108,-0.000271,0.030477,-5.2e-05,0.000296,-0.009525,-0.002047,-0.509587,0.029813,1.544166,-258.515792,-1.547633,65.648503
6.8569,-0.017526,-0.000208,0.031616,6.5e-05,0.000174,-0.009561,-0.001853,-0.509767,0.030037,1.544166,-258.515792,-1.547633,65.648503
6.8764,-0.017005,-0.000156,0.030326,0.000156,8.1e-05,-0.009584,-0.001407,-0.509944,0.031314,1.56134,-258.517987,-1.562256,65.646073
6.8966,-0.016838,-0.000166,0.028767,0.00014,6.2e-05,-0.009577,-0.00153,-0.509923,0.030394,1.56134,-258.517987,-1.562256,65.646073
6.9167,-0.01675,-0.000199,0.030134,0.000128,4.8e-05,-0.00957,-0.00153,-0.509923,0.030394,1.56134,-258.517987,-1.562256,65.646073
6.9364,-0.016394,-0.00056,0.030244,0.00012,3.6e-05,-0.009565,-0.001378,-0.509964,0.02975,1.597758,-258.520204,-1.597022,65.643794
6.9569,-0.016596,-4.8e-05,0.029602,1.4e-05,9.9e-05,-0.009538,-0.00121,-0.510113,0.029909,1.597758,-258.520204,-1.597022,65.643794
6.9764,-0.016291,-0.000127,0.028533,-6.5e-05,0.000148,-0.009518,-0.001497,-0.509824,0.029298,1.591393,-258.522521,-1.591141,65.641448
6.9967,-0.016278,2.2e-05,0.029424,2.2e-05,0.000111,-0.009536,-0.001719,-0.50991,0.028587,1.591393,-258.522521,-1.591141,65.641448
7.0168,-0.016126,5e-05,0.028747,8.9e-05,8.2e-05,-0.009548,-0.001719,-0.50991,0.028587,1.591393,-258.522521,-1.591141,65.641448
7.0366,-0.016164,-0.000396,0.028568,0.00014,6e-05,-0.009556,-0.00147,-0.509734,0.028362,1.559299,-258.524719,-1.559868,65.639136
7.0567,-0.016546,3.5e-05,0.028505,0.000127,4.4e-05,-0.009551,-0.001523,-0.509921,0.028402,1.559299,-258.524719,-1.559868,65.639136
7.0767,-0.0158,-0.000474,0.029319,0.000117,3.2e-05,-0.009548,-0.002007,-0.509756,0.028213,1.595012,-258.52694,-1.59452,65.636869
7.0967,-0.015728,3e-06,0.029614,-7.5e-05,0.000134,-0.009511,-0.000951,-0.510211,0.029207,1.595012,-258.52694,-1.59452,65.636869
7.1168,-0.01607,8.1e-05,0.030705,-0.00022,0.000213,-0.009485,-0.000951,-0.510211,0.029207,1.595012,-258.52694,-1.59452,65.636869
7.1364,-0.015487,8.4e-05,0.028384,-0.00033,0.000274,-0.009467,-0.000408,-0.509677,0.030305,1.59101,-258.529259,-1.590788,65.634524
7.1565,-0.01544,-0.00011,0.027846,-0.000512,0.000104,-0.009474,-0.000656,-0.509691,0.029472,1.59101,-258.529259,-1.590788,65.634524
7.1771,-0.015535,0.00019,0.029014,-0.000652,-2.1e-05,-0.00948,-0.001249,-0.509905,0.027598,1.515996,-258.531083,-1.516441,65.632519
7.1967,-0.015461,-0.000191,0.026483,-0.000711,-0.000137,-0.00949,-0.000788,-0.509624,0.028869,1.515996,-258.531083,-1.516441,65.632519
7.2163,-0.015608,-0.000146,0.026701,-0.000758,-0.000224,-0.009496,-0.000788,-0.509624,0.028869,1.515996,-258.531083,-1.516441,65.632519
7.2364,-0.015083,-0.000362,0.026425,-0.000796,-0.000289,-0.009501,-0.002016,-0.509966,0.026345,1.459095,-258.533186,-1.458287,65.630431
7.2564,-0.015387,3.5e-05,0.027157,-0.000528,-0.000158,-0.009515,-0.001851,-0.510056,0.026336,1.459095,-258.533186,-1.458287,65.630431
7.2764,-0.015346,0.000304,0.027171,-0.000319,-6.2e-05,-0.009525,-0.001564,-0.509787,0.026861,1.440883,-258.535593,-1.427433,65.628248
7.2964,-0.015199,-0.000542,0.027306,-0.000239,-0.000189,-0.009551,-0.001498,-0.509532,0.02713,1.440883,-258.535593,-1.427433,65.628248
7.3165,-0.015166,-0.000381,0.027668,-0.000178,-0.000286,-0.009568,-0.001498,-0.509532,0.02713,1.440883,-258.535593,-1.427433,65.628248
7.3368,-0.015291,-0.000198,0.027256,-0.000131,-0.00036,-0.009579,-0.001069,-0.510188,0.027348,1.515901,-258.537491,-1.502451,65.62639
7.3565,-0.014367,-0.000251,0.026557,-0.000189,-0.000197,-0.009536,-0.001203,-0.510115,0.027273,1.515901,-258.537491,-1.502451,65.62639
7.3763,-0.014858,-6.8e-05,0.026642,-0.000231,-7.4e-05,-0.009504,-0.000829,-0.510082,0.026267,1.549739,-258.539854,-1.546977,65.624301
7.3965,-0.014492,-2e-05,0.025839,-0.000248,-6.3e-05,-0.009493,-0.001235,-0.509904,0.026595,1.549739,-258.539854,-1.546977,65.624301
7.4164,-0.015019,3e-05,0.025118,-0.00026,-5.5e-05,-0.009484,-0.001235,-0.509904,0.026595,1.549739,-258.539854,-1.546977,65.624301
7.4364,-0.014365,0.000133,0.026125,-0.000269,-4.8e-05,-0.009478,-0.00222,-0.509812,0.024725,1.531509,-258.542184,-1.530494,65.622029
7.4564,-0.014635,0.000356,0.024899,-0.000136,-8.8e-05,-0.009502,-0.001737,-0.509764,0.025256,1.531509,-258.542184,-1.530494,65.622029
7.4763,-0.014699,-0.000306,0.024905,-3.3e-05,-0.00012,-0.009518,-0.001947,-0.509488,0.024599,1.524761,-258.544519,-1.523989,65.619733
7.4966,-0.014522,-0.000699,0.023781,0.000102,-2.5e-05,-0.009517,-0.001994,-0.510091,0.024864,1.524761,-258.544519,-1.523989,65.619733
7.5163,-0.013944,-0.000266,0.024986,0.000208,4.5e-05,-0.009516,-0.001994,-0.510091,0.024864,1.524761,-258.544519,-1.523989,65.619733
7.5364,-0.013719,-0.000382,0.025358,0.000292,9.6e-05,-0.009515,-0.001203,-0.510112,0.024609,1.565192,-258.546768,-1.564956,65.617574
7.5566,-0.013702,-0.000258,0.024366,8.2e-05,0.000158,-0.009477,-0.001032,-0.510156,0.024874,1.565192,-258.546768,-1.564956,65.617574
7.5764,-0.014141,-0.000243,0.024585,-7.6e-05,0.000207,-0.00945,-0.001268,-0.510104,0.024092,1.621805,-258.54884,-1.620145,65.615434
7.5964,-0.014332,-0.000146,0.024904,-2.9e-05,0.000222,-0.009453,-0.001575,-0.51009,0.02453,1.621805,-258.54884,-1.620145,65.615434
7.6163,-0.013622,-0.000371,0.025491,7e-06,0.000234,-0.009455,-0.001575,-0.51009,0.02453,1.621805,-258.54884,-1.620145,65.615434
7.6366,-0.013595,-0.000352,0.023801,3.5e-05,0.000242,-0.009456,-0.000626,-0.510198,0.025143,1.557165,-258.550797,-1.558111,65.61333
7.6564,-0.013679,-7.7e-05,0.023668,-0.000133,0.000291,-0.009427,-0.000966,-0.510201,0.024555,1.557165,-258.550797,-1.558111,65.61333
7.6762,-0.013359,-0.000165,0.021894,-0.00026,0.000329,-0.009407,-0.001608,-0.509927,0.023371,1.577126,-258.552986,-1.576617,65.61095
7.6965,-0.013314,-0.000178,0.022644,-3.5e-05,0.000302,-0.00945,-0.002144,-0.510033,0.022004,1.577126,-258.552986,-1.576617,65.61095
7.7165,-0.013116,4.1e-05,0.023967,0.00014,0.00028,-0.00948,-0.002144,-0.510033,0.022004,1.577126,-258.552986,-1.576617,65.61095
7.7367,-0.012895,0.000126,0.021854,0.000276,0.000261,-0.009501,-0.000904,-0.509801,0.023606,1.522853,-258.554977,-1.528047,65.608718
7.7566,-0.012974,-0.000358,0.022152,0.000151,0.000139,-0.009495,-0.001252,-0.509779,0.022847,1.522853,-258.554977,-1.528047,65.608718
7.7763,-0.012845,-6.6e-05,0.02155,5.6e-05,4.9e-05,-0.00949,-0.001673,-0.510227,0.021922,1.597804,-258.556656,-1.602998,65.606881
7.7964,-0.012992,-0.000138,0.021028,0.000142,6.3e-05,-0.009492,-0.001839,-0.509972,0.021572,1.597804,-258.556656,-1.602998,65.606881
7.8164,-0.013107,3e-05,0.024741,0.000208,7.3e-05,-0.009492,-0.001839,-0.509972,0.021572,1.597804,-258.556656,-1.602998,65.606881
7.8365,-0.012357,0.000193,0.021895,0.00026,7.9e-05,-0.009491,-0.000488,-0.509812,0.024348,1.580494,-258.558929,-1.580333,65.604569
7.8564,-0.012606,-0.000197,0.021288,-2.3e-05,-1.7e-05,-0.009468,-0.000777,-0.509759,0.023295,1.580494,-258.558929,-1.580333,65.604569
7.8763,-0.012255,0.00034,0.019316,-0.000238,-8.7e-05,-0.009452,-0.001742,-0.510079,0.020998,1.61631,-258.561129,-1.615081,65.602308
7.8966,-0.012528,6.9e-05,0.021658,2.3e-05,-0.000152,-0.009503,-0.002347,-0.509609,0.019446,1.61631,-258.561129,-1.615081,65.602308
7.9166,-0.012883,0.000239,0.020331,0.000228,-0.000205,-0.009539,-0.002347,-0.509609,0.019446,1.61631,-258.561129,-1.615081,65.602308
7.9367,-0.01236,0.000206,0.021888,0.000388,-0.000248,-0.009563,-0.00252,-0.509659,0.02002,1.541333,-258.562976,-1.540103,65.600516
7.9569,-0.012344,-0.000299,0.019982,0.000433,-0.000274,-0.009559,-0.001983,-0.509664,0.020743,1.541333,-258.562976,-1.540103,65.600516
7.9765,-0.012056,-0.000129,0.021113,0.000469,-0.000295,-0.009554,-0.002148,-0.510203,0.019756,1.616223,-258.564789,-1.614994,65.59885
7.9965,-0.01187,-0.000266,0.019712,0.000323,-0.000184,-0.0095,-0.001361,-0.510031,0.020988,1.616223,-258.564789,-1.614994,65.59885
8.0166,-0.012054,-0.000173,0.021378,0.000214,-0.0001,-0.009459,-0.001361,-0.510031,0.020988,1.616223,-258.564789,-1.614994,65.59885
8.0363,-0.011782,6.1e-05,0.018711,0.000132,-3.6e-05,-0.009429,-0.001133,-0.510068,0.020995,1.647074,-258.567146,-1.655167,65.596719
8.057,-0.011913,8e-05,0.021532,0.000135,-4e-06,-0.009419,-0.001582,-0.50998,0.02002,1.647074,-258.567146,-1.655167,65.596719
8.0767,-0.011673,0.00013,0.020933,0.000138,2e-05,-0.009411,-0.000928,-0.509803,0.021261,1.59363,-258.569231,-1.593919,65.594659
8.0968,-0.01178,-0.000117,0.019588,-3.8e-05,-5.7e-05,-0.009396,-0.000992,-0.509762,0.020949,1.59363,-258.569231,-1.593919,65.594659
8.1166,-0.011285,-0.000227,0.019662,-0.000172,-0.000113,-0.009386,-0.000992,-0.509762,0.020949,1.59363,-258.569231,-1.593919,65.594659
8.1365,-0.011277,4.4e-05,0.018726,-0.000274,-0.000153,-0.00938,-0.001253,-0.510128,0.019267,1.594858,-258.571523,-1.594693,65.592352
8.1569,-0.011239,-0.00038,0.018907,-0.000217,-7.2e-05,-0.009378,-0.001443,-0.510023,0.019004,1.594858,-258.571523,-1.594693,65.592352
8.1764,-0.011167,0.000125,0.020395,-0.000173,-1.1e-05,-0.009377,-0.001604,-0.510293,0.018654,1.524248,-258.573522,-1.521695,65.590456
8.1969,-0.01099,-5.9e-05,0.02004,-0.00033,-5.7e-05,-0.009366,-0.000838,-0.509814,0.020234,1.524248,-258.573522,-1.521695,65.590456
8.2168,-0.010787,4e-06,0.020265,-0.000449,-9e-05,-0.009358,-0.000838,-0.509814,0.020234,1.524248,-258.573522,-1.521695,65.590456
8.2371,-0.010652,-0.000138,0.017884,-0.00054,-0.000113,-0.009354,-0.000459,-0.509892,0.019876,1.540639,-258.575796,-1.540523,65.588191
8.2567,-0.01115,7.5e-05,0.018619,-0.000591,-6.7e-05,-0.009345,-0.000898,-0.509959,0.019018,1.540639,-258.575796,-1.540523,65.588191
8.2768,-0.01064,-0.000533,0.017942,-0.000631,-3.2e-05,-0.00934,-0.00167,-0.50984,0.018358,1.47829,-258.577847,-1.474584,65.586219
8.2971,-0.010859,-2.1e-05,0.018461,-0.00049,0.000163,-0.009335,-0.001506,-0.510399,0.017965,1.47829,-258.577847,-1.474584,65.586219
8.3165,-0.010665,2.8e-05,0.018941,-0.00038,0.00031,-0.009333,-0.001506,-0.510399,0.017965,1.47829,-258.577847,-1.474584,65.586219
8.3371,-0.010773,-2.6e-05,0.018603,-0.000293,0.000421,-0.009334,-0.001032,-0.509882,0.018554,1.461301,-258.580134,-1.460083,65.583958
8.3566,-0.010791,-0.000123,0.019131,-0.000321,0.000315,-0.00935,-0.001136,-0.509905,0.018528,1.461301,-258.580134,-1.460083,65.583958
8.3766,-0.010524,0.00021,0.016148,-0.000343,0.000236,-0.009362,-0.001043,-0.510018,0.018864,1.51529,-258.582031,-1.522912,65.581758
8.397,-0.010315,0.000224,0.015775,-8.9e-05,0.000139,-0.009404,-0.002182,-0.509748,0.01637,1.51529,-258.582031,-1.522912,65.581758
8.4168,-0.01046,-1.2e-05,0.016695,0.00011,6.3e-05,-0.009432,-0.002182,-0.509748,0.01637,1.51529,-258.582031,-1.522912,65.581758
8.4363,-0.009967,-0.000143,0.014792,0.000265,2e-06,-0.009448,-0.001961,-0.509932,0.016304,1.508348,-258.58422,-1.513284,65.579381
8.4567,-0.010562,2e-05,0.017284,0.000377,3.7e-05,-0.009438,-0.00215,-0.509994,0.015646,1.508348,-258.58422,-1.513284,65.579381
8.4762,-0.010217,-0.000128,0.017088,0.000466,6e-05,-0.009428,-0.001746,-0.509904,0.017074,1.583229,-258.585832,-1.588164,65.577768
8.4966,-0.010094,-5.6e-05,0.016256,0.000376,9.1e-05,-0.009406,-0.001524,-0.51004,0.017076,1.583229,-258.585832,-1.588164,65.577768
8.5164,-0.009829,-7.1e-05,0.017449,0.000308,0.000115,-0.009391,-0.001524,-0.51004,0.017076,1.583229,-258.585832,-1.588164,65.577768
8.5365,-0.009625,0.000163,0.01702,0.000258,0.000133,-0.00938,-0.000914,-0.509991,0.017105,1.652404,-258.587824,-1.650717,65.575734
8.557,-0.009822,-5.7e-05,0.016667,3.3e-05,8.4e-05,-0.009358,-0.000925,-0.509897,0.017031,1.652404,-258.587824,-1.650717,65.575734
8.5764,-0.009408,0.000227,0.014658,-0.000137,4.9e-05,-0.009342,-0.001315,-0.509982,0.01638,1.616835,-258.589972,-1.614741,65.573485
8.5973,-0.009372,-7.4e-05,0.016616,1.2e-05,-2e-05,-0.009349,-0.001876,-0.509742,0.014799,1.616835,-258.589972,-1.614741,65.573485
8.617,-0.009022,-0.000419,0.015203,0.000128,-7.5e-05,-0.009351,-0.001876,-0.509742,0.014799,1.616835,-258.589972,-1.614741,65.573485
8.6363,-0.0089,-0.000229,0.01702,0.000218,-0.000117,-0.00935,-0.001274,-0.510358,0.014865,1.546532,-258.591915,-1.546942,65.571508
8.6572,-0.009597,-8.5e-05,0.014865,-3.1e-05,4.6e-05,-0.009297,-0.000852,-0.510277,0.01569,1.546532,-258.591915,-1.546942,65.571508
8.6765,-0.009024,5.4e-05,0.015079,-0.000218,0.000171,-0.00926,-0.00201,-0.510032,0.014602,1.608192,-258.593978,-1.609755,65.569527
8.6968,-0.00912,-0.000294,0.014387,-0.000176,0.000123,-0.009261,-0.001391,-0.509901,0.015026,1.608192,-258.593978,-1.609755,65.569527
8.7169,-0.008988,0.000132,0.014667,-0.000145,8.6e-05,-0.009261,-0.001391,-0.509901,0.015026,1.608192,-258.593978,-1.609755,65.569527
8.7364,-0.00878,-2.8e-05,0.014588,-0.00012,5.9e-05,-0.00926,-0.001515,-0.509808,0.014346,1.533071,-258.595794,-1.534634,65.567599
8.7566,-0.008951,-0.000259,0.015228,-8.5e-05,2.7e-05,-0.009244,-0.001445,-0.509875,0.014407,1.533071,-258.595794,-1.534634,65.567599
8.7764,-0.008632,-3.7e-05,0.014677,-5.8e-05,3e-06,-0.009229,-0.001189,-0.510199,0.014935,1.549337,-258.598017,-1.549777,65.565328
8.7964,-0.008263,1.6e-05,0.015863,-0.000128,3e-05,-0.009208,-0.001151,-0.510001,0.014685,1.549337,-258.598017,-1.549777,65.565328
8.8163,-0.008591,-4.9e-05,0.014534,-0.000182,5.2e-05,-0.009193,-0.001151,-0.510001,0.014685,1.549337,-258.598017,-1.549777,65.565328
8.8365,-0.008561,-0.000369,0.014708,-0.000222,6.8e-05,-0.009182,-0.001181,-0.509995,0.01415,1.560542,-258.60026,-1.560553,65.563083
8.8567,-0.008629,-2e-06,0.01524,-0.000262,0.000129,-0.009159,-0.001132,-0.510124,0.014331,1.560542,-258.60026,-1.560553,65.563083
8.8764,-0.008097,-0.000114,0.012048,-0.000291,0.000176,-0.009142,-0.000864,-0.509941,0.014955,1.530771,-258.602431,-1.531734,65.560859
8.8964,-0.007878,-0.000116,0.014221,-0.000114,0.000191,-0.009064,-0.001872,-0.510066,0.012252,1.530771,-258.602431,-1.531734,65.560859
8.9169,-0.008075,-0.000101,0.012684,2.4e-05,0.000202,-0.009002,-0.001872,-0.510066,0.012252,1.530771,-258.602431,-1.531734,65.560859
8.9365,-0.007739,0.000204,0.013226,0.000132,0.000208,-0.008953,-0.001618,-0.510053,0.012304,1.516965,-258.604575,-1.520248,65.558576
8.9565,-0.0079,7.2e-05,0.012985,8.6e-05,0.000156,-0.008925,-0.001367,-0.509931,0.012633,1.516965,-258.604575,-1.520248,65.558576
8.9766,-0.007892,5.5e-05,0.012357,5.1e-05,0.000117,-0.008903,-0.001275,-0.509879,0.012749,1.591601,-258.606321,-1.594023,65.556691
8.9965,-0.007805,4.1e-05,0.011656,8e-05,8.1e-05,-0.008881,-0.001563,-0.509904,0.012379,1.591601,-258.606321,-1.594023,65.556691
9.0169,-0.007711,5.9e-05,0.011757,0.000103,5.3e-05,-0.008862,-0.001563,-0.509904,0.012379,1.591601,-258.606321,-1.594023,65.556691
9.0367,-0.007336,0.000275,0.012186,0.000121,3.2e-05,-0.008847,-0.001713,-0.5099,0.011388,1.580343,-258.608438,-1.579941,65.554482
9.0568,-0.007516,7.8e-05,0.010395,0.000108,-1.9e-05,-0.008787,-0.00147,-0.509812,0.011672,1.580343,-258.608438,-1.579941,65.554482
9.0767,-0.007689,-2.6e-05,0.010215,9.8e-05,-5.7e-05,-0.00874,-0.00221,-0.509893,0.010115,1.593249,-258.610582,-1.592981,65.552312
9.0964,-0.00692,0.000189,0.011361,0.00031,-7e-06,-0.008573,-0.002458,-0.509991,0.010195,1.593249,-258.610582,-1.592981,65.552312
9.1163,-0.007423,7e-06,0.011064,0.000476,3e-05,-0.008447,-0.002458,-0.509991,0.010195,1.593249,-258.610582,-1.592981,65.552312
9.1366,-0.006864,8.7e-05,0.010386,0.000606,5.7e-05,-0.008352,-0.001776,-0.509964,0.0107,1.589036,-258.612733,-1.589432,65.550207
9.1564,-0.007533,0.000147,0.010872,0.000534,4.6e-05,-0.008297,-0.00169,-0.509932,0.010529,1.589036,-258.612733,-1.589432,65.550207
9.1765,-0.00675,0.000183,0.011247,0.00048,3.9e-05,-0.008255,-0.001977,-0.509822,0.010678,1.663801,-258.614208,-1.664198,65.548698
9.1969,-0.006887,0.000204,0.010224,0.000266,-3.4e-05,-0.008267,-0.001097,-0.509787,0.011188,1.663801,-258.614208,-1.664198,65.548698
9.2163,-0.007199,0.000143,0.012018,0.000104,-8.7e-05,-0.008279,-0.001097,-0.509787,0.011188,1.663801,-258.614208,-1.664198,65.548698
9.2364,-0.006735,-5e-06,0.009723,-1.9e-05,-0.000125,-0.008289,-0.00105,-0.509819,0.011673,1.666397,-258.616216,-1.664925,65.546659
9.2564,-0.006712,4.4e-05,0.008401,-4e-05,-0.000108,-0.008272,-0.001344,-0.509885,0.010838,1.666397,-258.616216,-1.664925,65.546659
9.2761,-0.006771,-0.000234,0.009483,-5.6e-05,-9.5e-05,-0.00826,-0.002425,-0.509941,0.008208,1.591479,-258.617736,-1.590007,65.545212
9.2963,-0.006379,-0.000128,0.009002,8.3e-05,3.5e-05,-0.008073,-0.001976,-0.510188,0.009365,1.591479,-258.617736,-1.590007,65.545212
9.3163,-0.006237,-0.000205,0.00842,0.000192,0.000132,-0.007936,-0.001976,-0.510188,0.009365,1.591479,-258.617736,-1.590007,65.545212
9.3361,-0.006542,-0.000157,0.010579,0.000276,0.000206,-0.007835,-0.001946,-0.51019,0.008085,1.559934,-258.61973,-1.559517,65.543292
9.3563,-0.006274,3.6e-05,0.009929,0.000253,0.000255,-0.007706,-0.001617,-0.510165,0.009071,1.559934,-258.61973,-1.559517,65.543292
9.3761,-0.006056,0.000146,0.009814,0.000236,0.000292,-0.007611,-0.001203,-0.509933,0.009714,1.631063,-258.621306,-1.626097,65.541575
9.3963,-0.005875,0.000202,0.008008,6.5e-05,0.000184,-0.007629,-0.001063,-0.509838,0.009795,1.631063,-258.621306,-1.626097,65.541575
9.4164,-0.006127,0.000192,0.008976,-6.5e-05,0.000105,-0.007643,-0.001063,-0.509838,0.009795,1.631063,-258.621306,-1.626097,65.541575
9.4363,-0.006051,-0.000264,0.007954,-0.000164,4.8e-05,-0.007654,-0.00154,-0.509775,0.008658,1.624802,-258.623048,-1.618431,65.5396
9.4564,-0.005678,0.000209,0.008537,-5.6e-05,7.3e-05,-0.007469,-0.001725,-0.509967,0.008333,1.624802,-258.623048,-1.618431,65.5396
9.4764,-0.006059,-0.000453,0.009207,2.7e-05,9.1e-05,-0.007334,-0.001327,-0.509771,0.008345,1.549834,-258.62451,-1.543463,65.538108
9.4965,-0.005934,7e-05,0.008779,-2.1e-05,0.000251,-0.007314,-0.00136,-0.510375,0.009124,1.549834,-258.62451,-1.543463,65.538108
9.5163,-0.005848,0.000334,0.007329,-5.6e-05,0.000373,-0.007302,-0.00136,-0.510375,0.009124,1.549834,-258.62451,-1.543463,65.538108
9.5364,-0.005691,7e-05,0.00832,-8.3e-05,0.000466,-0.007294,-0.002109,-0.509649,0.007032,1.576947,-258.626214,-1.576702,65.536333
9.5565,-0.005514,0.000159,0.008383,3.8e-05,0.000321,-0.007082,-0.001838,-0.509756,0.007524,1.576947,-258.626214,-1.576702,65.536333
9.5762,-0.005558,-0.000193,0.008752,0.000131,0.00021,-0.006926,-0.001241,-0.509808,0.008156,1.550066,-258.62778,-1.553989,65.534402
9.5966,-0.005503,0.000104,0.007153,-1.2e-05,0.000256,-0.006949,-0.001107,-0.510141,0.00869,1.550066,-258.62778,-1.553989,65.534402
9.6163,-0.005271,0.000226,0.006682,-0.000121,0.000292,-0.006967,-0.001107,-0.510141,0.00869,1.550066,-258.62778,-1.553989,65.534402
9.6362,-0.005244,0.000127,0.007213,-0.000203,0.000321,-0.006982,-0.001859,-0.509755,0.006414,1.603402,-258.629262,-1.600316,65.532765
9.6564,-0.005019,0.000176,0.006919,-8.4e-05,0.000233,-0.006672,-0.001739,-0.509796,0.006707,1.603402,-258.629262,-1.600316,65.532765
9.6765,-0.005382,-3e-06,0.006143,7e-06,0.000166,-0.006452,-0.001496,-0.509803,0.006737,1.528546,-258.630554,-1.526442,65.531264
9.6966,-0.004959,0.000134,0.005306,0.000173,0.000188,-0.006174,-0.002181,-0.509976,0.006188,1.528546,-258.630554,-1.526442,65.531264
9.7165,-0.004623,5.3e-05,0.005926,0.000303,0.000204,-0.00598,-0.002181,-0.509976,0.006188,1.528546,-258.630554,-1.526442,65.531264
9.7368,-0.005226,0.00025,0.007077,0.000404,0.000216,-0.005843,-0.001601,-0.509932,0.005673,1.572762,-258.631968,-1.572603,65.529725
9.7568,-0.005259,0.000305,0.00781,0.000345,0.00017,-0.00574,-0.001607,-0.509852,0.006215,1.572762,-258.631968,-1.572603,65.529725
9.7762,-0.005071,0.000288,0.007501,0.000301,0.000137,-0.005667,-0.00127,-0.509675,0.007683,1.64777,-258.632875,-1.647611,65.528702
9.7962,-0.004708,3.7e-05,0.006638,0.000168,3.3e-05,-0.005853,-0.001247,-0.509695,0.007512,1.64777,-258.632875,-1.647611,65.528702
9.8164,-0.004484,0.000793,0.007026,6.7e-05,-4.4e-05,-0.00599,-0.001247,-0.509695,0.007512,1.64777,-258.632875,-1.647611,65.528702
9.8364,-0.004817,0.000137,0.005517,-1.1e-05,-0.0001,-0.006092,-0.000888,-0.509188,0.006789,1.661091,-258.634206,-1.654267,65.527263
9.8564,-0.004817,1.7e-05,0.005519,-4.5e-05,-0.000223,-0.005933,-0.001336,-0.509457,0.006249,1.661091,-258.634206,-1.654267,65.527263
9.8766,-0.004394,0.000386,0.005887,-7.3e-05,-0.000315,-0.005819,-0.002001,-0.509978,0.005369,1.5861,-258.635387,-1.579275,65.526145
9.8966,-0.004491,0.000283,0.005332,-6.6e-05,-0.000308,-0.005629,-0.001445,-0.509638,0.005835,1.5861,-258.635387,-1.579275,65.526145
9.9165,-0.004613,-1e-05,0.007312,-6.1e-05,-0.000304,-0.005494,-0.001445,-0.509638,0.005835,1.5861,-258.635387,-1.579275,65.526145
9.9367,-0.004202,0.000309,0.006459,-5.8e-05,-0.000301,-0.005399,-0.000887,-0.510009,0.007076,1.551973,-258.636883,-1.548313,65.524892
9.9566,-0.004273,0.000479,0.005743,-0.000232,-0.000225,-0.005501,-0.000896,-0.509876,0.006796,1.551973,-258.636883,-1.548313,65.524892
9.9762,-0.004673,0.000229,0.005513,-0.000364,-0.000167,-0.005577,-0.001346,-0.509522,0.005571,1.554665,-258.638322,-1.551427,65.523694
9.9968,-0.004361,0.000362,0.005872,-0.0002,-0.000145,-0.005379,-0.001816,-0.509742,0.005509,1.554665,-258.638322,-1.551427,65.523694
10.0166,-0.004075,8e-06,0.006438,-7.2e-05,-0.000129,-0.00524,-0.001816,-0.509742,0.005509,1.554665,-258.638322,-1.551427,65.523694
10.0364,-0.004133,0.000213,0.004692,2.6e-05,-0.000119,-0.005142,-0.000802,-0.509987,0.006257,1.479665,-258.639436,-1.476428,65.522682
10.0569,-0.004086,-0.000105,0.004766,-7.7e-05,-6.3e-05,-0.005061,-0.001188,-0.509903,0.005594,1.479665,-258.639436,-1.476428,65.522682
10.0763,-0.003951,0.000247,0.004534,-0.000154,-1.9e-05,-0.005004,-0.001656,-0.510102,0.004648,1.554661,-258.640374,-1.551423,65.521812
10.0967,-0.004173,0.000322,0.002481,-8.2e-05,-2.1e-05,-0.004687,-0.001641,-0.509779,0.004538,1.554661,-258.640374,-1.551423,65.521812
10.1169,-0.003976,0.000222,0.005354,-2.6e-05,-2.2e-05,-0.004466,-0.001641,-0.509779,0.004538,1.554661,-258.640374,-1.551423,65.521812
10.1369,-0.003918,8.9e-05,0.003918,1.7e-05,-2.3e-05,-0.004312,-0.001252,-0.509771,0.005152,1.520842,-258.641567,-1.520206,65.520634
10.1569,-0.003604,0.000192,0.005043,1.9e-05,-9e-06,-0.004222,-0.001528,-0.509827,0.004619,1.520842,-258.641567,-1.520206,65.520634
10.1766,-0.004181,0.000447,0.004169,2.1e-05,2e-06,-0.004159,-0.001032,-0.509802,0.004919,1.577166,-258.642524,-1.577279,65.519694
10.1966,-0.003366,8e-05,0.005345,0.000135,-7e-05,-0.004027,-0.001963,-0.509572,0.00423,1.577166,-258.642524,-1.577279,65.519694
10.2163,-0.003896,0.000233,0.004936,0.000223,-0.000125,-0.003934,-0.001963,-0.509572,0.00423,1.577166,-258.642524,-1.577279,65.519694
10.2366,-0.003497,0.00031,0.004585,0.00029,-0.000168,-0.003869,-0.001378,-0.509761,0.004762,1.579133,-258.643539,-1.579117,65.518677
10.2564,-0.003744,0.000335,0.003506,0.000158,-0.000163,-0.003918,-0.001288,-0.50973,0.00467,1.579133,-258.643539,-1.579117,65.518677
10.2762,-0.003912,0.000174,0.004929,5.7e-05,-0.000159,-0.003954,-0.001952,-0.509665,0.003425,1.654135,-258.644206,-1.654119,65.518097
10.2963,-0.004147,2e-06,0.002478,2.7e-05,-0.000121,-0.004013,-0.001447,-0.509806,0.004791,1.654135,-258.644206,-1.654119,65.518097
10.3163,-0.003293,-4e-05,0.004978,3e-06,-9.3e-05,-0.004055,-0.001447,-0.509806,0.004791,1.654135,-258.644206,-1.654119,65.518097
10.3365,-0.003604,-0.000185,0.004986,-1.4e-05,-7.1e-05,-0.004084,-0.000752,-0.51004,0.00483,1.593023,-258.645127,-1.596146,65.517291
10.3563,-0.004034,-0.000315,0.003945,-0.000217,5.2e-05,-0.004097,-0.000879,-0.510097,0.004877,1.593023,-258.645127,-1.596146,65.517291
10.3764,-0.003647,0.000332,0.003272,-0.00037,0.000147,-0.004106,-0.002023,-0.510313,0.003819,1.565359,-258.646124,-1.56504,65.516349
10.3964,-0.003419,-9.2e-05,0.004761,-0.000166,0.0001,-0.003656,-0.001982,-0.509724,0.003315,1.565359,-258.646124,-1.56504,65.516349
10.4164,-0.003238,7.4e-05,0.004754,-9e-06,6.3e-05,-0.003346,-0.001982,-0.509724,0.003315,1.565359,-258.646124,-1.56504,65.516349
10.4364,-0.003893,-4e-06,0.003178,0.000111,3.4e-05,-0.003132,-0.000818,-0.509917,0.004663,1.490453,-258.646626,-1.490135,65.515785
10.4564,-0.003391,0.000309,0.004278,5.1e-05,8.3e-05,-0.003197,-0.001414,-0.509951,0.004044,1.490453,-258.646626,-1.490135,65.515785
10.4765,-0.003264,0.000116,0.004051,7e-06,0.000121,-0.003244,-0.001209,-0.509686,0.004224,1.565577,-258.647032,-1.565259,65.515364
10.4964,-0.003446,9.4e-05,0.003351,-9e-05,0.000111,-0.003281,-0.001199,-0.509863,0.004063,1.565577,-258.647032,-1.565259,65.515364
10.5164,-0.003387,0.000252,0.004102,-0.000163,0.000106,-0.003307,-0.001199,-0.509863,0.004063,1.565577,-258.647032,-1.565259,65.515364
10.5365,-0.003418,0.000383,0.003062,-0.000219,0.000102,-0.003325,-0.001294,-0.509739,0.003966,1.574346,-258.647775,-1.573938,65.514526
10.5566,-0.003132,-0.000102,0.001985,-0.000164,4.2e-05,-0.003201,-0.001524,-0.509687,0.003582,1.574346,-258.647775,-1.573938,65.514526
10.5766,-0.003634,0.000444,0.003508,-0.000122,-3e-06,-0.003114,-0.002123,-0.510099,0.001913,1.49938,-258.648297,-1.498973,65.513949
10.5967,-0.003359,9.4e-05,0.002656,-2e-06,-5.9e-05,-0.002994,-0.001869,-0.5096,0.003366,1.49938,-258.648297,-1.498973,65.513949
10.6165,-0.003328,-1.6e-05,0.003896,8.9e-05,-0.000103,-0.002909,-0.001869,-0.5096,0.003366,1.49938,-258.648297,-1.498973,65.513949
10.6366,-0.002918,0.000284,0.003077,0.00016,-0.000137,-0.002848,-0.001347,-0.510013,0.003766,1.506785,-258.649059,-1.506578,65.513189
10.6566,-0.0032,0.000317,0.004125,6.8e-05,-6.8e-05,-0.002805,-0.001348,-0.50989,0.003468,1.506785,-258.649059,-1.506578,65.513189
10.6763,-0.003211,3.2e-05,0.00341,-2e-06,-1.5e-05,-0.002775,-0.001096,-0.50968,0.004083,1.581782,-258.649401,-1.581575,65.512896
10.6964,-0.003415,0.000126,0.005212,-2.9e-05,4.6e-05,-0.002753,-0.001438,-0.509939,0.003469,1.581782,-258.649401,-1.581575,65.512896
10.7164,-0.003011,-0.00023,0.003657,-4.9e-05,9.2e-05,-0.002737,-0.001438,-0.509939,0.003469,1.581782,-258.649401,-1.581575,65.512896
10.7363,-0.0028,4.2e-05,0.002359,-6.5e-05,0.000127,-0.002727,-0.001146,-0.510227,0.003541,1.569682,-258.650082,-1.569662,65.512228
10.7565,-0.002844,0.000122,0.002123,-0.000113,0.000222,-0.002554,-0.00133,-0.510117,0.003046,1.569682,-258.650082,-1.569662,65.512228
10.7764,-0.002654,0.000188,0.003592,-0.000149,0.000294,-0.002434,-0.001763,-0.509873,0.00204,1.528838,-258.650672,-1.53477,65.51154
10.7965,-0.003094,0.000155,0.003206,-0.000308,0.000221,-0.002502,-0.000898,-0.509814,0.003462,1.528838,-258.650672,-1.53477,65.51154
10.8164,-0.003031,-1.7e-05,0.002477,-0.000429,0.000168,-0.002551,-0.000898,-0.509814,0.003462,1.528838,-258.650672,-1.53477,65.51154
10.8362,-0.002986,3.2e-05,0.00313,-0.000522,0.00013,-0.002586,-0.001773,-0.510005,0.002389,1.45355,-258.651087,-1.487481,65.510923
10.8563,-0.003096,0.000175,0.002596,-0.000381,0.000184,-0.002332,-0.001618,-0.509988,0.00268,1.45355,-258.651087,-1.487481,65.510923
10.8762,-0.003039,0.000106,0.003001,-0.000272,0.000224,-0.002157,-0.001774,-0.509823,0.002578,1.378805,-258.651214,-1.412736,65.510776
10.8966,-0.00296,0.000704,0.003718,-0.00021,0.000214,-0.002148,-0.001533,-0.509885,0.002961,1.378805,-258.651214,-1.412736,65.510776
10.9167,-0.002979,8.5e-05,0.001766,-0.000162,0.000207,-0.002142,-0.001533,-0.509885,0.002961,1.378805,-258.651214,-1.412736,65.510776
10.9363,-0.002727,-6.5e-05,0.002524,-0.000125,0.0002,-0.002137,-0.002089,-0.509905,0.00168,1.326643,-258.651644,-1.395979,65.510179
10.9564,-0.002884,0.000411,0.002951,-1.6e-05,0.00023,-0.001741,-0.001826,-0.509968,0.002013,1.326643,-258.651644,-1.395979,65.510179
10.9763,-0.003056,0.000187,0.004181,6.8e-05,0.000252,-0.001468,-0.001383,-0.509582,0.002906,1.401649,-258.651939,-1.470985,65.509778
10.9963,-0.002649,0.000204,0.003358,-0.000124,0.000175,-0.001986,-0.000963,-0.50979,0.004071,1.401649,-258.651939,-1.470985,65.509778
11.0166,-0.002819,0.000373,0.001559,-0.00027,0.000119,-0.002362,-0.000963,-0.50979,0.004071,1.401649,-258.651939,-1.470985,65.509778
11.0363,-0.002797,0.00015,0.00284,-0.000381,8e-05,-0.002632,-0.002025,-0.509624,0.001547,1.476815,-258.65199,-1.54615,65.509687
11.0564,-0.002944,0.00063,0.002103,-0.000228,4.6e-05,-0.00211,-0.001749,-0.509715,0.002073,1.476815,-258.65199,-1.54615,65.509687
11.0763,-0.002687,7.5e-05,0.003219,-0.000112,2e-05,-0.001751,-0.001874,-0.509368,0.002072,1.401852,-258.652224,-1.471188,65.50943
11.0965,-0.003108,0.000394,0.002575,-0.000212,4.5e-05,-0.00189,-0.001118,-0.509874,0.003117,1.401852,-258.652224,-1.471188,65.50943
11.1164,-0.002855,6.7e-05,0.003695,-0.000288,6.5e-05,-0.001989,-0.001118,-0.509874,0.003117,1.401852,-258.652224,-1.471188,65.50943
11.1364,-0.00268,0.000122,0.002146,-0.000346,8.1e-05,-0.00206,-0.000975,-0.509929,0.003626,1.46454,-258.65262,-1.468442,65.509018
11.1566,-0.002757,0.000191,0.002834,-0.000357,0.00011,-0.002075,-0.001225,-0.509908,0.003013,1.46454,-258.65262,-1.468442,65.509018
11.1763,-0.002822,0.000296,0.002476,-0.000366,0.000132,-0.002085,-0.001315,-0.509806,0.002806,1.38955,-258.652823,-1.393452,65.50879
11.1963,-0.003132,0.000499,0.002275,-0.000277,8e-05,-0.001921,-0.001537,-0.509712,0.002505,1.38955,-258.652823,-1.393452,65.50879
11.2164,-0.00295,-3.2e-05,0.001427,-0.000209,4.1e-05,-0.001807,-0.001537,-0.509712,0.002505,1.38955,-258.652823,-1.393452,65.50879
11.2364,-0.002887,0.000324,0.002516,-0.000157,1.1e-05,-0.001727,-0.002232,-0.510028,0.001365,1.314543,-258.653156,-1.318445,65.508386
11.2564,-0.003333,-4e-06,0.003994,-6e-06,5.9e-05,-0.001376,-0.001978,-0.509884,0.001826,1.314543,-258.653156,-1.318445,65.508386
11.2763,-0.002983,-9.7e-05,0.003694,0.000111,9.4e-05,-0.001134,-0.0013,-0.51,0.003956,1.389409,-258.653451,-1.393312,65.508086
11.2966,-0.003111,0.000163,0.003886,-5.1e-05,0.000178,-0.001624,-0.001117,-0.510086,0.003715,1.389409,-258.653451,-1.393312,65.508086
11.3166,-0.002661,1.6e-05,0.000797,-0.000172,0.000244,-0.001977,-0.001117,-0.510086,0.003715,1.389409,-258.653451,-1.393312,65.508086
11.3362,-0.002796,0.000306,0.001996,-0.000264,0.000296,-0.002229,-0.002254,-0.509984,0.000797,1.314294,-258.653451,-1.468427,65.508086
11.3564,-0.002504,0.000283,0.002236,-6e-05,0.000267,-0.001446,-0.002061,-0.509866,0.001284,1.314294,-258.653451,-1.468427,65.508086
11.3767,-0.002403,0.000491,0.001688,9.7e-05,0.000245,-0.000909,-0.001372,-0.509707,0.002168,1.328307,-258.653868,-1.413009,65.507448
11.3967,-0.002576,0.000334,0.00166,8.5e-05,9.1e-05,-0.00076,-0.001528,-0.509526,0.001727,1.328307,-258.653868,-1.413009,65.507448
11.4166,-0.003071,0.000379,0.002164,7.5e-05,-2.4e-05,-0.00066,-0.001528,-0.509526,0.001727,1.328307,-258.653868,-1.413009,65.507448
11.4365,-0.002655,8.5e-05,0.002311,6.6e-05,-0.000111,-0.000592,-0.001968,-0.509619,0.002164,1.25322,-258.653868,-1.488096,65.507448
11.4567,-0.002883,0.000376,0.002537,0.0,0.0,0.0,-0.001768,-0.509739,0.002223,1.25322,-258.653868,-1.488096,65.507448
