mach0312/omni-docking-bench/src/icros_test_setup/results/MPPI_sample/timeseries/trial_081.csv
t,x,y,yaw,vx,vy,wz,bl_x,bl_y,bl_yaw,front_steering_joint,front_wheel_joint,rear_steering_joint,rear_wheel_joint
0.0,-0.022368,0.001205,0.033278,-0.008871,-0.004127,0.085979,-0.005159,-0.508625,0.02003,-1.389465,-261.025706,1.41543,66.005897
0.0004,-0.0226,0.00123,0.032237,-0.008135,-0.003784,0.078848,-0.005159,-0.508625,0.02003,-1.389465,-261.046274,1.41543,65.985232
0.0007,-0.025435,0.000635,0.036295,-0.00735,-0.003419,0.071233,-0.006102,-0.508478,0.021588,-1.389465,-261.069354,1.41543,65.962055
0.001,-0.025981,0.001062,0.036461,-0.006492,-0.00302,0.062916,-0.006114,-0.508573,0.022274,-1.389465,-261.09051,1.41543,65.9374
0.0013,-0.025498,0.00087,0.035262,-0.005569,-0.002591,0.053975,-0.006114,-0.508573,0.022274,-1.389465,-261.106811,1.41543,65.918401
0.0016,-0.027754,0.000587,0.04093,-0.004557,-0.00212,0.044171,-0.005633,-0.508549,0.026568,-1.389465,-261.119163,1.41543,65.904006
0.0018,-0.028002,0.000456,0.03899,-0.003526,-0.00164,0.034174,-0.005335,-0.508798,0.028474,-1.389465,-261.119163,1.41543,65.904006
0.0021,-0.029295,0.000181,0.042209,-0.002414,-0.001123,0.023397,-0.005335,-0.508798,0.028474,-1.389465,-261.119163,1.41543,65.904006
0.0024,-0.029262,0.000169,0.042281,-0.001241,-0.000577,0.01203,-0.005335,-0.508798,0.028474,-1.389465,-261.119163,1.41543,65.904006
0.0169,-0.029367,0.00015,0.042686,0.0,0.0,0.0,-0.007831,-0.509358,0.042162,-1.389465,-261.119163,1.41543,65.904006
0.0369,-0.030392,7.4e-05,0.042862,0.0,0.0,0.0,-0.007703,-0.509437,0.043666,-1.389465,-261.124518,1.41543,65.897766
0.057,-0.030112,-6.8e-05,0.045036,0.0,0.0,0.0,-0.008056,-0.509451,0.043451,-1.389465,-261.124518,1.41543,65.897766
0.0769,-0.030166,9.4e-05,0.043879,0.0,0.0,0.0,-0.007151,-0.509551,0.045036,-1.389465,-261.124518,1.41543,65.897766
0.0969,-0.030388,0.000376,0.043207,0.0,0.0,0.0,-0.007737,-0.509427,0.043983,-1.389465,-261.124518,1.41543,65.897766
0.1171,-0.030086,0.000432,0.044476,0.000946,0.001973,0.028422,-0.007737,-0.509427,0.043983,-1.389465,-261.124518,1.41543,65.897766
0.1369,-0.030486,0.0006,0.044813,0.000977,0.00215,0.028041,-0.007411,-0.509064,0.044476,-1.389465,-261.124518,1.41543,65.897766
0.1569,-0.02998,6.1e-05,0.041098,0.00098,0.002243,0.025939,-0.007503,-0.508993,0.044612,-1.389465,-261.124518,1.41543,65.897766
0.1773,-0.030002,0.000209,0.045286,0.00097,0.002325,0.02477,-0.009037,-0.509496,0.041269,-1.464476,-261.125995,1.490441,65.896617
0.1971,-0.030443,-4.7e-05,0.044012,0.000956,0.002422,0.022336,-0.007101,-0.509287,0.044943,-1.464476,-261.125995,1.490441,65.896617
0.2174,-0.030069,0.000471,0.042157,0.000934,0.002509,0.020868,-0.007101,-0.509287,0.044943,-1.464476,-261.125995,1.490441,65.896617
0.2372,-0.030704,0.000119,0.043725,0.000906,0.002586,0.020018,-0.008583,-0.509033,0.042617,-1.539526,-261.129103,1.565491,65.894334
0.2572,-0.030572,-0.000266,0.04332,0.000901,0.002644,0.01778,-0.008513,-0.509176,0.043126,-1.539526,-261.129103,1.565491,65.894334
0.2775,-0.030464,-0.000114,0.04482,0.000889,0.002698,0.016353,-0.008472,-0.509726,0.043796,-1.614562,-261.133527,1.640527,65.891447
0.2974,-0.031403,0.000278,0.045643,0.000871,0.002777,0.013923,-0.007699,-0.509611,0.044744,-1.614562,-261.133527,1.640527,65.891447
0.3171,-0.031106,0.000327,0.046309,0.000848,0.002844,0.012258,-0.007699,-0.509611,0.044744,-1.614562,-261.133527,1.640527,65.891447
0.337,-0.03104,0.000383,0.046322,0.000825,0.002901,0.011152,-0.007467,-0.509018,0.046957,-1.640734,-261.138341,1.692098,65.888667
0.3569,-0.031277,0.000433,0.046347,0.000779,0.002865,0.008995,-0.007446,-0.509027,0.046773,-1.640734,-261.138341,1.692098,65.888667
0.377,-0.031575,0.000398,0.046672,0.000737,0.002839,0.007423,-0.007648,-0.509019,0.046347,-1.65551,-261.138342,1.617224,65.888668
0.3971,-0.030955,0.000379,0.046386,0.000707,0.002825,0.00521,-0.007769,-0.509044,0.046643,-1.65551,-261.138342,1.617224,65.888668
0.4168,-0.031425,0.000509,0.046261,0.00068,0.002815,0.003469,-0.007769,-0.509044,0.046643,-1.65551,-261.138342,1.617224,65.888668
0.4372,-0.0315,0.000462,0.045113,0.000655,0.00281,0.002123,-0.007841,-0.508946,0.046261,-1.67041,-261.138342,1.542217,65.888668
0.457,-0.031339,0.000518,0.04494,0.000635,0.002803,0.000522,-0.00811,-0.508976,0.045792,-1.67041,-261.138342,1.542217,65.888668
0.4771,-0.031268,0.000466,0.046228,0.000617,0.002798,-0.00077,-0.008427,-0.508959,0.044946,-1.728915,-261.13849,1.467215,65.888726
0.4972,-0.031133,0.000573,0.046049,0.000593,0.002793,-0.002079,-0.007765,-0.508986,0.046112,-1.728915,-261.13849,1.467215,65.888726
0.5168,-0.031072,0.000699,0.046189,0.000572,0.002791,-0.003157,-0.007765,-0.508986,0.046112,-1.728915,-261.13849,1.467215,65.888726
0.5374,-0.031001,0.00024,0.045995,0.000552,0.002789,-0.004036,-0.007524,-0.508757,0.046189,-1.653922,-261.138489,1.392222,65.888726
0.5574,-0.031179,0.000447,0.046754,0.000528,0.002781,-0.004857,-0.007535,-0.508946,0.04611,-1.653922,-261.138489,1.392222,65.888726
0.5769,-0.031609,0.000321,0.046544,0.000508,0.002775,-0.005531,-0.007343,-0.508996,0.046754,-1.578925,-261.138489,1.466082,65.888726
0.5972,-0.031391,0.000383,0.044159,0.000503,0.002796,-0.006083,-0.007832,-0.509115,0.046563,-1.578925,-261.138489,1.466082,65.888726
0.6174,-0.031372,0.00036,0.045914,0.000498,0.002814,-0.006534,-0.007832,-0.509115,0.046563,-1.578925,-261.138489,1.466082,65.888726
0.6371,-0.031442,0.000561,0.046498,0.000492,0.002828,-0.006902,-0.007964,-0.509102,0.045914,-1.50386,-261.138489,1.488417,65.888727
0.657,-0.03108,0.000378,0.045435,0.000484,0.002828,-0.0072,-0.007872,-0.509016,0.04615,-1.50386,-261.138489,1.488417,65.888727
0.677,-0.031166,0.000361,0.045697,0.000476,0.002829,-0.007442,-0.007913,-0.509069,0.04537,-1.428919,-261.138315,1.501069,65.889563
0.697,-0.030808,0.000383,0.047187,0.000473,0.002842,-0.007678,-0.007872,-0.509102,0.045664,-1.428919,-261.138315,1.501069,65.889563
0.717,-0.03093,0.000821,0.045887,0.00047,0.002853,-0.007869,-0.007872,-0.509102,0.045664,-1.428919,-261.138315,1.501069,65.889563
0.7371,-0.031118,0.000601,0.04686,0.000466,0.002862,-0.008025,-0.007526,-0.508551,0.045647,-1.353915,-261.13777,1.506287,65.891826
0.757,-0.03126,0.00081,0.044429,0.000435,0.002805,-0.00823,-0.007405,-0.508657,0.04611,-1.353915,-261.13777,1.506287,65.891826
0.7771,-0.030981,0.000822,0.046044,0.00041,0.002759,-0.008398,-0.008598,-0.508595,0.044174,-1.345938,-261.136931,1.51079,65.894944
0.7971,-0.030881,0.000727,0.043642,0.000395,0.002724,-0.008627,-0.007594,-0.50863,0.045882,-1.345938,-261.136931,1.51079,65.894944
0.8172,-0.030676,0.000443,0.044614,0.000383,0.002695,-0.008816,-0.007594,-0.50863,0.045882,-1.345938,-261.136931,1.51079,65.894944
0.8368,-0.030701,0.000615,0.045674,0.000374,0.002672,-0.008973,-0.007919,-0.508939,0.04428,-1.39962,-261.136015,1.518909,65.897952
0.8575,-0.030716,0.000878,0.045469,0.00038,0.00269,-0.009176,-0.00771,-0.508891,0.044815,-1.39962,-261.136015,1.518909,65.897952
0.8767,-0.030503,0.000646,0.045174,0.000385,0.002705,-0.009345,-0.007527,-0.508511,0.045187,-1.438504,-261.134912,1.524988,65.901131
0.8972,-0.030425,0.000929,0.045405,0.000377,0.002693,-0.009507,-0.007477,-0.5088,0.045161,-1.438504,-261.134912,1.524988,65.901131
0.9171,-0.030479,0.001219,0.044304,0.00037,0.002685,-0.009643,-0.007477,-0.5088,0.045161,-1.438504,-261.134912,1.524988,65.901131
0.9371,-0.03027,0.001332,0.04372,0.000365,0.002678,-0.009757,-0.00788,-0.508167,0.043913,-1.443245,-261.133701,1.52505,65.904498
0.957,-0.02981,0.000788,0.044642,0.000345,0.002602,-0.009873,-0.007919,-0.50816,0.043789,-1.443245,-261.133701,1.52505,65.904498
0.9777,-0.03024,0.001281,0.044663,0.00033,0.002541,-0.009971,-0.007042,-0.508618,0.044333,-1.459968,-261.132387,1.528546,65.90794
0.997,-0.029866,0.00112,0.04392,0.000308,0.002487,-0.010074,-0.00743,-0.508244,0.044616,-1.459968,-261.132387,1.528546,65.90794
1.0171,-0.030126,0.001354,0.044872,0.000291,0.002443,-0.01016,-0.00743,-0.508244,0.044616,-1.459968,-261.132387,1.528546,65.90794
1.0371,-0.029814,0.001611,0.041959,0.000277,0.002408,-0.010232,-0.00724,-0.508027,0.044457,-1.477999,-261.130969,1.532547,65.911376
1.0572,-0.029824,0.001716,0.043025,0.000263,0.002354,-0.010312,-0.007721,-0.507979,0.043391,-1.477999,-261.130969,1.532547,65.911376
1.077,-0.029209,0.001655,0.0414,0.000253,0.00231,-0.010379,-0.007883,-0.507736,0.042702,-1.498744,-261.12944,1.538779,65.914815
1.0972,-0.029246,0.001365,0.042563,0.000252,0.002274,-0.010454,-0.008081,-0.507888,0.0415,-1.498744,-261.12944,1.538779,65.914815
1.1172,-0.029397,0.001222,0.042174,0.000252,0.002244,-0.010518,-0.008081,-0.507888,0.0415,-1.498744,-261.12944,1.538779,65.914815
1.1371,-0.029022,0.001716,0.042272,0.000253,0.00222,-0.010571,-0.007888,-0.508228,0.04174,-1.508061,-261.127817,1.541542,65.918292
1.1574,-0.029173,0.001821,0.042585,0.00025,0.002207,-0.010633,-0.00771,-0.508047,0.041915,-1.508061,-261.127817,1.541542,65.918292
1.1767,-0.028837,0.002172,0.041372,0.000248,0.002196,-0.010685,-0.007456,-0.507646,0.042251,-1.511261,-261.12613,1.541701,65.921742
1.1969,-0.028967,0.001482,0.042275,0.000214,0.002113,-0.010742,-0.007718,-0.50741,0.041433,-1.511261,-261.12613,1.541701,65.921742
1.2172,-0.028757,0.002022,0.041835,0.000188,0.002045,-0.010791,-0.007718,-0.50741,0.041433,-1.511261,-261.12613,1.541701,65.921742
1.2369,-0.028644,0.002046,0.039625,0.000168,0.00199,-0.010832,-0.00742,-0.50744,0.041387,-1.513625,-261.124385,1.542396,65.925255
1.2572,-0.028624,0.001802,0.041546,0.000162,0.001957,-0.010875,-0.007846,-0.507477,0.040598,-1.513625,-261.124385,1.542396,65.925255
1.2769,-0.028233,0.001815,0.041118,0.000158,0.001931,-0.010911,-0.007439,-0.507695,0.041204,-1.534432,-261.12256,1.551243,65.928647
1.2972,-0.027958,0.002357,0.038528,0.000149,0.001922,-0.010945,-0.007284,-0.507745,0.041108,-1.534432,-261.12256,1.551243,65.928647
1.3174,-0.028257,0.001935,0.040199,0.000142,0.001916,-0.010974,-0.007284,-0.507745,0.041108,-1.534432,-261.12256,1.551243,65.928647
1.3369,-0.028107,0.002368,0.039192,0.000137,0.00191,-0.010998,-0.007757,-0.507572,0.039741,-1.537528,-261.120664,1.55247,65.93209
1.3573,-0.028039,0.002499,0.040291,0.000138,0.00189,-0.011024,-0.007906,-0.507428,0.039466,-1.537528,-261.120664,1.55247,65.93209
1.3767,-0.027699,0.002288,0.03877,0.000139,0.001873,-0.011046,-0.007494,-0.507026,0.03994,-1.542381,-261.11874,1.554961,65.935542
1.3971,-0.027758,0.002253,0.040892,0.000134,0.001846,-0.011068,-0.007894,-0.5073,0.038852,-1.542381,-261.11874,1.554961,65.935542
1.4168,-0.027652,0.002057,0.039466,0.000131,0.001823,-0.011087,-0.007894,-0.5073,0.038852,-1.542381,-261.11874,1.554961,65.935542
1.4371,-0.027448,0.002605,0.038391,0.000129,0.001804,-0.011103,-0.007527,-0.507467,0.039005,-1.542194,-261.116794,1.554623,65.938982
1.4573,-0.027672,0.00245,0.035593,0.000119,0.001779,-0.011118,-0.007668,-0.507275,0.038701,-1.542194,-261.116794,1.554623,65.938982
1.4767,-0.027084,0.002511,0.037994,0.000111,0.001759,-0.011132,-0.009521,-0.507169,0.035239,-1.544885,-261.114803,1.555775,65.942417
1.4972,-0.02682,0.002574,0.037344,0.000105,0.001734,-0.011145,-0.007876,-0.507123,0.037726,-1.544885,-261.114803,1.555775,65.942417
1.5175,-0.02736,0.002447,0.038908,0.000101,0.001713,-0.011157,-0.007876,-0.507123,0.037726,-1.544885,-261.114803,1.555775,65.942417
1.537,-0.026991,0.002836,0.038353,9.8e-05,0.001696,-0.011167,-0.00752,-0.507094,0.038442,-1.54874,-261.112787,1.557805,65.945839
1.5576,-0.027018,0.002547,0.035725,7.2e-05,0.001649,-0.011176,-0.007485,-0.506961,0.038353,-1.54874,-261.112787,1.557805,65.945839
1.5769,-0.026666,0.002972,0.039106,5.2e-05,0.001612,-0.011184,-0.008801,-0.507073,0.035368,-1.551723,-261.110737,1.559318,65.949246
1.5972,-0.026509,0.002436,0.036426,-8e-06,0.001524,-0.011192,-0.006909,-0.506673,0.038761,-1.551723,-261.110737,1.559318,65.949246
1.6169,-0.026175,0.002974,0.037879,-5.5e-05,0.001454,-0.011198,-0.006909,-0.506673,0.038761,-1.551723,-261.110737,1.559318,65.949246
1.6369,-0.026075,0.002874,0.03623,-9e-05,0.001396,-0.011203,-0.006862,-0.506593,0.037412,-1.560843,-261.108653,1.564643,65.952616
1.6583,-0.026158,0.00287,0.037935,-0.000104,0.001363,-0.011208,-0.007164,-0.506666,0.036876,-1.560843,-261.108653,1.564643,65.952616
1.6768,-0.025898,0.00297,0.034949,-0.000115,0.001335,-0.011213,-0.006821,-0.506718,0.037574,-1.58741,-261.106509,1.581779,65.955859
1.6968,-0.025943,0.002976,0.036396,-8.7e-05,0.001351,-0.011218,-0.007959,-0.506717,0.03518,-1.58741,-261.106509,1.581779,65.955859
1.7169,-0.026154,0.002522,0.036155,-6.4e-05,0.001364,-0.011223,-0.007959,-0.506717,0.03518,-1.58741,-261.106509,1.581779,65.955859
1.7372,-0.02564,0.002849,0.035907,-4.6e-05,0.001373,-0.011227,-0.007726,-0.507089,0.035685,-1.591672,-261.104305,1.584861,65.959131
1.757,-0.025705,0.002987,0.035216,-3.2e-05,0.001394,-0.011231,-0.007567,-0.506974,0.035721,-1.591672,-261.104305,1.584861,65.959131
1.7773,-0.025641,0.003187,0.035621,-2e-05,0.001411,-0.011234,-0.007751,-0.506653,0.034859,-1.57921,-261.102119,1.576402,65.962412
1.7978,-0.025236,0.003235,0.035623,-4.1e-05,0.001371,-0.011238,-0.007503,-0.506502,0.035534,-1.57921,-261.102119,1.576402,65.962412
1.8172,-0.025481,0.002964,0.035902,-5.8e-05,0.001339,-0.011241,-0.007503,-0.506502,0.035534,-1.57921,-261.102119,1.576402,65.962412
1.8374,-0.024898,0.00348,0.035014,-7e-05,0.001313,-0.011243,-0.007178,-0.506648,0.035432,-1.574519,-261.09994,1.573249,65.965719
1.8574,-0.025202,0.003259,0.03639,-9.9e-05,0.001271,-0.011245,-0.007124,-0.506462,0.035207,-1.574519,-261.09994,1.573249,65.965719
1.8776,-0.024945,0.003155,0.032075,-0.000121,0.001238,-0.011247,-0.00665,-0.506362,0.036033,-1.583364,-261.097719,1.57933,65.968989
1.8973,-0.024921,0.003276,0.034324,-8.1e-05,0.001274,-0.01125,-0.008412,-0.506561,0.032418,-1.583364,-261.097719,1.57933,65.968989
1.9173,-0.025151,0.003208,0.033075,-4.9e-05,0.001303,-0.011254,-0.008412,-0.506561,0.032418,-1.583364,-261.097719,1.57933,65.968989
1.9374,-0.024862,0.003324,0.033149,-2.3e-05,0.001327,-0.011257,-0.008292,-0.506462,0.032606,-1.59231,-261.095474,1.585742,65.972222
1.9572,-0.02444,0.003224,0.032567,-1.8e-05,0.001323,-0.011259,-0.008158,-0.506429,0.032772,-1.59231,-261.095474,1.585742,65.972222
1.9772,-0.024016,0.003315,0.032694,-1.4e-05,0.00132,-0.011261,-0.007835,-0.506463,0.032212,-1.575013,-261.09327,1.573649,65.975479
1.9971,-0.024609,0.003015,0.032351,-4.2e-05,0.001286,-0.011262,-0.007389,-0.506415,0.032633,-1.575013,-261.09327,1.573649,65.975479
2.0169,-0.024387,0.003213,0.032799,-6.3e-05,0.001258,-0.011262,-0.007389,-0.506415,0.032633,-1.575013,-261.09327,1.573649,65.975479
2.0374,-0.024255,0.003044,0.031474,-8e-05,0.001236,-0.011263,-0.007665,-0.506457,0.032327,-1.57332,-261.091048,1.572507,65.978758
2.0572,-0.023756,0.003452,0.033013,-6.5e-05,0.001253,-0.011264,-0.007885,-0.506551,0.031927,-1.57332,-261.091048,1.572507,65.978758
2.0769,-0.023872,0.003256,0.032621,-5.2e-05,0.001266,-0.011265,-0.006926,-0.50623,0.032651,-1.584992,-261.088798,1.580669,65.981993
2.0969,-0.023629,0.003159,0.031701,-7.8e-05,0.001238,-0.011264,-0.00721,-0.506449,0.032606,-1.584992,-261.088798,1.580669,65.981993
2.117,-0.023623,0.003387,0.031257,-9.7e-05,0.001216,-0.011264,-0.00721,-0.506449,0.032606,-1.584992,-261.088798,1.580669,65.981993
2.1369,-0.023466,0.003313,0.030772,-0.000113,0.001198,-0.011264,-0.007688,-0.506311,0.030786,-1.580148,-261.086553,1.577241,65.98525
2.1569,-0.023725,0.003474,0.030972,-0.000107,0.001197,-0.011264,-0.007724,-0.50636,0.030725,-1.580148,-261.086553,1.577241,65.98525
2.1768,-0.023041,0.003291,0.030539,-0.000102,0.001197,-0.011265,-0.007937,-0.506243,0.030614,-1.590628,-261.084282,1.584747,65.988478
2.1972,-0.023102,0.003041,0.029773,-0.000101,0.001197,-0.011265,-0.007508,-0.50645,0.030528,-1.590628,-261.084282,1.584747,65.988478
2.2174,-0.023439,0.003631,0.028974,-0.0001,0.001197,-0.011265,-0.007508,-0.50645,0.030528,-1.590628,-261.084282,1.584747,65.988478
2.2374,-0.02282,0.003366,0.028449,-0.0001,0.001197,-0.011265,-0.00867,-0.506105,0.028504,-1.588655,-261.082009,1.583364,65.991709
2.2579,-0.022987,0.003761,0.03024,-7.3e-05,0.001217,-0.011268,-0.008524,-0.506232,0.028427,-1.588655,-261.082009,1.583364,65.991709
2.2767,-0.022409,0.003584,0.028435,-5.2e-05,0.001232,-0.01127,-0.007572,-0.505967,0.029875,-1.588388,-261.079739,1.583174,65.994934
2.2974,-0.022381,0.004029,0.030556,-6e-05,0.001215,-0.011271,-0.007878,-0.506185,0.028551,-1.588388,-261.079739,1.583174,65.994934
2.3173,-0.022842,0.004148,0.028183,-6.7e-05,0.001202,-0.011272,-0.007878,-0.506185,0.028551,-1.588388,-261.079739,1.583174,65.994934
2.3371,-0.022458,0.003993,0.029584,-7.1e-05,0.00119,-0.011272,-0.008474,-0.505598,0.027711,-1.579977,-261.077483,1.577189,65.998175
2.3573,-0.02222,0.003945,0.027219,-9.8e-05,0.001139,-0.011274,-0.00803,-0.505667,0.028414,-1.579977,-261.077483,1.577189,65.998175
2.3769,-0.021941,0.003602,0.02703,-0.000119,0.001097,-0.011275,-0.008344,-0.505828,0.026859,-1.583314,-261.075206,1.579624,66.001404
2.3972,-0.022402,0.004029,0.028088,-0.0001,0.001117,-0.011275,-0.008174,-0.506175,0.026996,-1.583314,-261.075206,1.579624,66.001404
2.4173,-0.022133,0.003859,0.028154,-8.5e-05,0.001134,-0.011276,-0.008174,-0.506175,0.026996,-1.583314,-261.075206,1.579624,66.001404
2.4371,-0.021758,0.00379,0.026601,-7.3e-05,0.001147,-0.011276,-0.007783,-0.505893,0.027682,-1.59134,-261.07289,1.585696,66.004597
2.4572,-0.021929,0.003913,0.02714,-8.5e-05,0.001126,-0.011277,-0.007951,-0.505943,0.027186,-1.59134,-261.07289,1.585696,66.004597
2.4772,-0.021548,0.004022,0.027709,-9.4e-05,0.001109,-0.011277,-0.008092,-0.505863,0.026781,-1.583457,-261.070597,1.579842,66.007806
2.4977,-0.021276,0.003688,0.027215,-0.000131,0.00106,-0.011277,-0.007481,-0.505788,0.027604,-1.583457,-261.070597,1.579842,66.007806
2.5176,-0.021216,0.004028,0.030131,-0.00016,0.00102,-0.011277,-0.007481,-0.505788,0.027604,-1.583457,-261.070597,1.579842,66.007806
2.5373,-0.021034,0.003736,0.026757,-0.000183,0.000987,-0.011276,-0.005857,-0.505694,0.02966,-1.587071,-261.06829,1.582556,66.010999
2.5574,-0.021201,0.003866,0.02734,-0.000253,0.000916,-0.011275,-0.006484,-0.505847,0.02842,-1.587071,-261.06829,1.582556,66.010999
2.5773,-0.021028,0.00386,0.026797,-0.000308,0.000859,-0.011273,-0.007266,-0.505913,0.026983,-1.601807,-261.065942,1.594036,66.014132
2.5971,-0.021097,0.004095,0.02557,-0.000294,0.000869,-0.011271,-0.007354,-0.505951,0.026795,-1.601807,-261.065942,1.594036,66.014132
2.6175,-0.021276,0.004387,0.026556,-0.000284,0.000876,-0.01127,-0.007354,-0.505951,0.026795,-1.601807,-261.065942,1.594036,66.014132
2.6371,-0.020762,0.004445,0.02684,-0.000275,0.000882,-0.011268,-0.007748,-0.505398,0.02609,-1.621839,-261.063554,1.610529,66.017199
2.6572,-0.020767,0.004458,0.025507,-0.000298,0.000838,-0.011268,-0.007474,-0.505383,0.026343,-1.621839,-261.063554,1.610529,66.017199
2.6772,-0.020686,0.004361,0.025079,-0.000315,0.000803,-0.011268,-0.007769,-0.505348,0.025148,-1.61664,-261.061153,1.606237,66.020304
2.6968,-0.020414,0.004363,0.024214,-0.000302,0.000801,-0.011269,-0.007886,-0.505465,0.025067,-1.61664,-261.061153,1.606237,66.020304
2.7169,-0.020121,0.004137,0.025073,-0.000293,0.0008,-0.011269,-0.007886,-0.505465,0.025067,-1.61664,-261.061153,1.606237,66.020304
2.7369,-0.020415,0.004124,0.023621,-0.000284,0.000798,-0.011269,-0.007349,-0.505669,0.024602,-1.622489,-261.058721,1.611701,66.023378
2.7572,-0.020074,0.004028,0.022468,-0.000269,0.000814,-0.011269,-0.007769,-0.505692,0.024146,-1.622489,-261.058721,1.611701,66.023378
2.7767,-0.020008,0.00398,0.024497,-0.000257,0.000826,-0.011269,-0.008625,-0.505818,0.022108,-1.617516,-261.056286,1.607814,66.02645
2.7968,-0.019773,0.004328,0.02225,-0.000243,0.000845,-0.011268,-0.007617,-0.505862,0.024263,-1.617516,-261.056286,1.607814,66.02645
2.817,-0.019591,0.004195,0.025282,-0.000233,0.000861,-0.011268,-0.007617,-0.505862,0.024263,-1.617516,-261.056286,1.607814,66.02645
2.8368,-0.019908,0.004012,0.023004,-0.000225,0.000874,-0.011268,-0.00671,-0.505608,0.024811,-1.613137,-261.053862,1.604073,66.029533
2.8571,-0.019595,0.004641,0.022323,-0.00024,0.00086,-0.011268,-0.007311,-0.505705,0.024018,-1.613137,-261.053862,1.604073,66.029533
2.8767,-0.019442,0.004268,0.021851,-0.000251,0.000849,-0.011267,-0.008219,-0.505204,0.021961,-1.608283,-261.051459,1.599843,66.032635
2.8971,-0.01951,0.004422,0.022924,-0.000225,0.000872,-0.011269,-0.008292,-0.505572,0.021843,-1.608283,-261.051459,1.599843,66.032635
2.9169,-0.019044,0.004411,0.022565,-0.000203,0.000891,-0.01127,-0.008292,-0.505572,0.021843,-1.608283,-261.051459,1.599843,66.032635
2.9371,-0.019248,0.004576,0.022072,-0.000187,0.000907,-0.011271,-0.007547,-0.505424,0.022094,-1.612446,-261.049045,1.603306,66.035727
2.9568,-0.019208,0.004495,0.02233,-0.000208,0.000876,-0.011272,-0.007731,-0.505369,0.022031,-1.612446,-261.049045,1.603306,66.035727
2.9773,-0.01844,0.004457,0.022221,-0.000225,0.000852,-0.011272,-0.007827,-0.505349,0.021973,-1.601992,-261.046656,1.594734,66.038841
2.9971,-0.019172,0.004455,0.019939,-0.000263,0.000809,-0.011272,-0.007169,-0.50541,0.022182,-1.601992,-261.046656,1.594734,66.038841
3.0171,-0.018681,0.004571,0.02192,-0.000293,0.000774,-0.011271,-0.007169,-0.50541,0.022182,-1.601992,-261.046656,1.594734,66.038841
3.0368,-0.018534,0.004645,0.020603,-0.000317,0.000746,-0.011271,-0.007513,-0.505271,0.02145,-1.608031,-261.044247,1.599837,66.041928
3.0569,-0.018402,0.004576,0.022772,-0.000316,0.000736,-0.011271,-0.007725,-0.505257,0.021048,-1.608031,-261.044247,1.599837,66.041928
3.0769,-0.018072,0.004397,0.019334,-0.000316,0.000729,-0.011271,-0.006799,-0.505268,0.022415,-1.622371,-261.041799,1.612302,66.04497
3.0974,-0.018491,0.004812,0.020959,-0.000285,0.00076,-0.011271,-0.008092,-0.505486,0.01958,-1.622371,-261.041799,1.612302,66.04497
3.1171,-0.018253,0.004909,0.021043,-0.000261,0.000785,-0.011271,-0.008092,-0.505486,0.01958,-1.622371,-261.041799,1.612302,66.04497
3.1371,-0.0179,0.004589,0.021158,-0.000242,0.000806,-0.011271,-0.007536,-0.504948,0.020573,-1.622044,-261.039334,1.612247,66.048017
3.157,-0.017565,0.004738,0.018991,-0.000285,0.000753,-0.011272,-0.007361,-0.505089,0.020761,-1.622044,-261.039334,1.612247,66.048017
3.1768,-0.017489,0.005135,0.019604,-0.000319,0.000709,-0.011272,-0.007888,-0.505145,0.018634,-1.610571,-261.03691,1.602239,66.051083
3.1969,-0.017872,0.004873,0.01742,-0.000353,0.000659,-0.011273,-0.007526,-0.504798,0.019503,-1.610571,-261.03691,1.602239,66.051083
3.2168,-0.017566,0.004808,0.018311,-0.00038,0.000617,-0.011273,-0.007526,-0.504798,0.019503,-1.610571,-261.03691,1.602239,66.051083
3.2369,-0.017797,0.004614,0.019253,-0.000401,0.000583,-0.011273,-0.008242,-0.505077,0.017843,-1.622361,-261.034446,1.612741,66.054112
3.2578,-0.017705,0.004671,0.017477,-0.000367,0.000615,-0.011273,-0.008135,-0.505162,0.018371,-1.622361,-261.034446,1.612741,66.054112
3.2772,-0.017331,0.005237,0.017526,-0.00034,0.00064,-0.011272,-0.008806,-0.505233,0.017118,-1.634329,-261.03193,1.624427,66.057091
3.2975,-0.017235,0.004996,0.018056,-0.000331,0.000638,-0.011273,-0.008429,-0.50473,0.017474,-1.634329,-261.03193,1.624427,66.057091
3.3169,-0.017387,0.004664,0.017881,-0.000323,0.000636,-0.011273,-0.008429,-0.50473,0.017474,-1.634329,-261.03193,1.624427,66.057091
3.3371,-0.017031,0.004807,0.017765,-0.000316,0.000634,-0.011274,-0.008282,-0.505228,0.017412,-1.625247,-261.029441,1.615994,66.06009
3.357,-0.017046,0.004982,0.01656,-0.000297,0.000658,-0.011273,-0.008157,-0.505178,0.017502,-1.625247,-261.029441,1.615994,66.06009
3.3769,-0.016594,0.004901,0.017497,-0.000282,0.000677,-0.011273,-0.008612,-0.504928,0.016201,-1.621377,-261.026925,1.612859,66.063115
3.3972,-0.016528,0.004741,0.016242,-0.000298,0.00066,-0.011272,-0.007745,-0.505013,0.017379,-1.621377,-261.026925,1.612859,66.063115
3.4169,-0.016958,0.0047,0.018087,-0.00031,0.000646,-0.011271,-0.007745,-0.505013,0.017379,-1.621377,-261.026925,1.612859,66.063115
3.4372,-0.016518,0.005151,0.016795,-0.00032,0.000634,-0.011271,-0.007746,-0.505188,0.017618,-1.616221,-261.024454,1.608099,66.066124
3.4571,-0.01631,0.004334,0.015868,-0.000324,0.00063,-0.01127,-0.007832,-0.505018,0.017229,-1.616221,-261.024454,1.608099,66.066124
3.4769,-0.016306,0.004649,0.016518,-0.000326,0.000626,-0.01127,-0.008229,-0.505581,0.015508,-1.621994,-261.02195,1.613366,66.069135
3.4969,-0.01686,0.004784,0.016757,-0.000308,0.000651,-0.011268,-0.007912,-0.505307,0.016414,-1.621994,-261.02195,1.613366,66.069135
3.5169,-0.016382,0.004598,0.015683,-0.000293,0.000672,-0.011267,-0.007912,-0.505307,0.016414,-1.621994,-261.02195,1.613366,66.069135
3.5371,-0.016056,0.004847,0.013946,-0.000282,0.000688,-0.011265,-0.008398,-0.505313,0.015212,-1.622873,-261.019444,1.614206,66.072141
3.5569,-0.015797,0.004875,0.014523,-0.000249,0.000723,-0.011263,-0.008623,-0.505224,0.014638,-1.622873,-261.019444,1.614206,66.072141
3.5769,-0.015413,0.004916,0.015427,-0.000223,0.000752,-0.011261,-0.0084,-0.50505,0.014165,-1.616269,-261.01696,1.608008,66.075176
3.5974,-0.015518,0.005139,0.014226,-0.000257,0.000714,-0.01126,-0.007613,-0.505024,0.015311,-1.616269,-261.01696,1.608008,66.075176
3.6171,-0.015497,0.004776,0.01376,-0.000283,0.000684,-0.011259,-0.007613,-0.505024,0.015311,-1.616269,-261.01696,1.608008,66.075176
3.6372,-0.015262,0.004971,0.014842,-0.000304,0.000659,-0.011258,-0.00849,-0.505144,0.013292,-1.607258,-261.014521,1.600078,66.078212
3.6573,-0.015424,0.004924,0.013501,-0.000293,0.000666,-0.011254,-0.008162,-0.50507,0.013877,-1.607258,-261.014521,1.600078,66.078212
3.6767,-0.015078,0.005335,0.01197,-0.000284,0.000671,-0.011251,-0.008548,-0.505009,0.013144,-1.619643,-261.012045,1.611109,66.081212
3.6968,-0.014949,0.004908,0.013044,-0.000272,0.00067,-0.011232,-0.008936,-0.504662,0.012057,-1.619643,-261.012045,1.611109,66.081212
3.7171,-0.015077,0.004874,0.012712,-0.000261,0.000669,-0.011216,-0.008936,-0.504662,0.012057,-1.619643,-261.012045,1.611109,66.081212
3.737,-0.014591,0.005019,0.011302,-0.000253,0.000668,-0.011203,-0.008606,-0.505057,0.012242,-1.616578,-261.009558,1.608439,66.084237
3.7569,-0.0146,0.005082,0.012898,-0.000238,0.000684,-0.011187,-0.008699,-0.505009,0.011799,-1.616578,-261.009558,1.608439,66.084237
3.7768,-0.014509,0.0052,0.010894,-0.000226,0.000697,-0.011174,-0.008031,-0.504855,0.012542,-1.61179,-261.007093,1.604507,66.087234
3.7969,-0.014205,0.005522,0.012827,-0.000225,0.000694,-0.011142,-0.008871,-0.504776,0.011025,-1.61179,-261.007093,1.604507,66.087234
3.8169,-0.014093,0.00522,0.012128,-0.000225,0.000692,-0.011116,-0.008871,-0.504776,0.011025,-1.61179,-261.007093,1.604507,66.087234
3.837,-0.01442,0.0055,0.011457,-0.000225,0.00069,-0.011095,-0.007918,-0.504713,0.01166,-1.607632,-261.004642,1.600808,66.090243
3.8568,-0.013986,0.004875,0.012049,-0.000259,0.000647,-0.011093,-0.008187,-0.504609,0.011524,-1.607632,-261.004642,1.600808,66.090243
3.8769,-0.014076,0.005114,0.010978,-0.000286,0.000612,-0.011091,-0.007848,-0.505066,0.011696,-1.60769,-261.002206,1.600875,66.09323
3.8969,-0.01385,0.005013,0.012633,-0.000285,0.000614,-0.011074,-0.008421,-0.504873,0.011025,-1.60769,-261.002206,1.600875,66.09323
3.917,-0.01432,0.005006,0.010834,-0.000284,0.000615,-0.011061,-0.008421,-0.504873,0.011025,-1.60769,-261.002206,1.600875,66.09323
3.937,-0.013393,0.004957,0.011249,-0.000283,0.000617,-0.011049,-0.008807,-0.504939,0.01037,-1.61718,-260.999745,1.609496,66.096179
3.9571,-0.013413,0.005273,0.012595,-0.000283,0.00062,-0.011027,-0.008346,-0.504965,0.01067,-1.61718,-260.999745,1.609496,66.096179
3.9773,-0.013032,0.005263,0.009656,-0.000283,0.000624,-0.011009,-0.006999,-0.504667,0.012243,-1.616979,-260.997289,1.609256,66.099128
3.9974,-0.013302,0.005474,0.011524,-0.000317,0.000588,-0.010956,-0.008008,-0.504708,0.009872,-1.616979,-260.997289,1.609256,66.099128
4.017,-0.013503,0.005234,0.012182,-0.000344,0.000559,-0.010913,-0.008008,-0.504708,0.009872,-1.616979,-260.997289,1.609256,66.099128
4.0372,-0.013162,0.005019,0.009691,-0.000366,0.000535,-0.010879,-0.007302,-0.504702,0.011722,-1.617151,-260.994843,1.609289,66.102073
4.0569,-0.013402,0.005126,0.008382,-0.000387,0.000511,-0.010894,-0.00768,-0.504803,0.010835,-1.617151,-260.994843,1.609289,66.102073
4.077,-0.012899,0.005557,0.008431,-0.000404,0.000492,-0.010907,-0.009139,-0.504839,0.008038,-1.630615,-260.992408,1.621719,66.104933
4.0972,-0.01287,0.005419,0.00958,-0.000411,0.00049,-0.010756,-0.008647,-0.50446,0.00838,-1.630615,-260.992408,1.621719,66.104933
4.1172,-0.012774,0.005482,0.008041,-0.000418,0.000488,-0.01064,-0.008647,-0.50446,0.00838,-1.630615,-260.992408,1.621719,66.104933
4.1372,-0.012314,0.005373,0.009297,-0.000423,0.000487,-0.010549,-0.008691,-0.504482,0.007586,-1.636168,-260.989937,1.627194,66.107797
4.1571,-0.012418,0.005283,0.007569,-0.000442,0.000473,-0.010464,-0.008231,-0.50453,0.00824,-1.636168,-260.989937,1.627194,66.107797
4.1772,-0.012408,0.005565,0.007351,-0.000457,0.000461,-0.010398,-0.008571,-0.504688,0.007234,-1.641668,-260.987554,1.631739,66.110567
4.1972,-0.012313,0.005374,0.006515,-0.000463,0.000467,-0.010241,-0.008652,-0.504444,0.007323,-1.641668,-260.987554,1.631739,66.110567
4.2171,-0.012553,0.005294,0.008159,-0.000468,0.000472,-0.010121,-0.008652,-0.504444,0.007323,-1.641668,-260.987554,1.631739,66.110567
4.2371,-0.012168,0.005244,0.007208,-0.000473,0.000476,-0.010031,-0.008411,-0.50467,0.007725,-1.648298,-260.985191,1.637834,66.113299
4.2574,-0.012141,0.005451,0.008472,-0.000471,0.000489,-0.00998,-0.008447,-0.504698,0.007461,-1.648298,-260.985191,1.637834,66.113299
4.2774,-0.011954,0.00523,0.007373,-0.000469,0.000499,-0.009941,-0.007835,-0.504515,0.008152,-1.654315,-260.982924,1.642323,66.115946
4.2975,-0.011901,0.005528,0.007613,-0.000478,0.000498,-0.009906,-0.008163,-0.504734,0.007426,-1.654315,-260.982924,1.642323,66.115946
4.3174,-0.011634,0.005532,0.008685,-0.000486,0.000498,-0.009879,-0.008163,-0.504734,0.007426,-1.654315,-260.982924,1.642323,66.115946
4.3369,-0.011701,0.00529,0.008562,-0.000492,0.000497,-0.00986,-0.007225,-0.504427,0.008268,-1.654801,-260.980691,1.642079,66.118575
4.357,-0.011363,0.005249,0.007073,-0.000546,0.000434,-0.009934,-0.007271,-0.50453,0.008337,-1.654801,-260.980691,1.642079,66.118575
4.3767,-0.01134,0.005615,0.004622,-0.000589,0.000383,-0.009993,-0.007771,-0.504722,0.006759,-1.659628,-260.978471,1.646139,66.121192
4.3969,-0.010939,0.00534,0.006135,-0.000557,0.000422,-0.009431,-0.008878,-0.504409,0.004792,-1.659628,-260.978471,1.646139,66.121192
4.4169,-0.011718,0.005408,0.005855,-0.000536,0.000452,-0.009031,-0.008878,-0.504409,0.004792,-1.659628,-260.978471,1.646139,66.121192
4.4368,-0.011954,0.005524,0.004974,-0.000521,0.000476,-0.008746,-0.008756,-0.504567,0.005441,-1.673349,-260.97619,1.661303,66.123776
4.4569,-0.010998,0.005236,0.006425,-0.000502,0.000506,-0.00864,-0.009029,-0.504526,0.005202,-1.673349,-260.97619,1.661303,66.123776
4.477,-0.010905,0.005861,0.006914,-0.000489,0.000531,-0.008564,-0.007738,-0.504738,0.006146,-1.677433,-260.974233,1.660079,66.126112
4.4975,-0.010895,0.0055,0.005679,-0.000565,0.000446,-0.008772,-0.007412,-0.504181,0.00683,-1.677433,-260.974233,1.660079,66.126112
4.517,-0.011143,0.005342,0.004646,-0.000626,0.000377,-0.008933,-0.007412,-0.504181,0.00683,-1.677433,-260.974233,1.660079,66.126112
4.537,-0.010822,0.005587,0.005037,-0.000674,0.000321,-0.009056,-0.008794,-0.504631,0.004288,-1.674398,-260.972344,1.655416,66.128423
4.557,-0.010812,0.005253,0.005399,-0.000636,0.000366,-0.008707,-0.008576,-0.504537,0.004551,-1.674398,-260.972344,1.655416,66.128423
4.5775,-0.010549,0.005503,0.00481,-0.000609,0.000403,-0.008457,-0.008079,-0.50473,0.005118,-1.699511,-260.970293,1.685524,66.130722
4.5973,-0.010465,0.005613,0.003157,-0.000611,0.000406,-0.008343,-0.008096,-0.504514,0.004824,-1.699511,-260.970293,1.685524,66.130722
4.6172,-0.010453,0.005216,0.00309,-0.000615,0.000408,-0.008261,-0.008096,-0.504514,0.004824,-1.699511,-260.970293,1.685524,66.130722
4.6371,-0.01011,0.005311,0.002982,-0.000618,0.00041,-0.008202,-0.008902,-0.504765,0.002736,-1.697907,-260.968374,1.679681,66.132961
4.6576,-0.010293,0.00557,0.003627,-0.000567,0.000472,-0.007504,-0.008778,-0.504731,0.002795,-1.697907,-260.968374,1.679681,66.132961
4.6769,-0.010331,0.005316,0.00313,-0.000529,0.000523,-0.007017,-0.008463,-0.504413,0.003363,-1.704369,-260.966519,1.684333,66.135142
4.6968,-0.01015,0.0055,0.002516,-0.000511,0.000554,-0.006808,-0.00871,-0.504655,0.003139,-1.704369,-260.966519,1.684333,66.135142
4.7169,-0.010374,0.005768,0.003632,-0.000499,0.000579,-0.006663,-0.00871,-0.504655,0.003139,-1.704369,-260.966519,1.684333,66.135142
4.7372,-0.010668,0.005718,0.003847,-0.00049,0.000599,-0.006562,-0.008544,-0.504207,0.003338,-1.710533,-260.965001,1.680421,66.137075
4.7569,-0.010048,0.005154,0.002871,-0.000511,0.000576,-0.006613,-0.008613,-0.504234,0.003512,-1.710533,-260.965001,1.680421,66.137075
4.7771,-0.00979,0.005783,0.002276,-0.000529,0.000557,-0.006652,-0.0086,-0.504825,0.002662,-1.713414,-260.963624,1.676674,66.138927
4.797,-0.009932,0.005687,0.004131,-0.000531,0.000552,-0.00623,-0.008628,-0.50427,0.0023,-1.713414,-260.963624,1.676674,66.138927
4.817,-0.010072,0.005646,0.002122,-0.000535,0.000548,-0.005932,-0.008628,-0.50427,0.0023,-1.713414,-260.963624,1.676674,66.138927
4.837,-0.00968,0.00577,0.001195,-0.000539,0.000544,-0.005722,-0.009012,-0.50433,0.001845,-1.720477,-260.962208,1.684769,66.140783
4.8571,-0.009969,0.005629,0.002477,-0.000522,0.000564,-0.005225,-0.009038,-0.504286,0.001548,-1.720477,-260.962208,1.684769,66.140783
4.8775,-0.009695,0.005536,0.002639,-0.000511,0.000579,-0.004874,-0.008705,-0.504369,0.002477,-1.645481,-260.962208,1.7035,66.140783
4.8971,-0.009465,0.005598,0.002677,-0.000526,0.000569,-0.005086,-0.008383,-0.504453,0.002624,-1.645481,-260.962208,1.7035,66.140783
4.9171,-0.009791,0.005677,0.002308,-0.000539,0.000561,-0.005241,-0.008383,-0.504453,0.002624,-1.645481,-260.962208,1.7035,66.140783
4.9371,-0.009305,0.005809,0.001749,-0.000548,0.000554,-0.005355,-0.008613,-0.504322,0.002308,-1.570469,-260.962208,1.713514,66.140783
4.9569,-0.010211,0.00572,0.002812,-0.000557,0.000543,-0.005227,-0.008533,-0.504268,0.002082,-1.570469,-260.962208,1.713514,66.140783
4.9768,-0.009707,0.00545,0.003504,-0.000564,0.000535,-0.005134,-0.008777,-0.504278,0.002812,-1.495477,-260.962209,1.713262,66.140784
4.9973,-0.009812,0.005481,0.002143,-0.000585,0.000513,-0.005522,-0.007995,-0.504524,0.003443,-1.495477,-260.962209,1.713262,66.140784
5.0171,-0.009571,0.005533,0.002895,-0.000602,0.000494,-0.00581,-0.007995,-0.504524,0.003443,-1.495477,-260.962209,1.713262,66.140784
5.037,-0.009761,0.005589,0.003038,-0.000615,0.000479,-0.006024,-0.008094,-0.504465,0.002895,-1.420428,-260.962209,1.723319,66.140784
5.0572,-0.009791,0.005597,0.003388,-0.000621,0.000471,-0.006037,-0.008142,-0.504442,0.002953,-1.420428,-260.962209,1.723319,66.140784
5.0771,-0.009607,0.005666,0.001799,-0.000626,0.000464,-0.006045,-0.008063,-0.5044,0.003388,-1.345476,-260.962209,1.717656,66.140784
5.0973,-0.009978,0.005539,0.00125,-0.000607,0.000479,-0.005663,-0.008636,-0.504339,0.001935,-1.345476,-260.962209,1.717656,66.140784
5.1172,-0.009606,0.005548,0.002453,-0.000594,0.000491,-0.005388,-0.008636,-0.504339,0.001935,-1.345476,-260.962209,1.717656,66.140784
5.137,-0.009839,0.005517,0.003421,-0.000585,0.000501,-0.005189,-0.008355,-0.504451,0.002453,-1.270355,-260.962209,1.720215,66.140784
5.1567,-0.009916,0.005461,0.00186,-0.000592,0.000494,-0.005383,-0.008247,-0.504463,0.002852,-1.270355,-260.962209,1.720215,66.140784
5.1771,-0.00972,0.006111,0.001891,-0.000598,0.000488,-0.005524,-0.008967,-0.504538,0.00186,-1.195311,-260.962209,1.728744,66.140784
5.1972,-0.010122,0.005226,0.00288,-0.000602,0.000475,-0.005275,-0.008774,-0.503946,0.001889,-1.195311,-260.962209,1.728744,66.140784
5.2171,-0.009621,0.005675,0.002134,-0.000606,0.000464,-0.005094,-0.008774,-0.503946,0.001889,-1.195311,-260.962209,1.728744,66.140784
5.237,-0.009804,0.005459,0.00096,-0.00061,0.000455,-0.004963,-0.008533,-0.504324,0.002134,-1.120419,-260.962209,1.724506,66.140784
5.2569,-0.009576,0.005931,0.001971,-0.000584,0.000487,-0.00477,-0.008854,-0.504413,0.001652,-1.120419,-260.962209,1.724506,66.140784
5.2773,-0.010311,0.005681,0.002916,-0.000564,0.000512,-0.004629,-0.008571,-0.504068,0.001971,-1.045316,-260.962209,1.743922,66.140784
5.2976,-0.009668,0.005643,0.004028,-0.000563,0.000512,-0.004946,-0.008802,-0.504296,0.002836,-1.045316,-260.962209,1.743922,66.140784
5.3176,-0.009559,0.005421,0.001986,-0.000561,0.000513,-0.005178,-0.008802,-0.504296,0.002836,-1.045316,-260.962209,1.743922,66.140784
5.3374,-0.009628,0.006002,0.003113,-0.00056,0.000513,-0.005347,-0.008546,-0.504578,0.001986,-0.970331,-260.962209,1.738106,66.140785
5.357,-0.009708,0.005125,0.002868,-0.000572,0.000501,-0.005345,-0.008342,-0.504344,0.00244,-0.970331,-260.962209,1.738106,66.140785
5.3767,-0.009919,0.005749,0.002539,-0.000582,0.000491,-0.005343,-0.008246,-0.504873,0.002868,-0.895472,-260.962209,1.717892,66.140785
5.3969,-0.010093,0.005253,0.002375,-0.000583,0.000489,-0.005383,-0.00859,-0.504305,0.002569,-0.895472,-260.962209,1.717892,66.140785
5.4169,-0.009907,0.005571,0.003593,-0.000583,0.000488,-0.005411,-0.00859,-0.504305,0.002569,-0.895472,-260.962209,1.717892,66.140785
5.4371,-0.010016,0.005771,0.001961,-0.000582,0.000488,-0.005431,-0.008074,-0.504426,0.003593,-0.820474,-260.96221,1.724722,66.140785
5.4573,-0.009702,0.0056,0.001624,-0.000588,0.000481,-0.005554,-0.008458,-0.504345,0.002928,-0.820474,-260.96221,1.724722,66.140785
5.4767,-0.009921,0.005645,0.002052,-0.000591,0.000476,-0.005643,-0.008874,-0.5044,0.001624,-0.745438,-260.96221,1.722706,66.140785
5.497,-0.009838,0.005462,0.002422,-0.000571,0.000498,-0.005392,-0.008874,-0.504358,0.002016,-0.745438,-260.96221,1.722706,66.140785
5.517,-0.009791,0.006131,0.001263,-0.000555,0.000515,-0.005213,-0.008874,-0.504358,0.002016,-0.745438,-260.96221,1.722706,66.140785
5.5372,-0.009804,0.005422,0.002192,-0.000544,0.000529,-0.005085,-0.009147,-0.503869,0.001263,-0.670343,-260.96221,1.720389,66.140785
5.557,-0.009595,0.005934,0.001187,-0.000539,0.000532,-0.004838,-0.008959,-0.504158,0.001643,-0.670343,-260.96221,1.720389,66.140785
5.577,-0.009674,0.005479,0.002132,-0.000537,0.000534,-0.004662,-0.00899,-0.504066,0.001187,-0.595417,-260.96221,1.719238,66.140785
5.5972,-0.00982,0.005616,0.00225,-0.000534,0.000543,-0.0047,-0.008621,-0.50448,0.002051,-0.595417,-260.96221,1.719238,66.140785
5.617,-0.009682,0.005584,0.002157,-0.000532,0.00055,-0.004729,-0.008621,-0.50448,0.002051,-0.595417,-260.96221,1.719238,66.140785
5.6374,-0.009795,0.005508,0.001345,-0.000531,0.000556,-0.00475,-0.008582,-0.504415,0.002157,-0.520353,-260.96221,1.728198,66.140785
5.6576,-0.009457,0.006124,0.003914,-0.000523,0.000567,-0.004675,-0.0088,-0.504446,0.001822,-0.520353,-260.96221,1.728198,66.140785
5.677,-0.009509,0.005941,0.002063,-0.000517,0.000576,-0.004622,-0.007461,-0.503872,0.003914,-0.445324,-260.96221,1.723077,66.140786
5.6971,-0.009948,0.005828,0.003299,-0.000555,0.000532,-0.004739,-0.008367,-0.504041,0.00223,-0.445324,-260.96221,1.723077,66.140786
5.7169,-0.009796,0.00556,0.001698,-0.000584,0.000496,-0.004825,-0.008367,-0.504041,0.00223,-0.445324,-260.96221,1.723077,66.140786
5.7374,-0.010041,0.005819,0.002129,-0.000607,0.000467,-0.004887,-0.00893,-0.504439,0.001698,-0.370476,-260.96221,1.721795,66.140786
5.7572,-0.009913,0.005964,0.001794,-0.000584,0.000491,-0.004797,-0.008941,-0.504334,0.001873,-0.370476,-260.96221,1.721795,66.140786
5.7772,-0.010156,0.005506,0.00312,-0.000566,0.000511,-0.004731,-0.008998,-0.504035,0.001794,-0.295477,-260.96221,1.744893,66.140786
5.7972,-0.009718,0.005915,0.003011,-0.000564,0.000514,-0.005052,-0.008605,-0.50445,0.002998,-0.295477,-260.96221,1.744893,66.140786
5.8171,-0.009692,0.005741,0.002043,-0.000563,0.000516,-0.00529,-0.008605,-0.50445,0.002998,-0.295477,-260.96221,1.744893,66.140786
5.837,-0.010079,0.005643,0.002072,-0.000561,0.000518,-0.005465,-0.00865,-0.504258,0.002043,-0.220472,-260.96221,1.735734,66.140786
5.8576,-0.009927,0.005783,0.000971,-0.000554,0.000523,-0.005279,-0.008802,-0.504298,0.002055,-0.220472,-260.96221,1.735734,66.140786
5.8771,-0.009612,0.005879,0.002214,-0.000549,0.000528,-0.005146,-0.009432,-0.504217,0.000971,-0.14548,-260.962211,1.715282,66.140786
5.8972,-0.010041,0.005673,0.001991,-0.000565,0.000508,-0.005076,-0.008556,-0.504127,0.002117,-0.14548,-260.962211,1.715282,66.140786
5.9171,-0.009624,0.005602,0.003379,-0.000577,0.000492,-0.005026,-0.008556,-0.504127,0.002117,-0.14548,-260.962211,1.715282,66.140786
5.9373,-0.009737,0.005869,0.00154,-0.000587,0.000479,-0.00499,-0.007901,-0.504395,0.003379,-0.070122,-260.962211,1.71921,66.140786
5.9573,-0.009637,0.00608,0.001813,-0.0006,0.000466,-0.005139,-0.008327,-0.504287,0.002633,-0.070122,-260.962211,1.71921,66.140786
5.977,-0.009598,0.005504,0.00105,-0.000609,0.000455,-0.005249,-0.008713,-0.503919,0.001813,0.004547,-260.962211,1.735859,66.140786
5.9971,-0.00985,0.005874,0.001404,-0.00057,0.000498,-0.004705,-0.009032,-0.504446,0.001116,0.004547,-260.962211,1.735859,66.140786
6.017,-0.009753,0.005541,0.001742,-0.000542,0.000533,-0.004319,-0.009032,-0.504446,0.001116,0.004547,-260.962211,1.735859,66.140786
6.037,-0.009695,0.005897,0.001577,-0.000521,0.000562,-0.004043,-0.008864,-0.504458,0.001742,0.079654,-260.962211,1.735556,66.140787
6.057,-0.009645,0.005796,0.002975,-0.00052,0.000565,-0.004097,-0.008875,-0.504313,0.001675,0.079654,-260.962211,1.735556,66.140787
6.0769,-0.009499,0.005784,0.00147,-0.00052,0.000568,-0.004138,-0.008128,-0.504201,0.002975,0.154631,-260.962211,1.740842,66.140787
6.0972,-0.009749,0.006063,0.001547,-0.000531,0.000556,-0.004136,-0.008697,-0.504214,0.001597,0.154631,-260.962211,1.740842,66.140787
6.1169,-0.009884,0.005415,0.002548,-0.00054,0.000546,-0.004135,-0.008697,-0.504214,0.001597,0.154631,-260.962211,1.740842,66.140787
6.1372,-0.009753,0.005706,0.002883,-0.000548,0.000538,-0.004135,-0.008585,-0.504583,0.002548,0.229668,-260.962211,1.737187,66.140787
6.1571,-0.009835,0.00579,0.001752,-0.000555,0.000531,-0.004519,-0.00846,-0.504463,0.002687,0.229668,-260.962211,1.737187,66.140787
6.1771,-0.009656,0.005539,0.001749,-0.00056,0.000526,-0.004804,-0.008941,-0.504209,0.001752,0.304651,-260.962211,1.662204,66.140787
6.1974,-0.010012,0.00569,0.004063,-0.000547,0.000541,-0.004681,-0.008779,-0.504439,0.001749,0.304651,-260.962211,1.662204,66.140787
6.2172,-0.010049,0.005545,0.002437,-0.000538,0.000553,-0.004594,-0.008779,-0.504439,0.001749,0.304651,-260.962211,1.662204,66.140787
6.2372,-0.010036,0.005962,0.002509,-0.00053,0.000563,-0.004531,-0.008806,-0.504453,0.002437,0.379653,-260.962211,1.731298,66.140787
6.2574,-0.009704,0.005824,0.00122,-0.000536,0.000555,-0.00475,-0.008786,-0.504285,0.002467,0.379653,-260.962211,1.731298,66.140787
6.2769,-0.00963,0.005671,0.003345,-0.000541,0.000548,-0.004911,-0.009082,-0.504175,0.00122,0.45454,-260.962211,1.728699,66.140787
6.297,-0.009573,0.005877,0.002867,-0.000578,0.000506,-0.005228,-0.008021,-0.504314,0.003167,0.45454,-260.962211,1.728699,66.140787
6.3174,-0.009503,0.005497,0.002217,-0.000607,0.000472,-0.005463,-0.008021,-0.504314,0.003167,0.45454,-260.962211,1.728699,66.140787
6.3371,-0.009968,0.005419,0.000986,-0.000629,0.000444,-0.005637,-0.008372,-0.504501,0.002217,0.529729,-260.962211,1.722081,66.140787
6.3572,-0.009893,0.005656,0.000759,-0.000592,0.000484,-0.005257,-0.008815,-0.504533,0.001718,0.529729,-260.962211,1.722081,66.140787
6.3772,-0.009895,0.005395,0.001982,-0.000564,0.000516,-0.004987,-0.009506,-0.504343,0.000759,0.604551,-260.962211,1.731348,66.140787
6.3974,-0.009804,0.005653,0.001387,-0.000537,0.00055,-0.004863,-0.008937,-0.504582,0.001878,0.604551,-260.962211,1.731348,66.140787
6.4171,-0.009967,0.005522,0.001046,-0.000516,0.000577,-0.004775,-0.008937,-0.504582,0.001878,0.604551,-260.962211,1.731348,66.140787
6.4367,-0.009891,0.005535,0.00107,-0.0005,0.0006,-0.004713,-0.009433,-0.504477,0.001046,0.67967,-260.962212,1.727861,66.140788
6.4567,-0.010015,0.005477,0.002809,-0.000473,0.000633,-0.004298,-0.009397,-0.504472,0.001056,0.67967,-260.962212,1.727861,66.140788
6.4766,-0.009922,0.005865,0.00276,-0.000452,0.000661,-0.004001,-0.008582,-0.504521,0.002809,0.754523,-260.962212,1.713561,66.140788
6.4967,-0.010019,0.00604,0.003554,-0.000493,0.000612,-0.004437,-0.00852,-0.504166,0.002764,0.754523,-260.962212,1.713561,66.140788
6.5169,-0.009923,0.005454,0.003961,-0.000525,0.000573,-0.004764,-0.00852,-0.504166,0.002764,0.754523,-260.962212,1.713561,66.140788
6.537,-0.00983,0.005492,0.001275,-0.00055,0.000541,-0.005007,-0.007903,-0.504542,0.00396,0.829631,-260.962215,1.71547,66.140794
6.557,-0.009872,0.005885,0.000841,-0.000554,0.000538,-0.005215,-0.008425,-0.504528,0.002862,0.829631,-260.962215,1.71547,66.140794
6.5768,-0.009697,0.005765,0.001792,-0.000557,0.000535,-0.005368,-0.009443,-0.504114,0.00084,0.904519,-260.962225,1.722512,66.140808
6.597,-0.010099,0.005406,0.003218,-0.000551,0.000536,-0.005063,-0.00884,-0.504224,0.00171,0.904519,-260.962225,1.722512,66.140808
6.6168,-0.009974,0.005427,0.002323,-0.000548,0.000537,-0.004846,-0.00884,-0.504224,0.00171,0.904519,-260.962225,1.722512,66.140808
6.6371,-0.009971,0.006051,0.00237,-0.000545,0.000537,-0.004693,-0.008791,-0.50457,0.002317,0.979631,-260.962256,1.715909,66.14085
6.6571,-0.009751,0.006293,0.002747,-0.000545,0.000537,-0.004824,-0.008779,-0.504313,0.002338,0.979631,-260.962256,1.715909,66.14085
6.6767,-0.009764,0.005716,0.001947,-0.000545,0.000538,-0.004921,-0.008353,-0.503703,0.002731,1.054651,-260.962369,1.729668,66.141012
6.6969,-0.00996,0.005427,0.001949,-0.000549,0.000532,-0.004874,-0.008735,-0.504232,0.002014,1.054651,-260.962369,1.729668,66.141012
6.7171,-0.009741,0.005933,0.004815,-0.000552,0.000528,-0.00484,-0.008735,-0.504232,0.002014,1.054651,-260.962369,1.729668,66.141012
6.737,-0.009496,0.005637,0.0028,-0.000555,0.000524,-0.004817,-0.007293,-0.504055,0.004769,1.129675,-260.962606,1.723515,66.141349
6.7568,-0.009814,0.005627,0.002547,-0.000615,0.000455,-0.005329,-0.007612,-0.50418,0.003955,1.129675,-260.962606,1.723515,66.141349
6.7769,-0.009996,0.00594,0.001521,-0.000664,0.000398,-0.005715,-0.008525,-0.504363,0.002476,1.204652,-260.963074,1.729562,66.142012
6.7968,-0.009465,0.005843,0.002843,-0.000627,0.000427,-0.005255,-0.009161,-0.504085,0.0016,1.204652,-260.963074,1.729562,66.142012
6.8168,-0.009875,0.005654,0.002144,-0.0006,0.000452,-0.00493,-0.009161,-0.504085,0.0016,1.204652,-260.963074,1.729562,66.142012
6.8368,-0.009314,0.00576,0.002342,-0.00058,0.000471,-0.0047,-0.008804,-0.504332,0.001984,1.279633,-260.963934,1.739877,66.143085
6.8569,-0.009667,0.005711,0.0026,-0.000582,0.000472,-0.004745,-0.008523,-0.504292,0.002114,1.279633,-260.963934,1.739877,66.143085
6.8768,-0.009406,0.005775,0.002173,-0.000583,0.000473,-0.004779,-0.008359,-0.504273,0.002458,1.33369,-260.964876,1.742565,66.144379
6.8967,-0.009628,0.005941,0.003097,-0.000598,0.000459,-0.004831,-0.008304,-0.504227,0.00219,1.33369,-260.964876,1.742565,66.144379
6.9168,-0.009519,0.00583,0.001692,-0.00061,0.000448,-0.004872,-0.008304,-0.504227,0.00219,1.33369,-260.964876,1.742565,66.144379
6.9369,-0.00916,0.005985,0.001131,-0.000619,0.000439,-0.004905,-0.00868,-0.50415,0.001492,1.336659,-260.965882,1.741099,66.145756
6.957,-0.009385,0.005911,0.001649,-0.000614,0.000442,-0.004551,-0.008644,-0.504092,0.001322,1.336659,-260.965882,1.741099,66.145756
6.9767,-0.009541,0.005481,-0.000143,-0.000611,0.000444,-0.004299,-0.008544,-0.504088,0.001649,1.333295,-260.965882,1.666077,66.145756
6.9968,-0.009716,0.005845,0.001132,-0.000548,0.000513,-0.003431,-0.009522,-0.504482,1.1e-05,1.333295,-260.965882,1.666077,66.145756
7.0168,-0.009368,0.005709,0.00213,-0.000502,0.000569,-0.002807,-0.009522,-0.504482,1.1e-05,1.333295,-260.965882,1.666077,66.145756
7.0372,-0.009257,0.005594,0.002207,-0.000468,0.000616,-0.002358,-0.008281,-0.50429,0.00213,1.297755,-260.965882,1.591115,66.145756
7.0572,-0.009524,0.005697,0.002716,-0.000508,0.000577,-0.003017,-0.00822,-0.504337,0.002162,1.297755,-260.965882,1.591115,66.145756
7.0775,-0.009483,0.005774,0.0004,-0.00054,0.000545,-0.003511,-0.008139,-0.504301,0.002716,1.222682,-260.965882,1.516043,66.145755
7.0972,-0.009784,0.005823,0.003246,-0.000525,0.000563,-0.003187,-0.009174,-0.504233,0.000612,1.222682,-260.965882,1.516043,66.145755
7.1173,-0.009647,0.005832,0.002156,-0.000514,0.000577,-0.002955,-0.009174,-0.504233,0.000612,1.222682,-260.965882,1.516043,66.145755
7.137,-0.009489,0.006379,0.00207,-0.000506,0.000589,-0.00279,-0.008547,-0.504167,0.002156,1.245179,-260.965882,1.441107,66.145755
7.1573,-0.009624,0.005646,0.000259,-0.000548,0.000538,-0.003332,-0.0085,-0.503941,0.002121,1.245179,-260.965882,1.441107,66.145755
7.1771,-0.009321,0.006049,0.001837,-0.000581,0.000497,-0.003738,-0.009492,-0.504354,0.000259,1.170195,-260.965882,1.366123,66.145755
7.1971,-0.009928,0.005673,0.001605,-0.000604,0.00047,-0.003879,-0.008479,-0.503985,0.001701,1.170195,-260.965882,1.366123,66.145755
7.217,-0.00946,0.005975,0.001282,-0.000621,0.000448,-0.003984,-0.008479,-0.503985,0.001701,1.170195,-260.965882,1.366123,66.145755
7.2372,-0.009156,0.005837,0.001834,-0.000635,0.00043,-0.004063,-0.008806,-0.504025,0.001282,1.245217,-260.965882,1.291101,66.145755
7.2574,-0.009238,0.005584,0.000395,-0.000635,0.000427,-0.004038,-0.008567,-0.504081,0.001507,1.245217,-260.965882,1.291101,66.145755
7.2772,-0.009257,0.005876,0.000744,-0.000636,0.000425,-0.004021,-0.009037,-0.504416,0.000395,1.270721,-260.965883,1.216178,66.145755
7.2969,-0.009256,0.005544,0.001611,-0.000615,0.000446,-0.003623,-0.008892,-0.50415,0.000713,1.270721,-260.965883,1.216178,66.145755
7.3172,-0.009645,0.005597,0.001716,-0.0006,0.000463,-0.003336,-0.008892,-0.50415,0.000713,1.270721,-260.965883,1.216178,66.145755
7.3375,-0.009774,0.005569,0.001056,-0.000588,0.000476,-0.003129,-0.00877,-0.504403,0.001716,1.267399,-260.965883,1.141213,66.145755
7.357,-0.009352,0.005978,0.001572,-0.000568,0.000504,-0.00334,-0.008957,-0.504414,0.001451,1.267399,-260.965883,1.141213,66.145755
7.377,-0.009578,0.005696,0.002639,-0.000551,0.000528,-0.003495,-0.00855,-0.504021,0.001572,1.192405,-260.965883,1.066219,66.145755
7.3972,-0.009822,0.005799,0.001916,-0.000577,0.000498,-0.003996,-0.008261,-0.504277,0.002544,1.192405,-260.965883,1.066219,66.145755
7.4169,-0.009515,0.00573,0.002664,-0.000598,0.000475,-0.004372,-0.008261,-0.504277,0.002544,1.192405,-260.965883,1.066219,66.145755
7.4369,-0.009518,0.005735,0.000293,-0.000613,0.000457,-0.004652,-0.008156,-0.504269,0.002664,1.240435,-260.965883,0.991208,66.145755
7.457,-0.009224,0.005284,0.001902,-0.000604,0.000465,-0.00455,-0.00865,-0.504267,0.001698,1.240435,-260.965883,0.991208,66.145755
7.477,-0.009623,0.005901,0.001685,-0.000597,0.000472,-0.004477,-0.008253,-0.504715,0.001902,1.315434,-260.965883,0.916209,66.145755
7.4971,-0.009188,0.00615,0.000965,-0.000596,0.000472,-0.004429,-0.00872,-0.504151,0.001704,1.315434,-260.965883,0.916209,66.145755
7.5169,-0.009079,0.005815,0.002546,-0.000594,0.000472,-0.004394,-0.00872,-0.504151,0.001704,1.315434,-260.965883,0.916209,66.145755
7.5373,-0.00938,0.005538,0.001003,-0.000593,0.000472,-0.00437,-0.007781,-0.504184,0.002546,1.312675,-260.965883,0.841091,66.145755
7.5571,-0.009588,0.005862,-0.000104,-0.000606,0.000459,-0.004438,-0.008223,-0.504297,0.001919,1.312675,-260.965883,0.841091,66.145755
7.5772,-0.00949,0.005932,0.002382,-0.000617,0.000449,-0.004488,-0.009641,-0.504138,-0.000104,1.307264,-260.965883,0.766111,66.145754
7.5972,-0.009453,0.005651,0.002091,-0.000631,0.000431,-0.004618,-0.008394,-0.504073,0.002166,1.307264,-260.965883,0.766111,66.145754
7.6172,-0.01001,0.006231,0.003041,-0.000642,0.000416,-0.004714,-0.008394,-0.504073,0.002166,1.307264,-260.965883,0.766111,66.145754
7.6371,-0.009578,0.005715,0.00271,-0.00065,0.000404,-0.004783,-0.008459,-0.503767,0.003041,1.307929,-260.965883,0.691126,66.145754
7.6571,-0.009727,0.005508,0.000253,-0.000667,0.000379,-0.005067,-0.008353,-0.503975,0.002907,1.307929,-260.965883,0.691126,66.145754
7.677,-0.009768,0.005618,0.001952,-0.00068,0.000359,-0.005277,-0.009598,-0.504492,0.000253,1.318101,-260.965883,0.616218,66.145754
7.697,-0.009394,0.005819,0.001173,-0.00064,0.000403,-0.005042,-0.008847,-0.504391,0.0018,1.318101,-260.965883,0.616218,66.145754
7.7173,-0.009639,0.005665,0.001055,-0.00061,0.000438,-0.004874,-0.008847,-0.504391,0.0018,1.318101,-260.965883,0.616218,66.145754
7.7376,-0.009331,0.005523,0.00097,-0.000586,0.000468,-0.004754,-0.009101,-0.504335,0.001055,1.337694,-260.965883,0.541214,66.145754
7.7572,-0.009572,0.005951,0.001515,-0.000558,0.000502,-0.004309,-0.008994,-0.504393,0.001021,1.337694,-260.965883,0.541214,66.145754
7.7773,-0.009576,0.005742,0.000208,-0.000537,0.000531,-0.003992,-0.008799,-0.504049,0.001515,1.33464,-260.965883,0.616271,66.145754
7.7973,-0.009712,0.00578,0.001161,-0.00051,0.000561,-0.003401,-0.009409,-0.504239,0.000327,1.33464,-260.965883,0.616271,66.145754
7.8173,-0.009339,0.00568,0.000315,-0.00049,0.000585,-0.002976,-0.009409,-0.504239,0.000327,1.33464,-260.965883,0.616271,66.145754
7.8372,-0.009389,0.00569,0.002357,-0.000476,0.000606,-0.002669,-0.009179,-0.50432,0.000315,1.296165,-260.965884,0.541327,66.145754
7.8574,-0.009171,0.005694,0.000484,-0.000489,0.000599,-0.002854,-0.008778,-0.504316,0.00114,1.296165,-260.965884,0.541327,66.145754
7.8771,-0.009438,0.00593,0.002,-0.000499,0.000593,-0.002991,-0.008925,-0.504306,0.000484,1.22117,-260.965884,0.466332,66.145754
7.8974,-0.009238,0.00568,0.002652,-0.000535,0.000552,-0.003391,-0.008464,-0.504091,0.001861,1.22117,-260.965884,0.466332,66.145754
7.9173,-0.009731,0.005864,0.001618,-0.000563,0.00052,-0.003689,-0.008464,-0.504091,0.001861,1.22117,-260.965884,0.466332,66.145754
7.937,-0.009574,0.005596,0.000716,-0.000585,0.000493,-0.00391,-0.008906,-0.504136,0.001618,1.186252,-260.965884,0.391329,66.145754
7.9575,-0.009279,0.00558,0.001334,-0.000568,0.000512,-0.003813,-0.009029,-0.504244,0.001251,1.186252,-260.965884,0.391329,66.145754
7.977,-0.009529,0.005709,0.001605,-0.000555,0.000527,-0.003745,-0.008599,-0.504419,0.001334,1.261251,-260.965884,0.316331,66.145754
7.9976,-0.009646,0.005629,0.001471,-0.000556,0.000527,-0.003841,-0.008699,-0.504303,0.00158,1.261251,-260.965884,0.316331,66.145754
8.0171,-0.009436,0.005434,0.000758,-0.000557,0.000527,-0.003911,-0.008699,-0.504303,0.00158,1.261251,-260.965884,0.316331,66.145754
8.037,-0.009268,0.006018,0.001322,-0.000557,0.000528,-0.003964,-0.00905,-0.504566,0.000758,1.265457,-260.965884,0.241334,66.145754
8.057,-0.009175,0.005856,0.001022,-0.000547,0.000541,-0.003729,-0.008865,-0.504329,0.000986,1.265457,-260.965884,0.241334,66.145754
8.077,-0.009319,0.005737,0.001542,-0.000539,0.000551,-0.00356,-0.008654,-0.504143,0.001022,1.284602,-260.965884,0.166331,66.145753
8.0971,-0.009179,0.005394,0.001354,-0.000553,0.000537,-0.00367,-0.008544,-0.504252,0.001494,1.284602,-260.965884,0.166331,66.145753
8.1168,-0.009267,0.005556,0.000807,-0.000563,0.000525,-0.003752,-0.008544,-0.504252,0.001494,1.284602,-260.965884,0.166331,66.145753
8.1369,-0.009463,0.006022,0.001779,-0.000572,0.000516,-0.003811,-0.008855,-0.504444,0.000807,1.250088,-260.965884,0.091329,66.145753
8.1569,-0.009899,0.005519,0.0003,-0.000569,0.000519,-0.003723,-0.008733,-0.504254,0.001202,1.250088,-260.965884,0.091329,66.145753
8.1768,-0.009495,0.005645,0.000507,-0.000566,0.000521,-0.00366,-0.009746,-0.504481,0.0003,1.26519,-260.965884,0.016335,66.145753
8.1968,-0.009526,0.005638,0.001633,-0.000535,0.000557,-0.003254,-0.009283,-0.504366,0.000488,1.26519,-260.965884,0.016335,66.145753
8.217,-0.009829,0.005535,-0.000157,-0.000511,0.000585,-0.002961,-0.009283,-0.504366,0.000488,1.26519,-260.965884,0.016335,66.145753
8.2369,-0.009319,0.005957,0.002604,-0.000492,0.000609,-0.002748,-0.00991,-0.504465,-0.000157,1.251622,-260.965884,-0.058665,66.145753
8.2569,-0.008955,0.00604,0.001238,-0.00049,0.000614,-0.002837,-0.009125,-0.504292,0.000972,1.251622,-260.965884,-0.058665,66.145753
8.2771,-0.009471,0.00555,0.001996,-0.000489,0.000619,-0.002903,-0.008323,-0.50396,0.001238,1.176619,-260.965884,-0.133668,66.145753
8.297,-0.009729,0.005796,0.001195,-0.000512,0.000594,-0.003351,-0.008441,-0.504405,0.001928,1.176619,-260.965884,-0.133668,66.145753
8.317,-0.009681,0.005945,0.000984,-0.00053,0.000575,-0.003684,-0.008441,-0.504405,0.001928,1.176619,-260.965884,-0.133668,66.145753
8.3373,-0.009251,0.0055,0.00081,-0.000544,0.000561,-0.003932,-0.009179,-0.504055,0.000984,1.170118,-260.965884,-0.208674,66.145753
8.3572,-0.009621,0.005914,0.001815,-0.000535,0.000568,-0.003666,-0.009039,-0.504237,0.000912,1.170118,-260.965884,-0.208674,66.145753
8.3771,-0.009155,0.005749,0.002659,-0.000528,0.000574,-0.003475,-0.008696,-0.504086,0.001815,1.245227,-260.965884,-0.283783,66.145753
8.3975,-0.009487,0.005858,0.000445,-0.00058,0.000515,-0.003989,-0.007877,-0.504235,0.002585,1.245227,-260.965884,-0.283783,66.145753
8.4175,-0.009643,0.005521,0.001796,-0.00062,0.000468,-0.004374,-0.007877,-0.504235,0.002585,1.245227,-260.965884,-0.283783,66.145753
8.437,-0.009307,0.005766,0.001756,-0.000652,0.00043,-0.004663,-0.008727,-0.504478,0.001796,1.242072,-260.965884,-0.358797,66.145753
8.4573,-0.009366,0.0057,0.001608,-0.000632,0.000449,-0.004588,-0.008598,-0.504378,0.001779,1.242072,-260.965884,-0.358797,66.145753
8.4769,-0.009424,0.005966,0.001844,-0.000616,0.000465,-0.004536,-0.008546,-0.504299,0.001608,1.307413,-260.965884,-0.433693,66.145753
8.4969,-0.009485,0.00585,0.002577,-0.000626,0.000448,-0.004519,-0.008489,-0.504055,0.001824,1.307413,-260.965884,-0.433693,66.145753
8.517,-0.009544,0.005855,0.001516,-0.000633,0.000435,-0.004507,-0.008489,-0.504055,0.001824,1.307413,-260.965884,-0.433693,66.145753
8.5369,-0.009491,0.005792,0.001093,-0.000639,0.000425,-0.004499,-0.008771,-0.504145,0.001516,1.309776,-260.965884,-0.508852,66.145753
8.5569,-0.009474,0.006577,8.4e-05,-0.00062,0.000442,-0.004285,-0.008838,-0.504171,0.001342,1.309776,-260.965884,-0.508852,66.145753
8.5768,-0.009712,0.005605,-0.000544,-0.000606,0.000457,-0.00413,-0.009431,-0.503423,8.4e-05,1.3024,-260.965885,-0.58384,66.145752
8.597,-0.009589,0.005369,0.00311,-0.000537,0.000526,-0.003063,-0.009943,-0.504313,-0.000491,1.3024,-260.965885,-0.58384,66.145752
8.6169,-0.009303,0.005849,0.002294,-0.000487,0.000583,-0.002291,-0.009943,-0.504313,-0.000491,1.3024,-260.965885,-0.58384,66.145752
8.6369,-0.009244,0.005769,0.002362,-0.000449,0.000631,-0.001734,-0.008133,-0.504149,0.002294,1.285398,-260.965885,-0.658819,66.145752
8.6569,-0.00938,0.00573,0.002099,-0.000507,0.00057,-0.002584,-0.008094,-0.504182,0.002322,1.285398,-260.965885,-0.658819,66.145752
8.6772,-0.009493,0.005536,0.001024,-0.000555,0.000519,-0.003227,-0.008309,-0.504269,0.002099,1.210369,-260.965885,-0.733848,66.145752
8.6971,-0.009309,0.006091,0.002143,-0.000539,0.000543,-0.003241,-0.008914,-0.504447,0.001116,1.210369,-260.965885,-0.733848,66.145752
8.7172,-0.009374,0.005868,0.001155,-0.000526,0.000563,-0.003254,-0.008914,-0.504447,0.001116,1.210369,-260.965885,-0.733848,66.145752
8.7371,-0.009515,0.00577,0.001196,-0.000517,0.000579,-0.003267,-0.008785,-0.504131,0.001155,1.205931,-260.965886,-0.80884,66.145751
8.757,-0.009606,0.006026,0.002403,-0.000527,0.000568,-0.003305,-0.008835,-0.504172,0.001172,1.205931,-260.965886,-0.80884,66.145751
8.7772,-0.009594,0.006144,0.001327,-0.000535,0.000559,-0.003334,-0.008381,-0.503972,0.002403,1.220952,-260.965888,-0.883844,66.145746
8.7972,-0.009805,0.005683,0.001195,-0.000557,0.00053,-0.003469,-0.008872,-0.503866,0.001418,1.220952,-260.965888,-0.883844,66.145746
8.8171,-0.009713,0.005781,0.001962,-0.000574,0.000506,-0.003568,-0.008872,-0.503866,0.001418,1.220952,-260.965888,-0.883844,66.145746
8.837,-0.009471,0.005671,0.00161,-0.000586,0.000486,-0.003642,-0.008713,-0.504218,0.00196,1.223511,-260.965901,-0.958796,66.145724
8.857,-0.009495,0.005766,-0.000148,-0.000585,0.000488,-0.00386,-0.008687,-0.504263,0.001815,1.223511,-260.965901,-0.958796,66.145724
8.8769,-0.009701,0.005479,0.000593,-0.000583,0.00049,-0.004021,-0.009573,-0.504233,-0.000156,1.245386,-260.965954,-1.033834,66.145644
8.8974,-0.009735,0.005679,0.001832,-0.000536,0.000545,-0.003533,-0.009413,-0.504496,0.000529,1.245386,-260.965954,-1.033834,66.145644
8.917,-0.009862,0.005609,0.00265,-0.000501,0.00059,-0.003182,-0.009413,-0.504496,0.000529,1.245386,-260.965954,-1.033834,66.145644
8.9373,-0.009753,0.00595,0.00251,-0.000474,0.000627,-0.002928,-0.008517,-0.504387,0.002627,1.2824,-260.966074,-1.108822,66.145469
8.9571,-0.009373,0.005989,0.001582,-0.000507,0.000588,-0.003569,-0.0085,-0.504248,0.002576,1.2824,-260.966074,-1.108822,66.145469
8.9773,-0.009443,0.005417,0.000841,-0.000534,0.000556,-0.004054,-0.008572,-0.504005,0.001558,1.207446,-260.966207,-1.183777,66.145207
8.9973,-0.009603,0.005587,0.002331,-0.000513,0.000584,-0.003743,-0.008975,-0.504531,0.000904,1.207446,-260.966207,-1.183777,66.145207
9.0169,-0.009204,0.005928,0.00034,-0.000498,0.000606,-0.00352,-0.008975,-0.504531,0.000904,1.207446,-260.966207,-1.183777,66.145207
9.0373,-0.009427,0.005691,0.001024,-0.000486,0.000625,-0.003361,-0.009044,-0.504063,0.000271,1.282463,-260.966543,-1.258794,66.144688
9.0576,-0.009535,0.006036,0.002675,-0.000494,0.000615,-0.003079,-0.008988,-0.504164,0.000576,1.282463,-260.966543,-1.258794,66.144688
9.0771,-0.009519,0.00612,0.001636,-0.0005,0.000606,-0.002876,-0.008184,-0.503948,0.002597,1.242597,-260.966986,-1.333909,66.143888
9.0972,-0.00949,0.005647,0.001029,-0.00054,0.000557,-0.003252,-0.008641,-0.503885,0.001716,1.242597,-260.966986,-1.333909,66.143888
9.1173,-0.00944,0.005549,0.001639,-0.00057,0.000517,-0.00353,-0.008641,-0.503885,0.001716,1.242597,-260.966986,-1.333909,66.143888
9.137,-0.009249,0.005992,0.000332,-0.000594,0.000485,-0.003737,-0.008623,-0.504428,0.001532,1.167734,-260.967431,-1.362135,66.143033
9.1571,-0.009578,0.005817,0.000921,-0.000582,0.000498,-0.003586,-0.008809,-0.504256,0.001035,1.167734,-260.967431,-1.362135,66.143033
9.1769,-0.009342,0.006038,0.001407,-0.000574,0.000508,-0.003477,-0.009126,-0.504169,0.000814,1.242631,-260.96811,-1.359546,66.142016
9.1969,-0.009349,0.005991,0.000678,-0.000589,0.000487,-0.003539,-0.008663,-0.503977,0.001357,1.242631,-260.96811,-1.359546,66.142016
9.2168,-0.009378,0.006004,0.001407,-0.000602,0.000471,-0.003586,-0.008663,-0.503977,0.001357,1.242631,-260.96811,-1.359546,66.142016
9.2371,-0.008982,0.005728,6.2e-05,-0.000611,0.000458,-0.003622,-0.008684,-0.503974,0.001263,1.229653,-260.96879,-1.356102,66.140948
9.2575,-0.009074,0.006296,0.001271,-0.000604,0.000464,-0.003352,-0.008795,-0.504093,0.000758,1.229653,-260.96879,-1.356102,66.140948
9.277,-0.009187,0.006141,1.4e-05,-0.000599,0.000469,-0.003158,-0.008445,-0.503689,0.001154,1.235636,-260.969532,-1.345794,66.139855
9.2972,-0.009409,0.005975,0.000292,-0.00059,0.00047,-0.002669,-0.009114,-0.503843,0.000112,1.235636,-260.969532,-1.345794,66.139855
9.3169,-0.009461,0.006191,-3.8e-05,-0.000585,0.000472,-0.002316,-0.009114,-0.503843,0.000112,1.235636,-260.969532,-1.345794,66.139855
9.337,-0.008816,0.006018,-0.000801,-0.000581,0.000473,-0.002062,-0.009504,-0.503791,-0.000163,1.181713,-260.970131,-1.326145,66.138917
9.3577,-0.009126,0.006161,0.001424,-0.000563,0.000489,-0.00158,-0.009393,-0.503866,-0.000438,1.181713,-260.970131,-1.326145,66.138917
9.3771,-0.009236,0.006164,0.000782,-0.000551,0.000502,-0.00123,-0.008405,-0.503834,0.001401,1.106733,-260.970262,-1.251164,66.138672
9.397,-0.008918,0.005925,0.000223,-0.000574,0.000481,-0.001641,-0.008798,-0.503835,0.000838,1.106733,-260.970262,-1.251164,66.138672
9.4169,-0.009076,0.006271,0.000194,-0.000592,0.000464,-0.001942,-0.008798,-0.503835,0.000838,1.106733,-260.970262,-1.251164,66.138672
9.4371,-0.009032,0.006081,0.001473,-0.000605,0.00045,-0.002164,-0.008977,-0.503729,0.000194,1.031728,-260.970262,-1.17616,66.138671
9.457,-0.009245,0.006035,-0.001029,-0.000621,0.000432,-0.002264,-0.008695,-0.503806,0.000711,1.031728,-260.970262,-1.17616,66.138671
9.4772,-0.009109,0.005864,-0.001253,-0.000633,0.000417,-0.002337,-0.009787,-0.503953,-0.001089,0.963993,-260.97063,-1.24166,66.138022
9.4978,-0.009223,0.006106,0.001203,-0.000572,0.000476,-0.00139,-0.009752,-0.504118,-0.001241,0.963993,-260.97063,-1.24166,66.138022
9.5173,-0.00891,0.005827,-0.000366,-0.000529,0.000526,-0.000701,-0.009752,-0.504118,-0.001241,0.963993,-260.97063,-1.24166,66.138022
9.537,-0.008976,0.006253,-0.000422,-0.000497,0.000568,-0.000202,-0.009122,-0.504156,-0.000461,1.011042,-260.971091,-1.240352,66.137269
9.5569,-0.009238,0.006238,0.000594,-0.000505,0.000565,-0.000226,-0.009153,-0.503989,-0.000456,1.011042,-260.971091,-1.240352,66.137269
9.5772,-0.009149,0.006107,0.00051,-0.000511,0.000563,-0.000242,-0.008935,-0.503762,0.000594,0.936032,-260.971091,-1.165343,66.137269
9.5973,-0.009088,0.00638,-0.000992,-0.000538,0.000539,-0.00076,-0.008893,-0.503881,0.000518,0.936032,-260.971091,-1.165343,66.137269
9.617,-0.009431,0.005847,0.001288,-0.000558,0.000519,-0.001138,-0.008893,-0.503881,0.000518,0.936032,-260.971091,-1.165343,66.137269
9.637,-0.008981,0.006097,-0.001262,-0.000574,0.000503,-0.001415,-0.008774,-0.504153,0.001288,0.861032,-260.971091,-1.090342,66.137269
9.6569,-0.008972,0.005807,9e-06,-0.000567,0.000512,-0.001478,-0.009122,-0.50405,0.000246,0.861032,-260.971091,-1.090342,66.137269
9.6767,-0.008422,0.006271,0.00064,-0.000561,0.000519,-0.001523,-0.008971,-0.50419,-1e-06,0.785966,-260.971148,-1.165408,66.137144
9.6968,-0.008945,0.005924,0.000872,-0.000614,0.000462,-0.001737,-0.008171,-0.503768,0.000585,0.785966,-260.971148,-1.165408,66.137144
9.7168,-0.008923,0.005617,0.000999,-0.000655,0.000415,-0.001893,-0.008171,-0.503768,0.000585,0.785966,-260.971148,-1.165408,66.137144
9.7369,-0.008953,0.006588,0.000495,-0.000687,0.000377,-0.002007,-0.008429,-0.504368,0.000955,0.710894,-260.971334,-1.201548,66.136727
9.7571,-0.009234,0.005943,0.002258,-0.000685,0.000377,-0.002183,-0.008542,-0.503975,0.000761,0.710894,-260.971334,-1.201548,66.136727
9.7772,-0.009426,0.006627,0.000208,-0.000683,0.000376,-0.002312,-0.008096,-0.504048,0.002222,0.785811,-260.971589,-1.166109,66.13632
9.7972,-0.008959,0.005809,0.000405,-0.000679,0.000368,-0.002216,-0.009211,-0.503433,0.000386,0.785811,-260.971589,-1.166109,66.13632
9.8171,-0.009102,0.005999,0.00069,-0.000676,0.000362,-0.002146,-0.009211,-0.503433,0.000386,0.785811,-260.971589,-1.166109,66.13632
9.8373,-0.008948,0.005741,-0.000377,-0.000674,0.000357,-0.002095,-0.008766,-0.503992,0.000643,0.860764,-260.971839,-1.206031,66.135934
9.8574,-0.008761,0.005985,-0.001236,-0.000649,0.000386,-0.001982,-0.008921,-0.5041,0.000221,0.860764,-260.971839,-1.206031,66.135934
9.8767,-0.00899,0.006216,-0.00074,-0.000629,0.000411,-0.001898,-0.00941,-0.504004,-0.001295,0.935761,-260.972248,-1.179985,66.135301
9.8969,-0.009427,0.00624,-0.001454,-0.000605,0.000431,-0.001301,-0.009372,-0.503803,-0.000793,0.935761,-260.972248,-1.179985,66.135301
9.9168,-0.008639,0.006192,-0.000139,-0.000587,0.000449,-0.000867,-0.009372,-0.503803,-0.000793,0.935761,-260.972248,-1.179985,66.135301
9.9368,-0.008807,0.006062,0.001,-0.000575,0.000463,-0.000552,-0.008735,-0.503792,-0.000214,0.872426,-260.972615,-1.189905,66.134667
9.9572,-0.009059,0.006079,-0.000929,-0.000601,0.00044,-0.000865,-0.008558,-0.50385,0.000275,0.872426,-260.972615,-1.189905,66.134667
9.9769,-0.009076,0.006116,0.001147,-0.000622,0.000422,-0.001094,-0.009533,-0.503921,-0.000929,0.797419,-260.972615,-1.114898,66.134667
9.997,-0.008676,0.006261,-0.001328,-0.000638,0.000406,-0.001618,-0.008577,-0.503887,0.000976,0.797419,-260.972615,-1.114898,66.134667
10.0168,-0.009022,0.00607,-0.000888,-0.00065,0.000393,-0.002004,-0.008577,-0.503887,0.000976,0.797419,-260.972615,-1.114898,66.134667
10.0368,-0.009567,0.005836,0.000562,-0.00066,0.000382,-0.002288,-0.009476,-0.503929,-0.00089,0.722196,-260.972628,-1.052466,66.134642
10.0568,-0.009023,0.005755,0.000447,-0.00062,0.000422,-0.001836,-0.009396,-0.504025,-0.000296,0.722196,-260.972628,-1.052466,66.134642
10.0772,-0.00906,0.005779,-0.000376,-0.000589,0.000455,-0.001509,-0.0088,-0.504243,0.000434,0.796981,-260.972723,-1.127252,66.134493
10.0972,-0.008994,0.005794,-0.002699,-0.000562,0.000489,-0.001265,-0.009214,-0.504223,-0.000308,0.796981,-260.972723,-1.127252,66.134493
10.1172,-0.008934,0.00571,0.00194,-0.000542,0.000518,-0.001089,-0.009214,-0.504223,-0.000308,0.796981,-260.972723,-1.127252,66.134493
10.1367,-0.009198,0.005731,-0.000524,-0.000526,0.000541,-0.00096,-0.007963,-0.504275,0.001892,0.721844,-260.97295,-1.166369,66.134042
10.157,-0.009187,0.005823,-0.000955,-0.000541,0.000532,-0.001474,-0.008589,-0.504271,0.000882,0.721844,-260.97295,-1.166369,66.134042
10.1769,-0.008956,0.005727,0.000795,-0.000553,0.000525,-0.001852,-0.009674,-0.504177,-0.000955,0.646818,-260.97295,-1.134388,66.134041
10.197,-0.009133,0.005996,0.000703,-0.000559,0.000523,-0.002012,-0.00865,-0.504265,0.00064,0.646818,-260.97295,-1.134388,66.134041
10.2169,-0.009005,0.006058,-0.001619,-0.000563,0.000522,-0.002129,-0.00865,-0.504265,0.00064,0.646818,-260.97295,-1.134388,66.134041
10.2369,-0.008937,0.00633,7.5e-05,-0.000567,0.000521,-0.002215,-0.009843,-0.503931,-0.001655,0.721673,-260.973105,-1.209242,66.133711
10.2573,-0.008898,0.006044,-0.001298,-0.00055,0.000527,-0.00145,-0.009454,-0.503822,-0.000944,0.721673,-260.973105,-1.209242,66.133711
10.2773,-0.009082,0.006375,-0.000765,-0.000539,0.000533,-0.000896,-0.009567,-0.503949,-0.00132,0.79675,-260.97324,-1.277163,66.133448
10.2972,-0.008717,0.006003,-0.001391,-0.000541,0.000527,-0.000562,-0.00948,-0.503649,-0.000808,0.79675,-260.97324,-1.277163,66.133448
10.3174,-0.008651,0.005875,-0.001399,-0.000542,0.000522,-0.00032,-0.00948,-0.503649,-0.000808,0.79675,-260.97324,-1.277163,66.133448
10.3374,-0.009031,0.006168,-0.00022,-0.000544,0.000518,-0.000142,-0.009365,-0.504124,-0.001399,0.721343,-260.97324,-1.201755,66.133448
10.3573,-0.009042,0.006316,-0.001195,-0.000535,0.000531,4.2e-05,-0.009274,-0.504004,-0.000915,0.721343,-260.97324,-1.201755,66.133448
10.3768,-0.008545,0.006029,-0.000873,-0.000529,0.000542,0.000176,-0.009652,-0.503684,-0.001195,0.646709,-260.97324,-1.127122,66.133448
10.3969,-0.009115,0.006133,-0.000732,-0.000536,0.000537,0.000268,-0.009047,-0.503946,-0.000901,0.646709,-260.97324,-1.127122,66.133448
10.4172,-0.008709,0.0065,-0.000986,-0.000541,0.000533,0.000335,-0.009047,-0.503946,-0.000901,0.646709,-260.97324,-1.127122,66.133448
10.4368,-0.008729,0.005975,-0.000827,-0.000546,0.000529,0.000384,-0.009212,-0.5035,-0.000986,0.571718,-260.97324,-1.052131,66.133448
10.4568,-0.008977,0.006179,-0.000601,-0.000557,0.000516,0.000431,-0.009187,-0.503714,-0.000922,0.571718,-260.97324,-1.052131,66.133448
10.4769,-0.009025,0.006186,-0.000869,-0.000565,0.000505,0.000465,-0.009284,-0.503821,-0.000601,0.496837,-260.97324,-0.97725,66.133448
10.4969,-0.008861,0.006264,-0.000318,-0.000557,0.000513,0.000452,-0.009453,-0.503814,-0.000846,0.496837,-260.97324,-0.97725,66.133448
10.5169,-0.008706,0.006554,-0.000709,-0.000551,0.00052,0.000443,-0.009453,-0.503814,-0.000846,0.496837,-260.97324,-0.97725,66.133448
10.5368,-0.009389,0.006028,0.001255,-0.000546,0.000525,0.000437,-0.009067,-0.503446,-0.000709,0.421678,-260.97324,-0.902091,66.133448
10.5568,-0.008619,0.006176,-0.000836,-0.000574,0.000493,-5.6e-05,-0.008937,-0.503662,9.6e-05,0.421678,-260.97324,-0.902091,66.133448
10.5769,-0.008804,0.00603,-0.001572,-0.000596,0.000468,-0.000417,-0.009046,-0.503824,-0.000836,0.346837,-260.97324,-0.827249,66.133448
10.597,-0.008971,0.006296,-0.002381,-0.000564,0.0005,0.000128,-0.009558,-0.503957,-0.00151,0.346837,-260.97324,-0.827249,66.133448
10.6168,-0.009046,0.005854,-0.001208,-0.000541,0.000526,0.000523,-0.009558,-0.503957,-0.00151,0.346837,-260.97324,-0.827249,66.133448
10.6369,-0.009062,0.006178,-0.000994,-0.000524,0.000547,0.000809,-0.009662,-0.504146,-0.001208,0.27172,-260.97324,-0.880767,66.133448
10.6573,-0.009119,0.005942,-0.00114,-0.000509,0.000569,0.000833,-0.009624,-0.504013,-0.00112,0.27172,-260.97324,-0.880767,66.133448
10.6771,-0.00895,0.005864,-0.000799,-0.000498,0.000587,0.000852,-0.0097,-0.504057,-0.00114,0.196859,-260.97324,-0.805906,66.133448
10.6972,-0.00887,0.006369,-0.001339,-0.000493,0.000598,0.000721,-0.009386,-0.504129,-0.000828,0.196859,-260.97324,-0.805906,66.133448
10.7173,-0.009058,0.006048,-0.000198,-0.000489,0.000608,0.000628,-0.009386,-0.504129,-0.000828,0.196859,-260.97324,-0.805906,66.133448
10.737,-0.008989,0.006041,-0.000612,-0.000485,0.000616,0.000561,-0.009159,-0.503952,-0.000198,0.121707,-260.97324,-0.730754,66.133448
10.7575,-0.008953,0.006112,-0.000307,-0.000499,0.000601,0.000276,-0.009217,-0.503955,-0.000367,0.121707,-260.97324,-0.730754,66.133448
10.7767,-0.008841,0.006096,0.000386,-0.00051,0.000589,6.8e-05,-0.00911,-0.503888,-0.000307,0.046828,-260.97324,-0.655875,66.133448
10.797,-0.009163,0.006015,-0.001274,-0.000545,0.000551,-0.000442,-0.008686,-0.503903,0.000324,0.046828,-260.97324,-0.655875,66.133448
10.8171,-0.008834,0.005957,-0.001834,-0.000573,0.00052,-0.000816,-0.008686,-0.503903,0.000324,0.046828,-260.97324,-0.655875,66.133448
10.837,-0.008779,0.006132,-0.000374,-0.000594,0.000494,-0.001091,-0.009769,-0.504043,-0.001834,-0.028157,-260.97324,-0.730859,66.133448
10.857,-0.009014,0.006264,-0.001733,-0.000567,0.000517,-0.000486,-0.009445,-0.503972,-0.001241,-0.028157,-260.97324,-0.730859,66.133448
10.8771,-0.009017,0.006069,-0.000698,-0.000547,0.000535,-4.9e-05,-0.009899,-0.503734,-0.001734,0.04684,-260.973246,-0.805856,66.133436
10.8971,-0.009124,0.005856,-0.000941,-0.00054,0.000543,4.5e-05,-0.009417,-0.503915,-0.000785,0.04684,-260.973246,-0.805856,66.133436
10.9169,-0.008835,0.006325,-0.000535,-0.000533,0.000549,0.000113,-0.009417,-0.503915,-0.000785,0.04684,-260.973246,-0.805856,66.133436
10.9371,-0.00889,0.006074,-0.00043,-0.000529,0.000555,0.000164,-0.009108,-0.503675,-0.000535,-0.028309,-260.973246,-0.800844,66.133436
10.957,-0.008967,0.006201,0.00031,-0.000545,0.000535,5e-05,-0.009108,-0.503777,-0.000492,-0.028309,-260.973246,-0.800844,66.133436
10.9768,-0.009175,0.006129,-0.001044,-0.000557,0.000519,-3.2e-05,-0.008809,-0.503799,0.00031,-0.103154,-260.973246,-0.725998,66.133436
10.9973,-0.00882,0.006084,-0.000654,-0.000541,0.000536,0.000132,-0.009631,-0.503864,-0.000928,-0.103154,-260.973246,-0.725998,66.133436
11.0169,-0.00899,0.00637,-0.000974,-0.000529,0.000549,0.000251,-0.009631,-0.503864,-0.000928,-0.103154,-260.973246,-0.725998,66.133436
11.0369,-0.009373,0.006065,-0.000442,-0.00052,0.000559,0.000337,-0.009486,-0.50363,-0.000974,-0.178303,-260.973246,-0.768701,66.133436
11.0571,-0.009145,0.006538,-0.000786,-0.000522,0.000556,0.000314,-0.009532,-0.503754,-0.000758,-0.178303,-260.973246,-0.768701,66.133436
11.0768,-0.00903,0.006046,-0.001044,-0.000524,0.000553,0.000297,-0.009546,-0.503462,-0.000786,-0.25316,-260.973246,-0.693845,66.133436
11.0971,-0.009378,0.005741,-0.000339,-0.000515,0.000564,0.000419,-0.009561,-0.503912,-0.001022,-0.25316,-260.973246,-0.693845,66.133436
11.1169,-0.008736,0.005795,-9.3e-05,-0.000508,0.000573,0.000507,-0.009561,-0.503912,-0.001022,-0.25316,-260.973246,-0.693845,66.133436
11.1368,-0.009036,0.00632,-0.001143,-0.000503,0.00058,0.00057,-0.008783,-0.504205,-9.3e-05,-0.32835,-260.973246,-0.618654,66.133436
11.157,-0.008964,0.006219,-0.000332,-0.000514,0.000571,0.000365,-0.009127,-0.503989,-0.000525,-0.32835,-260.973246,-0.618654,66.133436
11.1773,-0.009294,0.005872,-0.000526,-0.000522,0.000564,0.000216,-0.009133,-0.503781,-0.000332,-0.403324,-260.973246,-0.543681,66.133436
11.1972,-0.009047,0.006036,-0.001123,-0.000509,0.000581,9.9e-05,-0.009521,-0.504094,-0.000507,-0.403324,-260.973246,-0.543681,66.133436
11.2172,-0.008949,0.006171,0.001025,-0.000499,0.000595,1.3e-05,-0.009521,-0.504094,-0.000507,-0.403324,-260.973246,-0.543681,66.133436
11.2369,-0.008666,0.006275,-0.000718,-0.00049,0.000607,-4.9e-05,-0.008426,-0.503828,0.001025,-0.478307,-260.973249,-0.618664,66.133434
11.2568,-0.009005,0.006224,-0.000269,-0.000536,0.000557,-0.000524,-0.008672,-0.503786,0.000317,-0.478307,-260.973249,-0.618664,66.133434
11.2768,-0.009058,0.005965,0.000265,-0.000571,0.000516,-0.000873,-0.009142,-0.503776,-0.000269,-0.553151,-260.973255,-0.693508,66.133427
11.2973,-0.009198,0.005866,-0.000817,-0.000575,0.000511,-0.001078,-0.008941,-0.504013,0.00022,-0.553151,-260.973255,-0.693508,66.133427
11.3173,-0.00895,0.006534,-0.000273,-0.000578,0.000506,-0.001228,-0.008941,-0.504013,0.00022,-0.553151,-260.973255,-0.693508,66.133427
11.3372,-0.009265,0.005897,-0.00103,-0.00058,0.000503,-0.001338,-0.009089,-0.503466,-0.000273,-0.477991,-260.973255,-0.768669,66.133427
11.3573,-0.009153,0.006044,-0.001505,-0.000573,0.000501,-0.000992,-0.009379,-0.503729,-0.000586,-0.477991,-260.973255,-0.768669,66.133427
11.3773,-0.009099,0.006245,-0.000177,-0.000569,0.0005,-0.000741,-0.009921,-0.503955,-0.001505,-0.403007,-260.973255,-0.843652,66.133427
11.3979,-0.009001,0.006038,-0.001751,-0.00057,0.000496,-0.000708,-0.00926,-0.503775,-0.000305,-0.403007,-260.973255,-0.843652,66.133427
11.4173,-0.008838,0.006358,-0.000324,-0.00057,0.000494,-0.000683,-0.00926,-0.503775,-0.000305,-0.403007,-260.973255,-0.843652,66.133427
11.4374,-0.009007,0.006275,-0.000572,-0.00057,0.000491,-0.000665,-0.009006,-0.50364,-0.000326,-0.328128,-260.973279,-0.918532,66.13338
11.4572,-0.008851,0.006143,-0.000613,-0.00058,0.000477,-0.000587,-0.009127,-0.503675,-0.000428,-0.328128,-260.973279,-0.918532,66.13338
11.4772,-0.008964,0.005958,-0.000632,-0.000587,0.000466,-0.000531,-0.009173,-0.503848,-0.000623,-0.253004,-260.973401,-0.993656,66.133156
11.4975,-0.008929,0.006341,0.000305,-0.000569,0.000488,-0.000382,-0.009278,-0.504025,-0.000632,-0.253004,-260.973401,-0.993656,66.133156
11.5178,-0.009161,0.005809,0.000189,-0.000555,0.000506,-0.000274,-0.009278,-0.504025,-0.000632,-0.253004,-260.973401,-0.993656,66.133156
11.5374,-0.009156,0.006455,0.000952,-0.000544,0.000521,-0.000195,-0.009088,-0.504172,0.000168,-0.237021,-260.973627,-0.931458,66.132788
11.5573,-0.008902,0.006417,-0.000701,-0.00056,0.000506,-0.000711,-0.008927,-0.503925,0.000472,-0.237021,-260.973627,-0.931458,66.132788
11.5771,-0.008906,0.006206,0.001698,-0.000573,0.000495,-0.001091,-0.009261,-0.503582,-0.000702,-0.311992,-260.973645,-0.865695,66.132765
11.5974,-0.009018,0.005758,0.000219,-0.000627,0.000433,-0.001823,-0.008146,-0.503775,0.001489,-0.311992,-260.973645,-0.865695,66.132765
11.617,-0.009146,0.006127,0.000606,-0.000669,0.000383,-0.002369,-0.008146,-0.503775,0.001489,-0.311992,-260.973645,-0.865695,66.132765
11.6367,-0.008863,0.006312,4.5e-05,-0.000701,0.000343,-0.002775,-0.008837,-0.503873,0.000606,-0.237019,-260.973646,-0.940669,66.132764
11.6571,-0.008721,0.006402,-0.000626,-0.000689,0.000348,-0.002542,-0.008838,-0.503797,0.000375,-0.237019,-260.973646,-0.940669,66.132764
11.6771,-0.008997,0.006324,-0.000744,-0.00068,0.000353,-0.002375,-0.00904,-0.503597,-0.000626,-0.161983,-260.973646,-1.015704,66.132764
11.6973,-0.009086,0.006367,0.000886,-0.000652,0.000373,-0.001667,-0.009349,-0.50367,-0.000734,-0.161983,-260.973646,-1.015704,66.132764
11.7175,-0.008838,0.006139,-0.000635,-0.000631,0.00039,-0.001156,-0.009349,-0.50367,-0.000734,-0.161983,-260.973646,-1.015704,66.132764
11.7375,-0.009096,0.006296,-0.000515,-0.000616,0.000404,-0.000785,-0.009162,-0.503861,-0.000635,-0.08686,-260.973646,-1.090827,66.132764
11.7573,-0.009278,0.006304,-0.0023,-0.000604,0.00042,-0.000593,-0.009243,-0.503796,-0.000586,-0.08686,-260.973646,-1.090827,66.132764
11.7774,-0.008947,0.006006,-0.001737,-0.000594,0.000433,-0.000454,-0.010458,-0.503689,-0.002309,-0.012007,-260.97374,-1.015974,66.132601
11.7971,-0.008729,0.00593,-0.000207,-0.000547,0.000486,0.000216,-0.009887,-0.503966,-0.001787,-0.012007,-260.97374,-1.015974,66.132601
11.8174,-0.008834,0.006367,-0.000657,-0.000512,0.000529,0.000702,-0.009887,-0.503966,-0.001787,-0.012007,-260.97374,-1.015974,66.132601
11.837,-0.009253,0.005993,0.000489,-0.000487,0.000565,0.001055,-0.009176,-0.503628,-0.000664,-0.086981,-260.973807,-0.941,66.132499
11.8572,-0.009221,0.006083,0.000294,-0.000514,0.000543,0.000538,-0.009107,-0.503782,-0.000197,-0.086981,-260.973807,-0.941,66.132499
11.8767,-0.008824,0.006144,-0.001116,-0.000534,0.000525,0.000163,-0.009071,-0.503917,0.000294,-0.161883,-260.973807,-0.866098,66.132499
11.8969,-0.009188,0.006641,0.00046,-0.000532,0.00053,0.000302,-0.009365,-0.503861,-0.000994,-0.161883,-260.973807,-0.866098,66.132499
11.9172,-0.009003,0.006132,-0.000737,-0.000531,0.000534,0.000405,-0.009365,-0.503861,-0.000994,-0.161883,-260.973807,-0.866098,66.132499
11.9374,-0.008924,0.005836,-0.000636,-0.00053,0.000537,0.00048,-0.009379,-0.503868,-0.000737,-0.236985,-260.973807,-0.790996,66.132499
11.9574,-0.008957,0.00595,0.000882,-0.000527,0.000545,0.000384,-0.009325,-0.50399,-0.000695,-0.236985,-260.973807,-0.790996,66.132499
11.9773,-0.009234,0.006451,-0.000469,-0.000524,0.000551,0.000315,-0.008507,-0.50405,0.000882,-0.312066,-260.973807,-0.715915,66.132499
11.9971,-0.008882,0.006113,-0.00061,-0.00054,0.000531,9e-05,-0.009392,-0.503591,-0.000356,-0.312066,-260.973807,-0.715915,66.132499
12.017,-0.008957,0.006077,-0.000238,-0.000553,0.000514,-7.4e-05,-0.009392,-0.503591,-0.000356,-0.312066,-260.973807,-0.715915,66.132499
12.0372,-0.009033,0.005694,-0.001341,-0.000562,0.0005,-0.000193,-0.009078,-0.503923,-0.000238,-0.387056,-260.973808,-0.640925,66.132499
12.057,-0.009163,0.005975,-0.002137,-0.000545,0.000522,-0.000103,-0.009342,-0.504081,-0.000693,-0.387056,-260.973808,-0.640925,66.132499
12.0773,-0.009156,0.006524,8e-06,-0.000532,0.00054,-3.8e-05,-0.010258,-0.50402,-0.002138,-0.462038,-260.973881,-0.715908,66.132408
12.0974,-0.009262,0.006139,-0.000674,-0.000556,0.00051,-0.000262,-0.009247,-0.503522,-0.000176,-0.462038,-260.973881,-0.715908,66.132408
12.1174,-0.008798,0.006606,-0.000212,-0.000574,0.000486,-0.000425,-0.009247,-0.503522,-0.000176,-0.462038,-260.973881,-0.715908,66.132408
12.1373,-0.009032,0.006149,-0.002036,-0.000588,0.000467,-0.000544,-0.00891,-0.50339,-0.000213,-0.537033,-260.973935,-0.790902,66.132352
12.1568,-0.009027,0.006004,-0.000749,-0.000586,0.000463,-0.000225,-0.009385,-0.503578,-0.000959,-0.537033,-260.973935,-0.790902,66.132352
12.1773,-0.0091,0.006413,-0.000819,-0.000586,0.00046,7e-06,-0.009411,-0.503994,-0.000751,-0.462112,-260.97397,-0.865823,66.132295
12.1971,-0.009221,0.005906,-0.000697,-0.000579,0.000465,0.000101,-0.009508,-0.503628,-0.000813,-0.462112,-260.97397,-0.865823,66.132295
12.2169,-0.009273,0.006148,-0.000161,-0.000575,0.00047,0.00017,-0.009508,-0.503628,-0.000813,-0.462112,-260.97397,-0.865823,66.132295
12.2372,-0.008856,0.006204,-0.00139,-0.000571,0.000473,0.00022,-0.009361,-0.503847,-0.000162,-0.537114,-260.974046,-0.790821,66.132219
12.2569,-0.009108,0.006218,-0.000384,-0.000562,0.000485,0.000177,-0.009444,-0.503826,-0.000656,-0.537114,-260.974046,-0.790821,66.132219
12.277,-0.00932,0.006074,-0.000753,-0.000554,0.000496,0.000146,-0.009305,-0.50378,-0.000384,-0.612045,-260.974079,-0.71589,66.132193
12.2968,-0.00919,0.006056,-0.001145,-0.000536,0.000519,0.000156,-0.009668,-0.503913,-0.000719,-0.612045,-260.974079,-0.71589,66.132193
12.3171,-0.009033,0.006581,-0.001315,-0.000522,0.000538,0.000164,-0.009668,-0.503913,-0.000719,-0.612045,-260.974079,-0.71589,66.132193
12.3368,-0.009128,0.00616,-0.000581,-0.000511,0.000554,0.000169,-0.009716,-0.503409,-0.001313,-0.687047,-260.97423,-0.640888,66.132064
12.3569,-0.008696,0.006107,-0.001036,-0.000518,0.000544,0.000322,-0.009597,-0.503585,-0.001013,-0.687047,-260.97423,-0.640888,66.132064
12.3768,-0.008998,0.006291,-0.001488,-0.000525,0.000536,0.000431,-0.009231,-0.503886,-0.001035,-0.76212,-260.974364,-0.71596,66.131954
12.3973,-0.008973,0.00609,-0.000339,-0.000517,0.000544,0.000717,-0.009708,-0.503724,-0.001446,-0.76212,-260.974364,-0.71596,66.131954
12.4169,-0.009073,0.006494,-0.000152,-0.000511,0.000552,0.000923,-0.009708,-0.503724,-0.001446,-0.76212,-260.974364,-0.71596,66.131954
12.4371,-0.009012,0.00608,-0.001663,-0.000508,0.000558,0.001073,-0.009154,-0.503502,-0.00015,-0.837057,-260.974431,-0.641023,66.131913
12.4569,-0.008767,0.005806,-0.000115,-0.000521,0.000545,0.000848,-0.009441,-0.503671,-0.000762,-0.837057,-260.974431,-0.641023,66.131913
12.4772,-0.008789,0.006265,-0.00025,-0.000532,0.000534,0.000686,-0.008825,-0.504194,-0.000115,-0.912001,-260.974431,-0.566079,66.131913
12.497,-0.008925,0.005833,-0.000112,-0.000557,0.000507,0.000298,-0.008908,-0.503775,-0.000238,-0.912001,-260.974431,-0.566079,66.131913
12.517,-0.008789,0.006398,-0.000217,-0.000577,0.000486,1.7e-05,-0.008908,-0.503775,-0.000238,-0.912001,-260.974431,-0.566079,66.131913
12.5371,-0.008891,0.00644,-0.000903,-0.000592,0.000469,-0.000188,-0.008901,-0.503599,-0.000215,-0.987165,-260.97447,-0.490914,66.131893
12.5572,-0.009132,0.006374,-9.4e-05,-0.000604,0.00045,-0.000197,-0.009092,-0.503583,-0.000505,-0.987165,-260.97447,-0.490914,66.131893
12.577,-0.009324,0.006332,-0.001053,-0.000614,0.000436,-0.000203,-0.00918,-0.503626,-9.4e-05,-0.911827,-260.974473,-0.566253,66.13189
12.5973,-0.008794,0.006324,0.00016,-0.000589,0.00046,3.4e-05,-0.00981,-0.503665,-0.00098,-0.911827,-260.974473,-0.566253,66.13189
12.6171,-0.009445,0.006318,3.7e-05,-0.000569,0.000479,0.000206,-0.00981,-0.503665,-0.00098,-0.911827,-260.974473,-0.566253,66.13189
12.6371,-0.009158,0.006059,0.000256,-0.000554,0.000496,0.000331,-0.009426,-0.503682,3.7e-05,-0.836867,-260.974479,-0.641213,66.131882
12.658,-0.008807,0.006202,-0.000998,-0.000562,0.000491,-0.000151,-0.009262,-0.503789,0.000127,-0.836867,-260.974479,-0.641213,66.131882
12.6767,-0.009301,0.006152,0.00032,-0.000567,0.000487,-0.000503,-0.009327,-0.503787,-0.000992,-0.899637,-260.974708,-0.566537,66.131722
12.6973,-0.008981,0.006249,-0.000387,-0.000572,0.000483,-0.000796,-0.009156,-0.503842,0.000196,-0.899637,-260.974708,-0.566537,66.131722
12.717,-0.009515,0.006264,-0.001055,-0.000576,0.00048,-0.001011,-0.009156,-0.503842,0.000196,-0.899637,-260.974708,-0.566537,66.131722
12.7375,-0.009174,0.006262,0.000404,-0.000578,0.000478,-0.001168,-0.010053,-0.503736,-0.001055,-0.824765,-260.974708,-0.641409,66.131722
12.7571,-0.009023,0.006371,0.000203,-0.000564,0.000489,-0.000933,-0.009613,-0.503736,-0.000463,-0.824765,-260.974708,-0.641409,66.131722
12.7769,-0.009037,0.006564,-0.000987,-0.000553,0.000499,-0.000763,-0.00892,-0.503629,0.000203,-0.749742,-260.974708,-0.716431,66.131722
12.797,-0.00866,0.005937,-0.000447,-0.000561,0.000485,-0.000425,-0.009485,-0.503453,-0.00088,-0.749742,-260.974708,-0.716431,66.131722
12.817,-0.009283,0.006065,0.000449,-0.000568,0.000474,-0.00018,-0.009485,-0.503453,-0.00088,-0.749742,-260.974708,-0.716431,66.131722
12.8371,-0.009024,0.006342,-0.000267,-0.000573,0.000465,-2e-06,-0.009054,-0.503935,0.000449,-0.67474,-260.974708,-0.791434,66.131721
12.8574,-0.009162,0.006034,-0.000336,-0.00058,0.000462,-0.000411,-0.009097,-0.503821,0.000156,-0.67474,-260.974708,-0.791434,66.131721
12.8772,-0.009176,0.006374,4.6e-05,-0.000585,0.000459,-0.00071,-0.009349,-0.503953,-0.000337,-0.679938,-260.974952,-0.716439,66.131477
12.8974,-0.009358,0.006387,-0.001337,-0.000594,0.00045,-0.000852,-0.009171,-0.503655,1.1e-05,-0.679938,-260.974952,-0.716439,66.131477
12.9174,-0.009323,0.005838,-0.002351,-0.0006,0.000442,-0.000956,-0.009171,-0.503655,1.1e-05,-0.679938,-260.974952,-0.716439,66.131477
12.9374,-0.009252,0.006618,-0.000145,-0.000605,0.000435,-0.001031,-0.010521,-0.50416,-0.002351,-0.604933,-260.974952,-0.791444,66.131477
12.9577,-0.009229,0.006316,-0.001523,-0.00056,0.000481,-0.000361,-0.01002,-0.503834,-0.001426,-0.604933,-260.974952,-0.791444,66.131477
12.9771,-0.009069,0.006341,-0.000254,-0.000527,0.000519,0.000125,-0.010006,-0.503684,-0.001523,-0.529549,-260.974952,-0.866827,66.131477
12.9974,-0.009096,0.006035,-0.002152,-0.000543,0.000504,-5.3e-05,-0.009265,-0.503661,-0.000358,-0.529549,-260.974952,-0.866827,66.131477
13.0172,-0.008871,0.005996,0.000447,-0.000555,0.000491,-0.000181,-0.009265,-0.503661,-0.000358,-0.529549,-260.974952,-0.866827,66.131477
13.0372,-0.009315,0.005811,-0.001461,-0.000564,0.000481,-0.000273,-0.008646,-0.504001,0.000447,-0.60441,-260.974992,-0.791966,66.131442
13.0576,-0.009255,0.006376,-0.000733,-0.000552,0.0005,-0.000349,-0.009228,-0.504078,-0.000338,-0.60441,-260.974992,-0.791966,66.131442
13.077,-0.009335,0.00608,-0.001884,-0.000543,0.000516,-0.000404,-0.009643,-0.503611,-0.000739,-0.52949,-260.975201,-0.854633,66.131164
13.0974,-0.009138,0.006039,0.000121,-0.0005,0.000561,0.000253,-0.010239,-0.503892,-0.001784,-0.52949,-260.975201,-0.854633,66.131164
13.1175,-0.009007,0.006493,-0.000397,-0.000468,0.000598,0.000729,-0.010239,-0.503892,-0.001784,-0.52949,-260.975201,-0.854633,66.131164
13.1374,-0.009294,0.006045,-0.000354,-0.000445,0.000629,0.001074,-0.009228,-0.50349,-0.00041,-0.460507,-260.975394,-0.929609,66.130866
13.1574,-0.00927,0.006164,0.000145,-0.000477,0.000598,0.00065,-0.009331,-0.503679,-0.000388,-0.460507,-260.975394,-0.929609,66.130866
13.1773,-0.008847,0.006429,-0.000347,-0.000501,0.000573,0.000345,-0.009197,-0.503836,0.000145,-0.535522,-260.975394,-0.854594,66.130866
13.1973,-0.009205,0.006255,-0.000961,-0.000536,0.000533,8.3e-05,-0.009037,-0.503591,-0.000309,-0.535522,-260.975394,-0.854594,66.130866
13.2168,-0.009489,0.006684,-0.000428,-0.000564,0.000501,-0.000106,-0.009037,-0.503591,-0.000309,-0.535522,-260.975394,-0.854594,66.130866
13.2373,-0.009239,0.006445,0.000981,-0.000585,0.000475,-0.000243,-0.009708,-0.503316,-0.000428,-0.610791,-260.975398,-0.779325,66.130863
13.257,-0.008877,0.005942,-0.001542,-0.000601,0.000452,-0.000581,-0.009315,-0.503413,0.000144,-0.610791,-260.975398,-0.779325,66.130863
13.2767,-0.009215,0.006626,-1.8e-05,-0.000614,0.000433,-0.000828,-0.009678,-0.504045,-0.001548,-0.536211,-260.97562,-0.8173,66.13058
13.2972,-0.008907,0.006031,0.000994,-0.000623,0.000417,-0.000852,-0.009264,-0.503431,-0.000151,-0.536211,-260.97562,-0.8173,66.13058
13.3169,-0.009051,0.006149,-0.001021,-0.00063,0.000405,-0.00087,-0.009264,-0.503431,-0.000151,-0.536211,-260.97562,-0.8173,66.13058
13.3369,-0.009425,0.006241,-0.000103,-0.000635,0.000394,-0.000883,-0.009572,-0.503851,-0.001021,-0.46111,-260.97562,-0.892401,66.130579
13.3571,-0.009121,0.006793,-0.000288,-0.000607,0.000424,-0.000636,-0.009532,-0.503812,-0.000636,-0.46111,-260.97562,-0.892401,66.130579
13.3773,-0.009476,0.006513,-0.000888,-0.000586,0.000448,-0.000457,-0.009268,-0.503207,-0.000288,-0.38574,-260.97562,-0.967771,66.130579
13.3973,-0.009071,0.006479,0.000272,-0.000573,0.000458,-0.000226,-0.00987,-0.503462,-0.000835,-0.38574,-260.97562,-0.967771,66.130579
13.4177,-0.009168,0.006206,-0.001505,-0.000564,0.000467,-5.8e-05,-0.00987,-0.503462,-0.000835,-0.38574,-260.97562,-0.967771,66.130579
13.4374,-0.009325,0.006459,-0.001558,-0.000557,0.000474,6.5e-05,-0.009954,-0.503779,-0.001519,-0.311174,-260.975807,-0.893205,66.130294
13.4571,-0.009057,0.006415,0.000965,-0.000531,0.000504,0.000488,-0.010023,-0.503681,-0.001536,-0.311174,-260.975807,-0.893205,66.130294
13.4771,-0.009011,0.006546,-0.000673,-0.000512,0.000528,0.000795,-0.008565,-0.503585,0.000965,-0.386206,-260.975812,-0.818173,66.130289
13.4968,-0.009008,0.006147,-0.001263,-0.000541,0.000499,0.000522,-0.009283,-0.503466,-0.000525,-0.386206,-260.975812,-0.818173,66.130289
13.5169,-0.009546,0.00632,-0.000167,-0.000562,0.000475,0.000326,-0.009283,-0.503466,-0.000525,-0.386206,-260.975812,-0.818173,66.130289
13.5374,-0.009249,0.006517,-0.000535,-0.000579,0.000456,0.000184,-0.009631,-0.50368,-0.000167,-0.461138,-260.975812,-0.743241,66.130289
13.5573,-0.008992,0.00615,-6.4e-05,-0.000576,0.00046,-2.6e-05,-0.009587,-0.503599,-0.000317,-0.461138,-260.975812,-0.743241,66.130289
13.5771,-0.009259,0.006493,-9.5e-05,-0.000573,0.000464,-0.000179,-0.009027,-0.503849,-6.4e-05,-0.536173,-260.975845,-0.668206,66.130262
13.5972,-0.009021,0.006253,-0.00317,-0.000585,0.000449,-0.000409,-0.009286,-0.503533,-9.2e-05,-0.536173,-260.975845,-0.668206,66.130262
13.6175,-0.009128,0.006455,-0.000983,-0.000595,0.000437,-0.000576,-0.009286,-0.503533,-9.2e-05,-0.536173,-260.975845,-0.668206,66.130262
13.6369,-0.009136,0.006388,-0.001248,-0.000602,0.000428,-0.000699,-0.009649,-0.50353,-0.000988,-0.553571,-260.976058,-0.743558,66.130005
13.6572,-0.00881,0.006126,-0.000791,-0.000586,0.000443,-0.000271,-0.009702,-0.503561,-0.001094,-0.553571,-260.976058,-0.743558,66.130005
13.6771,-0.009055,0.00624,-0.000881,-0.000573,0.000455,3.8e-05,-0.009214,-0.503873,-0.000791,-0.47895,-260.976059,-0.818179,66.130004
13.6972,-0.009273,0.006269,-0.001176,-0.000563,0.00047,0.000154,-0.009483,-0.503768,-0.000874,-0.47895,-260.976059,-0.818179,66.130004
13.7172,-0.00916,0.006564,-0.001202,-0.000555,0.000481,0.000239,-0.009483,-0.503768,-0.000874,-0.47895,-260.976059,-0.818179,66.130004
13.7371,-0.009447,0.006071,-0.00183,-0.000549,0.000491,0.000301,-0.00978,-0.50343,-0.001203,-0.554462,-260.976145,-0.742667,66.129921
13.757,-0.009011,0.006302,-0.001807,-0.000529,0.000514,0.000626,-0.010025,-0.503632,-0.001458,-0.554462,-260.976145,-0.742667,66.129921
13.7769,-0.009276,0.006298,0.000521,-0.000515,0.000532,0.000861,-0.009934,-0.503696,-0.001807,-0.628963,-260.976169,-0.668166,66.129904
13.7971,-0.009006,0.006478,-0.001443,-0.000542,0.000506,0.000143,-0.009093,-0.503701,0.000312,-0.628963,-260.976169,-0.668166,66.129904
13.8172,-0.009411,0.006369,-0.001009,-0.000564,0.000486,-0.000384,-0.009093,-0.503701,0.000312,-0.628963,-260.976169,-0.668166,66.129904
13.8367,-0.00923,0.006089,0.000239,-0.00058,0.00047,-0.000771,-0.009926,-0.503631,-0.001009,-0.703949,-260.976169,-0.59318,66.129904
13.8571,-0.009452,0.006206,0.000137,-0.000567,0.000483,-0.000626,-0.009592,-0.503745,-0.0005,-0.703949,-260.976169,-0.59318,66.129904
13.8768,-0.009335,0.006484,-0.000121,-0.000556,0.000493,-0.000521,-0.009382,-0.503794,0.000137,-0.628959,-260.976169,-0.66817,66.129903
13.8969,-0.009107,0.006214,-5.8e-05,-0.000568,0.000479,-0.000657,-0.009396,-0.50354,-9.9e-05,-0.628959,-260.976169,-0.66817,66.129903
13.9172,-0.009425,0.006688,1.5e-05,-0.000576,0.000467,-0.000756,-0.009396,-0.50354,-9.9e-05,-0.628959,-260.976169,-0.66817,66.129903
13.9371,-0.009333,0.006323,-0.00177,-0.000583,0.000458,-0.000827,-0.009418,-0.503312,1.4e-05,-0.55381,-260.976179,-0.743319,66.129887
13.9573,-0.00921,0.006312,7.1e-05,-0.000575,0.000462,-0.000552,-0.009755,-0.503462,-0.000722,-0.55381,-260.976179,-0.743319,66.129887
13.9767,-0.009463,0.00656,-0.001355,-0.000569,0.000465,-0.000353,-0.009174,-0.503688,7.1e-05,-0.478782,-260.976179,-0.818347,66.129887
13.9969,-0.009432,0.00624,0.000454,-0.000551,0.000482,4.1e-05,-0.010066,-0.503462,-0.001226,-0.478782,-260.976179,-0.818347,66.129887
14.0173,-0.009092,0.006222,-0.000516,-0.000538,0.000495,0.000326,-0.010066,-0.503462,-0.001226,-0.478782,-260.976179,-0.818347,66.129887
14.0369,-0.009047,0.006691,-0.000999,-0.000528,0.000507,0.000533,-0.009376,-0.503761,-0.000529,-0.413104,-260.976399,-0.874399,66.129572
14.0571,-0.009322,0.006145,-0.000455,-0.00054,0.000497,0.000433,-0.009451,-0.503576,-0.00072,-0.413104,-260.976399,-0.874399,66.129572
14.0769,-0.009021,0.006478,-0.00083,-0.000549,0.000489,0.000362,-0.009554,-0.503855,-0.000455,-0.488107,-260.976399,-0.799396,66.129572
14.0971,-0.009195,0.00644,-0.000452,-0.000556,0.000481,0.00035,-0.009455,-0.503552,-0.000796,-0.488107,-260.976399,-0.799396,66.129572
14.1169,-0.008902,0.006603,-2.8e-05,-0.000562,0.000475,0.000342,-0.009455,-0.503552,-0.000796,-0.488107,-260.976399,-0.799396,66.129572
14.137,-0.009397,0.006345,-0.000714,-0.000567,0.00047,0.000337,-0.008917,-0.503397,-2.8e-05,-0.563103,-260.976402,-0.7244,66.129571
14.1571,-0.009048,0.006355,0.000218,-0.000583,0.000452,8e-05,-0.009261,-0.503502,-0.000307,-0.563103,-260.976402,-0.7244,66.129571
14.1769,-0.009334,0.006254,0.000503,-0.000596,0.000437,-0.000106,-0.008937,-0.503644,0.000219,-0.638184,-260.976421,-0.649319,66.129557
14.1971,-0.009294,0.006385,-0.000104,-0.000605,0.00043,-0.000647,-0.009066,-0.503737,0.000479,-0.638184,-260.976421,-0.649319,66.129557
14.2169,-0.009012,0.0066,-0.00119,-0.000612,0.000424,-0.001046,-0.009066,-0.503737,0.000479,-0.638184,-260.976421,-0.649319,66.129557
14.2368,-0.009314,0.006346,-0.000211,-0.000617,0.00042,-0.001338,-0.00964,-0.503384,-0.001194,-0.5631,-260.976665,-0.700122,66.129286
14.2571,-0.009121,0.006168,-0.001291,-0.000606,0.000424,-0.000889,-0.009552,-0.503494,-0.000786,-0.5631,-260.976665,-0.700122,66.129286
14.2767,-0.009074,0.006678,-0.001036,-0.000598,0.000428,-0.000564,-0.009779,-0.503832,-0.001291,-0.488032,-260.976665,-0.77519,66.129286
14.297,-0.009567,0.006195,0.000507,-0.000595,0.000427,-0.000193,-0.009618,-0.503365,-0.001058,-0.488032,-260.976665,-0.77519,66.129286
14.317,-0.009398,0.006504,0.000712,-0.000593,0.000427,7.5e-05,-0.009618,-0.503365,-0.001058,-0.488032,-260.976665,-0.77519,66.129286
14.337,-0.009049,0.006495,-0.000253,-0.000592,0.000426,0.000271,-0.009037,-0.503494,0.000711,-0.413139,-260.97669,-0.850083,66.129247
14.3573,-0.009434,0.006749,-0.002446,-0.000613,0.000407,-0.000295,-0.009095,-0.503498,0.000318,-0.413139,-260.97669,-0.850083,66.129247
14.3771,-0.009221,0.006088,0.000746,-0.000628,0.000391,-0.000709,-0.010681,-0.503249,-0.002446,-0.488042,-260.976691,-0.77518,66.129246
14.3979,-0.009503,0.006384,-0.001371,-0.000627,0.000398,-0.001081,-0.009009,-0.503851,0.000455,-0.488042,-260.976691,-0.77518,66.129246
14.4171,-0.009178,0.006523,-0.000668,-0.000624,0.000404,-0.001354,-0.009009,-0.503851,0.000455,-0.488042,-260.976691,-0.77518,66.129246
14.4373,-0.009006,0.006547,-0.000977,-0.000622,0.000409,-0.001553,-0.009519,-0.503476,-0.000668,-0.413057,-260.976692,-0.850165,66.129244
14.4572,-0.009404,0.006312,-0.000314,-0.000612,0.000412,-0.001043,-0.009513,-0.503467,-0.000793,-0.413057,-260.976692,-0.850165,66.129244
14.4767,-0.009399,0.00683,0.000149,-0.000606,0.000415,-0.000673,-0.009565,-0.503688,-0.000314,-0.338041,-260.976692,-0.925181,66.129244
14.497,-0.009581,0.006244,0.000738,-0.000625,0.000391,-0.000883,-0.009341,-0.503209,0.000114,-0.338041,-260.976692,-0.925181,66.129244
14.517,-0.009332,0.006411,-0.000661,-0.00064,0.000371,-0.001035,-0.009341,-0.503209,0.000114,-0.338041,-260.976692,-0.925181,66.129244
14.5374,-0.008861,0.006317,-0.000898,-0.000652,0.000355,-0.001146,-0.009674,-0.503586,-0.000665,-0.262593,-260.976732,-0.938409,66.129176
14.557,-0.008965,0.006319,-0.000809,-0.000628,0.000379,-0.000764,-0.009529,-0.503625,-0.000761,-0.262593,-260.976732,-0.938409,66.129176
14.5769,-0.009468,0.006516,0.000468,-0.00061,0.000399,-0.000488,-0.009378,-0.503681,-0.000809,-0.188061,-260.976732,-1.01294,66.129176
14.597,-0.009055,0.006186,-0.001119,-0.00062,0.000391,-0.000869,-0.009243,-0.503502,0.000353,-0.188061,-260.976732,-1.01294,66.129176
14.617,-0.009469,0.00628,-4.1e-05,-0.000627,0.000385,-0.001149,-0.009243,-0.503502,0.000353,-0.188061,-260.976732,-1.01294,66.129176
14.637,-0.00918,0.006695,-0.001231,-0.000631,0.00038,-0.001352,-0.009505,-0.503709,-5.5e-05,-0.163567,-260.976893,-0.937949,66.128935
14.6571,-0.00916,0.006573,0.000173,-0.000613,0.000397,-0.001029,-0.009631,-0.503542,-0.000537,-0.163567,-260.976893,-0.937949,66.128935
14.677,-0.009408,0.006576,-0.001076,-0.000599,0.000411,-0.000796,-0.009072,-0.503427,0.000173,-0.088524,-260.976893,-1.012992,66.128935
14.6967,-0.009023,0.006614,-0.002104,-0.000583,0.000427,-0.000403,-0.009886,-0.503424,-0.000976,-0.088524,-260.976893,-1.012992,66.128935
14.7172,-0.009313,0.006661,-0.000545,-0.000571,0.00044,-0.000119,-0.009886,-0.503424,-0.000976,-0.088524,-260.976893,-1.012992,66.128935
14.7372,-0.009363,0.006547,-0.001207,-0.000562,0.000451,8.9e-05,-0.009602,-0.50333,-0.000559,-0.013267,-260.977007,-0.982176,66.128731
14.7571,-0.009186,0.006219,-0.000102,-0.000563,0.000451,0.000164,-0.009757,-0.503379,-0.000824,-0.013267,-260.977007,-0.982176,66.128731
14.7772,-0.009039,0.006319,-0.001616,-0.000563,0.000452,0.000219,-0.009238,-0.503781,-0.000102,-0.088058,-260.977007,-0.907386,66.128731
14.7974,-0.009051,0.006335,-0.002097,-0.000544,0.000477,0.000575,-0.009807,-0.50369,-0.001479,-0.088058,-260.977007,-0.907386,66.128731
14.8168,-0.009461,0.0064,-2.3e-05,-0.000529,0.000498,0.000833,-0.009807,-0.50369,-0.001479,-0.088058,-260.977007,-0.907386,66.128731
14.8368,-0.009053,0.006558,2.4e-05,-0.000519,0.000515,0.001019,-0.009473,-0.5036,-2.3e-05,-0.162958,-260.977007,-0.832485,66.128731
