mach0312/omni-docking-bench/src/icros_test_setup/results/MPPI_sample/timeseries/trial_091.csv
t,x,y,yaw,vx,vy,wz,bl_x,bl_y,bl_yaw,front_steering_joint,front_wheel_joint,rear_steering_joint,rear_wheel_joint
0.0,-0.003712,0.029349,-0.000789,0.005773,0.001766,0.00495,-0.0047,-0.480862,-0.001001,0.692505,-262.870242,-0.21443,65.272838
0.0006,-0.003511,0.029471,-0.001483,0.000869,0.000266,0.000745,-0.0047,-0.480862,-0.001001,0.692505,-262.866754,-0.21443,65.275586
0.001,-0.004045,0.029182,-0.001872,0.0,0.0,0.0,-0.004246,-0.480494,-0.000113,0.692505,-262.864044,-0.21443,65.27772
0.0014,-0.003735,0.029388,-7.3e-05,0.0,0.0,0.0,-0.003684,-0.480741,5.3e-05,0.692505,-262.861998,-0.21443,65.279332
0.0018,-0.00377,0.029582,-0.001202,0.0,0.0,0.0,-0.003684,-0.480741,5.3e-05,0.692505,-262.861109,-0.21443,65.280033
0.0021,-0.003726,0.029442,-0.001846,0.0,0.0,0.0,-0.003684,-0.480741,5.3e-05,0.692505,-262.861109,-0.21443,65.280033
0.0024,-0.003655,0.029637,-0.000337,0.0,0.0,0.0,-0.004467,-0.48089,-0.001531,0.692505,-262.861109,-0.21443,65.280033
0.0027,-0.003677,0.029086,-0.000832,0.0,0.0,0.0,-0.004467,-0.48089,-0.001531,0.692505,-262.861109,-0.21443,65.280033
0.0029,-0.003388,0.029125,0.000856,0.0,0.0,0.0,-0.004362,-0.480725,-0.001522,0.692505,-262.861109,-0.21443,65.280033
0.0033,-0.003763,0.029483,-0.000514,0.0,0.0,0.0,-0.004362,-0.480725,-0.001522,0.692505,-262.861109,-0.21443,65.280033
0.0154,-0.003757,0.029539,-0.000201,0.0,0.0,0.0,-0.004025,-0.480517,-0.000514,0.692505,-262.861109,-0.21443,65.280033
0.0356,-0.003827,0.029136,-0.001304,0.0,0.0,0.0,-0.003874,-0.480466,-0.00023,0.692505,-262.861109,-0.21443,65.280033
0.0557,-0.003704,0.028999,-0.001542,0.0,0.0,0.0,-0.003874,-0.480466,-0.00023,0.692505,-262.861109,-0.21443,65.280033
0.0758,-0.003972,0.029451,0.000494,0.0,0.0,0.0,-0.004491,-0.481001,-0.001542,0.692505,-262.861109,-0.21443,65.280033
0.0959,-0.00387,0.029199,-0.001604,0.0,0.0,0.0,-0.004161,-0.480807,-0.00067,0.692505,-262.861109,-0.21443,65.280033
0.1153,-0.003706,0.029622,-0.000499,0.000948,-0.002831,0.002594,-0.004688,-0.480801,-0.001604,0.692505,-262.861109,-0.21443,65.280033
0.1359,-0.00353,0.029503,-0.001211,0.001035,-0.003082,0.002807,-0.004013,-0.480408,-0.000578,0.692505,-262.861109,-0.21443,65.280033
0.1556,-0.003717,0.029522,-0.000413,0.001109,-0.003293,0.002958,-0.004013,-0.480408,-0.000578,0.692505,-262.861109,-0.21443,65.280033
0.176,-0.003919,0.029302,-0.00123,0.00117,-0.003472,0.003063,-0.003928,-0.480478,-0.000413,0.617664,-262.861109,-0.289271,65.280033
0.196,-0.003602,0.029054,-0.002514,0.001229,-0.003625,0.003228,-0.004181,-0.480568,-0.000748,0.617664,-262.861109,-0.289271,65.280033
0.2154,-0.003668,0.02939,-0.002046,0.001279,-0.003754,0.003339,-0.004884,-0.480944,-0.002514,0.542936,-262.861109,-0.363999,65.280033
0.2356,-0.003763,0.029185,-0.00192,0.001339,-0.003877,0.003993,-0.004724,-0.480634,-0.002081,0.542936,-262.861109,-0.363999,65.280033
0.2563,-0.003573,0.028847,-0.002232,0.001391,-0.003976,0.004459,-0.004724,-0.480634,-0.002081,0.542936,-262.861109,-0.363999,65.280033
0.2758,-0.003799,0.029444,-0.00165,0.001434,-0.004057,0.004788,-0.004711,-0.481152,-0.002232,0.467765,-262.861109,-0.43917,65.280033
0.296,-0.003763,0.029225,-0.001352,0.001473,-0.004122,0.004989,-0.004684,-0.480918,-0.002004,0.467765,-262.861109,-0.43917,65.280033
0.3157,-0.003369,0.029453,1e-06,0.001506,-0.004177,0.005126,-0.004452,-0.480774,-0.001352,0.39318,-262.861109,-0.513755,65.280033
0.3357,-0.003556,0.029182,0.000221,0.001492,-0.004213,0.004288,-0.003467,-0.480568,-0.000122,0.39318,-262.861109,-0.513755,65.280033
0.3559,-0.00377,0.029476,-0.001068,0.001478,-0.00425,0.003695,-0.003467,-0.480568,-0.000122,0.39318,-262.861109,-0.513755,65.280033
0.3758,-0.003648,0.029356,-0.001779,0.001466,-0.004286,0.003274,-0.004315,-0.480524,-0.001068,0.318177,-262.861109,-0.588758,65.280033
0.396,-0.00384,0.029097,-0.000822,0.001486,-0.004326,0.003606,-0.004413,-0.480573,-0.001358,0.318177,-262.861109,-0.588758,65.280033
0.4158,-0.003725,0.029437,-0.000609,0.001503,-0.004358,0.003842,-0.00426,-0.480903,-0.000822,0.243216,-262.861109,-0.663719,65.280033
0.4359,-0.003467,0.029284,-0.000603,0.001506,-0.00438,0.003645,-0.004056,-0.480593,-0.000628,0.243216,-262.861109,-0.663719,65.280033
0.4559,-0.00391,0.029583,-0.000764,0.001508,-0.004401,0.003504,-0.004056,-0.480593,-0.000628,0.243216,-262.861109,-0.663719,65.280033
0.4758,-0.003678,0.029507,-0.000759,0.001509,-0.004419,0.003404,-0.004299,-0.480417,-0.000764,0.168211,-262.861109,-0.738724,65.280033
0.4962,-0.003732,0.029271,0.000544,0.001515,-0.004437,0.003402,-0.004201,-0.480449,-0.000762,0.168211,-262.861109,-0.738724,65.280033
0.5156,-0.003787,0.029122,-0.000802,0.001519,-0.004452,0.0034,-0.003454,-0.480729,0.000544,0.092872,-262.861109,-0.814063,65.280033
0.5355,-0.003633,0.029367,0.00033,0.001523,-0.004464,0.003367,-0.004142,-0.480867,-0.000705,0.092872,-262.861109,-0.814063,65.280033
0.5557,-0.00379,0.029632,-0.000659,0.001526,-0.004475,0.003343,-0.004142,-0.480867,-0.000705,0.092872,-262.861109,-0.814063,65.280033
0.5754,-0.003607,0.029075,-0.000649,0.001529,-0.004485,0.003325,-0.004126,-0.480368,-0.000659,0.017711,-262.861109,-0.889224,65.280033
0.5955,-0.003835,0.02898,-0.000997,0.001527,-0.004494,0.003286,-0.004046,-0.480603,-0.000655,0.017711,-262.861109,-0.889224,65.280033
0.6157,-0.003297,0.029175,-0.000604,0.001526,-0.004502,0.003257,-0.004343,-0.48102,-0.000997,-0.057378,-262.861109,-0.964313,65.280033
0.6358,-0.003655,0.029439,-0.001506,0.001513,-0.00451,0.003226,-0.00366,-0.480839,-0.000633,-0.057378,-262.861109,-0.964313,65.280033
0.6557,-0.003679,0.029348,-0.000361,0.001503,-0.004517,0.003203,-0.00366,-0.480839,-0.000633,-0.057378,-262.861109,-0.964313,65.280033
0.6758,-0.003513,0.028935,0.000455,0.001494,-0.004524,0.003186,-0.003863,-0.480652,-0.000361,-0.13225,-262.861109,-1.039185,65.280033
0.6958,-0.003485,0.029343,-0.000748,0.001485,-0.004525,0.002842,-0.003625,-0.480821,-2.7e-05,-0.13225,-262.861109,-1.039185,65.280033
0.7156,-0.003478,0.029364,-0.001586,0.001478,-0.004528,0.002597,-0.003866,-0.480657,-0.000748,-0.206828,-262.861109,-1.113763,65.280033
0.7357,-0.003466,0.029288,-0.001589,0.001491,-0.004542,0.003166,-0.004254,-0.480637,-0.00152,-0.206828,-262.861109,-1.113763,65.280033
0.7557,-0.003847,0.029177,-0.002126,0.001504,-0.004551,0.003577,-0.004254,-0.480637,-0.00152,-0.206828,-262.861109,-1.113763,65.280033
0.7754,-0.003514,0.029237,-0.001049,0.001514,-0.004555,0.003873,-0.004931,-0.480822,-0.002126,-0.28213,-262.861108,-1.189065,65.280033
0.7954,-0.003714,0.028968,-0.000797,0.001534,-0.004557,0.004152,-0.004567,-0.480797,-0.001681,-0.28213,-262.861108,-1.189065,65.280033
0.8158,-0.003725,0.029174,-0.000817,0.001551,-0.004556,0.004352,-0.00412,-0.481032,-0.000797,-0.357166,-262.861108,-1.264101,65.280033
0.836,-0.003701,0.029456,-0.001311,0.001551,-0.00455,0.004084,-0.00414,-0.480845,-0.000816,-0.357166,-262.861108,-1.264101,65.280033
0.8557,-0.003606,0.029349,-0.001675,0.001551,-0.004546,0.003897,-0.00414,-0.480845,-0.000816,-0.357166,-262.861108,-1.264101,65.280033
0.8759,-0.003445,0.029519,0.000595,0.00155,-0.004544,0.003765,-0.00446,-0.480652,-0.001673,-0.431787,-262.8611,-1.338722,65.280057
0.8958,-0.003616,0.029263,-0.001081,0.001541,-0.004544,0.003639,-0.003922,-0.480582,-0.000749,-0.431787,-262.8611,-1.338722,65.280057
0.9159,-0.003961,0.029094,0.001258,0.001533,-0.004544,0.00355,-0.004167,-0.480738,-0.00108,-0.506798,-262.861091,-1.348101,65.28008
0.9362,-0.003761,0.029339,-0.000112,0.001511,-0.00453,0.002539,-0.003396,-0.48089,0.001047,-0.506798,-262.861091,-1.348101,65.28008
0.9557,-0.00366,0.029283,-0.001321,0.00149,-0.004525,0.001812,-0.003396,-0.48089,0.001047,-0.506798,-262.861091,-1.348101,65.28008
0.9754,-0.004071,0.029207,-0.001316,0.001471,-0.004526,0.00129,-0.004332,-0.480719,-0.001317,-0.58179,-262.861071,-1.346216,65.28013
0.9959,-0.0037,0.029263,-0.000849,0.001491,-0.004547,0.002121,-0.0045,-0.48075,-0.001317,-0.58179,-262.861071,-1.346216,65.28013
1.0156,-0.003643,0.029364,-0.000198,0.00151,-0.004559,0.002726,-0.004132,-0.480737,-0.000849,-0.656787,-262.861068,-1.30066,65.280133
1.0354,-0.003783,0.029657,-0.000209,0.001504,-0.004559,0.002632,-0.003778,-0.480645,-0.000255,-0.656787,-262.861068,-1.30066,65.280133
1.0554,-0.003616,0.029367,-0.001823,0.001498,-0.004559,0.002565,-0.003778,-0.480645,-0.000255,-0.656787,-262.861068,-1.30066,65.280133
1.0755,-0.003703,0.029303,-0.002076,0.001493,-0.00456,0.002519,-0.004543,-0.48064,-0.001817,-0.731865,-262.861011,-1.332741,65.280247
1.096,-0.003793,0.029298,-0.000757,0.001517,-0.004574,0.003257,-0.004631,-0.480664,-0.001922,-0.731865,-262.861011,-1.332741,65.280247
1.1157,-0.003881,0.028832,-0.000507,0.001538,-0.004581,0.003795,-0.004173,-0.480715,-0.000748,-0.806737,-262.860884,-1.330663,65.280482
1.1358,-0.003778,0.029426,-0.001928,0.001542,-0.004572,0.00353,-0.004142,-0.481127,-0.000528,-0.806737,-262.860884,-1.330663,65.280482
1.1556,-0.003766,0.029577,-0.000692,0.001545,-0.004567,0.003346,-0.004142,-0.481127,-0.000528,-0.806737,-262.860884,-1.330663,65.280482
1.1756,-0.003717,0.029514,0.00021,0.001547,-0.004563,0.003219,-0.004075,-0.480542,-0.000588,-0.88181,-262.86019,-1.351411,65.282274
1.1956,-0.003841,0.029376,-0.000538,0.001538,-0.004559,0.00298,-0.003881,-0.480533,-0.000251,-0.88181,-262.86019,-1.351411,65.282274
1.2156,-0.003655,0.028707,-0.002244,0.00153,-0.004558,0.002812,-0.004079,-0.480723,-0.000465,-0.956785,-262.859357,-1.338101,65.284123
1.2355,-0.003769,0.028981,-0.001783,0.001554,-0.004571,0.003528,-0.004733,-0.481246,-0.00208,-0.956785,-262.859357,-1.338101,65.284123
1.2558,-0.003686,0.02924,-0.000813,0.001576,-0.004577,0.004049,-0.004733,-0.481246,-0.00208,-0.956785,-262.859357,-1.338101,65.284123
1.2756,-0.003746,0.028483,-0.001417,0.001595,-0.004577,0.004427,-0.004048,-0.480911,-0.000717,-1.03179,-262.858333,-1.331601,65.286174
1.2957,-0.00352,0.028831,-0.000738,0.001592,-0.004567,0.00422,-0.004213,-0.481175,-0.000992,-1.03179,-262.858333,-1.331601,65.286174
1.3158,-0.004111,0.029163,-0.001825,0.00159,-0.00456,0.004078,-0.003866,-0.481262,-0.000651,-0.956739,-262.857708,-1.355184,65.288068
1.3356,-0.003717,0.028739,0.000192,0.00161,-0.004558,0.004317,-0.004934,-0.480879,-0.001714,-0.956739,-262.857708,-1.355184,65.288068
1.3558,-0.003717,0.028478,0.00154,0.001628,-0.004554,0.004492,-0.004934,-0.480879,-0.001714,-0.956739,-262.857708,-1.355184,65.288068
1.376,-0.003629,0.028357,-0.000441,0.001643,-0.004549,0.00462,-0.002866,-0.481708,0.001706,-0.915906,-262.856692,-1.349053,65.290881
1.3963,-0.003695,0.028717,-0.000219,0.001606,-0.004528,0.003398,-0.00326,-0.481703,0.000853,-0.915906,-262.856692,-1.349053,65.290881
1.4153,-0.003507,0.028199,0.002068,0.001571,-0.004518,0.002521,-0.003764,-0.481406,-9.6e-05,-0.840909,-262.855894,-1.351421,65.293408
1.4358,-0.003757,0.028226,-0.000407,0.001519,-0.004503,0.001457,-0.002568,-0.481771,0.00188,-0.840909,-262.855894,-1.351421,65.293408
1.4557,-0.004031,0.027988,-0.000221,0.001471,-0.0045,0.000685,-0.002568,-0.481771,0.00188,-0.840909,-262.855894,-1.351421,65.293408
1.4759,-0.003892,0.02814,-0.001096,0.00143,-0.004504,0.000128,-0.004116,-0.48208,-0.000178,-0.915918,-262.855392,-1.317074,65.294341
1.4958,-0.003482,0.02855,-0.000158,0.001455,-0.00453,0.000939,-0.004248,-0.481999,-0.000545,-0.915918,-262.855392,-1.317074,65.294341
1.5154,-0.003925,0.028131,0.000578,0.001478,-0.004546,0.001519,-0.003554,-0.48147,-0.000156,-0.990865,-262.855128,-1.26833,65.294614
1.5358,-0.003742,0.028114,0.000379,0.001476,-0.00455,0.001365,-0.003622,-0.481834,0.000511,-0.990865,-262.855128,-1.26833,65.294614
1.5559,-0.003644,0.028189,-4.5e-05,0.001474,-0.004554,0.001254,-0.003622,-0.481834,0.000511,-0.990865,-262.855128,-1.26833,65.294614
1.5754,-0.003665,0.028311,7e-06,0.001473,-0.004559,0.001174,-0.003629,-0.481911,-7e-06,-1.065937,-262.854286,-1.307145,65.295835
1.5966,-0.003545,0.027863,0.000111,0.001472,-0.004567,0.001391,-0.003638,-0.481832,3e-06,-1.065937,-262.854286,-1.307145,65.295835
1.6158,-0.003581,0.027719,0.000832,0.001472,-0.004572,0.001546,-0.00345,-0.482244,0.000141,-1.140919,-262.853078,-1.298545,65.297444
1.6355,-0.003575,0.027672,0.000102,0.001456,-0.004571,0.001245,-0.003181,-0.482283,0.000772,-1.140919,-262.853078,-1.298545,65.297444
1.6556,-0.003876,0.028001,0.000809,0.001442,-0.004573,0.001031,-0.003181,-0.482283,0.000772,-1.140919,-262.853078,-1.298545,65.297444
1.6756,-0.004052,0.027689,-0.000634,0.001431,-0.004575,0.00088,-0.003404,-0.482184,0.000871,-1.185366,-262.851566,-1.310011,65.299648
1.6955,-0.00362,0.027535,8e-06,0.001441,-0.00458,0.001037,-0.003791,-0.482257,0.000268,-1.185366,-262.851566,-1.310011,65.299648
1.716,-0.003767,0.027421,0.000301,0.001451,-0.004583,0.001149,-0.003572,-0.482606,3.5e-05,-1.230294,-262.84991,-1.297931,65.3017
1.7358,-0.003492,0.027161,-0.000481,0.001455,-0.004586,0.001223,-0.003607,-0.482589,0.000277,-1.230294,-262.84991,-1.297931,65.3017
1.7556,-0.003412,0.02777,0.001582,0.001458,-0.004588,0.001276,-0.003607,-0.482589,0.000277,-1.230294,-262.84991,-1.297931,65.3017
1.7756,-0.003625,0.027239,0.000337,0.00146,-0.004589,0.001313,-0.002545,-0.48242,0.00163,-1.213073,-262.848261,-1.302829,65.303881
1.7964,-0.00393,0.026906,-0.00077,0.001437,-0.004586,0.00091,-0.002906,-0.48258,0.001111,-1.213073,-262.848261,-1.302829,65.303881
1.8154,-0.003475,0.026916,-0.000517,0.001417,-0.004585,0.000623,-0.004277,-0.48324,-0.000728,-1.202765,-262.84664,-1.306246,65.306111
1.836,-0.003835,0.026902,-5e-05,0.001434,-0.004597,0.001284,-0.003786,-0.483106,-0.000534,-1.202765,-262.84664,-1.306246,65.306111
1.8559,-0.003616,0.026621,-0.000501,0.00145,-0.004603,0.001758,-0.003786,-0.483106,-0.000534,-1.202765,-262.84664,-1.306246,65.306111
1.8761,-0.00364,0.026651,0.001073,0.001464,-0.004605,0.002099,-0.003814,-0.483565,-0.000476,-1.245801,-262.844922,-1.292886,65.30811
1.8958,-0.003583,0.026668,0.001314,0.001468,-0.0046,0.001969,-0.003516,-0.483499,0.000152,-1.245801,-262.844922,-1.292886,65.30811
1.9154,-0.003328,0.026416,0.000774,0.001471,-0.004596,0.001877,-0.002873,-0.483458,0.001372,-1.170806,-262.84367,-1.327103,65.310202
1.9359,-0.003642,0.026386,0.000873,0.001452,-0.004589,0.001452,-0.002926,-0.483579,0.00083,-1.170806,-262.84367,-1.327103,65.310202
1.9559,-0.003567,0.026344,-0.000564,0.001435,-0.004587,0.001147,-0.002926,-0.483579,0.00083,-1.170806,-262.84367,-1.327103,65.310202
1.9758,-0.003349,0.026513,0.000535,0.00142,-0.004586,0.00093,-0.003793,-0.483848,-0.000485,-1.167581,-262.842172,-1.319918,65.312571
1.9962,-0.003591,0.026311,0.002503,0.001428,-0.004592,0.001249,-0.003495,-0.483724,-6.2e-05,-1.167581,-262.842172,-1.319918,65.312571
2.0159,-0.003,0.026228,-0.001764,0.001436,-0.004596,0.001476,-0.002272,-0.483824,0.002531,-1.231212,-262.840579,-1.302015,65.314569
2.0357,-0.003169,0.026219,0.001198,0.001454,-0.004609,0.002301,-0.00376,-0.483782,-0.001399,-1.231212,-262.840579,-1.302015,65.314569
2.0559,-0.003394,0.026178,0.00195,0.00147,-0.004613,0.002902,-0.00376,-0.483782,-0.001399,-1.231212,-262.840579,-1.302015,65.314569
2.0758,-0.003236,0.025713,0.001852,0.001486,-0.004612,0.003339,-0.00234,-0.484009,0.002011,-1.200007,-262.839025,-1.31527,65.316795
2.0958,-0.00371,0.025849,0.000242,0.001448,-0.004579,0.002029,-0.002314,-0.484144,0.001953,-1.200007,-262.839025,-1.31527,65.316795
2.1154,-0.003599,0.026063,0.001358,0.001411,-0.004561,0.001072,-0.003557,-0.484251,0.000311,-1.12516,-262.838226,-1.351045,65.31863
2.1356,-0.003494,0.025823,0.002042,0.001402,-0.00456,0.000667,-0.002963,-0.483969,0.001268,-1.12516,-262.838226,-1.351045,65.31863
2.1559,-0.00312,0.025491,0.003212,0.001393,-0.004562,0.000377,-0.002963,-0.483969,0.001268,-1.12516,-262.838226,-1.351045,65.31863
2.1756,-0.003274,0.025789,0.001033,0.001385,-0.004566,0.000169,-0.001431,-0.484664,0.00325,-1.200158,-262.83685,-1.30649,65.320419
2.1955,-0.003246,0.025464,0.002258,0.001341,-0.004559,-0.000431,-0.00196,-0.484498,0.002354,-1.200158,-262.83685,-1.30649,65.320419
2.2155,-0.003486,0.02507,0.00147,0.001302,-0.004558,-0.000862,-0.002053,-0.484668,0.002263,-1.269834,-262.835137,-1.282398,65.322205
2.2354,-0.003145,0.025468,0.000437,0.0013,-0.004569,-0.000831,-0.002672,-0.484913,0.001543,-1.269834,-262.835137,-1.282398,65.322205
2.2556,-0.003502,0.025171,0.00066,0.001297,-0.004578,-0.000812,-0.002672,-0.484913,0.001543,-1.269834,-262.835137,-1.282398,65.322205
2.2758,-0.003236,0.024988,-0.000644,0.001296,-0.004586,-0.0008,-0.003114,-0.485011,0.000625,-1.320028,-262.833129,-1.258342,65.323826
2.296,-0.002683,0.025069,0.000611,0.001321,-0.004603,-5.3e-05,-0.003297,-0.485032,9e-05,-1.320028,-262.833129,-1.258342,65.323826
2.3155,-0.002964,0.024772,0.001548,0.001345,-0.004612,0.000475,-0.00233,-0.485076,0.000586,-1.320766,-262.831046,-1.2645,65.325535
2.3359,-0.003071,0.02467,0.000579,0.001321,-0.004609,0.000149,-0.002187,-0.485221,0.00146,-1.320766,-262.831046,-1.2645,65.325535
2.3555,-0.002854,0.025121,0.00095,0.001301,-0.004608,-8.6e-05,-0.002187,-0.485221,0.00146,-1.320766,-262.831046,-1.2645,65.325535
2.3754,-0.002686,0.024285,0.001502,0.001283,-0.004609,-0.000256,-0.002317,-0.485059,0.000968,-1.269183,-262.829352,-1.303112,65.327437
2.3955,-0.003319,0.024691,0.000118,0.001267,-0.004612,-0.000247,-0.002149,-0.485347,0.001188,-1.269183,-262.829352,-1.303112,65.327437
2.4153,-0.002687,0.024224,0.001478,0.001253,-0.004616,-0.000243,-0.003219,-0.485453,0.00011,-1.30786,-262.82742,-1.290314,65.329252
2.4358,-0.002824,0.024116,0.001513,0.001237,-0.004617,-0.000333,-0.002028,-0.485758,0.001375,-1.30786,-262.82742,-1.290314,65.329252
2.4556,-0.003206,0.024376,0.000378,0.001224,-0.004619,-0.000398,-0.002028,-0.485758,0.001375,-1.30786,-262.82742,-1.290314,65.329252
2.4758,-0.002947,0.024355,2.2e-05,0.001212,-0.004621,-0.000445,-0.002961,-0.485816,0.000368,-1.313593,-262.825462,-1.297307,65.331095
2.496,-0.002821,0.024248,0.000655,0.001241,-0.00463,0.000112,-0.002945,-0.485768,0.000226,-1.313593,-262.825462,-1.297307,65.331095
2.5157,-0.002697,0.02376,0.001382,0.001266,-0.004634,0.000506,-0.002448,-0.4859,0.000641,-1.327895,-262.823448,-1.298908,65.3329
2.5358,-0.002646,0.023793,-0.000585,0.001251,-0.004628,0.000224,-0.002031,-0.486216,0.001315,-1.327895,-262.823448,-1.298908,65.3329
2.5557,-0.002651,0.023815,0.000468,0.001237,-0.004625,2.3e-05,-0.002031,-0.486216,0.001315,-1.327895,-262.823448,-1.298908,65.3329
2.5756,-0.002484,0.023794,0.001122,0.001226,-0.004624,-0.00012,-0.002361,-0.486372,0.000488,-1.286088,-262.821707,-1.320127,65.33487
2.5958,-0.003022,0.023812,0.000189,0.001223,-0.004628,6.2e-05,-0.00217,-0.486325,0.000751,-1.286088,-262.821707,-1.320127,65.33487
2.6156,-0.002411,0.023868,0.000698,0.001221,-0.00463,0.00019,-0.002887,-0.486333,0.000186,-1.315506,-262.819799,-1.307646,65.336723
2.6357,-0.002673,0.023208,0.001633,0.001217,-0.004632,0.000333,-0.002129,-0.486158,0.000651,-1.315506,-262.819799,-1.307646,65.336723
2.6557,-0.002872,0.023406,7.1e-05,0.001213,-0.004633,0.000434,-0.002129,-0.486158,0.000651,-1.315506,-262.819799,-1.307646,65.336723
2.6758,-0.002834,0.023312,0.000852,0.001211,-0.004634,0.000505,-0.002785,-0.486787,7.9e-05,-1.306682,-262.817925,-1.319061,65.338687
2.6959,-0.00256,0.023406,0.000923,0.001231,-0.004634,0.000685,-0.002617,-0.486768,0.000404,-1.306682,-262.817925,-1.319061,65.338687
2.7154,-0.002516,0.023098,0.001231,0.001248,-0.004633,0.000813,-0.002051,-0.48674,0.000939,-1.297844,-262.816143,-1.330558,65.340706
2.7359,-0.002818,0.023091,0.001272,0.001232,-0.004626,0.000491,-0.0019,-0.486895,0.001207,-1.297844,-262.816143,-1.330558,65.340706
2.756,-0.002941,0.022892,-2.2e-05,0.001218,-0.004623,0.000262,-0.0019,-0.486895,0.001207,-1.297844,-262.816143,-1.330558,65.340706
2.7755,-0.002627,0.022894,0.001241,0.001206,-0.004621,9.9e-05,-0.002901,-0.487301,1.2e-05,-1.277664,-262.81443,-1.332064,65.342799
2.7956,-0.002308,0.022786,0.001388,0.001224,-0.004624,0.000336,-0.002525,-0.487243,0.000517,-1.277664,-262.81443,-1.332064,65.342799
2.816,-0.002557,0.022479,0.000785,0.00124,-0.004626,0.000504,-0.001563,-0.487358,0.001391,-1.312348,-262.81258,-1.318743,65.344696
2.8359,-0.002593,0.022111,0.000944,0.001236,-0.004624,0.000455,-0.0021,-0.487513,0.00084,-1.312348,-262.81258,-1.318743,65.344696
2.8562,-0.002559,0.022541,0.000635,0.001233,-0.004623,0.000419,-0.0021,-0.487513,0.00084,-1.312348,-262.81258,-1.318743,65.344696
2.8757,-0.00246,0.022408,0.000354,0.00123,-0.004623,0.000393,-0.002183,-0.487653,0.000656,-1.291164,-262.810801,-1.324594,65.34671
2.896,-0.002571,0.022136,-0.000219,0.001233,-0.004625,0.000534,-0.002215,-0.48765,0.000539,-1.291164,-262.810801,-1.324594,65.34671
2.9153,-0.002559,0.021967,0.000694,0.001236,-0.004625,0.000633,-0.002643,-0.488012,-0.000206,-1.297237,-262.808974,-1.323119,65.348723
2.9358,-0.002966,0.021702,0.001284,0.001241,-0.004625,0.000658,-0.002238,-0.488038,0.000623,-1.297237,-262.808974,-1.323119,65.348723
2.9559,-0.002252,0.021892,2.7e-05,0.001245,-0.004624,0.000676,-0.002238,-0.488038,0.000623,-1.297237,-262.808974,-1.323119,65.348723
2.9755,-0.002648,0.022042,-0.000659,0.001249,-0.004623,0.000689,-0.002187,-0.488301,5.3e-05,-1.287098,-262.807217,-1.329037,65.350778
2.9955,-0.002105,0.022087,0.001301,0.001265,-0.004628,0.001163,-0.00251,-0.488182,-0.000238,-1.287098,-262.807217,-1.329037,65.350778
3.0154,-0.002164,0.021835,0.001949,0.001279,-0.004629,0.001502,-0.001401,-0.48806,0.001323,-1.281951,-262.805455,-1.328103,65.352866
3.0358,-0.0022,0.021871,0.000129,0.001231,-0.004611,0.000684,-0.001185,-0.488163,0.001904,-1.281951,-262.805455,-1.328103,65.352866
3.0558,-0.002219,0.021504,0.000842,0.001187,-0.004601,9.5e-05,-0.001185,-0.488163,0.001904,-1.281951,-262.805455,-1.328103,65.352866
3.0758,-0.002785,0.021389,0.002001,0.00115,-0.004597,-0.000329,-0.001738,-0.488681,0.000902,-1.238931,-262.803946,-1.344115,65.355053
3.0958,-0.002307,0.021342,0.000623,0.001145,-0.004601,-0.000387,-0.001743,-0.488674,0.001356,-1.238931,-262.803946,-1.344115,65.355053
3.1158,-0.002054,0.021181,0.001282,0.001142,-0.004605,-0.000429,-0.001957,-0.488783,0.000615,-1.313425,-262.802262,-1.314992,65.356604
3.1357,-0.002261,0.021676,0.001616,0.001126,-0.00461,-0.000397,-0.001443,-0.488822,0.001228,-1.313425,-262.802262,-1.314992,65.356604
3.1557,-0.002315,0.021214,0.001837,0.001112,-0.004614,-0.000376,-0.001443,-0.488822,0.001228,-1.313425,-262.802262,-1.314992,65.356604
3.1757,-0.002143,0.021095,7.6e-05,0.001101,-0.004618,-0.000362,-0.001331,-0.488975,0.001819,-1.340343,-262.800295,-1.313683,65.358371
3.1957,-0.001912,0.020949,0.000685,0.001102,-0.004622,-0.000293,-0.001641,-0.488968,0.001106,-1.340343,-262.800295,-1.313683,65.358371
3.2155,-0.002029,0.020868,0.001881,0.001102,-0.004625,-0.000245,-0.001528,-0.489197,0.000673,-1.347046,-262.798312,-1.325405,65.360182
3.2358,-0.002828,0.021074,0.001851,0.001076,-0.004622,-0.000526,-0.001106,-0.489144,0.001778,-1.347046,-262.798312,-1.325405,65.360182
3.2555,-0.002261,0.020705,0.000313,0.001054,-0.004621,-0.000726,-0.001106,-0.489144,0.001778,-1.347046,-262.798312,-1.325405,65.360182
3.2755,-0.002128,0.021048,0.00119,0.001035,-0.004622,-0.000867,-0.002056,-0.489488,0.000303,-1.343883,-262.796358,-1.329275,65.36202
3.2957,-0.002028,0.020555,0.001234,0.001056,-0.004632,-0.000421,-0.001834,-0.489293,0.000661,-1.343883,-262.796358,-1.329275,65.36202
3.3155,-0.00188,0.02042,0.000369,0.001075,-0.004637,-0.000106,-0.001365,-0.48959,0.001207,-1.372484,-262.794283,-1.323048,65.363687
3.3356,-0.001631,0.02054,0.001057,0.001084,-0.004641,0.000234,-0.001661,-0.489588,0.000442,-1.372484,-262.794283,-1.323048,65.363687
3.3556,-0.002248,0.020409,0.00177,0.001092,-0.004643,0.000474,-0.001661,-0.489588,0.000442,-1.372484,-262.794283,-1.323048,65.363687
3.3758,-0.001644,0.020276,0.001566,0.0011,-0.004643,0.000644,-0.0013,-0.489781,0.001766,-1.346088,-262.792385,-1.339956,65.365536
3.3959,-0.002374,0.020538,0.00245,0.001077,-0.004632,0.000151,-0.001109,-0.489779,0.001684,-1.346088,-262.792385,-1.339956,65.365536
3.416,-0.00182,0.020076,0.001427,0.001057,-0.004626,-0.000201,-0.00109,-0.489606,0.00247,-1.317656,-262.790658,-1.355865,65.367563
3.4363,-0.001546,0.019816,0.000271,0.00104,-0.004625,-0.000378,-0.00109,-0.489902,0.001523,-1.317656,-262.790658,-1.355865,65.367563
3.4563,-0.002167,0.019899,-0.000306,0.001025,-0.004625,-0.000504,-0.00109,-0.489902,0.001523,-1.317656,-262.790658,-1.355865,65.367563
3.4759,-0.002185,0.019634,0.000575,0.001012,-0.004626,-0.000594,-0.00228,-0.490291,-0.000314,-1.351698,-262.788755,-1.340145,65.369372
3.496,-0.001863,0.019636,0.00045,0.001057,-0.004637,0.0001,-0.002119,-0.490343,4.3e-05,-1.351698,-262.788755,-1.340145,65.369372
3.5159,-0.00154,0.019156,0.001917,0.001095,-0.004642,0.000593,-0.001601,-0.490511,0.000432,-1.370572,-262.786731,-1.337633,65.371115
3.536,-0.001828,0.019345,0.001125,0.001052,-0.00463,7.6e-05,-0.000656,-0.49082,0.001779,-1.370572,-262.786731,-1.337633,65.371115
3.5559,-0.001686,0.019576,-0.000153,0.001015,-0.004623,-0.000293,-0.000656,-0.49082,0.001779,-1.370572,-262.786731,-1.337633,65.371115
3.576,-0.001935,0.019372,0.00015,0.000982,-0.00462,-0.000556,-0.00172,-0.49061,-0.000129,-1.320243,-262.785042,-1.3553,65.373073
3.5958,-0.001395,0.019517,1e-06,0.001016,-0.004634,0.00016,-0.001771,-0.490638,-1.4e-05,-1.320243,-262.785042,-1.3553,65.373073
3.616,-0.001575,0.018934,0.002494,0.001045,-0.004641,0.00067,-0.001364,-0.490623,-1.6e-05,-1.375232,-262.783111,-1.345147,65.37475
3.6359,-0.001859,0.01899,0.002291,0.000996,-0.004621,-6.6e-05,-0.000387,-0.491036,0.002292,-1.375232,-262.783111,-1.345147,65.37475
3.6556,-0.001644,0.019236,-0.000325,0.000952,-0.00461,-0.000597,-0.000387,-0.491036,0.002292,-1.375232,-262.783111,-1.345147,65.37475
3.6761,-0.001361,0.018657,-0.000311,0.000914,-0.004604,-0.000978,-0.001768,-0.490949,-0.000298,-1.328747,-262.781446,-1.366808,65.37672
3.6958,-0.00151,0.018713,0.002318,0.000954,-0.004629,1.4e-05,-0.001662,-0.491131,-0.0003,-1.328747,-262.781446,-1.366808,65.37672
3.7162,-0.00159,0.018444,0.001815,0.00099,-0.004641,0.000724,-0.000301,-0.491421,0.00229,-1.396793,-262.779494,-1.346474,65.378239
3.7361,-0.001569,0.018356,0.001428,0.000963,-0.004627,0.000145,-0.000631,-0.49155,0.001856,-1.396793,-262.779494,-1.346474,65.378239
3.7562,-0.001601,0.018346,0.001279,0.00094,-0.00462,-0.000272,-0.000631,-0.49155,0.001856,-1.396793,-262.779494,-1.346474,65.378239
3.7761,-0.001105,0.018216,0.002037,0.000919,-0.004616,-0.00057,-0.000909,-0.491834,0.001307,-1.339317,-262.777886,-1.378481,65.380169
3.7961,-0.001635,0.018526,0.001932,0.000901,-0.004617,-0.000674,-0.000559,-0.491834,0.00161,-1.339317,-262.777886,-1.378481,65.380169
3.816,-0.001669,0.017969,0.001272,0.000885,-0.004619,-0.000749,-0.000622,-0.491613,0.001914,-1.387759,-262.775952,-1.358708,65.381842
3.8361,-0.001613,0.018077,0.001168,0.000897,-0.004624,-0.000673,-0.000985,-0.492002,0.001327,-1.387759,-262.775952,-1.358708,65.381842
3.8556,-0.001878,0.018192,0.000179,0.000907,-0.004627,-0.00062,-0.000985,-0.492002,0.001327,-1.387759,-262.775952,-1.358708,65.381842
3.8756,-0.001451,0.01783,0.001002,0.000915,-0.00463,-0.000585,-0.001749,-0.492,0.000148,-1.398166,-262.773896,-1.361197,65.383539
3.8964,-0.001191,0.017716,0.000543,0.000948,-0.004637,-0.000134,-0.001415,-0.492091,0.000493,-1.398166,-262.773896,-1.361197,65.383539
3.9153,-0.001482,0.017568,0.001675,0.000977,-0.004641,0.000184,-0.000885,-0.492431,0.000524,-1.389254,-262.771858,-1.359743,65.385296
3.9356,-0.00123,0.018094,0.002106,0.000956,-0.004633,-0.000138,-0.000645,-0.492438,0.00159,-1.389254,-262.771858,-1.359743,65.385296
3.9559,-0.001353,0.01785,-0.000424,0.000938,-0.004628,-0.000367,-0.000645,-0.492438,0.00159,-1.389254,-262.771858,-1.359743,65.385296
3.976,-0.001187,0.017725,0.000998,0.000923,-0.004626,-0.000529,-0.00153,-0.49234,-0.000417,-1.358383,-262.770047,-1.368133,65.387192
3.9955,-0.001506,0.01703,0.002098,0.000942,-0.004637,8.4e-05,-0.001178,-0.492335,0.000161,-1.358383,-262.770047,-1.368133,65.387192
4.0154,-0.001341,0.016966,0.001287,0.000959,-0.004643,0.000519,-0.000407,-0.493114,0.002081,-1.386488,-262.768048,-1.359577,65.388939
4.0357,-0.001018,0.017218,0.001586,0.000944,-0.004635,0.000215,-0.000663,-0.493046,0.001345,-1.386488,-262.768048,-1.359577,65.388939
4.0558,-0.001193,0.017026,0.002106,0.000931,-0.00463,-2e-06,-0.000663,-0.493046,0.001345,-1.386488,-262.768048,-1.359577,65.388939
4.0757,-0.001221,0.01689,0.000719,0.000919,-0.004627,-0.000157,-7.9e-05,-0.493162,0.002127,-1.352557,-262.76633,-1.379748,65.390898
4.0955,-0.0011,0.017167,0.000916,0.000892,-0.004623,-0.000366,-0.000389,-0.493162,0.001558,-1.352557,-262.76633,-1.379748,65.390898
4.1155,-0.001293,0.016667,-0.001557,0.000869,-0.004621,-0.000514,-0.000603,-0.492978,0.000911,-1.378549,-262.764426,-1.37062,65.392728
4.1356,-0.00121,0.017115,0.000864,0.000946,-0.004649,0.000801,-0.001959,-0.49331,-0.001347,-1.378549,-262.764426,-1.37062,65.392728
4.1559,-0.000904,0.016952,-0.000126,0.001015,-0.004661,0.001763,-0.001959,-0.49331,-0.001347,-1.378549,-262.764426,-1.37062,65.392728
4.1756,-0.001028,0.016864,0.001017,0.001076,-0.004661,0.002468,-0.000933,-0.49324,-0.000148,-1.396455,-262.762435,-1.371647,65.394474
4.1957,-0.001528,0.016455,0.001838,0.001052,-0.004646,0.002126,-0.000757,-0.49322,0.000322,-1.396455,-262.762435,-1.371647,65.394474
4.2158,-0.001014,0.016268,0.000937,0.001032,-0.004635,0.001884,-0.00057,-0.493645,0.001889,-1.32159,-262.76153,-1.398154,65.396174
4.2355,-0.001027,0.016146,0.002558,0.000999,-0.00462,0.001352,-0.000538,-0.493729,0.001009,-1.32159,-262.76153,-1.398154,65.396174
4.2557,-0.001124,0.016372,0.001863,0.000971,-0.004612,0.000972,-0.000538,-0.493729,0.001009,-1.32159,-262.76153,-1.398154,65.396174
4.2757,-0.001445,0.016044,0.000869,0.000946,-0.004607,0.0007,-0.000132,-0.493815,0.001939,-1.2829,-262.760121,-1.394323,65.398454
4.2961,-0.001005,0.016351,0.000652,0.000921,-0.0046,0.000266,-0.000484,-0.493895,0.00151,-1.2829,-262.760121,-1.394323,65.398454
4.3155,-0.000879,0.015692,0.002125,0.000899,-0.004597,-4.4e-05,-0.000644,-0.493785,0.000672,-1.348161,-262.758506,-1.38504,65.400384
4.3357,-0.001039,0.015976,0.000558,0.000838,-0.004588,-0.000489,0.000153,-0.494279,0.002035,-1.348161,-262.758506,-1.38504,65.400384
4.3559,-0.00103,0.015979,0.00141,0.000785,-0.004584,-0.000807,0.000153,-0.494279,0.002035,-1.348161,-262.758506,-1.38504,65.400384
4.3763,-0.000944,0.016035,0.001156,0.000741,-0.004584,-0.001034,-0.000274,-0.494208,0.001408,-1.378704,-262.756665,-1.376519,65.402205
4.3959,-0.00104,0.01587,0.001648,0.000736,-0.004594,-0.000865,-0.000303,-0.49413,0.001304,-1.378704,-262.756665,-1.376519,65.402205
4.4156,-0.001068,0.015082,0.000957,0.000732,-0.004603,-0.000746,-0.000177,-0.494269,0.001617,-1.429648,-262.754652,-1.385429,65.403741
4.4356,-0.001215,0.015475,0.001776,0.000747,-0.00461,-0.000523,-0.000542,-0.494866,0.001015,-1.429648,-262.754652,-1.385429,65.403741
4.4563,-0.000795,0.015624,0.001797,0.000759,-0.004615,-0.000366,-0.000542,-0.494866,0.001015,-1.429648,-262.754652,-1.385429,65.403741
4.4757,-0.000857,0.015238,0.001532,0.00077,-0.004619,-0.000256,0.000152,-0.494567,0.001765,-1.427064,-262.752612,-1.396041,65.405422
4.496,-0.000837,0.015269,0.000289,0.000736,-0.004614,-0.000489,6.3e-05,-0.494668,0.001667,-1.427064,-262.752612,-1.396041,65.405422
4.5156,-0.000696,0.01499,0.000956,0.000708,-0.004611,-0.000653,-0.000666,-0.494877,0.00028,-1.410896,-262.75068,-1.399881,65.40723
4.5359,-0.000644,0.014729,0.002804,0.000706,-0.004617,-0.000398,-0.000245,-0.495006,0.0009,-1.410896,-262.75068,-1.399881,65.40723
4.5568,-0.000902,0.015124,0.001082,0.000705,-0.004621,-0.000219,-0.000245,-0.495006,0.0009,-1.410896,-262.75068,-1.399881,65.40723
4.5754,-0.000192,0.014815,0.001299,0.000705,-0.004623,-9.3e-05,-0.000321,-0.495067,0.001055,-1.43042,-262.748675,-1.404287,65.408923
4.5956,-0.001074,0.014983,0.000511,0.000687,-0.004621,-0.00013,3e-06,-0.495137,0.001151,-1.43042,-262.748675,-1.404287,65.408923
4.6153,-0.001177,0.014797,0.001182,0.000672,-0.00462,-0.000156,-0.000791,-0.495164,0.000508,-1.421293,-262.74679,-1.417645,65.410764
4.636,-0.000662,0.014704,0.001632,0.000701,-0.004621,-0.000165,-0.000592,-0.495206,0.001121,-1.421293,-262.74679,-1.417645,65.410764
4.6561,-0.00064,0.01473,0.000802,0.000726,-0.004621,-0.000171,-0.000592,-0.495206,0.001121,-1.421293,-262.74679,-1.417645,65.410764
4.6758,-0.000811,0.014426,0.001757,0.000747,-0.004622,-0.000176,-0.000203,-0.495463,0.000796,-1.429285,-262.744887,-1.423397,65.412591
4.6958,-0.000698,0.014499,0.001369,0.000727,-0.004619,-0.000205,-8.4e-05,-0.49553,0.00118,-1.429285,-262.744887,-1.423397,65.412591
4.7153,-0.000606,0.014158,-3.3e-05,0.000711,-0.004618,-0.000226,2.4e-05,-0.495647,0.001364,-1.414194,-262.742988,-1.406877,65.414406
4.7359,-0.000558,0.014089,0.000722,0.000734,-0.004626,0.000327,-0.000563,-0.495832,9.4e-05,-1.414194,-262.742988,-1.406877,65.414406
4.7557,-0.000824,0.014303,0.0018,0.000754,-0.00463,0.000721,-0.000563,-0.495832,9.4e-05,-1.414194,-262.742988,-1.406877,65.414406
4.7766,-0.001309,0.013915,0.001403,0.000771,-0.004631,0.001001,0.000124,-0.495889,0.00179,-1.422444,-262.741067,-1.413427,65.416218
4.7963,-0.000611,0.013916,0.000288,0.000753,-0.004615,0.000423,-0.000159,-0.49599,0.001635,-1.422444,-262.741067,-1.413427,65.416218
4.8154,-0.00102,0.013239,0.000587,0.000738,-0.004605,8e-06,-0.00044,-0.496227,0.000319,-1.381189,-262.739478,-1.424708,65.418275
4.8359,-0.000496,0.013539,6e-06,0.000769,-0.004607,0.00024,-0.000694,-0.49672,0.000565,-1.381189,-262.739478,-1.424708,65.418275
4.8559,-0.000827,0.013894,0.00035,0.000795,-0.004608,0.000404,-0.000694,-0.49672,0.000565,-1.381189,-262.739478,-1.424708,65.418275
4.8759,-0.000941,0.013411,0.001273,0.000817,-0.004608,0.000519,-0.000618,-0.496296,0.00035,-1.411794,-262.737642,-1.412143,65.420115
4.896,-0.000669,0.013323,-0.000787,0.000818,-0.004606,0.000516,-0.000481,-0.496438,0.000729,-1.411794,-262.737642,-1.412143,65.420115
4.9156,-0.000584,0.013371,0.002731,0.000818,-0.004604,0.000514,-0.001045,-0.496821,-0.000771,-1.382564,-262.735924,-1.406337,65.422079
4.9358,-0.00052,0.013122,0.002501,0.000726,-0.004577,-0.000234,0.000645,-0.496652,0.002419,-1.382564,-262.735924,-1.406337,65.422079
4.9566,-0.000735,0.01324,0.000896,0.000648,-0.00456,-0.000772,0.000645,-0.496652,0.002419,-1.382564,-262.735924,-1.406337,65.422079
4.9756,-0.000684,0.012902,0.001033,0.000581,-0.004551,-0.001158,-0.000244,-0.496953,0.000918,-1.382421,-262.734176,-1.405986,65.424073
4.9954,-0.001008,0.013101,0.000739,0.000597,-0.004566,-0.000784,-0.000205,-0.497033,0.000966,-1.382421,-262.734176,-1.405986,65.424073
5.0155,-0.000216,0.012828,0.000434,0.00061,-0.004577,-0.000523,-0.000614,-0.49703,0.000706,-1.457418,-262.732265,-1.420738,65.425478
5.0357,-0.000424,0.012728,0.001834,0.00061,-0.004587,-7.2e-05,-5.4e-05,-0.497166,0.000458,-1.457418,-262.732265,-1.420738,65.425478
5.0559,-0.000317,0.012939,0.002412,0.000611,-0.004593,0.000246,-5.4e-05,-0.497166,0.000458,-1.457418,-262.732265,-1.420738,65.425478
5.0761,-0.000196,0.012463,0.001444,0.000612,-0.004596,0.00047,0.000939,-0.497251,0.00239,-1.446785,-262.730297,-1.428421,65.427193
5.096,-0.000572,0.01219,-0.000373,0.000539,-0.004575,-0.00011,0.000781,-0.497388,0.002005,-1.446785,-262.730297,-1.428421,65.427193
5.1155,-0.000533,0.01246,0.000744,0.000476,-0.004561,-0.000525,-0.000743,-0.497955,-0.000358,-1.429728,-262.72857,-1.446123,65.429146
5.1359,-0.000512,0.012159,-0.000194,0.000511,-0.004573,-0.000179,-0.000203,-0.497582,0.000651,-1.429728,-262.72857,-1.446123,65.429146
5.1556,-0.000147,0.012638,0.001748,0.000541,-0.00458,6.4e-05,-0.000203,-0.497582,0.000651,-1.429728,-262.72857,-1.446123,65.429146
5.1759,-0.00044,0.012143,0.002152,0.000566,-0.004585,0.000235,0.000764,-0.497545,0.001727,-1.47353,-262.726675,-1.458924,65.430794
5.1958,-0.000271,0.012203,0.001145,0.000502,-0.004568,-0.000238,0.000723,-0.497694,0.001899,-1.47353,-262.726675,-1.458924,65.430794
5.2157,-0.000463,0.011708,0.0006,0.000448,-0.004557,-0.000577,0.000331,-0.497941,0.001153,-1.444126,-262.72491,-1.451727,65.432671
5.2356,-0.000799,0.011635,0.001085,0.000479,-0.004567,-0.00022,-0.00011,-0.498267,0.000652,-1.444126,-262.72491,-1.451727,65.432671
5.2558,-0.000584,0.012092,-0.000325,0.000506,-0.004573,3.2e-05,-0.00011,-0.498267,0.000652,-1.444126,-262.72491,-1.451727,65.432671
5.2758,-0.000434,0.011842,0.000643,0.000528,-0.004576,0.000209,-0.000731,-0.498095,-0.000349,-1.479768,-262.722983,-1.464628,65.434325
5.2958,-0.000445,0.011627,0.001712,0.000581,-0.004584,0.000655,-0.000476,-0.498142,4.9e-05,-1.479768,-262.722983,-1.464628,65.434325
5.3157,-0.000231,0.011163,0.002026,0.000625,-0.004588,0.000973,0.000445,-0.498516,0.001718,-1.452702,-262.721213,-1.459042,65.436195
5.336,-0.000596,0.011365,-0.000154,0.000538,-0.004555,0.000255,0.00077,-0.498814,0.001998,-1.452702,-262.721213,-1.459042,65.436195
5.3559,-0.000411,0.011482,0.001959,0.000465,-0.004534,-0.000263,0.00077,-0.498814,0.001998,-1.452702,-262.721213,-1.459042,65.436195
5.3758,-0.000239,0.011407,0.000615,0.000403,-0.004522,-0.000635,0.000614,-0.498705,0.001999,-1.415447,-262.719633,-1.4507,65.438234
5.3959,-5.5e-05,0.011078,0.000983,0.00039,-0.004526,-0.000656,0.0004,-0.498681,0.001446,-1.415447,-262.719633,-1.4507,65.438234
5.4157,-0.000345,0.010995,0.001592,0.000379,-0.00453,-0.000673,0.000458,-0.499053,0.000965,-1.488915,-262.717839,-1.473652,65.439747
5.4358,-0.000384,0.010951,0.001945,0.000361,-0.00453,-0.000728,0.000467,-0.499016,0.001536,-1.488915,-262.717839,-1.473652,65.439747
5.4555,-0.000595,0.011378,0.002114,0.000347,-0.00453,-0.000769,0.000467,-0.499016,0.001536,-1.488915,-262.717839,-1.473652,65.439747
5.4757,-0.000172,0.010691,0.001579,0.000334,-0.004531,-0.000799,0.000499,-0.49881,0.002086,-1.494191,-262.715861,-1.478991,65.441398
5.496,-0.000386,0.010757,0.001758,0.000314,-0.004528,-0.000974,0.000555,-0.499034,0.001877,-1.494191,-262.715861,-1.478991,65.441398
5.5154,-0.000246,0.010582,0.001155,0.000297,-0.004527,-0.001099,0.000522,-0.499386,0.001733,-1.504254,-262.713851,-1.488266,65.44302
5.5357,-5.9e-05,0.010514,0.000608,0.000303,-0.004532,-0.000875,0.000359,-0.499422,0.001204,-1.504254,-262.713851,-1.488266,65.44302
5.5557,-0.000193,0.01073,0.000645,0.000308,-0.004535,-0.000717,0.000359,-0.499422,0.001204,-1.504254,-262.713851,-1.488266,65.44302
5.576,-0.000124,0.010113,0.000693,0.000312,-0.004537,-0.000606,0.000149,-0.499459,0.000599,-1.513658,-262.711774,-1.49383,65.444563
5.5961,-0.000155,0.010125,0.001977,0.000335,-0.004542,-0.000236,0.000183,-0.499655,0.000632,-1.513658,-262.711774,-1.49383,65.444563
5.6153,-2.5e-05,0.010391,-0.000256,0.000354,-0.004543,2.5e-05,0.000863,-0.500018,0.001958,-1.507312,-262.709809,-1.49607,65.446232
5.6357,-0.000203,0.009968,-0.000187,0.000399,-0.004551,0.000584,-6.7e-05,-0.499651,-6.5e-05,-1.507312,-262.709809,-1.49607,65.446232
5.6557,-0.000165,0.010341,0.000656,0.000436,-0.004554,0.000983,-6.7e-05,-0.499651,-6.5e-05,-1.507312,-262.709809,-1.49607,65.446232
5.6758,0.000168,0.009868,0.000985,0.000467,-0.004553,0.001268,0.000185,-0.499849,0.000657,-1.492793,-262.707998,-1.49331,65.448055
5.6959,2.7e-05,0.009832,0.00297,0.00044,-0.004537,0.001012,0.000384,-0.499986,0.000791,-1.492793,-262.707998,-1.49331,65.448055
5.7158,-0.000376,0.009579,-0.000631,0.000418,-0.004524,0.00083,0.001557,-0.500306,0.003009,-1.447892,-262.706525,-1.483397,65.450124
5.736,6.4e-05,0.009494,0.001835,0.000505,-0.004524,0.00129,-0.000508,-0.500418,-0.000324,-1.447892,-262.706525,-1.483397,65.450124
5.7556,-0.000511,0.009888,0.000469,0.000576,-0.00452,0.00162,-0.000508,-0.500418,-0.000324,-1.447892,-262.706525,-1.483397,65.450124
5.7756,8.3e-05,0.009416,0.000815,0.000635,-0.004514,0.001858,-0.000255,-0.500299,0.000503,-1.46722,-262.704923,-1.487982,65.452127
5.7956,0.000526,0.009364,0.000641,0.000615,-0.004497,0.001514,5.5e-05,-0.500437,0.000635,-1.46722,-262.704923,-1.487982,65.452127
5.8158,0.000106,0.008966,0.002661,0.000597,-0.004485,0.001268,0.000871,-0.500763,0.000693,-1.392387,-262.703705,-1.458831,65.45414
5.8357,-0.000524,0.008778,0.000326,0.000408,-0.00441,0.0003,0.001409,-0.501014,0.00248,-1.392387,-262.703705,-1.458831,65.45414
5.8557,-0.000192,0.009113,0.001536,0.000251,-0.004359,-0.000405,0.001409,-0.501014,0.00248,-1.392387,-262.703705,-1.458831,65.45414
5.8759,-5.7e-05,0.00923,0.001252,0.000121,-0.004326,-0.000915,0.000617,-0.501073,0.001588,-1.411175,-262.702211,-1.45771,65.456245
5.896,3e-05,0.008992,0.000795,0.000118,-0.00434,-0.000855,0.000605,-0.500971,0.001458,-1.411175,-262.702211,-1.45771,65.456245
5.9156,-0.000269,0.009141,0.00024,0.000115,-0.004352,-0.000817,0.000442,-0.5011,0.000776,-1.4862,-262.700896,-1.532735,65.457259
5.9357,-0.000143,0.009008,0.000614,0.000204,-0.00438,-0.000199,-9.3e-05,-0.500885,0.000288,-1.4862,-262.700896,-1.532735,65.457259
5.9557,-0.000525,0.008857,0.000679,0.000277,-0.004399,0.000238,-9.3e-05,-0.500885,0.000288,-1.4862,-262.700896,-1.532735,65.457259
5.9757,0.000149,0.008481,0.002372,0.000338,-0.004412,0.000547,-0.000174,-0.501315,0.000647,-1.547172,-262.69907,-1.541055,65.45871
5.9957,0.000124,0.008584,0.002211,0.000312,-0.004394,0.000223,0.00045,-0.501417,0.001345,-1.547172,-262.69907,-1.541055,65.45871
6.0156,0.000205,0.00831,0.000438,0.000291,-0.004381,-8e-06,0.001261,-0.501544,0.002227,-1.488023,-262.697565,-1.499632,65.46046
6.0356,-0.000227,0.008589,0.001584,0.000264,-0.00437,0.000205,0.000503,-0.501684,0.000599,-1.488023,-262.697565,-1.499632,65.46046
6.0559,-0.000287,0.008228,0.001454,0.000243,-0.00436,0.000356,0.000503,-0.501684,0.000599,-1.488023,-262.697565,-1.499632,65.46046
6.0756,-0.000221,0.008394,0.000768,0.000226,-0.004352,0.000462,0.000467,-0.501954,0.001454,-1.504606,-262.695814,-1.504451,65.462206
6.0958,-0.000403,0.008462,0.000604,0.000231,-0.004338,0.000237,0.000348,-0.501834,0.001176,-1.504606,-262.695814,-1.504451,65.462206
6.1155,0.000127,0.007456,3.2e-05,0.000235,-0.004328,7.7e-05,-8.8e-05,-0.501676,0.000618,-1.515432,-262.694195,-1.522163,65.464049
6.1356,-0.000235,0.007979,0.001038,0.000271,-0.004308,0.000528,0.000121,-0.502467,8.9e-05,-1.515432,-262.694195,-1.522163,65.464049
6.1554,0.000176,0.007683,0.000749,0.0003,-0.00429,0.000851,0.000121,-0.502467,8.9e-05,-1.515432,-262.694195,-1.522163,65.464049
6.1759,-0.000346,0.007628,0.001535,0.000324,-0.004273,0.001081,0.000568,-0.502498,0.000752,-1.515849,-262.692481,-1.517029,65.465801
6.1961,6.6e-05,0.007751,0.00021,0.000279,-0.004243,0.000732,0.000515,-0.502467,0.001072,-1.515849,-262.692481,-1.517029,65.465801
6.2158,0.00012,0.007747,0.002968,0.000242,-0.00422,0.000483,0.000183,-0.502383,0.000244,-1.481426,-262.691061,-1.505274,65.467737
6.2363,-0.000107,0.007651,0.00122,6.8e-05,-0.004154,-0.000358,0.001504,-0.502269,0.002725,-1.481426,-262.691061,-1.505274,65.467737
6.2565,0.000305,0.007671,0.001715,-7.5e-05,-0.004111,-0.000968,0.001504,-0.502269,0.002725,-1.481426,-262.691061,-1.505274,65.467737
6.2756,8.3e-05,0.007247,0.001532,-0.000192,-0.004083,-0.001409,0.00119,-0.502504,0.001735,-1.509279,-262.689509,-1.517305,65.469521
6.296,-0.000283,0.007379,0.000861,-0.000229,-0.004081,-0.001296,0.00106,-0.502624,0.001655,-1.509279,-262.689509,-1.517305,65.469521
6.3157,-0.000166,0.007361,0.000934,-0.000258,-0.00408,-0.00122,0.000155,-0.502712,0.00083,-1.584377,-262.688139,-1.592402,65.470415
6.3356,-1.7e-05,0.007161,0.001571,-0.000159,-0.004102,-0.000822,0.000296,-0.50265,0.000923,-1.584377,-262.688139,-1.592402,65.470415
6.3556,-0.000251,0.007069,0.001582,-7.9e-05,-0.004117,-0.000543,0.000296,-0.50265,0.000923,-1.584377,-262.688139,-1.592402,65.470415
6.3757,7.1e-05,0.00707,-0.001072,-1.4e-05,-0.004126,-0.000346,0.000546,-0.503089,0.001534,-1.624274,-262.686346,-1.648093,65.471656
6.396,1.2e-05,0.00678,0.001734,6.5e-05,-0.004117,2e-05,0.000133,-0.503043,0.00048,-1.624274,-262.686346,-1.648093,65.471656
6.4158,-2.9e-05,0.006943,0.000517,0.000129,-0.004106,0.00028,0.000896,-0.503336,0.001724,-1.574017,-262.684819,-1.574364,65.473035
6.4359,6e-06,0.006575,0.000959,0.000151,-0.00409,0.000389,0.000294,-0.503088,0.000626,-1.574017,-262.684819,-1.574364,65.473035
6.4558,9.9e-05,0.007056,0.001453,0.000169,-0.004076,0.000467,0.000294,-0.503088,0.000626,-1.574017,-262.684819,-1.574364,65.473035
6.4757,-0.000318,0.006806,0.002739,0.000184,-0.004064,0.000524,0.000845,-0.503109,0.001465,-1.538094,-262.683304,-1.540707,65.474681
6.4961,-3.8e-05,0.006782,0.000681,8.1e-05,-0.004015,-6.7e-05,0.00094,-0.503162,0.001981,-1.538094,-262.683304,-1.540707,65.474681
6.5161,-0.000178,0.00636,0.000246,-3e-06,-0.003983,-0.000491,0.000315,-0.503347,0.000698,-1.521756,-262.681814,-1.528902,65.476425
6.536,-4.2e-05,0.006303,0.001537,0.000102,-0.003964,1.7e-05,-1.9e-05,-0.50362,0.000288,-1.521756,-262.681814,-1.528902,65.476425
6.5559,-3.6e-05,0.006525,0.000455,0.000186,-0.003946,0.000379,-1.9e-05,-0.50362,0.000288,-1.521756,-262.681814,-1.528902,65.476425
6.576,5.5e-05,0.005878,0.000712,0.000252,-0.003929,0.000638,0.000196,-0.503631,0.000436,-1.571387,-262.680215,-1.571484,65.4778
6.5961,-0.000322,0.006288,0.001424,0.000245,-0.003889,0.000688,0.000287,-0.503849,0.000546,-1.571387,-262.680215,-1.571484,65.4778
6.6158,0.000192,0.006192,0.0021,0.000239,-0.003856,0.000724,0.000411,-0.503821,0.001441,-1.499708,-262.678978,-1.512495,65.479308
6.636,6e-05,0.005914,0.000208,6.6e-05,-0.003784,6.4e-05,0.001186,-0.503814,0.002041,-1.499708,-262.678978,-1.512495,65.479308
6.6558,-0.000279,0.00645,0.001662,-7.3e-05,-0.003734,-0.000412,0.001186,-0.503814,0.002041,-1.499708,-262.678978,-1.512495,65.479308
6.6754,0.000188,0.005961,0.000398,-0.000185,-0.003701,-0.000754,0.000579,-0.503711,0.001692,-1.500833,-262.67761,-1.515201,65.481029
6.696,0.000115,0.0057,0.000215,-0.000147,-0.00371,-0.00061,0.000504,-0.503863,0.001167,-1.500833,-262.67761,-1.515201,65.481029
6.7159,-0.000129,0.005974,0.002554,-0.000117,-0.003716,-0.000509,0.000224,-0.504378,0.0002,-1.575826,-262.676508,-1.590195,65.481888
6.7355,-4.1e-05,0.005674,0.001587,-0.00021,-0.003667,-0.000942,0.001083,-0.504063,0.002328,-1.575826,-262.676508,-1.590195,65.481888
6.7557,-0.000159,0.005986,0.000592,-0.000285,-0.003634,-0.001252,0.001083,-0.504063,0.002328,-1.575826,-262.676508,-1.590195,65.481888
6.7756,-0.000197,0.00549,0.001354,-0.000345,-0.003612,-0.001473,0.000138,-0.504168,0.000571,-1.599871,-262.674917,-1.605177,65.483233
6.7956,0.000153,0.005605,0.001164,-0.000233,-0.003608,-0.000984,0.000282,-0.504325,0.000887,-1.599871,-262.674917,-1.605177,65.483233
6.8156,0.000311,0.005552,0.002435,-0.000145,-0.003601,-0.000639,0.000738,-0.504492,0.001124,-1.647114,-262.673393,-1.68018,65.484155
6.8361,0.000155,0.005529,0.000165,-0.000319,-0.003513,-0.001023,0.00148,-0.504455,0.002316,-1.647114,-262.673393,-1.68018,65.484155
6.856,3e-06,0.005635,0.000478,-0.000457,-0.003451,-0.001298,0.00148,-0.504455,0.002316,-1.647114,-262.673393,-1.68018,65.484155
6.8755,-0.000148,0.005235,0.000517,-0.000568,-0.003408,-0.001495,0.000241,-0.504503,0.000454,-1.607191,-262.671935,-1.61602,65.485328
6.8956,-0.000103,0.005314,0.001281,-0.000389,-0.003421,-0.000787,0.00019,-0.504625,0.000477,-1.607191,-262.671935,-1.61602,65.485328
6.9154,-0.000302,0.005149,0.000456,-0.000248,-0.003425,-0.000285,0.000551,-0.504685,0.001281,-1.682165,-262.671935,-1.541046,65.485328
6.9357,5.9e-05,0.005193,0.00044,-9.1e-05,-0.0034,3.2e-05,-1.3e-05,-0.504836,0.000531,-1.682165,-262.671935,-1.541046,65.485328
6.9556,0.000206,0.00535,0.002578,3.2e-05,-0.003378,0.000259,-1.3e-05,-0.504836,0.000531,-1.682165,-262.671935,-1.541046,65.485328
6.9754,0.0003,0.004819,0.001455,0.000129,-0.003359,0.000422,0.001514,-0.504765,0.002568,-1.639652,-262.67076,-1.616044,65.486389
6.9955,-5.8e-05,0.004995,0.000339,-8.4e-05,-0.00326,-0.000173,0.001319,-0.50495,0.002109,-1.639652,-262.67076,-1.616044,65.486389
7.0158,0.000174,0.00495,-0.00032,-0.000254,-0.003192,-0.000601,0.000116,-0.505084,0.000349,-1.564416,-262.669843,-1.540808,65.487458
7.0362,0.000107,0.004927,0.000956,-0.000101,-0.003201,0.000237,2e-05,-0.505057,-0.00026,-1.564416,-262.669843,-1.540808,65.487458
7.0557,-9.8e-05,0.004887,0.000215,1.9e-05,-0.003202,0.000839,2e-05,-0.505057,-0.00026,-1.564416,-262.669843,-1.540808,65.487458
7.0759,0.000127,0.005025,0.001547,0.000114,-0.003198,0.001272,6e-06,-0.50521,0.000197,-1.639208,-262.668813,-1.6156,65.488278
7.096,0.000141,0.005189,0.00101,0.000105,-0.003168,0.001048,0.000377,-0.505125,0.000746,-1.639208,-262.668813,-1.6156,65.488278
7.1156,0.000118,0.004675,0.001789,9.8e-05,-0.003146,0.000889,0.000657,-0.504887,0.00104,-1.564219,-262.668093,-1.54212,65.489459
7.1357,-3e-06,0.004784,0.000675,-5.2e-05,-0.003068,0.000319,0.000999,-0.505291,0.001728,-1.564219,-262.668093,-1.54212,65.489459
7.1558,-0.000101,0.004894,0.001323,-0.000171,-0.003015,-9e-05,0.000999,-0.505291,0.001728,-1.564219,-262.668093,-1.54212,65.489459
7.1759,-0.000232,0.004796,0.002526,-0.000265,-0.002979,-0.000383,0.000578,-0.505235,0.00136,-1.53323,-262.667067,-1.544279,65.490911
7.1963,0.000307,0.004388,0.000931,-0.000289,-0.002973,-0.000647,0.000775,-0.505236,0.001843,-1.53323,-262.667067,-1.544279,65.490911
7.2157,0.000149,0.004437,0.001492,-0.000309,-0.00297,-0.000835,0.000779,-0.505672,0.000923,-1.608185,-262.666263,-1.619234,65.491599
7.2361,0.000107,0.004484,0.001449,-0.00036,-0.002913,-0.00079,0.000899,-0.505574,0.001443,-1.608185,-262.666263,-1.619234,65.491599
7.2561,0.000279,0.004772,0.001154,-0.0004,-0.002871,-0.000758,0.000899,-0.505574,0.001443,-1.608185,-262.666263,-1.619234,65.491599
7.2758,-4.2e-05,0.00423,0.002226,-0.000431,-0.002839,-0.000735,0.000857,-0.505336,0.001124,-1.659321,-262.665045,-1.694239,65.492463
7.2957,-2.6e-05,0.004354,0.000593,-0.000467,-0.002822,-0.000776,0.000952,-0.505525,0.001569,-1.659321,-262.665045,-1.694239,65.492463
7.3157,8.3e-05,0.004494,0.00034,-0.000496,-0.002809,-0.000805,0.000276,-0.505645,0.000593,-1.701208,-262.665045,-1.619396,65.492463
7.3356,-0.000221,0.00416,0.000206,-0.000352,-0.002836,-0.000233,0.000259,-0.505519,0.000363,-1.701208,-262.665045,-1.619396,65.492463
7.3555,-7.1e-05,0.004186,0.00012,-0.000238,-0.002852,0.000175,0.000259,-0.505519,0.000363,-1.701208,-262.665045,-1.619396,65.492463
7.3754,6.6e-05,0.004714,5e-05,-0.000149,-0.002862,0.000464,-1e-05,-0.505814,0.00012,-1.719819,-262.665045,-1.54439,65.492463
7.3957,-0.000289,0.004364,0.00089,-2.4e-05,-0.002861,0.00081,3.1e-05,-0.505598,9.2e-05,-1.719819,-262.665045,-1.54439,65.492463
7.4161,-0.000223,0.004117,0.00026,7.4e-05,-0.002858,0.001058,0.000161,-0.505708,0.000902,-1.644827,-262.664217,-1.618248,65.493474
7.4361,0.000102,0.003987,0.00251,0.000178,-0.002801,0.0011,-6.7e-05,-0.50587,0.000321,-1.644827,-262.664217,-1.618248,65.493474
7.4558,-0.000113,0.004022,0.001551,0.000258,-0.002756,0.001134,-6.7e-05,-0.50587,0.000321,-1.644827,-262.664217,-1.618248,65.493474
7.4758,-0.000107,0.0043,0.001704,0.00032,-0.002721,0.001161,0.00068,-0.506069,0.001585,-1.569813,-262.663534,-1.549591,65.494555
7.4955,0.000385,0.003639,0.000602,0.000171,-0.002648,0.000554,0.000714,-0.505927,0.001638,-1.569813,-262.663534,-1.549591,65.494555
7.5153,0.000199,0.003958,0.003042,5.5e-05,-0.002599,0.000119,0.000696,-0.506414,0.000625,-1.494703,-262.66303,-1.47767,65.495407
7.5356,0.000225,0.003964,0.001983,-0.00025,-0.002464,-0.000622,0.001656,-0.506076,0.002826,-1.494703,-262.66303,-1.47767,65.495407
7.5555,-0.000404,0.003956,0.000754,-0.000493,-0.002374,-0.001159,0.001656,-0.506076,0.002826,-1.494703,-262.66303,-1.47767,65.495407
7.5756,-0.000356,0.004216,0.00058,-0.000687,-0.002314,-0.001548,-1.8e-05,-0.50614,0.000758,-1.549176,-262.662144,-1.550357,65.496344
7.5956,-6.7e-05,0.00379,0.00161,-0.000426,-0.002374,-0.000923,-3.5e-05,-0.506007,0.000686,-1.549176,-262.662144,-1.550357,65.496344
7.6154,-0.000374,0.003798,0.001588,-0.000222,-0.002415,-0.000483,0.000754,-0.50621,0.00161,-1.474183,-262.662144,-1.475364,65.496344
7.6355,-0.000459,0.003946,0.00164,-0.000195,-0.002392,-0.000606,0.000463,-0.506202,0.00159,-1.474183,-262.662144,-1.475364,65.496344
7.6557,0.00043,0.004017,0.000534,-0.000175,-0.002374,-0.000695,0.000463,-0.506202,0.00159,-1.474183,-262.662144,-1.475364,65.496344
7.6757,3.1e-05,0.003741,0.001525,-0.000159,-0.002362,-0.000757,0.000703,-0.506015,0.000527,-1.549339,-262.661802,-1.55052,65.496612
7.6955,-0.00014,0.003762,0.001717,-0.000216,-0.002367,-0.00047,0.000746,-0.506118,0.000934,-1.549339,-262.661802,-1.55052,65.496612
7.7155,-0.000375,0.003965,0.001429,-0.00026,-0.002372,-0.000268,0.000732,-0.506294,0.001699,-1.624327,-262.660939,-1.625508,65.497194
7.7356,-0.000139,0.003796,0.000428,-0.000204,-0.002394,-0.000392,0.000388,-0.506061,0.001453,-1.624327,-262.660939,-1.625508,65.497194
7.7559,-0.000295,0.004024,0.002098,-0.000161,-0.00241,-0.00048,0.000388,-0.506061,0.001453,-1.624327,-262.660939,-1.625508,65.497194
7.776,5.4e-05,0.003253,0.001441,-0.000127,-0.002423,-0.000542,0.000766,-0.506065,0.002088,-1.673045,-262.660018,-1.688056,65.497998
7.7958,-4.4e-05,0.00371,0.001582,-0.000206,-0.002356,-0.00075,0.000774,-0.506354,0.001822,-1.673045,-262.660018,-1.688056,65.497998
7.8156,-0.000162,0.003671,0.002512,-0.000267,-0.002308,-0.000896,0.000759,-0.506359,0.001566,-1.617053,-262.65902,-1.631674,65.498756
7.8356,-0.000198,0.0032,-3e-06,-0.000394,-0.002253,-0.001237,0.001087,-0.506333,0.002428,-1.617053,-262.65902,-1.631674,65.498756
7.8559,-2e-05,0.003447,-2.2e-05,-0.000493,-0.002216,-0.00148,0.001087,-0.506333,0.002428,-1.617053,-262.65902,-1.631674,65.498756
7.8763,9e-05,0.003546,-0.000228,-0.000572,-0.002193,-0.001653,-4e-05,-0.506635,-5.4e-05,-1.664046,-262.658047,-1.706734,65.49936
7.8956,-7.2e-05,0.003406,0.001187,-0.000331,-0.002181,-0.000588,-3.5e-05,-0.506571,-0.000129,-1.664046,-262.658047,-1.706734,65.49936
7.9162,-0.000241,0.003392,0.001241,-0.000143,-0.002163,0.000177,0.000533,-0.506594,0.001187,-1.589101,-262.658047,-1.631789,65.49936
7.9357,-0.000106,0.002974,0.001938,-0.000121,-0.002119,2.6e-05,0.000402,-0.506607,0.001237,-1.589101,-262.658047,-1.631789,65.49936
7.9561,0.00012,0.003403,0.00202,-0.000104,-0.002085,-8.1e-05,0.000402,-0.506607,0.001237,-1.589101,-262.658047,-1.631789,65.49936
7.9757,2.4e-05,0.003342,0.00141,-9.1e-05,-0.00206,-0.000157,0.001144,-0.506683,0.002028,-1.640145,-262.657262,-1.633558,65.500227
7.9961,-0.000154,0.003303,0.000848,-0.000237,-0.001996,-0.000442,0.000982,-0.506682,0.001779,-1.640145,-262.657262,-1.633558,65.500227
8.0156,-0.000105,0.003573,0.000951,-0.000352,-0.001952,-0.000646,0.000276,-0.506762,0.000843,-1.613069,-262.656412,-1.617182,65.501002
8.0357,-0.000125,0.002875,0.001235,-0.000275,-0.002001,-0.000404,0.000371,-0.506459,0.000942,-1.613069,-262.656412,-1.617182,65.501002
8.0556,-0.000202,0.002938,0.000249,-0.000215,-0.002036,-0.000233,0.000371,-0.506459,0.000942,-1.613069,-262.656412,-1.617182,65.501002
8.0759,-7.8e-05,0.003752,0.001902,-0.000169,-0.002061,-0.000114,-7.5e-05,-0.507062,0.000249,-1.688169,-262.656412,-1.542083,65.501002
8.0964,-2.7e-05,0.00354,0.002131,-0.000121,-0.002022,-3.6e-05,0.000325,-0.506725,0.000933,-1.688169,-262.656412,-1.542083,65.501002
8.1157,-0.000189,0.002957,0.000481,-8.4e-05,-0.001992,2e-05,0.001057,-0.506512,0.002128,-1.649865,-262.65573,-1.61723,65.50164
8.1359,-4.2e-05,0.003222,0.000675,1e-06,-0.001904,0.000209,0.000133,-0.507005,0.000607,-1.649865,-262.65573,-1.61723,65.50164
8.1558,-9.7e-05,0.003452,0.000882,6.6e-05,-0.001837,0.000348,0.000133,-0.507005,0.000607,-1.649865,-262.65573,-1.61723,65.50164
8.1757,-0.000119,0.003437,0.000918,0.000117,-0.001786,0.00045,0.000349,-0.506628,0.000883,-1.613196,-262.654959,-1.612676,65.50242
8.1957,-7e-05,0.003442,0.001625,9.5e-05,-0.001832,0.000399,0.000349,-0.506611,0.000897,-1.613196,-262.654959,-1.612676,65.50242
8.2157,-0.000346,0.00278,0.001225,7.8e-05,-0.001867,0.000363,0.00076,-0.506596,0.001635,-1.538649,-262.654547,-1.538128,65.502982
8.2356,-0.000663,0.003137,0.001045,6.8e-05,-0.001755,0.00013,0.000322,-0.507165,0.001263,-1.538649,-262.654547,-1.538128,65.502982
8.2555,-0.000276,0.003048,0.002178,6.1e-05,-0.001674,-3.2e-05,0.000322,-0.507165,0.001263,-1.538649,-262.654547,-1.538128,65.502982
8.2754,6.5e-05,0.003268,-0.000688,5.4e-05,-0.001614,-0.000144,0.000839,-0.507028,0.002193,-1.523533,-262.653891,-1.533565,65.503815
8.2957,0.000137,0.003032,0.00159,3.4e-05,-0.001634,-8.7e-05,0.000381,-0.506916,0.001021,-1.523533,-262.653891,-1.533565,65.503815
8.3158,4.2e-05,0.002853,0.001503,1.8e-05,-0.001649,-4.7e-05,0.00095,-0.507019,0.001586,-1.538937,-262.653212,-1.53526,65.504423
8.3359,-0.00027,0.003184,0.001398,-0.000121,-0.001585,-0.000247,0.000821,-0.507137,0.001511,-1.538937,-262.653212,-1.53526,65.504423
8.3561,0.000194,0.002813,0.000863,-0.00023,-0.00154,-0.000388,0.000821,-0.507137,0.001511,-1.538937,-262.653212,-1.53526,65.504423
8.3759,-0.000375,0.003009,-0.000146,-0.000315,-0.001509,-0.000489,0.000635,-0.507254,0.000861,-1.55989,-262.652552,-1.559506,65.505061
8.3956,-8.7e-05,0.002856,0.001215,-0.000198,-0.00151,-5.4e-05,0.000198,-0.507156,0.000455,-1.55989,-262.652552,-1.559506,65.505061
8.4158,-1.2e-05,0.002968,0.001422,-0.000109,-0.001508,0.000256,0.000532,-0.507143,0.001215,-1.634917,-262.652552,-1.48448,65.505061
8.4356,-0.000449,0.002924,-0.000872,-0.000184,-0.00151,2.2e-05,0.000696,-0.507042,0.001403,-1.634917,-262.652552,-1.48448,65.505061
8.4559,-2e-06,0.002639,0.002531,-0.000243,-0.001514,-0.000145,0.000696,-0.507042,0.001403,-1.634917,-262.652552,-1.48448,65.505061
8.4757,-4e-05,0.003047,0.000966,-0.00029,-0.001518,-0.000264,0.001288,-0.507403,0.002539,-1.650917,-262.652178,-1.559467,65.505521
8.4959,5.8e-05,0.002857,-0.000248,-0.0004,-0.001461,-0.000571,0.000948,-0.507225,0.0019,-1.650917,-262.652178,-1.559467,65.505521
8.5155,-9.1e-05,0.00253,-0.000506,-0.000487,-0.001421,-0.00079,-6.9e-05,-0.507143,-0.000248,-1.725975,-262.652178,-1.484409,65.505521
8.5358,-0.000104,0.002952,0.001308,-0.000168,-0.001384,0.000185,-0.000326,-0.507443,-0.000485,-1.725975,-262.652178,-1.484409,65.505521
8.5558,-0.000305,0.002997,0.002239,8.1e-05,-0.001349,0.000891,-0.000326,-0.507443,-0.000485,-1.725975,-262.652178,-1.484409,65.505521
8.5761,-0.000252,0.002874,0.001477,0.000273,-0.001318,0.001406,0.000837,-0.507002,0.002239,-1.650819,-262.652178,-1.409254,65.505521
8.5961,-0.000125,0.002496,0.001428,0.000115,-0.001347,0.000642,0.0007,-0.507052,0.001928,-1.650819,-262.652178,-1.409254,65.505521
8.6161,-7.4e-05,0.002756,0.001969,-1e-05,-0.001376,8.8e-05,0.000603,-0.507504,0.001428,-1.576033,-262.652178,-1.44618,65.505522
8.6358,-3.5e-05,0.002841,0.001599,0.0,0.0,0.0,0.000901,-0.507266,0.00192,-1.576033,-262.652178,-1.44618,65.505522
