mach0312/omni-docking-bench/src/icros_test_setup/results/MPPI_sample/timeseries/trial_094.csv
t,x,y,yaw,vx,vy,wz,bl_x,bl_y,bl_yaw,front_steering_joint,front_wheel_joint,rear_steering_joint,rear_wheel_joint
0.0,0.029821,0.028918,-0.052803,-0.006222,0.001755,-0.003078,0.004811,-0.480973,-0.050555,0.019994,-262.796944,-0.528697,66.740605
0.0004,0.030304,0.028543,-0.049804,0.0,0.0,0.0,0.004382,-0.48093,-0.051312,0.019994,-262.800063,-0.528697,66.736993
0.0006,0.029921,0.02877,-0.052347,0.0,0.0,0.0,0.004517,-0.480563,-0.050806,0.019994,-262.802203,-0.528697,66.734516
0.0009,0.030103,0.029145,-0.051074,0.0,0.0,0.0,0.004517,-0.480563,-0.050806,0.019994,-262.803555,-0.528697,66.73295
0.0012,0.029826,0.02861,-0.051153,0.0,0.0,0.0,0.004517,-0.480563,-0.050806,0.019994,-262.803555,-0.528697,66.73295
0.0014,0.030007,0.029053,-0.051184,0.0,0.0,0.0,0.003263,-0.480579,-0.052324,0.019994,-262.803555,-0.528697,66.73295
0.0017,0.029484,0.02869,-0.051433,0.0,0.0,0.0,0.003263,-0.480579,-0.052324,0.019994,-262.803555,-0.528697,66.73295
0.0019,0.030329,0.028856,-0.051302,0.0,0.0,0.0,0.003661,-0.480701,-0.051799,0.019994,-262.803555,-0.528697,66.73295
0.0021,0.03019,0.028679,-0.049612,0.0,0.0,0.0,0.003661,-0.480701,-0.051799,0.019994,-262.803555,-0.528697,66.73295
0.0023,0.030082,0.028693,-0.052366,0.0,0.0,0.0,0.003046,-0.480632,-0.05278,0.019994,-262.803555,-0.528697,66.73295
0.0173,0.029871,0.028832,-0.052204,0.0,0.0,0.0,0.003387,-0.480608,-0.052366,0.019994,-262.803555,-0.528697,66.73295
0.0374,0.030054,0.029091,-0.05196,0.0,0.0,0.0,0.003271,-0.480486,-0.052219,0.019994,-262.803555,-0.528697,66.73295
0.0573,0.030066,0.028524,-0.051569,0.0,0.0,0.0,0.003271,-0.480486,-0.052219,0.019994,-262.803555,-0.528697,66.73295
0.0772,0.030582,0.029135,-0.051334,0.0,0.0,0.0,0.003777,-0.480798,-0.051569,0.019994,-262.803555,-0.528697,66.73295
0.0975,0.030317,0.028223,-0.051021,0.0,0.0,0.0,0.004038,-0.480551,-0.051473,0.019994,-262.803555,-0.528697,66.73295
0.1172,0.030008,0.029004,-0.05189,0.000909,-0.002945,0.00775,0.004307,-0.481114,-0.051021,0.019994,-262.803555,-0.528697,66.73295
0.1375,0.030296,0.028643,-0.051391,0.001018,-0.003214,0.008272,0.003624,-0.480382,-0.051811,0.019994,-262.803555,-0.528697,66.73295
0.1572,0.029868,0.028914,-0.052451,0.001118,-0.003443,0.008671,0.003624,-0.480382,-0.051811,0.019994,-262.803555,-0.528697,66.73295
0.1771,0.03016,0.028796,-0.052198,0.001208,-0.003637,0.008973,0.00313,-0.480385,-0.052451,0.094988,-262.803555,-0.603691,66.73295
0.197,0.029753,0.028899,-0.051278,0.001299,-0.003802,0.009267,0.0033,-0.480435,-0.052349,0.094988,-262.803555,-0.603691,66.73295
0.217,0.0302,0.029035,-0.051186,0.001381,-0.003942,0.009491,0.003613,-0.480431,-0.051278,0.169991,-262.803555,-0.678695,66.73295
0.2373,0.029839,0.029001,-0.051729,0.001425,-0.004061,0.009659,0.004064,-0.480309,-0.051194,0.169991,-262.803555,-0.678695,66.73295
0.2575,0.030124,0.028572,-0.051155,0.001465,-0.004161,0.009786,0.004064,-0.480309,-0.051194,0.169991,-262.803555,-0.678695,66.73295
0.2773,0.030292,0.028528,-0.050708,0.001503,-0.004246,0.009883,0.004047,-0.480761,-0.051155,0.245083,-262.803555,-0.753786,66.73295
0.2974,0.030293,0.028802,-0.05149,0.001529,-0.004318,0.009955,0.004208,-0.480784,-0.050972,0.245083,-262.803555,-0.753786,66.73295
0.3172,0.029943,0.028547,-0.049588,0.001554,-0.004379,0.010009,0.004045,-0.480522,-0.05149,0.320075,-262.803555,-0.828779,66.73295
0.3373,0.029994,0.028898,-0.052045,0.001561,-0.00443,0.010047,0.00461,-0.4808,-0.049751,0.320075,-262.803555,-0.828779,66.73295
0.3574,0.030196,0.028937,-0.052764,0.00157,-0.004473,0.010075,0.00461,-0.4808,-0.049751,0.320075,-262.803555,-0.828779,66.73295
0.3772,0.03008,0.029128,-0.051957,0.001578,-0.00451,0.010095,0.003299,-0.480353,-0.052764,0.395103,-262.803555,-0.903806,66.73295
0.3973,0.030453,0.028837,-0.051333,0.001631,-0.004543,0.010113,0.00342,-0.480284,-0.052433,0.395103,-262.803555,-0.903806,66.73295
0.4176,0.030191,0.028913,-0.049259,0.001677,-0.004572,0.010125,0.004284,-0.480492,-0.051333,0.470173,-262.803554,-0.978877,66.732953
0.4371,0.03027,0.028761,-0.051709,0.001659,-0.004595,0.010128,0.005008,-0.480471,-0.049446,0.470173,-262.803554,-0.978877,66.732953
0.4573,0.029927,0.028691,-0.050997,0.001646,-0.004614,0.01013,0.005008,-0.480471,-0.049446,0.470173,-262.803554,-0.978877,66.732953
0.4773,0.030148,0.028632,-0.051239,0.001635,-0.00463,0.010131,0.003931,-0.480647,-0.050993,0.5452,-262.803545,-1.053904,66.732997
0.4972,0.030132,0.028605,-0.052612,0.001662,-0.004645,0.010134,0.00397,-0.480668,-0.051092,0.5452,-262.803545,-1.053904,66.732997
0.517,0.030064,0.028855,-0.051724,0.001685,-0.004659,0.010135,0.003317,-0.480696,-0.052597,0.619986,-262.803498,-1.128689,66.733225
0.537,0.029775,0.028787,-0.052575,0.001716,-0.004671,0.010136,0.003662,-0.480484,-0.051803,0.619986,-262.803498,-1.128689,66.733225
0.557,0.030116,0.028832,-0.049805,0.001743,-0.004681,0.010137,0.003662,-0.480484,-0.051803,0.619986,-262.803498,-1.128689,66.733225
0.577,0.029904,0.028978,-0.05019,0.001766,-0.004691,0.010136,0.004749,-0.480575,-0.049721,0.694976,-262.803308,-1.20368,66.734139
0.5972,0.030146,0.029115,-0.051125,0.001753,-0.004698,0.010132,0.004576,-0.4805,-0.049902,0.694976,-262.803308,-1.20368,66.734139
0.617,0.030066,0.028556,-0.051469,0.001742,-0.004704,0.010128,0.00412,-0.480293,-0.050966,0.704134,-262.802842,-1.278692,66.736361
0.6371,0.029924,0.028836,-0.053523,0.001758,-0.004709,0.010128,0.003854,-0.480732,-0.05142,0.704134,-262.802842,-1.278692,66.736361
0.6572,0.030076,0.028482,-0.052248,0.001772,-0.004715,0.010127,0.003854,-0.480732,-0.05142,0.704134,-262.802842,-1.278692,66.736361
0.677,0.029752,0.028367,-0.051642,0.001783,-0.004719,0.010126,0.003499,-0.480972,-0.051933,0.704932,-262.802155,-1.353806,66.739669
0.6968,0.029837,0.028333,-0.048707,0.001805,-0.004723,0.010203,0.003476,-0.480981,-0.05178,0.704932,-262.802155,-1.353806,66.739669
0.7167,0.029847,0.028396,-0.050192,0.001824,-0.004727,0.010264,0.005053,-0.481207,-0.048402,0.687824,-262.80128,-1.408672,66.743861
0.7368,0.02956,0.028264,-0.051763,0.001808,-0.004729,0.010357,0.004334,-0.480992,-0.050014,0.687824,-262.80128,-1.408672,66.743861
0.7568,0.029868,0.028552,-0.049856,0.001795,-0.004731,0.010431,0.004334,-0.480992,-0.050014,0.687824,-262.80128,-1.408672,66.743861
0.7769,0.02958,0.027808,-0.051023,0.001784,-0.004733,0.010492,0.004518,-0.481015,-0.049428,0.701926,-262.800327,-1.406415,66.748305
0.797,0.029412,0.02791,-0.051583,0.00178,-0.004734,0.010586,0.004141,-0.481247,-0.050026,0.701926,-262.800327,-1.406415,66.748305
0.8173,0.029236,0.027887,-0.047679,0.001777,-0.004735,0.010663,0.003163,-0.481559,-0.051262,0.753954,-262.79939,-1.411995,66.752624
0.8371,0.029452,0.027917,-0.048313,0.001749,-0.004734,0.010762,0.004752,-0.481544,-0.048026,0.753954,-262.79939,-1.411995,66.752624
0.8574,0.029402,0.027436,-0.049223,0.001726,-0.004733,0.010843,0.004752,-0.481544,-0.048026,0.753954,-262.79939,-1.411995,66.752624
0.8771,0.02873,0.027672,-0.049766,0.001707,-0.004732,0.01091,0.004372,-0.482145,-0.048783,0.785675,-262.798401,-1.414099,66.757106
0.8974,0.029106,0.027446,-0.048021,0.001714,-0.004732,0.011004,0.003971,-0.481987,-0.04913,0.785675,-262.798401,-1.414099,66.757106
0.917,0.028926,0.027461,-0.047864,0.00172,-0.004732,0.011082,0.00467,-0.482111,-0.047694,0.846969,-262.797431,-1.422132,66.761441
0.9372,0.029028,0.027563,-0.048068,0.001703,-0.004731,0.011176,0.00454,-0.481976,-0.047832,0.846969,-262.797431,-1.422132,66.761441
0.9578,0.028986,0.027538,-0.047225,0.001689,-0.00473,0.011254,0.00454,-0.481976,-0.047832,0.846969,-262.797431,-1.422132,66.761441
0.9771,0.028965,0.026842,-0.047904,0.001677,-0.004729,0.011318,0.004973,-0.482094,-0.046763,0.869201,-262.796373,-1.422308,66.766056
0.9968,0.028448,0.027009,-0.047476,0.001654,-0.004727,0.011405,0.004807,-0.48231,-0.047171,0.869201,-262.796373,-1.422308,66.766056
1.017,0.028662,0.027102,-0.044612,0.001635,-0.004725,0.011477,0.004289,-0.482564,-0.047129,0.915733,-262.79531,-1.427707,66.770601
1.037,0.028531,0.026603,-0.047555,0.001581,-0.00472,0.011564,0.005776,-0.482413,-0.044817,0.915733,-262.79531,-1.427707,66.770601
1.057,0.028281,0.026863,-0.04826,0.001536,-0.004714,0.011638,0.005776,-0.482413,-0.044817,0.915733,-262.79531,-1.427707,66.770601
1.0771,0.028885,0.026305,-0.045955,0.001498,-0.004709,0.011699,0.003735,-0.48274,-0.047789,0.949433,-262.794207,-1.432341,66.775252
1.0973,0.028567,0.02678,-0.046353,0.001512,-0.004709,0.011782,0.004441,-0.482932,-0.046989,0.949433,-262.794207,-1.432341,66.775252
1.1167,0.02775,0.026904,-0.046642,0.001523,-0.004708,0.01185,0.004973,-0.482813,-0.046008,1.019328,-262.793152,-1.445069,66.779659
1.1369,0.028124,0.026445,-0.046014,0.001548,-0.00471,0.011925,0.004064,-0.482573,-0.046567,1.019328,-262.793152,-1.445069,66.779659
1.1568,0.028533,0.026668,-0.046944,0.001568,-0.004711,0.011987,0.004064,-0.482573,-0.046567,1.019328,-262.793152,-1.445069,66.779659
1.177,0.027939,0.026387,-0.046424,0.001585,-0.004712,0.012037,0.004655,-0.482969,-0.046449,1.028648,-262.791973,-1.443962,66.784469
1.1971,0.027781,0.026189,-0.046128,0.00158,-0.004713,0.012088,0.004504,-0.483031,-0.046382,1.028648,-262.791973,-1.443962,66.784469
1.217,0.027301,0.026138,-0.04275,0.001575,-0.004713,0.012131,0.004308,-0.483421,-0.045744,1.029932,-262.79074,-1.440157,66.789341
1.2375,0.02749,0.026025,-0.044416,0.001532,-0.004709,0.01217,0.005403,-0.483406,-0.042992,1.029932,-262.79074,-1.440157,66.789341
1.2574,0.027523,0.026354,-0.045257,0.001496,-0.004705,0.012202,0.005403,-0.483406,-0.042992,1.029932,-262.79074,-1.440157,66.789341
1.277,0.027686,0.02554,-0.045392,0.001466,-0.004702,0.01223,0.004507,-0.483323,-0.044751,1.042107,-262.78949,-1.441581,66.794234
1.2972,0.027697,0.02575,-0.043837,0.001474,-0.004701,0.012262,0.004529,-0.483601,-0.04496,1.042107,-262.78949,-1.441581,66.794234
1.317,0.027263,0.02535,-0.04273,0.00148,-0.004701,0.012289,0.005386,-0.483907,-0.04346,1.083716,-262.788271,-1.450924,66.799008
1.3368,0.027363,0.025666,-0.044709,0.001442,-0.004697,0.012311,0.005473,-0.48417,-0.042768,1.083716,-262.788271,-1.450924,66.799008
1.3571,0.02724,0.025791,-0.042324,0.001411,-0.004693,0.012331,0.005473,-0.48417,-0.042768,1.083716,-262.788271,-1.450924,66.799008
1.3769,0.026928,0.025294,-0.043692,0.001385,-0.004689,0.012347,0.005714,-0.48395,-0.041814,1.085251,-262.787011,-1.45017,66.803893
1.3971,0.026618,0.025008,-0.042539,0.001371,-0.004686,0.012368,0.005287,-0.484083,-0.042521,1.085251,-262.787011,-1.45017,66.803893
1.4169,0.026907,0.024726,-0.041143,0.001358,-0.004684,0.012385,0.004967,-0.484679,-0.042152,1.118716,-262.785765,-1.458026,66.808731
1.4372,0.02646,0.025152,-0.041919,0.001318,-0.004678,0.012401,0.005849,-0.484835,-0.041211,1.118716,-262.785765,-1.458026,66.808731
1.457,0.026788,0.024879,-0.041963,0.001285,-0.004672,0.012415,0.005849,-0.484835,-0.041211,1.118716,-262.785765,-1.458026,66.808731
1.4776,0.026261,0.024567,-0.041993,0.001257,-0.004667,0.012427,0.005442,-0.484869,-0.041447,1.13009,-262.784496,-1.460359,66.813644
1.4971,0.02667,0.0246,-0.042176,0.001257,-0.004666,0.012444,0.005209,-0.484939,-0.041607,1.13009,-262.784496,-1.460359,66.813644
1.517,0.026177,0.024649,-0.04113,0.001257,-0.004665,0.012458,0.0052,-0.485094,-0.041787,1.164697,-262.783249,-1.468621,66.818473
1.5374,0.02658,0.024785,-0.039283,0.001257,-0.004664,0.012472,0.005208,-0.484943,-0.04117,1.164697,-262.783249,-1.468621,66.818473
1.5572,0.026185,0.024818,-0.040289,0.001256,-0.004663,0.012485,0.005208,-0.484943,-0.04117,1.164697,-262.783249,-1.468621,66.818473
1.5772,0.026089,0.024389,-0.03963,0.001255,-0.004663,0.012495,0.005688,-0.484966,-0.039767,1.167167,-262.781969,-1.468722,66.823407
1.597,0.026115,0.024741,-0.040008,0.00123,-0.004659,0.012504,0.005772,-0.485088,-0.039652,1.167167,-262.781969,-1.468722,66.823407
1.617,0.025557,0.024053,-0.039883,0.001209,-0.004656,0.012512,0.005751,-0.485002,-0.039609,1.170736,-262.78068,-1.469055,66.828349
1.6372,0.025439,0.024341,-0.037856,0.001206,-0.004655,0.012525,0.005272,-0.4855,-0.039838,1.170736,-262.78068,-1.469055,66.828349
1.657,0.025483,0.02422,-0.041289,0.001204,-0.004654,0.012536,0.005272,-0.4855,-0.039838,1.170736,-262.78068,-1.469055,66.828349
1.6771,0.025383,0.024074,-0.03838,0.001203,-0.004653,0.012545,0.004474,-0.485542,-0.040766,1.186202,-262.779395,-1.472832,66.833278
1.697,0.025786,0.0241,-0.038816,0.00121,-0.004653,0.012555,0.005025,-0.485568,-0.039734,1.186202,-262.779395,-1.472832,66.833278
1.717,0.024761,0.02386,-0.03826,0.001216,-0.004654,0.012563,0.006027,-0.485665,-0.038417,1.190521,-262.778101,-1.473443,66.83822
1.7371,0.024934,0.023661,-0.038105,0.001206,-0.004653,0.012569,0.005324,-0.485765,-0.038254,1.190521,-262.778101,-1.473443,66.83822
1.757,0.024669,0.023911,-0.038607,0.001198,-0.004651,0.012575,0.005324,-0.485765,-0.038254,1.190521,-262.778101,-1.473443,66.83822
1.7774,0.025466,0.023456,-0.038677,0.001191,-0.00465,0.012579,0.005027,-0.485906,-0.03808,1.187744,-262.776799,-1.472436,66.843173
1.7969,0.025109,0.0238,-0.037196,0.001182,-0.004648,0.012584,0.005324,-0.486033,-0.038262,1.187744,-262.776799,-1.472436,66.843173
1.817,0.024525,0.022942,-0.038208,0.001175,-0.004647,0.012589,0.006176,-0.485997,-0.036795,1.196747,-262.775498,-1.474563,66.848123
1.8372,0.02452,0.023303,-0.037604,0.00117,-0.004646,0.012594,0.005147,-0.486632,-0.038061,1.196747,-262.775498,-1.474563,66.848123
1.8575,0.024516,0.023306,-0.037611,0.001165,-0.004644,0.012598,0.005147,-0.486632,-0.038061,1.196747,-262.775498,-1.474563,66.848123
1.877,0.024312,0.023153,-0.037692,0.001162,-0.004643,0.012602,0.005381,-0.48653,-0.037084,1.202216,-262.774194,-1.475853,66.853077
1.8969,0.024246,0.022587,-0.037845,0.001154,-0.004642,0.012606,0.005269,-0.486534,-0.03727,1.202216,-262.774194,-1.475853,66.853077
1.9174,0.024116,0.022492,-0.035101,0.001147,-0.004641,0.012609,0.004981,-0.487197,-0.037444,1.20721,-262.77287,-1.476925,66.8581
1.937,0.023958,0.022744,-0.034678,0.001097,-0.004631,0.012608,0.006134,-0.4872,-0.035247,1.20721,-262.77287,-1.476925,66.8581
1.9575,0.024149,0.022843,-0.035424,0.001054,-0.004623,0.012608,0.006134,-0.4872,-0.035247,1.20721,-262.77287,-1.476925,66.8581
1.9771,0.023812,0.022753,-0.034391,0.001019,-0.004615,0.012609,0.006127,-0.487029,-0.034906,1.212143,-262.771581,-1.478106,66.862988
1.997,0.024059,0.022477,-0.03476,0.000989,-0.004608,0.012611,0.006192,-0.487018,-0.034635,1.212143,-262.771581,-1.478106,66.862988
2.0167,0.02306,0.022369,-0.034481,0.000963,-0.004602,0.012614,0.006362,-0.487359,-0.034369,1.2519,-262.770316,-1.488254,66.8678
2.0372,0.023274,0.022592,-0.034862,0.000964,-0.004601,0.012619,0.005558,-0.487338,-0.034451,1.2519,-262.770316,-1.488254,66.8678
2.057,0.023675,0.022235,-0.034711,0.000964,-0.0046,0.012622,0.005558,-0.487338,-0.034451,1.2519,-262.770316,-1.488254,66.8678
2.077,0.023252,0.0222,-0.034511,0.000965,-0.004599,0.012626,0.006009,-0.48765,-0.034187,1.269743,-262.769024,-1.492702,66.872711
2.097,0.023194,0.022225,-0.035641,0.000948,-0.004596,0.012627,0.005869,-0.48761,-0.034258,1.269743,-262.769024,-1.492702,66.872711
2.1168,0.022871,0.022185,-0.035125,0.000934,-0.004592,0.012628,0.005047,-0.487599,-0.035238,1.270213,-262.767719,-1.492603,66.877657
2.137,0.02298,0.022173,-0.033067,0.000963,-0.004596,0.012633,0.004969,-0.487516,-0.035115,1.270213,-262.767719,-1.492603,66.877657
2.157,0.022638,0.021938,-0.034738,0.000987,-0.0046,0.012638,0.004969,-0.487516,-0.035115,1.270213,-262.767719,-1.492603,66.877657
2.177,0.02267,0.021828,-0.032765,0.001007,-0.004603,0.012641,0.004958,-0.487948,-0.034211,1.279837,-262.766417,-1.495008,66.88259
2.197,0.022549,0.021568,-0.033893,0.000999,-0.004602,0.01264,0.005376,-0.487949,-0.033553,1.279837,-262.766417,-1.495008,66.88259
2.2172,0.022433,0.021486,-0.032471,0.000993,-0.004601,0.01264,0.005294,-0.488285,-0.033494,1.258303,-262.76512,-1.489266,66.887486
2.2368,0.022319,0.021322,-0.032704,0.000964,-0.004596,0.012638,0.005825,-0.488257,-0.032543,1.258303,-262.76512,-1.489266,66.887486
2.2571,0.022164,0.021531,-0.031906,0.000939,-0.004591,0.012636,0.005825,-0.488257,-0.032543,1.258303,-262.76512,-1.489266,66.887486
2.2771,0.021805,0.021216,-0.03227,0.000919,-0.004586,0.012636,0.005931,-0.488403,-0.031377,1.262508,-262.763811,-1.490373,66.892428
2.2969,0.022075,0.021143,-0.032534,0.000903,-0.004583,0.012636,0.005698,-0.488473,-0.03168,1.262508,-262.763811,-1.490373,66.892428
2.317,0.021577,0.020983,-0.030755,0.000891,-0.004579,0.012636,0.00551,-0.488733,-0.032135,1.285388,-262.762518,-1.496269,66.89732
2.3373,0.021596,0.021293,-0.030083,0.000868,-0.004574,0.012635,0.005861,-0.48878,-0.03086,1.285388,-262.762518,-1.496269,66.89732
2.3571,0.021816,0.02115,-0.030603,0.000849,-0.004569,0.012635,0.005861,-0.48878,-0.03086,1.285388,-262.762518,-1.496269,66.89732
2.3773,0.021347,0.021098,-0.031055,0.000833,-0.004565,0.012635,0.006242,-0.488804,-0.030073,1.29422,-262.761213,-1.498487,66.90225
2.3975,0.021671,0.020981,-0.029346,0.000818,-0.004561,0.012635,0.005948,-0.488766,-0.030413,1.29422,-262.761213,-1.498487,66.90225
2.4176,0.021274,0.020643,-0.029763,0.000805,-0.004557,0.012635,0.006728,-0.488945,-0.028947,1.312376,-262.759913,-1.503064,66.907161
2.4374,0.021149,0.021326,-0.030809,0.00078,-0.00455,0.012634,0.006149,-0.489122,-0.029679,1.312376,-262.759913,-1.503064,66.907161
2.4572,0.021225,0.021086,-0.029145,0.000759,-0.004545,0.012633,0.006149,-0.489122,-0.029679,1.312376,-262.759913,-1.503064,66.907161
2.4772,0.020646,0.020353,-0.028766,0.000741,-0.00454,0.012633,0.006391,-0.488888,-0.02862,1.32131,-262.758615,-1.505296,66.912055
2.4973,0.020641,0.020425,-0.030785,0.000721,-0.004534,0.012633,0.006225,-0.489133,-0.028619,1.32131,-262.758615,-1.505296,66.912055
2.5171,0.020899,0.020308,-0.030155,0.000705,-0.004529,0.012633,0.004962,-0.489478,-0.030385,1.341672,-262.757314,-1.510429,66.916955
2.5372,0.020683,0.020274,-0.028569,0.000722,-0.004532,0.012637,0.005476,-0.489468,-0.030155,1.341672,-262.757314,-1.510429,66.916955
2.5572,0.020754,0.020246,-0.028201,0.000736,-0.004534,0.01264,0.005476,-0.489468,-0.030155,1.341672,-262.757314,-1.510429,66.916955
2.5775,0.0205,0.019987,-0.027813,0.000747,-0.004536,0.012642,0.006398,-0.489741,-0.027676,1.353119,-262.756016,-1.513306,66.921833
2.5975,0.020542,0.020228,-0.026856,0.000709,-0.004527,0.012639,0.006367,-0.489793,-0.027671,1.353119,-262.756016,-1.513306,66.921833
2.6172,0.01996,0.019929,-0.026078,0.000677,-0.004518,0.012637,0.006867,-0.489733,-0.026454,1.340409,-262.754711,-1.509919,66.926732
2.6369,0.019979,0.020057,-0.027075,0.000633,-0.004506,0.012634,0.00668,-0.489891,-0.026091,1.340409,-262.754711,-1.509919,66.926732
2.6569,0.019743,0.019759,-0.026573,0.000596,-0.004496,0.012633,0.00668,-0.489891,-0.026091,1.340409,-262.754711,-1.509919,66.926732
2.6769,0.019478,0.019733,-0.026745,0.000566,-0.004487,0.012632,0.006215,-0.490249,-0.026049,1.362433,-262.753415,-1.51556,66.931587
2.6972,0.019984,0.019673,-0.026915,0.000563,-0.004485,0.012634,0.006066,-0.490204,-0.02627,1.362433,-262.753415,-1.51556,66.931587
2.7168,0.019771,0.019388,-0.024907,0.000561,-0.004483,0.012636,0.006273,-0.490283,-0.02652,1.397318,-262.752131,-1.524462,66.936372
2.737,0.019585,0.019366,-0.02798,0.000511,-0.004468,0.012632,0.006999,-0.490445,-0.025033,1.397318,-262.752131,-1.524462,66.936372
2.7573,0.019574,0.019578,-0.025214,0.00047,-0.004455,0.012629,0.006999,-0.490445,-0.025033,1.397318,-262.752131,-1.524462,66.936372
2.7771,0.019008,0.019412,-0.024119,0.000435,-0.004444,0.012628,0.006735,-0.490448,-0.024684,1.399047,-262.750818,-1.524845,66.941257
2.7973,0.019079,0.01934,-0.024934,0.000418,-0.004438,0.012629,0.006726,-0.490466,-0.024395,1.399047,-262.750818,-1.524845,66.941257
2.817,0.018877,0.019098,-0.024538,0.000403,-0.004432,0.012629,0.006374,-0.49064,-0.024541,1.438388,-262.749533,-1.534999,66.945996
2.8369,0.018732,0.018826,-0.026361,0.000402,-0.004431,0.012631,0.006366,-0.490746,-0.024518,1.438388,-262.749533,-1.534999,66.945996
2.8569,0.018811,0.018938,-0.024757,0.000401,-0.00443,0.012632,0.006366,-0.490746,-0.024518,1.438388,-262.749533,-1.534999,66.945996
2.8769,0.018617,0.018894,-0.023868,0.0004,-0.004429,0.012633,0.006199,-0.491092,-0.024229,1.448699,-262.748202,-1.537659,66.95089
2.8972,0.018859,0.018678,-0.024012,0.000396,-0.004427,0.012633,0.006306,-0.491057,-0.024012,1.448699,-262.748202,-1.537659,66.95089
2.9169,0.018184,0.018102,-0.02346,0.000393,-0.004425,0.012633,0.006623,-0.491314,-0.023615,1.449616,-262.746889,-1.537853,66.955708
2.9373,0.018063,0.01846,-0.022763,0.00038,-0.00442,0.012632,0.006258,-0.491725,-0.023453,1.449616,-262.746889,-1.537853,66.955708
2.9575,0.018007,0.018797,-0.023704,0.000369,-0.004416,0.012631,0.006258,-0.491725,-0.023453,1.449616,-262.746889,-1.537853,66.955708
2.9774,0.017746,0.018406,-0.022497,0.00036,-0.004413,0.012631,0.005931,-0.491246,-0.023174,1.451925,-262.745564,-1.538442,66.960567
2.9973,0.017786,0.01858,-0.022174,0.000367,-0.004414,0.012633,0.006071,-0.491356,-0.02284,1.451925,-262.745564,-1.538442,66.960567
3.0171,0.01758,0.018135,-0.021863,0.000373,-0.004415,0.012634,0.006486,-0.491435,-0.021772,1.462226,-262.744238,-1.541128,66.965411
3.0373,0.017674,0.018342,-0.022854,0.000353,-0.004409,0.012632,0.006436,-0.491723,-0.021834,1.462226,-262.744238,-1.541128,66.965411
3.0571,0.017263,0.018049,-0.021938,0.000336,-0.004403,0.012631,0.006436,-0.491723,-0.021834,1.462226,-262.744238,-1.541128,66.965411
3.0771,0.017386,0.01813,-0.021176,0.000322,-0.004398,0.012631,0.006087,-0.492013,-0.021409,1.458163,-262.74291,-1.540032,66.970264
3.0973,0.017084,0.017877,-0.021114,0.000313,-0.004395,0.01263,0.006292,-0.49193,-0.021253,1.458163,-262.74291,-1.540032,66.970264
3.1171,0.016721,0.017496,-0.020729,0.000305,-0.004392,0.012631,0.006324,-0.492149,-0.020713,1.474052,-262.741583,-1.544236,66.97509
3.1372,0.016906,0.017758,-0.0203,0.000295,-0.004388,0.01263,0.006166,-0.49238,-0.020707,1.474052,-262.741583,-1.544236,66.97509
3.1572,0.016795,0.017472,-0.020609,0.000287,-0.004384,0.012629,0.006166,-0.49238,-0.020707,1.474052,-262.741583,-1.544236,66.97509
3.1776,0.016448,0.017201,-0.020461,0.000281,-0.004381,0.012629,0.006295,-0.492603,-0.020079,1.479314,-262.74024,-1.545624,66.979965
3.197,0.016703,0.017576,-0.019991,0.000268,-0.004376,0.012628,0.006176,-0.492663,-0.02018,1.479314,-262.74024,-1.545624,66.979965
3.2171,0.016408,0.017535,-0.019802,0.000258,-0.004372,0.012627,0.006514,-0.49246,-0.019594,1.486751,-262.738913,-1.547592,66.984766
3.2373,0.015934,0.01777,-0.020123,0.000247,-0.004368,0.012627,0.006329,-0.492381,-0.019762,1.486751,-262.738913,-1.547592,66.984766
3.2575,0.016445,0.017008,-0.017749,0.000237,-0.004365,0.012627,0.006329,-0.492381,-0.019762,1.486751,-262.738913,-1.547592,66.984766
3.2769,0.016053,0.017243,-0.018995,0.000229,-0.004362,0.012627,0.007402,-0.493095,-0.017219,1.493688,-262.737574,-1.549447,66.989597
3.2969,0.016195,0.017187,-0.019713,0.000176,-0.004345,0.012616,0.006986,-0.492943,-0.017874,1.493688,-262.737574,-1.549447,66.989597
3.3173,0.015709,0.016966,-0.019459,0.000131,-0.004329,0.012608,0.006146,-0.492853,-0.019311,1.5024,-262.73623,-1.551794,66.994429
3.3371,0.01573,0.017289,-0.017595,0.000156,-0.004335,0.012615,0.005817,-0.492937,-0.019426,1.5024,-262.73623,-1.551794,66.994429
3.3576,0.015803,0.016964,-0.019905,0.000177,-0.004341,0.01262,0.005817,-0.492937,-0.019426,1.5024,-262.73623,-1.551794,66.994429
3.3772,0.015232,0.016746,-0.016454,0.000194,-0.004345,0.012624,0.005654,-0.493113,-0.019385,1.531881,-262.734898,-1.559887,66.999182
3.3972,0.015595,0.016635,-0.016989,0.000183,-0.004343,0.012619,0.006145,-0.493164,-0.018112,1.531881,-262.734898,-1.559887,66.999182
3.4168,0.014956,0.016251,-0.017749,0.000175,-0.004341,0.012615,0.006935,-0.493428,-0.016592,1.513331,-262.733563,-1.554741,67.003956
3.4368,0.015258,0.016081,-0.01736,0.000164,-0.004338,0.012608,0.005997,-0.493654,-0.017625,1.513331,-262.733563,-1.554741,67.003956
3.457,0.014858,0.016437,-0.015835,0.000155,-0.004336,0.012603,0.005997,-0.493654,-0.017625,1.513331,-262.733563,-1.554741,67.003956
3.4771,0.014948,0.016439,-0.016332,0.000148,-0.004333,0.012598,0.006787,-0.493681,-0.015306,1.518887,-262.732214,-1.556287,67.00878
3.4972,0.014639,0.016132,-0.015281,0.0001,-0.004321,0.012563,0.006719,-0.493625,-0.015663,1.518887,-262.732214,-1.556287,67.00878
3.5171,0.014115,0.016153,-0.016067,6.1e-05,-0.004311,0.012535,0.006849,-0.493946,-0.014882,1.526759,-262.730865,-1.558483,67.013604
3.5371,0.014695,0.016126,-0.015785,6.3e-05,-0.004313,0.012523,0.005992,-0.493799,-0.015959,1.526759,-262.730865,-1.558483,67.013604
3.5572,0.014386,0.016003,-0.016925,6.5e-05,-0.004315,0.012513,0.005992,-0.493799,-0.015959,1.526759,-262.730865,-1.558483,67.013604
3.5771,0.013982,0.015641,-0.015783,6.7e-05,-0.004316,0.012505,0.005754,-0.494101,-0.016409,1.552668,-262.729547,-1.565728,67.018318
3.5972,0.013877,0.015984,-0.014696,6.9e-05,-0.004316,0.012501,0.005828,-0.494201,-0.016092,1.552668,-262.729547,-1.565728,67.018318
3.6173,0.013654,0.015302,-0.015392,7.1e-05,-0.004317,0.012497,0.006382,-0.494099,-0.014298,1.550583,-262.728218,-1.565179,67.0231
3.6373,0.013731,0.015447,-0.014131,5.9e-05,-0.004314,0.012474,0.005854,-0.494598,-0.015279,1.550583,-262.728218,-1.565179,67.0231
3.6574,0.013828,0.015717,-0.013631,4.9e-05,-0.004311,0.012456,0.005854,-0.494598,-0.015279,1.550583,-262.728218,-1.565179,67.0231
3.6774,0.013504,0.015292,-0.013834,4.1e-05,-0.004308,0.012442,0.006877,-0.494416,-0.013109,1.549516,-262.726891,-1.564891,67.027882
3.6975,0.013744,0.015473,-0.014529,-1.8e-05,-0.004288,0.012357,0.0067,-0.494537,-0.013348,1.549516,-262.726891,-1.564891,67.027882
3.7175,0.013497,0.014952,-0.013779,-6.7e-05,-0.00427,0.012292,0.006334,-0.49461,-0.014135,1.558239,-262.725572,-1.567325,67.032653
3.7373,0.013651,0.014978,-0.014483,-0.000102,-0.004255,0.01226,0.00646,-0.494976,-0.013789,1.558239,-262.725572,-1.567325,67.032653
3.7574,0.013308,0.015126,-0.013648,-0.000131,-0.004242,0.012235,0.00646,-0.494976,-0.013789,1.558239,-262.725572,-1.567325,67.032653
3.7771,0.013199,0.014979,-0.012796,-0.000154,-0.00423,0.012217,0.006343,-0.495001,-0.013145,1.591406,-262.724306,-1.576461,67.03726
3.7973,0.013114,0.014907,-0.012443,-0.00018,-0.004219,0.012162,0.006476,-0.495013,-0.012945,1.591406,-262.724306,-1.576461,67.03726
3.8169,0.012473,0.015125,-0.011215,-0.000201,-0.004208,0.012119,0.006761,-0.495186,-0.01206,1.618553,-262.723028,-1.584004,67.04188
3.8372,0.012315,0.015273,-0.01183,-0.000241,-0.004193,0.011968,0.006754,-0.494879,-0.011267,1.618553,-262.723028,-1.584004,67.04188
3.8571,0.012578,0.014932,-0.012721,-0.000272,-0.004178,0.011855,0.006754,-0.494879,-0.011267,1.618553,-262.723028,-1.584004,67.04188
3.8771,0.012274,0.014957,-0.010119,-0.000296,-0.004165,0.011769,0.00608,-0.495202,-0.012215,1.633604,-262.721754,-1.588093,67.046501
3.897,0.012457,0.014544,-0.012959,-0.000307,-0.004154,0.011707,0.006496,-0.495148,-0.011311,1.633604,-262.721754,-1.588093,67.046501
3.9174,0.011861,0.014489,-0.011088,-0.000315,-0.004145,0.011661,0.005837,-0.495543,-0.012592,1.66842,-262.720564,-1.596871,67.050952
3.9369,0.01215,0.014193,-0.01124,-0.000312,-0.004139,0.011615,0.006174,-0.495491,-0.0112,1.66842,-262.720564,-1.596871,67.050952
3.957,0.011753,0.014369,-0.009878,-0.00031,-0.004134,0.011581,0.006174,-0.495491,-0.0112,1.66842,-262.720564,-1.596871,67.050952
3.9771,0.011862,0.013967,-0.010337,-0.000307,-0.004129,0.011555,0.0067,-0.495779,-0.009391,1.67613,-262.719369,-1.598725,67.055449
3.9974,0.011795,0.014352,-0.011525,-0.00036,-0.004107,0.01138,0.006654,-0.495892,-0.009722,1.67613,-262.719369,-1.598725,67.055449
4.0171,0.011652,0.013955,-0.009939,-0.0004,-0.004086,0.011252,0.005906,-0.495746,-0.011157,1.675164,-262.718192,-1.598205,67.059926
4.0373,0.011396,0.014006,-0.010496,-0.000422,-0.004069,0.01119,0.006522,-0.496002,-0.010029,1.675164,-262.718192,-1.598205,67.059926
4.0571,0.01124,0.01428,-0.009011,-0.000439,-0.004053,0.011145,0.006522,-0.496002,-0.010029,1.675164,-262.718192,-1.598205,67.059926
4.0773,0.010874,0.013897,-0.008885,-0.000452,-0.00404,0.011111,0.006627,-0.495865,-0.008552,1.713427,-262.717093,-1.607298,67.064204
4.0972,0.011199,0.014184,-0.009278,-0.00048,-0.00403,0.010905,0.006508,-0.495974,-0.008635,1.713427,-262.717093,-1.607298,67.064204
4.117,0.010526,0.013506,-0.008719,-0.0005,-0.00402,0.010754,0.006452,-0.495921,-0.008928,1.734063,-262.71598,-1.612559,67.068536
4.1368,0.010735,0.013536,-0.010959,-0.000501,-0.004013,0.010654,0.006106,-0.49644,-0.008719,1.734063,-262.71598,-1.612559,67.068536
4.157,0.01062,0.013608,-0.009294,-0.0005,-0.004006,0.010581,0.006106,-0.49644,-0.008719,1.734063,-262.71598,-1.612559,67.068536
4.1768,0.010914,0.0136,-0.007679,-0.000498,-0.003999,0.010528,0.00588,-0.49637,-0.009294,1.658555,-262.715981,-1.617943,67.068536
4.1968,0.010672,0.013408,-0.009491,-0.000506,-0.003988,0.01045,0.006339,-0.496376,-0.008631,1.658555,-262.715981,-1.617943,67.068536
4.2171,0.010747,0.01373,-0.008351,-0.000511,-0.003977,0.010391,0.005832,-0.496569,-0.009491,1.584066,-262.715981,-1.618519,67.068537
4.2372,0.010754,0.01373,-0.009791,-0.000518,-0.003968,0.010297,0.006428,-0.496281,-0.008456,1.584066,-262.715981,-1.618519,67.068537
4.2571,0.010954,0.013586,-0.011077,-0.000522,-0.00396,0.010224,0.006428,-0.496281,-0.008456,1.584066,-262.715981,-1.618519,67.068537
4.2769,0.010521,0.013522,-0.008497,-0.000524,-0.003952,0.010168,0.005305,-0.496382,-0.011077,1.509053,-262.715981,-1.620281,67.068537
4.2971,0.010661,0.013356,-0.009085,-0.000462,-0.003964,0.010273,0.005661,-0.496414,-0.010034,1.509053,-262.715981,-1.620281,67.068537
4.3171,0.010807,0.013194,-0.010501,-0.000413,-0.003974,0.010349,0.006028,-0.496623,-0.009085,1.434065,-262.715981,-1.622357,67.068538
4.337,0.010777,0.01338,-0.010931,-0.00037,-0.003984,0.010402,0.005501,-0.496765,-0.010379,1.434065,-262.715981,-1.622357,67.068538
4.3571,0.010896,0.013885,-0.009888,-0.000337,-0.003994,0.010437,0.005501,-0.496765,-0.010379,1.434065,-262.715981,-1.622357,67.068538
4.377,0.010488,0.01349,-0.008628,-0.000311,-0.004003,0.01046,0.005851,-0.496124,-0.009799,1.509153,-262.715784,-1.610891,67.069389
4.3972,0.010825,0.013368,-0.00861,-0.000315,-0.004007,0.010347,0.005947,-0.496277,-0.009312,1.509153,-262.715784,-1.610891,67.069389
4.4169,0.010299,0.0134,-0.007523,-0.000318,-0.00401,0.010257,0.00643,-0.496683,-0.008424,1.58407,-262.715249,-1.600695,67.0717
4.4371,0.010365,0.012932,-0.006705,-0.000384,-0.003996,0.009929,0.006459,-0.496597,-0.007589,1.58407,-262.715249,-1.600695,67.0717
4.457,0.010451,0.013122,-0.009252,-0.000433,-0.003982,0.009687,0.006459,-0.496597,-0.007589,1.58407,-262.715249,-1.600695,67.0717
4.4772,0.010559,0.013473,-0.008118,-0.00047,-0.003968,0.009509,0.005723,-0.496985,-0.008921,1.659237,-262.714541,-1.601742,67.074895
4.4974,0.010455,0.012956,-0.008409,-0.000463,-0.003963,0.009503,0.006021,-0.496796,-0.008537,1.659237,-262.714541,-1.601742,67.074895
4.5168,0.010162,0.013351,-0.008559,-0.000457,-0.003958,0.009497,0.006167,-0.497026,-0.008409,1.583769,-262.714541,-1.618794,67.074895
4.5371,0.010189,0.01334,-0.007886,-0.000436,-0.003962,0.009463,0.00583,-0.496666,-0.008545,1.583769,-262.714541,-1.618794,67.074895
4.5571,0.010505,0.012884,-0.007299,-0.000418,-0.003965,0.009434,0.00583,-0.496666,-0.008545,1.583769,-262.714541,-1.618794,67.074895
4.577,0.0102,0.013044,-0.007961,-0.000404,-0.003969,0.009409,0.006783,-0.497103,-0.007299,1.509396,-262.714541,-1.617606,67.074896
4.597,0.009981,0.013554,-0.00809,-0.000458,-0.003948,0.009218,0.006521,-0.497036,-0.007568,1.509396,-262.714541,-1.617606,67.074896
4.6168,0.010377,0.01331,-0.007965,-0.0005,-0.003929,0.009075,0.005855,-0.496429,-0.00809,1.434277,-262.714542,-1.612389,67.074896
4.6369,0.01048,0.01361,-0.005883,-0.000498,-0.003926,0.008994,0.006275,-0.496652,-0.007976,1.434277,-262.714542,-1.612389,67.074896
4.6568,0.010183,0.012875,-0.008501,-0.000496,-0.003923,0.008929,0.006275,-0.496652,-0.007976,1.434277,-262.714542,-1.612389,67.074896
4.677,0.010469,0.013457,-0.008442,-0.000495,-0.003921,0.008876,0.005848,-0.497106,-0.008501,1.359309,-262.714542,-1.623526,67.074896
4.6969,0.009846,0.013187,-0.009,-0.000475,-0.003923,0.008896,0.005978,-0.496867,-0.008477,1.359309,-262.714542,-1.623526,67.074896
4.7173,0.010575,0.013246,-0.007112,-0.00046,-0.003926,0.008907,0.005256,-0.496793,-0.009,1.284304,-262.714542,-1.623706,67.074897
4.7368,0.010446,0.013276,-0.007419,-0.000511,-0.003909,0.008742,0.006822,-0.496745,-0.007252,1.284304,-262.714542,-1.623706,67.074897
4.7569,0.01023,0.01338,-0.008725,-0.00055,-0.003894,0.008621,0.006822,-0.496745,-0.007252,1.284304,-262.714542,-1.623706,67.074897
4.7768,0.009974,0.013178,-0.008715,-0.000581,-0.00388,0.008533,0.00578,-0.496601,-0.008725,1.208934,-262.714542,-1.619818,67.074897
4.7969,0.010121,0.013371,-0.007566,-0.000515,-0.003897,0.00866,0.005678,-0.496683,-0.008721,1.208934,-262.714542,-1.619818,67.074897
4.8167,0.010554,0.013486,-0.007328,-0.000463,-0.003913,0.008753,0.006262,-0.496614,-0.007566,1.134406,-262.714542,-1.634623,67.074898
4.8373,0.010368,0.013511,-0.008459,-0.0005,-0.003904,0.008641,0.006767,-0.496511,-0.00735,1.134406,-262.714542,-1.634623,67.074898
4.8573,0.009767,0.013106,-0.006238,-0.000529,-0.003894,0.008559,0.006767,-0.496511,-0.00735,1.134406,-262.714542,-1.634623,67.074898
4.8772,0.010259,0.013082,-0.006744,-0.000551,-0.003885,0.008499,0.006585,-0.496884,-0.006238,1.059415,-262.714542,-1.620744,67.074898
4.8972,0.010161,0.013486,-0.007415,-0.000589,-0.003875,0.008296,0.006684,-0.496893,-0.006451,1.059415,-262.714542,-1.620744,67.074898
4.9175,0.010124,0.013791,-0.007658,-0.000616,-0.003864,0.008152,0.00638,-0.4965,-0.007415,0.983968,-262.714542,-1.631441,67.074898
4.9372,0.010232,0.013385,-0.007598,-0.000572,-0.003874,0.008192,0.006235,-0.496226,-0.007634,0.983968,-262.714542,-1.631441,67.074898
4.9572,0.010527,0.013029,-0.008709,-0.000537,-0.003882,0.008216,0.006235,-0.496226,-0.007634,0.983968,-262.714542,-1.631441,67.074898
4.9769,0.010631,0.013213,-0.007914,-0.000509,-0.00389,0.00823,0.006086,-0.496952,-0.008709,0.909409,-262.714542,-1.640389,67.074899
4.997,0.010452,0.01337,-0.00828,-0.000499,-0.003886,0.008322,0.006294,-0.496878,-0.008384,0.909409,-262.714542,-1.640389,67.074899
5.0171,0.010342,0.013596,-0.007226,-0.000493,-0.003883,0.008388,0.00623,-0.496613,-0.00828,0.834407,-262.714542,-1.627788,67.074899
5.037,0.010426,0.013079,-0.008738,-0.000509,-0.003882,0.008299,0.006618,-0.496411,-0.007322,0.834407,-262.714542,-1.627788,67.074899
5.057,0.009888,0.012728,-0.008976,-0.000522,-0.00388,0.008233,0.006618,-0.496411,-0.007322,0.834407,-262.714542,-1.627788,67.074899
5.077,0.010076,0.013093,-0.008963,-0.000531,-0.003878,0.008184,0.005311,-0.497252,-0.008976,0.759402,-262.714542,-1.625493,67.074899
5.097,0.010024,0.01313,-0.007666,-0.000462,-0.003897,0.008341,0.005391,-0.4971,-0.00897,0.759402,-262.714542,-1.625493,67.074899
5.1171,0.010344,0.013128,-0.008593,-0.000408,-0.003914,0.008455,0.006114,-0.496855,-0.007666,0.684189,-262.714542,-1.630517,67.0749
5.137,0.010146,0.013214,-0.00703,-0.000401,-0.003918,0.008492,0.005975,-0.496853,-0.008514,0.684189,-262.714542,-1.630517,67.0749
5.1569,0.010412,0.013337,-0.007067,-0.000396,-0.003923,0.008518,0.005975,-0.496853,-0.008514,0.684189,-262.714542,-1.630517,67.0749
5.1774,0.01046,0.013468,-0.008639,-0.000393,-0.003927,0.008536,0.006807,-0.49665,-0.007067,0.609266,-262.714542,-1.615687,67.0749
5.1971,0.010341,0.013168,-0.007502,-0.000426,-0.003921,0.008449,0.006497,-0.496593,-0.007715,0.609266,-262.714542,-1.615687,67.0749
5.2176,0.010425,0.013309,-0.007309,-0.000451,-0.003916,0.008385,0.006515,-0.496818,-0.007502,0.53428,-262.714542,-1.613796,67.0749
5.2373,0.01037,0.013204,-0.00687,-0.00049,-0.003904,0.008283,0.006681,-0.496691,-0.007327,0.53428,-262.714542,-1.613796,67.0749
5.2572,0.010015,0.013292,-0.008341,-0.00052,-0.003894,0.008209,0.006681,-0.496691,-0.007327,0.53428,-262.714542,-1.613796,67.0749
5.2769,0.010054,0.013271,-0.007646,-0.000543,-0.003884,0.008157,0.005761,-0.49669,-0.008341,0.458921,-262.714542,-1.620657,67.074901
5.297,0.010209,0.013027,-0.007523,-0.000507,-0.003895,0.00822,0.005924,-0.4967,-0.008053,0.458921,-262.714542,-1.620657,67.074901
5.3173,0.010079,0.013108,-0.00855,-0.000478,-0.003905,0.008266,0.006372,-0.496959,-0.007523,0.384252,-262.714542,-1.631957,67.074901
5.3374,0.010773,0.013265,-0.007749,-0.000445,-0.003914,0.008345,0.005773,-0.496881,-0.008463,0.384252,-262.714542,-1.631957,67.074901
5.3571,0.010474,0.013271,-0.009393,-0.00042,-0.003923,0.008403,0.005773,-0.496881,-0.008463,0.384252,-262.714542,-1.631957,67.074901
5.3772,0.010507,0.013344,-0.007946,-0.000401,-0.003931,0.008445,0.005684,-0.496707,-0.009393,0.309244,-262.714542,-1.624113,67.074902
5.3972,0.010302,0.013447,-0.007422,-0.000389,-0.003936,0.008511,0.005996,-0.49668,-0.008806,0.309244,-262.714542,-1.624113,67.074902
5.4175,0.010275,0.013455,-0.008294,-0.000381,-0.00394,0.008558,0.006516,-0.496539,-0.007422,0.234399,-262.714542,-1.614836,67.074902
5.4377,0.010323,0.01352,-0.00773,-0.000383,-0.003945,0.008529,0.006086,-0.496528,-0.008219,0.234399,-262.714542,-1.614836,67.074902
5.4571,0.010321,0.013435,-0.008451,-0.000385,-0.003948,0.008507,0.006086,-0.496528,-0.008219,0.234399,-262.714542,-1.614836,67.074902
5.4775,0.010433,0.013142,-0.007882,-0.000387,-0.003951,0.008491,0.006011,-0.496547,-0.008451,0.159285,-262.714542,-1.61228,67.074902
5.4974,0.010321,0.013564,-0.009543,-0.000397,-0.003949,0.008477,0.006179,-0.49667,-0.008214,0.159285,-262.714542,-1.61228,67.074902
5.5174,0.010308,0.01317,-0.009421,-0.000406,-0.003946,0.008467,0.005454,-0.496413,-0.009543,0.084039,-262.714543,-1.613093,67.074903
5.5372,0.010252,0.012807,-0.008053,-0.000359,-0.003961,0.008583,0.0055,-0.496775,-0.00943,0.084039,-262.714543,-1.613093,67.074903
5.5575,0.010093,0.013254,-0.008132,-0.000323,-0.003974,0.008669,0.0055,-0.496775,-0.00943,0.084039,-262.714543,-1.613093,67.074903
5.5771,0.01055,0.013218,-0.007258,-0.000294,-0.003986,0.008733,0.005945,-0.496729,-0.008132,0.00914,-262.714543,-1.615288,67.074903
5.5972,0.01057,0.01322,-0.008267,-0.000344,-0.003976,0.00859,0.006326,-0.496746,-0.007763,0.00914,-262.714543,-1.615288,67.074903
5.6168,0.010116,0.013395,-0.009662,-0.000382,-0.003966,0.008487,0.006354,-0.496763,-0.008267,-0.065969,-262.714543,-1.602366,67.074903
5.6369,0.010282,0.013428,-0.009091,-0.000321,-0.003985,0.008607,0.005287,-0.496596,-0.009544,-0.065969,-262.714543,-1.602366,67.074903
5.6572,0.010273,0.013416,-0.007179,-0.000272,-0.004003,0.008697,0.005287,-0.496596,-0.009544,-0.065969,-262.714543,-1.602366,67.074903
5.677,0.01005,0.013049,-0.006772,-0.000234,-0.004018,0.008763,0.006612,-0.496571,-0.007179,-0.140804,-262.714543,-1.612534,67.074904
5.6969,0.010407,0.012986,-0.005953,-0.000321,-0.003998,0.00849,0.006606,-0.496721,-0.007013,-0.140804,-262.714543,-1.612534,67.074904
5.717,0.010484,0.013551,-0.008992,-0.000389,-0.003979,0.008298,0.007371,-0.497005,-0.005953,-0.215731,-262.714543,-1.595712,67.074904
5.7368,0.010045,0.013502,-0.008209,-0.000373,-0.003979,0.008394,0.006,-0.496468,-0.008781,-0.215731,-262.714543,-1.595712,67.074904
5.7569,0.009826,0.013262,-0.008162,-0.000361,-0.003979,0.008465,0.006,-0.496468,-0.008781,-0.215731,-262.714543,-1.595712,67.074904
5.777,0.010069,0.013191,-0.007099,-0.000352,-0.003981,0.008519,0.005664,-0.496721,-0.008162,-0.291214,-262.714543,-1.613748,67.074904
5.7971,0.009914,0.013211,-0.008198,-0.000369,-0.003978,0.00843,0.005999,-0.496753,-0.007708,-0.291214,-262.714543,-1.613748,67.074904
5.8171,0.010191,0.013472,-0.009721,-0.000381,-0.003975,0.008366,0.005733,-0.496772,-0.008198,-0.366214,-262.714543,-1.609133,67.074905
5.837,0.010645,0.013512,-0.009228,-0.000315,-0.003993,0.00852,0.005275,-0.496526,-0.009593,-0.366214,-262.714543,-1.609133,67.074905
5.8573,0.010128,0.012856,-0.006758,-0.000262,-0.00401,0.008636,0.005275,-0.496526,-0.009593,-0.366214,-262.714543,-1.609133,67.074905
5.8772,0.01022,0.013098,-0.00816,-0.000221,-0.004025,0.008722,0.006681,-0.497132,-0.006758,-0.440767,-262.714543,-1.612744,67.074905
5.8973,0.010524,0.013026,-0.008425,-0.000305,-0.004002,0.008515,0.006426,-0.497031,-0.007332,-0.440767,-262.714543,-1.612744,67.074905
5.9174,0.010372,0.013179,-0.008948,-0.000369,-0.00398,0.008367,0.006228,-0.496955,-0.008424,-0.515722,-262.714543,-1.594426,67.074906
5.9373,0.01031,0.013322,-0.007362,-0.000357,-0.003979,0.008457,0.005848,-0.496816,-0.008898,-0.515722,-262.714543,-1.594426,67.074906
5.9574,0.01018,0.01341,-0.008534,-0.000348,-0.003979,0.008523,0.005848,-0.496816,-0.008898,-0.515722,-262.714543,-1.594426,67.074906
5.977,0.010308,0.013083,-0.007227,-0.000342,-0.00398,0.008573,0.005828,-0.496572,-0.008534,-0.590603,-262.714543,-1.611397,67.074906
5.9972,0.010298,0.013248,-0.007976,-0.000365,-0.003974,0.008507,0.006152,-0.496707,-0.008001,-0.590603,-262.714543,-1.611397,67.074906
6.0173,0.010241,0.013342,-0.00736,-0.000383,-0.003969,0.00846,0.00623,-0.496736,-0.007976,-0.665609,-262.714543,-1.60791,67.074907
6.0372,0.010192,0.013232,-0.007022,-0.000422,-0.003958,0.008344,0.006465,-0.496652,-0.007413,-0.665609,-262.714543,-1.60791,67.074907
6.0572,0.010555,0.013251,-0.008121,-0.000452,-0.003947,0.008261,0.006465,-0.496652,-0.007413,-0.665609,-262.714543,-1.60791,67.074907
6.0771,0.010408,0.013632,-0.00811,-0.000475,-0.003937,0.008202,0.006413,-0.496733,-0.008121,-0.740731,-262.714544,-1.612742,67.074916
6.0971,0.01019,0.013384,-0.007889,-0.000473,-0.003931,0.008255,0.006355,-0.496576,-0.008116,-0.740731,-262.714544,-1.612742,67.074916
6.1172,0.010542,0.013386,-0.00923,-0.000473,-0.003926,0.008293,0.006165,-0.496608,-0.007873,-0.815766,-262.714572,-1.623799,67.075129
6.1369,0.010563,0.013368,-0.008588,-0.000432,-0.003936,0.008426,0.005864,-0.496594,-0.009111,-0.815766,-262.714572,-1.623799,67.075129
6.1572,0.010532,0.013281,-0.007774,-0.000401,-0.003944,0.008525,0.005864,-0.496594,-0.009111,-0.815766,-262.714572,-1.623799,67.075129
6.177,0.010259,0.013672,-0.00727,-0.000377,-0.003953,0.008598,0.006564,-0.496723,-0.007733,-0.890698,-262.714631,-1.623377,67.075555
6.197,0.010134,0.01333,-0.006835,-0.00042,-0.003944,0.008464,0.006559,-0.496558,-0.007539,-0.890698,-262.714631,-1.623377,67.075555
6.217,0.010347,0.013101,-0.009154,-0.000453,-0.003935,0.008367,0.006647,-0.496667,-0.006815,-0.965727,-262.714671,-1.611786,67.075831
6.2373,0.010328,0.013172,-0.006654,-0.000421,-0.003942,0.008465,0.00576,-0.49686,-0.008958,-0.965727,-262.714671,-1.611786,67.075831
6.2574,0.010219,0.012844,-0.0082,-0.000396,-0.003949,0.008538,0.00576,-0.49686,-0.008958,-0.965727,-262.714671,-1.611786,67.075831
6.2772,0.010146,0.013264,-0.006872,-0.000377,-0.003956,0.008592,0.006027,-0.497205,-0.00806,-1.040817,-262.714874,-1.620852,67.077289
6.2972,0.009787,0.013103,-0.008175,-0.000418,-0.003946,0.008461,0.006278,-0.497015,-0.007556,-1.040817,-262.714874,-1.620852,67.077289
6.3172,0.010247,0.013132,-0.006337,-0.000449,-0.003936,0.008366,0.005612,-0.496928,-0.008074,-1.115753,-262.715076,-1.611714,67.07867
6.3371,0.01006,0.013169,-0.007199,-0.00052,-0.003916,0.00812,0.006896,-0.496866,-0.006479,-1.115753,-262.715076,-1.611714,67.07867
6.3569,0.009973,0.012916,-0.008028,-0.000573,-0.003895,0.007948,0.006896,-0.496866,-0.006479,-1.115753,-262.715076,-1.611714,67.07867
6.3774,0.009739,0.013044,-0.0059,-0.000613,-0.003876,0.007829,0.005861,-0.497212,-0.007722,-1.19074,-262.715516,-1.620365,67.081848
6.3969,0.009807,0.012828,-0.007164,-0.000606,-0.003872,0.007876,0.006215,-0.49712,-0.006939,-1.19074,-262.715516,-1.620365,67.081848
6.4167,0.00969,0.012938,-0.00561,-0.0006,-0.003868,0.007917,0.006144,-0.497216,-0.007046,-1.115776,-262.715722,-1.641501,67.083482
6.4369,0.009752,0.0129,-0.007229,-0.000646,-0.003854,0.007729,0.006767,-0.497072,-0.005732,-1.115776,-262.715722,-1.641501,67.083482
6.4569,0.009346,0.01287,-0.006575,-0.000678,-0.003838,0.007605,0.006767,-0.497072,-0.005732,-1.115776,-262.715722,-1.641501,67.083482
6.4768,0.009458,0.012614,-0.008532,-0.000701,-0.003823,0.007526,0.005971,-0.497256,-0.006293,-1.040855,-262.71611,-1.63965,67.086456
6.4972,0.009428,0.01275,-0.007423,-0.000635,-0.003832,0.007749,0.005614,-0.497318,-0.007179,-1.040855,-262.71611,-1.63965,67.086456
6.5171,0.009073,0.01253,-0.007297,-0.000583,-0.00384,0.007917,0.005632,-0.497296,-0.007302,-0.96578,-262.716319,-1.653866,67.088147
6.5373,0.009534,0.012817,-0.008227,-0.000529,-0.003853,0.00807,0.005376,-0.497445,-0.007292,-0.96578,-262.716319,-1.653866,67.088147
6.5575,0.009258,0.012489,-0.006358,-0.000486,-0.003864,0.008186,0.005376,-0.497445,-0.007292,-0.96578,-262.716319,-1.653866,67.088147
6.5774,0.009409,0.012162,-0.005094,-0.000452,-0.003875,0.008273,0.005992,-0.497647,-0.006056,-1.040687,-262.716739,-1.637884,67.091311
6.5971,0.009015,0.012286,-0.005259,-0.000524,-0.003856,0.008032,0.006322,-0.497738,-0.005631,-1.040687,-262.716739,-1.637884,67.091311
6.6168,0.008726,0.01201,-0.005616,-0.000578,-0.003837,0.007868,0.006323,-0.497787,-0.005089,-1.11568,-262.717067,-1.621392,67.093635
6.6373,0.008987,0.012228,-0.004971,-0.000601,-0.003827,0.007753,0.005899,-0.49797,-0.005566,-1.11568,-262.717067,-1.621392,67.093635
6.6572,0.00899,0.012008,-0.006284,-0.000618,-0.003816,0.007678,0.005899,-0.49797,-0.005566,-1.11568,-262.717067,-1.621392,67.093635
6.6771,0.008884,0.012324,-0.005509,-0.000629,-0.003806,0.007631,0.005763,-0.498124,-0.005991,-1.040395,-262.717468,-1.637526,67.096717
6.6973,0.008966,0.011977,-0.004109,-0.000632,-0.003796,0.007655,0.005887,-0.497955,-0.005761,-1.040395,-262.717468,-1.637526,67.096717
6.7171,0.009006,0.012037,-0.005823,-0.000634,-0.003788,0.007678,0.006854,-0.498121,-0.003905,-0.96568,-262.717825,-1.644896,67.099571
6.7371,0.008673,0.01189,-0.004208,-0.000653,-0.003773,0.00768,0.00611,-0.497974,-0.005639,-0.96568,-262.717825,-1.644896,67.099571
6.7573,0.008602,0.012014,-0.004874,-0.000667,-0.00376,0.007687,0.00611,-0.497974,-0.005639,-0.96568,-262.717825,-1.644896,67.099571
6.7774,0.008337,0.011877,-0.005247,-0.000679,-0.003749,0.007697,0.006089,-0.498138,-0.004553,-0.958005,-262.718266,-1.645429,67.102974
6.7972,0.008535,0.011754,-0.008263,-0.000698,-0.003745,0.007506,0.005911,-0.498147,-0.0048,-0.958005,-262.718266,-1.645429,67.102974
6.817,0.008022,0.011671,-0.004521,-0.000709,-0.003739,0.007378,0.004299,-0.498348,-0.008019,-0.951697,-262.718733,-1.650935,67.106356
6.8372,0.008279,0.011627,-0.004059,-0.000701,-0.003739,0.007303,0.005589,-0.498332,-0.004819,-0.951697,-262.718733,-1.650935,67.106356
6.8571,0.008233,0.011008,-0.005571,-0.000692,-0.003738,0.007256,0.005589,-0.498332,-0.004819,-0.951697,-262.718733,-1.650935,67.106356
6.8771,0.008128,0.011262,-0.003346,-0.000683,-0.003735,0.007227,0.005369,-0.499104,-0.005332,-0.876802,-262.719056,-1.656612,67.108919
6.8974,0.008364,0.011721,-0.003415,-0.00072,-0.003712,0.007108,0.005808,-0.498963,-0.004471,-0.876802,-262.719056,-1.656612,67.108919
6.9173,0.007741,0.011012,-0.002396,-0.000747,-0.003691,0.007027,0.006604,-0.498379,-0.003216,-0.801343,-262.719388,-1.654406,67.111743
6.9374,0.007936,0.011379,-0.003615,-0.000866,-0.00367,0.006217,0.006525,-0.498939,-0.002457,-0.801343,-262.719388,-1.654406,67.111743
6.9574,0.007701,0.010958,-0.001939,-0.000951,-0.003643,0.005664,0.006525,-0.498939,-0.002457,-0.801343,-262.719388,-1.654406,67.111743
6.9773,0.007077,0.011235,-0.003171,-0.00101,-0.003612,0.00529,0.006688,-0.499161,-0.001708,-0.726587,-262.719687,-1.664091,67.114241
6.9971,0.007634,0.010747,-0.003644,-0.001039,-0.003593,0.004955,0.00619,-0.499014,-0.002271,-0.726587,-262.719687,-1.664091,67.114241
7.0167,0.007768,0.011196,-0.002415,-0.001056,-0.003573,0.004731,0.005775,-0.499249,-0.003644,-0.651825,-262.719687,-1.717375,67.114241
7.0371,0.00773,0.011161,-0.003895,-0.001066,-0.003545,0.004692,0.006468,-0.498842,-0.002525,-0.651825,-262.719687,-1.717375,67.114241
7.0572,0.007611,0.01097,-0.003219,-0.001073,-0.003521,0.004672,0.006468,-0.498842,-0.002525,-0.651825,-262.719687,-1.717375,67.114241
7.077,0.00769,0.011106,-0.003428,-0.001077,-0.003499,0.004663,0.005969,-0.499028,-0.003219,-0.576819,-262.719687,-1.732717,67.114241
7.0973,0.00736,0.010846,-0.005292,-0.001031,-0.003492,0.00495,0.005958,-0.498972,-0.003304,-0.576819,-262.719687,-1.732717,67.114241
7.1173,0.007658,0.010834,-0.004003,-0.000995,-0.003486,0.005156,0.004662,-0.499147,-0.005292,-0.501807,-262.719687,-1.738884,67.114241
7.1371,0.007658,0.011062,-0.005211,-0.000928,-0.003491,0.00554,0.005529,-0.49916,-0.004121,-0.501807,-262.719687,-1.738884,67.114241
7.1571,0.0076,0.011174,-0.004873,-0.000877,-0.003497,0.005816,0.005529,-0.49916,-0.004121,-0.501807,-262.719687,-1.738884,67.114241
7.1774,0.007406,0.011123,-0.002401,-0.00084,-0.003505,0.006014,0.005115,-0.49882,-0.004873,-0.426827,-262.719687,-1.719716,67.114242
7.1976,0.007645,0.010836,-0.003622,-0.000805,-0.003521,0.006077,0.005547,-0.498843,-0.003871,-0.426827,-262.719687,-1.719716,67.114242
7.2174,0.007641,0.010869,-0.002188,-0.000778,-0.003535,0.006118,0.005786,-0.499208,-0.003539,-0.351832,-262.719833,-1.687247,67.115467
7.2373,0.007459,0.011013,-0.003748,-0.000869,-0.003521,0.005548,0.006459,-0.499139,-0.002304,-0.351832,-262.719833,-1.687247,67.115467
7.2575,0.007579,0.011076,-0.004287,-0.000934,-0.003503,0.00515,0.006459,-0.499139,-0.002304,-0.351832,-262.719833,-1.687247,67.115467
7.2769,0.007368,0.010827,-0.003344,-0.000982,-0.003483,0.004875,0.005365,-0.499046,-0.004067,-0.276652,-262.720107,-1.677332,67.117969
7.2968,0.007683,0.010628,-0.004075,-0.000914,-0.003491,0.0052,0.005483,-0.499111,-0.003747,-0.276652,-262.720107,-1.677332,67.117969
7.3173,0.007471,0.010724,-0.004473,-0.000863,-0.003501,0.005434,0.005605,-0.499368,-0.004075,-0.20173,-262.720108,-1.721634,67.11797
7.3371,0.007324,0.010847,-0.002922,-0.000797,-0.003513,0.00577,0.005228,-0.49928,-0.004436,-0.20173,-262.720108,-1.721634,67.11797
7.3573,0.00761,0.010684,-0.002727,-0.000749,-0.003526,0.006011,0.005228,-0.49928,-0.004436,-0.20173,-262.720108,-1.721634,67.11797
7.3769,0.00761,0.011001,-0.00228,-0.000713,-0.00354,0.006182,0.006216,-0.499323,-0.002713,-0.126826,-262.72013,-1.696664,67.118142
7.3972,0.007459,0.011131,-0.003452,-0.000801,-0.00353,0.00566,0.006309,-0.499193,-0.002537,-0.126826,-262.72013,-1.696664,67.118142
7.4169,0.007225,0.010786,-0.002884,-0.000866,-0.003516,0.005298,0.005685,-0.498928,-0.003346,-0.201825,-262.720292,-1.667895,67.119736
7.4372,0.007483,0.01074,-0.003235,-0.000863,-0.003518,0.005195,0.005747,-0.499189,-0.002922,-0.201825,-262.720292,-1.667895,67.119736
7.457,0.007308,0.010852,-0.00217,-0.000858,-0.003519,0.005123,0.005747,-0.499189,-0.002922,-0.201825,-262.720292,-1.667895,67.119736
7.4774,0.007069,0.010553,-0.001865,-0.000854,-0.003519,0.005073,0.006201,-0.499148,-0.002167,-0.126818,-262.720297,-1.698347,67.119768
7.4974,0.007319,0.010891,-0.002771,-0.000905,-0.00351,0.004674,0.006167,-0.49927,-0.002044,-0.126818,-262.720297,-1.698347,67.119768
7.5173,0.007377,0.010982,-0.00185,-0.00094,-0.003497,0.004397,0.005906,-0.499107,-0.00277,-0.051824,-262.720298,-1.699111,67.119776
7.5378,0.007276,0.010557,-0.001731,-0.000973,-0.003485,0.004155,0.006386,-0.499025,-0.001932,-0.051824,-262.720298,-1.699111,67.119776
7.5572,0.007438,0.011105,-0.005048,-0.000995,-0.003472,0.003988,0.006386,-0.499025,-0.001932,-0.051824,-262.720298,-1.699111,67.119776
7.5769,0.007111,0.010664,-0.002679,-0.001011,-0.003459,0.003873,0.004863,-0.498888,-0.005048,0.023219,-262.720298,-1.72172,67.119777
7.5971,0.007259,0.010793,-0.001933,-0.000895,-0.003478,0.004502,0.005221,-0.499069,-0.004087,0.023219,-262.720298,-1.72172,67.119777
7.6172,0.00712,0.010816,-0.002114,-0.000808,-0.003498,0.004962,0.006273,-0.499206,-0.001933,0.09819,-262.720298,-1.742624,67.119777
7.637,0.007267,0.010758,-0.002423,-0.000854,-0.003498,0.004613,0.006063,-0.499185,-0.002098,0.09819,-262.720298,-1.742624,67.119777
7.6571,0.007182,0.010524,-0.002138,-0.000886,-0.003493,0.004373,0.006063,-0.499185,-0.002098,0.09819,-262.720298,-1.742624,67.119777
7.6775,0.007192,0.010674,-0.004472,-0.000908,-0.003487,0.004208,0.00609,-0.499482,-0.002127,0.173169,-262.720316,-1.693938,67.119903
7.697,0.007544,0.010895,-0.002932,-0.000877,-0.003483,0.004466,0.005612,-0.499418,-0.003077,0.173169,-262.720316,-1.693938,67.119903
7.7176,0.007106,0.010702,-0.004,-0.000855,-0.003482,0.004651,0.006049,-0.499103,-0.002932,0.248165,-262.720317,-1.719619,67.119907
7.7372,0.007243,0.010659,-0.004389,-0.000782,-0.003498,0.005002,0.00517,-0.499274,-0.003887,0.248165,-262.720317,-1.719619,67.119907
7.757,0.007378,0.010776,-0.002838,-0.000727,-0.003515,0.005252,0.00517,-0.499274,-0.003887,0.248165,-262.720317,-1.719619,67.119907
7.7775,0.007299,0.010788,-0.002542,-0.000687,-0.003531,0.005429,0.005928,-0.499233,-0.002822,0.323179,-262.720349,-1.705156,67.120101
7.7975,0.007126,0.011022,-0.004023,-0.000737,-0.003526,0.005169,0.005958,-0.499225,-0.002707,0.323179,-262.720349,-1.705156,67.120101
7.8169,0.007079,0.010615,-0.004899,-0.000775,-0.00352,0.004986,0.005052,-0.499083,-0.003854,0.303635,-262.72063,-1.670765,67.12279
7.8371,0.00734,0.010657,-0.002795,-0.000668,-0.003548,0.00544,0.004622,-0.499358,-0.004796,0.303635,-262.72063,-1.670765,67.12279
7.857,0.007219,0.010101,-0.001713,-0.000587,-0.003575,0.005768,0.004622,-0.499358,-0.004796,0.303635,-262.72063,-1.670765,67.12279
7.8772,0.007256,0.010262,-0.000875,-0.000526,-0.003601,0.006004,0.006333,-0.499952,-0.001633,0.378752,-262.720767,-1.688297,67.12378
7.8974,0.006865,0.010827,-0.001661,-0.000724,-0.003574,0.004893,0.006525,-0.499871,-0.001315,0.378752,-262.720767,-1.688297,67.12378
7.9171,0.006511,0.010334,-0.001226,-0.00087,-0.003537,0.004129,0.006017,-0.499174,-0.001659,0.303875,-262.720769,-1.642995,67.12382
7.9378,0.006846,0.010394,-0.003515,-0.000927,-0.003529,0.00359,0.005898,-0.499621,-0.001265,0.303875,-262.720769,-1.642995,67.12382
7.9572,0.007011,0.01059,-0.003118,-0.000966,-0.003515,0.003222,0.005898,-0.499621,-0.001265,0.303875,-262.720769,-1.642995,67.12382
7.9771,0.006862,0.010402,-0.002544,-0.000992,-0.003499,0.002973,0.00542,-0.499408,-0.003117,0.378895,-262.720772,-1.713466,67.123832
7.9974,0.006994,0.01034,-0.001532,-0.000929,-0.003493,0.003474,0.005478,-0.499484,-0.002887,0.378895,-262.720772,-1.713466,67.123832
8.0168,0.006993,0.010195,-0.00325,-0.000884,-0.003489,0.003841,0.006213,-0.49966,-0.001532,0.453891,-262.720772,-1.638469,67.123832
8.0374,0.006973,0.010528,-0.003221,-0.000854,-0.003481,0.004172,0.005415,-0.499789,-0.003094,0.453891,-262.720772,-1.638469,67.123832
8.0578,0.007235,0.010275,-0.00406,-0.000833,-0.003477,0.004411,0.005415,-0.499789,-0.003094,0.453891,-262.720772,-1.638469,67.123832
8.0772,0.007257,0.010391,-0.001426,-0.000819,-0.003474,0.004584,0.005163,-0.499725,-0.004055,0.528883,-262.720788,-1.71346,67.123896
8.0972,0.006856,0.01075,-0.000576,-0.000828,-0.003465,0.004674,0.005716,-0.499678,-0.002992,0.528883,-262.720788,-1.71346,67.123896
8.1167,0.007125,0.010135,-0.003829,-0.000837,-0.003458,0.004739,0.006544,-0.499323,-0.000478,0.603868,-262.721069,-1.700574,67.125576
8.1371,0.007115,0.010708,-0.001477,-0.000809,-0.003463,0.004977,0.005282,-0.499821,-0.003553,0.603868,-262.721069,-1.700574,67.125576
8.1571,0.007082,0.010156,-0.002197,-0.000788,-0.003468,0.005149,0.005282,-0.499821,-0.003553,0.603868,-262.721069,-1.700574,67.125576
8.1772,0.00669,0.01037,-0.002637,-0.000774,-0.003474,0.005274,0.005926,-0.499987,-0.002,0.5922,-262.721471,-1.701841,67.128129
8.1972,0.006721,0.010411,-0.003077,-0.000832,-0.003473,0.004881,0.005684,-0.499857,-0.002238,0.5922,-262.721471,-1.701841,67.128129
8.217,0.006605,0.010232,-0.002141,-0.000873,-0.003467,0.004612,0.005145,-0.499619,-0.003029,0.517367,-262.721566,-1.685869,67.12891
8.237,0.00649,0.009572,-0.000935,-0.000884,-0.00347,0.004423,0.005479,-0.499755,-0.002219,0.517367,-262.721566,-1.685869,67.12891
8.2576,0.006712,0.009496,-0.002142,-0.00089,-0.003471,0.004295,0.005479,-0.499755,-0.002219,0.517367,-262.721566,-1.685869,67.12891
8.2773,0.006763,0.009892,-0.002153,-0.000892,-0.003469,0.004209,0.00559,-0.500615,-0.001991,0.59226,-262.721905,-1.708843,67.130886
8.2969,0.006745,0.010059,-0.002241,-0.000938,-0.003441,0.004071,0.005617,-0.500422,-0.002039,0.59226,-262.721905,-1.708843,67.130886
8.3176,0.006413,0.009815,-0.001124,-0.000973,-0.003416,0.003978,0.005586,-0.499998,-0.002167,0.667238,-262.722176,-1.717439,67.132193
8.3372,0.0065,0.009939,-0.001934,-0.001026,-0.003405,0.003512,0.005816,-0.500171,-0.001216,0.667238,-262.722176,-1.717439,67.132193
8.3574,0.006555,0.009843,-0.001941,-0.001063,-0.003391,0.003188,0.005816,-0.500171,-0.001216,0.667238,-262.722176,-1.717439,67.132193
8.3771,0.006535,0.009653,-0.00112,-0.001088,-0.003376,0.002963,0.005532,-0.500266,-0.00181,0.74225,-262.722605,-1.735794,67.13403
8.3974,0.006296,0.009835,-0.002625,-0.001095,-0.003357,0.002962,0.005704,-0.500311,-0.001515,0.74225,-262.722605,-1.735794,67.13403
8.417,0.006552,0.010139,-0.001234,-0.0011,-0.003342,0.002964,0.004957,-0.500163,-0.002625,0.817244,-262.722605,-1.660799,67.13403
8.4372,0.00605,0.010229,-0.000886,-0.001099,-0.003339,0.002892,0.005836,-0.499888,-0.001359,0.817244,-262.722605,-1.660799,67.13403
8.457,0.006115,0.009415,-0.000778,-0.001096,-0.003336,0.002844,0.005836,-0.499888,-0.001359,0.817244,-262.722605,-1.660799,67.13403
8.4771,0.006579,0.009969,-0.001536,-0.001092,-0.003332,0.002812,0.005718,-0.500585,-0.000778,0.89224,-262.722606,-1.585804,67.13403
8.4972,0.006363,0.009971,-0.000678,-0.001112,-0.003319,0.002645,0.00575,-0.500359,-0.001087,0.89224,-262.722606,-1.585804,67.13403
8.517,0.006318,0.010001,-0.001635,-0.001125,-0.003307,0.002529,0.006018,-0.500029,-0.000678,0.967251,-262.722606,-1.510792,67.13403
8.537,0.006142,0.009576,-0.000515,-0.001088,-0.003312,0.002686,0.005532,-0.500001,-0.001549,0.967251,-262.722606,-1.510792,67.13403
8.5571,0.006554,0.009946,-0.001083,-0.00106,-0.003317,0.002799,0.005532,-0.500001,-0.001549,0.967251,-262.722606,-1.510792,67.13403
8.5769,0.006386,0.009997,-0.00339,-0.001038,-0.003322,0.002881,0.006002,-0.500054,-0.001083,1.002663,-262.722606,-1.435792,67.13403
8.5968,0.006411,0.010083,-0.001994,-0.001004,-0.003325,0.003152,0.005455,-0.500032,-0.002021,1.002663,-262.722606,-1.435792,67.13403
8.6167,0.006274,0.009879,-0.002975,-0.000979,-0.003329,0.003346,0.005394,-0.499916,-0.001994,0.984271,-262.722606,-1.360803,67.13403
8.6371,0.006251,0.00976,-0.001006,-0.000891,-0.003353,0.003807,0.004815,-0.5001,-0.002886,0.984271,-262.722606,-1.360803,67.13403
8.657,0.006319,0.009701,-0.000351,-0.000826,-0.003377,0.004137,0.004815,-0.5001,-0.002886,0.984271,-262.722606,-1.360803,67.13403
8.6772,0.006519,0.009619,-0.001181,-0.000777,-0.003398,0.004373,0.00614,-0.500299,-0.000351,0.920103,-262.722606,-1.285828,67.134029
8.697,0.006515,0.009902,-0.001658,-0.000901,-0.003387,0.003505,0.006049,-0.500332,-0.000688,0.920103,-262.722606,-1.285828,67.134029
8.7175,0.00626,0.009462,-0.001625,-0.000991,-0.003369,0.002896,0.00567,-0.500102,-0.001653,0.845008,-262.722622,-1.360923,67.134124
8.7371,0.006474,0.009576,-0.001886,-0.000993,-0.003354,0.002961,0.005456,-0.500493,-0.001627,0.845008,-262.722622,-1.360923,67.134124
8.757,0.006165,0.009842,-0.001343,-0.000996,-0.003342,0.003008,0.005456,-0.500493,-0.001627,0.845008,-262.722622,-1.360923,67.134124
8.777,0.006774,0.009726,-0.000713,-0.000998,-0.003333,0.003042,0.00548,-0.500158,-0.001343,0.919933,-262.722622,-1.285998,67.134124
8.7971,0.006373,0.00955,-0.000625,-0.001033,-0.003325,0.002797,0.005855,-0.500204,-0.001089,0.919933,-262.722622,-1.285998,67.134124
8.817,0.005819,0.010149,-0.001559,-0.001057,-0.003316,0.002625,0.006054,-0.50045,-0.000625,0.975656,-262.722622,-1.210972,67.134124
8.8373,0.006448,0.010047,-0.001913,-0.000995,-0.003341,0.002705,0.005113,-0.499902,-0.001478,0.975656,-262.722622,-1.210972,67.134124
8.8571,0.006585,0.009916,-0.00288,-0.000946,-0.003363,0.002762,0.005113,-0.499902,-0.001478,0.975656,-262.722622,-1.210972,67.134124
8.8774,0.006436,0.009747,-0.001497,-0.000906,-0.003382,0.002802,0.005116,-0.500082,-0.00288,1.01778,-262.722622,-1.135877,67.134123
8.8972,0.00597,0.009631,-0.001406,-0.00088,-0.003377,0.003186,0.00534,-0.50015,-0.002324,1.01778,-262.722622,-1.135877,67.134123
8.9173,0.006332,0.009711,-0.001379,-0.000862,-0.003374,0.003462,0.005253,-0.500368,-0.001406,1.073789,-262.722623,-1.060983,67.134123
8.9375,0.006286,0.009465,-0.001927,-0.000904,-0.003367,0.003239,0.005596,-0.500296,-0.001382,1.073789,-262.722623,-1.060983,67.134123
8.9573,0.006322,0.009772,-0.001016,-0.000935,-0.003358,0.003083,0.005596,-0.500296,-0.001382,1.073789,-262.722623,-1.060983,67.134123
8.977,0.006406,0.009925,-0.001254,-0.000958,-0.00335,0.002973,0.005804,-0.500228,-0.001016,0.998654,-262.722623,-1.136119,67.134124
8.9969,0.006147,0.00941,-0.001128,-0.000991,-0.003342,0.002761,0.005788,-0.500163,-0.001117,0.998654,-262.722623,-1.136119,67.134124
9.0174,0.006686,0.009588,-0.000479,-0.001015,-0.003334,0.002612,0.005572,-0.50059,-0.001128,1.012574,-262.722623,-1.060649,67.134124
9.0377,0.006559,0.009678,-0.001358,-0.0011,-0.003299,0.002179,0.00638,-0.500425,-0.000525,1.012574,-262.722623,-1.060649,67.134124
9.0572,0.006599,0.009759,-0.002366,-0.001164,-0.003267,0.001875,0.00638,-0.500425,-0.000525,1.012574,-262.722623,-1.060649,67.134124
9.0767,0.006309,0.009855,-0.001752,-0.001213,-0.003238,0.001662,0.005393,-0.500239,-0.002366,1.042377,-262.722623,-0.98565,67.134124
9.0968,0.006473,0.010077,-0.001448,-0.001129,-0.003248,0.002281,0.005402,-0.500201,-0.002116,1.042377,-262.722623,-0.98565,67.134124
9.1171,0.0062,0.009727,-0.00075,-0.001067,-0.00326,0.002728,0.005735,-0.499923,-0.001448,1.071098,-262.722623,-0.91125,67.134124
9.1372,0.006396,0.009809,-0.003293,-0.001091,-0.003267,0.002423,0.00581,-0.500243,-0.000809,1.071098,-262.722623,-0.91125,67.134124
9.1569,0.006537,0.009757,0.00038,-0.001106,-0.003269,0.002208,0.00581,-0.500243,-0.000809,1.071098,-262.722623,-0.91125,67.134124
9.1771,0.006171,0.009423,-0.003072,-0.001116,-0.003269,0.002058,0.006731,-0.500243,0.00038,0.995977,-262.722623,-0.836129,67.134123
9.1968,0.006475,0.009541,-0.000793,-0.001125,-0.003257,0.002073,0.005862,-0.500379,-0.001031,0.995977,-262.722623,-0.836129,67.134123
9.217,0.0065,0.009563,-0.000532,-0.001132,-0.003247,0.002085,0.006071,-0.500459,-0.000793,1.064407,-262.722623,-0.761171,67.134123
9.2374,0.006092,0.00988,-0.002808,-0.001178,-0.003229,0.001831,0.006215,-0.500439,-0.000554,1.064407,-262.722623,-0.761171,67.134123
9.2577,0.006248,0.009665,-0.003007,-0.001213,-0.003211,0.001653,0.006215,-0.500439,-0.000554,1.064407,-262.722623,-0.761171,67.134123
9.2776,0.006181,0.009772,-0.001714,-0.001239,-0.003194,0.001529,0.004715,-0.500333,-0.003007,1.050161,-262.722623,-0.686162,67.134123
9.2971,0.006106,0.00983,-0.000788,-0.001107,-0.003225,0.002314,0.004954,-0.50029,-0.002486,1.050161,-262.722623,-0.686162,67.134123
9.3172,0.00609,0.009882,-0.001329,-0.00101,-0.003254,0.002886,0.005704,-0.50017,-0.000788,1.069591,-262.722623,-0.611316,67.134123
9.3373,0.006304,0.009763,-0.00197,-0.001,-0.003276,0.002784,0.005439,-0.500122,-0.001281,1.069591,-262.722623,-0.611316,67.134123
9.3573,0.006318,0.010065,-0.000922,-0.000991,-0.003292,0.002714,0.005439,-0.500122,-0.001281,1.069591,-262.722623,-0.611316,67.134123
9.3771,0.0062,0.009778,-0.001676,-0.000982,-0.003305,0.002666,0.005848,-0.499935,-0.000922,0.994539,-262.722623,-0.536264,67.134123
9.3974,0.006065,0.009977,-0.00241,-0.000987,-0.00331,0.002607,0.005642,-0.500052,-0.001232,0.994539,-262.722623,-0.536264,67.134123
9.4174,0.006067,0.009763,-0.001849,-0.00099,-0.003313,0.002567,0.004837,-0.500022,-0.00241,1.041106,-262.722624,-0.461261,67.134123
9.4373,0.00659,0.009783,-0.000616,-0.000939,-0.003326,0.00285,0.005099,-0.500217,-0.001898,1.041106,-262.722624,-0.461261,67.134123
9.4573,0.006489,0.009761,-0.000904,-0.000902,-0.003339,0.003052,0.005099,-0.500217,-0.001898,1.041106,-262.722624,-0.461261,67.134123
9.4769,0.00666,0.009984,-0.002636,-0.000873,-0.003352,0.003195,0.006028,-0.500238,-0.000904,1.054705,-262.722624,-0.386159,67.134122
9.4971,0.006085,0.009795,-0.002216,-0.000905,-0.003341,0.003164,0.00574,-0.500147,-0.001605,1.054705,-262.722624,-0.386159,67.134122
9.5172,0.006212,0.009771,-0.000807,-0.000931,-0.003333,0.003142,0.004954,-0.500203,-0.002216,1.013019,-262.722624,-0.461059,67.134123
9.5371,0.006082,0.010096,-0.001984,-0.000973,-0.003332,0.002784,0.005724,-0.500226,-0.000935,1.013019,-262.722624,-0.461059,67.134123
9.5571,0.006479,0.009564,-0.000718,-0.001004,-0.003327,0.002532,0.005724,-0.500226,-0.000935,1.013019,-262.722624,-0.461059,67.134123
9.577,0.006372,0.009573,-0.00281,-0.001025,-0.003322,0.002355,0.006112,-0.500436,-0.000718,0.988757,-262.722624,-0.386064,67.134122
9.597,0.006365,0.009694,-0.000259,-0.00102,-0.003307,0.002581,0.005595,-0.500431,-0.00164,0.988757,-262.722624,-0.386064,67.134122
9.617,0.00615,0.009497,-0.002306,-0.001018,-0.003296,0.002744,0.006233,-0.500306,-0.000259,1.064729,-262.722624,-0.310092,67.134122
9.6371,0.006353,0.009978,-0.001917,-0.000969,-0.003305,0.003073,0.005079,-0.500485,-0.002135,1.064729,-262.722624,-0.310092,67.134122
9.6569,0.006532,0.009824,-0.001047,-0.000932,-0.003315,0.003308,0.005079,-0.500485,-0.002135,1.064729,-262.722624,-0.310092,67.134122
9.6769,0.006083,0.009995,-0.002746,-0.000906,-0.003324,0.003475,0.005998,-0.500176,-0.001047,1.009754,-262.722624,-0.235855,67.134122
9.697,0.006322,0.010053,-0.002755,-0.00091,-0.003333,0.003426,0.005457,-0.500105,-0.001745,1.009754,-262.722624,-0.235855,67.134122
9.717,0.006376,0.009885,-0.001539,-0.000912,-0.00334,0.003392,0.004917,-0.499945,-0.002755,0.934874,-262.722624,-0.310734,67.134122
9.737,0.006471,0.010167,-0.001205,-0.000923,-0.003343,0.003316,0.005539,-0.500101,-0.001633,0.934874,-262.722624,-0.310734,67.134122
9.7569,0.006311,0.010101,-0.000311,-0.000931,-0.003345,0.003262,0.005539,-0.500101,-0.001633,0.934874,-262.722624,-0.310734,67.134122
9.777,0.006471,0.009888,-0.00119,-0.000936,-0.003347,0.003224,0.006153,-0.499899,-0.000311,0.947377,-262.722624,-0.386035,67.134122
9.7969,0.006376,0.009841,-0.000638,-0.000998,-0.003344,0.002693,0.006036,-0.499985,-0.000668,0.947377,-262.722624,-0.386035,67.134122
9.8172,0.006244,0.009917,-0.001869,-0.001042,-0.003337,0.002318,0.00605,-0.500159,-0.000638,0.973844,-262.722624,-0.460644,67.134123
9.8374,0.006136,0.009879,-0.001677,-0.000998,-0.003341,0.002607,0.005359,-0.500089,-0.001758,0.973844,-262.722624,-0.460644,67.134123
9.8574,0.006388,0.009344,-0.002254,-0.000966,-0.003345,0.002815,0.005359,-0.500089,-0.001758,0.973844,-262.722624,-0.460644,67.134123
9.877,0.006567,0.0098,-0.00086,-0.000942,-0.00335,0.002964,0.005238,-0.500655,-0.002254,1.048841,-262.722624,-0.385647,67.134122
9.8971,0.006157,0.009657,-0.000974,-0.000961,-0.003333,0.003034,0.005601,-0.500469,-0.001685,1.048841,-262.722624,-0.385647,67.134122
9.9167,0.006021,0.010078,-0.001478,-0.000978,-0.003319,0.003085,0.005661,-0.500343,-0.000974,1.021886,-262.722624,-0.310652,67.134122
9.9371,0.00624,0.010068,-0.002131,-0.000954,-0.00334,0.003007,0.005302,-0.499958,-0.001434,1.021886,-262.722624,-0.310652,67.134122
9.9569,0.005755,0.00976,-0.003311,-0.000934,-0.003356,0.002952,0.005302,-0.499958,-0.001434,1.021886,-262.722624,-0.310652,67.134122
9.977,0.006275,0.009948,-0.000167,-0.000917,-0.003368,0.002913,0.004066,-0.500238,-0.003311,0.97272,-262.722624,-0.235513,67.134122
9.9969,0.006006,0.009753,-0.000979,-0.000865,-0.003383,0.003155,0.004929,-0.500162,-0.002034,0.97272,-262.722624,-0.235513,67.134122
10.0171,0.006399,0.010028,-0.002472,-0.000826,-0.003396,0.003327,0.005507,-0.500246,-0.000979,1.047562,-262.722624,-0.160634,67.134122
10.0371,0.006362,0.0098,-0.001524,-0.000798,-0.003403,0.003579,0.005165,-0.49999,-0.002365,1.047562,-262.722624,-0.160634,67.134122
10.057,0.006032,0.009712,-0.003382,-0.00078,-0.00341,0.003759,0.005165,-0.49999,-0.002365,1.047562,-262.722624,-0.160634,67.134122
10.077,0.006448,0.009664,-0.00175,-0.000767,-0.003417,0.003886,0.004308,-0.500285,-0.003382,1.026629,-262.722624,-0.236182,67.134122
10.0971,0.006496,0.009975,-0.000333,-0.000737,-0.003426,0.004095,0.004833,-0.500306,-0.002695,1.026629,-262.722624,-0.236182,67.134122
10.1173,0.006291,0.009919,-0.001269,-0.000716,-0.003435,0.004242,0.006327,-0.500025,-0.000333,0.951752,-262.722624,-0.311059,67.134122
10.1373,0.006131,0.009815,-0.000948,-0.000799,-0.003431,0.003677,0.005698,-0.500076,-0.001194,0.951752,-262.722624,-0.311059,67.134122
10.1573,0.006401,0.009803,-0.001208,-0.00086,-0.003423,0.003282,0.005698,-0.500076,-0.001194,0.951752,-262.722624,-0.311059,67.134122
10.1771,0.006331,0.009543,-0.001964,-0.000904,-0.003412,0.003006,0.005785,-0.500197,-0.001208,0.87686,-262.722625,-0.385951,67.134123
10.1969,0.006488,0.009764,-0.001172,-0.00093,-0.003393,0.002976,0.005599,-0.500302,-0.001517,0.87686,-262.722625,-0.385951,67.134123
10.2168,0.005982,0.00973,-0.001701,-0.00095,-0.003377,0.002957,0.00589,-0.500236,-0.001172,0.95154,-262.722625,-0.46063,67.134123
10.2369,0.006422,0.009902,-0.001272,-0.000929,-0.003381,0.003013,0.005183,-0.500267,-0.001654,0.95154,-262.722625,-0.46063,67.134123
10.2572,0.006246,0.009726,-0.002731,-0.000912,-0.003384,0.003054,0.005183,-0.500267,-0.001654,0.95154,-262.722625,-0.46063,67.134123
10.2772,0.00624,0.009915,-0.001153,-0.000899,-0.003387,0.003083,0.004853,-0.500272,-0.002731,1.026616,-262.722625,-0.385555,67.134122
10.2971,0.006653,0.009789,-0.001953,-0.000874,-0.003389,0.003288,0.005185,-0.500194,-0.002074,1.026616,-262.722625,-0.385555,67.134122
10.3169,0.006744,0.009728,0.000449,-0.000856,-0.003391,0.003434,0.005657,-0.50021,-0.001953,1.031938,-262.722625,-0.460805,67.134123
10.3372,0.006186,0.009559,-0.002473,-0.001025,-0.003356,0.00232,0.006857,-0.500266,0.000236,1.031938,-262.722625,-0.460805,67.134123
10.3572,0.006394,0.009628,-0.001554,-0.00115,-0.003315,0.001527,0.006857,-0.500266,0.000236,1.031938,-262.722625,-0.460805,67.134123
10.3774,0.006535,0.009866,-0.003373,-0.001244,-0.003273,0.000969,0.005602,-0.500371,-0.001554,0.986438,-262.722625,-0.535542,67.134123
10.3974,0.006047,0.009936,0.000846,-0.001137,-0.003277,0.001827,0.00528,-0.500273,-0.002297,0.986438,-262.722625,-0.535542,67.134123
10.4176,0.006353,0.009994,-0.002177,-0.00106,-0.003285,0.002455,0.006479,-0.500063,0.000846,1.061375,-262.722625,-0.460605,67.134123
10.4375,0.006225,0.009433,-0.000696,-0.001008,-0.003302,0.002762,0.005352,-0.50001,-0.00191,1.061375,-262.722625,-0.460605,67.134123
10.4574,0.006293,0.010002,-0.000535,-0.000969,-0.003317,0.002984,0.005352,-0.50001,-0.00191,1.061375,-262.722625,-0.460605,67.134123
10.4771,0.006362,0.009613,-0.000299,-0.000939,-0.003331,0.003145,0.00602,-0.499998,-0.000535,1.035204,-262.722625,-0.385571,67.134123
10.4972,0.00631,0.010223,-0.000608,-0.001019,-0.003327,0.002501,0.006097,-0.500156,-0.000439,1.035204,-262.722625,-0.385571,67.134123
10.5172,0.006208,0.009845,-0.000783,-0.001075,-0.003317,0.002048,0.006,-0.499777,-0.000608,0.983031,-262.722625,-0.310603,67.134122
10.5372,0.006629,0.009674,-0.00225,-0.001086,-0.003312,0.001917,0.005826,-0.50012,-0.000767,0.983031,-262.722625,-0.310603,67.134122
10.5571,0.006304,0.009686,-0.001745,-0.001093,-0.003306,0.001826,0.005826,-0.50012,-0.000767,0.983031,-262.722625,-0.310603,67.134122
10.5773,0.006477,0.009907,-0.002486,-0.001097,-0.003301,0.001765,0.005414,-0.500313,-0.001745,1.058085,-262.722625,-0.235549,67.134122
10.5974,0.006157,0.009955,-0.001484,-0.001032,-0.003303,0.002327,0.005331,-0.500223,-0.002047,1.058085,-262.722625,-0.235549,67.134122
10.6172,0.006739,0.009849,-0.000544,-0.000986,-0.003308,0.002733,0.005401,-0.500044,-0.001484,1.112442,-262.722625,-0.160603,67.134122
10.6372,0.00624,0.009946,-0.002994,-0.001062,-0.003289,0.002323,0.006368,-0.500141,-0.000627,1.112442,-262.722625,-0.160603,67.134122
10.657,0.006486,0.010089,-0.001819,-0.001118,-0.00327,0.002034,0.006368,-0.500141,-0.000627,1.112442,-262.722625,-0.160603,67.134122
10.6772,0.006292,0.00977,-0.00198,-0.001161,-0.003251,0.001833,0.005559,-0.49991,-0.001819,1.037382,-262.722625,-0.085543,67.134122
10.6973,0.006111,0.009898,-0.001593,-0.00109,-0.003264,0.002315,0.005446,-0.50004,-0.001885,1.037382,-262.722625,-0.085543,67.134122
10.7167,0.005987,0.009801,-0.00154,-0.001037,-0.003277,0.002661,0.005298,-0.500102,-0.001593,1.072278,-262.722625,-0.010599,67.134122
10.7371,0.006822,0.009855,-0.000835,-0.000996,-0.003296,0.002759,0.005209,-0.500191,-0.001544,1.072278,-262.722625,-0.010599,67.134122
10.7573,0.006511,0.009695,-0.001654,-0.000964,-0.003313,0.002829,0.005209,-0.500191,-0.001544,1.072278,-262.722625,-0.010599,67.134122
10.7769,0.006307,0.009617,-0.001605,-0.000939,-0.003327,0.002879,0.005667,-0.500305,-0.001654,1.009959,-262.722625,0.064809,67.134121
10.7974,0.006364,0.009765,-0.002678,-0.000952,-0.003318,0.002955,0.005595,-0.500336,-0.001634,1.009959,-262.722625,0.064809,67.134121
10.8168,0.006329,0.00976,-0.001845,-0.000963,-0.003311,0.003009,0.004999,-0.500233,-0.002678,1.031331,-262.722625,0.139397,67.134121
10.8368,0.006501,0.010119,-0.001286,-0.000943,-0.003317,0.003176,0.005353,-0.500239,-0.001921,1.031331,-262.722625,0.139397,67.134121
10.8569,0.006141,0.009773,-0.002542,-0.000928,-0.003323,0.003294,0.005353,-0.500239,-0.001921,1.031331,-262.722625,0.139397,67.134121
10.8772,0.006533,0.009985,-0.001906,-0.000918,-0.003329,0.003378,0.004845,-0.500225,-0.002542,0.991828,-262.722626,0.214393,67.134121
10.8968,0.006127,0.009484,-0.001868,-0.00088,-0.003344,0.00359,0.00513,-0.500141,-0.002289,0.991828,-262.722626,0.214393,67.134121
10.9168,0.006571,0.009833,-0.00153,-0.000851,-0.003358,0.003739,0.005174,-0.500515,-0.001868,0.943133,-262.722626,0.289397,67.134121
10.9376,0.006235,0.009881,-0.002093,-0.000899,-0.003351,0.003522,0.005736,-0.500198,-0.00156,0.943133,-262.722626,0.289397,67.134121
10.9571,0.006485,0.009894,-0.001596,-0.000935,-0.003343,0.00337,0.005736,-0.500198,-0.00156,0.943133,-262.722626,0.289397,67.134121
10.9768,0.006481,0.009895,-0.003485,-0.000962,-0.003335,0.003264,0.005672,-0.500105,-0.001596,0.900553,-262.722626,0.364448,67.134121
10.9975,0.006456,0.009734,-0.001299,-0.000923,-0.003344,0.003535,0.005276,-0.500104,-0.002369,0.900553,-262.722626,0.364448,67.134121
11.0173,0.006127,0.009942,-0.00081,-0.000894,-0.003353,0.003728,0.005794,-0.500265,-0.001299,0.948843,-262.722626,0.43954,67.13412
11.0372,0.005951,0.009954,-0.001911,-0.000949,-0.003362,0.003145,0.005721,-0.500076,-0.000855,0.948843,-262.722626,0.43954,67.13412
11.0573,0.006483,0.009843,-0.001155,-0.000986,-0.003364,0.002735,0.005721,-0.500076,-0.000855,0.948843,-262.722626,0.43954,67.13412
11.0776,0.006198,0.009634,-0.001606,-0.001011,-0.003361,0.002447,0.005894,-0.500156,-0.001155,0.877394,-262.722626,0.514392,67.13412
11.0974,0.006345,0.009681,-0.001833,-0.001018,-0.003346,0.002498,0.005686,-0.500241,-0.001337,0.877394,-262.722626,0.514392,67.13412
11.1171,0.006399,0.009964,-0.002399,-0.001024,-0.003334,0.002537,0.00541,-0.500318,-0.001833,0.952396,-262.722626,0.589394,67.13412
11.1376,0.005821,0.010024,-0.002426,-0.000957,-0.003345,0.003001,0.005197,-0.50006,-0.002347,0.952396,-262.722626,0.589394,67.13412
11.1574,0.006479,0.009795,-0.001977,-0.000909,-0.003356,0.003335,0.005197,-0.50006,-0.002347,0.952396,-262.722626,0.589394,67.13412
11.1769,0.006375,0.010037,-0.002614,-0.000874,-0.003367,0.003575,0.00547,-0.500204,-0.001977,1.027392,-262.722626,0.664391,67.13412
11.197,0.006304,0.009787,-0.003409,-0.00086,-0.003373,0.003702,0.005296,-0.500106,-0.002236,1.027392,-262.722626,0.664391,67.13412
11.2171,0.006216,0.009749,-0.001241,-0.000851,-0.003379,0.003793,0.004566,-0.50021,-0.003409,0.952386,-262.722626,0.739397,67.13412
11.2369,0.006711,0.00997,-0.001555,-0.000889,-0.003379,0.003493,0.005493,-0.500247,-0.001433,0.952386,-262.722626,0.739397,67.13412
11.2571,0.006015,0.010196,0.000184,-0.000916,-0.003377,0.003283,0.005493,-0.500247,-0.001433,0.952386,-262.722626,0.739397,67.13412
11.2772,0.006244,0.009588,-0.000512,-0.000935,-0.003373,0.003137,0.006109,-0.499804,0.000184,0.895312,-262.722626,0.814454,67.134119
11.298,0.006295,0.009861,-0.003153,-0.001019,-0.003372,0.002301,0.006058,-0.500052,-0.0001,0.895312,-262.722626,0.814454,67.134119
11.3171,0.006263,0.009334,-0.002186,-0.001076,-0.003364,0.001711,0.004686,-0.500137,-0.003153,0.970262,-262.722628,0.889404,67.134113
11.3373,0.006459,0.009667,-0.001314,-0.001011,-0.003351,0.002364,0.005105,-0.500616,-0.002276,0.970262,-262.722628,0.889404,67.134113
11.3576,0.006132,0.009636,-0.002582,-0.000966,-0.003345,0.002838,0.005105,-0.500616,-0.002276,0.970262,-262.722628,0.889404,67.134113
11.3771,0.006604,0.009844,-0.000651,-0.000934,-0.003342,0.003182,0.004813,-0.500366,-0.00258,1.045253,-262.722654,0.964395,67.134067
11.397,0.00634,0.009667,-0.001858,-0.000933,-0.003343,0.003232,0.005405,-0.500281,-0.001797,1.045253,-262.722654,0.964395,67.134067
11.4172,0.005793,0.009664,-0.001732,-0.000932,-0.003344,0.00327,0.005389,-0.500336,-0.001855,0.981785,-262.722683,1.039435,67.133974
11.4374,0.00646,0.009866,-0.002803,-0.000901,-0.003362,0.003276,0.004953,-0.500335,-0.001743,0.981785,-262.722683,1.039435,67.133974
11.4575,0.006225,0.009853,-0.002511,-0.000875,-0.003376,0.003281,0.004953,-0.500335,-0.001743,0.981785,-262.722683,1.039435,67.133974
11.4772,0.006426,0.009645,-0.001663,-0.000854,-0.003388,0.003285,0.004936,-0.500161,-0.002496,0.965258,-262.722763,1.114392,67.13371
11.4972,0.006152,0.010026,-0.001351,-0.00084,-0.003388,0.003464,0.005196,-0.500241,-0.002155,0.965258,-262.722763,1.114392,67.13371
11.5173,0.006353,0.009938,-0.001864,-0.000832,-0.00339,0.003591,0.005453,-0.499996,-0.001329,1.017341,-262.722908,1.189397,67.133223
11.5374,0.006727,0.009857,-0.001729,-0.000844,-0.003392,0.003536,0.005407,-0.500056,-0.001814,1.017341,-262.722908,1.189397,67.133223
11.5575,0.006468,0.010077,-0.001372,-0.000852,-0.003393,0.003497,0.005407,-0.500056,-0.001814,1.017341,-262.722908,1.189397,67.133223
11.5774,0.006093,0.009674,-0.002152,-0.000859,-0.003394,0.003469,0.005747,-0.499977,-0.001315,0.963289,-262.723138,1.264401,67.13233
11.5972,0.00591,0.009647,-0.00151,-0.000875,-0.003392,0.003373,0.005441,-0.500124,-0.001647,0.963289,-262.723138,1.264401,67.13233
11.6175,0.006837,0.009809,-0.000268,-0.000886,-0.00339,0.003306,0.005117,-0.500426,-0.001435,0.977844,-262.723561,1.339392,67.130794
11.6375,0.005699,0.009298,-0.002055,-0.001011,-0.003357,0.002573,0.006555,-0.500216,-0.00037,0.977844,-262.723561,1.339392,67.130794
11.6575,0.006122,0.00972,0.000378,-0.001103,-0.003323,0.002057,0.006555,-0.500216,-0.00037,0.977844,-262.723561,1.339392,67.130794
11.6774,0.006025,0.009234,-7e-05,-0.001172,-0.003289,0.001696,0.006281,-0.500411,0.000506,0.996953,-262.724164,1.408417,67.128771
11.6973,0.00589,0.009175,-0.000679,-0.001235,-0.003271,0.001068,0.006157,-0.500572,0.000283,0.996953,-262.724164,1.408417,67.128771
11.717,0.005839,0.009325,-0.001454,-0.001279,-0.00325,0.000626,0.005517,-0.500902,-0.000638,1.072076,-262.724913,1.333294,67.127449
11.7369,0.00627,0.009262,-0.002015,-0.001194,-0.003249,0.001227,0.005126,-0.500694,-0.001394,1.072076,-262.724913,1.333294,67.127449
11.7569,0.005975,0.009442,-0.000276,-0.00113,-0.00325,0.001661,0.005126,-0.500694,-0.001394,1.072076,-262.724913,1.333294,67.127449
11.7769,0.006077,0.009332,-0.001542,-0.001083,-0.003254,0.001972,0.005794,-0.500662,-0.000255,1.14751,-262.72587,1.25786,67.126275
11.797,0.006155,0.009252,-0.00191,-0.001101,-0.003246,0.001873,0.005586,-0.500676,-0.000774,1.14751,-262.72587,1.25786,67.126275
11.8167,0.005678,0.009135,-0.001908,-0.001114,-0.003238,0.001805,0.005151,-0.500836,-0.001856,1.084548,-262.726666,1.332292,67.1247
11.8368,0.00579,0.008661,-0.002446,-0.001036,-0.003251,0.002306,0.004744,-0.500866,-0.001901,1.084548,-262.726666,1.332292,67.1247
11.857,0.005741,0.009278,-0.001889,-0.000979,-0.003265,0.002668,0.004744,-0.500866,-0.001901,1.084548,-262.726666,1.332292,67.1247
11.8769,0.005851,0.009009,0.001184,-0.000935,-0.003278,0.002929,0.004731,-0.500856,-0.001813,1.089944,-262.727634,1.319518,67.1229
11.8969,0.005567,0.00908,0.000836,-0.001004,-0.003273,0.002412,0.005455,-0.500929,-0.000536,1.089944,-262.727634,1.319518,67.1229
11.917,0.005237,0.008747,-0.00215,-0.001054,-0.003263,0.002049,0.005969,-0.501007,0.000913,1.014375,-262.728218,1.388243,67.121188
11.937,0.005856,0.008821,-0.000998,-0.00097,-0.003278,0.002471,0.004307,-0.501234,-0.001865,1.014375,-262.728218,1.388243,67.121188
11.9571,0.005483,0.008473,0.001862,-0.000906,-0.003292,0.002776,0.004307,-0.501234,-0.001865,1.014375,-262.728218,1.388243,67.121188
11.9775,0.005464,0.008307,0.000609,-0.000858,-0.003305,0.002995,0.006394,-0.501647,0.001938,1.088369,-262.729022,1.341509,67.119547
11.9973,0.00555,0.00831,-5.2e-05,-0.001079,-0.003265,0.001474,0.006138,-0.501679,0.001408,1.088369,-262.729022,1.341509,67.119547
12.0173,0.005206,0.008498,-0.002452,-0.001246,-0.003214,0.000364,0.005498,-0.501786,3.4e-05,1.044237,-262.729642,1.405198,67.117656
12.0369,0.005546,0.00898,0.000661,-0.001092,-0.003226,0.001384,0.004095,-0.501531,-0.002221,1.044237,-262.729642,1.405198,67.117656
12.0571,0.005347,0.008677,-0.000269,-0.000979,-0.003239,0.002129,0.004095,-0.501531,-0.002221,1.044237,-262.729642,1.405198,67.117656
12.0776,0.00526,0.008198,-0.001097,-0.000896,-0.003254,0.002672,0.005189,-0.501383,-0.000259,1.119168,-262.730217,1.330268,67.117008
12.0973,0.005241,0.008493,-0.00057,-0.000964,-0.003242,0.002262,0.00499,-0.501558,-0.000595,1.119168,-262.730217,1.330268,67.117008
12.1172,0.005303,0.008185,-0.001276,-0.001014,-0.003228,0.001975,0.004924,-0.501601,-0.000494,1.066307,-262.730887,1.389486,67.115212
12.1374,0.005349,0.008367,-0.000537,-0.00102,-0.00321,0.002104,0.004675,-0.5018,-0.001202,1.066307,-262.730887,1.389486,67.115212
12.1575,0.005147,0.008412,0.000247,-0.001025,-0.003195,0.002199,0.004675,-0.5018,-0.001202,1.066307,-262.730887,1.389486,67.115212
12.1774,0.005141,0.007849,9.8e-05,-0.00103,-0.003184,0.002268,0.005233,-0.501716,0.000325,1.105853,-262.731743,1.345898,67.113491
12.1971,0.005114,0.00794,-0.000135,-0.00113,-0.003165,0.001507,0.005211,-0.501906,0.000242,1.105853,-262.731743,1.345898,67.113491
12.2174,0.004958,0.007818,-0.001276,-0.001202,-0.003142,0.000966,0.005013,-0.502157,-6.6e-05,1.050724,-262.732533,1.349057,67.111706
12.2375,0.005124,0.007897,-0.000911,-0.001152,-0.003128,0.00137,0.004369,-0.502185,-0.001163,1.050724,-262.732533,1.349057,67.111706
12.2573,0.005115,0.007977,0.000886,-0.001117,-0.003119,0.001659,0.004369,-0.502185,-0.001163,1.050724,-262.732533,1.349057,67.111706
12.2774,0.005008,0.00771,0.000645,-0.001091,-0.003113,0.001867,0.005528,-0.502127,0.000919,1.125729,-262.733428,1.274052,67.110462
12.2975,0.004999,0.007861,0.000357,-0.001226,-0.003084,0.000924,0.005446,-0.502206,0.000811,1.125729,-262.733428,1.274052,67.110462
12.3172,0.004684,0.007127,-0.0004,-0.001325,-0.003051,0.000249,0.00515,-0.50223,0.000411,1.065635,-262.734252,1.31966,67.108857
12.3375,0.0046,0.007476,-0.000786,-0.00132,-0.003012,0.000406,0.004537,-0.502821,-0.000326,1.065635,-262.734252,1.31966,67.108857
12.3571,0.005063,0.007662,-0.00039,-0.001318,-0.00298,0.000519,0.004537,-0.502821,-0.000326,1.065635,-262.734252,1.31966,67.108857
12.3774,0.00474,0.007735,0.00019,-0.001317,-0.002956,0.0006,0.00483,-0.502423,-0.000382,1.140683,-262.735094,1.244613,67.107941
12.3973,0.004744,0.007738,-0.000782,-0.001321,-0.00295,0.00056,0.004829,-0.502369,-0.000149,1.140683,-262.735094,1.244613,67.107941
12.417,0.004749,0.007541,-0.000916,-0.001323,-0.002945,0.000532,0.004306,-0.50235,-0.000764,1.100375,-262.736182,1.193489,67.106603
12.4371,0.004777,0.00709,0.000558,-0.001255,-0.002956,0.000936,0.004282,-0.502453,-0.000902,1.100375,-262.736182,1.193489,67.106603
12.457,0.004169,0.007291,0.001195,-0.001205,-0.002966,0.001223,0.004282,-0.502453,-0.000902,1.100375,-262.736182,1.193489,67.106603
12.4773,0.005087,0.007103,-0.001523,-0.001168,-0.002977,0.001426,0.004723,-0.502831,0.001217,1.103161,-262.737353,1.186252,67.105196
12.4969,0.004677,0.007663,-0.000254,-0.001222,-0.00296,0.000999,0.004548,-0.502872,9.8e-05,1.103161,-262.737353,1.186252,67.105196
12.517,0.004556,0.007059,0.001366,-0.001261,-0.002943,0.000695,0.004515,-0.502418,-0.000216,1.064467,-262.738189,1.261124,67.103801
12.5372,0.004484,0.006787,-0.00115,-0.001383,-0.002909,-0.000137,0.005206,-0.502911,0.00127,1.064467,-262.738189,1.261124,67.103801
12.5572,0.004673,0.007149,0.000941,-0.001472,-0.002874,-0.000734,0.005206,-0.502911,0.00127,1.064467,-262.738189,1.261124,67.103801
12.577,0.005101,0.006936,0.000211,-0.001537,-0.00284,-0.00116,0.005105,-0.502965,0.000968,1.106658,-262.739234,1.212577,67.102465
12.597,0.004524,0.007469,-0.00016,-0.001563,-0.002797,-0.001141,0.005142,-0.50302,0.000656,1.106658,-262.739234,1.212577,67.102465
12.6167,0.004411,0.006932,-0.000566,-0.001585,-0.002762,-0.001126,0.00443,-0.502559,-0.000169,1.161994,-262.739703,1.138144,67.102147
12.6373,0.004451,0.006673,-7e-05,-0.001472,-0.002772,-0.00043,0.004142,-0.503036,-0.00054,1.161994,-262.739703,1.138144,67.102147
12.6571,0.004792,0.007002,-0.000207,-0.001389,-0.002784,6.3e-05,0.004142,-0.503036,-0.00054,1.161994,-262.739703,1.138144,67.102147
12.6769,0.004884,0.007001,-0.000897,-0.001328,-0.002795,0.00041,0.004659,-0.503052,-0.000225,1.140117,-262.740388,1.062768,67.101676
12.6972,0.004779,0.007187,0.001959,-0.001327,-0.002784,0.000629,0.004562,-0.503037,-0.000497,1.140117,-262.740388,1.062768,67.101676
12.717,0.004176,0.006781,0.001321,-0.001329,-0.002777,0.000783,0.005742,-0.502885,0.001969,1.089873,-262.741337,1.137116,67.100578
12.7369,0.004188,0.006576,0.001276,-0.001432,-0.002771,-0.000125,0.004929,-0.503193,0.00138,1.089873,-262.741337,1.137116,67.100578
12.7571,0.004485,0.006802,-0.000654,-0.001506,-0.002759,-0.00078,0.004929,-0.503193,0.00138,1.089873,-262.741337,1.137116,67.100578
12.7772,0.004044,0.006452,-0.000946,-0.001559,-0.002743,-0.001249,0.004099,-0.503307,-0.000623,1.046396,-262.742333,1.183049,67.099258
12.797,0.004352,0.00627,1.6e-05,-0.001437,-0.002743,-0.000418,0.003876,-0.503417,-0.00075,1.046396,-262.742333,1.183049,67.099258
12.8174,0.004215,0.006844,-0.000467,-0.001349,-0.002746,0.000175,0.004349,-0.503751,9e-06,1.121385,-262.742695,1.108061,67.09902
12.8373,0.00455,0.006463,-0.001595,-0.001295,-0.002763,0.000419,0.00401,-0.503211,-0.000424,1.121385,-262.742695,1.108061,67.09902
12.857,0.004015,0.006831,-0.000927,-0.001255,-0.002778,0.00059,0.00401,-0.503211,-0.000424,1.121385,-262.742695,1.108061,67.09902
12.8767,0.004305,0.006556,0.000417,-0.001225,-0.002792,0.000709,0.003486,-0.503282,-0.00092,1.098425,-262.743862,1.129265,67.097778
12.8972,0.00442,0.006536,-0.001892,-0.001201,-0.002799,0.000762,0.003901,-0.503361,-0.000374,1.098425,-262.743862,1.129265,67.097778
12.917,0.004179,0.00608,-0.000399,-0.001182,-0.002805,0.000798,0.003419,-0.503544,-0.001871,1.091889,-262.744825,1.204235,67.096529
12.9372,0.004301,0.006419,-0.000417,-0.001201,-0.002763,0.000906,0.003923,-0.503891,-0.00053,1.091889,-262.744825,1.204235,67.096529
12.9577,0.004318,0.006134,-0.001364,-0.001216,-0.002731,0.000982,0.003923,-0.503891,-0.00053,1.091889,-262.744825,1.204235,67.096529
12.9768,0.004033,0.006386,0.000155,-0.00123,-0.002706,0.001035,0.003573,-0.503982,-0.001331,1.099197,-262.745857,1.226117,67.095141
12.9969,0.004213,0.006502,0.002373,-0.001215,-0.002696,0.001178,0.003788,-0.503844,-0.000719,1.099197,-262.745857,1.226117,67.095141
13.0169,0.003886,0.005875,0.000997,-0.001206,-0.002689,0.001279,0.005387,-0.503578,0.002404,1.035586,-262.74676,1.217892,67.093809
13.0371,0.003989,0.00581,0.000394,-0.001347,-0.002652,0.00033,0.004486,-0.504078,0.001131,1.035586,-262.74676,1.217892,67.093809
13.0572,0.003684,0.006041,-0.001124,-0.001451,-0.002614,-0.000352,0.004486,-0.504078,0.001131,1.035586,-262.74676,1.217892,67.093809
13.0772,0.00385,0.006046,0.000187,-0.001527,-0.002578,-0.000838,0.003061,-0.504069,-0.001072,1.007219,-262.747646,1.236341,67.092366
13.0969,0.003836,0.005777,0.00059,-0.001397,-0.002589,-0.000239,0.003414,-0.504035,-0.000555,1.007219,-262.747646,1.236341,67.092366
13.1172,0.003787,0.006202,-0.00059,-0.0013,-0.002601,0.000187,0.004129,-0.50424,0.000587,1.082163,-262.747909,1.161397,67.09217
13.1372,0.003868,0.006263,-0.000542,-0.001235,-0.002624,0.000449,0.003544,-0.503838,-0.000484,1.082163,-262.747909,1.161397,67.09217
13.1571,0.004023,0.006371,-0.000153,-0.001187,-0.002643,0.000633,0.003544,-0.503838,-0.000484,1.082163,-262.747909,1.161397,67.09217
13.177,0.00374,0.005645,-0.001384,-0.00115,-0.00266,0.000763,0.003892,-0.503735,-0.000146,1.089175,-262.749006,1.124252,67.090994
13.1969,0.003992,0.005852,-0.0004,-0.001121,-0.002661,0.000944,0.003536,-0.503999,-0.000649,1.089175,-262.749006,1.124252,67.090994
13.2171,0.004015,0.006142,-0.000611,-0.001099,-0.002662,0.001071,0.003755,-0.504221,-0.000379,1.088121,-262.749867,1.199248,67.089835
13.2371,0.003878,0.005649,0.000346,-0.001101,-0.002666,0.001129,0.003706,-0.503892,-0.000591,1.088121,-262.749867,1.199248,67.089835
13.2573,0.003851,0.005688,-0.000694,-0.001104,-0.002669,0.001169,0.003706,-0.503892,-0.000591,1.088121,-262.749867,1.199248,67.089835
13.2773,0.003254,0.005596,0.001242,-0.001106,-0.002673,0.001197,0.003454,-0.504418,-0.000652,1.069928,-262.75074,1.250743,67.088503
13.2969,0.003702,0.0053,0.001986,-0.001161,-0.002634,0.0008,0.003626,-0.504425,0.000129,1.069928,-262.75074,1.250743,67.088503
13.3169,0.003829,0.005141,0.001767,-0.0012,-0.0026,0.000518,0.00468,-0.504784,0.002024,1.053063,-262.751629,1.256617,67.087079
13.3375,0.003505,0.005398,0.000665,-0.001416,-0.002488,-0.000517,0.004723,-0.504856,0.00179,1.053063,-262.751629,1.256617,67.087079
13.3572,0.003509,0.005531,-0.000331,-0.001579,-0.002391,-0.001264,0.004723,-0.504856,0.00179,1.053063,-262.751629,1.256617,67.087079
13.3769,0.00366,0.005305,-0.000372,-0.001703,-0.002308,-0.0018,0.003296,-0.504566,-0.000312,1.086822,-262.752551,1.181613,67.085953
13.397,0.003059,0.005208,-0.000168,-0.001549,-0.002315,-0.001037,0.003361,-0.504629,-0.000334,1.086822,-262.752551,1.181613,67.085953
13.417,0.00365,0.005329,0.000512,-0.001436,-0.002324,-0.000496,0.002973,-0.504793,-0.000168,1.107305,-262.752558,1.106707,67.085949
13.4375,0.003903,0.005109,0.000677,-0.001453,-0.002308,-0.000567,0.003828,-0.504682,0.000451,1.107305,-262.752558,1.106707,67.085949
13.4574,0.003965,0.004923,0.000217,-0.001466,-0.002295,-0.000619,0.003828,-0.504682,0.000451,1.107305,-262.752558,1.106707,67.085949
13.4768,0.003941,0.005322,0.000203,-0.001476,-0.002284,-0.000657,0.004038,-0.505143,0.000205,1.070428,-262.75336,1.031715,67.085285
13.497,0.003215,0.005053,0.000639,-0.001519,-0.002225,-0.000546,0.004036,-0.504961,0.000203,1.070428,-262.75336,1.031715,67.085285
13.517,0.00357,0.004967,0.002213,-0.001554,-0.00218,-0.000467,0.003506,-0.505004,0.000624,1.068242,-262.75431,0.956711,67.084543
13.5371,0.003346,0.005205,-1.6e-05,-0.001698,-0.002138,-0.00133,0.00459,-0.505033,0.00207,1.068242,-262.75431,0.956711,67.084543
13.5572,0.00371,0.00524,0.000535,-0.001805,-0.002097,-0.001954,0.00459,-0.505033,0.00207,1.068242,-262.75431,0.956711,67.084543
13.5772,0.003336,0.005104,0.002088,-0.001884,-0.002058,-0.002402,0.003927,-0.504839,0.000518,1.008377,-262.755322,0.883935,67.083692
13.597,0.003565,0.005027,0.000925,-0.001855,-0.002055,-0.002286,0.004113,-0.504871,0.001153,1.008377,-262.755322,0.883935,67.083692
13.6172,0.003179,0.004959,0.000236,-0.001834,-0.002052,-0.002205,0.004036,-0.504973,0.000925,1.079872,-262.755327,0.808933,67.08369
13.6372,0.003681,0.005247,0.000395,-0.001696,-0.002063,-0.001672,0.003365,-0.505035,0.000298,1.079872,-262.755327,0.808933,67.08369
13.6573,0.003082,0.005569,0.000574,-0.001594,-0.002074,-0.001298,0.003365,-0.505035,0.000298,1.079872,-262.755327,0.808933,67.08369
13.6769,0.003421,0.005321,0.000263,-0.001517,-0.002085,-0.001038,0.003372,-0.504435,0.000571,1.076067,-262.755388,0.733886,67.083659
13.6972,0.003621,0.004952,-0.000204,-0.001443,-0.002152,-0.000936,0.003447,-0.504535,0.000444,1.076067,-262.755388,0.733886,67.083659
13.7171,0.003198,0.005086,-0.000436,-0.001387,-0.002206,-0.000867,0.003469,-0.505113,-0.000236,1.061768,-262.756618,0.763144,67.082829
13.7369,0.003211,0.004748,0.000615,-0.001273,-0.002218,-0.000328,0.003012,-0.504932,-0.000422,1.061768,-262.756618,0.763144,67.082829
13.7573,0.003402,0.005174,-0.000208,-0.001189,-0.00223,5.2e-05,0.003012,-0.504932,-0.000422,1.061768,-262.756618,0.763144,67.082829
13.777,0.003301,0.00484,-0.001788,-0.001127,-0.002241,0.000319,0.003249,-0.504897,-0.000238,1.101647,-262.757575,0.838513,67.08215
13.7973,0.003398,0.005,-0.000951,-0.001052,-0.002244,0.000751,0.002892,-0.505013,-0.000877,1.101647,-262.757575,0.838513,67.08215
13.8171,0.003445,0.004752,0.000977,-0.000998,-0.00225,0.001057,0.002903,-0.505015,-0.000951,1.067652,-262.757789,0.913149,67.081904
13.8369,0.003339,0.004879,0.001103,-0.001166,-0.002198,0.00032,0.003854,-0.505229,0.000813,1.067652,-262.757789,0.913149,67.081904
13.8572,0.003187,0.004637,-0.000198,-0.001292,-0.002153,-0.000205,0.003854,-0.505229,0.000813,1.067652,-262.757789,0.913149,67.081904
13.877,0.003503,0.00476,-0.000908,-0.001387,-0.002114,-0.000577,0.003076,-0.505378,-0.000193,1.0144,-262.757917,0.988152,67.081697
13.8976,0.003724,0.005187,0.00085,-0.001302,-0.002105,-0.000101,0.00306,-0.505323,-0.000486,1.0144,-262.757917,0.988152,67.081697
13.9172,0.003304,0.004681,-0.00123,-0.001241,-0.002101,0.000237,0.00412,-0.504872,0.000834,1.058507,-262.758894,0.913176,67.080922
13.9374,0.0034,0.004617,0.000262,-0.001136,-0.002105,0.00077,0.002807,-0.50528,-0.001041,1.058507,-262.758894,0.913176,67.080922
13.9574,0.003305,0.00469,0.000134,-0.00106,-0.002111,0.00115,0.002807,-0.50528,-0.001041,1.058507,-262.758894,0.913176,67.080922
13.9769,0.003268,0.004204,0.000739,-0.001005,-0.002118,0.001419,0.003337,-0.505366,0.000138,1.00554,-262.759503,0.988064,67.080248
13.997,0.003363,0.004628,0.00135,-0.001132,-0.00207,0.000802,0.003458,-0.505547,0.000383,1.00554,-262.759503,0.988064,67.080248
14.0172,0.003004,0.004406,0.000108,-0.001225,-0.002029,0.000365,0.004041,-0.50539,0.001361,0.93054,-262.759682,1.063063,67.079897
14.0371,0.00344,0.004527,0.000771,-0.001243,-0.002005,0.000145,0.003152,-0.505575,0.000228,0.93054,-262.759682,1.063063,67.079897
14.0573,0.002977,0.004445,-0.001265,-0.001254,-0.001986,-1e-05,0.003152,-0.505575,0.000228,0.93054,-262.759682,1.063063,67.079897
14.0772,0.0034,0.004808,-0.000678,-0.001261,-0.001969,-0.00012,0.002282,-0.505637,-0.001251,0.974661,-262.760527,1.072435,67.078904
14.0972,0.003195,0.004329,0.001428,-0.001118,-0.001988,0.000496,0.00259,-0.505466,-0.001016,0.974661,-262.760527,1.072435,67.078904
14.1172,0.003236,0.004394,0.000358,-0.001013,-0.002006,0.000936,0.003889,-0.505724,0.001425,1.017625,-262.761354,0.997416,67.078119
14.1371,0.003144,0.004962,0.00029,-0.001139,-0.00197,0.000417,0.003459,-0.50562,0.000452,1.017625,-262.761354,0.997416,67.078119
14.1569,0.003047,0.004718,0.001493,-0.001233,-0.001938,5e-05,0.003459,-0.50562,0.000452,1.017625,-262.761354,0.997416,67.078119
14.1774,0.003245,0.004532,0.002018,-0.001303,-0.001911,-0.000208,0.003784,-0.505321,0.00151,0.956077,-262.761702,1.072896,67.077571
14.1973,0.003153,0.004233,0.001612,-0.001445,-0.001916,-0.001019,0.003984,-0.505387,0.001722,0.956077,-262.761702,1.072896,67.077571
14.2171,0.0032,0.004441,-7.8e-05,-0.001551,-0.001912,-0.001601,0.003947,-0.505811,0.001609,1.001863,-262.762406,0.998202,67.076928
14.2373,0.002992,0.004748,-0.001036,-0.001483,-0.001892,-0.001139,0.003227,-0.505583,6.8e-05,1.001863,-262.762406,0.998202,67.076928
14.2574,0.003322,0.004129,0.000792,-0.001435,-0.001879,-0.000811,0.003227,-0.505583,6.8e-05,1.001863,-262.762406,0.998202,67.076928
14.2773,0.003363,0.004057,0.000862,-0.001401,-0.001871,-0.00058,0.003724,-0.505873,0.00079,1.07679,-262.762444,0.923275,67.076907
14.2974,0.002739,0.004311,-4.9e-05,-0.001499,-0.001796,-0.00085,0.003756,-0.505902,0.000819,1.07679,-262.762444,0.923275,67.076907
14.3172,0.003096,0.004184,-0.000493,-0.001574,-0.001736,-0.001039,0.002679,-0.505737,-6.3e-05,1.008919,-262.76328,0.848382,67.076251
14.3371,0.002694,0.004156,0.000924,-0.001433,-0.001738,-0.000444,0.002827,-0.505812,-0.000453,1.008919,-262.76328,0.848382,67.076251
14.3571,0.002963,0.004221,0.000642,-0.001329,-0.001742,-2.3e-05,0.002827,-0.505812,-0.000453,1.008919,-262.76328,0.848382,67.076251
14.3771,0.003238,0.004213,-0.001122,-0.001252,-0.001747,0.000274,0.003266,-0.50581,0.000628,0.984646,-262.763732,0.77337,67.075945
14.3972,0.002552,0.004115,0.000186,-0.001242,-0.001748,0.00027,0.003019,-0.505804,-8.6e-05,0.984646,-262.763732,0.77337,67.075945
14.4172,0.003079,0.003816,-0.001744,-0.001234,-0.001749,0.000266,0.002629,-0.505907,0.000187,0.909609,-262.764069,0.848407,67.075563
14.4371,0.002884,0.004217,-0.00017,-0.00104,-0.001713,0.00104,0.002221,-0.506164,-0.001604,0.909609,-262.764069,0.848407,67.075563
14.4569,0.002692,0.004438,0.000678,-0.000898,-0.00169,0.001597,0.002221,-0.506164,-0.001604,0.909609,-262.764069,0.848407,67.075563
14.4773,0.002983,0.004299,0.000642,-0.000793,-0.001676,0.001995,0.003,-0.505611,0.000683,0.909922,-262.764627,0.923904,67.074932
14.4974,0.002738,0.00414,-0.001101,-0.000928,-0.001743,0.001053,0.00312,-0.505653,0.000667,0.909922,-262.764627,0.923904,67.074932
14.5171,0.002596,0.00369,0.000662,-0.001026,-0.001786,0.00038,0.002176,-0.50586,-0.001101,0.835463,-262.76463,0.998363,67.074922
14.5369,0.003161,0.00419,0.001081,-0.001088,-0.00172,-1.6e-05,0.002864,-0.506269,0.000502,0.835463,-262.76463,0.998363,67.074922
14.557,0.002893,0.003835,-0.000657,-0.00113,-0.001666,-0.000294,0.002864,-0.506269,0.000502,0.835463,-262.76463,0.998363,67.074922
14.5772,0.002655,0.004165,0.000257,-0.00116,-0.001623,-0.00049,0.00253,-0.506207,-0.000647,0.910461,-262.765068,1.073361,67.07439
14.5971,0.002721,0.004003,-0.000229,-0.001093,-0.001638,-0.000176,0.002633,-0.506059,-0.000272,0.910461,-262.765068,1.073361,67.07439
14.6167,0.002604,0.003746,-0.001315,-0.001044,-0.001651,4.6e-05,0.002592,-0.506016,-0.000232,0.985856,-262.765391,0.997965,67.074136
14.6371,0.002822,0.004219,-0.000449,-0.000846,-0.001648,0.000707,0.00199,-0.506234,-0.00122,0.985856,-262.765391,0.997965,67.074136
14.6572,0.002844,0.004,-3.4e-05,-0.000699,-0.00165,0.001179,0.00199,-0.506234,-0.00122,0.985856,-262.765391,0.997965,67.074136
14.6772,0.002457,0.004114,-0.000677,-0.00059,-0.001655,0.001515,0.002783,-0.506069,-3.2e-05,0.998856,-262.766164,1.014303,67.073345
14.6974,0.002686,0.003941,0.000525,-0.000637,-0.001694,0.001252,0.002497,-0.506,-0.000301,0.998856,-262.766164,1.014303,67.073345
14.7171,0.002793,0.003819,-0.00024,-0.000671,-0.001721,0.001065,0.002949,-0.506066,0.000531,0.923308,-262.766216,1.089851,67.073199
14.7371,0.002831,0.004288,0.00023,-0.000749,-0.001703,0.00086,0.002692,-0.506172,-0.000182,0.923308,-262.766216,1.089851,67.073199
14.757,0.002641,0.003974,2.1e-05,-0.000808,-0.001688,0.000716,0.002692,-0.506172,-0.000182,0.923308,-262.766216,1.089851,67.073199
14.7772,0.002688,0.004214,0.000813,-0.000852,-0.001676,0.000615,0.002636,-0.506057,3.9e-05,0.998152,-262.766441,1.164694,67.072759
14.7974,0.003224,0.003849,-0.000858,-0.000913,-0.001705,0.000239,0.002823,-0.505951,0.000354,0.998152,-262.766441,1.164694,67.072759
14.8173,0.002351,0.003973,-0.000333,-0.000957,-0.001724,-2.7e-05,0.00276,-0.506205,-0.000838,0.990624,-262.76706,1.177069,67.071874
14.8377,0.00279,0.0039,-0.001,-0.000849,-0.001739,0.00021,0.002234,-0.506046,-0.000379,0.990624,-262.76706,1.177069,67.071874
14.8572,0.00266,0.003617,0.001874,-0.000768,-0.001753,0.000376,0.002234,-0.506046,-0.000379,0.990624,-262.76706,1.177069,67.071874
14.8773,0.002542,0.00365,-0.000482,-0.000707,-0.001764,0.000493,0.003588,-0.506436,0.001874,1.065553,-262.767639,1.102141,67.071304
14.8975,0.002694,0.003834,0.000445,-0.000886,-0.001687,-0.000164,0.003059,-0.506407,0.000916,1.065553,-262.767639,1.102141,67.071304
14.9176,0.002669,0.003499,9.8e-05,-0.00102,-0.001623,-0.000629,0.002904,-0.506205,0.000455,1.120849,-262.768093,1.177109,67.070694
14.9375,0.00266,0.003867,-0.000196,-0.001038,-0.00156,-0.000517,0.002735,-0.506476,0.000131,1.120849,-262.768093,1.177109,67.070694
