mach0312/omni-docking-bench/src/icros_test_setup/results/MPPI_sample/timeseries/trial_053.csv
t,x,y,yaw,vx,vy,wz,bl_x,bl_y,bl_yaw,front_steering_joint,front_wheel_joint,rear_steering_joint,rear_wheel_joint
0.0,0.025883,-0.02291,-0.087208,-0.005792,-0.000296,-0.003237,-0.017231,-0.531088,-0.086749,0.373975,-260.751495,-0.282395,72.504691
0.0004,0.026198,-0.023286,-0.089362,-0.005318,-0.000272,-0.002972,-0.016478,-0.531248,-0.085133,0.373975,-260.754614,-0.282395,72.501668
0.0007,0.026191,-0.022951,-0.087684,-0.004799,-0.000245,-0.002681,-0.016478,-0.531248,-0.085133,0.373975,-260.757291,-0.282395,72.499073
0.001,0.025796,-0.02264,-0.085888,-0.004238,-0.000217,-0.002368,-0.016478,-0.531248,-0.085133,0.373975,-260.759576,-0.282395,72.496858
0.0014,0.0257,-0.022838,-0.086752,-0.003635,-0.000186,-0.002031,-0.018021,-0.531178,-0.087902,0.373975,-260.761138,-0.282395,72.495344
0.0017,0.026032,-0.022931,-0.087347,-0.002991,-0.000153,-0.001671,-0.018021,-0.531178,-0.087902,0.373975,-260.761138,-0.282395,72.495344
0.0019,0.026145,-0.023072,-0.08714,-0.002307,-0.000118,-0.001289,-0.017707,-0.531112,-0.087038,0.373975,-260.761138,-0.282395,72.495344
0.0022,0.025389,-0.02325,-0.088967,-0.001578,-8.1e-05,-0.000882,-0.017707,-0.531112,-0.087038,0.373975,-260.761138,-0.282395,72.495344
0.0155,0.025373,-0.022976,-0.088278,0.0,0.0,0.0,-0.019998,-0.53123,-0.089008,0.373975,-260.762129,-0.282395,72.494383
0.0356,0.025855,-0.022552,-0.086667,0.0,0.0,0.0,-0.01963,-0.531011,-0.088345,0.373975,-260.762129,-0.282395,72.494383
0.0556,0.02582,-0.022699,-0.089451,0.0,0.0,0.0,-0.01963,-0.531011,-0.088345,0.373975,-260.762129,-0.282395,72.494383
0.0757,0.02583,-0.023036,-0.088383,0.0,0.0,0.0,-0.019739,-0.53066,-0.089451,0.373975,-260.762129,-0.282395,72.494383
0.0957,0.025634,-0.022818,-0.087284,0.0,0.0,0.0,-0.019511,-0.530819,-0.089011,0.373975,-260.762129,-0.282395,72.494383
0.1155,0.025629,-0.022826,-0.088499,0.00331,0.001676,0.008246,-0.018825,-0.530876,-0.087284,0.373975,-260.762129,-0.282395,72.494383
0.1354,0.025773,-0.023202,-0.086648,0.003651,0.001839,0.008888,-0.019395,-0.530834,-0.088398,0.373975,-260.762129,-0.282395,72.494383
0.1555,0.025604,-0.023242,-0.087589,0.00395,0.001979,0.009397,-0.019395,-0.530834,-0.088398,0.373975,-260.762129,-0.282395,72.494383
0.1755,0.025528,-0.022939,-0.086276,0.004212,0.0021,0.009802,-0.019009,-0.531287,-0.087589,0.449028,-260.762129,-0.357448,72.494383
0.1959,0.025706,-0.023134,-0.086887,0.004426,0.00222,0.010148,-0.018764,-0.531185,-0.087045,0.449028,-260.762129,-0.357448,72.494383
0.2154,0.025775,-0.022652,-0.087732,0.004614,0.002322,0.010425,-0.01855,-0.53121,-0.086887,0.524164,-260.762129,-0.432585,72.494383
0.2354,0.025834,-0.022969,-0.086785,0.00479,0.002401,0.010676,-0.018879,-0.530735,-0.087658,0.524164,-260.762129,-0.432585,72.494383
0.2558,0.025766,-0.023273,-0.087477,0.004945,0.002469,0.010876,-0.018879,-0.530735,-0.087658,0.524164,-260.762129,-0.432585,72.494383
0.2755,0.025631,-0.022886,-0.087243,0.005081,0.002526,0.011035,-0.01879,-0.531323,-0.087477,0.598984,-260.762124,-0.507405,72.494387
0.2955,0.025812,-0.022983,-0.088511,0.005192,0.002584,0.011187,-0.018797,-0.53117,-0.087382,0.598984,-260.762124,-0.507405,72.494387
0.3153,0.025636,-0.022823,-0.086939,0.00529,0.002633,0.011308,-0.019266,-0.530987,-0.088507,0.673857,-260.762062,-0.582277,72.494425
0.3357,0.025734,-0.023191,-0.08752,0.005379,0.002673,0.011487,-0.018701,-0.530905,-0.087074,0.673857,-260.762062,-0.582277,72.494425
0.3556,0.02571,-0.023011,-0.088353,0.005458,0.002706,0.01163,-0.018701,-0.530905,-0.087074,0.673857,-260.762062,-0.582277,72.494425
0.3755,0.025642,-0.02305,-0.086881,0.005527,0.002735,0.011744,-0.019272,-0.531019,-0.088325,0.748967,-260.761756,-0.657387,72.494616
0.3953,0.025981,-0.022915,-0.087778,0.005591,0.002757,0.011836,-0.019,-0.531063,-0.087732,0.748967,-260.761756,-0.657387,72.494616
0.4151,0.026045,-0.022897,-0.087366,0.005648,0.002776,0.01191,-0.018685,-0.530943,-0.08771,0.824004,-260.760839,-0.676493,72.495189
0.4354,0.025878,-0.022513,-0.089257,0.005689,0.002801,0.011967,-0.018473,-0.53095,-0.087393,0.824004,-260.760839,-0.676493,72.495189
0.4555,0.02543,-0.023197,-0.086344,0.005725,0.002822,0.012013,-0.018473,-0.53095,-0.087393,0.824004,-260.760839,-0.676493,72.495189
0.4752,0.025377,-0.02286,-0.087349,0.005757,0.00284,0.012051,-0.018438,-0.531268,-0.086155,0.899028,-260.75895,-0.672505,72.496372
0.4953,0.025968,-0.023148,-0.086575,0.005788,0.002853,0.012082,-0.018701,-0.531121,-0.086621,0.899028,-260.75895,-0.672505,72.496372
0.5155,0.026024,-0.022956,-0.086951,0.005816,0.002865,0.012108,-0.017994,-0.531195,-0.086327,0.973886,-260.75581,-0.66557,72.498334
0.5361,0.025457,-0.022742,-0.085513,0.005832,0.002882,0.012213,-0.018235,-0.531041,-0.086885,0.973886,-260.75581,-0.66557,72.498334
0.5555,0.025979,-0.022877,-0.087867,0.005846,0.002896,0.012299,-0.018235,-0.531041,-0.086885,0.973886,-260.75581,-0.66557,72.498334
0.5753,0.025605,-0.022713,-0.086991,0.005859,0.002908,0.012368,-0.018547,-0.530822,-0.087414,1.048972,-260.751568,-0.661762,72.500986
0.5952,0.025829,-0.02285,-0.085587,0.005881,0.002909,0.012477,-0.018586,-0.530797,-0.087187,1.048972,-260.751568,-0.661762,72.500986
0.6158,0.025993,-0.022487,-0.087837,0.0059,0.002911,0.012565,-0.017574,-0.530907,-0.085196,1.060285,-260.746787,-0.670485,72.503967
0.6358,0.025534,-0.022314,-0.085305,0.005922,0.002908,0.012687,-0.018636,-0.53055,-0.08759,1.060285,-260.746787,-0.670485,72.503967
0.6558,0.025783,-0.02253,-0.086577,0.00594,0.002906,0.012786,-0.018636,-0.53055,-0.08759,1.060285,-260.746787,-0.670485,72.503967
0.6752,0.02622,-0.022449,-0.085357,0.005956,0.002904,0.012867,-0.01806,-0.53052,-0.086052,1.062247,-260.741947,-0.679186,72.506996
0.6953,0.025664,-0.022408,-0.083195,0.005953,0.002918,0.012973,-0.017701,-0.530538,-0.085705,1.062247,-260.741947,-0.679186,72.506996
0.7154,0.026186,-0.022333,-0.083941,0.005949,0.00293,0.013061,-0.016521,-0.530568,-0.082787,1.06534,-260.737051,-0.693868,72.51008
0.7358,0.025809,-0.022143,-0.084434,0.005922,0.002961,0.013169,-0.016559,-0.530536,-0.083818,1.06534,-260.737051,-0.693868,72.51008
0.7556,0.025695,-0.022384,-0.08459,0.005899,0.002986,0.01326,-0.016559,-0.530536,-0.083818,1.06534,-260.737051,-0.693868,72.51008
0.7754,0.025879,-0.022242,-0.083638,0.00588,0.003007,0.013334,-0.017137,-0.530459,-0.084044,1.071454,-260.732083,-0.703486,72.513199
0.7957,0.025779,-0.022165,-0.083247,0.005873,0.003016,0.01344,-0.016938,-0.530448,-0.083814,1.071454,-260.732083,-0.703486,72.513199
0.8153,0.025676,-0.022215,-0.082452,0.005867,0.003024,0.013527,-0.016435,-0.530319,-0.082826,1.085574,-260.727081,-0.718063,72.516297
0.8355,0.025918,-0.021933,-0.082482,0.005849,0.003042,0.013636,-0.016326,-0.530464,-0.082464,1.085574,-260.727081,-0.718063,72.516297
0.8554,0.025842,-0.021691,-0.083371,0.005833,0.003056,0.013726,-0.016326,-0.530464,-0.082464,1.085574,-260.727081,-0.718063,72.516297
0.8752,0.025622,-0.021541,-0.080293,0.005819,0.003068,0.0138,-0.016372,-0.529814,-0.082805,1.091355,-260.722006,-0.728747,72.519435
0.8954,0.025339,-0.021682,-0.083807,0.005809,0.003077,0.0139,-0.015902,-0.529836,-0.081722,1.091355,-260.722006,-0.728747,72.519435
0.9151,0.025694,-0.021843,-0.082284,0.0058,0.003084,0.013983,-0.017161,-0.529811,-0.08337,1.10226,-260.71688,-0.744366,72.522583
0.9355,0.025721,-0.021815,-0.080559,0.005796,0.003086,0.014086,-0.016295,-0.530087,-0.082357,1.10226,-260.71688,-0.744366,72.522583
0.9552,0.025352,-0.021711,-0.083419,0.005793,0.003088,0.014171,-0.016295,-0.530087,-0.082357,1.10226,-260.71688,-0.744366,72.522583
0.9753,0.025545,-0.021408,-0.081416,0.00579,0.00309,0.014241,-0.016891,-0.529829,-0.082836,1.108001,-260.711687,-0.754895,72.525766
0.9954,0.025234,-0.021108,-0.081741,0.005797,0.003083,0.014325,-0.016465,-0.529771,-0.082182,1.108001,-260.711687,-0.754895,72.525766
1.0155,0.025406,-0.021391,-0.079543,0.005803,0.003077,0.014394,-0.016217,-0.529323,-0.081291,1.11423,-260.706464,-0.769404,72.528972
1.0357,0.02558,-0.02119,-0.079375,0.005779,0.003095,0.01446,-0.015206,-0.529734,-0.079674,1.11423,-260.706464,-0.769404,72.528972
1.0556,0.025581,-0.021085,-0.079793,0.005759,0.00311,0.014515,-0.015206,-0.529734,-0.079674,1.11423,-260.706464,-0.769404,72.528972
1.0757,0.025679,-0.02109,-0.081,0.005741,0.003123,0.014561,-0.014818,-0.529353,-0.079192,1.116005,-260.701187,-0.77762,72.532224
1.0957,0.025133,-0.021186,-0.080753,0.00573,0.003129,0.014609,-0.015102,-0.529367,-0.079858,1.116005,-260.701187,-0.77762,72.532224
1.1152,0.025573,-0.020878,-0.079368,0.005721,0.003135,0.014649,-0.015816,-0.52944,-0.080291,1.125069,-260.695876,-0.787953,72.53547
1.1359,0.025148,-0.021035,-0.079913,0.00571,0.003141,0.014686,-0.014938,-0.529283,-0.079427,1.125069,-260.695876,-0.787953,72.53547
1.1557,0.025613,-0.020924,-0.077852,0.005701,0.003146,0.014718,-0.014938,-0.529283,-0.079427,1.125069,-260.695876,-0.787953,72.53547
1.1754,0.025096,-0.020778,-0.077957,0.005693,0.00315,0.014744,-0.013803,-0.529266,-0.077238,1.128577,-260.690533,-0.793328,72.53873
1.1956,0.025354,-0.020724,-0.077916,0.005665,0.003169,0.014767,-0.014106,-0.529238,-0.077459,1.128577,-260.690533,-0.793328,72.53873
1.2155,0.024774,-0.020718,-0.078286,0.005642,0.003184,0.014786,-0.014154,-0.529091,-0.077446,1.132804,-260.685169,-0.799465,72.541994
1.2356,0.025155,-0.020764,-0.077095,0.005648,0.003176,0.014813,-0.015014,-0.529145,-0.078185,1.132804,-260.685169,-0.799465,72.541994
1.2555,0.025455,-0.020495,-0.077219,0.005653,0.00317,0.014834,-0.015014,-0.529145,-0.078185,1.132804,-260.685169,-0.799465,72.541994
1.2755,0.025051,-0.020562,-0.079566,0.005657,0.003165,0.014852,-0.013643,-0.528861,-0.076601,1.138097,-260.67979,-0.803234,72.545242
1.2954,0.025133,-0.020514,-0.076586,0.005649,0.00317,0.014868,-0.01437,-0.528884,-0.077746,1.138097,-260.67979,-0.803234,72.545242
1.3153,0.025049,-0.02043,-0.076711,0.005642,0.003174,0.014881,-0.0137,-0.528932,-0.076113,1.137716,-260.67439,-0.806896,72.548518
1.3359,0.024966,-0.02007,-0.077036,0.005625,0.003185,0.014894,-0.013998,-0.528926,-0.076637,1.137716,-260.67439,-0.806896,72.548518
1.3555,0.024965,-0.02036,-0.075285,0.005611,0.003194,0.014906,-0.013998,-0.528926,-0.076637,1.137716,-260.67439,-0.806896,72.548518
1.3753,0.024782,-0.019922,-0.074913,0.005599,0.003201,0.014915,-0.013149,-0.528801,-0.074663,1.139599,-260.669001,-0.809075,72.551781
1.3955,0.024918,-0.020115,-0.077085,0.005572,0.003218,0.014924,-0.013218,-0.528661,-0.074693,1.139599,-260.669001,-0.809075,72.551781
1.4155,0.025054,-0.019846,-0.076282,0.00555,0.003233,0.014932,-0.01417,-0.528512,-0.07661,1.143976,-260.663594,-0.812341,72.555036
1.4356,0.024747,-0.020084,-0.076891,0.005553,0.003227,0.014946,-0.013835,-0.528371,-0.076287,1.143976,-260.663594,-0.812341,72.555036
1.4556,0.024775,-0.019776,-0.07407,0.005556,0.003223,0.014958,-0.013835,-0.528371,-0.076287,1.143976,-260.663594,-0.812341,72.555036
1.4754,0.024663,-0.019626,-0.073105,0.005558,0.003219,0.014967,-0.012725,-0.52826,-0.073446,1.148547,-260.658179,-0.814871,72.558271
1.4952,0.024942,-0.020119,-0.074478,0.005529,0.003239,0.014971,-0.01264,-0.528248,-0.073233,1.148547,-260.658179,-0.814871,72.558271
1.5152,0.024492,-0.019598,-0.072106,0.005505,0.003255,0.014976,-0.012823,-0.528616,-0.074002,1.148199,-260.652758,-0.817053,72.561519
1.5356,0.024761,-0.019722,-0.073098,0.005472,0.003276,0.01498,-0.012292,-0.528299,-0.072251,1.148199,-260.652758,-0.817053,72.561519
1.5554,0.024648,-0.019819,-0.073311,0.005444,0.003293,0.014984,-0.012292,-0.528299,-0.072251,1.148199,-260.652758,-0.817053,72.561519
1.5754,0.024979,-0.019559,-0.073008,0.005421,0.003307,0.014988,-0.012468,-0.52833,-0.072684,1.153054,-260.647335,-0.819343,72.564743
1.5961,0.024424,-0.019348,-0.069961,0.005403,0.003317,0.014994,-0.01234,-0.528264,-0.072743,1.153054,-260.647335,-0.819343,72.564743
1.6151,0.024425,-0.019429,-0.070868,0.005387,0.003326,0.015,-0.011048,-0.528008,-0.069484,1.16047,-260.641903,-0.823191,72.567929
1.6352,0.024548,-0.019365,-0.071056,0.005354,0.003345,0.015002,-0.011623,-0.528131,-0.070722,1.16047,-260.641903,-0.823191,72.567929
1.6559,0.02443,-0.019344,-0.072134,0.005327,0.003361,0.015005,-0.011623,-0.528131,-0.070722,1.16047,-260.641903,-0.823191,72.567929
1.6752,0.024744,-0.018907,-0.071878,0.005303,0.003374,0.015009,-0.012092,-0.527896,-0.071507,1.163495,-260.636467,-0.825336,72.571104
1.6952,0.02403,-0.019392,-0.07007,0.005301,0.003372,0.015016,-0.011979,-0.527756,-0.071587,1.163495,-260.636467,-0.825336,72.571104
1.7151,0.024325,-0.018944,-0.069668,0.0053,0.00337,0.015022,-0.011501,-0.528045,-0.069593,1.170751,-260.631026,-0.829475,72.574242
1.7354,0.024314,-0.018589,-0.070905,0.005274,0.003384,0.015023,-0.011197,-0.527732,-0.069637,1.170751,-260.631026,-0.829475,72.574242
1.7556,0.024361,-0.018925,-0.069552,0.005253,0.003396,0.015025,-0.011197,-0.527732,-0.069637,1.170751,-260.631026,-0.829475,72.574242
1.7753,0.024291,-0.019008,-0.070437,0.005234,0.003406,0.015027,-0.010851,-0.527567,-0.068924,1.171033,-260.625572,-0.830831,72.577391
1.7953,0.024145,-0.019013,-0.071309,0.005218,0.003414,0.01503,-0.011133,-0.527625,-0.069474,1.171033,-260.625572,-0.830831,72.577391
1.8151,0.024206,-0.018483,-0.067737,0.005204,0.00342,0.015033,-0.012019,-0.52762,-0.070832,1.176646,-260.620131,-0.834253,72.580501
1.8356,0.023945,-0.018438,-0.069162,0.005175,0.003436,0.015033,-0.010455,-0.527335,-0.067986,1.176646,-260.620131,-0.834253,72.580501
1.8556,0.024432,-0.018615,-0.068177,0.005151,0.003449,0.015034,-0.010455,-0.527335,-0.067986,1.176646,-260.620131,-0.834253,72.580501
1.8752,0.023725,-0.018367,-0.068039,0.00513,0.003459,0.015035,-0.010085,-0.527302,-0.067549,1.179125,-260.614678,-0.836149,72.583606
1.8952,0.024157,-0.018152,-0.067323,0.005112,0.003467,0.015037,-0.01041,-0.52724,-0.067676,1.179125,-260.614678,-0.836149,72.583606
1.9156,0.023951,-0.018276,-0.067031,0.005098,0.003473,0.015039,-0.009982,-0.526898,-0.066845,1.18531,-260.609215,-0.84004,72.586684
1.9352,0.023851,-0.018055,-0.066292,0.00508,0.003482,0.015041,-0.010181,-0.527106,-0.066992,1.18531,-260.609215,-0.84004,72.586684
1.9553,0.023561,-0.018214,-0.067031,0.005064,0.003488,0.015042,-0.010181,-0.527106,-0.066992,1.18531,-260.609215,-0.84004,72.586684
1.9753,0.02374,-0.018152,-0.06613,0.005051,0.003494,0.015044,-0.010377,-0.526938,-0.066403,1.187962,-260.60376,-0.842137,72.589744
1.9955,0.023297,-0.018044,-0.067091,0.005044,0.003496,0.015047,-0.010181,-0.526964,-0.066218,1.187962,-260.60376,-0.842137,72.589744
2.0153,0.023715,-0.017781,-0.065345,0.005037,0.003497,0.015049,-0.010726,-0.526797,-0.066613,1.191752,-260.598301,-0.845161,72.592788
2.036,0.02359,-0.01787,-0.06459,0.005019,0.003506,0.015049,-0.009677,-0.526696,-0.065431,1.191752,-260.598301,-0.845161,72.592788
2.0557,0.02338,-0.017718,-0.065488,0.005002,0.003514,0.01505,-0.009677,-0.526696,-0.065431,1.191752,-260.598301,-0.845161,72.592788
2.0754,0.02349,-0.017956,-0.066094,0.004989,0.003519,0.01505,-0.009775,-0.526492,-0.064859,1.192871,-260.592849,-0.846511,72.595824
2.0955,0.023648,-0.017766,-0.064814,0.004988,0.003517,0.015053,-0.00992,-0.52662,-0.065289,1.192871,-260.592849,-0.846511,72.595824
2.1157,0.023333,-0.017383,-0.064371,0.004988,0.003515,0.015056,-0.009218,-0.526593,-0.064334,1.19681,-260.587389,-0.849453,72.598845
2.1361,0.023334,-0.017623,-0.064815,0.004975,0.003521,0.015056,-0.009441,-0.526346,-0.064343,1.19681,-260.587389,-0.849453,72.598845
2.1557,0.02348,-0.017726,-0.064435,0.004964,0.003525,0.015056,-0.009441,-0.526346,-0.064343,1.19681,-260.587389,-0.849453,72.598845
2.1755,0.023014,-0.017722,-0.063324,0.004955,0.003529,0.015057,-0.009141,-0.526534,-0.063803,1.196814,-260.581927,-0.850196,72.601869
2.1959,0.023117,-0.017407,-0.063119,0.004931,0.003541,0.015055,-0.009164,-0.526586,-0.063537,1.196814,-260.581927,-0.850196,72.601869
2.2155,0.022752,-0.017096,-0.063191,0.004911,0.003551,0.015054,-0.008887,-0.526288,-0.062635,1.199443,-260.576467,-0.852325,72.604879
2.2362,0.022839,-0.017249,-0.063178,0.004915,0.003547,0.015058,-0.009394,-0.526092,-0.063116,1.199443,-260.576467,-0.852325,72.604879
2.2558,0.023127,-0.017036,-0.063537,0.004918,0.003543,0.01506,-0.009394,-0.526092,-0.063116,1.199443,-260.576467,-0.852325,72.604879
2.2755,0.023003,-0.016984,-0.062635,0.00492,0.003539,0.015062,-0.00904,-0.525871,-0.062907,1.202995,-260.571005,-0.854628,72.607871
2.296,0.022968,-0.016998,-0.063238,0.004908,0.003545,0.015061,-0.008967,-0.525902,-0.062723,1.202995,-260.571005,-0.854628,72.607871
2.3155,0.022998,-0.01681,-0.060206,0.004898,0.003549,0.015061,-0.009097,-0.525876,-0.062756,1.202224,-260.565541,-0.855205,72.610871
2.3363,0.023229,-0.017002,-0.059545,0.00484,0.00358,0.015053,-0.007805,-0.52588,-0.060408,1.202224,-260.565541,-0.855205,72.610871
2.356,0.023059,-0.016636,-0.061862,0.004791,0.003605,0.015049,-0.007805,-0.52588,-0.060408,1.202224,-260.565541,-0.855205,72.610871
2.3754,0.022562,-0.016477,-0.060565,0.00475,0.003625,0.015046,-0.008256,-0.525524,-0.06123,1.203917,-260.560081,-0.856475,72.613861
2.3955,0.022642,-0.016466,-0.058172,0.004742,0.003626,0.015049,-0.008252,-0.525516,-0.06089,1.203917,-260.560081,-0.856475,72.613861
2.4156,0.022806,-0.016717,-0.059284,0.004736,0.003626,0.015051,-0.006852,-0.525496,-0.057693,1.215834,-260.554632,-0.864208,72.616778
2.4357,0.022414,-0.016385,-0.061207,0.004684,0.003651,0.015047,-0.007351,-0.525785,-0.059112,1.215834,-260.554632,-0.864208,72.616778
2.4552,0.022263,-0.016275,-0.059366,0.00464,0.003672,0.015044,-0.007351,-0.525785,-0.059112,1.215834,-260.554632,-0.864208,72.616778
2.4752,0.022247,-0.016259,-0.05794,0.004603,0.003688,0.015044,-0.007789,-0.525237,-0.058736,1.21689,-260.549166,-0.865812,72.619701
2.4955,0.022491,-0.016061,-0.058842,0.004592,0.00369,0.015046,-0.00756,-0.525289,-0.058338,1.21689,-260.549166,-0.865812,72.619701
2.5154,0.022648,-0.016273,-0.057765,0.004583,0.003691,0.015049,-0.007348,-0.52507,-0.058364,1.22747,-260.54371,-0.873925,72.622563
2.5357,0.022233,-0.015845,-0.058726,0.004538,0.003711,0.015046,-0.006837,-0.525386,-0.057793,1.22747,-260.54371,-0.873925,72.622563
2.5557,0.022254,-0.016002,-0.059002,0.0045,0.003727,0.015045,-0.006837,-0.525386,-0.057793,1.22747,-260.54371,-0.873925,72.622563
2.5755,0.022246,-0.015822,-0.056766,0.004468,0.00374,0.015045,-0.007619,-0.524972,-0.058371,1.228986,-260.538243,-0.876045,72.625425
2.5954,0.022013,-0.016096,-0.059514,0.004468,0.003736,0.015049,-0.00722,-0.524967,-0.05765,1.228986,-260.538243,-0.876045,72.625425
2.6155,0.022082,-0.015662,-0.055193,0.004469,0.003732,0.015052,-0.008172,-0.525082,-0.059035,1.238082,-260.532785,-0.884014,72.628237
2.636,0.02177,-0.015706,-0.056029,0.004421,0.003752,0.015048,-0.006239,-0.524898,-0.055521,1.238082,-260.532785,-0.884014,72.628237
2.6555,0.021943,-0.016025,-0.057937,0.004381,0.003768,0.015046,-0.006239,-0.524898,-0.055521,1.238082,-260.532785,-0.884014,72.628237
2.6758,0.021288,-0.015495,-0.05644,0.004347,0.00378,0.015046,-0.007393,-0.525024,-0.057307,1.237931,-260.527315,-0.885031,72.631059
2.6956,0.02147,-0.015442,-0.05618,0.004378,0.003761,0.015054,-0.007406,-0.524869,-0.056882,1.237931,-260.527315,-0.885031,72.631059
2.7157,0.021928,-0.015049,-0.055585,0.004404,0.003745,0.01506,-0.007022,-0.524525,-0.055702,1.247384,-260.521851,-0.893789,72.633831
2.7357,0.021692,-0.015458,-0.05679,0.004391,0.003749,0.015058,-0.006452,-0.524279,-0.055572,1.247384,-260.521851,-0.893789,72.633831
2.7555,0.022065,-0.015391,-0.056281,0.004379,0.003752,0.015057,-0.006452,-0.524279,-0.055572,1.247384,-260.521851,-0.893789,72.633831
2.7754,0.021394,-0.01502,-0.055611,0.004369,0.003755,0.015057,-0.00643,-0.524438,-0.055651,1.242788,-260.516391,-0.891392,72.63663
2.7956,0.021958,-0.015343,-0.05263,0.004369,0.003753,0.015058,-0.006621,-0.524337,-0.055563,1.242788,-260.516391,-0.891392,72.63663
2.8154,0.021545,-0.014771,-0.053487,0.004368,0.003752,0.015058,-0.004726,-0.524524,-0.052149,1.24543,-260.510916,-0.894214,72.639425
2.8358,0.021379,-0.01488,-0.053512,0.00432,0.003772,0.015053,-0.005628,-0.524078,-0.053349,1.24543,-260.510916,-0.894214,72.639425
2.8556,0.021707,-0.015139,-0.052866,0.004279,0.003789,0.015049,-0.005628,-0.524078,-0.053349,1.24543,-260.510916,-0.894214,72.639425
2.8753,0.021177,-0.014571,-0.053856,0.004244,0.003802,0.015047,-0.005052,-0.52428,-0.052236,1.245427,-260.505459,-0.894688,72.642213
2.8953,0.020817,-0.014501,-0.054107,0.00421,0.003815,0.015046,-0.005527,-0.524081,-0.052822,1.245427,-260.505459,-0.894688,72.642213
2.9156,0.02105,-0.014471,-0.052193,0.004181,0.003825,0.015045,-0.006623,-0.523642,-0.053628,1.255046,-260.500007,-0.903569,72.644949
2.9354,0.020972,-0.014452,-0.052469,0.00417,0.003827,0.015047,-0.005645,-0.523759,-0.052297,1.255046,-260.500007,-0.903569,72.644949
2.9556,0.020619,-0.014737,-0.051441,0.004161,0.003828,0.015048,-0.005645,-0.523759,-0.052297,1.255046,-260.500007,-0.903569,72.644949
2.9757,0.021029,-0.014098,-0.050825,0.004153,0.003828,0.01505,-0.005422,-0.523912,-0.050812,1.25997,-260.494535,-0.908723,72.647671
2.9956,0.020568,-0.014033,-0.050499,0.004121,0.003839,0.015048,-0.005179,-0.523701,-0.050744,1.25997,-260.494535,-0.908723,72.647671
3.0156,0.020514,-0.013914,-0.049149,0.004094,0.003848,0.015047,-0.005038,-0.523268,-0.050021,1.262026,-260.489079,-0.911914,72.65038
3.0359,0.020749,-0.014142,-0.05249,0.004043,0.003866,0.015044,-0.00458,-0.52329,-0.049203,1.262026,-260.489079,-0.911914,72.65038
3.0555,0.020317,-0.01411,-0.051417,0.003999,0.003879,0.015042,-0.00458,-0.52329,-0.049203,1.262026,-260.489079,-0.911914,72.65038
3.0755,0.020964,-0.013609,-0.048764,0.003963,0.00389,0.015042,-0.005715,-0.523284,-0.050788,1.266547,-260.483616,-0.91688,72.65307
3.0955,0.020629,-0.013493,-0.04946,0.003958,0.003888,0.015044,-0.004949,-0.523151,-0.049887,1.266547,-260.483616,-0.91688,72.65307
3.1156,0.020397,-0.013598,-0.049078,0.003954,0.003886,0.015046,-0.004453,-0.522752,-0.048983,1.276531,-260.478171,-0.928424,72.655706
3.136,0.020339,-0.013818,-0.047726,0.003932,0.003891,0.015046,-0.004601,-0.522956,-0.049045,1.276531,-260.478171,-0.928424,72.655706
3.1555,0.020383,-0.013767,-0.048318,0.003914,0.003895,0.015046,-0.004601,-0.522956,-0.049045,1.276531,-260.478171,-0.928424,72.655706
3.1756,0.020249,-0.01357,-0.048018,0.003899,0.003898,0.015047,-0.004077,-0.523017,-0.047688,1.277141,-260.472707,-0.930156,72.658352
3.1958,0.019977,-0.013722,-0.049008,0.003854,0.003912,0.015044,-0.00412,-0.522985,-0.04775,1.277141,-260.472707,-0.930156,72.658352
3.2154,0.019963,-0.013171,-0.048393,0.003817,0.003923,0.015043,-0.004876,-0.522991,-0.048527,1.28128,-260.467248,-0.935836,72.660979
3.2356,0.019955,-0.013366,-0.046496,0.003832,0.003912,0.015047,-0.004716,-0.522605,-0.048381,1.28128,-260.467248,-0.935836,72.660979
3.2555,0.020363,-0.013604,-0.048654,0.003845,0.003904,0.01505,-0.004716,-0.522605,-0.048381,1.28128,-260.467248,-0.935836,72.660979
3.2752,0.01993,-0.012935,-0.044664,0.003856,0.003897,0.015052,-0.004273,-0.522844,-0.048025,1.287506,-260.461795,-0.943533,72.663576
3.2953,0.019911,-0.012957,-0.04733,0.003793,0.003917,0.015047,-0.003673,-0.522657,-0.04659,1.287506,-260.461795,-0.943533,72.663576
3.315,0.019703,-0.012826,-0.047191,0.003741,0.003934,0.015044,-0.00409,-0.522267,-0.046849,1.284341,-260.456338,-0.941524,72.666196
3.3352,0.019646,-0.012779,-0.045501,0.00375,0.003926,0.015047,-0.004325,-0.522253,-0.047136,1.284341,-260.456338,-0.941524,72.666196
3.3552,0.019592,-0.012689,-0.045709,0.003757,0.00392,0.015048,-0.004325,-0.522253,-0.047136,1.284341,-260.456338,-0.941524,72.666196
3.3752,0.019792,-0.012668,-0.045843,0.003763,0.003915,0.01505,-0.003547,-0.521999,-0.04508,1.293074,-260.450897,-0.952117,72.668768
3.3952,0.019266,-0.01303,-0.044685,0.003717,0.003929,0.015046,-0.003542,-0.522036,-0.045319,1.293074,-260.450897,-0.952117,72.668768
3.4154,0.019242,-0.012719,-0.043842,0.003679,0.00394,0.015043,-0.00339,-0.522402,-0.044206,1.291188,-260.445442,-0.951209,72.671361
3.4351,0.019266,-0.01219,-0.042948,0.003614,0.003958,0.01504,-0.003129,-0.522238,-0.04385,1.291188,-260.445442,-0.951209,72.671361
3.4555,0.019083,-0.012626,-0.044462,0.003559,0.003973,0.015038,-0.003129,-0.522238,-0.04385,1.291188,-260.445442,-0.951209,72.671361
3.4752,0.019149,-0.011778,-0.044483,0.003513,0.003984,0.015037,-0.003424,-0.521964,-0.043834,1.297568,-260.439997,-0.959411,72.67392
3.4952,0.019363,-0.012145,-0.043014,0.003508,0.00398,0.015039,-0.003449,-0.521664,-0.044026,1.297568,-260.439997,-0.959411,72.67392
3.515,0.018763,-0.011795,-0.042574,0.003503,0.003977,0.015041,-0.002451,-0.521552,-0.042539,1.310076,-260.43458,-0.976646,72.676415
3.5351,0.019149,-0.011831,-0.042813,0.003462,0.003985,0.015039,-0.002896,-0.521346,-0.042548,1.310076,-260.43458,-0.976646,72.676415
3.5553,0.018773,-0.012119,-0.044669,0.003428,0.003991,0.015038,-0.002896,-0.521346,-0.042548,1.310076,-260.43458,-0.976646,72.676415
3.5752,0.018791,-0.011656,-0.043095,0.003399,0.003995,0.015037,-0.003847,-0.521451,-0.044041,1.310677,-260.42913,-0.978677,72.678926
3.5957,0.01891,-0.012068,-0.045119,0.003427,0.003981,0.015041,-0.003555,-0.521322,-0.043579,1.310677,-260.42913,-0.978677,72.678926
3.6159,0.018532,-0.011729,-0.041144,0.00345,0.003969,0.015044,-0.00398,-0.521427,-0.044642,1.318395,-260.423713,-0.990938,72.681395
3.6359,0.018724,-0.011695,-0.0415,0.003393,0.003983,0.01504,-0.002581,-0.521303,-0.041442,1.318395,-260.423713,-0.990938,72.681395
3.6556,0.018684,-0.011603,-0.042255,0.003345,0.003994,0.015038,-0.002581,-0.521303,-0.041442,1.318395,-260.423713,-0.990938,72.681395
3.6755,0.018389,-0.011406,-0.039264,0.003305,0.004002,0.015037,-0.002709,-0.520988,-0.041627,1.314331,-260.418268,-0.986619,72.683899
3.6955,0.018437,-0.011162,-0.041097,0.003248,0.004012,0.015035,-0.002246,-0.52098,-0.04058,1.314331,-260.418268,-0.986619,72.683899
3.7154,0.017874,-0.011212,-0.040005,0.0032,0.00402,0.015034,-0.002407,-0.52061,-0.040622,1.325204,-260.412864,-1.003032,72.686343
3.7358,0.018367,-0.010976,-0.039817,0.003186,0.004018,0.015035,-0.002508,-0.520782,-0.040035,1.325204,-260.412864,-1.003032,72.686343
3.7555,0.018478,-0.011322,-0.040439,0.003174,0.004016,0.015035,-0.002508,-0.520782,-0.040035,1.325204,-260.412864,-1.003032,72.686343
3.7754,0.018008,-0.010989,-0.040809,0.003164,0.004015,0.015036,-0.002,-0.520744,-0.039814,1.332984,-260.407457,-1.015882,72.68876
3.7956,0.017604,-0.011033,-0.039476,0.00314,0.004016,0.015036,-0.002311,-0.520652,-0.040148,1.332984,-260.407457,-1.015882,72.68876
3.8155,0.017821,-0.010717,-0.040135,0.003119,0.004017,0.015035,-0.002418,-0.520512,-0.038998,1.335515,-260.402024,-1.021525,72.691187
3.8356,0.017668,-0.010695,-0.038011,0.003135,0.004007,0.015037,-0.002618,-0.520318,-0.040014,1.335515,-260.402024,-1.021525,72.691187
3.8554,0.017547,-0.010663,-0.039525,0.003149,0.003998,0.015038,-0.002618,-0.520318,-0.040014,1.335515,-260.402024,-1.021525,72.691187
3.8752,0.017524,-0.010707,-0.037495,0.00316,0.003992,0.015038,-0.002469,-0.520103,-0.038897,1.338744,-260.396601,-1.027576,72.693599
3.8953,0.017256,-0.010927,-0.037144,0.003124,0.003997,0.015036,-0.002092,-0.520185,-0.038246,1.338744,-260.396601,-1.027576,72.693599
3.9157,0.017739,-0.010141,-0.037339,0.003094,0.004,0.015035,-0.001578,-0.520453,-0.036667,1.335447,-260.391182,-1.024209,72.69603
3.936,0.017222,-0.010176,-0.037517,0.002999,0.004012,0.015032,-0.001318,-0.519836,-0.037259,1.335447,-260.391182,-1.024209,72.69603
3.9556,0.017089,-0.010429,-0.03715,0.002919,0.004021,0.01503,-0.001318,-0.519836,-0.037259,1.335447,-260.391182,-1.024209,72.69603
3.9756,0.017108,-0.010131,-0.035217,0.002853,0.004027,0.01503,-0.001718,-0.519916,-0.036524,1.340272,-260.385775,-1.032571,72.69844
3.9953,0.016907,-0.01023,-0.035513,0.002802,0.00403,0.01503,-0.001346,-0.519855,-0.035914,1.340272,-260.385775,-1.032571,72.69844
4.0157,0.017072,-0.009831,-0.035234,0.002759,0.004032,0.01503,-0.001108,-0.519787,-0.035046,1.358012,-260.380487,-1.065085,72.700746
4.0362,0.017,-0.0101,-0.037031,0.002682,0.004035,0.01503,-0.000908,-0.519533,-0.035193,1.358012,-260.380487,-1.065085,72.700746
4.0558,0.016943,-0.009826,-0.035998,0.002617,0.004037,0.015031,-0.000908,-0.519533,-0.035193,1.358012,-260.380487,-1.065085,72.700746
4.0757,0.016588,-0.009597,-0.03437,0.002563,0.004037,0.015031,-0.001291,-0.519332,-0.035371,1.364922,-260.375107,-1.078743,72.703074
4.0956,0.01681,-0.009498,-0.034191,0.002543,0.004032,0.015033,-0.001133,-0.519298,-0.03489,1.364922,-260.375107,-1.078743,72.703074
4.1154,0.01639,-0.009485,-0.032067,0.002526,0.004027,0.015034,-0.00054,-0.519077,-0.033721,1.379277,-260.369818,-1.108516,72.705331
4.1356,0.01642,-0.009555,-0.035174,0.002395,0.004026,0.015035,-7e-06,-0.519205,-0.032185,1.379277,-260.369818,-1.108516,72.705331
4.1556,0.01664,-0.009398,-0.034841,0.002286,0.004024,0.015037,-7e-06,-0.519205,-0.032185,1.379277,-260.369818,-1.108516,72.705331
4.1757,0.015826,-0.009727,-0.033504,0.002195,0.004022,0.015039,-0.001013,-0.518924,-0.034211,1.381813,-260.364442,-1.115146,72.707626
4.1955,0.01598,-0.009467,-0.032706,0.002237,0.004011,0.015041,-0.001101,-0.519116,-0.03385,1.381813,-260.364442,-1.115146,72.707626
4.2155,0.015637,-0.009213,-0.032883,0.002271,0.004002,0.015042,-0.000627,-0.519076,-0.032254,1.406071,-260.359374,-1.168752,72.70975
4.2355,0.015948,-0.009178,-0.03369,0.002299,0.003993,0.01504,-0.001083,-0.518943,-0.032806,1.406071,-260.359374,-1.168752,72.70975
4.2555,0.015569,-0.008963,-0.03329,0.002322,0.003986,0.015039,-0.001083,-0.518943,-0.032806,1.406071,-260.359374,-1.168752,72.70975
4.2752,0.016044,-0.0088,-0.03214,0.002341,0.00398,0.015038,-0.001306,-0.518517,-0.032662,1.400306,-260.354045,-1.158038,72.712004
4.2955,0.015699,-0.008961,-0.033024,0.002341,0.003972,0.015037,-0.000905,-0.518506,-0.032378,1.400306,-260.354045,-1.158038,72.712004
4.3154,0.01522,-0.008679,-0.03029,0.002341,0.003965,0.015036,-0.001061,-0.518558,-0.032545,1.394773,-260.3487,-1.148016,72.714285
4.3356,0.015218,-0.008376,-0.030567,0.002271,0.003962,0.015035,-0.000295,-0.518449,-0.030463,1.394773,-260.3487,-1.148016,72.714285
4.3557,0.015016,-0.008581,-0.031848,0.002213,0.003959,0.015035,-0.000295,-0.518449,-0.030463,1.394773,-260.3487,-1.148016,72.714285
4.3756,0.014878,-0.008261,-0.027415,0.002166,0.003956,0.015035,-0.00112,-0.51816,-0.031218,1.394624,-260.343366,-1.149194,72.71657
4.3957,0.015091,-0.00846,-0.03051,0.002128,0.003946,0.015036,-0.000297,-0.518105,-0.029617,1.394624,-260.343366,-1.149194,72.71657
4.4153,0.015075,-0.00836,-0.029475,0.002096,0.003938,0.015037,-0.000395,-0.5181,-0.030036,1.407402,-260.338113,-1.177919,72.718801
4.4357,0.014836,-0.008007,-0.030864,0.002033,0.003931,0.015037,1e-05,-0.518129,-0.029501,1.407402,-260.338113,-1.177919,72.718801
4.4555,0.014639,-0.008198,-0.030397,0.001981,0.003924,0.015038,1e-05,-0.518129,-0.029501,1.407402,-260.338113,-1.177919,72.718801
4.4754,0.014457,-0.007959,-0.029568,0.001938,0.003918,0.015038,-0.000768,-0.517801,-0.029769,1.412363,-260.332798,-1.190596,72.721061
4.4959,0.014159,-0.007765,-0.030181,0.001993,0.0039,0.01504,-0.000696,-0.517755,-0.029613,1.412363,-260.332798,-1.190596,72.721061
4.5151,0.01432,-0.007715,-0.028623,0.002037,0.003886,0.015041,-0.001166,-0.517412,-0.029711,1.423933,-260.32758,-1.218116,72.723272
4.5356,0.014226,-0.00787,-0.03004,0.002028,0.003871,0.015043,-0.000344,-0.517493,-0.028689,1.423933,-260.32758,-1.218116,72.723272
4.5556,0.014442,-0.007913,-0.028164,0.002022,0.003858,0.015043,-0.000344,-0.517493,-0.028689,1.423933,-260.32758,-1.218116,72.723272
4.5755,0.014239,-0.007573,-0.026617,0.002016,0.003847,0.015043,0.00017,-0.517552,-0.027539,1.416237,-260.322331,-1.203938,72.725525
4.5961,0.013831,-0.007428,-0.026502,0.001916,0.003835,0.015044,0.000381,-0.517469,-0.027093,1.416237,-260.322331,-1.203938,72.725525
4.6151,0.013332,-0.007291,-0.024724,0.001835,0.003824,0.015044,0.000384,-0.517128,-0.026022,1.417365,-260.317023,-1.209884,72.727822
4.6354,0.013342,-0.007417,-0.026477,0.001722,0.003798,0.015047,0.000702,-0.517129,-0.024799,1.417365,-260.317023,-1.209884,72.727822
4.6553,0.013776,-0.007355,-0.027713,0.00163,0.003776,0.015049,0.000702,-0.517129,-0.024799,1.417365,-260.317023,-1.209884,72.727822
4.6754,0.013565,-0.007758,-0.02407,0.001554,0.003757,0.015051,-0.000277,-0.517005,-0.027099,1.430726,-260.311898,-1.241273,72.730033
4.6954,0.013146,-0.007842,-0.025742,0.001539,0.00375,0.015051,0.000368,-0.517233,-0.025799,1.430726,-260.311898,-1.241273,72.730033
4.7151,0.013339,-0.007314,-0.024923,0.001526,0.003743,0.015051,7e-05,-0.51756,-0.025284,1.451326,-260.306907,-1.292214,72.732196
4.7356,0.012912,-0.006829,-0.02574,0.001485,0.003733,0.015051,0.000587,-0.517183,-0.024931,1.451326,-260.306907,-1.292214,72.732196
4.7557,0.01334,-0.007332,-0.024558,0.001451,0.003725,0.015052,0.000587,-0.517183,-0.024931,1.451326,-260.306907,-1.292214,72.732196
4.776,0.012562,-0.006774,-0.023382,0.001423,0.003718,0.015052,0.000883,-0.517024,-0.023931,1.453399,-260.301721,-1.297816,72.734449
4.7961,0.013377,-0.007082,-0.024563,0.001368,0.003695,0.015054,0.000792,-0.516849,-0.023637,1.453399,-260.301721,-1.297816,72.734449
4.8154,0.012263,-0.006879,-0.023215,0.001322,0.003676,0.015056,0.000899,-0.516811,-0.024084,1.460995,-260.296536,-1.316466,72.736707
4.8358,0.012703,-0.006582,-0.023895,0.001331,0.00366,0.015058,0.000464,-0.516741,-0.023262,1.460995,-260.296536,-1.316466,72.736707
4.8557,0.01239,-0.006518,-0.023686,0.001338,0.003647,0.015059,0.000464,-0.516741,-0.023262,1.460995,-260.296536,-1.316466,72.736707
4.8756,0.012063,-0.006228,-0.023803,0.001344,0.003636,0.015059,0.00037,-0.516224,-0.023062,1.46845,-260.291419,-1.335702,72.738952
4.8954,0.012203,-0.006615,-0.024226,0.001384,0.003597,0.015065,0.000196,-0.51615,-0.023291,1.46845,-260.291419,-1.335702,72.738952
4.9153,0.012428,-0.006131,-0.021577,0.001417,0.003565,0.015067,-0.000105,-0.516351,-0.023746,1.466483,-260.286251,-1.333739,72.741243
4.9352,0.012131,-0.006281,-0.021032,0.001268,0.003509,0.015061,0.001295,-0.516036,-0.02174,1.466483,-260.286251,-1.333739,72.741243
4.9561,0.011776,-0.00625,-0.024011,0.001148,0.003463,0.015055,0.001295,-0.516036,-0.02174,1.466483,-260.286251,-1.333739,72.741243
4.9754,0.011335,-0.005782,-0.021752,0.00105,0.003426,0.015049,-0.000406,-0.515956,-0.023383,1.460284,-260.281123,-1.324552,72.743564
4.9955,0.011585,-0.006047,-0.021536,0.001201,0.003398,0.015056,-0.000131,-0.515818,-0.022638,1.460284,-260.281123,-1.324552,72.743564
5.0155,0.011171,-0.006087,-0.019271,0.001322,0.003377,0.015058,0.000635,-0.515829,-0.021096,1.487759,-260.276455,-1.390628,72.745724
5.0358,0.011099,-0.006276,-0.020105,0.001194,0.003352,0.015044,0.001282,-0.515973,-0.01941,1.487759,-260.276455,-1.390628,72.745724
5.0552,0.011455,-0.006042,-0.020655,0.001091,0.003332,0.015033,0.001282,-0.515973,-0.01941,1.487759,-260.276455,-1.390628,72.745724
5.0754,0.011347,-0.00586,-0.02069,0.001006,0.003316,0.015025,0.000978,-0.515799,-0.020049,1.466012,-260.271585,-1.34738,72.748023
5.0953,0.010927,-0.006164,-0.020172,0.00099,0.003299,0.015021,0.00091,-0.515764,-0.020241,1.466012,-260.271585,-1.34738,72.748023
5.1161,0.010525,-0.00576,-0.020066,0.000977,0.003285,0.015017,0.000673,-0.515962,-0.01972,1.490446,-260.266826,-1.40079,72.750281
5.1358,0.010452,-0.0058,-0.01957,0.001064,0.003275,0.015017,0.00033,-0.515681,-0.020008,1.490446,-260.266826,-1.40079,72.750281
5.1555,0.010311,-0.005306,-0.01984,0.001133,0.003268,0.015015,0.00033,-0.515681,-0.020008,1.490446,-260.266826,-1.40079,72.750281
5.1758,0.010083,-0.005641,-0.018433,0.001189,0.003263,0.015012,0.000236,-0.51507,-0.019216,1.492549,-260.26185,-1.406391,72.752657
5.1957,0.010293,-0.005511,-0.017834,0.001214,0.003222,0.015014,0.000424,-0.515252,-0.018822,1.492549,-260.26185,-1.406391,72.752657
5.2152,0.009468,-0.00532,-0.017263,0.001234,0.00319,0.015012,0.001237,-0.515329,-0.017367,1.475436,-260.256969,-1.372123,72.755012
5.2353,0.01007,-0.005089,-0.017086,0.001199,0.003159,0.015003,0.000716,-0.515246,-0.017249,1.475436,-260.256969,-1.372123,72.755012
5.2554,0.010138,-0.005406,-0.016969,0.00117,0.003135,0.014995,0.000716,-0.515246,-0.017249,1.475436,-260.256969,-1.372123,72.755012
5.2752,0.009697,-0.00507,-0.015792,0.001147,0.003115,0.014987,0.001538,-0.5152,-0.016339,1.471257,-260.252004,-1.367195,72.757452
5.2954,0.009802,-0.005195,-0.018111,0.000976,0.003055,0.014964,0.001587,-0.515106,-0.016045,1.471257,-260.252004,-1.367195,72.757452
5.3153,0.009203,-0.005004,-0.015996,0.000837,0.003008,0.014945,0.000603,-0.515014,-0.017637,1.477559,-260.247098,-1.383064,72.7599
5.3358,0.009541,-0.005229,-0.017598,0.000819,0.002975,0.014939,0.001008,-0.514941,-0.016117,1.477559,-260.247098,-1.383064,72.7599
5.3559,0.009243,-0.004778,-0.016539,0.000803,0.002949,0.014933,0.001008,-0.514941,-0.016117,1.477559,-260.247098,-1.383064,72.7599
5.3756,0.009381,-0.004713,-0.014743,0.00079,0.002928,0.014928,0.000844,-0.514588,-0.015941,1.501956,-260.242471,-1.434916,72.762249
5.3953,0.008963,-0.004518,-0.014666,0.000722,0.002864,0.014912,0.001261,-0.514603,-0.015388,1.501956,-260.242471,-1.434916,72.762249
5.4155,0.00862,-0.004663,-0.015748,0.000667,0.002814,0.014898,0.00151,-0.514371,-0.014194,1.505277,-260.237661,-1.443793,72.764735
5.4354,0.00879,-0.004901,-0.013342,0.000736,0.002787,0.014898,0.00067,-0.514576,-0.01559,1.505277,-260.237661,-1.443793,72.764735
5.4558,0.008463,-0.004895,-0.01487,0.000791,0.002766,0.014896,0.00067,-0.514576,-0.01559,1.505277,-260.237661,-1.443793,72.764735
5.4757,0.008421,-0.004656,-0.013217,0.000834,0.002749,0.014891,0.000909,-0.514723,-0.014252,1.514887,-260.232931,-1.46511,72.767241
5.4956,0.00848,-0.004676,-0.015548,0.00077,0.002735,0.014847,0.001226,-0.514664,-0.01376,1.514887,-260.232931,-1.46511,72.767241
5.5159,0.007757,-0.004258,-0.013968,0.000719,0.002723,0.014811,0.000578,-0.514529,-0.015081,1.500529,-260.228243,-1.440171,72.769768
5.5359,0.007927,-0.004542,-0.013751,0.000786,0.002674,0.014811,0.00063,-0.514232,-0.014041,1.500529,-260.228243,-1.440171,72.769768
5.5556,0.007898,-0.004515,-0.013693,0.000839,0.002636,0.014805,0.00063,-0.514232,-0.014041,1.500529,-260.228243,-1.440171,72.769768
5.5758,0.007833,-0.004421,-0.013272,0.00088,0.002607,0.014797,0.000946,-0.514354,-0.013078,1.50975,-260.223556,-1.457517,72.772298
5.5955,0.007166,-0.004373,-0.014004,0.000837,0.002592,0.014757,0.000999,-0.51435,-0.013086,1.50975,-260.223556,-1.457517,72.772298
5.6155,0.00738,-0.004159,-0.010336,0.000804,0.002581,0.014725,5.3e-05,-0.514242,-0.013539,1.495389,-260.21892,-1.43484,72.774874
5.6356,0.007517,-0.004086,-0.011211,0.000585,0.002508,0.014573,0.001954,-0.514137,-0.010559,1.495389,-260.21892,-1.43484,72.774874
5.6556,0.007422,-0.004172,-0.012304,0.000408,0.002451,0.014456,0.001954,-0.514137,-0.010559,1.495389,-260.21892,-1.43484,72.774874
5.6754,0.006948,-0.003897,-0.012676,0.000263,0.002406,0.014366,0.001181,-0.514027,-0.011694,1.501471,-260.214311,-1.446125,72.777442
5.6953,0.006889,-0.004082,-0.011998,0.000349,0.00238,0.014395,0.000899,-0.513945,-0.012025,1.501471,-260.214311,-1.446125,72.777442
5.7153,0.006117,-0.003963,-0.011727,0.000415,0.00236,0.014415,0.000779,-0.513979,-0.011603,1.547238,-260.210437,-1.520799,72.779649
5.7354,0.007338,-0.003629,-0.010703,0.000622,0.002346,0.014425,0.000192,-0.513929,-0.011697,1.547238,-260.210437,-1.520799,72.779649
5.7553,0.006363,-0.003804,-0.007588,0.000785,0.002339,0.014428,0.000192,-0.513929,-0.011697,1.547238,-260.210437,-1.520799,72.779649
5.7758,0.006105,-0.003388,-0.009575,0.000914,0.002337,0.014426,0.002511,-0.513691,-0.006989,1.533627,-260.205999,-1.50646,72.782215
5.7953,0.006259,-0.003667,-0.008585,0.000636,0.002232,0.014036,0.001988,-0.513547,-0.007972,1.533627,-260.205999,-1.50646,72.782215
5.8158,0.005811,-0.003767,-0.009014,0.000409,0.00215,0.013748,0.001907,-0.513583,-0.00818,1.489031,-260.202046,-1.431498,72.784525
5.8362,0.005986,-0.003781,-0.007595,0.000369,0.002146,0.01367,0.001274,-0.513729,-0.008923,1.489031,-260.202046,-1.431498,72.784525
5.8558,0.00597,-0.003818,-0.010399,0.000336,0.002144,0.013612,0.001274,-0.513729,-0.008923,1.489031,-260.202046,-1.431498,72.784525
5.8753,0.006273,-0.003834,-0.008019,0.000308,0.002141,0.013569,0.000682,-0.51371,-0.009883,1.531989,-260.198296,-1.505338,72.786749
5.8953,0.00594,-0.00337,-0.008532,0.000285,0.002142,0.013551,0.001277,-0.513744,-0.00909,1.531989,-260.198296,-1.505338,72.786749
5.9153,0.005675,-0.003463,-0.006707,0.000267,0.002143,0.013537,0.001599,-0.513284,-0.008102,1.541274,-260.19414,-1.520729,72.789201
5.9353,0.005427,-0.003343,-0.008834,6.6e-05,0.002057,0.01316,0.002198,-0.513434,-0.006807,1.541274,-260.19414,-1.520729,72.789201
5.9552,0.005495,-0.00336,-0.006791,-9.7e-05,0.001989,0.012887,0.002198,-0.513434,-0.006807,1.541274,-260.19414,-1.520729,72.789201
5.9755,0.005275,-0.003108,-0.006343,-0.000229,0.001935,0.01269,0.002044,-0.513259,-0.006225,1.545174,-260.189976,-1.527265,72.791652
5.9957,0.005383,-0.003147,-0.00746,-0.000322,0.001858,0.012423,0.002044,-0.513182,-0.006208,1.545174,-260.189976,-1.527265,72.791652
6.0151,0.004828,-0.003254,-0.007227,-0.000399,0.001796,0.012232,0.001573,-0.51308,-0.007112,1.594487,-260.186638,-1.602302,72.793658
6.0356,0.004809,-0.003483,-0.007154,-0.00028,0.001788,0.01231,0.001179,-0.513224,-0.007199,1.594487,-260.186638,-1.602302,72.793658
6.0553,0.00477,-0.003354,-0.005362,-0.000187,0.001783,0.012367,0.001179,-0.513224,-0.007199,1.594487,-260.186638,-1.602302,72.793658
6.0753,0.00466,-0.003148,-0.006298,-0.000115,0.00178,0.012408,0.00202,-0.513274,-0.004866,1.613777,-260.183043,-1.640921,72.795862
6.0957,0.004533,-0.003245,-0.006698,-0.000186,0.001761,0.012011,0.001786,-0.513211,-0.00539,1.613777,-260.183043,-1.640921,72.795862
6.1151,0.003971,-0.003169,-0.005962,-0.000244,0.001745,0.011731,0.001114,-0.51318,-0.006323,1.583135,-260.179494,-1.590711,72.798061
6.1363,0.004048,-0.003032,-0.004791,-0.000113,0.00175,0.011706,0.000946,-0.513159,-0.005974,1.583135,-260.179494,-1.590711,72.798061
6.1557,0.004504,-0.002951,-0.005481,-1e-05,0.001756,0.011687,0.000946,-0.513159,-0.005974,1.583135,-260.179494,-1.590711,72.798061
6.1754,0.004238,-0.003141,-0.006214,7.1e-05,0.001761,0.011674,0.001699,-0.512871,-0.004998,1.598156,-260.175984,-1.615756,72.800198
6.1954,0.00404,-0.003067,-0.005657,1.9e-05,0.001717,0.011518,0.001443,-0.512968,-0.005433,1.598156,-260.175984,-1.615756,72.800198
6.2158,0.003823,-0.003192,-0.004932,-2.3e-05,0.001682,0.011405,0.001158,-0.513007,-0.00531,1.562765,-260.172677,-1.557496,72.802195
6.2358,0.003546,-0.002666,-0.00524,-1.7e-05,0.001703,0.011185,0.001295,-0.513168,-0.004948,1.562765,-260.172677,-1.557496,72.802195
6.2555,0.003755,-0.003026,-0.004372,-1.3e-05,0.001719,0.01103,0.001295,-0.513168,-0.004948,1.562765,-260.172677,-1.557496,72.802195
6.2753,0.003083,-0.002848,-0.005607,-1e-05,0.001732,0.010922,0.001525,-0.512951,-0.003897,1.573471,-260.16924,-1.575173,72.804295
6.2955,0.003045,-0.003219,-0.004377,5.2e-05,0.001703,0.010741,0.000997,-0.512898,-0.004537,1.573471,-260.16924,-1.575173,72.804295
6.3155,0.003049,-0.002773,-0.001911,9.9e-05,0.001682,0.010613,0.000813,-0.513159,-0.00403,1.57194,-260.165887,-1.572743,72.806266
6.3358,0.002833,-0.002696,-0.004385,-6.9e-05,0.001609,0.009428,0.00196,-0.512804,-0.002086,1.57194,-260.165887,-1.572743,72.806266
6.3554,0.003078,-0.00301,-0.003737,-0.000207,0.001549,0.008615,0.00196,-0.512804,-0.002086,1.57194,-260.165887,-1.572743,72.806266
6.3755,0.002789,-0.002759,-0.003286,-0.000319,0.0015,0.008059,0.001176,-0.512937,-0.003297,1.558611,-260.162657,-1.550075,72.808165
6.3954,0.002482,-0.002797,-0.002778,-0.000234,0.001506,0.008246,0.001151,-0.512856,-0.003242,1.558611,-260.162657,-1.550075,72.808165
6.4158,0.002919,-0.00272,-0.003186,-0.000168,0.001512,0.008385,0.001059,-0.512758,-0.002582,1.620365,-260.16069,-1.625075,72.809216
6.4355,0.002592,-0.00264,-0.002097,-0.000149,0.001487,0.008439,0.001273,-0.51272,-0.003121,1.620365,-260.16069,-1.625075,72.809216
6.4555,0.002287,-0.002853,-0.00226,-0.000135,0.001468,0.008479,0.001273,-0.51272,-0.003121,1.620365,-260.16069,-1.625075,72.809216
6.4755,0.002395,-0.002465,-0.003401,-0.000124,0.001454,0.008509,0.001128,-0.512789,-0.001912,1.596147,-260.158063,-1.617369,72.810647
6.4955,0.002784,-0.002261,-0.001621,-3.9e-05,0.001441,0.008259,0.000938,-0.51265,-0.002475,1.596147,-260.158063,-1.617369,72.810647
6.5154,0.002283,-0.00223,-0.001335,2.7e-05,0.001431,0.008084,0.001954,-0.512214,-0.00135,1.589377,-260.155408,-1.603809,72.812141
6.5356,0.002375,-0.002143,-0.002205,-9.3e-05,0.001301,0.007334,0.001632,-0.512226,-0.001323,1.589377,-260.155408,-1.603809,72.812141
6.5556,0.002006,-0.002421,-0.002868,-0.00019,0.001199,0.006807,0.001632,-0.512226,-0.001323,1.589377,-260.155408,-1.603809,72.812141
6.5756,0.002077,-0.002394,-0.001474,-0.000268,0.00112,0.006438,0.000545,-0.512361,-0.002542,1.566517,-260.152951,-1.563023,72.813493
6.5954,0.0019,-0.002625,-0.001328,-0.000143,0.001118,0.006612,0.000861,-0.512368,-0.002071,1.566517,-260.152951,-1.563023,72.813493
6.6153,0.001716,-0.002215,-0.000658,-4.5e-05,0.00112,0.006737,0.001216,-0.512596,-0.001164,1.623764,-260.151325,-1.637918,72.814402
6.6353,0.002026,-0.002274,-0.001304,-9.3e-05,0.001078,0.006041,0.001367,-0.512245,-0.000692,1.623764,-260.151325,-1.637918,72.814402
6.6562,0.001871,-0.002455,-0.000973,-0.000132,0.001044,0.00555,0.001367,-0.512245,-0.000692,1.623764,-260.151325,-1.637918,72.814402
6.6755,0.001611,-0.002204,0.000144,-0.000162,0.001018,0.005205,0.001373,-0.512411,-0.000712,1.57945,-260.149385,-1.58592,72.815511
6.6955,0.002145,-0.002188,-0.001662,-0.000212,0.00101,0.004749,0.0015,-0.512321,-0.000332,1.57945,-260.149385,-1.58592,72.815511
6.7157,0.001341,-0.002053,-0.001295,-0.000252,0.001002,0.00443,0.001292,-0.512157,-0.001508,1.609493,-260.147822,-1.645835,72.816318
6.7363,0.001653,-0.002104,-2.1e-05,-0.000103,0.000956,0.004815,0.000733,-0.51206,-0.001305,1.609493,-260.147822,-1.645835,72.816318
6.7559,0.001613,-0.002055,-8.6e-05,1.3e-05,0.000924,0.005083,0.000733,-0.51206,-0.001305,1.609493,-260.147822,-1.645835,72.816318
6.7758,0.001512,-0.002052,-0.000132,0.000104,0.000903,0.00527,0.001559,-0.512017,8.2e-05,1.638612,-260.146474,-1.717601,72.816943
6.7956,0.001181,-0.002153,-0.001309,-1.2e-05,0.000855,0.004613,0.001512,-0.512027,1.5e-05,1.638612,-260.146474,-1.717601,72.816943
6.8157,0.001251,-0.002221,1.8e-05,-0.000104,0.000817,0.004146,0.000512,-0.512138,-0.001229,1.563744,-260.145679,-1.642733,72.817389
6.8359,0.001663,-0.001929,-0.001009,-9.8e-05,0.000846,0.003883,0.001194,-0.512213,-8.8e-05,1.563744,-260.145679,-1.642733,72.817389
6.8557,0.001374,-0.002348,0.000269,-9.4e-05,0.000869,0.003696,0.001194,-0.512213,-8.8e-05,1.563744,-260.145679,-1.642733,72.817389
6.8758,0.001466,-0.001865,-0.002397,-9e-05,0.000886,0.003563,0.001507,-0.512314,0.000438,1.601956,-260.144365,-1.631581,72.818063
6.8955,0.001183,-0.00204,0.000622,-3.8e-05,0.000886,0.003857,0.000979,-0.512123,-0.000724,1.601956,-260.144365,-1.631581,72.818063
6.9157,0.001222,-0.002063,0.00054,3e-06,0.000887,0.004063,0.001497,-0.512012,0.000734,1.600135,-260.143148,-1.64034,72.818577
6.9355,0.00114,-0.00244,-0.000419,-8.4e-05,0.000854,0.003463,0.001497,-0.512057,0.000563,1.600135,-260.143148,-1.64034,72.818577
6.9556,0.001375,-0.002197,-0.001185,-0.000154,0.000827,0.003036,0.001497,-0.512057,0.000563,1.600135,-260.143148,-1.64034,72.818577
6.9754,0.001217,-0.001704,0.0001,-0.00021,0.000806,0.002732,0.000771,-0.512163,-0.001031,1.569992,-260.141923,-1.569098,72.819157
6.9954,0.001461,-0.002084,0.001218,-0.000134,0.000798,0.003174,0.000976,-0.51197,-0.000546,1.569992,-260.141923,-1.569098,72.819157
7.0153,0.000718,-0.002161,-0.000421,-7.4e-05,0.000793,0.003485,0.002082,-0.512083,0.001218,1.645041,-260.141923,-1.494049,72.819157
7.0357,0.001108,-0.002169,0.001164,6.5e-05,0.000842,0.003558,0.000642,-0.512154,-0.000278,1.645041,-260.141923,-1.494049,72.819157
7.0553,0.001057,-0.001864,0.001414,0.000175,0.000881,0.003607,0.000642,-0.512154,-0.000278,1.645041,-260.141923,-1.494049,72.819157
7.0755,0.001313,-0.001915,0.000798,0.000263,0.000913,0.003639,0.001777,-0.511839,0.00152,1.59626,-260.141074,-1.569043,72.819546
7.0951,0.00076,-0.001793,0.000273,7.1e-05,0.000832,0.002826,0.001753,-0.511868,0.001235,1.59626,-260.141074,-1.569043,72.819546
7.1153,0.001171,-0.002396,0.001479,-8.3e-05,0.000767,0.002246,0.000901,-0.51178,0.000325,1.521258,-260.140511,-1.49404,72.819784
7.136,0.000803,-0.001758,0.000649,-0.000204,0.000822,0.00174,0.001851,-0.51235,0.001398,1.521258,-260.140511,-1.49404,72.819784
7.1558,0.00082,-0.002294,5.1e-05,-0.000301,0.000863,0.001383,0.001851,-0.51235,0.001398,1.521258,-260.140511,-1.49404,72.819784
7.1752,0.000965,-0.001941,-0.000399,-0.000379,0.000893,0.001132,0.000846,-0.51228,9.1e-05,1.596692,-260.140151,-1.569474,72.819887
7.1951,0.001323,-0.001923,0.000727,-0.000215,0.000902,0.001818,0.000811,-0.512139,-0.000106,1.596692,-260.140151,-1.569474,72.819887
7.2153,0.001027,-0.001906,0.000223,-8.7e-05,0.000914,0.0023,0.001694,-0.511923,0.000727,1.522083,-260.140151,-1.494865,72.819887
7.2355,0.000957,-0.001958,0.000779,-8.9e-05,0.000859,0.002417,0.001191,-0.511907,0.000269,1.522083,-260.140151,-1.494865,72.819887
7.2555,0.001043,-0.00184,0.000517,-9.1e-05,0.000818,0.002492,0.001191,-0.511907,0.000269,1.522083,-260.140151,-1.494865,72.819887
7.2754,0.000631,-0.00188,0.000405,-9.2e-05,0.000787,0.002539,0.001306,-0.51184,0.000517,1.596943,-260.14015,-1.420005,72.819887
7.2954,0.000562,-0.002299,-0.000474,-7.6e-05,0.000753,0.002462,0.001113,-0.511856,0.000471,1.596943,-260.14015,-1.420005,72.819887
7.3154,0.000626,-0.002104,0.001633,-6.2e-05,0.000727,0.002403,0.00032,-0.512291,-0.000449,1.610229,-260.139867,-1.495137,72.819981
7.3356,0.00084,-0.001858,-9.3e-05,-9.4e-05,0.000765,0.001839,0.001354,-0.51212,0.001444,1.610229,-260.139867,-1.495137,72.819981
7.3556,0.001269,-0.001993,0.000457,-0.000119,0.000792,0.00144,0.001354,-0.51212,0.001444,1.610229,-260.139867,-1.495137,72.819981
7.3757,0.001106,-0.002326,0.002637,-0.00014,0.000812,0.00116,0.001501,-0.511972,0.000524,1.599259,-260.139286,-1.570104,72.820177
7.3958,0.001083,-0.002012,-0.000472,-0.000268,0.000799,0.000977,0.001884,-0.512112,0.001382,1.599259,-260.139286,-1.570104,72.820177
7.4152,0.001004,-0.001861,0.000114,-0.000371,0.000789,0.000847,0.000842,-0.512012,-0.000472,1.662384,-260.139286,-1.495167,72.820177
7.4357,0.000726,-0.002239,0.001016,-0.000276,0.000754,0.001517,0.001042,-0.511875,6.2e-05,1.662384,-260.139286,-1.495167,72.820177
7.4554,0.001118,-0.002637,0.001978,-0.000203,0.00073,0.001986,0.001042,-0.511875,6.2e-05,1.662384,-260.139286,-1.495167,72.820177
7.4759,0.001091,-0.002028,0.001267,-0.000146,0.000714,0.002312,0.002126,-0.512636,0.001978,1.587416,-260.139286,-1.420199,72.820177
7.496,0.000923,-0.001941,0.000482,0.0,0.0,0.0,0.001969,-0.51239,0.00169,1.587416,-260.139286,-1.420199,72.820177
