mach0312/omni-docking-bench/src/icros_test_setup/results/MPPI_sample/timeseries/trial_108.csv
t,x,y,yaw,vx,vy,wz,bl_x,bl_y,bl_yaw,front_steering_joint,front_wheel_joint,rear_steering_joint,rear_wheel_joint
0.0,-0.068821,0.018717,0.088014,0.0,0.0,0.0,-0.025323,-0.489173,0.086736,0.379715,-263.050581,-0.180861,69.860966
0.0003,-0.068658,0.018971,0.086564,0.0,0.0,0.0,-0.025254,-0.489264,0.086691,0.379715,-263.048196,-0.180861,69.863218
0.0006,-0.068969,0.018853,0.087074,0.0,0.0,0.0,-0.025254,-0.489264,0.086691,0.379715,-263.04716,-0.180861,69.864196
0.0009,-0.068971,0.018799,0.086795,0.0,0.0,0.0,-0.02548,-0.489009,0.085191,0.379715,-263.04716,-0.180861,69.864196
0.0012,-0.06916,0.019227,0.087114,0.0,0.0,0.0,-0.02548,-0.489009,0.085191,0.379715,-263.04716,-0.180861,69.864196
0.0014,-0.069009,0.018703,0.086146,0.0,0.0,0.0,-0.024477,-0.489219,0.087397,0.379715,-263.04716,-0.180861,69.864196
0.0017,-0.069123,0.019396,0.087081,0.0,0.0,0.0,-0.024477,-0.489219,0.087397,0.379715,-263.04716,-0.180861,69.864196
0.0019,-0.068572,0.019075,0.085692,0.0,0.0,0.0,-0.024477,-0.489219,0.087397,0.379715,-263.04716,-0.180861,69.864196
0.0022,-0.069187,0.018965,0.087387,0.0,0.0,0.0,-0.024539,-0.489188,0.086653,0.379715,-263.04716,-0.180861,69.864196
0.0171,-0.069355,0.019009,0.086645,0.0,0.0,0.0,-0.024676,-0.489089,0.087387,0.379715,-263.04716,-0.180861,69.864196
0.0368,-0.069055,0.01883,0.085236,0.0,0.0,0.0,-0.02489,-0.489085,0.087095,0.379715,-263.04716,-0.180861,69.864196
0.0562,-0.069011,0.01883,0.085899,0.0,0.0,0.0,-0.025637,-0.489319,0.085236,0.379715,-263.04716,-0.180861,69.864196
0.0771,-0.068786,0.01885,0.085479,0.0,0.0,0.0,-0.02529,-0.489292,0.085841,0.379715,-263.04716,-0.180861,69.864196
0.0969,-0.068885,0.018839,0.086864,0.0,0.0,0.0,-0.02529,-0.489292,0.085841,0.379715,-263.04716,-0.180861,69.864196
0.1165,-0.068853,0.018765,0.086729,0.005074,-0.002397,-0.009818,-0.02464,-0.489238,0.086864,0.379715,-263.04716,-0.180861,69.864196
0.1366,-0.068784,0.019267,0.087633,0.005531,-0.002606,-0.010531,-0.024655,-0.48927,0.086809,0.379715,-263.04716,-0.180861,69.864196
0.1563,-0.068929,0.018782,0.087539,0.005922,-0.00278,-0.011089,-0.024148,-0.488776,0.087633,0.304783,-263.04716,-0.105929,69.864196
0.1767,-0.068965,0.018997,0.085433,0.00625,-0.002932,-0.011604,-0.024324,-0.489223,0.087547,0.304783,-263.04716,-0.105929,69.864196
0.1967,-0.069058,0.018737,0.085397,0.006531,-0.003058,-0.012011,-0.024324,-0.489223,0.087547,0.304783,-263.04716,-0.105929,69.864196
0.2165,-0.069128,0.018876,0.086836,0.006771,-0.003164,-0.012332,-0.025559,-0.489404,0.085397,0.229665,-263.04716,-0.030811,69.864196
0.2366,-0.069469,0.018865,0.087198,0.006994,-0.003233,-0.012583,-0.025289,-0.489322,0.085984,0.229665,-263.04716,-0.030811,69.864196
0.2564,-0.069023,0.018872,0.087351,0.007185,-0.003292,-0.012782,-0.025054,-0.489198,0.087198,0.154778,-263.04716,0.044075,69.864196
0.2767,-0.068856,0.019036,0.085799,0.007336,-0.003356,-0.012941,-0.024578,-0.489185,0.087338,0.154778,-263.04716,0.044075,69.864196
0.2967,-0.068669,0.019154,0.08648,0.007464,-0.00341,-0.013066,-0.024578,-0.489185,0.087338,0.154778,-263.04716,0.044075,69.864196
0.3172,-0.068963,0.018601,0.086983,0.007574,-0.003456,-0.013164,-0.024619,-0.488941,0.08648,0.079783,-263.04716,0.119071,69.864196
0.3365,-0.069003,0.018951,0.087326,0.00767,-0.003495,-0.013243,-0.024634,-0.489153,0.086682,0.079783,-263.04716,0.119071,69.864196
0.3564,-0.068562,0.018638,0.087401,0.007751,-0.003528,-0.013306,-0.024524,-0.489106,0.087326,0.004783,-263.04716,0.194071,69.864196
0.3765,-0.068732,0.018934,0.087035,0.007817,-0.003561,-0.013356,-0.024087,-0.489387,0.087394,0.004783,-263.04716,0.194071,69.864196
0.3965,-0.069311,0.018629,0.086076,0.007874,-0.003589,-0.013396,-0.024087,-0.489387,0.087394,0.004783,-263.04716,0.194071,69.864196
0.4167,-0.069094,0.01893,0.087126,0.007922,-0.003613,-0.013429,-0.025467,-0.489483,0.086076,-0.070213,-263.04716,0.269067,69.864196
0.4365,-0.068831,0.018714,0.08607,0.007979,-0.003618,-0.013453,-0.025156,-0.48934,0.08651,-0.070213,-263.04716,0.269067,69.864196
0.4565,-0.068929,0.019209,0.086868,0.008027,-0.003622,-0.013473,-0.02499,-0.489398,0.08607,-0.145447,-263.04716,0.3443,69.864196
0.4768,-0.068771,0.019405,0.086778,0.008056,-0.003641,-0.013491,-0.02471,-0.488916,0.086797,-0.145447,-263.04716,0.3443,69.864196
0.4964,-0.068963,0.019207,0.088319,0.00808,-0.003657,-0.013505,-0.02471,-0.488916,0.086797,-0.145447,-263.04716,0.3443,69.864196
0.5165,-0.06873,0.019062,0.084189,0.008102,-0.003671,-0.013516,-0.02398,-0.488806,0.088319,-0.220305,-263.04716,0.419159,69.864197
0.5367,-0.06888,0.018914,0.086997,0.008121,-0.003683,-0.013525,-0.024737,-0.488938,0.086642,-0.220305,-263.04716,0.419159,69.864197
0.5568,-0.068962,0.019078,0.086816,0.008138,-0.003692,-0.013533,-0.024568,-0.489157,0.086997,-0.295216,-263.047159,0.49407,69.864197
0.5767,-0.06869,0.01886,0.088213,0.008153,-0.0037,-0.013538,-0.024726,-0.489015,0.086832,-0.295216,-263.047159,0.49407,69.864197
0.5964,-0.068826,0.019138,0.086206,0.008167,-0.003706,-0.013543,-0.024726,-0.489015,0.086832,-0.295216,-263.047159,0.49407,69.864197
0.6163,-0.068757,0.019081,0.087287,0.008178,-0.003712,-0.013547,-0.024915,-0.488968,0.086206,-0.370321,-263.047157,0.511945,69.864199
0.6366,-0.06871,0.018988,0.08744,0.008187,-0.003718,-0.013551,-0.024663,-0.488972,0.086647,-0.370321,-263.047157,0.511945,69.864199
0.6567,-0.069128,0.01894,0.086616,0.008195,-0.003724,-0.013554,-0.024172,-0.489064,0.087439,-0.445211,-263.047144,0.508874,69.864207
0.6771,-0.069037,0.018965,0.088359,0.008208,-0.003721,-0.013556,-0.024937,-0.489141,0.086687,-0.445211,-263.047144,0.508874,69.864207
0.6965,-0.069038,0.018852,0.087249,0.008219,-0.00372,-0.013557,-0.024937,-0.489141,0.086687,-0.445211,-263.047144,0.508874,69.864207
0.7167,-0.06867,0.019099,0.087027,0.008228,-0.003718,-0.013559,-0.024594,-0.489208,0.087245,-0.520379,-263.047088,0.507274,69.864243
0.7371,-0.069021,0.019028,0.086542,0.00823,-0.003725,-0.013561,-0.024491,-0.489112,0.087156,-0.520379,-263.047088,0.507274,69.864243
0.7565,-0.06906,0.018822,0.084889,0.008231,-0.003731,-0.013562,-0.024928,-0.489064,0.08653,-0.59522,-263.046882,0.506288,69.864376
0.7768,-0.068581,0.018693,0.086712,0.008254,-0.003712,-0.013562,-0.025747,-0.48932,0.08502,-0.59522,-263.046882,0.506288,69.864376
0.7967,-0.069034,0.019152,0.086178,0.008273,-0.003696,-0.013561,-0.025747,-0.48932,0.08502,-0.59522,-263.046882,0.506288,69.864376
0.8166,-0.068943,0.018609,0.087028,0.008289,-0.003683,-0.013562,-0.025097,-0.488961,0.086131,-0.670555,-263.046303,0.505215,69.86475
0.8367,-0.068488,0.018651,0.086527,0.008288,-0.003689,-0.013563,-0.024897,-0.489164,0.086488,-0.670555,-263.046303,0.505215,69.86475
0.8567,-0.068836,0.018858,0.08594,0.008287,-0.003693,-0.013565,-0.024339,-0.489455,0.086435,-0.745221,-263.044876,0.506636,69.865679
0.8766,-0.068864,0.018781,0.086666,0.00829,-0.003694,-0.013566,-0.024994,-0.489277,0.085978,-0.745221,-263.044876,0.506636,69.865679
0.8968,-0.068395,0.019166,0.086123,0.008293,-0.003694,-0.013566,-0.024994,-0.489277,0.085978,-0.745221,-263.044876,0.506636,69.865679
0.9169,-0.0682,0.018752,0.085517,0.008295,-0.003694,-0.013567,-0.024347,-0.488987,0.085883,-0.820337,-263.042219,0.505924,69.867408
0.9365,-0.068284,0.018893,0.087175,0.008287,-0.003704,-0.013645,-0.024443,-0.489149,0.085711,-0.820337,-263.042219,0.505924,69.867408
0.9563,-0.067264,0.018786,0.084223,0.008281,-0.003713,-0.013707,-0.023677,-0.48923,0.086878,-0.895218,-263.038046,0.505597,69.870123
0.9768,-0.06749,0.01883,0.085171,0.008278,-0.003718,-0.013817,-0.024294,-0.489395,0.084431,-0.895218,-263.038046,0.505597,69.870123
0.9968,-0.067649,0.018639,0.085762,0.008275,-0.003722,-0.013905,-0.024294,-0.489395,0.084431,-0.895218,-263.038046,0.505597,69.870123
1.0163,-0.06716,0.018794,0.086996,0.008273,-0.003725,-0.013975,-0.023635,-0.489602,0.085236,-0.970018,-263.032706,0.512421,69.873586
1.0366,-0.06723,0.018561,0.085835,0.008257,-0.003744,-0.01411,-0.023281,-0.489484,0.085885,-0.970018,-263.032706,0.512421,69.873586
1.0563,-0.066312,0.018332,0.084186,0.008243,-0.003759,-0.014217,-0.023236,-0.489657,0.085392,-0.977195,-263.026815,0.526624,69.877398
1.0765,-0.066572,0.018384,0.084524,0.008242,-0.003761,-0.01438,-0.023396,-0.489848,0.084275,-0.977195,-263.026815,0.526624,69.877398
1.0964,-0.066353,0.018568,0.085173,0.00824,-0.003763,-0.014511,-0.023396,-0.489848,0.084275,-0.977195,-263.026815,0.526624,69.877398
1.1166,-0.06525,0.018209,0.0841,0.00824,-0.003765,-0.014616,-0.022611,-0.489711,0.084579,-0.985671,-263.020865,0.538486,69.881226
1.1365,-0.06547,0.01799,0.084052,0.008225,-0.003781,-0.014772,-0.022488,-0.489838,0.084317,-0.985671,-263.020865,0.538486,69.881226
1.1564,-0.064818,0.018423,0.082759,0.008212,-0.003794,-0.014898,-0.022385,-0.490306,0.083591,-0.994946,-263.014856,0.559649,69.885087
1.1764,-0.064898,0.018131,0.081161,0.008206,-0.003802,-0.015066,-0.022622,-0.489878,0.082808,-0.994946,-263.014856,0.559649,69.885087
1.1964,-0.064558,0.018314,0.082985,0.008201,-0.003808,-0.015201,-0.022622,-0.489878,0.082808,-0.994946,-263.014856,0.559649,69.885087
1.2169,-0.063835,0.018241,0.08071,0.008196,-0.003813,-0.015311,-0.02193,-0.490061,0.082365,-1.003656,-263.008776,0.573517,69.888976
1.2365,-0.064111,0.018187,0.080885,0.008191,-0.003819,-0.015464,-0.02221,-0.490091,0.08162,-1.003656,-263.008776,0.573517,69.888976
1.2563,-0.062989,0.018214,0.081699,0.008186,-0.003824,-0.015587,-0.022637,-0.490245,0.080401,-1.013891,-263.002618,0.594259,69.892904
1.2767,-0.062576,0.018118,0.080754,0.00817,-0.003841,-0.015747,-0.021464,-0.490103,0.081564,-1.013891,-263.002618,0.594259,69.892904
1.2967,-0.063319,0.017564,0.081637,0.008157,-0.003855,-0.015878,-0.021464,-0.490103,0.081564,-1.013891,-263.002618,0.594259,69.892904
1.317,-0.062105,0.017621,0.080382,0.008146,-0.003866,-0.015984,-0.021378,-0.490868,0.080989,-1.020524,-262.996387,0.607911,69.896873
1.337,-0.062044,0.017955,0.080801,0.008147,-0.003865,-0.016122,-0.021246,-0.490828,0.080665,-1.020524,-262.996387,0.607911,69.896873
1.3566,-0.061337,0.017447,0.080423,0.008148,-0.003864,-0.016235,-0.020613,-0.490482,0.080295,-1.032045,-262.990077,0.626548,69.90087
1.3766,-0.061469,0.018062,0.079597,0.008135,-0.003877,-0.016372,-0.020374,-0.490873,0.080387,-1.032045,-262.990077,0.626548,69.90087
1.397,-0.06181,0.017556,0.079709,0.008124,-0.003889,-0.016484,-0.020374,-0.490873,0.080387,-1.032045,-262.990077,0.626548,69.90087
1.4166,-0.060314,0.017726,0.080674,0.008115,-0.003898,-0.016576,-0.02085,-0.490958,0.079031,-1.03675,-262.983691,0.638811,69.904919
1.4366,-0.060687,0.017699,0.078926,0.008103,-0.00391,-0.016687,-0.02014,-0.490833,0.079626,-1.03675,-262.983691,0.638811,69.904919
1.4565,-0.059547,0.017723,0.07796,0.008093,-0.00392,-0.016777,-0.020211,-0.490816,0.078401,-1.046148,-262.977246,0.654405,69.908988
1.4768,-0.059734,0.017779,0.077717,0.008079,-0.003935,-0.016876,-0.019848,-0.49074,0.077973,-1.046148,-262.977246,0.654405,69.908988
1.4968,-0.059752,0.017897,0.077208,0.008067,-0.003946,-0.016956,-0.019848,-0.49074,0.077973,-1.046148,-262.977246,0.654405,69.908988
1.5166,-0.058943,0.017282,0.077439,0.008057,-0.003956,-0.017022,-0.020065,-0.490721,0.076506,-1.05178,-262.970731,0.663488,69.91309
1.5364,-0.059256,0.017615,0.076962,0.008053,-0.003961,-0.017089,-0.01979,-0.490929,0.076807,-1.05178,-262.970731,0.663488,69.91309
1.5564,-0.058219,0.017435,0.07814,0.008049,-0.003965,-0.017144,-0.01978,-0.490981,0.076423,-1.05926,-262.964157,0.674319,69.91721
1.5769,-0.05765,0.01703,0.076622,0.008021,-0.003991,-0.017201,-0.018512,-0.491012,0.077967,-1.05926,-262.964157,0.674319,69.91721
1.5965,-0.057785,0.017595,0.075553,0.007997,-0.004013,-0.017247,-0.018512,-0.491012,0.077967,-1.05926,-262.964157,0.674319,69.91721
1.6166,-0.057667,0.016975,0.075111,0.007978,-0.004031,-0.017285,-0.018942,-0.49109,0.074838,-1.062158,-262.957555,0.679816,69.921343
1.637,-0.05707,0.017245,0.076398,0.007982,-0.004026,-0.017323,-0.01909,-0.491311,0.074868,-1.062158,-262.957555,0.679816,69.921343
1.657,-0.056164,0.016937,0.074728,0.007986,-0.004023,-0.017355,-0.017882,-0.491376,0.075848,-1.070346,-262.950914,0.685658,69.925461
1.677,-0.056171,0.016837,0.075275,0.007974,-0.004034,-0.01739,-0.018058,-0.491622,0.074797,-1.070346,-262.950914,0.685658,69.925461
1.6969,-0.056548,0.016862,0.074806,0.007964,-0.004043,-0.017419,-0.018058,-0.491622,0.074797,-1.070346,-262.950914,0.685658,69.925461
1.7166,-0.055235,0.016997,0.073108,0.007955,-0.00405,-0.017443,-0.018088,-0.491854,0.074082,-1.070931,-262.944264,0.68895,69.92959
1.7366,-0.055612,0.016935,0.073187,0.007952,-0.004053,-0.01747,-0.018005,-0.491784,0.0736,-1.070931,-262.944264,0.68895,69.92959
1.7566,-0.054641,0.01667,0.073279,0.007949,-0.004056,-0.017492,-0.018058,-0.49181,0.072632,-1.074851,-262.93758,0.692809,69.933723
1.7764,-0.054764,0.016631,0.071776,0.007936,-0.004067,-0.017517,-0.017356,-0.491953,0.073192,-1.074851,-262.93758,0.692809,69.933723
1.7964,-0.05432,0.016525,0.073024,0.007925,-0.004076,-0.017538,-0.017356,-0.491953,0.073192,-1.074851,-262.93758,0.692809,69.933723
1.817,-0.053823,0.016263,0.071698,0.007916,-0.004084,-0.017555,-0.016766,-0.492261,0.072291,-1.0762,-262.930883,0.695014,69.937863
1.8369,-0.053836,0.016569,0.071246,0.007908,-0.00409,-0.017574,-0.016939,-0.492345,0.071966,-1.0762,-262.930883,0.695014,69.937863
1.8567,-0.053103,0.016219,0.07021,0.007902,-0.004095,-0.01759,-0.01727,-0.49225,0.070686,-1.079809,-262.924158,0.697777,69.942
1.8763,-0.053421,0.016306,0.069551,0.007911,-0.004087,-0.017607,-0.017307,-0.492506,0.070224,-1.079809,-262.924158,0.697777,69.942
1.8965,-0.052564,0.016017,0.070013,0.007918,-0.00408,-0.01762,-0.017307,-0.492506,0.070224,-1.079809,-262.924158,0.697777,69.942
1.9169,-0.052041,0.015962,0.069703,0.007923,-0.004075,-0.017632,-0.016545,-0.492881,0.069279,-1.081447,-262.917437,0.699394,69.946129
1.9366,-0.051698,0.016245,0.071263,0.007918,-0.004079,-0.017646,-0.016496,-0.492865,0.069367,-1.081447,-262.917437,0.699394,69.946129
1.9567,-0.051275,0.016373,0.06901,0.007913,-0.004083,-0.017658,-0.015124,-0.492571,0.070703,-1.080484,-262.910705,0.701492,69.950279
1.977,-0.051239,0.016363,0.068925,0.007888,-0.004105,-0.017672,-0.016011,-0.492432,0.069127,-1.080484,-262.910705,0.701492,69.950279
1.9972,-0.051094,0.016209,0.069326,0.007867,-0.004123,-0.017683,-0.016011,-0.492432,0.069127,-1.080484,-262.910705,0.701492,69.950279
2.0167,-0.050366,0.015617,0.068744,0.007849,-0.004138,-0.017693,-0.015425,-0.492713,0.068588,-1.081661,-262.903972,0.702665,69.954424
2.0368,-0.050569,0.016113,0.068673,0.007829,-0.004155,-0.017703,-0.015348,-0.492921,0.068567,-1.081661,-262.903972,0.702665,69.954424
2.0566,-0.049543,0.015672,0.070004,0.007813,-0.004169,-0.017711,-0.015315,-0.492799,0.068111,-1.087153,-262.897229,0.70416,69.958538
2.0767,-0.049448,0.015458,0.067152,0.007762,-0.004209,-0.017722,-0.013985,-0.49306,0.069807,-1.087153,-262.897229,0.70416,69.958538
2.0964,-0.049492,0.015748,0.068821,0.00772,-0.004242,-0.017731,-0.013985,-0.49306,0.069807,-1.087153,-262.897229,0.70416,69.958538
2.1164,-0.048426,0.015491,0.067113,0.007685,-0.004269,-0.017738,-0.014083,-0.493197,0.06808,-1.090224,-262.890471,0.70507,69.962641
2.1366,-0.048677,0.015686,0.068276,0.007667,-0.004283,-0.017744,-0.014101,-0.493281,0.067601,-1.090224,-262.890471,0.70507,69.962641
2.1564,-0.047974,0.015462,0.065947,0.007652,-0.004295,-0.017748,-0.013631,-0.493245,0.067713,-1.100076,-262.883705,0.706873,69.966676
2.1764,-0.047941,0.015597,0.064806,0.00765,-0.004296,-0.017753,-0.014286,-0.493419,0.066077,-1.100076,-262.883705,0.706873,69.966676
2.1964,-0.047795,0.015714,0.06644,0.007648,-0.004297,-0.017756,-0.014286,-0.493419,0.066077,-1.100076,-262.883705,0.706873,69.966676
2.2162,-0.047214,0.015514,0.063703,0.007646,-0.004298,-0.017759,-0.013604,-0.493319,0.065697,-1.102671,-262.876922,0.707589,69.970704
2.2364,-0.046963,0.015488,0.065379,0.007637,-0.004304,-0.017763,-0.014031,-0.493391,0.0648,-1.102671,-262.876922,0.707589,69.970704
2.2563,-0.0462,0.015178,0.062775,0.00763,-0.00431,-0.017766,-0.013392,-0.493544,0.064813,-1.103251,-262.870127,0.708227,69.974736
2.2764,-0.046338,0.015265,0.06409,0.007639,-0.004302,-0.017768,-0.014123,-0.4938,0.062924,-1.103251,-262.870127,0.708227,69.974736
2.2964,-0.045915,0.015278,0.065798,0.007646,-0.004295,-0.01777,-0.014123,-0.4938,0.062924,-1.103251,-262.870127,0.708227,69.974736
2.3166,-0.045115,0.014795,0.062788,0.007652,-0.00429,-0.017771,-0.012052,-0.493777,0.065056,-1.104505,-262.863338,0.708678,69.978756
2.3364,-0.045679,0.015396,0.063058,0.007606,-0.004324,-0.017777,-0.012444,-0.493967,0.064049,-1.104505,-262.863338,0.708678,69.978756
2.3564,-0.044544,0.014592,0.063011,0.007568,-0.004352,-0.017781,-0.013289,-0.493711,0.062493,-1.102953,-262.856561,0.709007,69.982782
2.3764,-0.044101,0.014838,0.063419,0.00755,-0.004366,-0.017783,-0.012494,-0.49434,0.062935,-1.102953,-262.856561,0.709007,69.982782
2.3964,-0.044623,0.014777,0.060177,0.007535,-0.004377,-0.017785,-0.012494,-0.49434,0.062935,-1.102953,-262.856561,0.709007,69.982782
2.4164,-0.043481,0.014528,0.061184,0.007522,-0.004386,-0.017787,-0.013624,-0.494463,0.059432,-1.109123,-262.849769,0.710147,69.986772
2.4365,-0.043535,0.014515,0.060522,0.007536,-0.004374,-0.017787,-0.013048,-0.494504,0.060058,-1.109123,-262.849769,0.710147,69.986772
2.4564,-0.043019,0.01445,0.060631,0.007549,-0.004364,-0.017787,-0.01244,-0.494676,0.059956,-1.112557,-262.84297,0.710942,69.990742
2.4767,-0.04275,0.014394,0.061948,0.007531,-0.004377,-0.017789,-0.012133,-0.494625,0.060541,-1.112557,-262.84297,0.710942,69.990742
2.497,-0.042915,0.014711,0.061454,0.007516,-0.004387,-0.017791,-0.012133,-0.494625,0.060541,-1.112557,-262.84297,0.710942,69.990742
2.5164,-0.041841,0.014376,0.059387,0.007503,-0.004396,-0.017792,-0.011266,-0.49449,0.060709,-1.110558,-262.836172,0.710877,69.994727
2.5366,-0.041953,0.014431,0.061336,0.007464,-0.004424,-0.017795,-0.011353,-0.494604,0.060087,-1.110558,-262.836172,0.710877,69.994727
2.5566,-0.041241,0.014432,0.059369,0.007432,-0.004447,-0.017797,-0.010445,-0.494735,0.06077,-1.113881,-262.829361,0.711607,69.998694
2.5766,-0.041359,0.014331,0.05836,0.007391,-0.004475,-0.0178,-0.010921,-0.494681,0.059463,-1.113881,-262.829361,0.711607,69.998694
2.5964,-0.041133,0.014459,0.058499,0.007357,-0.004498,-0.017802,-0.010921,-0.494681,0.059463,-1.113881,-262.829361,0.711607,69.998694
2.6164,-0.040083,0.014074,0.058312,0.007329,-0.004517,-0.017803,-0.010995,-0.494836,0.057756,-1.11905,-262.822563,0.712716,70.002616
2.6366,-0.040302,0.013992,0.058667,0.007305,-0.004532,-0.017804,-0.0107,-0.494946,0.057897,-1.11905,-262.822563,0.712716,70.002616
2.6565,-0.039544,0.013838,0.056417,0.007286,-0.004545,-0.017804,-0.010158,-0.49526,0.0581,-1.126374,-262.815751,0.714462,70.006493
2.6765,-0.039558,0.013755,0.056737,0.007284,-0.004545,-0.017804,-0.010717,-0.495349,0.056541,-1.126374,-262.815751,0.714462,70.006493
2.6967,-0.039407,0.013647,0.057584,0.007282,-0.004546,-0.017803,-0.010717,-0.495349,0.056541,-1.126374,-262.815751,0.714462,70.006493
2.7163,-0.038528,0.01399,0.055738,0.00728,-0.004546,-0.017803,-0.00974,-0.49568,0.056839,-1.129353,-262.808931,0.71524,70.010353
2.7366,-0.038411,0.013573,0.055049,0.007247,-0.004567,-0.017805,-0.009857,-0.495512,0.056305,-1.129353,-262.808931,0.71524,70.010353
2.7567,-0.037879,0.013175,0.056047,0.007219,-0.004585,-0.017806,-0.010111,-0.495787,0.054482,-1.129709,-262.802108,0.715472,70.014212
2.7765,-0.037558,0.013488,0.055184,0.00719,-0.004602,-0.017806,-0.009371,-0.496009,0.055873,-1.129709,-262.802108,0.715472,70.014212
2.7965,-0.037771,0.013663,0.054822,0.007165,-0.004617,-0.017807,-0.009371,-0.496009,0.055873,-1.129709,-262.802108,0.715472,70.014212
2.8167,-0.036792,0.013697,0.053879,0.007145,-0.004629,-0.017807,-0.009515,-0.495745,0.054078,-1.133918,-262.795287,0.716733,70.01804
2.8364,-0.036671,0.013092,0.054655,0.007122,-0.004643,-0.017808,-0.009401,-0.495691,0.05391,-1.133918,-262.795287,0.716733,70.01804
2.8568,-0.035967,0.013005,0.052558,0.007103,-0.004654,-0.017808,-0.008576,-0.496281,0.054088,-1.138956,-262.788461,0.718437,70.021835
2.8765,-0.036342,0.013028,0.052215,0.007094,-0.004659,-0.017807,-0.00911,-0.496297,0.052665,-1.138956,-262.788461,0.718437,70.021835
2.8966,-0.036009,0.013216,0.053851,0.007086,-0.004663,-0.017807,-0.00911,-0.496297,0.052665,-1.138956,-262.788461,0.718437,70.021835
2.9169,-0.034867,0.012925,0.053648,0.007079,-0.004666,-0.017806,-0.008251,-0.496223,0.053107,-1.141815,-262.781632,0.719359,70.025611
2.9369,-0.035587,0.012973,0.052876,0.007011,-0.004704,-0.017809,-0.007918,-0.496291,0.05324,-1.141815,-262.781632,0.719359,70.025611
2.9565,-0.034394,0.0125,0.051873,0.006955,-0.004735,-0.017811,-0.008399,-0.496451,0.052308,-1.143375,-262.774801,0.720042,70.029377
2.9768,-0.034394,0.01285,0.05253,0.006929,-0.004749,-0.017811,-0.00798,-0.496788,0.051883,-1.143375,-262.774801,0.720042,70.029377
2.997,-0.034144,0.012698,0.052321,0.006908,-0.00476,-0.01781,-0.00798,-0.496788,0.051883,-1.143375,-262.774801,0.720042,70.029377
3.0166,-0.03354,0.012622,0.04873,0.006891,-0.004769,-0.01781,-0.007171,-0.496787,0.051576,-1.151733,-262.767974,0.723464,70.033084
3.0367,-0.033611,0.012598,0.050104,0.006866,-0.004782,-0.017809,-0.007755,-0.496802,0.050338,-1.151733,-262.767974,0.723464,70.033084
3.0569,-0.03294,0.012458,0.05069,0.006846,-0.004793,-0.017809,-0.007841,-0.496903,0.049536,-1.155924,-262.76111,0.725262,70.036781
3.0772,-0.033168,0.012524,0.049029,0.006796,-0.004818,-0.01781,-0.007149,-0.496895,0.050571,-1.155924,-262.76111,0.725262,70.036781
3.0971,-0.032576,0.012418,0.05174,0.006756,-0.004839,-0.017811,-0.007149,-0.496895,0.050571,-1.155924,-262.76111,0.725262,70.036781
3.1169,-0.032204,0.012226,0.049133,0.006722,-0.004856,-0.017811,-0.005905,-0.497084,0.050996,-1.158899,-262.754298,0.726574,70.040429
3.1366,-0.03198,0.011817,0.048291,0.006654,-0.004888,-0.017813,-0.006375,-0.497136,0.05016,-1.158899,-262.754298,0.726574,70.040429
3.1562,-0.03126,0.011803,0.050126,0.006598,-0.004915,-0.017815,-0.007138,-0.497734,0.04772,-1.167029,-262.747463,0.730542,70.044035
3.1765,-0.030953,0.011959,0.048259,0.006528,-0.004945,-0.017816,-0.005826,-0.49758,0.049877,-1.167029,-262.747463,0.730542,70.044035
3.1971,-0.031317,0.011871,0.048599,0.006471,-0.00497,-0.017818,-0.005826,-0.49758,0.049877,-1.167029,-262.747463,0.730542,70.044035
3.217,-0.030367,0.011905,0.048012,0.006425,-0.00499,-0.017818,-0.006254,-0.49772,0.04785,-1.175124,-262.740617,0.735126,70.047593
3.2367,-0.03056,0.011999,0.04627,0.006409,-0.004996,-0.017817,-0.006076,-0.497657,0.04783,-1.175124,-262.740617,0.735126,70.047593
3.2564,-0.029988,0.011415,0.046113,0.006396,-0.005002,-0.017816,-0.006759,-0.497604,0.045704,-1.186194,-262.733786,0.742226,70.05107
3.2767,-0.029393,0.011358,0.046491,0.006428,-0.004984,-0.017812,-0.006493,-0.498012,0.04605,-1.186194,-262.733786,0.742226,70.05107
3.297,-0.029649,0.011725,0.04742,0.006454,-0.00497,-0.01781,-0.006493,-0.498012,0.04605,-1.186194,-262.733786,0.742226,70.05107
3.317,-0.028666,0.011357,0.043752,0.006474,-0.004959,-0.017807,-0.005197,-0.497898,0.046676,-1.187976,-262.726946,0.743371,70.054541
3.3364,-0.028723,0.0108,0.044858,0.006433,-0.004977,-0.017808,-0.005638,-0.498025,0.0454,-1.187976,-262.726946,0.743371,70.054541
3.3562,-0.028543,0.010923,0.044832,0.006398,-0.004992,-0.017809,-0.005639,-0.498836,0.044289,-1.182661,-262.720052,0.740409,70.058075
3.3764,-0.028135,0.011269,0.045078,0.006394,-0.004992,-0.017809,-0.005674,-0.49859,0.044771,-1.182661,-262.720052,0.740409,70.058075
3.3974,-0.028064,0.011168,0.044405,0.00639,-0.004992,-0.017808,-0.005674,-0.49859,0.044771,-1.182661,-262.720052,0.740409,70.058075
3.4164,-0.027377,0.010622,0.04386,0.006387,-0.004991,-0.017807,-0.005148,-0.498526,0.043661,-1.187538,-262.713259,0.74361,70.061527
3.4369,-0.027237,0.010649,0.044576,0.006341,-0.005009,-0.017809,-0.005064,-0.498693,0.043656,-1.187538,-262.713259,0.74361,70.061527
3.4564,-0.026628,0.010589,0.042051,0.006304,-0.005023,-0.017811,-0.004301,-0.498994,0.044009,-1.188125,-262.706426,0.744483,70.064996
3.4766,-0.026281,0.010724,0.043085,0.006289,-0.005027,-0.017811,-0.005098,-0.498971,0.042199,-1.188125,-262.706426,0.744483,70.064996
3.4968,-0.026162,0.01087,0.043022,0.006276,-0.005031,-0.017812,-0.005098,-0.498971,0.042199,-1.188125,-262.706426,0.744483,70.064996
3.5168,-0.025525,0.010487,0.041009,0.006265,-0.005033,-0.017812,-0.003955,-0.498857,0.042276,-1.193344,-262.699578,0.748441,70.06844
3.5367,-0.025747,0.010547,0.042073,0.006179,-0.005064,-0.017817,-0.004195,-0.498973,0.041671,-1.193344,-262.699578,0.748441,70.06844
3.5565,-0.024946,0.010082,0.041256,0.00611,-0.005089,-0.017821,-0.00409,-0.499154,0.041506,-1.195685,-262.69274,0.750697,70.071866
3.5767,-0.024708,0.010323,0.041059,0.006044,-0.005109,-0.017825,-0.003917,-0.499462,0.041249,-1.195685,-262.69274,0.750697,70.071866
3.5969,-0.024766,0.010363,0.04067,0.005991,-0.005125,-0.017828,-0.003917,-0.499462,0.041249,-1.195685,-262.69274,0.750697,70.071866
3.6165,-0.024191,0.009833,0.039598,0.005948,-0.005138,-0.017831,-0.003767,-0.499417,0.039926,-1.205459,-262.685918,0.758999,70.075226
3.6364,-0.024207,0.009934,0.040174,0.005911,-0.005148,-0.017832,-0.003832,-0.499583,0.039706,-1.205459,-262.685918,0.758999,70.075226
3.6566,-0.023227,0.009699,0.039279,0.005881,-0.005156,-0.017834,-0.003529,-0.49981,0.039608,-1.215461,-262.679101,0.768708,70.078525
3.677,-0.023501,0.009831,0.039657,0.005805,-0.005175,-0.017839,-0.003219,-0.499907,0.03928,-1.215461,-262.679101,0.768708,70.078525
3.6965,-0.023107,0.00967,0.038247,0.005743,-0.00519,-0.017843,-0.003219,-0.499907,0.03928,-1.215461,-262.679101,0.768708,70.078525
3.7168,-0.022453,0.009563,0.038231,0.005694,-0.005202,-0.017845,-0.003352,-0.500163,0.0375,-1.219537,-262.672277,0.772954,70.081805
3.7366,-0.022828,0.009564,0.039028,0.005658,-0.005208,-0.017847,-0.003164,-0.500147,0.03771,-1.219537,-262.672277,0.772954,70.081805
3.7567,-0.021841,0.009697,0.037073,0.005629,-0.005213,-0.017849,-0.002742,-0.500206,0.038462,-1.230875,-262.665477,0.785701,70.085012
3.7768,-0.021826,0.008998,0.03664,0.005574,-0.005226,-0.017852,-0.00291,-0.499983,0.037169,-1.230875,-262.665477,0.785701,70.085012
3.7971,-0.021776,0.009299,0.037534,0.005529,-0.005237,-0.017854,-0.00291,-0.499983,0.037169,-1.230875,-262.665477,0.785701,70.085012
3.8168,-0.020982,0.00922,0.0375,0.005493,-0.005245,-0.017856,-0.002394,-0.500551,0.036788,-1.234718,-262.658654,0.790626,70.088211
3.8366,-0.021045,0.009117,0.034774,0.005389,-0.005261,-0.017864,-0.002149,-0.500522,0.036992,-1.234718,-262.658654,0.790626,70.088211
3.8566,-0.020744,0.008861,0.034821,0.005305,-0.005274,-0.01787,-0.003134,-0.500735,0.034206,-1.242956,-262.651849,0.800432,70.091358
3.8763,-0.020522,0.008618,0.037528,0.005355,-0.005254,-0.017866,-0.002992,-0.500829,0.034735,-1.242956,-262.651849,0.800432,70.091358
3.8968,-0.020909,0.00886,0.037276,0.005394,-0.005239,-0.017863,-0.002992,-0.500829,0.034735,-1.242956,-262.651849,0.800432,70.091358
3.9163,-0.01969,0.008714,0.035295,0.005425,-0.005226,-0.017861,-0.001674,-0.500997,0.036533,-1.254109,-262.645059,0.815993,70.094444
3.9364,-0.019959,0.008758,0.034834,0.00528,-0.005246,-0.017873,-0.001655,-0.501009,0.035936,-1.254109,-262.645059,0.815993,70.094444
3.9565,-0.019394,0.008259,0.035358,0.005166,-0.005262,-0.017883,-0.00202,-0.501092,0.034268,-1.246456,-262.638278,0.808565,70.097574
3.9771,-0.018632,0.008459,0.033917,0.005049,-0.005271,-0.017895,-0.001416,-0.5014,0.035229,-1.246456,-262.638278,0.808565,70.097574
3.9967,-0.019015,0.008516,0.033052,0.004957,-0.005277,-0.017904,-0.001416,-0.5014,0.035229,-1.246456,-262.638278,0.808565,70.097574
4.0167,-0.018214,0.008372,0.032792,0.004884,-0.005282,-0.017911,-0.001941,-0.501416,0.032311,-1.261818,-262.631562,0.831011,70.100603
4.0365,-0.017958,0.008195,0.033243,0.004877,-0.005279,-0.017911,-0.001734,-0.501415,0.032421,-1.261818,-262.631562,0.831011,70.100603
4.0564,-0.017536,0.007862,0.03131,0.004871,-0.005277,-0.017912,-0.000848,-0.501683,0.032681,-1.278367,-262.624897,0.858611,70.103543
4.0767,-0.017368,0.007846,0.032957,0.004843,-0.005268,-0.017915,-0.001497,-0.501878,0.031405,-1.278367,-262.624897,0.858611,70.103543
4.0969,-0.017353,0.007947,0.033108,0.004821,-0.005261,-0.017918,-0.001497,-0.501878,0.031405,-1.278367,-262.624897,0.858611,70.103543
4.1169,-0.017163,0.007378,0.031379,0.004804,-0.005255,-0.01792,-0.000259,-0.501989,0.032355,-1.279016,-262.618125,0.860443,70.10653
4.137,-0.016839,0.007933,0.030559,0.004646,-0.005252,-0.017936,-0.000594,-0.502165,0.031882,-1.279016,-262.618125,0.860443,70.10653
4.1569,-0.015762,0.007696,0.030016,0.004522,-0.005249,-0.017948,-0.001098,-0.501992,0.029988,-1.282519,-262.611375,0.869626,70.109505
4.1765,-0.015678,0.007983,0.029931,0.004413,-0.005249,-0.017959,-0.000505,-0.502075,0.029985,-1.282519,-262.611375,0.869626,70.109505
4.1971,-0.016353,0.007702,0.02958,0.004327,-0.005249,-0.017967,-0.000505,-0.502075,0.029985,-1.282519,-262.611375,0.869626,70.109505
4.2168,-0.015563,0.007078,0.02915,0.00426,-0.005249,-0.017972,-0.001077,-0.502285,0.028843,-1.298783,-262.60478,0.901263,70.11236
4.2367,-0.015362,0.007548,0.029436,0.004281,-0.005233,-0.017972,-0.000902,-0.502479,0.028883,-1.298783,-262.60478,0.901263,70.11236
4.2562,-0.015132,0.007316,0.029196,0.004298,-0.005219,-0.017971,-0.000214,-0.502392,0.028873,-1.314038,-262.59819,0.93129,70.115164
4.2767,-0.014541,0.007414,0.02801,0.004192,-0.005213,-0.01798,-0.000234,-0.502468,0.029138,-1.314038,-262.59819,0.93129,70.115164
4.2966,-0.014504,0.006971,0.027475,0.00411,-0.005207,-0.017986,-0.000234,-0.502468,0.029138,-1.314038,-262.59819,0.93129,70.115164
4.3167,-0.014117,0.006621,0.028975,0.004046,-0.005203,-0.017991,-0.000308,-0.50305,0.026722,-1.311413,-262.591489,0.92949,70.118037
4.3368,-0.014283,0.006894,0.027686,0.00393,-0.005171,-0.018003,0.000106,-0.503121,0.02755,-1.311413,-262.591489,0.92949,70.118037
4.3563,-0.013497,0.006215,0.025813,0.00384,-0.005145,-0.018013,-3.4e-05,-0.50307,0.027123,-1.325925,-262.584938,0.960501,70.120808
4.3766,-0.013764,0.00651,0.026182,0.003853,-0.0051,-0.018016,-0.0003,-0.503574,0.025903,-1.325925,-262.584938,0.960501,70.120808
4.3966,-0.01332,0.006864,0.02638,0.003863,-0.005063,-0.018019,-0.0003,-0.503574,0.025903,-1.325925,-262.584938,0.960501,70.120808
4.4165,-0.012872,0.006269,0.025172,0.00387,-0.005034,-0.018022,0.000296,-0.503167,0.025637,-1.337336,-262.578407,0.990473,70.123564
4.4366,-0.013176,0.005948,0.026193,0.003781,-0.005022,-0.018031,0.00018,-0.503354,0.025364,-1.337336,-262.578407,0.990473,70.123564
4.4564,-0.012348,0.006102,0.024462,0.003713,-0.005012,-0.018038,0.000308,-0.504034,0.025621,-1.334057,-262.571803,0.99584,70.126412
4.4767,-0.012191,0.005781,0.024058,0.003663,-0.004979,-0.018046,0.000149,-0.503778,0.024535,-1.334057,-262.571803,0.99584,70.126412
4.4964,-0.012244,0.005716,0.024921,0.003625,-0.004952,-0.018053,0.000149,-0.503778,0.024535,-1.334057,-262.571803,0.99584,70.126412
4.5166,-0.011422,0.005824,0.025269,0.003596,-0.00493,-0.018059,0.000624,-0.50433,0.024173,-1.34316,-262.565285,1.016962,70.129209
4.5367,-0.011422,0.005924,0.025269,0.003378,-0.004857,-0.018077,0.000985,-0.504224,0.024534,-1.34316,-262.565285,1.016962,70.129209
4.5566,-0.010954,0.005624,0.021954,0.003213,-0.004801,-0.018093,0.001582,-0.504066,0.024699,-1.3492,-262.558791,1.038141,70.13202
4.5768,-0.010657,0.005388,0.022234,0.003228,-0.004772,-0.018099,0.000375,-0.504244,0.022184,-1.3492,-262.558791,1.038141,70.13202
4.5969,-0.010989,0.005426,0.023975,0.00324,-0.004749,-0.018104,0.000375,-0.504244,0.022184,-1.3492,-262.558791,1.038141,70.13202
4.6164,-0.010109,0.005302,0.022022,0.003249,-0.00473,-0.018109,0.001369,-0.504614,0.023263,-1.370844,-262.552696,1.095941,70.134667
4.6366,-0.009886,0.005286,0.023218,0.003036,-0.004651,-0.018122,0.001283,-0.504619,0.022673,-1.370844,-262.552696,1.095941,70.134667
4.6566,-0.009585,0.00495,0.021545,0.002874,-0.004591,-0.018134,0.002061,-0.504725,0.022643,-1.367852,-262.546258,1.096533,70.137509
4.6767,-0.00959,0.005122,0.020874,0.002696,-0.004502,-0.018148,0.001468,-0.50492,0.021615,-1.367852,-262.546258,1.096533,70.137509
4.6967,-0.010037,0.005143,0.020703,0.002561,-0.004434,-0.01816,0.001468,-0.50492,0.021615,-1.367852,-262.546258,1.096533,70.137509
4.7171,-0.009219,0.004965,0.021762,0.002459,-0.004383,-0.018172,0.000638,-0.504927,0.019987,-1.389384,-262.54023,1.153614,70.140193
4.737,-0.008894,0.004922,0.018949,0.002456,-0.004355,-0.018177,0.001157,-0.504943,0.020626,-1.389384,-262.54023,1.153614,70.140193
4.7567,-0.008573,0.004257,0.020278,0.002455,-0.004333,-0.018181,0.000843,-0.505113,0.018418,-1.413293,-262.534452,1.219848,70.142829
4.7769,-0.008368,0.004252,0.019517,0.00229,-0.004198,-0.018185,0.001696,-0.505601,0.0201,-1.413293,-262.534452,1.219848,70.142829
4.797,-0.008321,0.004868,0.018859,0.002167,-0.004095,-0.018191,0.001696,-0.505601,0.0201,-1.413293,-262.534452,1.219848,70.142829
4.8176,-0.007863,0.004258,0.018842,0.002075,-0.004018,-0.018198,0.001402,-0.505221,0.018097,-1.413116,-262.528204,1.223042,70.145708
4.8366,-0.008069,0.004316,0.018005,0.002057,-0.003997,-0.018204,0.00155,-0.505412,0.018303,-1.413116,-262.528204,1.223042,70.145708
4.8565,-0.007288,0.004466,0.018204,0.002043,-0.003982,-0.018208,0.001177,-0.505719,0.017467,-1.43453,-262.522515,1.286346,70.148462
4.8766,-0.007145,0.004161,0.017762,0.001943,-0.003942,-0.018211,0.001925,-0.505479,0.01811,-1.43453,-262.522515,1.286346,70.148462
4.8967,-0.007491,0.004189,0.017475,0.001867,-0.003912,-0.018215,0.001925,-0.505479,0.01811,-1.43453,-262.522515,1.286346,70.148462
4.9169,-0.00696,0.004131,0.018207,0.00181,-0.003889,-0.018218,0.001509,-0.505898,0.016716,-1.436354,-262.516421,1.292087,70.151431
4.9371,-0.006753,0.003903,0.017107,0.001759,-0.003815,-0.018218,0.001857,-0.50587,0.017244,-1.436354,-262.516421,1.292087,70.151431
4.9566,-0.006487,0.004059,0.018183,0.001722,-0.003758,-0.018219,0.00203,-0.506142,0.01654,-1.45085,-262.510502,1.325775,70.154351
4.9769,-0.006331,0.004144,0.015071,0.001505,-0.003655,-0.018223,0.002723,-0.505888,0.018014,-1.45085,-262.510502,1.325775,70.154351
4.9967,-0.006148,0.003655,0.014684,0.00134,-0.003578,-0.018229,0.002723,-0.505888,0.018014,-1.45085,-262.510502,1.325775,70.154351
5.0166,-0.005385,0.003884,0.013838,0.001215,-0.003521,-0.018236,0.001414,-0.506446,0.013926,-1.455627,-262.504535,1.34125,70.157364
5.0368,-0.00601,0.003608,0.014583,0.001379,-0.003472,-0.018171,0.001529,-0.506308,0.013802,-1.455627,-262.504535,1.34125,70.157364
5.0567,-0.005311,0.003639,0.013674,0.001502,-0.003435,-0.018122,0.001463,-0.506438,0.014058,-1.488115,-262.49921,1.412642,70.160156
5.0769,-0.00505,0.003638,0.012356,0.001565,-0.003399,-0.018079,0.001645,-0.506331,0.013682,-1.488115,-262.49921,1.412642,70.160156
5.0969,-0.005383,0.003552,0.014814,0.001613,-0.003371,-0.018046,0.001645,-0.506331,0.013682,-1.488115,-262.49921,1.412642,70.160156
5.1171,-0.004633,0.003471,0.012375,0.001649,-0.00335,-0.018021,0.002235,-0.506531,0.014074,-1.467587,-262.493537,1.376483,70.163184
5.1363,-0.004598,0.003522,0.013367,0.00157,-0.003274,-0.017992,0.002021,-0.506531,0.013313,-1.467587,-262.493537,1.376483,70.163184
5.1565,-0.003987,0.003258,0.012946,0.001511,-0.003216,-0.017971,0.002272,-0.506537,0.012797,-1.456405,-262.48779,1.358596,70.166298
5.1767,-0.004009,0.003383,0.01318,0.001327,-0.003104,-0.017937,0.002587,-0.50669,0.012904,-1.456405,-262.48779,1.358596,70.166298
5.1967,-0.004159,0.003173,0.013194,0.001189,-0.00302,-0.017914,0.002587,-0.50669,0.012904,-1.456405,-262.48779,1.358596,70.166298
5.2164,-0.003832,0.002957,0.013715,0.001086,-0.002956,-0.017898,0.002634,-0.506916,0.012447,-1.464707,-262.482131,1.378439,70.169433
5.2366,-0.003326,0.002999,0.01212,0.00093,-0.002832,-0.017885,0.002855,-0.506963,0.012874,-1.464707,-262.482131,1.378439,70.169433
5.2564,-0.003142,0.003107,0.010725,0.000815,-0.002738,-0.017878,0.002889,-0.507051,0.011586,-1.492788,-262.476902,1.435512,70.172454
5.2763,-0.003268,0.003251,0.010486,0.000844,-0.002717,-0.017705,0.002378,-0.506884,0.010773,-1.492788,-262.476902,1.435512,70.172454
5.2964,-0.002866,0.003006,0.010724,0.000866,-0.0027,-0.017575,0.002378,-0.506884,0.010773,-1.492788,-262.476902,1.435512,70.172454
5.3169,-0.002601,0.002914,0.00998,0.000883,-0.002684,-0.017479,0.002637,-0.507076,0.009996,-1.511226,-262.47157,1.471566,70.175658
5.3368,-0.002351,0.002967,0.010009,0.000835,-0.002622,-0.017298,0.00258,-0.507083,0.009905,-1.511226,-262.47157,1.471566,70.175658
5.3569,-0.002458,0.002481,0.009789,0.0008,-0.002572,-0.017165,0.002783,-0.507092,0.009454,-1.504798,-262.466229,1.46074,70.178865
5.3764,-0.002409,0.002844,0.009216,0.000752,-0.002442,-0.017042,0.002558,-0.507463,0.009732,-1.504798,-262.466229,1.46074,70.178865
5.3966,-0.002125,0.002713,0.008125,0.000718,-0.002343,-0.016955,0.002558,-0.507463,0.009732,-1.504798,-262.466229,1.46074,70.178865
5.4166,-0.001543,0.002477,0.007956,0.000694,-0.002266,-0.016894,0.002053,-0.507377,0.007408,-1.509562,-262.461007,1.469974,70.18204
5.4365,-0.001673,0.002186,0.009127,0.000756,-0.002256,-0.016436,0.002246,-0.507443,0.00755,-1.509562,-262.461007,1.469974,70.18204
5.4567,-0.001221,0.002464,0.007721,0.000804,-0.002243,-0.016114,0.003004,-0.507865,0.008591,-1.515673,-262.455984,1.484773,70.185261
5.4767,-0.001599,0.002544,0.008681,0.000717,-0.002172,-0.015938,0.002743,-0.507554,0.007769,-1.515673,-262.455984,1.484773,70.185261
5.4965,-0.001308,0.002621,0.008404,0.000654,-0.002116,-0.015814,0.002743,-0.507554,0.007769,-1.515673,-262.455984,1.484773,70.185261
5.5165,-0.000673,0.002452,0.006011,0.000608,-0.002072,-0.015729,0.003012,-0.507453,0.007737,-1.504385,-262.451186,1.465409,70.188288
5.5369,-0.000509,0.00226,0.009303,0.000575,-0.002063,-0.015482,0.002764,-0.507499,0.006957,-1.504385,-262.451186,1.465409,70.188288
5.5564,-6.6e-05,0.002379,0.005576,0.000552,-0.002053,-0.015309,0.004255,-0.507784,0.008805,-1.518766,-262.44656,1.49025,70.191278
5.5766,-0.000364,0.002137,0.005822,0.000494,-0.002024,-0.014865,0.002907,-0.507631,0.005831,-1.518766,-262.44656,1.49025,70.191278
5.5965,-0.000268,0.002463,0.00529,0.000453,-0.001997,-0.014558,0.002907,-0.507631,0.005831,-1.518766,-262.44656,1.49025,70.191278
5.6165,9e-05,0.002299,0.006193,0.000424,-0.001972,-0.014347,0.002453,-0.507615,0.004651,-1.522437,-262.442,1.495309,70.194201
5.6366,-0.000176,0.001968,0.003967,0.000441,-0.001967,-0.013998,0.002782,-0.507656,0.00521,-1.522437,-262.442,1.495309,70.194201
5.6564,0.000862,0.001892,0.003304,0.000456,-0.00196,-0.013757,0.001861,-0.50809,0.003512,-1.531299,-262.43772,1.508412,70.196912
5.6765,0.000567,0.002086,0.004535,0.000506,-0.001879,-0.012811,0.002487,-0.508107,0.003299,-1.531299,-262.43772,1.508412,70.196912
5.6964,0.000214,0.002128,0.005646,0.000548,-0.001812,-0.012166,0.002487,-0.508107,0.003299,-1.531299,-262.43772,1.508412,70.196912
5.7166,0.000753,0.002347,0.004827,0.000585,-0.001757,-0.011728,0.003113,-0.507946,0.005072,-1.526864,-262.433576,1.500196,70.199492
5.7365,0.00059,0.001903,0.004424,0.000488,-0.00172,-0.012047,0.003157,-0.507833,0.004905,-1.526864,-262.433576,1.500196,70.199492
5.7565,0.001415,0.002012,0.003505,0.000415,-0.001693,-0.01228,0.002865,-0.508146,0.004062,-1.505287,-262.43011,1.462959,70.2016
5.7765,0.000993,0.002508,0.003775,0.000345,-0.001657,-0.011928,0.003173,-0.508003,0.003536,-1.505287,-262.43011,1.462959,70.2016
5.7967,0.001164,0.002183,0.00339,0.000295,-0.001627,-0.011685,0.003173,-0.508003,0.003536,-1.505287,-262.43011,1.462959,70.2016
5.8162,0.001336,0.00225,0.003013,0.000258,-0.001603,-0.011516,0.00291,-0.507883,0.00289,-1.525708,-262.426531,1.499493,70.203864
5.8365,0.00144,0.001817,0.003567,0.000307,-0.001655,-0.011113,0.002896,-0.507836,0.002883,-1.525708,-262.426531,1.499493,70.203864
5.8563,0.002058,0.00181,0.002568,0.000344,-0.00169,-0.010832,0.003267,-0.50823,0.003205,-1.540909,-262.423112,1.52329,70.206016
5.8766,0.001863,0.00218,0.002953,0.000252,-0.001599,-0.010499,0.00336,-0.508194,0.002604,-1.540909,-262.423112,1.52329,70.206016
5.8966,0.001371,0.001725,0.001812,0.000186,-0.001527,-0.010269,0.00336,-0.508194,0.002604,-1.540909,-262.423112,1.52329,70.206016
5.917,0.002065,0.001664,0.002029,0.000137,-0.001471,-0.010109,0.00231,-0.508344,0.001365,-1.529417,-262.419826,1.501084,70.207967
5.9369,0.002073,0.001787,0.002733,0.000253,-0.001432,-0.009467,0.002632,-0.508349,0.001583,-1.529417,-262.419826,1.501084,70.207967
5.9567,0.002421,0.001939,0.001332,0.000341,-0.0014,-0.009017,0.003471,-0.508256,0.002421,-1.552863,-262.41687,1.541649,70.209786
5.9765,0.002547,0.001684,0.001421,0.000318,-0.001428,-0.008618,0.003133,-0.50808,0.001412,-1.552863,-262.41687,1.541649,70.209786
5.9964,0.002273,0.00171,0.002207,0.000302,-0.001447,-0.008334,0.003133,-0.50808,0.001412,-1.552863,-262.41687,1.541649,70.209786
6.0168,0.00231,0.001565,0.000971,0.000291,-0.00146,-0.008133,0.003412,-0.508344,0.001853,-1.521413,-262.414274,1.487878,70.211334
6.0368,0.002396,0.001628,0.000173,0.000256,-0.00138,-0.008011,0.003167,-0.508387,0.001453,-1.521413,-262.414274,1.487878,70.211334
6.0564,0.002935,0.001603,-0.000971,0.000231,-0.00132,-0.007925,0.002494,-0.508418,-8.6e-05,-1.525507,-262.411697,1.487929,70.212743
6.0765,0.003089,0.001321,0.000815,0.000364,-0.001322,-0.006738,0.002445,-0.508401,-0.000907,-1.525507,-262.411697,1.487929,70.212743
6.0969,0.002718,0.001289,-2.4e-05,0.000473,-0.001321,-0.005882,0.002445,-0.508401,-0.000907,-1.525507,-262.411697,1.487929,70.212743
6.1164,0.002922,0.00131,-0.001517,0.000561,-0.001318,-0.005265,0.002716,-0.508766,-0.000353,-1.533334,-262.409246,1.505313,70.214146
6.1366,0.00316,0.001404,0.000723,0.0006,-0.001203,-0.004826,0.002485,-0.508741,-0.000867,-1.533334,-262.409246,1.505313,70.214146
6.1563,0.00296,0.00148,0.000189,0.000634,-0.001116,-0.004511,0.003534,-0.508612,0.000655,-1.458343,-262.408513,1.430322,70.214464
6.1767,0.002804,0.00163,0.000555,0.000543,-0.00108,-0.004796,0.003098,-0.508528,0.000226,-1.458343,-262.408513,1.430322,70.214464
6.1963,0.002678,0.001664,-0.001318,0.000475,-0.001054,-0.004994,0.003098,-0.508528,0.000226,-1.458343,-262.408513,1.430322,70.214464
6.2163,0.00303,0.001623,0.001118,0.000424,-0.001036,-0.00513,0.002015,-0.508354,-0.001397,-1.408557,-262.407863,1.355324,70.214755
6.2367,0.002876,0.001565,-0.001631,0.000494,-0.001099,-0.004933,0.002667,-0.508366,-0.000373,-1.408557,-262.407863,1.355324,70.214755
6.2562,0.003289,0.001295,-0.001653,0.000546,-0.001146,-0.004786,0.002057,-0.508466,-0.001784,-1.469385,-262.406281,1.371259,70.215563
6.2767,0.003084,0.001042,-0.00178,0.000613,-0.001102,-0.004145,0.002418,-0.508688,-0.001669,-1.469385,-262.406281,1.371259,70.215563
6.2964,0.003141,0.001414,-0.002247,0.000669,-0.001067,-0.003684,0.002418,-0.508688,-0.001669,-1.469385,-262.406281,1.371259,70.215563
6.3164,0.002945,0.001213,-0.000818,0.000714,-0.001039,-0.003351,0.002013,-0.508625,-0.002415,-1.437367,-262.404907,1.295803,70.216185
6.3364,0.003472,0.001585,-0.001137,0.000801,-0.001023,-0.003064,0.002223,-0.508695,-0.001787,-1.437367,-262.404907,1.295803,70.216185
6.3564,0.003318,0.001245,0.000391,0.000868,-0.001011,-0.002857,0.002895,-0.508419,-0.001151,-1.362871,-262.404743,1.221307,70.216249
6.3765,0.003246,0.001133,-0.00251,0.000655,-0.000921,-0.003633,0.003465,-0.508727,0.00026,-1.362871,-262.404743,1.221307,70.216249
6.3965,0.003407,0.001292,-0.0007,0.000492,-0.000857,-0.004182,0.003465,-0.508727,0.00026,-1.362871,-262.404743,1.221307,70.216249
6.4165,0.003333,0.001306,-0.00181,0.000366,-0.000812,-0.00457,0.00305,-0.508708,-0.000702,-1.287741,-262.404732,1.146177,70.216253
6.4363,0.003517,0.00162,-0.002044,0.000411,-0.000846,-0.004171,0.002789,-0.508702,-0.001154,-1.287741,-262.404732,1.146177,70.216253
6.4564,0.003289,0.001447,-0.000895,0.000446,-0.00087,-0.003881,0.002479,-0.508385,-0.002077,-1.36262,-262.404401,1.221056,70.216437
6.4766,0.003059,0.001195,-0.001318,0.000481,-0.000934,-0.003741,0.002803,-0.508539,-0.000997,-1.36262,-262.404401,1.221056,70.216437
6.4965,0.003739,0.001083,-0.001027,0.000507,-0.000982,-0.003635,0.002803,-0.508539,-0.000997,-1.36262,-262.404401,1.221056,70.216437
6.5165,0.003732,0.001029,-0.000194,0.000525,-0.001018,-0.003555,0.003232,-0.508948,-0.001167,-1.43411,-262.403266,1.28203,70.21698
6.5365,0.003393,0.001089,-0.000866,0.000393,-0.000893,-0.003583,0.003398,-0.508961,-0.000785,-1.43411,-262.403266,1.28203,70.21698
6.5562,0.003567,0.001324,-0.001481,0.000294,-0.000799,-0.003601,0.002962,-0.508934,-0.000949,-1.407593,-262.402324,1.207054,70.21735
6.5767,0.003719,0.000877,-0.002409,0.00035,-0.000835,-0.003331,0.002825,-0.508697,-0.001442,-1.407593,-262.402324,1.207054,70.21735
6.5965,0.003805,0.001266,2.8e-05,0.000393,-0.000862,-0.003137,0.002825,-0.508697,-0.001442,-1.407593,-262.402324,1.207054,70.21735
6.6166,0.003955,0.001067,-0.000608,0.000425,-0.000881,-0.002997,0.003828,-0.508755,-6.6e-05,-1.473202,-262.40157,1.282264,70.217708
6.6366,0.003855,0.001407,0.000146,0.000266,-0.000806,-0.00342,0.003754,-0.50883,-0.000299,-1.473202,-262.40157,1.282264,70.217708
6.6566,0.004026,0.001167,-0.001909,0.000143,-0.000752,-0.003719,0.003938,-0.508613,7.7e-05,-1.415184,-262.400785,1.207481,70.218006
6.677,0.004004,0.000948,-0.002296,0.00016,-0.000754,-0.003285,0.003129,-0.508814,-0.001741,-1.415184,-262.400785,1.207481,70.218006
6.6969,0.003884,0.001091,-0.001689,0.000175,-0.000755,-0.002976,0.003129,-0.508814,-0.001741,-1.415184,-262.400785,1.207481,70.218006
6.7167,0.0038,0.001602,-0.000248,0.000187,-0.000754,-0.002755,0.003026,-0.508916,-0.001728,-1.490225,-262.400477,1.282522,70.218161
6.7366,0.003671,0.00121,-0.002635,0.000174,-0.000771,-0.002853,0.003288,-0.508708,-0.001135,-1.490225,-262.400477,1.282522,70.218161
6.7565,0.003931,0.000709,-0.001857,0.000164,-0.000785,-0.002919,0.002332,-0.50881,-0.002712,-1.494156,-262.399618,1.35748,70.218494
6.777,0.003874,0.000654,-0.002516,0.000197,-0.000643,-0.002624,0.002928,-0.50925,-0.001935,-1.494156,-262.399618,1.35748,70.218494
6.7969,0.004073,0.000771,-0.001103,0.000225,-0.000536,-0.002418,0.002928,-0.50925,-0.001935,-1.494156,-262.399618,1.35748,70.218494
6.8165,0.00401,0.001425,-0.002231,0.000248,-0.000455,-0.002275,0.003517,-0.50926,-0.00122,-1.507136,-262.398632,1.408173,70.218881
6.8367,0.003738,0.001064,-0.002602,0.000216,-0.000468,-0.002294,0.003254,-0.508984,-0.001647,-1.507136,-262.398632,1.408173,70.218881
6.857,0.004006,0.001211,-0.003894,0.000191,-0.000477,-0.002307,0.002418,-0.508946,-0.002659,-1.436985,-262.398041,1.333161,70.219189
6.8768,0.004075,0.001379,-0.00133,0.000444,-0.000596,-0.001619,0.002055,-0.5088,-0.003792,-1.436985,-262.398041,1.333161,70.219189
6.8968,0.003664,0.001035,-0.002187,0.000634,-0.000684,-0.001124,0.002055,-0.5088,-0.003792,-1.436985,-262.398041,1.333161,70.219189
6.9165,0.003796,0.000799,-0.003156,0.000777,-0.000748,-0.00077,0.002556,-0.508983,-0.00228,-1.469685,-262.397311,1.368421,70.219555
6.9364,0.003704,0.001131,-0.001675,0.000794,-0.000685,-0.000867,0.002405,-0.509074,-0.002651,-1.469685,-262.397311,1.368421,70.219555
6.9565,0.003658,0.000686,-0.000894,0.000808,-0.000638,-0.000937,0.002849,-0.508868,-0.001675,-1.394725,-262.397311,1.293462,70.219555
6.9764,0.004125,0.000881,-0.003572,0.000649,-0.000499,-0.001656,0.003171,-0.509275,-0.000963,-1.394725,-262.397311,1.293462,70.219555
6.9967,0.003888,0.001033,-0.001565,0.000529,-0.000399,-0.002164,0.003171,-0.509275,-0.000963,-1.394725,-262.397311,1.293462,70.219555
7.017,0.004169,0.001052,-0.001564,0.000438,-0.000326,-0.00252,0.00309,-0.508966,-0.001565,-1.319709,-262.397311,1.218445,70.219555
7.0369,0.003919,0.001193,-0.002195,0.000377,-0.000376,-0.002514,0.003204,-0.508959,-0.001565,-1.319709,-262.397311,1.218445,70.219555
7.0569,0.004214,0.001077,-0.002553,0.00033,-0.000415,-0.002507,0.002814,-0.508817,-0.002274,-1.340159,-262.396548,1.224396,70.220068
7.0768,0.003863,0.000901,-0.001302,0.00035,-0.000477,-0.002143,0.002904,-0.508913,-0.002533,-1.340159,-262.396548,1.224396,70.220068
7.0966,0.004027,0.000872,-0.001434,0.000366,-0.000522,-0.001884,0.002904,-0.508913,-0.002533,-1.340159,-262.396548,1.224396,70.220068
7.1172,0.004184,0.001411,-0.002125,0.000379,-0.000554,-0.001698,0.003307,-0.509142,-0.001527,-1.402792,-262.395848,1.283248,70.220481
7.1368,0.004148,0.001056,-0.001166,0.000328,-0.000559,-0.001843,0.003225,-0.508919,-0.00178,-1.402792,-262.395848,1.283248,70.220481
7.1566,0.004184,0.001126,-5.2e-05,0.000289,-0.000563,-0.001943,0.003555,-0.508945,-0.001171,-1.336942,-262.39579,1.208405,70.220503
7.1764,0.004075,0.001135,-0.002064,0.000116,-0.000526,-0.002758,0.004104,-0.50888,-0.000151,-1.336942,-262.39579,1.208405,70.220503
7.1966,0.004049,0.001235,-0.002578,-2e-05,-0.000503,-0.003332,0.004104,-0.50888,-0.000151,-1.336942,-262.39579,1.208405,70.220503
7.2169,0.004028,0.00077,-0.001325,-0.000127,-0.00049,-0.003735,0.002745,-0.508783,-0.002647,-1.407045,-262.395186,1.136634,70.220737
7.2363,0.004423,0.000827,-0.002053,-2e-05,-0.000514,-0.003152,0.002991,-0.508965,-0.002122,-1.407045,-262.395186,1.136634,70.220737
7.2565,0.003973,0.000939,-0.002209,6.3e-05,-0.00053,-0.002737,0.003376,-0.509172,-0.002054,-1.48199,-262.395179,1.211579,70.220742
7.2768,0.004321,0.000931,-0.002062,0.000142,-0.000511,-0.002411,0.002894,-0.50907,-0.002195,-1.48199,-262.395179,1.211579,70.220742
7.2968,0.004287,0.000852,-0.000644,0.000202,-0.000497,-0.002179,0.002894,-0.50907,-0.002195,-1.48199,-262.395179,1.211579,70.220742
7.3164,0.004114,0.00146,-0.002697,0.000249,-0.000485,-0.002014,0.003961,-0.509153,-0.000667,-1.542163,-262.394993,1.28658,70.220838
7.3366,0.004182,0.0008,-0.003055,0.000184,-0.000502,-0.002172,0.003461,-0.508902,-0.0015,-1.542163,-262.394993,1.28658,70.220838
7.3565,0.003884,0.000847,-0.002172,0.000134,-0.000516,-0.00228,0.002629,-0.50921,-0.003106,-1.46711,-262.394448,1.247767,70.221085
7.3768,0.004345,0.001164,-0.001904,0.000222,-0.000475,-0.002052,0.002763,-0.509157,-0.002259,-1.46711,-262.394448,1.247767,70.221085
7.3973,0.003727,0.00116,-0.004079,0.00029,-0.000443,-0.001892,0.002763,-0.509157,-0.002259,-1.46711,-262.394448,1.247767,70.221085
7.4168,0.004362,0.001184,-0.001982,0.000341,-0.00042,-0.00178,0.001651,-0.508849,-0.004137,-1.500871,-262.39398,1.322719,70.221302
7.4369,0.00421,0.000823,-0.001401,0.000488,-0.000527,-0.001377,0.002348,-0.508837,-0.003261,-1.500871,-262.39398,1.322719,70.221302
7.4566,0.004337,0.00112,-0.003759,0.000599,-0.000607,-0.00109,0.003498,-0.509181,-0.001419,-1.425829,-262.393792,1.247677,70.221393
7.4765,0.004186,0.001087,-0.003278,0.00063,-0.000639,-0.000802,0.002517,-0.508904,-0.00355,-1.425829,-262.393792,1.247677,70.221393
7.4968,0.004333,0.000862,-0.003418,0.000656,-0.000661,-0.000597,0.002517,-0.508904,-0.00355,-1.425829,-262.393792,1.247677,70.221393
7.5169,0.004188,0.000854,-0.001861,0.000677,-0.000677,-0.000453,0.002589,-0.509135,-0.003418,-1.350872,-262.393792,1.17272,70.221393
7.5369,0.004344,0.001129,-0.00066,0.000616,-0.000596,-0.00059,0.002854,-0.509139,-0.002784,-1.350872,-262.393792,1.17272,70.221393
7.5568,0.004547,0.001222,-0.002391,0.000571,-0.000535,-0.000687,0.004007,-0.508871,-0.00066,-1.27585,-262.393792,1.097698,70.221393
7.5764,0.004572,0.001079,-0.002747,0.000456,-0.000574,-0.000954,0.003389,-0.508785,-0.002234,-1.27585,-262.393792,1.097698,70.221393
7.5965,0.004416,0.001031,-0.00189,0.000367,-0.000606,-0.001138,0.003389,-0.508785,-0.002234,-1.27585,-262.393792,1.097698,70.221393
7.6167,0.004407,0.000577,-0.004323,0.000298,-0.000631,-0.001263,0.003452,-0.508968,-0.00189,-1.200868,-262.393792,1.022716,70.221393
7.6365,0.004215,0.00107,-0.003966,0.000308,-0.000556,-0.001115,0.002945,-0.509151,-0.002878,-1.200868,-262.393792,1.022716,70.221393
7.6563,0.00468,0.000493,-0.002985,0.000317,-0.0005,-0.001011,0.002192,-0.508926,-0.003966,-1.275864,-262.393791,0.94772,70.221394
7.6767,0.004259,0.001285,-0.002535,0.000282,-0.000359,-0.000867,0.003071,-0.509452,-0.003073,-1.275864,-262.393791,0.94772,70.221394
7.6967,0.004331,0.001032,-0.002524,0.000259,-0.000252,-0.000769,0.003071,-0.509452,-0.003073,-1.275864,-262.393791,0.94772,70.221394
7.7169,0.004284,0.00093,-0.002808,0.000243,-0.000171,-0.000702,0.003044,-0.508966,-0.002525,-1.294801,-262.39379,0.872718,70.221394
7.7368,0.00422,0.00072,-0.003779,0.000282,-0.000253,-0.000811,0.002966,-0.509008,-0.00264,-1.294801,-262.39379,0.872718,70.221394
7.7565,0.004359,0.000818,-0.002321,0.00031,-0.000314,-0.000885,0.002299,-0.509281,-0.003797,-1.219768,-262.393587,0.815143,70.221505
7.7764,0.004115,0.00085,-0.003626,0.000293,-0.000298,-0.000998,0.003097,-0.50919,-0.002454,-1.219768,-262.393587,0.815143,70.221505
7.7967,0.004438,0.001199,-0.002544,0.000281,-0.000286,-0.001077,0.003097,-0.50919,-0.002454,-1.219768,-262.393587,0.815143,70.221505
7.8166,0.004271,0.001188,-6.4e-05,0.000271,-0.000277,-0.001132,0.003147,-0.508807,-0.002567,-1.223333,-262.393374,0.740163,70.221595
7.8369,0.004812,0.000715,-0.001471,0.000194,-0.000358,-0.001531,0.003596,-0.50881,-0.001542,-1.223333,-262.393374,0.740163,70.221595
7.8563,0.003921,0.000966,-0.003149,0.000132,-0.000423,-0.001808,0.004065,-0.509288,-0.001482,-1.297688,-262.393241,0.815274,70.22166
7.8768,0.004626,0.001324,-0.002576,0.0003,-0.000448,-0.001454,0.002465,-0.509054,-0.003007,-1.297688,-262.393241,0.815274,70.22166
7.8969,0.004508,0.000599,-0.002353,0.000425,-0.000468,-0.001205,0.002465,-0.509054,-0.003007,-1.297688,-262.393241,0.815274,70.22166
7.9166,0.004364,0.001166,-0.003392,0.00052,-0.000482,-0.001029,0.003308,-0.5094,-0.002353,-1.37269,-262.393239,0.890276,70.221661
7.9369,0.004531,0.000714,-0.001201,0.000459,-0.000437,-0.000979,0.00303,-0.509166,-0.002781,-1.37269,-262.393239,0.890276,70.221661
7.9568,0.004924,0.000953,-0.002639,0.000415,-0.000403,-0.000945,0.003918,-0.509286,-0.001201,-1.297648,-262.393239,0.815234,70.221661
7.9769,0.004572,0.000747,-0.001385,0.000283,-0.00039,-0.001014,0.003608,-0.509066,-0.002513,-1.297648,-262.393239,0.815234,70.221661
7.9967,0.004162,0.000704,-0.002047,0.000182,-0.000381,-0.001062,0.003608,-0.509066,-0.002513,-1.297648,-262.393239,0.815234,70.221661
8.0167,0.00418,0.000832,-0.000817,0.000104,-0.000374,-0.001097,0.003119,-0.509296,-0.002049,-1.222689,-262.393221,0.740275,70.221669
8.0366,0.004659,0.000855,-0.003227,8.1e-05,-0.000311,-0.001489,0.003375,-0.509245,-0.001559,-1.222689,-262.393221,0.740275,70.221669
8.0566,0.004794,0.000785,-0.004108,6.3e-05,-0.000265,-0.001764,0.003013,-0.509142,-0.003227,-1.297563,-262.393218,0.815149,70.22167
8.0773,0.004399,0.001135,-0.002233,0.000156,-0.000277,-0.001137,0.002727,-0.509205,-0.004029,-1.297563,-262.393218,0.815149,70.22167
8.0967,0.00425,0.000801,-0.000923,0.000229,-0.000285,-0.000688,0.002727,-0.509205,-0.004029,-1.297563,-262.393218,0.815149,70.22167
8.1168,0.004616,0.001125,-0.003389,0.000287,-0.000289,-0.000368,0.00378,-0.509199,-0.000923,-1.372568,-262.393218,0.890154,70.22167
8.1369,0.004368,0.001165,-0.001684,0.000221,-0.0003,-0.000843,0.003417,-0.509066,-0.001926,-1.372568,-262.393218,0.890154,70.22167
8.1568,0.004575,0.000741,-0.003257,0.000169,-0.00031,-0.001175,0.003509,-0.508834,-0.001684,-1.297577,-262.393218,0.815163,70.22167
8.1767,0.004283,0.000912,-0.003031,0.000201,-0.000294,-0.000982,0.002969,-0.509217,-0.003111,-1.297577,-262.393218,0.815163,70.22167
8.1971,0.004505,0.000644,-0.002716,0.000227,-0.000281,-0.000847,0.002969,-0.509217,-0.003111,-1.297577,-262.393218,0.815163,70.22167
8.2167,0.00436,0.001047,-0.001573,0.000248,-0.000271,-0.000751,0.00312,-0.509355,-0.002721,-1.372587,-262.393178,0.890173,70.221687
8.2367,0.004224,0.000993,-0.002288,0.000207,-0.000256,-0.000979,0.003297,-0.509192,-0.002257,-1.372587,-262.393178,0.890173,70.221687
8.2568,0.004561,0.001093,-0.001345,0.000175,-0.000246,-0.001138,0.003059,-0.509008,-0.002295,-1.297589,-262.393088,0.815175,70.221723
8.2764,0.004304,0.000999,-0.004301,7.9e-05,-0.000296,-0.001582,0.003802,-0.508916,-0.001431,-1.297589,-262.393088,0.815175,70.221723
8.2964,0.004546,0.000818,-0.003033,4e-06,-0.000337,-0.00189,0.003802,-0.508916,-0.001431,-1.297589,-262.393088,0.815175,70.221723
8.3168,0.00407,0.000926,-0.00215,-5.6e-05,-0.00037,-0.002103,0.003,-0.509181,-0.003037,-1.372579,-262.393058,0.890165,70.221738
8.3366,0.004703,0.000814,-0.001859,3.2e-05,-0.000365,-0.001772,0.00299,-0.509137,-0.002674,-1.372579,-262.393058,0.890165,70.221738
8.3567,0.004432,0.000944,-0.003359,9.9e-05,-0.00036,-0.001539,0.003755,-0.509185,-0.001859,-1.447583,-262.393058,0.965169,70.221738
8.3766,0.0046,0.001071,-0.002442,0.000186,-0.000388,-0.001201,0.002812,-0.509065,-0.003224,-1.447583,-262.393058,0.965169,70.221738
8.3967,0.004323,0.001119,-0.002826,0.000252,-0.000409,-0.000961,0.002812,-0.509065,-0.003224,-1.447583,-262.393058,0.965169,70.221738
8.4166,0.004631,0.0008,-0.003374,0.000303,-0.000423,-0.000792,0.002882,-0.508879,-0.002829,-1.494484,-262.393036,1.040165,70.221748
8.4364,0.004471,0.000824,-0.002304,0.000331,-0.000447,-0.000728,0.002894,-0.50901,-0.003054,-1.494484,-262.393036,1.040165,70.221748
8.4566,0.004898,0.000938,-0.001726,0.000352,-0.000464,-0.000683,0.003296,-0.509174,-0.002304,-1.419386,-262.393036,0.965068,70.221748
8.4768,0.004542,0.000534,-0.003374,0.000183,-0.000416,-0.001109,0.003953,-0.509072,-0.001778,-1.419386,-262.393036,0.965068,70.221748
8.4968,0.004509,0.000997,-0.003107,5.1e-05,-0.000382,-0.001408,0.003953,-0.509072,-0.001778,-1.419386,-262.393036,0.965068,70.221748
8.5166,0.004052,0.000974,-0.000752,-5.1e-05,-0.000358,-0.001617,0.002925,-0.509001,-0.003107,-1.344499,-262.393036,0.890181,70.221748
8.5367,0.004709,0.00076,-0.000942,0.0,-0.000383,-0.001626,0.003232,-0.509011,-0.002135,-1.344499,-262.393036,0.890181,70.221748
8.5565,0.004663,0.001081,-0.002661,3.8e-05,-0.000402,-0.001631,0.004229,-0.509239,-0.000942,-1.419617,-262.393036,0.965299,70.221748
8.5768,0.004027,0.000948,-0.002927,3.6e-05,-0.000434,-0.001499,0.003389,-0.508946,-0.002506,-1.419617,-262.393036,0.965299,70.221748
8.5965,0.004466,0.000784,-0.002871,3.4e-05,-0.000458,-0.001405,0.003389,-0.508946,-0.002506,-1.419617,-262.393036,0.965299,70.221748
8.6165,0.004577,0.000771,-0.00144,3.3e-05,-0.000476,-0.001338,0.003001,-0.509214,-0.002872,-1.494526,-262.393033,1.040207,70.22175
8.6365,0.004523,0.000833,-0.00199,2.8e-05,-0.000405,-0.001362,0.003343,-0.50922,-0.00229,-1.494526,-262.393033,1.040207,70.22175
8.6563,0.004528,0.000517,-0.001823,2.6e-05,-0.000351,-0.001381,0.003508,-0.509167,-0.001992,-1.5454,-262.393011,1.11519,70.221755
8.6766,0.004501,0.000819,-0.002376,-2.9e-05,-0.000231,-0.001563,0.003591,-0.509455,-0.001838,-1.5454,-262.393011,1.11519,70.221755
8.6966,0.004515,0.0007,-0.003334,-7e-05,-0.00014,-0.001692,0.003591,-0.509455,-0.001838,-1.5454,-262.393011,1.11519,70.221755
8.7171,0.004446,0.000915,-0.002344,-0.000101,-7.3e-05,-0.001783,0.002815,-0.509298,-0.003338,-1.54924,-262.392978,1.190254,70.221769
8.7367,0.004831,0.000938,-0.003388,-6e-06,-0.00012,-0.001461,0.002992,-0.509211,-0.002935,-1.54924,-262.392978,1.190254,70.221769
8.7567,0.004518,0.000996,-0.002874,6.7e-05,-0.000154,-0.001235,0.003103,-0.509059,-0.003389,-1.624185,-262.392969,1.265199,70.221776
8.7769,0.004412,0.000911,-0.002796,0.000121,-0.000242,-0.001085,0.003056,-0.509007,-0.00292,-1.624185,-262.392969,1.265199,70.221776
8.7964,0.004606,0.000814,-0.00387,0.000161,-0.000307,-0.000978,0.003056,-0.509007,-0.00292,-1.624185,-262.392969,1.265199,70.221776
8.8171,0.004784,0.001086,-0.001534,0.000192,-0.000355,-0.000902,0.002634,-0.509185,-0.003891,-1.549144,-262.392816,1.34024,70.221878
8.8365,0.004811,0.000996,-0.00367,0.000183,-0.000366,-0.000846,0.003196,-0.509074,-0.002925,-1.549144,-262.392816,1.34024,70.221878
8.8563,0.004409,0.000966,-0.002782,0.000176,-0.000373,-0.000806,0.002939,-0.509001,-0.00367,-1.474133,-262.392815,1.26523,70.221878
8.8763,0.00443,0.000764,-0.000751,0.000219,-0.000399,-0.0008,0.002985,-0.509029,-0.00286,-1.474133,-262.392815,1.26523,70.221878
8.8964,0.004211,0.000805,-0.002125,0.000251,-0.000418,-0.000796,0.002985,-0.509029,-0.00286,-1.474133,-262.392815,1.26523,70.221878
8.9166,0.00433,0.00071,-0.001324,0.000276,-0.000432,-0.000793,0.003127,-0.509193,-0.002125,-1.399151,-262.392815,1.190247,70.221878
8.9366,0.00417,0.000801,-0.001868,0.000216,-0.00036,-0.00118,0.003343,-0.509233,-0.001798,-1.399151,-262.392815,1.190247,70.221878
8.9566,0.004107,0.001209,-0.003121,0.000171,-0.000307,-0.001451,0.003218,-0.509198,-0.001868,-1.324189,-262.392815,1.115285,70.221878
8.9766,0.004631,0.000687,-0.002702,0.000318,-0.000433,-0.001209,0.002578,-0.508825,-0.003009,-1.324189,-262.392815,1.115285,70.221878
8.9966,0.004439,0.001066,-0.002594,0.000427,-0.000526,-0.001037,0.002578,-0.508825,-0.003009,-1.324189,-262.392815,1.115285,70.221878
9.0163,0.004236,0.000708,0.000145,0.000508,-0.000596,-0.000915,0.003121,-0.50894,-0.002626,-1.39918,-262.392558,1.190277,70.222007
9.0367,0.004326,0.000906,-0.001931,0.000353,-0.00052,-0.001387,0.003608,-0.509085,-0.001497,-1.39918,-262.392558,1.190277,70.222007
9.0567,0.004499,0.00084,-0.003446,0.000234,-0.000465,-0.001718,0.003342,-0.509093,-0.001931,-1.324174,-262.392558,1.11527,70.222007
9.0764,0.004934,0.000654,-0.003303,0.000282,-0.00044,-0.0013,0.002797,-0.509152,-0.003307,-1.324174,-262.392558,1.11527,70.222007
9.0968,0.004422,0.000603,-0.003936,0.000321,-0.000421,-0.001004,0.002797,-0.509152,-0.003307,-1.324174,-262.392558,1.11527,70.222007
9.1166,0.004479,0.000154,-0.002233,0.000352,-0.000405,-0.000796,0.002423,-0.509408,-0.003994,-1.399179,-262.39207,1.18963,70.222207
9.1374,0.004701,0.000762,-0.00173,0.00036,-0.000246,-0.000644,0.002795,-0.509586,-0.003288,-1.399179,-262.39207,1.18963,70.222207
9.1567,0.00472,0.000854,-0.003583,0.000369,-0.000126,-0.000541,0.003819,-0.509237,-0.00173,-1.324187,-262.39207,1.114638,70.222207
9.177,0.004312,0.000632,-0.002095,0.000357,-0.000178,-0.00044,0.002972,-0.509151,-0.003424,-1.324187,-262.39207,1.114638,70.222207
9.1966,0.004572,0.001102,-0.002735,0.000349,-0.000216,-0.00037,0.002972,-0.509151,-0.003424,-1.324187,-262.39207,1.114638,70.222207
9.2169,0.004212,0.000952,-0.001234,0.000343,-0.000244,-0.000321,0.003177,-0.508896,-0.002735,-1.249042,-262.39207,1.039494,70.222208
9.2365,0.004805,0.000831,-0.003372,0.000287,-0.000302,-0.000734,0.00334,-0.508957,-0.002132,-1.249042,-262.39207,1.039494,70.222208
9.2562,0.004572,0.000914,-0.002201,0.000242,-0.000348,-0.001022,0.003085,-0.509166,-0.003372,-1.174176,-262.39207,0.964627,70.222208
9.2764,0.004672,0.000897,-0.00266,0.000185,-0.000343,-0.001153,0.003418,-0.509092,-0.002302,-1.174176,-262.39207,0.964627,70.222208
9.2965,0.004145,0.000816,-0.001429,0.000141,-0.00034,-0.001244,0.003418,-0.509092,-0.002302,-1.174176,-262.39207,0.964627,70.222208
9.317,0.004681,0.001111,-0.004134,0.000107,-0.000338,-0.001306,0.003423,-0.509191,-0.001453,-1.249313,-262.391845,0.889489,70.22229
9.3367,0.004638,0.001008,-0.003004,0.000149,-0.000357,-0.001259,0.003076,-0.509067,-0.002551,-1.249313,-262.391845,0.889489,70.22229
9.3568,0.004514,0.000708,-0.001313,0.00018,-0.000371,-0.001225,0.003106,-0.508989,-0.003004,-1.324173,-262.391839,0.964349,70.222292
9.3768,0.004598,0.000905,-0.002266,6.8e-05,-0.000294,-0.001617,0.003778,-0.509264,-0.001466,-1.324173,-262.391839,0.964349,70.222292
9.3967,0.004858,0.000865,-0.003428,-1.7e-05,-0.000238,-0.001891,0.003778,-0.509264,-0.001466,-1.324173,-262.391839,0.964349,70.222292
9.4164,0.00468,0.00087,-0.002101,-8.4e-05,-0.000197,-0.002082,0.003115,-0.509141,-0.003457,-1.399169,-262.391575,1.039345,70.22239
9.4368,0.004697,0.000955,-0.002513,-5.9e-05,-0.000228,-0.001686,0.003316,-0.509138,-0.002908,-1.399169,-262.391575,1.039345,70.22239
9.4566,0.00494,0.000901,-0.002795,-3.8e-05,-0.00025,-0.001406,0.003416,-0.509043,-0.002513,-1.474172,-262.391575,1.114348,70.22239
9.4765,0.004523,0.000923,-0.002437,-5.2e-05,-0.000274,-0.001253,0.003506,-0.509092,-0.002771,-1.474172,-262.391575,1.114348,70.22239
9.4966,0.004681,0.001175,-0.000113,-6.2e-05,-0.00029,-0.001144,0.003506,-0.509092,-0.002771,-1.474172,-262.391575,1.114348,70.22239
9.5163,0.004193,0.00077,-0.001122,-6.9e-05,-0.000302,-0.001067,0.004624,-0.508825,-0.000113,-1.549258,-262.391571,1.189434,70.222392
9.5365,0.004915,0.000897,-0.002547,-0.000178,-0.000291,-0.001951,0.004216,-0.50899,-0.000523,-1.549258,-262.391571,1.189434,70.222392
9.5566,0.004582,0.000645,-0.00277,-0.000264,-0.000289,-0.00257,0.003616,-0.509102,-0.002547,-1.624177,-262.391571,1.114515,70.222392
9.5767,0.004527,0.000857,-0.000674,-0.000185,-0.000237,-0.002081,0.003209,-0.509331,-0.00275,-1.624177,-262.391571,1.114515,70.222392
9.5967,0.004695,0.000768,-0.005916,-0.000122,-0.000197,-0.001735,0.003209,-0.509331,-0.00275,-1.624177,-262.391571,1.114515,70.222392
9.6164,0.004693,0.001094,-0.003779,-7.2e-05,-0.000166,-0.001491,0.001677,-0.509223,-0.005916,-1.699177,-262.391571,1.039516,70.222392
9.6365,0.004951,0.000494,-0.003015,0.000208,-0.000258,-0.000705,0.002119,-0.509093,-0.005048,-1.699177,-262.391571,1.039516,70.222392
9.6563,0.004168,0.000965,-0.001789,0.000417,-0.000326,-0.000133,0.003414,-0.509503,-0.003015,-1.637923,-262.39157,1.114501,70.222392
9.6764,0.004396,0.00074,-0.00322,0.000345,-0.000325,-0.000693,0.00327,-0.509077,-0.001899,-1.637923,-262.39157,1.114501,70.222392
9.6963,0.004494,0.000733,-0.003697,0.000289,-0.000327,-0.001083,0.00327,-0.509077,-0.001899,-1.637923,-262.39157,1.114501,70.222392
9.7168,0.00462,0.000585,-0.003393,0.000247,-0.000332,-0.001353,0.002608,-0.509263,-0.003697,-1.562917,-262.39157,1.039494,70.222392
9.7364,0.004493,0.000396,-0.003318,0.000297,-0.000281,-0.000967,0.002727,-0.509326,-0.003569,-1.562917,-262.39157,1.039494,70.222392
9.7564,0.004636,0.00084,-0.002719,0.000339,-0.000243,-0.000694,0.002803,-0.509606,-0.003339,-1.487562,-262.391344,1.108193,70.222498
9.7763,0.004344,0.000658,-0.002776,0.000289,-0.000239,-0.000756,0.003209,-0.509199,-0.002776,-1.487562,-262.391344,1.108193,70.222498
9.7966,0.004562,0.000872,-0.004186,0.000252,-0.000236,-0.000799,0.003209,-0.509199,-0.002776,-1.487562,-262.391344,1.108193,70.222498
9.8165,0.004784,0.000567,-0.002786,0.000224,-0.000234,-0.000828,0.002427,-0.509123,-0.004186,-1.41291,-262.391344,1.033541,70.222498
9.8364,0.004594,0.000879,-0.003087,0.000271,-0.000231,-0.000585,0.002813,-0.50925,-0.003608,-1.41291,-262.391344,1.033541,70.222498
9.8564,0.004595,0.000936,-0.002955,0.000308,-0.000228,-0.000414,0.003022,-0.509123,-0.003101,-1.337818,-262.391185,0.958448,70.22257
9.8768,0.004702,0.000635,-0.002598,0.0003,-0.000272,-0.000498,0.003082,-0.509067,-0.002969,-1.337818,-262.391185,0.958448,70.22257
9.8968,0.004417,0.000837,-0.002281,0.000293,-0.000306,-0.000556,0.003082,-0.509067,-0.002969,-1.337818,-262.391185,0.958448,70.22257
9.9162,0.004548,0.001229,-0.002163,0.000288,-0.000331,-0.000596,0.003253,-0.509162,-0.002281,-1.262921,-262.391185,0.883552,70.22257
9.9365,0.004337,0.001042,-0.003179,0.000242,-0.000357,-0.000885,0.003331,-0.509002,-0.002233,-1.262921,-262.391185,0.883552,70.22257
9.9566,0.004469,0.000653,-0.001594,0.000206,-0.000378,-0.001085,0.002716,-0.508956,-0.003179,-1.187924,-262.391185,0.808554,70.22257
9.9764,0.004405,0.000764,-0.001578,0.00012,-0.00029,-0.001414,0.003576,-0.509313,-0.00173,-1.187924,-262.391185,0.808554,70.22257
9.9965,0.004174,0.00111,-0.002903,5.5e-05,-0.000225,-0.001643,0.003576,-0.509313,-0.00173,-1.187924,-262.391185,0.808554,70.22257
10.0164,0.004745,0.000988,-0.002976,4e-06,-0.000178,-0.001803,0.002698,-0.508894,-0.002921,-1.263041,-262.391006,0.883671,70.22263
10.0366,0.004807,0.000423,-0.002284,0.000107,-0.000287,-0.001482,0.002913,-0.508942,-0.002945,-1.263041,-262.391006,0.883671,70.22263
10.0562,0.004675,0.000649,-0.001859,0.000184,-0.000367,-0.001254,0.003642,-0.509576,-0.002284,-1.337943,-262.391006,0.958574,70.22263
10.0766,0.004595,0.001009,-0.003238,7.5e-05,-0.000267,-0.001458,0.003719,-0.509369,-0.001896,-1.337943,-262.391006,0.958574,70.22263
10.0966,0.004803,0.00067,-0.001826,-8e-06,-0.000191,-0.001602,0.003719,-0.509369,-0.001896,-1.337943,-262.391006,0.958574,70.22263
10.1165,0.004764,0.000961,-0.002054,-7.2e-05,-0.000135,-0.001702,0.003876,-0.509338,-0.001855,-1.409651,-262.390755,1.033699,70.222726
10.1368,0.00428,0.000614,-0.00144,-0.000129,-0.000136,-0.001757,0.003812,-0.509217,-0.001939,-1.409651,-262.390755,1.033699,70.222726
10.1564,0.004796,0.000644,-0.002957,-0.000173,-0.000138,-0.001795,0.003546,-0.509385,-0.00144,-1.484564,-262.390754,1.108613,70.222726
10.1769,0.004476,0.000629,-0.002732,-0.000132,-0.000113,-0.001502,0.00331,-0.509357,-0.002827,-1.484564,-262.390754,1.108613,70.222726
10.1968,0.004251,0.000614,-0.001732,-9.8e-05,-9.4e-05,-0.001297,0.00331,-0.509357,-0.002827,-1.484564,-262.390754,1.108613,70.222726
10.2164,0.004477,0.000847,-0.001607,-7.1e-05,-7.9e-05,-0.001153,0.003368,-0.509385,-0.001732,-1.559606,-262.390754,1.033571,70.222726
10.2365,0.00461,0.000729,-0.001789,-7.4e-05,-7.4e-05,-0.00148,0.003487,-0.509289,-0.00168,-1.559606,-262.390754,1.033571,70.222726
10.2567,0.004394,0.000603,-0.002802,-7.7e-05,-7.2e-05,-0.001709,0.003698,-0.509271,-0.001789,-1.63463,-262.390754,1.108596,70.222726
10.2767,0.004732,0.000624,-0.003072,0.0,-5.9e-05,-0.00148,0.003028,-0.509384,-0.002715,-1.63463,-262.390754,1.108596,70.222726
10.2968,0.004619,0.000658,-0.003572,6e-05,-4.9e-05,-0.001319,0.003028,-0.509384,-0.002715,-1.63463,-262.390754,1.108596,70.222726
10.3172,0.004787,0.000937,-0.001841,0.0,0.0,0.0,0.002798,-0.509338,-0.003572,-1.640108,-262.390751,1.183611,70.222729
10.3366,0.004949,0.000879,-0.003738,0.0,0.0,0.0,0.003234,-0.509224,-0.002854,-1.640108,-262.390751,1.183611,70.222729
10.3565,0.004749,0.000545,-0.003468,0.0,0.0,0.0,0.003042,-0.509117,-0.003738,-1.640108,-262.390751,1.183611,70.222729
10.3766,0.004561,0.000902,-0.002807,0.0,0.0,0.0,0.002986,-0.509422,-0.003492,-1.640108,-262.390751,1.183611,70.222729
10.3966,0.004382,0.000916,-0.003484,0.0,0.0,0.0,0.002986,-0.509422,-0.003492,-1.640108,-262.390751,1.183611,70.222729
10.4165,0.0049,0.000944,-0.003023,0.0,0.0,0.0,0.002605,-0.509081,-0.003484,-1.640108,-262.390751,1.183611,70.222729
10.4367,0.004805,0.001069,-0.003728,0.0,0.0,0.0,0.002914,-0.50907,-0.003295,-1.640108,-262.390751,1.183611,70.222729
10.4568,0.004629,0.000722,-0.00356,0.0,0.0,0.0,0.002904,-0.508928,-0.003728,-1.640108,-262.390751,1.183611,70.222729
10.4767,0.004545,0.000886,-0.002522,0.0,0.0,0.0,0.002821,-0.509245,-0.003575,-1.640108,-262.390751,1.183611,70.222729
10.4966,0.00468,0.000672,-0.001892,0.0,0.0,0.0,0.002821,-0.509245,-0.003575,-1.640108,-262.390751,1.183611,70.222729
10.5166,0.004498,0.000328,-0.002942,0.0,0.0,0.0,0.003715,-0.509327,-0.001892,-1.640108,-262.390751,1.183611,70.222729
10.5367,0.004752,0.000826,-0.002448,0.0,0.0,0.0,0.003424,-0.509466,-0.002318,-1.640108,-262.390751,1.183611,70.222729
10.5564,0.00454,0.000749,-0.003393,0.0,0.0,0.0,0.003504,-0.509173,-0.002448,-1.640108,-262.390751,1.183611,70.222729
10.5765,0.004827,0.000818,-0.002916,0.0,0.0,0.0,0.00287,-0.509242,-0.003311,-1.640108,-262.390751,1.183611,70.222729
10.5963,0.004947,0.0008,-0.001626,0.0,0.0,0.0,0.00287,-0.509242,-0.003311,-1.640108,-262.390751,1.183611,70.222729
10.6167,0.004678,0.000385,-0.0009,0.0,0.0,0.0,0.004118,-0.509199,-0.001626,-1.640108,-262.390751,1.183611,70.222729
10.6365,0.004531,0.000898,-0.004083,0.0,0.0,0.0,0.004159,-0.509369,-0.001329,-1.640108,-262.390751,1.183611,70.222729
10.6567,0.004994,0.000562,-0.003122,0.0,0.0,0.0,0.002449,-0.509097,-0.004083,-1.640108,-262.390751,1.183611,70.222729
10.6764,0.004843,0.000935,-0.002245,0.0,0.0,0.0,0.003321,-0.509407,-0.003203,-1.640108,-262.390751,1.183611,70.222729
10.6971,0.004502,0.000666,-0.003065,0.0,0.0,0.0,0.003321,-0.509407,-0.003203,-1.640108,-262.390751,1.183611,70.222729
10.7164,0.00454,0.000873,-0.004024,0.0,0.0,0.0,0.002939,-0.509332,-0.003065,-1.640108,-262.390751,1.183611,70.222729
10.7366,0.004868,0.000694,-0.002561,0.0,0.0,0.0,0.002752,-0.509245,-0.003463,-1.640108,-262.390751,1.183611,70.222729
10.7567,0.00428,0.000341,-0.002399,0.0,0.0,0.0,0.003562,-0.509304,-0.002561,-1.640108,-262.390751,1.183611,70.222729
10.7767,0.004622,0.000556,-0.003495,0.0,0.0,0.0,0.0031,-0.509628,-0.002412,-1.640108,-262.390751,1.183611,70.222729
10.7968,0.004851,0.000972,-0.001858,0.0,0.0,0.0,0.0031,-0.509628,-0.002412,-1.640108,-262.390751,1.183611,70.222729
10.8167,0.004576,0.000194,-0.003472,0.0,0.0,0.0,0.003903,-0.509027,-0.001858,-1.640108,-262.390751,1.183611,70.222729
10.8366,0.004616,0.000966,-0.006083,0.0,0.0,0.0,0.003447,-0.50935,-0.002528,-1.640108,-262.390751,1.183611,70.222729
10.8567,0.004547,0.00067,-0.003235,0.0,0.0,0.0,0.001513,-0.509025,-0.006083,-1.640108,-262.390751,1.183611,70.222729
10.8764,0.004349,0.000887,-0.002519,0.0,0.0,0.0,0.002778,-0.509301,-0.003481,-1.640108,-262.390751,1.183611,70.222729
10.8967,0.004308,0.000972,-0.001608,0.0,0.0,0.0,0.002778,-0.509301,-0.003481,-1.640108,-262.390751,1.183611,70.222729
10.9165,0.004434,0.000436,-0.003278,0.0,0.0,0.0,0.003488,-0.509027,-0.001608,-1.640108,-262.390751,1.183611,70.222729
10.9368,0.00481,0.001097,-0.003489,0.0,0.0,0.0,0.003188,-0.509247,-0.002297,-1.640108,-262.390751,1.183611,70.222729
10.9566,0.004696,0.000758,-0.002614,0.0,0.0,0.0,0.003031,-0.5089,-0.003489,-1.640108,-262.390751,1.183611,70.222729
10.9765,0.004311,0.001167,-0.003961,0.0,0.0,0.0,0.003335,-0.509211,-0.002689,-1.640108,-262.390751,1.183611,70.222729
10.9967,0.004821,0.0008,-0.003628,0.0,0.0,0.0,0.003335,-0.509211,-0.002689,-1.640108,-262.390751,1.183611,70.222729
11.0164,0.004438,0.000961,-0.003471,0.0,0.0,0.0,0.002971,-0.509197,-0.003628,-1.640108,-262.390751,1.183611,70.222729
11.0367,0.004832,0.000849,-0.003569,0.0,0.0,0.0,0.002846,-0.50913,-0.003563,-1.640108,-262.390751,1.183611,70.222729
11.0567,0.004367,0.000868,-0.003234,0.0,0.0,0.0,0.003012,-0.509147,-0.003569,-1.640108,-262.390751,1.183611,70.222729
11.0768,0.004527,0.001124,-0.003469,0.0,0.0,0.0,0.002743,-0.509131,-0.003262,-1.640108,-262.390751,1.183611,70.222729
11.097,0.004514,0.00084,-0.002268,0.0,0.0,0.0,0.002743,-0.509131,-0.003262,-1.640108,-262.390751,1.183611,70.222729
11.1169,0.004418,0.000334,-0.003172,0.0,0.0,0.0,0.003358,-0.509159,-0.002268,-1.640108,-262.390751,1.183611,70.222729
11.1365,0.004613,0.000559,-0.002404,0.0,0.0,0.0,0.003131,-0.509363,-0.002635,-1.640108,-262.390751,1.183611,70.222729
11.1562,0.004815,0.000626,-0.003137,0.0,0.0,0.0,0.003387,-0.509439,-0.002404,-1.640108,-262.390751,1.183611,70.222729
11.1768,0.004753,0.000958,-0.003008,0.0,0.0,0.0,0.00323,-0.509377,-0.00307,-1.640108,-262.390751,1.183611,70.222729
11.1971,0.004804,0.000894,-0.003677,0.0,0.0,0.0,0.00323,-0.509377,-0.00307,-1.640108,-262.390751,1.183611,70.222729
11.2167,0.004825,0.000711,-0.002704,0.0,0.0,0.0,0.002928,-0.509103,-0.003677,-1.640108,-262.390751,1.183611,70.222729
11.2367,0.004562,0.001042,-0.002891,0.0,0.0,0.0,0.003139,-0.509178,-0.003282,-1.640108,-262.390751,1.183611,70.222729
11.2565,0.004647,0.000636,-0.002738,0.0,0.0,0.0,0.003087,-0.508956,-0.002891,-1.640108,-262.390751,1.183611,70.222729
11.2768,0.004474,0.000733,-0.003548,0.0,0.0,0.0,0.003236,-0.509326,-0.002752,-1.640108,-262.390751,1.183611,70.222729
11.2967,0.004853,0.000712,-0.001378,0.0,0.0,0.0,0.003236,-0.509326,-0.002752,-1.640108,-262.390751,1.183611,70.222729
11.3167,0.004673,0.000751,-0.002512,0.0,0.0,0.0,0.00415,-0.509287,-0.001378,-1.640108,-262.390751,1.183611,70.222729
11.3367,0.005017,0.000556,-0.003076,0.0,0.0,0.0,0.00384,-0.509271,-0.001843,-1.640108,-262.390751,1.183611,70.222729
11.3565,0.004601,0.000766,-0.003537,0.0,0.0,0.0,0.003448,-0.509442,-0.003076,-1.640108,-262.390751,1.183611,70.222729
11.3767,0.004842,0.000788,-0.002937,0.0,0.0,0.0,0.002851,-0.509248,-0.003499,-1.640108,-262.390751,1.183611,70.222729
11.3969,0.004506,0.000666,-0.002568,0.0,0.0,0.0,0.002851,-0.509248,-0.003499,-1.640108,-262.390751,1.183611,70.222729
11.4166,0.004714,0.000892,-0.001709,0.0,0.0,0.0,0.003196,-0.509333,-0.002568,-1.640108,-262.390751,1.183611,70.222729
11.4374,0.004672,0.000828,-0.003553,0.0,0.0,0.0,0.003458,-0.509241,-0.00222,-1.640108,-262.390751,1.183611,70.222729
11.4576,0.004731,0.000695,-0.00237,0.0,0.0,0.0,0.002859,-0.509169,-0.003553,-1.640108,-262.390751,1.183611,70.222729
11.4771,0.004702,0.000909,-0.002019,0.0,0.0,0.0,0.00346,-0.509291,-0.002482,-1.640108,-262.390751,1.183611,70.222729
11.4964,0.004948,0.000689,-0.00316,0.0,0.0,0.0,0.00346,-0.509291,-0.002482,-1.640108,-262.390751,1.183611,70.222729
11.5164,0.004984,0.000705,-0.002623,0.0,0.0,0.0,0.003336,-0.509308,-0.00316,-1.640108,-262.390751,1.183611,70.222729
11.5368,0.005013,0.00069,-0.003636,0.0,0.0,0.0,0.003463,-0.509302,-0.00294,-1.640108,-262.390751,1.183611,70.222729
11.5564,0.004751,0.000481,-0.003672,0.0,0.0,0.0,0.003158,-0.509307,-0.003636,-1.640108,-262.390751,1.183611,70.222729
11.5771,0.004816,0.000884,-0.003502,0.0,0.0,0.0,0.002903,-0.509497,-0.003669,-1.640108,-262.390751,1.183611,70.222729
11.5964,0.004842,0.00064,-0.002252,0.0,0.0,0.0,0.002903,-0.509497,-0.003669,-1.640108,-262.390751,1.183611,70.222729
11.6172,0.00449,0.000864,-0.002515,0.0,0.0,0.0,0.003694,-0.509358,-0.002252,-1.640108,-262.390751,1.183611,70.222729
11.6368,0.004749,0.000584,-0.003818,0.0,0.0,0.0,0.003499,-0.509269,-0.002357,-1.640108,-262.390751,1.183611,70.222729
11.6566,0.004535,0.000354,-0.003008,0.0,0.0,0.0,0.002802,-0.509413,-0.003818,-1.640108,-262.390751,1.183611,70.222729
11.6769,0.004587,0.001199,-0.003334,0.0,0.0,0.0,0.002983,-0.509623,-0.003081,-1.640108,-262.390751,1.183611,70.222729
11.6967,0.004671,0.000877,-0.002934,0.0,0.0,0.0,0.002983,-0.509623,-0.003081,-1.640108,-262.390751,1.183611,70.222729
11.7167,0.004197,0.000538,-0.001883,0.0,0.0,0.0,0.003174,-0.509121,-0.002934,-1.640108,-262.390751,1.183611,70.222729
11.7364,0.004504,0.000598,-0.002253,0.0,0.0,0.0,0.003199,-0.509259,-0.002509,-1.640108,-262.390751,1.183611,70.222729
11.7563,0.004545,0.000588,-0.003616,0.0,0.0,0.0,0.003355,-0.5094,-0.002253,-1.640108,-262.390751,1.183611,70.222729
11.7764,0.004585,0.000405,-0.00308,0.0,0.0,0.0,0.002759,-0.509408,-0.003494,-1.640108,-262.390751,1.183611,70.222729
11.7973,0.004777,0.000715,-0.003396,0.0,0.0,0.0,0.002759,-0.509408,-0.003494,-1.640108,-262.390751,1.183611,70.222729
11.8167,0.004718,0.000829,-0.00297,0.0,0.0,0.0,0.003045,-0.509282,-0.003396,-1.640108,-262.390751,1.183611,70.222729
11.8365,0.004496,0.001036,-0.002565,0.0,0.0,0.0,0.003107,-0.509238,-0.003229,-1.640108,-262.390751,1.183611,70.222729
11.8566,0.004586,0.000208,-0.002565,0.0,0.0,0.0,0.003188,-0.508962,-0.002565,-1.640108,-262.390751,1.183611,70.222729
11.8768,0.004708,0.001092,-0.001422,0.0,0.0,0.0,0.00327,-0.509719,-0.002565,-1.640108,-262.390751,1.183611,70.222729
11.8967,0.004666,0.00072,-0.003106,0.0,0.0,0.0,0.00327,-0.509719,-0.002565,-1.640108,-262.390751,1.183611,70.222729
11.9165,0.004854,0.000473,-0.003377,0.0,0.0,0.0,0.003083,-0.509278,-0.003106,-1.640108,-262.390751,1.183611,70.222729
11.9364,0.004822,0.000594,-0.00286,0.0,0.0,0.0,0.003103,-0.509378,-0.003216,-1.640108,-262.390751,1.183611,70.222729
11.9563,0.004669,0.000861,-0.003422,0.0,0.0,0.0,0.003363,-0.509404,-0.00286,-1.640108,-262.390751,1.183611,70.222729
11.9767,0.004441,0.000624,-0.00247,0.0,0.0,0.0,0.002963,-0.50916,-0.003372,-1.640108,-262.390751,1.183611,70.222729
11.9972,0.004554,0.000795,-0.001474,0.0,0.0,0.0,0.002963,-0.50916,-0.003372,-1.640108,-262.390751,1.183611,70.222729
12.0165,0.004635,0.000753,-0.003371,0.0,0.0,0.0,0.003803,-0.509204,-0.001474,-1.640108,-262.390751,1.183611,70.222729
12.0369,0.004648,0.000664,-0.002633,0.0,0.0,0.0,0.003436,-0.509221,-0.002258,-1.640108,-262.390751,1.183611,70.222729
12.0563,0.004775,0.001191,-0.003004,0.0,0.0,0.0,0.003305,-0.509335,-0.002633,-1.640108,-262.390751,1.183611,70.222729
12.0765,0.004627,0.000842,-0.002892,0.0,0.0,0.0,0.003249,-0.508855,-0.00297,-1.640108,-262.390751,1.183611,70.222729
12.097,0.004831,0.000535,-0.001927,0.0,0.0,0.0,0.003249,-0.508855,-0.00297,-1.640108,-262.390751,1.183611,70.222729
12.1164,0.004775,0.000739,-0.003467,0.0,0.0,0.0,0.003848,-0.509464,-0.001927,-1.640108,-262.390751,1.183611,70.222729
12.1366,0.005112,0.000794,-0.002218,0.0,0.0,0.0,0.00351,-0.509381,-0.002546,-1.640108,-262.390751,1.183611,70.222729
12.1565,0.004967,0.00117,-0.00303,0.0,0.0,0.0,0.003981,-0.509205,-0.002218,-1.640108,-262.390751,1.183611,70.222729
12.1768,0.004914,0.000587,-0.002548,0.0,0.0,0.0,0.003469,-0.508859,-0.002961,-1.640108,-262.390751,1.183611,70.222729
12.1968,0.004546,0.000757,-0.002927,0.0,0.0,0.0,0.003469,-0.508859,-0.002961,-1.640108,-262.390751,1.183611,70.222729
12.2165,0.004702,0.00083,-0.004359,0.0,0.0,0.0,0.003054,-0.509241,-0.002927,-1.640108,-262.390751,1.183611,70.222729
12.2365,0.004782,0.000773,-0.002851,0.0,0.0,0.0,0.002818,-0.50921,-0.003515,-1.640108,-262.390751,1.183611,70.222729
12.2564,0.004559,0.000584,-0.003977,0.0,0.0,0.0,0.003328,-0.509225,-0.002851,-1.640108,-262.390751,1.183611,70.222729
12.2768,0.00471,0.000678,-0.002438,0.0,0.0,0.0,0.002598,-0.509396,-0.003881,-1.640108,-262.390751,1.183611,70.222729
12.2968,0.004596,0.001028,-0.002782,0.0,0.0,0.0,0.002598,-0.509396,-0.003881,-1.640108,-262.390751,1.183611,70.222729
12.3167,0.00474,0.001068,-0.002519,0.0,0.0,0.0,0.003177,-0.50897,-0.002782,-1.640108,-262.390751,1.183611,70.222729
12.3368,0.004823,0.000909,-0.003113,0.0,0.0,0.0,0.003291,-0.508954,-0.002674,-1.640108,-262.390751,1.183611,70.222729
12.3567,0.004858,0.000871,-0.002075,0.0,0.0,0.0,0.003235,-0.509089,-0.003113,-1.640108,-262.390751,1.183611,70.222729
12.3764,0.004713,0.000201,-0.002541,0.0,0.0,0.0,0.003749,-0.509124,-0.002168,-1.640108,-262.390751,1.183611,70.222729
12.3968,0.004763,0.000455,-0.002994,0.0,0.0,0.0,0.003749,-0.509124,-0.002168,-1.640108,-262.390751,1.183611,70.222729
12.4167,0.004687,0.000922,-0.003419,0.0,0.0,0.0,0.003236,-0.509543,-0.002994,-1.640108,-262.390751,1.183611,70.222729
12.4368,0.004531,0.000951,-0.00367,0.0,0.0,0.0,0.003115,-0.50935,-0.00317,-1.640108,-262.390751,1.183611,70.222729
12.4563,0.004782,0.00103,-0.002836,0.0,0.0,0.0,0.002659,-0.509046,-0.00367,-1.640108,-262.390751,1.183611,70.222729
12.4767,0.004603,0.000781,-0.003496,0.0,0.0,0.0,0.003274,-0.508975,-0.002911,-1.640108,-262.390751,1.183611,70.222729
12.4968,0.004428,0.000795,-0.003577,0.0,0.0,0.0,0.003274,-0.508975,-0.002911,-1.640108,-262.390751,1.183611,70.222729
12.5164,0.004434,0.000833,-0.002761,0.0,0.0,0.0,0.002604,-0.509202,-0.003577,-1.640108,-262.390751,1.183611,70.222729
12.5367,0.004623,0.000799,-0.002444,0.0,0.0,0.0,0.002779,-0.509187,-0.003239,-1.640108,-262.390751,1.183611,70.222729
12.5563,0.004419,0.000806,-0.00476,0.0,0.0,0.0,0.003376,-0.509199,-0.002444,-1.640108,-262.390751,1.183611,70.222729
12.5768,0.004533,0.000803,-0.001898,0.0,0.0,0.0,0.002112,-0.509189,-0.004559,-1.640108,-262.390751,1.183611,70.222729
12.5971,0.004651,0.0005,-0.003827,0.0,0.0,0.0,0.002112,-0.509189,-0.004559,-1.640108,-262.390751,1.183611,70.222729
12.6168,0.004324,0.00059,-0.004517,0.0,0.0,0.0,0.0027,-0.509497,-0.003827,-1.640108,-262.390751,1.183611,70.222729
12.637,0.004562,0.001156,-0.003456,0.0,0.0,0.0,0.002416,-0.509458,-0.004115,-1.640108,-262.390751,1.183611,70.222729
12.6564,0.004836,0.000812,-0.002184,0.0,0.0,0.0,0.0028,-0.508841,-0.003456,-1.640108,-262.390751,1.183611,70.222729
12.6766,0.004352,0.000911,-0.002131,0.0,0.0,0.0,0.003642,-0.509157,-0.002294,-1.640108,-262.390751,1.183611,70.222729
12.6968,0.00447,0.000651,-0.004221,0.0,0.0,0.0,0.003642,-0.509157,-0.002294,-1.640108,-262.390751,1.183611,70.222729
12.7164,0.004573,0.00054,-0.003223,0.0,0.0,0.0,0.002317,-0.509345,-0.004221,-1.640108,-262.390751,1.183611,70.222729
12.737,0.004659,0.001061,-0.002596,0.0,0.0,0.0,0.002567,-0.509391,-0.003813,-1.640108,-262.390751,1.183611,70.222729
12.7567,0.004558,0.000794,-0.001684,0.0,0.0,0.0,0.003335,-0.508937,-0.002596,-1.640108,-262.390751,1.183611,70.222729
12.7768,0.00427,0.000908,-0.003451,0.0,0.0,0.0,0.003665,-0.509181,-0.001768,-1.640108,-262.390751,1.183611,70.222729
12.7968,0.004702,0.00063,-0.003221,0.0,0.0,0.0,0.003665,-0.509181,-0.001768,-1.640108,-262.390751,1.183611,70.222729
12.8169,0.004582,0.000389,-0.000448,0.0,0.0,0.0,0.00306,-0.509367,-0.003221,-1.640108,-262.390751,1.183611,70.222729
12.8369,0.004902,0.000745,-0.001957,0.0,0.0,0.0,0.003586,-0.509466,-0.002094,-1.640108,-262.390751,1.183611,70.222729
12.8564,0.005069,0.000886,-0.002761,0.0,0.0,0.0,0.003903,-0.509254,-0.001957,-1.640108,-262.390751,1.183611,70.222729
12.8763,0.004776,0.000418,-0.003848,0.0,0.0,0.0,0.003682,-0.509125,-0.002689,-1.640108,-262.390751,1.183611,70.222729
12.8964,0.004297,0.001293,-0.003275,0.0,0.0,0.0,0.003682,-0.509125,-0.002689,-1.640108,-262.390751,1.183611,70.222729
12.9169,0.004789,0.000874,-0.002619,0.0,0.0,0.0,0.002626,-0.508704,-0.003275,-1.640108,-262.390751,1.183611,70.222729
12.9368,0.004467,0.000881,-0.003276,0.0,0.0,0.0,0.002965,-0.508876,-0.003007,-1.640108,-262.390751,1.183611,70.222729
12.9568,0.004377,0.000925,-0.003221,0.0,0.0,0.0,0.002797,-0.509116,-0.003276,-1.640108,-262.390751,1.183611,70.222729
12.9769,0.004615,0.000859,-0.00255,0.0,0.0,0.0,0.002739,-0.509077,-0.003226,-1.640108,-262.390751,1.183611,70.222729
12.997,0.004518,0.000763,-0.00314,0.0,0.0,0.0,0.002739,-0.509077,-0.003226,-1.640108,-262.390751,1.183611,70.222729
13.0163,0.004577,0.000702,-0.002448,0.0,0.0,0.0,0.002917,-0.509234,-0.00314,-1.640108,-262.390751,1.183611,70.222729
13.0363,0.004858,0.000512,-0.002713,0.0,0.0,0.0,0.003079,-0.509259,-0.002868,-1.640108,-262.390751,1.183611,70.222729
13.0564,0.004494,0.00059,-0.002026,0.0,0.0,0.0,0.003475,-0.509486,-0.002713,-1.640108,-262.390751,1.183611,70.222729
13.0766,0.004793,0.000744,-0.002204,0.0,0.0,0.0,0.003462,-0.509415,-0.002084,-1.640108,-262.390751,1.183611,70.222729
13.0966,0.004876,0.000733,-0.004068,0.0,0.0,0.0,0.003462,-0.509415,-0.002084,-1.640108,-262.390751,1.183611,70.222729
13.1165,0.004586,0.001022,-0.002358,0.0,0.0,0.0,0.002802,-0.509263,-0.004068,-1.640108,-262.390751,1.183611,70.222729
13.1365,0.004823,0.000842,-0.003464,0.0,0.0,0.0,0.003039,-0.509146,-0.00337,-1.640108,-262.390751,1.183611,70.222729
13.1564,0.00481,0.000732,-0.003032,0.0,0.0,0.0,0.003057,-0.509155,-0.003464,-1.640108,-262.390751,1.183611,70.222729
13.1768,0.004681,0.000814,-0.002576,0.0,0.0,0.0,0.003246,-0.509256,-0.003069,-1.640108,-262.390751,1.183611,70.222729
13.1972,0.0048,0.000735,-0.003597,0.0,0.0,0.0,0.003246,-0.509256,-0.003069,-1.640108,-262.390751,1.183611,70.222729
13.2169,0.004549,0.001034,-0.001094,0.0,0.0,0.0,0.002966,-0.509261,-0.003597,-1.640108,-262.390751,1.183611,70.222729
13.2366,0.004599,0.001044,-0.004177,0.0,0.0,0.0,0.003373,-0.509144,-0.002604,-1.640108,-262.390751,1.183611,70.222729
13.2566,0.004436,0.000917,-0.002875,0.0,0.0,0.0,0.002468,-0.508952,-0.004177,-1.640108,-262.390751,1.183611,70.222729
13.2767,0.004976,0.00093,-0.002344,0.0,0.0,0.0,0.002921,-0.509069,-0.002999,-1.640108,-262.390751,1.183611,70.222729
13.297,0.004247,0.001026,-0.002916,0.0,0.0,0.0,0.002921,-0.509069,-0.002999,-1.640108,-262.390751,1.183611,70.222729
13.3165,0.004596,0.000837,-0.002237,0.0,0.0,0.0,0.00276,-0.508972,-0.002916,-1.640108,-262.390751,1.183611,70.222729
13.3367,0.005192,0.000559,-0.002229,0.0,0.0,0.0,0.003037,-0.509048,-0.002645,-1.640108,-262.390751,1.183611,70.222729
13.3567,0.004834,0.001136,-0.003749,0.0,0.0,0.0,0.004055,-0.509439,-0.002229,-1.640108,-262.390751,1.183611,70.222729
13.3768,0.004659,0.000944,-0.003914,0.0,0.0,0.0,0.003024,-0.508913,-0.003613,-1.640108,-262.390751,1.183611,70.222729
13.3972,0.005029,0.000577,-0.001738,0.0,0.0,0.0,0.003024,-0.508913,-0.003613,-1.640108,-262.390751,1.183611,70.222729
13.417,0.0046,0.000662,-0.002033,0.0,0.0,0.0,0.004143,-0.509422,-0.001738,-1.640108,-262.390751,1.183611,70.222729
13.437,0.004785,0.00081,-0.002233,0.0,0.0,0.0,0.003906,-0.509388,-0.001859,-1.640108,-262.390751,1.183611,70.222729
13.4568,0.004375,0.000523,-0.002342,0.0,0.0,0.0,0.003646,-0.509188,-0.002233,-1.640108,-262.390751,1.183611,70.222729
13.4769,0.004687,0.000775,-0.003497,0.0,0.0,0.0,0.00322,-0.509451,-0.002333,-1.640108,-262.390751,1.183611,70.222729
13.4965,0.004748,0.000605,-0.002056,0.0,0.0,0.0,0.00322,-0.509451,-0.002333,-1.640108,-262.390751,1.183611,70.222729
13.5166,0.004775,0.000742,-0.002731,0.0,0.0,0.0,0.0037,-0.509394,-0.002056,-1.640108,-262.390751,1.183611,70.222729
13.5373,0.005133,0.000754,-0.003089,0.0,0.0,0.0,0.003571,-0.509339,-0.002329,-1.640108,-262.390751,1.183611,70.222729
13.5564,0.004896,0.000611,-0.003452,0.0,0.0,0.0,0.003558,-0.509244,-0.003089,-1.640108,-262.390751,1.183611,70.222729
13.577,0.00451,0.000508,-0.00266,0.0,0.0,0.0,0.003173,-0.509373,-0.003419,-1.640108,-262.390751,1.183611,70.222729
13.5967,0.004821,0.000649,-0.001834,0.0,0.0,0.0,0.003173,-0.509373,-0.003419,-1.640108,-262.390751,1.183611,70.222729
13.6168,0.004964,0.000363,-0.002992,0.0,0.0,0.0,0.003886,-0.50935,-0.001834,-1.640108,-262.390751,1.183611,70.222729
13.6366,0.005041,0.000605,-0.004129,0.0,0.0,0.0,0.003703,-0.509466,-0.002306,-1.640108,-262.390751,1.183611,70.222729
13.6564,0.004441,0.000547,-0.002816,0.0,0.0,0.0,0.002935,-0.509391,-0.004129,-1.640108,-262.390751,1.183611,70.222729
13.6767,0.004862,0.000891,-0.001518,0.0,0.0,0.0,0.002998,-0.509445,-0.002937,-1.640108,-262.390751,1.183611,70.222729
13.6969,0.004615,0.000875,-0.003039,0.0,0.0,0.0,0.002998,-0.509445,-0.002937,-1.640108,-262.390751,1.183611,70.222729
13.7164,0.004555,0.001078,-0.002411,0.0,0.0,0.0,0.003065,-0.509122,-0.003039,-1.640108,-262.390751,1.183611,70.222729
13.7365,0.004389,0.000466,-0.003036,0.0,0.0,0.0,0.003167,-0.509043,-0.002793,-1.640108,-262.390751,1.183611,70.222729
13.7563,0.004687,0.00068,-0.003077,0.0,0.0,0.0,0.00284,-0.509532,-0.003036,-1.640108,-262.390751,1.183611,70.222729
13.7768,0.004623,0.000631,-0.00472,0.0,0.0,0.0,0.003093,-0.509336,-0.003074,-1.640108,-262.390751,1.183611,70.222729
13.7965,0.004898,0.000732,-0.003377,0.0,0.0,0.0,0.003093,-0.509336,-0.003074,-1.640108,-262.390751,1.183611,70.222729
13.8163,0.004229,0.0004,-0.002069,0.0,0.0,0.0,0.003176,-0.509265,-0.003377,-1.640108,-262.390751,1.183611,70.222729
13.8364,0.004956,0.000336,-0.003324,0.0,0.0,0.0,0.003175,-0.509403,-0.002837,-1.640108,-262.390751,1.183611,70.222729
13.8564,0.004549,0.000791,-0.002949,0.0,0.0,0.0,0.003261,-0.509661,-0.003324,-1.640108,-262.390751,1.183611,70.222729
13.8767,0.004648,0.00065,-0.003872,0.0,0.0,0.0,0.003064,-0.509247,-0.002983,-1.640108,-262.390751,1.183611,70.222729
13.8966,0.00448,0.000481,-0.00192,0.0,0.0,0.0,0.003064,-0.509247,-0.002983,-1.640108,-262.390751,1.183611,70.222729
13.9165,0.004713,0.000505,-0.001115,0.0,0.0,0.0,0.003501,-0.509518,-0.00192,-1.640108,-262.390751,1.183611,70.222729
13.9366,0.004752,0.000846,-0.003251,0.0,0.0,0.0,0.003767,-0.509509,-0.001587,-1.640108,-262.390751,1.183611,70.222729
13.9567,0.004508,0.000578,-0.003652,0.0,0.0,0.0,0.003094,-0.509152,-0.003251,-1.640108,-262.390751,1.183611,70.222729
13.9767,0.004645,0.000631,-0.003744,0.0,0.0,0.0,0.002685,-0.509395,-0.003616,-1.640108,-262.390751,1.183611,70.222729
13.9969,0.004846,0.00092,-0.002659,0.0,0.0,0.0,0.002685,-0.509395,-0.003616,-1.640108,-262.390751,1.183611,70.222729
14.0164,0.004616,0.000887,-0.000755,0.0,0.0,0.0,0.00349,-0.509078,-0.002659,-1.640108,-262.390751,1.183611,70.222729
14.0367,0.004368,0.000634,-0.001392,0.0,0.0,0.0,0.003795,-0.509093,-0.001874,-1.640108,-262.390751,1.183611,70.222729
14.0567,0.004403,0.000774,-0.002834,0.0,0.0,0.0,0.003658,-0.509365,-0.001392,-1.640108,-262.390751,1.183611,70.222729
14.0766,0.004995,0.000742,-0.002524,0.0,0.0,0.0,0.003026,-0.509238,-0.002693,-1.640108,-262.390751,1.183611,70.222729
14.0965,0.004563,0.000642,-0.004122,0.0,0.0,0.0,0.003026,-0.509238,-0.002693,-1.640108,-262.390751,1.183611,70.222729
14.1167,0.004707,0.000555,-0.002832,0.0,0.0,0.0,0.002461,-0.509354,-0.004122,-1.640108,-262.390751,1.183611,70.222729
14.1365,0.004761,0.000858,-0.004136,0.0,0.0,0.0,0.00279,-0.50939,-0.003592,-1.640108,-262.390751,1.183611,70.222729
14.1564,0.004373,0.000951,-0.003272,0.0,0.0,0.0,0.002651,-0.509138,-0.004136,-1.640108,-262.390751,1.183611,70.222729
14.1768,0.005011,0.000538,-0.002151,0.0,0.0,0.0,0.002699,-0.509055,-0.003351,-1.640108,-262.390751,1.183611,70.222729
14.1967,0.004594,0.001066,-0.003392,0.0,0.0,0.0,0.002699,-0.509055,-0.003351,-1.640108,-262.390751,1.183611,70.222729
14.2166,0.004658,0.001042,-0.002656,0.0,0.0,0.0,0.002864,-0.508931,-0.003392,-1.640108,-262.390751,1.183611,70.222729
14.2367,0.004792,0.00088,-0.0022,0.0,0.0,0.0,0.003043,-0.508941,-0.003093,-1.640108,-262.390751,1.183611,70.222729
14.2567,0.004598,0.000842,-0.001798,0.0,0.0,0.0,0.003671,-0.509119,-0.0022,-1.640108,-262.390751,1.183611,70.222729
14.2766,0.004363,0.000631,-0.004217,0.0,0.0,0.0,0.00368,-0.509154,-0.001834,-1.640108,-262.390751,1.183611,70.222729
14.2964,0.004789,0.000841,-0.003175,0.0,0.0,0.0,0.00368,-0.509154,-0.001834,-1.640108,-262.390751,1.183611,70.222729
14.3163,0.004465,0.00057,-0.001079,0.0,0.0,0.0,0.003169,-0.509156,-0.003175,-1.640108,-262.390751,1.183611,70.222729
14.3365,0.004546,0.000821,-0.003856,0.0,0.0,0.0,0.003473,-0.509267,-0.002323,-1.640108,-262.390751,1.183611,70.222729
14.3565,0.004872,0.000549,-0.002605,0.0,0.0,0.0,0.00258,-0.509176,-0.003856,-1.640108,-262.390751,1.183611,70.222729
14.3764,0.004838,0.000953,-0.002696,0.0,0.0,0.0,0.003456,-0.509424,-0.002718,-1.640108,-262.390751,1.183611,70.222729
14.3968,0.004774,0.001067,-0.002415,0.0,0.0,0.0,0.003456,-0.509424,-0.002718,-1.640108,-262.390751,1.183611,70.222729
14.4164,0.004377,0.000679,-0.002916,0.0,0.0,0.0,0.003542,-0.508932,-0.002415,-1.640108,-262.390751,1.183611,70.222729
14.4365,0.004522,0.000925,-0.003953,0.0,0.0,0.0,0.003274,-0.509091,-0.002621,-1.640108,-262.390751,1.183611,70.222729
14.4565,0.004548,0.000808,-0.004442,0.0,0.0,0.0,0.002506,-0.509071,-0.003953,-1.640108,-262.390751,1.183611,70.222729
14.4765,0.004628,0.00076,-0.002297,0.0,0.0,0.0,0.002302,-0.509177,-0.004399,-1.640108,-262.390751,1.183611,70.222729
14.4965,0.004709,0.000798,-0.002111,0.0,0.0,0.0,0.002302,-0.509177,-0.004399,-1.640108,-262.390751,1.183611,70.222729
14.5167,0.004718,0.000947,-0.002522,0.0,0.0,0.0,0.003632,-0.509201,-0.002111,-1.640108,-262.390751,1.183611,70.222729
14.5369,0.004509,0.000598,-0.002773,0.0,0.0,0.0,0.00355,-0.50914,-0.00228,-1.640108,-262.390751,1.183611,70.222729
14.5563,0.004658,0.000783,-0.002406,0.0,0.0,0.0,0.003095,-0.5094,-0.002773,-1.640108,-262.390751,1.183611,70.222729
14.5767,0.004846,0.000852,-0.0033,0.0,0.0,0.0,0.003402,-0.509232,-0.002438,-1.640108,-262.390751,1.183611,70.222729
14.5968,0.004658,0.000305,-0.003981,0.0,0.0,0.0,0.003402,-0.509232,-0.002438,-1.640108,-262.390751,1.183611,70.222729
14.617,0.004763,0.000745,-0.002403,0.0,0.0,0.0,0.002627,-0.509691,-0.003981,-1.640108,-262.390751,1.183611,70.222729
14.637,0.004539,0.00066,-0.001932,0.0,0.0,0.0,0.002997,-0.509513,-0.003339,-1.640108,-262.390751,1.183611,70.222729
14.6563,0.004884,0.000837,-0.003005,0.0,0.0,0.0,0.003554,-0.509339,-0.001932,-1.640108,-262.390751,1.183611,70.222729
14.6765,0.00476,0.001064,-0.002963,0.0,0.0,0.0,0.00337,-0.509176,-0.002908,-1.640108,-262.390751,1.183611,70.222729
14.6964,0.004545,0.001077,-0.002379,0.0,0.0,0.0,0.00337,-0.509176,-0.002908,-1.640108,-262.390751,1.183611,70.222729
14.7165,0.00458,0.000728,-0.002485,0.0,0.0,0.0,0.003331,-0.508921,-0.002379,-1.640108,-262.390751,1.183611,70.222729
14.7367,0.004585,0.001003,-0.004046,0.0,0.0,0.0,0.003324,-0.509064,-0.002422,-1.640108,-262.390751,1.183611,70.222729
14.7565,0.004593,0.000875,-0.002377,0.0,0.0,0.0,0.002522,-0.508993,-0.004046,-1.640108,-262.390751,1.183611,70.222729
14.7767,0.004762,0.000568,-0.00332,0.0,0.0,0.0,0.003307,-0.509113,-0.00252,-1.640108,-262.390751,1.183611,70.222729
14.7967,0.004619,0.000675,-0.000855,0.0,0.0,0.0,0.003307,-0.509113,-0.00252,-1.640108,-262.390751,1.183611,70.222729
14.8163,0.004695,0.000636,-0.002463,0.0,0.0,0.0,0.004183,-0.509325,-0.000855,-1.640108,-262.390751,1.183611,70.222729
14.8364,0.004547,0.000475,-0.002129,0.0,0.0,0.0,0.003877,-0.509341,-0.001516,-1.640108,-262.390751,1.183611,70.222729
14.8567,0.004414,0.000597,-0.003295,0.0,0.0,0.0,0.003461,-0.509523,-0.002129,-1.640108,-262.390751,1.183611,70.222729
14.8768,0.004499,0.000885,-0.002502,0.0,0.0,0.0,0.002797,-0.509411,-0.003193,-1.640108,-262.390751,1.183611,70.222729
14.8971,0.004944,0.00085,-0.003752,0.0,0.0,0.0,0.002797,-0.509411,-0.003193,-1.640108,-262.390751,1.183611,70.222729
14.9168,0.00475,0.000799,-0.002426,0.0,0.0,0.0,0.00303,-0.509146,-0.003752,-1.640108,-262.390751,1.183611,70.222729
14.9364,0.00448,0.001079,-0.003272,0.0,0.0,0.0,0.003228,-0.509168,-0.003208,-1.640108,-262.390751,1.183611,70.222729
14.9566,0.004717,0.00074,-0.003882,0.0,0.0,0.0,0.002811,-0.508918,-0.003272,-1.640108,-262.390751,1.183611,70.222729
14.9765,0.004571,0.00106,-0.003292,0.0,0.0,0.0,0.002744,-0.509227,-0.003829,-1.640108,-262.390751,1.183611,70.222729
14.9966,0.004676,0.00106,-0.002824,0.0,0.0,0.0,0.002744,-0.509227,-0.003829,-1.640108,-262.390751,1.183611,70.222729
15.017,0.004259,0.000365,-0.00284,0.0,0.0,0.0,0.003236,-0.508938,-0.002824,-1.640108,-262.390751,1.183611,70.222729
15.0371,0.004852,0.000696,-0.001722,0.0,0.0,0.0,0.003062,-0.509223,-0.00283,-1.640108,-262.390751,1.183611,70.222729
15.0564,0.004636,0.000823,-0.002658,0.0,0.0,0.0,0.003974,-0.509303,-0.001722,-1.640108,-262.390751,1.183611,70.222729
15.0766,0.00508,0.000894,-0.002145,0.0,0.0,0.0,0.00334,-0.509186,-0.002578,-1.640108,-262.390751,1.183611,70.222729
15.0965,0.004817,0.000799,-0.000879,0.0,0.0,0.0,0.00334,-0.509186,-0.002578,-1.640108,-262.390751,1.183611,70.222729
15.1167,0.004701,0.000614,-0.002449,0.0,0.0,0.0,0.004368,-0.509201,-0.000879,-1.640108,-262.390751,1.183611,70.222729
15.1366,0.004674,0.000434,-0.00283,0.0,0.0,0.0,0.003989,-0.509277,-0.001529,-1.640108,-262.390751,1.183611,70.222729
15.1565,0.004362,0.000521,-0.00197,0.0,0.0,0.0,0.003231,-0.509564,-0.00283,-1.640108,-262.390751,1.183611,70.222729
15.1767,0.004823,0.000643,-0.00228,0.0,0.0,0.0,0.003347,-0.509485,-0.002044,-1.640108,-262.390751,1.183611,70.222729
15.1967,0.004541,0.000479,-0.002997,0.0,0.0,0.0,0.003347,-0.509485,-0.002044,-1.640108,-262.390751,1.183611,70.222729
15.2167,0.004632,0.000815,-0.002721,0.0,0.0,0.0,0.003013,-0.509519,-0.002997,-1.640108,-262.390751,1.183611,70.222729
15.2368,0.004874,0.000806,-0.002196,0.0,0.0,0.0,0.003107,-0.509382,-0.002885,-1.640108,-262.390751,1.183611,70.222729
15.2565,0.004621,0.000402,-0.00238,0.0,0.0,0.0,0.003755,-0.509193,-0.002196,-1.640108,-262.390751,1.183611,70.222729
15.2768,0.004527,0.000845,-0.003445,0.0,0.0,0.0,0.003438,-0.50956,-0.002363,-1.640108,-262.390751,1.183611,70.222729
15.2967,0.004411,0.000818,-0.001258,0.0,0.0,0.0,0.003438,-0.50956,-0.002363,-1.640108,-262.390751,1.183611,70.222729
