mach0312/omni-docking-bench/src/icros_test_setup/results/MPPI_sample/timeseries/trial_003.csv
t,x,y,yaw,vx,vy,wz,bl_x,bl_y,bl_yaw,front_steering_joint,front_wheel_joint,rear_steering_joint,rear_wheel_joint
0.0,0.007893,-0.000491,0.033014,0.0,0.0,0.0,0.024677,-0.50974,0.032835,0.037018,-264.049278,-0.199225,62.540571
0.0004,0.008161,4e-05,0.034373,0.0,0.0,0.0,0.024677,-0.50974,0.032835,0.037018,-264.049278,-0.199225,62.540571
0.0008,0.008198,-0.000291,0.033922,0.0,0.0,0.0,0.025169,-0.509875,0.033799,0.037018,-264.049278,-0.199225,62.540571
0.0011,0.008082,-6e-06,0.03324,0.0001,-4e-06,0.0,0.025169,-0.509875,0.033799,0.037018,-264.049278,-0.199225,62.540571
0.0014,0.007998,-0.000164,0.033673,0.0001,-4e-06,0.0,0.025169,-0.509875,0.033799,0.037018,-264.049278,-0.199225,62.540571
0.0018,0.007955,-0.000428,0.032586,0.0001,-4e-06,0.0,0.025285,-0.509763,0.034088,-0.037974,-264.049254,-0.124233,62.540595
0.0021,0.007903,-0.000109,0.032325,0.0001,-4e-06,0.0,0.025285,-0.509763,0.034088,-0.037974,-264.049254,-0.124233,62.540595
0.0023,0.007769,-0.00025,0.03377,0.0001,-4e-06,0.0,0.025309,-0.509852,0.033817,-0.037974,-264.049254,-0.124233,62.540595
0.0025,0.008031,-0.000197,0.03301,0.0001,-4e-06,0.0,0.025309,-0.509852,0.033817,-0.037974,-264.049254,-0.124233,62.540595
0.0157,0.008051,-0.000107,0.033527,0.0,0.0,0.0,0.024866,-0.509919,0.03301,-0.038901,-264.049218,-0.049221,62.540631
0.0357,0.008411,-4e-05,0.032528,0.0,0.0,0.0,0.025123,-0.509829,0.033483,-0.038901,-264.049218,-0.049221,62.540631
0.0556,0.00819,-0.000228,0.034171,0.0,0.0,0.0,0.025123,-0.509829,0.033483,-0.038901,-264.049218,-0.049221,62.540631
0.0756,0.008383,7e-06,0.032722,0.0,0.0,0.0,0.025614,-0.50993,0.034171,-0.038901,-264.049218,-0.049221,62.540631
0.0958,0.008246,7.7e-05,0.032673,0.0,0.0,0.0,0.025391,-0.509844,0.033579,-0.038901,-264.049218,-0.049221,62.540631
0.1155,0.008169,7.7e-05,0.03453,-0.002672,0.001988,-0.008114,0.024906,-0.509651,0.032673,-0.038901,-264.049218,-0.049221,62.540631
0.1361,0.007692,8e-06,0.03326,-0.002936,0.002161,-0.008746,0.025698,-0.509622,0.034364,-0.038901,-264.049218,-0.049221,62.540631
0.1559,0.008286,-0.000521,0.032631,-0.003165,0.002307,-0.009262,0.025698,-0.509622,0.034364,-0.038901,-264.049218,-0.049221,62.540631
0.176,0.008507,-4.7e-05,0.032684,-0.003364,0.002431,-0.009686,0.024925,-0.510249,0.032631,0.036094,-264.049218,-0.124215,62.540631
0.196,0.008301,2e-06,0.035228,-0.003535,0.002552,-0.010033,0.025025,-0.510058,0.032653,0.036094,-264.049218,-0.124215,62.540631
0.2156,0.008483,-0.000155,0.03381,-0.003684,0.002655,-0.010317,0.026263,-0.509682,0.035228,0.11106,-264.049218,-0.199181,62.540631
0.2361,0.008553,0.000141,0.032879,-0.003814,0.002736,-0.01055,0.025774,-0.509847,0.033944,0.11106,-264.049218,-0.199181,62.540631
0.2562,0.007985,-0.000249,0.033735,-0.003927,0.002806,-0.010741,0.025774,-0.509847,0.033944,0.11106,-264.049218,-0.199181,62.540631
0.2759,0.008127,-0.000244,0.034479,-0.004026,0.002867,-0.010899,0.025187,-0.509959,0.033735,0.186183,-264.049218,-0.274305,62.540631
0.2965,0.008235,-0.000417,0.033261,-0.004111,0.002923,-0.011029,0.025406,-0.509952,0.034048,0.186183,-264.049218,-0.274305,62.540631
0.316,0.007913,9.7e-05,0.033297,-0.004185,0.002971,-0.011136,0.025195,-0.510135,0.033261,0.261558,-264.049218,-0.349679,62.540631
0.3364,0.007886,-0.000489,0.033842,-0.00425,0.003002,-0.011226,0.024919,-0.509666,0.033294,0.261558,-264.049218,-0.349679,62.540631
0.3557,0.00784,1.5e-05,0.033378,-0.004307,0.003028,-0.011301,0.024919,-0.509666,0.033294,0.261558,-264.049218,-0.349679,62.540631
0.3759,0.008195,-0.000179,0.03321,-0.004356,0.00305,-0.011363,0.02486,-0.509701,0.033378,0.336055,-264.049218,-0.424176,62.540631
0.3965,0.008003,1.5e-05,0.032743,-0.004398,0.003074,-0.011414,0.02497,-0.509782,0.033309,0.336055,-264.049218,-0.424176,62.540631
0.4154,0.008198,-0.000278,0.032111,-0.004435,0.003095,-0.011456,0.024699,-0.509712,0.032743,0.411059,-264.049218,-0.49918,62.54063
0.4361,0.008058,-0.000222,0.033649,-0.004466,0.00312,-0.011491,0.024584,-0.509987,0.032168,0.411059,-264.049218,-0.49918,62.54063
0.4556,0.008027,-0.000179,0.031491,-0.004492,0.003141,-0.011521,0.024584,-0.509987,0.032168,0.411059,-264.049218,-0.49918,62.54063
0.4759,0.008158,-0.000101,0.033112,-0.004516,0.003159,-0.011546,0.024085,-0.509927,0.031491,0.486051,-264.049219,-0.574172,62.54063
0.4957,0.008216,0.000167,0.034443,-0.004536,0.003171,-0.011568,0.024474,-0.509884,0.03215,0.486051,-264.049219,-0.574172,62.54063
0.5154,0.007975,-1.5e-05,0.033351,-0.004553,0.003182,-0.011586,0.025778,-0.509531,0.034442,0.561051,-264.049222,-0.649172,62.540623
0.5358,0.007741,5.3e-05,0.031869,-0.004569,0.003186,-0.011602,0.025051,-0.509714,0.033448,0.561051,-264.049222,-0.649172,62.540623
0.5558,0.008456,-0.000422,0.032735,-0.004582,0.003189,-0.011615,0.025051,-0.509714,0.033448,0.561051,-264.049222,-0.649172,62.540623
0.5761,0.007906,-0.000588,0.031791,-0.004594,0.003192,-0.011627,0.025145,-0.510148,0.032731,0.63605,-264.049247,-0.724171,62.540578
0.5961,0.008347,5.7e-05,0.033213,-0.004603,0.003213,-0.011635,0.024728,-0.510222,0.03235,0.63605,-264.049247,-0.724171,62.540578
0.6158,0.008298,-0.00017,0.031226,-0.004611,0.003232,-0.011642,0.025273,-0.509659,0.033199,0.704994,-264.049357,-0.799175,62.540371
0.6357,0.008061,-0.000101,0.033763,-0.004618,0.003234,-0.01165,0.024314,-0.509898,0.031402,0.704994,-264.049357,-0.799175,62.540371
0.6559,0.008276,-0.000106,0.034378,-0.004624,0.003236,-0.011656,0.024314,-0.509898,0.031402,0.704994,-264.049357,-0.799175,62.540371
0.6759,0.008039,0.000195,0.032177,-0.00463,0.003238,-0.011662,0.025772,-0.509792,0.034322,0.699384,-264.049674,-0.874172,62.539775
0.6959,0.008109,-9.8e-05,0.034153,-0.004635,0.003234,-0.011667,0.025226,-0.509688,0.033438,0.699384,-264.049674,-0.874172,62.539775
0.7155,0.008105,1e-05,0.03299,-0.00464,0.00323,-0.011671,0.025471,-0.509777,0.034054,0.698041,-264.050375,-0.949226,62.53846
0.7358,0.008087,6.1e-05,0.033131,-0.004644,0.003228,-0.011675,0.024973,-0.509717,0.03308,0.698041,-264.050375,-0.949226,62.53846
0.7558,0.008069,-0.000148,0.033082,-0.004647,0.003226,-0.011678,0.024973,-0.509717,0.03308,0.698041,-264.050375,-0.949226,62.53846
0.7758,0.008136,-0.000225,0.032854,-0.00465,0.003224,-0.01168,0.02482,-0.509809,0.032838,0.698726,-264.051644,-1.024174,62.536083
0.7961,0.008178,5.9e-05,0.032239,-0.004652,0.003228,-0.011747,0.024835,-0.50986,0.032817,0.698726,-264.051644,-1.024174,62.536083
0.8161,0.008452,-3.9e-05,0.031558,-0.004654,0.003232,-0.011801,0.024493,-0.509603,0.031953,0.699052,-264.053538,-1.09917,62.532544
0.8361,0.008404,0.000633,0.032393,-0.004656,0.00323,-0.011893,0.024533,-0.509765,0.031579,0.699052,-264.053538,-1.09917,62.532544
0.8562,0.00854,1.6e-05,0.033925,-0.004657,0.003228,-0.011966,0.024533,-0.509765,0.031579,0.699052,-264.053538,-1.09917,62.532544
0.8757,0.008207,8.4e-05,0.033507,-0.004659,0.003227,-0.012025,0.025648,-0.509567,0.033453,0.70688,-264.055879,-1.151399,62.528172
0.8959,0.008446,-7e-06,0.031432,-0.004662,0.00322,-0.012128,0.025482,-0.509579,0.03342,0.70688,-264.055879,-1.151399,62.528172
0.9158,0.00864,0.000757,0.031734,-0.004664,0.003215,-0.012211,0.024323,-0.509658,0.03105,0.72384,-264.058354,-1.155722,62.523573
0.9359,0.00829,0.000826,0.031276,-0.004667,0.003185,-0.012333,0.024768,-0.509043,0.031651,0.72384,-264.058354,-1.155722,62.523573
0.9568,0.00831,0.000499,0.030998,-0.00467,0.00316,-0.012432,0.024768,-0.509043,0.031651,0.72384,-264.058354,-1.155722,62.523573
0.976,0.008492,0.000299,0.032305,-0.004672,0.003138,-0.012512,0.023915,-0.509126,0.03048,0.738189,-264.060867,-1.1588,62.51893
0.9958,0.0083,0.000812,0.03007,-0.004673,0.003125,-0.012626,0.024296,-0.50923,0.031126,0.738189,-264.060867,-1.1588,62.51893
1.016,0.008505,0.000757,0.031021,-0.004675,0.003114,-0.012718,0.023484,-0.508863,0.029676,0.767088,-264.063428,-1.16185,62.514294
1.036,0.008368,0.000898,0.029505,-0.004677,0.003094,-0.012837,0.02424,-0.508981,0.03088,0.767088,-264.063428,-1.16185,62.514294
1.0566,0.008518,0.000812,0.030752,-0.004678,0.003077,-0.012935,0.02424,-0.508981,0.03088,0.767088,-264.063428,-1.16185,62.514294
1.0755,0.008791,0.001162,0.02932,-0.004679,0.003062,-0.013014,0.024,-0.508823,0.030221,0.783041,-264.066056,-1.165023,62.509576
1.0963,0.008578,0.000883,0.026933,-0.00468,0.003036,-0.013122,0.023872,-0.508725,0.029794,0.783041,-264.066056,-1.165023,62.509576
1.1159,0.00875,0.001069,0.026846,-0.00468,0.003014,-0.01321,0.022162,-0.508839,0.026522,0.807136,-264.068736,-1.168965,62.504837
1.136,0.008636,0.001013,0.028663,-0.004681,0.00299,-0.013322,0.022407,-0.508751,0.026795,0.807136,-264.068736,-1.168965,62.504837
1.1561,0.008908,0.001629,0.027344,-0.004681,0.00297,-0.013413,0.022407,-0.508751,0.026795,0.807136,-264.068736,-1.168965,62.504837
1.1757,0.008965,0.001483,0.027132,-0.00468,0.002952,-0.013487,0.022653,-0.508061,0.026794,0.823692,-264.071484,-1.171189,62.500037
1.1961,0.008845,0.001415,0.025408,-0.00468,0.002911,-0.013586,0.022691,-0.508158,0.02687,0.823692,-264.071484,-1.171189,62.500037
1.2154,0.009244,0.001594,0.02704,-0.00468,0.002877,-0.013666,0.021652,-0.508331,0.024982,0.845981,-264.074279,-1.174612,62.495234
1.236,0.009029,0.001233,0.02645,-0.004679,0.00285,-0.01376,0.022901,-0.508225,0.026834,0.845981,-264.074279,-1.174612,62.495234
1.2563,0.008633,0.00173,0.027251,-0.004679,0.002828,-0.013837,0.022901,-0.508225,0.026834,0.845981,-264.074279,-1.174612,62.495234
1.276,0.008982,0.001624,0.027506,-0.004678,0.002809,-0.0139,0.022331,-0.507966,0.026681,0.86308,-264.077145,-1.175766,62.490393
1.2959,0.00879,0.001279,0.027113,-0.004677,0.002783,-0.013974,0.022581,-0.50804,0.026947,0.86308,-264.077145,-1.175766,62.490393
1.3157,0.009293,0.001694,0.024611,-0.004677,0.002761,-0.014035,0.022465,-0.508449,0.026671,0.881852,-264.080072,-1.178207,62.48553
1.3356,0.008664,0.001815,0.025276,-0.004676,0.002743,-0.014097,0.021891,-0.508174,0.024773,0.881852,-264.080072,-1.178207,62.48553
1.3558,0.009168,0.001397,0.027584,-0.004675,0.002728,-0.014149,0.021891,-0.508174,0.024773,0.881852,-264.080072,-1.178207,62.48553
1.3758,0.009159,0.001847,0.024324,-0.004674,0.002716,-0.014191,0.023036,-0.508299,0.026999,0.893118,-264.083067,-1.179414,62.480607
1.3959,0.00876,0.001871,0.024971,-0.004674,0.002707,-0.014232,0.022398,-0.508162,0.025813,0.893118,-264.083067,-1.179414,62.480607
1.4156,0.00935,0.001893,0.024947,-0.004673,0.002699,-0.014266,0.021344,-0.507887,0.024522,0.905031,-264.086069,-1.181145,62.475726
1.4359,0.009694,0.002055,0.024562,-0.004672,0.002681,-0.0143,0.021999,-0.507939,0.024886,0.905031,-264.086069,-1.181145,62.475726
1.4559,0.009376,0.001892,0.024316,-0.004671,0.002665,-0.014329,0.021999,-0.507939,0.024886,0.905031,-264.086069,-1.181145,62.475726
1.4757,0.009512,0.002399,0.023792,-0.004671,0.002651,-0.014352,0.021577,-0.507849,0.023719,0.910153,-264.089114,-1.182132,62.470795
1.4957,0.009342,0.002408,0.023758,-0.004669,0.002625,-0.014377,0.021582,-0.507678,0.023679,0.910153,-264.089114,-1.182132,62.470795
1.5156,0.00939,0.002369,0.022516,-0.004668,0.002602,-0.014398,0.021307,-0.507367,0.023301,0.918471,-264.092188,-1.182479,62.465866
1.5358,0.009661,0.002329,0.022666,-0.004667,0.002569,-0.01442,0.020903,-0.507485,0.022563,0.918471,-264.092188,-1.182479,62.465866
1.5559,0.00949,0.002017,0.02277,-0.004665,0.002541,-0.014438,0.020903,-0.507485,0.022563,0.918471,-264.092188,-1.182479,62.465866
1.5756,0.009708,0.002382,0.022189,-0.004664,0.002518,-0.014452,0.020904,-0.507746,0.022166,0.924737,-264.095288,-1.182006,62.460944
1.5959,0.00965,0.002531,0.022509,-0.004663,0.002504,-0.014467,0.020929,-0.507632,0.022106,0.924737,-264.095288,-1.182006,62.460944
1.6162,0.009911,0.002184,0.022211,-0.004662,0.002492,-0.014479,0.020978,-0.507263,0.022048,0.934254,-264.098422,-1.180767,62.456044
1.6358,0.009751,0.002643,0.022041,-0.004662,0.002485,-0.014492,0.021207,-0.507648,0.022173,0.934254,-264.098422,-1.180767,62.456044
1.6558,0.009628,0.002757,0.021988,-0.004661,0.002478,-0.014502,0.021207,-0.507648,0.022173,0.934254,-264.098422,-1.180767,62.456044
1.6761,0.009897,0.002654,0.020968,-0.004661,0.002472,-0.014511,0.020643,-0.507019,0.021382,0.937524,-264.101572,-1.180583,62.451143
1.6962,0.009626,0.002395,0.020261,-0.004659,0.002437,-0.014524,0.020599,-0.507095,0.021144,0.937524,-264.101572,-1.180583,62.451143
1.7161,0.009719,0.00291,0.018732,-0.004657,0.002407,-0.014534,0.019808,-0.507424,0.019798,0.940625,-264.104739,-1.180672,62.446236
1.7358,0.009893,0.002719,0.019807,-0.004654,0.002367,-0.014539,0.019311,-0.507034,0.018802,0.940625,-264.104739,-1.180672,62.446236
1.7558,0.010165,0.002881,0.020432,-0.004652,0.002333,-0.014542,0.019311,-0.507034,0.018802,0.940625,-264.104739,-1.180672,62.446236
1.7758,0.010421,0.002859,0.018619,-0.00465,0.002304,-0.014545,0.020387,-0.506916,0.019824,0.946948,-264.107925,-1.179386,62.441356
1.796,0.010162,0.002655,0.021333,-0.004649,0.002283,-0.01455,0.020173,-0.506961,0.019263,0.946948,-264.107925,-1.179386,62.441356
1.8155,0.01022,0.002886,0.018159,-0.004648,0.002265,-0.014554,0.020891,-0.507159,0.02087,0.955487,-264.111144,-1.176857,62.436517
1.8355,0.010403,0.002933,0.019033,-0.004647,0.002249,-0.014554,0.019596,-0.507037,0.018372,0.955487,-264.111144,-1.176857,62.436517
1.8557,0.010339,0.002994,0.018746,-0.004646,0.002236,-0.014554,0.019596,-0.507037,0.018372,0.955487,-264.111144,-1.176857,62.436517
1.8756,0.0108,0.002904,0.018841,-0.004645,0.002224,-0.014553,0.019702,-0.506825,0.018137,0.958957,-264.114376,-1.176006,62.431689
1.8962,0.010473,0.002855,0.018116,-0.004645,0.00221,-0.014554,0.019964,-0.506887,0.01835,0.958957,-264.114376,-1.176006,62.431689
1.9155,0.010594,0.002989,0.018339,-0.004644,0.002198,-0.014554,0.01956,-0.506992,0.017645,0.962021,-264.117625,-1.174838,62.426873
1.936,0.010556,0.002987,0.015861,-0.004643,0.002189,-0.014555,0.019901,-0.506928,0.018247,0.962021,-264.117625,-1.174838,62.426873
1.9559,0.010712,0.003384,0.018227,-0.004643,0.002181,-0.014555,0.019901,-0.506928,0.018247,0.962021,-264.117625,-1.174838,62.426873
1.9756,0.010783,0.003433,0.015652,-0.004642,0.002175,-0.014555,0.019811,-0.506442,0.017617,0.964131,-264.120883,-1.174145,62.422065
1.9957,0.010746,0.003437,0.01644,-0.004639,0.002142,-0.014544,0.019365,-0.506457,0.01675,0.964131,-264.120883,-1.174145,62.422065
2.016,0.011071,0.003291,0.015232,-0.004637,0.002115,-0.014535,0.018981,-0.506427,0.015975,0.965885,-264.124148,-1.173544,62.417266
2.036,0.010682,0.003485,0.016276,-0.004633,0.002097,-0.014496,0.018844,-0.506626,0.015277,0.965885,-264.124148,-1.173544,62.417266
2.0562,0.010794,0.003584,0.014504,-0.00463,0.002082,-0.014465,0.018844,-0.506626,0.015277,0.965885,-264.124148,-1.173544,62.417266
2.076,0.010799,0.003518,0.014842,-0.004627,0.002069,-0.014439,0.017995,-0.506276,0.013894,0.969731,-264.127431,-1.17161,62.412489
2.0963,0.010833,0.003511,0.013484,-0.004619,0.002036,-0.014382,0.018126,-0.506328,0.014212,0.969731,-264.127431,-1.17161,62.412489
2.1159,0.010967,0.003621,0.015083,-0.004612,0.002008,-0.014337,0.017562,-0.506379,0.013025,0.969849,-264.130704,-1.168901,62.407758
2.1363,0.011259,0.003939,0.013868,-0.004608,0.001989,-0.014326,0.018557,-0.506323,0.014884,0.969849,-264.130704,-1.168901,62.407758
2.1559,0.011274,0.003576,0.014381,-0.004604,0.001972,-0.014317,0.018557,-0.506323,0.014884,0.969849,-264.130704,-1.168901,62.407758
2.1755,0.011503,0.00384,0.013417,-0.004601,0.001958,-0.01431,0.018414,-0.50629,0.013782,0.97126,-264.133974,-1.166019,62.403072
2.1962,0.011226,0.00369,0.012412,-0.004594,0.00194,-0.014244,0.018364,-0.506208,0.013562,0.97126,-264.133974,-1.166019,62.403072
2.2157,0.01135,0.003832,0.013086,-0.004588,0.001924,-0.014192,0.017409,-0.50621,0.011957,0.974676,-264.137246,-1.164609,62.398423
2.2358,0.011826,0.004136,0.013034,-0.004579,0.001903,-0.014114,0.017961,-0.506129,0.012961,0.974676,-264.137246,-1.164609,62.398423
2.2557,0.011216,0.003857,0.013702,-0.004572,0.001886,-0.014054,0.017961,-0.506129,0.012961,0.974676,-264.137246,-1.164609,62.398423
2.2759,0.011385,0.003715,0.011648,-0.004565,0.001871,-0.014007,0.018011,-0.506017,0.013108,0.973456,-264.140509,-1.162059,62.393805
2.296,0.011458,0.003812,0.011509,-0.004558,0.001856,-0.013932,0.017708,-0.506103,0.012442,0.973456,-264.140509,-1.162059,62.393805
2.3155,0.011622,0.003725,0.012212,-0.004552,0.001843,-0.013874,0.017182,-0.506097,0.011063,0.971538,-264.14375,-1.158076,62.389247
2.3356,0.011721,0.004202,0.011351,-0.004547,0.00184,-0.013798,0.017785,-0.506222,0.012092,0.971538,-264.14375,-1.158076,62.389247
2.3557,0.011651,0.004008,0.011582,-0.004543,0.001837,-0.01374,0.017785,-0.506222,0.012092,0.971538,-264.14375,-1.158076,62.389247
2.3756,0.012012,0.00436,0.011167,-0.004539,0.001834,-0.013696,0.017367,-0.505883,0.011002,0.969244,-264.146962,-1.155264,62.384745
2.396,0.011942,0.004203,0.009327,-0.004531,0.001808,-0.013554,0.017484,-0.505762,0.011003,0.969244,-264.146962,-1.155264,62.384745
2.4155,0.011573,0.004089,0.008744,-0.004523,0.001785,-0.013447,0.016554,-0.505718,0.008891,0.963396,-264.15014,-1.152074,62.380283
2.4357,0.011829,0.004527,0.009513,-0.004515,0.001766,-0.013017,0.016072,-0.505873,0.008735,0.963396,-264.15014,-1.152074,62.380283
2.4556,0.012105,0.004295,0.009573,-0.004506,0.001747,-0.012713,0.016072,-0.505873,0.008735,0.963396,-264.15014,-1.152074,62.380283
2.4759,0.012501,0.004178,0.009077,-0.004497,0.00173,-0.012498,0.016798,-0.505609,0.009011,0.957551,-264.15328,-1.14594,62.375899
2.496,0.011876,0.004183,0.010145,-0.004489,0.001714,-0.012384,0.016912,-0.505679,0.008973,0.957551,-264.15328,-1.14594,62.375899
2.5161,0.012004,0.004287,0.008894,-0.004483,0.001699,-0.012303,0.016911,-0.505738,0.009759,0.919773,-264.156159,-1.123053,62.37187
2.5359,0.012411,0.004208,0.008668,-0.004476,0.001682,-0.012236,0.016566,-0.505694,0.008951,0.919773,-264.156159,-1.123053,62.37187
2.556,0.01204,0.003905,0.007826,-0.00447,0.001667,-0.012188,0.016566,-0.505694,0.008951,0.919773,-264.156159,-1.123053,62.37187
2.5755,0.01268,0.004039,0.008346,-0.004465,0.001654,-0.012153,0.015844,-0.50601,0.007312,0.914019,-264.159092,-1.117935,62.367777
2.5956,0.012293,0.004801,0.007145,-0.004465,0.001663,-0.011868,0.016267,-0.505975,0.007673,0.914019,-264.159092,-1.117935,62.367777
2.6158,0.012494,0.004497,0.006608,-0.004463,0.001669,-0.011669,0.015794,-0.505134,0.006757,0.91206,-264.162008,-1.113601,62.363733
2.6356,0.011985,0.004409,0.007552,-0.004458,0.001642,-0.01125,0.01585,-0.505457,0.006602,0.91206,-264.162008,-1.113601,62.363733
2.6561,0.012367,0.00457,0.00828,-0.004451,0.001618,-0.010964,0.01585,-0.505457,0.006602,0.91206,-264.162008,-1.113601,62.363733
2.6757,0.012366,0.004485,0.007737,-0.004444,0.001597,-0.010767,0.016404,-0.505345,0.007797,0.885256,-264.164789,-1.101211,62.359842
2.6957,0.012434,0.004315,0.006963,-0.004435,0.001577,-0.010891,0.016346,-0.5054,0.007718,0.885256,-264.164789,-1.101211,62.359842
2.7156,0.012564,0.004737,0.007795,-0.004429,0.001561,-0.01098,0.015849,-0.505625,0.006633,0.842164,-264.16735,-1.072835,62.356272
2.736,0.012224,0.004708,0.005252,-0.004422,0.001543,-0.011029,0.016472,-0.505278,0.007678,0.842164,-264.16735,-1.072835,62.356272
2.7561,0.012584,0.004864,0.007718,-0.004417,0.001527,-0.011063,0.016472,-0.505278,0.007678,0.842164,-264.16735,-1.072835,62.356272
2.776,0.012312,0.004965,0.005754,-0.004413,0.001514,-0.011087,0.016335,-0.505058,0.007261,0.860079,-264.170047,-1.078997,62.352546
2.7962,0.012613,0.004693,0.005172,-0.004406,0.001486,-0.01084,0.015869,-0.505038,0.006593,0.860079,-264.170047,-1.078997,62.352546
2.8157,0.012461,0.004901,0.00458,-0.004398,0.001461,-0.010667,0.01511,-0.505253,0.00482,0.872451,-264.172786,-1.081418,62.3488
2.8361,0.012385,0.004926,0.005086,-0.004403,0.001423,-0.00988,0.014818,-0.505106,0.004583,0.872451,-264.172786,-1.081418,62.3488
2.8564,0.012618,0.004877,0.005091,-0.004402,0.001391,-0.009349,0.014818,-0.505106,0.004583,0.872451,-264.172786,-1.081418,62.3488
2.8762,0.012459,0.005107,0.004189,-0.004397,0.001365,-0.008992,0.015031,-0.505056,0.004647,0.854579,-264.175443,-1.066846,62.345188
2.8963,0.01226,0.005082,0.005157,-0.004391,0.001335,-0.008685,0.014834,-0.504982,0.004411,0.854579,-264.175443,-1.066846,62.345188
2.916,0.0125,0.004739,0.004903,-0.004385,0.001311,-0.008479,0.01478,-0.504879,0.004928,0.779587,-264.177352,-1.000549,62.342609
2.9363,0.012799,0.005051,0.004017,-0.004378,0.001309,-0.008502,0.014975,-0.505219,0.004893,0.779587,-264.177352,-1.000549,62.342609
2.9563,0.012585,0.004623,0.003702,-0.004373,0.001306,-0.008518,0.014975,-0.505219,0.004893,0.779587,-264.177352,-1.000549,62.342609
2.9762,0.012542,0.005378,0.004873,-0.004368,0.001305,-0.008529,0.014301,-0.505322,0.003368,0.722822,-264.179553,-0.97659,62.339661
2.9962,0.012683,0.005064,0.003848,-0.004368,0.001281,-0.008182,0.014575,-0.505031,0.003939,0.722822,-264.179553,-0.97659,62.339661
3.0155,0.012672,0.005014,0.003096,-0.004366,0.001262,-0.007945,0.014505,-0.504891,0.003575,0.729354,-264.181894,-0.980036,62.336526
3.0358,0.012424,0.004894,0.00376,-0.004368,0.001232,-0.007439,0.014267,-0.504973,0.003126,0.729354,-264.181894,-0.980036,62.336526
3.056,0.0124,0.005348,0.003353,-0.004368,0.001207,-0.007096,0.014267,-0.504973,0.003126,0.729354,-264.181894,-0.980036,62.336526
3.0757,0.012777,0.005369,0.002928,-0.004366,0.001186,-0.006865,0.013934,-0.504599,0.003033,0.68826,-264.184069,-0.950717,62.333636
3.0958,0.012748,0.005484,0.003669,-0.004355,0.00114,-0.006634,0.014052,-0.504606,0.002953,0.68826,-264.184069,-0.950717,62.333636
3.1159,0.012601,0.005491,0.003319,-0.004345,0.001102,-0.006477,0.014503,-0.504482,0.003485,0.613108,-264.185842,-0.888982,62.331319
3.136,0.01253,0.005121,0.005639,-0.004332,0.001072,-0.006527,0.014306,-0.504502,0.003325,0.613108,-264.185842,-0.888982,62.331319
3.1561,0.012413,0.005071,0.0043,-0.004321,0.001047,-0.006559,0.014306,-0.504502,0.003325,0.613108,-264.185842,-0.888982,62.331319
3.1757,0.012442,0.005556,0.003001,-0.004311,0.001026,-0.00658,0.014429,-0.50488,0.004036,0.581105,-264.187862,-0.861038,62.328728
3.1963,0.012521,0.005574,0.002203,-0.004303,0.001019,-0.006693,0.014223,-0.504697,0.003585,0.581105,-264.187862,-0.861038,62.328728
3.2156,0.012281,0.005288,0.002461,-0.004297,0.001014,-0.006767,0.013507,-0.504393,0.001994,0.606804,-264.189953,-0.863603,62.326085
3.2358,0.012551,0.00545,0.002705,-0.004298,0.000987,-0.0063,0.013528,-0.504685,0.002417,0.606804,-264.189953,-0.863603,62.326085
3.2561,0.012421,0.005582,0.001587,-0.004297,0.000964,-0.005982,0.013528,-0.504685,0.002417,0.606804,-264.189953,-0.863603,62.326085
3.2764,0.012624,0.005496,0.001536,-0.004294,0.000945,-0.005765,0.013053,-0.504376,0.001309,0.627844,-264.192053,-0.875108,62.323432
3.2962,0.012534,0.005487,0.001495,-0.004292,0.000899,-0.005079,0.013181,-0.504425,0.001371,0.627844,-264.192053,-0.875108,62.323432
3.3155,0.012346,0.005093,0.003367,-0.004288,0.00086,-0.004607,0.013186,-0.504489,0.001344,0.552981,-264.193683,-0.805012,62.321416
3.3364,0.012339,0.005221,0.002167,-0.004281,0.000884,-0.005135,0.013979,-0.504866,0.003179,0.552981,-264.193683,-0.805012,62.321416
3.3561,0.012235,0.005254,0.001854,-0.004278,0.000904,-0.005502,0.013979,-0.504866,0.003179,0.552981,-264.193683,-0.805012,62.321416
3.3756,0.012985,0.005772,0.001011,-0.004277,0.000922,-0.005755,0.013063,-0.504723,0.001718,0.478306,-264.194943,-0.730337,62.319905
3.3958,0.012411,0.005342,0.002221,-0.00428,0.000888,-0.005083,0.013228,-0.504519,0.001415,0.478306,-264.194943,-0.730337,62.319905
3.4156,0.01261,0.005664,0.001828,-0.00428,0.00086,-0.004621,0.013427,-0.504632,0.002064,0.545028,-264.196654,-0.803771,62.317798
3.4362,0.012301,0.005147,0.002593,-0.004275,0.00084,-0.004529,0.013527,-0.504359,0.001841,0.545028,-264.196654,-0.803771,62.317798
3.4562,0.012216,0.005312,0.00272,-0.004269,0.000823,-0.004465,0.013527,-0.504359,0.001841,0.545028,-264.196654,-0.803771,62.317798
3.4755,0.011762,0.006159,0.002389,-0.004265,0.000809,-0.00442,0.013479,-0.504663,0.002578,0.469925,-264.197977,-0.728668,62.316212
3.496,0.012309,0.005319,0.000982,-0.00425,0.000792,-0.004699,0.013264,-0.504328,0.002485,0.469925,-264.197977,-0.728668,62.316212
3.5158,0.012163,0.006068,0.001176,-0.00424,0.000777,-0.00489,0.012683,-0.504657,0.000851,0.417319,-264.199716,-0.688404,62.314153
3.5362,0.012139,0.005575,0.000436,-0.004231,0.000723,-0.00434,0.01275,-0.503995,0.00114,0.417319,-264.199716,-0.688404,62.314153
3.5564,0.012058,0.005726,0.001679,-0.00422,0.000679,-0.003957,0.01275,-0.503995,0.00114,0.417319,-264.199716,-0.688404,62.314153
3.5759,0.012073,0.005629,0.000722,-0.004209,0.000642,-0.003692,0.012751,-0.504243,0.001492,0.480414,-264.20147,-0.726076,62.312073
3.5961,0.011635,0.005561,-9.5e-05,-0.004203,0.000627,-0.003517,0.012606,-0.504292,0.001156,0.480414,-264.20147,-0.726076,62.312073
3.6158,0.011811,0.00538,0.001113,-0.004198,0.000615,-0.003394,0.011503,-0.504425,-0.000176,0.405415,-264.202617,-0.651078,62.310772
3.6361,0.012275,0.005953,0.000526,-0.004198,0.000616,-0.00322,0.012299,-0.504602,0.000998,0.405415,-264.202617,-0.651078,62.310772
3.6562,0.011827,0.005749,-0.000397,-0.004198,0.000618,-0.003098,0.012299,-0.504602,0.000998,0.405415,-264.202617,-0.651078,62.310772
3.6759,0.011732,0.005563,-0.000316,-0.004197,0.000619,-0.003013,0.011479,-0.504229,-0.000516,0.334385,-264.204091,-0.575981,62.309119
3.6964,0.012164,0.005403,0.000282,-0.004189,0.000574,-0.002174,0.0115,-0.504312,-0.000447,0.334385,-264.204091,-0.575981,62.309119
3.716,0.011654,0.005652,0.000351,-0.004179,0.000536,-0.001582,0.012184,-0.504579,0.000194,0.283017,-264.205711,-0.530026,62.307316
3.736,0.011777,0.006057,-0.000225,-0.004169,0.000522,-0.001591,0.011857,-0.504366,0.000334,0.283017,-264.205711,-0.530026,62.307316
3.756,0.011806,0.005686,0.000401,-0.004161,0.000509,-0.001594,0.011857,-0.504366,0.000334,0.283017,-264.205711,-0.530026,62.307316
3.7755,0.011925,0.00582,0.002018,-0.004155,0.000499,-0.001594,0.011953,-0.504307,0.000368,0.208046,-264.206285,-0.455055,62.30671
3.7956,0.011661,0.005346,-0.000488,-0.004147,0.000502,-0.001993,0.012357,-0.504253,0.001041,0.208046,-264.206285,-0.455055,62.30671
3.8157,0.011807,0.005441,-0.001021,-0.004142,0.000503,-0.002267,0.01132,-0.504642,-0.000528,0.133083,-264.207458,-0.380091,62.305473
3.8359,0.011439,0.005524,-0.00032,-0.004146,0.000491,-0.001383,0.011284,-0.504565,-0.000979,0.133083,-264.207458,-0.380091,62.305473
3.856,0.011438,0.005467,0.001874,-0.004148,0.000481,-0.000754,0.011284,-0.504565,-0.000979,0.133083,-264.207458,-0.380091,62.305473
3.8758,0.011129,0.005624,-0.002535,-0.004147,0.000472,-0.000307,0.012241,-0.504514,0.001791,0.207973,-264.208945,-0.427774,62.303875
3.8958,0.011558,0.005841,-0.00054,-0.004133,0.000454,-0.000526,0.011249,-0.504455,2.7e-05,0.207973,-264.208945,-0.427774,62.303875
3.9158,0.011447,0.005532,0.001173,-0.004122,0.00044,-0.000674,0.011271,-0.504157,-0.000545,0.132977,-264.209093,-0.352778,62.303725
3.9361,0.011348,0.005573,-0.00077,-0.004115,0.000454,-0.001344,0.011984,-0.504443,0.001037,0.132977,-264.209093,-0.352778,62.303725
3.9558,0.011356,0.005582,0.000136,-0.004112,0.000467,-0.001807,0.011984,-0.504443,0.001037,0.132977,-264.209093,-0.352778,62.303725
3.9755,0.011123,0.005688,-0.000211,-0.004112,0.000478,-0.002127,0.011338,-0.504408,0.000112,0.057642,-264.209933,-0.277443,62.302868
3.996,0.011226,0.005678,0.000177,-0.004108,0.000452,-0.001756,0.011199,-0.504368,-2e-05,0.057642,-264.209933,-0.277443,62.302868
4.0154,0.011575,0.005952,0.000538,-0.004103,0.000431,-0.001495,0.011242,-0.504313,0.000147,0.132308,-264.210866,-0.352109,62.301871
4.036,0.011291,0.006004,0.002098,-0.004094,0.000415,-0.001611,0.011791,-0.504072,0.000501,0.132308,-264.210866,-0.352109,62.301871
4.056,0.010782,0.006139,0.000445,-0.004087,0.000401,-0.001689,0.011791,-0.504072,0.000501,0.132308,-264.210866,-0.352109,62.301871
4.0754,0.011016,0.00554,0.000948,-0.004082,0.00039,-0.001742,0.010841,-0.503844,0.000384,0.116921,-264.212491,-0.316503,62.300172
4.0957,0.010947,0.005805,0.000366,-0.004065,0.00036,-0.001851,0.011101,-0.504104,0.000617,0.116921,-264.212491,-0.316503,62.300172
4.1156,0.010814,0.005644,0.001045,-0.004051,0.000334,-0.001925,0.01101,-0.504184,0.000313,0.163676,-264.214063,-0.342218,62.298525
4.136,0.010904,0.005944,-0.000267,-0.004047,0.000339,-0.002178,0.011313,-0.504341,0.000981,0.163676,-264.214063,-0.342218,62.298525
4.1563,0.010829,0.00562,0.000527,-0.004045,0.000343,-0.002352,0.011313,-0.504341,0.000981,0.163676,-264.214063,-0.342218,62.298525
4.1757,0.010917,0.005998,0.002315,-0.004043,0.000346,-0.002472,0.010934,-0.504367,0.000449,0.204834,-264.215666,-0.356872,62.296851
4.196,0.010788,0.006004,-0.000354,-0.004038,0.000343,-0.002677,0.011391,-0.504216,0.001203,0.204834,-264.215666,-0.356872,62.296851
4.2154,0.010831,0.005633,-0.000388,-0.004034,0.00034,-0.002818,0.0105,-0.503987,-0.00042,0.27969,-264.217075,-0.430247,62.295361
4.2358,0.010572,0.005848,-0.001014,-0.004034,0.000314,-0.002036,0.010616,-0.504332,-0.000394,0.27969,-264.217075,-0.430247,62.295361
4.2559,0.010635,0.006051,0.00043,-0.004032,0.000293,-0.001483,0.010616,-0.504332,-0.000394,0.27969,-264.217075,-0.430247,62.295361
4.276,0.010505,0.005904,-0.001017,-0.004029,0.000276,-0.001093,0.010697,-0.503936,0.00032,0.329978,-264.218666,-0.472389,62.29367
4.2959,0.010344,0.005963,-3.3e-05,-0.004007,0.000228,-0.000907,0.010389,-0.504,-0.000238,0.329978,-264.218666,-0.472389,62.29367
4.3157,0.010483,0.006032,-0.001054,-0.003987,0.000189,-0.000775,0.010307,-0.504036,-4.4e-05,0.254991,-264.218927,-0.397402,62.293404
4.3356,0.010606,0.005385,-0.000927,-0.003966,0.000138,-0.000309,0.009977,-0.503974,-0.000964,0.254991,-264.218927,-0.397402,62.293404
4.3557,0.010869,0.005743,-0.001699,-0.003945,9.7e-05,2.2e-05,0.009977,-0.503974,-0.000964,0.254991,-264.218927,-0.397402,62.293404
4.3756,0.010541,0.006111,-0.000607,-0.003927,6.2e-05,0.000256,0.009963,-0.504254,-0.001715,0.179984,-264.219314,-0.322395,62.293013
4.396,0.010718,0.006161,-0.000167,-0.00392,4.8e-05,0.000568,0.010068,-0.504105,-0.001266,0.179984,-264.219314,-0.322395,62.293013
4.4154,0.010411,0.005983,-0.00044,-0.003913,3.6e-05,0.000788,0.010625,-0.503839,-0.000169,0.104989,-264.219404,-0.2474,62.292922
4.4359,0.011169,0.00587,-0.001304,-0.003899,2.4e-05,0.000504,0.010224,-0.504001,-0.000417,0.104989,-264.219404,-0.2474,62.292922
4.4558,0.010622,0.005885,-0.000671,-0.003889,1.4e-05,0.00031,0.010224,-0.504001,-0.000417,0.104989,-264.219404,-0.2474,62.292922
4.4758,0.010318,0.005902,0.000212,-0.003881,6e-06,0.000178,0.010272,-0.504114,-0.000672,0.029857,-264.21948,-0.172268,62.292846
4.4958,0.010662,0.005849,-0.001297,-0.00388,1.2e-05,3e-05,0.010334,-0.504108,-0.000311,0.029857,-264.21948,-0.172268,62.292846
4.5164,0.010187,0.005564,-0.002658,-0.003881,1.7e-05,-7e-05,0.009939,-0.504146,-0.0013,-0.029508,-264.220257,-0.097397,62.29207
4.5357,0.010658,0.005997,-0.001217,-0.003863,-1.4e-05,0.000801,0.008948,-0.504403,-0.002511,-0.029508,-264.220257,-0.097397,62.29207
4.5559,0.010313,0.005766,-0.000947,-0.003848,-3.8e-05,0.001426,0.008948,-0.504403,-0.002511,-0.029508,-264.220257,-0.097397,62.29207
4.5759,0.009718,0.006457,-0.00067,-0.003835,-5.8e-05,0.001873,0.009688,-0.504233,-0.00095,0.006658,-264.221622,-0.022397,62.290705
4.596,0.01026,0.005957,0.001882,-0.003812,-8.7e-05,0.001456,0.009544,-0.503951,-0.000836,0.006658,-264.221622,-0.022397,62.290705
4.616,0.010234,0.005985,0.000491,-0.003795,-0.00011,0.001179,0.011214,-0.504042,0.001882,-0.068335,-264.221699,0.052596,62.290627
4.6359,0.010436,0.005897,-0.001259,-0.003797,-7.9e-05,0.000182,0.01055,-0.504017,0.000618,-0.068335,-264.221699,0.052596,62.290627
4.6558,0.010422,0.005955,0.000949,-0.003802,-5.3e-05,-0.000509,0.01055,-0.504017,0.000618,-0.068335,-264.221699,0.052596,62.290627
4.6758,0.009881,0.005546,-0.000975,-0.00381,-3e-05,-0.000988,0.010815,-0.504044,0.000969,-0.14327,-264.22258,0.127531,62.289737
4.6958,0.01032,0.005913,-0.001817,-0.003822,-1.1e-05,-0.001065,0.010219,-0.504212,0.000176,-0.14327,-264.22258,0.127531,62.289737
4.7157,0.010086,0.006164,-0.002353,-0.003833,4e-06,-0.001117,0.009385,-0.504086,-0.001816,-0.06821,-264.222676,0.05247,62.289641
4.736,0.01008,0.00621,-0.00061,-0.003801,-6.5e-05,-2.5e-05,0.008927,-0.503856,-0.002308,-0.06821,-264.222676,0.05247,62.289641
4.756,0.010051,0.006032,0.000496,-0.003774,-0.000122,0.000769,0.008927,-0.503856,-0.002308,-0.06821,-264.222676,0.05247,62.289641
4.776,0.010268,0.005964,-0.000562,-0.003751,-0.000168,0.001344,0.010278,-0.503968,0.000496,0.006995,-264.22293,-0.022734,62.289387
4.7956,0.009893,0.00571,-0.000517,-0.003755,-0.000143,0.000599,0.010154,-0.503996,6.6e-05,0.006995,-264.22293,-0.022734,62.289387
4.8158,0.010108,0.00595,-0.000934,-0.003761,-0.000123,9e-05,0.009608,-0.50429,-0.000515,-0.067837,-264.223184,0.052098,62.289128
4.8361,0.009982,0.005873,-0.001767,-0.003766,-0.000123,0.000277,0.009629,-0.50407,-0.000899,-0.067837,-264.223184,0.052098,62.289128
4.856,0.009955,0.005626,-0.000911,-0.00377,-0.000123,0.000413,0.009629,-0.50407,-0.000899,-0.067837,-264.223184,0.052098,62.289128
4.876,0.010022,0.005873,-0.001097,-0.003772,-0.000123,0.000511,0.009351,-0.504377,-0.000907,0.007302,-264.22452,0.047176,62.28779
4.8958,0.009841,0.006367,-0.000535,-0.003776,-0.000119,0.000627,0.009381,-0.504274,-0.000985,0.007302,-264.22452,0.047176,62.28779
4.9158,0.009811,0.005808,0.000534,-0.003779,-0.000116,0.00071,0.009462,-0.503637,-0.000521,-0.050022,-264.22585,0.115014,62.286454
4.9356,0.009902,0.005898,-0.000991,-0.00378,-9.5e-05,-2.7e-05,0.010023,-0.504143,0.000441,-0.050022,-264.22585,0.115014,62.286454
4.9559,0.009816,0.006034,0.000614,-0.003784,-7.7e-05,-0.00054,0.010023,-0.504143,0.000441,-0.050022,-264.22585,0.115014,62.286454
4.9769,0.009498,0.005576,-0.000941,-0.00379,-6.2e-05,-0.000897,0.009976,-0.50397,0.000642,-0.083904,-264.227318,0.144493,62.284976
4.9961,0.009376,0.005826,-0.001755,-0.003788,-6.9e-05,-0.000911,0.009583,-0.504148,2.6e-05,-0.083904,-264.227318,0.144493,62.284976
5.017,0.009399,0.005648,-0.000957,-0.003787,-7.6e-05,-0.00092,0.008467,-0.504174,-0.001754,-0.008938,-264.227496,0.069528,62.284798
5.0358,0.009409,0.005903,0.000304,-0.003782,-9.8e-05,-0.000372,0.008876,-0.504338,-0.001018,-0.008938,-264.227496,0.069528,62.284798
5.056,0.009492,0.005694,-2.6e-05,-0.003775,-0.000117,1.7e-05,0.008876,-0.504338,-0.001018,-0.008938,-264.227496,0.069528,62.284798
5.076,0.009019,0.005859,0.000848,-0.003768,-0.000133,0.000293,0.009427,-0.504307,-2.9e-05,0.06646,-264.227996,-0.005871,62.284302
5.096,0.009258,0.0059,-0.001218,-0.003762,-0.000126,-0.000264,0.009431,-0.504237,0.000339,0.06646,-264.227996,-0.005871,62.284302
5.1159,0.009385,0.006295,-0.00054,-0.003759,-0.00012,-0.00065,0.008541,-0.504103,-0.001212,-0.008521,-264.229196,0.069111,62.283098
5.1363,0.009356,0.005501,-0.001177,-0.003735,-0.000173,-0.000396,0.009055,-0.50374,-0.000598,-0.008521,-264.229196,0.069111,62.283098
5.1565,0.009309,0.005975,-0.001139,-0.003713,-0.000216,-0.000216,0.009055,-0.50374,-0.000598,-0.008521,-264.229196,0.069111,62.283098
5.1767,0.009345,0.006039,0.000216,-0.003695,-0.000252,-8.9e-05,0.008646,-0.504027,-0.001144,0.066193,-264.229975,-0.005603,62.282324
5.1958,0.008902,0.005703,-0.000516,-0.003686,-0.000267,2e-05,0.008945,-0.504002,-0.000627,0.066193,-264.229975,-0.005603,62.282324
5.2158,0.009094,0.005849,-0.000424,-0.003678,-0.00028,9.7e-05,0.008528,-0.504304,-0.000518,0.082606,-264.231371,0.053474,62.28093
5.2362,0.008852,0.00584,0.000221,-0.003673,-0.000283,4.5e-05,0.008841,-0.504165,-0.000433,0.082606,-264.231371,0.053474,62.28093
5.2559,0.009097,0.005663,-0.000294,-0.003668,-0.000286,1e-05,0.008841,-0.504165,-0.000433,0.082606,-264.231371,0.053474,62.28093
5.2756,0.008771,0.005844,-0.000196,-0.003665,-0.000288,-1.3e-05,0.008798,-0.504349,-0.00029,0.059824,-264.232805,0.091872,62.279493
5.2957,0.008455,0.005904,-0.000594,-0.00366,-0.000287,-0.000133,0.008728,-0.504269,-0.00025,0.059824,-264.232805,0.091872,62.279493
5.3159,0.008655,0.005972,0.000388,-0.003657,-0.000287,-0.000217,0.008037,-0.504105,-0.000595,0.080637,-264.234255,0.076287,62.278043
5.3359,0.008528,0.005476,-0.000794,-0.003641,-0.000301,-0.000595,0.008776,-0.504035,0.000303,0.080637,-264.234255,0.076287,62.278043
5.356,0.008693,0.005856,-0.000179,-0.003629,-0.000313,-0.00086,0.008776,-0.504035,0.000303,0.080637,-264.234255,0.076287,62.278043
5.376,0.008263,0.005934,0.00031,-0.00362,-0.000322,-0.001044,0.008454,-0.504155,-0.000188,0.114102,-264.235675,0.042239,62.276631
5.3962,0.008444,0.006221,2.9e-05,-0.003607,-0.000342,-0.00101,0.008423,-0.50412,1.6e-05,0.114102,-264.235675,0.042239,62.276631
5.416,0.008695,0.006026,-0.000615,-0.003596,-0.000358,-0.000987,0.008396,-0.503784,1.8e-05,0.189114,-264.236494,-0.032772,62.275837
5.4361,0.00856,0.005769,-0.000362,-0.003583,-0.000387,-0.000648,0.00838,-0.503958,-0.000563,0.189114,-264.236494,-0.032772,62.275837
5.4561,0.008286,0.005939,0.000179,-0.00357,-0.00041,-0.000409,0.00838,-0.503958,-0.000563,0.189114,-264.236494,-0.032772,62.275837
5.4759,0.008172,0.005796,-0.00063,-0.003559,-0.00043,-0.00024,0.008243,-0.504075,0.000142,0.261106,-264.237836,-0.067874,62.274537
5.496,0.008174,0.005899,-0.001056,-0.00354,-0.000449,-0.000339,0.008065,-0.504129,-0.00018,0.261106,-264.237836,-0.067874,62.274537
5.5161,0.008675,0.005608,-0.000277,-0.003526,-0.000464,-0.000406,0.007567,-0.504107,-0.001066,0.186188,-264.238702,0.007043,62.27368
5.5361,0.008361,0.005684,0.000753,-0.00354,-0.000438,-0.000351,0.008449,-0.504369,-0.000345,0.186188,-264.238702,0.007043,62.27368
5.5562,0.007896,0.006012,-0.00068,-0.003552,-0.000416,-0.000312,0.008449,-0.504369,-0.000345,0.186188,-264.238702,0.007043,62.27368
5.5758,0.008115,0.005683,-0.000103,-0.003562,-0.000398,-0.000285,0.007408,-0.504006,-0.000697,0.199306,-264.240067,0.061249,62.272339
5.596,0.00795,0.005703,0.001077,-0.003527,-0.000447,-0.000214,0.007656,-0.504134,-0.000459,0.199306,-264.240067,0.061249,62.272339
5.6159,0.007536,0.005794,-0.000658,-0.003498,-0.000486,-0.000164,0.008388,-0.504309,0.001068,0.159245,-264.241474,0.062894,62.270947
5.6363,0.008151,0.005664,-6.9e-05,-0.00346,-0.000532,-0.000107,0.007302,-0.504215,-0.000502,0.159245,-264.241474,0.062894,62.270947
5.6559,0.007726,0.006077,-0.000744,-0.003428,-0.000569,-6.6e-05,0.007302,-0.504215,-0.000502,0.159245,-264.241474,0.062894,62.270947
5.6755,0.007724,0.005375,-0.000964,-0.003401,-0.000599,-3.7e-05,0.007205,-0.503942,-0.000751,0.165951,-264.242842,0.109914,62.269589
5.6958,0.007928,0.005634,-0.00028,-0.003376,-0.000629,0.000164,0.0072,-0.504221,-0.000838,0.165951,-264.242842,0.109914,62.269589
5.7155,0.00745,0.005942,-0.001915,-0.003354,-0.000654,0.000306,0.007683,-0.504384,-0.000281,0.180746,-264.244148,0.168021,62.268286
5.7358,0.007333,0.005695,0.000268,-0.003297,-0.000721,0.000823,0.006576,-0.504088,-0.001769,0.180746,-264.244148,0.168021,62.268286
5.7556,0.007695,0.005927,-0.00061,-0.003249,-0.000775,0.001191,0.006576,-0.504088,-0.001769,0.180746,-264.244148,0.168021,62.268286
5.7757,0.007653,0.005522,-0.001125,-0.003207,-0.000819,0.001453,0.00726,-0.504097,-0.000599,0.13831,-264.245344,0.243017,62.267066
5.7962,0.007521,0.005869,0.000393,-0.003208,-0.000806,0.001188,0.007172,-0.504255,-0.000812,0.13831,-264.245344,0.243017,62.267066
5.8156,0.007331,0.006059,-0.000567,-0.003209,-0.000794,0.001008,0.007694,-0.504136,0.000399,0.063301,-264.245664,0.318027,62.266703
5.8358,0.007097,0.005784,0.000329,-0.00319,-0.000813,0.000702,0.007096,-0.503958,-0.000484,0.063301,-264.245664,0.318027,62.266703
5.8562,0.007127,0.005783,0.000618,-0.003175,-0.000829,0.000492,0.007096,-0.503958,-0.000484,0.063301,-264.245664,0.318027,62.266703
5.8762,0.007049,0.005517,-7.7e-05,-0.003163,-0.000841,0.000349,0.007325,-0.504244,0.000652,0.055509,-264.24677,0.393142,62.265496
5.896,0.007069,0.005322,0.000218,-0.003172,-0.000811,-0.000232,0.007185,-0.504343,0.000364,0.055509,-264.24677,0.393142,62.265496
5.9158,0.006909,0.005441,-0.000791,-0.003182,-0.000786,-0.000636,0.007112,-0.504693,0.000229,0.130394,-264.247637,0.321684,62.2646
5.9359,0.006893,0.005593,-0.001349,-0.003177,-0.000787,-0.000324,0.006554,-0.504571,-0.000703,0.130394,-264.247637,0.321684,62.2646
5.9561,0.007076,0.00552,-0.000279,-0.003172,-0.000787,-0.000103,0.006554,-0.504571,-0.000703,0.130394,-264.247637,0.321684,62.2646
5.9761,0.006635,0.005755,2.3e-05,-0.003167,-0.000787,5.3e-05,0.006901,-0.504487,-0.000278,0.205516,-264.247961,0.246562,62.264294
5.9956,0.006813,0.005658,-0.0014,-0.003161,-0.000787,-0.000143,0.006793,-0.504388,-0.000154,0.205516,-264.247961,0.246562,62.264294
6.0156,0.006731,0.005857,-0.000386,-0.003157,-0.000787,-0.000278,0.006,-0.504366,-0.001398,0.234026,-264.249242,0.253102,62.263006
6.0356,0.006694,0.005689,0.000773,-0.003126,-0.000828,-0.000196,0.00648,-0.504164,-0.000478,0.234026,-264.249242,0.253102,62.263006
6.0557,0.007134,0.005592,-0.000117,-0.003099,-0.00086,-0.000137,0.00648,-0.504164,-0.000478,0.234026,-264.249242,0.253102,62.263006
6.076,0.006647,0.00502,-0.001,-0.003077,-0.000886,-9.5e-05,0.006957,-0.504437,-0.000128,0.294397,-264.250418,0.193095,62.26186
6.0957,0.006703,0.005526,-0.000458,-0.003094,-0.000854,-5.2e-05,0.006609,-0.504662,-0.000485,0.294397,-264.250418,0.193095,62.26186
6.1158,0.006573,0.005184,8e-05,-0.003108,-0.000827,-2.2e-05,0.006379,-0.5045,-0.000461,0.297692,-264.251608,0.263044,62.260682
6.1359,0.00667,0.005456,0.000485,-0.003121,-0.000793,-0.000294,0.006588,-0.504789,3.1e-05,0.297692,-264.251608,0.263044,62.260682
6.1563,0.006779,0.005486,-0.000603,-0.003132,-0.000766,-0.000485,0.006588,-0.504789,3.1e-05,0.297692,-264.251608,0.263044,62.260682
6.1756,0.006103,0.005418,-0.001401,-0.003142,-0.000743,-0.000618,0.006344,-0.504548,-0.000603,0.264143,-264.252873,0.256168,62.259419
6.1962,0.006089,0.005142,0.00023,-0.003103,-0.00079,-0.000203,0.005939,-0.504566,-0.00093,0.264143,-264.252873,0.256168,62.259419
6.2154,0.00664,0.005045,0.000915,-0.003068,-0.000828,9.1e-05,0.00614,-0.504876,0.000221,0.339233,-264.253754,0.181077,62.258585
6.2357,0.00619,0.005342,-0.002356,-0.00311,-0.000748,-0.000675,0.007016,-0.504949,0.000852,0.339233,-264.253754,0.181077,62.258585
6.2556,0.006423,0.00537,-0.000489,-0.003148,-0.000682,-0.001212,0.007016,-0.504949,0.000852,0.339233,-264.253754,0.181077,62.258585
6.2758,0.00595,0.005342,0.000573,-0.003182,-0.000628,-0.001589,0.006078,-0.504656,-0.00049,0.264303,-264.254695,0.256008,62.257634
6.2955,0.005814,0.005726,-0.001766,-0.003152,-0.000674,-0.001351,0.006133,-0.50466,-6e-05,0.264303,-264.254695,0.256008,62.257634
6.3156,0.006545,0.005319,0.000771,-0.003127,-0.000711,-0.001185,0.004907,-0.504275,-0.001767,0.339272,-264.254781,0.181039,62.257557
6.3359,0.005909,0.005533,0.00031,-0.003137,-0.000699,-0.001403,0.006752,-0.504644,0.000539,0.339272,-264.254781,0.181039,62.257557
6.3557,0.006058,0.005534,0.001485,-0.003147,-0.000689,-0.001556,0.006752,-0.504644,0.000539,0.339272,-264.254781,0.181039,62.257557
6.3758,0.005967,0.005729,-0.000658,-0.003156,-0.000682,-0.001662,0.006749,-0.504484,0.001467,0.414278,-264.255475,0.106032,62.256927
6.3956,0.005992,0.005429,-0.001083,-0.003121,-0.000728,-0.001779,0.006285,-0.504399,0.000597,0.414278,-264.255475,0.106032,62.256927
6.4156,0.005669,0.00554,0.000103,-0.003092,-0.000766,-0.00186,0.005395,-0.504583,-0.001102,0.489277,-264.256107,0.031034,62.256366
6.4357,0.006252,0.005345,-0.001548,-0.003035,-0.000832,-0.001582,0.005691,-0.504471,-3e-06,0.489277,-264.256107,0.031034,62.256366
6.4558,0.005993,0.005222,-0.001368,-0.002986,-0.000885,-0.001386,0.005691,-0.504471,-3e-06,0.489277,-264.256107,0.031034,62.256366
6.4759,0.006055,0.005418,-0.001269,-0.002945,-0.000927,-0.001247,0.00521,-0.504801,-0.001414,0.551411,-264.257062,-0.044134,62.255547
6.4959,0.005793,0.005092,0.000741,-0.002898,-0.000966,-0.000468,0.005284,-0.504711,-0.001358,0.551411,-264.257062,-0.044134,62.255547
6.5163,0.005622,0.00547,-0.002133,-0.002858,-0.000997,9.2e-05,0.006093,-0.504932,0.000706,0.520629,-264.258196,0.031241,62.254562
6.5361,0.005545,0.004958,-0.001944,-0.002752,-0.001079,0.0007,0.004659,-0.504563,-0.001901,0.520629,-264.258196,0.031241,62.254562
6.5557,0.005901,0.005278,0.000968,-0.002664,-0.001144,0.00114,0.004659,-0.504563,-0.001901,0.520629,-264.258196,0.031241,62.254562
6.5765,0.005713,0.00538,-0.001974,-0.00259,-0.001195,0.001457,0.006383,-0.504725,0.000965,0.445938,-264.25831,0.105931,62.254446
6.5958,0.005788,0.005467,-0.000259,-0.00262,-0.001149,0.000865,0.0057,-0.504683,-0.00023,0.445938,-264.25831,0.105931,62.254446
6.6155,0.006022,0.005342,-0.001476,-0.002648,-0.001112,0.000461,0.005656,-0.504533,-0.000259,0.371174,-264.258311,0.180695,62.254445
6.6357,0.006072,0.005587,-0.001735,-0.002648,-0.001114,0.000775,0.005302,-0.504647,-0.001371,0.371174,-264.258311,0.180695,62.254445
6.6557,0.00561,0.005248,-0.000566,-0.002646,-0.001115,0.000999,0.005302,-0.504647,-0.001371,0.371174,-264.258311,0.180695,62.254445
6.6758,0.005559,0.005092,-0.000512,-0.002644,-0.001116,0.001158,0.005297,-0.504758,-0.000567,0.303995,-264.258541,0.255811,62.254197
6.6958,0.005834,0.005082,-0.001692,-0.002646,-0.0011,0.000844,0.005294,-0.504821,-0.000544,0.303995,-264.258541,0.255811,62.254197
6.7161,0.006008,0.005285,-0.001292,-0.002648,-0.001087,0.000629,0.004963,-0.50492,-0.001691,0.228917,-264.258644,0.330889,62.254074
6.7362,0.005717,0.005288,-0.002977,-0.002655,-0.001083,0.000884,0.005314,-0.504733,-0.001327,0.228917,-264.258644,0.330889,62.254074
6.7558,0.005539,0.005317,-0.001658,-0.002659,-0.001079,0.001063,0.005314,-0.504733,-0.001327,0.228917,-264.258644,0.330889,62.254074
6.7759,0.005578,0.00514,-0.000491,-0.002662,-0.001077,0.001189,0.004625,-0.504706,-0.001648,0.259535,-264.259299,0.405824,62.25335
6.796,0.005793,0.005106,-0.000252,-0.002626,-0.001101,0.001195,0.004905,-0.504772,-0.001173,0.259535,-264.259299,0.405824,62.25335
6.816,0.005897,0.005111,-0.00177,-0.002597,-0.00112,0.0012,0.005627,-0.504907,-0.000241,0.184488,-264.259759,0.480871,62.252798
6.8359,0.00598,0.005295,-0.00117,-0.002597,-0.00111,0.001423,0.005049,-0.504891,-0.001632,0.184488,-264.259759,0.480871,62.252798
6.856,0.005836,0.005446,0.000226,-0.002597,-0.001103,0.00158,0.005049,-0.504891,-0.001632,0.184488,-264.259759,0.480871,62.252798
6.8759,0.005521,0.005318,-0.001652,-0.002595,-0.001097,0.001689,0.005871,-0.504585,0.000258,0.147768,-264.260513,0.555709,62.251882
6.8961,0.005692,0.005084,-0.000747,-0.002598,-0.001096,0.001196,0.00538,-0.504627,-0.000511,0.147768,-264.260513,0.555709,62.251882
6.9157,0.005287,0.005199,-0.001506,-0.002602,-0.001095,0.000857,0.005261,-0.504936,-0.000719,0.072775,-264.261132,0.630701,62.251082
6.9367,0.005308,0.005097,0.00023,-0.002549,-0.001134,0.00108,0.004584,-0.504814,-0.001433,0.072775,-264.261132,0.630701,62.251082
6.9563,0.005394,0.005003,-0.000497,-0.002503,-0.001164,0.001239,0.004584,-0.504814,-0.001433,0.072775,-264.261132,0.630701,62.251082
6.9758,0.005348,0.004848,-0.001616,-0.002466,-0.001188,0.001352,0.005068,-0.505025,-0.000469,0.147807,-264.261836,0.556428,62.250272
6.9958,0.00543,0.004859,0.000219,-0.002473,-0.001159,0.0012,0.004834,-0.50508,-0.000943,0.147807,-264.261836,0.556428,62.250272
7.0154,0.005211,0.005132,-0.001295,-0.002479,-0.001136,0.001097,0.00548,-0.505168,0.000249,0.145827,-264.262597,0.63178,62.2493
7.0357,0.005262,0.004624,0.000794,-0.002454,-0.001153,0.001127,0.004631,-0.504896,-0.001155,0.145827,-264.262597,0.63178,62.2493
7.0556,0.005192,0.00476,-0.001356,-0.002433,-0.001165,0.001149,0.004631,-0.504896,-0.001155,0.145827,-264.262597,0.63178,62.2493
7.0754,0.005088,0.004784,0.000654,-0.002416,-0.001175,0.001166,0.004399,-0.505286,-0.001312,0.186019,-264.263581,0.629671,62.248104
7.0956,0.004888,0.004526,-0.000542,-0.002435,-0.001129,0.000841,0.004804,-0.505263,-0.000505,0.186019,-264.263581,0.629671,62.248104
7.1155,0.004992,0.004475,0.000393,-0.002452,-0.001092,0.000616,0.004534,-0.505511,-0.000506,0.188214,-264.264564,0.654569,62.246887
7.1358,0.004585,0.004423,-6.3e-05,-0.002506,-0.001003,-4e-06,0.005134,-0.505526,0.00032,0.188214,-264.264564,0.654569,62.246887
7.1562,0.004884,0.005031,-3.9e-05,-0.002552,-0.000933,-0.000438,0.005134,-0.505526,0.00032,0.188214,-264.264564,0.654569,62.246887
7.1759,0.004911,0.004649,-0.000266,-0.002592,-0.000877,-0.000742,0.004793,-0.505002,-1.8e-05,0.263376,-264.265279,0.579407,62.246086
7.1958,0.004715,0.005126,0.000316,-0.002571,-0.000907,-0.000715,0.004777,-0.505152,-0.000119,0.263376,-264.265279,0.579407,62.246086
7.2158,0.004553,0.00505,-0.000947,-0.002554,-0.00093,-0.000697,0.004874,-0.504875,0.000316,0.338609,-264.265311,0.504174,62.246057
7.2358,0.004951,0.005141,0.000456,-0.00246,-0.001019,-0.000315,0.004139,-0.504943,-0.000838,0.338609,-264.265311,0.504174,62.246057
7.2559,0.004721,0.005002,0.000526,-0.002383,-0.00109,-4.2e-05,0.004139,-0.504943,-0.000838,0.338609,-264.265311,0.504174,62.246057
7.276,0.004933,0.004837,-0.000889,-0.002318,-0.001145,0.000155,0.004973,-0.505005,0.000525,0.413303,-264.265481,0.429479,62.245904
7.2961,0.004674,0.004932,-0.000777,-0.002337,-0.001126,-0.000125,0.004771,-0.50507,-4.8e-05,0.413303,-264.265481,0.429479,62.245904
7.3159,0.004451,0.005212,-0.00132,-0.002354,-0.001111,-0.000319,0.004209,-0.505102,-0.000772,0.425691,-264.266438,0.491192,62.244916
7.3358,0.005057,0.004868,0.00051,-0.002249,-0.001198,0.000159,0.003811,-0.504816,-0.001272,0.425691,-264.266438,0.491192,62.244916
7.3558,0.004706,0.00496,0.001506,-0.002162,-0.001266,0.000502,0.003811,-0.504816,-0.001272,0.425691,-264.266438,0.491192,62.244916
7.3759,0.004479,0.004807,-0.000483,-0.00209,-0.00132,0.000749,0.005405,-0.505074,0.0015,0.500807,-264.267207,0.416076,62.244195
7.3961,0.004771,0.004662,0.000397,-0.002158,-0.001244,-0.000121,0.004919,-0.505126,0.000691,0.500807,-264.267207,0.416076,62.244195
7.4161,0.004604,0.004874,-0.001188,-0.002217,-0.001183,-0.00073,0.004958,-0.505345,0.000399,0.425914,-264.2674,0.490968,62.24396
7.436,0.004477,0.004589,0.000521,-0.002193,-0.0012,-0.000219,0.004079,-0.505144,-0.001052,0.425914,-264.2674,0.490968,62.24396
7.456,0.004814,0.004976,0.000527,-0.00217,-0.001213,0.000146,0.004079,-0.505144,-0.001052,0.425914,-264.2674,0.490968,62.24396
7.476,0.004524,0.005002,0.001237,-0.00215,-0.001224,0.000405,0.005053,-0.505039,0.000523,0.501037,-264.267744,0.415845,62.243668
7.4959,0.004593,0.004467,-0.000862,-0.002217,-0.001165,-0.000424,0.005091,-0.505024,0.000813,0.501037,-264.267744,0.415845,62.243668
7.5164,0.004274,0.004971,-0.000111,-0.002276,-0.001118,-0.001007,0.004116,-0.505552,-0.000859,0.426165,-264.268245,0.490717,62.243116
7.5358,0.004623,0.004766,-8.8e-05,-0.002247,-0.001146,-0.000868,0.004206,-0.505082,-0.000184,0.426165,-264.268245,0.490717,62.243116
7.5559,0.00462,0.004539,-0.000659,-0.002223,-0.001168,-0.000769,0.004206,-0.505082,-0.000184,0.426165,-264.268245,0.490717,62.243116
7.576,0.004617,0.004458,-0.000221,-0.002203,-0.001185,-0.000698,0.004271,-0.505467,-0.000661,0.501256,-264.268396,0.415626,62.242992
7.5956,0.004101,0.004494,0.001625,-0.002234,-0.001135,-0.000471,0.004365,-0.505498,-0.00048,0.501256,-264.268396,0.415626,62.242992
7.6158,0.004169,0.004763,0.000229,-0.002258,-0.001096,-0.000312,0.004881,-0.50553,0.001612,0.57631,-264.269137,0.340572,62.24236
7.6358,0.004234,0.004337,-0.000183,-0.002252,-0.001093,-0.000682,0.004337,-0.505265,0.000353,0.57631,-264.269137,0.340572,62.24236
7.6556,0.004429,0.004721,-0.00228,-0.002249,-0.001091,-0.00094,0.004337,-0.505265,0.000353,0.57631,-264.269137,0.340572,62.24236
7.6757,0.004279,0.004532,-3.6e-05,-0.002247,-0.001089,-0.00112,0.003179,-0.50532,-0.002292,0.517679,-264.270097,0.381229,62.241462
7.696,0.00448,0.004612,0.000186,-0.002172,-0.001129,-0.000371,0.003615,-0.505386,-0.001364,0.517679,-264.270097,0.381229,62.241462
7.716,0.00427,0.004596,-0.000652,-0.002109,-0.001159,0.000167,0.004549,-0.505401,0.000178,0.592793,-264.270506,0.306115,62.241135
7.736,0.00447,0.00496,-0.001344,-0.002101,-0.001153,0.000176,0.003989,-0.505405,-0.000581,0.592793,-264.270506,0.306115,62.241135
7.756,0.004268,0.004882,0.001481,-0.002094,-0.001148,0.000185,0.003989,-0.505405,-0.000581,0.592793,-264.270506,0.306115,62.241135
7.7759,0.00424,0.004064,-0.000721,-0.002089,-0.001144,0.000193,0.004994,-0.505132,0.001478,0.517781,-264.270808,0.381126,62.240821
7.7957,0.004123,0.004564,-0.001127,-0.002142,-0.001087,-0.000451,0.004537,-0.505459,0.000588,0.517781,-264.270808,0.381126,62.240821
7.8156,0.004285,0.004425,-0.000101,-0.002187,-0.001043,-0.000902,0.003506,-0.505457,-0.001126,0.456514,-264.271383,0.456003,62.240218
7.8358,0.004587,0.004637,-0.001043,-0.002198,-0.001026,-0.000781,0.004169,-0.505566,-0.000188,0.456514,-264.271383,0.456003,62.240218
7.8559,0.003533,0.004309,-0.000157,-0.002207,-0.001012,-0.000697,0.004169,-0.505566,-0.000188,0.456514,-264.271383,0.456003,62.240218
7.8759,0.004342,0.004801,-0.000881,-0.002213,-0.001001,-0.000638,0.003429,-0.505702,-0.000162,0.531645,-264.271657,0.380872,62.239991
7.8959,0.004005,0.00424,0.00107,-0.00215,-0.001041,-0.000463,0.003616,-0.505497,-0.000457,0.531645,-264.271657,0.380872,62.239991
7.916,0.004294,0.00446,0.000372,-0.002098,-0.001072,-0.000338,0.004494,-0.505786,0.001055,0.561037,-264.272502,0.305859,62.239248
7.9359,0.003984,0.004461,0.00049,-0.002152,-0.001019,-0.000732,0.004482,-0.505563,0.000431,0.561037,-264.272502,0.305859,62.239248
7.9561,0.004153,0.004153,0.000859,-0.002199,-0.000979,-0.001009,0.004482,-0.505563,0.000431,0.561037,-264.272502,0.305859,62.239248
7.9759,0.004351,0.004641,-0.002205,-0.002237,-0.000947,-0.001204,0.004513,-0.505886,0.000845,0.547147,-264.273372,0.380838,62.238445
7.9955,0.003916,0.004335,0.000249,-0.002224,-0.00095,-0.000886,0.003984,-0.505677,-0.00039,0.547147,-264.273372,0.380838,62.238445
8.0157,0.003846,0.004317,-0.001267,-0.002211,-0.000952,-0.000662,0.004027,-0.505674,0.000243,0.622029,-264.273626,0.305956,62.238241
8.0358,0.004088,0.004192,0.000241,-0.002102,-0.001006,-0.000153,0.003274,-0.505682,-0.001131,0.622029,-264.273626,0.305956,62.238241
8.0559,0.004016,0.004249,0.000142,-0.002012,-0.001047,0.000212,0.003274,-0.505682,-0.001131,0.622029,-264.273626,0.305956,62.238241
8.076,0.004274,0.004653,0.000385,-0.001938,-0.001078,0.000475,0.004008,-0.505785,0.000118,0.55024,-264.274523,0.242849,62.237453
8.0957,0.00389,0.004427,0.001685,-0.001987,-0.001038,-5.3e-05,0.004187,-0.505611,0.000224,0.55024,-264.274523,0.242849,62.237453
8.1155,0.003679,0.004277,0.000459,-0.002029,-0.001007,-0.000421,0.004745,-0.505574,0.001684,0.475213,-264.274579,0.317877,62.237389
8.1355,0.003857,0.004243,0.001261,-0.002043,-0.000985,-0.000877,0.003984,-0.50571,0.000564,0.475213,-264.274579,0.317877,62.237389
8.1559,0.003755,0.00455,0.000306,-0.002056,-0.000968,-0.001196,0.003984,-0.50571,0.000564,0.475213,-264.274579,0.317877,62.237389
8.176,0.003868,0.004707,-0.00042,-0.002069,-0.000955,-0.001418,0.003837,-0.505486,0.000291,0.550322,-264.275418,0.354056,62.23663
8.1958,0.003708,0.004375,0.000648,-0.002037,-0.001002,-0.001261,0.003754,-0.505412,1e-06,0.550322,-264.275418,0.354056,62.23663
8.2157,0.003687,0.00434,0.001115,-0.00201,-0.00104,-0.001151,0.00403,-0.505629,0.000645,0.625192,-264.27556,0.279186,62.236523
8.2359,0.004002,0.004677,-0.000665,-0.002054,-0.000996,-0.001658,0.004235,-0.505658,0.001073,0.625192,-264.27556,0.279186,62.236523
8.2563,0.003378,0.004185,-2.5e-05,-0.002091,-0.000963,-0.002013,0.004235,-0.505658,0.001073,0.625192,-264.27556,0.279186,62.236523
8.2765,0.003366,0.004634,-0.000603,-0.002123,-0.000936,-0.002262,0.003305,-0.505847,-5.7e-05,0.700214,-264.276324,0.204164,62.235939
8.2962,0.003703,0.004287,-0.000764,-0.002016,-0.001002,-0.001715,0.003199,-0.505658,-0.000279,0.700214,-264.276324,0.204164,62.235939
8.3158,0.003821,0.004133,-0.001877,-0.001929,-0.001051,-0.001327,0.00331,-0.505715,-0.000766,0.775195,-264.276384,0.129183,62.235897
8.3361,0.003594,0.004197,0.000697,-0.001823,-0.00108,-0.000369,0.002903,-0.505853,-0.001779,0.775195,-264.276384,0.129183,62.235897
8.3562,0.003638,0.004405,9.7e-05,-0.001737,-0.001101,0.000326,0.002903,-0.505853,-0.001779,0.775195,-264.276384,0.129183,62.235897
8.3761,0.003694,0.004091,0.000278,-0.001666,-0.001116,0.000829,0.003607,-0.505639,4.2e-05,0.767758,-264.277454,0.124236,62.235121
8.3962,0.003417,0.004447,-0.000978,-0.001708,-0.001082,0.000233,0.003689,-0.505751,0.000129,0.767758,-264.277454,0.124236,62.235121
8.4161,0.003599,0.004213,-0.000686,-0.001744,-0.001057,-0.000179,0.002918,-0.505553,-0.000978,0.692796,-264.277454,0.199197,62.235121
8.4358,0.004123,0.004199,-0.000668,-0.001724,-0.001069,-4e-06,0.003221,-0.505767,-0.000711,0.692796,-264.277454,0.199197,62.235121
8.4558,0.003318,0.004442,-0.001588,-0.001707,-0.001079,0.000122,0.003221,-0.505767,-0.000711,0.692796,-264.277454,0.199197,62.235121
8.4761,0.00371,0.004097,-0.000779,-0.001692,-0.001086,0.000214,0.002493,-0.505565,-0.001593,0.617685,-264.277621,0.274308,62.234964
8.4957,0.003933,0.004195,7.9e-05,-0.001615,-0.001128,0.000539,0.002825,-0.505703,-0.001262,0.617685,-264.277621,0.274308,62.234964
8.5153,0.003583,0.004478,-0.003007,-0.001551,-0.001161,0.000773,0.003966,-0.505808,7.8e-05,0.542706,-264.27771,0.349287,62.234868
8.5355,0.003534,0.004052,-0.000193,-0.001378,-0.001239,0.001475,0.002214,-0.505545,-0.002741,0.542706,-264.27771,0.349287,62.234868
8.5557,0.003223,0.004091,-0.00094,-0.00124,-0.001299,0.001985,0.002214,-0.505545,-0.002741,0.542706,-264.27771,0.349287,62.234868
8.5759,0.003366,0.004161,-0.00061,-0.001128,-0.001346,0.002353,0.002742,-0.50591,-0.00094,0.467699,-264.277725,0.424294,62.234848
8.5961,0.003901,0.004172,-0.001262,-0.001163,-0.001298,0.0018,0.002867,-0.505881,-0.000808,0.467699,-264.277725,0.424294,62.234848
8.6156,0.003516,0.004075,0.000813,-0.001194,-0.001261,0.001426,0.003257,-0.505827,-0.001262,0.392681,-264.277725,0.499313,62.234848
8.6356,0.003244,0.003739,0.000177,-0.001354,-0.001143,0.000389,0.003873,-0.505916,0.000637,0.392681,-264.277725,0.499313,62.234848
8.656,0.003829,0.003957,-0.000155,-0.001489,-0.001053,-0.000335,0.003873,-0.505916,0.000637,0.392681,-264.277725,0.499313,62.234848
8.6755,0.003726,0.004204,-0.000835,-0.001602,-0.000984,-0.000843,0.003749,-0.506043,-0.000155,0.31766,-264.277727,0.574333,62.234843
8.6962,0.003553,0.004044,-0.000375,-0.001668,-0.000956,-0.000597,0.003566,-0.505942,-0.000433,0.31766,-264.277727,0.574333,62.234843
8.7157,0.003458,0.004222,-0.000238,-0.00172,-0.000935,-0.000426,0.003361,-0.505957,-0.000375,0.392661,-264.277737,0.499333,62.234836
8.7355,0.004125,0.004205,-0.00033,-0.001718,-0.000959,-0.000419,0.003339,-0.505794,-0.00025,0.392661,-264.277737,0.499333,62.234836
8.7557,0.003694,0.004436,-0.001617,-0.001717,-0.000978,-0.000414,0.003339,-0.505794,-0.00025,0.392661,-264.277737,0.499333,62.234836
8.776,0.003834,0.004474,-0.001346,-0.001716,-0.000993,-0.000409,0.002842,-0.505576,-0.001619,0.467524,-264.278047,0.42447,62.234562
8.7958,0.003847,0.004144,-0.00021,-0.001652,-0.001061,0.000204,0.002963,-0.505557,-0.001509,0.467524,-264.278047,0.42447,62.234562
8.8159,0.003641,0.004243,0.000527,-0.001598,-0.001114,0.000644,0.003702,-0.505876,-0.000216,0.542544,-264.278609,0.408516,62.234066
8.836,0.003727,0.004334,-0.001085,-0.001684,-0.001055,-6.5e-05,0.00389,-0.505768,0.00046,0.542544,-264.278609,0.408516,62.234066
8.8559,0.003442,0.004613,-0.00065,-0.001757,-0.00101,-0.00056,0.00389,-0.505768,0.00046,0.542544,-264.278609,0.408516,62.234066
8.876,0.003881,0.004133,-0.000179,-0.001819,-0.000976,-0.000907,0.003103,-0.505391,-0.000649,0.467569,-264.278687,0.483491,62.233969
8.8959,0.003553,0.004166,-0.000821,-0.001799,-0.001018,-0.000646,0.003384,-0.505587,-0.000456,0.467569,-264.278687,0.483491,62.233969
8.9161,0.00323,0.004416,-0.001136,-0.001782,-0.001051,-0.000462,0.003125,-0.505839,-0.000823,0.5427,-264.278826,0.40836,62.23386
8.9362,0.003123,0.004001,0.000966,-0.001659,-0.001122,-2.4e-05,0.002693,-0.505607,-0.001108,0.5427,-264.278826,0.40836,62.23386
8.9555,0.003705,0.004024,0.001228,-0.001559,-0.001178,0.000291,0.002693,-0.505607,-0.001108,0.5427,-264.278826,0.40836,62.23386
8.9757,0.003468,0.004451,-2e-05,-0.001477,-0.001221,0.00052,0.004266,-0.506012,0.001212,0.617575,-264.279585,0.407358,62.233197
8.9957,0.003246,0.003981,-0.00104,-0.001592,-0.001126,-0.000279,0.00393,-0.505828,0.000708,0.617575,-264.279585,0.407358,62.233197
9.0159,0.003412,0.004324,-0.000984,-0.00169,-0.001052,-0.000839,0.002712,-0.506021,-0.00104,0.548959,-264.279632,0.48235,62.233139
9.0362,0.003281,0.004041,-0.000829,-0.001626,-0.001096,-0.000336,0.002893,-0.505707,-0.000989,0.548959,-264.279632,0.48235,62.233139
9.056,0.003478,0.004279,-0.001754,-0.001573,-0.00113,2.4e-05,0.002893,-0.505707,-0.000989,0.548959,-264.279632,0.48235,62.233139
9.076,0.00338,0.004108,0.0006,-0.001529,-0.001156,0.000281,0.002559,-0.505734,-0.001761,0.623963,-264.279935,0.407346,62.232906
9.0958,0.003522,0.004025,-0.000762,-0.001517,-0.001156,0.000379,0.003012,-0.505799,-0.000809,0.623963,-264.279935,0.407346,62.232906
9.1153,0.003204,0.004267,2.5e-05,-0.001506,-0.001155,0.000451,0.003122,-0.505981,-0.000762,0.571929,-264.280084,0.482351,62.23274
9.1355,0.003706,0.004018,7e-06,-0.001519,-0.001145,7.9e-05,0.003208,-0.505754,-4.1e-05,0.571929,-264.280084,0.482351,62.23274
9.1557,0.003165,0.003684,-0.001952,-0.001531,-0.001137,-0.000179,0.003208,-0.505754,-4.1e-05,0.571929,-264.280084,0.482351,62.23274
9.1759,0.003516,0.003989,-0.001285,-0.001542,-0.001132,-0.000359,0.00215,-0.506326,-0.00195,0.528672,-264.280281,0.557525,62.232505
9.1963,0.003715,0.004034,-0.001114,-0.001453,-0.001116,0.0003,0.002457,-0.506191,-0.001661,0.528672,-264.280281,0.557525,62.232505
9.2157,0.003475,0.00423,-0.001038,-0.00138,-0.001102,0.000774,0.003118,-0.505984,-0.001118,0.604385,-264.280728,0.534426,62.232115
9.2361,0.003789,0.003936,-0.000611,-0.001386,-0.001113,0.000848,0.00296,-0.50579,-0.001046,0.604385,-264.280728,0.534426,62.232115
9.2558,0.00321,0.003994,0.000136,-0.00139,-0.001123,0.000901,0.00296,-0.50579,-0.001046,0.604385,-264.280728,0.534426,62.232115
9.2759,0.003467,0.003684,-0.001048,-0.001393,-0.00113,0.00094,0.003271,-0.506011,0.000137,0.530246,-264.2808,0.608566,62.232016
9.2955,0.002962,0.004173,-0.000755,-0.001437,-0.001073,0.0006,0.003132,-0.506136,-0.000347,0.530246,-264.2808,0.608566,62.232016
9.3155,0.00317,0.004357,0.000696,-0.001474,-0.001028,0.000364,0.002567,-0.505833,-0.000752,0.45516,-264.28092,0.683652,62.23184
9.3357,0.003193,0.00382,-0.001479,-0.001515,-0.001034,-0.000321,0.00344,-0.50566,0.000569,0.45516,-264.28092,0.683652,62.23184
9.3558,0.003097,0.004255,-0.00092,-0.001552,-0.001039,-0.000802,0.00344,-0.50566,0.000569,0.45516,-264.28092,0.683652,62.23184
9.376,0.002813,0.003877,-0.000697,-0.001584,-0.001045,-0.00114,0.002568,-0.505786,-0.000906,0.499963,-264.281566,0.703277,62.231096
9.3957,0.003233,0.003762,-0.001546,-0.001483,-0.001085,-0.000639,0.002516,-0.505927,-0.00082,0.499963,-264.281566,0.703277,62.231096
9.4157,0.003153,0.004055,-0.000783,-0.001401,-0.001115,-0.000281,0.002444,-0.506238,-0.001546,0.574916,-264.281569,0.628324,62.231093
9.4358,0.00339,0.003978,-0.000381,-0.001375,-0.001116,1e-06,0.002727,-0.50597,-0.00085,0.574916,-264.281569,0.628324,62.231093
9.4558,0.003362,0.004045,-0.000239,-0.001353,-0.001116,0.000202,0.002727,-0.50597,-0.00085,0.574916,-264.281569,0.628324,62.231093
9.4761,0.003267,0.00427,-0.001512,-0.001335,-0.001117,0.000345,0.003202,-0.505982,-0.000243,0.650004,-264.282043,0.59266,62.230673
9.4956,0.003077,0.003912,-0.000422,-0.001346,-0.001115,0.000404,0.002913,-0.505884,-0.000755,0.650004,-264.282043,0.59266,62.230673
9.5158,0.003003,0.003764,0.001237,-0.001355,-0.001114,0.000447,0.002838,-0.506106,-0.000418,0.59615,-264.282387,0.667654,62.230271
9.5359,0.00318,0.003956,-0.002741,-0.001462,-0.001006,-0.000522,0.003561,-0.506225,0.001089,0.59615,-264.282387,0.667654,62.230271
9.5558,0.00312,0.004,-0.0002,-0.001553,-0.000923,-0.001208,0.003561,-0.506225,0.001089,0.59615,-264.282387,0.667654,62.230271
9.5765,0.003084,0.004142,-0.000543,-0.00163,-0.000858,-0.001693,0.002975,-0.506033,-0.000188,0.555755,-264.282862,0.742576,62.229694
9.5961,0.003159,0.003606,-0.000175,-0.00159,-0.000904,-0.001268,0.002902,-0.505966,-0.000331,0.555755,-264.282862,0.742576,62.229694
9.6156,0.003103,0.003971,7.5e-05,-0.001557,-0.000939,-0.000969,0.00307,-0.506394,-0.000175,0.630751,-264.282862,0.667579,62.229694
9.6358,0.003048,0.004125,0.000108,-0.001569,-0.000934,-0.000968,0.003136,-0.506057,5.6e-05,0.630751,-264.282862,0.667579,62.229694
9.6559,0.003252,0.003797,-0.00077,-0.001579,-0.000931,-0.000968,0.003136,-0.506057,5.6e-05,0.630751,-264.282862,0.667579,62.229694
9.6755,0.002902,0.003997,-0.001224,-0.001587,-0.000928,-0.000968,0.002857,-0.506204,-0.000771,0.706144,-264.282884,0.592186,62.229678
9.6955,0.002733,0.003894,-0.000769,-0.001515,-0.000954,-0.000445,0.002619,-0.506121,-0.000957,0.706144,-264.282884,0.592186,62.229678
9.7156,0.002969,0.004046,-0.00113,-0.001456,-0.000974,-7.1e-05,0.002337,-0.506109,-0.00077,0.763473,-264.282959,0.517439,62.229622
9.7355,0.003124,0.003813,-0.001193,-0.001355,-0.001027,0.000253,0.002388,-0.505967,-0.001098,0.763473,-264.282959,0.517439,62.229622
9.7558,0.002827,0.003952,0.00167,-0.001273,-0.001067,0.000487,0.002388,-0.505967,-0.001098,0.763473,-264.282959,0.517439,62.229622
9.7757,0.002936,0.003405,-0.001728,-0.001206,-0.001098,0.000656,0.00364,-0.506075,0.001666,0.688519,-264.283426,0.568913,62.229168
9.7958,0.003121,0.003892,-0.001148,-0.001267,-0.001026,4.4e-05,0.002987,-0.506291,0.000277,0.688519,-264.283426,0.568913,62.229168
9.8155,0.002784,0.003898,-0.000624,-0.001318,-0.00097,-0.000382,0.002531,-0.506111,-0.001147,0.613463,-264.283491,0.643969,62.229078
9.8357,0.003098,0.003994,0.00023,-0.001266,-0.000997,-0.000168,0.002471,-0.506103,-0.000672,0.613463,-264.283491,0.643969,62.229078
9.8556,0.003063,0.003707,0.000196,-0.001223,-0.001017,-1.5e-05,0.002471,-0.506103,-0.000672,0.613463,-264.283491,0.643969,62.229078
9.8755,0.003087,0.003855,-0.000419,-0.001188,-0.001033,9.5e-05,0.003131,-0.506316,0.000189,0.688317,-264.283905,0.569115,62.228728
9.8956,0.0033,0.004197,0.000352,-0.001259,-0.000979,-0.000143,0.003021,-0.506248,-6.3e-05,0.688317,-264.283905,0.569115,62.228728
9.9157,0.00301,0.003786,-5.3e-05,-0.001317,-0.000939,-0.000312,0.003455,-0.505822,0.000352,0.687159,-264.284284,0.644253,62.228331
9.9356,0.003264,0.003573,-0.00093,-0.001361,-0.000918,-0.000457,0.003023,-0.506181,-1.8e-05,0.687159,-264.284284,0.644253,62.228331
9.9556,0.002506,0.003779,-0.000498,-0.001397,-0.000903,-0.00056,0.003023,-0.506181,-1.8e-05,0.687159,-264.284284,0.644253,62.228331
9.9756,0.002899,0.004065,-0.00149,-0.001426,-0.000892,-0.000634,0.002211,-0.506252,-0.000506,0.708605,-264.284814,0.56928,62.227868
9.9954,0.002986,0.00374,-0.001681,-0.001294,-0.000951,-0.000241,0.002177,-0.506126,-0.000909,0.708605,-264.284814,0.56928,62.227868
10.0154,0.00283,0.00382,0.000615,-0.001188,-0.000997,4.1e-05,0.00211,-0.506273,-0.001688,0.731083,-264.285139,0.494354,62.227611
10.0356,0.002801,0.003788,-0.000837,-0.001257,-0.000956,-0.000458,0.003053,-0.506188,0.000414,0.731083,-264.285139,0.494354,62.227611
10.0556,0.002749,0.00356,-0.000315,-0.001315,-0.000925,-0.000809,0.003053,-0.506188,0.000414,0.731083,-264.285139,0.494354,62.227611
10.0754,0.002733,0.003617,0.000157,-0.001362,-0.000902,-0.001054,0.002565,-0.506458,-0.000317,0.685492,-264.285419,0.569401,62.227326
10.0957,0.002981,0.00365,-0.001631,-0.001352,-0.000877,-0.000931,0.002663,-0.506429,-0.000124,0.685492,-264.285419,0.569401,62.227326
10.1157,0.002673,0.003909,0.000264,-0.001344,-0.000857,-0.000844,0.002147,-0.506351,-0.001632,0.760398,-264.285468,0.494495,62.227293
10.1359,0.002728,0.003858,-0.000482,-0.001332,-0.000884,-0.000905,0.002746,-0.506116,8.7e-05,0.760398,-264.285468,0.494495,62.227293
10.1568,0.002822,0.003718,-0.001175,-0.001323,-0.000905,-0.000948,0.002746,-0.506116,8.7e-05,0.760398,-264.285468,0.494495,62.227293
10.1759,0.002678,0.003757,-0.001665,-0.001316,-0.000922,-0.000977,0.002202,-0.506297,-0.001186,0.796109,-264.285751,0.419486,62.227088
10.1956,0.002785,0.003487,0.000965,-0.001192,-0.000956,-0.000277,0.002056,-0.506277,-0.001372,0.796109,-264.285751,0.419486,62.227088
10.2158,0.003105,0.003662,-8.8e-05,-0.001091,-0.000981,0.000227,0.003254,-0.506531,0.00095,0.856551,-264.286208,0.344487,62.22678
10.2355,0.002835,0.003407,-0.001077,-0.001193,-0.000912,-9.1e-05,0.003076,-0.506356,4e-06,0.856551,-264.286208,0.344487,62.22678
10.2559,0.002388,0.003247,0.001021,-0.001277,-0.00086,-0.000314,0.003076,-0.506356,4e-06,0.856551,-264.286208,0.344487,62.22678
10.2758,0.003006,0.003566,-0.000477,-0.001345,-0.000821,-0.000471,0.002908,-0.506754,0.001021,0.781545,-264.286218,0.419494,62.226769
10.2965,0.002821,0.00371,-0.000382,-0.001375,-0.000763,-0.00082,0.002848,-0.506622,0.000406,0.781545,-264.286218,0.419494,62.226769
10.3155,0.002894,0.003541,0.000943,-0.001399,-0.000717,-0.001063,0.00259,-0.506313,-0.000396,0.706451,-264.286809,0.377446,62.226278
10.3357,0.002661,0.003612,-0.000218,-0.00148,-0.000673,-0.001452,0.003301,-0.506447,0.00082,0.706451,-264.286809,0.377446,62.226278
10.3557,0.002742,0.003621,-0.001564,-0.001547,-0.00064,-0.001727,0.003301,-0.506447,0.00082,0.706451,-264.286809,0.377446,62.226278
10.3754,0.002852,0.003467,-0.001491,-0.001602,-0.000616,-0.001922,0.001936,-0.506385,-0.001569,0.773265,-264.286933,0.302539,62.226189
10.3955,0.002873,0.003825,-0.001905,-0.001411,-0.000692,-0.000912,0.001998,-0.506446,-0.001538,0.773265,-264.286933,0.302539,62.226189
10.4157,0.002736,0.003808,-0.000764,-0.00126,-0.00075,-0.000178,0.001901,-0.506174,-0.001905,0.840852,-264.286934,0.227528,62.226188
10.4357,0.00286,0.003867,-0.000275,-0.001189,-0.000815,5.7e-05,0.002306,-0.50619,-0.000868,0.840852,-264.286934,0.227528,62.226188
10.4562,0.002771,0.003708,-0.000593,-0.001131,-0.000865,0.000229,0.002306,-0.50619,-0.000868,0.840852,-264.286934,0.227528,62.226188
10.4758,0.002616,0.003764,0.000961,-0.001085,-0.000905,0.000355,0.002461,-0.506296,-0.000596,0.765877,-264.287025,0.302503,62.226104
10.496,0.003143,0.003673,-0.000633,-0.001125,-0.000892,-4.9e-05,0.00273,-0.506271,5.5e-05,0.765877,-264.287025,0.302503,62.226104
10.5158,0.002764,0.003387,0.001185,-0.001158,-0.000883,-0.000329,0.00282,-0.506327,-0.000633,0.690525,-264.287029,0.377855,62.226099
10.5358,0.00284,0.003391,-0.001454,-0.00129,-0.000773,-0.001035,0.003318,-0.506586,0.001018,0.690525,-264.287029,0.377855,62.226099
10.5562,0.003115,0.003716,-0.000496,-0.001399,-0.000689,-0.001534,0.003318,-0.506586,0.001018,0.690525,-264.287029,0.377855,62.226099
10.5771,0.002818,0.003614,-0.000385,-0.001489,-0.000625,-0.001886,0.00283,-0.506306,-0.000507,0.752337,-264.287437,0.452513,62.225754
10.5959,0.002525,0.003854,0.000373,-0.001469,-0.000667,-0.001336,0.002745,-0.50634,-0.000461,0.752337,-264.287437,0.452513,62.225754
10.6159,0.002869,0.003661,-6.4e-05,-0.00145,-0.0007,-0.000949,0.002715,-0.506146,0.000373,0.827342,-264.287437,0.377508,62.225754
10.6357,0.002253,0.003514,0.000914,-0.001444,-0.000722,-0.000917,0.002826,-0.506322,-2.5e-05,0.827342,-264.287437,0.377508,62.225754
10.656,0.002672,0.00374,-0.001028,-0.001439,-0.000739,-0.000894,0.002826,-0.506322,-2.5e-05,0.827342,-264.287437,0.377508,62.225754
10.6757,0.002982,0.003532,0.000377,-0.001435,-0.000753,-0.000878,0.002135,-0.506267,-0.001035,0.752326,-264.287596,0.302492,62.225634
10.6962,0.00283,0.003307,-0.002197,-0.001387,-0.00078,-0.000629,0.002553,-0.506349,-0.000466,0.752326,-264.287596,0.302492,62.225634
10.7159,0.002675,0.003431,-0.001214,-0.001348,-0.000801,-0.000451,0.001679,-0.506709,-0.002214,0.731665,-264.288123,0.227405,62.225238
10.7362,0.002745,0.003486,-0.00112,-0.00122,-0.000812,6.8e-05,0.002022,-0.506581,-0.0013,0.731665,-264.288123,0.227405,62.225238
10.7562,0.002779,0.003511,-0.000966,-0.001118,-0.00082,0.000443,0.002022,-0.506581,-0.0013,0.731665,-264.288123,0.227405,62.225238
10.776,0.002479,0.003433,-0.002115,-0.001035,-0.000824,0.000713,0.002247,-0.506511,-0.000981,0.673844,-264.288591,0.302436,62.224845
10.7956,0.002698,0.00309,-0.001058,-0.00094,-0.000841,0.000963,0.001904,-0.506535,-0.001436,0.673844,-264.288591,0.302436,62.224845
10.8157,0.002922,0.003776,-0.000594,-0.000864,-0.000853,0.001144,0.002158,-0.50691,-0.001058,0.598906,-264.288591,0.377374,62.224844
10.8356,0.002433,0.003499,-0.000548,-0.000923,-0.000856,0.000896,0.002578,-0.506286,-0.000636,0.598906,-264.288591,0.377374,62.224844
10.8564,0.002629,0.003436,3.8e-05,-0.000971,-0.000861,0.000725,0.002578,-0.506286,-0.000636,0.598906,-264.288591,0.377374,62.224844
10.8756,0.002763,0.003601,-0.001383,-0.00101,-0.000865,0.000606,0.002648,-0.506564,3.8e-05,0.523982,-264.288591,0.452298,62.224844
10.896,0.002419,0.003661,0.001303,-0.001019,-0.000849,0.000472,0.002403,-0.506495,-0.000551,0.523982,-264.288591,0.452298,62.224844
10.9156,0.002453,0.003631,-0.000194,-0.001026,-0.000836,0.000379,0.003082,-0.50634,0.001304,0.455988,-264.28861,0.527812,62.224818
10.9361,0.002709,0.003425,-0.001909,-0.001025,-0.000845,3.5e-05,0.002419,-0.506366,-6e-05,0.455988,-264.28861,0.527812,62.224818
10.9563,0.003025,0.003427,-0.001183,-0.001025,-0.000852,-0.000204,0.002419,-0.506366,-6e-05,0.455988,-264.28861,0.527812,62.224818
10.9757,0.003097,0.003675,-0.001019,-0.001026,-0.000858,-0.000371,0.00241,-0.506581,-0.001181,0.530486,-264.288736,0.60231,62.224661
10.9962,0.002512,0.003382,-0.000732,-0.001054,-0.000841,7.8e-05,0.002479,-0.506473,-0.001112,0.530486,-264.288736,0.60231,62.224661
11.0162,0.002775,0.003483,0.000302,-0.001075,-0.000828,0.000395,0.002129,-0.506624,-0.000734,0.606101,-264.288891,0.551801,62.224536
11.0363,0.002576,0.003356,-0.000262,-0.00115,-0.000778,-9.2e-05,0.002855,-0.506527,0.000206,0.606101,-264.288891,0.551801,62.224536
11.0566,0.002324,0.003473,-0.000789,-0.001212,-0.000741,-0.000433,0.002855,-0.506527,0.000206,0.606101,-264.288891,0.551801,62.224536
11.0758,0.002346,0.003342,0.001737,-0.001264,-0.000712,-0.000672,0.001904,-0.506538,-0.000785,0.531729,-264.289064,0.626173,62.224322
11.0959,0.002763,0.003754,-0.000967,-0.001227,-0.000714,-0.000854,0.002419,-0.506585,0.000196,0.531729,-264.289064,0.626173,62.224322
11.1154,0.002404,0.003233,-0.001894,-0.001199,-0.000714,-0.00098,0.002268,-0.506247,-0.000967,0.606718,-264.289093,0.551183,62.2243
11.1359,0.002635,0.003569,7.1e-05,-0.000982,-0.000745,-0.000124,0.001514,-0.506718,-0.00181,0.606718,-264.289093,0.551183,62.2243
11.1564,0.002698,0.003224,-2.1e-05,-0.000812,-0.000767,0.000499,0.001514,-0.506718,-0.00181,0.606718,-264.289093,0.551183,62.2243
11.1758,0.002633,0.004001,-0.000714,-0.000677,-0.000782,0.000951,0.002687,-0.506777,-2.2e-05,0.681731,-264.289104,0.476171,62.224293
11.1962,0.002735,0.003098,-0.001665,-0.000766,-0.00077,0.000571,0.002517,-0.506461,-0.000303,0.681731,-264.289104,0.476171,62.224293
11.2154,0.002735,0.003362,0.000174,-0.000839,-0.000764,0.000308,0.001886,-0.506902,-0.001665,0.606708,-264.289104,0.551194,62.224293
11.2363,0.002589,0.003725,-0.001712,-0.000947,-0.000707,-3.9e-05,0.002738,-0.506662,6e-06,0.606708,-264.289104,0.551194,62.224293
11.2558,0.002472,0.003676,-0.000168,-0.001035,-0.000666,-0.000283,0.002738,-0.506662,6e-06,0.606708,-264.289104,0.551194,62.224293
11.276,0.002273,0.003776,-0.000847,-0.001107,-0.000634,-0.000454,0.002377,-0.506331,-0.000166,0.601609,-264.2892,0.626167,62.224172
11.2961,0.002575,0.003368,-0.000376,-0.001037,-0.000716,-0.00035,0.002158,-0.506288,-0.000443,0.601609,-264.2892,0.626167,62.224172
11.3157,0.002751,0.003799,-0.001804,-0.000981,-0.00078,-0.000274,0.002377,-0.506637,-0.000378,0.676606,-264.289302,0.55117,62.224089
11.336,0.002524,0.003707,0.000556,-0.000882,-0.000852,0.000357,0.00188,-0.506239,-0.001675,0.676606,-264.289302,0.55117,62.224089
11.3559,0.002482,0.003501,-5e-05,-0.000802,-0.000907,0.000812,0.00188,-0.506239,-0.001675,0.676606,-264.289302,0.55117,62.224089
11.3759,0.00244,0.003567,-0.00152,-0.000737,-0.00095,0.001139,0.002421,-0.506527,-6e-05,0.751613,-264.289779,0.558055,62.223685
11.3958,0.002222,0.003455,-0.001605,-0.000737,-0.000931,0.000885,0.002109,-0.506492,-0.000655,0.751613,-264.289779,0.558055,62.223685
11.4154,0.002366,0.003626,-0.001005,-0.000739,-0.000917,0.000714,0.001404,-0.506544,-0.001605,0.676621,-264.289779,0.633047,62.223685
11.4355,0.002145,0.003674,0.000424,-0.000674,-0.000941,0.000795,0.001814,-0.506388,-0.001058,0.676621,-264.289779,0.633047,62.223685
11.4559,0.002429,0.003678,-0.001125,-0.000622,-0.00096,0.000855,0.001814,-0.506388,-0.001058,0.676621,-264.289779,0.633047,62.223685
11.4757,0.002731,0.003415,0.000636,-0.000581,-0.000974,0.000901,0.001854,-0.506323,-0.001125,0.601566,-264.289792,0.708102,62.223663
11.4959,0.002332,0.003387,-0.000655,-0.000655,-0.000942,0.000614,0.002337,-0.506428,-0.000416,0.601566,-264.289792,0.708102,62.223663
11.5156,0.002492,0.00314,0.000143,-0.000716,-0.000918,0.000414,0.001998,-0.506613,-0.000654,0.630024,-264.289796,0.783043,62.223653
11.5356,0.002953,0.00328,-0.000529,-0.000816,-0.000812,9e-06,0.002513,-0.506837,7e-05,0.630024,-264.289796,0.783043,62.223653
11.5557,0.002379,0.003211,-0.001172,-0.000898,-0.000731,-0.000276,0.002513,-0.506837,7e-05,0.630024,-264.289796,0.783043,62.223653
11.5755,0.002614,0.003493,-3.9e-05,-0.000964,-0.000669,-0.000479,0.00177,-0.5068,-0.001167,0.705036,-264.28992,0.858055,62.223479
11.596,0.002688,0.00303,-0.001662,-0.000932,-0.000681,-0.000209,0.002103,-0.506682,-0.000709,0.705036,-264.28992,0.858055,62.223479
11.6156,0.002184,0.003385,-0.001784,-0.000906,-0.000689,-1.9e-05,0.00184,-0.50697,-0.001662,0.78005,-264.289929,0.783041,62.223472
11.6359,0.002441,0.003336,0.002034,-0.000699,-0.000743,0.000563,0.001326,-0.506646,-0.001773,0.78005,-264.289929,0.783041,62.223472
11.6559,0.00226,0.003365,0.000411,-0.000536,-0.000783,0.000985,0.001326,-0.506646,-0.001773,0.78005,-264.289929,0.783041,62.223472
11.6756,0.002445,0.00344,0.000465,-0.000406,-0.000813,0.00129,0.002449,-0.506653,0.000411,0.705076,-264.290192,0.708066,62.223212
11.6962,0.002336,0.003081,-0.001688,-0.000552,-0.000759,0.000401,0.002541,-0.506617,0.000433,0.705076,-264.290192,0.708066,62.223212
11.7159,0.00237,0.003545,-0.000684,-0.000673,-0.000719,-0.000221,0.001475,-0.506918,-0.001688,0.630076,-264.290192,0.783066,62.223212
11.7359,0.002163,0.003121,-0.000117,-0.000662,-0.000756,-2e-06,0.001971,-0.506497,-0.000776,0.630076,-264.290192,0.783066,62.223212
11.756,0.002438,0.00335,-0.002275,-0.000652,-0.000784,0.000155,0.001971,-0.506497,-0.000776,0.630076,-264.290192,0.783066,62.223212
11.7757,0.002345,0.002983,-0.001559,-0.000644,-0.000807,0.000267,0.001269,-0.506656,-0.002276,0.705077,-264.290313,0.714928,62.223114
11.7963,0.002686,0.003597,-0.00053,-0.000511,-0.000803,0.000865,0.001382,-0.506803,-0.001985,0.705077,-264.290313,0.714928,62.223114
11.8158,0.002466,0.003505,-0.001689,-0.000406,-0.000798,0.001295,0.002409,-0.50641,-0.000529,0.780075,-264.290413,0.789927,62.222985
11.8356,0.002657,0.003569,-0.00124,-0.000382,-0.000832,0.00145,0.001675,-0.506487,-0.001587,0.780075,-264.290413,0.789927,62.222985
11.8557,0.002489,0.003158,-0.00028,-0.000362,-0.000859,0.001561,0.001675,-0.506487,-0.001587,0.780075,-264.290413,0.789927,62.222985
11.8761,0.002251,0.003703,-0.000295,-0.000346,-0.00088,0.001641,0.002346,-0.506842,-0.00028,0.705029,-264.290413,0.864973,62.222985
11.896,0.002558,0.003392,-9.2e-05,-0.000452,-0.000835,0.001047,0.002246,-0.50662,-0.000286,0.705029,-264.290413,0.864973,62.222985
11.9154,0.002404,0.003308,0.001164,-0.00054,-0.000803,0.000637,0.002511,-0.506608,-9.2e-05,0.630075,-264.290413,0.939927,62.222985
11.9356,0.002221,0.003851,4.2e-05,-0.000728,-0.000708,-0.000363,0.002954,-0.506684,0.001051,0.630075,-264.290413,0.939927,62.222985
11.9562,0.00238,0.0032,0.00025,-0.000885,-0.000637,-0.001072,0.002954,-0.506684,0.001051,0.630075,-264.290413,0.939927,62.222985
11.9762,0.002009,0.00344,-0.001279,-0.001015,-0.000585,-0.001575,0.002494,-0.506816,0.000262,0.653813,-264.29055,1.014972,62.222722
11.9959,0.002773,0.003376,0.001181,-0.000956,-0.000615,-0.001178,0.00203,-0.506714,-0.000364,0.653813,-264.29055,1.014972,62.222722
12.0156,0.002381,0.003032,-0.000338,-0.000909,-0.000637,-0.000897,0.003375,-0.506624,0.001181,0.728773,-264.29055,0.940012,62.222722
12.036,0.002642,0.003138,-0.000772,-0.000943,-0.00059,-0.000771,0.002313,-0.506937,-0.000202,0.728773,-264.29055,0.940012,62.222722
12.0557,0.002735,0.003301,-0.001197,-0.000969,-0.000554,-0.000684,0.002313,-0.506937,-0.000202,0.728773,-264.29055,0.940012,62.222722
12.076,0.002154,0.003466,-0.001515,-0.000989,-0.000526,-0.000623,0.002125,-0.506699,-0.001197,0.803774,-264.29055,0.86501,62.222722
12.0961,0.002136,0.003037,-0.001041,-0.00089,-0.000592,-4e-05,0.001825,-0.506632,-0.001325,0.803774,-264.29055,0.86501,62.222722
12.1161,0.002819,0.003433,-0.001555,-0.00081,-0.000642,0.000379,0.001605,-0.506962,-0.001041,0.742225,-264.29055,0.790014,62.222722
12.136,0.00263,0.003105,-0.001295,-0.000783,-0.000675,0.000768,0.001988,-0.506602,-0.001509,0.742225,-264.29055,0.790014,62.222722
12.156,0.002148,0.00331,-0.001815,-0.00076,-0.0007,0.001046,0.001988,-0.506602,-0.001509,0.742225,-264.29055,0.790014,62.222722
12.1761,0.002251,0.003123,-0.001265,-0.000741,-0.000721,0.001244,0.001213,-0.506698,-0.001811,0.667224,-264.290657,0.822867,62.222582
12.1961,0.002335,0.003428,-0.000952,-0.00058,-0.000743,0.001393,0.001372,-0.506771,-0.001589,0.667224,-264.290657,0.822867,62.222582
12.216,0.00247,0.003309,0.001002,-0.000454,-0.000759,0.001503,0.00185,-0.506572,-0.000952,0.592222,-264.290657,0.897869,62.222582
12.236,0.002472,0.003389,-0.000664,-0.000646,-0.000678,0.000352,0.002879,-0.50668,0.000827,0.592222,-264.290657,0.897869,62.222582
12.2556,0.002763,0.003412,0.000611,-0.000806,-0.000617,-0.00046,0.002879,-0.50668,0.000827,0.592222,-264.290657,0.897869,62.222582
12.276,0.002986,0.00349,0.000686,-0.000939,-0.000573,-0.001034,0.003075,-0.506588,0.000611,0.517222,-264.290657,0.972869,62.222582
12.2959,0.002401,0.003346,-0.000539,-0.001091,-0.000539,-0.001326,0.003181,-0.506556,0.000641,0.517222,-264.290657,0.972869,62.222582
12.3157,0.002238,0.003699,-0.001133,-0.001216,-0.000515,-0.001535,0.002126,-0.506654,-0.000539,0.592221,-264.290657,0.89787,62.222582
12.3355,0.002485,0.003066,-0.001612,-0.001029,-0.000639,-0.000827,0.001704,-0.506334,-0.001077,0.592221,-264.290657,0.89787,62.222582
12.3556,0.002735,0.003552,-0.000573,-0.00088,-0.000736,-0.000316,0.001704,-0.506334,-0.001077,0.592221,-264.290657,0.89787,62.222582
12.3757,0.002257,0.003101,-0.000429,-0.000761,-0.000811,5.3e-05,0.002442,-0.506448,-0.000573,0.667218,-264.290657,0.822873,62.222582
12.3963,0.002379,0.003654,-0.000192,-0.000801,-0.000784,6e-05,0.002278,-0.506631,-0.000515,0.667218,-264.290657,0.822873,62.222582
12.4155,0.002493,0.003234,-0.0022,-0.000833,-0.000764,6.8e-05,0.002262,-0.506365,-0.00019,0.742215,-264.290988,0.837279,62.222237
12.436,0.002339,0.003359,-0.000679,-0.000676,-0.00078,0.000726,0.001447,-0.506731,-0.002025,0.742215,-264.290988,0.837279,62.222237
12.4563,0.002284,0.003379,-0.000942,-0.000551,-0.000791,0.001203,0.001447,-0.506731,-0.002025,0.742215,-264.290988,0.837279,62.222237
12.4759,0.002041,0.003234,-0.000184,-0.000452,-0.000797,0.001548,0.001771,-0.50665,-0.00094,0.714438,-264.291391,0.768417,62.221813
12.4956,0.002565,0.003227,-0.000883,-0.000457,-0.000787,0.001149,0.001839,-0.5067,-0.000633,0.714438,-264.291391,0.768417,62.221813
12.5158,0.0025,0.003454,-0.00066,-0.000462,-0.000779,0.000878,0.002114,-0.506772,-0.000883,0.639525,-264.291391,0.84333,62.221813
12.5357,0.002168,0.003338,-0.001008,-0.000532,-0.000774,0.000734,0.002159,-0.506566,-0.00068,0.639525,-264.291391,0.84333,62.221813
12.5559,0.002313,0.003064,-0.001739,-0.000588,-0.000771,0.000634,0.002159,-0.506566,-0.00068,0.639525,-264.291391,0.84333,62.221813
12.5759,0.002426,0.003291,-0.000985,-0.000634,-0.000771,0.000566,0.001425,-0.506937,-0.001738,0.564406,-264.291403,0.918448,62.221781
12.5957,0.002562,0.003274,-0.000794,-0.000566,-0.000755,0.000866,0.001632,-0.506843,-0.001425,0.564406,-264.291403,0.918448,62.221781
12.6157,0.002231,0.002775,0.00026,-0.000512,-0.000742,0.001081,0.002142,-0.506744,-0.000781,0.591287,-264.291626,0.993663,62.221406
12.6356,0.0022,0.003304,-0.001656,-0.000633,-0.000611,0.000412,0.002343,-0.507183,0.000168,0.591287,-264.291626,0.993663,62.221406
12.6558,0.002121,0.003378,-0.000562,-0.000731,-0.00051,-5.5e-05,0.002343,-0.507183,0.000168,0.591287,-264.291626,0.993663,62.221406
12.6758,0.002677,0.00334,-0.002223,-0.000811,-0.000433,-0.000383,0.001833,-0.506623,-0.000562,0.516634,-264.29163,1.068316,62.221394
12.6958,0.002336,0.002879,-0.000884,-0.000722,-0.000521,9.2e-05,0.001717,-0.506637,-0.00123,0.516634,-264.29163,1.068316,62.221394
12.7155,0.001855,0.003106,-6.4e-05,-0.00065,-0.00059,0.000432,0.001886,-0.507121,-0.000884,0.591634,-264.29163,0.993316,62.221394
12.7359,0.002632,0.003018,-0.000746,-0.00062,-0.000587,0.000101,0.001828,-0.506914,-0.000137,0.591634,-264.29163,0.993316,62.221394
12.7561,0.002085,0.003207,-0.001669,-0.000598,-0.000584,-0.000126,0.001828,-0.506914,-0.000137,0.591634,-264.29163,0.993316,62.221394
12.776,0.002192,0.003348,-0.002049,-0.000582,-0.000581,-0.000283,0.001215,-0.50681,-0.001657,0.516631,-264.291838,0.920264,62.221088
12.7958,0.002208,0.003598,-0.002473,-0.000411,-0.000642,0.000393,0.001184,-0.506745,-0.001821,0.516631,-264.291838,0.920264,62.221088
12.8159,0.002259,0.003191,0.000882,-0.000275,-0.000688,0.000883,0.000946,-0.506401,-0.002473,0.592173,-264.291844,0.844722,62.221083
12.8358,0.002206,0.00307,0.000429,-0.000457,-0.000626,3e-05,0.002561,-0.506775,0.000601,0.592173,-264.291844,0.844722,62.221083
12.8559,0.002307,0.003393,-0.001395,-0.000607,-0.00058,-0.000569,0.002561,-0.506775,0.000601,0.592173,-264.291844,0.844722,62.221083
12.8757,0.002285,0.002922,-0.001295,-0.00073,-0.000548,-0.000991,0.001595,-0.506607,-0.001395,0.517536,-264.291846,0.919358,62.221077
12.8955,0.002505,0.003256,-0.0008,-0.000638,-0.000587,-0.000296,0.001607,-0.506807,-0.001352,0.517536,-264.291846,0.919358,62.221077
12.9158,0.001996,0.003366,0.000988,-0.000564,-0.000617,0.000204,0.002098,-0.506744,-0.0008,0.592866,-264.291846,0.844029,62.221077
12.9357,0.002181,0.0031,4.8e-05,-0.000664,-0.000607,-0.00058,0.002463,-0.506644,0.000825,0.592866,-264.291846,0.844029,62.221077
12.9559,0.001995,0.003387,-0.002372,-0.000748,-0.000601,-0.001132,0.002463,-0.506644,0.000825,0.592866,-264.291846,0.844029,62.221077
12.9762,0.002104,0.003057,-0.000961,-0.000819,-0.000598,-0.001519,0.000768,-0.506629,-0.002365,0.667398,-264.292058,0.91856,62.220812
12.9957,0.002559,0.003121,0.000245,-0.000575,-0.000657,-0.000535,0.001112,-0.506759,-0.001791,0.667398,-264.292058,0.91856,62.220812
13.016,0.002175,0.00303,0.000828,-0.000383,-0.000701,0.000183,0.002684,-0.506879,0.000245,0.742396,-264.292058,0.843562,62.220812
13.0357,0.002624,0.003289,-0.000152,-0.000563,-0.000598,-0.00056,0.002606,-0.506962,0.000774,0.742396,-264.292058,0.843562,62.220812
13.0559,0.002456,0.003063,-0.001776,-0.00071,-0.000521,-0.001082,0.002606,-0.506962,0.000774,0.742396,-264.292058,0.843562,62.220812
13.0758,0.002016,0.00351,-0.001478,-0.000831,-0.000463,-0.001448,0.001548,-0.506939,-0.001776,0.817362,-264.292085,0.918527,62.220778
13.096,0.002292,0.002906,-0.000871,-0.000671,-0.000537,-0.000524,0.001432,-0.506757,-0.001655,0.817362,-264.292085,0.918527,62.220778
13.1156,0.002293,0.00303,-0.000473,-0.000544,-0.000594,0.000148,0.001847,-0.507093,-0.000871,0.892396,-264.292085,0.843494,62.220778
13.1363,0.002223,0.003397,-0.00253,-0.00059,-0.00056,0.000115,0.002034,-0.506981,-0.000508,0.892396,-264.292085,0.843494,62.220778
13.1561,0.002205,0.0031,-0.000576,-0.000627,-0.000535,9.5e-05,0.002034,-0.506981,-0.000508,0.892396,-264.292085,0.843494,62.220778
13.1756,0.002016,0.003117,-0.000169,-0.000656,-0.000515,8.4e-05,0.001896,-0.506917,-0.000573,0.817402,-264.292285,0.899319,62.220542
13.1962,0.002502,0.00322,0.000603,-0.000647,-0.000525,1.4e-05,0.001908,-0.506905,-0.000407,0.817402,-264.292285,0.899319,62.220542
13.2158,0.002447,0.00337,-0.001337,-0.00064,-0.000532,-3.3e-05,0.002803,-0.506786,0.000603,0.74241,-264.29238,0.824327,62.220439
13.2357,0.002203,0.00311,-0.000323,-0.000619,-0.000587,0.000323,0.001858,-0.506644,-0.001163,0.74241,-264.29238,0.824327,62.220439
13.2559,0.002001,0.002994,-0.000538,-0.0006,-0.00063,0.000576,0.001858,-0.506644,-0.001163,0.74241,-264.29238,0.824327,62.220439
13.2763,0.002102,0.003251,-0.000685,-0.000585,-0.000664,0.000756,0.001709,-0.507022,-0.000537,0.711554,-264.292613,0.749327,62.220214
13.2956,0.001946,0.003101,-0.000296,-0.000546,-0.000651,0.000586,0.001724,-0.506913,-0.000597,0.711554,-264.292613,0.749327,62.220214
13.3156,0.002028,0.003076,-0.000499,-0.000517,-0.000641,0.000472,0.001794,-0.506899,-0.000296,0.636569,-264.292616,0.824312,62.220207
13.3358,0.002302,0.003155,-0.002028,-0.000506,-0.000628,0.000334,0.001776,-0.506922,-0.000481,0.636569,-264.292616,0.824312,62.220207
13.3558,0.002234,0.003171,-5.7e-05,-0.000499,-0.000617,0.000239,0.001776,-0.506922,-0.000481,0.636569,-264.292616,0.824312,62.220207
13.3759,0.002156,0.003292,0.00013,-0.000493,-0.000609,0.000174,0.002195,-0.506838,-5.1e-05,0.599227,-264.292714,0.899428,62.220042
13.396,0.002093,0.003129,-0.000861,-0.000574,-0.000596,-0.000141,0.002205,-0.506786,2.4e-05,0.599227,-264.292714,0.899428,62.220042
13.4156,0.002189,0.003385,-0.000353,-0.000639,-0.000587,-0.000364,0.001645,-0.50688,-0.000858,0.674256,-264.292855,0.967136,62.219868
13.4359,0.002013,0.003458,-0.001189,-0.00064,-0.000625,-0.000295,0.001977,-0.506639,-0.000396,0.674256,-264.292855,0.967136,62.219868
13.4559,0.002116,0.003538,-0.000762,-0.00064,-0.000655,-0.000246,0.001977,-0.506639,-0.000396,0.674256,-264.292855,0.967136,62.219868
13.4762,0.002339,0.002994,0.000813,-0.000641,-0.000679,-0.000212,0.001727,-0.506462,-0.000762,0.749209,-264.292861,0.892183,62.219863
13.496,0.001709,0.003057,-0.000435,-0.000678,-0.000677,-0.00034,0.002149,-0.506686,-0.000115,0.749209,-264.292861,0.892183,62.219863
13.516,0.001967,0.003563,-0.000977,-0.000708,-0.000676,-0.00043,0.001479,-0.506951,-0.000437,0.824242,-264.293027,0.81715,62.219727
13.536,0.00221,0.002941,-1.9e-05,-0.000573,-0.000753,-8.7e-05,0.001469,-0.506478,-0.000935,0.824242,-264.293027,0.81715,62.219727
13.5562,0.002167,0.00289,-5.1e-05,-0.000465,-0.000812,0.00016,0.001469,-0.506478,-0.000935,0.824242,-264.293027,0.81715,62.219727
13.5754,0.002222,0.00288,-0.000667,-0.000379,-0.000858,0.000339,0.002135,-0.507117,-5.4e-05,0.899436,-264.293131,0.741956,62.219655
13.596,0.002075,0.003222,-0.000669,-0.000464,-0.000737,0.000163,0.002032,-0.507119,-0.000301,0.899436,-264.293131,0.741956,62.219655
13.6154,0.002025,0.003018,-0.000283,-0.000532,-0.000644,3.8e-05,0.001734,-0.506778,-0.000669,0.974106,-264.293135,0.816625,62.219649
13.636,0.002219,0.003081,-0.002072,-0.000541,-0.000616,-5.2e-05,0.001867,-0.506964,-0.000318,0.974106,-264.293135,0.816625,62.219649
13.6559,0.002283,0.003218,-0.000877,-0.00055,-0.000594,-0.000116,0.001867,-0.506964,-0.000318,0.974106,-264.293135,0.816625,62.219649
13.676,0.001467,0.002981,-0.000549,-0.000556,-0.000577,-0.00016,0.001819,-0.506802,-0.000876,0.899108,-264.293376,0.891623,62.219397
13.6958,0.002221,0.003178,-0.000276,-0.000488,-0.000598,2.4e-05,0.001561,-0.506893,-0.000743,0.899108,-264.293376,0.891623,62.219397
13.7157,0.002479,0.003276,-0.000679,-0.000433,-0.000613,0.000156,0.00207,-0.506833,-0.000279,0.881817,-264.293582,0.816633,62.219224
13.7359,0.002422,0.002657,-0.000617,-0.000513,-0.000614,0.000223,0.002127,-0.506734,-0.000645,0.881817,-264.293582,0.816633,62.219224
13.7558,0.002332,0.003257,-0.001037,-0.000576,-0.000617,0.000267,0.002127,-0.506734,-0.000645,0.881817,-264.293582,0.816633,62.219224
13.7757,0.002491,0.00301,0.000928,-0.000626,-0.00062,0.000296,0.001793,-0.506755,-0.001034,0.873474,-264.293719,0.891756,62.219056
13.7958,0.002058,0.003279,0.000481,-0.000697,-0.000591,9.5e-05,0.002266,-0.506851,-0.00024,0.873474,-264.293719,0.891756,62.219056
13.8156,0.002244,0.003377,0.000288,-0.000754,-0.00057,-4.7e-05,0.002297,-0.506728,0.000483,0.798598,-264.29382,0.907456,62.218921
13.8358,0.002307,0.003346,0.00023,-0.000808,-0.000583,-0.000461,0.002382,-0.506633,0.000305,0.798598,-264.29382,0.907456,62.218921
13.8557,0.002292,0.003078,0.000377,-0.000854,-0.000595,-0.000752,0.002382,-0.506633,0.000305,0.798598,-264.29382,0.907456,62.218921
13.8755,0.002046,0.002695,0.001148,-0.000891,-0.000606,-0.000958,0.002478,-0.506927,0.000377,0.723569,-264.2939,0.832427,62.218845
13.8958,0.002123,0.002749,-0.00019,-0.000973,-0.000515,-0.001308,0.00254,-0.507081,0.00069,0.723569,-264.2939,0.832427,62.218845
13.9158,0.002192,0.003289,-0.000724,-0.00104,-0.000446,-0.001556,0.002026,-0.507251,-0.00019,0.798554,-264.2939,0.757441,62.218845
13.9358,0.002452,0.002806,-0.001429,-0.000939,-0.000507,-0.001009,0.001841,-0.506757,-0.000678,0.798554,-264.2939,0.757441,62.218845
13.9557,0.002584,0.003169,0.00073,-0.000857,-0.000554,-0.000619,0.001841,-0.506757,-0.000678,0.798554,-264.2939,0.757441,62.218845
13.9759,0.001833,0.003113,-0.001029,-0.000791,-0.000589,-0.000341,0.002957,-0.506831,0.00073,0.873671,-264.2939,0.682325,62.218845
13.9959,0.00221,0.003334,-0.00226,-0.000833,-0.000567,-0.000501,0.002275,-0.506854,3e-06,0.873671,-264.2939,0.682325,62.218845
14.0156,0.002285,0.003072,0.000726,-0.000867,-0.000551,-0.000613,0.001049,-0.506672,-0.002263,0.798569,-264.294066,0.607223,62.218715
14.0363,0.002148,0.002701,-0.000886,-0.00094,-0.00051,-0.000942,0.002511,-0.506905,0.000457,0.798569,-264.294066,0.607223,62.218715
14.0562,0.002088,0.003159,-0.001815,-0.001,-0.000478,-0.001174,0.002511,-0.506905,0.000457,0.798569,-264.294066,0.607223,62.218715
14.0755,0.00179,0.003209,-0.001064,-0.001049,-0.000455,-0.001338,0.00116,-0.506842,-0.001816,0.81813,-264.294099,0.532418,62.218692
14.0961,0.002013,0.00343,-0.001735,-0.000783,-0.000532,-0.000513,0.001196,-0.506821,-0.001506,0.81813,-264.294099,0.532418,62.218692
14.1155,0.002177,0.003199,-0.00194,-0.000573,-0.000591,8.7e-05,0.001128,-0.506569,-0.001735,0.881085,-264.294099,0.457277,62.218692
14.1356,0.001867,0.003269,-0.000219,-0.000404,-0.000642,0.000689,0.001182,-0.506779,-0.001922,0.881085,-264.294099,0.457277,62.218692
14.1555,0.002428,0.003147,-0.001401,-0.000269,-0.00068,0.001127,0.001182,-0.506779,-0.001922,0.881085,-264.294099,0.457277,62.218692
14.1758,0.001968,0.003105,-0.000204,-0.000162,-0.00071,0.001445,0.001711,-0.506854,-0.001401,0.806245,-264.29412,0.532117,62.218669
14.196,0.002051,0.002931,-0.001134,-0.000222,-0.000684,0.001233,0.001774,-0.506871,-0.000906,0.806245,-264.29412,0.532117,62.218669
14.2158,0.002073,0.002918,-0.001854,-0.00027,-0.000665,0.00109,0.001473,-0.507069,-0.001134,0.731078,-264.29412,0.607285,62.218669
14.2361,0.001962,0.003123,-0.001137,-0.000163,-0.000644,0.00138,0.001157,-0.50708,-0.001792,0.731078,-264.29412,0.607285,62.218669
14.2557,0.001798,0.002844,-0.001467,-7.7e-05,-0.000628,0.00159,0.001157,-0.50708,-0.001792,0.731078,-264.29412,0.607285,62.218669
14.2754,0.002206,0.003203,-0.000929,-1e-05,-0.000614,0.001741,0.001049,-0.507156,-0.001467,0.656073,-264.29412,0.682289,62.218669
14.296,0.001574,0.002683,-0.001079,4e-06,-0.000609,0.001608,0.001328,-0.50701,-0.001248,0.656073,-264.29412,0.682289,62.218669
14.3154,0.001915,0.002747,-0.000696,0.0,0.0,0.0,0.001023,-0.507317,-0.001079,0.730898,-264.29412,0.757114,62.218669
14.3359,0.002053,0.003005,-0.001766,0.0,0.0,0.0,0.001512,-0.507259,-0.00073,0.730898,-264.29412,0.757114,62.218669
14.3556,0.002388,0.002754,-0.002499,0.0,0.0,0.0,0.001512,-0.507259,-0.00073,0.730898,-264.29412,0.757114,62.218669
14.376,0.002329,0.00328,-0.001015,0.0,0.0,0.0,0.001114,-0.507244,-0.002499,0.730898,-264.29412,0.757114,62.218669
14.3963,0.001896,0.002986,-0.000399,0.0,0.0,0.0,0.001402,-0.507027,-0.001885,0.730898,-264.29412,0.757114,62.218669
14.416,0.002102,0.00339,-0.00317,0.0,0.0,0.0,0.001693,-0.507014,-0.000399,0.730898,-264.29412,0.757114,62.218669
14.4359,0.001678,0.002985,-0.001276,0.0,0.0,0.0,0.000589,-0.506642,-0.002933,0.730898,-264.29412,0.757114,62.218669
14.456,0.002136,0.003078,0.000608,0.0,0.0,0.0,0.000589,-0.506642,-0.002933,0.730898,-264.29412,0.757114,62.218669
14.4758,0.002043,0.002816,-0.001733,0.0,0.0,0.0,0.002446,-0.506922,0.000608,0.730898,-264.29412,0.757114,62.218669
14.4955,0.00203,0.00285,-0.000761,0.0,0.0,0.0,0.001904,-0.507032,-0.000379,0.730898,-264.29412,0.757114,62.218669
14.5158,0.002317,0.003436,-0.000677,0.0,0.0,0.0,0.001642,-0.50715,-0.000761,0.730898,-264.29412,0.757114,62.218669
14.5358,0.0019,0.002932,-0.001299,0.0,0.0,0.0,0.001942,-0.506616,-0.000685,0.730898,-264.29412,0.757114,62.218669
14.5558,0.001946,0.003149,-0.000566,0.0,0.0,0.0,0.001942,-0.506616,-0.000685,0.730898,-264.29412,0.757114,62.218669
14.5756,0.002219,0.003431,-0.00241,0.0,0.0,0.0,0.001657,-0.506851,-0.000566,0.730898,-264.29412,0.757114,62.218669
14.596,0.001809,0.002649,0.000379,0.0,0.0,0.0,0.001382,-0.506734,-0.001328,0.730898,-264.29412,0.757114,62.218669
14.6157,0.002166,0.003005,-0.001886,0.0,0.0,0.0,0.002002,-0.507351,0.000379,0.730898,-264.29412,0.757114,62.218669
14.636,0.00227,0.002959,0.001576,0.0,0.0,0.0,0.00127,-0.507023,-0.001699,0.730898,-264.29412,0.757114,62.218669
14.6557,0.002451,0.003279,-0.001358,0.0,0.0,0.0,0.00127,-0.507023,-0.001699,0.730898,-264.29412,0.757114,62.218669
14.6757,0.002148,0.00314,-0.000823,0.0,0.0,0.0,0.001758,-0.50672,-0.001358,0.730898,-264.29412,0.757114,62.218669
14.6959,0.002405,0.002998,-0.000391,0.0,0.0,0.0,0.001746,-0.506777,-0.001139,0.730898,-264.29412,0.757114,62.218669
14.7156,0.001928,0.002859,0.000704,0.0,0.0,0.0,0.002206,-0.507002,-0.000391,0.730898,-264.29412,0.757114,62.218669
14.7358,0.001996,0.003211,0.000248,0.0,0.0,0.0,0.00228,-0.507129,0.000606,0.730898,-264.29412,0.757114,62.218669
14.7557,0.002207,0.002974,-0.001184,0.0,0.0,0.0,0.00228,-0.507129,0.000606,0.730898,-264.29412,0.757114,62.218669
14.7759,0.001983,0.002977,-0.00137,0.0,0.0,0.0,0.001603,-0.507025,-0.001184,0.730898,-264.29412,0.757114,62.218669
14.7957,0.001984,0.003048,0.0005,0.0,0.0,0.0,0.001473,-0.507024,-0.00126,0.730898,-264.29412,0.757114,62.218669
14.8156,0.001961,0.002992,-0.000915,0.0,0.0,0.0,0.002239,-0.506952,0.0005,0.730898,-264.29412,0.757114,62.218669
14.8357,0.002295,0.003074,-0.003089,0.0,0.0,0.0,0.001561,-0.507003,-0.000788,0.730898,-264.29412,0.757114,62.218669
14.8555,0.001994,0.003288,-0.001753,0.0,0.0,0.0,0.001561,-0.507003,-0.000788,0.730898,-264.29412,0.757114,62.218669
14.876,0.001589,0.003144,0.001118,0.0,0.0,0.0,0.0011,-0.506711,-0.001753,0.730898,-264.29412,0.757114,62.218669
14.8956,0.002138,0.003036,-4.1e-05,0.0,0.0,0.0,0.001535,-0.50677,-0.000574,0.730898,-264.29412,0.757114,62.218669
14.9157,0.002486,0.003056,-0.001266,0.0,0.0,0.0,0.002117,-0.506964,-4.1e-05,0.730898,-264.29412,0.757114,62.218669
14.936,0.00228,0.003006,0.000189,0.0,0.0,0.0,0.001864,-0.506946,-0.001161,0.730898,-264.29412,0.757114,62.218669
14.9559,0.002256,0.003121,-0.001943,0.0,0.0,0.0,0.001864,-0.506946,-0.001161,0.730898,-264.29412,0.757114,62.218669
14.9765,0.002056,0.002626,-0.00198,0.0,0.0,0.0,0.001265,-0.506878,-0.001943,0.730898,-264.29412,0.757114,62.218669
14.9963,0.002115,0.003199,0.000482,0.0,0.0,0.0,0.001175,-0.507082,-0.001958,0.730898,-264.29412,0.757114,62.218669
15.0155,0.001814,0.003236,-0.001873,0.0,0.0,0.0,0.002361,-0.506801,0.000482,0.730898,-264.29412,0.757114,62.218669
15.0357,0.001875,0.003047,-0.00095,0.0,0.0,0.0,0.000998,-0.506766,-0.001654,0.730898,-264.29412,0.757114,62.218669
15.0556,0.002218,0.003199,-0.000881,0.0,0.0,0.0,0.000998,-0.506766,-0.001654,0.730898,-264.29412,0.757114,62.218669
15.0759,0.002158,0.003318,-0.00127,0.0,0.0,0.0,0.001768,-0.506801,-0.000881,0.730898,-264.29412,0.757114,62.218669
15.0958,0.002044,0.003166,-0.000238,0.0,0.0,0.0,0.001664,-0.506752,-0.001039,0.730898,-264.29412,0.757114,62.218669
15.1158,0.002033,0.002887,-0.000158,0.0,0.0,0.0,0.001923,-0.506834,-0.000238,0.730898,-264.29412,0.757114,62.218669
15.1357,0.001923,0.002963,-0.001723,0.0,0.0,0.0,0.00195,-0.507089,-0.000165,0.730898,-264.29412,0.757114,62.218669
15.1559,0.002292,0.002993,-0.000522,0.0,0.0,0.0,0.00195,-0.507089,-0.000165,0.730898,-264.29412,0.757114,62.218669
