mach0312/omni-docking-bench/src/icros_test_setup/results/MPPI_sample/timeseries/trial_101.csv
t,x,y,yaw,vx,vy,wz,bl_x,bl_y,bl_yaw,front_steering_joint,front_wheel_joint,rear_steering_joint,rear_wheel_joint
0.0,-3.5e-05,0.02049,-0.031913,-0.004983,0.001152,-0.00094,-0.016343,-0.489577,-0.032283,-0.115411,-263.580274,-0.333404,68.218501
0.0004,-0.000597,0.020356,-0.034948,-0.004401,0.001017,-0.00083,-0.016343,-0.489577,-0.032283,-0.115411,-263.583316,-0.333404,68.215303
0.0007,-0.00091,0.020445,-0.03428,-0.003777,0.000873,-0.000712,-0.017169,-0.48948,-0.033594,-0.115411,-263.586088,-0.333404,68.212389
0.001,-0.000659,0.020582,-0.033386,-0.003107,0.000718,-0.000586,-0.017169,-0.48948,-0.033594,-0.115411,-263.588312,-0.333404,68.210051
0.0013,-0.001162,0.020795,-0.034762,-0.002393,0.000553,-0.000451,-0.017169,-0.48948,-0.033594,-0.115411,-263.590087,-0.333404,68.208185
0.0016,-0.00125,0.020736,-0.032522,-0.00164,0.000379,-0.000309,-0.018314,-0.489355,-0.035458,-0.115411,-263.591049,-0.333404,68.207174
0.0019,-0.000939,0.020476,-0.033375,-0.000841,0.000194,-0.000159,-0.017992,-0.489456,-0.034862,-0.115411,-263.591049,-0.333404,68.207174
0.0022,-0.001011,0.020391,-0.034337,0.0,0.0,0.0,-0.017992,-0.489456,-0.034862,-0.115411,-263.591049,-0.333404,68.207174
0.0025,-0.001345,0.020607,-0.032058,0.0,0.0,0.0,-0.017588,-0.489345,-0.033168,-0.115411,-263.591049,-0.333404,68.207174
0.0158,-0.001486,0.020678,-0.032006,0.0,0.0,0.0,-0.017719,-0.489124,-0.032063,-0.115411,-263.591389,-0.333404,68.206817
0.0364,-0.001056,0.020213,-0.033932,0.0,0.0,0.0,-0.0178,-0.489066,-0.032011,-0.115411,-263.591389,-0.333404,68.206817
0.0565,-0.001221,0.020833,-0.033566,0.0,0.0,0.0,-0.0178,-0.489066,-0.032011,-0.115411,-263.591389,-0.333404,68.206817
0.0765,-0.001284,0.02044,-0.032979,0.0,0.0,0.0,-0.018336,-0.488879,-0.033566,-0.115411,-263.591389,-0.333404,68.206817
0.0963,-0.001003,0.020639,-0.034071,0.0,0.0,0.0,-0.01824,-0.489044,-0.033327,-0.115411,-263.591389,-0.333404,68.206817
0.1162,-0.001334,0.020528,-0.033689,0.002444,-0.001689,0.013916,-0.018376,-0.489065,-0.034071,-0.115411,-263.591389,-0.333404,68.206817
0.1365,-0.001108,0.020231,-0.032824,0.002703,-0.00187,0.014943,-0.0185,-0.489172,-0.033723,-0.115411,-263.591389,-0.333404,68.206817
0.1562,-0.001316,0.020446,-0.033754,0.002931,-0.002032,0.015742,-0.0185,-0.489172,-0.033723,-0.115411,-263.591389,-0.333404,68.206817
0.1762,-0.001499,0.020336,-0.033437,0.003132,-0.002176,0.016359,-0.018528,-0.489263,-0.033754,-0.040506,-263.591389,-0.408309,68.206817
0.1967,-0.001301,0.020459,-0.03426,0.003312,-0.002301,0.016833,-0.018536,-0.489311,-0.033624,-0.040506,-263.591389,-0.408309,68.206817
0.2164,-0.001214,0.020567,-0.033408,0.003471,-0.002413,0.017196,-0.01877,-0.489242,-0.03426,0.034608,-263.591389,-0.483424,68.206817
0.2366,-0.001041,0.020445,-0.033025,0.003602,-0.00252,0.017469,-0.018294,-0.489157,-0.033482,0.034608,-263.591389,-0.483424,68.206817
0.2564,-0.00125,0.020438,-0.031532,0.003719,-0.002616,0.017674,-0.018294,-0.489157,-0.033482,0.034608,-263.591389,-0.483424,68.206817
0.2765,-0.001211,0.020689,-0.035737,0.003822,-0.0027,0.017828,-0.017329,-0.489309,-0.031532,0.109579,-263.591389,-0.558394,68.206817
0.2966,-0.001316,0.020748,-0.033931,0.00391,-0.002777,0.017942,-0.01818,-0.489178,-0.033232,0.109579,-263.591389,-0.558394,68.206817
0.3161,-0.000781,0.020755,-0.03423,0.003988,-0.002846,0.018028,-0.018618,-0.488958,-0.033931,0.18447,-263.591389,-0.633285,68.206817
0.336,-0.001182,0.020425,-0.031957,0.004055,-0.002909,0.018092,-0.018269,-0.488947,-0.034203,0.18447,-263.591389,-0.633285,68.206817
0.3561,-0.000945,0.020717,-0.033423,0.004115,-0.002965,0.01814,-0.018269,-0.488947,-0.034203,0.18447,-263.591389,-0.633285,68.206817
0.3763,-0.00123,0.020886,-0.035398,0.004168,-0.003014,0.018176,-0.017988,-0.488998,-0.033423,0.259473,-263.591389,-0.708288,68.206817
0.3965,-0.00104,0.020915,-0.033711,0.004218,-0.003055,0.018204,-0.018513,-0.488915,-0.034227,0.259473,-263.591389,-0.708288,68.206817
0.4161,-0.001014,0.020272,-0.033255,0.004262,-0.003092,0.018225,-0.018229,-0.488795,-0.033711,0.334468,-263.591389,-0.783283,68.206817
0.436,-0.00102,0.020384,-0.032871,0.004298,-0.003126,0.01824,-0.017995,-0.489386,-0.033297,0.334468,-263.591389,-0.783283,68.206817
0.4561,-0.001293,0.020487,-0.032711,0.00433,-0.003156,0.018252,-0.017995,-0.489386,-0.033297,0.334468,-263.591389,-0.783283,68.206817
0.4763,-0.001439,0.020288,-0.034073,0.004359,-0.003183,0.018261,-0.017972,-0.48924,-0.032711,0.409468,-263.591389,-0.858283,68.206817
0.4965,-0.001508,0.021012,-0.03292,0.004389,-0.003202,0.018269,-0.018314,-0.489312,-0.033265,0.409468,-263.591389,-0.858283,68.206817
0.516,-0.00112,0.020535,-0.033034,0.004415,-0.00322,0.018275,-0.018294,-0.488712,-0.03292,0.484519,-263.591389,-0.933334,68.206817
0.5363,-0.001267,0.020586,-0.033261,0.004429,-0.003243,0.018278,-0.017993,-0.489145,-0.033024,0.484519,-263.591389,-0.933334,68.206817
0.5565,-0.001269,0.020398,-0.033319,0.004442,-0.003264,0.01828,-0.017993,-0.489145,-0.033024,0.484519,-263.591389,-0.933334,68.206817
0.5765,-0.001299,0.020593,-0.034796,0.004453,-0.003282,0.018283,-0.018258,-0.489319,-0.033318,0.55956,-263.591387,-1.008375,68.20682
0.5964,-0.001282,0.020764,-0.033812,0.004476,-0.003287,0.018287,-0.018578,-0.489229,-0.033922,0.55956,-263.591387,-1.008375,68.20682
0.6159,-0.0013,0.020869,-0.034132,0.004496,-0.003291,0.018291,-0.018522,-0.488946,-0.03381,0.634472,-263.591368,-1.083288,68.206852
0.6365,-0.000791,0.020552,-0.033488,0.004509,-0.003298,0.018292,-0.018688,-0.488844,-0.034103,0.634472,-263.591368,-1.083288,68.206852
0.6566,-0.001329,0.02111,-0.033368,0.004521,-0.003305,0.018294,-0.018688,-0.488844,-0.034103,0.634472,-263.591368,-1.083288,68.206852
0.6764,-0.001135,0.020523,-0.034228,0.004531,-0.003311,0.018295,-0.018335,-0.488611,-0.033346,0.709468,-263.591251,-1.158283,68.207047
0.6963,-0.001437,0.020835,-0.033974,0.004535,-0.003321,0.018294,-0.018437,-0.488844,-0.033704,0.709468,-263.591251,-1.158283,68.207047
0.7163,-0.001167,0.020669,-0.033852,0.004538,-0.00333,0.018295,-0.018738,-0.488888,-0.033906,0.784467,-263.590789,-1.233282,68.207819
0.7362,-0.001157,0.020093,-0.033551,0.004545,-0.003334,0.018295,-0.018455,-0.489026,-0.033853,0.784467,-263.590789,-1.233282,68.207819
0.7567,-0.000978,0.020688,-0.033409,0.004551,-0.003338,0.018296,-0.018455,-0.489026,-0.033853,0.784467,-263.590789,-1.233282,68.207819
0.7765,-0.001341,0.020589,-0.034846,0.004556,-0.003341,0.018296,-0.017945,-0.489082,-0.033171,0.859473,-263.589616,-1.267536,68.209786
0.7967,-0.001155,0.020306,-0.033012,0.00456,-0.003344,0.018297,-0.01841,-0.489096,-0.033825,0.859473,-263.589616,-1.267536,68.209786
0.8162,-0.00149,0.020252,-0.032953,0.004565,-0.003347,0.018297,-0.017899,-0.489485,-0.032683,0.934476,-263.587521,-1.266689,68.213303
0.8363,-0.001749,0.020415,-0.031884,0.004571,-0.003346,0.01848,-0.018253,-0.489476,-0.032912,0.934476,-263.587521,-1.266689,68.213303
0.8561,-0.001645,0.020164,-0.033193,0.004576,-0.003346,0.018622,-0.018253,-0.489476,-0.032912,0.934476,-263.587521,-1.266689,68.213303
0.8763,-0.001836,0.020269,-0.031678,0.00458,-0.003346,0.018731,-0.018412,-0.489679,-0.032563,1.009481,-263.58452,-1.266245,68.218345
0.8963,-0.00169,0.020385,-0.031922,0.004584,-0.003346,0.018936,-0.018221,-0.48961,-0.032129,1.009481,-263.58452,-1.266245,68.218345
0.9162,-0.00193,0.019827,-0.032417,0.004587,-0.003346,0.019095,-0.01783,-0.489463,-0.031347,1.055884,-263.580927,-1.270453,68.224326
0.9361,-0.002124,0.019947,-0.03072,0.004596,-0.003339,0.019348,-0.018396,-0.489871,-0.032291,1.055884,-263.580927,-1.270453,68.224326
0.9561,-0.001781,0.02025,-0.032621,0.004604,-0.003334,0.019546,-0.018396,-0.489871,-0.032291,1.055884,-263.580927,-1.270453,68.224326
0.9765,-0.002329,0.019946,-0.028885,0.00461,-0.00333,0.019702,-0.018228,-0.489624,-0.031824,1.066778,-263.577128,-1.274196,68.230603
0.9964,-0.002026,0.020027,-0.028856,0.004597,-0.003342,0.019939,-0.017722,-0.489731,-0.030515,1.066778,-263.577128,-1.274196,68.230603
1.0162,-0.002296,0.019926,-0.028382,0.004586,-0.003353,0.020127,-0.016598,-0.48987,-0.028235,1.083697,-263.573207,-1.279298,68.236989
1.0363,-0.002691,0.019774,-0.030041,0.004557,-0.003379,0.020377,-0.016747,-0.489874,-0.028339,1.083697,-263.573207,-1.279298,68.236989
1.0562,-0.002233,0.019568,-0.028693,0.004532,-0.003402,0.020578,-0.016747,-0.489874,-0.028339,1.083697,-263.573207,-1.279298,68.236989
1.0763,-0.002295,0.019489,-0.02714,0.00451,-0.003422,0.020739,-0.016678,-0.490367,-0.027855,1.096766,-263.569207,-1.285639,68.24348
1.0962,-0.00292,0.019716,-0.026885,0.004493,-0.003439,0.020959,-0.016433,-0.490366,-0.027465,1.096766,-263.569207,-1.285639,68.24348
1.1161,-0.002862,0.019278,-0.028409,0.004477,-0.003454,0.021136,-0.01649,-0.490211,-0.026232,1.116862,-263.565127,-1.297469,68.250108
1.1362,-0.003159,0.019354,-0.027356,0.004483,-0.00345,0.021365,-0.017268,-0.490496,-0.02819,1.116862,-263.565127,-1.297469,68.250108
1.1562,-0.002899,0.019358,-0.0271,0.004487,-0.003447,0.021549,-0.017268,-0.490496,-0.02819,1.116862,-263.565127,-1.297469,68.250108
1.1764,-0.003229,0.019433,-0.026059,0.004491,-0.003445,0.021698,-0.016535,-0.490603,-0.026219,1.128587,-263.560955,-1.303727,68.256872
1.1962,-0.003286,0.019202,-0.026163,0.004476,-0.003458,0.021883,-0.016507,-0.490535,-0.026052,1.128587,-263.560955,-1.303727,68.256872
1.2161,-0.004078,0.018898,-0.02544,0.004463,-0.00347,0.022034,-0.016488,-0.490736,-0.025476,1.141423,-263.556659,-1.30807,68.263759
1.2362,-0.003616,0.019153,-0.023882,0.004468,-0.003467,0.022213,-0.016993,-0.490925,-0.025408,1.141423,-263.556659,-1.30807,68.263759
1.2566,-0.004088,0.019011,-0.025736,0.004472,-0.003465,0.022359,-0.016993,-0.490925,-0.025408,1.141423,-263.556659,-1.30807,68.263759
1.2767,-0.003769,0.019506,-0.024087,0.004475,-0.003463,0.022479,-0.017029,-0.49097,-0.024813,1.15054,-263.552283,-1.313017,68.270762
1.296,-0.003898,0.019223,-0.024619,0.004465,-0.003473,0.022612,-0.016618,-0.490739,-0.024416,1.15054,-263.552283,-1.313017,68.270762
1.316,-0.004471,0.018856,-0.022261,0.004456,-0.003482,0.022721,-0.016313,-0.490735,-0.023906,1.159703,-263.547812,-1.31613,68.277854
1.3362,-0.004509,0.018876,-0.022662,0.004435,-0.003501,0.02283,-0.015858,-0.490999,-0.022367,1.159703,-263.547812,-1.31613,68.277854
1.3566,-0.004413,0.019048,-0.023965,0.004417,-0.003517,0.022921,-0.015858,-0.490999,-0.022367,1.159703,-263.547812,-1.31613,68.277854
1.3764,-0.004689,0.018565,-0.020966,0.004402,-0.003532,0.022996,-0.016451,-0.490956,-0.023016,1.165814,-263.543298,-1.319503,68.285008
1.396,-0.004928,0.018461,-0.021131,0.004393,-0.003541,0.023074,-0.015996,-0.491122,-0.022074,1.165814,-263.543298,-1.319503,68.285008
1.4161,-0.005379,0.018445,-0.019372,0.004386,-0.003548,0.023138,-0.015567,-0.49154,-0.020399,1.174272,-263.538747,-1.325419,68.292243
1.4361,-0.004951,0.018512,-0.019369,0.00437,-0.003565,0.023177,-0.015279,-0.491473,-0.019428,1.174272,-263.538747,-1.325419,68.292243
1.4561,-0.004956,0.018498,-0.019699,0.004356,-0.00358,0.023209,-0.015279,-0.491473,-0.019428,1.174272,-263.538747,-1.325419,68.292243
1.4762,-0.00557,0.018456,-0.018778,0.004343,-0.003593,0.023237,-0.014822,-0.491555,-0.018731,1.177895,-263.534166,-1.327609,68.299527
1.496,-0.005623,0.018316,-0.019444,0.004326,-0.003611,0.023254,-0.014934,-0.491531,-0.018639,1.177895,-263.534166,-1.327609,68.299527
1.5161,-0.005898,0.017757,-0.016379,0.004311,-0.003627,0.023269,-0.015403,-0.491704,-0.018704,1.181881,-263.529586,-1.331272,68.306847
1.5362,-0.005973,0.017944,-0.0187,0.004297,-0.003648,0.023218,-0.014347,-0.492138,-0.016549,1.181881,-263.529586,-1.331272,68.306847
1.5561,-0.005813,0.018016,-0.018036,0.004285,-0.003666,0.02318,-0.014347,-0.492138,-0.016549,1.181881,-263.529586,-1.331272,68.306847
1.5761,-0.006268,0.01793,-0.016258,0.004274,-0.00368,0.023151,-0.014833,-0.492056,-0.017063,1.184031,-263.525015,-1.333685,68.314186
1.5961,-0.005923,0.017884,-0.018352,0.004271,-0.003687,0.023141,-0.014701,-0.492052,-0.016621,1.184031,-263.525015,-1.333685,68.314186
1.6162,-0.006627,0.01779,-0.015084,0.004268,-0.003692,0.023134,-0.015149,-0.49215,-0.017616,1.182912,-263.520496,-1.33542,68.321516
1.6366,-0.006464,0.017779,-0.016391,0.00426,-0.003703,0.02305,-0.014387,-0.492158,-0.015273,1.182912,-263.520496,-1.33542,68.321516
1.6565,-0.006014,0.017853,-0.017261,0.004253,-0.003712,0.022987,-0.014387,-0.492158,-0.015273,1.182912,-263.520496,-1.33542,68.321516
1.6763,-0.006985,0.01778,-0.014101,0.004246,-0.003719,0.022939,-0.01464,-0.492229,-0.016292,1.182613,-263.515985,-1.335721,68.328846
1.6964,-0.007053,0.017417,-0.013953,0.004242,-0.003722,0.02291,-0.014432,-0.492223,-0.015291,1.182613,-263.515985,-1.335721,68.328846
1.716,-0.007037,0.01751,-0.013295,0.004238,-0.003725,0.022888,-0.014035,-0.492653,-0.013223,1.179532,-263.511526,-1.33575,68.336149
1.7371,-0.007099,0.017438,-0.013506,0.004225,-0.003738,0.022654,-0.013829,-0.492468,-0.013253,1.179532,-263.511526,-1.33575,68.336149
1.7566,-0.007441,0.01727,-0.014792,0.004211,-0.003747,0.022484,-0.013829,-0.492468,-0.013253,1.179532,-263.511526,-1.33575,68.336149
1.7762,-0.007523,0.017772,-0.011254,0.004199,-0.003755,0.022361,-0.014809,-0.492833,-0.013834,1.178857,-263.507089,-1.335841,68.343429
1.7964,-0.007852,0.016848,-0.01171,0.004199,-0.003753,0.022191,-0.014157,-0.49259,-0.012669,1.178857,-263.507089,-1.335841,68.343429
1.8165,-0.008119,0.016616,-0.011305,0.004197,-0.003751,0.022069,-0.013692,-0.493238,-0.011,1.169777,-263.50279,-1.334183,68.350588
1.8363,-0.007896,0.016787,-0.011141,0.004207,-0.003747,0.021723,-0.013861,-0.493348,-0.011244,1.169777,-263.50279,-1.334183,68.350588
1.8564,-0.008403,0.016977,-0.012271,0.004212,-0.003741,0.021481,-0.013861,-0.493348,-0.011244,1.169777,-263.50279,-1.334183,68.350588
1.8764,-0.008078,0.016982,-0.008611,0.004213,-0.003735,0.021313,-0.014488,-0.493143,-0.01135,1.163466,-263.498556,-1.331843,68.357674
1.8965,-0.008246,0.01676,-0.011013,0.004203,-0.003745,0.020941,-0.013635,-0.493102,-0.010113,1.163466,-263.498556,-1.331843,68.357674
1.9158,-0.009014,0.01662,-0.007986,0.004191,-0.00375,0.020687,-0.013731,-0.493328,-0.010341,1.144692,-263.494512,-1.324408,68.364528
1.9361,-0.008798,0.016613,-0.009153,0.00418,-0.003775,0.019965,-0.013137,-0.493366,-0.008161,1.144692,-263.494512,-1.324408,68.364528
1.9559,-0.00873,0.016678,-0.009557,0.004165,-0.00379,0.01948,-0.013137,-0.493366,-0.008161,1.144692,-263.494512,-1.324408,68.364528
1.9763,-0.00899,0.016752,-0.006669,0.004148,-0.0038,0.019158,-0.01343,-0.493457,-0.008695,1.13,-263.490598,-1.320367,68.371266
1.9963,-0.008994,0.016301,-0.006847,0.004128,-0.003813,0.018823,-0.012988,-0.493386,-0.007772,1.13,-263.490598,-1.320367,68.371266
2.016,-0.009089,0.016158,-0.006673,0.004109,-0.003821,0.018603,-0.012358,-0.493806,-0.006254,1.087337,-263.487138,-1.309335,68.377489
2.0367,-0.009534,0.016597,-0.006833,0.004089,-0.003845,0.018059,-0.012471,-0.493835,-0.006597,1.087337,-263.487138,-1.309335,68.377489
2.0564,-0.009254,0.016403,-0.005653,0.004069,-0.003861,0.017696,-0.012471,-0.493835,-0.006597,1.087337,-263.487138,-1.309335,68.377489
2.0761,-0.009708,0.01609,-0.007373,0.004049,-0.003871,0.017459,-0.011966,-0.493749,-0.004877,1.071902,-263.483711,-1.306505,68.383766
2.0963,-0.009845,0.016525,-0.006727,0.004036,-0.003887,0.017011,-0.012565,-0.493828,-0.005815,1.071902,-263.483711,-1.306505,68.383766
2.1166,-0.00978,0.016188,-0.005064,0.004022,-0.003896,0.016714,-0.013151,-0.493584,-0.006187,1.033205,-263.48063,-1.29908,68.389643
2.1362,-0.009781,0.015855,-0.005548,0.004004,-0.003916,0.01624,-0.012426,-0.493792,-0.005136,1.033205,-263.48063,-1.29908,68.389643
2.1562,-0.009635,0.016013,-0.0073,0.003988,-0.003928,0.015925,-0.012426,-0.493792,-0.005136,1.033205,-263.48063,-1.29908,68.389643
2.1763,-0.010361,0.015712,-0.004696,0.003973,-0.003936,0.01572,-0.013193,-0.494135,-0.00661,1.003495,-263.477681,-1.293042,68.395423
2.1965,-0.010265,0.015679,-0.003083,0.003984,-0.003908,0.01583,-0.012997,-0.494213,-0.005755,1.003495,-263.477681,-1.293042,68.395423
2.2162,-0.009929,0.015549,-0.002896,0.003993,-0.003884,0.015914,-0.011716,-0.49444,-0.002599,0.959228,-263.475001,-1.285317,68.400887
2.2363,-0.010252,0.015598,-0.003195,0.003957,-0.003939,0.014664,-0.011427,-0.494455,-0.002844,0.959228,-263.475001,-1.285317,68.400887
2.2566,-0.010487,0.015624,-0.002132,0.003928,-0.003979,0.013791,-0.011427,-0.494455,-0.002844,0.959228,-263.475001,-1.285317,68.400887
2.2765,-0.010675,0.015497,-0.003897,0.003903,-0.004009,0.013194,-0.011407,-0.494537,-0.001466,0.970717,-263.472178,-1.2853,68.406547
2.2966,-0.010158,0.015727,-0.003403,0.003896,-0.004024,0.012542,-0.011897,-0.49454,-0.002375,0.970717,-263.472178,-1.2853,68.406547
2.3164,-0.010781,0.01547,-0.002658,0.003891,-0.004033,0.012099,-0.01182,-0.494347,-0.003133,0.895677,-263.470758,-1.258013,68.409749
2.3366,-0.010372,0.01527,-0.002537,0.003893,-0.004029,0.011957,-0.012104,-0.494516,-0.002687,0.895677,-263.470758,-1.258013,68.409749
2.3564,-0.010743,0.015198,-0.001809,0.003894,-0.004024,0.011867,-0.012104,-0.494516,-0.002687,0.895677,-263.470758,-1.258013,68.409749
2.3761,-0.010657,0.015114,-0.002774,0.003895,-0.004019,0.011813,-0.011576,-0.494894,-0.001508,0.820726,-263.46957,-1.242489,68.41254
2.3962,-0.010435,0.015126,-0.001299,0.003894,-0.004023,0.011396,-0.011767,-0.494901,-0.001987,0.820726,-263.46957,-1.242489,68.41254
2.4159,-0.011093,0.015025,-0.004008,0.003893,-0.004024,0.011104,-0.011007,-0.494967,-0.001013,0.745671,-263.468056,-1.237017,68.416112
2.4361,-0.010834,0.015128,-0.001384,0.003926,-0.003959,0.011794,-0.012948,-0.494975,-0.003734,0.745671,-263.468056,-1.237017,68.416112
2.4562,-0.010737,0.015177,-0.001629,0.003956,-0.003909,0.012281,-0.012948,-0.494975,-0.003734,0.745671,-263.468056,-1.237017,68.416112
2.4759,-0.011055,0.014687,-0.001133,0.003982,-0.003869,0.012623,-0.011447,-0.494947,-0.00127,0.670627,-263.4666,-1.22501,68.419617
2.4963,-0.01082,0.014974,-0.000987,0.003959,-0.003906,0.011529,-0.011509,-0.495111,-0.001172,0.670627,-263.4666,-1.22501,68.419617
2.5163,-0.010734,0.014943,-0.001487,0.003941,-0.003934,0.010737,-0.011213,-0.495132,-0.000644,0.745635,-263.464704,-1.239545,68.423814
2.5362,-0.011071,0.014366,-0.000716,0.003927,-0.003954,0.010295,-0.011462,-0.495068,-0.001395,0.745635,-263.464704,-1.239545,68.423814
2.5562,-0.010545,0.014889,-0.001237,0.003915,-0.003968,0.009983,-0.011462,-0.495068,-0.001395,0.745635,-263.464704,-1.239545,68.423814
2.5763,-0.010538,0.014713,-0.000526,0.003906,-0.003979,0.009765,-0.011071,-0.495215,-0.000934,0.670718,-263.463454,-1.211457,68.426771
2.5962,-0.011101,0.014444,-0.00028,0.003882,-0.004001,0.009248,-0.01095,-0.495256,-0.000732,0.670718,-263.463454,-1.211457,68.426771
2.6164,-0.01095,0.014134,0.000193,0.003862,-0.004017,0.008879,-0.011181,-0.495618,-0.000111,0.595749,-263.462541,-1.196475,68.428998
2.6366,-0.011121,0.014481,0.000921,0.003854,-0.004025,0.008181,-0.010878,-0.495846,0.000174,0.595749,-263.462541,-1.196475,68.428998
2.6567,-0.010936,0.014142,-0.001175,0.003847,-0.00403,0.007672,-0.010878,-0.495846,0.000174,0.595749,-263.462541,-1.196475,68.428998
2.6766,-0.011007,0.014569,-0.000507,0.003842,-0.004031,0.007303,-0.011478,-0.495916,-0.001028,0.520753,-263.461928,-1.182443,68.43052
2.6967,-0.010744,0.014726,0.000526,0.003858,-0.004011,0.007552,-0.011385,-0.495726,-0.0008,0.520753,-263.461928,-1.182443,68.43052
2.7164,-0.011371,0.01437,0.000404,0.003871,-0.003994,0.00773,-0.010468,-0.495281,0.000543,0.445742,-263.461832,-1.145889,68.430751
2.7364,-0.011022,0.014179,0.00023,0.003863,-0.004,0.007237,-0.011102,-0.495599,0.000417,0.445742,-263.461832,-1.145889,68.430751
2.7567,-0.01093,0.014457,0.001448,0.003857,-0.004004,0.006875,-0.011102,-0.495599,0.000417,0.445742,-263.461832,-1.145889,68.430751
2.7763,-0.010901,0.014443,0.000927,0.003853,-0.004005,0.006609,-0.010139,-0.495593,0.001565,0.370744,-263.461305,-1.152812,68.432028
2.7961,-0.011029,0.014276,0.00032,0.003818,-0.004033,0.006058,-0.010251,-0.495584,0.001318,0.370744,-263.461305,-1.152812,68.432028
2.8159,-0.010799,0.014112,-4.5e-05,0.003788,-0.004054,0.005651,-0.010852,-0.495737,0.000347,0.295628,-263.461128,-1.123952,68.432437
2.8359,-0.011023,0.014248,0.000296,0.003797,-0.004038,0.005952,-0.010824,-0.495875,-7e-06,0.295628,-263.461128,-1.123952,68.432437
2.8561,-0.011108,0.014239,-0.001096,0.003805,-0.004025,0.006167,-0.010824,-0.495875,-7e-06,0.295628,-263.461128,-1.123952,68.432437
2.8767,-0.011071,0.014705,0.000501,0.003812,-0.004015,0.006319,-0.011662,-0.495766,-0.001086,0.220708,-263.461077,-1.103398,68.432548
2.8966,-0.01097,0.014289,-0.000669,0.003829,-0.003995,0.006686,-0.011325,-0.495579,-0.000454,0.220708,-263.461077,-1.103398,68.432548
2.916,-0.010803,0.013998,0.000851,0.003843,-0.00398,0.006945,-0.011271,-0.49575,-0.000597,0.145738,-263.460575,-1.119916,68.433699
2.9363,-0.01105,0.014228,0.001179,0.00383,-0.003994,0.006529,-0.01045,-0.49598,0.000721,0.145738,-263.460575,-1.119916,68.433699
2.9561,-0.011053,0.013941,0.000497,0.00382,-0.004003,0.006221,-0.01045,-0.49598,0.000721,0.145738,-263.460575,-1.119916,68.433699
2.9764,-0.010872,0.013955,0.000522,0.003812,-0.00401,0.005993,-0.010655,-0.496209,0.00076,0.070747,-263.459181,-1.133562,68.436983
2.9963,-0.010963,0.014259,0.000949,0.003817,-0.004006,0.005841,-0.010618,-0.496159,0.000693,0.070747,-263.459181,-1.133562,68.436983
3.0162,-0.010869,0.01379,0.001236,0.003821,-0.004002,0.00573,-0.0104,-0.495821,0.001078,-0.004253,-263.458187,-1.109539,68.439208
3.0366,-0.011148,0.014259,0.001151,0.00381,-0.004011,0.005424,-0.010249,-0.496178,0.001228,-0.004253,-263.458187,-1.109539,68.439208
3.0563,-0.011106,0.014111,0.00125,0.0038,-0.004018,0.005198,-0.010249,-0.496178,0.001228,-0.004253,-263.458187,-1.109539,68.439208
3.0764,-0.011069,0.013901,0.001437,0.003793,-0.004023,0.005032,-0.010344,-0.496015,0.001441,-0.079268,-263.456996,-1.099686,68.44181
3.0965,-0.010822,0.013822,0.000667,0.003785,-0.004029,0.004824,-0.010327,-0.496063,0.001461,-0.079268,-263.456996,-1.099686,68.44181
3.1165,-0.010813,0.013795,0.001095,0.003779,-0.004033,0.004672,-0.010403,-0.496256,0.000776,-0.154261,-263.455999,-1.07997,68.443863
3.1365,-0.011004,0.013553,0.000543,0.003777,-0.00403,0.004718,-0.010264,-0.496214,0.001071,-0.154261,-263.455999,-1.07997,68.443863
3.1562,-0.01073,0.013804,0.002246,0.003776,-0.004027,0.004752,-0.010264,-0.496214,0.001071,-0.154261,-263.455999,-1.07997,68.443863
3.1765,-0.010428,0.013334,0.000829,0.003775,-0.004025,0.004777,-0.009472,-0.496309,0.00239,-0.229257,-263.454888,-1.068849,68.446065
3.1961,-0.010754,0.013644,0.001897,0.003758,-0.00404,0.004528,-0.009676,-0.496467,0.001773,-0.229257,-263.454888,-1.068849,68.446065
3.2161,-0.011033,0.013262,0.001937,0.003742,-0.004052,0.004345,-0.009672,-0.496477,0.002042,-0.285331,-263.453392,-1.072753,68.44907
3.2361,-0.010558,0.013382,0.001911,0.003748,-0.004048,0.004158,-0.010005,-0.49672,0.001954,-0.285331,-263.453392,-1.072753,68.44907
3.2561,-0.01075,0.013467,0.00104,0.003753,-0.004043,0.004022,-0.010005,-0.49672,0.001954,-0.285331,-263.453392,-1.072753,68.44907
3.2763,-0.010739,0.012732,0.000607,0.003757,-0.004039,0.003924,-0.010076,-0.496688,0.001207,-0.35748,-263.451925,-1.061789,68.451891
3.2961,-0.010482,0.012696,0.003387,0.003778,-0.004016,0.004234,-0.010203,-0.496942,0.000983,-0.35748,-263.451925,-1.061789,68.451891
3.3163,-0.010826,0.013277,0.001047,0.003795,-0.003997,0.004458,-0.008641,-0.497423,0.003505,-0.412224,-263.450371,-1.042357,68.454715
3.3365,-0.010394,0.013274,0.001748,0.003802,-0.003991,0.004493,-0.010137,-0.496792,0.001275,-0.412224,-263.450371,-1.042357,68.454715
3.3568,-0.010563,0.012662,0.003208,0.003808,-0.003986,0.004518,-0.010137,-0.496792,0.001275,-0.412224,-263.450371,-1.042357,68.454715
3.3765,-0.010662,0.012696,0.001127,0.003813,-0.003982,0.004536,-0.008786,-0.497483,0.003371,-0.337259,-263.448962,-1.056664,68.457431
3.3963,-0.010609,0.012541,0.002065,0.003802,-0.003994,0.004161,-0.009296,-0.497428,0.002483,-0.337259,-263.448962,-1.056664,68.457431
3.4163,-0.010527,0.012232,0.000514,0.003791,-0.004004,0.003883,-0.009435,-0.497583,0.002208,-0.307569,-263.447384,-1.056693,68.46049
3.4362,-0.010894,0.012323,0.002446,0.003831,-0.003962,0.004366,-0.010185,-0.497758,0.000671,-0.307569,-263.447384,-1.056693,68.46049
3.4563,-0.010481,0.012423,0.002383,0.003865,-0.00393,0.00471,-0.010185,-0.497758,0.000671,-0.307569,-263.447384,-1.056693,68.46049
3.4761,-0.01048,0.012232,0.001652,0.003894,-0.003904,0.004955,-0.00913,-0.497716,0.002523,-0.382617,-263.445984,-1.034362,68.463005
3.496,-0.010491,0.012563,0.002854,0.00388,-0.00392,0.004558,-0.00932,-0.497753,0.002187,-0.382617,-263.445984,-1.034362,68.463005
3.5161,-0.010319,0.012189,0.003024,0.003868,-0.003933,0.004263,-0.008956,-0.497519,0.002951,-0.307668,-263.444941,-1.05887,68.465082
3.5365,-0.010239,0.012128,0.002854,0.003837,-0.003959,0.003832,-0.008789,-0.497787,0.003023,-0.307668,-263.444941,-1.05887,68.465082
3.5563,-0.010306,0.012463,0.002079,0.003809,-0.00398,0.003511,-0.008789,-0.497787,0.003023,-0.307668,-263.444941,-1.05887,68.465082
3.5763,-0.010362,0.0117,0.004759,0.003785,-0.003996,0.003273,-0.009086,-0.497698,0.002254,-0.331046,-263.443321,-1.036453,68.46809
3.5963,-0.010534,0.0123,0.004271,0.003762,-0.004012,0.003028,-0.00858,-0.497969,0.003335,-0.331046,-263.443321,-1.036453,68.46809
3.6159,-0.010357,0.012,0.004082,0.003741,-0.004025,0.002848,-0.008274,-0.497776,0.004346,-0.406557,-263.442179,-1.007642,68.469983
3.6364,-0.01074,0.011837,0.00342,0.003712,-0.004044,0.002568,-0.008271,-0.49798,0.00411,-0.406557,-263.442179,-1.007642,68.469983
3.6561,-0.010226,0.012352,0.002796,0.003687,-0.004059,0.002361,-0.008271,-0.49798,0.00411,-0.406557,-263.442179,-1.007642,68.469983
3.676,-0.010143,0.011835,0.003326,0.003665,-0.004072,0.002208,-0.008684,-0.497764,0.002889,-0.481045,-263.440913,-0.995138,68.471967
3.6959,-0.009645,0.01182,0.002623,0.003657,-0.004073,0.002317,-0.008575,-0.497938,0.003076,-0.481045,-263.440913,-0.995138,68.471967
3.7164,-0.010008,0.011517,0.004207,0.00365,-0.004074,0.002398,-0.008227,-0.498261,0.002675,-0.556039,-263.439697,-0.976248,68.47371
3.7366,-0.009833,0.012226,0.002315,0.003632,-0.004084,0.002239,-0.00789,-0.498463,0.004075,-0.556039,-263.439697,-0.976248,68.47371
3.7566,-0.010321,0.011588,0.003216,0.003616,-0.004092,0.002122,-0.00789,-0.498463,0.004075,-0.556039,-263.439697,-0.976248,68.47371
3.776,-0.010177,0.011585,0.003136,0.003602,-0.004099,0.002036,-0.008538,-0.498568,0.00331,-0.620534,-263.438023,-0.988029,68.476184
3.7967,-0.009962,0.011508,0.003511,0.003622,-0.004081,0.002154,-0.008537,-0.498524,0.003251,-0.620534,-263.438023,-0.988029,68.476184
3.8162,-0.010037,0.011109,0.004648,0.003639,-0.004066,0.00224,-0.00806,-0.498614,0.003574,-0.67024,-263.436258,-0.977521,68.478659
3.8366,-0.009588,0.011376,0.004238,0.003629,-0.004072,0.002041,-0.007698,-0.498866,0.004548,-0.67024,-263.436258,-0.977521,68.478659
3.8571,-0.010009,0.011163,0.003437,0.003619,-0.004077,0.001892,-0.007698,-0.498866,0.004548,-0.67024,-263.436258,-0.977521,68.478659
3.8768,-0.009816,0.010544,0.004057,0.00361,-0.004081,0.001781,-0.008105,-0.499002,0.00353,-0.638015,-263.434476,-0.980724,68.481231
3.8961,-0.00981,0.011209,0.003397,0.003624,-0.004066,0.001849,-0.007945,-0.4992,0.003751,-0.638015,-263.434476,-0.980724,68.481231
3.9162,-0.009433,0.011367,0.004145,0.003636,-0.004054,0.001899,-0.007968,-0.498911,0.003451,-0.692219,-263.432697,-0.96115,68.483622
3.9367,-0.009572,0.010723,0.004536,0.003598,-0.004077,0.001858,-0.007373,-0.498661,0.004084,-0.692219,-263.432697,-0.96115,68.483622
3.9566,-0.00967,0.010798,0.005012,0.003567,-0.004097,0.001827,-0.007373,-0.498661,0.004084,-0.692219,-263.432697,-0.96115,68.483622
3.9766,-0.009841,0.010311,0.004177,0.00354,-0.004113,0.001805,-0.006962,-0.499364,0.005091,-0.672237,-263.43085,-0.96186,68.486149
3.9964,-0.009244,0.010757,0.003784,0.003545,-0.004108,0.001678,-0.007249,-0.499514,0.004728,-0.672237,-263.43085,-0.96186,68.486149
4.0162,-0.009357,0.010406,0.004054,0.003549,-0.004103,0.001583,-0.007203,-0.499367,0.00384,-0.704654,-263.429027,-0.974413,68.488622
4.0368,-0.009093,0.010616,0.002952,0.003552,-0.004097,0.001633,-0.007276,-0.499577,0.004038,-0.704654,-263.429027,-0.974413,68.488622
4.0566,-0.009561,0.010536,0.004085,0.003555,-0.004092,0.00167,-0.007276,-0.499577,0.004038,-0.704654,-263.429027,-0.974413,68.488622
4.0762,-0.009317,0.010259,0.004361,0.003558,-0.004087,0.001697,-0.00733,-0.49963,0.004151,-0.723874,-263.42715,-0.960126,68.491074
4.0966,-0.009126,0.010102,0.005086,0.003563,-0.004082,0.001673,-0.007217,-0.499692,0.004243,-0.723874,-263.42715,-0.960126,68.491074
4.1162,-0.009186,0.010141,0.003737,0.003566,-0.004078,0.001655,-0.006418,-0.500021,0.00514,-0.708748,-263.425282,-0.963786,68.49356
4.1365,-0.008915,0.010407,0.005296,0.003575,-0.00407,0.001716,-0.007198,-0.499876,0.003864,-0.708748,-263.425282,-0.963786,68.49356
4.1563,-0.00933,0.009873,0.005135,0.003582,-0.004063,0.00176,-0.007198,-0.499876,0.003864,-0.708748,-263.425282,-0.963786,68.49356
4.1763,-0.008841,0.00999,0.00397,0.003588,-0.004057,0.001792,-0.006561,-0.50029,0.005205,-0.710416,-263.423402,-0.959577,68.496045
4.1962,-0.008986,0.009857,0.00247,0.003577,-0.004063,0.001656,-0.006648,-0.500194,0.004711,-0.710416,-263.423402,-0.959577,68.496045
4.2159,-0.008924,0.009569,0.003853,0.003567,-0.004068,0.001554,-0.007612,-0.50027,0.002527,-0.690256,-263.421553,-0.962452,68.49854
4.2364,-0.008578,0.009723,0.005873,0.003587,-0.00405,0.001668,-0.007012,-0.50042,0.003736,-0.690256,-263.421553,-0.962452,68.49854
4.2561,-0.008644,0.009818,0.005147,0.003604,-0.004036,0.001751,-0.007012,-0.50042,0.003736,-0.690256,-263.421553,-0.962452,68.49854
4.2763,-0.008446,0.009781,0.00345,0.003618,-0.004024,0.001811,-0.005871,-0.500342,0.005211,-0.71847,-263.419677,-0.952667,68.500976
4.2962,-0.008604,0.009408,0.004241,0.003577,-0.00405,0.001699,-0.006191,-0.500309,0.004491,-0.71847,-263.419677,-0.952667,68.500976
4.316,-0.008513,0.00907,0.005284,0.003543,-0.004071,0.001615,-0.006328,-0.500711,0.004297,-0.678575,-263.417869,-0.956496,68.503418
4.3367,-0.008507,0.009502,0.005112,0.003522,-0.004083,0.001444,-0.005856,-0.50091,0.005202,-0.678575,-263.417869,-0.956496,68.503418
4.3561,-0.008397,0.009521,0.005654,0.003504,-0.004092,0.001316,-0.005856,-0.50091,0.005202,-0.678575,-263.417869,-0.956496,68.503418
4.3762,-0.008267,0.009067,0.002176,0.003488,-0.004099,0.001219,-0.005367,-0.500636,0.00572,-0.716369,-263.416035,-0.959718,68.505828
4.3964,-0.008442,0.009254,0.006486,0.003478,-0.004101,0.001298,-0.006077,-0.500775,0.00429,-0.716369,-263.416035,-0.959718,68.505828
4.4162,-0.008047,0.008826,0.004726,0.003471,-0.004102,0.001357,-0.005027,-0.50086,0.006523,-0.765912,-263.414177,-0.946708,68.50812
4.4362,-0.008653,0.00894,0.005456,0.003449,-0.004112,0.001294,-0.005579,-0.501148,0.004883,-0.765912,-263.414177,-0.946708,68.50812
4.4563,-0.008185,0.008947,0.005414,0.003431,-0.00412,0.001247,-0.005579,-0.501148,0.004883,-0.765912,-263.414177,-0.946708,68.50812
4.4759,-0.007867,0.008599,0.004023,0.003415,-0.004127,0.001213,-0.005278,-0.501216,0.00547,-0.75616,-263.412278,-0.957471,68.510521
4.496,-0.007955,0.008757,0.00448,0.003403,-0.004131,0.001185,-0.005479,-0.501309,0.00489,-0.75616,-263.412278,-0.957471,68.510521
4.516,-0.007896,0.00842,0.005484,0.003392,-0.004134,0.001164,-0.005562,-0.501367,0.004518,-0.781057,-263.41037,-0.958922,68.51288
4.5361,-0.007839,0.008253,0.004179,0.003371,-0.004142,0.001072,-0.005133,-0.501561,0.005404,-0.781057,-263.41037,-0.958922,68.51288
4.5561,-0.007968,0.008357,0.005945,0.003354,-0.004148,0.001002,-0.005133,-0.501561,0.005404,-0.781057,-263.41037,-0.958922,68.51288
4.5761,-0.007608,0.008314,0.005655,0.003339,-0.004153,0.00095,-0.004794,-0.501805,0.005993,-0.790001,-263.408448,-0.96008,68.515238
4.5961,-0.007721,0.008439,0.004155,0.003308,-0.004166,0.000849,-0.004749,-0.501773,0.005861,-0.790001,-263.408448,-0.96008,68.515238
4.616,-0.007825,0.008157,0.005089,0.003282,-0.004177,0.000774,-0.005496,-0.501687,0.004185,-0.819252,-263.406516,-0.956464,68.517527
4.6363,-0.007544,0.008379,0.005468,0.003298,-0.004161,0.00084,-0.005248,-0.50183,0.005012,-0.819252,-263.406516,-0.956464,68.517527
4.6566,-0.007683,0.008309,0.006661,0.00331,-0.004149,0.000889,-0.005248,-0.50183,0.005012,-0.819252,-263.406516,-0.956464,68.517527
4.6762,-0.007686,0.007463,0.004456,0.003321,-0.004139,0.000926,-0.004148,-0.501852,0.006693,-0.845777,-263.404561,-0.956129,68.519774
4.6965,-0.007421,0.007787,0.004273,0.003301,-0.004145,0.000838,-0.004643,-0.502146,0.005794,-0.845777,-263.404561,-0.956129,68.519774
4.716,-0.007835,0.007674,0.005903,0.003284,-0.004149,0.000771,-0.005136,-0.502339,0.004302,-0.821919,-263.402624,-0.956053,68.522061
4.7366,-0.007224,0.007811,0.004835,0.003296,-0.004136,0.000726,-0.004846,-0.502326,0.005768,-0.821919,-263.402624,-0.956053,68.522061
4.7564,-0.007414,0.007389,0.006728,0.003306,-0.004124,0.000692,-0.004846,-0.502326,0.005768,-0.821919,-263.402624,-0.956053,68.522061
4.7766,-0.007347,0.007308,0.006474,0.003314,-0.004114,0.000666,-0.003844,-0.502772,0.006761,-0.841947,-263.400663,-0.952869,68.524315
4.7964,-0.007163,0.007391,0.006018,0.00326,-0.004133,0.000539,-0.00391,-0.502755,0.006648,-0.841947,-263.400663,-0.952869,68.524315
4.8167,-0.007118,0.007676,0.007182,0.003216,-0.004147,0.000442,-0.003988,-0.50273,0.006039,-0.841493,-263.398686,-0.938342,68.526544
4.8365,-0.007174,0.007327,0.003491,0.003118,-0.004192,0.000322,-0.003497,-0.502355,0.00708,-0.841493,-263.398686,-0.938342,68.526544
4.8568,-0.007186,0.007539,0.004602,0.003037,-0.004229,0.000232,-0.003497,-0.502355,0.00708,-0.841493,-263.398686,-0.938342,68.526544
4.8762,-0.007124,0.006837,0.005297,0.002971,-0.004259,0.000165,-0.004706,-0.502625,0.00462,-0.878443,-263.396715,-0.941501,68.528682
4.8962,-0.006991,0.006928,0.005696,0.003037,-0.00421,0.000397,-0.004575,-0.502861,0.004898,-0.878443,-263.396715,-0.941501,68.528682
4.9164,-0.007225,0.006636,0.004796,0.003091,-0.004172,0.000566,-0.003999,-0.503186,0.005701,-0.950423,-263.394858,-0.972572,68.530599
4.9364,-0.006822,0.007048,0.005244,0.003176,-0.004106,0.0007,-0.004709,-0.50335,0.004872,-0.950423,-263.394858,-0.972572,68.530599
4.9564,-0.006899,0.006935,0.004243,0.003246,-0.004053,0.000795,-0.004709,-0.50335,0.004872,-0.950423,-263.394858,-0.972572,68.530599
4.9765,-0.006772,0.007175,0.004454,0.003303,-0.00401,0.000861,-0.004612,-0.503224,0.004265,-0.891298,-263.393,-0.97079,68.532667
4.9962,-0.006719,0.006613,0.005661,0.003319,-0.003998,0.001,-0.004552,-0.503077,0.004345,-0.891298,-263.393,-0.97079,68.532667
5.0163,-0.006297,0.006392,0.004243,0.003332,-0.003989,0.001099,-0.003738,-0.503492,0.005685,-0.816391,-263.391288,-0.941326,68.534668
5.0366,-0.006737,0.006785,0.004151,0.00333,-0.003978,0.001162,-0.004094,-0.5036,0.00437,-0.816391,-263.391288,-0.941326,68.534668
5.0565,-0.006717,0.006536,0.005125,0.003329,-0.003968,0.001205,-0.004094,-0.5036,0.00437,-0.816391,-263.391288,-0.941326,68.534668
5.0766,-0.006389,0.006415,0.005172,0.003328,-0.00396,0.001235,-0.003966,-0.503621,0.00517,-0.783264,-263.389441,-0.950111,68.536918
5.0962,-0.006181,0.00651,0.005286,0.003308,-0.003965,0.001116,-0.003862,-0.503622,0.005176,-0.783264,-263.389441,-0.950111,68.536918
5.1165,-0.006647,0.006074,0.004543,0.003291,-0.003968,0.001024,-0.003379,-0.503607,0.005325,-0.766769,-263.387602,-0.956084,68.539214
5.1364,-0.00614,0.005906,0.006546,0.003331,-0.003931,0.001056,-0.004242,-0.5039,0.004613,-0.766769,-263.387602,-0.956084,68.539214
5.1565,-0.006374,0.006205,0.00581,0.003363,-0.003901,0.001077,-0.004242,-0.5039,0.004613,-0.766769,-263.387602,-0.956084,68.539214
5.1763,-0.005903,0.00602,0.004891,0.003389,-0.003877,0.001091,-0.003275,-0.503949,0.005852,-0.793101,-263.385748,-0.949127,68.541448
5.1966,-0.006022,0.006164,0.006519,0.003314,-0.003901,0.000957,-0.003314,-0.503978,0.005461,-0.793101,-263.385748,-0.949127,68.541448
5.2163,-0.006135,0.005349,0.005484,0.003253,-0.00392,0.000855,-0.002591,-0.503945,0.006553,-0.758237,-263.38393,-0.929838,68.543655
5.2364,-0.00602,0.005996,0.00566,0.003235,-0.003891,0.000771,-0.003266,-0.504587,0.005581,-0.758237,-263.38393,-0.929838,68.543655
5.2562,-0.005834,0.005848,0.005162,0.00322,-0.003867,0.000705,-0.003266,-0.504587,0.005581,-0.758237,-263.38393,-0.929838,68.543655
5.276,-0.005632,0.005541,0.0035,0.003206,-0.003847,0.000655,-0.003069,-0.504303,0.005197,-0.807201,-263.382119,-0.938781,68.545775
5.2961,-0.005813,0.005339,0.005948,0.00319,-0.003841,0.000789,-0.003373,-0.504384,0.004505,-0.807201,-263.382119,-0.938781,68.545775
5.3159,-0.005641,0.00515,0.005358,0.003178,-0.003837,0.000887,-0.002678,-0.504773,0.005969,-0.821492,-263.380249,-0.924077,68.547888
5.3362,-0.005774,0.005425,0.005363,0.003134,-0.003821,0.000816,-0.002883,-0.504843,0.005413,-0.821492,-263.380249,-0.924077,68.547888
5.3561,-0.005972,0.004721,0.005284,0.003097,-0.003807,0.00076,-0.002883,-0.504843,0.005413,-0.821492,-263.380249,-0.924077,68.547888
5.3763,-0.005234,0.005167,0.006162,0.003067,-0.003795,0.000718,-0.003146,-0.50543,0.00532,-0.803513,-263.37844,-0.942997,68.550026
5.396,-0.005463,0.005371,0.005366,0.00304,-0.00376,0.000659,-0.002701,-0.505201,0.005667,-0.803513,-263.37844,-0.942997,68.550026
5.416,-0.005443,0.004881,0.007217,0.003017,-0.00373,0.000612,-0.002629,-0.50474,0.005389,-0.8304,-263.376642,-0.943783,68.552094
5.4361,-0.005101,0.00495,0.006362,0.002847,-0.003759,0.000431,-0.001835,-0.505079,0.007054,-0.8304,-263.376642,-0.943783,68.552094
5.4563,-0.005304,0.004822,0.005218,0.002713,-0.00378,0.00029,-0.001835,-0.505079,0.007054,-0.8304,-263.376642,-0.943783,68.552094
5.4762,-0.00551,0.004666,0.005117,0.002604,-0.003796,0.00018,-0.002515,-0.505326,0.005244,-0.838614,-263.374841,-0.936884,68.554127
5.4964,-0.00514,0.004992,0.005276,0.002663,-0.003741,0.000331,-0.002657,-0.505345,0.005195,-0.838614,-263.374841,-0.936884,68.554127
5.516,-0.005322,0.004628,0.00429,0.002708,-0.003698,0.00044,-0.002382,-0.505093,0.005283,-0.913605,-263.373438,-0.982732,68.555586
5.536,-0.005058,0.004679,0.008005,0.002803,-0.003638,0.000675,-0.003065,-0.505348,0.004378,-0.913605,-263.373438,-0.982732,68.555586
5.556,-0.005141,0.004711,0.004994,0.002879,-0.003592,0.000844,-0.003065,-0.505348,0.004378,-0.913605,-263.373438,-0.982732,68.555586
5.5761,-0.004716,0.00467,0.005326,0.002939,-0.003556,0.000965,-0.00248,-0.505436,0.005013,-0.902255,-263.371699,-0.971731,68.557498
5.5963,-0.005059,0.004396,0.005431,0.002868,-0.003566,0.000914,-0.002273,-0.505408,0.005142,-0.902255,-263.371699,-0.971731,68.557498
5.6161,-0.005257,0.00484,0.006628,0.002812,-0.003573,0.000874,-0.002214,-0.50569,0.005454,-0.827318,-263.370338,-0.954108,68.559153
5.6361,-0.005194,0.004391,0.006717,0.002698,-0.003614,0.000671,-0.001902,-0.5052,0.006527,-0.827318,-263.370338,-0.954108,68.559153
5.6561,-0.005268,0.004582,0.004809,0.002607,-0.003647,0.000514,-0.001902,-0.5052,0.006527,-0.827318,-263.370338,-0.954108,68.559153
5.676,-0.004982,0.004319,0.004283,0.002534,-0.003672,0.000394,-0.002698,-0.50556,0.004846,-0.8242,-263.368689,-0.970381,68.561136
5.696,-0.005036,0.004277,0.006724,0.002633,-0.003603,0.00059,-0.002725,-0.505625,0.004619,-0.8242,-263.368689,-0.970381,68.561136
5.7161,-0.00503,0.003821,0.005085,0.002711,-0.003549,0.000733,-0.001539,-0.505805,0.006736,-0.899225,-263.367302,-0.996017,68.562652
5.7364,-0.004729,0.003867,0.00442,0.00275,-0.003461,0.000753,-0.002355,-0.506145,0.00523,-0.899225,-263.367302,-0.996017,68.562652
5.7561,-0.004703,0.004007,0.003886,0.002779,-0.003391,0.000763,-0.002355,-0.506145,0.00523,-0.899225,-263.367302,-0.996017,68.562652
5.7763,-0.004988,0.004071,0.007343,0.002801,-0.003335,0.000767,-0.002612,-0.506132,0.003916,-0.852606,-263.365722,-0.974864,68.564504
5.7962,-0.004421,0.004005,0.005585,0.002754,-0.00332,0.00075,-0.002042,-0.50606,0.005314,-0.852606,-263.365722,-0.974864,68.564504
5.8162,-0.004711,0.003423,0.006103,0.002717,-0.003307,0.000736,-0.001489,-0.506086,0.005608,-0.797045,-263.364231,-0.936084,68.566261
5.8361,-0.0047,0.003752,0.00694,0.002625,-0.003251,0.000654,-0.001585,-0.50653,0.006061,-0.797045,-263.364231,-0.936084,68.566261
5.8562,-0.004735,0.003665,0.00726,0.002552,-0.003205,0.000588,-0.001585,-0.50653,0.006061,-0.797045,-263.364231,-0.936084,68.566261
5.876,-0.00447,0.003338,0.005433,0.002494,-0.003168,0.000535,-0.000919,-0.506458,0.00729,-0.810666,-263.362661,-0.944617,68.568107
5.8961,-0.004427,0.003555,0.006889,0.002369,-0.00315,0.000447,-0.001227,-0.506555,0.006529,-0.810666,-263.362661,-0.944617,68.568107
5.916,-0.004226,0.003527,0.005661,0.002269,-0.003134,0.000376,-0.000835,-0.506531,0.006906,-0.850419,-263.361187,-0.951049,68.569781
5.936,-0.004396,0.00328,0.004638,0.002197,-0.003131,0.000404,-0.001292,-0.506475,0.005769,-0.850419,-263.361187,-0.951049,68.569781
5.9561,-0.004361,0.003215,0.006775,0.002139,-0.003128,0.000425,-0.001292,-0.506475,0.005769,-0.850419,-263.361187,-0.951049,68.569781
5.9768,-0.004419,0.00312,0.004519,0.002093,-0.003125,0.000439,-0.000816,-0.506896,0.00679,-0.907478,-263.359804,-0.977288,68.571304
5.9965,-0.003951,0.003346,0.005751,0.002092,-0.00305,0.00046,-0.001337,-0.506901,0.005862,-0.907478,-263.359804,-0.977288,68.571304
6.0162,-0.004037,0.003176,0.006044,0.002089,-0.002991,0.000472,-0.000953,-0.50674,0.005764,-0.938548,-263.358446,-1.018093,68.572833
6.0361,-0.004227,0.002967,0.006998,0.001986,-0.002976,0.000457,-0.000951,-0.506813,0.00602,-0.938548,-263.358446,-1.018093,68.572833
6.0566,-0.004295,0.003214,0.005996,0.001906,-0.002963,0.000443,-0.000951,-0.506813,0.00602,-0.938548,-263.358446,-1.018093,68.572833
6.0764,-0.004005,0.002831,0.0048,0.001841,-0.002952,0.000431,-0.00115,-0.5069,0.006015,-0.912904,-263.357097,-1.003675,68.574368
6.0964,-0.003698,0.002725,0.004532,0.001886,-0.002892,0.000495,-0.001304,-0.50702,0.005528,-0.912904,-263.357097,-1.003675,68.574368
6.1166,-0.004233,0.002604,0.006555,0.001919,-0.002845,0.000539,-0.001332,-0.507355,0.004545,-0.970201,-263.355904,-1.050674,68.575724
6.1367,-0.004066,0.002979,0.005519,0.001874,-0.002751,0.00049,-0.000925,-0.507387,0.006385,-0.970201,-263.355904,-1.050674,68.575724
6.1566,-0.003894,0.002762,0.005293,0.001838,-0.002678,0.000447,-0.000925,-0.507387,0.006385,-0.970201,-263.355904,-1.050674,68.575724
6.1764,-0.003706,0.002689,0.004766,0.001808,-0.00262,0.000411,-0.001118,-0.507343,0.005314,-0.919268,-263.354701,-1.027109,68.577135
6.1964,-0.004265,0.002679,0.004922,0.001838,-0.002575,0.000551,-0.001174,-0.507341,0.00509,-0.919268,-263.354701,-1.027109,68.577135
6.2163,-0.003698,0.002352,0.006256,0.001861,-0.00254,0.000652,-0.001698,-0.507398,0.004935,-0.918986,-263.353517,-1.008808,68.578482
6.2365,-0.003776,0.002635,0.007237,0.001746,-0.002472,0.000603,-0.000612,-0.50762,0.006137,-0.918986,-263.353517,-1.008808,68.578482
6.2562,-0.003824,0.002174,0.006682,0.001656,-0.002419,0.000561,-0.000612,-0.50762,0.006137,-0.918986,-263.353517,-1.008808,68.578482
6.2762,-0.003791,0.002158,0.005618,0.001585,-0.002376,0.000526,-0.000343,-0.507914,0.006708,-0.855434,-263.352453,-1.006161,68.579786
6.2962,-0.003617,0.002337,0.005982,0.001531,-0.00228,0.000499,-0.000573,-0.507893,0.006265,-0.855434,-263.352453,-1.006161,68.579786
6.3161,-0.003901,0.002629,0.004529,0.001487,-0.002205,0.000474,-0.000519,-0.507724,0.005998,-0.913815,-263.351487,-1.039505,68.580951
6.3361,-0.004074,0.002485,0.00476,0.001655,-0.002215,0.000654,-0.001492,-0.507402,0.004663,-0.913815,-263.351487,-1.039505,68.580951
6.3561,-0.003507,0.0023,0.004268,0.001788,-0.002224,0.000784,-0.001492,-0.507402,0.004663,-0.913815,-263.351487,-1.039505,68.580951
6.3762,-0.003714,0.002237,0.004394,0.001893,-0.002233,0.000879,-0.001268,-0.507787,0.004287,-0.910885,-263.350518,-1.033402,68.582111
6.3961,-0.003477,0.002456,0.005588,0.001968,-0.002167,0.001038,-0.001344,-0.507786,0.004333,-0.910885,-263.350518,-1.033402,68.582111
6.4162,-0.003785,0.002252,0.005679,0.002027,-0.002116,0.001151,-0.000595,-0.507577,0.005601,-0.835881,-263.349952,-0.97121,68.582859
6.4362,-0.003734,0.001979,0.006182,0.00195,-0.002113,0.001018,-0.000859,-0.507727,0.005672,-0.835881,-263.349952,-0.97121,68.582859
6.4562,-0.003423,0.001756,0.005065,0.00189,-0.002109,0.000914,-0.000859,-0.507727,0.005672,-0.835881,-263.349952,-0.97121,68.582859
6.4763,-0.0037,0.002002,0.004718,0.001843,-0.002105,0.000833,-0.000805,-0.508278,0.005081,-0.76088,-263.349526,-0.947342,68.583457
6.4963,-0.003668,0.002054,0.00566,0.001868,-0.001991,0.00091,-0.001,-0.508167,0.004935,-0.76088,-263.349526,-0.947342,68.583457
6.5163,-0.00313,0.001881,0.005491,0.001885,-0.001903,0.000962,-0.000724,-0.508002,0.005686,-0.713791,-263.348586,-0.956725,68.58469
6.5362,-0.003313,0.001692,0.005989,0.001707,-0.00187,0.000907,-0.000366,-0.508104,0.005511,-0.713791,-263.348586,-0.956725,68.58469
6.5562,-0.003267,0.001836,0.005856,0.001568,-0.001845,0.000863,-0.000366,-0.508104,0.005511,-0.713791,-263.348586,-0.956725,68.58469
6.5763,-0.003446,0.001705,0.004486,0.00146,-0.001824,0.000828,-0.000216,-0.508222,0.005888,-0.638791,-263.347829,-0.922777,68.585719
6.5961,-0.003623,0.001647,0.006176,0.001451,-0.001764,0.000836,-0.00059,-0.508257,0.005324,-0.638791,-263.347829,-0.922777,68.585719
6.6161,-0.003399,0.001984,0.007541,0.001442,-0.001718,0.000838,-0.000437,-0.508387,0.006196,-0.713745,-263.347229,-0.99773,68.586557
6.6362,-0.003561,0.002201,0.006109,0.001137,-0.00174,0.000615,0.000367,-0.508039,0.007419,-0.713745,-263.347229,-0.99773,68.586557
6.6563,-0.003267,0.001928,0.00613,0.0009,-0.001758,0.000441,0.000367,-0.508039,0.007419,-0.713745,-263.347229,-0.99773,68.586557
6.6761,-0.003488,0.001728,0.007602,0.000715,-0.001772,0.000306,-8e-05,-0.508134,0.006165,-0.696542,-263.346481,-0.996792,68.587614
6.6961,-0.003203,0.001672,0.006591,0.000647,-0.001747,0.000263,0.000118,-0.508192,0.006753,-0.696542,-263.346481,-0.996792,68.587614
6.7161,-0.003495,0.002047,0.007357,0.000591,-0.001728,0.000228,0.000159,-0.508318,0.006592,-0.771542,-263.34647,-1.071792,68.587627
6.7362,-0.003276,0.0015,0.006445,0.000507,-0.00177,0.000141,0.000248,-0.507973,0.007289,-0.771542,-263.34647,-1.071792,68.587627
6.756,-0.003549,0.001852,0.006413,0.000439,-0.001802,7.5e-05,0.000248,-0.507973,0.007289,-0.771542,-263.34647,-1.071792,68.587627
6.7761,-0.003426,0.001862,0.006792,0.000385,-0.001827,2.5e-05,-0.000277,-0.508139,0.006414,-0.846549,-263.346455,-1.146799,68.587644
6.7961,-0.00321,0.001557,0.005999,0.000469,-0.001808,6.2e-05,-0.000149,-0.508134,0.006568,-0.846549,-263.346455,-1.146799,68.587644
6.816,-0.003029,0.001837,0.00639,0.000531,-0.001794,9e-05,-0.000151,-0.508434,0.005999,-0.921536,-263.346451,-1.221786,68.587648
6.8364,-0.003753,0.001511,0.007853,0.000485,-0.001776,0.000138,0.000196,-0.508178,0.006355,-0.921536,-263.346451,-1.221786,68.587648
6.8565,-0.003209,0.001679,0.006538,0.000448,-0.001763,0.000174,0.000196,-0.508178,0.006355,-0.921536,-263.346451,-1.221786,68.587648
6.8762,-0.003415,0.002248,0.004447,0.00042,-0.001752,0.000201,0.000129,-0.508319,0.006539,-0.996554,-263.346363,-1.290973,68.587741
6.8962,-0.003291,0.001662,0.006821,0.0,0.0,0.0,-0.00039,-0.508087,0.005687,-0.996554,-263.346363,-1.290973,68.587741
6.9162,-0.002875,0.001771,0.006853,0.0,0.0,0.0,0.000191,-0.508336,0.006823,-1.07155,-263.346246,-1.350651,68.587875
6.9361,-0.003378,0.001373,0.006772,0.0,0.0,0.0,0.000582,-0.508228,0.006851,-1.07155,-263.346246,-1.350651,68.587875
6.9561,-0.003427,0.001808,0.005731,0.0,0.0,0.0,0.000582,-0.508228,0.006851,-1.07155,-263.346246,-1.350651,68.587875
6.976,-0.003401,0.001627,0.006667,0.0,0.0,0.0,-0.000504,-0.508183,0.005731,-1.07155,-263.346246,-1.350651,68.587875
6.9962,-0.003409,0.001539,0.004877,0.0,0.0,0.0,-0.000299,-0.508256,0.006114,-1.07155,-263.346246,-1.350651,68.587875
7.0161,-0.003354,0.001664,0.007109,0.0,0.0,0.0,-0.000922,-0.508455,0.004877,-1.07155,-263.346246,-1.350651,68.587875
7.0365,-0.00338,0.001739,0.005233,0.0,0.0,0.0,0.000168,-0.508334,0.006915,-1.07155,-263.346246,-1.350651,68.587875
7.0564,-0.003294,0.001983,0.006198,0.0,0.0,0.0,0.000168,-0.508334,0.006915,-1.07155,-263.346246,-1.350651,68.587875
7.0761,-0.003325,0.001546,0.007679,0.0,0.0,0.0,-0.000133,-0.508007,0.006198,-1.07155,-263.346246,-1.350651,68.587875
7.0961,-0.003158,0.001482,0.005184,0.0,0.0,0.0,0.000171,-0.508189,0.006821,-1.07155,-263.346246,-1.350651,68.587875
7.1161,-0.003282,0.001454,0.006065,0.0,0.0,0.0,-0.000514,-0.508511,0.005184,-1.07155,-263.346246,-1.350651,68.587875
7.1362,-0.003109,0.001767,0.006241,0.0,0.0,0.0,-0.000217,-0.508534,0.005989,-1.07155,-263.346246,-1.350651,68.587875
7.1563,-0.003311,0.00144,0.006689,0.0,0.0,0.0,-0.000217,-0.508534,0.005989,-1.07155,-263.346246,-1.350651,68.587875
7.1766,-0.003511,0.001568,0.006209,0.0,0.0,0.0,0.0001,-0.508548,0.006689,-1.07155,-263.346246,-1.350651,68.587875
7.1963,-0.003441,0.001629,0.007361,0.0,0.0,0.0,-8.3e-05,-0.508496,0.006491,-1.07155,-263.346246,-1.350651,68.587875
7.2163,-0.00338,0.001765,0.007061,0.0,0.0,0.0,0.000313,-0.508357,0.007361,-1.07155,-263.346246,-1.350651,68.587875
7.2362,-0.003293,0.001415,0.005576,0.0,0.0,0.0,0.000229,-0.508234,0.007087,-1.07155,-263.346246,-1.350651,68.587875
7.2562,-0.002871,0.002071,0.00567,0.0,0.0,0.0,0.000229,-0.508234,0.007087,-1.07155,-263.346246,-1.350651,68.587875
7.2768,-0.003519,0.001657,0.006433,0.0,0.0,0.0,2e-05,-0.507921,0.00567,-1.07155,-263.346246,-1.350651,68.587875
7.2964,-0.003685,0.002014,0.006883,0.0,0.0,0.0,-8.6e-05,-0.50809,0.005983,-1.07155,-263.346246,-1.350651,68.587875
7.3161,-0.003294,0.001507,0.005581,0.0,0.0,0.0,-0.000175,-0.507974,0.006883,-1.07155,-263.346246,-1.350651,68.587875
7.3364,-0.003489,0.001795,0.005605,0.0,0.0,0.0,-0.000423,-0.508439,0.0057,-1.07155,-263.346246,-1.350651,68.587875
7.3564,-0.0032,0.001282,0.006947,0.0,0.0,0.0,-0.000423,-0.508439,0.0057,-1.07155,-263.346246,-1.350651,68.587875
7.3762,-0.003193,0.001626,0.005034,0.0,0.0,0.0,0.000343,-0.508705,0.006947,-1.07155,-263.346246,-1.350651,68.587875
7.3966,-0.003404,0.001966,0.006631,0.0,0.0,0.0,-5.3e-05,-0.508567,0.006164,-1.07155,-263.346246,-1.350651,68.587875
7.4159,-0.002936,0.001578,0.005633,0.0,0.0,0.0,-2.3e-05,-0.508023,0.006631,-1.07155,-263.346246,-1.350651,68.587875
7.4363,-0.003142,0.001742,0.008158,0.0,0.0,0.0,-6e-05,-0.508379,0.005723,-1.07155,-263.346246,-1.350651,68.587875
7.4563,-0.003276,0.001566,0.006918,0.0,0.0,0.0,-6e-05,-0.508379,0.005723,-1.07155,-263.346246,-1.350651,68.587875
7.4766,-0.00337,0.001691,0.005346,0.0,0.0,0.0,0.000252,-0.508422,0.006918,-1.07155,-263.346246,-1.350651,68.587875
7.4963,-0.003161,0.001959,0.004993,0.0,0.0,0.0,-0.000112,-0.508373,0.006279,-1.07155,-263.346246,-1.350651,68.587875
7.5162,-0.003501,0.001909,0.008696,0.0,0.0,0.0,-0.000614,-0.508035,0.004993,-1.07155,-263.346246,-1.350651,68.587875
7.5362,-0.003842,0.001748,0.007219,0.0,0.0,0.0,0.000788,-0.508068,0.008347,-1.07155,-263.346246,-1.350651,68.587875
7.5565,-0.003516,0.001672,0.005117,0.0,0.0,0.0,0.000788,-0.508068,0.008347,-1.07155,-263.346246,-1.350651,68.587875
7.576,-0.00331,0.001937,0.005715,0.0,0.0,0.0,-0.000906,-0.508321,0.005117,-1.07155,-263.346246,-1.350651,68.587875
7.5961,-0.003413,0.0017,0.005052,0.0,0.0,0.0,-0.000701,-0.508215,0.005357,-1.07155,-263.346246,-1.350651,68.587875
7.6159,-0.003424,0.001602,0.006461,0.0,0.0,0.0,-0.000836,-0.508294,0.005052,-1.07155,-263.346246,-1.350651,68.587875
7.6363,-0.003241,0.001504,0.005927,0.0,0.0,0.0,-0.000192,-0.508379,0.006335,-1.07155,-263.346246,-1.350651,68.587875
7.6563,-0.002993,0.001753,0.005352,0.0,0.0,0.0,-0.000192,-0.508379,0.006335,-1.07155,-263.346246,-1.350651,68.587875
7.6763,-0.003123,0.001815,0.004651,0.0,0.0,0.0,-0.000263,-0.508239,0.005352,-1.07155,-263.346246,-1.350651,68.587875
7.6962,-0.003269,0.001485,0.006579,0.0,0.0,0.0,-0.000459,-0.508215,0.00507,-1.07155,-263.346246,-1.350651,68.587875
7.7163,-0.003336,0.001764,0.006944,0.0,0.0,0.0,8.6e-05,-0.508504,0.006579,-1.07155,-263.346246,-1.350651,68.587875
7.7363,-0.003078,0.001572,0.007275,0.0,0.0,0.0,0.000195,-0.508249,0.006912,-1.07155,-263.346246,-1.350651,68.587875
7.7562,-0.003579,0.001637,0.005335,0.0,0.0,0.0,0.000195,-0.508249,0.006912,-1.07155,-263.346246,-1.350651,68.587875
7.7764,-0.003451,0.001792,0.005536,0.0,0.0,0.0,-0.000858,-0.508355,0.005335,-1.07155,-263.346246,-1.350651,68.587875
7.7964,-0.003366,0.002193,0.00669,0.0,0.0,0.0,-0.000764,-0.508292,0.005417,-1.07155,-263.346246,-1.350651,68.587875
7.816,-0.003376,0.001431,0.00456,0.0,0.0,0.0,4.5e-05,-0.507796,0.00669,-1.07155,-263.346246,-1.350651,68.587875
7.8367,-0.0035,0.001431,0.005866,0.0,0.0,0.0,-0.000964,-0.508504,0.004728,-1.07155,-263.346246,-1.350651,68.587875
7.8565,-0.002999,0.001045,0.006131,0.0,0.0,0.0,-0.000964,-0.508504,0.004728,-1.07155,-263.346246,-1.350651,68.587875
7.8768,-0.003277,0.001524,0.006626,0.0,0.0,0.0,0.000128,-0.508945,0.006131,-1.07155,-263.346246,-1.350651,68.587875
7.8967,-0.002789,0.001692,0.005875,0.0,0.0,0.0,0.000117,-0.508747,0.006336,-1.07155,-263.346246,-1.350651,68.587875
7.9166,-0.003361,0.00174,0.006133,0.0,0.0,0.0,0.000207,-0.508299,0.005875,-1.07155,-263.346246,-1.350651,68.587875
7.9369,-0.003385,0.001858,0.005759,0.0,0.0,0.0,-0.000194,-0.508255,0.00611,-1.07155,-263.346246,-1.350651,68.587875
7.9564,-0.003331,0.001928,0.006509,0.0,0.0,0.0,-0.000194,-0.508255,0.00611,-1.07155,-263.346246,-1.350651,68.587875
7.976,-0.003538,0.001695,0.006135,0.0,0.0,0.0,-1.2e-05,-0.508061,0.006509,-1.07155,-263.346246,-1.350651,68.587875
7.9965,-0.00326,0.001504,0.006863,0.0,0.0,0.0,-0.000176,-0.508158,0.006355,-1.07155,-263.346246,-1.350651,68.587875
8.0162,-0.003227,0.001751,0.007025,0.0,0.0,0.0,0.00024,-0.508484,0.006863,-1.07155,-263.346246,-1.350651,68.587875
8.0366,-0.003382,0.001505,0.00487,0.0,0.0,0.0,0.000346,-0.508257,0.007011,-1.07155,-263.346246,-1.350651,68.587875
8.0564,-0.003476,0.001484,0.006659,0.0,0.0,0.0,0.000346,-0.508257,0.007011,-1.07155,-263.346246,-1.350651,68.587875
8.0763,-0.00341,0.001969,0.005762,0.0,0.0,0.0,-8e-05,-0.508505,0.006659,-1.07155,-263.346246,-1.350651,68.587875
8.096,-0.003459,0.001806,0.005498,0.0,0.0,0.0,-0.00024,-0.508308,0.006292,-1.07155,-263.346246,-1.350651,68.587875
8.117,-0.003152,0.001714,0.005544,0.0,0.0,0.0,-0.000655,-0.508186,0.005498,-1.07155,-263.346246,-1.350651,68.587875
8.1368,-0.003245,0.001704,0.005956,0.0,0.0,0.0,-0.000359,-0.508269,0.005539,-1.07155,-263.346246,-1.350651,68.587875
8.1565,-0.003436,0.001513,0.006014,0.0,0.0,0.0,-0.000359,-0.508269,0.005539,-1.07155,-263.346246,-1.350651,68.587875
8.1764,-0.003524,0.001555,0.008193,0.0,0.0,0.0,-0.000369,-0.508478,0.006014,-1.07155,-263.346246,-1.350651,68.587875
8.1961,-0.003358,0.001769,0.006127,0.0,0.0,0.0,5e-05,-0.508457,0.006906,-1.07155,-263.346246,-1.350651,68.587875
8.2164,-0.003079,0.001724,0.005199,0.0,0.0,0.0,-0.000234,-0.508221,0.006127,-1.07155,-263.346246,-1.350651,68.587875
8.2366,-0.003347,0.001872,0.006772,0.0,0.0,0.0,-0.00041,-0.508265,0.005283,-1.07155,-263.346246,-1.350651,68.587875
8.2565,-0.003282,0.001722,0.00472,0.0,0.0,0.0,-0.00041,-0.508265,0.005283,-1.07155,-263.346246,-1.350651,68.587875
8.2763,-0.002977,0.002009,0.00617,0.0,0.0,0.0,-0.000874,-0.508272,0.00472,-1.07155,-263.346246,-1.350651,68.587875
8.2965,-0.003406,0.001789,0.007749,0.0,0.0,0.0,-0.000447,-0.508153,0.005314,-1.07155,-263.346246,-1.350651,68.587875
8.3167,-0.00342,0.001459,0.006668,0.0,0.0,0.0,0.000545,-0.508196,0.007749,-1.07155,-263.346246,-1.350651,68.587875
8.3366,-0.003653,0.001907,0.008178,0.0,0.0,0.0,3.2e-05,-0.5085,0.006766,-1.07155,-263.346246,-1.350651,68.587875
8.3565,-0.002896,0.001823,0.007044,0.0,0.0,0.0,3.2e-05,-0.5085,0.006766,-1.07155,-263.346246,-1.350651,68.587875
8.3765,-0.003516,0.001592,0.007048,0.0,0.0,0.0,0.000697,-0.508164,0.007044,-1.07155,-263.346246,-1.350651,68.587875
8.3964,-0.002992,0.001827,0.006344,0.0,0.0,0.0,0.000446,-0.508258,0.007046,-1.07155,-263.346246,-1.350651,68.587875
8.4165,-0.003368,0.001441,0.007167,0.0,0.0,0.0,0.000243,-0.508162,0.006344,-1.07155,-263.346246,-1.350651,68.587875
8.4364,-0.003287,0.001963,0.008129,0.0,0.0,0.0,0.000283,-0.508512,0.007095,-1.07155,-263.346246,-1.350651,68.587875
8.4565,-0.003477,0.001637,0.007291,0.0,0.0,0.0,0.000283,-0.508512,0.007095,-1.07155,-263.346246,-1.350651,68.587875
8.4765,-0.003532,0.001792,0.00681,0.0,0.0,0.0,0.000241,-0.508349,0.007291,-1.07155,-263.346246,-1.350651,68.587875
8.4961,-0.003456,0.001839,0.006684,0.0,0.0,0.0,0.000117,-0.508286,0.007093,-1.07155,-263.346246,-1.350651,68.587875
8.516,-0.003228,0.00194,0.006486,0.0,0.0,0.0,-4.7e-05,-0.508149,0.006684,-1.07155,-263.346246,-1.350651,68.587875
8.5365,-0.003468,0.001776,0.007084,0.0,0.0,0.0,6.8e-05,-0.508058,0.006504,-1.07155,-263.346246,-1.350651,68.587875
8.5561,-0.003568,0.001665,0.006681,0.0,0.0,0.0,6.8e-05,-0.508058,0.006504,-1.07155,-263.346246,-1.350651,68.587875
8.5761,-0.003558,0.002123,0.005666,0.0,0.0,0.0,-0.00016,-0.508324,0.006681,-1.07155,-263.346246,-1.350651,68.587875
8.596,-0.003237,0.001801,0.006305,0.0,0.0,0.0,-0.00037,-0.508136,0.006262,-1.07155,-263.346246,-1.350651,68.587875
8.616,-0.003537,0.001267,0.007039,0.0,0.0,0.0,-2.1e-05,-0.508189,0.006305,-1.07155,-263.346246,-1.350651,68.587875
8.6361,-0.003604,0.001854,0.008107,0.0,0.0,0.0,4.7e-05,-0.508675,0.006976,-1.07155,-263.346246,-1.350651,68.587875
8.6561,-0.003456,0.00204,0.006997,0.0,0.0,0.0,4.7e-05,-0.508675,0.006976,-1.07155,-263.346246,-1.350651,68.587875
8.6763,-0.003483,0.001405,0.00637,0.0,0.0,0.0,0.000113,-0.507948,0.006997,-1.07155,-263.346246,-1.350651,68.587875
8.6963,-0.003209,0.001615,0.006267,0.0,0.0,0.0,-2.9e-05,-0.508208,0.00674,-1.07155,-263.346246,-1.350651,68.587875
8.7162,-0.003211,0.001505,0.004387,0.0,0.0,0.0,-1.3e-05,-0.508374,0.006267,-1.07155,-263.346246,-1.350651,68.587875
8.7363,-0.00297,0.001313,0.00715,0.0,0.0,0.0,-0.00089,-0.50848,0.004551,-1.07155,-263.346246,-1.350651,68.587875
8.7564,-0.003398,0.001664,0.005571,0.0,0.0,0.0,-0.00089,-0.50848,0.004551,-1.07155,-263.346246,-1.350651,68.587875
8.7763,-0.003227,0.001706,0.006677,0.0,0.0,0.0,-0.000557,-0.508328,0.005571,-1.07155,-263.346246,-1.350651,68.587875
8.7966,-0.003,0.001488,0.00705,0.0,0.0,0.0,-0.000255,-0.508309,0.006026,-1.07155,-263.346246,-1.350651,68.587875
8.8163,-0.003235,0.001916,0.006547,0.0,0.0,0.0,0.000596,-0.508499,0.00705,-1.07155,-263.346246,-1.350651,68.587875
8.8366,-0.003267,0.00181,0.007162,0.0,0.0,0.0,0.000147,-0.508111,0.006591,-1.07155,-263.346246,-1.350651,68.587875
8.8563,-0.003407,0.001768,0.006777,0.0,0.0,0.0,0.000147,-0.508111,0.006591,-1.07155,-263.346246,-1.350651,68.587875
8.877,-0.003363,0.002312,0.005056,0.0,0.0,0.0,4.9e-05,-0.508221,0.006777,-1.07155,-263.346246,-1.350651,68.587875
8.8966,-0.003651,0.00194,0.007379,0.0,0.0,0.0,-0.000281,-0.508007,0.006094,-1.07155,-263.346246,-1.350651,68.587875
8.9165,-0.003632,0.001253,0.004849,0.0,0.0,0.0,0.000113,-0.508047,0.007379,-1.07155,-263.346246,-1.350651,68.587875
8.9366,-0.003544,0.001543,0.006034,0.0,0.0,0.0,-0.001051,-0.508682,0.005063,-1.07155,-263.346246,-1.350651,68.587875
8.9566,-0.003189,0.001967,0.00618,0.0,0.0,0.0,-0.001051,-0.508682,0.005063,-1.07155,-263.346246,-1.350651,68.587875
8.9768,-0.003419,0.001602,0.005617,0.0,0.0,0.0,-3.7e-05,-0.508023,0.00618,-1.07155,-263.346246,-1.350651,68.587875
8.9963,-0.003573,0.001678,0.006329,0.0,0.0,0.0,-0.000249,-0.508173,0.00595,-1.07155,-263.346246,-1.350651,68.587875
9.0159,-0.00378,0.001622,0.00671,0.0,0.0,0.0,-0.000345,-0.508311,0.006329,-1.07155,-263.346246,-1.350651,68.587875
9.036,-0.003425,0.001597,0.007367,0.0,0.0,0.0,-0.000357,-0.508362,0.006675,-1.07155,-263.346246,-1.350651,68.587875
9.0561,-0.003223,0.001882,0.008277,0.0,0.0,0.0,-0.000357,-0.508362,0.006675,-1.07155,-263.346246,-1.350651,68.587875
9.0759,-0.003042,0.001333,0.006404,0.0,0.0,0.0,0.000998,-0.508101,0.008277,-1.07155,-263.346246,-1.350651,68.587875
9.096,-0.003451,0.002176,0.006253,0.0,0.0,0.0,0.000683,-0.508327,0.007515,-1.07155,-263.346246,-1.350651,68.587875
9.1163,-0.003409,0.001625,0.005158,0.0,0.0,0.0,-0.000262,-0.507814,0.006253,-1.07155,-263.346246,-1.350651,68.587875
9.1362,-0.003368,0.001859,0.005124,0.0,0.0,0.0,-0.000732,-0.508317,0.005257,-1.07155,-263.346246,-1.350651,68.587875
9.1565,-0.003391,0.001744,0.004853,0.0,0.0,0.0,-0.000732,-0.508317,0.005257,-1.07155,-263.346246,-1.350651,68.587875
9.1762,-0.003313,0.001638,0.006985,0.0,0.0,0.0,-0.000916,-0.50825,0.004853,-1.07155,-263.346246,-1.350651,68.587875
9.1961,-0.003088,0.001756,0.00626,0.0,0.0,0.0,-0.000439,-0.508291,0.005725,-1.07155,-263.346246,-1.350651,68.587875
9.2162,-0.003241,0.00174,0.003723,0.0,0.0,0.0,0.000105,-0.508234,0.00626,-1.07155,-263.346246,-1.350651,68.587875
9.2362,-0.003543,0.001821,0.007401,0.0,0.0,0.0,-0.001205,-0.508255,0.003963,-1.07155,-263.346246,-1.350651,68.587875
9.2563,-0.003369,0.00182,0.006385,0.0,0.0,0.0,-0.001205,-0.508255,0.003963,-1.07155,-263.346246,-1.350651,68.587875
9.2761,-0.003449,0.001454,0.007542,0.0,0.0,0.0,-0.000112,-0.50817,0.006385,-1.07155,-263.346246,-1.350651,68.587875
9.2961,-0.003381,0.001946,0.006803,0.0,0.0,0.0,9.3e-05,-0.508316,0.006851,-1.07155,-263.346246,-1.350651,68.587875
9.316,-0.002912,0.001656,0.006139,0.0,0.0,0.0,8.9e-05,-0.508042,0.006803,-1.07155,-263.346246,-1.350651,68.587875
9.336,-0.003343,0.001469,0.00804,0.0,0.0,0.0,0.000207,-0.508309,0.006197,-1.07155,-263.346246,-1.350651,68.587875
9.3562,-0.003488,0.001627,0.007276,0.0,0.0,0.0,0.000207,-0.508309,0.006197,-1.07155,-263.346246,-1.350651,68.587875
9.3766,-0.003151,0.001729,0.007669,0.0,0.0,0.0,0.000222,-0.508359,0.007276,-1.07155,-263.346246,-1.350651,68.587875
9.3962,-0.003593,0.001667,0.005644,0.0,0.0,0.0,0.000444,-0.508317,0.007438,-1.07155,-263.346246,-1.350651,68.587875
9.4159,-0.003142,0.001495,0.006372,0.0,0.0,0.0,-0.000715,-0.508325,0.005644,-1.07155,-263.346246,-1.350651,68.587875
9.4362,-0.003387,0.001988,0.006505,0.0,0.0,0.0,3.8e-05,-0.50848,0.00631,-1.07155,-263.346246,-1.350651,68.587875
9.4565,-0.003201,0.001471,0.006369,0.0,0.0,0.0,3.8e-05,-0.50848,0.00631,-1.07155,-263.346246,-1.350651,68.587875
9.4765,-0.00322,0.001957,0.00586,0.0,0.0,0.0,4.8e-05,-0.508519,0.006369,-1.07155,-263.346246,-1.350651,68.587875
9.4964,-0.003152,0.001494,0.007529,0.0,0.0,0.0,-6.4e-05,-0.508324,0.006165,-1.07155,-263.346246,-1.350651,68.587875
9.5159,-0.003317,0.001702,0.006279,0.0,0.0,0.0,0.000688,-0.508492,0.007529,-1.07155,-263.346246,-1.350651,68.587875
9.536,-0.00369,0.001893,0.007514,0.0,0.0,0.0,-4.7e-05,-0.508306,0.006385,-1.07155,-263.346246,-1.350651,68.587875
9.5561,-0.003211,0.00172,0.007496,0.0,0.0,0.0,-4.7e-05,-0.508306,0.006385,-1.07155,-263.346246,-1.350651,68.587875
9.5765,-0.003245,0.001428,0.007587,0.0,0.0,0.0,0.000612,-0.508266,0.007496,-1.07155,-263.346246,-1.350651,68.587875
9.5961,-0.003631,0.001843,0.00606,0.0,0.0,0.0,0.000617,-0.508385,0.007533,-1.07155,-263.346246,-1.350651,68.587875
9.616,-0.003685,0.00172,0.005318,0.0,0.0,0.0,-0.00054,-0.508148,0.00606,-1.07155,-263.346246,-1.350651,68.587875
9.6361,-0.003605,0.001471,0.00612,0.0,0.0,0.0,-0.000936,-0.508262,0.005381,-1.07155,-263.346246,-1.350651,68.587875
9.6562,-0.003272,0.001471,0.00726,0.0,0.0,0.0,-0.000936,-0.508262,0.005381,-1.07155,-263.346246,-1.350651,68.587875
9.6764,-0.003554,0.001735,0.0057,0.0,0.0,0.0,0.00043,-0.508515,0.00726,-1.07155,-263.346246,-1.350651,68.587875
9.6965,-0.003335,0.001769,0.006897,0.0,0.0,0.0,-1.7e-05,-0.508408,0.006612,-1.07155,-263.346246,-1.350651,68.587875
9.7162,-0.002952,0.001539,0.007411,0.0,0.0,0.0,0.000182,-0.508219,0.006897,-1.07155,-263.346246,-1.350651,68.587875
9.7365,-0.003258,0.001723,0.006001,0.0,0.0,0.0,0.00077,-0.508427,0.007365,-1.07155,-263.346246,-1.350651,68.587875
9.7561,-0.003381,0.001525,0.006496,0.0,0.0,0.0,0.00077,-0.508427,0.007365,-1.07155,-263.346246,-1.350651,68.587875
9.7764,-0.003577,0.001379,0.006498,0.0,0.0,0.0,-6.8e-05,-0.508465,0.006496,-1.07155,-263.346246,-1.350651,68.587875
9.7964,-0.003434,0.001451,0.006934,0.0,0.0,0.0,-0.000148,-0.508524,0.006497,-1.07155,-263.346246,-1.350651,68.587875
9.8163,-0.00349,0.001446,0.007192,0.0,0.0,0.0,0.000102,-0.508536,0.006934,-1.07155,-263.346246,-1.350651,68.587875
9.8361,-0.003239,0.001454,0.006493,0.0,0.0,0.0,0.000172,-0.50854,0.00717,-1.07155,-263.346246,-1.350651,68.587875
9.8565,-0.003353,0.00152,0.00485,0.0,0.0,0.0,0.000172,-0.50854,0.00717,-1.07155,-263.346246,-1.350651,68.587875
9.8767,-0.003992,0.001993,0.007163,0.0,0.0,0.0,-0.000879,-0.508474,0.00485,-1.07155,-263.346246,-1.350651,68.587875
9.8967,-0.003486,0.001932,0.004187,0.0,0.0,0.0,-0.00066,-0.508279,0.00579,-1.07155,-263.346246,-1.350651,68.587875
9.9159,-0.003637,0.001633,0.007044,0.0,0.0,0.0,-0.001351,-0.508063,0.004187,-1.07155,-263.346246,-1.350651,68.587875
9.9365,-0.00356,0.001511,0.006027,0.0,0.0,0.0,-0.000158,-0.508329,0.006796,-1.07155,-263.346246,-1.350651,68.587875
9.9566,-0.003038,0.001613,0.006447,0.0,0.0,0.0,-0.000158,-0.508329,0.006796,-1.07155,-263.346246,-1.350651,68.587875
9.9766,-0.002994,0.001434,0.0065,0.0,0.0,0.0,0.00025,-0.508376,0.006447,-1.07155,-263.346246,-1.350651,68.587875
9.9967,-0.003673,0.001261,0.005575,0.0,0.0,0.0,0.000279,-0.508449,0.006469,-1.07155,-263.346246,-1.350651,68.587875
10.017,-0.00315,0.001732,0.005696,0.0,0.0,0.0,-0.00083,-0.508731,0.005575,-1.07155,-263.346246,-1.350651,68.587875
10.0369,-0.003648,0.001688,0.007071,0.0,0.0,0.0,-0.000297,-0.508302,0.005685,-1.07155,-263.346246,-1.350651,68.587875
10.0569,-0.003515,0.001868,0.006422,0.0,0.0,0.0,-0.000297,-0.508302,0.005685,-1.07155,-263.346246,-1.350651,68.587875
10.0767,-0.003119,0.001857,0.006949,0.0,0.0,0.0,-0.00024,-0.508122,0.006422,-1.07155,-263.346246,-1.350651,68.587875
10.0961,-0.003141,0.001729,0.004663,0.0,0.0,0.0,3.1e-05,-0.508125,0.006637,-1.07155,-263.346246,-1.350651,68.587875
10.116,-0.00305,0.001541,0.006651,0.0,0.0,0.0,-0.000763,-0.508265,0.004663,-1.07155,-263.346246,-1.350651,68.587875
10.1363,-0.003723,0.001746,0.006635,0.0,0.0,0.0,0.000243,-0.508431,0.006472,-1.07155,-263.346246,-1.350651,68.587875
10.156,-0.003788,0.001714,0.006762,0.0,0.0,0.0,0.000243,-0.508431,0.006472,-1.07155,-263.346246,-1.350651,68.587875
10.1761,-0.00292,0.001607,0.004998,0.0,0.0,0.0,-0.000339,-0.508274,0.006762,-1.07155,-263.346246,-1.350651,68.587875
10.196,-0.003062,0.001724,0.005534,0.0,0.0,0.0,-0.000352,-0.50832,0.006036,-1.07155,-263.346246,-1.350651,68.587875
10.216,-0.003168,0.00146,0.007278,0.0,0.0,0.0,-0.00024,-0.508268,0.005534,-1.07155,-263.346246,-1.350651,68.587875
10.2362,-0.003253,0.00166,0.00619,0.0,0.0,0.0,0.000475,-0.508504,0.007127,-1.07155,-263.346246,-1.350651,68.587875
10.256,-0.00311,0.002145,0.00449,0.0,0.0,0.0,0.000475,-0.508504,0.007127,-1.07155,-263.346246,-1.350651,68.587875
10.2761,-0.003673,0.001616,0.005395,0.0,0.0,0.0,-0.00082,-0.50785,0.00449,-1.07155,-263.346246,-1.350651,68.587875
10.2961,-0.003005,0.00126,0.005817,0.0,0.0,0.0,-0.000862,-0.508067,0.004863,-1.07155,-263.346246,-1.350651,68.587875
10.3161,-0.003223,0.001642,0.005523,0.0,0.0,0.0,-3.9e-05,-0.508731,0.005817,-1.07155,-263.346246,-1.350651,68.587875
10.3361,-0.00349,0.001876,0.006944,0.0,0.0,0.0,-0.000375,-0.508383,0.005548,-1.07155,-263.346246,-1.350651,68.587875
10.3561,-0.003092,0.001601,0.005273,0.0,0.0,0.0,-0.000375,-0.508383,0.005548,-1.07155,-263.346246,-1.350651,68.587875
10.3768,-0.003351,0.001461,0.006113,0.0,0.0,0.0,-0.000402,-0.508392,0.005273,-1.07155,-263.346246,-1.350651,68.587875
10.3962,-0.003243,0.00128,0.00615,0.0,0.0,0.0,-0.000333,-0.508449,0.00562,-1.07155,-263.346246,-1.350651,68.587875
10.416,-0.003682,0.001549,0.007827,0.0,0.0,0.0,-0.000107,-0.508711,0.00615,-1.07155,-263.346246,-1.350651,68.587875
10.4361,-0.003428,0.001623,0.00607,0.0,0.0,0.0,0.000275,-0.508458,0.007685,-1.07155,-263.346246,-1.350651,68.587875
10.4562,-0.003106,0.001619,0.005408,0.0,0.0,0.0,0.000275,-0.508458,0.007685,-1.07155,-263.346246,-1.350651,68.587875
10.4761,-0.003635,0.001504,0.0058,0.0,0.0,0.0,-0.000348,-0.508374,0.005408,-1.07155,-263.346246,-1.350651,68.587875
10.4961,-0.003424,0.00168,0.005737,0.0,0.0,0.0,-0.000484,-0.508421,0.00557,-1.07155,-263.346246,-1.350651,68.587875
10.516,-0.003249,0.001791,0.006234,0.0,0.0,0.0,-0.000499,-0.508311,0.005737,-1.07155,-263.346246,-1.350651,68.587875
10.5363,-0.00339,0.001241,0.006453,0.0,0.0,0.0,-0.000106,-0.508209,0.006191,-1.07155,-263.346246,-1.350651,68.587875
10.5561,-0.003069,0.001506,0.004942,0.0,0.0,0.0,-0.000106,-0.508209,0.006191,-1.07155,-263.346246,-1.350651,68.587875
10.5761,-0.003252,0.001498,0.006173,0.0,0.0,0.0,-0.000548,-0.508488,0.004942,-1.07155,-263.346246,-1.350651,68.587875
10.5963,-0.00366,0.001797,0.006213,0.0,0.0,0.0,-0.000362,-0.50849,0.005457,-1.07155,-263.346246,-1.350651,68.587875
10.6163,-0.003509,0.001539,0.005916,0.0,0.0,0.0,-0.000492,-0.508193,0.006213,-1.07155,-263.346246,-1.350651,68.587875
10.6359,-0.003387,0.001633,0.006216,0.0,0.0,0.0,-0.000492,-0.50843,0.005941,-1.07155,-263.346246,-1.350651,68.587875
10.6561,-0.003174,0.00177,0.005987,0.0,0.0,0.0,-0.000492,-0.50843,0.005941,-1.07155,-263.346246,-1.350651,68.587875
10.6762,-0.003178,0.001621,0.0075,0.0,0.0,0.0,-0.00012,-0.508221,0.005987,-1.07155,-263.346246,-1.350651,68.587875
10.6961,-0.003587,0.002143,0.005867,0.0,0.0,0.0,0.000192,-0.50828,0.006603,-1.07155,-263.346246,-1.350651,68.587875
10.716,-0.003505,0.001799,0.006957,0.0,0.0,0.0,-0.000594,-0.507848,0.005867,-1.07155,-263.346246,-1.350651,68.587875
10.7364,-0.003259,0.00122,0.006417,0.0,0.0,0.0,-1.2e-05,-0.508159,0.006863,-1.07155,-263.346246,-1.350651,68.587875
10.7561,-0.003453,0.001775,0.006766,0.0,0.0,0.0,-1.2e-05,-0.508159,0.006863,-1.07155,-263.346246,-1.350651,68.587875
10.7767,-0.002863,0.001784,0.007171,0.0,0.0,0.0,-3e-06,-0.508213,0.006766,-1.07155,-263.346246,-1.350651,68.587875
10.7966,-0.003044,0.002023,0.006826,0.0,0.0,0.0,0.000325,-0.508209,0.006933,-1.07155,-263.346246,-1.350651,68.587875
10.8163,-0.003374,0.001668,0.006558,0.0,0.0,0.0,0.000437,-0.507965,0.006826,-1.07155,-263.346246,-1.350651,68.587875
10.8361,-0.002949,0.001493,0.006609,0.0,0.0,0.0,1.1e-05,-0.508291,0.006581,-1.07155,-263.346246,-1.350651,68.587875
10.8566,-0.003065,0.0018,0.006189,0.0,0.0,0.0,1.1e-05,-0.508291,0.006581,-1.07155,-263.346246,-1.350651,68.587875
10.8765,-0.003316,0.001969,0.007122,0.0,0.0,0.0,9.1e-05,-0.508191,0.006189,-1.07155,-263.346246,-1.350651,68.587875
10.8965,-0.003205,0.00162,0.006467,0.0,0.0,0.0,0.000181,-0.508122,0.006562,-1.07155,-263.346246,-1.350651,68.587875
10.9158,-0.003636,0.001997,0.004335,0.0,0.0,0.0,9.3e-05,-0.50837,0.006467,-1.07155,-263.346246,-1.350651,68.587875
10.9361,-0.00324,0.001669,0.004807,0.0,0.0,0.0,-0.001301,-0.508028,0.00451,-1.07155,-263.346246,-1.350651,68.587875
10.956,-0.003291,0.001353,0.006282,0.0,0.0,0.0,-0.001301,-0.508028,0.00451,-1.07155,-263.346246,-1.350651,68.587875
10.9763,-0.003186,0.001932,0.005541,0.0,0.0,0.0,-8.7e-05,-0.508637,0.006282,-1.07155,-263.346246,-1.350651,68.587875
10.9961,-0.003576,0.002313,0.00645,0.0,0.0,0.0,-0.000199,-0.508401,0.005978,-1.07155,-263.346246,-1.350651,68.587875
11.0163,-0.003642,0.001565,0.00657,0.0,0.0,0.0,-0.000287,-0.507676,0.00645,-1.07155,-263.346246,-1.350651,68.587875
11.0362,-0.003203,0.00177,0.006415,0.0,0.0,0.0,-0.000291,-0.508352,0.006558,-1.07155,-263.346246,-1.350651,68.587875
11.0563,-0.00337,0.001516,0.005557,0.0,0.0,0.0,-0.000291,-0.508352,0.006558,-1.07155,-263.346246,-1.350651,68.587875
11.0765,-0.003494,0.001395,0.005284,0.0,0.0,0.0,-0.000536,-0.508477,0.005557,-1.07155,-263.346246,-1.350651,68.587875
11.0966,-0.003588,0.001704,0.007358,0.0,0.0,0.0,-0.000644,-0.508527,0.005445,-1.07155,-263.346246,-1.350651,68.587875
11.1164,-0.003407,0.00178,0.006798,0.0,0.0,0.0,0.000165,-0.508282,0.007358,-1.07155,-263.346246,-1.350651,68.587875
11.1362,-0.003449,0.00206,0.006413,0.0,0.0,0.0,6.9e-05,-0.508215,0.006849,-1.07155,-263.346246,-1.350651,68.587875
11.1565,-0.003563,0.001905,0.006322,0.0,0.0,0.0,6.9e-05,-0.508215,0.006849,-1.07155,-263.346246,-1.350651,68.587875
11.176,-0.003151,0.00212,0.005522,0.0,0.0,0.0,-0.000338,-0.508085,0.006322,-1.07155,-263.346246,-1.350651,68.587875
11.1961,-0.003383,0.00138,0.005733,0.0,0.0,0.0,-0.000337,-0.507998,0.005996,-1.07155,-263.346246,-1.350651,68.587875
11.2161,-0.003474,0.001587,0.006896,0.0,0.0,0.0,-0.00046,-0.508612,0.005733,-1.07155,-263.346246,-1.350651,68.587875
11.2366,-0.003259,0.002071,0.006908,0.0,0.0,0.0,-1e-06,-0.50842,0.006792,-1.07155,-263.346246,-1.350651,68.587875
11.2565,-0.003079,0.001738,0.007215,0.0,0.0,0.0,-1e-06,-0.50842,0.006792,-1.07155,-263.346246,-1.350651,68.587875
11.2763,-0.003207,0.001736,0.005829,0.0,0.0,0.0,0.0006,-0.508248,0.007215,-1.07155,-263.346246,-1.350651,68.587875
11.2964,-0.003205,0.001452,0.004363,0.0,0.0,0.0,0.000259,-0.508251,0.006648,-1.07155,-263.346246,-1.350651,68.587875
11.3165,-0.00342,0.001927,0.006694,0.0,0.0,0.0,-0.000979,-0.508543,0.004363,-1.07155,-263.346246,-1.350651,68.587875
11.3367,-0.003297,0.00198,0.005482,0.0,0.0,0.0,-8.9e-05,-0.508103,0.006494,-1.07155,-263.346246,-1.350651,68.587875
11.3566,-0.003346,0.001868,0.006583,0.0,0.0,0.0,-8.9e-05,-0.508103,0.006494,-1.07155,-263.346246,-1.350651,68.587875
11.3768,-0.00331,0.001571,0.005727,0.0,0.0,0.0,1.1e-05,-0.508121,0.006583,-1.07155,-263.346246,-1.350651,68.587875
11.3965,-0.002892,0.00191,0.007271,0.0,0.0,0.0,-0.000154,-0.508245,0.00623,-1.07155,-263.346246,-1.350651,68.587875
11.4168,-0.003511,0.001914,0.00569,0.0,0.0,0.0,0.000816,-0.508076,0.007271,-1.07155,-263.346246,-1.350651,68.587875
11.4368,-0.003209,0.001413,0.005271,0.0,0.0,0.0,-0.000476,-0.508078,0.005838,-1.07155,-263.346246,-1.350651,68.587875
11.4563,-0.003503,0.001799,0.006416,0.0,0.0,0.0,-0.000476,-0.508078,0.005838,-1.07155,-263.346246,-1.350651,68.587875
11.4765,-0.002944,0.001594,0.007429,0.0,0.0,0.0,-0.000231,-0.508191,0.006416,-1.07155,-263.346246,-1.350651,68.587875
11.4962,-0.003759,0.001873,0.006534,0.0,0.0,0.0,0.000206,-0.508272,0.006828,-1.07155,-263.346246,-1.350651,68.587875
11.5163,-0.003603,0.001713,0.006796,0.0,0.0,0.0,-0.000426,-0.508116,0.006534,-1.07155,-263.346246,-1.350651,68.587875
11.5365,-0.00363,0.001217,0.006258,0.0,0.0,0.0,-0.000161,-0.508261,0.006774,-1.07155,-263.346246,-1.350651,68.587875
11.5566,-0.003074,0.001838,0.005438,0.0,0.0,0.0,-0.000161,-0.508261,0.006774,-1.07155,-263.346246,-1.350651,68.587875
11.5765,-0.003121,0.00169,0.005649,0.0,0.0,0.0,-0.0003,-0.508154,0.005438,-1.07155,-263.346246,-1.350651,68.587875
11.5962,-0.003197,0.00186,0.008212,0.0,0.0,0.0,-0.000275,-0.508215,0.005525,-1.07155,-263.346246,-1.350651,68.587875
11.6163,-0.003024,0.001686,0.005042,0.0,0.0,0.0,0.000991,-0.508123,0.008212,-1.07155,-263.346246,-1.350651,68.587875
11.6364,-0.002979,0.0017,0.003503,0.0,0.0,0.0,-0.000328,-0.508292,0.005314,-1.07155,-263.346246,-1.350651,68.587875
11.6564,-0.003287,0.001427,0.006845,0.0,0.0,0.0,-0.000328,-0.508292,0.005314,-1.07155,-263.346246,-1.350651,68.587875
11.6763,-0.003009,0.001904,0.007179,0.0,0.0,0.0,0.000203,-0.508561,0.006845,-1.07155,-263.346246,-1.350651,68.587875
11.6961,-0.003297,0.001519,0.005474,0.0,0.0,0.0,0.000389,-0.508363,0.006983,-1.07155,-263.346246,-1.350651,68.587875
11.7163,-0.003327,0.001563,0.00597,0.0,0.0,0.0,-0.000505,-0.508473,0.005474,-1.07155,-263.346246,-1.350651,68.587875
11.7361,-0.003477,0.00188,0.006118,0.0,0.0,0.0,-0.000302,-0.508432,0.005926,-1.07155,-263.346246,-1.350651,68.587875
11.7561,-0.003499,0.001693,0.005824,0.0,0.0,0.0,-0.000302,-0.508432,0.005926,-1.07155,-263.346246,-1.350651,68.587875
11.7763,-0.003336,0.001678,0.004953,0.0,0.0,0.0,-0.000529,-0.508299,0.005824,-1.07155,-263.346246,-1.350651,68.587875
11.7961,-0.003368,0.002247,0.00607,0.0,0.0,0.0,-0.000645,-0.508305,0.005465,-1.07155,-263.346246,-1.350651,68.587875
11.8162,-0.003387,0.001612,0.006262,0.0,0.0,0.0,-0.000273,-0.507743,0.00607,-1.07155,-263.346246,-1.350651,68.587875
11.8361,-0.003393,0.001958,0.004963,0.0,0.0,0.0,-0.0002,-0.508323,0.006246,-1.07155,-263.346246,-1.350651,68.587875
11.8563,-0.003369,0.001907,0.006019,0.0,0.0,0.0,-0.0002,-0.508323,0.006246,-1.07155,-263.346246,-1.350651,68.587875
11.8761,-0.003457,0.001822,0.006725,0.0,0.0,0.0,-0.0003,-0.508083,0.006019,-1.07155,-263.346246,-1.350651,68.587875
11.8964,-0.003456,0.002088,0.007083,0.0,0.0,0.0,-0.000188,-0.508118,0.006309,-1.07155,-263.346246,-1.350651,68.587875
