mach0312/omni-docking-bench/src/icros_test_setup/results/MPPI_sample/timeseries/trial_050.csv
t,x,y,yaw,vx,vy,wz,bl_x,bl_y,bl_yaw,front_steering_joint,front_wheel_joint,rear_steering_joint,rear_wheel_joint
0.0,-0.051424,-0.022899,0.039733,-0.011878,0.001657,0.038006,-0.029335,-0.532639,0.034447,-1.125218,-261.710636,1.067167,71.913956
0.0006,-0.051564,-0.022648,0.039638,-0.006904,0.000963,0.022092,-0.029335,-0.532639,0.034447,-1.125218,-261.722433,1.067167,71.903421
0.0009,-0.051364,-0.022335,0.038456,-0.005925,0.000826,0.018959,-0.029215,-0.532482,0.03641,-1.125218,-261.732935,1.067167,71.894042
0.0012,-0.052515,-0.022965,0.041051,-0.004875,0.00068,0.015598,-0.030199,-0.532683,0.035513,-1.125218,-261.742362,1.067167,71.885624
0.0016,-0.052203,-0.022877,0.042118,-0.003759,0.000524,0.012028,-0.030199,-0.532683,0.035513,-1.125218,-261.749616,1.067167,71.879147
0.0018,-0.053069,-0.023414,0.042877,-0.002575,0.000359,0.008241,-0.030199,-0.532683,0.035513,-1.125218,-261.755134,1.067167,71.874219
0.0022,-0.052867,-0.022721,0.042922,-0.001324,0.000185,0.004236,-0.030313,-0.53275,0.03772,-1.125218,-261.757516,1.067167,71.872092
0.0024,-0.052959,-0.022705,0.041475,-4e-06,1e-06,1.2e-05,-0.030157,-0.532583,0.038796,-1.125218,-261.757516,1.067167,71.872092
0.0026,-0.053543,-0.023103,0.042157,0.0,0.0,0.0,-0.030157,-0.532583,0.038796,-1.125218,-261.757516,1.067167,71.872092
0.0029,-0.053272,-0.02268,0.043088,0.0,0.0,0.0,-0.030582,-0.532209,0.039253,-1.125218,-261.757516,1.067167,71.872092
0.0156,-0.053407,-0.022672,0.043276,0.0,0.0,0.0,-0.031305,-0.532207,0.043088,-1.125218,-261.757519,1.067167,71.872088
0.0358,-0.053348,-0.022928,0.04189,0.0,0.0,0.0,-0.03134,-0.532196,0.043259,-1.125218,-261.757519,1.067167,71.872088
0.0558,-0.053311,-0.022927,0.041571,0.0,0.0,0.0,-0.03134,-0.532196,0.043259,-1.125218,-261.757519,1.067167,71.872088
0.0757,-0.053484,-0.022632,0.042702,0.0,0.0,0.0,-0.032116,-0.532486,0.041571,-1.125218,-261.757519,1.067167,71.872088
0.0962,-0.053332,-0.02287,0.043117,0.0,0.0,0.0,-0.031946,-0.532351,0.042048,-1.125218,-261.757519,1.067167,71.872088
0.1161,-0.053489,-0.022906,0.043901,0.003966,0.001653,-0.001501,-0.031349,-0.532396,0.043117,-1.125218,-261.757519,1.067167,71.872088
0.1366,-0.053301,-0.02302,0.042973,0.004311,0.001818,-0.002831,-0.031127,-0.532413,0.043834,-1.125218,-261.757519,1.067167,71.872088
0.1565,-0.053671,-0.022605,0.042902,0.004601,0.001963,-0.003745,-0.031127,-0.532413,0.043834,-1.125218,-261.757519,1.067167,71.872088
0.1762,-0.053096,-0.022736,0.042826,0.004846,0.002089,-0.004368,-0.031797,-0.532136,0.042902,-1.05046,-261.757519,0.992409,71.872088
0.1962,-0.053327,-0.023029,0.042267,0.005061,0.00219,-0.0056,-0.03158,-0.53219,0.042871,-1.05046,-261.757519,0.992409,71.872088
0.2162,-0.0533,-0.023172,0.042797,0.005241,0.002279,-0.00647,-0.031778,-0.532573,0.042267,-0.975623,-261.757519,0.917572,71.872089
0.2364,-0.05334,-0.022949,0.041511,0.005388,0.00237,-0.007749,-0.031506,-0.532693,0.042751,-0.975623,-261.757519,0.917572,71.872089
0.2566,-0.053748,-0.022707,0.042313,0.005511,0.00245,-0.008681,-0.031506,-0.532693,0.042751,-0.975623,-261.757519,0.917572,71.872089
0.2762,-0.053169,-0.022549,0.042164,0.005614,0.002522,-0.009352,-0.032175,-0.53225,0.042313,-0.900511,-261.757518,0.871405,71.87209
0.2963,-0.053822,-0.022548,0.040128,0.005712,0.002572,-0.010374,-0.031969,-0.532187,0.042251,-0.900511,-261.757518,0.871405,71.87209
0.3158,-0.053377,-0.023013,0.040482,0.005793,0.002618,-0.011131,-0.03335,-0.532133,0.040102,-0.825388,-261.757322,0.946528,71.872393
0.3358,-0.05337,-0.023307,0.041858,0.005862,0.002659,-0.012121,-0.032782,-0.532561,0.040453,-0.825388,-261.757322,0.946528,71.872393
0.3562,-0.053512,-0.022853,0.041178,0.00592,0.002698,-0.012865,-0.032782,-0.532561,0.040453,-0.825388,-261.757322,0.946528,71.872393
0.3759,-0.053479,-0.022874,0.042367,0.005968,0.002734,-0.01342,-0.032409,-0.53237,0.040944,-0.750173,-261.755954,1.019246,71.874509
0.3957,-0.053275,-0.023113,0.041703,0.006007,0.002773,-0.014202,-0.032182,-0.532383,0.041492,-0.750173,-261.755954,1.019246,71.874509
0.4156,-0.052604,-0.022587,0.042089,0.006038,0.002809,-0.014796,-0.031837,-0.532584,0.041303,-0.741125,-261.752858,1.071006,71.879123
0.4358,-0.052411,-0.022753,0.041603,0.006059,0.002851,-0.015567,-0.031198,-0.532171,0.041998,-0.741125,-261.752858,1.071006,71.879123
0.4561,-0.052458,-0.022542,0.042378,0.006077,0.00289,-0.016167,-0.031198,-0.532171,0.041998,-0.741125,-261.752858,1.071006,71.879123
0.4759,-0.052082,-0.022361,0.040906,0.006091,0.002925,-0.016632,-0.030621,-0.531964,0.041801,-0.800827,-261.749623,1.099363,71.884082
0.4959,-0.051517,-0.022461,0.0413,0.006102,0.002959,-0.017192,-0.03084,-0.531939,0.04137,-0.800827,-261.749623,1.099363,71.884082
0.5161,-0.051276,-0.022427,0.040574,0.00611,0.002989,-0.017631,-0.030288,-0.531935,0.040819,-0.870882,-261.746182,1.135047,71.889333
0.5361,-0.051174,-0.022415,0.039644,0.006112,0.003023,-0.0181,-0.030557,-0.531997,0.040572,-0.870882,-261.746182,1.135047,71.889333
0.5561,-0.051389,-0.022555,0.040398,0.006114,0.003054,-0.018469,-0.030557,-0.531997,0.040572,-0.870882,-261.746182,1.135047,71.889333
0.576,-0.050529,-0.022203,0.03969,0.006115,0.003081,-0.018758,-0.030548,-0.532007,0.03968,-0.904968,-261.742316,1.152837,71.895217
0.5961,-0.050732,-0.022303,0.039595,0.006115,0.003105,-0.01912,-0.030412,-0.531905,0.039601,-0.904968,-261.742316,1.152837,71.895217
0.6158,-0.049997,-0.021705,0.03827,0.006114,0.003128,-0.019408,-0.030359,-0.531801,0.039018,-0.940182,-261.73827,1.172636,71.90137
0.6361,-0.050062,-0.022217,0.036819,0.006119,0.003138,-0.019762,-0.030466,-0.531363,0.038301,-0.940182,-261.73827,1.172636,71.90137
0.6564,-0.04982,-0.022297,0.037657,0.006123,0.003148,-0.020045,-0.030466,-0.531363,0.038301,-0.940182,-261.73827,1.172636,71.90137
0.6765,-0.048831,-0.021863,0.038847,0.006126,0.003158,-0.020272,-0.030369,-0.531795,0.036846,-0.959619,-261.734067,1.183314,71.907752
0.696,-0.048888,-0.021817,0.036775,0.006118,0.003183,-0.020571,-0.029818,-0.531657,0.037536,-0.959619,-261.734067,1.183314,71.907752
0.7161,-0.047933,-0.021466,0.035812,0.00611,0.003206,-0.020811,-0.029948,-0.531366,0.036136,-0.984466,-261.729692,1.195235,71.914352
0.7364,-0.047776,-0.021405,0.036927,0.006107,0.003219,-0.02111,-0.029688,-0.531155,0.035808,-0.984466,-261.729692,1.195235,71.914352
0.7558,-0.048182,-0.021518,0.0376,0.006104,0.003232,-0.021354,-0.029688,-0.531155,0.035808,-0.984466,-261.729692,1.195235,71.914352
0.7766,-0.047504,-0.021848,0.034064,0.006101,0.003244,-0.021552,-0.028761,-0.531015,0.036732,-0.999462,-261.725194,1.204254,71.921139
0.7966,-0.047282,-0.02149,0.034239,0.006093,0.003262,-0.021802,-0.029287,-0.531215,0.035554,-0.999462,-261.725194,1.204254,71.921139
0.8161,-0.046516,-0.021174,0.0359,0.006086,0.003278,-0.022007,-0.029634,-0.531082,0.033556,-1.019352,-261.720574,1.214761,71.928083
0.8363,-0.046166,-0.021054,0.033769,0.006074,0.0033,-0.022249,-0.028331,-0.530862,0.03565,-1.019352,-261.720574,1.214761,71.928083
0.856,-0.04655,-0.021232,0.033761,0.006063,0.003319,-0.022449,-0.028331,-0.530862,0.03565,-1.019352,-261.720574,1.214761,71.928083
0.8763,-0.045943,-0.021087,0.032114,0.006054,0.003336,-0.022614,-0.029085,-0.530796,0.032839,-1.031246,-261.715795,1.221709,71.935261
0.8964,-0.045309,-0.020938,0.032379,0.006054,0.003339,-0.022799,-0.029266,-0.530791,0.032418,-1.031246,-261.715795,1.221709,71.935261
0.9163,-0.044849,-0.02082,0.032404,0.006053,0.003342,-0.022953,-0.028614,-0.530561,0.031675,-1.046784,-261.711035,1.231427,71.942416
0.9361,-0.044308,-0.020599,0.030762,0.006046,0.003354,-0.023107,-0.028342,-0.530547,0.032301,-1.046784,-261.711035,1.231427,71.942416
0.9563,-0.044744,-0.020911,0.032481,0.00604,0.003364,-0.023235,-0.028342,-0.530547,0.032301,-1.046784,-261.711035,1.231427,71.942416
0.9759,-0.043648,-0.020622,0.029881,0.006035,0.003374,-0.023343,-0.027932,-0.530494,0.031516,-1.055032,-261.706108,1.235289,71.949797
0.9961,-0.043729,-0.020735,0.03069,0.006028,0.003385,-0.023454,-0.028101,-0.530436,0.030732,-1.055032,-261.706108,1.235289,71.949797
1.0159,-0.042946,-0.020704,0.031101,0.006022,0.003395,-0.023548,-0.027892,-0.530382,0.029949,-1.064467,-261.70113,1.240997,71.95725
1.0365,-0.042972,-0.02056,0.031603,0.006006,0.003419,-0.023645,-0.027138,-0.530447,0.030985,-1.064467,-261.70113,1.240997,71.95725
1.0559,-0.042895,-0.020743,0.029786,0.005993,0.003439,-0.023726,-0.027138,-0.530447,0.030985,-1.064467,-261.70113,1.240997,71.95725
1.0757,-0.041922,-0.020034,0.029335,0.005982,0.003457,-0.023793,-0.02746,-0.530368,0.028808,-1.069372,-261.696145,1.244161,71.964719
1.0958,-0.042084,-0.019776,0.029701,0.005976,0.003465,-0.023864,-0.027227,-0.530123,0.028911,-1.069372,-261.696145,1.244161,71.964719
1.1161,-0.041415,-0.019964,0.026997,0.005972,0.003472,-0.023923,-0.026752,-0.529435,0.028945,-1.07559,-261.69113,1.249774,71.972271
1.1358,-0.041192,-0.020439,0.027997,0.005976,0.003467,-0.023985,-0.027559,-0.529741,0.027133,-1.07559,-261.69113,1.249774,71.972271
1.1566,-0.040963,-0.01997,0.027648,0.005978,0.003462,-0.024036,-0.027559,-0.529741,0.027133,-1.07559,-261.69113,1.249774,71.972271
1.1761,-0.040016,-0.019945,0.026579,0.005981,0.003459,-0.024079,-0.026618,-0.529623,0.026646,-1.078689,-261.686075,1.251845,71.979889
1.1957,-0.039906,-0.019672,0.026127,0.005972,0.003472,-0.024124,-0.026527,-0.529663,0.026503,-1.078689,-261.686075,1.251845,71.979889
1.2159,-0.039205,-0.019806,0.024837,0.005964,0.003483,-0.024162,-0.026394,-0.529383,0.025358,-1.082063,-261.680981,1.252735,71.987537
1.236,-0.03951,-0.019525,0.024438,0.005957,0.003493,-0.024202,-0.026516,-0.529618,0.024845,-1.082063,-261.680981,1.252735,71.987537
1.2563,-0.039508,-0.01958,0.02559,0.005951,0.003502,-0.024235,-0.026516,-0.529618,0.024845,-1.082063,-261.680981,1.252735,71.987537
1.2764,-0.038541,-0.019403,0.024225,0.005946,0.003509,-0.024263,-0.026212,-0.529261,0.024578,-1.084214,-261.67588,1.254791,71.995212
1.2963,-0.038901,-0.019331,0.024321,0.005943,0.003513,-0.024293,-0.026174,-0.529241,0.024319,-1.084214,-261.67588,1.254791,71.995212
1.3161,-0.037426,-0.019278,0.022929,0.00594,0.003517,-0.024317,-0.026309,-0.529062,0.023536,-1.086775,-261.67077,1.257104,72.002918
1.336,-0.037468,-0.019288,0.022655,0.005933,0.003525,-0.024342,-0.025777,-0.52913,0.022946,-1.086775,-261.67077,1.257104,72.002918
1.3561,-0.037533,-0.019374,0.021826,0.005928,0.003532,-0.024362,-0.025777,-0.52913,0.022946,-1.086775,-261.67077,1.257104,72.002918
1.3761,-0.036782,-0.019191,0.020841,0.005923,0.003538,-0.024379,-0.026157,-0.5291,0.020808,-1.088095,-261.66565,1.258031,72.010641
1.396,-0.036832,-0.019264,0.021329,0.005921,0.003537,-0.02439,-0.026127,-0.529074,0.020704,-1.088095,-261.66565,1.258031,72.010641
1.4161,-0.03565,-0.019031,0.020203,0.005919,0.003537,-0.024398,-0.025768,-0.529031,0.020551,-1.089874,-261.660527,1.259807,72.018386
1.4359,-0.035592,-0.018343,0.018888,0.005909,0.003546,-0.024406,-0.025376,-0.528931,0.020195,-1.089874,-261.660527,1.259807,72.018386
1.4559,-0.035664,-0.018732,0.020707,0.005901,0.003553,-0.024412,-0.025376,-0.528931,0.020195,-1.089874,-261.660527,1.259807,72.018386
1.4758,-0.034469,-0.018642,0.01828,0.005894,0.00356,-0.024418,-0.02486,-0.52847,0.019685,-1.090663,-261.655404,1.260189,72.026128
1.4959,-0.034819,-0.018677,0.018345,0.005889,0.003562,-0.024414,-0.024948,-0.528487,0.018999,-1.090663,-261.655404,1.260189,72.026128
1.5162,-0.033988,-0.018724,0.018431,0.005884,0.003564,-0.02441,-0.025278,-0.528474,0.017567,-1.091925,-261.650288,1.261918,72.033883
1.5361,-0.033829,-0.018503,0.017399,0.005872,0.003573,-0.0244,-0.02465,-0.528613,0.018294,-1.091925,-261.650288,1.261918,72.033883
1.5561,-0.034123,-0.01828,0.018107,0.005862,0.003581,-0.024392,-0.02465,-0.528613,0.018294,-1.091925,-261.650288,1.261918,72.033883
1.5763,-0.033184,-0.018333,0.014452,0.005855,0.003588,-0.024386,-0.024645,-0.528043,0.017082,-1.092371,-261.645176,1.262446,72.041637
1.5962,-0.032746,-0.018254,0.016668,0.005856,0.003575,-0.024318,-0.025089,-0.528121,0.015903,-1.092371,-261.645176,1.262446,72.041637
1.6167,-0.031877,-0.017993,0.014685,0.005858,0.003564,-0.024264,-0.024061,-0.528066,0.015891,-1.092984,-261.640083,1.264015,72.049393
1.6359,-0.032049,-0.018031,0.014299,0.005849,0.003565,-0.024165,-0.024342,-0.527944,0.014768,-1.092984,-261.640083,1.264015,72.049393
1.6558,-0.03213,-0.01794,0.01343,0.005842,0.003566,-0.024087,-0.024342,-0.527944,0.014768,-1.092984,-261.640083,1.264015,72.049393
1.6759,-0.031083,-0.017901,0.013268,0.005836,0.003567,-0.024027,-0.025038,-0.527742,0.012414,-1.090934,-261.635006,1.262339,72.057113
1.696,-0.031181,-0.017791,0.012903,0.005833,0.003556,-0.023774,-0.024715,-0.527771,0.012646,-1.090934,-261.635006,1.262339,72.057113
1.7161,-0.030298,-0.018066,0.012389,0.005831,0.003547,-0.023583,-0.024416,-0.527633,0.012137,-1.086987,-261.629982,1.261139,72.064782
1.7361,-0.030252,-0.017368,0.012474,0.005816,0.003559,-0.023397,-0.024008,-0.527988,0.01233,-1.086987,-261.629982,1.261139,72.064782
1.7559,-0.030536,-0.017468,0.011813,0.005805,0.003569,-0.023256,-0.024008,-0.527988,0.01233,-1.086987,-261.629982,1.261139,72.064782
1.776,-0.029393,-0.017334,0.009922,0.005796,0.003577,-0.02315,-0.024271,-0.527282,0.010831,-1.077882,-261.625061,1.256696,72.072319
1.7961,-0.029355,-0.017614,0.012072,0.005798,0.003574,-0.022736,-0.024268,-0.527275,0.010341,-1.077882,-261.625061,1.256696,72.072319
1.8156,-0.028162,-0.017704,0.010437,0.0058,0.003571,-0.022434,-0.023017,-0.527462,0.011338,-1.06889,-261.620241,1.254611,72.079776
1.8356,-0.028526,-0.01718,0.008483,0.005777,0.003603,-0.022239,-0.022845,-0.527653,0.010477,-1.06889,-261.620241,1.254611,72.079776
1.8558,-0.028281,-0.017608,0.011025,0.005759,0.003628,-0.022096,-0.022845,-0.527653,0.010477,-1.06889,-261.620241,1.254611,72.079776
1.8758,-0.027174,-0.017029,0.009909,0.005744,0.003649,-0.021991,-0.02242,-0.527426,0.010095,-1.050835,-261.615617,1.246864,72.086995
1.8959,-0.02713,-0.017389,0.01045,0.00573,0.003671,-0.021805,-0.02227,-0.527237,0.009912,-1.050835,-261.615617,1.246864,72.086995
1.9158,-0.026941,-0.016819,0.008556,0.00572,0.003689,-0.02167,-0.02162,-0.527244,0.009751,-1.039816,-261.611083,1.246369,72.094198
1.9362,-0.026875,-0.017375,0.009527,0.005717,0.003697,-0.021277,-0.022485,-0.526833,0.008625,-1.039816,-261.611083,1.246369,72.094198
1.956,-0.026716,-0.017041,0.007397,0.005714,0.003704,-0.020995,-0.022485,-0.526833,0.008625,-1.039816,-261.611083,1.246369,72.094198
1.9759,-0.025953,-0.016442,0.007882,0.005711,0.003708,-0.020793,-0.022706,-0.526871,0.006493,-1.030962,-261.606637,1.244897,72.101335
1.9957,-0.026272,-0.016709,0.006696,0.005709,0.003713,-0.02017,-0.02236,-0.52667,0.00696,-1.030962,-261.606637,1.244897,72.101335
2.0158,-0.025361,-0.016759,0.005513,0.005706,0.003719,-0.019733,-0.022679,-0.52658,0.006043,-1.004871,-261.602427,1.235814,72.108201
2.0361,-0.025223,-0.016585,0.005961,0.005709,0.003721,-0.018917,-0.022551,-0.52673,0.005527,-1.004871,-261.602427,1.235814,72.108201
2.0558,-0.02507,-0.016693,0.005623,0.005708,0.003723,-0.018348,-0.022551,-0.52673,0.005527,-1.004871,-261.602427,1.235814,72.108201
2.0757,-0.024555,-0.016338,0.00422,0.005706,0.003726,-0.017955,-0.021969,-0.526532,0.004817,-0.970392,-261.598475,1.223637,72.114764
2.0962,-0.024555,-0.016123,0.005304,0.005706,0.003731,-0.017255,-0.022121,-0.526433,0.004478,-0.970392,-261.598475,1.223637,72.114764
2.1159,-0.023919,-0.016488,0.004618,0.005705,0.003736,-0.016768,-0.021683,-0.526005,0.004777,-0.903312,-261.595051,1.200341,72.120618
2.1362,-0.023849,-0.016409,0.004217,0.005694,0.00375,-0.016489,-0.021565,-0.526443,0.004608,-0.903312,-261.595051,1.200341,72.120618
2.1559,-0.023851,-0.01622,0.004149,0.005685,0.003762,-0.016298,-0.021565,-0.526443,0.004608,-0.903312,-261.595051,1.200341,72.120618
2.1758,-0.022942,-0.016402,0.003165,0.005677,0.003771,-0.016166,-0.021509,-0.526067,0.003486,-0.85081,-261.59176,1.18327,72.126361
2.1958,-0.022659,-0.016473,0.001996,0.005677,0.003779,-0.015474,-0.021407,-0.52619,0.003273,-0.85081,-261.59176,1.18327,72.126361
2.2161,-0.022384,-0.01607,0.002346,0.005676,0.003785,-0.014983,-0.021464,-0.526355,0.001494,-0.821478,-261.588483,1.176525,72.132171
2.2365,-0.022107,-0.015878,0.003245,0.005676,0.003791,-0.014132,-0.021202,-0.526087,0.002252,-0.821478,-261.588483,1.176525,72.132171
2.2563,-0.022539,-0.015778,0.002225,0.005675,0.003797,-0.01352,-0.021202,-0.526087,0.002252,-0.821478,-261.588483,1.176525,72.132171
2.2763,-0.021694,-0.016023,0.000478,0.005673,0.003803,-0.013084,-0.021184,-0.525629,0.001643,-0.75735,-261.585585,1.157323,72.137412
2.2958,-0.021879,-0.015893,0.00296,0.005679,0.003795,-0.012194,-0.021267,-0.525772,0.001102,-0.75735,-261.585585,1.157323,72.137412
2.3159,-0.021012,-0.015181,0.00142,0.005684,0.003788,-0.011544,-0.020232,-0.525799,0.002632,-0.682604,-261.583401,1.122431,72.141465
2.336,-0.021298,-0.015438,-0.000283,0.005683,0.00379,-0.011292,-0.020276,-0.525231,0.001511,-0.682604,-261.583401,1.122431,72.141465
2.3556,-0.020989,-0.015662,0.002371,0.005681,0.003792,-0.011108,-0.020276,-0.525231,0.001511,-0.682604,-261.583401,1.122431,72.141465
2.3758,-0.021185,-0.015456,0.001151,0.00568,0.003794,-0.010972,-0.019631,-0.525565,0.00205,-0.607546,-261.581711,1.087822,72.144621
2.3961,-0.020878,-0.015555,0.001627,0.005668,0.003809,-0.01096,-0.020008,-0.525509,0.001645,-0.607546,-261.581711,1.087822,72.144621
2.4158,-0.020542,-0.015639,-0.000197,0.005658,0.003822,-0.010947,-0.019916,-0.525468,0.00136,-0.532603,-261.579807,1.074754,72.148183
2.4359,-0.020365,-0.014982,-0.000311,0.00566,0.003819,-0.010127,-0.020571,-0.525619,-7.1e-05,-0.532603,-261.579807,1.074754,72.148183
2.456,-0.019972,-0.015129,0.000188,0.005661,0.003816,-0.009515,-0.020571,-0.525619,-7.1e-05,-0.532603,-261.579807,1.074754,72.148183
2.4757,-0.019735,-0.015345,0.000394,0.005662,0.003814,-0.009063,-0.019654,-0.524979,-0.000241,-0.468643,-261.577427,1.076836,72.152662
2.4963,-0.01999,-0.015147,0.000585,0.005657,0.003819,-0.008749,-0.019579,-0.525112,-3e-05,-0.468643,-261.577427,1.076836,72.152662
2.5157,-0.019676,-0.014816,-0.000152,0.005653,0.003823,-0.008515,-0.019587,-0.52508,0.000406,-0.393505,-261.576027,1.02622,72.155246
2.5357,-0.01982,-0.015039,0.000649,0.005658,0.003815,-0.008313,-0.019734,-0.524836,-0.000113,-0.393505,-261.576027,1.02622,72.155246
2.5557,-0.019505,-0.014865,0.000287,0.005662,0.003809,-0.00816,-0.019734,-0.524836,-0.000113,-0.393505,-261.576027,1.02622,72.155246
2.576,-0.019384,-0.014846,-0.001794,0.005666,0.003803,-0.008044,-0.0192,-0.524763,3.5e-05,-0.318549,-261.574447,1.01121,72.158138
2.596,-0.018991,-0.014851,-0.00111,0.00567,0.003796,-0.007709,-0.019632,-0.524785,-0.000744,-0.318549,-261.574447,1.01121,72.158138
2.6157,-0.019293,-0.014651,-0.000346,0.005673,0.003791,-0.00746,-0.019418,-0.524761,-0.001314,-0.243542,-261.572658,0.99437,72.161359
2.636,-0.019005,-0.014554,-0.000668,0.005675,0.003788,-0.007401,-0.019458,-0.524656,-0.000439,-0.243542,-261.572658,0.99437,72.161359
2.6558,-0.018614,-0.014639,-0.000697,0.005677,0.003785,-0.007354,-0.019458,-0.524656,-0.000439,-0.243542,-261.572658,0.99437,72.161359
2.6762,-0.01867,-0.014958,-0.001345,0.005679,0.003783,-0.007315,-0.018776,-0.524512,-0.000958,-0.16852,-261.57078,0.973831,72.16467
2.6961,-0.018586,-0.014434,-0.001787,0.005673,0.003789,-0.007019,-0.018993,-0.524681,-0.001148,-0.16852,-261.57078,0.973831,72.16467
2.7161,-0.018087,-0.014247,-0.001078,0.005669,0.003794,-0.006801,-0.019324,-0.524318,-0.00201,-0.119946,-261.56858,0.96798,72.168523
2.7359,-0.018202,-0.014421,-0.001195,0.005669,0.003792,-0.006634,-0.018687,-0.524247,-0.001169,-0.119946,-261.56858,0.96798,72.168523
2.7561,-0.017895,-0.014309,-0.001568,0.00567,0.003791,-0.006509,-0.018687,-0.524247,-0.001169,-0.119946,-261.56858,0.96798,72.168523
2.7756,-0.017724,-0.014101,-0.002245,0.00567,0.00379,-0.006414,-0.018471,-0.524159,-0.001837,-0.063347,-261.566435,0.951221,72.17221
2.796,-0.017654,-0.014084,-0.001584,0.005674,0.003784,-0.006076,-0.018607,-0.524117,-0.002034,-0.063347,-261.566435,0.951221,72.17221
2.8165,-0.017434,-0.014141,-0.000469,0.005678,0.003779,-0.005824,-0.018286,-0.523966,-0.001782,-0.022448,-261.564234,0.936535,72.175923
2.836,-0.017328,-0.013901,-0.001475,0.005659,0.003803,-0.006158,-0.01772,-0.524119,-0.0006,-0.022448,-261.564234,0.936535,72.175923
2.8558,-0.017096,-0.01421,-0.002663,0.005645,0.003822,-0.006391,-0.01772,-0.524119,-0.0006,-0.022448,-261.564234,0.936535,72.175923
2.8758,-0.016778,-0.013738,-0.00268,0.005634,0.003837,-0.006553,-0.018232,-0.524062,-0.00289,0.038999,-261.562112,0.912117,72.179388
2.896,-0.016756,-0.013768,-0.002697,0.005644,0.003825,-0.005978,-0.01817,-0.523911,-0.00283,0.038999,-261.562112,0.912117,72.179388
2.9159,-0.015957,-0.013581,-0.004092,0.005651,0.003815,-0.005547,-0.017969,-0.523655,-0.002886,-0.029258,-261.560058,0.947691,72.182905
2.936,-0.016291,-0.013734,-0.003706,0.005665,0.0038,-0.00499,-0.018029,-0.523578,-0.004001,-0.029258,-261.560058,0.947691,72.182905
2.9559,-0.016209,-0.013368,-0.003246,0.005677,0.003787,-0.004568,-0.018029,-0.523578,-0.004001,-0.029258,-261.560058,0.947691,72.182905
2.9762,-0.015755,-0.013729,-0.004834,0.005689,0.003778,-0.00425,-0.017672,-0.52324,-0.00344,0.045867,-261.558215,0.905538,72.185883
2.9965,-0.016421,-0.013276,-0.004158,0.005699,0.003768,-0.004002,-0.017873,-0.523422,-0.00403,0.045867,-261.558215,0.905538,72.185883
3.0161,-0.016039,-0.013525,-0.002254,0.005709,0.003761,-0.003816,-0.018426,-0.523201,-0.004251,0.120643,-261.55676,0.842075,72.188022
3.0359,-0.015851,-0.013339,-0.000911,0.005697,0.003778,-0.004073,-0.017288,-0.523493,-0.002428,0.120643,-261.55676,0.842075,72.188022
3.056,-0.016028,-0.013246,-0.002081,0.005688,0.003792,-0.004254,-0.017288,-0.523493,-0.002428,0.120643,-261.55676,0.842075,72.188022
3.0761,-0.014945,-0.013607,-0.004985,0.005681,0.003802,-0.004379,-0.016904,-0.523129,-0.002212,0.195828,-261.554948,0.81781,72.190592
3.096,-0.015387,-0.013361,-0.004546,0.00568,0.003806,-0.004229,-0.017119,-0.523307,-0.003351,0.195828,-261.554948,0.81781,72.190592
3.1159,-0.01519,-0.012917,-0.003086,0.005679,0.003809,-0.004117,-0.017527,-0.523237,-0.004684,0.195928,-261.552668,0.850749,72.193984
3.1357,-0.014854,-0.013253,-0.004221,0.005681,0.003807,-0.004061,-0.016822,-0.522936,-0.003232,0.195928,-261.552668,0.850749,72.193984
3.1561,-0.015272,-0.013072,-0.003741,0.005683,0.003805,-0.004019,-0.016822,-0.522936,-0.003232,0.195928,-261.552668,0.850749,72.193984
3.176,-0.014244,-0.012918,-0.002177,0.005684,0.003804,-0.003987,-0.016945,-0.522912,-0.00391,0.224116,-261.550376,0.838984,72.197328
3.1961,-0.015032,-0.012919,-0.004461,0.005675,0.003816,-0.003963,-0.016274,-0.522896,-0.003228,0.224116,-261.550376,0.838984,72.197328
3.2157,-0.014594,-0.012647,-0.004018,0.005667,0.003826,-0.003945,-0.017126,-0.522794,-0.004588,0.23626,-261.548045,0.831862,72.200693
3.2361,-0.014297,-0.012974,-0.003633,0.005679,0.003812,-0.003743,-0.016677,-0.522651,-0.004075,0.23626,-261.548045,0.831862,72.200693
3.2558,-0.014572,-0.012973,-0.003678,0.005688,0.003801,-0.003592,-0.016677,-0.522651,-0.004075,0.23626,-261.548045,0.831862,72.200693
3.2759,-0.013824,-0.012871,-0.004278,0.005696,0.003792,-0.00348,-0.016211,-0.52281,-0.003843,0.244926,-261.545707,0.833096,72.204065
3.2958,-0.013719,-0.012795,-0.005349,0.005685,0.003807,-0.003404,-0.016099,-0.522815,-0.004041,0.244926,-261.545707,0.833096,72.204065
3.3161,-0.013293,-0.012252,-0.003075,0.005676,0.003819,-0.003346,-0.016271,-0.522672,-0.005456,0.284603,-261.54341,0.804505,72.207244
3.3363,-0.013445,-0.011874,-0.005753,0.005654,0.003846,-0.003488,-0.014957,-0.522276,-0.003255,0.284603,-261.54341,0.804505,72.207244
3.3559,-0.013518,-0.012397,-0.004315,0.005636,0.003867,-0.003589,-0.014957,-0.522276,-0.003255,0.284603,-261.54341,0.804505,72.207244
3.376,-0.013313,-0.011691,-0.003693,0.005621,0.003884,-0.003661,-0.015484,-0.522235,-0.004454,0.303127,-261.541059,0.801587,72.21047
3.3961,-0.012975,-0.012422,-0.003048,0.00563,0.003874,-0.003508,-0.015339,-0.521993,-0.004159,0.303127,-261.541059,0.801587,72.21047
3.4157,-0.012532,-0.011411,-0.005371,0.005637,0.003865,-0.003395,-0.014353,-0.522299,-0.003162,0.285228,-261.538753,0.82791,72.213742
3.4357,-0.012542,-0.011989,-0.0048,0.005654,0.003843,-0.003124,-0.015181,-0.521476,-0.005183,0.285228,-261.538753,0.82791,72.213742
3.456,-0.012774,-0.012054,-0.005243,0.005669,0.003824,-0.00292,-0.015181,-0.521476,-0.005183,0.285228,-261.538753,0.82791,72.213742
3.4763,-0.012529,-0.011903,-0.004787,0.005681,0.003809,-0.002766,-0.015214,-0.521888,-0.005383,0.307847,-261.53642,0.811484,72.216972
3.4963,-0.012643,-0.011707,-0.005065,0.005679,0.003815,-0.002654,-0.015089,-0.521874,-0.005158,0.307847,-261.53642,0.811484,72.216972
3.5165,-0.011993,-0.011571,-0.004321,0.005677,0.00382,-0.002569,-0.015055,-0.521587,-0.005148,0.357113,-261.534149,0.769079,72.219933
3.536,-0.012086,-0.011263,-0.0075,0.005661,0.00384,-0.002651,-0.014263,-0.521563,-0.004398,0.357113,-261.534149,0.769079,72.219933
3.5561,-0.011956,-0.011474,-0.004408,0.005649,0.003857,-0.002711,-0.014263,-0.521563,-0.004398,0.357113,-261.534149,0.769079,72.219933
3.5759,-0.012142,-0.011724,-0.006094,0.005639,0.00387,-0.002755,-0.013967,-0.521311,-0.004514,0.377601,-261.531727,0.759419,72.223036
3.596,-0.012244,-0.011517,-0.006799,0.005641,0.003868,-0.002641,-0.014464,-0.521458,-0.005172,0.377601,-261.531727,0.759419,72.223036
3.6156,-0.011619,-0.011052,-0.004394,0.005643,0.003867,-0.002555,-0.015532,-0.521384,-0.006887,0.369977,-261.529326,0.777653,72.226178
3.6364,-0.011648,-0.011155,-0.004988,0.005644,0.003867,-0.002593,-0.014003,-0.521072,-0.004626,0.369977,-261.529326,0.777653,72.226178
3.6559,-0.011732,-0.01117,-0.003704,0.005645,0.003866,-0.002621,-0.014003,-0.521072,-0.004626,0.369977,-261.529326,0.777653,72.226178
3.6758,-0.010971,-0.010873,-0.004749,0.005645,0.003866,-0.002641,-0.013386,-0.521007,-0.00381,0.387995,-261.526891,0.765917,72.229306
3.6961,-0.011077,-0.011536,-0.004572,0.00563,0.003883,-0.00274,-0.013362,-0.52093,-0.004217,0.387995,-261.526891,0.765917,72.229306
3.7156,-0.010413,-0.011142,-0.004691,0.005618,0.003897,-0.002812,-0.01323,-0.521409,-0.004656,0.379746,-261.524474,0.770445,72.232434
3.7358,-0.010934,-0.011169,-0.004481,0.005586,0.003933,-0.002768,-0.012834,-0.521154,-0.004692,0.379746,-261.524474,0.770445,72.232434
3.7559,-0.010371,-0.010813,-0.005367,0.005561,0.003962,-0.002734,-0.012834,-0.521154,-0.004692,0.379746,-261.524474,0.770445,72.232434
3.7759,-0.010045,-0.010741,-0.005494,0.00554,0.003986,-0.002709,-0.012873,-0.520644,-0.005484,0.36997,-261.522075,0.785058,72.235595
3.7957,-0.010154,-0.010846,-0.00473,0.005539,0.003985,-0.002548,-0.012836,-0.520662,-0.005502,0.36997,-261.522075,0.785058,72.235595
3.8156,-0.010054,-0.010949,-0.003915,0.00554,0.003984,-0.002427,-0.012393,-0.520716,-0.004815,0.398416,-261.519709,0.794457,72.238708
3.8357,-0.010081,-0.010437,-0.005583,0.005502,0.004026,-0.002631,-0.012073,-0.520918,-0.004002,0.398416,-261.519709,0.794457,72.238708
3.8558,-0.01014,-0.010334,-0.006771,0.005471,0.004059,-0.002779,-0.012073,-0.520918,-0.004002,0.398416,-261.519709,0.794457,72.238708
3.876,-0.009963,-0.010516,-0.006074,0.005446,0.004086,-0.002885,-0.013364,-0.52016,-0.006871,0.424294,-261.51731,0.778765,72.241779
3.8957,-0.009519,-0.010057,-0.005375,0.005482,0.004038,-0.002543,-0.013213,-0.520283,-0.006556,0.424294,-261.51731,0.778765,72.241779
3.9161,-0.009789,-0.010244,-0.005792,0.005513,0.003999,-0.002279,-0.012092,-0.519925,-0.005463,0.403337,-261.515028,0.821027,72.24486
3.936,-0.009246,-0.009672,-0.004946,0.005528,0.003982,-0.002182,-0.01267,-0.520198,-0.005765,0.403337,-261.515028,0.821027,72.24486
3.9562,-0.009197,-0.010201,-0.006246,0.005541,0.003967,-0.002109,-0.01267,-0.520198,-0.005765,0.403337,-261.515028,0.821027,72.24486
3.9758,-0.009009,-0.009613,-0.005459,0.005552,0.003956,-0.002055,-0.012164,-0.520034,-0.006336,0.441791,-261.512727,0.774194,72.247768
3.9961,-0.009364,-0.009924,-0.00593,0.005551,0.003956,-0.001981,-0.011987,-0.519842,-0.005989,0.441791,-261.512727,0.774194,72.247768
4.0156,-0.008595,-0.009877,-0.006303,0.00555,0.003957,-0.001925,-0.012212,-0.519791,-0.005995,0.452802,-261.510279,0.753767,72.250788
4.0356,-0.008765,-0.009719,-0.007071,0.005543,0.003964,-0.001841,-0.011837,-0.519854,-0.006278,0.452802,-261.510279,0.753767,72.250788
4.056,-0.008602,-0.009947,-0.006154,0.005538,0.003969,-0.001777,-0.011837,-0.519854,-0.006278,0.452802,-261.510279,0.753767,72.250788
4.0756,-0.007991,-0.009381,-0.006275,0.005534,0.003974,-0.001729,-0.011508,-0.519773,-0.006234,0.464497,-261.507788,0.746276,72.253821
4.0961,-0.008469,-0.00961,-0.004644,0.005523,0.003985,-0.001697,-0.011348,-0.519585,-0.006261,0.464497,-261.507788,0.746276,72.253821
4.1158,-0.007669,-0.009771,-0.006101,0.005515,0.003993,-0.001672,-0.010663,-0.519481,-0.004698,0.485232,-261.505321,0.737767,72.25677
4.136,-0.008119,-0.008989,-0.006093,0.00548,0.004032,-0.001696,-0.010761,-0.51973,-0.005978,0.485232,-261.505321,0.737767,72.25677
4.1561,-0.00784,-0.009403,-0.00547,0.005452,0.004063,-0.001714,-0.010761,-0.51973,-0.005978,0.485232,-261.505321,0.737767,72.25677
4.176,-0.008113,-0.009522,-0.006201,0.005429,0.004088,-0.001727,-0.010398,-0.519229,-0.00554,0.494312,-261.502819,0.737912,72.259747
4.1959,-0.007823,-0.008996,-0.006653,0.005427,0.00409,-0.001762,-0.010727,-0.519325,-0.005816,0.494312,-261.502819,0.737912,72.259747
4.2159,-0.007702,-0.009074,-0.006659,0.005425,0.004091,-0.001789,-0.011044,-0.518857,-0.006708,0.50946,-261.500341,0.758244,72.262727
4.2358,-0.007421,-0.008831,-0.00613,0.005445,0.004063,-0.001685,-0.011087,-0.519042,-0.006665,0.50946,-261.500341,0.758244,72.262727
4.256,-0.007046,-0.008977,-0.004525,0.005462,0.004041,-0.001606,-0.011087,-0.519042,-0.006665,0.50946,-261.500341,0.758244,72.262727
4.2763,-0.007424,-0.00854,-0.007181,0.005476,0.004022,-0.001546,-0.009128,-0.518803,-0.004599,0.505036,-261.497873,0.762695,72.265714
4.2959,-0.007227,-0.008434,-0.006608,0.005458,0.00404,-0.001654,-0.009907,-0.51867,-0.00567,0.505036,-261.497873,0.762695,72.265714
4.3157,-0.006785,-0.008472,-0.007377,0.005443,0.004055,-0.001733,-0.010424,-0.518297,-0.006657,0.512063,-261.495395,0.736641,72.26863
4.3362,-0.006768,-0.008784,-0.006469,0.005462,0.004026,-0.00157,-0.010527,-0.518437,-0.007314,0.512063,-261.495395,0.736641,72.26863
4.3557,-0.006742,-0.008262,-0.005977,0.005478,0.004002,-0.001444,-0.010527,-0.518437,-0.007314,0.512063,-261.495395,0.736641,72.26863
4.3762,-0.006754,-0.008362,-0.005692,0.00549,0.003983,-0.001347,-0.009563,-0.518086,-0.006049,0.503172,-261.492923,0.754183,72.271602
4.3963,-0.006773,-0.008019,-0.007547,0.005476,0.003997,-0.001466,-0.009575,-0.518177,-0.00591,0.503172,-261.492923,0.754183,72.271602
4.416,-0.005961,-0.008116,-0.007892,0.005465,0.004008,-0.001555,-0.010451,-0.517883,-0.007589,0.522314,-261.490456,0.719038,72.274444
4.4358,-0.006397,-0.007913,-0.006024,0.005473,0.003991,-0.001381,-0.010019,-0.518074,-0.007867,0.522314,-261.490456,0.719038,72.274444
4.4558,-0.006156,-0.008547,-0.007996,0.00548,0.003977,-0.001246,-0.010019,-0.518074,-0.007867,0.522314,-261.490456,0.719038,72.274444
4.4762,-0.005956,-0.007949,-0.00632,0.005485,0.003966,-0.00114,-0.010006,-0.518366,-0.008061,0.510244,-261.487969,0.73675,72.277374
4.4961,-0.005949,-0.008108,-0.007232,0.005471,0.003981,-0.001107,-0.009643,-0.518173,-0.007359,0.510244,-261.487969,0.73675,72.277374
4.5162,-0.005699,-0.007672,-0.006569,0.005459,0.003994,-0.001081,-0.009467,-0.517973,-0.007268,0.537553,-261.485487,0.704466,72.280172
4.5361,-0.005423,-0.007968,-0.007612,0.005449,0.004002,-0.001155,-0.00908,-0.517684,-0.006637,0.537553,-261.485487,0.704466,72.280172
4.5557,-0.005442,-0.007881,-0.007115,0.005441,0.004008,-0.00121,-0.00908,-0.517684,-0.006637,0.537553,-261.485487,0.704466,72.280172
4.5757,-0.005391,-0.007453,-0.006183,0.005435,0.004013,-0.001252,-0.008841,-0.517703,-0.00716,0.548155,-261.482933,0.705933,72.283036
4.596,-0.005426,-0.007572,-0.008407,0.005413,0.004031,-0.001266,-0.008693,-0.517577,-0.006764,0.548155,-261.482933,0.705933,72.283036
4.6166,-0.004906,-0.007267,-0.007077,0.005396,0.004045,-0.001277,-0.00954,-0.517429,-0.008447,0.5387,-261.480413,0.721134,72.285916
4.6362,-0.005185,-0.007446,-0.007256,0.005392,0.004041,-0.001231,-0.008599,-0.517263,-0.007203,0.5387,-261.480413,0.721134,72.285916
4.6563,-0.005281,-0.007444,-0.006795,0.005389,0.004037,-0.001196,-0.008599,-0.517263,-0.007203,0.5387,-261.480413,0.721134,72.285916
4.6762,-0.004719,-0.007219,-0.007757,0.005386,0.004034,-0.001169,-0.00852,-0.517265,-0.006848,0.544124,-261.477894,0.729514,72.288807
4.6962,-0.004762,-0.00724,-0.006596,0.005383,0.004031,-0.001145,-0.008556,-0.517221,-0.007221,0.544124,-261.477894,0.729514,72.288807
4.7156,-0.00441,-0.007105,-0.008044,0.005381,0.004029,-0.001127,-0.007953,-0.517102,-0.006633,0.552481,-261.475368,0.72253,72.291673
4.7364,-0.004613,-0.007225,-0.007866,0.005378,0.004024,-0.001043,-0.008452,-0.517083,-0.007918,0.552481,-261.475368,0.72253,72.291673
4.7561,-0.004075,-0.007061,-0.006922,0.005375,0.00402,-0.000978,-0.008452,-0.517083,-0.007918,0.552481,-261.475368,0.72253,72.291673
4.7762,-0.004305,-0.006688,-0.007973,0.005373,0.004016,-0.000927,-0.007379,-0.516881,-0.006969,0.555493,-261.472835,0.719754,72.294535
4.796,-0.004032,-0.006517,-0.009371,0.005348,0.004033,-0.000945,-0.007758,-0.516776,-0.007385,0.555493,-261.472835,0.719754,72.294535
4.816,-0.004095,-0.006512,-0.007378,0.005327,0.004046,-0.000959,-0.008641,-0.516369,-0.009401,0.570842,-261.470299,0.706106,72.29734
4.8365,-0.004072,-0.006401,-0.00737,0.005337,0.004023,-0.00095,-0.00792,-0.51648,-0.007561,0.570842,-261.470299,0.706106,72.29734
4.8564,-0.0039,-0.006698,-0.007501,0.005345,0.004005,-0.000943,-0.00792,-0.51648,-0.007561,0.570842,-261.470299,0.706106,72.29734
4.8761,-0.003552,-0.006516,-0.007556,0.005351,0.00399,-0.000938,-0.007501,-0.516515,-0.007542,0.576168,-261.467762,0.715744,72.300159
4.8959,-0.003723,-0.006386,-0.007481,0.005322,0.004009,-0.000937,-0.007437,-0.516491,-0.007552,0.576168,-261.467762,0.715744,72.300159
4.9159,-0.003039,-0.006217,-0.007489,0.005298,0.004025,-0.000935,-0.007367,-0.516246,-0.007511,0.568249,-261.465213,0.70605,72.302982
4.936,-0.003383,-0.006105,-0.008052,0.005254,0.004049,-0.000946,-0.006893,-0.5162,-0.007493,0.568249,-261.465213,0.70605,72.302982
4.9563,-0.003296,-0.00589,-0.00778,0.005219,0.004068,-0.000955,-0.006893,-0.5162,-0.007493,0.568249,-261.465213,0.70605,72.302982
4.976,-0.003218,-0.005968,-0.007869,0.005191,0.004082,-0.000961,-0.007043,-0.515709,-0.007819,0.577641,-261.462706,0.714553,72.305763
4.9961,-0.002947,-0.005685,-0.007098,0.005208,0.004041,-0.000931,-0.007094,-0.515788,-0.007843,0.577641,-261.462706,0.714553,72.305763
5.0159,-0.002378,-0.005599,-0.006994,0.005221,0.004009,-0.000908,-0.006402,-0.515544,-0.007128,0.59259,-261.460225,0.732515,72.308531
5.0361,-0.00289,-0.005881,-0.007487,0.005146,0.004042,-0.000999,-0.005978,-0.515576,-0.007008,0.59259,-261.460225,0.732515,72.308531
5.0562,-0.002905,-0.005824,-0.006616,0.005085,0.004066,-0.001068,-0.005978,-0.515576,-0.007008,0.59259,-261.460225,0.732515,72.308531
5.0758,-0.002343,-0.005615,-0.008706,0.005037,0.004084,-0.001121,-0.00606,-0.515647,-0.006653,0.584479,-261.457731,0.718218,72.311293
5.0962,-0.003014,-0.005394,-0.007773,0.005029,0.004073,-0.001099,-0.006326,-0.515607,-0.007487,0.584479,-261.457731,0.718218,72.311293
5.1159,-0.001971,-0.005018,-0.006596,0.005022,0.004065,-0.001083,-0.00682,-0.515253,-0.007808,0.593638,-261.455365,0.758033,72.313994
5.1358,-0.001896,-0.005291,-0.007686,0.004963,0.004058,-0.001185,-0.005461,-0.515023,-0.006708,0.593638,-261.455365,0.758033,72.313994
5.1558,-0.002033,-0.005372,-0.006943,0.004915,0.00405,-0.001263,-0.005461,-0.515023,-0.006708,0.593638,-261.455365,0.758033,72.313994
5.1761,-0.001472,-0.005006,-0.007491,0.004877,0.004042,-0.001321,-0.005363,-0.515191,-0.006989,0.5956,-261.452939,0.755025,72.316752
5.196,-0.002063,-0.005363,-0.007324,0.00482,0.004054,-0.001304,-0.00531,-0.515091,-0.007198,0.5956,-261.452939,0.755025,72.316752
5.2164,-0.001332,-0.004848,-0.007741,0.004776,0.004063,-0.001291,-0.005644,-0.515223,-0.007366,0.585667,-261.45063,0.782532,72.319465
5.2369,-0.001575,-0.004908,-0.006919,0.004752,0.00404,-0.001229,-0.005304,-0.514861,-0.007709,0.585667,-261.45063,0.782532,72.319465
5.2558,-0.001665,-0.005218,-0.007562,0.004734,0.004022,-0.001181,-0.005304,-0.514861,-0.007709,0.585667,-261.45063,0.782532,72.319465
5.2757,-0.001232,-0.004556,-0.007381,0.004718,0.004007,-0.001144,-0.005322,-0.515036,-0.007616,0.600993,-261.448326,0.793253,72.322173
5.2959,-0.001353,-0.004512,-0.00738,0.004691,0.003999,-0.001136,-0.005166,-0.514816,-0.007526,0.600993,-261.448326,0.793253,72.322173
5.3162,-0.001016,-0.004727,-0.008519,0.00467,0.003992,-0.00113,-0.004966,-0.514372,-0.007416,0.611538,-261.446028,0.784086,72.32483
5.336,-0.001213,-0.004359,-0.006745,0.004678,0.003956,-0.001045,-0.005317,-0.514672,-0.008421,0.611538,-261.446028,0.784086,72.32483
5.3559,-0.001055,-0.004458,-0.00847,0.004683,0.003927,-0.000978,-0.005317,-0.514672,-0.008421,0.611538,-261.446028,0.784086,72.32483
5.3759,-0.000636,-0.004078,-0.008229,0.004687,0.003905,-0.000926,-0.005177,-0.514274,-0.008517,0.615444,-261.443742,0.786694,72.327474
5.3962,-0.000762,-0.004016,-0.008124,0.004682,0.003837,-0.000895,-0.005014,-0.514168,-0.008405,0.615444,-261.443742,0.786694,72.327474
5.4159,-0.000314,-0.00401,-0.009057,0.004677,0.003784,-0.000871,-0.004756,-0.513877,-0.008153,0.619077,-261.441444,0.761805,72.33006
5.4361,-0.000551,-0.004289,-0.008944,0.004668,0.003719,-0.000813,-0.004914,-0.513976,-0.008993,0.619077,-261.441444,0.761805,72.33006
5.456,1e-06,-0.004305,-0.00818,0.00466,0.003669,-0.000767,-0.004914,-0.513976,-0.008993,0.619077,-261.441444,0.761805,72.33006
5.4766,-0.000149,-0.004104,-0.009,0.004653,0.003629,-0.00073,-0.003976,-0.514133,-0.008216,0.607503,-261.439199,0.74521,72.332568
5.4965,-0.000258,-0.004156,-0.008456,0.004538,0.003668,-0.000741,-0.004263,-0.514095,-0.008538,0.607503,-261.439199,0.74521,72.332568
5.5156,0.000211,-0.003646,-0.00867,0.004449,0.003695,-0.000749,-0.004423,-0.514024,-0.008479,0.600035,-261.43697,0.719342,72.335014
5.5357,0.000139,-0.003995,-0.009855,0.0044,0.003641,-0.000751,-0.004222,-0.513656,-0.008654,0.600035,-261.43697,0.719342,72.335014
5.5557,-9.2e-05,-0.004056,-0.008013,0.004361,0.003598,-0.000752,-0.004222,-0.513656,-0.008654,0.600035,-261.43697,0.719342,72.335014
5.576,0.000154,-0.003728,-0.00704,0.00433,0.003563,-0.000752,-0.003997,-0.513891,-0.008043,0.629002,-261.434833,0.750881,72.337378
5.596,0.00023,-0.003494,-0.007934,0.004213,0.003598,-0.000849,-0.003748,-0.513802,-0.007639,0.629002,-261.434833,0.750881,72.337378
5.6157,0.000259,-0.003373,-0.008325,0.004123,0.003621,-0.000922,-0.003677,-0.513365,-0.007958,0.621941,-261.432701,0.748568,72.339743
5.636,0.00057,-0.003494,-0.00802,0.004118,0.003536,-0.000905,-0.003954,-0.513351,-0.008294,0.621941,-261.432701,0.748568,72.339743
5.6561,0.000881,-0.003859,-0.008136,0.004113,0.00347,-0.000891,-0.003954,-0.513351,-0.008294,0.621941,-261.432701,0.748568,72.339743
5.6758,0.000608,-0.00336,-0.006942,0.004109,0.003418,-0.000879,-0.003101,-0.513698,-0.008173,0.638179,-261.430722,0.792784,72.342008
5.6958,0.000784,-0.003344,-0.008875,0.003896,0.003484,-0.000933,-0.003013,-0.513538,-0.007675,0.638179,-261.430722,0.792784,72.342008
5.7158,0.000939,-0.002919,-0.007978,0.003734,0.003531,-0.000974,-0.003613,-0.513218,-0.008903,0.611528,-261.428759,0.766347,72.344238
5.7362,0.000718,-0.003122,-0.008484,0.00368,0.003422,-0.000973,-0.003167,-0.512925,-0.008063,0.611528,-261.428759,0.766347,72.344238
5.7558,0.001026,-0.002976,-0.009469,0.003638,0.003338,-0.000972,-0.003167,-0.512925,-0.008063,0.611528,-261.428759,0.766347,72.344238
5.7759,0.001038,-0.00302,-0.009018,0.003605,0.003274,-0.000971,-0.003664,-0.512824,-0.009505,0.666264,-261.427081,0.835158,72.346204
5.7958,0.001109,-0.003237,-0.008779,0.003672,0.003184,-0.000876,-0.003606,-0.512881,-0.009311,0.666264,-261.427081,0.835158,72.346204
5.8161,0.001493,-0.002902,-0.009243,0.003723,0.003117,-0.0008,-0.003254,-0.513116,-0.00881,0.639485,-261.425308,0.820447,72.34829
5.8359,0.001433,-0.003215,-0.008403,0.003679,0.003098,-0.00075,-0.003218,-0.512896,-0.009206,0.639485,-261.425308,0.820447,72.34829
5.8558,0.001526,-0.003175,-0.009936,0.003646,0.003083,-0.00071,-0.003218,-0.512896,-0.009206,0.639485,-261.425308,0.820447,72.34829
5.8758,0.001611,-0.002948,-0.007797,0.00362,0.00307,-0.000678,-0.003392,-0.513028,-0.009968,0.61461,-261.423576,0.769366,72.35026
5.896,0.00149,-0.002688,-0.008245,0.003537,0.003097,-0.00066,-0.002955,-0.512975,-0.009085,0.61461,-261.423576,0.769366,72.35026
5.916,0.00167,-0.002442,-0.009576,0.003475,0.003115,-0.000646,-0.002599,-0.512574,-0.008267,0.632913,-261.421793,0.766204,72.352255
5.9359,0.001591,-0.002525,-0.007516,0.003502,0.002984,-0.000617,-0.003151,-0.512428,-0.009457,0.632913,-261.421793,0.766204,72.352255
5.9564,0.001847,-0.002585,-0.008104,0.003522,0.002885,-0.000594,-0.003151,-0.512428,-0.009457,0.632913,-261.421793,0.766204,72.352255
5.9763,0.002231,-0.002277,-0.007874,0.003537,0.00281,-0.000576,-0.002143,-0.512442,-0.00813,0.66432,-261.420072,0.790365,72.354182
5.996,0.002045,-0.002111,-0.007992,0.003241,0.002804,-0.000676,-0.00198,-0.512353,-0.008028,0.66432,-261.420072,0.790365,72.354182
6.0158,0.002111,-0.001954,-0.008064,0.003021,0.002796,-0.000751,-0.001929,-0.512015,-0.008008,0.60735,-261.418531,0.729466,72.355879
6.0362,0.001846,-0.002307,-0.009225,0.002879,0.002669,-0.000808,-0.00199,-0.511941,-0.00806,0.60735,-261.418531,0.729466,72.355879
6.0559,0.002141,-0.002047,-0.007474,0.002772,0.002572,-0.00085,-0.00199,-0.511941,-0.00806,0.60735,-261.418531,0.729466,72.355879
6.0759,0.00251,-0.001811,-0.007447,0.002693,0.002497,-0.000883,-0.001564,-0.511937,-0.007499,0.658464,-261.417256,0.804426,72.357361
6.0958,0.002319,-0.002171,-0.010098,0.002459,0.002445,-0.000972,-0.001439,-0.511869,-0.00748,0.658464,-261.417256,0.804426,72.357361
6.1159,0.002954,-0.001589,-0.008964,0.002285,0.002402,-0.00104,-0.002748,-0.51207,-0.010125,0.628799,-261.415976,0.845405,72.358922
6.1361,0.002706,-0.001774,-0.008726,0.002253,0.002276,-0.000955,-0.001714,-0.51161,-0.009069,0.628799,-261.415976,0.845405,72.358922
6.1559,0.002466,-0.002071,-0.00834,0.002229,0.002181,-0.000887,-0.001714,-0.51161,-0.009069,0.628799,-261.415976,0.845405,72.358922
6.1759,0.002527,-0.001664,-0.009565,0.002212,0.002108,-0.000833,-0.001701,-0.511965,-0.008379,0.658441,-261.41495,0.92053,72.360271
6.1964,0.002731,-0.002056,-0.00739,0.002268,0.002108,-0.000804,-0.001956,-0.511823,-0.008866,0.658441,-261.41495,0.92053,72.360271
6.2158,0.002979,-0.001488,-0.007962,0.002311,0.002107,-0.000779,-0.000971,-0.511979,-0.007415,0.626083,-261.413919,0.869229,72.361566
6.2361,0.002712,-0.001603,-0.011516,0.002058,0.002047,-0.000843,-0.001068,-0.511512,-0.007916,0.626083,-261.413919,0.869229,72.361566
6.2563,0.003077,-0.001514,-0.008874,0.00187,0.002,-0.000894,-0.001068,-0.511512,-0.007916,0.626083,-261.413919,0.869229,72.361566
6.2759,0.002583,-0.00168,-0.008826,0.00173,0.001963,-0.000933,-0.001353,-0.511408,-0.008906,0.614454,-261.412805,0.840824,72.362931
6.2962,0.002761,-0.00179,-0.0082,0.001802,0.001911,-0.000882,-0.001574,-0.511502,-0.008877,0.614454,-261.412805,0.840824,72.362931
6.3161,0.002626,-0.001259,-0.007084,0.001855,0.001872,-0.000842,-0.00138,-0.51173,-0.00822,0.677901,-261.412172,0.915806,72.363805
6.3362,0.003044,-0.001337,-0.012364,0.001713,0.001793,-0.000978,-0.001019,-0.511286,-0.007184,0.677901,-261.412172,0.915806,72.363805
6.3559,0.002811,-0.001362,-0.008904,0.001606,0.001731,-0.001081,-0.001019,-0.511286,-0.007184,0.677901,-261.412172,0.915806,72.363805
6.3757,0.003023,-0.001474,-0.008397,0.001526,0.001683,-0.001159,-0.001654,-0.511266,-0.008938,0.632011,-261.411285,0.909986,72.364971
6.3958,0.002978,-0.001502,-0.008534,0.001629,0.001647,-0.00107,-0.001485,-0.511335,-0.008721,0.632011,-261.411285,0.909986,72.364971
6.4157,0.00321,-0.001574,-0.007687,0.001706,0.00162,-0.001,-0.001333,-0.511441,-0.008563,0.568668,-261.410688,0.984848,72.365906
6.436,0.00308,-0.001731,-0.008192,0.001499,0.001698,-0.001029,-0.000752,-0.511549,-0.007749,0.568668,-261.410688,0.984848,72.365906
6.4559,0.002905,-0.001432,-0.007564,0.001345,0.001755,-0.001052,-0.000752,-0.511549,-0.007749,0.568668,-261.410688,0.984848,72.365906
6.4759,0.002877,-0.001433,-0.0076,0.001228,0.001796,-0.001069,-0.000888,-0.511357,-0.007602,0.534067,-261.40997,0.917956,72.366924
6.4957,0.002843,-0.001457,-0.009703,0.001214,0.001766,-0.001099,-0.000925,-0.511375,-0.007605,0.534067,-261.40997,0.917956,72.366924
6.5162,0.003277,-0.001479,-0.009224,0.001202,0.001743,-0.001121,-0.002093,-0.511419,-0.009712,0.608425,-261.40979,0.992314,72.367217
6.5363,0.003238,-0.001343,-0.008912,0.001387,0.001732,-0.001006,-0.001487,-0.511453,-0.009269,0.608425,-261.40979,0.992314,72.367217
6.5561,0.003441,-0.001778,-0.007966,0.001526,0.001726,-0.000914,-0.001487,-0.511453,-0.009269,0.608425,-261.40979,0.992314,72.367217
6.5759,0.003021,-0.001175,-0.009666,0.001631,0.001723,-0.000841,-0.000587,-0.511716,-0.007996,0.683435,-261.409373,1.067324,72.367922
6.596,0.003506,-0.00121,-0.008844,0.001588,0.001747,-0.000823,-0.001124,-0.51148,-0.008683,0.683435,-261.409373,1.067324,72.367922
6.616,0.003367,-0.001257,-0.011326,0.001557,0.001766,-0.00081,-0.000967,-0.511149,-0.008866,0.638157,-261.408766,0.992202,72.36875
6.636,0.003392,-0.001242,-0.009447,0.001892,0.001642,-0.000692,-0.002278,-0.511215,-0.011106,0.638157,-261.408766,0.992202,72.36875
6.6559,0.003701,-0.001555,-0.008779,0.002148,0.001553,-0.000596,-0.002278,-0.511215,-0.011106,0.638157,-261.408766,0.992202,72.36875
6.6761,0.003661,-0.001639,-0.007781,0.002342,0.001488,-0.000517,-0.000713,-0.511465,-0.008811,0.684691,-261.407997,0.967564,72.3698
6.6958,0.003197,-0.000998,-0.008463,0.001903,0.001605,-0.000589,-0.00054,-0.511522,-0.008394,0.684691,-261.407997,0.967564,72.3698
6.7158,0.003235,-0.001272,-0.008191,0.001575,0.001691,-0.000648,-0.001113,-0.510974,-0.008465,0.609683,-261.407898,0.892557,72.369912
6.7357,0.003454,-0.001267,-0.009668,0.0015,0.001649,-0.000715,-0.000957,-0.51123,-0.008215,0.609683,-261.407898,0.892557,72.369912
6.7559,0.003504,-0.001024,-0.009064,0.001444,0.001617,-0.000767,-0.000957,-0.51123,-0.008215,0.609683,-261.407898,0.892557,72.369912
6.7759,0.003143,-0.001086,-0.009969,0.001403,0.001593,-0.000807,-0.001059,-0.510941,-0.009088,0.68479,-261.407172,0.924368,72.370843
6.7959,0.003563,-0.00104,-0.007741,0.001539,0.00147,-0.000748,-0.001411,-0.510982,-0.009449,0.68479,-261.407172,0.924368,72.370843
6.8159,0.003845,-0.001369,-0.007383,0.001641,0.001378,-0.000701,-0.000342,-0.510977,-0.007765,0.664765,-261.406495,0.9785,72.371797
6.836,0.003438,-0.000954,-0.00868,0.001166,0.001454,-0.000829,4.5e-05,-0.511319,-0.007418,0.664765,-261.406495,0.9785,72.371797
6.8558,0.003516,-0.001167,-0.009172,0.000805,0.001508,-0.000929,4.5e-05,-0.511319,-0.007418,0.664765,-261.406495,0.9785,72.371797
6.876,0.003578,-0.000975,-0.008415,0.000532,0.001546,-0.001007,-0.001128,-0.511113,-0.009188,0.589675,-261.406099,0.90341,72.372306
6.8958,0.004176,-0.000942,-0.009441,0.000718,0.001464,-0.000943,-0.000953,-0.511045,-0.008871,0.589675,-261.406099,0.90341,72.372306
6.9161,0.003484,-0.001305,-0.007691,0.000857,0.001404,-0.000892,-0.000638,-0.510919,-0.009441,0.66487,-261.406099,0.978605,72.372308
6.9358,0.003607,-0.001399,-0.009395,0.0,0.0,0.0,-0.000457,-0.511256,-0.007855,0.66487,-261.406099,0.978605,72.372308
6.9558,0.00316,-0.001174,-0.00894,0.0,0.0,0.0,-0.000457,-0.511256,-0.007855,0.66487,-261.406099,0.978605,72.372308
6.9758,0.00393,-0.000719,-0.008934,0.0,0.0,0.0,-0.001379,-0.511127,-0.008957,0.739594,-261.405867,1.053329,72.372714
6.996,0.003817,-0.001175,-0.008331,0.0,0.0,0.0,-0.001062,-0.510945,-0.008949,0.739594,-261.405867,1.053329,72.372714
7.0162,0.003905,-0.001218,-0.009013,0.0,0.0,0.0,-0.000432,-0.511158,-0.008331,0.739594,-261.405867,1.053329,72.372714
7.0362,0.003836,-0.001022,-0.009634,0.0,0.0,0.0,-0.000668,-0.511194,-0.008952,0.739594,-261.405867,1.053329,72.372714
7.056,0.003763,-0.000989,-0.009582,0.0,0.0,0.0,-0.000668,-0.511194,-0.008952,0.739594,-261.405867,1.053329,72.372714
7.0764,0.003624,-0.001037,-0.008182,0.0,0.0,0.0,-0.001123,-0.510965,-0.009582,0.739594,-261.405867,1.053329,72.372714
7.0961,0.003933,-0.001052,-0.009249,0.0,0.0,0.0,-0.000893,-0.510987,-0.009022,0.739594,-261.405867,1.053329,72.372714
7.1158,0.00381,-0.001388,-0.009586,0.0,0.0,0.0,-0.000784,-0.511031,-0.009249,0.739594,-261.405867,1.053329,72.372714
7.1362,0.003646,-0.000652,-0.009619,0.0,0.0,0.0,-0.001052,-0.511334,-0.009556,0.739594,-261.405867,1.053329,72.372714
7.1558,0.003121,-0.000854,-0.008326,0.0,0.0,0.0,-0.001052,-0.511334,-0.009556,0.739594,-261.405867,1.053329,72.372714
7.1758,0.003709,-0.000696,-0.008575,0.0,0.0,0.0,-0.001125,-0.510837,-0.008326,0.739594,-261.405867,1.053329,72.372714
7.1958,0.00388,-0.001085,-0.009822,0.0,0.0,0.0,-0.000937,-0.510772,-0.008427,0.739594,-261.405867,1.053329,72.372714
7.216,0.003409,-0.001078,-0.009754,0.0,0.0,0.0,-0.001129,-0.51106,-0.009822,0.739594,-261.405867,1.053329,72.372714
7.236,0.003404,-0.001328,-0.009339,0.0,0.0,0.0,-0.001531,-0.511054,-0.00976,0.739594,-261.405867,1.053329,72.372714
7.2558,0.00341,-0.000721,-0.008921,0.0,0.0,0.0,-0.001531,-0.511054,-0.00976,0.739594,-261.405867,1.053329,72.372714
7.2761,0.003662,-0.001095,-0.009009,0.0,0.0,0.0,-0.00114,-0.510701,-0.008921,0.739594,-261.405867,1.053329,72.372714
7.2962,0.003719,-0.001231,-0.008688,0.0,0.0,0.0,-0.001055,-0.510853,-0.008957,0.739594,-261.405867,1.053329,72.372714
7.3161,0.003637,-0.001106,-0.008549,0.0,0.0,0.0,-0.000712,-0.511212,-0.008688,0.739594,-261.405867,1.053329,72.372714
7.3359,0.00362,-0.000848,-0.010388,0.0,0.0,0.0,-0.000722,-0.511097,-0.008559,0.739594,-261.405867,1.053329,72.372714
7.356,0.003767,-0.000864,-0.009221,0.0,0.0,0.0,-0.000722,-0.511097,-0.008559,0.739594,-261.405867,1.053329,72.372714
7.3759,0.003826,-0.000625,-0.009277,0.0,0.0,0.0,-0.000936,-0.510843,-0.009221,0.739594,-261.405867,1.053329,72.372714
7.3962,0.003564,-0.000886,-0.010072,0.0,0.0,0.0,-0.000923,-0.510744,-0.009244,0.739594,-261.405867,1.053329,72.372714
7.4158,0.00354,-0.000642,-0.010225,0.0,0.0,0.0,-0.001573,-0.51086,-0.010072,0.739594,-261.405867,1.053329,72.372714
7.4357,0.004337,-0.001139,-0.008638,0.0,0.0,0.0,-0.001666,-0.510637,-0.010212,0.739594,-261.405867,1.053329,72.372714
7.4557,0.003763,-0.000812,-0.008962,0.0,0.0,0.0,-0.001666,-0.510637,-0.010212,0.739594,-261.405867,1.053329,72.372714
7.4758,0.003846,-0.001263,-0.008669,0.0,0.0,0.0,-0.000807,-0.510792,-0.008962,0.739594,-261.405867,1.053329,72.372714
7.496,0.003742,-0.001308,-0.008264,0.0,0.0,0.0,-0.000711,-0.51098,-0.00884,0.739594,-261.405867,1.053329,72.372714
7.5158,0.003806,-0.001055,-0.00802,0.0,0.0,0.0,-0.000473,-0.51129,-0.008264,0.739594,-261.405867,1.053329,72.372714
7.5364,0.003535,-0.000724,-0.008052,0.0,0.0,0.0,-0.000301,-0.51106,-0.008041,0.739594,-261.405867,1.053329,72.372714
7.5561,0.003942,-0.000866,-0.009738,0.0,0.0,0.0,-0.000301,-0.51106,-0.008041,0.739594,-261.405867,1.053329,72.372714
7.5762,0.003548,-0.000754,-0.008333,0.0,0.0,0.0,-0.001024,-0.510842,-0.009738,0.739594,-261.405867,1.053329,72.372714
7.5961,0.003746,-0.001214,-0.008009,0.0,0.0,0.0,-0.00089,-0.510798,-0.009155,0.739594,-261.405867,1.053329,72.372714
7.616,0.003644,-0.000857,-0.00859,0.0,0.0,0.0,-0.000338,-0.511198,-0.008009,0.739594,-261.405867,1.053329,72.372714
7.6364,0.003653,-0.00107,-0.007862,0.0,0.0,0.0,-0.000701,-0.51087,-0.008538,0.739594,-261.405867,1.053329,72.372714
7.6558,0.003778,-0.001107,-0.009586,0.0,0.0,0.0,-0.000701,-0.51087,-0.008538,0.739594,-261.405867,1.053329,72.372714
7.6762,0.003506,-0.000929,-0.008898,0.0,0.0,0.0,-0.001111,-0.511084,-0.009586,0.739594,-261.405867,1.053329,72.372714
7.6961,0.003877,-0.001113,-0.009692,0.0,0.0,0.0,-0.001077,-0.511008,-0.00929,0.739594,-261.405867,1.053329,72.372714
7.716,0.003805,-0.000975,-0.009925,0.0,0.0,0.0,-0.001066,-0.511089,-0.009692,0.739594,-261.405867,1.053329,72.372714
7.7356,0.003724,-0.001005,-0.009832,0.0,0.0,0.0,-0.001242,-0.510961,-0.009907,0.739594,-261.405867,1.053329,72.372714
7.7556,0.00394,-0.001103,-0.006732,0.0,0.0,0.0,-0.001242,-0.510961,-0.009907,0.739594,-261.405867,1.053329,72.372714
7.7761,0.004071,-0.000614,-0.010126,0.0,0.0,0.0,0.000506,-0.511092,-0.006732,0.739594,-261.405867,1.053329,72.372714
7.796,0.003336,-0.000688,-0.007925,0.0,0.0,0.0,-0.000151,-0.510885,-0.008128,0.739594,-261.405867,1.053329,72.372714
7.8155,0.003535,-0.000952,-0.006762,0.0,0.0,0.0,-0.000705,-0.510672,-0.007925,0.739594,-261.405867,1.053329,72.372714
7.8357,0.003766,-0.000848,-0.009759,0.0,0.0,0.0,2.8e-05,-0.510921,-0.006847,0.739594,-261.405867,1.053329,72.372714
7.8558,0.003872,-0.000979,-0.009243,0.0,0.0,0.0,2.8e-05,-0.510921,-0.006847,0.739594,-261.405867,1.053329,72.372714
7.8756,0.0038,-0.001215,-0.008868,0.0,0.0,0.0,-0.000841,-0.510957,-0.009243,0.739594,-261.405867,1.053329,72.372714
7.8957,0.003752,-0.001137,-0.011193,0.0,0.0,0.0,-0.000792,-0.511055,-0.009088,0.739594,-261.405867,1.053329,72.372714
7.916,0.003982,-0.001002,-0.008754,0.0,0.0,0.0,-0.001956,-0.511105,-0.011193,0.739594,-261.405867,1.053329,72.372714
7.9358,0.003745,-0.001099,-0.009217,0.0,0.0,0.0,-0.000595,-0.510992,-0.00894,0.739594,-261.405867,1.053329,72.372714
7.9556,0.003718,-0.000966,-0.006848,0.0,0.0,0.0,-0.000595,-0.510992,-0.00894,0.739594,-261.405867,1.053329,72.372714
7.9758,0.003506,-0.001185,-0.007404,0.0,0.0,0.0,0.000226,-0.510954,-0.006848,0.739594,-261.405867,1.053329,72.372714
7.996,0.003239,-0.000782,-0.008013,0.0,0.0,0.0,2.4e-05,-0.511042,-0.007074,0.739594,-261.405867,1.053329,72.372714
8.0157,0.00344,-0.001114,-0.009426,0.0,0.0,0.0,-0.000848,-0.510765,-0.008013,0.739594,-261.405867,1.053329,72.372714
8.036,0.003444,-0.000554,-0.009702,0.0,0.0,0.0,-0.001319,-0.511061,-0.009295,0.739594,-261.405867,1.053329,72.372714
8.0558,0.003752,-0.001174,-0.008191,0.0,0.0,0.0,-0.001319,-0.511061,-0.009295,0.739594,-261.405867,1.053329,72.372714
8.0758,0.003649,-0.000925,-0.008666,0.0,0.0,0.0,-0.000426,-0.511157,-0.008191,0.739594,-261.405867,1.053329,72.372714
8.0961,0.003677,-0.000854,-0.009596,0.0,0.0,0.0,-0.000566,-0.511055,-0.008384,0.739594,-261.405867,1.053329,72.372714
8.1156,0.003885,-0.000938,-0.008212,0.0,0.0,0.0,-0.001217,-0.510831,-0.009596,0.739594,-261.405867,1.053329,72.372714
8.1357,0.003618,-0.000872,-0.009245,0.0,0.0,0.0,-0.000385,-0.510913,-0.008336,0.739594,-261.405867,1.053329,72.372714
8.1563,0.003996,-0.001001,-0.008846,0.0,0.0,0.0,-0.000385,-0.510913,-0.008336,0.739594,-261.405867,1.053329,72.372714
8.1756,0.003838,-0.000824,-0.009759,0.0,0.0,0.0,-0.000516,-0.510981,-0.008846,0.739594,-261.405867,1.053329,72.372714
8.1956,0.003684,-0.000903,-0.00708,0.0,0.0,0.0,-0.000769,-0.510907,-0.009217,0.739594,-261.405867,1.053329,72.372714
8.216,0.003842,-0.000933,-0.00863,0.0,0.0,0.0,7.3e-05,-0.51089,-0.00708,0.739594,-261.405867,1.053329,72.372714
8.2359,0.003436,-0.001026,-0.009784,0.0,0.0,0.0,-0.000502,-0.510912,-0.00849,0.739594,-261.405867,1.053329,72.372714
8.2558,0.003561,-0.001038,-0.00681,0.0,0.0,0.0,-0.000502,-0.510912,-0.00849,0.739594,-261.405867,1.053329,72.372714
8.2759,0.00389,-0.001128,-0.009251,0.0,0.0,0.0,8.8e-05,-0.511026,-0.00681,0.739594,-261.405867,1.053329,72.372714
8.2959,0.003733,-0.001303,-0.007267,0.0,0.0,0.0,-0.000284,-0.511059,-0.007803,0.739594,-261.405867,1.053329,72.372714
8.3161,0.003754,-0.001008,-0.008677,0.0,0.0,0.0,-0.000284,-0.511059,-0.007803,0.739594,-261.405867,1.053329,72.372714
8.336,0.003686,-0.001496,-0.008584,0.0,0.0,0.0,-0.000627,-0.511008,-0.008588,0.739594,-261.405867,1.053329,72.372714
8.3564,0.003763,-0.001039,-0.008724,0.0,0.0,0.0,-0.000627,-0.511008,-0.008588,0.739594,-261.405867,1.053329,72.372714
8.3759,0.004068,-0.001086,-0.009495,0.0,0.0,0.0,-0.000686,-0.511019,-0.008724,0.739594,-261.405867,1.053329,72.372714
8.396,0.003745,-0.001049,-0.008341,0.0,0.0,0.0,-0.000722,-0.511037,-0.009036,0.739594,-261.405867,1.053329,72.372714
8.4156,0.003319,-0.001007,-0.008801,0.0,0.0,0.0,-0.000509,-0.511031,-0.008341,0.739594,-261.405867,1.053329,72.372714
8.4361,0.003968,-0.000866,-0.008891,0.0,0.0,0.0,-0.001116,-0.510991,-0.008764,0.739594,-261.405867,1.053329,72.372714
8.4559,0.00381,-0.001007,-0.007613,0.0,0.0,0.0,-0.001116,-0.510991,-0.008764,0.739594,-261.405867,1.053329,72.372714
8.4762,0.00353,-0.000721,-0.00967,0.0,0.0,0.0,-7.3e-05,-0.510992,-0.007613,0.739594,-261.405867,1.053329,72.372714
8.4963,0.00375,-0.001179,-0.00749,0.0,0.0,0.0,-0.000618,-0.510871,-0.008457,0.739594,-261.405867,1.053329,72.372714
8.5162,0.003571,-0.001245,-0.009369,0.0,0.0,0.0,-7e-05,-0.511165,-0.00749,0.739594,-261.405867,1.053329,72.372714
8.5361,0.003521,-0.001207,-0.010071,0.0,0.0,0.0,-0.00111,-0.511218,-0.009208,0.739594,-261.405867,1.053329,72.372714
8.5558,0.003612,-0.000573,-0.009805,0.0,0.0,0.0,-0.00111,-0.511218,-0.009208,0.739594,-261.405867,1.053329,72.372714
8.5761,0.003606,-0.001318,-0.008369,0.0,0.0,0.0,-0.001388,-0.510548,-0.009805,0.739594,-261.405867,1.053329,72.372714
8.5963,0.003821,-0.001262,-0.00882,0.0,0.0,0.0,-0.001089,-0.510858,-0.009212,0.739594,-261.405867,1.053329,72.372714
8.6159,0.003774,-0.000716,-0.009636,0.0,0.0,0.0,-0.000677,-0.511242,-0.00882,0.739594,-261.405867,1.053329,72.372714
8.6359,0.003836,-0.000594,-0.00889,0.0,0.0,0.0,-0.001098,-0.510742,-0.009562,0.739594,-261.405867,1.053329,72.372714
8.656,0.003725,-0.001111,-0.008156,0.0,0.0,0.0,-0.001098,-0.510742,-0.009562,0.739594,-261.405867,1.053329,72.372714
8.6762,0.003698,-0.000586,-0.006487,0.0,0.0,0.0,-0.000435,-0.511094,-0.008156,0.739594,-261.405867,1.053329,72.372714
8.6962,0.003652,-0.001125,-0.009288,0.0,0.0,0.0,-9.7e-05,-0.510881,-0.007473,0.739594,-261.405867,1.053329,72.372714
8.7156,0.003552,-0.000783,-0.010009,0.0,0.0,0.0,-0.001085,-0.511103,-0.009288,0.739594,-261.405867,1.053329,72.372714
8.736,0.003988,-0.000729,-0.007546,0.0,0.0,0.0,-0.001525,-0.510778,-0.009966,0.739594,-261.405867,1.053329,72.372714
8.7559,0.003538,-0.001124,-0.010043,0.0,0.0,0.0,-0.001525,-0.510778,-0.009966,0.739594,-261.405867,1.053329,72.372714
8.7757,0.003914,-0.000993,-0.009303,0.0,0.0,0.0,-0.001584,-0.511099,-0.010043,0.739594,-261.405867,1.053329,72.372714
8.7962,0.003943,-0.001069,-0.008868,0.0,0.0,0.0,-0.00126,-0.511044,-0.009726,0.739594,-261.405867,1.053329,72.372714
8.8158,0.003741,-0.000869,-0.008144,0.0,0.0,0.0,-0.00058,-0.511049,-0.008868,0.739594,-261.405867,1.053329,72.372714
8.836,0.003946,-0.001169,-0.009779,0.0,0.0,0.0,-0.000424,-0.510867,-0.008197,0.739594,-261.405867,1.053329,72.372714
8.8561,0.003342,-0.001037,-0.010001,0.0,0.0,0.0,-0.000424,-0.510867,-0.008197,0.739594,-261.405867,1.053329,72.372714
8.8761,0.004024,-0.000787,-0.010743,0.0,0.0,0.0,-0.001758,-0.511012,-0.010001,0.739594,-261.405867,1.053329,72.372714
8.896,0.004172,-0.001183,-0.01063,0.0,0.0,0.0,-0.001634,-0.510908,-0.010304,0.739594,-261.405867,1.053329,72.372714
8.9161,0.00351,-0.001396,-0.008246,0.0,0.0,0.0,-0.00125,-0.511154,-0.01063,0.739594,-261.405867,1.053329,72.372714
8.9362,0.003811,-0.000805,-0.01041,0.0,0.0,0.0,-0.000745,-0.511359,-0.00846,0.739594,-261.405867,1.053329,72.372714
8.9563,0.003984,-0.000965,-0.009312,0.0,0.0,0.0,-0.000745,-0.511359,-0.00846,0.739594,-261.405867,1.053329,72.372714
8.9758,0.003558,-0.000951,-0.009438,0.0,0.0,0.0,-0.000765,-0.510942,-0.009312,0.739594,-261.405867,1.053329,72.372714
8.9958,0.00356,-0.000877,-0.010363,0.0,0.0,0.0,-0.000967,-0.510936,-0.009364,0.739594,-261.405867,1.053329,72.372714
9.0156,0.003833,-0.000679,-0.008599,0.0,0.0,0.0,-0.001725,-0.51085,-0.010363,0.739594,-261.405867,1.053329,72.372714
9.0366,0.003987,-0.000809,-0.008976,0.0,0.0,0.0,-0.000634,-0.510673,-0.008722,0.739594,-261.405867,1.053329,72.372714
9.0565,0.00374,-0.000984,-0.008147,0.0,0.0,0.0,-0.000634,-0.510673,-0.008722,0.739594,-261.405867,1.053329,72.372714
9.076,0.003827,-0.000225,-0.008714,0.0,0.0,0.0,-0.000415,-0.510967,-0.008147,0.739594,-261.405867,1.053329,72.372714
9.0962,0.003501,-0.000668,-0.008905,0.0,0.0,0.0,-0.000496,-0.510664,-0.008372,0.739594,-261.405867,1.053329,72.372714
9.1156,0.003716,-0.001058,-0.010097,0.0,0.0,0.0,-0.001041,-0.510648,-0.008905,0.739594,-261.405867,1.053329,72.372714
9.1357,0.003489,-0.000988,-0.008937,0.0,0.0,0.0,-0.001398,-0.510997,-0.009989,0.739594,-261.405867,1.053329,72.372714
9.1562,0.003644,-0.000848,-0.00868,0.0,0.0,0.0,-0.001398,-0.510997,-0.009989,0.739594,-261.405867,1.053329,72.372714
9.1764,0.00382,-0.0008,-0.009207,0.0,0.0,0.0,-0.000783,-0.510829,-0.00868,0.739594,-261.405867,1.053329,72.372714
9.1961,0.003745,-0.00068,-0.008407,0.0,0.0,0.0,-0.000821,-0.510808,-0.008894,0.739594,-261.405867,1.053329,72.372714
9.2157,0.003769,-0.001351,-0.008715,0.0,0.0,0.0,-0.000543,-0.510662,-0.008407,0.739594,-261.405867,1.053329,72.372714
9.2359,0.003854,-0.001046,-0.006679,0.0,0.0,0.0,-0.000665,-0.511279,-0.008691,0.739594,-261.405867,1.053329,72.372714
9.2559,0.003689,-0.001022,-0.008408,0.0,0.0,0.0,-0.000665,-0.511279,-0.008691,0.739594,-261.405867,1.053329,72.372714
9.2758,0.003559,-0.001136,-0.009924,0.0,0.0,0.0,-0.000599,-0.511004,-0.008408,0.739594,-261.405867,1.053329,72.372714
9.2959,0.0037,-0.000875,-0.010237,0.0,0.0,0.0,-0.000969,-0.511047,-0.009029,0.739594,-261.405867,1.053329,72.372714
9.316,0.003788,-0.000471,-0.009446,0.0,0.0,0.0,-0.001521,-0.510849,-0.010237,0.739594,-261.405867,1.053329,72.372714
9.3359,0.003734,-0.0009,-0.007865,0.0,0.0,0.0,-0.001074,-0.510485,-0.009519,0.739594,-261.405867,1.053329,72.372714
9.3559,0.003904,-0.001155,-0.008449,0.0,0.0,0.0,-0.001074,-0.510485,-0.009519,0.739594,-261.405867,1.053329,72.372714
9.3759,0.003552,-0.001077,-0.007619,0.0,0.0,0.0,-0.000405,-0.511136,-0.008449,0.739594,-261.405867,1.053329,72.372714
9.396,0.003571,-0.001229,-0.007949,0.0,0.0,0.0,-0.000376,-0.511107,-0.008113,0.739594,-261.405867,1.053329,72.372714
9.416,0.003651,-0.001094,-0.007975,0.0,0.0,0.0,-0.000483,-0.511212,-0.007949,0.739594,-261.405867,1.053329,72.372714
9.4361,0.003494,-0.001133,-0.008913,0.0,0.0,0.0,-0.00042,-0.511085,-0.007974,0.739594,-261.405867,1.053329,72.372714
9.4558,0.00392,-0.00072,-0.008185,0.0,0.0,0.0,-0.00042,-0.511085,-0.007974,0.739594,-261.405867,1.053329,72.372714
9.4764,0.003999,-0.001183,-0.008867,0.0,0.0,0.0,-0.000254,-0.510703,-0.008185,0.739594,-261.405867,1.053329,72.372714
9.4965,0.003545,-0.001095,-0.008537,0.0,0.0,0.0,-0.000367,-0.510896,-0.008471,0.739594,-261.405867,1.053329,72.372714
9.5161,0.003998,-0.001156,-0.009695,0.0,0.0,0.0,-0.000808,-0.511076,-0.008537,0.739594,-261.405867,1.053329,72.372714
9.5362,0.003534,-0.000979,-0.009042,0.0,0.0,0.0,-0.000937,-0.511128,-0.009612,0.739594,-261.405867,1.053329,72.372714
9.5562,0.003531,-0.001141,-0.008907,0.0,0.0,0.0,-0.000937,-0.511128,-0.009612,0.739594,-261.405867,1.053329,72.372714
9.5769,0.004063,-0.000986,-0.009862,0.0,0.0,0.0,-0.001012,-0.511121,-0.008907,0.739594,-261.405867,1.053329,72.372714
9.5959,0.003733,-0.000765,-0.010038,0.0,0.0,0.0,-0.000992,-0.511053,-0.009309,0.739594,-261.405867,1.053329,72.372714
9.6158,0.003833,-0.001005,-0.007914,0.0,0.0,0.0,-0.001386,-0.510739,-0.010038,0.739594,-261.405867,1.053329,72.372714
9.636,0.003767,-0.001001,-0.010921,0.0,0.0,0.0,-0.000289,-0.510971,-0.008069,0.739594,-261.405867,1.053329,72.372714
9.656,0.003685,-0.0011,-0.009463,0.0,0.0,0.0,-0.000289,-0.510971,-0.008069,0.739594,-261.405867,1.053329,72.372714
9.6759,0.003924,-0.00119,-0.009664,0.0,0.0,0.0,-0.001141,-0.511077,-0.009463,0.739594,-261.405867,1.053329,72.372714
9.6959,0.003896,-0.001008,-0.007202,0.0,0.0,0.0,-0.001085,-0.511113,-0.009544,0.739594,-261.405867,1.053329,72.372714
9.7155,0.003713,-0.001071,-0.00789,0.0,0.0,0.0,0.000223,-0.510995,-0.007202,0.739594,-261.405867,1.053329,72.372714
9.7357,0.00367,-0.000994,-0.009244,0.0,0.0,0.0,-0.000263,-0.51105,-0.007828,0.739594,-261.405867,1.053329,72.372714
9.7559,0.003938,-0.00081,-0.010345,0.0,0.0,0.0,-0.000263,-0.51105,-0.007828,0.739594,-261.405867,1.053329,72.372714
9.7759,0.003559,-0.00104,-0.009267,0.0,0.0,0.0,-0.001337,-0.510783,-0.010345,0.739594,-261.405867,1.053329,72.372714
9.7957,0.003798,-0.00091,-0.008813,0.0,0.0,0.0,-0.001268,-0.51088,-0.009902,0.739594,-261.405867,1.053329,72.372714
9.8156,0.003726,-0.001087,-0.008222,0.0,0.0,0.0,-0.000697,-0.51089,-0.008813,0.739594,-261.405867,1.053329,72.372714
9.8359,0.003666,-0.000845,-0.009798,0.0,0.0,0.0,-0.000486,-0.511056,-0.008269,0.739594,-261.405867,1.053329,72.372714
9.8559,0.003388,-0.00073,-0.010025,0.0,0.0,0.0,-0.000486,-0.511056,-0.008269,0.739594,-261.405867,1.053329,72.372714
9.8758,0.003836,-0.000928,-0.0093,0.0,0.0,0.0,-0.001724,-0.510704,-0.010025,0.739594,-261.405867,1.053329,72.372714
9.8958,0.004121,-0.001115,-0.009226,0.0,0.0,0.0,-0.001387,-0.510787,-0.009726,0.739594,-261.405867,1.053329,72.372714
9.916,0.003642,-0.001015,-0.00704,0.0,0.0,0.0,-0.000584,-0.511093,-0.009226,0.739594,-261.405867,1.053329,72.372714
9.9357,0.003561,-0.001026,-0.009396,0.0,0.0,0.0,-3e-06,-0.51101,-0.007226,0.739594,-261.405867,1.053329,72.372714
9.9558,0.003823,-0.001047,-0.009041,0.0,0.0,0.0,-3e-06,-0.51101,-0.007226,0.739594,-261.405867,1.053329,72.372714
9.9758,0.003577,-0.000568,-0.008229,0.0,0.0,0.0,-0.000788,-0.511026,-0.009041,0.739594,-261.405867,1.053329,72.372714
9.9962,0.003448,-0.000767,-0.009087,0.0,0.0,0.0,-0.000719,-0.51083,-0.008706,0.739594,-261.405867,1.053329,72.372714
10.0162,0.003575,-0.000606,-0.010127,0.0,0.0,0.0,-0.001187,-0.510746,-0.009087,0.739594,-261.405867,1.053329,72.372714
10.0363,0.004022,-0.001092,-0.00876,0.0,0.0,0.0,-0.001551,-0.510596,-0.010027,0.739594,-261.405867,1.053329,72.372714
10.056,0.003542,-0.001363,-0.008906,0.0,0.0,0.0,-0.001551,-0.510596,-0.010027,0.739594,-261.405867,1.053329,72.372714
10.076,0.003899,-0.000734,-0.010387,0.0,0.0,0.0,-0.001,-0.511342,-0.008906,0.739594,-261.405867,1.053329,72.372714
10.0962,0.003623,-0.000902,-0.008246,0.0,0.0,0.0,-0.001168,-0.511074,-0.00953,0.739594,-261.405867,1.053329,72.372714
10.1158,0.003833,-0.001108,-0.010804,0.0,0.0,0.0,-0.000583,-0.510885,-0.008246,0.739594,-261.405867,1.053329,72.372714
10.1358,0.003605,-0.000984,-0.008128,0.0,0.0,0.0,-0.001577,-0.511061,-0.010571,0.739594,-261.405867,1.053329,72.372714
10.1563,0.004139,-0.000755,-0.007993,0.0,0.0,0.0,-0.001577,-0.511061,-0.010571,0.739594,-261.405867,1.053329,72.372714
10.1757,0.00362,-0.000749,-0.00831,0.0,0.0,0.0,6.3e-05,-0.510739,-0.007993,0.739594,-261.405867,1.053329,72.372714
10.1957,0.003755,-0.000968,-0.009342,0.0,0.0,0.0,-0.000213,-0.510736,-0.008121,0.739594,-261.405867,1.053329,72.372714
10.216,0.003611,-0.000834,-0.008241,0.0,0.0,0.0,-0.001009,-0.510946,-0.009342,0.739594,-261.405867,1.053329,72.372714
10.2361,0.003945,-0.000962,-0.008022,0.0,0.0,0.0,-0.000627,-0.510827,-0.008334,0.739594,-261.405867,1.053329,72.372714
10.256,0.003729,-0.000572,-0.009221,0.0,0.0,0.0,-0.000627,-0.510827,-0.008334,0.739594,-261.405867,1.053329,72.372714
10.2758,0.00408,-0.000584,-0.008127,0.0,0.0,0.0,-0.000974,-0.510551,-0.009221,0.739594,-261.405867,1.053329,72.372714
10.2957,0.003489,-0.000967,-0.010081,0.0,0.0,0.0,-0.000598,-0.510558,-0.008768,0.739594,-261.405867,1.053329,72.372714
10.3155,0.004027,-0.001098,-0.007516,0.0,0.0,0.0,-0.001652,-0.510941,-0.010081,0.739594,-261.405867,1.053329,72.372714
10.3359,0.003785,-0.001074,-0.008342,0.0,0.0,0.0,2.7e-05,-0.511071,-0.007748,0.739594,-261.405867,1.053329,72.372714
10.3566,0.00381,-0.000913,-0.008362,0.0,0.0,0.0,2.7e-05,-0.511071,-0.007748,0.739594,-261.405867,1.053329,72.372714
10.3758,0.003647,-0.000814,-0.007983,0.0,0.0,0.0,-0.000455,-0.510895,-0.008362,0.739594,-261.405867,1.053329,72.372714
10.3959,0.004009,-0.001204,-0.007556,0.0,0.0,0.0,-0.000443,-0.510857,-0.008215,0.739594,-261.405867,1.053329,72.372714
10.4156,0.003959,-0.000842,-0.009499,0.0,0.0,0.0,0.000155,-0.51119,-0.007556,0.739594,-261.405867,1.053329,72.372714
10.4357,0.003355,-0.001032,-0.008108,0.0,0.0,0.0,-0.000793,-0.510852,-0.009325,0.739594,-261.405867,1.053329,72.372714
10.4559,0.003888,-0.00064,-0.007695,0.0,0.0,0.0,-0.000793,-0.510852,-0.009325,0.739594,-261.405867,1.053329,72.372714
10.476,0.003618,-0.001001,-0.010651,0.0,0.0,0.0,-3.6e-05,-0.510625,-0.007695,0.739594,-261.405867,1.053329,72.372714
10.496,0.003418,-0.001101,-0.01029,0.0,0.0,0.0,-0.000781,-0.510771,-0.008933,0.739594,-261.405867,1.053329,72.372714
10.5163,0.003795,-0.000926,-0.008426,0.0,0.0,0.0,-0.00183,-0.511074,-0.01029,0.739594,-261.405867,1.053329,72.372714
10.5361,0.004003,-0.000995,-0.008413,0.0,0.0,0.0,-0.000615,-0.510922,-0.008585,0.739594,-261.405867,1.053329,72.372714
10.5559,0.003573,-0.00124,-0.009778,0.0,0.0,0.0,-0.000615,-0.510922,-0.008585,0.739594,-261.405867,1.053329,72.372714
10.576,0.003894,-0.001157,-0.011007,0.0,0.0,0.0,-0.001414,-0.511215,-0.009778,0.739594,-261.405867,1.053329,72.372714
10.5962,0.003429,-0.001224,-0.008457,0.0,0.0,0.0,-0.00154,-0.511179,-0.010286,0.739594,-261.405867,1.053329,72.372714
10.6159,0.003906,-0.000744,-0.010421,0.0,0.0,0.0,-0.000884,-0.511206,-0.008457,0.739594,-261.405867,1.053329,72.372714
10.6361,0.003641,-0.001437,-0.009305,0.0,0.0,0.0,-0.001363,-0.510759,-0.010251,0.739594,-261.405867,1.053329,72.372714
10.6559,0.00381,-0.000841,-0.007938,0.0,0.0,0.0,-0.001363,-0.510759,-0.010251,0.739594,-261.405867,1.053329,72.372714
10.6763,0.003915,-0.000914,-0.00926,0.0,0.0,0.0,-0.000238,-0.510825,-0.007938,0.739594,-261.405867,1.053329,72.372714
10.696,0.003911,-0.001127,-0.008965,0.0,0.0,0.0,-0.000472,-0.510852,-0.00848,0.739594,-261.405867,1.053329,72.372714
10.7159,0.003895,-0.001056,-0.007556,0.0,0.0,0.0,-0.000661,-0.511106,-0.008965,0.739594,-261.405867,1.053329,72.372714
10.7359,0.003587,-0.000985,-0.008799,0.0,0.0,0.0,-2.1e-05,-0.511047,-0.00768,0.739594,-261.405867,1.053329,72.372714
10.756,0.00363,-0.000871,-0.00799,0.0,0.0,0.0,-2.1e-05,-0.511047,-0.00768,0.739594,-261.405867,1.053329,72.372714
10.776,0.003549,-0.000519,-0.008859,0.0,0.0,0.0,-0.000444,-0.510855,-0.00799,0.739594,-261.405867,1.053329,72.372714
10.796,0.003207,-0.000843,-0.009379,0.0,0.0,0.0,-0.000676,-0.510698,-0.008374,0.739594,-261.405867,1.053329,72.372714
10.816,0.003953,-0.001081,-0.007914,0.0,0.0,0.0,-0.001576,-0.510821,-0.009379,0.739594,-261.405867,1.053329,72.372714
10.8361,0.003481,-0.000982,-0.008754,0.0,0.0,0.0,-0.000195,-0.511047,-0.008024,0.739594,-261.405867,1.053329,72.372714
10.8559,0.003586,-0.001275,-0.008331,0.0,0.0,0.0,-0.000195,-0.511047,-0.008024,0.739594,-261.405867,1.053329,72.372714
10.876,0.003459,-0.000746,-0.009201,0.0,0.0,0.0,-0.000662,-0.511258,-0.008331,0.739594,-261.405867,1.053329,72.372714
10.8958,0.003617,-0.001171,-0.010897,0.0,0.0,0.0,-0.000899,-0.511036,-0.008692,0.739594,-261.405867,1.053329,72.372714
10.9159,0.003808,-0.001274,-0.008623,0.0,0.0,0.0,-0.001941,-0.511141,-0.010897,0.739594,-261.405867,1.053329,72.372714
10.9359,0.003743,-0.000624,-0.008687,0.0,0.0,0.0,-0.000711,-0.511244,-0.008829,0.739594,-261.405867,1.053329,72.372714
10.9563,0.003732,-0.000889,-0.008156,0.0,0.0,0.0,-0.000711,-0.511244,-0.008829,0.739594,-261.405867,1.053329,72.372714
10.976,0.003629,-0.000794,-0.007935,0.0,0.0,0.0,-0.000427,-0.510872,-0.008156,0.739594,-261.405867,1.053329,72.372714
10.9961,0.00382,-0.001079,-0.008602,0.0,0.0,0.0,-0.000424,-0.510835,-0.008068,0.739594,-261.405867,1.053329,72.372714
11.0158,0.00398,-0.001015,-0.009459,0.0,0.0,0.0,-0.000566,-0.511061,-0.008602,0.739594,-261.405867,1.053329,72.372714
11.036,0.003676,-0.001215,-0.010115,0.0,0.0,0.0,-0.000819,-0.510998,-0.009381,0.739594,-261.405867,1.053329,72.372714
11.0559,0.003756,-0.00097,-0.007305,0.0,0.0,0.0,-0.000819,-0.510998,-0.009381,0.739594,-261.405867,1.053329,72.372714
11.0765,0.003744,-0.000989,-0.008038,0.0,0.0,0.0,3e-05,-0.510956,-0.007305,0.739594,-261.405867,1.053329,72.372714
11.0958,0.003666,-0.001262,-0.008962,0.0,0.0,0.0,-0.000138,-0.510963,-0.007625,0.739594,-261.405867,1.053329,72.372714
11.1156,0.004006,-0.000882,-0.009792,0.0,0.0,0.0,-0.000904,-0.511241,-0.008962,0.739594,-261.405867,1.053329,72.372714
11.1362,0.003968,-0.000786,-0.009215,0.0,0.0,0.0,-0.000981,-0.510891,-0.009718,0.739594,-261.405867,1.053329,72.372714
11.1564,0.003736,-0.001134,-0.01005,0.0,0.0,0.0,-0.000981,-0.510891,-0.009718,0.739594,-261.405867,1.053329,72.372714
11.1761,0.003599,-0.001021,-0.008217,0.0,0.0,0.0,-0.00139,-0.511109,-0.01005,0.739594,-261.405867,1.053329,72.372714
11.1961,0.003644,-0.000999,-0.01011,0.0,0.0,0.0,-0.001059,-0.511065,-0.009289,0.739594,-261.405867,1.053329,72.372714
11.216,0.003898,-0.000812,-0.009521,0.0,0.0,0.0,-0.001512,-0.510973,-0.01011,0.739594,-261.405867,1.053329,72.372714
11.2359,0.003892,-0.00094,-0.008837,0.0,0.0,0.0,-0.001008,-0.510805,-0.009574,0.739594,-261.405867,1.053329,72.372714
11.256,0.003784,-0.000903,-0.010832,0.0,0.0,0.0,-0.001008,-0.510805,-0.009574,0.739594,-261.405867,1.053329,72.372714
11.2759,0.003603,-0.001106,-0.008038,0.0,0.0,0.0,-0.00174,-0.510873,-0.010832,0.739594,-261.405867,1.053329,72.372714
11.2964,0.003743,-0.00101,-0.009455,0.0,0.0,0.0,-0.001234,-0.510961,-0.009695,0.739594,-261.405867,1.053329,72.372714
11.3159,0.003843,-0.001127,-0.008688,0.0,0.0,0.0,-0.001079,-0.510987,-0.009455,0.739594,-261.405867,1.053329,72.372714
11.3359,0.003728,-0.000538,-0.00878,0.0,0.0,0.0,-0.000639,-0.511095,-0.008768,0.739594,-261.405867,1.053329,72.372714
11.3558,0.003354,-0.00107,-0.008456,0.0,0.0,0.0,-0.000639,-0.511095,-0.008768,0.739594,-261.405867,1.053329,72.372714
11.3761,0.003725,-0.001176,-0.009412,0.0,0.0,0.0,-0.000959,-0.511051,-0.008456,0.739594,-261.405867,1.053329,72.372714
11.3957,0.003713,-0.000842,-0.008236,0.0,0.0,0.0,-0.001008,-0.511095,-0.008863,0.739594,-261.405867,1.053329,72.372714
11.4158,0.003789,-0.001189,-0.009638,0.0,0.0,0.0,-0.000488,-0.510825,-0.008236,0.739594,-261.405867,1.053329,72.372714
11.4359,0.003558,-0.000687,-0.009038,0.0,0.0,0.0,-0.001068,-0.511134,-0.00951,0.739594,-261.405867,1.053329,72.372714
11.4561,0.003739,-0.000774,-0.0094,0.0,0.0,0.0,-0.001068,-0.511134,-0.00951,0.739594,-261.405867,1.053329,72.372714
11.4758,0.003573,-0.000814,-0.008512,0.0,0.0,0.0,-0.001055,-0.510751,-0.0094,0.739594,-261.405867,1.053329,72.372714
11.4957,0.003953,-0.000823,-0.006807,0.0,0.0,0.0,-0.000938,-0.510769,-0.009037,0.739594,-261.405867,1.053329,72.372714
11.5159,0.003731,-0.001326,-0.009146,0.0,0.0,0.0,0.000481,-0.510812,-0.006807,0.739594,-261.405867,1.053329,72.372714
11.5359,0.003825,-0.001101,-0.006831,0.0,0.0,0.0,-0.000819,-0.511265,-0.008957,0.739594,-261.405867,1.053329,72.372714
11.5559,0.003616,-0.000746,-0.010298,0.0,0.0,0.0,-0.000819,-0.511265,-0.008957,0.739594,-261.405867,1.053329,72.372714
11.5758,0.0035,-0.000962,-0.00814,0.0,0.0,0.0,-0.001636,-0.510719,-0.010298,0.739594,-261.405867,1.053329,72.372714
11.5959,0.003814,-0.001235,-0.007958,0.0,0.0,0.0,-0.001231,-0.510812,-0.00941,0.739594,-261.405867,1.053329,72.372714
11.6164,0.00344,-0.000844,-0.009208,0.0,0.0,0.0,-0.000244,-0.511219,-0.007958,0.739594,-261.405867,1.053329,72.372714
11.636,0.004047,-0.001217,-0.009719,0.0,0.0,0.0,-0.00117,-0.510856,-0.009102,0.739594,-261.405867,1.053329,72.372714
11.656,0.003596,-0.000651,-0.009492,0.0,0.0,0.0,-0.00117,-0.510856,-0.009102,0.739594,-261.405867,1.053329,72.372714
11.6763,0.003745,-0.000488,-0.009837,0.0,0.0,0.0,-0.001244,-0.510628,-0.009492,0.739594,-261.405867,1.053329,72.372714
11.6961,0.003527,-0.00108,-0.009042,0.0,0.0,0.0,-0.001256,-0.510561,-0.009634,0.739594,-261.405867,1.053329,72.372714
11.7165,0.003632,-0.000985,-0.010925,0.0,0.0,0.0,-0.001085,-0.511059,-0.009042,0.739594,-261.405867,1.053329,72.372714
11.7362,0.003663,-0.000639,-0.007724,0.0,0.0,0.0,-0.001858,-0.510964,-0.010744,0.739594,-261.405867,1.053329,72.372714
11.7558,0.003888,-0.001288,-0.009849,0.0,0.0,0.0,-0.001858,-0.510964,-0.010744,0.739594,-261.405867,1.053329,72.372714
11.7758,0.003477,-0.000792,-0.009107,0.0,0.0,0.0,-0.001135,-0.511263,-0.009849,0.739594,-261.405867,1.053329,72.372714
11.7957,0.003822,-0.001135,-0.007392,0.0,0.0,0.0,-0.001148,-0.511062,-0.009547,0.739594,-261.405867,1.053329,72.372714
11.8163,0.003528,-0.000942,-0.007473,0.0,0.0,0.0,5.2e-05,-0.511121,-0.007392,0.739594,-261.405867,1.053329,72.372714
11.836,0.003697,-0.001095,-0.008785,0.0,0.0,0.0,-0.000252,-0.510946,-0.007465,0.739594,-261.405867,1.053329,72.372714
11.8561,0.003814,-0.000791,-0.008429,0.0,0.0,0.0,-0.000252,-0.510946,-0.007465,0.739594,-261.405867,1.053329,72.372714
11.8759,0.003921,-0.001024,-0.009032,0.0,0.0,0.0,-0.000484,-0.510773,-0.008429,0.739594,-261.405867,1.053329,72.372714
11.8958,0.003677,-0.00082,-0.009874,0.0,0.0,0.0,-0.000568,-0.510868,-0.008679,0.739594,-261.405867,1.053329,72.372714
11.9159,0.003512,-0.000635,-0.008667,0.0,0.0,0.0,-0.001359,-0.510795,-0.009874,0.739594,-261.405867,1.053329,72.372714
11.9357,0.003698,-0.001077,-0.009504,0.0,0.0,0.0,-0.000948,-0.510631,-0.008774,0.739594,-261.405867,1.053329,72.372714
