mach0312/omni-docking-bench/src/icros_test_setup/results/MPPI_sample/timeseries/trial_001.csv
t,x,y,yaw,vx,vy,wz,bl_x,bl_y,bl_yaw,front_steering_joint,front_wheel_joint,rear_steering_joint,rear_wheel_joint
0.0,0.0288,-0.000287,-0.001626,0.005245,-5.3e-05,-0.000502,0.026533,-0.510054,-0.00063,-0.068475,-263.999059,0.048347,62.438055
0.0004,0.028731,-6e-05,-0.002495,0.004048,-4.1e-05,-0.000388,0.027049,-0.510017,-0.000496,-0.068475,-263.994677,0.048347,62.442432
0.0007,0.029094,-0.000238,0.000814,0.002773,-2.8e-05,-0.000266,0.027544,-0.510041,-0.00019,-0.068475,-263.991295,0.048347,62.44581
0.001,0.029394,-1.3e-05,-0.000255,0.001402,-1.4e-05,-0.000134,0.027544,-0.510041,-0.00019,-0.068475,-263.988742,0.048347,62.44836
0.0014,0.029082,-0.000295,-0.000258,5e-06,-0.0,-0.0,0.027544,-0.510041,-0.00019,-0.068475,-263.987628,0.048347,62.449472
0.0018,0.029193,-3e-06,-0.000685,0.0,0.0,0.0,0.028549,-0.510312,0.000328,-0.068475,-263.987626,0.048347,62.449474
0.0021,0.029509,0.000122,-0.001451,0.0,0.0,0.0,0.027792,-0.509918,-0.001049,-0.068475,-263.987626,0.048347,62.449474
0.0023,0.029292,1.2e-05,0.000815,0.0,0.0,0.0,0.027792,-0.509918,-0.001049,-0.068475,-263.987626,0.048347,62.449474
0.0027,0.029329,-0.000128,-0.001233,0.0,0.0,0.0,0.027792,-0.509918,-0.001049,-0.068475,-263.987626,0.048347,62.449474
0.0168,0.028861,0.000122,0.00018,0.0,0.0,0.0,0.029628,-0.509979,0.000622,-0.068475,-263.987626,0.048347,62.449474
0.0367,0.029441,-0.000179,-0.000485,0.0,0.0,0.0,0.028953,-0.509878,0.00018,-0.068475,-263.987626,0.048347,62.449474
0.0572,0.028734,-0.000394,-6.7e-05,0.0,0.0,0.0,0.02905,-0.509999,-8.8e-05,-0.068475,-263.987626,0.048347,62.449474
0.0765,0.029106,9e-06,0.001489,0.0,0.0,0.0,0.0287,-0.510394,-6.7e-05,-0.068475,-263.987626,0.048347,62.449474
0.097,0.029138,-8e-05,-0.001371,0.0,0.0,0.0,0.029761,-0.510026,0.00135,-0.068475,-263.987626,0.048347,62.449474
0.1167,0.029075,4.9e-05,-0.001016,-0.003095,0.000824,0.002772,0.029761,-0.510026,0.00135,-0.068475,-263.987626,0.048347,62.449474
0.1366,0.029105,2.4e-05,-0.00103,-0.003364,0.00087,0.002876,0.028557,-0.509951,-0.001016,-0.068475,-263.987626,0.048347,62.449474
0.157,0.029203,-0.000325,-0.003037,-0.003579,0.000873,0.004329,0.028566,-0.509961,-0.001022,-0.068475,-263.987626,0.048347,62.449474
0.1764,0.029402,-0.000337,-0.000152,-0.003766,0.000866,0.005399,0.027654,-0.510323,-0.003037,-0.143465,-263.987629,0.123337,62.449472
0.1969,0.028952,-0.000389,-0.000569,-0.003932,0.000874,0.005837,0.029178,-0.510336,-0.000406,-0.143465,-263.987629,0.123337,62.449472
0.2166,0.028617,-0.000591,-0.000305,-0.004075,0.000875,0.006172,0.029178,-0.510336,-0.000406,-0.143465,-263.987629,0.123337,62.449472
0.2365,0.028906,0.000149,-0.001331,-0.004196,0.000872,0.006429,0.028461,-0.510591,-0.000305,-0.21851,-263.987629,0.198382,62.449472
0.2569,0.028807,-0.000136,-0.00092,-0.004298,0.000861,0.00681,0.028366,-0.51029,-0.000721,-0.21851,-263.987629,0.198382,62.449472
0.2767,0.029022,-0.000291,0.000176,-0.004386,0.000848,0.007091,0.028338,-0.510136,-0.00092,-0.293504,-263.987629,0.273377,62.449472
0.2968,0.029181,-0.000201,-2.5e-05,-0.004467,0.000845,0.006833,0.029045,-0.510278,8.2e-05,-0.293504,-263.987629,0.273377,62.449472
0.3169,0.029189,-0.00024,-0.000283,-0.004534,0.000839,0.006667,0.029045,-0.510278,8.2e-05,-0.293504,-263.987629,0.273377,62.449472
0.3365,0.02908,-2.1e-05,0.000163,-0.004592,0.00083,0.006561,0.029044,-0.51024,-0.000283,-0.368606,-263.98763,0.348478,62.449472
0.3566,0.028754,-0.000145,-0.001013,-0.00464,0.000811,0.006602,0.029093,-0.51015,-0.0001,-0.368606,-263.98763,0.348478,62.449472
0.3762,0.028931,-0.000123,-0.000634,-0.004682,0.000794,0.006637,0.028235,-0.510145,-0.001011,-0.443593,-263.987665,0.423466,62.449442
0.3965,0.028947,-0.000226,-0.00159,-0.004712,0.00077,0.006996,0.028574,-0.510125,-0.000668,-0.443593,-263.987665,0.423466,62.449442
0.4164,0.02928,-0.000313,-0.001368,-0.00474,0.000748,0.007251,0.028574,-0.510125,-0.000668,-0.443593,-263.987665,0.423466,62.449442
0.4367,0.028648,9.3e-05,-0.000744,-0.004766,0.00073,0.007431,0.028567,-0.510312,-0.001354,-0.518473,-263.987854,0.498345,62.449282
0.4569,0.029014,-0.00018,0.001039,-0.004785,0.00071,0.007802,0.028442,-0.510144,-0.0011,-0.518473,-263.987854,0.498345,62.449282
0.4766,0.028744,4.5e-05,0.000257,-0.004803,0.000693,0.008062,0.029524,-0.510178,0.001062,-0.593614,-263.988191,0.573486,62.448992
0.4968,0.028999,-0.000192,-0.000582,-0.004827,0.000692,0.007429,0.028929,-0.509973,0.000326,-0.593614,-263.988191,0.573486,62.448992
0.5167,0.029068,0.000253,0.001632,-0.004846,0.000687,0.006993,0.028929,-0.509973,0.000326,-0.593614,-263.988191,0.573486,62.448992
0.5366,0.029084,-0.000206,0.000103,-0.004861,0.000681,0.006693,0.029851,-0.509743,0.001694,-0.668685,-263.988828,0.648557,62.448441
0.5568,0.029205,0.000337,-0.00135,-0.004874,0.000682,0.006114,0.02955,-0.509934,0.001044,-0.668685,-263.988828,0.648557,62.448441
0.5764,0.028432,0.000191,-0.000503,-0.004883,0.000681,0.005713,0.028389,-0.509647,-0.001181,-0.743602,-263.991041,0.611259,62.446512
0.5968,0.028348,-0.000172,-0.001539,-0.004881,0.000651,0.006324,0.028189,-0.509793,-0.000556,-0.743602,-263.991041,0.611259,62.446512
0.617,0.028349,-6.3e-05,-0.000242,-0.004883,0.000627,0.006752,0.028189,-0.509793,-0.000556,-0.743602,-263.991041,0.611259,62.446512
0.6365,0.028342,-2.2e-05,-8.2e-05,-0.004887,0.000607,0.007049,0.02805,-0.51004,-3.4e-05,-0.7068,-263.993255,0.536338,62.444569
0.6565,0.028338,-0.000194,-0.000889,-0.004895,0.000609,0.006952,0.028132,-0.51003,-3e-05,-0.7068,-263.993255,0.536338,62.444569
0.6767,0.027802,-0.000102,-0.000334,-0.004902,0.000609,0.006886,0.027768,-0.510178,-0.000728,-0.781859,-263.99531,0.611398,62.442752
0.697,0.028203,-0.000106,0.001889,-0.004906,0.000607,0.007032,0.027636,-0.510107,-0.000355,-0.781859,-263.99531,0.611398,62.442752
0.7165,0.027911,7.9e-05,0.000779,-0.004909,0.000605,0.007136,0.027636,-0.510107,-0.000355,-0.781859,-263.99531,0.611398,62.442752
0.7365,0.027868,-0.000253,3e-05,-0.004913,0.000604,0.007211,0.028106,-0.509896,0.001063,-0.77641,-263.998016,0.633074,62.440357
0.7568,0.027744,0.00024,0.000526,-0.004919,0.000615,0.006691,0.027993,-0.510037,0.00068,-0.77641,-263.998016,0.633074,62.440357
0.7764,0.02701,9.6e-05,0.001164,-0.004923,0.000622,0.006333,0.027859,-0.509741,0.000752,-0.794927,-264.000779,0.658363,62.437911
0.7966,0.027092,-5e-06,0.000414,-0.004925,0.000627,0.005866,0.027619,-0.509888,0.001139,-0.794927,-264.000779,0.658363,62.437911
0.8168,0.027131,-0.000131,0.001239,-0.004925,0.000629,0.005545,0.027619,-0.509888,0.001139,-0.794927,-264.000779,0.658363,62.437911
0.8365,0.026949,0.00012,0.001696,-0.004924,0.000629,0.005326,0.027584,-0.510108,0.001469,-0.739474,-264.003094,0.58336,62.435862
0.8567,0.027027,0.000239,0.000813,-0.004923,0.000639,0.004979,0.027656,-0.510013,0.001588,-0.739474,-264.003094,0.58336,62.435862
0.8764,0.0263,0.000181,0.001887,-0.004921,0.000645,0.004743,0.027317,-0.509746,0.000951,-0.66764,-264.0051,0.508361,62.434077
0.8965,0.026204,7.1e-05,0.002026,-0.00492,0.000644,0.004493,0.027261,-0.50981,0.001804,-0.66764,-264.0051,0.508361,62.434077
0.9169,0.026364,0.000256,0.001537,-0.004917,0.000642,0.004324,0.027261,-0.50981,0.001804,-0.66764,-264.0051,0.508361,62.434077
0.9369,0.025722,-4.9e-05,0.001908,-0.004915,0.000639,0.004212,0.026967,-0.50972,0.001711,-0.623811,-264.007227,0.433302,62.432179
0.9573,0.026149,5.3e-05,0.002785,-0.004912,0.000638,0.004136,0.026836,-0.509851,0.001811,-0.623811,-264.007227,0.433302,62.432179
0.9769,0.025555,-0.000132,0.001762,-0.004909,0.000636,0.004087,0.027425,-0.509926,0.00291,-0.578778,-264.009379,0.374834,62.430243
0.997,0.025767,0.000304,0.001814,-0.004906,0.000646,0.004032,0.026536,-0.510111,0.001873,-0.578778,-264.009379,0.374834,62.430243
1.0171,0.026004,-8.2e-05,0.000478,-0.004903,0.000653,0.003998,0.026536,-0.510111,0.001873,-0.578778,-264.009379,0.374834,62.430243
1.037,0.025593,0.000292,0.00108,-0.0049,0.000659,0.003978,0.026043,-0.510055,0.000649,-0.567968,-264.011698,0.362208,62.428153
1.0571,0.025558,0.000666,0.002771,-0.004895,0.000642,0.004441,0.026061,-0.509911,0.000844,-0.567968,-264.011698,0.362208,62.428153
1.0764,0.025237,0.000182,0.003171,-0.004893,0.00063,0.004761,0.026816,-0.509311,0.002898,-0.562432,-264.014003,0.346703,62.426079
1.097,0.025205,0.000197,0.002423,-0.004898,0.000642,0.004063,0.026843,-0.509768,0.003153,-0.562432,-264.014003,0.346703,62.426079
1.1171,0.025023,0.000282,0.002139,-0.004899,0.000649,0.003576,0.026843,-0.509768,0.003153,-0.562432,-264.014003,0.346703,62.426079
1.1366,0.024534,2.1e-05,0.002493,-0.004898,0.000651,0.003238,0.025944,-0.509694,0.002302,-0.62608,-264.015998,0.421651,62.424296
1.1566,0.025063,-0.000227,0.001492,-0.004894,0.000645,0.003278,0.025868,-0.509807,0.002398,-0.62608,-264.015998,0.421651,62.424296
1.1766,0.024567,0.000313,0.003315,-0.004891,0.000641,0.003306,0.025748,-0.510217,0.001553,-0.551027,-264.017121,0.346597,62.423271
1.1972,0.02496,0.000147,0.003009,-0.00489,0.000641,0.003054,0.026208,-0.509732,0.003157,-0.551027,-264.017121,0.346597,62.423271
1.2169,0.025025,2.8e-05,0.002586,-0.004889,0.00064,0.00288,0.026208,-0.509732,0.003157,-0.551027,-264.017121,0.346597,62.423271
1.2366,0.024479,-0.000111,0.003317,-0.004887,0.000638,0.002761,0.026164,-0.509948,0.002708,-0.498063,-264.019081,0.274744,62.421482
1.2567,0.024537,0.000337,0.003435,-0.004884,0.000645,0.002744,0.026146,-0.51001,0.00297,-0.498063,-264.019081,0.274744,62.421482
1.2763,0.024268,0.00079,0.002751,-0.004881,0.00065,0.002734,0.02615,-0.509642,0.003513,-0.443853,-264.021017,0.211333,62.419694
1.2966,0.024159,0.000639,0.00156,-0.00488,0.000621,0.00278,0.025707,-0.509247,0.002824,-0.443853,-264.021017,0.211333,62.419694
1.3167,0.024115,0.000294,0.002866,-0.004878,0.000597,0.002812,0.025707,-0.509247,0.002824,-0.443853,-264.021017,0.211333,62.419694
1.3366,0.023831,0.000542,0.002358,-0.004877,0.000578,0.002833,0.025372,-0.509677,0.002981,-0.443725,-264.023178,0.205854,62.4177
1.3568,0.023673,0.000374,0.003533,-0.004875,0.000574,0.002876,0.025212,-0.509585,0.002742,-0.443725,-264.023178,0.205854,62.4177
1.3763,0.023516,0.000471,0.003976,-0.004874,0.000572,0.002905,0.02532,-0.509605,0.003623,-0.441971,-264.025313,0.231989,62.415717
1.3967,0.023466,0.000323,0.004635,-0.004875,0.00058,0.002516,0.025516,-0.509531,0.003949,-0.441971,-264.025313,0.231989,62.415717
1.4166,0.023421,0.000653,0.004182,-0.004874,0.000585,0.002244,0.025516,-0.509531,0.003949,-0.441971,-264.025313,0.231989,62.415717
1.437,0.02309,0.00052,0.001533,-0.004873,0.000587,0.002055,0.02535,-0.50932,0.004303,-0.448611,-264.027474,0.24183,62.413711
1.4575,0.023069,0.000224,0.003917,-0.004871,0.000573,0.002181,0.024725,-0.509382,0.00319,-0.448611,-264.027474,0.24183,62.413711
1.4765,0.023129,0.000185,0.003908,-0.004869,0.000562,0.002268,0.024952,-0.50976,0.00397,-0.37352,-264.029015,0.16674,62.412256
1.497,0.022769,0.000472,0.003077,-0.004867,0.000579,0.002083,0.025101,-0.509806,0.003917,-0.37352,-264.029015,0.16674,62.412256
1.5169,0.022902,0.000385,0.0037,-0.004866,0.000592,0.001955,0.025101,-0.509806,0.003917,-0.37352,-264.029015,0.16674,62.412256
1.5366,0.022832,0.000463,0.00323,-0.004864,0.000602,0.001867,0.024584,-0.509589,0.003795,-0.380456,-264.031111,0.167589,62.410283
1.5567,0.022507,0.000582,0.003802,-0.004863,0.000595,0.001919,0.024518,-0.509564,0.003577,-0.380456,-264.031111,0.167589,62.410283
1.5765,0.022168,0.000704,0.004848,-0.004862,0.00059,0.001955,0.024301,-0.509398,0.003857,-0.343877,-264.033032,0.110163,62.408463
1.5966,0.022558,0.000145,0.003248,-0.004862,0.000587,0.001615,0.024604,-0.509298,0.004764,-0.343877,-264.033032,0.110163,62.408463
1.6171,0.022205,0.000507,0.004607,-0.004861,0.000582,0.001376,0.024604,-0.509298,0.004764,-0.343877,-264.033032,0.110163,62.408463
1.6369,0.022065,0.000398,0.002568,-0.004858,0.000577,0.001212,0.02435,-0.509464,0.004689,-0.351716,-264.035093,0.123666,62.406513
1.657,0.021982,0.000926,0.00274,-0.004855,0.000571,0.001379,0.023943,-0.509515,0.003863,-0.351716,-264.035093,0.123666,62.406513
1.6767,0.021626,0.000526,0.004006,-0.004852,0.000566,0.001495,0.023259,-0.509059,0.002772,-0.276819,-264.036661,0.048769,62.404999
1.6968,0.021764,0.000155,0.003762,-0.004851,0.000559,0.001562,0.023628,-0.509434,0.003901,-0.276819,-264.036661,0.048769,62.404999
1.7168,0.021909,0.000433,0.001817,-0.00485,0.000554,0.001607,0.023628,-0.509434,0.003901,-0.276819,-264.036661,0.048769,62.404999
1.7365,0.021938,0.000341,0.005285,-0.004849,0.000549,0.001638,0.022636,-0.509543,0.001879,-0.295947,-264.038663,0.071337,62.403079
1.7565,0.022084,0.000543,0.002843,-0.004847,0.000546,0.001872,0.023432,-0.509585,0.003283,-0.295947,-264.038663,0.071337,62.403079
1.7767,0.021311,0.000733,0.004271,-0.004847,0.000545,0.00203,0.023381,-0.509439,0.002895,-0.309268,-264.040677,0.092799,62.401152
1.7969,0.021298,0.000676,0.002179,-0.004849,0.000539,0.001844,0.023472,-0.509277,0.004154,-0.309268,-264.040677,0.092799,62.401152
1.8168,0.021517,0.000662,0.005019,-0.004849,0.000534,0.001714,0.023472,-0.509277,0.004154,-0.309268,-264.040677,0.092799,62.401152
1.8366,0.020862,0.000536,0.005083,-0.00485,0.000529,0.001624,0.023888,-0.509311,0.005098,-0.352816,-264.042605,0.142345,62.399325
1.857,0.021113,0.000681,0.005305,-0.004849,0.000539,0.001285,0.023688,-0.509369,0.005101,-0.352816,-264.042605,0.142345,62.399325
1.8763,0.020642,0.000449,0.004215,-0.004848,0.000546,0.001049,0.023673,-0.509297,0.005354,-0.303884,-264.044489,0.095133,62.397519
1.8964,0.020798,0.000843,0.002743,-0.004845,0.000548,0.001115,0.022866,-0.509523,0.004322,-0.303884,-264.044489,0.095133,62.397519
1.9165,0.020902,0.000385,0.00488,-0.004843,0.000549,0.001161,0.022866,-0.509523,0.004322,-0.303884,-264.044489,0.095133,62.397519
1.9368,0.020781,0.00066,0.003491,-0.004841,0.00055,0.001194,0.023216,-0.50959,0.004918,-0.240075,-264.046198,0.020273,62.395859
1.9569,0.020445,0.000493,0.004265,-0.00484,0.00055,0.00121,0.022931,-0.509485,0.004344,-0.240075,-264.046198,0.020273,62.395859
1.9763,0.02039,0.000936,0.006359,-0.004839,0.00055,0.00122,0.022467,-0.509485,0.004302,-0.258415,-264.048179,0.036969,62.393942
1.9965,0.020049,0.000824,0.003585,-0.004843,0.000551,0.000745,0.023521,-0.509092,0.006176,-0.258415,-264.048179,0.036969,62.393942
2.0166,0.020124,0.000588,0.003641,-0.004843,0.000549,0.000404,0.023521,-0.509092,0.006176,-0.258415,-264.048179,0.036969,62.393942
2.0367,0.019704,0.000497,0.00587,-0.00484,0.000546,0.000161,0.021779,-0.509386,0.003692,-0.261445,-264.050185,0.040421,62.392003
2.0569,0.019873,0.000683,0.006025,-0.004836,0.000537,0.000432,0.022132,-0.509428,0.004591,-0.261445,-264.050185,0.040421,62.392003
2.0764,0.020232,0.000728,0.004241,-0.004832,0.000532,0.000619,0.022857,-0.509298,0.006036,-0.186345,-264.051312,-0.034679,62.390881
2.0969,0.01996,0.000515,0.00422,-0.00483,0.000519,0.00081,0.022431,-0.509269,0.004397,-0.186345,-264.051312,-0.034679,62.390881
2.117,0.02007,-5.1e-05,0.004832,-0.004829,0.000509,0.00094,0.022431,-0.509269,0.004397,-0.186345,-264.051312,-0.034679,62.390881
2.137,0.01937,0.000568,0.003671,-0.004828,0.000502,0.001028,0.022332,-0.510024,0.004858,-0.18617,-264.053279,-0.03175,62.388947
2.1567,0.019344,0.000928,0.002632,-0.004827,0.000521,0.001092,0.021864,-0.509779,0.004377,-0.18617,-264.053279,-0.03175,62.388947
2.1769,0.019267,0.000447,0.004887,-0.004826,0.000537,0.001135,0.020544,-0.509056,0.002662,-0.229794,-264.0551,0.026131,62.387173
2.1965,0.019101,0.000951,0.003723,-0.004826,0.00054,0.001067,0.021643,-0.509502,0.004687,-0.229794,-264.0551,0.026131,62.387173
2.2165,0.019077,0.00069,0.00446,-0.004826,0.000542,0.001019,0.021643,-0.509502,0.004687,-0.229794,-264.0551,0.026131,62.387173
2.2367,0.018774,0.000291,0.003887,-0.004826,0.000544,0.000985,0.02115,-0.509284,0.004507,-0.249511,-264.057087,0.032321,62.385247
2.2565,0.0192,0.000604,0.004612,-0.004826,0.000537,0.001096,0.020963,-0.509457,0.004254,-0.249511,-264.057087,0.032321,62.385247
2.2765,0.018778,0.000728,0.004851,-0.004826,0.000532,0.001172,0.021401,-0.509374,0.004642,-0.233116,-264.059044,0.011921,62.383343
2.2965,0.01872,0.000323,0.005536,-0.004827,0.000527,0.001045,0.021257,-0.509275,0.004835,-0.233116,-264.059044,0.011921,62.383343
2.3166,0.01888,0.000819,0.003897,-0.004827,0.000521,0.000956,0.021257,-0.509275,0.004835,-0.233116,-264.059044,0.011921,62.383343
2.3369,0.01837,0.00089,0.006159,-0.004827,0.000516,0.000894,0.020669,-0.509156,0.003946,-0.25306,-264.061004,0.037945,62.381444
2.3566,0.018636,0.001143,0.004756,-0.004827,0.000503,0.000836,0.020992,-0.509131,0.004859,-0.25306,-264.061004,0.037945,62.381444
2.3763,0.01841,0.000695,0.004602,-0.004826,0.000492,0.000794,0.020913,-0.508836,0.004784,-0.216553,-264.062909,0.006257,62.379583
2.3968,0.018258,0.00062,0.004847,-0.004825,0.000486,0.000836,0.020764,-0.50926,0.004619,-0.216553,-264.062909,0.006257,62.379583
2.4166,0.018098,0.00083,0.004918,-0.004825,0.000482,0.000863,0.020764,-0.50926,0.004619,-0.216553,-264.062909,0.006257,62.379583
2.4364,0.01802,0.000464,0.005045,-0.004824,0.000478,0.00088,0.020406,-0.509145,0.004951,-0.199726,-264.064866,-0.001453,62.377664
2.4567,0.017969,0.000682,0.006805,-0.004824,0.000482,0.000778,0.020459,-0.5093,0.004993,-0.199726,-264.064866,-0.001453,62.377664
2.4764,0.017495,0.000632,0.004606,-0.004823,0.000484,0.000707,0.021287,-0.509292,0.006833,-0.20746,-264.066831,0.012235,62.375742
2.4968,0.018044,0.001062,0.005234,-0.004822,0.000485,0.000716,0.019961,-0.509356,0.0048,-0.20746,-264.066831,0.012235,62.375742
2.5168,0.017394,0.000904,0.004738,-0.004821,0.000486,0.000722,0.019961,-0.509356,0.0048,-0.20746,-264.066831,0.012235,62.375742
2.5376,0.017441,0.000938,0.004704,-0.00482,0.000486,0.000725,0.019611,-0.509072,0.004767,-0.187628,-264.068767,-0.010732,62.37384
2.5566,0.017528,0.000861,0.004468,-0.00482,0.000469,0.000745,0.019678,-0.509063,0.004746,-0.187628,-264.068767,-0.010732,62.37384
2.5769,0.017582,0.000624,0.004592,-0.004819,0.000455,0.000758,0.019654,-0.509119,0.004491,-0.190508,-264.070726,-0.008994,62.371916
2.5964,0.017409,0.000909,0.004492,-0.004819,0.000458,0.000816,0.019892,-0.509347,0.004584,-0.190508,-264.070726,-0.008994,62.371916
2.6166,0.016929,0.001208,0.004446,-0.004819,0.000461,0.000855,0.019892,-0.509347,0.004584,-0.190508,-264.070726,-0.008994,62.371916
2.6364,0.016927,0.000808,0.004931,-0.004819,0.000464,0.000882,0.018995,-0.508769,0.004478,-0.188303,-264.072686,0.001635,62.369991
2.6566,0.016977,0.000706,0.004402,-0.004819,0.000442,0.000876,0.019153,-0.508936,0.004665,-0.188303,-264.072686,0.001635,62.369991
2.6766,0.016549,0.001126,0.004109,-0.004819,0.000424,0.000872,0.019069,-0.509275,0.00443,-0.205205,-264.074639,0.015448,62.368079
2.697,0.016687,0.000939,0.004601,-0.004818,0.000399,0.001037,0.018675,-0.508905,0.004139,-0.205205,-264.074639,0.015448,62.368079
2.7169,0.016575,0.000841,0.00542,-0.004818,0.00038,0.001148,0.018675,-0.508905,0.004139,-0.205205,-264.074639,0.015448,62.368079
2.7366,0.016425,0.000958,0.006433,-0.004819,0.000365,0.001223,0.019137,-0.509135,0.005456,-0.195886,-264.0766,0.022601,62.366155
2.7564,0.016499,0.000524,0.00547,-0.004821,0.000384,0.000789,0.019344,-0.509091,0.005855,-0.195886,-264.0766,0.022601,62.366155
2.7769,0.016312,0.001059,0.005466,-0.004821,0.000399,0.000481,0.019145,-0.509458,0.005506,-0.226813,-264.07845,0.079203,62.364346
2.7969,0.016425,0.000755,0.004554,-0.004818,0.000397,0.000364,0.019095,-0.508986,0.005472,-0.226813,-264.07845,0.079203,62.364346
2.8169,0.016452,0.000778,0.004596,-0.004816,0.000396,0.000284,0.019095,-0.508986,0.005472,-0.226813,-264.07845,0.079203,62.364346
2.8369,0.016394,0.000736,0.004354,-0.004814,0.000393,0.00023,0.018643,-0.509205,0.004616,-0.151809,-264.079927,0.004198,62.362884
2.857,0.015843,0.000641,0.005689,-0.004811,0.000393,0.000481,0.018614,-0.509226,0.004513,-0.151809,-264.079927,0.004198,62.362884
2.8766,0.015458,0.001148,0.004998,-0.00481,0.000394,0.000654,0.018601,-0.50934,0.005696,-0.110481,-264.081717,-0.052419,62.361102
2.8972,0.01558,0.001252,0.005563,-0.004809,0.000379,0.000608,0.018054,-0.50889,0.005062,-0.110481,-264.081717,-0.052419,62.361102
2.9168,0.016172,0.000969,0.004688,-0.004808,0.000367,0.000576,0.018054,-0.50889,0.005062,-0.110481,-264.081717,-0.052419,62.361102
2.937,0.015371,0.001296,0.006438,-0.004807,0.000357,0.000554,0.018379,-0.509011,0.004713,-0.163439,-264.083497,0.001272,62.359346
2.9574,0.015424,0.000638,0.005098,-0.004806,0.000353,0.000437,0.01847,-0.50888,0.005417,-0.163439,-264.083497,0.001272,62.359346
2.9766,0.015423,0.00077,0.004906,-0.004805,0.000349,0.000357,0.017871,-0.509345,0.005115,-0.143502,-264.085427,-0.003826,62.357435
2.9967,0.015243,0.00084,0.006687,-0.004804,0.00036,0.000444,0.017912,-0.509234,0.004926,-0.143502,-264.085427,-0.003826,62.357435
3.0168,0.015192,0.000908,0.006747,-0.004802,0.000369,0.000504,0.017912,-0.509234,0.004926,-0.143502,-264.085427,-0.003826,62.357435
3.0365,0.014948,0.000907,0.005343,-0.004802,0.000377,0.000546,0.018436,-0.509068,0.006761,-0.117479,-264.087325,-0.027356,62.35555
3.057,0.015058,0.001059,0.004039,-0.004803,0.000388,0.00024,0.018103,-0.509074,0.006187,-0.117479,-264.087325,-0.027356,62.35555
3.0762,0.014962,0.000867,0.00533,-0.004803,0.000395,2.3e-05,0.016968,-0.508925,0.004057,-0.146926,-264.08923,-0.008998,62.353666
3.0966,0.014904,0.000723,0.003476,-0.0048,0.000389,0.000133,0.017609,-0.509107,0.005216,-0.146926,-264.08923,-0.008998,62.353666
3.1168,0.015023,0.000889,0.004676,-0.004799,0.000385,0.00021,0.017609,-0.509107,0.005216,-0.146926,-264.08923,-0.008998,62.353666
3.1366,0.014314,0.001221,0.004938,-0.004797,0.000382,0.000264,0.017233,-0.509092,0.004677,-0.085039,-264.090905,-0.079163,62.351991
3.1568,0.014599,0.001025,0.002888,-0.004797,0.000363,0.000432,0.017051,-0.508961,0.004783,-0.085039,-264.090905,-0.079163,62.351991
3.1772,0.014397,0.000915,0.005282,-0.004796,0.000348,0.000548,0.015923,-0.508962,0.002896,-0.112772,-264.09278,-0.046062,62.350126
3.1971,0.014838,0.00118,0.005897,-0.004796,0.000347,0.000541,0.016978,-0.509067,0.005068,-0.112772,-264.09278,-0.046062,62.350126
3.2165,0.014385,0.001118,0.005173,-0.004795,0.000346,0.000536,0.016978,-0.509067,0.005068,-0.112772,-264.09278,-0.046062,62.350126
3.2369,0.014005,0.00148,0.004574,-0.004795,0.000345,0.000532,0.016831,-0.508862,0.005195,-0.141333,-264.094636,-0.002816,62.348289
3.2565,0.014029,0.00098,0.005106,-0.004794,0.000318,0.000565,0.01661,-0.508721,0.004948,-0.141333,-264.094636,-0.002816,62.348289
3.2764,0.01401,0.00118,0.003469,-0.004794,0.000295,0.000588,0.016479,-0.509003,0.005122,-0.138788,-264.096573,-0.00423,62.346371
3.2965,0.013609,0.001143,0.005513,-0.004791,0.000266,0.001043,0.015835,-0.508833,0.003619,-0.138788,-264.096573,-0.00423,62.346371
3.3169,0.01361,0.00104,0.004388,-0.004791,0.000245,0.001349,0.015835,-0.508833,0.003619,-0.138788,-264.096573,-0.00423,62.346371
3.3366,0.013785,0.000984,0.004035,-0.004791,0.00023,0.001553,0.015649,-0.508944,0.004412,-0.135662,-264.098501,0.013256,62.34446
3.3565,0.013044,0.000815,0.00561,-0.004793,0.000234,0.001472,0.015705,-0.50897,0.004261,-0.135662,-264.098501,0.013256,62.34446
3.3766,0.013434,0.001221,0.006063,-0.004795,0.000238,0.001413,0.015809,-0.509172,0.005634,-0.210738,-264.099728,0.088333,62.343255
3.3966,0.013575,0.001359,0.005095,-0.0048,0.000251,0.000893,0.016457,-0.508805,0.006026,-0.210738,-264.099728,0.088333,62.343255
3.4167,0.013202,0.001261,0.005092,-0.004801,0.00026,0.00052,0.016457,-0.508805,0.006026,-0.210738,-264.099728,0.088333,62.343255
3.4364,0.013096,0.001108,0.007098,-0.0048,0.000266,0.000256,0.015604,-0.508724,0.00515,-0.225657,-264.101636,0.12969,62.34138
3.4567,0.013374,0.001252,0.003539,-0.004797,0.000264,9.1e-05,0.016033,-0.508786,0.005948,-0.225657,-264.101636,0.12969,62.34138
3.4763,0.012943,0.000864,0.004024,-0.004794,0.000262,-2.2e-05,0.015102,-0.508741,0.003552,-0.150659,-264.102614,0.054692,62.340405
3.4967,0.012892,0.001272,0.00523,-0.004789,0.000254,0.0005,0.015001,-0.509097,0.003983,-0.150659,-264.102614,0.054692,62.340405
3.5165,0.012749,0.001246,0.00654,-0.004786,0.00025,0.000856,0.015001,-0.509097,0.003983,-0.150659,-264.102614,0.054692,62.340405
3.5363,0.012794,0.0012,0.006907,-0.004785,0.00025,0.001096,0.015944,-0.508737,0.006547,-0.075571,-264.103958,-0.020396,62.339061
3.5567,0.012826,0.001254,0.004442,-0.004793,0.000259,0.000538,0.016081,-0.508757,0.006695,-0.075571,-264.103958,-0.020396,62.339061
3.5767,0.012701,0.001413,0.007194,-0.004796,0.000263,0.000132,0.014989,-0.508737,0.004459,-0.150669,-264.105268,0.054702,62.33777
3.5967,0.012927,0.001334,0.005582,-0.004797,0.000257,-0.000213,0.016246,-0.508588,0.00696,-0.150669,-264.105268,0.054702,62.33777
3.6168,0.012664,0.001403,0.004492,-0.004796,0.000249,-0.000459,0.016246,-0.508588,0.00696,-0.150669,-264.105268,0.054702,62.33777
3.6366,0.012713,0.001489,0.005857,-0.004793,0.000241,-0.000634,0.014797,-0.508585,0.004499,-0.075737,-264.106781,-0.02023,62.336259
3.6572,0.012917,0.001585,0.007593,-0.004785,0.000202,-0.000251,0.015147,-0.508551,0.005053,-0.075737,-264.106781,-0.02023,62.336259
3.6764,0.012305,0.001119,0.005007,-0.00478,0.000171,1.3e-05,0.016684,-0.508396,0.007585,-0.000803,-264.108099,-0.095164,62.334931
3.6965,0.012489,0.001246,0.004415,-0.004776,0.000171,0.000139,0.015019,-0.508831,0.005241,-0.000803,-264.108099,-0.095164,62.334931
3.7167,0.01272,0.00139,0.004821,-0.004773,0.000172,0.000225,0.015019,-0.508831,0.005241,-0.000803,-264.108099,-0.095164,62.334931
3.7366,0.012096,0.001383,0.005106,-0.004771,0.000173,0.000283,0.014994,-0.508598,0.004822,-0.037553,-264.109863,-0.034145,62.333167
3.7572,0.011899,0.000954,0.006522,-0.004769,0.000151,0.000413,0.014854,-0.508602,0.004937,-0.037553,-264.109863,-0.034145,62.333167
3.7767,0.011682,0.001193,0.004672,-0.004768,0.000135,0.000501,0.015079,-0.509031,0.006531,-0.072355,-264.111707,8.5e-05,62.331327
3.7965,0.012051,0.001041,0.004871,-0.004766,0.000133,0.000592,0.014145,-0.508821,0.004832,-0.072355,-264.111707,8.5e-05,62.331327
3.8168,0.011784,0.001684,0.004376,-0.004765,0.000132,0.000653,0.014145,-0.508821,0.004832,-0.072355,-264.111707,8.5e-05,62.331327
3.8366,0.011466,0.001192,0.004908,-0.004765,0.000132,0.000694,0.013822,-0.508307,0.004396,-0.092189,-264.113571,0.035868,62.32947
3.8568,0.011307,0.001377,0.005102,-0.004763,0.000101,0.00079,0.013859,-0.508509,0.004608,-0.092189,-264.113571,0.035868,62.32947
3.8766,0.010852,0.001228,0.004692,-0.004762,7.6e-05,0.000854,0.01376,-0.508613,0.005124,-0.116003,-264.115451,0.061201,62.327599
3.8967,0.011453,0.001286,0.004476,-0.004761,7.4e-05,0.000859,0.013284,-0.508752,0.004732,-0.116003,-264.115451,0.061201,62.327599
3.9174,0.011288,0.00103,0.005286,-0.004759,7.2e-05,0.00086,0.013284,-0.508752,0.004732,-0.116003,-264.115451,0.061201,62.327599
3.9366,0.011412,0.001105,0.004765,-0.004758,7.1e-05,0.00086,0.013788,-0.508961,0.005321,-0.124891,-264.11734,0.093169,62.325717
3.9567,0.011003,0.001317,0.00529,-0.004759,9.4e-05,0.00075,0.013788,-0.508931,0.005097,-0.124891,-264.11734,0.093169,62.325717
3.9767,0.011423,0.001269,0.006155,-0.004759,0.000112,0.000673,0.013549,-0.508675,0.005318,-0.124589,-264.119255,0.095301,62.323808
3.9965,0.010559,0.001124,0.003842,-0.004762,0.000124,0.00036,0.014463,-0.508717,0.006081,-0.124589,-264.119255,0.095301,62.323808
4.0164,0.010576,0.001448,0.006073,-0.004762,0.000133,0.000139,0.014463,-0.508717,0.006081,-0.124589,-264.119255,0.095301,62.323808
4.0369,0.010118,0.000812,0.005452,-0.004761,0.000139,-1.5e-05,0.013478,-0.508539,0.006101,-0.109441,-264.121131,0.062691,62.32194
4.0563,0.010719,0.00155,0.00549,-0.004757,0.000136,-5.9e-05,0.013223,-0.508796,0.005844,-0.109441,-264.121131,0.062691,62.32194
4.0762,0.01021,0.001445,0.005555,-0.004753,0.000133,-8.7e-05,0.013401,-0.50844,0.005492,-0.034437,-264.122616,-0.012313,62.320455
4.0965,0.010182,0.001137,0.004947,-0.004749,0.000101,-2.3e-05,0.013069,-0.508537,0.005549,-0.034437,-264.122616,-0.012313,62.320455
4.1165,0.010673,0.001551,0.00508,-0.004745,7.6e-05,2.3e-05,0.013069,-0.508537,0.005549,-0.034437,-264.122616,-0.012313,62.320455
4.1367,0.01012,0.001137,0.005445,-0.004742,5.6e-05,5.6e-05,0.013068,-0.508438,0.005076,-0.016762,-264.124487,-0.038977,62.318583
4.1564,0.009967,0.001258,0.00521,-0.004739,4.1e-05,0.000172,0.012976,-0.508607,0.005225,-0.016762,-264.124487,-0.038977,62.318583
4.1767,0.010086,0.001177,0.005817,-0.004737,2.9e-05,0.000253,0.012475,-0.508734,0.005211,-0.019014,-264.126348,-0.004596,62.316722
4.197,0.010271,0.00125,0.006848,-0.004736,4.5e-05,0.000159,0.012993,-0.508807,0.005763,-0.019014,-264.126348,-0.004596,62.316722
4.2169,0.00964,0.001409,0.005413,-0.004734,5.7e-05,9.3e-05,0.012993,-0.508807,0.005763,-0.019014,-264.126348,-0.004596,62.316722
4.2365,0.009792,0.001435,0.004609,-0.004733,6.6e-05,4.8e-05,0.012206,-0.508583,0.005423,-0.038686,-264.128204,0.026422,62.314867
4.257,0.009683,0.001388,0.004565,-0.004729,3.4e-05,0.000209,0.012158,-0.508574,0.005094,-0.038686,-264.128204,0.026422,62.314867
4.2765,0.009807,0.001318,0.005408,-0.004726,8e-06,0.00032,0.011863,-0.508606,0.004566,-0.020059,-264.130052,-0.007789,62.313019
4.2965,0.009639,0.001162,0.005623,-0.004725,5e-06,0.000327,0.01249,-0.508668,0.005328,-0.020059,-264.130052,-0.007789,62.313019
4.3164,0.009473,0.000949,0.005143,-0.004724,2e-06,0.000331,0.01249,-0.508668,0.005328,-0.020059,-264.130052,-0.007789,62.313019
4.3368,0.00926,0.001337,0.004542,-0.004724,-0.0,0.000333,0.011907,-0.509045,0.005156,-0.043033,-264.131862,0.039529,62.311209
4.3564,0.009522,0.001305,0.00524,-0.004721,6e-06,0.000459,0.01175,-0.508887,0.004907,-0.043033,-264.131862,0.039529,62.311209
4.3766,0.009079,0.001461,0.006747,-0.00472,1.2e-05,0.000546,0.012044,-0.508689,0.005251,-0.043015,-264.133753,0.043171,62.309318
4.3973,0.009283,0.001409,0.004132,-0.004724,1e-05,0.000167,0.012471,-0.508541,0.006616,-0.043015,-264.133753,0.043171,62.309318
4.4171,0.008746,0.001264,0.004205,-0.004725,6e-06,-0.000104,0.012471,-0.508541,0.006616,-0.043015,-264.133753,0.043171,62.309318
4.4368,0.008863,0.00101,0.006795,-0.004724,2e-06,-0.000297,0.010697,-0.508731,0.004227,-0.073055,-264.135601,0.067981,62.30747
4.4567,0.009062,0.001342,0.005782,-0.004717,-3e-06,-7.7e-05,0.011338,-0.508832,0.005273,-0.073055,-264.135601,0.067981,62.30747
4.4764,0.008725,0.001147,0.004803,-0.004712,-6e-06,7.6e-05,0.011907,-0.50865,0.005781,0.001938,-264.136893,-0.007011,62.306179
4.4969,0.008413,0.001807,0.005179,-0.004708,-1.3e-05,0.000296,0.011235,-0.50883,0.004891,0.001938,-264.136893,-0.007011,62.306179
4.5168,0.008726,0.001534,0.006679,-0.004706,-1.8e-05,0.000446,0.011235,-0.50883,0.004891,0.001938,-264.136893,-0.007011,62.306179
4.537,0.008288,0.001359,0.005148,-0.004704,-2.1e-05,0.000549,0.011936,-0.508456,0.006682,-0.008562,-264.138764,0.011023,62.304307
4.5567,0.008039,0.001193,0.006735,-0.004704,-3.7e-05,0.000297,0.011504,-0.508528,0.006068,-0.008562,-264.138764,0.011023,62.304307
4.5767,0.008404,0.001274,0.003934,-0.004702,-5.2e-05,0.000119,0.011341,-0.508797,0.00675,-0.066712,-264.140437,0.075588,62.302634
4.5967,0.008632,0.001278,0.005012,-0.004694,-8e-05,0.000557,0.010483,-0.508729,0.004175,-0.066712,-264.140437,0.075588,62.302634
4.6167,0.007801,0.001213,0.005347,-0.004689,-0.000101,0.000854,0.010483,-0.508729,0.004175,-0.066712,-264.140437,0.075588,62.302634
4.6367,0.007793,0.001359,0.006366,-0.004686,-0.000116,0.001054,0.01035,-0.508783,0.005352,-0.004419,-264.142136,0.026409,62.300934
4.6567,0.007942,0.001205,0.006327,-0.004685,-0.000107,0.000728,0.01061,-0.508721,0.005764,-0.004419,-264.142136,0.026409,62.300934
4.6767,0.007622,0.001338,0.00599,-0.004684,-0.000101,0.000496,0.011076,-0.508787,0.006341,-0.079284,-264.143308,0.101275,62.299754
4.6966,0.007584,0.001431,0.002822,-0.004682,-0.0001,0.000267,0.010707,-0.508665,0.006022,-0.079284,-264.143308,0.101275,62.299754
4.7165,0.007754,0.001382,0.003762,-0.00468,-0.0001,0.000106,0.010707,-0.508665,0.006022,-0.079284,-264.143308,0.101275,62.299754
4.7366,0.007838,0.001124,0.007344,-0.004677,-0.000101,-6e-06,0.009482,-0.50862,0.003783,-0.043028,-264.145137,0.086072,62.29792
4.7565,0.007846,0.001319,0.004925,-0.004672,-0.000112,0.000132,0.010318,-0.508719,0.005239,-0.043028,-264.145137,0.086072,62.29792
4.7768,0.007252,0.001424,0.004606,-0.004668,-0.00012,0.000229,0.010228,-0.508678,0.004925,0.02233,-264.14677,0.020864,62.296287
4.7966,0.00732,0.001234,0.005824,-0.004659,-0.000165,0.000481,0.00965,-0.50858,0.004635,0.02233,-264.14677,0.020864,62.296287
4.817,0.007257,0.001573,0.004971,-0.004652,-0.000199,0.000654,0.00965,-0.50858,0.004635,0.02233,-264.14677,0.020864,62.296287
4.8365,0.007217,0.000964,0.004085,-0.004646,-0.000225,0.000771,0.009603,-0.508426,0.00498,-0.004156,-264.148581,0.055654,62.294473
4.8569,0.007464,0.001233,0.005749,-0.004641,-0.000237,0.000856,0.009458,-0.508674,0.004616,-0.004156,-264.148581,0.055654,62.294473
4.8763,0.006964,0.001381,0.005268,-0.004636,-0.000246,0.000912,0.010272,-0.508764,0.005768,-0.052941,-264.150141,0.130647,62.292898
4.897,0.00721,0.001297,0.005943,-0.004634,-0.000246,0.000744,0.0097,-0.508626,0.005314,-0.052941,-264.150141,0.130647,62.292898
4.9167,0.007014,0.001234,0.004486,-0.004632,-0.000246,0.000626,0.0097,-0.508626,0.005314,-0.052941,-264.150141,0.130647,62.292898
4.9365,0.006754,0.001084,0.005145,-0.00463,-0.000247,0.000544,0.009114,-0.508772,0.004523,-0.066943,-264.151945,0.171526,62.291072
4.9567,0.006722,0.001274,0.006053,-0.004625,-0.000238,0.000644,0.009199,-0.508829,0.004779,-0.066943,-264.151945,0.171526,62.291072
4.9763,0.006167,0.001161,0.004314,-0.00462,-0.00023,0.000713,0.009671,-0.508724,0.006069,-0.018457,-264.153666,0.124295,62.289337
4.9964,0.006662,0.001034,0.00517,-0.004606,-0.000245,0.000856,0.008478,-0.508825,0.004473,-0.018457,-264.153666,0.124295,62.289337
5.0165,0.006317,0.001125,0.005847,-0.004595,-0.000256,0.000954,0.008478,-0.508825,0.004473,-0.018457,-264.153666,0.124295,62.289337
5.0367,0.00602,0.001194,0.003854,-0.004586,-0.000264,0.001019,0.009109,-0.508877,0.005877,-0.044298,-264.155489,0.143071,62.287498
5.0565,0.00609,0.001151,0.005294,-0.004581,-0.000256,0.000889,0.008628,-0.508847,0.005054,-0.044298,-264.155489,0.143071,62.287498
5.0767,0.005639,0.001131,0.007375,-0.004577,-0.00025,0.000797,0.008652,-0.508851,0.005325,-0.078005,-264.157228,0.191032,62.285731
5.0966,0.006008,0.00103,0.005781,-0.004592,-0.000208,0.000244,0.009328,-0.508855,0.007197,-0.078005,-264.157228,0.191032,62.285731
5.1163,0.006229,0.001291,0.005795,-0.0046,-0.000177,-0.00016,0.009328,-0.508855,0.007197,-0.078005,-264.157228,0.191032,62.285731
5.1363,0.005624,0.001132,0.00517,-0.004604,-0.000155,-0.00045,0.008998,-0.508712,0.005828,-0.051789,-264.159012,0.15954,62.283927
5.1564,0.005797,0.001307,0.006785,-0.004591,-0.000183,-0.000259,0.008676,-0.508774,0.005563,-0.051789,-264.159012,0.15954,62.283927
5.1765,0.005537,0.001267,0.005714,-0.004581,-0.000203,-0.000125,0.009197,-0.508684,0.006788,0.023134,-264.159774,0.084617,62.283168
5.1968,0.005592,0.001193,0.003904,-0.004569,-0.000229,-9.4e-05,0.008506,-0.508722,0.005797,0.023134,-264.159774,0.084617,62.283168
5.2169,0.005384,0.00123,0.005036,-0.004559,-0.000249,-7.2e-05,0.008506,-0.508722,0.005797,0.023134,-264.159774,0.084617,62.283168
5.2371,0.005294,0.001075,0.005484,-0.004551,-0.000265,-5.6e-05,0.007775,-0.508773,0.005031,0.061016,-264.16147,0.027739,62.281474
5.2569,0.005672,0.001105,0.006447,-0.004531,-0.000286,0.00012,0.007883,-0.508833,0.005215,0.061016,-264.16147,0.027739,62.281474
5.277,0.005563,0.001128,0.006145,-0.004515,-0.000301,0.00024,0.008817,-0.508894,0.006445,0.065782,-264.163278,0.050705,62.279668
5.2972,0.0053,0.001416,0.006091,-0.00452,-0.000274,6.5e-05,0.0087,-0.508865,0.006171,0.065782,-264.163278,0.050705,62.279668
5.3165,0.004925,0.001174,0.005538,-0.004523,-0.000254,-5.9e-05,0.0087,-0.508865,0.006171,0.065782,-264.163278,0.050705,62.279668
5.3369,0.005062,0.001199,0.006513,-0.004524,-0.000238,-0.000145,0.00757,-0.508831,0.005548,0.034128,-264.164991,0.098871,62.277947
5.357,0.004717,0.001213,0.00598,-0.004508,-0.000259,-0.000145,0.007881,-0.508816,0.005942,0.034128,-264.164991,0.098871,62.277947
5.3765,0.004634,0.00098,0.00548,-0.004495,-0.000275,-0.000143,0.007635,-0.508785,0.005976,0.072134,-264.166645,0.033009,62.276297
5.3967,0.004831,0.000981,0.004598,-0.004472,-0.000276,-3e-05,0.00744,-0.508992,0.005525,0.072134,-264.166645,0.033009,62.276297
5.4165,0.004731,0.001374,0.006965,-0.004453,-0.000277,4.9e-05,0.00744,-0.508992,0.005525,0.072134,-264.166645,0.033009,62.276297
5.4369,0.0045,0.001057,0.006306,-0.004438,-0.000276,0.000103,0.008095,-0.508627,0.006959,0.080597,-264.168445,0.041758,62.274501
5.4567,0.004641,0.001495,0.005844,-0.004441,-0.000289,-0.000148,0.007919,-0.508753,0.006692,0.080597,-264.168445,0.041758,62.274501
5.4767,0.00432,0.000928,0.007293,-0.004441,-0.0003,-0.000326,0.007485,-0.508505,0.005847,0.047992,-264.17016,0.076199,62.272784
5.4968,0.004183,0.000988,0.006045,-0.004445,-0.000262,-0.000552,0.007981,-0.509008,0.00716,0.047992,-264.17016,0.076199,62.272784
5.5167,0.004642,0.000997,0.005245,-0.004448,-0.000234,-0.000712,0.007981,-0.509008,0.00716,0.047992,-264.17016,0.076199,62.272784
5.537,0.003787,0.001181,0.005392,-0.004449,-0.000213,-0.000825,0.00715,-0.509008,0.005233,0.111888,-264.171759,0.022628,62.271194
5.5569,0.004417,0.000935,0.004749,-0.004408,-0.000267,-0.000422,0.006881,-0.50893,0.005296,0.111888,-264.171759,0.022628,62.271194
5.5765,0.00397,0.00123,0.005814,-0.004376,-0.000306,-0.000144,0.006718,-0.509066,0.004728,0.159894,-264.173294,-0.052369,62.269675
5.5968,0.003955,0.001072,0.007541,-0.00435,-0.000354,-7.3e-05,0.006909,-0.508789,0.005715,0.159894,-264.173294,-0.052369,62.269675
5.6169,0.003658,0.000845,0.005794,-0.004329,-0.000391,-2.5e-05,0.006909,-0.508789,0.005715,0.159894,-264.173294,-0.052369,62.269675
5.6363,0.004021,0.000665,0.0066,-0.004312,-0.000419,7e-06,0.006469,-0.509156,0.005786,0.089744,-264.174669,0.02263,62.268304
5.657,0.004226,0.000852,0.005186,-0.004297,-0.000355,-8.1e-05,0.006823,-0.509225,0.006113,0.089744,-264.174669,0.02263,62.268304
5.6762,0.00383,0.00093,0.005926,-0.004285,-0.000306,-0.000144,0.006745,-0.509154,0.005186,0.095905,-264.17625,0.097653,62.266722
5.6973,0.003627,0.001288,0.007105,-0.004275,-0.000301,-0.00012,0.006837,-0.50907,0.00586,0.095905,-264.17625,0.097653,62.266722
5.7169,0.003272,0.001307,0.004805,-0.004267,-0.000296,-0.000104,0.006837,-0.50907,0.00586,0.095905,-264.17625,0.097653,62.266722
5.7369,0.00318,0.00098,0.005014,-0.00426,-0.000292,-9.4e-05,0.005549,-0.5087,0.004799,0.0917,-264.177912,0.050903,62.265066
5.7569,0.003521,0.000668,0.006474,-0.004169,-0.000404,0.000197,0.005605,-0.508828,0.004885,0.0917,-264.177912,0.050903,62.265066
5.7771,0.003154,0.000947,0.007187,-0.004098,-0.000487,0.000393,0.006688,-0.509331,0.006471,0.081771,-264.179619,0.055007,62.263362
5.797,0.002926,0.000837,0.007395,-0.004126,-0.000428,-2.9e-05,0.0068,-0.509066,0.007122,0.081771,-264.179619,0.055007,62.263362
5.8165,0.002798,0.001212,0.004046,-0.004147,-0.000383,-0.000334,0.0068,-0.509066,0.007122,0.081771,-264.179619,0.055007,62.263362
5.8371,0.002836,0.001093,0.006244,-0.004162,-0.000349,-0.000553,0.004726,-0.508798,0.004054,0.06026,-264.180909,0.130028,62.262054
5.8572,0.002718,0.000657,0.005494,-0.004053,-0.000465,-0.000135,0.00524,-0.50884,0.00495,0.06026,-264.180909,0.130028,62.262054
5.8765,0.002943,0.001001,0.006307,-0.003968,-0.000551,0.000149,0.005433,-0.509344,0.005488,0.135318,-264.182005,0.05497,62.260972
5.897,0.002785,0.000901,0.006526,-0.003976,-0.000519,-1.4e-05,0.006091,-0.509021,0.006234,0.135318,-264.182005,0.05497,62.260972
5.9164,0.003001,0.000668,0.006038,-0.003981,-0.000495,-0.00013,0.006091,-0.509021,0.006234,0.135318,-264.182005,0.05497,62.260972
5.9371,0.002985,0.001095,0.005986,-0.003985,-0.000477,-0.000212,0.005942,-0.509341,0.006039,0.115348,-264.183334,0.129922,62.259635
5.9567,0.002426,0.000876,0.007597,-0.003981,-0.000439,-0.000216,0.005965,-0.509163,0.006018,0.115348,-264.183334,0.129922,62.259635
5.9765,0.002498,0.001268,0.003963,-0.003977,-0.00041,-0.000218,0.00618,-0.509124,0.00759,0.150937,-264.184867,0.086877,62.258114
5.9969,0.002492,0.001198,0.004792,-0.003834,-0.000565,0.000308,0.004661,-0.508764,0.004286,0.150937,-264.184867,0.086877,62.258114
6.0166,0.002715,0.000995,0.006247,-0.003726,-0.00068,0.000662,0.004661,-0.508764,0.004286,0.150937,-264.184867,0.086877,62.258114
6.0367,0.002247,0.001231,0.006353,-0.003643,-0.000765,0.000898,0.005736,-0.509014,0.006238,0.135727,-264.186459,0.069598,62.256532
6.0566,0.002254,0.000898,0.007877,-0.003681,-0.000721,0.000498,0.005616,-0.508912,0.006284,0.135727,-264.186459,0.069598,62.256532
6.0767,0.002106,0.000974,0.004468,-0.00371,-0.000689,0.000211,0.006239,-0.509089,0.007879,0.060773,-264.186844,0.144552,62.256124
6.0974,0.002611,0.000957,0.003585,-0.003622,-0.000705,0.000424,0.00455,-0.509027,0.004775,0.060773,-264.186844,0.144552,62.256124
6.1166,0.002602,0.000746,0.007904,-0.003554,-0.000716,0.000567,0.00455,-0.509027,0.004775,0.060773,-264.186844,0.144552,62.256124
6.1367,0.002312,0.000624,0.005981,-0.003501,-0.000724,0.000664,0.006507,-0.509262,0.007913,0.135764,-264.18806,0.216907,62.254893
6.1565,0.002165,0.001013,0.005822,-0.0036,-0.000581,0.000151,0.006028,-0.509307,0.00713,0.135764,-264.18806,0.216907,62.254893
6.1769,0.002027,0.001183,0.006682,-0.003678,-0.000472,-0.000221,0.00504,-0.508997,0.005838,0.090719,-264.189237,0.291913,62.253661
6.1968,0.00164,0.001253,0.005875,-0.003688,-0.000524,-0.000372,0.005395,-0.508824,0.006607,0.090719,-264.189237,0.291913,62.253661
6.2167,0.002337,0.00125,0.005652,-0.003694,-0.000566,-0.000478,0.005395,-0.508824,0.006607,0.090719,-264.189237,0.291913,62.253661
6.2366,0.002052,0.000516,0.007322,-0.003698,-0.000598,-0.000552,0.005146,-0.508756,0.005656,0.163435,-264.189955,0.216909,62.25295
6.2567,0.002162,0.000699,0.006771,-0.003704,-0.000575,-0.000538,0.005398,-0.509048,0.006334,0.163435,-264.189955,0.216909,62.25295
6.2764,0.00209,0.00077,0.007458,-0.00371,-0.000557,-0.000526,0.005541,-0.509305,0.006764,0.23852,-264.19092,0.141824,62.252012
6.297,0.0016,0.000752,0.006046,-0.003754,-0.000477,-0.000751,0.005859,-0.509225,0.007398,0.23852,-264.19092,0.141824,62.252012
6.3166,0.001417,0.00094,0.00591,-0.00379,-0.000416,-0.000911,0.005859,-0.509225,0.007398,0.23852,-264.19092,0.141824,62.252012
6.3366,0.001706,0.000625,0.006563,-0.003818,-0.00037,-0.001023,0.004291,-0.509073,0.005891,0.232607,-264.192302,0.066777,62.250665
6.3566,0.001549,0.000632,0.006743,-0.00371,-0.000407,-0.000805,0.004587,-0.509195,0.006164,0.232607,-264.192302,0.066777,62.250665
6.3765,0.001564,0.000563,0.006449,-0.003627,-0.000435,-0.000653,0.004897,-0.509368,0.006723,0.254871,-264.193478,-0.008204,62.249524
6.3969,0.001757,0.000697,0.006215,-0.003597,-0.000382,-0.000631,0.004852,-0.509422,0.006471,0.254871,-264.193478,-0.008204,62.249524
6.4166,0.001777,0.000742,0.005957,-0.003573,-0.000341,-0.000616,0.004852,-0.509422,0.006471,0.254871,-264.193478,-0.008204,62.249524
6.4367,0.001651,0.000429,0.007748,-0.003555,-0.00031,-0.000605,0.004665,-0.509268,0.00593,0.225946,-264.19494,0.009935,62.248099
6.4568,0.001398,0.000862,0.006019,-0.00356,-0.000285,-0.000646,0.005032,-0.509388,0.006671,0.225946,-264.19494,0.009935,62.248099
6.4763,0.001281,0.000747,0.005682,-0.003564,-0.000267,-0.000675,0.004358,-0.509139,0.006001,0.188862,-264.19634,-0.016755,62.246724
6.4965,0.001266,0.000565,0.004656,-0.003457,-0.000339,-0.000436,0.004189,-0.509236,0.005708,0.188862,-264.19634,-0.016755,62.246724
6.5166,0.001001,0.000469,0.004513,-0.003376,-0.000392,-0.000274,0.004189,-0.509236,0.005708,0.188862,-264.19634,-0.016755,62.246724
6.5367,0.001281,0.000707,0.004046,-0.003314,-0.00043,-0.000164,0.003155,-0.509537,0.004485,0.188195,-264.197778,-0.040814,62.245311
6.5568,0.000668,0.000961,0.004551,-0.003079,-0.000455,0.000354,0.003215,-0.509437,0.004302,0.188195,-264.197778,-0.040814,62.245311
6.5763,0.000822,0.000581,0.005298,-0.002906,-0.000472,0.000696,0.002914,-0.509042,0.004544,0.158745,-264.198743,0.034172,62.244352
6.5964,0.000752,0.000787,0.005798,-0.00283,-0.000479,0.000632,0.003468,-0.50938,0.005233,0.158745,-264.198743,0.034172,62.244352
6.6168,0.000942,0.000425,0.006723,-0.002772,-0.000483,0.000581,0.003468,-0.50938,0.005233,0.158745,-264.198743,0.034172,62.244352
6.6372,0.000691,0.000703,0.003705,-0.002728,-0.000485,0.00054,0.004342,-0.509566,0.006724,0.083765,-264.199011,0.109152,62.244072
6.657,0.000841,0.000912,0.005283,-0.002723,-0.000455,0.000436,0.003613,-0.509454,0.00548,0.083765,-264.199011,0.109152,62.244072
6.6768,0.001041,0.000913,0.006546,-0.002719,-0.000432,0.000361,0.003484,-0.509088,0.005288,0.056946,-264.199647,0.184192,62.243409
6.697,0.000852,0.000837,0.005202,-0.002817,-0.000475,6.9e-05,0.004297,-0.509078,0.006434,0.056946,-264.199647,0.184192,62.243409
6.7172,0.000522,0.000766,0.007813,-0.002892,-0.00051,-0.000138,0.004297,-0.509078,0.006434,0.056946,-264.199647,0.184192,62.243409
6.7372,0.000606,0.000588,0.006803,-0.00295,-0.000538,-0.000283,0.004397,-0.509236,0.007827,0.077581,-264.200686,0.235449,62.242344
6.7571,0.00037,0.000373,0.00435,-0.002997,-0.000495,-0.000591,0.004256,-0.509304,0.007419,0.077581,-264.200686,0.235449,62.242344
6.7767,0.000393,0.000744,0.004923,-0.003031,-0.000464,-0.00081,0.002538,-0.50963,0.004351,0.152582,-264.201346,0.160448,62.241697
6.797,0.000256,0.000546,0.005498,-0.002783,-0.000536,-0.000282,0.002869,-0.509284,0.004872,0.152582,-264.201346,0.160448,62.241697
6.8167,0.000574,0.000445,0.0065,-0.0026,-0.000587,7.3e-05,0.002869,-0.509284,0.004872,0.152582,-264.201346,0.160448,62.241697
6.8367,0.000218,0.000533,0.007614,-0.002464,-0.000624,0.00031,0.003834,-0.509553,0.006493,0.227608,-264.201891,0.085422,62.241178
6.8566,0.000483,0.000588,0.007404,-0.002571,-0.000517,-7.7e-05,0.003937,-0.509513,0.006951,0.227608,-264.201891,0.085422,62.241178
6.8762,0.000534,0.000631,0.005883,-0.002653,-0.000436,-0.000354,0.004228,-0.509404,0.007404,0.174603,-264.202288,0.160493,62.240766
6.8966,0.000357,0.000575,0.005106,-0.00266,-0.000441,-0.000325,0.003592,-0.509364,0.006014,0.174603,-264.202288,0.160493,62.240766
6.9169,0.000549,0.000787,0.005587,-0.002665,-0.000444,-0.000304,0.003592,-0.509364,0.006014,0.174603,-264.202288,0.160493,62.240766
6.9363,0.000571,0.000743,0.006432,-0.002669,-0.000447,-0.000289,0.003304,-0.509222,0.005575,0.241062,-264.203211,0.085498,62.239867
6.9566,0.000659,0.000383,0.00579,-0.002658,-0.000492,-0.000249,0.003509,-0.509233,0.005912,0.241062,-264.203211,0.085498,62.239867
6.9762,0.000235,0.000572,0.004314,-0.002649,-0.000525,-0.000222,0.003527,-0.509623,0.00578,0.229444,-264.204303,0.10099,62.238798
6.9969,0.000374,0.000373,0.00649,-0.002418,-0.000542,0.000256,0.002524,-0.509441,0.004438,0.229444,-264.204303,0.10099,62.238798
7.0166,9.1e-05,0.000669,0.005945,-0.00225,-0.000553,0.000573,0.002524,-0.509441,0.004438,0.229444,-264.204303,0.10099,62.238798
7.0366,6.8e-05,0.000406,0.004494,-0.002126,-0.00056,0.000781,0.003016,-0.509344,0.005936,0.244603,-264.205356,0.146028,62.237766
7.0564,8.3e-05,0.000215,0.007161,-0.002088,-0.000542,0.000641,0.002736,-0.509446,0.005345,0.244603,-264.205356,0.146028,62.237766
7.0762,-2.5e-05,0.000159,0.006302,-0.00206,-0.000529,0.000538,0.003728,-0.509774,0.007162,0.169644,-264.205448,0.220987,62.237663
7.0965,0.000217,0.00047,0.006357,-0.002144,-0.000371,0.000192,0.003235,-0.509826,0.006376,0.169644,-264.205448,0.220987,62.237663
7.1168,0.000213,0.000413,0.005859,-0.002209,-0.000253,-5.3e-05,0.003235,-0.509826,0.006376,0.169644,-264.205448,0.220987,62.237663
7.1367,-0.000102,0.000522,0.006836,-0.002258,-0.000163,-0.000224,0.003152,-0.509588,0.005868,0.096817,-264.205918,0.29597,62.237156
7.1566,-0.000151,0.000485,0.004287,-0.002299,-0.000185,-0.000315,0.003243,-0.509538,0.006274,0.096817,-264.205918,0.29597,62.237156
7.1765,2.9e-05,0.000622,0.005117,-0.002329,-0.000202,-0.000377,0.002016,-0.509514,0.004288,0.131894,-264.206158,0.220612,62.236919
7.1964,-0.000343,0.00057,0.005766,-0.002203,-0.000306,-6.4e-05,0.002584,-0.509384,0.005046,0.131894,-264.206158,0.220612,62.236919
7.2164,-2.2e-05,9.2e-05,0.00422,-0.00211,-0.000382,0.000149,0.002584,-0.509384,0.005046,0.131894,-264.206158,0.220612,62.236919
7.2369,-0.000111,0.000483,0.005663,-0.002041,-0.000438,0.000292,0.002091,-0.50991,0.004218,0.183421,-264.206536,0.145955,62.236546
7.2566,6.5e-05,0.000404,0.005154,-0.001936,-0.000365,0.000459,0.002372,-0.509744,0.004818,0.183421,-264.206536,0.145955,62.236546
7.2766,0.000133,0.000482,0.006773,-0.001859,-0.00031,0.000569,0.00265,-0.509597,0.005157,0.126781,-264.207086,0.221061,62.235977
7.2967,6e-05,0.000658,0.005588,-0.002039,-0.000283,0.000159,0.003502,-0.509514,0.00663,0.126781,-264.207086,0.221061,62.235977
7.3167,-0.000119,0.000255,0.00466,-0.002177,-0.000265,-0.000133,0.003502,-0.509514,0.00663,0.126781,-264.207086,0.221061,62.235977
7.337,-0.000164,0.000361,0.006142,-0.002284,-0.000252,-0.000338,0.002214,-0.509747,0.004669,0.051952,-264.207505,0.295891,62.235532
7.3564,-0.000412,0.000426,0.006564,-0.002155,-0.000233,-0.000109,0.002518,-0.5097,0.005275,0.051952,-264.207505,0.295891,62.235532
7.3764,-0.000217,0.000417,0.005153,-0.00206,-0.000218,4.8e-05,0.002921,-0.509566,0.006565,0.126999,-264.207698,0.220843,62.235343
7.397,-0.000405,0.000368,0.007305,-0.001974,-0.00025,0.000155,0.002454,-0.509576,0.005275,0.126999,-264.207698,0.220843,62.235343
7.4167,-8.2e-05,0.000598,0.005664,-0.00191,-0.000273,0.000227,0.002454,-0.509576,0.005275,0.126999,-264.207698,0.220843,62.235343
7.4367,-0.000217,0.000558,0.006389,-0.001862,-0.00029,0.000273,0.002736,-0.509403,0.005668,0.091211,-264.208384,0.145845,62.234655
7.4568,-0.00066,0.000593,0.00552,-0.001919,-0.000332,0.000111,0.002851,-0.509416,0.005959,0.091211,-264.208384,0.145845,62.234655
7.4765,-0.000934,0.000556,0.005907,-0.001961,-0.000363,-2e-06,0.002104,-0.509407,0.005527,0.066213,-264.209024,0.220751,62.233997
7.4967,-0.000375,0.000332,0.005852,-0.001796,-0.000415,-3.6e-05,0.002078,-0.509433,0.005875,0.066213,-264.209024,0.220751,62.233997
7.5166,-0.000247,0.000649,0.00637,-0.001672,-0.000454,-6.4e-05,0.002078,-0.509433,0.005875,0.066213,-264.209024,0.220751,62.233997
7.5367,-0.000634,0.000527,0.005318,-0.001579,-0.000484,-8.7e-05,0.002937,-0.509352,0.006372,0.141337,-264.209648,0.182519,62.233373
7.5565,-0.000275,0.0005,0.004536,-0.001639,-0.000495,-0.000136,0.002577,-0.5094,0.005939,0.141337,-264.209648,0.182519,62.233373
7.5766,-0.000458,0.000544,0.005188,-0.001684,-0.000504,-0.000169,0.002012,-0.509502,0.004537,0.216335,-264.209988,0.257517,62.23304
7.5967,-0.000587,0.000642,0.005163,-0.001613,-0.000519,4.7e-05,0.002171,-0.509454,0.00513,0.216335,-264.209988,0.257517,62.23304
7.6164,-0.000741,0.000458,0.005302,-0.001561,-0.00053,0.000194,0.002171,-0.509454,0.00513,0.216335,-264.209988,0.257517,62.23304
7.6364,-0.000657,0.000712,0.004975,-0.001522,-0.000538,0.000292,0.001909,-0.509549,0.005299,0.291223,-264.210531,0.233666,62.232515
7.6565,-0.000769,0.000352,0.005735,-0.001411,-0.000558,0.000359,0.001891,-0.509441,0.005165,0.291223,-264.210531,0.233666,62.232515
7.6764,-0.00091,-9e-05,0.006132,-0.001329,-0.000572,0.000401,0.002132,-0.509647,0.005737,0.231603,-264.210829,0.308817,62.232195
7.6965,-0.000763,0.000347,0.007477,-0.00135,-0.000349,0.00016,0.002209,-0.510042,0.006097,0.231603,-264.210829,0.308817,62.232195
7.7165,-0.000443,0.000332,0.00557,-0.001368,-0.000181,-8e-06,0.002209,-0.510042,0.006097,0.231603,-264.210829,0.308817,62.232195
7.737,-0.000962,0.000322,0.006832,-0.001382,-5.4e-05,-0.000125,0.002376,-0.509668,0.005574,0.241731,-264.21104,0.383794,62.231954
7.7567,-0.000949,0.000441,0.006514,-0.001457,-8.4e-05,-0.000207,0.002433,-0.509668,0.006088,0.241731,-264.21104,0.383794,62.231954
7.7765,-0.000911,7e-05,0.006209,-0.001513,-0.000106,-0.000262,0.002372,-0.509549,0.006515,0.166778,-264.211068,0.308842,62.231926
7.7969,-0.000651,0.000602,0.005806,0.0,0.0,0.0,0.002265,-0.509888,0.006235,0.166778,-264.211068,0.308842,62.231926
