mach0312/omni-docking-bench/src/icros_test_setup/results/MPPI_sample/timeseries/trial_021.csv
t,x,y,yaw,vx,vy,wz,bl_x,bl_y,bl_yaw,front_steering_joint,front_wheel_joint,rear_steering_joint,rear_wheel_joint
0.0,-0.022004,0.028158,0.034797,0.0,0.0,0.0,-0.005114,-0.482255,0.032138,-1.582063,-265.917727,-1.623273,63.014584
0.0003,-0.022737,0.028399,0.032342,0.0,0.0,0.0,-0.005114,-0.482255,0.032138,-1.582063,-265.917728,-1.623273,63.014584
0.0013,-0.022193,0.028012,0.033639,0.0,0.0,0.0,-0.005114,-0.482255,0.032138,-1.582063,-265.917728,-1.623273,63.014584
0.0016,-0.022387,0.028241,0.033065,0.0,0.0,0.0,-0.005275,-0.482161,0.032158,-1.582063,-265.917728,-1.623273,63.014584
0.0018,-0.022241,0.028424,0.033618,0.0,0.0,0.0,-0.005228,-0.481902,0.032554,-1.582063,-265.917728,-1.623273,63.014584
0.002,-0.021954,0.028423,0.035355,0.0,0.0,0.0,-0.005228,-0.481902,0.032554,-1.582063,-265.917728,-1.623273,63.014584
0.0022,-0.022491,0.028394,0.033387,0.0,0.0,0.0,-0.004923,-0.481627,0.03374,-1.582063,-265.917728,-1.623273,63.014584
0.0163,-0.022093,0.028379,0.032793,0.0,0.0,0.0,-0.005327,-0.481316,0.033565,-1.582063,-265.917728,-1.623273,63.014584
0.0368,-0.022054,0.028063,0.034159,0.0,0.0,0.0,-0.005327,-0.481316,0.033565,-1.582063,-265.917728,-1.623273,63.014584
0.0565,-0.022083,0.027815,0.034262,0.0,0.0,0.0,-0.004636,-0.481639,0.034159,-1.582063,-265.917728,-1.623273,63.014584
0.0763,-0.022468,0.028211,0.033498,0.0,0.0,0.0,-0.004626,-0.48174,0.034201,-1.582063,-265.917728,-1.623273,63.014584
0.0962,-0.022116,0.028424,0.032758,0.0,0.0,0.0,-0.005388,-0.481503,0.033498,-1.582063,-265.917728,-1.623273,63.014584
0.1166,-0.022243,0.028355,0.033493,0.000313,-0.003055,-0.009257,-0.00541,-0.481321,0.032825,-1.582063,-265.917728,-1.623273,63.014584
0.1365,-0.022172,0.028518,0.034322,0.000352,-0.003278,-0.010008,-0.00541,-0.481321,0.032825,-1.582063,-265.917728,-1.623273,63.014584
0.1564,-0.022332,0.02791,0.033075,0.000386,-0.003457,-0.010605,-0.004671,-0.481182,0.034322,-1.582063,-265.917728,-1.623273,63.014584
0.1768,-0.022091,0.02829,0.033106,0.000404,-0.003602,-0.011164,-0.004995,-0.481438,0.033814,-1.582063,-265.917728,-1.623273,63.014584
0.1962,-0.02214,0.027921,0.032616,0.00042,-0.003717,-0.011608,-0.005199,-0.481487,0.032875,-1.531932,-265.915226,-1.697985,63.013515
0.2165,-0.02211,0.028395,0.032334,0.000454,-0.003808,-0.012077,-0.005481,-0.481782,0.032627,-1.531932,-265.915226,-1.697985,63.013515
0.2365,-0.022195,0.028159,0.03163,0.000484,-0.00388,-0.012453,-0.005481,-0.481782,0.032627,-1.531932,-265.915226,-1.697985,63.013515
0.2564,-0.022063,0.027867,0.033013,0.000509,-0.003938,-0.012754,-0.006044,-0.48174,0.031144,-1.531951,-265.910901,-1.694711,63.012156
0.2764,-0.021317,0.028038,0.032183,0.000541,-0.003982,-0.013061,-0.005707,-0.481805,0.031855,-1.531951,-265.910901,-1.694711,63.012156
0.2963,-0.02129,0.027699,0.031278,0.000568,-0.004018,-0.013308,-0.004886,-0.481822,0.031778,-1.527385,-265.906211,-1.702295,63.010604
0.3169,-0.021021,0.027737,0.030386,0.000582,-0.004046,-0.013645,-0.005299,-0.482037,0.031302,-1.527385,-265.906211,-1.702295,63.010604
0.3368,-0.021502,0.027803,0.032223,0.000593,-0.004068,-0.013921,-0.005299,-0.482037,0.031302,-1.527385,-265.906211,-1.702295,63.010604
0.357,-0.020956,0.027533,0.030131,0.000604,-0.004086,-0.014147,-0.005042,-0.4821,0.031667,-1.524023,-265.901352,-1.708237,63.008945
0.3767,-0.02105,0.02758,0.030886,0.000614,-0.004099,-0.014396,-0.005263,-0.482174,0.030974,-1.524023,-265.901352,-1.708237,63.008945
0.3964,-0.020673,0.027366,0.03071,0.000622,-0.004108,-0.014601,-0.005278,-0.482306,0.030436,-1.523385,-265.896258,-1.702595,63.007108
0.4167,-0.020516,0.027621,0.029768,0.000624,-0.004116,-0.014817,-0.005036,-0.482393,0.030662,-1.523385,-265.896258,-1.702595,63.007108
0.4364,-0.020318,0.027523,0.030629,0.000626,-0.004122,-0.014996,-0.005036,-0.482393,0.030662,-1.523385,-265.896258,-1.702595,63.007108
0.4563,-0.020105,0.027262,0.02777,0.000628,-0.004125,-0.015145,-0.004669,-0.482408,0.030018,-1.52306,-265.891043,-1.699478,63.005169
0.4764,-0.020156,0.027145,0.031029,0.000637,-0.004127,-0.015312,-0.005185,-0.482482,0.02903,-1.52306,-265.891043,-1.699478,63.005169
0.4965,-0.019792,0.027232,0.027744,0.000645,-0.004128,-0.01545,-0.00431,-0.48274,0.030546,-1.523878,-265.885691,-1.692743,63.003105
0.5171,-0.019688,0.026882,0.030152,0.000666,-0.004126,-0.015604,-0.005521,-0.482594,0.027976,-1.523878,-265.885691,-1.692743,63.003105
0.537,-0.019512,0.027035,0.026996,0.000683,-0.004124,-0.015733,-0.005521,-0.482594,0.027976,-1.523878,-265.885691,-1.692743,63.003105
0.5565,-0.019284,0.027308,0.027157,0.000698,-0.004122,-0.01584,-0.005714,-0.482951,0.026348,-1.523248,-265.880259,-1.691793,63.000966
0.5767,-0.019292,0.026571,0.027379,0.000717,-0.004118,-0.015963,-0.005598,-0.48279,0.026601,-1.523248,-265.880259,-1.691793,63.000966
0.5965,-0.019176,0.026977,0.027557,0.000732,-0.004115,-0.016066,-0.005305,-0.483369,0.026874,-1.520219,-265.874736,-1.695913,62.998729
0.6165,-0.018833,0.026582,0.026605,0.00073,-0.004113,-0.016181,-0.005139,-0.482884,0.02747,-1.520219,-265.874736,-1.695913,62.998729
0.6364,-0.018579,0.026745,0.028686,0.000729,-0.004111,-0.016278,-0.005139,-0.482884,0.02747,-1.520219,-265.874736,-1.695913,62.998729
0.6568,-0.018374,0.026492,0.026695,0.000728,-0.00411,-0.016359,-0.003916,-0.483216,0.028014,-1.518252,-265.869158,-1.698658,62.996431
0.677,-0.018188,0.026332,0.027485,0.000699,-0.00411,-0.016453,-0.00426,-0.483281,0.027394,-1.518252,-265.869158,-1.698658,62.996431
0.6967,-0.017891,0.026081,0.025679,0.000675,-0.00411,-0.016533,-0.004146,-0.483605,0.026964,-1.519244,-265.863513,-1.693869,62.994062
0.7166,-0.018225,0.026449,0.025243,0.000676,-0.004109,-0.016616,-0.004737,-0.483745,0.025767,-1.519244,-265.863513,-1.693869,62.994062
0.7367,-0.017999,0.026539,0.024682,0.000677,-0.004107,-0.016687,-0.004737,-0.483745,0.025767,-1.519244,-265.863513,-1.693869,62.994062
0.7567,-0.017669,0.026123,0.02447,0.000679,-0.004106,-0.016746,-0.00538,-0.483477,0.023992,-1.523332,-265.857834,-1.683046,62.991657
0.777,-0.017192,0.026244,0.024784,0.0007,-0.004102,-0.016805,-0.005299,-0.483598,0.024109,-1.523332,-265.857834,-1.683046,62.991657
0.7968,-0.017157,0.025722,0.025254,0.000718,-0.004098,-0.016855,-0.004528,-0.48373,0.024252,-1.523485,-265.852096,-1.681199,62.989194
0.817,-0.016884,0.025869,0.022193,0.0007,-0.004099,-0.0169,-0.0043,-0.484087,0.025138,-1.523485,-265.852096,-1.681199,62.989194
0.8368,-0.017312,0.025854,0.02307,0.000685,-0.004099,-0.016939,-0.0043,-0.484087,0.025138,-1.523485,-265.852096,-1.681199,62.989194
0.8566,-0.016404,0.025621,0.021009,0.000673,-0.004099,-0.016972,-0.005513,-0.484181,0.022366,-1.520929,-265.846335,-1.686221,62.9867
0.8764,-0.016547,0.025536,0.023013,0.000713,-0.004093,-0.01701,-0.005582,-0.484236,0.021729,-1.520929,-265.846335,-1.686221,62.9867
0.897,-0.015808,0.02588,0.023812,0.000747,-0.004088,-0.017041,-0.004787,-0.484459,0.022473,-1.524316,-265.840551,-1.677746,62.984182
0.9166,-0.016249,0.025528,0.022403,0.000706,-0.004091,-0.017067,-0.003764,-0.484025,0.023665,-1.524316,-265.840551,-1.677746,62.984182
0.9365,-0.015984,0.02527,0.021348,0.000672,-0.004093,-0.017089,-0.003764,-0.484025,0.023665,-1.524316,-265.840551,-1.677746,62.984182
0.9564,-0.015689,0.02526,0.02098,0.000644,-0.004095,-0.017109,-0.005062,-0.484784,0.020636,-1.519343,-265.834757,-1.688379,62.981643
0.9766,-0.016073,0.025613,0.02065,0.000674,-0.004092,-0.017132,-0.005029,-0.48474,0.020693,-1.519343,-265.834757,-1.688379,62.981643
0.9965,-0.015039,0.025194,0.019629,0.000699,-0.004089,-0.017151,-0.005519,-0.484408,0.020108,-1.52658,-265.828965,-1.671725,62.979101
1.0172,-0.0151,0.025271,0.021348,0.000723,-0.004085,-0.017165,-0.005073,-0.484687,0.019644,-1.52658,-265.828965,-1.671725,62.979101
1.0365,-0.015481,0.024864,0.021212,0.000743,-0.004082,-0.017177,-0.005073,-0.484687,0.019644,-1.52658,-265.828965,-1.671725,62.979101
1.0569,-0.014522,0.025025,0.02013,0.000759,-0.004079,-0.017187,-0.00463,-0.485192,0.020494,-1.522843,-265.823134,-1.679803,62.976532
1.0769,-0.014485,0.025146,0.019386,0.000753,-0.004079,-0.0172,-0.004475,-0.485082,0.020264,-1.522843,-265.823134,-1.679803,62.976532
1.0968,-0.014346,0.024895,0.018358,0.000748,-0.004079,-0.01721,-0.004572,-0.484887,0.018838,-1.518752,-265.817303,-1.688557,62.97395
1.1168,-0.013978,0.024782,0.018155,0.000763,-0.004076,-0.017212,-0.004947,-0.485014,0.018372,-1.518752,-265.817303,-1.688557,62.97395
1.1369,-0.014327,0.024523,0.018617,0.000776,-0.004073,-0.017213,-0.004947,-0.485014,0.018372,-1.518752,-265.817303,-1.688557,62.97395
1.1571,-0.013548,0.024672,0.017703,0.000787,-0.004071,-0.017214,-0.004799,-0.485559,0.017897,-1.519541,-265.811467,-1.686639,62.971364
1.1765,-0.013671,0.024445,0.017622,0.000789,-0.004069,-0.017211,-0.004682,-0.485452,0.017735,-1.519541,-265.811467,-1.686639,62.971364
1.1966,-0.013575,0.024498,0.016363,0.000792,-0.004067,-0.017209,-0.004657,-0.485605,0.017074,-1.516907,-265.805624,-1.6923,62.968767
1.2168,-0.013106,0.024398,0.016096,0.000814,-0.004059,-0.017178,-0.00514,-0.485641,0.015613,-1.516907,-265.805624,-1.6923,62.968767
1.2367,-0.013408,0.02468,0.017616,0.000833,-0.004051,-0.017153,-0.00514,-0.485641,0.015613,-1.516907,-265.805624,-1.6923,62.968767
1.2571,-0.012414,0.024018,0.015843,0.000848,-0.004045,-0.017132,-0.004388,-0.48541,0.016896,-1.516534,-265.799778,-1.693071,62.966168
1.2766,-0.012605,0.024324,0.015372,0.000831,-0.004045,-0.017129,-0.004362,-0.485637,0.016382,-1.516534,-265.799778,-1.693071,62.966168
1.2964,-0.012169,0.024034,0.015949,0.000816,-0.004046,-0.017127,-0.004737,-0.485744,0.014828,-1.51241,-265.793985,-1.702165,62.963587
1.3168,-0.012136,0.023981,0.015726,0.000795,-0.004045,-0.017116,-0.004097,-0.485893,0.015821,-1.51241,-265.793985,-1.702165,62.963587
1.3367,-0.011746,0.02366,0.015673,0.000778,-0.004045,-0.017107,-0.004097,-0.485893,0.015821,-1.51241,-265.793985,-1.702165,62.963587
1.3563,-0.01189,0.023829,0.013654,0.000763,-0.004045,-0.0171,-0.003717,-0.486446,0.014956,-1.514605,-265.788176,-1.697317,62.961001
1.3767,-0.011796,0.024092,0.014049,0.00076,-0.004041,-0.017055,-0.004206,-0.486334,0.014343,-1.514605,-265.788176,-1.697317,62.961001
1.3966,-0.011389,0.023209,0.01365,0.000756,-0.004037,-0.017019,-0.004606,-0.485986,0.013504,-1.518167,-265.782371,-1.689527,62.958423
1.4167,-0.01119,0.023715,0.014094,0.000767,-0.00403,-0.01696,-0.004442,-0.486685,0.013611,-1.518167,-265.782371,-1.689527,62.958423
1.4368,-0.011194,0.02357,0.012706,0.000776,-0.004024,-0.016912,-0.004442,-0.486685,0.013611,-1.518167,-265.782371,-1.689527,62.958423
1.4569,-0.011126,0.02345,0.012988,0.000782,-0.00402,-0.016875,-0.00468,-0.486558,0.011994,-1.518459,-265.77659,-1.689157,62.955862
1.4766,-0.010761,0.023305,0.012322,0.000802,-0.004009,-0.016762,-0.004604,-0.486557,0.012318,-1.518459,-265.77659,-1.689157,62.955862
1.4963,-0.010402,0.023009,0.011919,0.000816,-0.003999,-0.016674,-0.004451,-0.486783,0.011786,-1.516242,-265.770854,-1.694597,62.953329
1.5164,-0.010276,0.023076,0.012864,0.000822,-0.003991,-0.016568,-0.004334,-0.486946,0.01188,-1.516242,-265.770854,-1.694597,62.953329
1.5364,-0.010577,0.02298,0.011798,0.000826,-0.003984,-0.016486,-0.004334,-0.486946,0.01188,-1.516242,-265.770854,-1.694597,62.953329
1.5568,-0.009947,0.023145,0.010489,0.000828,-0.003978,-0.016422,-0.004524,-0.487151,0.011102,-1.513331,-265.765175,-1.70198,62.950836
1.5765,-0.009846,0.023032,0.010079,0.00085,-0.003967,-0.016255,-0.00455,-0.487037,0.010768,-1.513331,-265.765175,-1.70198,62.950836
1.5967,-0.009296,0.022762,0.011699,0.000865,-0.003958,-0.016129,-0.004678,-0.487068,0.009557,-1.511767,-265.759561,-1.706751,62.948392
1.617,-0.009667,0.022674,0.010408,0.000823,-0.003958,-0.016107,-0.003442,-0.487198,0.011494,-1.511767,-265.759561,-1.706751,62.948392
1.6368,-0.009283,0.02271,0.010514,0.000788,-0.003959,-0.016091,-0.003442,-0.487198,0.011494,-1.511767,-265.759561,-1.706751,62.948392
1.6568,-0.009274,0.022691,0.009648,0.000757,-0.003961,-0.01608,-0.003883,-0.487427,0.009842,-1.50824,-265.75405,-1.716526,62.94602
1.6771,-0.009009,0.022362,0.009716,0.000781,-0.003949,-0.015844,-0.00407,-0.487388,0.009686,-1.50824,-265.75405,-1.716526,62.94602
1.6968,-0.008088,0.022359,0.009656,0.000796,-0.003939,-0.015669,-0.004028,-0.48774,0.009205,-1.515893,-265.748559,-1.699328,62.943669
1.7165,-0.008375,0.022374,0.00723,0.000775,-0.003933,-0.015517,-0.003258,-0.487639,0.009575,-1.515893,-265.748559,-1.699328,62.943669
1.7364,-0.008721,0.022558,0.007638,0.000755,-0.003929,-0.015405,-0.003258,-0.487639,0.009575,-1.515893,-265.748559,-1.699328,62.943669
1.7566,-0.007974,0.022336,0.007955,0.000735,-0.003925,-0.015321,-0.004791,-0.487591,0.006985,-1.511918,-265.743161,-1.711275,62.9414
1.7764,-0.008225,0.022371,0.007434,0.000802,-0.003912,-0.014784,-0.00443,-0.487633,0.007306,-1.511918,-265.743161,-1.711275,62.9414
1.7966,-0.00754,0.021854,0.007238,0.00085,-0.003899,-0.014403,-0.004409,-0.487739,0.006947,-1.515481,-265.737844,-1.705381,62.93921
1.8166,-0.007496,0.021817,0.005429,0.000866,-0.003891,-0.014098,-0.003898,-0.488104,0.007186,-1.515481,-265.737844,-1.705381,62.93921
1.8368,-0.007913,0.021987,0.006792,0.000874,-0.003884,-0.013882,-0.003898,-0.488104,0.007186,-1.515481,-265.737844,-1.705381,62.93921
1.8567,-0.007052,0.021509,0.006779,0.000877,-0.003878,-0.01373,-0.004413,-0.488161,0.006203,-1.503971,-265.732877,-1.742586,62.937269
1.8771,-0.006903,0.021928,0.006222,0.000899,-0.003869,-0.013398,-0.004076,-0.488309,0.00637,-1.503971,-265.732877,-1.742586,62.937269
1.8963,-0.00731,0.021917,0.006171,0.000912,-0.003862,-0.013164,-0.00373,-0.488062,0.006222,-1.499374,-265.732876,-1.667584,62.937269
1.917,-0.006924,0.021701,0.007486,0.00092,-0.003855,-0.012936,-0.004124,-0.488072,0.006176,-1.499374,-265.732876,-1.667584,62.937269
1.9365,-0.007263,0.021721,0.006578,0.000923,-0.00385,-0.012774,-0.004124,-0.488072,0.006176,-1.499374,-265.732876,-1.667584,62.937269
1.9565,-0.007224,0.021631,0.00565,0.000923,-0.003845,-0.012657,-0.003908,-0.488268,0.006578,-1.494325,-265.732876,-1.592575,62.937269
1.9773,-0.007382,0.021672,0.007649,0.00092,-0.003842,-0.012576,-0.004083,-0.488305,0.006203,-1.494325,-265.732876,-1.592575,62.937269
1.9972,-0.007609,0.02176,0.00471,0.000915,-0.003839,-0.012515,-0.003481,-0.488313,0.007649,-1.491197,-265.732875,-1.517575,62.93727
2.0166,-0.007342,0.021998,0.005564,0.000968,-0.003827,-0.012112,-0.005008,-0.488243,0.005048,-1.491197,-265.732875,-1.517575,62.93727
2.0369,-0.007043,0.02202,0.004563,0.001008,-0.003816,-0.011823,-0.005008,-0.488243,0.005048,-1.491197,-265.732875,-1.517575,62.93727
2.0563,-0.007239,0.021856,0.00638,0.001038,-0.003806,-0.011614,-0.004716,-0.487974,0.004563,-1.491237,-265.732875,-1.442574,62.93727
2.0769,-0.006877,0.021691,0.006398,0.001027,-0.003803,-0.011544,-0.004419,-0.488039,0.005301,-1.491237,-265.732875,-1.442574,62.93727
2.0964,-0.007448,0.022102,0.006393,0.001018,-0.0038,-0.01149,-0.003614,-0.488298,0.006398,-1.47589,-265.732874,-1.367583,62.93727
2.1171,-0.007486,0.022031,0.005307,0.000977,-0.003804,-0.011733,-0.004139,-0.487923,0.006394,-1.47589,-265.732874,-1.367583,62.93727
2.1366,-0.007003,0.021533,0.005958,0.000946,-0.003807,-0.011911,-0.004139,-0.487923,0.006394,-1.47589,-265.732874,-1.367583,62.93727
2.1565,-0.00705,0.022091,0.005773,0.000923,-0.00381,-0.01204,-0.003964,-0.488458,0.005958,-1.476964,-265.732874,-1.292345,62.93727
2.1765,-0.007334,0.021647,0.00647,0.000912,-0.003812,-0.011998,-0.004022,-0.488231,0.005883,-1.476964,-265.732874,-1.292345,62.93727
2.1966,-0.007605,0.021944,0.005031,0.000902,-0.003813,-0.011963,-0.004034,-0.488342,0.00647,-1.488269,-265.732873,-1.217481,62.93727
2.2167,-0.007138,0.021647,0.004807,0.000943,-0.003808,-0.011721,-0.00495,-0.488075,0.005159,-1.488269,-265.732873,-1.217481,62.93727
2.2369,-0.007414,0.022296,0.00625,0.000975,-0.003803,-0.011542,-0.00495,-0.488075,0.005159,-1.488269,-265.732873,-1.217481,62.93727
2.2565,-0.007191,0.021863,0.005774,0.000999,-0.003798,-0.011408,-0.004227,-0.487694,0.00625,-1.489891,-265.732873,-1.142424,62.93727
2.2769,-0.007365,0.021597,0.005194,0.00097,-0.003803,-0.011526,-0.004235,-0.48787,0.006057,-1.489891,-265.732873,-1.142424,62.93727
2.2966,-0.00735,0.021704,0.007594,0.000947,-0.003808,-0.011606,-0.004716,-0.488396,0.005194,-1.478224,-265.732872,-1.067532,62.93727
2.3169,-0.007187,0.021522,0.006236,0.000883,-0.003822,-0.011875,-0.003565,-0.48829,0.007423,-1.478224,-265.732872,-1.067532,62.93727
2.3366,-0.007628,0.0217,0.005289,0.000835,-0.003835,-0.01207,-0.003565,-0.48829,0.007423,-1.478224,-265.732872,-1.067532,62.93727
2.3564,-0.007397,0.021916,0.005849,0.000798,-0.003845,-0.012208,-0.004931,-0.488293,0.005289,-1.484101,-265.732872,-0.991775,62.937271
2.3767,-0.007235,0.021715,0.00579,0.00085,-0.003842,-0.011859,-0.004721,-0.488205,0.005516,-1.484101,-265.732872,-0.991775,62.937271
2.3963,-0.00705,0.021817,0.004888,0.00089,-0.003839,-0.011602,-0.004283,-0.488277,0.00579,-1.500299,-265.732872,-0.917584,62.937271
2.4165,-0.007469,0.021893,0.006211,0.000923,-0.003836,-0.011255,-0.004537,-0.488184,0.004956,-1.500299,-265.732872,-0.917584,62.937271
2.4368,-0.00737,0.022005,0.005794,0.000946,-0.003834,-0.011005,-0.004537,-0.488184,0.004956,-1.500299,-265.732872,-0.917584,62.937271
2.4566,-0.007289,0.021598,0.006707,0.000962,-0.003832,-0.010826,-0.004415,-0.487986,0.005794,-1.489516,-265.732871,-0.842067,62.937271
2.4763,-0.007233,0.021816,0.007933,0.000937,-0.003835,-0.010994,-0.004193,-0.488151,0.006165,-1.489516,-265.732871,-0.842067,62.937271
2.4963,-0.007546,0.021572,0.004954,0.000918,-0.003838,-0.011114,-0.003187,-0.488168,0.007933,-1.478971,-265.732871,-0.767583,62.937271
2.5165,-0.006975,0.021997,0.006882,0.000952,-0.003834,-0.010972,-0.004855,-0.488399,0.005222,-1.478971,-265.732871,-0.767583,62.937271
2.5365,-0.007299,0.021676,0.007174,0.000979,-0.00383,-0.01087,-0.004855,-0.488399,0.005222,-1.478971,-265.732871,-0.767583,62.937271
2.5564,-0.007421,0.021538,0.005793,0.000999,-0.003826,-0.010797,-0.003641,-0.488311,0.007174,-1.484579,-265.73287,-0.692581,62.937271
2.5764,-0.006948,0.021333,0.005224,0.000954,-0.003834,-0.011049,-0.003979,-0.488369,0.006609,-1.484579,-265.73287,-0.692581,62.937271
2.5962,-0.00725,0.021959,0.005373,0.000921,-0.00384,-0.011234,-0.004284,-0.48866,0.005224,-1.475208,-265.73287,-0.617538,62.937271
2.6165,-0.006997,0.021673,0.007663,0.000936,-0.003838,-0.011085,-0.00449,-0.48809,0.005359,-1.475208,-265.73287,-0.617538,62.937271
2.6366,-0.007365,0.02151,0.006212,0.000947,-0.003837,-0.01098,-0.00449,-0.48809,0.005359,-1.475208,-265.73287,-0.617538,62.937271
2.6563,-0.007207,0.021929,0.006515,0.000954,-0.003836,-0.010905,-0.004197,-0.48848,0.006212,-1.484984,-265.732869,-0.542576,62.937271
2.6767,-0.007412,0.021627,0.006642,0.000927,-0.003841,-0.011074,-0.00407,-0.488309,0.006335,-1.484984,-265.732869,-0.542576,62.937271
2.6962,-0.007206,0.021761,0.006483,0.000906,-0.003844,-0.011197,-0.004024,-0.488362,0.006642,-1.480114,-265.732869,-0.467575,62.937271
2.7164,-0.007372,0.022109,0.00691,0.000881,-0.003849,-0.011317,-0.00391,-0.48824,0.006496,-1.480114,-265.732869,-0.467575,62.937271
2.7368,-0.007553,0.022073,0.005587,0.000862,-0.003853,-0.011404,-0.00391,-0.48824,0.006496,-1.480114,-265.732869,-0.467575,62.937271
2.7569,-0.006802,0.021767,0.007044,0.000847,-0.003857,-0.011466,-0.004704,-0.487919,0.005587,-1.486177,-265.732869,-0.392483,62.937272
2.7766,-0.007204,0.021807,0.00582,0.000848,-0.003858,-0.011444,-0.004095,-0.488041,0.00618,-1.486177,-265.732869,-0.392483,62.937272
2.7968,-0.00717,0.021514,0.004514,0.000848,-0.00386,-0.011428,-0.004236,-0.488184,0.00582,-1.492945,-265.732868,-0.317582,62.937272
2.8169,-0.00747,0.021917,0.007103,0.000909,-0.003853,-0.010997,-0.004809,-0.488454,0.004634,-1.492945,-265.732868,-0.317582,62.937272
2.8369,-0.007068,0.021684,0.005385,0.000954,-0.003845,-0.010699,-0.004809,-0.488454,0.004634,-1.492945,-265.732868,-0.317582,62.937272
2.8565,-0.007118,0.021646,0.007364,0.000987,-0.003839,-0.010491,-0.004322,-0.488309,0.005385,-1.492754,-265.732868,-0.242582,62.937272
2.8767,-0.007539,0.021715,0.007026,0.000945,-0.003843,-0.010738,-0.00393,-0.488322,0.006193,-1.492754,-265.732868,-0.242582,62.937272
2.8966,-0.007531,0.022149,0.007771,0.000914,-0.003847,-0.01092,-0.003956,-0.488273,0.007026,-1.474777,-265.732867,-0.167479,62.937272
2.9166,-0.007313,0.022051,0.005888,0.00085,-0.003861,-0.0113,-0.003602,-0.487874,0.007704,-1.474777,-265.732867,-0.167479,62.937272
2.9369,-0.006946,0.021744,0.006339,0.000802,-0.003872,-0.011584,-0.003602,-0.487874,0.007704,-1.474777,-265.732867,-0.167479,62.937272
2.9566,-0.007173,0.021926,0.006823,0.000767,-0.003881,-0.011795,-0.003714,-0.488246,0.006339,-1.484134,-265.732867,-0.092573,62.937272
2.9765,-0.007124,0.022038,0.006273,0.000766,-0.003881,-0.011748,-0.003705,-0.488171,0.006537,-1.484134,-265.732867,-0.092573,62.937272
2.9967,-0.007552,0.021939,0.0045,0.000764,-0.003882,-0.011714,-0.003925,-0.487952,0.006273,-1.501699,-265.732866,-0.017577,62.937272
3.0166,-0.007381,0.021718,0.007464,0.000854,-0.003871,-0.011195,-0.005135,-0.488046,0.004662,-1.501699,-265.732866,-0.017577,62.937272
3.0366,-0.007193,0.021514,0.005678,0.000921,-0.00386,-0.010837,-0.005135,-0.488046,0.004662,-1.501699,-265.732866,-0.017577,62.937272
3.0563,-0.007036,0.022008,0.00517,0.000972,-0.003851,-0.010589,-0.004298,-0.488477,0.005678,-1.50171,-265.732866,0.057421,62.937272
3.0767,-0.007174,0.021725,0.006189,0.000965,-0.003849,-0.010644,-0.004339,-0.488277,0.005471,-1.50171,-265.732866,0.057421,62.937272
3.0964,-0.007111,0.022127,0.00636,0.000959,-0.003847,-0.010686,-0.004017,-0.488265,0.006189,-1.476875,-265.732866,0.132422,62.937272
3.1165,-0.007229,0.021913,0.00491,0.000917,-0.003852,-0.01091,-0.00388,-0.487897,0.006346,-1.476875,-265.732866,0.132422,62.937272
3.1365,-0.007252,0.021798,0.006069,0.000885,-0.003855,-0.011074,-0.00388,-0.487897,0.006346,-1.476875,-265.732866,0.132422,62.937272
3.1567,-0.00721,0.021993,0.00628,0.00086,-0.003859,-0.011194,-0.004157,-0.488192,0.006069,-1.47863,-265.732865,0.207554,62.937273
3.1768,-0.007575,0.02151,0.006822,0.000855,-0.00386,-0.011242,-0.004097,-0.488113,0.006154,-1.47863,-265.732865,0.207554,62.937273
3.1968,-0.007252,0.021717,0.006302,0.000852,-0.003861,-0.011277,-0.004096,-0.488478,0.006822,-1.490544,-265.732865,0.282427,62.937273
3.2164,-0.007273,0.021983,0.006016,0.000845,-0.003862,-0.011343,-0.004043,-0.48829,0.006347,-1.490544,-265.732865,0.282427,62.937273
3.2369,-0.007306,0.021614,0.005933,0.000841,-0.003863,-0.011391,-0.004043,-0.48829,0.006347,-1.490544,-265.732865,0.282427,62.937273
3.2567,-0.007265,0.021793,0.006357,0.000838,-0.003865,-0.011424,-0.00428,-0.488377,0.005933,-1.491725,-265.732864,0.357561,62.937273
3.2771,-0.007094,0.021702,0.006912,0.000846,-0.003864,-0.011398,-0.004172,-0.488301,0.006111,-1.491725,-265.732864,0.357561,62.937273
3.2965,-0.006952,0.022061,0.005537,0.000853,-0.003864,-0.011378,-0.003569,-0.488285,0.006912,-1.493616,-265.732864,0.432866,62.937273
3.3169,-0.007066,0.021828,0.006663,0.000859,-0.003864,-0.011256,-0.004079,-0.487962,0.005657,-1.493616,-265.732864,0.432866,62.937273
3.3369,-0.007132,0.021812,0.006075,0.000863,-0.003863,-0.011169,-0.004079,-0.487962,0.005657,-1.493616,-265.732864,0.432866,62.937273
3.3568,-0.007236,0.021727,0.005722,0.000864,-0.003863,-0.011108,-0.004034,-0.488178,0.006075,-1.492093,-265.732863,0.507515,62.937273
3.3764,-0.007314,0.022146,0.007161,0.000864,-0.003863,-0.011131,-0.004149,-0.488213,0.005931,-1.492093,-265.732863,0.507515,62.937273
3.3966,-0.007408,0.021877,0.006084,0.000865,-0.003862,-0.011148,-0.003662,-0.487841,0.007161,-1.489789,-265.732863,0.58241,62.937273
3.4169,-0.007496,0.022423,0.004713,0.000864,-0.003863,-0.011216,-0.004246,-0.488089,0.006183,-1.489789,-265.732863,0.58241,62.937273
3.4367,-0.007073,0.021866,0.005034,0.000864,-0.003863,-0.011266,-0.004246,-0.488089,0.006183,-1.489789,-265.732863,0.58241,62.937273
3.4568,-0.007586,0.022136,0.007774,0.000865,-0.003863,-0.011301,-0.004506,-0.488128,0.005033,-1.489938,-265.732862,0.657421,62.937274
3.4765,-0.007256,0.02174,0.00535,0.000862,-0.003864,-0.011321,-0.004142,-0.488013,0.006161,-1.489938,-265.732862,0.657421,62.937274
3.497,-0.0071,0.021139,0.006446,0.000859,-0.003864,-0.011335,-0.004527,-0.488252,0.00535,-1.490621,-265.732857,0.732526,62.937275
3.5169,-0.007055,0.022103,0.005732,0.00085,-0.003866,-0.011384,-0.003877,-0.488796,0.006347,-1.490621,-265.732857,0.732526,62.937275
3.5367,-0.006858,0.02179,0.0052,0.000842,-0.003867,-0.011419,-0.003877,-0.488796,0.006347,-1.490621,-265.732857,0.732526,62.937275
3.5569,-0.007379,0.021572,0.006776,0.000837,-0.003868,-0.011444,-0.004205,-0.488204,0.005198,-1.491299,-265.732837,0.807417,62.937281
3.5766,-0.007159,0.02166,0.00621,0.000847,-0.003867,-0.011348,-0.00409,-0.488291,0.005841,-1.491299,-265.732837,0.807417,62.937281
3.5966,-0.007097,0.021971,0.005643,0.000854,-0.003866,-0.01128,-0.003992,-0.488333,0.006205,-1.493894,-265.732772,0.882423,62.9373
3.6166,-0.007097,0.02174,0.007454,0.000864,-0.003865,-0.011195,-0.004199,-0.488049,0.005693,-1.493894,-265.732772,0.882423,62.9373
3.6367,-0.007107,0.022036,0.00577,0.000871,-0.003864,-0.011136,-0.004199,-0.488049,0.005693,-1.493894,-265.732772,0.882423,62.9373
3.6567,-0.007394,0.021498,0.006936,0.000875,-0.003863,-0.011094,-0.004161,-0.487966,0.005743,-1.491579,-265.732513,0.957418,62.937376
3.677,-0.006869,0.02169,0.007028,0.000863,-0.003864,-0.011185,-0.004037,-0.48818,0.006225,-1.491579,-265.732513,0.957418,62.937376
3.6967,-0.007474,0.021614,0.007069,0.000854,-0.003865,-0.011251,-0.003278,-0.488321,0.006963,-1.488694,-265.731719,1.032419,62.937602
3.7166,-0.007357,0.021555,0.004343,0.000827,-0.003871,-0.011453,-0.003815,-0.488369,0.007056,-1.488694,-265.731719,1.032419,62.937602
3.7368,-0.007157,0.02123,0.006291,0.000807,-0.003875,-0.011601,-0.003815,-0.488369,0.007056,-1.488694,-265.731719,1.032419,62.937602
3.7564,-0.006824,0.021978,0.005677,0.000793,-0.003879,-0.011708,-0.003933,-0.488815,0.006137,-1.491395,-265.730296,1.107422,62.938015
3.7771,-0.007072,0.02124,0.005893,0.000809,-0.003877,-0.011554,-0.003929,-0.488497,0.005933,-1.491395,-265.730296,1.107422,62.938015
3.7965,-0.006959,0.021482,0.006052,0.000819,-0.003876,-0.011444,-0.004052,-0.488807,0.00573,-1.498986,-265.728351,1.182412,62.938607
3.8167,-0.007233,0.021575,0.007199,0.000824,-0.003875,-0.011417,-0.003888,-0.488538,0.006014,-1.498986,-265.728351,1.182412,62.938607
3.8368,-0.006662,0.021739,0.00436,0.000827,-0.003874,-0.011402,-0.003888,-0.488538,0.006014,-1.498986,-265.728351,1.182412,62.938607
3.8567,-0.006346,0.021804,0.005411,0.000829,-0.003873,-0.011396,-0.004409,-0.48838,0.003997,-1.495536,-265.725044,1.257413,62.939584
3.8768,-0.006599,0.021251,0.005272,0.000862,-0.003868,-0.01098,-0.004071,-0.488316,0.004531,-1.495536,-265.725044,1.257413,62.939584
3.8967,-0.006206,0.021175,0.00344,0.000883,-0.003863,-0.010697,-0.003885,-0.48886,0.004924,-1.494448,-265.720876,1.308523,62.94081
3.9168,-0.00636,0.021391,0.003969,0.000931,-0.003855,-0.010152,-0.004399,-0.488831,0.003555,-1.494448,-265.720876,1.308523,62.94081
3.9366,-0.006371,0.021048,0.005679,0.000964,-0.003845,-0.00978,-0.004399,-0.488831,0.003555,-1.494448,-265.720876,1.308523,62.94081
3.9565,-0.005888,0.020849,0.004857,0.000987,-0.003835,-0.009526,-0.003439,-0.489097,0.005255,-1.486089,-265.716911,1.251491,62.941879
3.9765,-0.006085,0.020789,0.003928,0.000935,-0.003836,-0.009845,-0.003424,-0.489135,0.005041,-1.486089,-265.716911,1.251491,62.941879
3.9967,-0.00597,0.020912,0.003045,0.000895,-0.003835,-0.010085,-0.00406,-0.489294,0.003709,-1.468934,-265.714128,1.176338,62.942514
4.0167,-0.006066,0.021129,0.004115,0.000939,-0.003825,-0.009568,-0.004384,-0.489108,0.003093,-1.468934,-265.714128,1.176338,62.942514
4.0368,-0.006065,0.020998,0.00276,0.000969,-0.003815,-0.009211,-0.004384,-0.489108,0.003093,-1.468934,-265.714128,1.176338,62.942514
4.0564,-0.00573,0.020775,0.003362,0.00099,-0.003805,-0.008966,-0.00462,-0.489158,0.002345,-1.481507,-265.710171,1.203295,62.943496
4.0766,-0.005322,0.020874,0.002549,0.001009,-0.003795,-0.008625,-0.004369,-0.489202,0.002712,-1.481507,-265.710171,1.203295,62.943496
4.0968,-0.005264,0.02071,0.001195,0.001021,-0.003786,-0.008391,-0.004004,-0.4892,0.002367,-1.46457,-265.707799,1.12836,62.94399
4.1166,-0.005315,0.02074,0.004207,0.001061,-0.003778,-0.00751,-0.004597,-0.489286,0.001288,-1.46457,-265.707799,1.12836,62.94399
4.1368,-0.005368,0.020359,0.002434,0.001084,-0.003767,-0.006888,-0.004597,-0.489286,0.001288,-1.46457,-265.707799,1.12836,62.94399
4.1565,-0.005244,0.0204,0.002996,0.001097,-0.003754,-0.006451,-0.004107,-0.489716,0.002259,-1.456685,-265.70603,1.053272,62.944322
4.1766,-0.005233,0.020653,0.002944,0.00106,-0.003749,-0.006772,-0.003945,-0.489677,0.00254,-1.456685,-265.70603,1.053272,62.944322
4.1965,-0.005482,0.020502,0.000503,0.001031,-0.003744,-0.007008,-0.003731,-0.489345,0.002944,-1.429216,-265.706029,0.978366,62.944322
4.2164,-0.005091,0.020512,0.003378,0.001084,-0.003734,-0.006238,-0.005092,-0.489484,0.000721,-1.429216,-265.706029,0.978366,62.944322
4.2367,-0.005601,0.02038,0.003467,0.001121,-0.003721,-0.005688,-0.005092,-0.489484,0.000721,-1.429216,-265.706029,0.978366,62.944322
4.2564,-0.005426,0.020655,0.003698,0.001147,-0.003708,-0.005296,-0.003832,-0.489619,0.003463,-1.443008,-265.705979,0.903367,62.944329
4.2769,-0.005075,0.020808,0.003118,0.001058,-0.00372,-0.006325,-0.003713,-0.489506,0.003558,-1.443008,-265.705979,0.903367,62.944329
4.2967,-0.004979,0.020621,0.002284,0.000994,-0.003728,-0.007085,-0.003484,-0.48919,0.003118,-1.407015,-265.705979,0.828365,62.944329
4.3168,-0.005327,0.020909,0.00311,0.00097,-0.003726,-0.007156,-0.003785,-0.489361,0.002359,-1.407015,-265.705979,0.828365,62.944329
4.3369,-0.005142,0.020652,0.003509,0.000951,-0.003724,-0.007211,-0.003785,-0.489361,0.002359,-1.407015,-265.705979,0.828365,62.944329
4.3568,-0.004848,0.020717,0.002299,0.000935,-0.003723,-0.007253,-0.003343,-0.489385,0.00343,-1.448075,-265.705136,0.753365,62.94445
4.3769,-0.00498,0.020551,0.00326,0.000898,-0.003727,-0.007553,-0.003477,-0.489347,0.002959,-1.448075,-265.705136,0.753365,62.94445
4.3966,-0.005003,0.020664,0.002222,0.00087,-0.003731,-0.007769,-0.003292,-0.489545,0.003067,-1.456569,-265.702397,0.678371,62.944841
4.4167,-0.005163,0.020132,0.003504,0.000874,-0.003729,-0.007633,-0.003817,-0.489359,0.002288,-1.456569,-265.702397,0.678371,62.944841
4.4369,-0.004975,0.020072,0.000555,0.000876,-0.003727,-0.007537,-0.003817,-0.489359,0.002288,-1.456569,-265.702397,0.678371,62.944841
4.4566,-0.004682,0.019904,0.002234,0.000877,-0.003726,-0.007469,-0.004669,-0.49002,0.000368,-1.468515,-265.700419,0.753376,62.945151
4.4768,-0.004926,0.020365,0.001708,0.000918,-0.003722,-0.006819,-0.004206,-0.490061,0.001109,-1.468515,-265.700419,0.753376,62.945151
4.4968,-0.004521,0.019969,0.001097,0.000945,-0.003717,-0.006354,-0.004027,-0.489752,0.00147,-1.465373,-265.697089,0.761233,62.945635
4.5166,-0.004851,0.019862,0.002439,0.000952,-0.003713,-0.006024,-0.003966,-0.490012,0.001118,-1.465373,-265.697089,0.761233,62.945635
4.5368,-0.004331,0.019926,0.001056,0.000954,-0.003709,-0.005788,-0.003966,-0.490012,0.001118,-1.465373,-265.697089,0.761233,62.945635
4.5571,-0.004964,0.019812,0.002263,0.000954,-0.003705,-0.005619,-0.003792,-0.490074,0.001056,-1.447073,-265.697081,0.686237,62.945636
4.577,-0.00438,0.020152,0.000899,0.00094,-0.003703,-0.005742,-0.003799,-0.49012,0.001546,-1.447073,-265.697081,0.686237,62.945636
4.5969,-0.004744,0.019907,0.001755,0.00093,-0.003701,-0.005829,-0.003921,-0.489848,0.000899,-1.437893,-265.69708,0.611224,62.945636
4.6167,-0.004428,0.020036,-6.2e-05,0.000921,-0.003701,-0.005966,-0.003856,-0.490071,0.001679,-1.437893,-265.69708,0.611224,62.945636
4.6365,-0.004318,0.020272,0.001539,0.000916,-0.0037,-0.006064,-0.003856,-0.490071,0.001679,-1.437893,-265.69708,0.611224,62.945636
4.6566,-0.004737,0.020193,0.00268,0.000912,-0.003699,-0.006133,-0.003533,-0.489727,0.001539,-1.443478,-265.69708,0.536229,62.945636
4.6765,-0.0046,0.019806,0.001949,0.000883,-0.003703,-0.006346,-0.003466,-0.489759,0.002009,-1.443478,-265.69708,0.536229,62.945636
4.6963,-0.004457,0.020175,0.000516,0.000862,-0.003707,-0.006498,-0.003605,-0.490195,0.001945,-1.448904,-265.697021,0.461137,62.945644
4.7167,-0.004398,0.020384,0.002256,0.000897,-0.003707,-0.005883,-0.004143,-0.489856,0.000638,-1.448904,-265.697021,0.461137,62.945644
4.7369,-0.004436,0.019625,0.00209,0.00092,-0.003704,-0.00544,-0.004143,-0.489856,0.000638,-1.448904,-265.697021,0.461137,62.945644
4.7565,-0.004422,0.019779,0.002816,0.000936,-0.003701,-0.005122,-0.003348,-0.490473,0.001913,-1.459022,-265.695041,0.386103,62.945874
4.7765,-0.004572,0.020243,0.000594,0.000883,-0.003709,-0.005717,-0.003198,-0.49038,0.002261,-1.459022,-265.695041,0.386103,62.945874
4.7965,-0.004274,0.02007,0.000572,0.000845,-0.003714,-0.006148,-0.004269,-0.489757,0.000594,-1.434528,-265.695041,0.311172,62.945874
4.8164,-0.004387,0.019786,0.002197,0.000876,-0.003713,-0.005583,-0.004007,-0.489915,0.000574,-1.434528,-265.695041,0.311172,62.945874
4.8366,-0.004366,0.019908,0.001014,0.000896,-0.00371,-0.005178,-0.004007,-0.489915,0.000574,-1.434528,-265.695041,0.311172,62.945874
4.8566,-0.004716,0.019914,0.000626,0.00091,-0.003706,-0.004888,-0.003837,-0.490141,0.00093,-1.458138,-265.69407,0.236115,62.945984
4.8766,-0.004558,0.020093,0.003066,0.00092,-0.003701,-0.004805,-0.004066,-0.490124,0.000795,-1.458138,-265.69407,0.236115,62.945984
4.8963,-0.004119,0.01962,0.002848,0.000928,-0.003697,-0.004747,-0.002994,-0.489905,0.003066,-1.435702,-265.69407,0.161103,62.945984
4.9167,-0.004753,0.019786,0.0039,0.000835,-0.003713,-0.005676,-0.002696,-0.490336,0.002868,-1.435702,-265.69407,0.161103,62.945984
4.9365,-0.004637,0.019732,0.002168,0.000768,-0.003725,-0.006357,-0.002696,-0.490336,0.002868,-1.435702,-265.69407,0.161103,62.945984
4.9564,-0.004137,0.019833,0.000639,0.000719,-0.003734,-0.006854,-0.003531,-0.490267,0.002168,-1.431093,-265.69407,0.086229,62.945984
4.9763,-0.004133,0.019726,0.002418,0.000748,-0.003732,-0.006616,-0.003647,-0.490226,0.001538,-1.431093,-265.69407,0.086229,62.945984
4.9963,-0.004331,0.019729,0.002104,0.00077,-0.003729,-0.00645,-0.0029,-0.490275,0.002413,-1.480315,-265.693998,0.16133,62.945991
5.0167,-0.004445,0.019642,0.002721,0.000758,-0.003732,-0.006628,-0.003224,-0.49027,0.002133,-1.480315,-265.693998,0.16133,62.945991
5.0364,-0.004349,0.019806,0.0019,0.00075,-0.003734,-0.006755,-0.003224,-0.49027,0.002133,-1.480315,-265.693998,0.16133,62.945991
5.0564,-0.00382,0.019612,2.2e-05,0.000744,-0.003737,-0.006845,-0.003353,-0.490323,0.001676,-1.470703,-265.69143,0.236225,62.946259
5.0765,-0.004059,0.019603,0.00085,0.000773,-0.003736,-0.006312,-0.003535,-0.490364,0.000979,-1.470703,-265.69143,0.236225,62.946259
5.0962,-0.004085,0.019314,0.000218,0.000792,-0.003734,-0.005933,-0.00362,-0.490424,0.000801,-1.477085,-265.690704,0.311222,62.946338
5.1165,-0.004179,0.019646,0.000941,0.000837,-0.003731,-0.005267,-0.003943,-0.490665,0.000265,-1.477085,-265.690704,0.311222,62.946338
5.1364,-0.003975,0.01932,0.000171,0.000869,-0.003727,-0.004787,-0.003943,-0.490665,0.000265,-1.477085,-265.690704,0.311222,62.946338
5.1567,-0.004348,0.0197,0.000532,0.000892,-0.003721,-0.004443,-0.003886,-0.490685,0.000162,-1.463568,-265.6906,0.23607,62.946349
5.1764,-0.003842,0.019638,0.001253,0.000906,-0.003716,-0.004221,-0.003964,-0.490527,0.000313,-1.463568,-265.6906,0.23607,62.946349
5.1964,-0.004321,0.019671,0.000984,0.000917,-0.00371,-0.004062,-0.003203,-0.490362,0.001253,-1.433082,-265.690599,0.161065,62.946349
5.2166,-0.004339,0.019676,0.000667,0.000903,-0.003707,-0.004338,-0.003767,-0.490332,0.001007,-1.433082,-265.690599,0.161065,62.946349
5.2366,-0.004128,0.019805,0.002066,0.000895,-0.003704,-0.004536,-0.003767,-0.490332,0.001007,-1.433082,-265.690599,0.161065,62.946349
5.2564,-0.004242,0.019852,0.000961,0.000889,-0.003701,-0.00468,-0.003075,-0.490194,0.002066,-1.423808,-265.690599,0.086082,62.946349
5.2769,-0.004266,0.0194,0.000997,0.000855,-0.003705,-0.005112,-0.00335,-0.490175,0.001617,-1.423808,-265.690599,0.086082,62.946349
5.2964,-0.00429,0.020169,8.9e-05,0.00083,-0.003708,-0.005421,-0.003758,-0.4906,0.000997,-1.43608,-265.690599,0.011193,62.946349
5.3167,-0.004089,0.019904,0.002257,0.000871,-0.003707,-0.004862,-0.0042,-0.489901,0.000171,-1.43608,-265.690599,0.011193,62.946349
5.3367,-0.003697,0.019656,0.000258,0.0009,-0.003704,-0.004459,-0.0042,-0.489901,0.000171,-1.43608,-265.690599,0.011193,62.946349
5.3567,-0.004199,0.019791,0.000882,0.00092,-0.0037,-0.004169,-0.003565,-0.490349,0.00025,-1.453028,-265.690511,-0.063804,62.946361
5.3772,-0.004397,0.019579,0.000799,0.000907,-0.003699,-0.004149,-0.00364,-0.490292,0.000508,-1.453028,-265.690511,-0.063804,62.946361
5.3968,-0.004276,0.019774,0.001938,0.000896,-0.003698,-0.004134,-0.003989,-0.490421,0.000799,-1.424601,-265.69051,-0.138801,62.946361
5.4166,-0.004246,0.019753,0.001839,0.000853,-0.003705,-0.004812,-0.003351,-0.490243,0.001835,-1.424601,-265.69051,-0.138801,62.946361
5.4368,-0.004363,0.019652,0.003388,0.000824,-0.00371,-0.005302,-0.003351,-0.490243,0.001835,-1.424601,-265.69051,-0.138801,62.946361
5.4565,-0.004226,0.019727,0.002362,0.000804,-0.003713,-0.005655,-0.002635,-0.490346,0.003388,-1.427836,-265.69051,-0.213811,62.946361
5.4766,-0.00444,0.019174,0.001314,0.000744,-0.003726,-0.006369,-0.002794,-0.490315,0.002967,-1.427836,-265.69051,-0.213811,62.946361
5.4966,-0.004067,0.01966,0.000554,0.000701,-0.003736,-0.00689,-0.003748,-0.490925,0.001161,-1.459063,-265.688078,-0.288871,62.946646
5.5165,-0.004511,0.019017,-0.000206,0.000757,-0.003737,-0.006122,-0.00378,-0.490396,0.0006,-1.459063,-265.688078,-0.288871,62.946646
5.5366,-0.004028,0.019274,0.000914,0.000796,-0.003734,-0.005575,-0.00378,-0.490396,0.0006,-1.459063,-265.688078,-0.288871,62.946646
5.5566,-0.00393,0.01967,0.001744,0.000823,-0.003729,-0.005187,-0.003562,-0.490726,0.000914,-1.48281,-265.688078,-0.213934,62.946646
5.577,-0.00413,0.019391,0.000566,0.000813,-0.003727,-0.005284,-0.00335,-0.490565,0.001252,-1.48281,-265.688078,-0.213934,62.946646
5.5968,-0.003886,0.019339,0.001794,0.000806,-0.003725,-0.005354,-0.003839,-0.490619,0.000551,-1.45203,-265.687837,-0.288937,62.946681
5.6166,-0.003998,0.019773,0.001682,0.000781,-0.003726,-0.005622,-0.003049,-0.490657,0.001681,-1.45203,-265.687837,-0.288937,62.946681
5.6364,-0.003702,0.019459,0.001782,0.000761,-0.003728,-0.005814,-0.003049,-0.490657,0.001681,-1.45203,-265.687837,-0.288937,62.946681
5.6568,-0.004041,0.019267,0.001915,0.000747,-0.003729,-0.005953,-0.002778,-0.490608,0.001681,-1.456047,-265.686589,-0.363945,62.946845
5.6768,-0.003845,0.01917,0.001268,0.000727,-0.003731,-0.006093,-0.002893,-0.490667,0.001765,-1.456047,-265.686589,-0.363945,62.946845
5.6966,-0.003732,0.01957,0.00055,0.000712,-0.003734,-0.006195,-0.003189,-0.490877,0.001194,-1.469718,-265.685418,-0.288886,62.946964
5.7171,-0.003564,0.019197,0.000713,0.000741,-0.003734,-0.005636,-0.003431,-0.490466,0.000597,-1.469718,-265.685418,-0.288886,62.946964
5.7365,-0.004002,0.019117,0.000692,0.000761,-0.003733,-0.005237,-0.003431,-0.490466,0.000597,-1.469718,-265.685418,-0.288886,62.946964
5.757,-0.003531,0.019507,0.001113,0.000774,-0.00373,-0.004952,-0.003645,-0.490903,0.000662,-1.476402,-265.685051,-0.213582,62.946998
5.777,-0.003637,0.019148,0.001014,0.000778,-0.003727,-0.004887,-0.003368,-0.490738,0.000842,-1.476402,-265.685051,-0.213582,62.946998
5.797,-0.003879,0.019252,0.000679,0.00078,-0.003724,-0.004841,-0.00312,-0.490853,0.001012,-1.456713,-265.685024,-0.288214,62.947002
5.8171,-0.003893,0.01936,-0.000145,0.00079,-0.003721,-0.004734,-0.003496,-0.490758,0.000709,-1.456713,-265.685024,-0.288214,62.947002
5.8367,-0.003806,0.019343,4.8e-05,0.000798,-0.003718,-0.004659,-0.003496,-0.490758,0.000709,-1.456713,-265.685024,-0.288214,62.947002
5.8569,-0.004142,0.019113,0.000535,0.000803,-0.003716,-0.004605,-0.003781,-0.49066,4.4e-05,-1.454529,-265.684975,-0.363173,62.947011
5.8767,-0.003818,0.019188,0.000884,0.000829,-0.003712,-0.004305,-0.003817,-0.490753,0.000244,-1.454529,-265.684975,-0.363173,62.947011
5.8968,-0.003813,0.019193,-0.000397,0.000849,-0.003709,-0.004089,-0.003367,-0.490814,0.00088,-1.448412,-265.684919,-0.43821,62.947021
5.9171,-0.00369,0.019379,0.000221,0.000878,-0.003707,-0.003641,-0.003958,-0.490807,-0.000284,-1.448412,-265.684919,-0.43821,62.947021
5.937,-0.004,0.019528,0.00177,0.000899,-0.003705,-0.003316,-0.003958,-0.490807,-0.000284,-1.448412,-265.684919,-0.43821,62.947021
5.957,-0.003839,0.018923,0.002013,0.000913,-0.003701,-0.003079,-0.003097,-0.490473,0.001768,-1.43491,-265.684892,-0.513234,62.947027
5.9771,-0.003688,0.019281,0.001927,0.000843,-0.003711,-0.004049,-0.002981,-0.490719,0.001868,-1.43491,-265.684892,-0.513234,62.947027
5.9967,-0.003835,0.019049,0.00108,0.000793,-0.003718,-0.004756,-0.002705,-0.490718,0.001927,-1.408579,-265.684887,-0.588208,62.947029
6.017,-0.003518,0.019156,-0.00072,0.000784,-0.003716,-0.004925,-0.003233,-0.49093,0.001155,-1.408579,-265.684887,-0.588208,62.947029
6.0369,-0.003922,0.019453,0.000434,0.000777,-0.003715,-0.005047,-0.003233,-0.49093,0.001155,-1.408579,-265.684887,-0.588208,62.947029
6.0568,-0.003712,0.019277,0.001395,0.000772,-0.003714,-0.005135,-0.003684,-0.49062,0.000337,-1.451566,-265.68361,-0.663211,62.947246
6.0766,-0.00381,0.019104,-0.000159,0.00078,-0.003713,-0.004979,-0.003405,-0.49067,0.000756,-1.451566,-265.68361,-0.663211,62.947246
6.0966,-0.003154,0.019332,-0.00229,0.000785,-0.003712,-0.004869,-0.003866,-0.491014,-0.000321,-1.458542,-265.680874,-0.642511,62.947629
6.1168,-0.003237,0.018821,0.000623,0.000862,-0.003737,-0.003518,-0.004279,-0.490705,-0.002118,-1.458542,-265.680874,-0.642511,62.947629
6.1368,-0.003544,0.019249,-0.000111,0.000916,-0.003748,-0.002486,-0.004279,-0.490705,-0.002118,-1.458542,-265.680874,-0.642511,62.947629
6.1571,-0.0033,0.018852,-0.000692,0.000954,-0.003751,-0.001708,-0.003574,-0.490877,-0.000279,-1.453848,-265.678672,-0.717503,62.947982
6.1769,-0.00336,0.018755,-0.0008,0.000929,-0.003739,-0.001849,-0.003603,-0.491002,-0.000466,-1.453848,-265.678672,-0.717503,62.947982
6.1968,-0.003408,0.018953,0.000895,0.000911,-0.003729,-0.001941,-0.003767,-0.491246,-0.000801,-1.378865,-265.678651,-0.792486,62.947994
6.2169,-0.003851,0.018655,0.000208,0.000852,-0.003726,-0.002682,-0.003025,-0.491065,0.000742,-1.378865,-265.678651,-0.792486,62.947994
6.2369,-0.003437,0.018882,0.000784,0.00081,-0.003722,-0.003209,-0.003025,-0.491065,0.000742,-1.378865,-265.678651,-0.792486,62.947994
6.2568,-0.00333,0.019153,-0.000886,0.000779,-0.003719,-0.003585,-0.003035,-0.491124,0.00078,-1.387495,-265.678562,-0.867502,62.948042
6.2765,-0.003323,0.018999,0.000504,0.000781,-0.003716,-0.003491,-0.003339,-0.491012,0.000102,-1.387495,-265.678562,-0.867502,62.948042
6.2966,-0.003493,0.018668,-6.1e-05,0.000782,-0.003713,-0.003422,-0.003055,-0.491048,0.000456,-1.439665,-265.677606,-0.942509,62.948317
6.3167,-0.003412,0.019083,0.000237,0.000794,-0.003709,-0.003302,-0.003482,-0.491309,-1.7e-05,-1.439665,-265.677606,-0.942509,62.948317
6.3367,-0.003426,0.018807,0.001313,0.000804,-0.003706,-0.003214,-0.003482,-0.491309,-1.7e-05,-1.439665,-265.677606,-0.942509,62.948317
6.3564,-0.003254,0.018852,0.00055,0.000811,-0.003703,-0.00315,-0.002734,-0.491284,0.001225,-1.436865,-265.676211,-1.017507,62.948747
6.3769,-0.003099,0.01861,0.001325,0.00077,-0.003704,-0.003639,-0.002829,-0.49124,0.000941,-1.436865,-265.676211,-1.017507,62.948747
6.3962,-0.003075,0.018537,-0.000174,0.00074,-0.003706,-0.003992,-0.002402,-0.49148,0.001246,-1.427704,-265.674449,-1.092482,62.949353
6.4166,-0.003036,0.018691,-0.001584,0.000747,-0.003707,-0.003684,-0.003094,-0.49147,-5.1e-05,-1.427704,-265.674449,-1.092482,62.949353
6.4364,-0.003304,0.018543,-0.000804,0.00075,-0.003707,-0.003461,-0.003094,-0.49147,-5.1e-05,-1.427704,-265.674449,-1.092482,62.949353
6.4562,-0.003078,0.018755,0.000131,0.000751,-0.003707,-0.003301,-0.003685,-0.491604,-0.000963,-1.450968,-265.672092,-1.042488,62.949912
6.4764,-0.003152,0.018185,0.000306,0.000774,-0.003708,-0.002924,-0.003407,-0.491475,-0.000535,-1.450968,-265.672092,-1.042488,62.949912
6.4967,-0.00264,0.018269,-0.000575,0.000789,-0.003708,-0.002651,-0.002976,-0.491912,0.00022,-1.440346,-265.670196,-1.117481,62.950519
6.5167,-0.002743,0.018464,-0.000191,0.000777,-0.003709,-0.002463,-0.002936,-0.491752,-0.000508,-1.440346,-265.670196,-1.117481,62.950519
6.5367,-0.003302,0.01819,0.000435,0.000766,-0.00371,-0.002327,-0.002936,-0.491752,-0.000508,-1.440346,-265.670196,-1.117481,62.950519
6.5563,-0.00285,0.017917,0.000363,0.000755,-0.00371,-0.002229,-0.003051,-0.491945,0.000338,-1.423747,-265.668324,-1.192474,62.951295
6.5764,-0.002453,0.018302,-0.000263,0.000734,-0.003708,-0.002631,-0.002893,-0.492016,0.000337,-1.423747,-265.668324,-1.192474,62.951295
6.5962,-0.002637,0.018048,-0.000329,0.000719,-0.003706,-0.002918,-0.002565,-0.491808,-0.000329,-1.423044,-265.666411,-1.259849,62.952216
6.6165,-0.003192,0.018057,-0.001127,0.000712,-0.003708,-0.002751,-0.002784,-0.491945,-0.000332,-1.423044,-265.666411,-1.259849,62.952216
6.6368,-0.003033,0.017768,-0.000458,0.000705,-0.003709,-0.002631,-0.002784,-0.491945,-0.000332,-1.423044,-265.666411,-1.259849,62.952216
6.6568,-0.002604,0.017985,-0.002217,0.000698,-0.003709,-0.002544,-0.003238,-0.49238,-0.000575,-1.440514,-265.66429,-1.213119,62.953003
6.6768,-0.002364,0.017745,-0.000698,0.000741,-0.003713,-0.002039,-0.003436,-0.492249,-0.001255,-1.440514,-265.66429,-1.213119,62.953003
6.6964,-0.002763,0.017531,-0.000349,0.000772,-0.003714,-0.001671,-0.002699,-0.49237,-0.000777,-1.439012,-265.662233,-1.257762,62.953881
6.7171,-0.002214,0.017704,-0.001598,0.000757,-0.00371,-0.001827,-0.002918,-0.492466,-0.000391,-1.439012,-265.662233,-1.257762,62.953881
6.7367,-0.002705,0.017815,0.000267,0.000747,-0.003707,-0.001937,-0.002918,-0.492466,-0.000391,-1.439012,-265.662233,-1.257762,62.953881
6.7567,-0.002369,0.017091,-0.001417,0.000739,-0.003705,-0.002015,-0.002538,-0.492335,0.0002,-1.409148,-265.660376,-1.291641,62.954965
6.7765,-0.002672,0.01724,-0.002374,0.000727,-0.003705,-0.002027,-0.002759,-0.492585,-0.000465,-1.409148,-265.660376,-1.291641,62.954965
6.7965,-0.002297,0.017017,-0.000825,0.000717,-0.003705,-0.002036,-0.00386,-0.492876,-0.002438,-1.422163,-265.658389,-1.28059,62.955994
6.8168,-0.002576,0.01734,-0.003804,0.000723,-0.003707,-0.001786,-0.002818,-0.492979,-0.000972,-1.422163,-265.658389,-1.28059,62.955994
6.8376,-0.002234,0.016758,4e-05,0.000726,-0.003708,-0.001606,-0.002818,-0.492979,-0.000972,-1.422163,-265.658389,-1.28059,62.955994
6.8567,-0.002174,0.017068,-0.002609,0.000726,-0.003708,-0.001477,-0.002183,-0.493401,-4.7e-05,-1.426841,-265.656392,-1.287233,62.957018
6.8765,-0.002506,0.016897,-0.002322,0.00072,-0.003709,-0.001358,-0.002678,-0.49324,-0.001023,-1.426841,-265.656392,-1.287233,62.957018
6.8968,-0.00243,0.016517,8e-06,0.000714,-0.003708,-0.001273,-0.003668,-0.493218,-0.002369,-1.414572,-265.654557,-1.317616,62.958158
6.9168,-0.00214,0.017133,-0.001058,0.000692,-0.003705,-0.001638,-0.002539,-0.493464,-0.000213,-1.414572,-265.654557,-1.317616,62.958158
6.9368,-0.002185,0.016836,-0.000778,0.000676,-0.003703,-0.001896,-0.002539,-0.493464,-0.000213,-1.414572,-265.654557,-1.317616,62.958158
6.9569,-0.002216,0.016755,-0.002839,0.000666,-0.003702,-0.002081,-0.002552,-0.493319,-0.000831,-1.412892,-265.652746,-1.331758,62.95936
6.9771,-0.002069,0.016767,-0.000483,0.000702,-0.003709,-0.001538,-0.002998,-0.493306,-0.001648,-1.412892,-265.652746,-1.331758,62.95936
6.9967,-0.001649,0.016492,-0.00182,0.000727,-0.003712,-0.001141,-0.002295,-0.493348,-0.000548,-1.437741,-265.650784,-1.303567,62.960346
7.0166,-0.001852,0.016369,-0.001629,0.000722,-0.003716,-0.000825,-0.002551,-0.493499,-0.00171,-1.437741,-265.650784,-1.303567,62.960346
7.0369,-0.002324,0.016046,-0.001664,0.000715,-0.003718,-0.000596,-0.002551,-0.493499,-0.00171,-1.437741,-265.650784,-1.303567,62.960346
7.0568,-0.001487,0.016117,-0.00245,0.000707,-0.003719,-0.00043,-0.003143,-0.494104,-0.001711,-1.407336,-265.649049,-1.334162,62.96155
7.0766,-0.002048,0.016281,-0.001826,0.000734,-0.003717,-0.000192,-0.002975,-0.494031,-0.002016,-1.407336,-265.649049,-1.334162,62.96155
7.0966,-0.001983,0.015875,-0.001236,0.000755,-0.003715,-2e-05,-0.002958,-0.493834,-0.00184,-1.395063,-265.647467,-1.369054,62.962931
7.1168,-0.001801,0.016051,-0.001682,0.00074,-0.00371,-0.000202,-0.002644,-0.494104,-0.001291,-1.395063,-265.647467,-1.369054,62.962931
7.1367,-0.002087,0.016015,-0.001561,0.00073,-0.003706,-0.000328,-0.002644,-0.494104,-0.001291,-1.395063,-265.647467,-1.369054,62.962931
7.1564,-0.00185,0.016415,-0.000812,0.000723,-0.003703,-0.000417,-0.002852,-0.494139,-0.001562,-1.370998,-265.64596,-1.369732,62.964429
7.1768,-0.002276,0.015759,-0.001504,0.000713,-0.003701,-0.000495,-0.00261,-0.493931,-0.001257,-1.370998,-265.64596,-1.369732,62.964429
7.1969,-0.001801,0.015658,-0.001951,0.000706,-0.0037,-0.00055,-0.00302,-0.494357,-0.001517,-1.39012,-265.644357,-1.36416,62.965832
7.2166,-0.001737,0.015594,-0.001235,0.000727,-0.003701,-0.00031,-0.002814,-0.494349,-0.001915,-1.39012,-265.644357,-1.36416,62.965832
7.2365,-0.002101,0.014989,-0.000597,0.000743,-0.003701,-0.000137,-0.002814,-0.494349,-0.001915,-1.39012,-265.644357,-1.36416,62.965832
7.2564,-0.002015,0.015616,-0.002488,0.000755,-0.0037,-1.1e-05,-0.002376,-0.495165,-0.00062,-1.397531,-265.642724,-1.363832,62.967203
7.2764,-0.001864,0.015249,-0.001043,0.000756,-0.003695,-0.000148,-0.002743,-0.494863,-0.001385,-1.397531,-265.642724,-1.363832,62.967203
7.2963,-0.002076,0.015105,-0.001418,0.000759,-0.003691,-0.000244,-0.002372,-0.494867,-0.001043,-1.370012,-265.641227,-1.36928,62.968693
7.3167,-0.001888,0.015314,-0.002369,0.000764,-0.003687,-0.000319,-0.00276,-0.494898,-0.001385,-1.370012,-265.641227,-1.36928,62.968693
7.3365,-0.00199,0.015784,-0.001763,0.000768,-0.003685,-0.000369,-0.00276,-0.494898,-0.001385,-1.370012,-265.641227,-1.36928,62.968693
7.3566,-0.001652,0.014822,-0.001131,0.000773,-0.003682,-0.000402,-0.002857,-0.494369,-0.001773,-1.375548,-265.639667,-1.359576,62.970138
7.3767,-0.001816,0.015508,-0.001835,0.000766,-0.003683,-0.000366,-0.002598,-0.494716,-0.001513,-1.375548,-265.639667,-1.359576,62.970138
7.3967,-0.001712,0.01488,-0.003021,0.000761,-0.003684,-0.000338,-0.002727,-0.494608,-0.001848,-1.376554,-265.638068,-1.349615,62.971544
7.4169,-0.001661,0.014866,3.7e-05,0.000816,-0.003693,0.000182,-0.003203,-0.495077,-0.002914,-1.376554,-265.638068,-1.349615,62.971544
7.4373,-0.001552,0.015179,-0.002853,0.000857,-0.003697,0.000565,-0.003203,-0.495077,-0.002914,-1.376554,-265.638068,-1.349615,62.971544
7.4572,-0.001493,0.014551,-0.002768,0.000887,-0.003697,0.000848,-0.002975,-0.494973,-0.002867,-1.377617,-265.636483,-1.355349,62.972968
7.4771,-0.001654,0.014387,-0.00179,0.000894,-0.003697,0.001029,-0.002944,-0.495181,-0.002829,-1.377617,-265.636483,-1.355349,62.972968
7.4971,-0.001456,0.01424,-0.002,0.000898,-0.003696,0.001162,-0.002541,-0.495719,-0.001766,-1.302608,-265.635288,-1.363321,62.974527
7.517,-0.001636,0.014826,-0.000538,0.000865,-0.00369,0.00094,-0.002481,-0.495761,-0.001977,-1.302608,-265.635288,-1.363321,62.974527
7.5366,-0.001174,0.01457,-0.002357,0.00084,-0.003686,0.000785,-0.002481,-0.495761,-0.001977,-1.302608,-265.635288,-1.363321,62.974527
7.5565,-0.001246,0.014521,-0.002754,0.000822,-0.003683,0.000677,-0.002339,-0.495582,-0.002309,-1.278721,-265.634052,-1.369708,62.976309
7.5766,-0.001605,0.014357,-0.000444,0.000811,-0.003686,0.000798,-0.002462,-0.495557,-0.002485,-1.278721,-265.634052,-1.369708,62.976309
7.5968,-0.001397,0.014142,-0.001927,0.000801,-0.003687,0.000885,-0.001806,-0.495757,-0.000424,-1.324577,-265.632748,-1.372867,62.977925
7.6171,-0.001519,0.013975,-0.000692,0.000776,-0.003684,0.000673,-0.002329,-0.495854,-0.001795,-1.324577,-265.632748,-1.372867,62.977925
7.6367,-0.001213,0.014047,-0.003184,0.000757,-0.003682,0.000524,-0.002329,-0.495854,-0.001795,-1.324577,-265.632748,-1.372867,62.977925
7.6567,-0.001555,0.014145,-0.002454,0.000743,-0.003681,0.000419,-0.002804,-0.496104,-0.003147,-1.321628,-265.631452,-1.383606,62.979642
7.677,-0.001975,0.014094,-0.002175,0.000781,-0.003685,0.000731,-0.002801,-0.496019,-0.002858,-1.321628,-265.631452,-1.383606,62.979642
7.6968,-0.0015,0.014354,-0.000689,0.00081,-0.003687,0.000959,-0.003061,-0.49602,-0.002162,-1.357008,-265.630077,-1.384144,62.981214
7.7174,-0.001667,0.014066,-0.001475,0.000741,-0.003684,0.00024,-0.001952,-0.495683,-0.000811,-1.357008,-265.630077,-1.384144,62.981214
7.7365,-0.001968,0.014171,-0.002908,0.000691,-0.003682,-0.000264,-0.001952,-0.495683,-0.000811,-1.357008,-265.630077,-1.384144,62.981214
7.7568,-0.001479,0.01356,-0.000716,0.000654,-0.003681,-0.000617,-0.003418,-0.495977,-0.002869,-1.315502,-265.628833,-1.383548,62.982903
7.7766,-0.001415,0.013722,-0.002722,0.000707,-0.00368,-0.000331,-0.002776,-0.496182,-0.001991,-1.315502,-265.628833,-1.383548,62.982903
7.7967,-0.001226,0.01344,-0.001169,0.000748,-0.003678,-0.000122,-0.002785,-0.496377,-0.002739,-1.390352,-265.627414,-1.375344,62.984065
7.8169,-0.0014,0.013278,-0.001645,0.000712,-0.003677,-0.00026,-0.001907,-0.496548,-0.001311,-1.390352,-265.627414,-1.375344,62.984065
7.8364,-0.001078,0.013588,-0.00145,0.000684,-0.003678,-0.000356,-0.001907,-0.496548,-0.001311,-1.390352,-265.627414,-1.375344,62.984065
7.8564,-0.001377,0.013505,-0.00189,0.000662,-0.003678,-0.000423,-0.001786,-0.496565,-0.001455,-1.374106,-265.625891,-1.366183,62.98553
7.8766,-0.001587,0.013093,-0.001978,0.000657,-0.003681,-0.000324,-0.00201,-0.496553,-0.001634,-1.374106,-265.625891,-1.366183,62.98553
7.8965,-0.001351,0.013247,-0.001048,0.000652,-0.003683,-0.000252,-0.002575,-0.497021,-0.001991,-1.404252,-265.624321,-1.379679,62.9869
7.9165,-0.00123,0.013395,-0.000942,0.000638,-0.003681,-0.000434,-0.001944,-0.496782,-0.001129,-1.404252,-265.624321,-1.379679,62.9869
7.9364,-0.001262,0.013025,-0.000511,0.000628,-0.00368,-0.000562,-0.001944,-0.496782,-0.001129,-1.404252,-265.624321,-1.379679,62.9869
7.9568,-0.001266,0.012968,-0.001653,0.00062,-0.00368,-0.000652,-0.001496,-0.497128,-0.000522,-1.402485,-265.622768,-1.388107,62.988333
7.9769,-0.001403,0.013256,-0.003427,0.000601,-0.003679,-0.000787,-0.001743,-0.497107,-0.000984,-1.402485,-265.622768,-1.388107,62.988333
7.9969,-0.001547,0.012787,-0.001008,0.000587,-0.003679,-0.000882,-0.003132,-0.496857,-0.003447,-1.419849,-265.621126,-1.383988,62.989662
8.017,-0.00116,0.012825,-0.002262,0.000612,-0.003678,-0.000834,-0.002156,-0.497187,-0.001227,-1.419849,-265.621126,-1.383988,62.989662
8.0368,-0.00142,0.012745,-0.002206,0.000633,-0.003677,-0.000798,-0.002156,-0.497187,-0.001227,-1.419849,-265.621126,-1.383988,62.989662
8.0567,-0.001438,0.012338,-0.001781,0.00065,-0.003675,-0.000773,-0.002521,-0.497408,-0.002243,-1.432534,-265.619427,-1.386046,62.990936
8.0766,-0.001136,0.012509,-0.001027,0.000702,-0.003677,-0.000408,-0.002447,-0.497529,-0.002058,-1.432534,-265.619427,-1.386046,62.990936
8.0964,-0.001068,0.012287,-0.002835,0.000743,-0.003676,-0.000142,-0.001639,-0.497607,-0.001052,-1.415385,-265.617762,-1.37066,62.992233
8.1164,-0.001056,0.012624,-0.00176,0.000783,-0.00368,0.000262,-0.002434,-0.497707,-0.002677,-1.415385,-265.617762,-1.37066,62.992233
8.1364,-0.000986,0.012242,-0.001343,0.000812,-0.00368,0.000559,-0.002434,-0.497707,-0.002677,-1.415385,-265.617762,-1.37066,62.992233
8.1564,-0.000952,0.012324,-0.000991,0.000834,-0.003679,0.000775,-0.001641,-0.497908,-0.001349,-1.375772,-265.616265,-1.366589,62.993664
8.1764,-0.001421,0.012411,-0.002108,0.000761,-0.003674,0.000322,-0.001562,-0.49783,-0.001202,-1.375772,-265.616265,-1.366589,62.993664
8.1963,-0.001038,0.01227,-0.001463,0.000704,-0.003671,4e-06,-0.002471,-0.497698,-0.002084,-1.3162,-265.615013,-1.372551,62.995264
8.2165,-0.001338,0.012102,-0.002714,0.000687,-0.00367,-7.2e-05,-0.001841,-0.497732,-0.001514,-1.3162,-265.615013,-1.372551,62.995264
8.2365,-0.001265,0.011933,-0.000773,0.000674,-0.003669,-0.000125,-0.001841,-0.497732,-0.001514,-1.3162,-265.615013,-1.372551,62.995264
8.2564,-0.001033,0.012145,-0.002734,0.000664,-0.003668,-0.000162,-0.001632,-0.49821,-0.000772,-1.381164,-265.613621,-1.381439,62.996658
8.2763,-0.001197,0.011993,-0.001151,0.000671,-0.003666,-0.000161,-0.001954,-0.49808,-0.001574,-1.381164,-265.613621,-1.381439,62.996658
8.2965,-0.001288,0.011585,-0.00101,0.000677,-0.003665,-0.000159,-0.001763,-0.498123,-0.001156,-1.396451,-265.612097,-1.387024,62.998105
8.3165,-0.000978,0.011991,-0.00035,0.000665,-0.00366,-0.000419,-0.001798,-0.498395,-0.001023,-1.396451,-265.612097,-1.387024,62.998105
8.3366,-0.001178,0.011919,-0.001508,0.000658,-0.003657,-0.000602,-0.001798,-0.498395,-0.001023,-1.396451,-265.612097,-1.387024,62.998105
8.3564,-0.000853,0.011725,-5.7e-05,0.000654,-0.003654,-0.000731,-0.001918,-0.498234,-0.001514,-1.392834,-265.610569,-1.383354,62.999556
8.3764,-0.001093,0.011482,-0.002263,0.000622,-0.003655,-0.00087,-0.001495,-0.498268,-0.000925,-1.392834,-265.610569,-1.383354,62.999556
8.397,-0.000996,0.011355,-0.002474,0.000597,-0.003656,-0.000968,-0.002227,-0.498632,-0.002286,-1.412742,-265.608923,-1.369821,63.000854
8.4169,-0.000671,0.011441,-0.001635,0.000668,-0.003663,-0.000417,-0.002254,-0.498648,-0.002458,-1.412742,-265.608923,-1.369821,63.000854
8.4364,-0.001027,0.011429,-0.002592,0.000722,-0.003665,-1.1e-05,-0.002254,-0.498648,-0.002458,-1.412742,-265.608923,-1.369821,63.000854
8.4564,-0.000984,0.011321,-0.002198,0.000764,-0.003664,0.000286,-0.002325,-0.498722,-0.002632,-1.431242,-265.607219,-1.378517,63.002094
8.4767,-0.001039,0.010862,-0.001701,0.000795,-0.003661,0.000504,-0.002232,-0.498721,-0.00246,-1.431242,-265.607219,-1.378517,63.002094
8.4964,-0.000928,0.011149,-0.00137,0.00082,-0.003657,0.000663,-0.001884,-0.499244,-0.001693,-1.356265,-265.605917,-1.374314,63.003521
8.5164,-0.000981,0.010885,-0.001324,0.000773,-0.003652,0.000341,-0.001649,-0.498891,-0.001399,-1.356265,-265.605917,-1.374314,63.003521
8.5364,-0.00108,0.011148,-0.002517,0.000738,-0.003648,0.000115,-0.001649,-0.498891,-0.001399,-1.356265,-265.605917,-1.374314,63.003521
8.5565,-0.000527,0.010859,-0.002886,0.000711,-0.003645,-4.3e-05,-0.002331,-0.499001,-0.00249,-1.323933,-265.604598,-1.371726,63.005151
8.5765,-0.000927,0.010601,-0.001556,0.00076,-0.003648,0.000329,-0.002191,-0.499074,-0.002648,-1.323933,-265.604598,-1.371726,63.005151
8.5963,-0.000933,0.010779,-0.001842,0.000796,-0.003648,0.000601,-0.001699,-0.499509,-0.001557,-1.379527,-265.603175,-1.376846,63.006554
8.6167,-0.000891,0.010899,-0.002715,0.000785,-0.003642,0.000485,-0.001856,-0.499252,-0.001816,-1.379527,-265.603175,-1.376846,63.006554
8.6366,-0.000702,0.010816,-0.003286,0.000778,-0.003637,0.000405,-0.001856,-0.499252,-0.001816,-1.379527,-265.603175,-1.376846,63.006554
8.6564,-0.00116,0.010665,-0.001793,0.000772,-0.003633,0.000349,-0.002345,-0.499328,-0.003261,-1.332647,-265.60187,-1.374971,63.008137
8.6765,-0.000606,0.01055,-0.001606,0.000816,-0.003633,0.00062,-0.00223,-0.499348,-0.002652,-1.332647,-265.60187,-1.374971,63.008137
8.6968,-0.000846,0.010056,-0.001365,0.00085,-0.00363,0.000817,-0.001401,-0.499565,-0.001595,-1.348669,-265.600475,-1.372617,63.009698
8.7167,-0.001087,0.00973,-0.001271,0.0008,-0.003623,0.000448,-0.001528,-0.499916,-0.001385,-1.348669,-265.600475,-1.372617,63.009698
8.7369,-0.000866,0.010581,-0.002537,0.000762,-0.003618,0.000188,-0.001528,-0.499916,-0.001385,-1.348669,-265.600475,-1.372617,63.009698
8.7567,-0.000542,0.010136,-0.001168,0.000734,-0.003614,6e-06,-0.002126,-0.499565,-0.002504,-1.305809,-265.599215,-1.367879,63.011335
8.777,-0.000945,0.009486,-0.000397,0.000738,-0.003614,0.000126,-0.00172,-0.499703,-0.001957,-1.305809,-265.599215,-1.367879,63.011335
8.7967,-0.000687,0.00969,0.001555,0.00074,-0.003615,0.000212,-0.001126,-0.500622,-0.000397,-1.370144,-265.597836,-1.370563,63.012717
8.8167,-0.001137,0.009879,-0.002708,0.000509,-0.003621,-0.001412,-2e-06,-0.500343,0.001382,-1.370144,-265.597836,-1.370563,63.012717
8.8365,-0.000691,0.00998,-0.002911,0.000336,-0.003623,-0.0026,-2e-06,-0.500343,0.001382,-1.370144,-265.597836,-1.370563,63.012717
8.8567,-0.000696,0.009412,-0.002851,0.000207,-0.003624,-0.003463,-0.002145,-0.500169,-0.002902,-1.361691,-265.596413,-1.375756,63.014241
8.8765,-0.000988,0.009799,-0.002242,0.000394,-0.003643,-0.002234,-0.002144,-0.500357,-0.00288,-1.361691,-265.596413,-1.375756,63.014241
8.8967,-0.001051,0.00941,-0.00097,0.000537,-0.00365,-0.00129,-0.002123,-0.500267,-0.002306,-1.436692,-265.595071,-1.434581,63.014597
8.9165,-0.000515,0.009728,-0.002296,0.000573,-0.003637,-0.001228,-0.001598,-0.500563,-0.001096,-1.436692,-265.595071,-1.434581,63.014597
8.9366,-0.00071,0.009979,-0.001729,0.000604,-0.003626,-0.001173,-0.001598,-0.500563,-0.001096,-1.436692,-265.595071,-1.434581,63.014597
8.9567,-0.000594,0.009452,-0.000913,0.000629,-0.003617,-0.001125,-0.001571,-0.500166,-0.001781,-1.450478,-265.593356,-1.385496,63.015714
8.9766,-0.000439,0.009216,-0.001688,0.000625,-0.003617,-0.000927,-0.00136,-0.500339,-0.001433,-1.450478,-265.593356,-1.385496,63.015714
8.9967,-0.000513,0.008984,-0.003757,0.00062,-0.003617,-0.000779,-0.00128,-0.500897,-0.001723,-1.425723,-265.591652,-1.35935,63.016888
9.0166,-0.000582,0.009409,-0.000817,0.000757,-0.003618,0.0,-0.002324,-0.501008,-0.003575,-1.425723,-265.591652,-1.35935,63.016888
9.0365,-0.000319,0.00947,-0.001718,0.000863,-0.003612,0.000592,-0.002324,-0.501008,-0.003575,-1.425723,-265.591652,-1.35935,63.016888
9.0565,1.9e-05,0.008797,-0.002193,0.000946,-0.003603,0.00104,-0.001169,-0.50068,-0.00175,-1.420397,-265.590004,-1.375837,63.018162
9.0767,-0.00058,0.009082,-0.003064,0.000853,-0.003596,0.000831,-0.001138,-0.50091,-0.001934,-1.420397,-265.590004,-1.375837,63.018162
9.0962,-0.000211,0.009207,-0.003208,0.00078,-0.003591,0.00069,-0.002126,-0.500993,-0.003043,-1.345385,-265.589178,-1.351254,63.019314
9.1165,-0.000676,0.009053,-0.003344,0.00082,-0.003593,0.001027,-0.001871,-0.500813,-0.003192,-1.345385,-265.589178,-1.351254,63.019314
9.1366,-0.000661,0.008991,-0.001161,0.000849,-0.003592,0.001276,-0.001871,-0.500813,-0.003192,-1.345385,-265.589178,-1.351254,63.019314
9.1565,-0.000237,0.008656,-0.003012,0.000871,-0.00359,0.001459,-0.001221,-0.501157,-0.001132,-1.329529,-265.587894,-1.378832,63.020923
9.1764,-0.000574,0.008348,-0.00173,0.000831,-0.003578,0.001121,-0.001442,-0.501249,-0.001893,-1.329529,-265.587894,-1.378832,63.020923
9.1962,-0.000555,0.009004,-0.001824,0.000801,-0.003568,0.000886,-0.001431,-0.501756,-0.001687,-1.25855,-265.586847,-1.378785,63.022607
9.2164,-0.000628,0.008696,-0.001622,0.000779,-0.003563,0.000687,-0.001479,-0.501068,-0.00181,-1.25855,-265.586847,-1.378785,63.022607
9.2366,-0.000189,0.008656,-0.001368,0.000764,-0.003558,0.000549,-0.001479,-0.501068,-0.00181,-1.25855,-265.586847,-1.378785,63.022607
9.2566,-0.000633,0.008266,-0.002621,0.000753,-0.003555,0.000453,-0.000855,-0.501487,-0.001332,-1.312078,-265.585651,-1.378266,63.024206
9.2769,-0.00056,0.008469,-0.002319,0.000735,-0.003548,0.000408,-0.001301,-0.501602,-0.001848,-1.312078,-265.585651,-1.378266,63.024206
9.2967,-0.000544,0.008269,-0.002685,0.000721,-0.003542,0.000377,-0.001719,-0.501641,-0.002305,-1.345103,-265.584329,-1.37684,63.025742
9.317,-0.000211,0.008092,-0.001699,0.000797,-0.003532,0.00065,-0.001896,-0.501727,-0.002652,-1.345103,-265.584329,-1.37684,63.025742
9.3367,-0.000294,0.008855,-0.00182,0.000857,-0.003523,0.000849,-0.001896,-0.501727,-0.002652,-1.345103,-265.584329,-1.37684,63.025742
9.357,-0.000387,0.008226,-0.002456,0.000904,-0.003514,0.000995,-0.001192,-0.501292,-0.001805,-1.356436,-265.582977,-1.38195,63.027274
9.3766,-0.000658,0.008278,-0.000938,0.000863,-0.003513,0.000885,-0.001369,-0.501503,-0.002066,-1.356436,-265.582977,-1.38195,63.027274
9.3963,-0.000272,0.007781,-0.000612,0.00083,-0.003513,0.000808,-0.001112,-0.50182,-0.00091,-1.281455,-265.581911,-1.35481,63.02875
9.4166,-0.000682,0.008153,-0.001162,0.000697,-0.003502,7.4e-05,-0.00063,-0.502189,-0.000637,-1.281455,-265.581911,-1.35481,63.02875
9.4364,-0.000565,0.007934,-0.000603,0.000595,-0.003493,-0.000443,-0.00063,-0.502189,-0.000637,-1.281455,-265.581911,-1.35481,63.02875
9.4569,-0.000227,0.00779,-0.002461,0.000518,-0.003487,-0.000807,-0.000838,-0.502211,-0.00057,-1.302469,-265.580669,-1.366482,63.030374
9.4766,-4.9e-05,0.008091,-0.001832,0.000535,-0.003484,-0.00071,-0.001099,-0.502227,-0.001345,-1.302469,-265.580669,-1.366482,63.030374
9.4966,-0.000526,0.007405,-0.002168,0.000549,-0.003481,-0.000638,-0.000969,-0.501988,-0.00185,-1.377545,-265.579513,-1.399475,63.031249
9.5169,-0.000119,0.007945,0.000395,0.000644,-0.003471,-0.000263,-0.00157,-0.502543,-0.00214,-1.377545,-265.579513,-1.399475,63.031249
9.5366,-0.000448,0.007406,-0.001702,0.000718,-0.00346,1.1e-05,-0.00157,-0.502543,-0.00214,-1.377545,-265.579513,-1.399475,63.031249
9.5569,-0.000167,0.007395,-0.002309,0.000775,-0.003449,0.000212,-0.001294,-0.502733,-0.001728,-1.429889,-265.578017,-1.395022,63.032451
9.577,-0.000303,0.007359,-0.001317,0.000785,-0.003439,0.000295,-0.001312,-0.502696,-0.001968,-1.429889,-265.578017,-1.395022,63.032451
9.5966,-2.8e-05,0.00778,-0.002499,0.000792,-0.00343,0.000358,-0.000954,-0.502735,-0.001311,-1.354892,-265.576841,-1.35748,63.033714
9.6163,-7.4e-05,0.007408,-0.001186,0.000787,-0.003437,0.000562,-0.00127,-0.50227,-0.002392,-1.354892,-265.576841,-1.35748,63.033714
9.6364,-0.000335,0.007238,-0.00105,0.000781,-0.003442,0.00071,-0.00127,-0.50227,-0.002392,-1.354892,-265.576841,-1.35748,63.033714
9.6566,-7.2e-05,0.007325,-0.00233,0.000775,-0.003445,0.000817,-0.000837,-0.502904,-0.001035,-1.328907,-265.575532,-1.356933,63.035191
9.6766,-0.000233,0.006857,-0.002879,0.000731,-0.003431,0.000559,-0.001006,-0.502826,-0.001562,-1.328907,-265.575532,-1.356933,63.035191
9.6966,-0.000165,0.006817,-0.00104,0.000697,-0.003421,0.000378,-0.001677,-0.503249,-0.002853,-1.313432,-265.574325,-1.376648,63.036783
9.7165,-8.1e-05,0.007211,-0.000927,0.000637,-0.003401,8.1e-05,-0.000778,-0.503193,-0.001194,-1.313432,-265.574325,-1.376648,63.036783
9.7364,-0.000158,0.007385,-0.000729,0.000592,-0.003385,-0.000127,-0.000778,-0.503193,-0.001194,-1.313432,-265.574325,-1.376648,63.036783
9.7569,-0.000221,0.006808,-0.001067,0.000558,-0.003373,-0.000273,-0.000502,-0.502754,-0.000714,-1.355579,-265.573056,-1.38208,63.038227
9.7769,-0.000392,0.006986,0.000248,0.000496,-0.003371,-0.000548,-0.000606,-0.502948,-0.000856,-1.355579,-265.573056,-1.38208,63.038227
9.7968,-0.000166,0.006951,-0.000547,0.000449,-0.00337,-0.000743,-0.000249,-0.503115,0.00024,-1.414463,-265.571706,-1.398506,63.039453
9.8168,3.2e-05,0.006762,-0.00217,0.000379,-0.003366,-0.001084,-0.000426,-0.50306,-0.000476,-1.414463,-265.571706,-1.398506,63.039453
9.8374,-4.3e-05,0.006627,-0.001031,0.000326,-0.003363,-0.001327,-0.000426,-0.50306,-0.000476,-1.414463,-265.571706,-1.398506,63.039453
9.8567,1.7e-05,0.006435,-0.002766,0.000286,-0.003362,-0.001499,-0.000551,-0.503511,-0.001061,-1.453963,-265.570211,-1.418084,63.040599
9.8767,-0.000551,0.006759,-0.001628,0.000356,-0.003352,-0.001023,-0.000885,-0.503547,-0.001744,-1.453963,-265.570211,-1.418084,63.040599
9.8965,5.3e-05,0.006224,-0.001392,0.000408,-0.003341,-0.000675,-0.001373,-0.503341,-0.001673,-1.5041,-265.5686,-1.454531,63.041525
9.9172,0.000305,0.006261,-0.003479,0.000417,-0.00332,-0.000555,-0.000718,-0.503743,-0.001418,-1.5041,-265.5686,-1.454531,63.041525
9.9366,-0.000367,0.006298,-0.002301,0.000424,-0.003303,-0.000467,-0.000718,-0.503743,-0.001418,-1.5041,-265.5686,-1.454531,63.041525
9.9566,0.000286,0.00624,-0.002475,0.000428,-0.00329,-0.000402,-0.001524,-0.503836,-0.002329,-1.462508,-265.567144,-1.432377,63.042665
9.9768,0.000113,0.006157,-0.002186,0.000546,-0.003275,1.8e-05,-0.001299,-0.50382,-0.002391,-1.462508,-265.567144,-1.432377,63.042665
9.9965,-0.000162,0.006073,-0.000954,0.000637,-0.003261,0.000325,-0.000989,-0.503947,-0.002199,-1.450265,-265.565723,-1.431069,63.043892
10.0164,6.6e-05,0.00596,-0.00178,0.000582,-0.00324,-9e-06,-0.000678,-0.503934,-0.001066,-1.450265,-265.565723,-1.431069,63.043892
10.0368,-0.000182,0.006206,-0.002648,0.00054,-0.003224,-0.000243,-0.000678,-0.503934,-0.001066,-1.450265,-265.565723,-1.431069,63.043892
10.0567,-8.4e-05,0.005862,-0.001683,0.00051,-0.003211,-0.000407,-0.00151,-0.503911,-0.002636,-1.375257,-265.564638,-1.388627,63.045111
10.0765,0.000357,0.005957,-0.001507,0.000612,-0.003199,-3e-05,-0.001277,-0.504016,-0.002248,-1.375257,-265.564638,-1.388627,63.045111
10.0965,0.000211,0.005777,-0.00184,0.00069,-0.003186,0.000245,-0.000396,-0.50414,-0.001519,-1.424549,-265.563296,-1.400467,63.046266
10.1164,1.2e-05,0.005843,-0.001527,0.000643,-0.003167,0.000288,-0.000698,-0.50422,-0.001813,-1.424549,-265.563296,-1.400467,63.046266
10.1367,-8e-05,0.005746,-0.003481,0.000606,-0.003151,0.000321,-0.000698,-0.50422,-0.001813,-1.424549,-265.563296,-1.400467,63.046266
10.1567,-2.9e-05,0.00554,-0.001343,0.000576,-0.003139,0.000346,-0.00183,-0.504371,-0.003472,-1.34957,-265.562185,-1.366757,63.047481
10.1767,4e-06,0.005513,-0.001067,0.000694,-0.003112,0.000653,-0.001381,-0.50442,-0.002621,-1.34957,-265.562185,-1.366757,63.047481
10.1965,-4.2e-05,0.005571,-0.00201,0.000786,-0.003089,0.000878,-0.000522,-0.504583,-0.001056,-1.376641,-265.561025,-1.400653,63.048802
10.2167,5.6e-05,0.005785,-0.001855,0.000781,-0.003069,0.000789,-0.001019,-0.504446,-0.001928,-1.376641,-265.561025,-1.400653,63.048802
10.2367,-0.000209,0.005316,-0.0024,0.000777,-0.003053,0.000728,-0.001019,-0.504446,-0.001928,-1.376641,-265.561025,-1.400653,63.048802
10.2565,-8.8e-05,0.005582,-0.002513,0.000775,-0.003039,0.000686,-0.001408,-0.504788,-0.00237,-1.301553,-265.560157,-1.357266,63.050008
10.2765,0.000143,0.005268,-0.002983,0.000857,-0.00301,0.000842,-0.001389,-0.504648,-0.002425,-1.301553,-265.560157,-1.357266,63.050008
10.2971,-0.000168,0.004629,-0.001029,0.00092,-0.002986,0.000956,-0.001355,-0.504826,-0.002962,-1.283383,-265.559069,-1.350413,63.051419
10.3166,0.000183,0.005607,-0.00085,0.000841,-0.002911,0.000547,-0.000761,-0.50532,-0.001231,-1.283383,-265.559069,-1.350413,63.051419
10.3364,3.2e-05,0.005048,-0.002308,0.000783,-0.002853,0.00026,-0.000761,-0.50532,-0.001231,-1.283383,-265.559069,-1.350413,63.051419
10.3566,0.000223,0.005186,-0.002854,0.00074,-0.002807,5.9e-05,-0.001111,-0.505062,-0.002272,-1.208297,-265.558147,-1.318608,63.05274
10.3767,0.000165,0.005018,-0.00228,0.000799,-0.002808,0.000426,-0.001158,-0.50497,-0.002513,-1.208297,-265.558147,-1.318608,63.05274
10.3965,0.000407,0.005127,-0.000822,0.000843,-0.002807,0.000694,-0.000977,-0.505055,-0.002278,-1.28364,-265.557179,-1.316257,63.053732
10.4171,0.000334,0.004575,-0.002212,0.000628,-0.002804,0.00022,-9.3e-05,-0.504892,-0.000945,-1.28364,-265.557179,-1.316257,63.053732
10.4371,0.000442,0.005038,-0.001604,0.000462,-0.002805,-0.000114,-9.3e-05,-0.504892,-0.000945,-1.28364,-265.557179,-1.316257,63.053732
10.4571,0.000279,0.005022,-0.001223,0.000335,-0.002808,-0.000349,-0.000342,-0.505074,-0.001576,-1.230773,-265.556214,-1.315538,63.055007
10.477,0.00023,0.00486,-0.002231,0.000298,-0.002805,-0.000281,-0.000339,-0.505048,-0.00143,-1.230773,-265.556214,-1.315538,63.055007
10.4966,0.000233,0.004654,-0.000419,0.000268,-0.002804,-0.000231,-0.000901,-0.505168,-0.002234,-1.305623,-265.555813,-1.390389,63.055352
10.5171,0.000347,0.004657,-0.001422,0.000172,-0.002772,-0.000619,-6.1e-05,-0.505331,-0.000579,-1.305623,-265.555813,-1.390389,63.055352
10.537,0.000383,0.004694,-0.003778,9.9e-05,-0.002749,-0.000893,-6.1e-05,-0.505331,-0.000579,-1.305623,-265.555813,-1.390389,63.055352
10.5567,0.000441,0.004893,-0.001205,4.3e-05,-0.002731,-0.001088,-0.001534,-0.505367,-0.003782,-1.380676,-265.555158,-1.465442,63.055944
10.5769,0.000258,0.004799,-0.000353,0.000229,-0.002741,-0.000373,-0.000978,-0.505268,-0.002732,-1.380676,-265.555158,-1.465442,63.055944
10.5966,-5.5e-05,0.004409,-0.002088,0.00037,-0.002745,0.000162,8.1e-05,-0.505247,-0.000372,-1.455626,-265.554428,-1.540392,63.056389
10.6171,0.000454,0.005057,-0.001617,0.000487,-0.002705,0.000279,-0.001011,-0.505561,-0.001934,-1.455626,-265.554428,-1.540392,63.056389
10.637,-0.000129,0.004768,-0.00242,0.000576,-0.002673,0.000369,-0.001011,-0.505561,-0.001934,-1.455626,-265.554428,-1.540392,63.056389
10.6569,0.000208,0.004545,-0.00108,0.000646,-0.002647,0.000439,-0.001352,-0.505328,-0.002414,-1.431701,-265.553524,-1.465394,63.05736
10.6772,0.000286,0.004358,-0.001997,0.000678,-0.002646,0.000465,-0.000938,-0.505391,-0.001868,-1.431701,-265.553524,-1.465394,63.05736
10.6965,0.000355,0.004455,-0.001604,0.000703,-0.002644,0.000487,-0.000722,-0.505695,-0.001989,-1.356698,-265.5529,-1.390392,63.058114
10.717,0.0005,0.004587,-0.001963,0.000619,-0.002628,0.000418,-0.000486,-0.505561,-0.001638,-1.356698,-265.5529,-1.390392,63.058114
10.737,0.00058,0.004552,-0.001244,0.000555,-0.002616,0.00037,-0.000486,-0.505561,-0.001638,-1.356698,-265.5529,-1.390392,63.058114
10.7571,0.000165,0.004095,-0.002893,0.000506,-0.002607,0.000337,-2.9e-05,-0.505544,-0.001227,-1.281696,-265.55205,-1.336321,63.059164
10.7768,0.000191,0.004229,0.000479,0.000489,-0.002587,0.000426,-0.000546,-0.505701,-0.001901,-1.281696,-265.55205,-1.336321,63.059164
10.7968,0.00015,0.00421,-0.001648,0.000474,-0.002571,0.00049,0.000449,-0.505842,0.000488,-1.356703,-265.551211,-1.392777,63.060141
10.8168,0.000577,0.004445,-0.002167,0.000467,-0.002545,0.000343,-0.000588,-0.505797,-0.001456,-1.356703,-265.551211,-1.392777,63.060141
10.8369,0.000462,0.004258,-0.001614,0.000463,-0.002525,0.000239,-0.000588,-0.505797,-0.001456,-1.356703,-265.551211,-1.392777,63.060141
10.857,0.000309,0.004091,-0.002209,0.00046,-0.002509,0.000166,-0.000341,-0.505849,-0.001593,-1.365032,-265.550287,-1.407107,63.0613
10.8767,0.000195,0.004015,-0.001692,0.000453,-0.002489,0.000284,-0.000533,-0.505885,-0.001841,-1.365032,-265.550287,-1.407107,63.0613
10.8962,0.000342,0.004085,-0.001414,0.000446,-0.002474,0.000369,-0.000653,-0.506063,-0.001686,-1.382063,-265.549313,-1.396407,63.062353
10.9168,0.000503,0.003716,-0.001852,0.000403,-0.002453,0.000256,-0.000402,-0.505932,-0.001438,-1.382063,-265.549313,-1.396407,63.062353
10.937,8.7e-05,0.003496,-0.001065,0.00037,-0.002438,0.000176,-0.000402,-0.505932,-0.001438,-1.382063,-265.549313,-1.396407,63.062353
10.9571,0.000769,0.004,-0.001335,0.000345,-0.002426,0.00012,-0.000437,-0.506607,-0.00105,-1.37492,-265.548398,-1.40696,63.063445
10.977,0.000262,0.003805,-0.001183,0.000281,-0.002353,-4.5e-05,-0.000224,-0.506375,-0.001162,-1.37492,-265.548398,-1.40696,63.063445
10.9966,0.000601,0.003397,-0.000762,0.000233,-0.002297,-0.000161,-0.000331,-0.506269,-0.00118,-1.425275,-265.547495,-1.433671,63.064403
11.017,0.000723,0.003594,-0.001249,8.6e-05,-0.002211,-0.00042,0.000164,-0.506577,-0.0008,-1.425275,-265.547495,-1.433671,63.064403
11.0367,0.000156,0.003475,-0.001203,-2.6e-05,-0.002148,-0.000605,0.000164,-0.506577,-0.0008,-1.425275,-265.547495,-1.433671,63.064403
11.0571,0.00047,0.003612,6.4e-05,-0.000111,-0.002101,-0.000736,-0.000448,-0.506616,-0.001209,-1.47374,-265.546582,-1.465124,63.065241
11.0769,8.8e-05,0.003529,-0.000594,-0.000116,-0.002078,-0.000892,-6.2e-05,-0.506534,-0.000693,-1.47374,-265.546582,-1.465124,63.065241
11.0967,0.000353,0.003481,-0.001962,-0.000119,-0.002062,-0.001003,-0.000214,-0.506501,-0.000605,-1.548737,-265.546123,-1.540121,63.065539
11.1167,0.000398,0.003409,-0.001549,4.1e-05,-0.00206,-0.000572,-0.000609,-0.506519,-0.001844,-1.548737,-265.546123,-1.540121,63.065539
11.1367,-4.6e-05,0.003657,-0.002699,0.000162,-0.002057,-0.000256,-0.000609,-0.506519,-0.001844,-1.548737,-265.546123,-1.540121,63.065539
11.1568,0.000622,0.003498,-0.001022,0.000255,-0.002053,-2.4e-05,-0.001425,-0.506406,-0.002731,-1.615332,-265.54531,-1.615222,63.06598
11.1763,-8e-06,0.003504,-0.002728,0.000376,-0.002059,0.000216,-0.000805,-0.506453,-0.00204,-1.615332,-265.54531,-1.615222,63.06598
11.1964,0.000386,0.003129,-0.002022,0.000469,-0.002061,0.000391,-0.001399,-0.506521,-0.002729,-1.54043,-265.544974,-1.54032,63.066312
11.2165,-5.2e-05,0.003454,-0.001901,0.000529,-0.001999,0.00054,-0.000713,-0.50684,-0.002085,-1.54043,-265.544974,-1.54032,63.066312
11.2368,0.000295,0.003628,0.000101,0.000574,-0.001951,0.00065,-0.000713,-0.50684,-0.002085,-1.54043,-265.544974,-1.54032,63.066312
11.2568,0.00017,0.003878,-0.001819,0.000608,-0.001913,0.000732,0.000349,-0.506397,0.000105,-1.465427,-265.544761,-1.465316,63.066578
11.2767,0.000333,0.003394,-0.000959,0.000442,-0.001965,0.000133,-0.0001,-0.506287,-0.000676,-1.465427,-265.544761,-1.465316,63.066578
11.2967,4.8e-05,0.00372,-0.002905,0.000317,-0.002006,-0.000291,-0.000154,-0.506618,-0.000955,-1.390424,-265.544644,-1.390314,63.066758
11.3167,0.000302,0.003362,-0.00078,0.000549,-0.002038,0.000232,-0.00132,-0.506309,-0.002731,-1.390424,-265.544644,-1.390314,63.066758
11.3368,0.000225,0.003321,-0.001368,0.000728,-0.00206,0.00062,-0.00132,-0.506309,-0.002731,-1.390424,-265.544644,-1.390314,63.066758
11.3566,0.000655,0.003523,-0.002156,0.000865,-0.002075,0.000908,-0.000459,-0.50676,-0.001379,-1.426785,-265.543781,-1.399297,63.067484
11.3771,0.000539,0.003061,-0.001716,0.000748,-0.002039,0.000752,-0.000452,-0.506654,-0.001696,-1.426785,-265.543781,-1.399297,63.067484
11.3967,0.000316,0.003257,-0.001703,0.000659,-0.002012,0.000644,-0.000335,-0.506943,-0.001714,-1.351828,-265.54373,-1.324341,63.067563
11.4166,0.000294,0.003245,-0.000636,0.000616,-0.001976,0.000571,-0.000533,-0.506761,-0.001704,-1.351828,-265.54373,-1.324341,63.067563
11.4364,0.000561,0.003524,-0.001189,0.000583,-0.001949,0.000521,-0.000533,-0.506761,-0.001704,-1.351828,-265.54373,-1.324341,63.067563
11.457,0.000676,0.003457,-0.001493,0.000559,-0.001928,0.000487,-3e-05,-0.50653,-0.001174,-1.276824,-265.543288,-1.30342,63.068194
11.4768,0.000735,0.003024,-0.000861,0.0004,-0.001942,0.00029,-5.1e-05,-0.506541,-0.001302,-1.276824,-265.543288,-1.30342,63.068194
11.4969,0.00044,0.002929,-0.000428,0.000278,-0.001956,0.000149,0.000313,-0.507035,-0.000846,-1.240616,-265.542618,-1.324836,63.069086
11.5167,0.0001,0.003245,-0.001204,9.2e-05,-0.001863,-0.000383,0.000231,-0.507071,-0.000465,-1.240616,-265.542618,-1.324836,63.069086
11.5368,0.000171,0.002452,-0.000788,-4.8e-05,-0.001795,-0.00076,0.000231,-0.507071,-0.000465,-1.240616,-265.542618,-1.324836,63.069086
11.5564,0.000331,0.00288,-0.003006,-0.000154,-0.001746,-0.001028,-0.000222,-0.507587,-0.000784,-1.315636,-265.542255,-1.399855,63.069484
11.5766,0.000386,0.003336,-0.000314,4.2e-05,-0.001656,-0.000661,-0.000618,-0.507402,-0.001683,-1.315636,-265.542255,-1.399855,63.069484
11.5962,0.000303,0.003036,-0.001963,0.000189,-0.001588,-0.000389,0.000226,-0.506666,-0.000315,-1.390612,-265.542216,-1.474832,63.069502
11.6164,0.00038,0.003124,-0.000401,0.000285,-0.001638,-0.000129,-0.000618,-0.506938,-0.00182,-1.390612,-265.542216,-1.474832,63.069502
11.6367,0.000838,0.0031,-0.001904,0.000358,-0.001675,6.2e-05,-0.000618,-0.506938,-0.00182,-1.390612,-265.542216,-1.474832,63.069502
11.657,0.000493,0.003042,-0.001999,0.000414,-0.001704,0.000202,-0.000127,-0.506958,-0.001919,-1.465717,-265.541568,-1.431864,63.069984
11.6766,0.000608,0.002887,-0.001954,0.000368,-0.001722,0.000368,-0.000291,-0.506964,-0.001953,-1.465717,-265.541568,-1.431864,63.069984
