mach0312/omni-docking-bench/src/icros_test_setup/results/MPPI_sample/timeseries/trial_025.csv
t,x,y,yaw,vx,vy,wz,bl_x,bl_y,bl_yaw,front_steering_joint,front_wheel_joint,rear_steering_joint,rear_wheel_joint
0.0,-0.039875,0.028006,0.067542,0.0,0.0,0.0,-0.005341,-0.481036,0.06698,0.473967,-266.657374,-0.009286,64.767507
0.0003,-0.039684,0.028169,0.06781,0.0,0.0,0.0,-0.00554,-0.480689,0.067485,0.473967,-266.657374,-0.009286,64.767507
0.0005,-0.039643,0.027988,0.067446,0.0,0.0,0.0,-0.00554,-0.480689,0.067485,0.473967,-266.657374,-0.009286,64.767507
0.0008,-0.039552,0.027975,0.066224,0.0,0.0,0.0,-0.00554,-0.480689,0.067485,0.473967,-266.657374,-0.009286,64.767507
0.001,-0.039933,0.027856,0.066994,0.0,0.0,0.0,-0.004712,-0.480344,0.067959,0.473967,-266.657374,-0.009286,64.767507
0.0013,-0.03957,0.027888,0.066764,9.9e-05,1.4e-05,0.0,-0.004712,-0.480344,0.067959,0.398817,-266.65737,0.065864,64.767511
0.0015,-0.039757,0.027956,0.068437,9.9e-05,1.4e-05,0.0,-0.005299,-0.480589,0.067001,0.398817,-266.65737,0.065864,64.767511
0.0018,-0.039882,0.027951,0.069075,9.9e-05,1.4e-05,0.0,-0.005299,-0.480589,0.067001,0.398817,-266.65737,0.065864,64.767511
0.002,-0.039525,0.028334,0.067795,9.9e-05,1.4e-05,0.0,-0.005928,-0.480759,0.06691,0.398817,-266.65737,0.065864,64.767511
0.0189,-0.039887,0.027977,0.067578,0.0,0.0,0.0,-0.004951,-0.480524,0.067908,0.398817,-266.65737,0.065864,64.767511
0.0391,-0.039523,0.028137,0.068267,0.0,0.0,0.0,-0.004951,-0.480524,0.067908,0.398817,-266.65737,0.065864,64.767511
0.059,-0.039912,0.027776,0.067575,0.0,0.0,0.0,-0.004733,-0.480675,0.068267,0.323872,-266.657358,0.137098,64.767524
0.0788,-0.039711,0.028013,0.067359,0.0,0.0,0.0,-0.005034,-0.480831,0.067986,0.323872,-266.657358,0.137098,64.767524
0.0989,-0.039909,0.027989,0.068699,0.0,0.0,0.0,-0.005384,-0.480831,0.067359,0.323872,-266.657358,0.137098,64.767524
0.1188,-0.040004,0.028068,0.067063,0.004595,-0.00045,-0.016929,-0.004941,-0.48081,0.068584,0.323872,-266.657358,0.137098,64.767524
0.1389,-0.039981,0.028082,0.066585,0.004958,-0.000466,-0.018042,-0.004941,-0.48081,0.068584,0.323872,-266.657358,0.137098,64.767524
0.1587,-0.039718,0.028164,0.067603,0.005255,-0.000476,-0.018868,-0.006047,-0.480788,0.066585,0.323872,-266.657358,0.137098,64.767524
0.1788,-0.039222,0.028215,0.067714,0.005525,-0.00048,-0.019471,-0.005729,-0.48074,0.067001,0.323872,-266.657358,0.137098,64.767524
0.1991,-0.039633,0.028091,0.066392,0.005746,-0.000482,-0.019911,-0.004714,-0.480616,0.067714,0.248869,-266.657358,0.2121,64.767524
0.2188,-0.040329,0.028079,0.067035,0.005926,-0.000481,-0.020229,-0.005677,-0.480767,0.066539,0.248869,-266.657358,0.2121,64.767524
0.2389,-0.039875,0.027922,0.06778,0.006073,-0.000479,-0.020458,-0.005677,-0.480767,0.066539,0.248869,-266.657358,0.2121,64.767524
0.2589,-0.040013,0.027862,0.068789,0.006193,-0.000476,-0.020623,-0.005334,-0.480907,0.06778,0.173767,-266.657358,0.287203,64.767524
0.2792,-0.039996,0.027961,0.06734,0.006274,-0.000474,-0.020743,-0.005181,-0.480917,0.068191,0.173767,-266.657358,0.287203,64.767524
0.2988,-0.039758,0.028112,0.068499,0.00634,-0.000471,-0.020828,-0.005679,-0.480883,0.06734,0.099006,-266.657358,0.361964,64.767524
0.3189,-0.039926,0.028302,0.068401,0.006384,-0.000469,-0.020889,-0.004926,-0.480709,0.068393,0.099006,-266.657358,0.361964,64.767524
0.3388,-0.039867,0.028174,0.0688,0.00642,-0.000466,-0.020932,-0.004926,-0.480709,0.068393,0.099006,-266.657358,0.361964,64.767524
0.3587,-0.039478,0.02803,0.067165,0.00645,-0.000463,-0.020961,-0.004806,-0.480619,0.0688,0.024002,-266.657358,0.436968,64.767524
0.379,-0.039682,0.027803,0.067597,0.006476,-0.00046,-0.020982,-0.004988,-0.480701,0.068132,0.024002,-266.657358,0.436968,64.767524
0.3994,-0.040097,0.027893,0.066904,0.006498,-0.000457,-0.020995,-0.005234,-0.481032,0.067597,-0.051063,-266.657358,0.512033,64.767524
0.4187,-0.039619,0.02805,0.06557,0.006551,-0.000451,-0.021001,-0.005934,-0.480972,0.066964,-0.051063,-266.657358,0.512033,64.767524
0.4388,-0.040062,0.027917,0.067731,0.006595,-0.000445,-0.021005,-0.005934,-0.480972,0.066964,-0.051063,-266.657358,0.512033,64.767524
0.459,-0.039894,0.028175,0.066624,0.006631,-0.00044,-0.021008,-0.005546,-0.480913,0.067731,-0.126116,-266.657358,0.587086,64.767524
0.479,-0.039741,0.027897,0.066107,0.006652,-0.000436,-0.02101,-0.005705,-0.480825,0.067284,-0.126116,-266.657358,0.587086,64.767524
0.4985,-0.039724,0.028216,0.067435,0.00667,-0.000431,-0.021012,-0.006052,-0.480989,0.066107,-0.201005,-266.657358,0.661975,64.767524
0.5187,-0.040105,0.02791,0.068606,0.006673,-0.000428,-0.021014,-0.005417,-0.480655,0.067322,-0.201005,-266.657358,0.661975,64.767524
0.5386,-0.039804,0.02824,0.068197,0.006676,-0.000425,-0.021015,-0.005417,-0.480655,0.067322,-0.201005,-266.657358,0.661975,64.767524
0.5587,-0.039608,0.028235,0.067692,0.006678,-0.000423,-0.021016,-0.00505,-0.480575,0.068197,-0.276194,-266.657358,0.737164,64.767524
0.5787,-0.039921,0.027933,0.067495,0.006667,-0.000421,-0.021017,-0.005075,-0.480584,0.067989,-0.276194,-266.657358,0.737164,64.767524
0.5986,-0.03988,0.027969,0.068159,0.006658,-0.000419,-0.021017,-0.005525,-0.480906,0.067495,-0.351093,-266.657358,0.812063,64.767524
0.6188,-0.039832,0.027756,0.067837,0.006655,-0.000417,-0.021017,-0.00518,-0.480852,0.068099,-0.351093,-266.657358,0.812063,64.767524
0.6386,-0.03949,0.028028,0.067725,0.006653,-0.000415,-0.021016,-0.00518,-0.480852,0.068099,-0.351093,-266.657358,0.812063,64.767524
0.6587,-0.040001,0.028202,0.06798,0.006651,-0.000413,-0.021015,-0.004976,-0.480803,0.067725,-0.425999,-266.657357,0.886969,64.767524
0.6788,-0.039592,0.028029,0.0671,0.006648,-0.000411,-0.021014,-0.005134,-0.480727,0.06783,-0.425999,-266.657357,0.886969,64.767524
0.6985,-0.03962,0.027851,0.068019,0.006645,-0.00041,-0.021013,-0.005396,-0.480824,0.067099,-0.501136,-266.657356,0.962106,64.767525
0.7185,-0.039838,0.02814,0.067213,0.006639,-0.000409,-0.021013,-0.004995,-0.480957,0.06794,-0.501136,-266.657356,0.962106,64.767525
0.7387,-0.039465,0.028127,0.068327,0.006633,-0.000407,-0.021012,-0.004995,-0.480957,0.06794,-0.501136,-266.657356,0.962106,64.767525
0.7586,-0.039941,0.028211,0.068293,0.006629,-0.000406,-0.021012,-0.004645,-0.480683,0.068326,-0.576103,-266.657346,1.037073,64.767534
0.7799,-0.039797,0.02807,0.067042,0.006619,-0.000406,-0.021012,-0.004848,-0.480649,0.068312,-0.576103,-266.657346,1.037073,64.767534
0.799,-0.039184,0.028218,0.067551,0.00661,-0.000405,-0.021012,-0.005629,-0.480784,0.067037,-0.65117,-266.657295,1.080737,64.767583
0.8187,-0.039953,0.027899,0.067656,0.006603,-0.000405,-0.021011,-0.004838,-0.480634,0.067504,-0.65117,-266.657295,1.080737,64.767583
0.8389,-0.039796,0.027964,0.067485,0.006597,-0.000404,-0.021011,-0.004838,-0.480634,0.067504,-0.65117,-266.657295,1.080737,64.767583
0.8592,-0.039584,0.027957,0.066092,0.006592,-0.000403,-0.02101,-0.005393,-0.480873,0.067461,-0.726012,-266.657108,1.081992,64.767761
0.8791,-0.040013,0.028087,0.066357,0.006617,-0.000401,-0.021007,-0.005601,-0.480896,0.066894,-0.726012,-266.657108,1.081992,64.767761
0.8987,-0.039807,0.027666,0.065883,0.006638,-0.000399,-0.021004,-0.006172,-0.480787,0.066303,-0.801136,-266.656574,1.083104,64.768269
0.9189,-0.040041,0.028192,0.06626,0.006679,-0.000394,-0.021,-0.006225,-0.481188,0.065918,-0.801136,-266.656574,1.083104,64.768269
0.9388,-0.039797,0.028049,0.066916,0.006714,-0.000391,-0.020998,-0.006225,-0.481188,0.065918,-0.801136,-266.656574,1.083104,64.768269
0.959,-0.039253,0.027681,0.067278,0.006742,-0.000388,-0.020997,-0.005621,-0.480799,0.066736,-0.876001,-266.655253,1.080307,64.769527
0.9788,-0.039179,0.027831,0.067464,0.006732,-0.000388,-0.021001,-0.005332,-0.480955,0.066947,-0.876001,-266.655253,1.080307,64.769527
0.999,-0.039176,0.027972,0.06596,0.006724,-0.000388,-0.021003,-0.004691,-0.480999,0.067181,-0.951638,-266.652617,1.074022,64.772041
1.0188,-0.038992,0.028299,0.065901,0.006723,-0.000387,-0.021225,-0.005476,-0.480926,0.066057,-0.951638,-266.652617,1.074022,64.772041
1.039,-0.039192,0.027815,0.066947,0.006722,-0.000387,-0.02139,-0.005476,-0.480926,0.066057,-0.951638,-266.652617,1.074022,64.772041
1.059,-0.038665,0.028149,0.066639,0.00672,-0.000386,-0.021512,-0.004864,-0.481032,0.066343,-1.025992,-266.648434,1.075269,64.77603
1.079,-0.038874,0.028252,0.065893,0.006692,-0.000387,-0.021786,-0.004772,-0.480899,0.066397,-1.025992,-266.648434,1.075269,64.77603
1.0987,-0.037768,0.027687,0.064435,0.006668,-0.000387,-0.021992,-0.005102,-0.480639,0.065289,-1.101429,-266.643064,1.085785,64.781156
1.1188,-0.037365,0.028075,0.064958,0.006656,-0.000387,-0.022362,-0.004934,-0.481201,0.064479,-1.101429,-266.643064,1.085785,64.781156
1.139,-0.03794,0.028294,0.064426,0.006645,-0.000386,-0.022642,-0.004934,-0.481201,0.064479,-1.101429,-266.643064,1.085785,64.781156
1.1587,-0.03644,0.028338,0.063853,0.006634,-0.000386,-0.022855,-0.004829,-0.480646,0.063515,-1.121237,-266.636987,1.098256,64.786958
1.1789,-0.037035,0.028239,0.063209,0.006604,-0.000386,-0.023234,-0.004415,-0.480636,0.063548,-1.121237,-266.636987,1.098256,64.786958
1.1989,-0.035911,0.028272,0.063253,0.006578,-0.000386,-0.023529,-0.00461,-0.480741,0.062487,-1.13759,-266.630726,1.116152,64.792943
1.2188,-0.035674,0.028309,0.063407,0.006532,-0.000386,-0.023935,-0.003748,-0.480711,0.063147,-1.13759,-266.630726,1.116152,64.792943
1.2389,-0.035954,0.028216,0.063827,0.006492,-0.000386,-0.024257,-0.003748,-0.480711,0.063147,-1.13759,-266.630726,1.116152,64.792943
1.2586,-0.034815,0.028296,0.06168,0.006457,-0.000386,-0.024512,-0.003151,-0.480744,0.062849,-1.15144,-266.624298,1.131108,64.799092
1.2787,-0.035183,0.027881,0.061076,0.006409,-0.000387,-0.024863,-0.003213,-0.48074,0.062254,-1.15144,-266.624298,1.131108,64.799092
1.2991,-0.033924,0.028553,0.060894,0.006367,-0.000387,-0.025145,-0.003852,-0.481168,0.06031,-1.172765,-266.617738,1.153983,64.805372
1.3192,-0.034068,0.028586,0.05911,0.006323,-0.000388,-0.025493,-0.002962,-0.48056,0.060804,-1.172765,-266.617738,1.153983,64.805372
1.339,-0.033935,0.028832,0.060521,0.006284,-0.000388,-0.025775,-0.002962,-0.48056,0.060804,-1.172765,-266.617738,1.153983,64.805372
1.3591,-0.03306,0.028456,0.059861,0.006251,-0.000389,-0.026003,-0.002823,-0.480234,0.059476,-1.186496,-266.610997,1.168654,64.81183
1.3789,-0.033269,0.028257,0.059719,0.006212,-0.000389,-0.026297,-0.002682,-0.480395,0.059511,-1.186496,-266.610997,1.168654,64.81183
1.3988,-0.03221,0.028409,0.056972,0.006178,-0.00039,-0.026536,-0.002631,-0.480834,0.058893,-1.204004,-266.604097,1.187317,64.818443
1.4186,-0.031938,0.028464,0.058982,0.006166,-0.00039,-0.026811,-0.003111,-0.48077,0.057105,-1.204004,-266.604097,1.187317,64.818443
1.4389,-0.031979,0.028405,0.058514,0.006154,-0.000391,-0.027039,-0.003111,-0.48077,0.057105,-1.204004,-266.604097,1.187317,64.818443
1.4586,-0.030821,0.028247,0.05744,0.006143,-0.000392,-0.027228,-0.001896,-0.480723,0.057407,-1.21445,-266.59703,1.198432,64.825219
1.479,-0.031255,0.028439,0.058277,0.006082,-0.000391,-0.027448,-0.001721,-0.480801,0.057293,-1.21445,-266.59703,1.198432,64.825219
1.4989,-0.030191,0.028132,0.055557,0.006031,-0.000391,-0.027629,-0.001354,-0.480697,0.057407,-1.224424,-266.589818,1.209093,64.832138
1.519,-0.030419,0.028698,0.055253,0.005991,-0.000391,-0.027824,-0.00181,-0.481044,0.055689,-1.224424,-266.589818,1.209093,64.832138
1.5394,-0.029937,0.028608,0.054997,0.005957,-0.000391,-0.027985,-0.00181,-0.481044,0.055689,-1.224424,-266.589818,1.209093,64.832138
1.5589,-0.028944,0.028515,0.054506,0.005927,-0.000391,-0.028118,-0.00165,-0.480623,0.053843,-1.234753,-266.582539,1.220066,64.839125
1.5788,-0.028971,0.028412,0.053543,0.005889,-0.000391,-0.028259,-0.001424,-0.480666,0.053978,-1.234753,-266.582539,1.220066,64.839125
1.5987,-0.02837,0.028848,0.053948,0.005856,-0.00039,-0.028376,-0.001488,-0.480859,0.052652,-1.245333,-266.575152,1.231282,64.846217
1.6188,-0.028202,0.028662,0.051094,0.00581,-0.000389,-0.028491,-0.000915,-0.48045,0.053787,-1.245333,-266.575152,1.231282,64.846217
1.6387,-0.027982,0.028544,0.052398,0.005771,-0.000388,-0.028587,-0.000915,-0.48045,0.053787,-1.245333,-266.575152,1.231282,64.846217
1.6588,-0.027035,0.028615,0.05028,0.005738,-0.000388,-0.028667,-0.001026,-0.48076,0.051212,-1.251612,-266.567687,1.237942,64.853386
1.6787,-0.02712,0.028624,0.051415,0.005722,-0.000388,-0.028744,-0.001152,-0.480752,0.050693,-1.251612,-266.567687,1.237942,64.853386
1.6984,-0.026088,0.028697,0.049559,0.005707,-0.000389,-0.028808,-0.000728,-0.480705,0.050508,-1.26051,-266.5602,1.247391,64.86058
1.7187,-0.026037,0.028526,0.04945,0.005683,-0.000389,-0.028873,-0.000806,-0.48068,0.049598,-1.26051,-266.5602,1.247391,64.86058
1.7388,-0.025865,0.029165,0.047752,0.005663,-0.000389,-0.028928,-0.000806,-0.48068,0.049598,-1.26051,-266.5602,1.247391,64.86058
1.7588,-0.025023,0.028243,0.048689,0.005646,-0.000389,-0.028974,-0.001282,-0.480259,0.046545,-1.263496,-266.552638,1.250508,64.867844
1.7788,-0.025331,0.028784,0.048725,0.005633,-0.00039,-0.029021,-0.000808,-0.480628,0.04729,-1.263496,-266.552638,1.250508,64.867844
1.7985,-0.023864,0.028733,0.045685,0.005623,-0.00039,-0.029061,-0.000311,-0.480614,0.047802,-1.268206,-266.544995,1.255455,64.875188
1.8188,-0.024538,0.028796,0.045151,0.005606,-0.00039,-0.029103,-0.000551,-0.480728,0.045781,-1.268206,-266.544995,1.255455,64.875188
1.8388,-0.023792,0.028284,0.047724,0.005592,-0.000391,-0.029138,-0.000551,-0.480728,0.045781,-1.268206,-266.544995,1.255455,64.875188
1.8589,-0.023089,0.028745,0.045323,0.00558,-0.000391,-0.029167,0.000771,-0.481141,0.046525,-1.270208,-266.537487,1.257535,64.882402
1.8791,-0.023076,0.028937,0.044174,0.005532,-0.000387,-0.029202,0.000492,-0.480975,0.045896,-1.270208,-266.537487,1.257535,64.882402
1.8988,-0.022015,0.028799,0.043314,0.005492,-0.000385,-0.029231,-0.000376,-0.480571,0.043243,-1.273391,-266.529864,1.260872,64.889727
1.9189,-0.022124,0.028279,0.044519,0.005478,-0.000385,-0.029257,3.5e-05,-0.480708,0.043255,-1.273391,-266.529864,1.260872,64.889727
1.9389,-0.021778,0.028775,0.042983,0.005466,-0.000385,-0.02928,3.5e-05,-0.480708,0.043255,-1.273391,-266.529864,1.260872,64.889727
1.9587,-0.020865,0.028816,0.041734,0.005455,-0.000385,-0.029298,0.000367,-0.48076,0.041761,-1.27831,-266.522261,1.266187,64.897036
1.9786,-0.021009,0.028657,0.041555,0.005435,-0.000384,-0.02932,0.000412,-0.480753,0.04161,-1.27831,-266.522261,1.266187,64.897036
1.9986,-0.020324,0.028369,0.040828,0.005418,-0.000383,-0.029337,0.000352,-0.480908,0.040621,-1.280759,-266.514632,1.268746,64.90437
2.019,-0.020014,0.028583,0.040185,0.005401,-0.000383,-0.029356,0.000488,-0.481178,0.040758,-1.280759,-266.514632,1.268746,64.90437
2.039,-0.019822,0.02863,0.039525,0.005387,-0.000382,-0.029371,0.000488,-0.481178,0.040758,-1.280759,-266.514632,1.268746,64.90437
2.0588,-0.019184,0.028754,0.039642,0.005375,-0.000382,-0.029384,0.000558,-0.480979,0.038296,-1.282973,-266.506998,1.271109,64.911711
2.0788,-0.019083,0.02869,0.038203,0.005357,-0.000381,-0.029398,0.000774,-0.480926,0.038699,-1.282973,-266.506998,1.271109,64.911711
2.0984,-0.01812,0.028588,0.037868,0.005342,-0.00038,-0.02941,0.000568,-0.480943,0.037265,-1.285532,-266.49936,1.273837,64.919056
2.1188,-0.017817,0.028681,0.037548,0.005318,-0.000378,-0.029424,0.001141,-0.481038,0.037766,-1.285532,-266.49936,1.273837,64.919056
2.1387,-0.017893,0.029142,0.035982,0.005297,-0.000376,-0.029434,0.001141,-0.481038,0.037766,-1.285532,-266.49936,1.273837,64.919056
2.1586,-0.017266,0.02898,0.038486,0.00528,-0.000375,-0.029443,0.000678,-0.480535,0.034751,-1.287372,-266.49172,1.275815,64.926404
2.1794,-0.017148,0.028841,0.035279,0.005259,-0.000373,-0.029453,0.001386,-0.48058,0.036126,-1.287372,-266.49172,1.275815,64.926404
2.1987,-0.015917,0.028579,0.035454,0.005243,-0.000371,-0.029461,0.001009,-0.480848,0.03434,-1.290749,-266.484067,1.279486,64.93377
2.2192,-0.015912,0.028834,0.033975,0.005204,-0.000367,-0.029472,0.002071,-0.48108,0.035314,-1.290749,-266.484067,1.279486,64.93377
2.2392,-0.015993,0.028598,0.0345,0.005171,-0.000363,-0.02948,0.002071,-0.48108,0.035314,-1.290749,-266.484067,1.279486,64.93377
2.2585,-0.015,0.029217,0.033295,0.005144,-0.00036,-0.029486,0.001818,-0.481107,0.033268,-1.292721,-266.476444,1.281631,64.941108
2.2793,-0.014646,0.028623,0.032543,0.00513,-0.000359,-0.029491,0.001907,-0.480862,0.033138,-1.292721,-266.476444,1.281631,64.941108
2.2985,-0.013602,0.028671,0.032652,0.005119,-0.000358,-0.029495,0.002112,-0.481113,0.031602,-1.297735,-266.468809,1.287176,64.948466
2.3186,-0.013648,0.029116,0.032313,0.005072,-0.000351,-0.029504,0.002975,-0.481063,0.032515,-1.297735,-266.468809,1.287176,64.948466
2.3393,-0.014046,0.028882,0.029872,0.005032,-0.000345,-0.02951,0.002975,-0.481063,0.032515,-1.297735,-266.468809,1.287176,64.948466
2.3589,-0.013032,0.02892,0.029041,0.005,-0.000341,-0.029514,0.001404,-0.480899,0.028622,-1.299068,-266.461177,1.28862,64.955822
2.3789,-0.012983,0.028895,0.030571,0.005026,-0.000345,-0.029513,0.001575,-0.480886,0.02865,-1.299068,-266.461177,1.28862,64.955822
2.3989,-0.011779,0.028887,0.028442,0.005048,-0.000349,-0.029512,0.002765,-0.480872,0.029632,-1.305022,-266.453576,1.295279,64.963161
2.419,-0.011792,0.028748,0.030041,0.005025,-0.000346,-0.029516,0.002736,-0.480904,0.028498,-1.305022,-266.453576,1.295279,64.963161
2.4392,-0.011881,0.028804,0.029219,0.005006,-0.000344,-0.02952,0.002736,-0.480904,0.028498,-1.305022,-266.453576,1.295279,64.963161
2.4593,-0.010706,0.028786,0.029049,0.004991,-0.000342,-0.029522,0.00323,-0.480987,0.027985,-1.30268,-266.445959,1.29262,64.97051
2.4792,-0.010535,0.028747,0.027239,0.004947,-0.000335,-0.029528,0.003612,-0.480993,0.028277,-1.30268,-266.445959,1.29262,64.97051
2.4987,-0.010016,0.028924,0.025214,0.004911,-0.000329,-0.029532,0.003514,-0.48107,0.026298,-1.305554,-266.438314,1.295801,64.97789
2.519,-0.0098,0.02908,0.026184,0.004909,-0.000329,-0.029532,0.0029,-0.480926,0.025255,-1.305554,-266.438314,1.295801,64.97789
2.5392,-0.010032,0.028626,0.025757,0.004907,-0.00033,-0.029532,0.0029,-0.480926,0.025255,-1.305554,-266.438314,1.295801,64.97789
2.559,-0.008984,0.028955,0.024347,0.004906,-0.00033,-0.029532,0.003307,-0.481214,0.024529,-1.309503,-266.430742,1.300254,64.985209
2.5786,-0.00892,0.0292,0.024376,0.004888,-0.000328,-0.029534,0.003382,-0.481083,0.024312,-1.309503,-266.430742,1.300254,64.985209
2.5989,-0.007816,0.028789,0.022743,0.004873,-0.000326,-0.029535,0.003666,-0.480655,0.023438,-1.309803,-266.423139,1.300532,64.992558
2.6187,-0.008002,0.028844,0.023711,0.004849,-0.000322,-0.029536,0.00378,-0.481043,0.022756,-1.309803,-266.423139,1.300532,64.992558
2.6387,-0.007978,0.028892,0.023656,0.004829,-0.00032,-0.029537,0.00378,-0.481043,0.022756,-1.309803,-266.423139,1.300532,64.992558
2.659,-0.006628,0.029138,0.021814,0.004813,-0.000317,-0.029537,0.004289,-0.480974,0.022422,-1.31142,-266.415552,1.30233,64.999894
2.6789,-0.007034,0.029268,0.021726,0.00478,-0.000312,-0.029538,0.004397,-0.48088,0.022032,-1.31142,-266.415552,1.30233,64.999894
2.6986,-0.005643,0.028716,0.018902,0.004753,-0.000308,-0.029539,0.004199,-0.480618,0.020785,-1.314383,-266.407948,1.305614,65.007251
2.7191,-0.005876,0.02894,0.020577,0.004747,-0.00031,-0.029525,0.004021,-0.481144,0.019017,-1.314383,-266.407948,1.305614,65.007251
2.7392,-0.006172,0.029177,0.020314,0.004743,-0.000312,-0.029514,0.004021,-0.481144,0.019017,-1.314383,-266.407948,1.305614,65.007251
2.7588,-0.00518,0.028856,0.017896,0.004739,-0.000314,-0.029505,0.004389,-0.480727,0.019062,-1.317319,-266.400384,1.308904,65.014578
2.7787,-0.004973,0.029351,0.018966,0.004731,-0.000314,-0.029493,0.004239,-0.480858,0.018474,-1.317319,-266.400384,1.308904,65.014578
2.799,-0.003735,0.028559,0.017181,0.004725,-0.000315,-0.029483,0.00485,-0.480565,0.018027,-1.317865,-266.392809,1.309303,65.02191
2.8191,-0.003553,0.028899,0.017222,0.004694,-0.00031,-0.029461,0.005019,-0.481294,0.017209,-1.317865,-266.392809,1.309303,65.02191
2.839,-0.003449,0.029124,0.017807,0.004669,-0.000306,-0.029443,0.005019,-0.481294,0.017209,-1.317865,-266.392809,1.309303,65.02191
2.8588,-0.002911,0.028925,0.015644,0.004648,-0.000302,-0.029428,0.00583,-0.480805,0.016572,-1.31843,-266.385241,1.309833,65.029235
2.8789,-0.003033,0.028838,0.014742,0.004619,-0.000295,-0.029389,0.005543,-0.480891,0.016053,-1.31843,-266.385241,1.309833,65.029235
2.8984,-0.001688,0.028915,0.013311,0.004595,-0.000289,-0.029358,0.004633,-0.481114,0.013806,-1.321733,-266.377701,1.313574,65.036541
2.9188,-0.001682,0.028714,0.016049,0.004578,-0.000282,-0.029154,0.005066,-0.481046,0.013307,-1.321733,-266.377701,1.313574,65.036541
2.9389,-0.00191,0.028869,0.015698,0.004566,-0.000277,-0.029001,0.005066,-0.481046,0.013307,-1.321733,-266.377701,1.313574,65.036541
2.9587,-0.00066,0.028807,0.013173,0.004558,-0.000274,-0.028886,0.006288,-0.481077,0.01447,-1.323751,-266.37017,1.315993,65.043847
2.9792,-0.001062,0.029079,0.011754,0.004518,-0.000263,-0.028848,0.006215,-0.481108,0.013791,-1.323751,-266.37017,1.315993,65.043847
2.9985,0.00034,0.028909,0.010516,0.004485,-0.000256,-0.028819,0.005078,-0.480893,0.010829,-1.321681,-266.362791,1.314166,65.051015
3.0189,-8.1e-05,0.028931,0.012031,0.004446,-0.000242,-0.028341,0.005653,-0.481048,0.010497,-1.321681,-266.362791,1.314166,65.051015
3.0386,3.6e-05,0.028794,0.009832,0.004419,-0.000234,-0.028,0.005653,-0.481048,0.010497,-1.321681,-266.362791,1.314166,65.051015
3.0585,0.000939,0.028947,0.010048,0.004401,-0.000231,-0.027759,0.005237,-0.48119,0.008627,-1.32473,-266.355419,1.317783,65.058188
3.079,0.000793,0.028998,0.009894,0.004377,-0.000218,-0.027277,0.005601,-0.481124,0.009076,-1.32473,-266.355419,1.317783,65.058188
3.099,0.002192,0.029132,0.008553,0.004362,-0.000213,-0.026948,0.005979,-0.480983,0.009013,-1.320099,-266.348339,1.313476,65.06509
3.1189,0.001783,0.028579,0.009417,0.004322,-0.000198,-0.026591,0.006509,-0.480862,0.008549,-1.320099,-266.348339,1.313476,65.06509
3.1386,0.001782,0.028517,0.008598,0.004293,-0.00019,-0.026352,0.006509,-0.480862,0.008549,-1.320099,-266.348339,1.313476,65.06509
3.159,0.002839,0.028759,0.005944,0.004272,-0.000185,-0.026193,0.00635,-0.481471,0.007471,-1.31486,-266.341444,1.308462,65.071821
3.1788,0.003144,0.029007,0.006888,0.004239,-0.000161,-0.025515,0.006175,-0.481374,0.006715,-1.31486,-266.341444,1.308462,65.071821
3.1989,0.003759,0.028406,0.007044,0.004221,-0.000149,-0.025062,0.006792,-0.480986,0.006056,-1.312718,-266.33475,1.306957,65.078372
3.2191,0.003679,0.029179,0.005097,0.004177,-0.000137,-0.024837,0.00731,-0.481531,0.006917,-1.312718,-266.33475,1.306957,65.078372
3.2397,0.0037,0.028945,0.005794,0.004144,-0.000129,-0.024692,0.00731,-0.481531,0.006917,-1.312718,-266.33475,1.306957,65.078372
3.2589,0.004485,0.028736,0.005133,0.004119,-0.000125,-0.024601,0.006831,-0.481052,0.004747,-1.304209,-266.32835,1.299208,65.084657
3.279,0.004595,0.028768,0.004512,0.004077,-0.000101,-0.023689,0.006963,-0.481137,0.004784,-1.304209,-266.32835,1.299208,65.084657
3.2989,0.005476,0.029361,0.003081,0.004057,-8.8e-05,-0.023077,0.007027,-0.48123,0.003732,-1.305361,-266.322038,1.301112,65.090872
3.3189,0.005263,0.028998,0.003212,0.004005,-6.6e-05,-0.021812,0.007051,-0.480679,0.003095,-1.305361,-266.322038,1.301112,65.090872
3.3391,0.005387,0.029033,0.001924,0.003984,-5.5e-05,-0.020949,0.007051,-0.480679,0.003095,-1.305361,-266.322038,1.301112,65.090872
3.3587,0.005955,0.028989,0.00204,0.003981,-5.1e-05,-0.02037,0.006536,-0.48097,0.000971,-1.292162,-266.316179,1.288861,65.096664
3.3789,0.005726,0.02922,0.003553,0.003938,-3.9e-05,-0.019051,0.006749,-0.480987,0.00131,-1.292162,-266.316179,1.288861,65.096664
3.3987,0.006951,0.029109,4e-05,0.003925,-3.5e-05,-0.018133,0.00766,-0.480778,0.002928,-1.262266,-266.311097,1.25988,65.101708
3.4189,0.006841,0.028633,0.00089,0.003892,-2.6e-05,-0.017056,0.007037,-0.480881,0.000257,-1.262266,-266.311097,1.25988,65.101708
3.4392,0.007096,0.029099,0.003655,0.003883,-2.2e-05,-0.016305,0.007037,-0.480881,0.000257,-1.262266,-266.311097,1.25988,65.101708
3.4588,0.007578,0.028553,0.001029,0.00389,-2.3e-05,-0.015788,0.009118,-0.480899,0.00292,-1.231143,-266.306533,1.229181,65.106247
3.4789,0.007674,0.028867,0.002641,0.003903,-3.1e-05,-0.016329,0.008725,-0.481121,0.002067,-1.231143,-266.306533,1.229181,65.106247
3.4989,0.007965,0.029123,-0.001283,0.003909,-3.4e-05,-0.016693,0.009138,-0.481132,0.002167,-1.188173,-266.302577,1.186538,65.110187
3.5186,0.008216,0.02917,-0.000586,0.003865,-2.2e-05,-0.015583,0.007448,-0.480895,-0.001053,-1.188173,-266.302577,1.186538,65.110187
3.5388,0.008489,0.029232,-0.001332,0.003846,-1.5e-05,-0.014788,0.007448,-0.480895,-0.001053,-1.188173,-266.302577,1.186538,65.110187
3.5588,0.008868,0.028897,4.2e-05,0.003844,-1.2e-05,-0.014228,0.00797,-0.480769,-0.002019,-1.205753,-266.298246,1.203516,65.114492
3.5789,0.008364,0.028553,-0.001226,0.00382,-3e-06,-0.013753,0.008375,-0.48091,-0.001234,-1.205753,-266.298246,1.203516,65.114492
3.5984,0.009412,0.029107,-0.000758,0.003809,2e-06,-0.013416,0.007851,-0.481447,-0.001643,-1.154848,-266.294752,1.153841,65.117978
3.6188,0.009356,0.028958,-0.000461,0.003802,6e-06,-0.013283,0.008925,-0.480943,-0.000859,-1.154848,-266.294752,1.153841,65.117978
3.6388,0.009286,0.028941,-0.002642,0.003798,9e-06,-0.013181,0.008925,-0.480943,-0.000859,-1.154848,-266.294752,1.153841,65.117978
3.6586,0.009898,0.029234,-0.002828,0.003796,1.1e-05,-0.013101,0.008096,-0.481057,-0.003196,-1.135531,-266.291176,1.135754,65.121556
3.6791,0.009664,0.028647,0.000697,0.003764,1.5e-05,-0.012376,0.008262,-0.480937,-0.003109,-1.135531,-266.291176,1.135754,65.121556
3.6989,0.010263,0.02904,-0.00184,0.00375,1.7e-05,-0.011854,0.010139,-0.481353,0.000281,-1.127315,-266.287649,1.128412,65.125091
3.7189,0.010363,0.028736,-0.004572,0.003748,2e-05,-0.011873,0.009404,-0.480994,-0.001671,-1.127315,-266.287649,1.128412,65.125091
3.7391,0.010194,0.02877,-0.000947,0.003746,2.4e-05,-0.011874,0.009404,-0.480994,-0.001671,-1.127315,-266.287649,1.128412,65.125091
3.7587,0.010535,0.028914,-0.003058,0.003744,2.8e-05,-0.011867,0.009862,-0.48123,-0.001423,-1.091951,-266.284511,1.093837,65.128241
3.7785,0.010871,0.028724,-0.004851,0.003726,3.7e-05,-0.011686,0.009512,-0.481169,-0.002157,-1.091951,-266.284511,1.093837,65.128241
3.7986,0.011334,0.028929,-0.004703,0.003714,4.4e-05,-0.011552,0.008516,-0.48127,-0.005227,-1.092395,-266.281267,1.095571,65.131505
3.8185,0.011365,0.029121,-0.003571,0.003678,4.1e-05,-0.010841,0.008903,-0.481084,-0.00477,-1.092395,-266.281267,1.095571,65.131505
3.8386,0.011046,0.028649,-0.004333,0.003658,3.8e-05,-0.010313,0.008903,-0.481084,-0.00477,-1.092395,-266.281267,1.095571,65.131505
3.8589,0.011509,0.028959,-0.003651,0.003651,3.4e-05,-0.009923,0.008992,-0.481345,-0.004816,-1.083697,-266.278099,1.088827,65.134704
3.8789,0.011557,0.02926,-0.004758,0.003647,3.5e-05,-0.009696,0.009273,-0.481221,-0.004404,-1.083697,-266.278099,1.088827,65.134704
3.8985,0.012037,0.028715,-0.005499,0.003648,3.6e-05,-0.00953,0.009236,-0.480734,-0.005043,-1.026068,-266.275566,1.031067,65.137258
3.9187,0.011963,0.028671,-0.006589,0.003636,3.4e-05,-0.009192,0.009238,-0.481228,-0.005472,-1.026068,-266.275566,1.031067,65.137258
3.939,0.011996,0.028871,-0.005458,0.003632,3.1e-05,-0.008942,0.009238,-0.481228,-0.005472,-1.026068,-266.275566,1.031067,65.137258
3.9586,0.012482,0.0289,-0.005296,0.003633,2.9e-05,-0.008757,0.009364,-0.481121,-0.005854,-1.008196,-266.272857,1.013761,65.139991
3.9791,0.012696,0.028602,-0.007143,0.003627,2.9e-05,-0.008577,0.00955,-0.48111,-0.005673,-1.008196,-266.272857,1.013761,65.139991
3.9985,0.012946,0.02888,-0.005898,0.003625,2.9e-05,-0.008443,0.009164,-0.481385,-0.007411,-0.971566,-266.270386,0.976585,65.142481
4.0186,0.013121,0.029242,-0.007378,0.003611,3e-05,-0.008274,0.009877,-0.481135,-0.006041,-0.971566,-266.270386,0.976585,65.142481
4.0389,0.013108,0.028781,-0.005024,0.003602,3.2e-05,-0.008148,0.009877,-0.481135,-0.006041,-0.971566,-266.270386,0.976585,65.142481
4.0586,0.013058,0.028928,-0.005782,0.003597,3.3e-05,-0.008055,0.010696,-0.481212,-0.005374,-0.955418,-266.267899,0.960624,65.144986
4.0787,0.013187,0.029183,-0.005446,0.003585,4.1e-05,-0.008062,0.010475,-0.481152,-0.00558,-0.955418,-266.267899,0.960624,65.144986
4.0986,0.014101,0.02893,-0.004398,0.003574,4.7e-05,-0.008063,0.010523,-0.480809,-0.005699,-0.9363,-266.265494,0.942641,65.147412
4.1188,0.01406,0.028998,-0.007938,0.003551,6.6e-05,-0.0083,0.011751,-0.481043,-0.00452,-0.9363,-266.265494,0.942641,65.147412
4.1388,0.013627,0.028815,-0.006255,0.003526,8.2e-05,-0.00846,0.011751,-0.481043,-0.00452,-0.9363,-266.265494,0.942641,65.147412
4.159,0.01404,0.028768,-0.007942,0.003503,9.7e-05,-0.008567,0.010586,-0.481174,-0.006592,-0.93838,-266.263081,0.947526,65.149855
4.179,0.014171,0.028507,-0.006244,0.003482,8.7e-05,-0.008164,0.01036,-0.481191,-0.007182,-0.93838,-266.263081,0.947526,65.149855
4.1989,0.014481,0.029022,-0.007872,0.003469,7.9e-05,-0.007861,0.011092,-0.481481,-0.006505,-0.972216,-266.260702,0.989328,65.152296
4.219,0.014138,0.028763,-0.007211,0.003456,7e-05,-0.00756,0.010525,-0.481006,-0.007769,-0.972216,-266.260702,0.989328,65.152296
4.2387,0.01456,0.029102,-0.007518,0.003449,6.2e-05,-0.007332,0.010525,-0.481006,-0.007769,-0.972216,-266.260702,0.989328,65.152296
4.2588,0.014699,0.028768,-0.008949,0.003448,5.5e-05,-0.007162,0.010865,-0.480881,-0.007833,-0.93716,-266.258457,0.952858,65.15459
4.2792,0.01455,0.028838,-0.007401,0.003443,4.6e-05,-0.00697,0.010585,-0.481015,-0.008322,-0.93716,-266.258457,0.952858,65.15459
4.2992,0.015459,0.028809,-0.010532,0.003443,3.9e-05,-0.006825,0.010879,-0.481147,-0.007617,-0.897148,-266.256364,0.909339,65.156716
4.3192,0.014996,0.029141,-0.007634,0.00345,2.4e-05,-0.006564,0.010161,-0.481161,-0.010292,-0.897148,-266.256364,0.909339,65.156716
4.3392,0.015173,0.028639,-0.008289,0.003459,1e-05,-0.006362,0.010161,-0.481161,-0.010292,-0.897148,-266.256364,0.909339,65.156716
4.3589,0.01555,0.028795,-0.009078,0.00347,-2e-06,-0.006207,0.011087,-0.481343,-0.008569,-0.875776,-266.254249,0.884986,65.158855
4.3791,0.015473,0.029014,-0.010261,0.003461,1e-06,-0.006193,0.011035,-0.481278,-0.008811,-0.875776,-266.254249,0.884986,65.158855
4.3985,0.015441,0.029282,-0.00974,0.003453,3e-06,-0.006183,0.010341,-0.48096,-0.010442,-0.829884,-266.252357,0.82923,65.160746
4.4188,0.01561,0.028531,-0.009077,0.003465,-6e-06,-0.006083,0.010467,-0.480716,-0.009809,-0.829884,-266.252357,0.82923,65.160746
4.4391,0.015596,0.029108,-0.007766,0.003476,-1.5e-05,-0.006007,0.010467,-0.480716,-0.009809,-0.829884,-266.252357,0.82923,65.160746
4.4588,0.016347,0.028707,-0.00889,0.003486,-2.2e-05,-0.005948,0.01178,-0.480877,-0.008024,-0.829621,-266.250309,0.83046,65.162796
4.4789,0.016295,0.029029,-0.010637,0.003464,-7e-06,-0.006038,0.011811,-0.481041,-0.008411,-0.829621,-266.250309,0.83046,65.162796
4.4984,0.016178,0.02921,-0.010182,0.003444,6e-06,-0.006103,0.010979,-0.480944,-0.010822,-0.809097,-266.248332,0.803005,65.16476
4.5187,0.016356,0.028495,-0.009792,0.003442,0.0,-0.005983,0.01099,-0.48078,-0.010249,-0.809097,-266.248332,0.803005,65.16476
4.5387,0.016411,0.028821,-0.009753,0.003442,-4e-06,-0.00589,0.01099,-0.48078,-0.010249,-0.809097,-266.248332,0.803005,65.16476
4.559,0.016614,0.02859,-0.009133,0.003443,-9e-06,-0.005818,0.011579,-0.481156,-0.010006,-0.82412,-266.246327,0.825663,65.166768
4.5791,0.016562,0.029057,-0.008683,0.00342,-0.0,-0.005802,0.011747,-0.48125,-0.009684,-0.82412,-266.246327,0.825663,65.166768
4.5986,0.017009,0.028961,-0.010763,0.003402,6e-06,-0.00579,0.012242,-0.480925,-0.008865,-0.802398,-266.244381,0.799956,65.168709
4.6193,0.016722,0.028929,-0.00945,0.003391,7e-06,-0.005713,0.01159,-0.481002,-0.010601,-0.802398,-266.244381,0.799956,65.168709
4.6397,0.016902,0.029036,-0.009577,0.003384,7e-06,-0.005653,0.01159,-0.481002,-0.010601,-0.802398,-266.244381,0.799956,65.168709
4.6589,0.017368,0.028822,-0.010295,0.003378,7e-06,-0.005606,0.01216,-0.480942,-0.00982,-0.803828,-266.242421,0.805638,65.170672
4.6789,0.01726,0.02865,-0.01075,0.003359,1.5e-05,-0.005605,0.012159,-0.481027,-0.01004,-0.803828,-266.242421,0.805638,65.170672
4.6985,0.017722,0.028946,-0.012907,0.003344,2.2e-05,-0.005604,0.011885,-0.481322,-0.010927,-0.791096,-266.240509,0.793278,65.172589
4.7188,0.017163,0.028702,-0.011288,0.003359,1.3e-05,-0.005475,0.011212,-0.481039,-0.012738,-0.791096,-266.240509,0.793278,65.172589
4.7387,0.017928,0.028788,-0.009806,0.003373,6e-06,-0.005373,0.011212,-0.481039,-0.012738,-0.791096,-266.240509,0.793278,65.172589
4.7592,0.018039,0.028711,-0.009921,0.003386,-1e-06,-0.005293,0.013068,-0.481188,-0.01004,-0.793796,-266.238603,0.800103,65.174507
4.7795,0.018071,0.029206,-0.010405,0.003346,1.9e-05,-0.005364,0.013048,-0.481218,-0.010019,-0.793796,-266.238603,0.800103,65.174507
4.7987,0.018343,0.028762,-0.012041,0.003312,3.6e-05,-0.005417,0.012869,-0.480767,-0.010567,-0.762372,-266.236802,0.761992,65.176308
4.8192,0.018111,0.02919,-0.011407,0.003302,3.7e-05,-0.005346,0.012268,-0.481162,-0.011916,-0.762372,-266.236802,0.761992,65.176308
4.8391,0.018419,0.029095,-0.011291,0.003294,3.8e-05,-0.005291,0.012268,-0.481162,-0.011916,-0.762372,-266.236802,0.761992,65.176308
4.8586,0.018391,0.028505,-0.013033,0.003289,3.9e-05,-0.005247,0.012797,-0.480872,-0.011514,-0.779372,-266.234972,0.790231,65.178158
4.879,0.018757,0.028782,-0.012277,0.003282,4e-05,-0.005201,0.012383,-0.481108,-0.012159,-0.779372,-266.234972,0.790231,65.178158
4.8986,0.01905,0.028958,-0.01267,0.003278,4.1e-05,-0.005166,0.0126,-0.48118,-0.012443,-0.766312,-266.233155,0.778419,65.179996
4.919,0.018586,0.028912,-0.01274,0.003271,4.3e-05,-0.005122,0.012595,-0.481017,-0.012658,-0.766312,-266.233155,0.778419,65.179996
4.9387,0.018925,0.029112,-0.011286,0.003266,4.5e-05,-0.005088,0.012595,-0.481017,-0.012658,-0.766312,-266.233155,0.778419,65.179996
4.9588,0.019074,0.02881,-0.012307,0.003263,4.7e-05,-0.005061,0.013306,-0.480855,-0.011502,-0.759768,-266.231336,0.772738,65.181838
4.979,0.018819,0.028807,-0.012973,0.003245,5.4e-05,-0.005065,0.013107,-0.48098,-0.011868,-0.759768,-266.231336,0.772738,65.181838
4.9993,0.019144,0.029352,-0.012476,0.00323,6e-05,-0.005068,0.012305,-0.48115,-0.013132,-0.750803,-266.229567,0.765876,65.183632
5.0186,0.019245,0.029165,-0.012104,0.003233,5.9e-05,-0.005044,0.012741,-0.48066,-0.012548,-0.750803,-266.229567,0.765876,65.183632
5.0389,0.019441,0.029416,-0.012322,0.003236,5.7e-05,-0.005026,0.012741,-0.48066,-0.012548,-0.750803,-266.229567,0.765876,65.183632
5.059,0.020167,0.029015,-0.012553,0.003238,5.6e-05,-0.005011,0.013293,-0.480545,-0.012534,-0.754252,-266.227796,0.773702,65.185437
5.0789,0.019927,0.028729,-0.014248,0.00322,6.4e-05,-0.004999,0.013499,-0.480706,-0.012566,-0.754252,-266.227796,0.773702,65.185437
5.0987,0.02024,0.028965,-0.012921,0.003205,7.1e-05,-0.00499,0.012765,-0.481219,-0.014409,-0.747973,-266.226029,0.766284,65.187235
5.1185,0.02006,0.028563,-0.012228,0.003189,8e-05,-0.004968,0.013578,-0.481012,-0.013058,-0.747973,-266.226029,0.766284,65.187235
5.1385,0.020153,0.028716,-0.010865,0.003175,8.7e-05,-0.004951,0.013578,-0.481012,-0.013058,-0.747973,-266.226029,0.766284,65.187235
5.1591,0.020138,0.028836,-0.013608,0.003164,9.2e-05,-0.004937,0.014746,-0.481252,-0.011073,-0.748368,-266.224283,0.771743,65.18902
5.1794,0.020395,0.028884,-0.01345,0.003136,0.000105,-0.004954,0.014132,-0.481197,-0.012128,-0.748368,-266.224283,0.771743,65.18902
5.1991,0.020611,0.029146,-0.012944,0.003113,0.000116,-0.004967,0.013638,-0.481069,-0.013608,-0.745872,-266.222557,0.776419,65.190796
5.2187,0.020747,0.028849,-0.013502,0.003104,0.000121,-0.004948,0.013983,-0.480833,-0.013008,-0.745872,-266.222557,0.776419,65.190796
5.2387,0.020692,0.028824,-0.012815,0.003096,0.000124,-0.004933,0.013983,-0.480833,-0.013008,-0.745872,-266.222557,0.776419,65.190796
5.259,0.021014,0.028995,-0.016214,0.00309,0.000128,-0.00492,0.014286,-0.481131,-0.013022,-0.75303,-266.220859,0.791336,65.19256
5.279,0.020942,0.028933,-0.013233,0.003094,0.000128,-0.004884,0.013672,-0.481052,-0.01435,-0.75303,-266.220859,0.791336,65.19256
5.2987,0.020832,0.028751,-0.013458,0.003098,0.000129,-0.004855,0.014291,-0.48102,-0.013389,-0.749818,-266.219171,0.792243,65.194319
5.3188,0.021028,0.028956,-0.015088,0.003089,0.000133,-0.004847,0.014,-0.481188,-0.01346,-0.749818,-266.219171,0.792243,65.194319
5.3399,0.021103,0.028532,-0.015137,0.003082,0.000137,-0.00484,0.014,-0.481188,-0.01346,-0.749818,-266.219171,0.792243,65.194319
5.3588,0.021537,0.028673,-0.014203,0.003075,0.00014,-0.004835,0.013513,-0.481407,-0.015339,-0.741283,-266.217494,0.784623,65.196067
5.3791,0.021298,0.029023,-0.015819,0.003076,0.000143,-0.004809,0.013848,-0.481352,-0.014897,-0.741283,-266.217494,0.784623,65.196067
5.3985,0.021469,0.028649,-0.013389,0.003077,0.000146,-0.004788,0.013328,-0.480911,-0.015973,-0.74089,-266.21583,0.788217,65.197808
5.4186,0.021258,0.028717,-0.013932,0.003059,0.000155,-0.00479,0.014529,-0.48127,-0.013626,-0.74089,-266.21583,0.788217,65.197808
5.4388,0.021895,0.029017,-0.012596,0.003044,0.000162,-0.004792,0.014529,-0.48127,-0.013626,-0.74089,-266.21583,0.788217,65.197808
5.4588,0.02206,0.028745,-0.012918,0.003031,0.000168,-0.004793,0.0156,-0.480938,-0.012796,-0.734406,-266.214173,0.784247,65.199545
5.4791,0.022172,0.02884,-0.01592,0.002996,0.000185,-0.004813,0.015563,-0.481049,-0.012869,-0.734406,-266.214173,0.784247,65.199545
5.4984,0.022278,0.028667,-0.014662,0.002967,0.000199,-0.004829,0.01415,-0.481091,-0.016072,-0.738534,-266.212537,0.795872,65.201274
5.5189,0.022263,0.028861,-0.015309,0.002964,0.000203,-0.004804,0.014748,-0.481262,-0.014796,-0.738534,-266.212537,0.795872,65.201274
5.5386,0.022197,0.028672,-0.015623,0.002963,0.000206,-0.004783,0.014748,-0.481262,-0.014796,-0.738534,-266.212537,0.795872,65.201274
5.5586,0.02235,0.028821,-0.017265,0.002961,0.000209,-0.004767,0.014353,-0.48126,-0.015824,-0.747532,-266.210931,0.815067,65.202992
5.5789,0.022425,0.029001,-0.015864,0.002982,0.000205,-0.004741,0.01404,-0.481196,-0.016431,-0.747532,-266.210931,0.815067,65.202992
5.5991,0.022716,0.029009,-0.014451,0.003,0.000202,-0.004721,0.014429,-0.48093,-0.016015,-0.739673,-266.209329,0.8115,65.204711
5.6188,0.022661,0.029252,-0.015349,0.002985,0.000209,-0.004719,0.015259,-0.480937,-0.014619,-0.739673,-266.209329,0.8115,65.204711
5.639,0.022775,0.028692,-0.016242,0.002972,0.000215,-0.004717,0.015259,-0.480937,-0.014619,-0.739673,-266.209329,0.8115,65.204711
5.6587,0.022983,0.029012,-0.014643,0.002962,0.00022,-0.004716,0.014617,-0.481234,-0.016439,-0.729466,-266.207724,0.799371,65.206427
5.6785,0.022773,0.028871,-0.015363,0.00296,0.000225,-0.004704,0.014999,-0.48111,-0.015727,-0.729466,-266.207724,0.799371,65.206427
5.6988,0.023398,0.028742,-0.016303,0.002958,0.000228,-0.004695,0.015033,-0.481064,-0.015513,-0.731768,-266.206134,0.808237,65.208139
5.7188,0.023509,0.029248,-0.017087,0.002955,0.000234,-0.004685,0.015084,-0.481179,-0.016241,-0.731768,-266.206134,0.808237,65.208139
5.7384,0.023621,0.029087,-0.015573,0.002953,0.000238,-0.004678,0.015084,-0.481179,-0.016241,-0.731768,-266.206134,0.808237,65.208139
5.7589,0.024055,0.028757,-0.014659,0.002951,0.000242,-0.004671,0.015803,-0.480844,-0.015769,-0.728449,-266.20455,0.808081,65.20985
5.7789,0.024157,0.028946,-0.015667,0.002926,0.000256,-0.004673,0.016135,-0.480984,-0.015338,-0.728449,-266.20455,0.808081,65.20985
5.7989,0.023766,0.029194,-0.01727,0.002905,0.000267,-0.004674,0.016261,-0.480985,-0.015815,-0.72429,-266.202974,0.809279,65.21156
5.819,0.023892,0.029137,-0.017758,0.002917,0.000264,-0.004663,0.01508,-0.480752,-0.017148,-0.72429,-266.202974,0.809279,65.21156
5.8395,0.023961,0.029105,-0.017305,0.002928,0.000262,-0.004654,0.01508,-0.480752,-0.017148,-0.72429,-266.202974,0.809279,65.21156
5.8591,0.024375,0.029029,-0.0174,0.002937,0.00026,-0.004648,0.015259,-0.480809,-0.017502,-0.727622,-266.201423,0.821402,65.213261
5.8791,0.024243,0.029282,-0.016867,0.002937,0.000263,-0.004642,0.015367,-0.480841,-0.017484,-0.727622,-266.201423,0.821402,65.213261
5.8992,0.024547,0.028898,-0.016961,0.002938,0.000266,-0.004638,0.015735,-0.480638,-0.017015,-0.720408,-266.199862,0.812163,65.214966
5.9193,0.024321,0.029164,-0.017869,0.002923,0.000275,-0.004637,0.015887,-0.480992,-0.016974,-0.720408,-266.199862,0.812163,65.214966
5.9394,0.024623,0.029076,-0.016345,0.002911,0.000283,-0.004636,0.015887,-0.480992,-0.016974,-0.720408,-266.199862,0.812163,65.214966
5.9589,0.024875,0.028493,-0.018748,0.002902,0.00029,-0.004635,0.016411,-0.480847,-0.01654,-0.718133,-266.198302,0.812078,65.216674
5.9792,0.024669,0.028844,-0.017712,0.002891,0.000298,-0.004633,0.015986,-0.481074,-0.017446,-0.718133,-266.198302,0.812078,65.216674
5.9987,0.024836,0.029117,-0.017324,0.002881,0.000304,-0.004631,0.015729,-0.481069,-0.01786,-0.719256,-266.196762,0.821798,65.218375
6.0188,0.024979,0.028874,-0.01724,0.002877,0.000308,-0.004629,0.015982,-0.480829,-0.017379,-0.719256,-266.196762,0.821798,65.218375
6.0388,0.024598,0.029014,-0.015791,0.002873,0.000311,-0.004627,0.015982,-0.480829,-0.017379,-0.719256,-266.196762,0.821798,65.218375
6.0589,0.025466,0.029089,-0.016912,0.00287,0.000313,-0.004625,0.016665,-0.480912,-0.015985,-0.719449,-266.19523,0.827215,65.220077
6.0791,0.025129,0.02899,-0.015894,0.002849,0.000325,-0.004628,0.01675,-0.480881,-0.01638,-0.719449,-266.19523,0.827215,65.220077
6.0984,0.025531,0.028689,-0.018844,0.002831,0.000334,-0.00463,0.017116,-0.480937,-0.016042,-0.718869,-266.193705,0.829989,65.221778
6.1191,0.025482,0.028811,-0.017849,0.00283,0.000336,-0.004626,0.016033,-0.481194,-0.018598,-0.718869,-266.193705,0.829989,65.221778
6.1391,0.025789,0.029135,-0.018485,0.002829,0.000338,-0.004622,0.016033,-0.481194,-0.018598,-0.718869,-266.193705,0.829989,65.221778
6.1592,0.026131,0.028521,-0.017809,0.002828,0.00034,-0.004619,0.016481,-0.480766,-0.018679,-0.722225,-266.192195,0.840641,65.223476
6.1792,0.025404,0.028817,-0.015906,0.002814,0.000349,-0.004618,0.016729,-0.481025,-0.018342,-0.722225,-266.192195,0.840641,65.223476
6.1987,0.025931,0.028799,-0.017861,0.002802,0.000357,-0.004617,0.017383,-0.481109,-0.016052,-0.720049,-266.190689,0.840911,65.225175
6.2187,0.025948,0.029176,-0.017739,0.002788,0.000366,-0.004617,0.016871,-0.481118,-0.017723,-0.720049,-266.190689,0.840911,65.225175
6.2389,0.025901,0.028721,-0.017847,0.002775,0.000374,-0.004616,0.016871,-0.481118,-0.017723,-0.720049,-266.190689,0.840911,65.225175
6.2588,0.026522,0.028823,-0.018339,0.002765,0.00038,-0.004616,0.016916,-0.481185,-0.01804,-0.720938,-266.189203,0.847953,65.226862
6.279,0.026207,0.029049,-0.017191,0.002753,0.000388,-0.004615,0.017033,-0.481146,-0.018183,-0.720938,-266.189203,0.847953,65.226862
6.2986,0.02659,0.029243,-0.018954,0.002743,0.000394,-0.004614,0.017528,-0.480865,-0.017339,-0.722864,-266.187731,0.858016,65.228551
6.3187,0.026464,0.028747,-0.019894,0.002742,0.000395,-0.004611,0.016986,-0.480684,-0.018809,-0.722864,-266.187731,0.858016,65.228551
6.339,0.026907,0.028738,-0.018876,0.002741,0.000396,-0.004609,0.016986,-0.480684,-0.018809,-0.722864,-266.187731,0.858016,65.228551
6.3595,0.026574,0.028844,-0.018702,0.002741,0.000396,-0.004608,0.017396,-0.481157,-0.019069,-0.723726,-266.186265,0.863961,65.230242
6.3793,0.026827,0.028794,-0.018645,0.002729,0.000404,-0.004608,0.017263,-0.481118,-0.018942,-0.723726,-266.186265,0.863961,65.230242
6.3984,0.026971,0.028969,-0.020045,0.002718,0.00041,-0.004607,0.017407,-0.481106,-0.018793,-0.722857,-266.184806,0.864154,65.231927
6.419,0.026942,0.029312,-0.019268,0.002723,0.000408,-0.004605,0.016814,-0.480944,-0.019938,-0.722857,-266.184806,0.864154,65.231927
6.4387,0.027076,0.029111,-0.019776,0.002727,0.000406,-0.004603,0.016814,-0.480944,-0.019938,-0.722857,-266.184806,0.864154,65.231927
6.459,0.027564,0.028926,-0.018696,0.00273,0.000404,-0.004602,0.017105,-0.480774,-0.019969,-0.723989,-266.183345,0.870323,65.233625
6.4786,0.027245,0.028985,-0.017636,0.002718,0.000412,-0.004603,0.01751,-0.480862,-0.019452,-0.723989,-266.183345,0.870323,65.233625
6.4995,0.027493,0.029417,-0.019237,0.002708,0.000418,-0.004603,0.018338,-0.480924,-0.017781,-0.722559,-266.1819,0.866873,65.2353
6.5189,0.027337,0.029239,-0.01976,0.002699,0.000423,-0.004603,0.017747,-0.480528,-0.019111,-0.722559,-266.1819,0.866873,65.2353
6.5393,0.027429,0.029128,-0.019997,0.002691,0.000428,-0.004603,0.017747,-0.480528,-0.019111,-0.722559,-266.1819,0.866873,65.2353
6.5588,0.027883,0.029048,-0.018706,0.002685,0.000432,-0.004603,0.017345,-0.480755,-0.02019,-0.723889,-266.180455,0.872965,65.236984
6.5794,0.027921,0.02907,-0.01916,0.002676,0.000437,-0.004603,0.017764,-0.480797,-0.019609,-0.723889,-266.180455,0.872965,65.236984
6.5991,0.027643,0.02901,-0.020166,0.002668,0.000442,-0.004603,0.018237,-0.480825,-0.019308,-0.725177,-266.17902,0.879311,65.238669
6.6192,0.028269,0.029062,-0.019431,0.002668,0.000442,-0.004601,0.01745,-0.480879,-0.02009,-0.725177,-266.17902,0.879311,65.238669
6.6393,0.028235,0.02901,-0.0194,0.002668,0.000442,-0.0046,0.01745,-0.480879,-0.02009,-0.725177,-266.17902,0.879311,65.238669
6.6588,0.028237,0.029265,-0.019642,0.002668,0.000442,-0.0046,0.018453,-0.480878,-0.019592,-0.726093,-266.177594,0.883782,65.24035
6.6786,0.028514,0.029157,-0.021482,0.002649,0.000454,-0.004601,0.018373,-0.48078,-0.019634,-0.726093,-266.177594,0.883782,65.24035
6.6985,0.028581,0.028952,-0.020133,0.002634,0.000463,-0.004602,0.017645,-0.480713,-0.021629,-0.725771,-266.176167,0.883659,65.242032
6.7187,0.0285,0.029183,-0.02021,0.002622,0.000471,-0.004602,0.018259,-0.480923,-0.020274,-0.725771,-266.176167,0.883659,65.242032
6.7388,0.028559,0.02934,-0.02099,0.002612,0.000477,-0.004602,0.018259,-0.480923,-0.020274,-0.725771,-266.176167,0.883659,65.242032
6.7588,0.028479,0.029258,-0.019824,0.002603,0.000482,-0.004602,0.017966,-0.480531,-0.021183,-0.728002,-266.174759,0.893366,65.24371
6.7789,0.028618,0.029093,-0.019732,0.002604,0.000482,-0.004601,0.018142,-0.480574,-0.020654,-0.728002,-266.174759,0.893366,65.24371
6.7987,0.029089,0.029292,-0.019533,0.002604,0.000481,-0.004599,0.018639,-0.480794,-0.019879,-0.729792,-266.173354,0.901807,65.245399
6.8189,0.028848,0.029252,-0.020426,0.002583,0.000495,-0.004601,0.019096,-0.480623,-0.019564,-0.729792,-266.173354,0.901807,65.245399
6.8396,0.02908,0.028965,-0.020943,0.002566,0.000506,-0.004602,0.019096,-0.480623,-0.019564,-0.729792,-266.173354,0.901807,65.245399
6.8587,0.029319,0.029267,-0.020413,0.002551,0.000515,-0.004602,0.01851,-0.480905,-0.021137,-0.72949,-266.171956,0.901365,65.247078
6.8791,0.029198,0.028943,-0.021057,0.002546,0.000518,-0.004601,0.018685,-0.48079,-0.020863,-0.72949,-266.171956,0.901365,65.247078
6.8985,0.029767,0.029165,-0.019682,0.002542,0.00052,-0.0046,0.01854,-0.48093,-0.021202,-0.732822,-266.170598,0.916383,65.248736
6.9187,0.029542,0.029118,-0.021187,0.002519,0.000535,-0.004602,0.019627,-0.480753,-0.019826,-0.732822,-266.170598,0.916383,65.248736
6.9391,0.029456,0.029192,-0.02214,0.002501,0.000547,-0.004603,0.019627,-0.480753,-0.019826,-0.732822,-266.170598,0.916383,65.248736
6.9587,0.029694,0.029179,-0.020887,0.002485,0.000557,-0.004603,0.018272,-0.480664,-0.022333,-0.73321,-266.169228,0.918786,65.250414
6.9787,0.029771,0.029247,-0.020775,0.002494,0.000551,-0.0046,0.018601,-0.480681,-0.021762,-0.73321,-266.169228,0.918786,65.250414
6.9986,0.029988,0.029395,-0.023095,0.002502,0.000545,-0.004597,0.019256,-0.480627,-0.020921,-0.736734,-266.167894,0.935287,65.252078
7.0187,0.029769,0.029282,-0.022045,0.002518,0.000535,-0.004594,0.018309,-0.480482,-0.022906,-0.736734,-266.167894,0.935287,65.252078
7.0386,0.029863,0.028997,-0.020231,0.002532,0.000526,-0.004592,0.018309,-0.480482,-0.022906,-0.736734,-266.167894,0.935287,65.252078
7.0586,0.030207,0.029685,-0.0231,0.002543,0.000518,-0.00459,0.019651,-0.480877,-0.020424,-0.735154,-266.166542,0.929716,65.253754
7.0789,0.030159,0.029252,-0.02203,0.002533,0.000525,-0.004591,0.01916,-0.480588,-0.021547,-0.735154,-266.166542,0.929716,65.253754
7.0985,0.030249,0.029233,-0.021571,0.002524,0.00053,-0.004592,0.019005,-0.48061,-0.022175,-0.73197,-266.165181,0.917412,65.25542
7.1187,0.030481,0.029062,-0.022227,0.002515,0.000536,-0.004593,0.019231,-0.480645,-0.021633,-0.73197,-266.165181,0.917412,65.25542
7.1386,0.030375,0.029428,-0.020903,0.002508,0.000541,-0.004594,0.019231,-0.480645,-0.021633,-0.73197,-266.165181,0.917412,65.25542
7.1591,0.030553,0.029007,-0.022115,0.002501,0.000545,-0.004594,0.019821,-0.480441,-0.021095,-0.73334,-266.163823,0.922899,65.257092
7.1786,0.03057,0.029248,-0.024087,0.002489,0.000553,-0.004595,0.01961,-0.480613,-0.021534,-0.73334,-266.163823,0.922899,65.257092
7.1989,0.031385,0.029106,-0.024152,0.002478,0.00056,-0.004596,0.018366,-0.480589,-0.024234,-0.734911,-266.162474,0.929622,65.258765
7.2189,0.031056,0.029398,-0.023519,0.002482,0.000558,-0.004594,0.019011,-0.480731,-0.024167,-0.734911,-266.162474,0.929622,65.258765
7.2385,0.031051,0.029383,-0.023672,0.002485,0.000555,-0.004593,0.019011,-0.480731,-0.024167,-0.734911,-266.162474,0.929622,65.258765
7.259,0.031625,0.029305,-0.024464,0.002488,0.000554,-0.004592,0.019084,-0.480453,-0.023864,-0.736395,-266.161138,0.936262,65.260435
7.2789,0.031213,0.029538,-0.024277,0.002491,0.000552,-0.004591,0.019123,-0.480487,-0.024132,-0.736395,-266.161138,0.936262,65.260435
7.2984,0.031328,0.029178,-0.022245,0.002493,0.00055,-0.004591,0.018913,-0.480296,-0.024424,-0.735533,-266.159794,0.933274,65.26211
7.3187,0.031177,0.029824,-0.024313,0.002477,0.000561,-0.004593,0.019896,-0.480661,-0.022438,-0.735533,-266.159794,0.933274,65.26211
7.339,0.031662,0.029289,-0.022789,0.002463,0.00057,-0.004594,0.019896,-0.480661,-0.022438,-0.735533,-266.159794,0.933274,65.26211
7.3589,0.031834,0.029812,-0.025138,0.002451,0.000578,-0.004595,0.020145,-0.480558,-0.02298,-0.735064,-266.158448,0.931499,65.263783
7.3789,0.031487,0.02909,-0.024874,0.002451,0.000578,-0.004594,0.01969,-0.480336,-0.023897,-0.735064,-266.158448,0.931499,65.263783
7.3986,0.032005,0.029774,-0.023177,0.002451,0.000578,-0.004593,0.01888,-0.480736,-0.025019,-0.737864,-266.157123,0.943909,65.265454
7.419,0.031517,0.029177,-0.023598,0.002445,0.000581,-0.004593,0.020091,-0.480137,-0.023323,-0.737864,-266.157123,0.943909,65.265454
7.4389,0.031855,0.029321,-0.024586,0.00244,0.000584,-0.004593,0.020091,-0.480137,-0.023323,-0.737864,-266.157123,0.943909,65.265454
7.4586,0.031909,0.029168,-0.023628,0.002436,0.000587,-0.004593,0.01942,-0.480503,-0.024777,-0.737764,-266.155804,0.943868,65.267117
7.479,0.032052,0.029367,-0.025007,0.002437,0.000586,-0.004592,0.019612,-0.480577,-0.02433,-0.737764,-266.155804,0.943868,65.267117
7.4984,0.032661,0.029356,-0.024556,0.002438,0.000586,-0.004592,0.019379,-0.480457,-0.025155,-0.738617,-266.154486,0.948009,65.268788
7.5185,0.032382,0.02961,-0.022784,0.002431,0.00059,-0.004592,0.020075,-0.480487,-0.024616,-0.738617,-266.154486,0.948009,65.268788
7.5386,0.032225,0.029612,-0.023805,0.002425,0.000594,-0.004593,0.020075,-0.480487,-0.024616,-0.738617,-266.154486,0.948009,65.268788
7.5584,0.03278,0.029428,-0.024653,0.00242,0.000597,-0.004593,0.020188,-0.480222,-0.023997,-0.738397,-266.15317,0.947439,65.270456
7.5787,0.032155,0.029676,-0.025405,0.002416,0.0006,-0.004593,0.020209,-0.480299,-0.024287,-0.738397,-266.15317,0.947439,65.270456
7.5988,0.032916,0.029287,-0.02402,0.002412,0.000603,-0.004593,0.019277,-0.480143,-0.025551,-0.739489,-266.15186,0.952546,65.272126
7.6189,0.032927,0.029646,-0.025233,0.0024,0.000611,-0.004594,0.020547,-0.480527,-0.024164,-0.739489,-266.15186,0.952546,65.272126
7.6386,0.032789,0.02959,-0.024342,0.002389,0.000618,-0.004594,0.020547,-0.480527,-0.024164,-0.739489,-266.15186,0.952546,65.272126
7.6589,0.033141,0.029506,-0.023445,0.00238,0.000624,-0.004595,0.020477,-0.480236,-0.024534,-0.739947,-266.150554,0.95484,65.273795
7.6789,0.03341,0.029508,-0.025777,0.002372,0.00063,-0.004595,0.020779,-0.480281,-0.02411,-0.739947,-266.150554,0.95484,65.273795
7.6987,0.033156,0.02945,-0.024598,0.002365,0.000635,-0.004595,0.020342,-0.480304,-0.025923,-0.741942,-266.149262,0.964218,65.275465
7.7189,0.033431,0.02984,-0.023806,0.002361,0.000637,-0.004595,0.020593,-0.480387,-0.024719,-0.741942,-266.149262,0.964218,65.275465
7.7389,0.033394,0.029717,-0.02503,0.002358,0.000639,-0.004594,0.020593,-0.480387,-0.024719,-0.741942,-266.149262,0.964218,65.275465
7.7587,0.0335,0.029502,-0.025991,0.002356,0.00064,-0.004594,0.020729,-0.480099,-0.025223,-0.74285,-266.147978,0.968717,65.277135
7.7788,0.033509,0.029633,-0.025066,0.002358,0.000639,-0.004593,0.020545,-0.480189,-0.025557,-0.74285,-266.147978,0.968717,65.277135
7.7986,0.033909,0.029561,-0.024242,0.00236,0.000637,-0.004592,0.020802,-0.480189,-0.025213,-0.743223,-266.1467,0.9711,65.278802
7.819,0.033678,0.029787,-0.02703,0.002342,0.00065,-0.004594,0.021483,-0.480279,-0.024339,-0.743223,-266.1467,0.9711,65.278802
7.839,0.034216,0.029694,-0.024527,0.002327,0.00066,-0.004595,0.021483,-0.480279,-0.024339,-0.743223,-266.1467,0.9711,65.278802
7.8588,0.034262,0.029575,-0.026742,0.002315,0.000669,-0.004596,0.021808,-0.480129,-0.02472,-0.742829,-266.145415,0.969785,65.280477
7.8791,0.03435,0.029494,-0.024888,0.00231,0.000672,-0.004595,0.021335,-0.480173,-0.02557,-0.742829,-266.145415,0.969785,65.280477
7.8993,0.034209,0.029587,-0.026671,0.002305,0.000675,-0.004595,0.021732,-0.480328,-0.025034,-0.745652,-266.14416,0.98322,65.282139
7.9189,0.034307,0.029575,-0.028606,0.002312,0.00067,-0.004593,0.020709,-0.480239,-0.026537,-0.745652,-266.14416,0.98322,65.282139
7.9385,0.034377,0.030035,-0.02681,0.002318,0.000666,-0.004591,0.020709,-0.480239,-0.026537,-0.745652,-266.14416,0.98322,65.282139
7.9592,0.034465,0.029744,-0.026417,0.002324,0.000662,-0.00459,0.020803,-0.479756,-0.027002,-0.74617,-266.142906,0.986031,65.283807
7.9789,0.034706,0.029893,-0.026985,0.002329,0.000658,-0.004589,0.020892,-0.479884,-0.026786,-0.74617,-266.142906,0.986031,65.283807
7.9989,0.035024,0.029698,-0.024866,0.002334,0.000654,-0.004588,0.021021,-0.479903,-0.027132,-0.744689,-266.141641,0.98013,65.285478
8.0191,0.034423,0.029686,-0.026115,0.00231,0.000672,-0.004592,0.022234,-0.480123,-0.025068,-0.744689,-266.141641,0.98013,65.285478
8.0388,0.034655,0.029702,-0.024999,0.00229,0.000686,-0.004594,0.022234,-0.480123,-0.025068,-0.744689,-266.141641,0.98013,65.285478
8.0587,0.035146,0.029826,-0.026945,0.002273,0.000698,-0.004595,0.022005,-0.480113,-0.02519,-0.743921,-266.140375,0.976842,65.287143
8.0786,0.034845,0.029594,-0.027282,0.002269,0.000701,-0.004595,0.021772,-0.48006,-0.025929,-0.743921,-266.140375,0.976842,65.287143
8.0991,0.035268,0.029918,-0.026849,0.002265,0.000704,-0.004594,0.021006,-0.480196,-0.027428,-0.747828,-266.139141,0.99537,65.288804
8.1189,0.035424,0.029738,-0.025436,0.002268,0.000701,-0.004593,0.021529,-0.479924,-0.026909,-0.747828,-266.139141,0.99537,65.288804
8.139,0.035149,0.029939,-0.026402,0.002271,0.000699,-0.004592,0.021529,-0.479924,-0.026909,-0.747828,-266.139141,0.99537,65.288804
8.1593,0.035337,0.030121,-0.028964,0.002273,0.000697,-0.004591,0.021781,-0.479856,-0.026595,-0.748281,-266.137904,0.997775,65.290478
8.179,0.03514,0.029208,-0.027743,0.002282,0.00069,-0.004589,0.021302,-0.479776,-0.027573,-0.748281,-266.137904,0.997775,65.290478
8.1987,0.035523,0.03006,-0.027264,0.002289,0.000685,-0.004588,0.021065,-0.480576,-0.027888,-0.747506,-266.136666,0.994841,65.292144
8.2189,0.035473,0.030019,-0.028113,0.002289,0.000685,-0.004588,0.021574,-0.479824,-0.027328,-0.747506,-266.136666,0.994841,65.292144
8.2388,0.035913,0.029606,-0.026421,0.002289,0.000685,-0.004588,0.021574,-0.479824,-0.027328,-0.747506,-266.136666,0.994841,65.292144
8.2586,0.036074,0.029935,-0.027421,0.00229,0.000685,-0.004588,0.022536,-0.48019,-0.026612,-0.746376,-266.135419,0.990012,65.293812
8.2786,0.035726,0.029693,-0.02796,0.002273,0.000697,-0.00459,0.022365,-0.480057,-0.026966,-0.746376,-266.135419,0.990012,65.293812
8.2991,0.035997,0.029826,-0.028954,0.002259,0.000707,-0.004592,0.021542,-0.480088,-0.028106,-0.746349,-266.134172,0.989724,65.29548
8.3189,0.036327,0.029669,-0.028667,0.002269,0.0007,-0.00459,0.021264,-0.47997,-0.028885,-0.746349,-266.134172,0.989724,65.29548
8.339,0.035887,0.030163,-0.028914,0.002277,0.000693,-0.004588,0.021264,-0.47997,-0.028885,-0.746349,-266.134172,0.989724,65.29548
8.3586,0.036125,0.030037,-0.027442,0.002284,0.000688,-0.004587,0.021239,-0.479597,-0.029106,-0.748349,-266.132941,0.999136,65.297148
8.379,0.035861,0.029829,-0.028274,0.002288,0.000686,-0.004587,0.021611,-0.479665,-0.028455,-0.748349,-266.132941,0.999136,65.297148
8.3987,0.036276,0.030116,-0.027979,0.002291,0.000684,-0.004586,0.021517,-0.479947,-0.028422,-0.746513,-266.131697,0.991229,65.298815
8.4187,0.036299,0.029767,-0.027937,0.002286,0.000687,-0.004587,0.021967,-0.479708,-0.028028,-0.746513,-266.131697,0.991229,65.298815
8.4386,0.036689,0.029928,-0.027323,0.002282,0.00069,-0.004588,0.021967,-0.479708,-0.028028,-0.746513,-266.131697,0.991229,65.298815
8.4587,0.036736,0.029951,-0.029994,0.002279,0.000692,-0.004588,0.022853,-0.479855,-0.027515,-0.746133,-266.13045,0.989342,65.300483
8.479,0.036796,0.030174,-0.028286,0.002269,0.000699,-0.00459,0.02229,-0.479838,-0.028545,-0.746133,-266.13045,0.989342,65.300483
8.4986,0.037233,0.03001,-0.028828,0.002261,0.000705,-0.00459,0.022445,-0.479602,-0.028432,-0.747001,-266.129208,0.993014,65.302151
8.5189,0.037424,0.030322,-0.02837,0.002251,0.000712,-0.004591,0.022529,-0.479762,-0.0288,-0.747001,-266.129208,0.993014,65.302151
8.5391,0.037071,0.030404,-0.02908,0.002243,0.000718,-0.004592,0.022529,-0.479762,-0.0288,-0.747001,-266.129208,0.993014,65.302151
8.5593,0.037503,0.030154,-0.030708,0.002237,0.000723,-0.004592,0.022338,-0.479353,-0.029273,-0.748147,-266.127975,0.998357,65.30382
8.5794,0.0376,0.029973,-0.030266,0.002242,0.000718,-0.00459,0.02215,-0.479452,-0.029872,-0.748147,-266.127975,0.998357,65.30382
8.5995,0.037468,0.030121,-0.026845,0.002247,0.000715,-0.004589,0.022239,-0.479772,-0.030414,-0.749629,-266.126753,1.005671,65.305489
8.619,0.037459,0.030304,-0.029273,0.002221,0.000734,-0.004593,0.02364,-0.479701,-0.027183,-0.749629,-266.126753,1.005671,65.305489
8.6389,0.037822,0.030157,-0.028643,0.002199,0.000751,-0.004595,0.02364,-0.479701,-0.027183,-0.749629,-266.126753,1.005671,65.305489
8.659,0.037921,0.029888,-0.030396,0.002181,0.000764,-0.004596,0.023311,-0.479607,-0.028835,-0.748823,-266.125527,1.002415,65.307158
8.6786,0.037846,0.030122,-0.030139,0.002178,0.000766,-0.004595,0.02296,-0.479713,-0.029492,-0.748823,-266.125527,1.002415,65.307158
8.6988,0.0382,0.030102,-0.029469,0.002175,0.000767,-0.004594,0.022547,-0.479624,-0.030284,-0.75281,-266.12434,1.02266,65.308821
8.7188,0.038298,0.030014,-0.030418,0.002171,0.00077,-0.004594,0.023121,-0.479671,-0.029549,-0.75281,-266.12434,1.02266,65.308821
8.7386,0.037712,0.030208,-0.029054,0.002168,0.000772,-0.004593,0.023121,-0.479671,-0.029549,-0.75281,-266.12434,1.02266,65.308821
8.7589,0.03841,0.030173,-0.031123,0.002165,0.000774,-0.004592,0.022989,-0.479548,-0.029246,-0.752955,-266.123147,1.023939,65.310494
8.779,0.038111,0.030086,-0.028933,0.002169,0.000771,-0.004591,0.022817,-0.479557,-0.030032,-0.752955,-266.123147,1.023939,65.310494
8.7989,0.038432,0.030568,-0.030096,0.002173,0.000768,-0.00459,0.023427,-0.479678,-0.02908,-0.753359,-266.12196,1.02679,65.312167
8.8186,0.038314,0.029568,-0.030724,0.002175,0.000766,-0.004589,0.02312,-0.479242,-0.030013,-0.753359,-266.12196,1.02679,65.312167
8.8387,0.038465,0.029925,-0.030387,0.002177,0.000765,-0.004588,0.02312,-0.479242,-0.030013,-0.753359,-266.12196,1.02679,65.312167
8.8588,0.038672,0.030495,-0.029886,0.002178,0.000764,-0.004588,0.023062,-0.47981,-0.030579,-0.752688,-266.120769,1.024142,65.313839
8.8788,0.03847,0.030099,-0.030926,0.002173,0.000767,-0.004588,0.023223,-0.47959,-0.03032,-0.752688,-266.120769,1.024142,65.313839
8.8987,0.03869,0.030261,-0.029576,0.00217,0.00077,-0.004588,0.02277,-0.479634,-0.031074,-0.752268,-266.119576,1.022417,65.31551
8.9188,0.039048,0.030483,-0.029102,0.002162,0.000776,-0.004589,0.023537,-0.479525,-0.029717,-0.752268,-266.119576,1.022417,65.31551
8.9388,0.038699,0.030197,-0.030094,0.002155,0.000781,-0.00459,0.023537,-0.479525,-0.029717,-0.752268,-266.119576,1.022417,65.31551
8.9586,0.039238,0.030044,-0.032141,0.002149,0.000785,-0.00459,0.023445,-0.479542,-0.030286,-0.752797,-266.118387,1.025005,65.317182
8.9787,0.039214,0.0309,-0.029779,0.00215,0.000784,-0.004589,0.023213,-0.4796,-0.031063,-0.752797,-266.118387,1.025005,65.317182
8.9984,0.039404,0.03051,-0.030726,0.00215,0.000784,-0.004589,0.024098,-0.478851,-0.029925,-0.754,-266.117201,1.031154,65.318865
9.0187,0.039486,0.030418,-0.031548,0.002146,0.000787,-0.004589,0.023766,-0.479219,-0.030673,-0.754,-266.117201,1.031154,65.318865
9.0385,0.03928,0.03043,-0.031126,0.002143,0.000789,-0.004589,0.023766,-0.479219,-0.030673,-0.754,-266.117201,1.031154,65.318865
9.0589,0.039525,0.03038,-0.031139,0.00214,0.000791,-0.004589,0.023498,-0.479293,-0.031316,-0.753833,-266.116019,1.030705,65.32054
9.0788,0.039574,0.030236,-0.031099,0.00214,0.000791,-0.004589,0.023573,-0.479324,-0.031263,-0.753833,-266.116019,1.030705,65.32054
9.0987,0.039809,0.030398,-0.032134,0.00214,0.000791,-0.004588,0.023784,-0.479494,-0.031243,-0.754373,-266.114854,1.033706,65.322199
9.1186,0.039717,0.030579,-0.031561,0.002142,0.00079,-0.004588,0.023459,-0.479352,-0.032061,-0.754373,-266.114854,1.033706,65.322199
9.1388,0.039692,0.030147,-0.030448,0.002144,0.000788,-0.004587,0.023459,-0.479352,-0.032061,-0.754373,-266.114854,1.033706,65.322199
9.1589,0.039815,0.030346,-0.031969,0.002145,0.000787,-0.004587,0.024257,-0.479586,-0.03064,-0.754311,-266.113673,1.033702,65.323882
9.1786,0.040296,0.030244,-0.03154,0.002136,0.000794,-0.004588,0.023953,-0.479501,-0.031225,-0.754311,-266.113673,1.033702,65.323882
9.1986,0.040423,0.030387,-0.031853,0.002128,0.0008,-0.004589,0.024281,-0.479479,-0.031685,-0.75391,-266.112495,1.032068,65.325556
9.2186,0.040501,0.030563,-0.032053,0.00212,0.000806,-0.00459,0.024192,-0.479363,-0.031847,-0.75391,-266.112495,1.032068,65.325556
9.2386,0.040114,0.030597,-0.032139,0.002113,0.000812,-0.00459,0.024192,-0.479363,-0.031847,-0.75391,-266.112495,1.032068,65.325556
9.2588,0.040274,0.030683,-0.031166,0.002108,0.000816,-0.00459,0.023815,-0.47911,-0.03233,-0.754946,-266.111329,1.037287,65.327225
9.279,0.040763,0.030776,-0.03198,0.002108,0.000815,-0.004589,0.024062,-0.479089,-0.031867,-0.754946,-266.111329,1.037287,65.327225
9.2984,0.040855,0.030677,-0.032465,0.002109,0.000815,-0.004589,0.024523,-0.478939,-0.032125,-0.756098,-266.11017,1.043461,65.328901
9.3185,0.040643,0.030587,-0.033426,0.002106,0.000816,-0.004589,0.024321,-0.479044,-0.032446,-0.756098,-266.11017,1.043461,65.328901
9.3387,0.040665,0.030345,-0.031197,0.002104,0.000818,-0.004589,0.024321,-0.479044,-0.032446,-0.756098,-266.11017,1.043461,65.328901
9.3588,0.040787,0.030805,-0.033803,0.002102,0.000819,-0.004588,0.024846,-0.479376,-0.031388,-0.755901,-266.109009,1.042954,65.330578
9.3791,0.041058,0.030531,-0.033713,0.002099,0.000822,-0.004588,0.024307,-0.479172,-0.032435,-0.755901,-266.109009,1.042954,65.330578
9.3984,0.041109,0.030581,-0.032186,0.002097,0.000823,-0.004588,0.023935,-0.479156,-0.033858,-0.756181,-266.107861,1.044846,65.332242
9.4186,0.041125,0.030713,-0.031911,0.00209,0.000829,-0.004589,0.024631,-0.479154,-0.032345,-0.756181,-266.107861,1.044846,65.332242
9.4386,0.041501,0.030554,-0.032292,0.002084,0.000833,-0.004589,0.024631,-0.479154,-0.032345,-0.756181,-266.107861,1.044846,65.332242
9.4585,0.041543,0.030612,-0.032391,0.002079,0.000837,-0.004589,0.025123,-0.479148,-0.032484,-0.756435,-266.106705,1.046434,65.333921
9.4788,0.041299,0.030329,-0.033909,0.002069,0.000845,-0.00459,0.025093,-0.479133,-0.032467,-0.756435,-266.106705,1.046434,65.333921
9.4988,0.041886,0.030744,-0.032461,0.00206,0.000852,-0.004591,0.024076,-0.479354,-0.034055,-0.757369,-266.105563,1.051743,65.335593
9.5188,0.041409,0.030736,-0.033461,0.002052,0.000859,-0.004591,0.025226,-0.479019,-0.03261,-0.757369,-266.105563,1.051743,65.335593
9.5388,0.041672,0.0308,-0.033564,0.002045,0.000864,-0.004591,0.025226,-0.479019,-0.03261,-0.757369,-266.105563,1.051743,65.335593
9.559,0.042022,0.030783,-0.034052,0.002039,0.000868,-0.004591,0.024645,-0.47888,-0.033756,-0.758423,-266.104429,1.057752,65.337271
9.5788,0.041867,0.030557,-0.034017,0.002046,0.000863,-0.004589,0.02466,-0.478893,-0.033899,-0.758423,-266.104429,1.057752,65.337271
9.5989,0.042122,0.030468,-0.032906,0.002051,0.000859,-0.004588,0.024587,-0.479123,-0.034164,-0.759381,-266.103303,1.063859,65.338953
9.6191,0.04221,0.030599,-0.03501,0.002041,0.000867,-0.004589,0.025283,-0.479243,-0.033018,-0.759381,-266.103303,1.063859,65.338953
9.6391,0.041913,0.030831,-0.033447,0.002032,0.000873,-0.004589,0.025283,-0.479243,-0.033018,-0.759381,-266.103303,1.063859,65.338953
9.6589,0.042326,0.030805,-0.034998,0.002025,0.000879,-0.00459,0.024945,-0.478851,-0.033639,-0.758477,-266.102175,1.060148,65.340628
9.6786,0.042406,0.030824,-0.035497,0.002033,0.000873,-0.004588,0.024768,-0.47886,-0.034209,-0.758477,-266.102175,1.060148,65.340628
9.6987,0.042469,0.030553,-0.034292,0.002039,0.000868,-0.004586,0.024372,-0.478829,-0.035644,-0.759818,-266.101059,1.067891,65.342307
9.7186,0.042611,0.03091,-0.033292,0.002039,0.000868,-0.004586,0.024932,-0.479117,-0.03442,-0.759818,-266.101059,1.067891,65.342307
9.7389,0.042151,0.030975,-0.034955,0.002039,0.000868,-0.004586,0.024932,-0.479117,-0.03442,-0.759818,-266.101059,1.067891,65.342307
9.7595,0.043035,0.030386,-0.033884,0.002038,0.000868,-0.004586,0.024414,-0.47868,-0.035148,-0.758826,-266.099935,1.063529,65.343985
9.7794,0.042977,0.030939,-0.034828,0.00204,0.000867,-0.004585,0.024968,-0.478936,-0.034658,-0.758826,-266.099935,1.063529,65.343985
9.7988,0.042845,0.030477,-0.034597,0.002042,0.000865,-0.004585,0.025286,-0.478726,-0.034976,-0.758807,-266.098811,1.063669,65.345664
9.8187,0.042879,0.03073,-0.035097,0.002036,0.00087,-0.004586,0.025215,-0.479172,-0.034639,-0.758807,-266.098811,1.063669,65.345664
9.8387,0.04288,0.031227,-0.035631,0.002032,0.000873,-0.004586,0.025215,-0.479172,-0.034639,-0.758807,-266.098811,1.063669,65.345664
9.8592,0.042817,0.030992,-0.034885,0.002028,0.000876,-0.004586,0.024799,-0.478416,-0.035823,-0.758585,-266.097687,1.062649,65.347342
9.8787,0.043065,0.030615,-0.034679,0.002038,0.000868,-0.004585,0.0249,-0.478524,-0.035473,-0.758585,-266.097687,1.062649,65.347342
9.8989,0.043427,0.030763,-0.03533,0.002046,0.000861,-0.004583,0.025448,-0.479053,-0.034825,-0.75937,-266.096568,1.066866,65.349022
9.9189,0.043411,0.031339,-0.034886,0.002041,0.000866,-0.004584,0.025419,-0.47893,-0.03529,-0.75937,-266.096568,1.066866,65.349022
9.9389,0.043306,0.031036,-0.033575,0.002036,0.00087,-0.004585,0.025419,-0.47893,-0.03529,-0.75937,-266.096568,1.066866,65.349022
9.9589,0.043254,0.031053,-0.035779,0.002032,0.000873,-0.004586,0.026272,-0.478643,-0.033767,-0.758152,-266.095442,1.061055,65.350698
9.979,0.043417,0.031207,-0.035503,0.002027,0.000877,-0.004586,0.025768,-0.47863,-0.034609,-0.758152,-266.095442,1.061055,65.350698
9.9988,0.043983,0.030878,-0.036036,0.002022,0.000881,-0.004587,0.025381,-0.478446,-0.035649,-0.759067,-266.094321,1.065579,65.352378
10.0189,0.043662,0.031015,-0.034814,0.00202,0.000882,-0.004586,0.025592,-0.478759,-0.036009,-0.759067,-266.094321,1.065579,65.352378
10.0387,0.044079,0.031346,-0.035305,0.002019,0.000883,-0.004586,0.025592,-0.478759,-0.036009,-0.759067,-266.094321,1.065579,65.352378
10.059,0.044001,0.031189,-0.036578,0.002018,0.000884,-0.004586,0.026163,-0.478302,-0.035497,-0.759619,-266.093201,1.068582,65.354066
10.079,0.044261,0.030956,-0.036168,0.002018,0.000884,-0.004586,0.025833,-0.478369,-0.035972,-0.759619,-266.093201,1.068582,65.354066
10.0991,0.044127,0.031098,-0.035091,0.002018,0.000884,-0.004585,0.025884,-0.478685,-0.036313,-0.759775,-266.092086,1.069833,65.355748
10.1193,0.044055,0.031166,-0.035849,0.002009,0.000891,-0.004586,0.026209,-0.478595,-0.035199,-0.759775,-266.092086,1.069833,65.355748
10.1388,0.044582,0.031397,-0.034873,0.002002,0.000896,-0.004587,0.026209,-0.478595,-0.035199,-0.759775,-266.092086,1.069833,65.355748
10.1592,0.04441,0.030962,-0.036088,0.001996,0.000901,-0.004587,0.026886,-0.478259,-0.035064,-0.759694,-266.09098,1.06967,65.357418
10.1791,0.044079,0.031432,-0.035478,0.001989,0.000907,-0.004588,0.02654,-0.478437,-0.035501,-0.759694,-266.09098,1.06967,65.357418
10.1992,0.044902,0.031059,-0.036311,0.001982,0.000913,-0.004588,0.026054,-0.47822,-0.035624,-0.760866,-266.089878,1.076395,65.359099
10.2188,0.044602,0.031052,-0.036445,0.001978,0.000915,-0.004588,0.026355,-0.478561,-0.036245,-0.760866,-266.089878,1.076395,65.359099
10.2387,0.044677,0.031414,-0.035445,0.001975,0.000918,-0.004588,0.026355,-0.478561,-0.036245,-0.760866,-266.089878,1.076395,65.359099
10.2589,0.044974,0.031298,-0.035969,0.001972,0.00092,-0.004588,0.026688,-0.478231,-0.035638,-0.761548,-266.088783,1.080665,65.360783
10.2788,0.044612,0.030829,-0.037757,0.001969,0.000923,-0.004587,0.026676,-0.478284,-0.035793,-0.761548,-266.088783,1.080665,65.360783
10.2987,0.045521,0.031201,-0.036874,0.001966,0.000926,-0.004587,0.025425,-0.478781,-0.037904,-0.76187,-266.087693,1.083461,65.362468
10.319,0.045104,0.031019,-0.037793,0.001962,0.000928,-0.004587,0.026606,-0.47848,-0.036975,-0.76187,-266.087693,1.083461,65.362468
10.3392,0.045117,0.030781,-0.037469,0.00196,0.00093,-0.004587,0.026606,-0.47848,-0.036975,-0.76187,-266.087693,1.083461,65.362468
10.3589,0.045197,0.031025,-0.037372,0.001957,0.000932,-0.004587,0.026096,-0.478825,-0.037662,-0.762129,-266.086606,1.085517,65.364153
10.3789,0.045298,0.031475,-0.03607,0.00196,0.00093,-0.004586,0.026124,-0.478737,-0.037566,-0.762129,-266.086606,1.085517,65.364153
10.3988,0.045499,0.03161,-0.037018,0.001962,0.000928,-0.004585,0.02697,-0.478165,-0.036216,-0.76239,-266.085524,1.087885,65.365839
10.4191,0.045583,0.031164,-0.037396,0.001963,0.000927,-0.004585,0.026659,-0.478051,-0.036952,-0.76239,-266.085524,1.087885,65.365839
10.439,0.045605,0.031433,-0.03802,0.001965,0.000926,-0.004584,0.026659,-0.478051,-0.036952,-0.76239,-266.085524,1.087885,65.365839
10.4588,0.045769,0.031226,-0.037521,0.001966,0.000925,-0.004584,0.026303,-0.478163,-0.038212,-0.762027,-266.084439,1.086524,65.367524
10.4789,0.045845,0.031192,-0.037252,0.001968,0.000923,-0.004583,0.026449,-0.478262,-0.037952,-0.762027,-266.084439,1.086524,65.367524
10.4987,0.0462,0.031529,-0.038022,0.00197,0.000921,-0.004583,0.026915,-0.478427,-0.037398,-0.761682,-266.083338,1.085036,65.369231
10.5195,0.046051,0.031708,-0.037915,0.001968,0.000923,-0.004583,0.026821,-0.47812,-0.037992,-0.761682,-266.083338,1.085036,65.369231
10.5396,0.046498,0.031747,-0.038487,0.001967,0.000924,-0.004584,0.026821,-0.47812,-0.037992,-0.761682,-266.083338,1.085036,65.369231
10.559,0.046142,0.031518,-0.039741,0.001966,0.000925,-0.004584,0.026958,-0.477841,-0.038676,-0.761429,-266.082264,1.083737,65.370893
10.5791,0.046264,0.031724,-0.038133,0.001972,0.00092,-0.004583,0.026533,-0.477933,-0.039127,-0.761429,-266.082264,1.083737,65.370893
10.5992,0.046703,0.031466,-0.038577,0.001977,0.000916,-0.004582,0.026885,-0.477878,-0.03828,-0.761711,-266.081177,1.085214,65.372577
10.619,0.046214,0.031683,-0.039279,0.001971,0.00092,-0.004583,0.027023,-0.478128,-0.038558,-0.761711,-266.081177,1.085214,65.372577
10.639,0.046372,0.031717,-0.038978,0.001967,0.000924,-0.004584,0.027023,-0.478128,-0.038558,-0.761711,-266.081177,1.085214,65.372577
10.6591,0.04685,0.031193,-0.036931,0.001963,0.000927,-0.004584,0.026582,-0.477861,-0.03917,-0.761043,-266.080086,1.081768,65.37426
10.679,0.046959,0.031507,-0.038942,0.001958,0.000931,-0.004585,0.027175,-0.478099,-0.038284,-0.761043,-266.080086,1.081768,65.37426
10.6988,0.046589,0.031642,-0.038469,0.001954,0.000935,-0.004585,0.027168,-0.478079,-0.039088,-0.761854,-266.078994,1.085992,65.375954
10.7188,0.0472,0.03118,-0.039133,0.001954,0.000934,-0.004585,0.026992,-0.477987,-0.038521,-0.761854,-266.078994,1.085992,65.375954
10.7391,0.046763,0.031468,-0.036986,0.001954,0.000934,-0.004584,0.026992,-0.477987,-0.038521,-0.761854,-266.078994,1.085992,65.375954
10.7589,0.047149,0.031259,-0.041166,0.001955,0.000934,-0.004584,0.027987,-0.478148,-0.037176,-0.76235,-266.077915,1.08888,65.377639
10.7796,0.047055,0.031714,-0.039069,0.001949,0.000938,-0.004585,0.027228,-0.478211,-0.038877,-0.76235,-266.077915,1.08888,65.377639
10.7986,0.046923,0.031783,-0.039866,0.001945,0.000942,-0.004585,0.027199,-0.47787,-0.039215,-0.762196,-266.076839,1.088489,65.379316
10.8188,0.047707,0.031565,-0.038393,0.001954,0.000934,-0.004583,0.026655,-0.477816,-0.039814,-0.762196,-266.076839,1.088489,65.379316
10.839,0.047537,0.032007,-0.03995,0.001962,0.000928,-0.004582,0.026655,-0.477816,-0.039814,-0.762196,-266.076839,1.088489,65.379316
10.8586,0.047595,0.031731,-0.03928,0.001969,0.000922,-0.004581,0.027251,-0.47755,-0.040142,-0.762704,-266.075758,1.091545,65.381012
10.8788,0.047216,0.031652,-0.038738,0.001966,0.000925,-0.004582,0.027394,-0.477683,-0.039799,-0.762704,-266.075758,1.091545,65.381012
10.8987,0.047595,0.031822,-0.040144,0.001963,0.000927,-0.004582,0.027528,-0.477939,-0.038883,-0.761211,-266.074672,1.084001,65.382692
10.9188,0.047572,0.031448,-0.039569,0.001964,0.000927,-0.004582,0.027161,-0.47778,-0.040051,-0.761211,-266.074672,1.084001,65.382692
10.9387,0.047647,0.031371,-0.040093,0.001964,0.000926,-0.004583,0.027161,-0.47778,-0.040051,-0.761211,-266.074672,1.084001,65.382692
10.9585,0.047956,0.031955,-0.040462,0.001964,0.000926,-0.004583,0.027288,-0.478184,-0.040284,-0.761603,-266.073592,1.085756,65.384369
10.9789,0.048134,0.031758,-0.040102,0.00196,0.000929,-0.004583,0.027313,-0.477952,-0.040379,-0.761603,-266.073592,1.085756,65.384369
10.9989,0.048265,0.031739,-0.039056,0.001957,0.000932,-0.004584,0.027751,-0.477805,-0.040249,-0.761623,-266.072506,1.085663,65.386054
11.0188,0.047937,0.031768,-0.041128,0.001941,0.000945,-0.004586,0.028301,-0.477864,-0.039171,-0.761623,-266.072506,1.085663,65.386054
11.0387,0.048358,0.031781,-0.042368,0.001928,0.000956,-0.004587,0.028301,-0.477864,-0.039171,-0.761623,-266.072506,1.085663,65.386054
11.0588,0.048606,0.031677,-0.0401,0.001917,0.000965,-0.004588,0.026841,-0.477726,-0.042559,-0.762028,-266.071411,1.087826,65.387759
11.0787,0.048421,0.03163,-0.040603,0.001922,0.000961,-0.004586,0.027428,-0.477803,-0.041507,-0.762028,-266.071411,1.087826,65.387759
11.0987,0.048749,0.031764,-0.040754,0.001926,0.000958,-0.004585,0.027781,-0.477922,-0.040747,-0.764049,-266.070365,1.100169,65.389425
11.1186,0.048626,0.031895,-0.040542,0.001921,0.000962,-0.004585,0.027956,-0.477821,-0.040761,-0.764049,-266.070365,1.100169,65.389425
11.1391,0.048654,0.032003,-0.042215,0.001917,0.000965,-0.004585,0.027956,-0.477821,-0.040761,-0.764049,-266.070365,1.100169,65.389425
11.159,0.048843,0.032002,-0.04042,0.001914,0.000967,-0.004585,0.027213,-0.477506,-0.042407,-0.76338,-266.069299,1.097329,65.391114
11.1791,0.048809,0.031847,-0.040342,0.001919,0.000963,-0.004584,0.02764,-0.477532,-0.041617,-0.76338,-266.069299,1.097329,65.391114
11.1987,0.049195,0.03193,-0.03969,0.001924,0.000959,-0.004583,0.028302,-0.47771,-0.040488,-0.763864,-266.068239,1.100802,65.392804
11.2188,0.049174,0.031967,-0.040697,0.001908,0.000972,-0.004585,0.028902,-0.47767,-0.03977,-0.763864,-266.068239,1.100802,65.392804
11.2389,0.048895,0.032037,-0.04251,0.001895,0.000983,-0.004587,0.028902,-0.47767,-0.03977,-0.763864,-266.068239,1.100802,65.392804
11.2592,0.049177,0.032646,-0.042564,0.001884,0.000992,-0.004587,0.027304,-0.477466,-0.042702,-0.763189,-266.067175,1.097576,65.394492
11.2793,0.049189,0.032069,-0.040014,0.001902,0.000977,-0.004584,0.027383,-0.477229,-0.042668,-0.763189,-266.067175,1.097576,65.394492
11.2989,0.049689,0.0323,-0.042634,0.001918,0.000964,-0.004581,0.028849,-0.477493,-0.040162,-0.765138,-266.066126,1.109825,65.396192
11.3187,0.049125,0.032171,-0.041389,0.001921,0.000962,-0.004581,0.02804,-0.477259,-0.042409,-0.765138,-266.066126,1.109825,65.396192
11.3388,0.049096,0.031977,-0.043658,0.001924,0.000959,-0.004581,0.02804,-0.477259,-0.042409,-0.765138,-266.066126,1.109825,65.396192
11.3586,0.04957,0.032001,-0.041197,0.001926,0.000957,-0.00458,0.026918,-0.477501,-0.043848,-0.763037,-266.065073,1.099461,65.397869
11.3791,0.04959,0.032033,-0.042428,0.001931,0.000953,-0.00458,0.027597,-0.477523,-0.042793,-0.763037,-266.065073,1.099461,65.397869
11.3988,0.049812,0.031991,-0.041793,0.001935,0.000949,-0.00458,0.028022,-0.47748,-0.042575,-0.762693,-266.064007,1.096838,65.399556
11.419,0.050156,0.032203,-0.042464,0.001927,0.000957,-0.004581,0.028462,-0.477554,-0.041873,-0.762693,-266.064007,1.096838,65.399556
11.4389,0.05017,0.032074,-0.042942,0.001919,0.000963,-0.004582,0.028462,-0.477554,-0.041873,-0.762693,-266.064007,1.096838,65.399556
11.4589,0.050155,0.031825,-0.041297,0.001913,0.000968,-0.004583,0.028359,-0.47742,-0.043133,-0.762243,-266.062937,1.093918,65.401243
11.4789,0.049999,0.032105,-0.041614,0.001905,0.000974,-0.004584,0.028669,-0.477546,-0.04241,-0.762243,-266.062937,1.093918,65.401243
11.4989,0.05021,0.032211,-0.043169,0.001899,0.000979,-0.004585,0.028844,-0.477425,-0.04176,-0.76358,-266.061879,1.100949,65.402931
11.5187,0.05042,0.032429,-0.043325,0.001902,0.000977,-0.004584,0.028262,-0.477322,-0.043049,-0.76358,-266.061879,1.100949,65.402931
11.5387,0.050176,0.032183,-0.041645,0.001905,0.000974,-0.004583,0.028262,-0.477322,-0.043049,-0.76358,-266.061879,1.100949,65.402931
11.5588,0.050636,0.032211,-0.042505,0.001907,0.000972,-0.004582,0.029024,-0.477337,-0.041837,-0.764274,-266.060821,1.105135,65.404633
11.5791,0.050202,0.031925,-0.04143,0.001899,0.00098,-0.004583,0.029008,-0.477329,-0.042142,-0.764274,-266.060821,1.105135,65.404633
11.5989,0.050869,0.031901,-0.04333,0.001891,0.000986,-0.004584,0.02914,-0.477609,-0.041575,-0.763729,-266.059769,1.102589,65.406316
11.6193,0.051137,0.031888,-0.043868,0.001885,0.000991,-0.004585,0.028812,-0.477618,-0.043187,-0.763729,-266.059769,1.102589,65.406316
11.6389,0.051101,0.031893,-0.0434,0.00188,0.000995,-0.004585,0.028812,-0.477618,-0.043187,-0.763729,-266.059769,1.102589,65.406316
11.6587,0.05077,0.03208,-0.042452,0.001876,0.000999,-0.004585,0.029055,-0.477589,-0.043591,-0.764532,-266.058719,1.107457,65.408011
11.6786,0.050569,0.032595,-0.0445,0.001869,0.001004,-0.004585,0.029094,-0.477531,-0.043139,-0.764532,-266.058719,1.107457,65.408011
11.6987,0.05114,0.032531,-0.044159,0.001864,0.001008,-0.004585,0.027942,-0.476872,-0.044646,-0.7652,-266.057682,1.112168,65.409701
11.7188,0.051181,0.032228,-0.0444,0.001874,0.001,-0.004583,0.028569,-0.476962,-0.04421,-0.7652,-266.057682,1.112168,65.409701
11.7388,0.051064,0.032667,-0.043811,0.001882,0.000993,-0.004582,0.028569,-0.476962,-0.04421,-0.7652,-266.057682,1.112168,65.409701
11.7591,0.051784,0.032288,-0.044244,0.001889,0.000988,-0.004581,0.028807,-0.476805,-0.044003,-0.765663,-266.056649,1.115654,65.411395
11.7791,0.051369,0.032235,-0.044909,0.001889,0.000987,-0.004581,0.028987,-0.476966,-0.044123,-0.765663,-266.056649,1.115654,65.411395
11.7988,0.051676,0.032189,-0.04339,0.001889,0.000987,-0.004581,0.028535,-0.477222,-0.045055,-0.764158,-266.055597,1.10799,65.413096
11.819,0.05162,0.031945,-0.04395,0.001878,0.000996,-0.004582,0.029481,-0.477322,-0.043519,-0.764158,-266.055597,1.10799,65.413096
11.8389,0.051251,0.031955,-0.044744,0.001869,0.001004,-0.004583,0.029481,-0.477322,-0.043519,-0.764158,-266.055597,1.10799,65.413096
11.8588,0.051534,0.032511,-0.044676,0.001862,0.00101,-0.004584,0.028519,-0.477497,-0.044934,-0.764179,-266.054556,1.107883,65.41478
11.8792,0.051899,0.032282,-0.04412,0.001868,0.001005,-0.004583,0.028626,-0.477282,-0.04485,-0.764179,-266.054556,1.107883,65.41478
11.8987,0.051673,0.03218,-0.045382,0.001873,0.001001,-0.004582,0.029466,-0.477192,-0.044267,-0.765552,-266.053525,1.116217,65.416472
11.9189,0.051926,0.032684,-0.044444,0.001878,0.000997,-0.004581,0.028624,-0.477284,-0.045288,-0.765552,-266.053525,1.116217,65.416472
11.9386,0.052019,0.03245,-0.043586,0.001881,0.000993,-0.00458,0.028624,-0.477284,-0.045288,-0.765552,-266.053525,1.116217,65.416472
11.959,0.052225,0.032505,-0.044452,0.001885,0.000991,-0.00458,0.029877,-0.477027,-0.043778,-0.764869,-266.052482,1.112724,65.418174
11.9793,0.052189,0.032587,-0.043858,0.001875,0.000999,-0.004582,0.029755,-0.477007,-0.044082,-0.764869,-266.052482,1.112724,65.418174
11.999,0.052324,0.032486,-0.044343,0.001868,0.001005,-0.004583,0.029889,-0.476894,-0.044004,-0.764248,-266.051443,1.109117,65.419858
12.019,0.052177,0.032337,-0.043212,0.001861,0.001011,-0.004583,0.029735,-0.477,-0.04432,-0.764248,-266.051443,1.109117,65.419858
12.0394,0.052417,0.032701,-0.045546,0.001856,0.001015,-0.004584,0.029735,-0.477,-0.04432,-0.764248,-266.051443,1.109117,65.419858
12.0591,0.052656,0.032655,-0.04556,0.001852,0.001018,-0.004584,0.029277,-0.476731,-0.045738,-0.765173,-266.050408,1.114446,65.421552
12.0794,0.052565,0.032371,-0.044769,0.001857,0.001014,-0.004583,0.029347,-0.476761,-0.045689,-0.765173,-266.050408,1.114446,65.421552
12.0988,0.053056,0.032932,-0.046883,0.001861,0.00101,-0.004582,0.029801,-0.477088,-0.044916,-0.765884,-266.04938,1.119154,65.423249
12.119,0.052968,0.032665,-0.046596,0.001869,0.001003,-0.00458,0.029216,-0.476558,-0.046712,-0.765884,-266.04938,1.119154,65.423249
12.139,0.052642,0.032677,-0.042748,0.001876,0.000998,-0.004579,0.029216,-0.476558,-0.046712,-0.765884,-266.04938,1.119154,65.423249
12.1585,0.053034,0.03265,-0.04644,0.001882,0.000993,-0.004579,0.030927,-0.476818,-0.042939,-0.76531,-266.048348,1.116276,65.424944
12.1786,0.053086,0.032849,-0.044172,0.00187,0.001004,-0.004581,0.030294,-0.476806,-0.044394,-0.76531,-266.048348,1.116276,65.424944
12.1988,0.053199,0.032624,-0.046369,0.001859,0.001013,-0.004582,0.030627,-0.476625,-0.044318,-0.764186,-266.047306,1.109822,65.426636
12.219,0.053015,0.032618,-0.047376,0.001859,0.001012,-0.004582,0.029659,-0.476808,-0.046191,-0.764186,-266.047306,1.109822,65.426636
12.2393,0.053116,0.032856,-0.045394,0.00186,0.001012,-0.004582,0.029659,-0.476808,-0.046191,-0.764186,-266.047306,1.109822,65.426636
12.2589,0.05384,0.032499,-0.045084,0.00186,0.001012,-0.004582,0.030052,-0.47658,-0.045586,-0.765418,-266.046266,1.116971,65.428346
12.2794,0.05325,0.03257,-0.04553,0.001851,0.001019,-0.004583,0.030406,-0.476748,-0.045393,-0.765418,-266.046266,1.116971,65.428346
12.2987,0.053865,0.032866,-0.047052,0.001843,0.001026,-0.004584,0.030097,-0.476873,-0.045674,-0.765336,-266.045244,1.116663,65.430026
12.3188,0.053515,0.032717,-0.045696,0.001846,0.001023,-0.004583,0.0299,-0.476595,-0.046936,-0.765336,-266.045244,1.116663,65.430026
12.3389,0.053614,0.03243,-0.045704,0.001848,0.001021,-0.004582,0.0299,-0.476595,-0.046936,-0.765336,-266.045244,1.116663,65.430026
12.3589,0.053665,0.032746,-0.046319,0.00185,0.001019,-0.004581,0.030392,-0.476998,-0.045896,-0.766121,-266.044221,1.121695,65.431724
12.3791,0.053754,0.032907,-0.046559,0.001844,0.001025,-0.004582,0.030263,-0.476876,-0.04609,-0.766121,-266.044221,1.121695,65.431724
12.3988,0.054232,0.032856,-0.046107,0.001838,0.00103,-0.004583,0.030078,-0.47651,-0.046705,-0.765651,-266.043195,1.119463,65.433421
12.4189,0.053915,0.032659,-0.045177,0.001832,0.001035,-0.004583,0.03067,-0.476592,-0.046169,-0.765651,-266.043195,1.119463,65.433421
12.439,0.054122,0.033219,-0.046042,0.001827,0.00104,-0.004584,0.03067,-0.476592,-0.046169,-0.765651,-266.043195,1.119463,65.433421
12.4589,0.054458,0.032633,-0.045033,0.001822,0.001044,-0.004584,0.030728,-0.476201,-0.046234,-0.766228,-266.042174,1.123199,65.435119
12.4788,0.054262,0.033092,-0.046894,0.001815,0.00105,-0.004584,0.031048,-0.476458,-0.045772,-0.766228,-266.042174,1.123199,65.435119
12.4989,0.054609,0.033254,-0.048638,0.001809,0.001055,-0.004585,0.030414,-0.476317,-0.047039,-0.766893,-266.041163,1.128099,65.43682
12.5186,0.054404,0.033122,-0.046053,0.001824,0.001042,-0.004582,0.02987,-0.476157,-0.048502,-0.766893,-266.041163,1.128099,65.43682
12.5392,0.054309,0.033389,-0.047445,0.001836,0.001032,-0.00458,0.02987,-0.476157,-0.048502,-0.766893,-266.041163,1.128099,65.43682
12.5586,0.054825,0.033046,-0.047993,0.001846,0.001023,-0.004578,0.030199,-0.475997,-0.047637,-0.767394,-266.040157,1.132037,65.438523
12.5786,0.054296,0.033061,-0.047489,0.001849,0.00102,-0.004578,0.030272,-0.476143,-0.047804,-0.767394,-266.040157,1.132037,65.438523
12.5991,0.055404,0.032812,-0.048224,0.001852,0.001018,-0.004578,0.030146,-0.476334,-0.047635,-0.76528,-266.039136,1.120536,65.440216
12.619,0.054494,0.032942,-0.046392,0.001844,0.001024,-0.004579,0.030758,-0.476569,-0.048176,-0.76528,-266.039136,1.120536,65.440216
12.6389,0.054879,0.033063,-0.049351,0.001838,0.00103,-0.004581,0.030758,-0.476569,-0.048176,-0.76528,-266.039136,1.120536,65.440216
12.6586,0.055339,0.033521,-0.048037,0.001832,0.001035,-0.004581,0.029799,-0.476277,-0.049543,-0.765078,-266.038109,1.11867,65.441911
12.6795,0.055417,0.03277,-0.048917,0.001839,0.001029,-0.00458,0.030236,-0.476116,-0.048952,-0.765078,-266.038109,1.11867,65.441911
12.6987,0.055468,0.032961,-0.047393,0.001845,0.001023,-0.004579,0.03054,-0.47659,-0.049064,-0.766199,-266.037092,1.124931,65.44361
12.7188,0.05523,0.033247,-0.048903,0.001833,0.001034,-0.004581,0.031237,-0.476476,-0.04756,-0.766199,-266.037092,1.124931,65.44361
12.7389,0.055009,0.033258,-0.047782,0.001824,0.001043,-0.004582,0.031237,-0.476476,-0.04756,-0.766199,-266.037092,1.124931,65.44361
12.7588,0.055471,0.033391,-0.048722,0.001815,0.00105,-0.004583,0.030728,-0.476121,-0.047974,-0.76549,-266.036065,1.120804,65.445313
12.7791,0.055355,0.032856,-0.04933,0.001819,0.001046,-0.004582,0.030698,-0.476068,-0.048305,-0.76549,-266.036065,1.120804,65.445313
12.7989,0.055651,0.03322,-0.04753,0.001823,0.001043,-0.004581,0.030266,-0.476493,-0.049475,-0.766971,-266.035055,1.130144,65.447018
12.8191,0.055375,0.033086,-0.049542,0.001816,0.001048,-0.004582,0.031337,-0.476224,-0.04768,-0.766971,-266.035055,1.130144,65.447018
12.8389,0.055808,0.033077,-0.049019,0.001811,0.001053,-0.004583,0.031337,-0.476224,-0.04768,-0.766971,-266.035055,1.130144,65.447018
12.8587,0.056036,0.033434,-0.048589,0.001806,0.001057,-0.004583,0.030896,-0.476271,-0.049209,-0.766478,-266.034048,1.127595,65.44871
12.8786,0.056216,0.033278,-0.048577,0.001807,0.001056,-0.004582,0.031057,-0.47614,-0.048977,-0.766478,-266.034048,1.127595,65.44871
12.8986,0.055773,0.033473,-0.048304,0.001808,0.001055,-0.004582,0.03151,-0.476089,-0.048723,-0.767226,-266.033042,1.132773,65.450417
12.9189,0.055955,0.03338,-0.049718,0.001809,0.001054,-0.004581,0.03118,-0.475943,-0.048344,-0.767226,-266.033042,1.132773,65.450417
12.9386,0.056294,0.033627,-0.04934,0.00181,0.001053,-0.004581,0.03118,-0.475943,-0.048344,-0.767226,-266.033042,1.132773,65.450417
12.9586,0.056556,0.033417,-0.049542,0.001811,0.001053,-0.00458,0.031218,-0.475713,-0.049531,-0.767027,-266.032036,1.132035,65.452122
12.979,0.056304,0.033059,-0.049411,0.001813,0.001051,-0.00458,0.031262,-0.475811,-0.049558,-0.767027,-266.032036,1.132035,65.452122
12.9986,0.056443,0.033182,-0.048753,0.001815,0.001049,-0.00458,0.031173,-0.476289,-0.049555,-0.766817,-266.031025,1.131143,65.453832
13.0193,0.056444,0.033274,-0.050048,0.001808,0.001056,-0.004581,0.031565,-0.476216,-0.048809,-0.766817,-266.031025,1.131143,65.453832
13.0387,0.056707,0.033352,-0.048999,0.001802,0.001061,-0.004581,0.031565,-0.476216,-0.048809,-0.766817,-266.031025,1.131143,65.453832
13.0588,0.056641,0.033419,-0.048607,0.001797,0.001065,-0.004582,0.031804,-0.475996,-0.049188,-0.766611,-266.03002,1.12999,65.455529
13.0787,0.056945,0.033429,-0.049586,0.001792,0.001069,-0.004582,0.031838,-0.475984,-0.048961,-0.766611,-266.03002,1.12999,65.455529
13.0987,0.056999,0.033739,-0.049671,0.001788,0.001073,-0.004582,0.031725,-0.475914,-0.04973,-0.76744,-266.029021,1.135535,65.457234
13.1186,0.057041,0.033577,-0.049313,0.00179,0.00107,-0.004582,0.031683,-0.47565,-0.049681,-0.76744,-266.029021,1.135535,65.457234
13.1389,0.057149,0.033396,-0.048604,0.001793,0.001068,-0.004581,0.031683,-0.47565,-0.049681,-0.76744,-266.029021,1.135535,65.457234
13.1586,0.057323,0.033771,-0.049952,0.001794,0.001067,-0.00458,0.032447,-0.475961,-0.048794,-0.767761,-266.02803,1.138153,65.458935
13.1788,0.05713,0.033307,-0.050857,0.001788,0.001072,-0.004581,0.032209,-0.475801,-0.049303,-0.767761,-266.02803,1.138153,65.458935
13.1988,0.057308,0.033447,-0.049957,0.001783,0.001077,-0.004582,0.031262,-0.476002,-0.051002,-0.767319,-266.027037,1.136064,65.460631
13.2186,0.057553,0.03363,-0.049466,0.001782,0.001078,-0.004581,0.031793,-0.475922,-0.050056,-0.767319,-266.027037,1.136064,65.460631
13.2389,0.057144,0.033258,-0.050125,0.001782,0.001078,-0.004581,0.031793,-0.475922,-0.050056,-0.767319,-266.027037,1.136064,65.460631
13.2587,0.057803,0.033657,-0.050966,0.001781,0.001078,-0.004581,0.031668,-0.476061,-0.050317,-0.76783,-266.026043,1.139667,65.462342
13.2792,0.057648,0.033704,-0.052078,0.001782,0.001077,-0.004581,0.031741,-0.475898,-0.050609,-0.76783,-266.026043,1.139667,65.462342
13.2985,0.058016,0.033498,-0.052159,0.001783,0.001077,-0.00458,0.031158,-0.475573,-0.052224,-0.767785,-266.025051,1.140034,65.464053
13.319,0.058203,0.033608,-0.050987,0.00179,0.001071,-0.004579,0.03141,-0.47579,-0.05217,-0.767785,-266.025051,1.140034,65.464053
13.3389,0.058075,0.033832,-0.052247,0.001795,0.001066,-0.004578,0.03141,-0.47579,-0.05217,-0.767785,-266.025051,1.140034,65.464053
13.3589,0.058155,0.033895,-0.050259,0.0018,0.001061,-0.004578,0.031518,-0.475432,-0.052437,-0.767649,-266.024058,1.139475,65.465761
13.379,0.058028,0.034131,-0.052761,0.001801,0.001061,-0.004578,0.031959,-0.475439,-0.051534,-0.767649,-266.024058,1.139475,65.465761
13.3987,0.058134,0.033776,-0.050079,0.001802,0.00106,-0.004578,0.031191,-0.475129,-0.052906,-0.766787,-266.023065,1.134134,65.467451
13.4189,0.058543,0.033817,-0.052629,0.001795,0.001066,-0.004579,0.032487,-0.475545,-0.050326,-0.766787,-266.023065,1.134134,65.467451
13.4386,0.058491,0.033521,-0.051246,0.001789,0.001072,-0.00458,0.032487,-0.475545,-0.050326,-0.766787,-266.023065,1.134134,65.467451
13.4591,0.058452,0.033423,-0.051193,0.001784,0.001076,-0.004581,0.032445,-0.475769,-0.051438,-0.766774,-266.022061,1.133573,65.46916
13.4787,0.058377,0.034003,-0.051164,0.001778,0.001081,-0.004582,0.032416,-0.475823,-0.051358,-0.766774,-266.022061,1.133573,65.46916
13.4984,0.059016,0.033627,-0.051947,0.001773,0.001085,-0.004582,0.032353,-0.475299,-0.051309,-0.767689,-266.021068,1.139279,65.470868
13.5187,0.058487,0.033803,-0.051088,0.00177,0.001088,-0.004582,0.032524,-0.475656,-0.051907,-0.767689,-266.021068,1.139279,65.470868
13.5389,0.058727,0.034003,-0.051985,0.001767,0.00109,-0.004582,0.032524,-0.475656,-0.051907,-0.767689,-266.021068,1.139279,65.470868
13.5591,0.058791,0.033818,-0.051823,0.001765,0.001092,-0.004582,0.032302,-0.475266,-0.052176,-0.768123,-266.020088,1.1425,65.472565
13.5789,0.058983,0.034037,-0.052553,0.001769,0.001089,-0.004581,0.03234,-0.475356,-0.052053,-0.768123,-266.020088,1.1425,65.472565
13.5988,0.058983,0.034044,-0.051249,0.001772,0.001086,-0.00458,0.032251,-0.475227,-0.052698,-0.76834,-266.019107,1.144848,65.474272
13.6189,0.059364,0.033604,-0.051366,0.001769,0.001089,-0.00458,0.032805,-0.47528,-0.051388,-0.76834,-266.019107,1.144848,65.474272
13.6391,0.058754,0.033948,-0.052686,0.001767,0.00109,-0.00458,0.032805,-0.47528,-0.051388,-0.76834,-266.019107,1.144848,65.474272
13.6591,0.059218,0.033986,-0.052903,0.001766,0.001092,-0.00458,0.031974,-0.475303,-0.052878,-0.767939,-266.018122,1.14281,65.475979
13.6789,0.059302,0.033768,-0.052183,0.001773,0.001085,-0.004579,0.032094,-0.475297,-0.05291,-0.767939,-266.018122,1.14281,65.475979
13.6984,0.059593,0.034148,-0.051809,0.001779,0.00108,-0.004578,0.032759,-0.475506,-0.052328,-0.768166,-266.01714,1.144656,65.477688
13.7187,0.059536,0.034075,-0.051691,0.001773,0.001085,-0.004579,0.033147,-0.475197,-0.051863,-0.768166,-266.01714,1.144656,65.477688
13.7388,0.05954,0.033857,-0.053066,0.001768,0.00109,-0.00458,0.033147,-0.475197,-0.051863,-0.768166,-266.01714,1.144656,65.477688
13.7586,0.059857,0.034349,-0.054122,0.001764,0.001093,-0.00458,0.032566,-0.475384,-0.053259,-0.767449,-266.016152,1.140393,65.479393
13.7789,0.059854,0.033999,-0.053308,0.001769,0.001089,-0.004579,0.032455,-0.475187,-0.053626,-0.767449,-266.016152,1.140393,65.479393
13.7992,0.06027,0.034176,-0.054129,0.001774,0.001085,-0.004579,0.032738,-0.475245,-0.053454,-0.768195,-266.015165,1.145219,65.481112
13.8189,0.059662,0.033961,-0.053856,0.001776,0.001082,-0.004578,0.032685,-0.475088,-0.054085,-0.768195,-266.015165,1.145219,65.481112
13.8391,0.060052,0.03408,-0.05353,0.001778,0.00108,-0.004578,0.032685,-0.475088,-0.054085,-0.768195,-266.015165,1.145219,65.481112
13.8592,0.060257,0.034591,-0.053316,0.00178,0.001079,-0.004578,0.032841,-0.475149,-0.05372,-0.767679,-266.014185,1.142133,65.482807
13.8792,0.059996,0.034274,-0.054346,0.00178,0.001079,-0.004578,0.032947,-0.474956,-0.053578,-0.767679,-266.014185,1.142133,65.482807
13.8984,0.060362,0.03444,-0.05433,0.00178,0.001079,-0.004578,0.032352,-0.474942,-0.054492,-0.767403,-266.013196,1.140072,65.484513
13.9187,0.059997,0.034285,-0.053742,0.001785,0.001074,-0.004578,0.032642,-0.474818,-0.054352,-0.767403,-266.013196,1.140072,65.484513
13.9389,0.060382,0.0339,-0.05379,0.001789,0.001071,-0.004577,0.032642,-0.474818,-0.054352,-0.767403,-266.013196,1.140072,65.484513
13.959,0.060935,0.034332,-0.054782,0.001793,0.001067,-0.004577,0.03304,-0.475321,-0.053982,-0.76748,-266.012207,1.140259,65.486219
13.9787,0.060616,0.034309,-0.05319,0.001788,0.001072,-0.004578,0.033037,-0.475149,-0.054325,-0.76748,-266.012207,1.140259,65.486219
13.9985,0.060821,0.034621,-0.052903,0.001784,0.001075,-0.004579,0.033561,-0.474939,-0.053336,-0.766909,-266.011211,1.136197,65.487922
14.0188,0.060533,0.034385,-0.053557,0.001776,0.001083,-0.00458,0.03383,-0.474689,-0.052949,-0.766909,-266.011211,1.136197,65.487922
14.0387,0.060692,0.034227,-0.053948,0.001769,0.001089,-0.004581,0.03383,-0.474689,-0.052949,-0.766909,-266.011211,1.136197,65.487922
14.0597,0.061273,0.034195,-0.05347,0.001764,0.001094,-0.004581,0.033269,-0.47499,-0.05414,-0.767408,-266.010219,1.138948,65.489627
14.079,0.061047,0.034578,-0.054597,0.001759,0.001098,-0.004582,0.033578,-0.47502,-0.053894,-0.767408,-266.010219,1.138948,65.489627
14.0989,0.061276,0.034359,-0.053093,0.001754,0.001102,-0.004582,0.033275,-0.47463,-0.054744,-0.768337,-266.009239,1.145334,65.491335
14.1189,0.061337,0.034481,-0.054935,0.001746,0.001109,-0.004583,0.034128,-0.474894,-0.053252,-0.768337,-266.009239,1.145334,65.491335
14.139,0.061014,0.034465,-0.055729,0.001739,0.001116,-0.004583,0.034128,-0.474894,-0.053252,-0.768337,-266.009239,1.145334,65.491335
14.1591,0.061848,0.03439,-0.05429,0.001733,0.001121,-0.004583,0.032683,-0.474701,-0.055922,-0.768656,-266.008263,1.148074,65.493045
14.1788,0.061237,0.034103,-0.054131,0.001739,0.001115,-0.004582,0.033288,-0.474759,-0.055291,-0.768656,-266.008263,1.148074,65.493045
14.1988,0.06171,0.03446,-0.05656,0.001745,0.00111,-0.00458,0.033701,-0.475118,-0.054277,-0.769388,-266.007299,1.154659,65.494758
14.2189,0.061944,0.034249,-0.055125,0.001754,0.001102,-0.004578,0.032956,-0.474758,-0.056363,-0.769388,-266.007299,1.154659,65.494758
14.2389,0.061738,0.034719,-0.05449,0.001762,0.001095,-0.004577,0.032956,-0.474758,-0.056363,-0.769388,-266.007299,1.154659,65.494758
14.2588,0.06178,0.034616,-0.056212,0.001769,0.001089,-0.004577,0.034037,-0.474482,-0.054682,-0.768639,-266.006328,1.15074,65.49647
14.2791,0.061782,0.034113,-0.056201,0.001768,0.001089,-0.004577,0.033677,-0.474516,-0.055325,-0.768639,-266.006328,1.15074,65.49647
14.2987,0.062081,0.034459,-0.054742,0.001767,0.00109,-0.004577,0.033193,-0.47505,-0.056348,-0.767491,-266.005346,1.143493,65.498175
14.3189,0.062022,0.03437,-0.056435,0.001759,0.001097,-0.004579,0.034087,-0.474801,-0.054902,-0.767491,-266.005346,1.143493,65.498175
14.3391,0.062031,0.034762,-0.056384,0.001753,0.001103,-0.00458,0.034087,-0.474801,-0.054902,-0.767491,-266.005346,1.143493,65.498175
14.3591,0.062491,0.034662,-0.055752,0.001747,0.001108,-0.00458,0.033367,-0.474386,-0.056576,-0.767649,-266.004363,1.143866,65.499883
14.3793,0.0626,0.034798,-0.055031,0.001751,0.001104,-0.004579,0.033662,-0.474446,-0.056263,-0.767649,-266.004363,1.143866,65.499883
14.3989,0.062492,0.034709,-0.057176,0.001755,0.001101,-0.004579,0.034606,-0.474398,-0.055177,-0.768608,-266.003392,1.150183,65.501593
14.4191,0.062634,0.034678,-0.055003,0.001761,0.001096,-0.004578,0.033464,-0.474451,-0.057003,-0.768608,-266.003392,1.150183,65.501593
14.4395,0.062428,0.034964,-0.057261,0.001766,0.001091,-0.004577,0.033464,-0.474451,-0.057003,-0.768608,-266.003392,1.150183,65.501593
14.4586,0.062807,0.034502,-0.054683,0.00177,0.001088,-0.004577,0.033319,-0.474158,-0.057456,-0.768182,-266.002415,1.147645,65.503303
14.479,0.062547,0.034714,-0.056719,0.001768,0.001089,-0.004577,0.033951,-0.474377,-0.056405,-0.768182,-266.002415,1.147645,65.503303
14.4988,0.062592,0.03474,-0.056418,0.001767,0.00109,-0.004578,0.033694,-0.474435,-0.056864,-0.767527,-266.001428,1.143131,65.505016
14.5191,0.062826,0.034611,-0.056001,0.001767,0.00109,-0.004578,0.033826,-0.474446,-0.05646,-0.767527,-266.001428,1.143131,65.505016
14.5391,0.063208,0.034601,-0.056157,0.001766,0.001091,-0.004578,0.033826,-0.474446,-0.05646,-0.767527,-266.001428,1.143131,65.505016
14.5592,0.06313,0.034723,-0.055986,0.001766,0.001091,-0.004578,0.034658,-0.474554,-0.056348,-0.76774,-266.00045,1.144,65.506716
14.5791,0.06308,0.034748,-0.056736,0.001756,0.0011,-0.00458,0.034641,-0.474519,-0.056225,-0.76774,-266.00045,1.144,65.506716
14.5985,0.063194,0.034297,-0.056311,0.001748,0.001107,-0.004581,0.034218,-0.4744,-0.056882,-0.76785,-265.999468,1.144308,65.508424
14.6192,0.063374,0.034731,-0.057074,0.00174,0.001115,-0.004582,0.034469,-0.474848,-0.056371,-0.76785,-265.999468,1.144308,65.508424
14.6389,0.063485,0.034728,-0.057653,0.001733,0.001121,-0.004582,0.034469,-0.474848,-0.056371,-0.76785,-265.999468,1.144308,65.508424
14.6585,0.063519,0.034845,-0.0572,0.001727,0.001126,-0.004582,0.034174,-0.474382,-0.057845,-0.768639,-265.998495,1.149829,65.510134
14.679,0.063505,0.034758,-0.057895,0.00173,0.001123,-0.004581,0.034259,-0.474353,-0.057606,-0.768639,-265.998495,1.149829,65.510134
14.6988,0.06366,0.03489,-0.058457,0.001733,0.001121,-0.00458,0.034052,-0.474355,-0.058041,-0.769406,-265.997533,1.156325,65.51185
14.7191,0.063422,0.034975,-0.056999,0.00174,0.001114,-0.004579,0.033883,-0.474247,-0.058428,-0.769406,-265.997533,1.156325,65.51185
14.7392,0.063997,0.035032,-0.058086,0.001747,0.001108,-0.004578,0.033883,-0.474247,-0.058428,-0.769406,-265.997533,1.156325,65.51185
14.7589,0.063738,0.034779,-0.057616,0.001753,0.001103,-0.004577,0.034465,-0.474065,-0.058278,-0.769006,-265.996563,1.154461,65.513575
14.7795,0.063847,0.034878,-0.055852,0.001752,0.001103,-0.004577,0.034434,-0.474191,-0.058022,-0.769006,-265.996563,1.154461,65.513575
14.7989,0.063809,0.034943,-0.057157,0.001751,0.001104,-0.004577,0.035435,-0.474294,-0.055997,-0.768003,-265.995596,1.148239,65.515271
14.819,0.063984,0.034394,-0.057443,0.001746,0.001108,-0.004578,0.034747,-0.474229,-0.057058,-0.768003,-265.995596,1.148239,65.515271
14.8391,0.064403,0.035012,-0.058682,0.001742,0.001112,-0.004579,0.034747,-0.474229,-0.057058,-0.768003,-265.995596,1.148239,65.515271
14.8589,0.064289,0.035051,-0.056511,0.001739,0.001115,-0.004579,0.034569,-0.474069,-0.058874,-0.768143,-265.994622,1.148742,65.51698
14.8787,0.064327,0.035095,-0.057472,0.001736,0.001118,-0.00458,0.03495,-0.474091,-0.057934,-0.768143,-265.994622,1.148742,65.51698
14.8987,0.064405,0.035194,-0.059078,0.001733,0.00112,-0.00458,0.035089,-0.474031,-0.057619,-0.76873,-265.993655,1.15262,65.518693
14.9191,0.064664,0.035072,-0.058268,0.001739,0.001114,-0.004579,0.034366,-0.473925,-0.058955,-0.76873,-265.993655,1.15262,65.518693
14.9387,0.064326,0.035087,-0.058731,0.001745,0.00111,-0.004578,0.034366,-0.473925,-0.058955,-0.76873,-265.993655,1.15262,65.518693
14.9586,0.064911,0.035025,-0.057059,0.001749,0.001106,-0.004577,0.034465,-0.473991,-0.058923,-0.768938,-265.99269,1.154291,65.520406
14.9786,0.064922,0.035517,-0.057169,0.001744,0.00111,-0.004578,0.035026,-0.474049,-0.05819,-0.768938,-265.99269,1.154291,65.520406
14.9988,0.065015,0.034841,-0.057523,0.00174,0.001114,-0.004579,0.03584,-0.473618,-0.057315,-0.768145,-265.99171,1.149264,65.522129
15.0186,0.065323,0.035431,-0.057785,0.001727,0.001126,-0.004581,0.035706,-0.474266,-0.057515,-0.768145,-265.99171,1.149264,65.522129
