mach0312/omni-docking-bench/src/icros_test_setup/results/MPPI_sample/timeseries/trial_096.csv
t,x,y,yaw,vx,vy,wz,bl_x,bl_y,bl_yaw,front_steering_joint,front_wheel_joint,rear_steering_joint,rear_wheel_joint
0.0,0.038758,0.028175,-0.067155,-0.006184,0.001214,-0.003505,0.004706,-0.481063,-0.068548,0.148735,-263.396815,-0.497115,67.334501
0.0004,0.038968,0.028183,-0.070114,-0.005814,0.001142,-0.003296,0.004348,-0.480829,-0.068584,0.148735,-263.399829,-0.497115,67.33111
0.0007,0.038666,0.028369,-0.067734,-0.005408,0.001062,-0.003065,0.005209,-0.480766,-0.066954,0.148735,-263.402679,-0.497115,67.327904
0.001,0.038694,0.028459,-0.069066,-0.004962,0.000974,-0.002813,0.005209,-0.480766,-0.066954,0.148735,-263.405182,-0.497115,67.325088
0.0013,0.038601,0.02868,-0.066703,-0.004478,0.000879,-0.002538,0.005209,-0.480766,-0.066954,0.148735,-263.40737,-0.497115,67.322625
0.0016,0.038865,0.027915,-0.070195,-0.003955,0.000777,-0.002242,0.005052,-0.480686,-0.066898,0.148735,-263.40897,-0.497115,67.320825
0.0019,0.038781,0.028299,-0.070642,-0.003395,0.000667,-0.001924,0.005052,-0.480686,-0.066898,0.148735,-263.40897,-0.497115,67.320825
0.0022,0.038325,0.027908,-0.068534,-0.002792,0.000548,-0.001583,0.004576,-0.48069,-0.067939,0.148735,-263.40897,-0.497115,67.320825
0.0024,0.038126,0.028245,-0.070547,-0.002141,0.00042,-0.001214,0.004576,-0.48069,-0.067939,0.148735,-263.40897,-0.497115,67.320825
0.0159,0.038269,0.028149,-0.067656,0.0,0.0,0.0,0.002089,-0.480463,-0.070598,0.148735,-263.410099,-0.497115,67.319555
0.0356,0.038566,0.028328,-0.069967,0.0,0.0,0.0,0.00364,-0.480664,-0.067913,0.148735,-263.410099,-0.497115,67.319555
0.0557,0.03832,0.028311,-0.069006,0.0,0.0,0.0,0.00364,-0.480664,-0.067913,0.148735,-263.410099,-0.497115,67.319555
0.0761,0.038529,0.028189,-0.068759,0.0,0.0,0.0,0.003154,-0.480476,-0.069006,0.148735,-263.410099,-0.497115,67.319555
0.0959,0.038245,0.027881,-0.068567,0.0,0.0,0.0,0.003292,-0.480529,-0.068905,0.148735,-263.410099,-0.497115,67.319555
0.1161,0.038195,0.028386,-0.069032,0.003942,-0.002517,0.012831,0.003303,-0.48092,-0.068567,0.148735,-263.410099,-0.497115,67.319555
0.136,0.038016,0.02794,-0.06904,0.004312,-0.002727,0.013766,0.003043,-0.480446,-0.068989,0.148735,-263.410099,-0.497115,67.319555
0.156,0.038236,0.028693,-0.068422,0.004624,-0.002903,0.014495,0.003043,-0.480446,-0.068989,0.148735,-263.410099,-0.497115,67.319555
0.1758,0.037991,0.028225,-0.069613,0.004889,-0.003051,0.015062,0.003368,-0.480114,-0.068422,0.223586,-263.410099,-0.571965,67.319555
0.1959,0.038146,0.028421,-0.069356,0.005113,-0.003176,0.01554,0.003016,-0.48029,-0.068915,0.223586,-263.410099,-0.571965,67.319555
0.2157,0.03833,0.028089,-0.070087,0.005303,-0.003282,0.015909,0.002803,-0.480353,-0.069356,0.298716,-263.410099,-0.647096,67.319555
0.2359,0.038227,0.028153,-0.069921,0.005474,-0.003375,0.016235,0.002632,-0.480632,-0.07002,0.298716,-263.410099,-0.647096,67.319555
0.2561,0.038629,0.028582,-0.068477,0.005618,-0.003454,0.016486,0.002632,-0.480632,-0.07002,0.298716,-263.410099,-0.647096,67.319555
0.276,0.037988,0.028096,-0.068975,0.005741,-0.003522,0.016679,0.003733,-0.480222,-0.068477,0.373565,-263.410099,-0.721945,67.319555
0.2958,0.038123,0.028557,-0.068704,0.005823,-0.003576,0.016868,0.003364,-0.480416,-0.068682,0.373565,-263.410099,-0.721945,67.319555
0.3157,0.038249,0.028062,-0.068947,0.005892,-0.003623,0.017014,0.003112,-0.48024,-0.068704,0.448661,-263.410096,-0.797041,67.319559
0.336,0.038247,0.028208,-0.068085,0.005956,-0.003665,0.017165,0.003113,-0.480684,-0.068926,0.448661,-263.410096,-0.797041,67.319559
0.3562,0.038734,0.027981,-0.070429,0.00601,-0.003701,0.017282,0.003113,-0.480684,-0.068926,0.448661,-263.410096,-0.797041,67.319559
0.3759,0.038164,0.027827,-0.070412,0.006056,-0.003732,0.017372,0.002847,-0.480756,-0.070425,0.523672,-263.410073,-0.872051,67.319599
0.3957,0.038601,0.02867,-0.068161,0.006109,-0.003761,0.017534,0.002617,-0.480818,-0.070419,0.523672,-263.410073,-0.872051,67.319599
0.4154,0.038437,0.02816,-0.070116,0.006155,-0.003785,0.017661,0.003876,-0.480151,-0.068142,0.598576,-263.40992,-0.946956,67.319859
0.4356,0.038352,0.028262,-0.069617,0.006187,-0.003805,0.01776,0.002813,-0.480548,-0.069937,0.598576,-263.40992,-0.946956,67.319859
0.4556,0.038237,0.028329,-0.068189,0.006214,-0.003822,0.017837,0.002813,-0.480548,-0.069937,0.598576,-263.40992,-0.946956,67.319859
0.4756,0.038321,0.028239,-0.069258,0.006237,-0.003836,0.017897,0.003538,-0.480515,-0.068083,0.673576,-263.409323,-1.021956,67.320873
0.4957,0.037967,0.027944,-0.068243,0.006241,-0.003846,0.017944,0.003335,-0.480528,-0.068552,0.673576,-263.409323,-1.021956,67.320873
0.5155,0.038159,0.028128,-0.069118,0.006245,-0.003855,0.01798,0.003282,-0.480929,-0.068013,0.748576,-263.407715,-1.096955,67.323601
0.5358,0.038374,0.028057,-0.066123,0.006258,-0.003864,0.0181,0.002971,-0.480681,-0.069012,0.748576,-263.407715,-1.096955,67.323601
0.5558,0.038394,0.02839,-0.068791,0.006269,-0.003872,0.018195,0.002971,-0.480681,-0.069012,0.748576,-263.407715,-1.096955,67.323601
0.5756,0.037901,0.028266,-0.06735,0.006278,-0.003879,0.018269,0.003533,-0.480545,-0.068216,0.823704,-263.404794,-1.172083,67.328562
0.5956,0.038228,0.027961,-0.068284,0.006269,-0.003881,0.018438,0.003574,-0.480575,-0.067797,0.823704,-263.404794,-1.172083,67.328562
0.6154,0.038091,0.027897,-0.067439,0.006261,-0.003883,0.018572,0.003617,-0.480985,-0.067714,0.859048,-263.401024,-1.175261,67.334954
0.6358,0.037846,0.028201,-0.064842,0.006246,-0.003882,0.018808,0.003723,-0.480954,-0.067435,0.859048,-263.401024,-1.175261,67.334954
0.656,0.037921,0.02829,-0.066176,0.006233,-0.003881,0.018996,0.003723,-0.480954,-0.067435,0.859048,-263.401024,-1.175261,67.334954
0.6759,0.0377,0.027108,-0.067511,0.006222,-0.00388,0.019146,0.004447,-0.480773,-0.065399,0.872577,-263.397143,-1.180656,67.341513
0.696,0.037974,0.027747,-0.065282,0.006202,-0.003876,0.019383,0.004009,-0.481181,-0.066166,0.872577,-263.397143,-1.180656,67.341513
0.7155,0.037423,0.027344,-0.06445,0.006184,-0.003872,0.019575,0.00489,-0.481301,-0.064681,0.898289,-263.393193,-1.19068,67.348145
0.7356,0.037477,0.02731,-0.066081,0.006146,-0.003863,0.01983,0.004612,-0.481579,-0.06444,0.898289,-263.393193,-1.19068,67.348145
0.7555,0.037482,0.027659,-0.065686,0.006114,-0.003856,0.020039,0.004612,-0.481579,-0.06444,0.898289,-263.393193,-1.19068,67.348145
0.7759,0.037267,0.027472,-0.063213,0.006086,-0.003849,0.020209,0.004252,-0.481419,-0.064874,0.917783,-263.389159,-1.198357,67.354882
0.7956,0.037206,0.027188,-0.062793,0.006061,-0.003843,0.020435,0.004605,-0.481476,-0.064105,0.917783,-263.389159,-1.198357,67.354882
0.8155,0.037263,0.027563,-0.062743,0.006039,-0.003837,0.020621,0.005385,-0.481939,-0.062161,0.949066,-263.385056,-1.211275,67.361674
0.836,0.037143,0.027386,-0.061975,0.005998,-0.003826,0.02085,0.005303,-0.481485,-0.062659,0.949066,-263.385056,-1.211275,67.361674
0.8556,0.036948,0.027116,-0.062918,0.005962,-0.003816,0.021039,0.005303,-0.481485,-0.062659,0.949066,-263.385056,-1.211275,67.361674
0.8757,0.037016,0.026619,-0.063759,0.005932,-0.003808,0.021195,0.005121,-0.482049,-0.062061,0.967047,-263.380826,-1.21858,67.368634
0.8956,0.037317,0.026841,-0.062736,0.005911,-0.003802,0.021392,0.004904,-0.48219,-0.062656,0.967047,-263.380826,-1.21858,67.368634
0.9155,0.036438,0.026625,-0.059977,0.005893,-0.003797,0.021556,0.005521,-0.482287,-0.062072,0.994998,-263.376526,-1.230503,67.375651
0.9355,0.036367,0.026495,-0.060231,0.005845,-0.003782,0.02175,0.005848,-0.48245,-0.060121,0.994998,-263.376526,-1.230503,67.375651
0.9555,0.036699,0.026893,-0.059794,0.005804,-0.00377,0.021912,0.005848,-0.48245,-0.060121,0.994998,-263.376526,-1.230503,67.375651
0.9755,0.036184,0.026722,-0.058299,0.005768,-0.003759,0.022048,0.006458,-0.482368,-0.058898,1.009295,-263.372123,-1.236397,67.382794
0.9957,0.036492,0.026726,-0.060443,0.005716,-0.003743,0.022203,0.006489,-0.482406,-0.058549,1.009295,-263.372123,-1.236397,67.382794
1.0154,0.036061,0.026474,-0.058679,0.005672,-0.003731,0.022334,0.005859,-0.482472,-0.059748,1.034658,-263.367662,-1.247684,67.38997
1.0358,0.036107,0.026208,-0.057754,0.005642,-0.003722,0.022473,0.006134,-0.482639,-0.058741,1.034658,-263.367662,-1.247684,67.38997
1.0558,0.035897,0.026235,-0.057875,0.005615,-0.003715,0.02259,0.006134,-0.482639,-0.058741,1.034658,-263.367662,-1.247684,67.38997
1.0757,0.035877,0.026405,-0.057818,0.005593,-0.003709,0.022688,0.006624,-0.48308,-0.056944,1.050986,-263.363112,-1.255213,67.397252
1.0955,0.036128,0.025943,-0.057379,0.005557,-0.003699,0.022787,0.006561,-0.482961,-0.057196,1.050986,-263.363112,-1.255213,67.397252
1.1158,0.035113,0.025936,-0.05711,0.005526,-0.00369,0.02287,0.007051,-0.483345,-0.056662,1.067063,-263.358502,-1.262552,67.404586
1.1359,0.035794,0.02608,-0.056451,0.005511,-0.003686,0.022948,0.006102,-0.483249,-0.057036,1.067063,-263.358502,-1.262552,67.404586
1.1559,0.035386,0.026342,-0.0563,0.005497,-0.003683,0.023014,0.006102,-0.483249,-0.057036,1.067063,-263.358502,-1.262552,67.404586
1.1758,0.035305,0.026116,-0.055118,0.005486,-0.00368,0.02307,0.00691,-0.483017,-0.055344,1.07747,-263.353849,-1.267486,67.411963
1.1959,0.03536,0.026019,-0.056019,0.005447,-0.003668,0.023125,0.007057,-0.483073,-0.055143,1.07747,-263.353849,-1.267486,67.411963
1.2156,0.035101,0.025796,-0.05265,0.005414,-0.003658,0.023171,0.006973,-0.483308,-0.055285,1.085811,-263.349149,-1.271371,67.419392
1.2359,0.034739,0.025872,-0.053598,0.005349,-0.003635,0.023217,0.008154,-0.483487,-0.05285,1.085811,-263.349149,-1.271371,67.419392
1.2559,0.034864,0.025843,-0.053721,0.005292,-0.003617,0.023256,0.008154,-0.483487,-0.05285,1.085811,-263.349149,-1.271371,67.419392
1.2757,0.034419,0.025592,-0.051905,0.005243,-0.003602,0.023289,0.007697,-0.483586,-0.052752,1.094471,-263.344432,-1.275662,67.426827
1.2956,0.034178,0.02552,-0.05582,0.005209,-0.003593,0.023324,0.007829,-0.48366,-0.052297,1.094471,-263.344432,-1.275662,67.426827
1.3157,0.033865,0.025438,-0.051321,0.005179,-0.003586,0.023353,0.005884,-0.483809,-0.055083,1.112234,-263.339713,-1.284718,67.43423
1.3356,0.034406,0.024984,-0.053129,0.005158,-0.003582,0.023383,0.007559,-0.48389,-0.0516,1.112234,-263.339713,-1.284718,67.43423
1.3558,0.034171,0.025444,-0.052567,0.00514,-0.003579,0.023409,0.007559,-0.48389,-0.0516,1.112234,-263.339713,-1.284718,67.43423
1.3758,0.033843,0.02526,-0.049878,0.005125,-0.003577,0.023431,0.007582,-0.484012,-0.051592,1.11917,-263.334983,-1.288398,67.441639
1.3957,0.034054,0.025412,-0.051149,0.005098,-0.003569,0.023454,0.007943,-0.484068,-0.050788,1.11917,-263.334983,-1.288398,67.441639
1.4157,0.033322,0.024726,-0.049961,0.005075,-0.003563,0.023474,0.008137,-0.484044,-0.050401,1.125333,-263.330221,-1.291746,67.449087
1.4359,0.033608,0.025194,-0.04856,0.005051,-0.003556,0.023495,0.007885,-0.484593,-0.049962,1.125333,-263.330221,-1.291746,67.449087
1.456,0.033106,0.025215,-0.049809,0.005031,-0.003551,0.023513,0.007885,-0.484593,-0.049962,1.125333,-263.330221,-1.291746,67.449087
1.4759,0.033147,0.025046,-0.049803,0.005013,-0.003546,0.023528,0.007918,-0.484311,-0.048829,1.130559,-263.32546,-1.29451,67.456525
1.4959,0.03302,0.025119,-0.048721,0.005,-0.003544,0.023544,0.007876,-0.484334,-0.049117,1.130559,-263.32546,-1.29451,67.456525
1.516,0.03274,0.024662,-0.045989,0.004988,-0.003541,0.023558,0.008335,-0.484396,-0.047973,1.137068,-263.320692,-1.297978,67.463962
1.5362,0.033009,0.02483,-0.04896,0.004933,-0.003519,0.023572,0.009219,-0.48477,-0.046123,1.137068,-263.320692,-1.297978,67.463962
1.5561,0.032599,0.024822,-0.046531,0.004885,-0.003501,0.023584,0.009219,-0.48477,-0.046123,1.137068,-263.320692,-1.297978,67.463962
1.5759,0.032052,0.024359,-0.044815,0.004843,-0.003486,0.023595,0.009078,-0.484783,-0.045548,1.139751,-263.315897,-1.299444,67.471436
1.596,0.032184,0.024764,-0.047813,0.004807,-0.003474,0.023607,0.009155,-0.484948,-0.045123,1.139751,-263.315897,-1.299444,67.471436
1.6156,0.031959,0.024288,-0.046808,0.004776,-0.003464,0.023616,0.007955,-0.48477,-0.047072,1.153472,-263.311156,-1.3065,67.478793
1.6357,0.032059,0.02422,-0.04528,0.004779,-0.00347,0.023627,0.008091,-0.485127,-0.046794,1.153472,-263.311156,-1.3065,67.478793
1.6559,0.032083,0.024637,-0.043872,0.004782,-0.003475,0.023635,0.008091,-0.485127,-0.046794,1.153472,-263.311156,-1.3065,67.478793
1.6757,0.031435,0.024478,-0.045124,0.004785,-0.003478,0.023642,0.009908,-0.485026,-0.042887,1.159856,-263.306376,-1.309904,67.486196
1.6957,0.032029,0.024131,-0.044369,0.00475,-0.003464,0.023649,0.009321,-0.485034,-0.043695,1.159856,-263.306376,-1.309904,67.486196
1.7157,0.031355,0.024194,-0.043868,0.004719,-0.003453,0.023656,0.009555,-0.485484,-0.043618,1.159203,-263.301601,-1.309845,67.4936
1.7358,0.031062,0.024324,-0.042829,0.004698,-0.003446,0.023662,0.009049,-0.485337,-0.043806,1.159203,-263.301601,-1.309845,67.4936
1.7558,0.031517,0.024098,-0.042898,0.004679,-0.00344,0.023667,0.009049,-0.485337,-0.043806,1.159203,-263.301601,-1.309845,67.4936
1.7757,0.030761,0.023703,-0.041131,0.004663,-0.003435,0.023672,0.009837,-0.485585,-0.041909,1.165346,-263.29682,-1.313023,67.500998
1.7962,0.031042,0.023858,-0.042876,0.00462,-0.003417,0.023677,0.00984,-0.485717,-0.041479,1.165346,-263.29682,-1.313023,67.500998
1.8155,0.030819,0.024055,-0.04177,0.004584,-0.003402,0.023681,0.009327,-0.48579,-0.042117,1.170573,-263.292029,-1.315858,67.508399
1.8355,0.030664,0.023927,-0.041356,0.004564,-0.003396,0.023685,0.009512,-0.485531,-0.041763,1.170573,-263.292029,-1.315858,67.508399
1.8559,0.030244,0.023669,-0.040147,0.004547,-0.003391,0.023689,0.009512,-0.485531,-0.041763,1.170573,-263.292029,-1.315858,67.508399
1.8759,0.030472,0.023505,-0.039455,0.004532,-0.003387,0.023693,0.00996,-0.486069,-0.039158,1.177944,-263.287242,-1.319649,67.515773
1.8957,0.030047,0.023751,-0.039636,0.004493,-0.00337,0.023696,0.010144,-0.486098,-0.039165,1.177944,-263.287242,-1.319649,67.515773
1.9154,0.029986,0.023458,-0.038626,0.004459,-0.003356,0.023698,0.009978,-0.485961,-0.038885,1.182617,-263.282456,-1.322251,67.523138
1.9358,0.030334,0.023458,-0.037941,0.004425,-0.003342,0.023701,0.010272,-0.48615,-0.038611,1.182617,-263.282456,-1.322251,67.523138
1.956,0.029678,0.023765,-0.037697,0.004396,-0.00333,0.023704,0.010272,-0.48615,-0.038611,1.182617,-263.282456,-1.322251,67.523138
1.9762,0.029464,0.023728,-0.037645,0.00437,-0.003321,0.023706,0.010638,-0.486019,-0.036709,1.189409,-263.277667,-1.325758,67.530484
1.9961,0.029935,0.023367,-0.0381,0.004343,-0.00331,0.023708,0.010507,-0.485991,-0.036981,1.189409,-263.277667,-1.325758,67.530484
2.0161,0.029126,0.023488,-0.036056,0.00432,-0.003302,0.02371,0.010644,-0.486375,-0.037343,1.197451,-263.272882,-1.33002,67.537803
2.0362,0.029118,0.023265,-0.036375,0.00429,-0.003289,0.023712,0.010739,-0.486202,-0.03613,1.197451,-263.272882,-1.33002,67.537803
2.0561,0.028711,0.022952,-0.035278,0.004264,-0.003279,0.023714,0.010739,-0.486202,-0.03613,1.197451,-263.272882,-1.33002,67.537803
2.0761,0.028725,0.023054,-0.03354,0.004242,-0.00327,0.023715,0.010898,-0.486875,-0.034287,1.202073,-263.268093,-1.3325,67.545117
2.0961,0.028585,0.023305,-0.034218,0.0042,-0.00325,0.023716,0.011215,-0.486804,-0.033867,1.202073,-263.268093,-1.3325,67.545117
2.1159,0.028384,0.0228,-0.03228,0.004164,-0.003233,0.023717,0.011269,-0.486505,-0.033465,1.209181,-263.263308,-1.336287,67.552402
2.1359,0.028745,0.022741,-0.032944,0.004113,-0.003207,0.023718,0.011872,-0.486901,-0.032348,1.209181,-263.263308,-1.336287,67.552402
2.1563,0.028332,0.023036,-0.033175,0.004069,-0.003185,0.023718,0.011872,-0.486901,-0.032348,1.209181,-263.263308,-1.336287,67.552402
2.176,0.027692,0.02266,-0.032036,0.004031,-0.003168,0.023719,0.011586,-0.486825,-0.032179,1.216395,-263.258513,-1.339995,67.559675
2.1958,0.02785,0.023066,-0.032453,0.004007,-0.003159,0.02372,0.011514,-0.486942,-0.032009,1.216395,-263.258513,-1.339995,67.559675
2.2157,0.027327,0.022898,-0.031832,0.003987,-0.003151,0.023721,0.011427,-0.486771,-0.031698,1.228669,-263.253718,-1.346315,67.566903
2.2364,0.027644,0.022502,-0.030512,0.003981,-0.003152,0.023722,0.011131,-0.486842,-0.031783,1.228669,-263.253718,-1.346315,67.566903
2.256,0.027478,0.022924,-0.03154,0.003976,-0.003153,0.023723,0.011131,-0.486842,-0.031783,1.228669,-263.253718,-1.346315,67.566903
2.2756,0.026934,0.022608,-0.028894,0.003972,-0.003154,0.023724,0.011558,-0.486959,-0.030549,1.232612,-263.24891,-1.348502,67.574138
2.2959,0.026943,0.022774,-0.029543,0.003944,-0.00314,0.023725,0.011841,-0.487065,-0.029754,1.232612,-263.24891,-1.348502,67.574138
2.3164,0.026533,0.022351,-0.029473,0.00392,-0.003128,0.023725,0.012001,-0.487107,-0.028788,1.233794,-263.244102,-1.349386,67.581377
2.3363,0.026814,0.02215,-0.028499,0.003903,-0.00312,0.023725,0.011552,-0.487406,-0.029379,1.233794,-263.244102,-1.349386,67.581377
2.3561,0.026824,0.022063,-0.028082,0.003887,-0.003114,0.023726,0.011552,-0.487406,-0.029379,1.233794,-263.244102,-1.349386,67.581377
2.3756,0.026173,0.022094,-0.027067,0.003874,-0.003108,0.023726,0.012664,-0.487871,-0.027091,1.238538,-263.239299,-1.351848,67.588591
2.3962,0.02652,0.022139,-0.026696,0.003828,-0.003081,0.023725,0.012562,-0.487824,-0.026967,1.238538,-263.239299,-1.351848,67.588591
2.4159,0.025509,0.021987,-0.027009,0.003789,-0.003058,0.023725,0.013027,-0.487781,-0.025943,1.242729,-263.234467,-1.354116,67.595832
2.4362,0.025932,0.022404,-0.026082,0.003774,-0.003052,0.023725,0.011837,-0.487828,-0.026898,1.242729,-263.234467,-1.354116,67.595832
2.456,0.025834,0.021909,-0.026852,0.003761,-0.003047,0.023725,0.011837,-0.487828,-0.026898,1.242729,-263.234467,-1.354116,67.595832
2.4761,0.025004,0.021585,-0.026812,0.00375,-0.003043,0.023726,0.012294,-0.488038,-0.025868,1.250757,-263.229681,-1.358146,67.602967
2.4963,0.025221,0.02199,-0.025117,0.003734,-0.003035,0.023726,0.011918,-0.488133,-0.02614,1.250757,-263.229681,-1.358146,67.602967
2.5157,0.025079,0.021601,-0.022654,0.003719,-0.003028,0.023726,0.01253,-0.487949,-0.024362,1.25419,-263.224862,-1.360077,67.610139
2.5359,0.025033,0.02183,-0.022124,0.003664,-0.002992,0.023725,0.013448,-0.488246,-0.022761,1.25419,-263.224862,-1.360077,67.610139
2.5566,0.025077,0.021772,-0.023717,0.003616,-0.002962,0.023724,0.013448,-0.488246,-0.022761,1.25419,-263.224862,-1.360077,67.610139
2.5758,0.024576,0.021511,-0.023297,0.003575,-0.002937,0.023723,0.013135,-0.488215,-0.022727,1.257033,-263.220018,-1.3616,67.617339
2.5959,0.024492,0.0216,-0.022537,0.003551,-0.002925,0.023723,0.012966,-0.488288,-0.022852,1.257033,-263.220018,-1.3616,67.617339
2.6161,0.024198,0.021629,-0.021914,0.00353,-0.002915,0.023723,0.01311,-0.488366,-0.021787,1.270692,-263.215216,-1.368469,67.624403
2.6358,0.024212,0.021461,-0.022628,0.003511,-0.002905,0.023724,0.013037,-0.488264,-0.021862,1.270692,-263.215216,-1.368469,67.624403
2.6558,0.024076,0.021443,-0.022264,0.003494,-0.002897,0.023724,0.013037,-0.488264,-0.021862,1.270692,-263.215216,-1.368469,67.624403
2.6757,0.023515,0.021598,-0.019043,0.003479,-0.002891,0.023724,0.012867,-0.488555,-0.021275,1.274728,-263.21039,-1.370663,67.631485
2.696,0.023371,0.021025,-0.020156,0.003456,-0.002877,0.023723,0.013271,-0.488468,-0.020238,1.274728,-263.21039,-1.370663,67.631485
2.7155,0.023235,0.020935,-0.020024,0.003436,-0.002866,0.023722,0.013201,-0.488965,-0.019404,1.279397,-263.205543,-1.373239,67.63858
2.7359,0.023005,0.021419,-0.017293,0.003417,-0.002854,0.02372,0.013044,-0.488968,-0.019935,1.279397,-263.205543,-1.373239,67.63858
2.7557,0.023083,0.02129,-0.018953,0.0034,-0.002845,0.023719,0.013044,-0.488968,-0.019935,1.279397,-263.205543,-1.373239,67.63858
2.7759,0.022653,0.020656,-0.01786,0.003386,-0.002837,0.023718,0.013559,-0.488741,-0.017962,1.283318,-263.2007,-1.375305,67.64565
2.796,0.022854,0.020984,-0.017649,0.003359,-0.002818,0.023704,0.01357,-0.488969,-0.017806,1.283318,-263.2007,-1.375305,67.64565
2.8154,0.022532,0.021203,-0.01695,0.003336,-0.002803,0.023692,0.013959,-0.489028,-0.016895,1.287929,-263.19585,-1.37777,67.652706
2.8358,0.022011,0.020667,-0.016045,0.003311,-0.002785,0.02367,0.013899,-0.488755,-0.016909,1.287929,-263.19585,-1.37777,67.652706
2.8559,0.022298,0.021049,-0.016877,0.003289,-0.002771,0.023652,0.013899,-0.488755,-0.016909,1.287929,-263.19585,-1.37777,67.652706
2.8757,0.02194,0.020728,-0.016801,0.003271,-0.002759,0.023637,0.013829,-0.488997,-0.015887,1.292317,-263.191,-1.380016,67.659736
2.8955,0.022331,0.020896,-0.015984,0.003255,-0.002749,0.023609,0.013658,-0.489094,-0.016145,1.292317,-263.191,-1.380016,67.659736
2.9157,0.021543,0.02088,-0.014699,0.003241,-0.00274,0.023586,0.014283,-0.489129,-0.015232,1.297723,-263.186153,-1.382846,67.666733
2.9359,0.021198,0.020901,-0.013823,0.003219,-0.002724,0.023517,0.014072,-0.489075,-0.014708,1.297723,-263.186153,-1.382846,67.666733
2.9558,0.0218,0.020731,-0.013629,0.0032,-0.00271,0.023462,0.014072,-0.489075,-0.014708,1.297723,-263.186153,-1.382846,67.666733
2.9755,0.021047,0.020872,-0.013922,0.003183,-0.0027,0.023419,0.014984,-0.489338,-0.012643,1.299775,-263.181315,-1.383966,67.673707
2.9956,0.021147,0.020561,-0.01184,0.003155,-0.002674,0.023286,0.014577,-0.489246,-0.01305,1.299775,-263.181315,-1.383966,67.673707
3.016,0.020791,0.020184,-0.011156,0.003131,-0.002653,0.023184,0.01521,-0.489491,-0.011091,1.303044,-263.176496,-1.385716,67.680634
3.0358,0.020458,0.02046,-0.011264,0.003083,-0.002612,0.022905,0.015116,-0.489763,-0.011113,1.303044,-263.176496,-1.385716,67.680634
3.056,0.020989,0.020164,-0.012635,0.003043,-0.00258,0.022698,0.015116,-0.489763,-0.011113,1.303044,-263.176496,-1.385716,67.680634
3.0756,0.020355,0.02038,-0.01184,0.00301,-0.002555,0.022546,0.014674,-0.489908,-0.011666,1.305129,-263.171713,-1.386692,67.687493
3.0956,0.019809,0.020714,-0.00992,0.002997,-0.002548,0.02249,0.014541,-0.489787,-0.011625,1.305129,-263.171713,-1.386692,67.687493
3.1155,0.019688,0.020094,-0.007502,0.002985,-0.002543,0.022448,0.014844,-0.489343,-0.009205,1.30857,-263.167089,-1.38846,67.694104
3.1358,0.019831,0.020156,-0.009911,0.002934,-0.002473,0.021652,0.015773,-0.489845,-0.007621,1.30857,-263.167089,-1.38846,67.694104
3.1558,0.019884,0.020312,-0.009859,0.002891,-0.002426,0.021102,0.015773,-0.489845,-0.007621,1.30857,-263.167089,-1.38846,67.694104
3.1756,0.019471,0.019961,-0.008609,0.002855,-0.002393,0.020719,0.01498,-0.48977,-0.008919,1.30957,-263.16246,-1.389131,67.700721
3.1958,0.019214,0.020275,-0.008965,0.002845,-0.0024,0.020691,0.015036,-0.489886,-0.008683,1.30957,-263.16246,-1.389131,67.700721
3.2156,0.019142,0.019987,-0.008383,0.002836,-0.002405,0.020673,0.014731,-0.489781,-0.008308,1.29944,-263.158205,-1.383305,67.70684
3.2357,0.018971,0.01989,-0.007127,0.002829,-0.002409,0.020591,0.01486,-0.489981,-0.008345,1.29944,-263.158205,-1.383305,67.70684
3.2556,0.019316,0.019995,-0.008361,0.002823,-0.002412,0.020533,0.01486,-0.489981,-0.008345,1.29944,-263.158205,-1.383305,67.70684
3.2757,0.018577,0.020143,-0.006642,0.002818,-0.002416,0.020492,0.015169,-0.490088,-0.007497,1.300128,-263.153958,-1.384316,67.712964
3.2958,0.018508,0.020121,-0.006353,0.002801,-0.002394,0.020148,0.015191,-0.49,-0.007044,1.300128,-263.153958,-1.384316,67.712964
3.3158,0.01821,0.019807,-0.005291,0.002787,-0.00238,0.019906,0.015357,-0.489946,-0.005704,1.298674,-263.149773,-1.384259,67.71903
3.3356,0.01838,0.019827,-0.005746,0.00276,-0.002333,0.019179,0.015503,-0.490168,-0.005295,1.298674,-263.149773,-1.384259,67.71903
3.3556,0.018042,0.019615,-0.004977,0.002738,-0.002303,0.018679,0.015503,-0.490168,-0.005295,1.298674,-263.149773,-1.384259,67.71903
3.3759,0.017701,0.019467,-0.006422,0.002719,-0.002285,0.018334,0.015619,-0.490479,-0.004146,1.293136,-263.145713,-1.381405,67.724942
3.3956,0.017771,0.019577,-0.004534,0.002705,-0.00227,0.017986,0.015144,-0.490508,-0.004982,1.293136,-263.145713,-1.381405,67.724942
3.4156,0.017266,0.019207,-0.003395,0.002693,-0.002262,0.017743,0.015545,-0.49049,-0.003954,1.274682,-263.142007,-1.371789,67.730412
3.4356,0.017582,0.01947,-0.002953,0.00267,-0.00221,0.016923,0.01554,-0.490768,-0.003415,1.274682,-263.142007,-1.371789,67.730412
3.4556,0.017766,0.01985,-0.003567,0.00265,-0.002177,0.016353,0.01554,-0.490768,-0.003415,1.274682,-263.142007,-1.371789,67.730412
3.4759,0.017036,0.01957,-0.002137,0.002633,-0.002157,0.015956,0.016059,-0.490242,-0.002826,1.266431,-263.138415,-1.368004,67.735756
3.4958,0.017299,0.019164,-0.0021,0.002617,-0.00212,0.015213,0.016025,-0.49033,-0.002457,1.266431,-263.138415,-1.368004,67.735756
3.5157,0.016639,0.019095,-0.001864,0.002603,-0.002098,0.014688,0.01631,-0.490903,-0.001602,1.236762,-263.135259,-1.353064,67.740546
3.5359,0.016724,0.019405,-0.000936,0.002587,-0.002068,0.01399,0.015746,-0.490907,-0.001817,1.236762,-263.135259,-1.353064,67.740546
3.5565,0.016861,0.019039,-0.001975,0.002574,-0.00205,0.013492,0.015746,-0.490907,-0.001817,1.236762,-263.135259,-1.353064,67.740546
3.5762,0.01656,0.019088,-0.000861,0.002563,-0.00204,0.013135,0.015961,-0.491047,-0.00137,1.20873,-263.132352,-1.339813,67.745044
3.5956,0.01693,0.018975,-0.000855,0.002545,-0.002013,0.012509,0.016041,-0.491,-0.001086,1.20873,-263.132352,-1.339813,67.745044
3.6156,0.016429,0.019168,-0.000489,0.002531,-0.001996,0.012057,0.016572,-0.491087,-0.000455,1.166009,-263.129851,-1.321385,67.749035
3.6357,0.016675,0.019309,-0.000556,0.002516,-0.001975,0.01144,0.016218,-0.490858,-0.000466,1.166009,-263.129851,-1.321385,67.749035
3.6556,0.016357,0.01925,-0.00116,0.002505,-0.001964,0.010991,0.016218,-0.490858,-0.000466,1.166009,-263.129851,-1.321385,67.749035
3.6756,0.016413,0.019263,-0.000957,0.002495,-0.001958,0.010662,0.015868,-0.490831,-0.000668,1.130222,-263.127535,-1.306751,67.75282
3.6955,0.016581,0.019214,-0.000297,0.002494,-0.001971,0.010546,0.015903,-0.490802,-0.000729,1.130222,-263.127535,-1.306751,67.75282
3.7158,0.016352,0.019071,0.001472,0.002493,-0.001983,0.010456,0.016504,-0.490844,2e-05,1.069554,-263.125584,-1.284344,67.756136
3.7365,0.016438,0.018938,-0.000726,0.002466,-0.001938,0.00959,0.017058,-0.490924,0.001371,1.069554,-263.125584,-1.284344,67.756136
3.7563,0.015914,0.019086,-0.000521,0.002444,-0.001908,0.008952,0.017058,-0.490924,0.001371,1.069554,-263.125584,-1.284344,67.756136
3.776,0.016255,0.018999,0.000504,0.002425,-0.001889,0.008483,0.015752,-0.490997,-8.6e-05,1.055514,-263.123576,-1.281263,67.759604
3.7965,0.016236,0.018756,0.001072,0.002429,-0.001915,0.008553,0.016071,-0.491008,0.000202,1.055514,-263.123576,-1.281263,67.759604
3.8162,0.015894,0.018488,0.001245,0.002433,-0.001935,0.008591,0.016841,-0.491289,0.001284,0.980822,-263.122309,-1.240335,67.761919
3.8361,0.01572,0.018654,0.000916,0.002415,-0.001918,0.008215,0.016559,-0.491494,0.001259,0.980822,-263.122309,-1.240335,67.761919
3.8557,0.016017,0.018609,0.001095,0.0024,-0.001906,0.007935,0.016559,-0.491494,0.001259,0.980822,-263.122309,-1.240335,67.761919
3.8761,0.015672,0.01835,0.000907,0.002387,-0.0019,0.007726,0.016674,-0.491469,0.001444,0.937287,-263.120711,-1.244238,67.764867
3.8959,0.015863,0.018614,0.000977,0.002377,-0.001899,0.007567,0.016461,-0.491553,0.001261,0.937287,-263.120711,-1.244238,67.764867
3.9154,0.015648,0.018643,0.002549,0.002368,-0.001899,0.007444,0.016431,-0.491441,0.001203,0.868225,-263.119355,-1.224714,67.76745
3.9355,0.015437,0.018268,0.002009,0.002355,-0.00188,0.006989,0.016905,-0.491366,0.00244,0.868225,-263.119355,-1.224714,67.76745
3.9554,0.016057,0.01868,0.001753,0.002345,-0.00187,0.006652,0.016905,-0.491366,0.00244,0.868225,-263.119355,-1.224714,67.76745
3.9755,0.01565,0.018601,0.001673,0.002337,-0.001864,0.006401,0.017049,-0.491397,0.00206,0.841151,-263.117952,-1.218718,67.770163
3.9957,0.015372,0.018152,0.00084,0.002331,-0.001869,0.006361,0.016837,-0.491407,0.001937,0.841151,-263.117952,-1.218718,67.770163
4.0154,0.015214,0.01837,0.001636,0.002325,-0.001874,0.006325,0.015857,-0.491892,0.001,0.766164,-263.116989,-1.186116,67.772094
4.0358,0.015681,0.01829,0.001523,0.002332,-0.001896,0.006409,0.016034,-0.491654,0.001589,0.766164,-263.116989,-1.186116,67.772094
4.0555,0.015358,0.018499,0.003122,0.002338,-0.001913,0.006462,0.016034,-0.491654,0.001589,0.766164,-263.116989,-1.186116,67.772094
4.0758,0.015458,0.018621,0.003925,0.002342,-0.001927,0.006493,0.017042,-0.491572,0.003372,0.707521,-263.115832,-1.185696,67.774435
4.096,0.015903,0.01833,0.004296,0.002325,-0.001896,0.00594,0.017224,-0.4915,0.003627,0.707521,-263.115832,-1.185696,67.774435
4.1158,0.015582,0.018419,0.004608,0.002312,-0.001875,0.005529,0.01817,-0.491727,0.004504,0.71626,-263.114593,-1.192482,67.776965
4.136,0.015595,0.018205,0.003779,0.002287,-0.001841,0.005015,0.017958,-0.491593,0.004609,0.71626,-263.114593,-1.192482,67.776965
4.1557,0.015814,0.018159,0.002894,0.002266,-0.001816,0.004629,0.017958,-0.491593,0.004609,0.71626,-263.114593,-1.192482,67.776965
4.1756,0.015532,0.018134,0.00335,0.00225,-0.001798,0.00434,0.017358,-0.491893,0.003063,0.6413,-263.113806,-1.156026,67.778602
4.1956,0.015498,0.018069,0.005004,0.002243,-0.001804,0.004457,0.017318,-0.491887,0.003199,0.6413,-263.113806,-1.156026,67.778602
4.2156,0.015855,0.017768,0.00128,0.002236,-0.001808,0.004535,0.018068,-0.491938,0.005044,0.566362,-263.113546,-1.102577,67.779141
4.236,0.015673,0.017927,0.002983,0.002238,-0.001842,0.005099,0.01665,-0.492206,0.001622,0.566362,-263.113546,-1.102577,67.779141
4.2558,0.015496,0.018139,0.003325,0.002238,-0.001864,0.00549,0.01665,-0.492206,0.001622,0.566362,-263.113546,-1.102577,67.779141
4.2756,0.015231,0.018122,0.004742,0.002237,-0.001877,0.00576,0.017252,-0.491906,0.003454,0.491303,-263.112902,-1.116462,67.780489
4.296,0.015347,0.017825,0.004112,0.002226,-0.001848,0.005266,0.017422,-0.491898,0.003996,0.491303,-263.112902,-1.116462,67.780489
4.3158,0.015694,0.01801,0.003163,0.002218,-0.001828,0.004899,0.017494,-0.492213,0.004235,0.566401,-263.112146,-1.177756,67.78208
4.3358,0.015324,0.017712,0.002028,0.002212,-0.00182,0.004808,0.017327,-0.49201,0.003267,0.566401,-263.112146,-1.177756,67.78208
4.3557,0.015495,0.018351,0.002827,0.002206,-0.001814,0.004739,0.017327,-0.49201,0.003267,0.566401,-263.112146,-1.177756,67.78208
4.3759,0.015609,0.018216,0.005457,0.002201,-0.001809,0.004686,0.017018,-0.491713,0.003007,0.491492,-263.11127,-1.139527,67.783936
4.3956,0.015393,0.018172,0.003961,0.002197,-0.0018,0.004453,0.017587,-0.491747,0.004025,0.491492,-263.11127,-1.139527,67.783936
4.4154,0.015666,0.017922,0.005242,0.002195,-0.001794,0.004281,0.017481,-0.491879,0.004105,0.446057,-263.110326,-1.130472,67.785935
4.4358,0.015504,0.01756,0.004842,0.002175,-0.001766,0.003912,0.018269,-0.492057,0.005151,0.446057,-263.110326,-1.130472,67.785935
4.4562,0.015459,0.017475,0.005382,0.002159,-0.001745,0.003637,0.018269,-0.492057,0.005151,0.446057,-263.110326,-1.130472,67.785935
4.4759,0.015335,0.017489,0.004751,0.002145,-0.001731,0.003433,0.018285,-0.492583,0.005539,0.37093,-263.109505,-1.108849,67.787661
4.4959,0.015627,0.017633,0.005519,0.002129,-0.001714,0.003261,0.018078,-0.492558,0.005234,0.37093,-263.109505,-1.108849,67.787661
4.5155,0.015512,0.017703,0.002567,0.002115,-0.001701,0.003134,0.018475,-0.492385,0.005577,0.295934,-263.109071,-1.059928,67.788535
4.5359,0.015339,0.017539,0.004102,0.002127,-0.001745,0.003667,0.016966,-0.492305,0.002831,0.295934,-263.109071,-1.059928,67.788535
4.5555,0.015146,0.017634,0.00516,0.002137,-0.001774,0.004039,0.016966,-0.492305,0.002831,0.295934,-263.109071,-1.059928,67.788535
4.5757,0.01541,0.017339,0.002927,0.002145,-0.001793,0.004299,0.017825,-0.492394,0.005235,0.220911,-263.108615,-1.041505,67.789433
4.5958,0.015527,0.01768,0.005233,0.00214,-0.001776,0.004088,0.017451,-0.492507,0.004294,0.220911,-263.108615,-1.041505,67.789433
4.6154,0.015484,0.017516,0.005236,0.002135,-0.001764,0.003932,0.018241,-0.49235,0.005317,0.295865,-263.108031,-1.116459,67.790681
4.6355,0.015222,0.017638,0.00397,0.002119,-0.001737,0.003613,0.018164,-0.492467,0.005247,0.295865,-263.108031,-1.116459,67.790681
4.6555,0.015815,0.017664,0.00634,0.002107,-0.001718,0.003375,0.018164,-0.492467,0.005247,0.295865,-263.108031,-1.116459,67.790681
4.6759,0.015669,0.017383,0.00537,0.002096,-0.001704,0.003198,0.019137,-0.492399,0.006503,0.290117,-263.107145,-1.097085,67.79254
4.696,0.01564,0.017209,0.004729,0.002075,-0.001678,0.002916,0.018848,-0.492493,0.006057,0.290117,-263.107145,-1.097085,67.79254
4.7158,0.015379,0.017382,0.005932,0.002058,-0.001658,0.002705,0.018092,-0.492815,0.004794,0.215128,-263.106639,-1.050364,67.793552
4.7361,0.015707,0.017383,0.004309,0.002049,-0.00165,0.002588,0.018379,-0.492629,0.005837,0.215128,-263.106639,-1.050364,67.793552
4.7559,0.015483,0.0174,0.005478,0.002042,-0.001644,0.002501,0.018379,-0.492629,0.005837,0.215128,-263.106639,-1.050364,67.793552
4.776,0.015497,0.017466,0.004885,0.002036,-0.00164,0.002436,0.018316,-0.492621,0.005534,0.140107,-263.106264,-1.014636,67.794261
4.7957,0.015377,0.017601,0.005841,0.002036,-0.001645,0.002501,0.018185,-0.492586,0.005273,0.140107,-263.106264,-1.014636,67.794261
4.8161,0.015689,0.017417,0.005734,0.002035,-0.001648,0.002548,0.018387,-0.492412,0.005881,0.065125,-263.105878,-0.993754,67.794966
4.8357,0.015534,0.017806,0.004335,0.002028,-0.001641,0.002483,0.018595,-0.492562,0.005749,0.065125,-263.105878,-0.993754,67.794966
4.8557,0.015438,0.017531,0.00617,0.002022,-0.001636,0.002435,0.018595,-0.492562,0.005749,0.065125,-263.105878,-0.993754,67.794966
4.8758,0.015463,0.017328,0.00585,0.002017,-0.001632,0.002399,0.018655,-0.492514,0.00626,-0.009887,-263.10521,-1.004996,67.796212
4.8957,0.015253,0.017022,0.004987,0.002012,-0.001627,0.002305,0.018578,-0.492582,0.006102,-0.009887,-263.10521,-1.004996,67.796212
4.9157,0.01544,0.017132,0.006433,0.002008,-0.001623,0.002235,0.017855,-0.493019,0.005057,-0.08219,-263.104467,-0.993593,67.797569
4.9356,0.01568,0.01721,0.005458,0.001999,-0.001613,0.002142,0.018648,-0.492874,0.006315,-0.08219,-263.104467,-0.993593,67.797569
4.9559,0.015369,0.017066,0.008091,0.001992,-0.001605,0.002072,0.018648,-0.492874,0.006315,-0.08219,-263.104467,-0.993593,67.797569
4.9759,0.015458,0.017115,0.005108,0.001986,-0.001599,0.00202,0.019577,-0.492982,0.008181,-0.127893,-263.103686,-0.979029,67.798957
4.9961,0.016185,0.017218,0.006267,0.001973,-0.001585,0.001876,0.018968,-0.492947,0.006937,-0.127893,-263.103686,-0.979029,67.798957
5.0155,0.015562,0.017182,0.005031,0.001963,-0.001575,0.001766,0.019441,-0.492819,0.006328,-0.181805,-263.10292,-0.959371,67.800269
5.036,0.015764,0.016667,0.006383,0.00197,-0.001592,0.00203,0.018244,-0.492814,0.005146,-0.181805,-263.10292,-0.959371,67.800269
5.0559,0.015641,0.017326,0.004184,0.001974,-0.001604,0.002221,0.018244,-0.492814,0.005146,-0.181805,-263.10292,-0.959371,67.800269
5.0757,0.015839,0.017292,0.004976,0.001978,-0.001611,0.00236,0.017851,-0.49273,0.004252,-0.247557,-263.102173,-0.933871,67.801487
5.0957,0.01566,0.017402,0.006295,0.001984,-0.001626,0.002599,0.018072,-0.492725,0.004553,-0.247557,-263.102173,-0.933871,67.801487
5.1158,0.01605,0.017076,0.005936,0.001989,-0.001635,0.002771,0.018909,-0.492621,0.006339,-0.172643,-263.101683,-0.995928,67.802385
5.1362,0.01579,0.01692,0.005913,0.001974,-0.001611,0.002594,0.019064,-0.49289,0.005975,-0.172643,-263.101683,-0.995928,67.802385
5.156,0.015663,0.017102,0.005343,0.001961,-0.001592,0.002463,0.019064,-0.49289,0.005975,-0.172643,-263.101683,-0.995928,67.802385
5.1756,0.01582,0.016922,0.004986,0.001951,-0.001577,0.002366,0.018431,-0.492928,0.005398,-0.097653,-263.101278,-1.032076,67.803175
5.1958,0.015645,0.017171,0.003901,0.001952,-0.00158,0.002442,0.018408,-0.492991,0.005237,-0.097653,-263.101278,-1.032076,67.803175
5.2159,0.015716,0.016854,0.006382,0.001952,-0.001582,0.002497,0.017695,-0.492873,0.003974,-0.067763,-263.10052,-0.997443,67.804569
5.2358,0.015686,0.016624,0.005786,0.001942,-0.001567,0.002353,0.018861,-0.493115,0.006174,-0.067763,-263.10052,-0.997443,67.804569
5.2558,0.015934,0.016741,0.005773,0.001934,-0.001555,0.002245,0.018861,-0.493115,0.006174,-0.067763,-263.10052,-0.997443,67.804569
5.2759,0.01583,0.016617,0.005396,0.001928,-0.001546,0.002165,0.018958,-0.493315,0.005875,-0.02904,-263.099759,-1.009765,67.805999
5.2958,0.015787,0.016539,0.00629,0.00192,-0.001537,0.002197,0.018813,-0.493347,0.005691,-0.02904,-263.099759,-1.009765,67.805999
5.3156,0.015938,0.016836,0.00767,0.001912,-0.001529,0.002221,0.019049,-0.493494,0.00635,-0.104072,-263.099082,-0.978938,67.807204
5.3355,0.016099,0.016305,0.005685,0.001893,-0.001504,0.001938,0.01978,-0.493182,0.007554,-0.104072,-263.099082,-0.978938,67.807204
5.3558,0.015705,0.016694,0.007708,0.001877,-0.001484,0.001721,0.01978,-0.493182,0.007554,-0.104072,-263.099082,-0.978938,67.807204
5.3763,0.015914,0.016771,0.006802,0.001864,-0.00147,0.001554,0.019716,-0.493354,0.007801,-0.090014,-263.098317,-0.985565,67.808584
5.3961,0.015787,0.016824,0.007304,0.001855,-0.001459,0.001447,0.01959,-0.493306,0.007406,-0.090014,-263.098317,-0.985565,67.808584
5.4157,0.015778,0.016553,0.006028,0.001847,-0.001451,0.001366,0.019545,-0.493186,0.007334,-0.165019,-263.097898,-0.914059,67.809244
5.4364,0.015673,0.016386,0.005641,0.001851,-0.00146,0.001518,0.018914,-0.493417,0.006143,-0.165019,-263.097898,-0.914059,67.809244
5.4563,0.016095,0.016506,0.006538,0.001853,-0.001465,0.001631,0.018914,-0.493417,0.006143,-0.165019,-263.097898,-0.914059,67.809244
5.4757,0.016059,0.016352,0.00733,0.001855,-0.001469,0.001715,0.019482,-0.493521,0.00658,-0.240152,-263.097379,-0.890995,67.810027
5.496,0.016322,0.016689,0.005274,0.001842,-0.001452,0.001643,0.019617,-0.493572,0.006891,-0.240152,-263.097379,-0.890995,67.810027
5.5156,0.016202,0.016449,0.006571,0.001832,-0.001438,0.001589,0.019069,-0.493349,0.005327,-0.223485,-263.096645,-0.935541,67.811233
5.5357,0.016161,0.016391,0.005114,0.001826,-0.001431,0.001621,0.019515,-0.493525,0.006467,-0.223485,-263.096645,-0.935541,67.811233
5.5562,0.015927,0.016556,0.007884,0.001821,-0.001425,0.001645,0.019515,-0.493525,0.006467,-0.223485,-263.096645,-0.935541,67.811233
5.5758,0.016438,0.016561,0.006416,0.001816,-0.001419,0.001663,0.020024,-0.493487,0.007949,-0.249687,-263.095902,-0.920644,67.812424
5.5957,0.016315,0.016291,0.006851,0.001806,-0.001407,0.001536,0.019905,-0.49347,0.007335,-0.249687,-263.095902,-0.920644,67.812424
5.6156,0.01601,0.016552,0.007346,0.001798,-0.001397,0.00144,0.019867,-0.493741,0.006903,-0.2185,-263.09517,-0.929879,67.813618
5.6357,0.015677,0.016405,0.005365,0.001794,-0.001392,0.001371,0.01977,-0.493464,0.007308,-0.2185,-263.09517,-0.929879,67.813618
5.6562,0.016096,0.01625,0.007264,0.00179,-0.001389,0.001319,0.01977,-0.493464,0.007308,-0.2185,-263.09517,-0.929879,67.813618
5.676,0.016238,0.015946,0.007719,0.001787,-0.001386,0.00128,0.019871,-0.49379,0.00732,-0.280205,-263.094474,-0.902279,67.814697
5.6962,0.015779,0.016155,0.007548,0.001773,-0.00137,0.001222,0.020002,-0.493897,0.007489,-0.280205,-263.094474,-0.902279,67.814697
5.7156,0.016106,0.016168,0.006024,0.001762,-0.001356,0.001179,0.019684,-0.493872,0.007587,-0.326243,-263.09375,-0.881407,67.815776
5.7364,0.016323,0.016341,0.007015,0.001767,-0.001366,0.001373,0.019227,-0.49383,0.006166,-0.326243,-263.09375,-0.881407,67.815776
5.7561,0.015876,0.015676,0.006461,0.00177,-0.001373,0.001517,0.019227,-0.49383,0.006166,-0.326243,-263.09375,-0.881407,67.815776
5.7759,0.016147,0.016405,0.006579,0.001772,-0.001376,0.001623,0.019244,-0.494369,0.006509,-0.346604,-263.093008,-0.867037,67.816854
5.7961,0.016271,0.016357,0.006805,0.001767,-0.001369,0.001631,0.019356,-0.494059,0.006543,-0.346604,-263.093008,-0.867037,67.816854
5.8156,0.01654,0.016137,0.008047,0.001763,-0.001362,0.001637,0.019782,-0.493664,0.00684,-0.271614,-263.092493,-0.928273,67.817694
5.8358,0.016376,0.016244,0.006797,0.001746,-0.001338,0.001434,0.020565,-0.493831,0.007935,-0.271614,-263.092493,-0.928273,67.817694
5.8557,0.016335,0.015831,0.005517,0.001732,-0.001319,0.001278,0.020565,-0.493831,0.007935,-0.271614,-263.092493,-0.928273,67.817694
5.8757,0.016311,0.016141,0.006,0.00172,-0.001304,0.001157,0.019218,-0.494214,0.00558,-0.20268,-263.091825,-0.929416,67.818787
5.8959,0.016512,0.016156,0.005933,0.001725,-0.001318,0.001438,0.019288,-0.494072,0.005758,-0.20268,-263.091825,-0.929416,67.818787
5.9159,0.016455,0.016322,0.005176,0.00173,-0.001327,0.001645,0.019577,-0.493863,0.005961,-0.277678,-263.091312,-0.863132,67.819533
5.9357,0.016201,0.015904,0.007774,0.001741,-0.001347,0.001907,0.019141,-0.49369,0.005249,-0.277678,-263.091312,-0.863132,67.819533
5.9559,0.016447,0.015775,0.006448,0.001749,-0.00136,0.002099,0.019141,-0.49369,0.005249,-0.277678,-263.091312,-0.863132,67.819533
5.9756,0.016063,0.015969,0.006669,0.001756,-0.00137,0.002238,0.019794,-0.49426,0.006503,-0.20273,-263.090745,-0.932477,67.820469
5.9964,0.016377,0.015941,0.007564,0.001745,-0.001349,0.002083,0.019667,-0.494168,0.006576,-0.20273,-263.090745,-0.932477,67.820469
6.0157,0.016606,0.015651,0.007659,0.001736,-0.001333,0.001967,0.020262,-0.494067,0.007596,-0.12769,-263.090404,-1.000296,67.821099
6.036,0.016567,0.015956,0.006829,0.001715,-0.001301,0.00172,0.020491,-0.494312,0.007655,-0.12769,-263.090404,-1.000296,67.821099
6.056,0.016348,0.015952,0.008115,0.001697,-0.001276,0.00153,0.020491,-0.494312,0.007655,-0.12769,-263.090404,-1.000296,67.821099
6.0759,0.016035,0.015947,0.008709,0.001683,-0.001256,0.001385,0.020556,-0.494084,0.008193,-0.076019,-263.089743,-0.970211,67.822266
6.0956,0.016527,0.015736,0.008446,0.001675,-0.001244,0.001183,0.02053,-0.494068,0.008421,-0.076019,-263.089743,-0.970211,67.822266
6.1155,0.016543,0.015595,0.007504,0.001669,-0.001236,0.001027,0.020867,-0.494268,0.008474,-0.151464,-263.089331,-0.895655,67.822906
6.1357,0.016599,0.015629,0.00918,0.00166,-0.001226,0.001011,0.02041,-0.494382,0.007582,-0.151464,-263.089331,-0.895655,67.822906
6.1558,0.016605,0.015852,0.00715,0.001653,-0.001218,0.000998,0.02041,-0.494382,0.007582,-0.151464,-263.089331,-0.895655,67.822906
6.1758,0.016614,0.0153,0.005393,0.001646,-0.001212,0.000989,0.020288,-0.494158,0.007175,-0.226254,-263.088973,-0.840303,67.82341
6.1959,0.016162,0.015348,0.006436,0.001649,-0.001219,0.001172,0.019916,-0.494378,0.006452,-0.226254,-263.088973,-0.840303,67.82341
6.2154,0.016655,0.015553,0.007618,0.001651,-0.001224,0.001307,0.019485,-0.494669,0.006462,-0.300918,-263.088429,-0.834306,67.82417
6.2356,0.016419,0.015755,0.006632,0.001644,-0.001212,0.001229,0.020464,-0.494451,0.007534,-0.300918,-263.088429,-0.834306,67.82417
6.2556,0.016778,0.015557,0.006782,0.001637,-0.001204,0.001169,0.020464,-0.494451,0.007534,-0.300918,-263.088429,-0.834306,67.82417
6.2756,0.016949,0.015852,0.007864,0.001632,-0.001197,0.001124,0.0203,-0.494477,0.006832,-0.252118,-263.087804,-0.885869,67.825127
6.296,0.016339,0.015515,0.007726,0.001629,-0.001192,0.001131,0.020576,-0.494342,0.007258,-0.252118,-263.087804,-0.885869,67.825127
6.3155,0.016711,0.015878,0.007936,0.001626,-0.001188,0.001137,0.020329,-0.494505,0.00776,-0.302923,-263.087151,-0.856756,67.826078
6.3358,0.016851,0.015817,0.00747,0.001623,-0.001186,0.001046,0.020731,-0.494135,0.007926,-0.302923,-263.087151,-0.856756,67.826078
6.3557,0.01651,0.015717,0.008112,0.001622,-0.001186,0.000977,0.020731,-0.494135,0.007926,-0.302923,-263.087151,-0.856756,67.826078
6.376,0.016888,0.015796,0.009245,0.00162,-0.001185,0.000924,0.020714,-0.494315,0.008159,-0.295041,-263.086478,-0.858557,67.827064
6.3959,0.016777,0.015774,0.00785,0.001613,-0.001175,0.000802,0.021083,-0.494266,0.008606,-0.295041,-263.086478,-0.858557,67.827064
6.4155,0.016701,0.015519,0.006135,0.001607,-0.001167,0.000707,0.020828,-0.494245,0.007877,-0.36614,-263.08585,-0.823811,67.827927
6.436,0.016583,0.015542,0.007109,0.001616,-0.001185,0.000995,0.019922,-0.494453,0.006293,-0.36614,-263.08585,-0.823811,67.827927
6.4563,0.016758,0.015363,0.008151,0.001623,-0.001197,0.001207,0.019922,-0.494453,0.006293,-0.36614,-263.08585,-0.823811,67.827927
6.476,0.016856,0.015047,0.006834,0.001628,-0.001204,0.001363,0.020977,-0.494665,0.008178,-0.429126,-263.085204,-0.782974,67.828755
6.4959,0.016892,0.015375,0.00677,0.001615,-0.001183,0.001254,0.020729,-0.494781,0.007642,-0.429126,-263.085204,-0.782974,67.828755
6.5158,0.016841,0.015353,0.008462,0.001604,-0.001166,0.001171,0.020367,-0.49463,0.006785,-0.354133,-263.084927,-0.857967,67.829188
6.5359,0.016714,0.015282,0.008379,0.001592,-0.001149,0.001014,0.021086,-0.49463,0.008312,-0.354133,-263.084927,-0.857967,67.829188
6.556,0.016917,0.015458,0.008453,0.001583,-0.001135,0.000892,0.021086,-0.49463,0.008312,-0.354133,-263.084927,-0.857967,67.829188
6.5755,0.017046,0.015437,0.008148,0.001575,-0.001125,0.000798,0.021289,-0.494568,0.008497,-0.27916,-263.084323,-0.864904,67.830084
6.5962,0.01713,0.015574,0.008467,0.001568,-0.001116,0.000719,0.021259,-0.494564,0.008355,-0.27916,-263.084323,-0.864904,67.830084
6.6161,0.017366,0.015281,0.007232,0.001562,-0.001109,0.000658,0.021487,-0.494435,0.008488,-0.354608,-263.083797,-0.796956,67.830782
6.6359,0.016649,0.015551,0.007688,0.001558,-0.001104,0.000755,0.021092,-0.494685,0.007337,-0.354608,-263.083797,-0.796956,67.830782
6.6558,0.016736,0.015592,0.010008,0.001554,-0.0011,0.000828,0.021092,-0.494685,0.007337,-0.354608,-263.083797,-0.796956,67.830782
6.6758,0.017068,0.015705,0.00764,0.001551,-0.001096,0.000882,0.0219,-0.494424,0.010033,-0.425096,-263.083173,-0.768658,67.831572
6.6958,0.017166,0.015288,0.006237,0.001547,-0.001088,0.000707,0.021527,-0.49437,0.009064,-0.425096,-263.083173,-0.768658,67.831572
6.7157,0.017241,0.015122,0.007947,0.001544,-0.001083,0.000571,0.02039,-0.494733,0.006262,-0.350287,-263.082596,-0.811656,67.832362
6.7356,0.017087,0.015133,0.008392,0.001538,-0.001076,0.000617,0.021216,-0.494852,0.007798,-0.350287,-263.082596,-0.811656,67.832362
6.7556,0.01686,0.015445,0.008154,0.001532,-0.00107,0.000652,0.021216,-0.494852,0.007798,-0.350287,-263.082596,-0.811656,67.832362
6.7756,0.017347,0.015582,0.006154,0.001528,-0.001064,0.000678,0.021072,-0.494574,0.008175,-0.425325,-263.08204,-0.74766,67.833047
6.7957,0.017147,0.015109,0.007664,0.001534,-0.001075,0.000767,0.020839,-0.494511,0.007353,-0.425325,-263.08204,-0.74766,67.833047
6.8155,0.017234,0.015198,0.007342,0.00154,-0.001083,0.000834,0.021104,-0.494909,0.007686,-0.402521,-263.081386,-0.769063,67.833884
6.8356,0.017165,0.015132,0.007875,0.001537,-0.00108,0.00088,0.020992,-0.494801,0.007375,-0.402521,-263.081386,-0.769063,67.833884
6.8557,0.01681,0.015171,0.007198,0.001535,-0.001077,0.000914,0.020992,-0.494801,0.007375,-0.402521,-263.081386,-0.769063,67.833884
6.8756,0.017118,0.014831,0.007762,0.001534,-0.001073,0.00094,0.020543,-0.494858,0.007231,-0.356891,-263.080762,-0.80232,67.834726
6.8959,0.017459,0.014619,0.006544,0.001531,-0.00107,0.000947,0.020767,-0.494983,0.007451,-0.356891,-263.080762,-0.80232,67.834726
6.9154,0.017277,0.015044,0.008312,0.00153,-0.001067,0.000953,0.020844,-0.495402,0.006573,-0.314828,-263.080138,-0.821178,67.835596
6.936,0.017114,0.015064,0.007596,0.001519,-0.001051,0.000858,0.021458,-0.494982,0.008157,-0.314828,-263.080138,-0.821178,67.835596
6.9561,0.017622,0.015194,0.007987,0.00151,-0.001039,0.000786,0.021458,-0.494982,0.008157,-0.314828,-263.080138,-0.821178,67.835596
6.9758,0.017669,0.015248,0.007694,0.001503,-0.001029,0.00073,0.021759,-0.494834,0.008027,-0.306764,-263.079497,-0.822836,67.836495
6.996,0.017214,0.014715,0.007358,0.001497,-0.001022,0.000723,0.021699,-0.494799,0.007897,-0.306764,-263.079497,-0.822836,67.836495
7.0159,0.016972,0.015174,0.009132,0.001493,-0.001016,0.000717,0.02101,-0.4953,0.007379,-0.37008,-263.078912,-0.776098,67.83726
7.0357,0.01722,0.014727,0.008541,0.001489,-0.00101,0.000585,0.021579,-0.494848,0.008985,-0.37008,-263.078912,-0.776098,67.83726
7.0559,0.017216,0.014958,0.00886,0.001486,-0.001005,0.000482,0.021579,-0.494848,0.008985,-0.37008,-263.078912,-0.776098,67.83726
7.0757,0.017357,0.014741,0.01005,0.001484,-0.001002,0.000403,0.021798,-0.495064,0.00889,-0.369771,-263.078273,-0.772399,67.838091
7.0956,0.017542,0.0147,0.008479,0.001473,-0.000984,0.000302,0.022084,-0.495137,0.009366,-0.369771,-263.078273,-0.772399,67.838091
7.1154,0.017808,0.014876,0.007453,0.001464,-0.000969,0.000225,0.021904,-0.495305,0.00849,-0.444556,-263.077754,-0.699197,67.838695
7.1356,0.017175,0.014872,0.0096,0.001462,-0.00097,0.000395,0.021636,-0.495127,0.007541,-0.444556,-263.077754,-0.699197,67.838695
7.1554,0.01728,0.015124,0.008377,0.00146,-0.000968,0.000523,0.021636,-0.495127,0.007541,-0.444556,-263.077754,-0.699197,67.838695
7.1757,0.017556,0.014838,0.009363,0.001458,-0.000966,0.000619,0.021606,-0.494893,0.008385,-0.516929,-263.077161,-0.647277,67.839341
7.1958,0.01759,0.01507,0.007396,0.001454,-0.000959,0.000529,0.02191,-0.494999,0.008788,-0.516929,-263.077161,-0.647277,67.839341
7.2158,0.017578,0.014955,0.008341,0.001451,-0.000955,0.000459,0.021392,-0.494936,0.007406,-0.441971,-263.076756,-0.722234,67.839852
7.2356,0.017625,0.014839,0.009234,0.001449,-0.000954,0.000468,0.021795,-0.49502,0.008262,-0.441971,-263.076756,-0.722234,67.839852
7.2556,0.017572,0.01508,0.008356,0.001447,-0.000953,0.000474,0.021795,-0.49502,0.008262,-0.441971,-263.076756,-0.722234,67.839852
7.2757,0.017789,0.014843,0.008879,0.001445,-0.000952,0.000479,0.021895,-0.494942,0.008376,-0.435023,-263.076121,-0.705336,67.840609
7.2957,0.017749,0.014663,0.008658,0.001441,-0.000946,0.000444,0.022074,-0.495025,0.008582,-0.435023,-263.076121,-0.705336,67.840609
7.316,0.017677,0.014501,0.009122,0.001438,-0.000941,0.000416,0.022211,-0.495348,0.008673,-0.428033,-263.075485,-0.711087,67.841372
7.3356,0.017634,0.014382,0.009933,0.001426,-0.000921,0.000339,0.022321,-0.495468,0.009085,-0.428033,-263.075485,-0.711087,67.841372
7.3556,0.017938,0.01489,0.008064,0.001416,-0.000905,0.00028,0.022321,-0.495468,0.009085,-0.428033,-263.075485,-0.711087,67.841372
7.3757,0.017839,0.014214,0.008081,0.001407,-0.000891,0.000234,0.022111,-0.495132,0.008081,-0.445879,-263.074854,-0.693776,67.842113
7.3958,0.017773,0.014616,0.007418,0.001404,-0.000888,0.00032,0.022056,-0.495399,0.008083,-0.445879,-263.074854,-0.693776,67.842113
7.4153,0.018155,0.014916,0.007936,0.001401,-0.000885,0.000386,0.021597,-0.495396,0.007425,-0.488672,-263.074269,-0.633616,67.842753
7.4356,0.017486,0.014277,0.007511,0.001402,-0.000888,0.000463,0.022152,-0.495097,0.007892,-0.488672,-263.074269,-0.633616,67.842753
7.4555,0.017887,0.014661,0.007451,0.001403,-0.00089,0.000521,0.022152,-0.495097,0.007892,-0.488672,-263.074269,-0.633616,67.842753
7.4756,0.017695,0.014687,0.008524,0.001403,-0.000891,0.000565,0.021742,-0.495359,0.007466,-0.434147,-263.073697,-0.674592,67.843418
7.4956,0.017939,0.014802,0.008797,0.001402,-0.00089,0.000597,0.021871,-0.495336,0.007901,-0.434147,-263.073697,-0.674592,67.843418
7.5157,0.018038,0.014383,0.007856,0.001401,-0.000889,0.000621,0.022466,-0.495204,0.008814,-0.371059,-263.073149,-0.722147,67.844099
7.5361,0.017955,0.014439,0.008877,0.001395,-0.000878,0.000635,0.022077,-0.495573,0.007927,-0.371059,-263.073149,-0.722147,67.844099
7.556,0.01736,0.014643,0.007855,0.001389,-0.000869,0.000646,0.022077,-0.495573,0.007927,-0.371059,-263.073149,-0.722147,67.844099
7.5756,0.01779,0.014449,0.008133,0.001384,-0.000862,0.000654,0.021424,-0.495377,0.00788,-0.34872,-263.07256,-0.735594,67.844846
7.5956,0.01823,0.014595,0.008034,0.001386,-0.000865,0.000652,0.021647,-0.495448,0.007989,-0.34872,-263.07256,-0.735594,67.844846
7.6155,0.018118,0.014452,0.009158,0.001388,-0.000868,0.000651,0.022371,-0.495415,0.008055,-0.322389,-263.071984,-0.738881,67.845584
7.6358,0.018058,0.014361,0.008521,0.001377,-0.000848,0.000524,0.022755,-0.495518,0.009065,-0.322389,-263.071984,-0.738881,67.845584
7.6555,0.018248,0.014442,0.007396,0.001369,-0.000833,0.000426,0.022755,-0.495518,0.009065,-0.322389,-263.071984,-0.738881,67.845584
7.6757,0.018325,0.014408,0.008522,0.001362,-0.000821,0.000349,0.022078,-0.49558,0.007423,-0.326842,-263.071398,-0.739452,67.846335
7.6956,0.018079,0.014547,0.007533,0.00136,-0.000819,0.000436,0.02233,-0.495582,0.00788,-0.326842,-263.071398,-0.739452,67.846335
7.7155,0.018231,0.01436,0.008287,0.001357,-0.000816,0.000502,0.021954,-0.495458,0.007542,-0.401858,-263.070942,-0.664436,67.846858
7.7358,0.017934,0.01423,0.008006,0.001353,-0.000811,0.000504,0.022416,-0.495609,0.008224,-0.401858,-263.070942,-0.664436,67.846858
7.7557,0.018115,0.014801,0.00768,0.00135,-0.000806,0.000506,0.022416,-0.495609,0.008224,-0.401858,-263.070942,-0.664436,67.846858
7.7759,0.018258,0.01464,0.009445,0.001347,-0.000803,0.000508,0.022087,-0.495216,0.0077,-0.359189,-263.070386,-0.691036,67.847534
7.7958,0.018012,0.014438,0.008138,0.001349,-0.000806,0.000486,0.022494,-0.495269,0.00841,-0.359189,-263.070386,-0.691036,67.847534
7.8157,0.018437,0.014524,0.007874,0.00135,-0.00081,0.00047,0.022205,-0.49557,0.008154,-0.350565,-263.069812,-0.690498,67.848233
7.8356,0.017833,0.014341,0.008421,0.00135,-0.000809,0.000525,0.022433,-0.495471,0.0079,-0.350565,-263.069812,-0.690498,67.848233
7.8556,0.01843,0.014424,0.006937,0.001349,-0.000808,0.000567,0.022433,-0.495471,0.0079,-0.350565,-263.069812,-0.690498,67.848233
7.8759,0.018487,0.013871,0.007725,0.001348,-0.000807,0.000598,0.022024,-0.495597,0.006956,-0.369305,-263.069236,-0.682124,67.848925
7.8956,0.018492,0.014378,0.007841,0.001346,-0.000802,0.000718,0.022197,-0.495814,0.007276,-0.369305,-263.069236,-0.682124,67.848925
7.9154,0.018609,0.01444,0.008819,0.001343,-0.000797,0.000807,0.022531,-0.49563,0.007859,-0.316626,-263.068704,-0.715838,67.849595
7.9359,0.018419,0.014175,0.009129,0.001336,-0.000782,0.000679,0.023058,-0.495549,0.008736,-0.316626,-263.068704,-0.715838,67.849595
7.956,0.018217,0.014323,0.009123,0.001329,-0.000771,0.00058,0.023058,-0.495549,0.008736,-0.316626,-263.068704,-0.715838,67.849595
7.9761,0.018514,0.014047,0.009506,0.001324,-0.000762,0.000503,0.022917,-0.495683,0.00915,-0.241736,-263.068244,-0.765021,67.850216
7.9961,0.017971,0.014503,0.008651,0.001316,-0.000747,0.000387,0.023103,-0.495787,0.009298,-0.241736,-263.068244,-0.765021,67.850216
8.0159,0.018319,0.013859,0.009094,0.00131,-0.000735,0.000297,0.022416,-0.495497,0.008665,-0.316652,-263.067805,-0.690105,67.85075
8.0357,0.018501,0.014314,0.008068,0.001302,-0.000722,0.00025,0.022912,-0.496068,0.009058,-0.316652,-263.067805,-0.690105,67.85075
8.0557,0.018643,0.014134,0.007554,0.001296,-0.000712,0.000213,0.022912,-0.496068,0.009058,-0.316652,-263.067805,-0.690105,67.85075
8.0757,0.017972,0.014147,0.008884,0.001291,-0.000703,0.000185,0.02254,-0.495876,0.007565,-0.391794,-263.067344,-0.614963,67.851269
8.0957,0.018329,0.014292,0.006912,0.001293,-0.00071,0.000279,0.022529,-0.495861,0.008121,-0.391794,-263.067344,-0.614963,67.851269
8.1159,0.018206,0.013983,0.008855,0.001295,-0.000714,0.000349,0.021892,-0.495717,0.006918,-0.428818,-263.066812,-0.564036,67.851841
8.1358,0.018385,0.014037,0.00918,0.001293,-0.000712,0.000332,0.02265,-0.495973,0.008681,-0.428818,-263.066812,-0.564036,67.851841
8.1556,0.018631,0.014325,0.0086,0.001291,-0.00071,0.000319,0.02265,-0.495973,0.008681,-0.428818,-263.066812,-0.564036,67.851841
8.1756,0.018853,0.013852,0.009372,0.00129,-0.000708,0.000309,0.023066,-0.495682,0.008614,-0.369061,-263.066316,-0.621675,67.852411
8.1956,0.0187,0.014141,0.009715,0.001285,-0.000699,0.000273,0.023305,-0.495868,0.008928,-0.369061,-263.066316,-0.621675,67.852411
8.2159,0.018817,0.013897,0.006963,0.00128,-0.000691,0.000245,0.023695,-0.495856,0.009725,-0.382862,-263.065763,-0.607458,67.853035
8.2357,0.018819,0.014065,0.009171,0.001283,-0.000696,0.000469,0.022483,-0.496071,0.007198,-0.382862,-263.065763,-0.607458,67.853035
8.2557,0.018472,0.014213,0.008229,0.001284,-0.000699,0.000635,0.022483,-0.496071,0.007198,-0.382862,-263.065763,-0.607458,67.853035
8.2761,0.018779,0.013494,0.007766,0.001285,-0.000699,0.000758,0.022722,-0.495798,0.008239,-0.400061,-263.065216,-0.581325,67.853637
8.2957,0.018882,0.014252,0.008089,0.001281,-0.000692,0.000723,0.022735,-0.496081,0.008049,-0.400061,-263.065216,-0.581325,67.853637
8.3154,0.018458,0.014211,0.009256,0.001277,-0.000687,0.000696,0.023021,-0.495739,0.008094,-0.325221,-263.065051,-0.656166,67.853857
8.3356,0.018824,0.013764,0.008358,0.001275,-0.000681,0.000551,0.023166,-0.495765,0.009158,-0.325221,-263.065051,-0.656166,67.853857
8.3557,0.018584,0.014023,0.007908,0.001274,-0.000678,0.000439,0.023166,-0.495765,0.009158,-0.325221,-263.065051,-0.656166,67.853857
8.3757,0.019052,0.01375,0.007036,0.001274,-0.000676,0.000351,0.022657,-0.495983,0.007928,-0.25006,-263.064665,-0.716396,67.854358
8.3956,0.018298,0.013766,0.009179,0.001274,-0.000678,0.000487,0.022654,-0.49609,0.007563,-0.25006,-263.064665,-0.716396,67.854358
8.4155,0.018829,0.014106,0.008896,0.001274,-0.000678,0.000589,0.023008,-0.496228,0.009188,-0.325016,-263.064278,-0.64144,67.854803
8.4357,0.018777,0.013807,0.008643,0.001269,-0.00067,0.00049,0.023335,-0.495906,0.008923,-0.325016,-263.064278,-0.64144,67.854803
8.4557,0.018565,0.013948,0.008048,0.001266,-0.000663,0.000415,0.023335,-0.495906,0.008923,-0.325016,-263.064278,-0.64144,67.854803
8.4755,0.018729,0.01399,0.009363,0.001263,-0.000658,0.000356,0.022716,-0.49606,0.008069,-0.250102,-263.063816,-0.68361,67.85538
8.4959,0.018837,0.013873,0.009248,0.001261,-0.000657,0.000346,0.023044,-0.496033,0.008602,-0.250102,-263.063816,-0.68361,67.85538
8.5155,0.018908,0.014026,0.008977,0.00126,-0.000656,0.000339,0.023586,-0.496122,0.009257,-0.325102,-263.063384,-0.60861,67.855877
8.5357,0.019072,0.013625,0.008458,0.001256,-0.000648,0.000289,0.023497,-0.495968,0.009001,-0.325102,-263.063384,-0.60861,67.855877
8.556,0.018728,0.014043,0.009993,0.001252,-0.000643,0.00025,0.023497,-0.495968,0.009001,-0.325102,-263.063384,-0.60861,67.855877
8.5755,0.019284,0.014394,0.008943,0.00125,-0.000638,0.00022,0.023877,-0.495959,0.010007,-0.342041,-263.062853,-0.600474,67.856483
8.5956,0.019376,0.013791,0.010049,0.001246,-0.000631,0.000142,0.02387,-0.49581,0.009576,-0.342041,-263.062853,-0.600474,67.856483
8.6154,0.018966,0.01408,0.008035,0.001244,-0.000625,8e-05,0.024538,-0.496202,0.010056,-0.383083,-263.062346,-0.553748,67.857035
8.6356,0.018855,0.01383,0.007821,0.001246,-0.000632,0.000186,0.0232,-0.495932,0.008218,-0.383083,-263.062346,-0.553748,67.857035
8.656,0.018931,0.013998,0.009001,0.001248,-0.000637,0.000266,0.0232,-0.495932,0.008218,-0.383083,-263.062346,-0.553748,67.857035
8.6758,0.019167,0.013447,0.007341,0.001248,-0.00064,0.000327,0.023569,-0.496005,0.009004,-0.433985,-263.061847,-0.496787,67.857551
8.6956,0.018743,0.013378,0.006915,0.001244,-0.000633,0.000358,0.023305,-0.496226,0.008324,-0.433985,-263.061847,-0.496787,67.857551
8.7158,0.01905,0.014054,0.010992,0.00124,-0.000627,0.000382,0.022299,-0.496625,0.006921,-0.358987,-263.06145,-0.571786,67.858001
8.7358,0.018727,0.013823,0.008771,0.001228,-0.000601,0.000195,0.024448,-0.495979,0.01063,-0.358987,-263.06145,-0.571786,67.858001
8.7555,0.019381,0.013457,0.008266,0.001219,-0.000582,4.8e-05,0.024448,-0.495979,0.01063,-0.358987,-263.06145,-0.571786,67.858001
8.7756,0.019125,0.013556,0.009213,0.001213,-0.000567,-7e-05,0.023645,-0.49655,0.008281,-0.307427,-263.060961,-0.606324,67.858569
8.796,0.019457,0.013567,0.008016,0.001208,-0.000561,1.3e-05,0.023724,-0.4965,0.008664,-0.307427,-263.060961,-0.606324,67.858569
8.8157,0.01917,0.013586,0.009675,0.001203,-0.000555,7.6e-05,0.023559,-0.496423,0.008017,-0.382426,-263.060768,-0.531325,67.858756
8.8357,0.019266,0.013912,0.007595,0.001197,-0.000544,3.3e-05,0.024055,-0.496394,0.009525,-0.382426,-263.060768,-0.531325,67.858756
8.856,0.019284,0.013748,0.007251,0.001193,-0.000535,-0.0,0.024055,-0.496394,0.009525,-0.382426,-263.060768,-0.531325,67.858756
8.8757,0.018951,0.013656,0.009128,0.00119,-0.000528,-2.6e-05,0.023029,-0.49626,0.007254,-0.39979,-263.060286,-0.463417,67.859253
8.8956,0.019297,0.013447,0.008902,0.001195,-0.000541,0.000137,0.023265,-0.496287,0.008003,-0.39979,-263.060286,-0.463417,67.859253
8.9154,0.019608,0.013701,0.009219,0.001199,-0.000549,0.00026,0.023872,-0.496549,0.008901,-0.429072,-263.059795,-0.406824,67.859739
8.9356,0.019045,0.013944,0.010477,0.001193,-0.000538,0.000208,0.024273,-0.496302,0.009191,-0.429072,-263.059795,-0.406824,67.859739
8.9556,0.019063,0.013739,0.010086,0.001188,-0.000529,0.000168,0.024273,-0.496302,0.009191,-0.429072,-263.059795,-0.406824,67.859739
8.9758,0.018739,0.013397,0.008992,0.001184,-0.000522,0.000137,0.024238,-0.496249,0.010091,-0.354014,-263.059479,-0.481883,67.860088
8.9956,0.019107,0.013429,0.008711,0.001183,-0.000518,7e-05,0.023869,-0.496386,0.009643,-0.354014,-263.059479,-0.481883,67.860088
9.0155,0.019384,0.014011,0.007691,0.001182,-0.000515,1.9e-05,0.023587,-0.496568,0.008716,-0.354799,-263.058974,-0.472679,67.86062
9.0358,0.01913,0.013532,0.00864,0.001192,-0.000535,0.000206,0.023332,-0.496026,0.00778,-0.354799,-263.058974,-0.472679,67.86062
9.056,0.019411,0.013318,0.009861,0.001199,-0.00055,0.000346,0.023332,-0.496026,0.00778,-0.354799,-263.058974,-0.472679,67.86062
9.0759,0.019069,0.013734,0.008341,0.001205,-0.000562,0.000451,0.024486,-0.496677,0.009862,-0.402975,-263.058501,-0.419322,67.861096
9.0956,0.019661,0.013479,0.009001,0.001197,-0.000545,0.000351,0.024018,-0.496505,0.009243,-0.402975,-263.058501,-0.419322,67.861096
9.1156,0.019277,0.01369,0.008054,0.00119,-0.000532,0.000274,0.024265,-0.496507,0.009003,-0.328035,-263.058324,-0.494262,67.861306
9.1357,0.019433,0.013515,0.009716,0.001192,-0.000538,0.000343,0.023465,-0.496313,0.00814,-0.328035,-263.058324,-0.494262,67.861306
9.1556,0.019394,0.013408,0.009826,0.001194,-0.000542,0.000396,0.023465,-0.496313,0.00814,-0.328035,-263.058324,-0.494262,67.861306
9.1755,0.019393,0.013317,0.010688,0.001195,-0.000546,0.000436,0.024453,-0.496588,0.009837,-0.297585,-263.057844,-0.531066,67.861838
9.1956,0.019566,0.013873,0.008769,0.001181,-0.000516,0.000264,0.024618,-0.496618,0.010185,-0.297585,-263.057844,-0.531066,67.861838
9.2159,0.019234,0.013455,0.007916,0.00117,-0.000493,0.000128,0.024071,-0.496122,0.008781,-0.229702,-263.057419,-0.597038,67.862339
9.2359,0.019414,0.013407,0.008788,0.001174,-0.000503,0.000254,0.023345,-0.496493,0.007995,-0.229702,-263.057419,-0.597038,67.862339
9.2559,0.019609,0.013419,0.007465,0.001178,-0.000511,0.000349,0.023345,-0.496493,0.007995,-0.229702,-263.057419,-0.597038,67.862339
9.2759,0.019416,0.013275,0.008051,0.00118,-0.000517,0.000421,0.023444,-0.49658,0.00747,-0.304691,-263.057125,-0.522048,67.862647
9.2956,0.019208,0.013619,0.007175,0.001179,-0.000516,0.000516,0.02348,-0.496634,0.00771,-0.304691,-263.057125,-0.522048,67.862647
9.3157,0.019507,0.013337,0.010544,0.001178,-0.000514,0.000587,0.022898,-0.496382,0.007186,-0.229607,-263.056721,-0.580343,67.863119
9.3357,0.019376,0.013378,0.008617,0.001165,-0.000486,0.000381,0.024709,-0.496613,0.010246,-0.229607,-263.056721,-0.580343,67.863119
9.3558,0.019578,0.013128,0.008144,0.001155,-0.000465,0.000217,0.024709,-0.496613,0.010246,-0.229607,-263.056721,-0.580343,67.863119
9.3762,0.019825,0.013662,0.008285,0.001148,-0.000448,8.8e-05,0.023771,-0.496872,0.008163,-0.154639,-263.056335,-0.637596,67.863595
9.3962,0.019226,0.013632,0.008702,0.001149,-0.000453,0.000192,0.023891,-0.496647,0.008216,-0.154639,-263.056335,-0.637596,67.863595
9.4157,0.019024,0.013562,0.007876,0.001149,-0.000457,0.000271,0.023673,-0.496353,0.008705,-0.229733,-263.056205,-0.562503,67.863729
9.4356,0.019421,0.013533,0.008577,0.001159,-0.000477,0.00037,0.023094,-0.496417,0.007945,-0.229733,-263.056205,-0.562503,67.863729
9.4557,0.019725,0.0133,0.008495,0.001167,-0.000493,0.000445,0.023094,-0.496417,0.007945,-0.229733,-263.056205,-0.562503,67.863729
9.476,0.020015,0.013598,0.008636,0.001174,-0.000506,0.000501,0.024102,-0.496698,0.008505,-0.248263,-263.055767,-0.496308,67.864212
9.4961,0.019808,0.013666,0.007189,0.001168,-0.000495,0.000462,0.024235,-0.496573,0.008559,-0.248263,-263.055767,-0.496308,67.864212
9.516,0.019999,0.01319,0.010189,0.001162,-0.000486,0.000433,0.023503,-0.496332,0.0072,-0.173532,-263.055411,-0.571039,67.864639
9.5362,0.020023,0.013152,0.009044,0.001149,-0.000458,0.000279,0.025044,-0.496743,0.00992,-0.173532,-263.055411,-0.571039,67.864639
9.556,0.019638,0.013163,0.010203,0.001138,-0.000436,0.000158,0.025044,-0.496743,0.00992,-0.173532,-263.055411,-0.571039,67.864639
9.5758,0.019889,0.013533,0.009348,0.00113,-0.000418,6.4e-05,0.02489,-0.49683,0.010221,-0.188874,-263.05494,-0.573391,67.86519
9.5956,0.019756,0.013222,0.009481,0.001126,-0.000409,-6e-06,0.024801,-0.496677,0.009871,-0.188874,-263.05494,-0.573391,67.86519
9.6156,0.019941,0.013335,0.008273,0.001123,-0.000402,-6.1e-05,0.024606,-0.496761,0.009484,-0.263862,-263.05474,-0.498403,67.865395
9.6359,0.020108,0.013635,0.009998,0.001125,-0.00041,5.7e-05,0.024201,-0.496658,0.008381,-0.263862,-263.05474,-0.498403,67.865395
9.6556,0.019863,0.013381,0.007907,0.001127,-0.000416,0.000146,0.024201,-0.496658,0.008381,-0.263862,-263.05474,-0.498403,67.865395
9.6756,0.02004,0.013311,0.00861,0.001127,-0.00042,0.000213,0.023918,-0.496612,0.007908,-0.338847,-263.054508,-0.423418,67.865621
9.6956,0.020053,0.013683,0.009379,0.001129,-0.000425,0.00029,0.024131,-0.496637,0.008197,-0.338847,-263.054508,-0.423418,67.865621
9.7157,0.020056,0.013225,0.007547,0.00113,-0.000429,0.000347,0.024867,-0.496306,0.009385,-0.263749,-263.054102,-0.454371,67.866059
9.7357,0.019728,0.013386,0.009917,0.001131,-0.000431,0.000461,0.023989,-0.496722,0.007706,-0.263749,-263.054102,-0.454371,67.866059
9.7558,0.020002,0.013123,0.007995,0.001132,-0.000433,0.000547,0.023989,-0.496722,0.007706,-0.263749,-263.054102,-0.454371,67.866059
9.7761,0.019542,0.013437,0.010737,0.001132,-0.000433,0.000611,0.02412,-0.496876,0.008008,-0.189332,-263.053705,-0.515784,67.866507
9.796,0.0196,0.013239,0.009309,0.001127,-0.000423,0.000487,0.024493,-0.496737,0.00913,-0.189332,-263.053705,-0.515784,67.866507
9.8154,0.019992,0.0135,0.009063,0.001124,-0.000415,0.00039,0.024371,-0.496748,0.00932,-0.114283,-263.053423,-0.590832,67.866854
9.8354,0.01975,0.013358,0.008822,0.001124,-0.000414,0.00032,0.024593,-0.496504,0.009087,-0.114283,-263.053423,-0.590832,67.866854
9.8558,0.019861,0.01334,0.007955,0.001124,-0.000414,0.000265,0.024593,-0.496504,0.009087,-0.114283,-263.053423,-0.590832,67.866854
9.876,0.019613,0.013309,0.010056,0.001124,-0.000414,0.000223,0.023961,-0.496659,0.00797,-0.155782,-263.053008,-0.526088,67.867328
9.8963,0.020074,0.013133,0.008401,0.001124,-0.000415,0.000219,0.024285,-0.496663,0.008823,-0.155782,-263.053008,-0.526088,67.867328
9.916,0.019983,0.013352,0.01035,0.001124,-0.000417,0.000215,0.024389,-0.49686,0.008407,-0.230889,-263.052629,-0.455153,67.867737
9.936,0.020314,0.013238,0.007544,0.001118,-0.000401,9e-05,0.025186,-0.496642,0.010178,-0.230889,-263.052629,-0.455153,67.867737
9.9561,0.020023,0.013311,0.008988,0.001112,-0.000388,-8e-06,0.025186,-0.496642,0.010178,-0.230889,-263.052629,-0.455153,67.867737
9.976,0.019925,0.01335,0.007874,0.001108,-0.000378,-8.6e-05,0.024654,-0.496685,0.008997,-0.248444,-263.052167,-0.453801,67.868235
9.9959,0.020137,0.013741,0.00867,0.001111,-0.000387,1.7e-05,0.024367,-0.496666,0.008538,-0.248444,-263.052167,-0.453801,67.868235
10.0158,0.020099,0.013137,0.007613,0.001113,-0.000394,9.6e-05,0.024576,-0.496246,0.008671,-0.32348,-263.051929,-0.378764,67.868467
10.0361,0.019747,0.013237,0.010562,0.001117,-0.000402,0.000274,0.024034,-0.496797,0.007704,-0.32348,-263.051929,-0.378764,67.868467
10.056,0.020159,0.013214,0.008553,0.001119,-0.000407,0.000407,0.024034,-0.496797,0.007704,-0.32348,-263.051929,-0.378764,67.868467
10.0758,0.020405,0.013051,0.00983,0.00112,-0.00041,0.000507,0.024568,-0.496783,0.008557,-0.292816,-263.051472,-0.385891,67.868939
10.0959,0.019949,0.013016,0.008837,0.001114,-0.000395,0.000411,0.024916,-0.496842,0.009071,-0.292816,-263.051472,-0.385891,67.868939
10.1154,0.019905,0.012761,0.008694,0.001108,-0.000384,0.000336,0.024467,-0.496968,0.008839,-0.217983,-263.051339,-0.460725,67.869096
10.136,0.02014,0.013142,0.009401,0.001103,-0.000374,0.000318,0.024351,-0.497197,0.008707,-0.217983,-263.051339,-0.460725,67.869096
10.1558,0.020121,0.013277,0.00703,0.001098,-0.000366,0.000304,0.024351,-0.497197,0.008707,-0.217983,-263.051339,-0.460725,67.869096
10.1757,0.020251,0.013667,0.010878,0.001094,-0.00036,0.000293,0.023749,-0.496725,0.007043,-0.159648,-263.050919,-0.488838,67.869565
10.1959,0.020135,0.013098,0.009695,0.001098,-0.000368,0.000299,0.024582,-0.496556,0.008593,-0.159648,-263.050919,-0.488838,67.869565
10.2158,0.020525,0.013444,0.008207,0.001101,-0.000375,0.000304,0.025114,-0.496889,0.009704,-0.163813,-263.050483,-0.457355,67.870045
10.2358,0.020324,0.013107,0.009716,0.001102,-0.000379,0.000338,0.024749,-0.496571,0.008345,-0.163813,-263.050483,-0.457355,67.870045
10.2556,0.020103,0.012953,0.009577,0.001102,-0.000381,0.000364,0.024749,-0.496571,0.008345,-0.163813,-263.050483,-0.457355,67.870045
10.2758,0.020218,0.013339,0.008448,0.001103,-0.000384,0.000383,0.025033,-0.497039,0.00959,-0.170475,-263.050038,-0.470988,67.870538
10.2958,0.020038,0.013264,0.00952,0.001099,-0.000374,0.000309,0.024832,-0.496879,0.009126,-0.170475,-263.050038,-0.470988,67.870538
10.3155,0.020282,0.012768,0.008223,0.001096,-0.000367,0.000252,0.024927,-0.496724,0.009532,-0.13469,-263.049613,-0.51052,67.871021
10.3359,0.020421,0.013005,0.010366,0.001091,-0.000359,0.000298,0.024518,-0.497171,0.008342,-0.13469,-263.049613,-0.51052,67.871021
10.3562,0.020249,0.01325,0.007091,0.001087,-0.000353,0.000332,0.024518,-0.497171,0.008342,-0.13469,-263.049613,-0.51052,67.871021
10.3757,0.020598,0.013059,0.009926,0.001084,-0.000347,0.000358,0.023906,-0.49675,0.0071,-0.191507,-263.049218,-0.443572,67.87145
10.3959,0.020172,0.013534,0.008809,0.001085,-0.00035,0.000392,0.024621,-0.496819,0.008246,-0.191507,-263.049218,-0.443572,67.87145
10.4159,0.020643,0.013082,0.009504,0.001085,-0.000352,0.000417,0.024695,-0.496456,0.008819,-0.117623,-263.048827,-0.481237,67.871888
10.4357,0.020592,0.01335,0.009178,0.00108,-0.000338,0.000305,0.02542,-0.496857,0.009443,-0.117623,-263.048827,-0.481237,67.871888
10.4557,0.020063,0.012961,0.010593,0.001076,-0.000328,0.000218,0.02542,-0.496857,0.009443,-0.117623,-263.048827,-0.481237,67.871888
10.4761,0.020527,0.013087,0.009711,0.001073,-0.00032,0.000151,0.025509,-0.497025,0.01061,-0.089251,-263.048402,-0.509645,67.872372
10.4962,0.020342,0.013626,0.008705,0.001068,-0.000305,3.4e-05,0.025502,-0.496971,0.010246,-0.089251,-263.048402,-0.509645,67.872372
10.5159,0.020633,0.012952,0.008374,0.001064,-0.000295,-5.7e-05,0.024801,-0.49636,0.008709,-0.164201,-263.048151,-0.434695,67.872635
10.5357,0.020689,0.012945,0.008172,0.001065,-0.000301,5.6e-05,0.024895,-0.496971,0.008404,-0.164201,-263.048151,-0.434695,67.872635
10.5561,0.020221,0.013232,0.010086,0.001066,-0.000305,0.000142,0.024895,-0.496971,0.008404,-0.164201,-263.048151,-0.434695,67.872635
10.5758,0.020117,0.013268,0.008546,0.001067,-0.000308,0.000207,0.025383,-0.496747,0.010088,-0.239236,-263.047973,-0.35966,67.872811
10.5956,0.020203,0.013285,0.00895,0.001069,-0.000311,0.000142,0.025016,-0.496734,0.009462,-0.239236,-263.047973,-0.35966,67.872811
10.6156,0.020555,0.012942,0.010362,0.001072,-0.000315,9.1e-05,0.024798,-0.496703,0.008956,-0.168565,-263.047578,-0.386538,67.873231
10.636,0.020732,0.013002,0.008661,0.001065,-0.000298,-1.3e-05,0.025748,-0.497001,0.010237,-0.168565,-263.047578,-0.386538,67.873231
10.6559,0.020558,0.012932,0.009254,0.00106,-0.000285,-9.4e-05,0.025748,-0.497001,0.010237,-0.168565,-263.047578,-0.386538,67.873231
10.6757,0.02067,0.01362,0.007929,0.001056,-0.000274,-0.000158,0.025317,-0.497058,0.009257,-0.237206,-263.047187,-0.332405,67.873633
10.6957,0.020819,0.013151,0.009586,0.00106,-0.000286,-6e-05,0.025076,-0.496777,0.008716,-0.237206,-263.047187,-0.332405,67.873633
10.7156,0.021097,0.013055,0.008636,0.001064,-0.000296,1.5e-05,0.025726,-0.49683,0.009585,-0.31221,-263.046942,-0.257401,67.873867
10.7359,0.020665,0.013148,0.009443,0.001061,-0.000294,7.1e-05,0.025523,-0.496918,0.008721,-0.31221,-263.046942,-0.257401,67.873867
10.7557,0.020537,0.013113,0.009777,0.001059,-0.000291,0.000113,0.025523,-0.496918,0.008721,-0.31221,-263.046942,-0.257401,67.873867
10.7757,0.020723,0.012932,0.008621,0.001057,-0.000289,0.000146,0.025566,-0.496874,0.009778,-0.26332,-263.046521,-0.279394,67.87429
10.7957,0.020645,0.013037,0.008956,0.001056,-0.000286,0.000108,0.025388,-0.496947,0.009304,-0.26332,-263.046521,-0.279394,67.87429
10.8156,0.021071,0.01301,0.008645,0.001056,-0.000284,7.9e-05,0.025241,-0.49695,0.008959,-0.188276,-263.046154,-0.34331,67.874673
10.8359,0.020595,0.013101,0.010112,0.001054,-0.000282,0.000125,0.025461,-0.496969,0.008674,-0.188276,-263.046154,-0.34331,67.874673
10.8558,0.020656,0.012861,0.009179,0.001053,-0.000281,0.00016,0.025461,-0.496969,0.008674,-0.188276,-263.046154,-0.34331,67.874673
10.8756,0.020929,0.012984,0.007317,0.001051,-0.000279,0.000187,0.02538,-0.497129,0.009182,-0.219215,-263.045738,-0.304758,67.875099
10.8957,0.021017,0.013159,0.009987,0.001051,-0.00028,0.000239,0.025092,-0.497079,0.008423,-0.219215,-263.045738,-0.304758,67.875099
10.9158,0.020663,0.013253,0.009361,0.00105,-0.00028,0.000278,0.02614,-0.496823,0.009992,-0.155576,-263.045357,-0.358197,67.875501
10.9355,0.020624,0.01295,0.008658,0.001052,-0.000281,0.0002,0.025503,-0.496734,0.009419,-0.155576,-263.045357,-0.358197,67.875501
10.9557,0.02075,0.012846,0.008686,0.001053,-0.000282,0.00014,0.025503,-0.496734,0.009419,-0.155576,-263.045357,-0.358197,67.875501
10.9761,0.020897,0.013,0.009503,0.001055,-0.000283,9.3e-05,0.025221,-0.497145,0.008697,-0.10493,-263.044965,-0.404769,67.875925
10.9958,0.020522,0.01312,0.010294,0.001052,-0.000278,9.6e-05,0.025438,-0.497078,0.009026,-0.10493,-263.044965,-0.404769,67.875925
11.0155,0.020657,0.012926,0.008923,0.00105,-0.000274,9.8e-05,0.025797,-0.49686,0.010297,-0.17993,-263.044652,-0.32977,67.876247
11.0356,0.020961,0.012921,0.008217,0.00105,-0.000274,9.8e-05,0.025262,-0.497037,0.009046,-0.17993,-263.044652,-0.32977,67.876247
11.0558,0.021001,0.013014,0.008847,0.00105,-0.000274,9.8e-05,0.025262,-0.497037,0.009046,-0.17993,-263.044652,-0.32977,67.876247
11.0755,0.021121,0.012996,0.00948,0.00105,-0.000274,9.7e-05,0.025557,-0.496977,0.008851,-0.20142,-263.044229,-0.307986,67.876681
11.096,0.021057,0.012896,0.008684,0.001047,-0.000269,9e-05,0.025725,-0.49698,0.009108,-0.20142,-263.044229,-0.307986,67.876681
11.1163,0.021469,0.013188,0.008153,0.001045,-0.000265,8.5e-05,0.025519,-0.497093,0.008687,-0.201155,-263.043801,-0.307273,67.877122
11.1362,0.021142,0.01287,0.009241,0.001046,-0.000268,0.00019,0.025618,-0.496826,0.008208,-0.201155,-263.043801,-0.307273,67.877122
11.1559,0.02143,0.012866,0.009692,0.001046,-0.000271,0.00027,0.025618,-0.496826,0.008208,-0.201155,-263.043801,-0.307273,67.877122
11.1757,0.020826,0.012689,0.010533,0.001046,-0.000272,0.00033,0.026417,-0.497121,0.009695,-0.200844,-263.043375,-0.293953,67.877558
11.1958,0.021106,0.012784,0.009016,0.001036,-0.000248,0.000189,0.026332,-0.497188,0.010038,-0.200844,-263.043375,-0.293953,67.877558
11.2161,0.020821,0.01315,0.009756,0.001029,-0.000229,7.9e-05,0.025723,-0.497201,0.00902,-0.125752,-263.043136,-0.369044,67.877819
11.2362,0.021292,0.01322,0.009416,0.001031,-0.000231,2.1e-05,0.025791,-0.496859,0.009692,-0.125752,-263.043136,-0.369044,67.877819
11.2561,0.021216,0.012976,0.008074,0.001032,-0.000233,-2.4e-05,0.025791,-0.496859,0.009692,-0.125752,-263.043136,-0.369044,67.877819
11.2761,0.020841,0.0131,0.00906,0.001034,-0.000235,-5.9e-05,0.025368,-0.497015,0.008077,-0.174099,-263.0428,-0.294051,67.878162
11.2959,0.021686,0.012946,0.010179,0.001037,-0.000244,4.5e-05,0.02541,-0.49696,0.008479,-0.174099,-263.0428,-0.294051,67.878162
11.3155,0.020782,0.012874,0.008059,0.001039,-0.00025,0.000124,0.026902,-0.497033,0.010178,-0.249125,-263.042477,-0.219025,67.87848
11.3357,0.021162,0.01274,0.008758,0.00104,-0.000255,0.000216,0.025063,-0.497104,0.008238,-0.249125,-263.042477,-0.219025,67.87848
11.356,0.02103,0.013116,0.008969,0.001042,-0.000259,0.000286,0.025063,-0.497104,0.008238,-0.249125,-263.042477,-0.219025,67.87848
11.3757,0.021288,0.013207,0.010555,0.001042,-0.000262,0.000339,0.025639,-0.496872,0.008973,-0.174104,-263.042142,-0.294046,67.878826
11.3961,0.02089,0.012423,0.009513,0.00104,-0.000254,0.000231,0.026058,-0.496829,0.00961,-0.174104,-263.042142,-0.294046,67.878826
11.4158,0.021127,0.012712,0.009819,0.001038,-0.000248,0.000147,0.025762,-0.497559,0.009518,-0.099313,-263.041889,-0.368836,67.879103
11.4358,0.02123,0.012949,0.01079,0.001031,-0.000231,6.4e-05,0.026102,-0.49729,0.009792,-0.099313,-263.041889,-0.368836,67.879103
11.456,0.021231,0.012739,0.009332,0.001025,-0.000217,-0.0,0.026102,-0.49729,0.009792,-0.099313,-263.041889,-0.368836,67.879103
11.4756,0.02106,0.013049,0.009528,0.00102,-0.000206,-5.1e-05,0.02603,-0.497248,0.009338,-0.151898,-263.041506,-0.314734,67.879502
11.4958,0.021346,0.013058,0.009827,0.00102,-0.000205,-5.5e-05,0.02599,-0.49712,0.009415,-0.151898,-263.041506,-0.314734,67.879502
11.5156,0.021261,0.013113,0.009962,0.001019,-0.000204,-5.8e-05,0.026379,-0.496922,0.009828,-0.226896,-263.041233,-0.239736,67.879771
11.5355,0.021382,0.01295,0.010247,0.001019,-0.000202,-0.000108,0.026346,-0.496867,0.00995,-0.226896,-263.041233,-0.239736,67.879771
11.5556,0.021297,0.013033,0.010013,0.001019,-0.000202,-0.000146,0.026346,-0.496867,0.00995,-0.226896,-263.041233,-0.239736,67.879771
11.5757,0.021379,0.013068,0.010087,0.00102,-0.000201,-0.000177,0.026442,-0.496949,0.010011,-0.230593,-263.040852,-0.164729,67.880148
11.5955,0.021425,0.013123,0.009741,0.001018,-0.000198,-0.000208,0.02648,-0.496932,0.010041,-0.230593,-263.040852,-0.164729,67.880148
11.6154,0.020911,0.013209,0.008334,0.001017,-0.000195,-0.000232,0.026421,-0.496858,0.009737,-0.294502,-263.040485,-0.091456,67.8805
11.6355,0.021486,0.012979,0.009877,0.001027,-0.000217,-8.1e-05,0.025276,-0.496781,0.008459,-0.294502,-263.040485,-0.091456,67.8805
11.6555,0.021335,0.012858,0.009879,0.001034,-0.000234,3.3e-05,0.025276,-0.496781,0.008459,-0.294502,-263.040485,-0.091456,67.8805
11.6757,0.021188,0.012759,0.009783,0.001039,-0.000248,0.000119,0.026414,-0.497124,0.00987,-0.3198,-263.040071,-0.052452,67.880893
11.6956,0.021484,0.012627,0.008445,0.001032,-0.000232,4e-05,0.026322,-0.497163,0.009833,-0.3198,-263.040071,-0.052452,67.880893
11.7158,0.021054,0.012451,0.008936,0.001027,-0.000218,-2.2e-05,0.0258,-0.497356,0.008444,-0.2448,-263.039963,-0.127452,67.881005
11.7358,0.021928,0.012628,0.009703,0.001022,-0.000211,2.2e-05,0.025629,-0.497513,0.008891,-0.2448,-263.039963,-0.127452,67.881005
11.7559,0.021219,0.013241,0.009629,0.001018,-0.000204,5.5e-05,0.025629,-0.497513,0.008891,-0.2448,-263.039963,-0.127452,67.881005
11.7756,0.021594,0.012564,0.010275,0.001014,-0.000197,8.1e-05,0.026169,-0.496744,0.009628,-0.222194,-263.039576,-0.196805,67.881389
11.796,0.021823,0.012583,0.008269,0.001012,-0.000191,6e-06,0.026447,-0.497018,0.009894,-0.222194,-263.039576,-0.196805,67.881389
11.8158,0.021893,0.013051,0.010375,0.00101,-0.000186,-5.3e-05,0.026069,-0.497405,0.008271,-0.147221,-263.039215,-0.23901,67.881757
11.8355,0.021456,0.012703,0.009703,0.001006,-0.000174,-0.000123,0.027084,-0.496966,0.010184,-0.147221,-263.039215,-0.23901,67.881757
11.8555,0.021426,0.012988,0.009622,0.001002,-0.000165,-0.000177,0.027084,-0.496966,0.010184,-0.147221,-263.039215,-0.23901,67.881757
11.8759,0.022101,0.012916,0.009424,0.000999,-0.000158,-0.000219,0.026368,-0.496995,0.009621,-0.21289,-263.038874,-0.164121,67.882094
11.8958,0.021639,0.012727,0.009311,0.001,-0.00016,-0.000197,0.026595,-0.497023,0.009539,-0.21289,-263.038874,-0.164121,67.882094
11.9156,0.021507,0.012876,0.009469,0.001,-0.000161,-0.00018,0.026408,-0.497255,0.009307,-0.284497,-263.038594,-0.088985,67.882364
11.9357,0.021729,0.013092,0.007668,0.001001,-0.000163,-0.000158,0.026343,-0.497114,0.009455,-0.284497,-263.038594,-0.088985,67.882364
11.9557,0.022129,0.013127,0.009628,0.001002,-0.000165,-0.000141,0.026343,-0.497114,0.009455,-0.284497,-263.038594,-0.088985,67.882364
11.9756,0.021618,0.012865,0.01054,0.001002,-0.000166,-0.000128,0.02708,-0.496856,0.00962,-0.264687,-263.038192,-0.051535,67.882752
11.9958,0.022023,0.012873,0.00888,0.000999,-0.00016,-0.000166,0.027049,-0.496959,0.009995,-0.264687,-263.038192,-0.051535,67.882752
12.0157,0.021828,0.012878,0.009374,0.000998,-0.000155,-0.000196,0.026583,-0.497112,0.008876,-0.239103,-263.037791,-0.087104,67.883143
12.0356,0.021851,0.012742,0.008536,0.000997,-0.000156,-0.000158,0.026609,-0.497101,0.009329,-0.239103,-263.037791,-0.087104,67.883143
12.056,0.021305,0.01269,0.010167,0.000997,-0.000156,-0.000129,0.026609,-0.497101,0.009329,-0.239103,-263.037791,-0.087104,67.883143
12.076,0.021504,0.01314,0.01024,0.000996,-0.000156,-0.000107,0.02653,-0.497289,0.01016,-0.268695,-263.0374,-0.035184,67.88352
12.0961,0.021485,0.012905,0.00948,0.000995,-0.000151,-0.000164,0.026615,-0.497103,0.010192,-0.268695,-263.0374,-0.035184,67.88352
12.1155,0.021667,0.013051,0.009088,0.000994,-0.000148,-0.000209,0.026349,-0.497076,0.009477,-0.218014,-263.037027,-0.090641,67.883886
12.1355,0.022065,0.012577,0.009219,0.000998,-0.000158,-0.000145,0.026308,-0.496941,0.009122,-0.218014,-263.037027,-0.090641,67.883886
12.1558,0.022075,0.012724,0.010221,0.001001,-0.000166,-9.7e-05,0.026308,-0.496941,0.009122,-0.218014,-263.037027,-0.090641,67.883886
12.1759,0.02175,0.013106,0.008674,0.001003,-0.000173,-5.9e-05,0.027325,-0.497255,0.010214,-0.270774,-263.036662,-0.020643,67.884238
12.196,0.021945,0.01333,0.009204,0.001,-0.000165,-7.7e-05,0.026858,-0.4971,0.009583,-0.270774,-263.036662,-0.020643,67.884238
12.2155,0.021701,0.013096,0.00885,0.000998,-0.000159,-9.2e-05,0.026664,-0.496652,0.009202,-0.205008,-263.036352,-0.095672,67.884544
12.2357,0.021653,0.012555,0.009853,0.001002,-0.00017,-2.8e-05,0.026254,-0.496864,0.00888,-0.205008,-263.036352,-0.095672,67.884544
12.2558,0.021973,0.012495,0.007991,0.001005,-0.000178,2e-05,0.026254,-0.496864,0.00888,-0.205008,-263.036352,-0.095672,67.884544
12.2755,0.021979,0.013098,0.008123,0.001007,-0.000185,5.7e-05,0.02609,-0.497495,0.007987,-0.212241,-263.035944,-0.103073,67.884945
12.2955,0.022448,0.013004,0.008409,0.001006,-0.000184,0.000193,0.026108,-0.497246,0.008042,-0.212241,-263.035944,-0.103073,67.884945
12.3155,0.021879,0.012637,0.010251,0.001004,-0.000182,0.000295,0.026762,-0.496981,0.00841,-0.147595,-263.035633,-0.17811,67.88526
12.3361,0.022032,0.012727,0.010272,0.000995,-0.000159,0.000159,0.027076,-0.497304,0.010083,-0.147595,-263.035633,-0.17811,67.88526
12.3559,0.021829,0.012877,0.009274,0.000988,-0.000141,5.2e-05,0.027076,-0.497304,0.010083,-0.147595,-263.035633,-0.17811,67.88526
12.3759,0.022046,0.012878,0.009776,0.000983,-0.000128,-3.3e-05,0.026579,-0.497104,0.009277,-0.072747,-263.035452,-0.252958,67.885452
12.3955,0.021589,0.012662,0.008256,0.000983,-0.000128,-4.7e-05,0.026763,-0.497102,0.009479,-0.072747,-263.035452,-0.252958,67.885452
12.4156,0.022106,0.012554,0.009114,0.000983,-0.000129,-5.8e-05,0.02582,-0.497324,0.008257,-0.147855,-263.035192,-0.17785,67.88571
12.4356,0.022089,0.012828,0.009241,0.00098,-0.000124,-2.2e-05,0.026676,-0.497417,0.009041,-0.147855,-263.035192,-0.17785,67.88571
12.4558,0.021955,0.012643,0.009593,0.000978,-0.000119,5e-06,0.026676,-0.497417,0.009041,-0.147855,-263.035192,-0.17785,67.88571
12.4759,0.022014,0.012839,0.008539,0.000975,-0.000115,2.6e-05,0.026884,-0.497338,0.009591,-0.165197,-263.034837,-0.10284,67.886063
12.496,0.021843,0.012768,0.010114,0.000975,-0.000115,3e-05,0.026676,-0.497258,0.009157,-0.165197,-263.034837,-0.10284,67.886063
12.5159,0.022367,0.013038,0.010306,0.000975,-0.000115,3.4e-05,0.027029,-0.497209,0.010115,-0.10159,-263.034475,-0.133905,67.886426
12.5358,0.022067,0.012676,0.008754,0.000972,-0.000107,-6.1e-05,0.027574,-0.496959,0.01029,-0.10159,-263.034475,-0.133905,67.886426
12.556,0.022191,0.012786,0.008275,0.000971,-0.000101,-0.000135,0.027574,-0.496959,0.01029,-0.10159,-263.034475,-0.133905,67.886426
12.5759,0.022296,0.012914,0.008088,0.00097,-9.7e-05,-0.000194,0.026452,-0.497201,0.008276,-0.096982,-263.034083,-0.138612,67.88682
12.5957,0.02217,0.012919,0.00929,0.000974,-0.000109,-1.8e-05,0.026444,-0.497148,0.008199,-0.096982,-263.034083,-0.138612,67.88682
12.6158,0.021991,0.01256,0.009174,0.000977,-0.000118,0.000115,0.026924,-0.49706,0.009289,-0.171972,-263.033877,-0.063622,67.887021
12.6361,0.022289,0.012576,0.009255,0.000975,-0.000113,9.6e-05,0.026693,-0.497386,0.009184,-0.171972,-263.033877,-0.063622,67.887021
12.6557,0.022241,0.012548,0.011155,0.000973,-0.000109,8.2e-05,0.026693,-0.497386,0.009184,-0.171972,-263.033877,-0.063622,67.887021
12.6756,0.021669,0.012595,0.009243,0.000971,-0.000106,7.1e-05,0.027954,-0.497423,0.011156,-0.097117,-263.033639,-0.138477,67.887263
12.6959,0.022422,0.012316,0.010076,0.000965,-9e-05,-3.7e-05,0.027309,-0.497407,0.010366,-0.097117,-263.033639,-0.138477,67.887263
12.7156,0.022577,0.012753,0.009084,0.000961,-7.8e-05,-0.000122,0.027591,-0.497661,0.010078,-0.064501,-263.033258,-0.152632,67.887648
12.736,0.022492,0.012822,0.009877,0.00096,-7.8e-05,-8.5e-05,0.027244,-0.497264,0.009169,-0.064501,-263.033258,-0.152632,67.887648
12.756,0.022322,0.012311,0.010109,0.000959,-7.8e-05,-5.6e-05,0.027244,-0.497264,0.009169,-0.064501,-263.033258,-0.152632,67.887648
12.7755,0.022389,0.012482,0.009847,0.000959,-7.7e-05,-3.4e-05,0.027503,-0.497665,0.010108,-0.139502,-263.033021,-0.077631,67.887882
12.7957,0.022176,0.012749,0.00987,0.000953,-6.2e-05,-9.4e-05,0.027467,-0.497594,0.01,-0.139502,-263.033021,-0.077631,67.887882
12.8159,0.022426,0.012666,0.008854,0.000948,-5e-05,-0.000141,0.027239,-0.497228,0.009869,-0.101936,-263.032646,-0.058414,67.888256
12.8359,0.0223,0.012654,0.008807,0.00095,-5.7e-05,-7.4e-05,0.026968,-0.497307,0.008939,-0.101936,-263.032646,-0.058414,67.888256
12.8561,0.022065,0.012498,0.010186,0.000952,-6.2e-05,-2.3e-05,0.026968,-0.497307,0.008939,-0.101936,-263.032646,-0.058414,67.888256
12.8759,0.022292,0.012637,0.009841,0.000953,-6.6e-05,1.7e-05,0.027293,-0.497477,0.010181,-0.142559,-263.032325,0.016612,67.888574
12.896,0.022739,0.012762,0.01147,0.00095,-5.8e-05,-5.6e-05,0.027304,-0.49742,0.010041,-0.142559,-263.032325,0.016612,67.888574
12.9162,0.022189,0.012885,0.010815,0.000948,-5.2e-05,-0.000114,0.028611,-0.497206,0.01147,-0.067587,-263.032032,-0.058359,67.888868
12.9359,0.022704,0.012824,0.009275,0.000947,-4.6e-05,-0.000212,0.027784,-0.497096,0.010871,-0.067587,-263.032032,-0.058359,67.888868
12.956,0.022391,0.012637,0.008493,0.000946,-4.2e-05,-0.00029,0.027784,-0.497096,0.010871,-0.067587,-263.032032,-0.058359,67.888868
12.9757,0.022102,0.012605,0.00731,0.000946,-3.9e-05,-0.000352,0.026756,-0.497346,0.008488,-0.127623,-263.031703,0.016685,67.889193
12.9956,0.022355,0.013258,0.008399,0.000952,-5.7e-05,-0.000105,0.026381,-0.497361,0.008005,-0.127623,-263.031703,0.016685,67.889193
13.0155,0.022537,0.01255,0.009573,0.000957,-7e-05,7.9e-05,0.026653,-0.496724,0.008396,-0.202586,-263.031516,0.091648,67.889377
13.0355,0.022563,0.012662,0.010509,0.000955,-6.4e-05,4.1e-05,0.027354,-0.497366,0.009471,-0.202586,-263.031516,0.091648,67.889377
13.0556,0.022536,0.013027,0.008151,0.000953,-6e-05,1.2e-05,0.027354,-0.497366,0.009471,-0.202586,-263.031516,0.091648,67.889377
13.076,0.022917,0.012702,0.009857,0.000951,-5.6e-05,-1.1e-05,0.026704,-0.496957,0.00815,-0.127582,-263.031408,0.016644,67.889486
13.0955,0.022313,0.012789,0.007396,0.000954,-6.4e-05,3.6e-05,0.02722,-0.497089,0.008859,-0.127582,-263.031408,0.016644,67.889486
13.1157,0.022455,0.012857,0.009331,0.000955,-7e-05,7.2e-05,0.026111,-0.497199,0.007396,-0.065932,-263.031075,-0.051641,67.889819
13.1359,0.022713,0.012973,0.007515,0.000957,-7.4e-05,6.6e-05,0.027122,-0.497127,0.009167,-0.065932,-263.031075,-0.051641,67.889819
13.1556,0.022569,0.012591,0.010416,0.000958,-7.7e-05,6.1e-05,0.027122,-0.497127,0.009167,-0.065932,-263.031075,-0.051641,67.889819
13.1759,0.022477,0.012931,0.008726,0.00096,-8.1e-05,5.8e-05,0.027918,-0.497384,0.010419,-0.027004,-263.030728,-0.118311,67.890168
13.1956,0.022814,0.012584,0.007561,0.000957,-7.3e-05,1e-06,0.027517,-0.497247,0.009727,-0.027004,-263.030728,-0.118311,67.890168
13.216,0.02262,0.012584,0.009219,0.000955,-6.8e-05,-4.3e-05,0.0267,-0.497403,0.007563,-0.047274,-263.030346,-0.119935,67.890552
13.2358,0.022718,0.012596,0.009843,0.000953,-6.5e-05,-1.5e-05,0.027269,-0.497395,0.009076,-0.047274,-263.030346,-0.119935,67.890552
13.2558,0.022831,0.012411,0.009874,0.000951,-6.3e-05,7e-06,0.027269,-0.497395,0.009076,-0.047274,-263.030346,-0.119935,67.890552
13.2757,0.023039,0.012941,0.00847,0.00095,-6e-05,2.4e-05,0.027901,-0.497566,0.009872,-0.098461,-263.030011,-0.044924,67.890886
13.2959,0.022819,0.012852,0.008771,0.000947,-5.4e-05,1.4e-05,0.027682,-0.49735,0.009295,-0.098461,-263.030011,-0.044924,67.890886
13.3163,0.022827,0.012442,0.007332,0.000944,-4.8e-05,7e-06,0.027321,-0.49713,0.008771,-0.047684,-263.029653,-0.078823,67.891245
13.3356,0.022234,0.012674,0.00924,0.000948,-5.6e-05,0.000247,0.026632,-0.497509,0.007455,-0.047684,-263.029653,-0.078823,67.891245
13.3556,0.022778,0.012563,0.008638,0.000949,-6.1e-05,0.000426,0.026632,-0.497509,0.007455,-0.047684,-263.029653,-0.078823,67.891245
13.3758,0.022694,0.013089,0.008493,0.00095,-6.3e-05,0.00056,0.027222,-0.49742,0.008639,-0.046742,-263.029278,-0.055391,67.89162
13.3958,0.022791,0.01306,0.009071,0.000949,-6.3e-05,0.000505,0.027146,-0.497203,0.008579,-0.046742,-263.029278,-0.055391,67.89162
13.4158,0.022663,0.012488,0.011179,0.000949,-6.4e-05,0.000464,0.027417,-0.496919,0.009071,0.028227,-263.029269,-0.130361,67.89163
13.4356,0.022829,0.013098,0.010167,0.000938,-3.6e-05,0.000242,0.028284,-0.497432,0.011,0.028227,-263.029269,-0.130361,67.89163
13.456,0.022534,0.01279,0.008963,0.00093,-1.4e-05,6.5e-05,0.028284,-0.497432,0.011,0.028227,-263.029269,-0.130361,67.89163
13.4759,0.023206,0.012628,0.008912,0.000923,3e-06,-7.6e-05,0.027115,-0.49719,0.008966,0.103261,-263.029174,-0.205394,67.891728
13.4961,0.022728,0.012526,0.009615,0.000927,-8e-06,-2.3e-05,0.027378,-0.497257,0.008944,0.103261,-263.029174,-0.205394,67.891728
13.516,0.022853,0.01286,0.009424,0.00093,-1.6e-05,1.7e-05,0.027639,-0.497451,0.009616,0.028298,-263.029087,-0.130431,67.891815
13.5359,0.022922,0.012965,0.008289,0.000933,-2.1e-05,-3e-06,0.027658,-0.497148,0.009442,0.028298,-263.029087,-0.130431,67.891815
13.5559,0.022724,0.012296,0.010377,0.000935,-2.5e-05,-1.9e-05,0.027658,-0.497148,0.009442,0.028298,-263.029087,-0.130431,67.891815
13.5755,0.022746,0.012718,0.009177,0.000937,-2.9e-05,-3.2e-05,0.028048,-0.497677,0.010378,-0.006019,-263.028777,-0.05553,67.892125
13.5961,0.022747,0.012779,0.006977,0.000934,-2e-05,-8.2e-05,0.027795,-0.497505,0.009882,-0.006019,-263.028777,-0.05553,67.892125
13.6159,0.022732,0.012149,0.008253,0.000931,-1.3e-05,-0.000121,0.026333,-0.49721,0.006976,-0.051639,-263.028426,-0.009886,67.892475
13.6356,0.022945,0.012774,0.010225,0.000931,-1.5e-05,4.4e-05,0.02689,-0.497781,0.008144,-0.051639,-263.028426,-0.009886,67.892475
13.6555,0.023267,0.012879,0.010522,0.00093,-1.5e-05,0.000168,0.02689,-0.497781,0.008144,-0.051639,-263.028426,-0.009886,67.892475
13.6756,0.022909,0.012777,0.007585,0.000929,-1.5e-05,0.000262,0.028668,-0.497093,0.010518,-0.092831,-263.028094,0.065126,67.892806
13.6956,0.022924,0.0127,0.008777,0.00093,-1.5e-05,0.000199,0.027892,-0.497141,0.009307,-0.092831,-263.028094,0.065126,67.892806
13.716,0.022952,0.012591,0.007895,0.00093,-1.7e-05,0.000149,0.027405,-0.49728,0.008777,-0.017871,-263.028044,-0.009834,67.892857
13.7359,0.023271,0.012531,0.009334,0.000933,-2.5e-05,0.000273,0.027016,-0.497383,0.007972,-0.017871,-263.028044,-0.009834,67.892857
13.7558,0.023071,0.012757,0.009408,0.000935,-3.1e-05,0.000366,0.027016,-0.497383,0.007972,-0.017871,-263.028044,-0.009834,67.892857
13.7757,0.023112,0.012991,0.009276,0.000937,-3.5e-05,0.000436,0.027898,-0.49722,0.009411,0.057123,-263.027777,-0.084828,67.893125
13.7959,0.023186,0.012587,0.010542,0.000936,-3.2e-05,0.000329,0.027878,-0.497125,0.009356,0.057123,-263.027777,-0.084828,67.893125
13.8155,0.023066,0.012486,0.008716,0.000935,-2.9e-05,0.000246,0.02857,-0.497385,0.010544,0.132104,-263.027679,-0.159809,67.893225
13.8362,0.02316,0.012554,0.009573,0.000932,-2.4e-05,0.00023,0.027603,-0.497485,0.008875,0.132104,-263.027679,-0.159809,67.893225
13.8556,0.022942,0.012726,0.008114,0.00093,-2e-05,0.000217,0.027603,-0.497485,0.008875,0.132104,-263.027679,-0.159809,67.893225
13.876,0.022973,0.012771,0.010118,0.000928,-1.6e-05,0.000207,0.027119,-0.497258,0.008125,0.128342,-263.027308,-0.189673,67.8936
13.8959,0.02314,0.01284,0.008621,0.000929,-2e-05,0.000194,0.027537,-0.497236,0.008938,0.128342,-263.027308,-0.189673,67.8936
13.9157,0.023005,0.012677,0.010418,0.000931,-2.3e-05,0.000183,0.027565,-0.497141,0.008627,0.118404,-263.026943,-0.152675,67.893967
13.936,0.023041,0.012695,0.009329,0.000927,-1.1e-05,5.9e-05,0.028254,-0.497282,0.010264,0.118404,-263.026943,-0.152675,67.893967
13.9562,0.023077,0.012383,0.009491,0.000924,-2e-06,-3.9e-05,0.028254,-0.497282,0.010264,0.118404,-263.026943,-0.152675,67.893967
13.976,0.023131,0.013078,0.009653,0.000922,4e-06,-0.000117,0.027955,-0.497595,0.009498,0.094661,-263.026572,-0.144242,67.894339
13.9961,0.022865,0.012808,0.009709,0.000923,4e-06,-0.00012,0.028,-0.497308,0.009563,0.094661,-263.026572,-0.144242,67.894339
14.0157,0.023071,0.012581,0.009784,0.000923,3e-06,-0.000123,0.027824,-0.497168,0.00971,0.019649,-263.026469,-0.06923,67.894443
14.0358,0.023495,0.012462,0.009658,0.000923,5e-06,-0.000144,0.028041,-0.497375,0.009778,0.019649,-263.026469,-0.06923,67.894443
14.0559,0.023164,0.012679,0.010578,0.000922,7e-06,-0.000161,0.028041,-0.497375,0.009778,0.019649,-263.026469,-0.06923,67.894443
14.0757,0.02349,0.012781,0.009986,0.000922,9e-06,-0.000174,0.028581,-0.497293,0.010576,-0.055362,-263.026251,0.005781,67.894661
14.0956,0.023153,0.012761,0.00862,0.00092,1.5e-05,-0.000228,0.028584,-0.497252,0.010335,-0.055362,-263.026251,0.005781,67.894661
14.1157,0.023101,0.012763,0.00941,0.000918,2.1e-05,-0.000271,0.027571,-0.49722,0.008616,-0.105637,-263.025967,0.080778,67.894945
14.1366,0.023346,0.012514,0.009065,0.000922,1.1e-05,-0.000216,0.027871,-0.497215,0.009338,-0.105637,-263.025967,0.080778,67.894945
14.1563,0.023381,0.012338,0.008852,0.000924,4e-06,-0.000174,0.027871,-0.497215,0.009338,-0.105637,-263.025967,0.080778,67.894945
14.1758,0.022809,0.012731,0.008192,0.000926,-2e-06,-0.000142,0.027925,-0.497642,0.008844,-0.156269,-263.025682,0.155645,67.895232
14.1958,0.023135,0.012756,0.008904,0.000927,-5e-06,-3e-05,0.027544,-0.497482,0.008576,-0.156269,-263.025682,0.155645,67.895232
14.2158,0.023207,0.012945,0.01024,0.000926,-7e-06,5.4e-05,0.027701,-0.497224,0.0089,-0.095147,-263.025354,0.091464,67.89556
14.2357,0.023137,0.012425,0.009996,0.000926,-4e-06,-3.3e-05,0.028368,-0.497045,0.010124,-0.095147,-263.025354,0.091464,67.89556
14.2559,0.023148,0.01294,0.008901,0.000926,-3e-06,-0.000101,0.028368,-0.497045,0.010124,-0.095147,-263.025354,0.091464,67.89556
14.276,0.023198,0.012737,0.008838,0.000926,-2e-06,-0.000154,0.02771,-0.497039,0.0089,-0.020135,-263.025137,0.016452,67.895777
14.296,0.023683,0.012917,0.010307,0.00093,-1.2e-05,-7.6e-05,0.027711,-0.497122,0.008875,-0.020135,-263.025137,0.016452,67.895777
14.3157,0.023203,0.012946,0.008821,0.000932,-2e-05,-1.6e-05,0.028963,-0.497056,0.010304,-0.095022,-263.024838,0.091339,67.896076
14.3361,0.023299,0.012938,0.008448,0.000935,-2.7e-05,2.2e-05,0.027811,-0.497036,0.008947,-0.095022,-263.024838,0.091339,67.896076
14.3561,0.023557,0.013287,0.008205,0.000937,-3.3e-05,5.1e-05,0.027811,-0.497036,0.008947,-0.095022,-263.024838,0.091339,67.896076
14.3757,0.023052,0.012752,0.010265,0.000938,-3.7e-05,7.3e-05,0.027772,-0.496695,0.008204,-0.031957,-263.02454,0.016197,67.896374
14.3958,0.022995,0.012967,0.009425,0.00094,-4.1e-05,7.4e-05,0.027997,-0.496921,0.009089,-0.031957,-263.02454,0.016197,67.896374
14.4158,0.023307,0.012685,0.009204,0.000941,-4.5e-05,7.6e-05,0.027826,-0.49701,0.009427,0.007798,-263.024234,-0.059348,67.896681
14.4361,0.023318,0.012558,0.009214,0.000939,-3.9e-05,6.2e-05,0.027987,-0.497267,0.009225,0.007798,-263.024234,-0.059348,67.896681
14.4558,0.023072,0.012879,0.010069,0.000936,-3.4e-05,5.1e-05,0.027987,-0.497267,0.009225,0.007798,-263.024234,-0.059348,67.896681
14.4762,0.023663,0.012506,0.008919,0.000935,-3e-05,4.2e-05,0.028245,-0.497097,0.010072,0.001689,-263.023866,-0.096254,67.897051
14.496,0.023253,0.012682,0.009549,0.000932,-2.3e-05,-1e-06,0.028236,-0.49725,0.009604,0.001689,-263.023866,-0.096254,67.897051
14.5154,0.023796,0.012608,0.009641,0.00093,-1.7e-05,-3.5e-05,0.028152,-0.497296,0.00955,-0.00437,-263.0235,-0.059254,67.897418
14.5363,0.023276,0.012693,0.008868,0.000925,-5e-06,-6.4e-05,0.028666,-0.497362,0.009633,-0.00437,-263.0235,-0.059254,67.897418
14.5559,0.023524,0.01302,0.008201,0.000921,5e-06,-8.7e-05,0.028666,-0.497362,0.009633,-0.00437,-263.0235,-0.059254,67.897418
14.5759,0.023305,0.012676,0.008817,0.000918,1.3e-05,-0.000105,0.027743,-0.496964,0.0082,-0.040964,-263.023159,0.004638,67.897759
14.5956,0.023915,0.012861,0.009829,0.000922,1e-06,1.4e-05,0.027771,-0.497101,0.00845,-0.040964,-263.023159,0.004638,67.897759
14.6163,0.024074,0.012549,0.008183,0.000926,-9e-06,0.000104,0.028955,-0.497114,0.009826,-0.055396,-263.022827,0.079567,67.898091
14.6361,0.023557,0.012926,0.008539,0.000922,-3e-06,0.000186,0.028315,-0.497404,0.008337,-0.055396,-263.022827,0.079567,67.898091
14.6558,0.023549,0.012702,0.010683,0.000918,2e-06,0.000248,0.028315,-0.497404,0.008337,-0.055396,-263.022827,0.079567,67.898091
14.676,0.023421,0.012618,0.010023,0.000915,8e-06,0.000295,0.029019,-0.497269,0.010684,0.019713,-263.022626,0.004458,67.898292
14.696,0.023886,0.012794,0.011021,0.00091,2.4e-05,0.000138,0.028824,-0.497304,0.010415,0.019713,-263.022626,0.004458,67.898292
14.716,0.023848,0.012693,0.009854,0.000906,3.6e-05,1.3e-05,0.029516,-0.497175,0.011022,0.094665,-263.022505,-0.070494,67.898413
14.7357,0.023673,0.012484,0.00989,0.000904,4.3e-05,-5.3e-05,0.028933,-0.497273,0.00996,0.094665,-263.022505,-0.070494,67.898413
14.7561,0.023492,0.012441,0.008679,0.000902,4.8e-05,-0.000105,0.028933,-0.497273,0.00996,0.094665,-263.022505,-0.070494,67.898413
14.7759,0.023623,0.012929,0.007954,0.000901,5.2e-05,-0.000146,0.02795,-0.497538,0.008681,0.048322,-263.022207,0.004431,67.898711
14.7957,0.023571,0.012788,0.008536,0.000905,4e-05,-8e-06,0.027843,-0.49734,0.008383,0.048322,-263.022207,0.004431,67.898711
14.816,0.023577,0.012613,0.00917,0.000908,3.1e-05,9.7e-05,0.027942,-0.497193,0.008535,-0.026735,-263.021987,0.079488,67.898934
14.836,0.023803,0.012909,0.009287,0.000909,3.1e-05,8.9e-05,0.028229,-0.497351,0.009118,-0.026735,-263.021987,0.079488,67.898934
14.856,0.023783,0.012817,0.010109,0.000909,3e-05,8.3e-05,0.028229,-0.497351,0.009118,-0.026735,-263.021987,0.079488,67.898934
14.8761,0.023761,0.012672,0.009177,0.000909,2.9e-05,7.9e-05,0.028963,-0.497156,0.01011,0.04846,-263.021754,0.004292,67.899166
14.8958,0.024024,0.013048,0.009181,0.000908,3.4e-05,1.7e-05,0.028753,-0.497217,0.00973,0.04846,-263.021754,0.004292,67.899166
14.9154,0.024138,0.012494,0.010448,0.000907,3.7e-05,-3.2e-05,0.028734,-0.496929,0.009184,0.084952,-263.0214,-0.020348,67.899518
14.936,0.02368,0.012998,0.008842,0.000901,5.4e-05,-0.000117,0.029402,-0.497429,0.010335,0.084952,-263.0214,-0.020348,67.899518
14.956,0.023437,0.012816,0.008345,0.000896,6.8e-05,-0.000184,0.029402,-0.497429,0.010335,0.084952,-263.0214,-0.020348,67.899518
14.9756,0.023895,0.012622,0.009083,0.000892,7.8e-05,-0.000236,0.027724,-0.497164,0.008344,0.01935,-263.021096,0.054671,67.899823
14.9957,0.024282,0.012746,0.010264,0.000898,6.2e-05,-0.00011,0.028054,-0.497242,0.008644,0.01935,-263.021096,0.054671,67.899823
15.0161,0.024247,0.01291,0.009055,0.000902,4.9e-05,-1.5e-05,0.02953,-0.497227,0.010262,-0.055632,-263.020922,0.129653,67.900002
15.0361,0.023906,0.012884,0.008971,0.000903,4.6e-05,-1e-06,0.028923,-0.497082,0.009158,-0.055632,-263.020922,0.129653,67.900002
15.0561,0.023884,0.012356,0.009741,0.000904,4.4e-05,1e-05,0.028923,-0.497082,0.009158,-0.055632,-263.020922,0.129653,67.900002
15.0761,0.024025,0.012476,0.009374,0.000904,4.2e-05,1.8e-05,0.028881,-0.497618,0.00974,0.019502,-263.020635,0.064717,67.900289
15.096,0.024247,0.012952,0.01042,0.0009,5.3e-05,-1.9e-05,0.028854,-0.497571,0.009591,0.019502,-263.020635,0.064717,67.900289
15.1155,0.023923,0.01291,0.009975,0.000897,6.2e-05,-4.8e-05,0.029589,-0.497019,0.010421,0.058115,-263.020287,0.033682,67.900637
15.1364,0.024027,0.012824,0.008608,0.000898,6.1e-05,-0.000105,0.029065,-0.497061,0.010016,0.058115,-263.020287,0.033682,67.900637
