mach0312/omni-docking-bench/src/icros_test_setup/results/MPPI_sample/timeseries/trial_142.csv
t,x,y,yaw,vx,vy,wz,bl_x,bl_y,bl_yaw,front_steering_joint,front_wheel_joint,rear_steering_joint,rear_wheel_joint
0.0,-0.018121,-0.022281,0.069441,0.001055,-8e-05,0.000698,0.016066,-0.531383,0.067964,0.317334,-258.080533,-0.447003,66.695988
0.0004,-0.018045,-0.022085,0.070446,0.0,0.0,0.0,0.016066,-0.531383,0.067964,0.317334,-258.077884,-0.447003,66.69878
0.0007,-0.018022,-0.022171,0.069924,0.0,0.0,0.0,0.016795,-0.530899,0.069526,0.317334,-258.076237,-0.447003,66.700515
0.001,-0.017978,-0.02246,0.069991,0.0,0.0,0.0,0.016764,-0.531032,0.069357,0.317334,-258.075365,-0.447003,66.701434
0.0013,-0.017721,-0.022284,0.070269,0.0,0.0,0.0,0.016764,-0.531032,0.069357,0.317334,-258.075365,-0.447003,66.701434
0.0016,-0.017859,-0.02241,0.069421,0.0,0.0,0.0,0.016811,-0.530935,0.068327,0.317334,-258.075365,-0.447003,66.701434
0.0019,-0.01806,-0.022336,0.0693,0.0,0.0,0.0,0.016811,-0.530935,0.068327,0.317334,-258.075365,-0.447003,66.701434
0.0021,-0.017792,-0.022616,0.067256,0.0,0.0,0.0,0.017392,-0.531081,0.069939,0.317334,-258.075365,-0.447003,66.701434
0.0024,-0.01832,-0.022045,0.070437,0.0,0.0,0.0,0.017392,-0.531081,0.069939,0.317334,-258.075365,-0.447003,66.701434
0.0163,-0.01797,-0.022237,0.069306,0.0,0.0,0.0,0.01655,-0.531432,0.067434,0.317334,-258.075365,-0.447003,66.701434
0.0361,-0.017993,-0.022111,0.067914,0.0,0.0,0.0,0.017348,-0.531012,0.069306,0.317334,-258.075365,-0.447003,66.701434
0.0565,-0.018257,-0.022304,0.068579,0.0,0.0,0.0,0.017045,-0.53098,0.06873,0.317334,-258.075365,-0.447003,66.701434
0.0762,-0.017706,-0.021748,0.069572,0.0,0.0,0.0,0.016691,-0.531105,0.068579,0.317334,-258.075365,-0.447003,66.701434
0.0965,-0.018265,-0.022131,0.069618,0.0,0.0,0.0,0.01765,-0.530568,0.06948,0.317334,-258.075365,-0.447003,66.701434
0.1164,-0.018541,-0.022278,0.068549,-0.00249,0.004617,-0.009511,0.01765,-0.530568,0.06948,0.317334,-258.075365,-0.447003,66.701434
0.136,-0.017872,-0.021208,0.069262,-0.00273,0.005016,-0.010179,0.016392,-0.53108,0.068549,0.317334,-258.075365,-0.447003,66.701434
0.1564,-0.018247,-0.022286,0.069984,-0.00291,0.005369,-0.010747,0.016815,-0.530631,0.068842,0.317334,-258.075365,-0.447003,66.701434
0.1762,-0.017828,-0.022041,0.070302,-0.003064,0.00567,-0.011191,0.017416,-0.531038,0.069984,0.392385,-258.075365,-0.522054,66.701433
0.1963,-0.018484,-0.021777,0.066872,-0.003216,0.005913,-0.011576,0.017944,-0.530805,0.070273,0.392385,-258.075365,-0.522054,66.701433
0.2164,-0.017828,-0.022089,0.067745,-0.003345,0.006121,-0.011878,0.017944,-0.530805,0.070273,0.392385,-258.075365,-0.522054,66.701433
0.2366,-0.018062,-0.022385,0.069695,-0.003455,0.0063,-0.012114,0.016696,-0.530919,0.067745,0.363361,-258.075365,-0.596902,66.701433
0.2561,-0.018065,-0.021755,0.069461,-0.003521,0.00647,-0.012386,0.017003,-0.531012,0.068536,0.363361,-258.075365,-0.596902,66.701433
0.2762,-0.018557,-0.021956,0.06889,-0.003578,0.006616,-0.012601,0.017332,-0.530525,0.069461,0.307926,-258.075366,-0.6719,66.701432
0.2964,-0.018139,-0.021882,0.068897,-0.00362,0.006746,-0.01277,0.01662,-0.530727,0.068942,0.307926,-258.075366,-0.6719,66.701432
0.3162,-0.018041,-0.022264,0.069218,-0.003656,0.006856,-0.012903,0.01662,-0.530727,0.068942,0.307926,-258.075366,-0.6719,66.701432
0.3364,-0.018505,-0.021851,0.070367,-0.003687,0.006951,-0.013008,0.017232,-0.531042,0.069217,0.293054,-258.075367,-0.746896,66.701427
0.3563,-0.017955,-0.022109,0.068504,-0.003727,0.007025,-0.013089,0.017282,-0.530854,0.069695,0.293054,-258.075367,-0.746896,66.701427
0.3762,-0.01814,-0.022064,0.068682,-0.00376,0.007087,-0.013153,0.016954,-0.530912,0.068503,0.263112,-258.075372,-0.822112,66.701407
0.3962,-0.018015,-0.022112,0.068566,-0.003779,0.007148,-0.013205,0.016869,-0.530867,0.068665,0.263112,-258.075372,-0.822112,66.701407
0.4167,-0.018501,-0.021942,0.068856,-0.003795,0.0072,-0.013247,0.016869,-0.530867,0.068665,0.263112,-258.075372,-0.822112,66.701407
0.4361,-0.018133,-0.022278,0.070611,-0.003809,0.007244,-0.01328,0.016583,-0.530731,0.068849,0.246374,-258.075393,-0.896905,66.70132
0.4562,-0.018125,-0.022274,0.068216,-0.003826,0.007279,-0.013306,0.017094,-0.530842,0.06956,0.246374,-258.075393,-0.896905,66.70132
0.4761,-0.018058,-0.022116,0.068055,-0.00384,0.007309,-0.013326,0.016628,-0.531079,0.0682,0.223689,-258.075466,-0.971999,66.701027
0.4961,-0.018055,-0.022177,0.070025,-0.00384,0.007343,-0.013344,0.016623,-0.530947,0.068066,0.223689,-258.075466,-0.971999,66.701027
0.5163,-0.018387,-0.022208,0.069618,-0.003839,0.007372,-0.013359,0.016623,-0.530947,0.068066,0.223689,-258.075466,-0.971999,66.701027
0.5361,-0.018071,-0.021977,0.06989,-0.003839,0.007396,-0.01337,0.017056,-0.53094,0.069554,0.212859,-258.075665,-1.047037,66.700219
0.5562,-0.018001,-0.02182,0.07075,-0.003856,0.007407,-0.013378,0.017252,-0.530851,0.069685,0.212859,-258.075665,-1.047037,66.700219
0.5764,-0.017341,-0.022062,0.068402,-0.003871,0.007417,-0.013384,0.018,-0.530488,0.070641,0.19775,-258.076095,-1.12204,66.698458
0.5962,-0.018065,-0.021808,0.069659,-0.003892,0.007419,-0.013388,0.017556,-0.530834,0.068589,0.19775,-258.076095,-1.12204,66.698458
0.6161,-0.017807,-0.022194,0.068552,-0.003909,0.007422,-0.013392,0.017556,-0.530834,0.068589,0.19775,-258.076095,-1.12204,66.698458
0.6364,-0.017765,-0.022085,0.067838,-0.003924,0.007424,-0.013396,0.017015,-0.530853,0.06828,0.193229,-258.076893,-1.197024,66.69521
0.6571,-0.018323,-0.022049,0.069784,-0.00392,0.007436,-0.01348,0.016917,-0.530861,0.068069,0.193229,-258.076893,-1.197024,66.69521
0.6763,-0.017918,-0.022034,0.068518,-0.003917,0.007447,-0.013547,0.017119,-0.530635,0.069457,0.190652,-258.078125,-1.271913,66.69025
0.6968,-0.017851,-0.021827,0.067043,-0.003918,0.007453,-0.013657,0.017004,-0.530808,0.068592,0.190652,-258.078125,-1.271913,66.69025
0.7172,-0.017665,-0.021339,0.068216,-0.00392,0.007458,-0.013746,0.017004,-0.530808,0.068592,0.190652,-258.078125,-1.271913,66.69025
0.7365,-0.017874,-0.021246,0.066728,-0.003921,0.007463,-0.013817,0.016922,-0.529867,0.067674,0.208138,-258.079643,-1.326624,66.684104
0.7564,-0.018,-0.021122,0.067719,-0.00393,0.007461,-0.013939,0.016586,-0.529932,0.067236,0.208138,-258.079643,-1.326624,66.684104
0.7766,-0.01772,-0.021036,0.067238,-0.003937,0.007459,-0.014037,0.016373,-0.529729,0.067288,0.244011,-258.081226,-1.329048,66.677687
0.7962,-0.017544,-0.020659,0.066724,-0.003943,0.007458,-0.014184,0.016523,-0.529858,0.06722,0.244011,-258.081226,-1.329048,66.677687
0.8164,-0.018065,-0.020757,0.067851,-0.003948,0.007456,-0.014303,0.016523,-0.529858,0.06722,0.244011,-258.081226,-1.329048,66.677687
0.8365,-0.017634,-0.020675,0.065584,-0.003952,0.007455,-0.014398,0.01633,-0.529288,0.067273,0.275652,-258.082837,-1.329996,66.671189
0.8564,-0.01758,-0.020575,0.065331,-0.003955,0.007453,-0.014539,0.016088,-0.529372,0.066516,0.275652,-258.082837,-1.329996,66.671189
0.8761,-0.01748,-0.020242,0.063255,-0.003958,0.007452,-0.014654,0.01558,-0.529268,0.064891,0.326648,-258.084441,-1.332198,66.664762
0.8962,-0.017552,-0.02003,0.065673,-0.003929,0.007468,-0.014803,0.014822,-0.529215,0.063373,0.326648,-258.084441,-1.332198,66.664762
0.9162,-0.017672,-0.02012,0.064096,-0.003906,0.007482,-0.014924,0.014822,-0.529215,0.063373,0.326648,-258.084441,-1.332198,66.664762
0.9364,-0.017116,-0.019656,0.064212,-0.003886,0.007493,-0.015023,0.014813,-0.528779,0.063496,0.361828,-258.086099,-1.334026,66.658149
0.9563,-0.017118,-0.019466,0.064907,-0.003891,0.00749,-0.015152,0.015118,-0.528674,0.063719,0.361828,-258.086099,-1.334026,66.658149
0.9763,-0.017079,-0.019103,0.062872,-0.003895,0.007486,-0.015258,0.015827,-0.52817,0.064445,0.408366,-258.087734,-1.34174,66.651543
0.9965,-0.016877,-0.019336,0.064233,-0.00391,0.007475,-0.01539,0.015034,-0.528091,0.062987,0.408366,-258.087734,-1.34174,66.651543
1.0167,-0.017086,-0.019664,0.064111,-0.003923,0.007465,-0.015498,0.015034,-0.528091,0.062987,0.408366,-258.087734,-1.34174,66.651543
1.0364,-0.016724,-0.018879,0.062768,-0.003933,0.007457,-0.015586,0.015409,-0.52832,0.063484,0.43974,-258.089429,-1.343046,66.644747
1.0567,-0.016923,-0.018576,0.062742,-0.00395,0.007444,-0.015702,0.015329,-0.528101,0.063115,0.43974,-258.089429,-1.343046,66.644747
1.0763,-0.016617,-0.018555,0.062597,-0.003963,0.007432,-0.015796,0.014918,-0.52735,0.06226,0.483028,-258.091152,-1.343147,66.637986
1.0966,-0.016881,-0.018685,0.062421,-0.003987,0.007414,-0.01591,0.015248,-0.527528,0.062544,0.483028,-258.091152,-1.343147,66.637986
1.117,-0.016896,-0.018138,0.062226,-0.004006,0.007398,-0.016003,0.015248,-0.527528,0.062544,0.483028,-258.091152,-1.343147,66.637986
1.1363,-0.016523,-0.018012,0.061054,-0.004022,0.007385,-0.01608,0.014637,-0.526855,0.061573,0.509664,-258.092945,-1.342794,66.631061
1.1561,-0.016173,-0.018596,0.061771,-0.004033,0.007374,-0.016168,0.014598,-0.526905,0.061286,0.509664,-258.092945,-1.342794,66.631061
1.1762,-0.016215,-0.017733,0.060539,-0.004042,0.007365,-0.016242,0.01517,-0.527401,0.061268,0.544545,-258.09479,-1.341148,66.62413
1.1966,-0.016797,-0.017728,0.060847,-0.004054,0.007354,-0.016316,0.014681,-0.526842,0.060579,0.544545,-258.09479,-1.341148,66.62413
1.2161,-0.016397,-0.017805,0.06137,-0.004063,0.007344,-0.016377,0.014681,-0.526842,0.060579,0.544545,-258.09479,-1.341148,66.62413
1.2362,-0.016834,-0.017536,0.06107,-0.004071,0.007336,-0.016428,0.014695,-0.526549,0.060695,0.563647,-258.096694,-1.341099,66.61706
1.2568,-0.015672,-0.017179,0.059546,-0.00408,0.007327,-0.016478,0.014508,-0.52653,0.060771,0.563647,-258.096694,-1.341099,66.61706
1.2763,-0.016359,-0.016984,0.059935,-0.004088,0.007319,-0.01652,0.014536,-0.526051,0.059026,0.585149,-258.098633,-1.340567,66.609978
1.2966,-0.016159,-0.017173,0.059962,-0.004098,0.007309,-0.01656,0.014212,-0.526055,0.05983,0.585149,-258.098633,-1.340567,66.609978
1.3165,-0.016022,-0.017097,0.060403,-0.004107,0.007301,-0.016594,0.014212,-0.526055,0.05983,0.585149,-258.098633,-1.340567,66.609978
1.3367,-0.01588,-0.016616,0.058673,-0.004113,0.007293,-0.016622,0.014576,-0.525872,0.059712,0.595597,-258.100605,-1.340169,66.602838
1.3567,-0.016013,-0.016473,0.059931,-0.004131,0.007279,-0.01665,0.014331,-0.525784,0.059211,0.595597,-258.100605,-1.340169,66.602838
1.3762,-0.01589,-0.016414,0.057003,-0.004145,0.007266,-0.016674,0.014389,-0.525333,0.059402,0.607311,-258.102601,-1.339238,66.595693
1.3966,-0.015528,-0.016197,0.059534,-0.00413,0.007274,-0.016704,0.013268,-0.525552,0.057191,0.607311,-258.102601,-1.339238,66.595693
1.4166,-0.015334,-0.016441,0.058124,-0.004118,0.00728,-0.016728,0.013268,-0.525552,0.057191,0.607311,-258.102601,-1.339238,66.595693
1.4365,-0.015545,-0.016107,0.057682,-0.004108,0.007285,-0.016748,0.014101,-0.525286,0.057425,0.613294,-258.10463,-1.337588,66.588513
1.4567,-0.01547,-0.015389,0.057304,-0.004131,0.007267,-0.016766,0.013979,-0.525241,0.05745,0.613294,-258.10463,-1.337588,66.588513
1.476,-0.015144,-0.015641,0.055431,-0.004151,0.007252,-0.016781,0.013595,-0.524328,0.056771,0.621761,-258.10665,-1.340424,66.581324
1.4964,-0.01514,-0.015963,0.055611,-0.004154,0.007247,-0.016801,0.013146,-0.524801,0.055521,0.621761,-258.10665,-1.340424,66.581324
1.5169,-0.015065,-0.015794,0.056335,-0.004156,0.007244,-0.016817,0.013146,-0.524801,0.055521,0.621761,-258.10665,-1.340424,66.581324
1.5366,-0.014816,-0.015202,0.053787,-0.004158,0.007241,-0.016831,0.013461,-0.524692,0.055634,0.625442,-258.108696,-1.337917,66.574135
1.5565,-0.014768,-0.015157,0.056121,-0.004165,0.007234,-0.016846,0.013089,-0.524566,0.054801,0.625442,-258.108696,-1.337917,66.574135
1.5764,-0.01461,-0.014605,0.053555,-0.004171,0.007228,-0.016858,0.013694,-0.524131,0.055585,0.631063,-258.110756,-1.337774,66.566933
1.5964,-0.015127,-0.015115,0.054323,-0.004187,0.007215,-0.016871,0.01277,-0.523885,0.053705,0.631063,-258.110756,-1.337774,66.566933
1.6163,-0.014638,-0.015048,0.053427,-0.0042,0.007204,-0.016882,0.01277,-0.523885,0.053705,0.631063,-258.110756,-1.337774,66.566933
1.6363,-0.014822,-0.014291,0.052938,-0.004211,0.007194,-0.016892,0.012407,-0.524028,0.052723,0.634102,-258.112827,-1.337112,66.559728
1.6568,-0.014512,-0.014569,0.053912,-0.004205,0.007197,-0.016904,0.012285,-0.523808,0.05273,0.634102,-258.112827,-1.337112,66.559728
1.6761,-0.014598,-0.014235,0.052813,-0.004201,0.007198,-0.016914,0.012823,-0.523606,0.053374,0.637986,-258.114923,-1.334807,66.552525
1.6963,-0.014455,-0.014196,0.052316,-0.004209,0.007191,-0.016924,0.012359,-0.52352,0.052834,0.637986,-258.114923,-1.334807,66.552525
1.7163,-0.014488,-0.01409,0.053595,-0.004215,0.007185,-0.016932,0.012359,-0.52352,0.052834,0.637986,-258.114923,-1.334807,66.552525
1.7364,-0.014395,-0.013855,0.051199,-0.004221,0.00718,-0.016939,0.012642,-0.523067,0.052889,0.640683,-258.117018,-1.335593,66.545319
1.7562,-0.014086,-0.013524,0.052096,-0.004236,0.007167,-0.016945,0.012237,-0.523082,0.052117,0.640683,-258.117018,-1.335593,66.545319
1.7761,-0.014197,-0.01342,0.05095,-0.004248,0.007156,-0.016951,0.012325,-0.52261,0.051557,0.643534,-258.119128,-1.334456,66.538111
1.7963,-0.014428,-0.013263,0.050655,-0.004256,0.007149,-0.016957,0.011817,-0.522735,0.050976,0.643534,-258.119128,-1.334456,66.538111
1.8161,-0.014376,-0.013379,0.051783,-0.004262,0.007143,-0.016963,0.011817,-0.522735,0.050976,0.643534,-258.119128,-1.334456,66.538111
1.8366,-0.014012,-0.013177,0.050728,-0.004266,0.007138,-0.016968,0.01183,-0.522406,0.051076,0.645005,-258.121254,-1.332754,66.530905
1.8561,-0.01407,-0.012731,0.051614,-0.004282,0.007125,-0.016971,0.011815,-0.52242,0.05085,0.645005,-258.121254,-1.332754,66.530905
1.8761,-0.013279,-0.012536,0.048697,-0.004294,0.007114,-0.016975,0.012095,-0.521833,0.051076,0.647245,-258.123395,-1.33168,66.523694
1.8963,-0.013523,-0.012873,0.048408,-0.004315,0.007096,-0.016977,0.011586,-0.521912,0.048871,0.647245,-258.123395,-1.33168,66.523694
1.917,-0.013599,-0.012093,0.050681,-0.004333,0.007081,-0.01698,0.011586,-0.521912,0.048871,0.647245,-258.123395,-1.33168,66.523694
1.9361,-0.013794,-0.012211,0.046952,-0.004347,0.007068,-0.016982,0.012041,-0.521147,0.049964,0.648331,-258.125549,-1.329944,66.516498
1.9561,-0.013381,-0.012069,0.046713,-0.004369,0.007048,-0.016984,0.011263,-0.521315,0.048685,0.648331,-258.125549,-1.329944,66.516498
1.9762,-0.013314,-0.011632,0.047711,-0.004387,0.007032,-0.016985,0.010286,-0.521295,0.046174,0.649884,-258.127729,-1.3265,66.509322
1.9969,-0.013266,-0.011913,0.046733,-0.004399,0.00702,-0.016988,0.010937,-0.521062,0.047545,0.649884,-258.127729,-1.3265,66.509322
2.0165,-0.012997,-0.01194,0.047313,-0.004409,0.007009,-0.016991,0.010937,-0.521062,0.047545,0.649884,-258.127729,-1.3265,66.509322
2.0362,-0.012982,-0.011886,0.046524,-0.004417,0.007001,-0.016993,0.010926,-0.521083,0.046601,0.651019,-258.129938,-1.323903,66.502132
2.0563,-0.013325,-0.011312,0.046767,-0.004416,0.007,-0.016997,0.010826,-0.521153,0.046488,0.651019,-258.129938,-1.323903,66.502132
2.0764,-0.012903,-0.011107,0.045495,-0.004416,0.006999,-0.017,0.010367,-0.520538,0.046226,0.652813,-258.132162,-1.321913,66.49496
2.0963,-0.012788,-0.01124,0.045012,-0.004416,0.006995,-0.017002,0.01029,-0.520565,0.045531,0.652813,-258.132162,-1.321913,66.49496
2.1162,-0.013044,-0.010931,0.044883,-0.004417,0.006992,-0.017004,0.01029,-0.520565,0.045531,0.652813,-258.132162,-1.321913,66.49496
2.1367,-0.01286,-0.010594,0.045248,-0.004417,0.00699,-0.017006,0.009641,-0.520132,0.04417,0.653878,-258.134384,-1.322018,66.487797
2.1564,-0.012527,-0.010827,0.044054,-0.004419,0.006985,-0.017007,0.009847,-0.520076,0.044523,0.653878,-258.134384,-1.322018,66.487797
2.1762,-0.012608,-0.010483,0.04321,-0.004421,0.006981,-0.017008,0.009783,-0.520116,0.043512,0.655466,-258.136616,-1.321844,66.480615
2.1964,-0.012714,-0.010547,0.044285,-0.004406,0.006989,-0.017011,0.009446,-0.520005,0.04321,0.655466,-258.136616,-1.321844,66.480615
2.2165,-0.012565,-0.01008,0.043602,-0.004394,0.006995,-0.017013,0.009446,-0.520005,0.04321,0.655466,-258.136616,-1.321844,66.480615
2.2366,-0.011963,-0.009982,0.042249,-0.004384,0.007001,-0.017015,0.009468,-0.519312,0.042891,0.656564,-258.138845,-1.321577,66.473457
2.2565,-0.012296,-0.01027,0.041793,-0.004409,0.006978,-0.017012,0.00949,-0.519366,0.042549,0.656564,-258.138845,-1.321577,66.473457
2.2766,-0.012287,-0.009702,0.04211,-0.004429,0.006959,-0.01701,0.008863,-0.519608,0.04125,0.658345,-258.141062,-1.32386,66.466283
2.2964,-0.012186,-0.0098,0.042945,-0.004432,0.006953,-0.01701,0.009146,-0.519271,0.042005,0.658345,-258.141062,-1.32386,66.466283
2.3168,-0.011617,-0.009674,0.04236,-0.004435,0.006948,-0.017011,0.009146,-0.519271,0.042005,0.658345,-258.141062,-1.32386,66.466283
2.3364,-0.011722,-0.009491,0.041471,-0.004437,0.006944,-0.017011,0.009783,-0.518934,0.041648,0.65891,-258.143305,-1.320851,66.459112
2.3562,-0.012073,-0.009706,0.042183,-0.004478,0.006907,-0.017006,0.009612,-0.51895,0.041493,0.65891,-258.143305,-1.320851,66.459112
2.3763,-0.011561,-0.009155,0.040519,-0.004511,0.006877,-0.017003,0.009284,-0.519038,0.041642,0.660321,-258.145552,-1.320185,66.451955
2.3962,-0.0119,-0.009055,0.040221,-0.004524,0.006863,-0.017003,0.009107,-0.518752,0.040591,0.660321,-258.145552,-1.320185,66.451955
2.416,-0.01164,-0.009273,0.040898,-0.004534,0.006852,-0.017004,0.009107,-0.518752,0.040591,0.660321,-258.145552,-1.320185,66.451955
2.4362,-0.011519,-0.008434,0.03885,-0.004542,0.006842,-0.017004,0.009013,-0.518567,0.040188,0.660901,-258.147836,-1.31517,66.444824
2.4564,-0.011072,-0.008623,0.03964,-0.004549,0.006831,-0.017005,0.008692,-0.518322,0.039556,0.660901,-258.147836,-1.31517,66.444824
2.4761,-0.011398,-0.008019,0.037946,-0.004555,0.006821,-0.017005,0.008986,-0.51801,0.039098,0.662512,-258.150141,-1.313019,66.437695
2.4961,-0.011606,-0.00838,0.03769,-0.004559,0.006808,-0.017004,0.008032,-0.517672,0.038019,0.662512,-258.150141,-1.313019,66.437695
2.5172,-0.011185,-0.008138,0.037896,-0.004562,0.006798,-0.017004,0.008032,-0.517672,0.038019,0.662512,-258.150141,-1.313019,66.437695
2.5364,-0.010742,-0.008162,0.036609,-0.004564,0.006789,-0.017004,0.007933,-0.51749,0.037175,0.663968,-258.152457,-1.311988,66.430569
2.5563,-0.011249,-0.008111,0.038236,-0.004563,0.006782,-0.017005,0.007907,-0.517589,0.036873,0.663968,-258.152457,-1.311988,66.430569
2.5765,-0.01106,-0.00741,0.037706,-0.004563,0.006777,-0.017005,0.008094,-0.517528,0.037696,0.667401,-258.154775,-1.311058,66.423481
2.5965,-0.010824,-0.007772,0.036787,-0.004606,0.00673,-0.016998,0.008152,-0.51708,0.037678,0.667401,-258.154775,-1.311058,66.423481
2.6167,-0.010864,-0.007756,0.035788,-0.004641,0.006692,-0.016994,0.008152,-0.51708,0.037678,0.667401,-258.154775,-1.311058,66.423481
2.6365,-0.010763,-0.007471,0.036075,-0.004669,0.006662,-0.016992,0.007183,-0.517153,0.035076,0.669246,-258.157106,-1.310947,66.416365
2.6569,-0.010588,-0.007507,0.03534,-0.004639,0.006678,-0.016998,0.007344,-0.517115,0.035404,0.669246,-258.157106,-1.310947,66.416365
2.6763,-0.010586,-0.007085,0.035268,-0.004614,0.00669,-0.017002,0.007276,-0.516982,0.034799,0.672217,-258.15949,-1.303347,66.409307
2.6965,-0.010296,-0.006903,0.03638,-0.004619,0.006677,-0.017001,0.007379,-0.516776,0.035202,0.672217,-258.15949,-1.303347,66.409307
2.7164,-0.010665,-0.006775,0.037396,-0.004622,0.006666,-0.017001,0.007379,-0.516776,0.035202,0.672217,-258.15949,-1.303347,66.409307
2.7363,-0.010221,-0.006763,0.033358,-0.004625,0.006657,-0.017,0.0082,-0.516146,0.036686,0.675025,-258.161853,-1.306844,66.402234
2.7562,-0.010322,-0.006578,0.034838,-0.004675,0.006601,-0.016992,0.007596,-0.516252,0.035236,0.675025,-258.161853,-1.306844,66.402234
2.7762,-0.010103,-0.006521,0.034874,-0.004715,0.006555,-0.016986,0.007287,-0.516062,0.034298,0.678121,-258.164228,-1.305776,66.395175
2.7965,-0.009954,-0.006058,0.033672,-0.004753,0.006511,-0.016982,0.007638,-0.516188,0.034798,0.678121,-258.164228,-1.305776,66.395175
2.8165,-0.010422,-0.00648,0.033623,-0.004784,0.006475,-0.01698,0.007638,-0.516188,0.034798,0.678121,-258.164228,-1.305776,66.395175
2.8362,-0.010026,-0.006179,0.034237,-0.004808,0.006446,-0.016979,0.006517,-0.515924,0.032914,0.680815,-258.16665,-1.299189,66.38816
2.8562,-0.010081,-0.006278,0.031878,-0.004796,0.006439,-0.016983,0.006865,-0.515875,0.03337,0.680815,-258.16665,-1.299189,66.38816
2.8762,-0.009554,-0.0057,0.032243,-0.004785,0.006433,-0.016986,0.006015,-0.515819,0.031338,0.684395,-258.169134,-1.292292,66.381158
2.8968,-0.009287,-0.00549,0.0314,-0.004803,0.006394,-0.016982,0.006804,-0.515458,0.032139,0.684395,-258.169134,-1.292292,66.381158
2.9168,-0.009777,-0.005603,0.033286,-0.004816,0.006363,-0.016981,0.006804,-0.515458,0.032139,0.684395,-258.169134,-1.292292,66.381158
2.9363,-0.009564,-0.005417,0.030458,-0.004826,0.006337,-0.016981,0.006988,-0.515059,0.032577,0.688877,-258.171609,-1.29341,66.374183
2.9564,-0.009748,-0.005007,0.03118,-0.004841,0.006294,-0.016978,0.006547,-0.515078,0.031631,0.688877,-258.171609,-1.29341,66.374183
2.9763,-0.009314,-0.004829,0.030661,-0.004852,0.00626,-0.016977,0.005991,-0.514562,0.03064,0.696185,-258.174132,-1.289608,66.367206
2.9962,-0.009659,-0.004866,0.03041,-0.004876,0.006192,-0.016972,0.006287,-0.514578,0.030635,0.696185,-258.174132,-1.289608,66.367206
3.0164,-0.009788,-0.004838,0.030802,-0.004894,0.006137,-0.016969,0.006287,-0.514578,0.030635,0.696185,-258.174132,-1.289608,66.367206
3.0361,-0.009536,-0.00474,0.029633,-0.004906,0.006094,-0.016969,0.005708,-0.514341,0.030094,0.702669,-258.176663,-1.286899,66.36031
3.0564,-0.009238,-0.00485,0.029189,-0.004864,0.006074,-0.016977,0.00563,-0.514383,0.029826,0.702669,-258.176663,-1.286899,66.36031
3.076,-0.008903,-0.004141,0.027225,-0.004829,0.006057,-0.016984,0.005485,-0.514443,0.02865,0.716208,-258.17926,-1.28107,66.353452
3.0965,-0.008941,-0.004374,0.030077,-0.004757,0.006023,-0.016992,0.005017,-0.513986,0.027325,0.716208,-258.17926,-1.28107,66.353452
3.1167,-0.009071,-0.00412,0.026056,-0.004698,0.005995,-0.016999,0.005017,-0.513986,0.027325,0.716208,-258.17926,-1.28107,66.353452
3.1368,-0.008862,-0.003901,0.02786,-0.00465,0.005973,-0.017004,0.004007,-0.513698,0.025343,0.729286,-258.181839,-1.284916,66.346635
3.1566,-0.008825,-0.003926,0.028308,-0.004561,0.005933,-0.01701,0.004514,-0.513672,0.026262,0.729286,-258.181839,-1.284916,66.346635
3.1765,-0.00846,-0.003563,0.026047,-0.004489,0.005901,-0.017015,0.005459,-0.513538,0.027773,0.759172,-258.184363,-1.29385,66.339937
3.1971,-0.008574,-0.003758,0.027508,-0.004506,0.005809,-0.017005,0.004874,-0.513394,0.02618,0.759172,-258.184363,-1.29385,66.339937
3.2168,-0.008401,-0.003529,0.025887,-0.004517,0.005738,-0.016999,0.004874,-0.513394,0.02618,0.759172,-258.184363,-1.29385,66.339937
3.2362,-0.008622,-0.003183,0.025848,-0.004524,0.005684,-0.016996,0.004608,-0.513118,0.025182,0.785669,-258.186875,-1.30197,66.333252
3.2563,-0.008534,-0.003318,0.026893,-0.004509,0.005591,-0.01699,0.004566,-0.513048,0.025373,0.785669,-258.186875,-1.30197,66.333252
3.2764,-0.008402,-0.003536,0.025995,-0.004494,0.005519,-0.016988,0.005032,-0.512957,0.026354,0.804161,-258.18947,-1.296304,66.326611
3.2964,-0.007923,-0.002989,0.026358,-0.004503,0.005502,-0.016991,0.004862,-0.51332,0.026,0.804161,-258.18947,-1.296304,66.326611
3.3165,-0.008107,-0.003058,0.023636,-0.004509,0.005489,-0.016994,0.004862,-0.51332,0.026,0.804161,-258.18947,-1.296304,66.326611
3.3363,-0.008041,-0.002864,0.023988,-0.004514,0.005479,-0.016996,0.003755,-0.512691,0.022931,0.82406,-258.192094,-1.295223,66.320059
3.3562,-0.008345,-0.002852,0.023982,-0.004411,0.005381,-0.016992,0.00391,-0.512676,0.02328,0.82406,-258.192094,-1.295223,66.320059
3.3763,-0.008077,-0.002491,0.02315,-0.004328,0.005307,-0.016992,0.003737,-0.512534,0.023441,0.826487,-258.194764,-1.293509,66.313453
3.3962,-0.008106,-0.002831,0.022274,-0.004248,0.005181,-0.016983,0.003722,-0.512361,0.023148,0.826487,-258.194764,-1.293509,66.313453
3.416,-0.007774,-0.0023,0.024753,-0.004184,0.005087,-0.01698,0.003722,-0.512361,0.023148,0.826487,-258.194764,-1.293509,66.313453
3.4363,-0.00768,-0.002878,0.022803,-0.004132,0.005016,-0.01698,0.004667,-0.511932,0.024061,0.864222,-258.197363,-1.301558,66.307109
3.4562,-0.007625,-0.00224,0.02199,-0.004209,0.004913,-0.016968,0.004352,-0.51224,0.023466,0.864222,-258.197363,-1.301558,66.307109
3.4765,-0.007714,-0.002109,0.022185,-0.004267,0.004835,-0.016962,0.003459,-0.511966,0.02147,0.913507,-258.199967,-1.308421,66.300974
3.4964,-0.007725,-0.002374,0.020924,-0.00419,0.004729,-0.016957,0.003581,-0.511974,0.022097,0.913507,-258.199967,-1.308421,66.300974
3.5161,-0.007421,-0.002222,0.020136,-0.00413,0.004651,-0.016956,0.003581,-0.511974,0.022097,0.913507,-258.199967,-1.308421,66.300974
3.5363,-0.007178,-0.001821,0.021644,-0.004082,0.004592,-0.016958,0.002666,-0.51192,0.019428,0.913159,-258.202762,-1.297027,66.294656
3.5562,-0.007451,-0.001914,0.020913,-0.00396,0.00451,-0.016956,0.003145,-0.511806,0.020274,0.913159,-258.202762,-1.297027,66.294656
3.5763,-0.00677,-0.00178,0.020927,-0.003866,0.004449,-0.016957,0.003085,-0.511663,0.02039,0.954692,-258.205499,-1.304248,66.28865
3.5965,-0.007087,-0.001885,0.019558,-0.003941,0.004351,-0.016948,0.003824,-0.511661,0.020854,0.954692,-258.205499,-1.304248,66.28865
3.6165,-0.006995,-0.00133,0.020315,-0.003997,0.004277,-0.016943,0.003824,-0.511661,0.020854,0.954692,-258.205499,-1.304248,66.28865
3.6361,-0.006952,-0.001201,0.019485,-0.00404,0.004222,-0.016942,0.003202,-0.511045,0.019618,0.991286,-258.208258,-1.31535,66.282672
3.6562,-0.006833,-0.001565,0.018398,-0.003953,0.003993,-0.016924,0.003097,-0.511049,0.019486,0.991286,-258.208258,-1.31535,66.282672
3.6764,-0.006468,-0.00127,0.018548,-0.003884,0.003825,-0.016915,0.002419,-0.511347,0.017861,0.987774,-258.211178,-1.300291,66.276655
3.6966,-0.006612,-0.001187,0.02013,-0.003786,0.003749,-0.016916,0.002932,-0.51119,0.018458,0.987774,-258.211178,-1.300291,66.276655
3.7162,-0.006339,-0.001004,0.018318,-0.003712,0.003694,-0.016919,0.002932,-0.51119,0.018458,0.987774,-258.211178,-1.300291,66.276655
3.7363,-0.006283,-0.001056,0.017564,-0.003655,0.003653,-0.016923,0.002843,-0.510766,0.017633,1.032636,-258.214113,-1.303028,66.27097
3.7562,-0.006327,-0.001232,0.017667,-0.003585,0.003501,-0.016908,0.002756,-0.510835,0.017526,1.032636,-258.214113,-1.303028,66.27097
3.776,-0.006106,-0.00096,0.015275,-0.003531,0.003389,-0.016901,0.002567,-0.511041,0.017141,1.07034,-258.217084,-1.315254,66.265331
3.7964,-0.005922,-0.000544,0.017335,-0.00321,0.003322,-0.016871,0.001758,-0.510907,0.015417,1.07034,-258.217084,-1.315254,66.265331
3.8165,-0.006094,-0.001084,0.017655,-0.00297,0.003277,-0.016851,0.001758,-0.510907,0.015417,1.07034,-258.217084,-1.315254,66.265331
3.8365,-0.00587,-0.000735,0.015362,-0.00279,0.003246,-0.016838,0.002761,-0.510867,0.016957,1.099782,-258.220152,-1.318784,66.259746
3.8563,-0.005718,-0.000452,0.015361,-0.002849,0.003188,-0.016838,0.002419,-0.510773,0.016226,1.099782,-258.220152,-1.318784,66.259746
3.8765,-0.005867,-0.000384,0.014476,-0.002894,0.003145,-0.01684,0.002038,-0.510306,0.014914,1.174788,-258.222689,-1.367444,66.255117
3.8966,-0.005586,-0.000751,0.015843,-0.002696,0.002917,-0.016769,0.001558,-0.510324,0.014492,1.174788,-258.222689,-1.367444,66.255117
3.9166,-0.005596,-0.000292,0.015435,-0.002546,0.002751,-0.016721,0.001558,-0.510324,0.014492,1.174788,-258.222689,-1.367444,66.255117
3.9361,-0.00545,-2.4e-05,0.013987,-0.002433,0.00263,-0.016687,0.002153,-0.510102,0.014733,1.185755,-258.225762,-1.35856,66.249637
3.9566,-0.005628,2.1e-05,0.015102,-0.002472,0.002449,-0.016653,0.001946,-0.510035,0.014346,1.185755,-258.225762,-1.35856,66.249637
3.9761,-0.005005,-0.000467,0.014842,-0.002501,0.002313,-0.01663,0.002003,-0.509846,0.014621,1.25953,-258.228645,-1.383299,66.244901
3.9962,-0.005256,4.8e-05,0.013238,-0.002669,0.002359,-0.016645,0.002512,-0.510359,0.014799,1.25953,-258.228645,-1.383299,66.244901
4.0165,-0.004939,-2.7e-05,0.014395,-0.002797,0.002392,-0.016655,0.002512,-0.510359,0.014799,1.25953,-258.228645,-1.383299,66.244901
4.0368,-0.004766,0.000187,0.014745,-0.002895,0.002415,-0.016663,0.002296,-0.509879,0.013702,1.26217,-258.231932,-1.372895,66.239823
4.0564,-0.004887,0.00029,0.01341,-0.002968,0.00224,-0.016622,0.002473,-0.509818,0.014052,1.26217,-258.231932,-1.372895,66.239823
4.0762,-0.004538,5.5e-05,0.012908,-0.003023,0.002107,-0.016594,0.001864,-0.509592,0.012906,1.21372,-258.235079,-1.344782,66.234914
4.0965,-0.004471,0.000243,0.01287,-0.002947,0.002007,-0.016509,0.002024,-0.509871,0.012882,1.21372,-258.235079,-1.344782,66.234914
4.1166,-0.004443,-5.5e-05,0.010802,-0.002889,0.001932,-0.016446,0.002024,-0.509871,0.012882,1.21372,-258.235079,-1.344782,66.234914
4.1362,-0.003996,0.000125,0.010555,-0.002846,0.001877,-0.016399,0.000939,-0.509938,0.010106,1.210617,-258.238496,-1.328688,66.229891
4.1567,-0.00431,8.6e-05,0.011066,-0.002506,0.001806,-0.016069,0.001104,-0.509892,0.010208,1.210617,-258.238496,-1.328688,66.229891
4.1762,-0.004045,0.000136,0.009699,-0.002253,0.001757,-0.01583,0.001243,-0.509824,0.010549,1.234443,-258.241911,-1.33592,66.225049
4.1963,-0.003713,0.000375,0.010999,-0.001997,0.001696,-0.015581,0.000927,-0.509835,0.009748,1.234443,-258.241911,-1.33592,66.225049
4.2164,-0.004186,0.000631,0.010852,-0.001806,0.001653,-0.015403,0.000927,-0.509835,0.009748,1.234443,-258.241911,-1.33592,66.225049
4.2362,-0.003921,0.000266,0.00898,-0.001662,0.001622,-0.015276,0.001261,-0.509272,0.01024,1.293415,-258.244943,-1.376137,66.220756
4.2564,-0.003586,0.000712,0.009357,-0.001586,0.00145,-0.015152,0.001006,-0.509444,0.009657,1.293415,-258.244943,-1.376137,66.220756
4.2765,-0.003733,0.000277,0.010577,-0.001528,0.001323,-0.015066,0.001137,-0.50922,0.008916,1.358448,-258.2478,-1.420193,66.216743
4.2966,-0.003351,0.00031,0.008092,-0.001694,0.001349,-0.015121,0.001611,-0.50965,0.010405,1.358448,-258.2478,-1.420193,66.216743
4.3166,-0.003683,0.000435,0.007773,-0.001819,0.001366,-0.01516,0.001611,-0.50965,0.010405,1.358448,-258.2478,-1.420193,66.216743
4.3362,-0.003306,0.000385,0.008577,-0.001913,0.001377,-0.01519,0.000217,-0.509495,0.007146,1.379204,-258.250986,-1.426603,66.21252
4.3566,-0.003167,0.000558,0.008441,-0.001588,0.001292,-0.014695,0.000555,-0.509529,0.007654,1.379204,-258.250986,-1.426603,66.21252
4.3762,-0.002571,0.00069,0.010143,-0.001346,0.00123,-0.014352,0.00108,-0.509383,0.007982,1.333182,-258.254073,-1.393115,66.208409
4.3963,-0.003225,0.000466,0.005885,-0.001768,0.00121,-0.01453,0.002461,-0.50929,0.009923,1.333182,-258.254073,-1.393115,66.208409
4.4165,-0.002903,0.000531,0.007482,-0.002094,0.001191,-0.014663,0.002461,-0.50929,0.009923,1.333182,-258.254073,-1.393115,66.208409
4.4363,-0.002541,0.000735,0.007845,-0.002346,0.001172,-0.014762,0.000861,-0.509408,0.006932,1.394064,-258.256874,-1.436967,66.204718
4.4566,-0.002603,0.000932,0.005303,-0.002116,0.001098,-0.014301,0.0011,-0.509338,0.007242,1.394064,-258.256874,-1.436967,66.204718
4.4762,-0.002663,0.000686,0.005689,-0.001946,0.001045,-0.013984,5.4e-05,-0.509035,0.004968,1.31896,-258.25919,-1.361864,66.201761
4.4964,-0.002313,0.000321,0.005804,-0.001471,0.000944,-0.013275,0.00022,-0.50928,0.005607,1.31896,-258.25919,-1.361864,66.201761
4.5165,-0.002557,0.000595,0.006516,-0.001114,0.00087,-0.012799,0.00022,-0.50928,0.005607,1.31896,-258.25919,-1.361864,66.201761
4.5366,-0.002009,0.00044,0.006798,-0.000847,0.000816,-0.012481,0.000684,-0.509351,0.005931,1.316789,-258.262284,-1.370523,66.197853
4.5562,-0.001937,0.001117,0.005539,-0.00095,0.00088,-0.012459,0.000989,-0.509426,0.006216,1.316789,-258.262284,-1.370523,66.197853
4.5761,-0.001757,0.000644,0.005743,-0.001028,0.000927,-0.012444,0.000865,-0.508858,0.005282,1.391778,-258.264062,-1.445512,66.195654
4.5966,-0.002118,0.000629,0.006088,-0.001137,0.000927,-0.012271,0.001143,-0.509303,0.005688,1.391778,-258.264062,-1.445512,66.195654
4.6165,-0.00165,0.000702,0.004201,-0.001221,0.000927,-0.012152,0.001143,-0.509303,0.005688,1.391778,-258.264062,-1.445512,66.195654
4.6364,-0.001724,0.000686,0.005609,-0.001286,0.000926,-0.012069,0.00045,-0.509255,0.003683,1.417911,-258.266732,-1.450792,66.192257
4.6563,-0.002007,0.000757,0.004238,-0.001168,0.000888,-0.011571,0.00072,-0.509271,0.004396,1.417911,-258.266732,-1.450792,66.192257
4.6763,-0.001536,0.000784,0.002211,-0.001083,0.00086,-0.011235,0.000115,-0.50921,0.00387,1.373855,-258.269235,-1.417028,66.18906
4.6964,-0.001342,0.000687,0.00312,-0.000592,0.000788,-0.010094,-0.000363,-0.509213,0.00234,1.373855,-258.269235,-1.417028,66.18906
4.7164,-0.001503,0.001077,0.00462,-0.00022,0.000735,-0.009331,-0.000363,-0.509213,0.00234,1.373855,-258.269235,-1.417028,66.18906
4.7365,-0.001001,0.000938,0.002205,6.1e-05,0.000699,-0.008824,0.000808,-0.508883,0.004155,1.392217,-258.271653,-1.431427,66.185968
4.7563,-0.001122,0.000549,0.003305,-8.5e-05,0.000608,-0.008921,0.000522,-0.508951,0.003302,1.392217,-258.271653,-1.431427,66.185968
4.7764,-0.001158,0.00109,0.003345,-0.000193,0.000538,-0.008993,0.000558,-0.50944,0.003197,1.467208,-258.272379,-1.506418,66.185026
4.7971,-0.001223,0.001055,0.002948,-0.000287,0.000507,-0.009052,0.000548,-0.508955,0.003326,1.467208,-258.272379,-1.506418,66.185026
4.8165,-0.001253,0.000452,0.003755,-0.000357,0.000483,-0.009093,0.000548,-0.508955,0.003326,1.467208,-258.272379,-1.506418,66.185026
4.837,-0.001135,0.000859,0.002753,-0.00041,0.000464,-0.009121,0.000655,-0.509524,0.003409,1.531817,-258.274203,-1.538772,66.182806
4.8565,-0.001105,0.000998,0.003637,-0.000428,0.000606,-0.00906,0.000496,-0.509364,0.003101,1.531817,-258.274203,-1.538772,66.182806
4.8764,-0.000788,0.001151,0.003644,-0.000444,0.000709,-0.009014,0.000737,-0.508985,0.003359,1.490674,-258.276156,-1.502963,66.1805
4.8964,-0.000813,0.001096,0.000358,-0.000678,0.000634,-0.009164,0.00104,-0.508857,0.003605,1.490674,-258.276156,-1.502963,66.1805
4.9168,-0.000831,0.000822,0.002882,-0.000854,0.000576,-0.009265,0.00104,-0.508857,0.003605,1.490674,-258.276156,-1.502963,66.1805
4.9363,-0.000811,0.000691,0.003196,-0.000987,0.000531,-0.009332,0.00062,-0.509147,0.002505,1.478512,-258.278078,-1.499483,66.178014
4.9565,-0.000756,0.000916,0.002648,-0.000958,0.000603,-0.009024,0.000699,-0.509208,0.002743,1.478512,-258.278078,-1.499483,66.178014
4.9765,-0.000162,0.000825,0.000661,-0.000941,0.000657,-0.008811,0.000572,-0.509069,0.00242,1.403514,-258.27969,-1.424485,66.176081
4.9966,-0.000547,0.001189,0.002553,-0.000722,0.000653,-0.00764,0.00021,-0.509165,0.000809,1.403514,-258.27969,-1.424485,66.176081
5.0169,-0.0007,0.000813,0.003406,-0.000565,0.000652,-0.006829,0.00021,-0.509165,0.000809,1.403514,-258.27969,-1.424485,66.176081
5.0365,7.5e-05,0.000912,0.001374,-0.000451,0.000653,-0.006271,0.000998,-0.509157,0.003041,1.37425,-258.281589,-1.416228,66.173673
5.0566,-0.000116,0.001574,0.000271,-0.00065,0.00068,-0.006694,0.000904,-0.509126,0.002329,1.37425,-258.281589,-1.416228,66.173673
5.0763,-2.2e-05,0.001228,0.001246,-0.000797,0.000699,-0.006988,9e-06,-0.508407,8.9e-05,1.429769,-258.282755,-1.470504,66.172036
5.0966,-7.8e-05,0.000829,0.00095,-0.000765,0.000553,-0.006549,0.000557,-0.508736,0.00113,1.429769,-258.282755,-1.470504,66.172036
5.1168,4.6e-05,0.000942,0.002274,-0.000742,0.000445,-0.006248,0.000557,-0.508736,0.00113,1.429769,-258.282755,-1.470504,66.172036
5.1367,2.1e-05,0.00108,0.000462,-0.000726,0.000365,-0.006043,0.001177,-0.509032,0.002022,1.354779,-258.284008,-1.411682,66.170312
5.1568,-7.5e-05,0.001039,0.001229,-0.00081,0.000409,-0.006051,0.000806,-0.508984,0.00137,1.354779,-258.284008,-1.411682,66.170312
5.1762,0.00016,0.00154,0.001285,-0.000874,0.000441,-0.006055,0.000528,-0.508949,0.001037,1.355708,-258.285363,-1.393574,66.168673
5.1966,-0.000274,0.000984,0.001372,-0.000909,0.000302,-0.005977,0.000788,-0.508503,0.001252,1.355708,-258.285363,-1.393574,66.168673
5.2163,0.00014,0.001368,4.5e-05,-0.000935,0.000198,-0.005923,0.000788,-0.508503,0.001252,1.355708,-258.285363,-1.393574,66.168673
5.2364,0.000433,0.001403,0.002146,-0.000955,0.00012,-0.005887,0.000129,-0.508615,-0.000195,1.308756,-258.286645,-1.362744,66.167064
5.2561,-5e-06,0.001224,0.000107,-0.000932,8.9e-05,-0.005573,0.000696,-0.508605,0.000733,1.308756,-258.286645,-1.362744,66.167064
5.2764,0.000517,0.000961,0.000386,-0.000917,6.5e-05,-0.005354,2e-05,-0.508773,-7.5e-05,1.302726,-258.288043,-1.319362,66.165576
5.2964,0.000343,0.001326,0.000602,-0.000888,0.000188,-0.004991,0.000651,-0.509015,0.000336,1.302726,-258.288043,-1.319362,66.165576
5.3164,0.000357,0.001226,0.000146,-0.000871,0.000279,-0.004735,0.000651,-0.509015,0.000336,1.302726,-258.288043,-1.319362,66.165576
5.3369,0.000595,0.001104,-0.001905,-0.000861,0.000347,-0.004554,0.000393,-0.508771,-7.8e-05,1.29218,-258.289368,-1.302545,66.164201
5.3566,0.000535,0.001401,0.000161,-0.000631,0.0003,-0.003809,7.7e-05,-0.508821,-0.000844,1.29218,-258.289368,-1.302545,66.164201
5.3765,0.000147,0.00129,-0.001799,-0.00046,0.000267,-0.003286,0.000591,-0.508589,2.4e-05,1.230992,-258.290341,-1.302291,66.162979
5.3967,0.000368,0.000821,0.000442,-7.3e-05,0.000198,-0.002573,-0.00065,-0.508698,-0.001644,1.230992,-258.290341,-1.302291,66.162979
5.4166,0.000409,0.001197,-0.000369,0.000222,0.000148,-0.002074,-0.00065,-0.508698,-0.001644,1.230992,-258.290341,-1.302291,66.162979
5.4363,0.000495,0.001131,0.000614,0.000447,0.000112,-0.001725,0.000205,-0.508793,-0.000483,1.305995,-258.29094,-1.371355,66.162206
5.4561,0.0005,0.001195,-0.001085,0.000197,0.000161,-0.002266,0.000449,-0.508823,-4.9e-05,1.305995,-258.29094,-1.371355,66.162206
5.4764,0.000534,0.001286,-2.6e-05,1.2e-05,0.000195,-0.00263,-5.3e-05,-0.508805,-0.001085,1.231002,-258.29094,-1.296362,66.162206
5.4961,0.000793,0.001084,-0.000487,-0.000131,0.000185,-0.002832,0.000468,-0.508722,-0.000123,1.231002,-258.29094,-1.296362,66.162206
5.5165,0.000822,0.001253,-0.001034,-0.000237,0.000177,-0.002964,0.000468,-0.508722,-0.000123,1.231002,-258.29094,-1.296362,66.162206
5.5364,0.000743,0.001411,-0.001368,-0.000316,0.00017,-0.003049,0.000294,-0.508747,-0.001039,1.306012,-258.290962,-1.371372,66.162178
5.5561,0.000854,0.000828,-0.001244,-0.000264,0.000137,-0.002573,0.000193,-0.508683,-0.001172,1.306012,-258.290962,-1.371372,66.162178
5.5762,0.000723,0.001217,-0.00123,-0.000227,0.000112,-0.002238,0.00021,-0.509167,-0.001329,1.381015,-258.291564,-1.416429,66.161459
5.5965,0.000489,0.001301,-0.000779,-0.000166,0.000136,-0.001973,0.000106,-0.508816,-0.001243,1.381015,-258.291564,-1.416429,66.161459
5.6162,0.00045,0.001,-0.001493,-0.000121,0.000155,-0.001786,0.000106,-0.508816,-0.001243,1.381015,-258.291564,-1.416429,66.161459
5.6365,0.000857,0.001234,-0.001164,-8.9e-05,0.000169,-0.001653,-0.000321,-0.508995,-0.001587,1.391488,-258.292073,-1.418233,66.160862
5.6561,0.000616,0.001055,-0.001027,1.1e-05,0.000203,-0.001476,-8.5e-05,-0.508901,-0.001426,1.391488,-258.292073,-1.418233,66.160862
5.6761,0.000662,0.001364,-0.001109,8.6e-05,0.000229,-0.00135,9e-05,-0.50894,-0.001071,1.4654,-258.292354,-1.493171,66.160468
5.6962,0.000381,0.001249,-0.001853,6.4e-05,0.000175,-0.001399,9.6e-05,-0.508663,-0.001108,1.4654,-258.292354,-1.493171,66.160468
5.7164,0.001357,0.001611,-0.001244,4.8e-05,0.000134,-0.00143,9.6e-05,-0.508663,-0.001108,1.4654,-258.292354,-1.493171,66.160468
5.7363,0.000505,0.001349,0.001015,3.7e-05,0.000105,-0.001449,0.000723,-0.508386,-0.001257,1.540412,-258.292413,-1.568183,66.160365
5.7563,0.000398,0.001177,0.001194,-0.000246,7.2e-05,-0.00187,0.000845,-0.508494,-0.000334,1.540412,-258.292413,-1.568183,66.160365
5.7764,0.00076,0.001196,0.000254,-0.000457,4.5e-05,-0.002155,0.001008,-0.50882,0.001153,1.615446,-258.292689,-1.60854,66.160015
5.7963,0.00065,0.001061,0.000216,-0.00065,0.000129,-0.002737,0.000901,-0.508805,0.000333,1.615446,-258.292689,-1.60854,66.160015
5.8166,0.001111,0.001075,-0.00209,-0.000793,0.000189,-0.003138,0.000901,-0.508805,0.000333,1.615446,-258.292689,-1.60854,66.160015
5.8365,0.000852,0.001197,-0.00046,-0.000899,0.000232,-0.003416,4.5e-05,-0.508924,-0.002091,1.540477,-258.292694,-1.533571,66.16001
5.8561,0.000739,0.001347,9e-05,-0.000733,0.000251,-0.002695,0.000277,-0.508875,-0.00143,1.540477,-258.292694,-1.533571,66.16001
5.876,0.000506,0.000778,-0.000883,-0.000613,0.000265,-0.002183,0.000785,-0.508653,8.9e-05,1.465484,-258.292702,-1.458578,66.160001
5.8964,0.000538,0.001251,-0.001345,-0.000466,0.000382,-0.002139,0.000122,-0.509171,-0.000796,1.465484,-258.292702,-1.458578,66.160001
5.9165,0.001021,0.001523,-0.000826,-0.000358,0.000469,-0.002102,0.000122,-0.509171,-0.000796,1.465484,-258.292702,-1.458578,66.160001
5.9364,0.000749,0.001307,-0.002171,-0.000277,0.000534,-0.002072,0.000599,-0.508477,-0.000828,1.390486,-258.292712,-1.383579,66.159987
