mach0312/omni-docking-bench/src/icros_test_setup/results/MPPI_sample/timeseries/trial_024.csv
t,x,y,yaw,vx,vy,wz,bl_x,bl_y,bl_yaw,front_steering_joint,front_wheel_joint,rear_steering_joint,rear_wheel_joint
0.0,0.038559,0.028207,-0.068486,-0.006591,0.001221,-0.003072,0.004104,-0.481105,-0.069193,0.09904,-266.300453,-0.439285,64.233945
0.0003,0.038962,0.028086,-0.068812,-0.006048,0.001121,-0.002819,0.004069,-0.481049,-0.069374,0.09904,-266.303788,-0.439285,64.230278
0.0006,0.038437,0.028182,-0.068647,-0.005454,0.001011,-0.002542,0.004069,-0.481049,-0.069374,0.09904,-266.306827,-0.439285,64.226937
0.0009,0.038073,0.028261,-0.069318,-0.004821,0.000893,-0.002247,0.004017,-0.480913,-0.06844,0.09904,-266.309256,-0.439285,64.224267
0.0012,0.038051,0.028634,-0.069168,-0.00412,0.000763,-0.00192,0.004017,-0.480913,-0.06844,0.09904,-266.311191,-0.439285,64.222139
0.0015,0.038041,0.028601,-0.06937,-0.0034,0.00063,-0.001585,0.00286,-0.480671,-0.070417,0.09904,-266.311191,-0.439285,64.222139
0.0017,0.037799,0.028522,-0.069152,-0.002622,0.000486,-0.001222,0.00286,-0.480671,-0.070417,0.09904,-266.311191,-0.439285,64.222139
0.002,0.037792,0.028654,-0.068857,-0.001795,0.000332,-0.000836,0.00286,-0.480671,-0.070417,0.09904,-266.311191,-0.439285,64.222139
0.0166,0.037843,0.028309,-0.069727,0.0,0.0,0.0,0.002595,-0.480109,-0.068908,0.09904,-266.312247,-0.439285,64.220978
0.0364,0.038248,0.028308,-0.068929,0.0,0.0,0.0,0.002464,-0.480249,-0.069256,0.09904,-266.312247,-0.439285,64.220978
0.0566,0.037806,0.028699,-0.0694,0.0,0.0,0.0,0.003122,-0.480481,-0.068929,0.09904,-266.312247,-0.439285,64.220978
0.0766,0.03798,0.028293,-0.067242,0.0,0.0,0.0,0.002502,-0.48011,-0.069357,0.09904,-266.312247,-0.439285,64.220978
0.0964,0.03802,0.028576,-0.068031,0.0,0.0,0.0,0.002502,-0.48011,-0.069357,0.09904,-266.312247,-0.439285,64.220978
0.1164,0.037851,0.028389,-0.06881,0.000769,-0.006706,0.009141,0.003351,-0.480245,-0.068031,0.09904,-266.312247,-0.439285,64.220978
0.1366,0.038113,0.028621,-0.069262,0.00087,-0.007318,0.009835,0.00312,-0.48031,-0.068349,0.09904,-266.312247,-0.439285,64.220978
0.1565,0.038186,0.028647,-0.070671,0.000967,-0.00784,0.010387,0.002817,-0.480156,-0.069262,0.024041,-266.312247,-0.514285,64.220978
0.1763,0.037986,0.028259,-0.069261,0.001092,-0.008284,0.010852,0.002231,-0.480086,-0.070544,0.024041,-266.312247,-0.514285,64.220978
0.1967,0.037774,0.028585,-0.06899,0.001209,-0.008663,0.011221,0.002231,-0.480086,-0.070544,0.024041,-266.312247,-0.514285,64.220978
0.2166,0.03837,0.028405,-0.069441,0.001317,-0.008987,0.011512,0.002617,-0.480201,-0.06899,-0.050955,-266.312247,-0.58928,64.220978
0.2366,0.038258,0.028301,-0.070033,0.001396,-0.009265,0.01177,0.002767,-0.480269,-0.069174,-0.050955,-266.312247,-0.58928,64.220978
0.2566,0.038199,0.028824,-0.069888,0.00147,-0.009503,0.011973,0.002571,-0.480449,-0.070033,-0.125959,-266.312247,-0.664284,64.220978
0.2764,0.03809,0.028418,-0.069343,0.001545,-0.009706,0.012161,0.002584,-0.479977,-0.0699,-0.125959,-266.312247,-0.664284,64.220978
0.2965,0.038044,0.028182,-0.069085,0.001614,-0.00988,0.01231,0.002584,-0.479977,-0.0699,-0.125959,-266.312247,-0.664284,64.220978
0.3164,0.037868,0.028598,-0.068939,0.001677,-0.010028,0.012427,0.002838,-0.480602,-0.069085,-0.200961,-266.312247,-0.739286,64.220978
0.3362,0.037843,0.02827,-0.070079,0.001723,-0.010156,0.012604,0.002797,-0.480435,-0.069026,-0.200961,-266.312247,-0.739286,64.220978
0.3564,0.037985,0.028446,-0.068091,0.001766,-0.010266,0.012745,0.002132,-0.480479,-0.070079,-0.275962,-266.312247,-0.814288,64.220978
0.3762,0.037579,0.028409,-0.069264,0.00179,-0.01036,0.012858,0.003186,-0.480381,-0.068263,-0.275962,-266.312247,-0.814288,64.220978
0.3966,0.037734,0.02844,-0.069733,0.001813,-0.010441,0.012948,0.003186,-0.480381,-0.068263,-0.275962,-266.312247,-0.814288,64.220978
0.4165,0.038287,0.028545,-0.069143,0.001835,-0.01051,0.01302,0.002199,-0.480321,-0.069733,-0.351101,-266.312247,-0.889427,64.220978
0.4362,0.037854,0.028475,-0.069229,0.001876,-0.010569,0.013077,0.002546,-0.480286,-0.069493,-0.351101,-266.312247,-0.889427,64.220978
0.4563,0.037777,0.028607,-0.069027,0.001913,-0.010619,0.013123,0.002575,-0.480303,-0.069229,-0.425967,-266.312247,-0.964293,64.220978
0.4769,0.03829,0.028507,-0.068792,0.001944,-0.010663,0.01316,0.002599,-0.480189,-0.069045,-0.425967,-266.312247,-0.964293,64.220978
0.4973,0.038216,0.028255,-0.069254,0.001971,-0.0107,0.01319,0.002599,-0.480189,-0.069045,-0.425967,-266.312247,-0.964293,64.220978
0.5164,0.038027,0.028893,-0.069599,0.001995,-0.010732,0.013213,0.002924,-0.480523,-0.069254,-0.501113,-266.312247,-1.039438,64.220979
0.5366,0.037967,0.028952,-0.068517,0.00201,-0.010761,0.013233,0.002776,-0.480257,-0.069395,-0.501113,-266.312247,-1.039438,64.220979
0.5561,0.03852,0.028456,-0.069103,0.002024,-0.010785,0.013248,0.003051,-0.479852,-0.068516,-0.576098,-266.312243,-1.114424,64.220998
0.5765,0.037905,0.028476,-0.068582,0.002019,-0.010806,0.013261,0.003284,-0.480286,-0.069052,-0.576098,-266.312243,-1.114424,64.220998
0.5966,0.037658,0.028434,-0.069289,0.002016,-0.010824,0.013271,0.003284,-0.480286,-0.069052,-0.576098,-266.312243,-1.114424,64.220998
0.6168,0.037697,0.028358,-0.068319,0.002013,-0.01084,0.01328,0.002352,-0.48035,-0.06928,-0.651098,-266.312219,-1.189424,64.221137
0.6369,0.038128,0.028521,-0.069005,0.002036,-0.010852,0.013286,0.002566,-0.480392,-0.068891,-0.651098,-266.312219,-1.189424,64.221137
0.6567,0.03783,0.028435,-0.069269,0.002055,-0.010863,0.013292,0.002972,-0.480291,-0.068973,-0.725967,-266.312112,-1.264293,64.221739
0.6767,0.037605,0.028926,-0.068363,0.002072,-0.010873,0.013296,0.002569,-0.480339,-0.069242,-0.725967,-266.312112,-1.264293,64.221739
0.6969,0.037872,0.028388,-0.070223,0.002087,-0.010881,0.0133,0.002569,-0.480339,-0.069242,-0.725967,-266.312112,-1.264293,64.221739
0.7166,0.038362,0.028473,-0.067661,0.0021,-0.010889,0.013303,0.002118,-0.480478,-0.070072,-0.801138,-266.311736,-1.339463,64.22383
0.7368,0.038128,0.02793,-0.069917,0.002101,-0.010895,0.013306,0.002844,-0.480444,-0.069066,-0.801138,-266.311736,-1.339463,64.22383
0.7564,0.037797,0.027898,-0.068627,0.002102,-0.010901,0.013308,0.002536,-0.481036,-0.069663,-0.876063,-266.310865,-1.414389,64.228424
0.7763,0.037679,0.027835,-0.068369,0.002103,-0.010906,0.013388,0.002802,-0.480923,-0.068704,-0.876063,-266.310865,-1.414389,64.228424
0.7963,0.037808,0.028064,-0.069668,0.002104,-0.01091,0.013452,0.002802,-0.480923,-0.068704,-0.876063,-266.310865,-1.414389,64.228424
0.8164,0.037474,0.027598,-0.068524,0.002105,-0.010914,0.013503,0.002358,-0.481125,-0.069155,-0.922231,-266.309568,-1.460787,64.2355
0.8366,0.03732,0.027811,-0.067934,0.002118,-0.010916,0.013613,0.002444,-0.481207,-0.068839,-0.922231,-266.309568,-1.460787,64.2355
0.8565,0.036934,0.027018,-0.066509,0.00213,-0.010918,0.013702,0.002744,-0.481362,-0.067506,-0.90254,-266.308218,-1.461369,64.243163
0.8765,0.03721,0.026818,-0.068554,0.002115,-0.010921,0.013842,0.003015,-0.481828,-0.066577,-0.90254,-266.308218,-1.461369,64.243163
0.8967,0.03716,0.02661,-0.067558,0.002103,-0.010923,0.013955,0.003015,-0.481828,-0.066577,-0.90254,-266.308218,-1.461369,64.243163
0.9161,0.036805,0.026243,-0.066404,0.002094,-0.010925,0.014047,0.00279,-0.482684,-0.06699,-0.874957,-266.306905,-1.460813,64.250831
0.9362,0.036919,0.026378,-0.066277,0.002089,-0.010926,0.014183,0.002867,-0.482715,-0.066688,-0.874957,-266.306905,-1.460813,64.250831
0.9566,0.036814,0.026012,-0.066381,0.002085,-0.010927,0.014293,0.003186,-0.482847,-0.065838,-0.842129,-266.305669,-1.463859,64.258542
0.9764,0.036609,0.025389,-0.066096,0.002074,-0.010928,0.01444,0.003005,-0.482881,-0.06631,-0.842129,-266.305669,-1.463859,64.258542
0.9965,0.036816,0.025718,-0.068352,0.002065,-0.010929,0.01456,0.003005,-0.482881,-0.06631,-0.842129,-266.305669,-1.463859,64.258542
1.0168,0.036216,0.025582,-0.065231,0.002058,-0.010929,0.014657,0.002038,-0.483547,-0.067763,-0.811726,-266.304474,-1.465134,64.266342
1.0367,0.036591,0.025439,-0.066267,0.002072,-0.010929,0.014789,0.002427,-0.483512,-0.066656,-0.811726,-266.304474,-1.465134,64.266342
1.0565,0.036242,0.024856,-0.064604,0.002085,-0.010929,0.014896,0.002861,-0.483782,-0.065816,-0.765519,-266.303369,-1.467659,64.274075
1.0771,0.036113,0.024947,-0.064838,0.002057,-0.010929,0.01503,0.003281,-0.484071,-0.064683,-0.765519,-266.303369,-1.467659,64.274075
1.0968,0.035885,0.024678,-0.065335,0.002034,-0.01093,0.015139,0.003281,-0.484071,-0.064683,-0.765519,-266.303369,-1.467659,64.274075
1.1162,0.03617,0.024439,-0.064491,0.002016,-0.01093,0.015229,0.002643,-0.484681,-0.064732,-0.720699,-266.302297,-1.467073,64.281857
1.1365,0.035939,0.024539,-0.064985,0.002012,-0.01093,0.01534,0.002918,-0.484659,-0.064564,-0.720699,-266.302297,-1.467073,64.281857
1.1562,0.035791,0.02387,-0.063025,0.002009,-0.010929,0.015432,0.002861,-0.484726,-0.064513,-0.679574,-266.301288,-1.471482,64.289769
1.1765,0.035791,0.023902,-0.063699,0.001975,-0.010929,0.015542,0.003597,-0.485099,-0.063137,-0.679574,-266.301288,-1.471482,64.289769
1.1966,0.035675,0.023796,-0.063739,0.001947,-0.010928,0.015632,0.003597,-0.485099,-0.063137,-0.679574,-266.301288,-1.471482,64.289769
1.2166,0.03518,0.023734,-0.060878,0.001923,-0.010927,0.015705,0.003244,-0.485621,-0.063105,-0.642587,-266.300306,-1.472403,64.297774
1.2367,0.035276,0.023253,-0.062172,0.001899,-0.010927,0.015796,0.003616,-0.485552,-0.062134,-0.642587,-266.300306,-1.472403,64.297774
1.2564,0.035105,0.023095,-0.062701,0.001879,-0.010926,0.015871,0.003628,-0.486106,-0.061681,-0.606894,-266.299389,-1.477339,64.30585
1.2766,0.034775,0.022826,-0.06259,0.001879,-0.010925,0.015951,0.003193,-0.485938,-0.062585,-0.606894,-266.299389,-1.477339,64.30585
1.2966,0.034589,0.022777,-0.061099,0.001879,-0.010925,0.016018,0.003193,-0.485938,-0.062585,-0.606894,-266.299389,-1.477339,64.30585
1.3166,0.034678,0.022328,-0.059722,0.00188,-0.010924,0.016072,0.003499,-0.486728,-0.060441,-0.580501,-266.2985,-1.479902,64.314037
1.3374,0.034079,0.022427,-0.05945,0.001845,-0.010923,0.016126,0.003803,-0.486794,-0.060075,-0.580501,-266.2985,-1.479902,64.314037
1.3565,0.034166,0.022035,-0.060201,0.001816,-0.010921,0.01617,0.003815,-0.487014,-0.058951,-0.532725,-266.297658,-1.480415,64.322067
1.3767,0.03423,0.021477,-0.059924,0.001804,-0.01092,0.016212,0.003514,-0.487056,-0.060062,-0.532725,-266.297658,-1.480415,64.322067
1.3967,0.034131,0.021613,-0.060405,0.001794,-0.010919,0.016246,0.003514,-0.487056,-0.060062,-0.532725,-266.297658,-1.480415,64.322067
1.4164,0.034014,0.021317,-0.059426,0.001785,-0.010918,0.016274,0.003391,-0.487918,-0.059728,-0.522134,-266.296821,-1.483679,64.330413
1.4367,0.033641,0.021309,-0.060741,0.001771,-0.010917,0.016304,0.003532,-0.487915,-0.059528,-0.522134,-266.296821,-1.483679,64.330413
1.4564,0.033484,0.020909,-0.058354,0.001759,-0.010916,0.016329,0.002718,-0.488098,-0.060227,-0.501522,-266.296013,-1.485411,64.338718
1.4769,0.0333,0.020614,-0.057653,0.00174,-0.010914,0.016355,0.00365,-0.488229,-0.058496,-0.501522,-266.296013,-1.485411,64.338718
1.4967,0.033138,0.02103,-0.058718,0.001724,-0.010912,0.016377,0.00365,-0.488229,-0.058496,-0.501522,-266.296013,-1.485411,64.338718
1.5171,0.032825,0.020112,-0.058712,0.001711,-0.010911,0.016395,0.003256,-0.488552,-0.058034,-0.492011,-266.295212,-1.486786,64.347134
1.5369,0.033046,0.020002,-0.057784,0.001723,-0.010911,0.016415,0.003113,-0.488796,-0.058237,-0.492011,-266.295212,-1.486786,64.347134
1.5564,0.032793,0.019512,-0.057494,0.001732,-0.01091,0.016432,0.003627,-0.489494,-0.057265,-0.483062,-266.294444,-1.489185,64.355477
1.5765,0.032171,0.019984,-0.055792,0.001712,-0.010909,0.016452,0.003501,-0.48965,-0.057446,-0.483062,-266.294444,-1.489185,64.355477
1.5967,0.032862,0.019505,-0.057428,0.001696,-0.010907,0.016468,0.003501,-0.48965,-0.057446,-0.483062,-266.294444,-1.489185,64.355477
1.6167,0.031773,0.018864,-0.055751,0.001683,-0.010905,0.016482,0.003636,-0.490112,-0.056743,-0.467507,-266.293662,-1.488304,64.363947
1.6368,0.031931,0.019218,-0.054749,0.001664,-0.010903,0.016498,0.003519,-0.490267,-0.05623,-0.467507,-266.293662,-1.488304,64.363947
1.6567,0.031698,0.019027,-0.054683,0.001648,-0.010901,0.016511,0.004057,-0.490362,-0.054233,-0.462648,-266.292919,-1.490736,64.372262
1.6765,0.03191,0.019213,-0.054349,0.001616,-0.010898,0.016526,0.003847,-0.490242,-0.054615,-0.462648,-266.292919,-1.490736,64.372262
1.6967,0.031782,0.018496,-0.055144,0.00159,-0.010894,0.016538,0.003847,-0.490242,-0.054615,-0.462648,-266.292919,-1.490736,64.372262
1.7162,0.031779,0.017771,-0.054221,0.001568,-0.010892,0.016548,0.003717,-0.491188,-0.054452,-0.460305,-266.292173,-1.492423,64.380793
1.7363,0.031745,0.018494,-0.054655,0.001533,-0.010887,0.016561,0.003909,-0.49137,-0.054269,-0.460305,-266.292173,-1.492423,64.380793
1.7566,0.031059,0.017414,-0.052912,0.001505,-0.010882,0.016571,0.003916,-0.491086,-0.054138,-0.464123,-266.291481,-1.496283,64.389112
1.7766,0.030823,0.017638,-0.054475,0.001465,-0.010876,0.016583,0.004073,-0.491823,-0.052991,-0.464123,-266.291481,-1.496283,64.389112
1.7964,0.031315,0.017482,-0.052208,0.001432,-0.010871,0.016592,0.004073,-0.491823,-0.052991,-0.464123,-266.291481,-1.496283,64.389112
1.8162,0.030854,0.01692,-0.052622,0.001404,-0.010866,0.0166,0.004741,-0.492281,-0.051515,-0.468557,-266.290804,-1.499273,64.397563
1.8365,0.030973,0.017043,-0.051462,0.001351,-0.010857,0.016609,0.004447,-0.492373,-0.051899,-0.468557,-266.290804,-1.499273,64.397563
1.8562,0.030457,0.016519,-0.050851,0.001307,-0.010848,0.016617,0.004766,-0.492627,-0.050937,-0.477924,-266.290172,-1.50404,64.405969
1.8765,0.030618,0.016546,-0.05151,0.001256,-0.010839,0.016626,0.004553,-0.492822,-0.050834,-0.477924,-266.290172,-1.50404,64.405969
1.8962,0.030532,0.016589,-0.051547,0.001214,-0.01083,0.016633,0.004553,-0.492822,-0.050834,-0.477924,-266.290172,-1.50404,64.405969
1.9163,0.030018,0.016384,-0.05062,0.001179,-0.010822,0.016639,0.004285,-0.493186,-0.050858,-0.491652,-266.289584,-1.508634,64.414322
1.9365,0.029931,0.016212,-0.05173,0.001162,-0.010817,0.016645,0.004259,-0.493147,-0.05068,-0.491652,-266.289584,-1.508634,64.414322
1.9561,0.030069,0.015608,-0.048954,0.001148,-0.010813,0.01665,0.00358,-0.493449,-0.051204,-0.510289,-266.289047,-1.514686,64.42268
1.9765,0.029911,0.015634,-0.049141,0.00108,-0.010798,0.016656,0.004981,-0.49377,-0.049122,-0.510289,-266.289047,-1.514686,64.42268
1.9966,0.029733,0.015687,-0.049336,0.001023,-0.010785,0.016661,0.004981,-0.49377,-0.049122,-0.510289,-266.289047,-1.514686,64.42268
2.0167,0.029176,0.014719,-0.049749,0.000976,-0.010773,0.016664,0.004608,-0.494146,-0.048639,-0.51122,-266.288521,-1.516125,64.431071
2.0367,0.029438,0.014666,-0.050148,0.00097,-0.010769,0.016667,0.00429,-0.494402,-0.049008,-0.51122,-266.288521,-1.516125,64.431071
2.0561,0.028982,0.014561,-0.049785,0.000964,-0.010765,0.01667,0.003887,-0.49503,-0.049628,-0.547597,-266.288072,-1.524222,64.439307
2.0764,0.028679,0.014185,-0.050555,0.000999,-0.010768,0.016672,0.003625,-0.494841,-0.049748,-0.547597,-266.288072,-1.524222,64.439307
2.0963,0.02903,0.014413,-0.049484,0.001027,-0.010771,0.016673,0.003625,-0.494841,-0.049748,-0.547597,-266.288072,-1.524222,64.439307
2.1162,0.028375,0.013842,-0.046104,0.00105,-0.010773,0.016675,0.003822,-0.495413,-0.048789,-0.54474,-266.287622,-1.524791,64.447681
2.1364,0.028519,0.014031,-0.047904,0.001009,-0.010763,0.016678,0.004257,-0.495549,-0.0476,-0.54474,-266.287622,-1.524791,64.447681
2.1566,0.028117,0.013643,-0.04542,0.000975,-0.010755,0.01668,0.004114,-0.495721,-0.047384,-0.511181,-266.287148,-1.520732,64.455937
2.1765,0.027985,0.013719,-0.04624,0.000893,-0.010734,0.016683,0.004894,-0.495838,-0.045553,-0.511181,-266.287148,-1.520732,64.455937
2.1966,0.028431,0.013371,-0.046611,0.000826,-0.010716,0.016685,0.004894,-0.495838,-0.045553,-0.511181,-266.287148,-1.520732,64.455937
2.2165,0.02737,0.012434,-0.04714,0.00077,-0.010701,0.016686,0.004688,-0.496522,-0.045919,-0.527164,-266.2867,-1.524293,64.464268
2.2365,0.02793,0.012894,-0.047614,0.000759,-0.010694,0.016686,0.004134,-0.496771,-0.046341,-0.527164,-266.2867,-1.524293,64.464268
2.2572,0.027552,0.012309,-0.046323,0.000749,-0.010689,0.016686,0.003664,-0.49685,-0.047113,-0.585219,-266.286351,-1.533958,64.472164
2.2767,0.02746,0.012669,-0.043734,0.000751,-0.010685,0.016685,0.003905,-0.497131,-0.046381,-0.585219,-266.286351,-1.533958,64.472164
2.2964,0.027268,0.012506,-0.045291,0.000753,-0.010682,0.016683,0.003905,-0.497131,-0.046381,-0.585219,-266.286351,-1.533958,64.472164
2.3166,0.027176,0.011969,-0.043889,0.000754,-0.01068,0.016682,0.004189,-0.497421,-0.044591,-0.586218,-266.285991,-1.53493,64.480522
2.3363,0.027008,0.011591,-0.043109,0.000699,-0.010662,0.016683,0.004438,-0.49752,-0.044226,-0.586218,-266.285991,-1.53493,64.480522
2.3568,0.026602,0.01127,-0.043298,0.000654,-0.010648,0.016683,0.005038,-0.498276,-0.042578,-0.577168,-266.285631,-1.534668,64.48888
2.3763,0.026601,0.011634,-0.043004,0.000586,-0.010623,0.016684,0.00457,-0.49827,-0.043212,-0.577168,-266.285631,-1.534668,64.48888
2.3966,0.026783,0.011488,-0.043339,0.00053,-0.010602,0.016685,0.00457,-0.49827,-0.043212,-0.577168,-266.285631,-1.534668,64.48888
2.4165,0.026205,0.011402,-0.042195,0.000484,-0.010585,0.016684,0.004695,-0.498471,-0.042655,-0.611496,-266.285316,-1.539422,64.497087
2.4363,0.026147,0.010905,-0.043093,0.000431,-0.010565,0.016684,0.004695,-0.498386,-0.042384,-0.611496,-266.285316,-1.539422,64.497087
2.4567,0.025336,0.010697,-0.042539,0.000388,-0.010548,0.016683,0.004177,-0.498928,-0.04261,-0.684184,-266.285088,-1.547492,64.504676
2.4765,0.025776,0.010682,-0.042144,0.000428,-0.010552,0.016677,0.003695,-0.498866,-0.04252,-0.684184,-266.285088,-1.547492,64.504676
2.4964,0.025649,0.010581,-0.040534,0.00046,-0.010556,0.016672,0.003695,-0.498866,-0.04252,-0.684184,-266.285088,-1.547492,64.504676
2.5165,0.0254,0.009715,-0.042292,0.000485,-0.010559,0.016668,0.004981,-0.499416,-0.039877,-0.746733,-266.28489,-1.552098,64.512466
2.5366,0.025287,0.010083,-0.041796,0.000399,-0.010524,0.016667,0.004519,-0.49963,-0.040777,-0.746733,-266.28489,-1.552098,64.512466
2.5566,0.025287,0.00956,-0.040532,0.000329,-0.010495,0.016664,0.003979,-0.499773,-0.04132,-0.671739,-266.28467,-1.547396,64.519873
2.5769,0.024666,0.009085,-0.040456,0.000251,-0.010461,0.016659,0.004563,-0.500014,-0.040579,-0.671739,-266.28467,-1.547396,64.519873
2.5963,0.025064,0.009454,-0.040144,0.000188,-0.010432,0.016653,0.004563,-0.500014,-0.040579,-0.671739,-266.28467,-1.547396,64.519873
2.6165,0.024341,0.00902,-0.038298,0.000136,-0.010408,0.016647,0.004593,-0.500513,-0.039543,-0.746737,-266.284513,-1.554905,64.526983
2.6367,0.024541,0.009298,-0.038965,5.5e-05,-0.010366,0.016638,0.004681,-0.500594,-0.038972,-0.746737,-266.284513,-1.554905,64.526983
2.6562,0.02447,0.008752,-0.037643,-1.1e-05,-0.010332,0.01663,0.004672,-0.500385,-0.038852,-0.82173,-266.284489,-1.564175,64.528739
2.6766,0.024488,0.008825,-0.038358,-0.000127,-0.010272,0.016592,0.005222,-0.500845,-0.037746,-0.82173,-266.284489,-1.564175,64.528739
2.6968,0.02435,0.009204,-0.040774,-0.000222,-0.010223,0.01656,0.005222,-0.500845,-0.037746,-0.82173,-266.284489,-1.564175,64.528739
2.7169,0.024684,0.008852,-0.039685,-0.000298,-0.010183,0.016531,0.003561,-0.500372,-0.040774,-0.896744,-266.284489,-1.571336,64.52874
2.7371,0.024532,0.008827,-0.040636,-0.00021,-0.010212,0.016457,0.003922,-0.500524,-0.040332,-0.896744,-266.284489,-1.571336,64.52874
2.7561,0.02418,0.008881,-0.038183,-0.00014,-0.010236,0.016397,0.003814,-0.500752,-0.040636,-0.821741,-266.284489,-1.585514,64.52874
2.7767,0.024905,0.00935,-0.040158,-0.000168,-0.010224,0.016313,0.004631,-0.500748,-0.038403,-0.821741,-266.284489,-1.585514,64.52874
2.7963,0.024337,0.008815,-0.040504,-0.00019,-0.010215,0.016244,0.004631,-0.500748,-0.038403,-0.821741,-266.284489,-1.585514,64.52874
2.8167,0.024665,0.008374,-0.038672,-0.000209,-0.010207,0.016187,0.003685,-0.500767,-0.040504,-0.746725,-266.284489,-1.57771,64.528741
2.8369,0.024575,0.009141,-0.038785,-0.000185,-0.010213,0.016089,0.004199,-0.500961,-0.039759,-0.746725,-266.284489,-1.57771,64.528741
2.8562,0.024165,0.009042,-0.036509,-0.000167,-0.010218,0.01601,0.0048,-0.500475,-0.038785,-0.671734,-266.284489,-1.581192,64.528742
2.8768,0.024418,0.009086,-0.039482,-0.000259,-0.010181,0.015891,0.00548,-0.500605,-0.036719,-0.671734,-266.284489,-1.581192,64.528742
2.8963,0.02411,0.009015,-0.037677,-0.000334,-0.010151,0.015794,0.00548,-0.500605,-0.036719,-0.671734,-266.284489,-1.581192,64.528742
2.9168,0.024512,0.008871,-0.03849,-0.000396,-0.010126,0.015714,0.004899,-0.500623,-0.037677,-0.596718,-266.284489,-1.579147,64.528743
2.9364,0.02443,0.008913,-0.039868,-0.000393,-0.01013,0.015578,0.004894,-0.500675,-0.038006,-0.596718,-266.284489,-1.579147,64.528743
2.9561,0.024043,0.008819,-0.039345,-0.000391,-0.010132,0.015468,0.004103,-0.500681,-0.039868,-0.521722,-266.284489,-1.590848,64.528744
2.9768,0.02458,0.0088,-0.039888,-0.0003,-0.010166,0.015303,0.003993,-0.500777,-0.039392,-0.521722,-266.284489,-1.590848,64.528744
2.9967,0.024299,0.00876,-0.039904,-0.000227,-0.010194,0.015173,0.003993,-0.500777,-0.039392,-0.521722,-266.284489,-1.590848,64.528744
3.0167,0.024588,0.008641,-0.039535,-0.000169,-0.010218,0.015069,0.003953,-0.500834,-0.039904,-0.446737,-266.284489,-1.590788,64.528744
3.0362,0.024743,0.008828,-0.038265,-0.000141,-0.010231,0.014904,0.004146,-0.500886,-0.039755,-0.446737,-266.284489,-1.590788,64.528744
3.0565,0.024778,0.008978,-0.039692,-0.000119,-0.010241,0.014773,0.005233,-0.500799,-0.038265,-0.521754,-266.284489,-1.579511,64.528745
3.0768,0.024461,0.008998,-0.038562,-0.000135,-0.010241,0.014587,0.004602,-0.500636,-0.039564,-0.521754,-266.284489,-1.579511,64.528745
3.0966,0.024187,0.0093,-0.040405,-0.000149,-0.010241,0.014438,0.004602,-0.500636,-0.039564,-0.521754,-266.284489,-1.579511,64.528745
3.1165,0.02434,0.009146,-0.039742,-0.000161,-0.010241,0.014319,0.003586,-0.500284,-0.040405,-0.596723,-266.284489,-1.57698,64.528746
3.1366,0.024348,0.009138,-0.040324,-7.5e-05,-0.010275,0.014103,0.003789,-0.500353,-0.040131,-0.596723,-266.284489,-1.57698,64.528746
3.1565,0.024353,0.009224,-0.038226,-6e-06,-0.010304,0.013934,0.003788,-0.500447,-0.040323,-0.672044,-266.284489,-1.579259,64.528747
3.1764,0.024359,0.008434,-0.041019,-5.1e-05,-0.010294,0.013807,0.004765,-0.500407,-0.038415,-0.672044,-266.284489,-1.579259,64.528747
3.1966,0.024381,0.00892,-0.039098,-8.9e-05,-0.010286,0.013706,0.004765,-0.500407,-0.038415,-0.672044,-266.284489,-1.579259,64.528747
3.2166,0.024496,0.008975,-0.038327,-0.000119,-0.010279,0.013626,0.004446,-0.50069,-0.039098,-0.746714,-266.284489,-1.571129,64.528747
3.2367,0.024443,0.009024,-0.040327,-0.000145,-0.010271,0.013563,0.004651,-0.500674,-0.038788,-0.746714,-266.284489,-1.571129,64.528747
3.2565,0.024747,0.008895,-0.040076,-0.000166,-0.010265,0.013513,0.003881,-0.500561,-0.040327,-0.821722,-266.284489,-1.577199,64.528748
3.2764,0.024478,0.008934,-0.038748,-0.000145,-0.010273,0.013471,0.004276,-0.500684,-0.040098,-0.821722,-266.284489,-1.577199,64.528748
3.2964,0.024543,0.008705,-0.039634,-0.000129,-0.010279,0.013438,0.004276,-0.500684,-0.040098,-0.821722,-266.284489,-1.577199,64.528748
3.3166,0.024302,0.008771,-0.039215,-0.000116,-0.010285,0.013412,0.004335,-0.500895,-0.039634,-0.896833,-266.284489,-1.579748,64.528749
3.3366,0.0244,0.008973,-0.041128,-0.00012,-0.010283,0.013393,0.004323,-0.500871,-0.039464,-0.896833,-266.284489,-1.579748,64.528749
3.3562,0.024282,0.009137,-0.040711,-0.000122,-0.010281,0.013378,0.003431,-0.500596,-0.041128,-0.971834,-266.284489,-1.57709,64.52875
3.3767,0.024611,0.009116,-0.03934,-2.2e-05,-0.010314,0.013361,0.003517,-0.500454,-0.040746,-0.971834,-266.284489,-1.57709,64.52875
3.3974,0.024779,0.00903,-0.039111,5.8e-05,-0.010341,0.013349,0.003517,-0.500454,-0.040746,-0.971834,-266.284489,-1.57709,64.52875
3.4163,0.024542,0.008625,-0.038809,0.000123,-0.010364,0.01334,0.004837,-0.500581,-0.039111,-1.046859,-266.284488,-1.577431,64.528755
3.4368,0.024181,0.009101,-0.03972,3.3e-05,-0.010333,0.013342,0.004803,-0.50075,-0.038986,-1.046859,-266.284488,-1.577431,64.528755
3.4563,0.024808,0.008831,-0.040689,-4.1e-05,-0.010307,0.013342,0.003929,-0.500506,-0.039708,-1.121826,-266.284465,-1.56413,64.528949
3.4767,0.024877,0.008945,-0.038636,-2.4e-05,-0.010315,0.013336,0.004051,-0.500727,-0.040606,-1.121826,-266.284465,-1.56413,64.528949
3.4967,0.024494,0.008565,-0.039155,-1e-05,-0.010321,0.013332,0.004051,-0.500727,-0.040606,-1.121826,-266.284465,-1.56413,64.528949
3.5164,0.024395,0.009218,-0.040324,2e-06,-0.010326,0.013329,0.00453,-0.501055,-0.039141,-1.196905,-266.284442,-1.573024,64.529142
3.5366,0.024353,0.00899,-0.038403,-1.2e-05,-0.010322,0.013328,0.004244,-0.500774,-0.039625,-1.196905,-266.284442,-1.573024,64.529142
3.5567,0.024435,0.009198,-0.038749,-2.3e-05,-0.010318,0.013327,0.004772,-0.500667,-0.038359,-1.27188,-266.284353,-1.570702,64.529896
3.5766,0.023904,0.008674,-0.03957,-6.2e-05,-0.010307,0.013327,0.004686,-0.500443,-0.038713,-1.27188,-266.284353,-1.570702,64.529896
3.5966,0.024625,0.00892,-0.039821,-9.4e-05,-0.010298,0.013327,0.004686,-0.500443,-0.038713,-1.27188,-266.284353,-1.570702,64.529896
3.6165,0.023877,0.009052,-0.039947,-0.00012,-0.010291,0.013326,0.00432,-0.500766,-0.039704,-1.346787,-266.28417,-1.57206,64.531447
3.6371,0.024394,0.008305,-0.038764,-8e-05,-0.010303,0.013322,0.00399,-0.500685,-0.039789,-1.346787,-266.28417,-1.57206,64.531447
3.6564,0.024471,0.008756,-0.038265,-4.9e-05,-0.010313,0.01332,0.004627,-0.501404,-0.038643,-1.421722,-266.283927,-1.577301,64.533523
3.6768,0.024725,0.008565,-0.03869,-0.000128,-0.01028,0.013325,0.004931,-0.500922,-0.038292,-1.421722,-266.283927,-1.577301,64.533523
3.6964,0.024116,0.009135,-0.038947,-0.000192,-0.010253,0.013327,0.004931,-0.500922,-0.038292,-1.421722,-266.283927,-1.577301,64.533523
3.7165,0.023886,0.008458,-0.0385,-0.000244,-0.010231,0.013327,0.004249,-0.500747,-0.038601,-1.49684,-266.283385,-1.57344,64.538093
3.737,0.023791,0.008199,-0.038695,-0.000223,-0.010236,0.013424,0.004251,-0.500945,-0.038521,-1.49684,-266.283385,-1.57344,64.538093
3.7565,0.023973,0.007952,-0.036936,-0.000206,-0.01024,0.013502,0.004052,-0.501602,-0.038457,-1.571729,-266.282915,-1.584098,64.542194
3.7766,0.023839,0.007688,-0.038974,-0.000311,-0.010182,0.013614,0.005046,-0.5017,-0.037055,-1.571729,-266.282915,-1.584098,64.542194
3.7966,0.023784,0.008009,-0.038797,-0.000396,-0.010136,0.013702,0.005046,-0.5017,-0.037055,-1.571729,-266.282915,-1.584098,64.542194
3.8167,0.023361,0.007386,-0.037832,-0.000465,-0.010097,0.01377,0.003982,-0.501969,-0.03832,-1.646883,-266.282236,-1.581918,64.548454
3.8367,0.023125,0.007577,-0.03897,-0.000432,-0.010094,0.013879,0.004016,-0.502126,-0.038064,-1.646883,-266.282236,-1.581918,64.548454
3.8566,0.023434,0.007306,-0.036824,-0.000406,-0.010092,0.013966,0.003255,-0.502036,-0.03897,-1.571922,-266.282237,-1.595911,64.548455
3.8765,0.02373,0.007758,-0.037986,-0.000459,-0.010055,0.014041,0.004551,-0.502324,-0.036988,-1.571922,-266.282237,-1.595911,64.548455
3.8966,0.023463,0.007827,-0.037315,-0.000501,-0.010025,0.014101,0.004551,-0.502324,-0.036988,-1.571922,-266.282237,-1.595911,64.548455
3.9168,0.023643,0.007486,-0.038945,-0.000535,-0.01,0.014147,0.004437,-0.501818,-0.037314,-1.496533,-266.282237,-1.592605,64.548455
3.9367,0.023784,0.00788,-0.037717,-0.000497,-0.010013,0.014178,0.004174,-0.501944,-0.037975,-1.496533,-266.282237,-1.592605,64.548455
3.9563,0.023522,0.007709,-0.038471,-0.000466,-0.010024,0.014204,0.004553,-0.501757,-0.037717,-1.421984,-266.282237,-1.599464,64.548456
3.9764,0.02322,0.007282,-0.03803,-0.000414,-0.010044,0.014222,0.003962,-0.5019,-0.038406,-1.421984,-266.282237,-1.599464,64.548456
3.9967,0.023035,0.00751,-0.039496,-0.000372,-0.01006,0.014237,0.003962,-0.5019,-0.038406,-1.421984,-266.282237,-1.599464,64.548456
4.0169,0.023485,0.00749,-0.038279,-0.000339,-0.010074,0.01425,0.002897,-0.502093,-0.039496,-1.346932,-266.282237,-1.595717,64.548457
4.0367,0.023371,0.00758,-0.036863,-0.00024,-0.010103,0.014255,0.003329,-0.50211,-0.039005,-1.346932,-266.282237,-1.595717,64.548457
4.0561,0.023588,0.007412,-0.035841,-0.000162,-0.010126,0.01426,0.004575,-0.502073,-0.036863,-1.272045,-266.282237,-1.58883,64.548458
4.0766,0.023625,0.007278,-0.037649,-0.000325,-0.01005,0.014274,0.005245,-0.502243,-0.035935,-1.272045,-266.282237,-1.58883,64.548458
4.0966,0.023663,0.007765,-0.03774,-0.000457,-0.009988,0.014281,0.005245,-0.502243,-0.035935,-1.272045,-266.282237,-1.58883,64.548458
4.1166,0.023499,0.007724,-0.038484,-0.000564,-0.009938,0.014285,0.004419,-0.501897,-0.037704,-1.347048,-266.282202,-1.57939,64.548914
4.1366,0.023692,0.007562,-0.037227,-0.000519,-0.009963,0.014265,0.004199,-0.501901,-0.038016,-1.347048,-266.282202,-1.57939,64.548914
4.1567,0.023434,0.00755,-0.037641,-0.000483,-0.009983,0.01425,0.004711,-0.502084,-0.037227,-1.272048,-266.282202,-1.601002,64.548914
4.1767,0.023372,0.007473,-0.038243,-0.000473,-0.00999,0.01422,0.004284,-0.502089,-0.037603,-1.272048,-266.282202,-1.601002,64.548914
4.1964,0.023485,0.007614,-0.036207,-0.000466,-0.009995,0.014196,0.004284,-0.502089,-0.037603,-1.272048,-266.282202,-1.601002,64.548914
4.2162,0.023334,0.007467,-0.03824,-0.00046,-0.01,0.014177,0.005024,-0.502052,-0.036206,-1.197043,-266.282202,-1.596613,64.548915
4.2366,0.023547,0.007737,-0.037316,-0.000483,-0.009992,0.014118,0.004542,-0.502096,-0.037032,-1.197043,-266.282202,-1.596613,64.548915
4.2567,0.023082,0.007467,-0.038221,-0.000502,-0.009986,0.01407,0.00452,-0.501908,-0.037316,-1.122054,-266.282202,-1.595432,64.548916
4.2767,0.023538,0.007649,-0.037794,-0.000413,-0.010021,0.013983,0.003672,-0.502139,-0.038145,-1.122054,-266.282202,-1.595432,64.548916
4.2969,0.023526,0.007623,-0.038546,-0.000342,-0.010049,0.013914,0.003672,-0.502139,-0.038145,-1.122054,-266.282202,-1.595432,64.548916
4.3162,0.023542,0.007419,-0.039294,-0.000285,-0.010072,0.013861,0.003873,-0.501998,-0.038546,-1.046859,-266.282202,-1.597826,64.548917
4.3364,0.023498,0.007769,-0.038424,-0.000242,-0.010092,0.01374,0.003723,-0.502076,-0.038853,-1.046859,-266.282202,-1.597826,64.548917
4.3564,0.023583,0.007353,-0.037927,-0.000208,-0.010109,0.013646,0.003906,-0.501854,-0.038424,-0.971949,-266.282203,-1.586162,64.548917
4.3766,0.023798,0.008065,-0.036931,-0.00025,-0.010095,0.013576,0.004215,-0.502242,-0.037972,-0.971949,-266.282203,-1.586162,64.548917
4.3966,0.023583,0.007806,-0.036727,-0.000283,-0.010083,0.01352,0.004215,-0.502242,-0.037972,-0.971949,-266.282203,-1.586162,64.548917
4.4167,0.023649,0.007552,-0.037807,-0.000309,-0.010074,0.013475,0.004856,-0.501851,-0.036727,-1.046849,-266.282202,-1.582098,64.548919
4.4367,0.02398,0.007413,-0.035822,-0.000364,-0.010057,0.013442,0.004658,-0.501945,-0.037168,-1.046849,-266.282202,-1.582098,64.548919
4.457,0.023342,0.007616,-0.038349,-0.000409,-0.010043,0.013415,0.005715,-0.50226,-0.035822,-1.121873,-266.282202,-1.5877,64.548922
4.4766,0.023611,0.007751,-0.038291,-0.00037,-0.01006,0.013387,0.003954,-0.502031,-0.038133,-1.121873,-266.282202,-1.5877,64.548922
4.4967,0.023403,0.007622,-0.03805,-0.000338,-0.010075,0.013367,0.003954,-0.502031,-0.038133,-1.121873,-266.282202,-1.5877,64.548922
4.5163,0.023568,0.007247,-0.037132,-0.000313,-0.010086,0.013351,0.004002,-0.502009,-0.03805,-1.046786,-266.282202,-1.593215,64.548922
4.5366,0.023587,0.007845,-0.036982,-0.000337,-0.010077,0.013342,0.004261,-0.502169,-0.037674,-1.046786,-266.282202,-1.593215,64.548922
4.5561,0.023782,0.007876,-0.038458,-0.000356,-0.010069,0.013334,0.004731,-0.501807,-0.036981,-1.1217,-266.282202,-1.587974,64.548925
4.5765,0.023185,0.007898,-0.037496,-0.000345,-0.01008,0.013326,0.004224,-0.501752,-0.038324,-1.1217,-266.282202,-1.587974,64.548925
4.5966,0.023463,0.007367,-0.036396,-0.000336,-0.010089,0.01332,0.004224,-0.501752,-0.038324,-1.1217,-266.282202,-1.587974,64.548925
4.6167,0.023628,0.007658,-0.037055,-0.00033,-0.010096,0.013315,0.004905,-0.502296,-0.036396,-1.046719,-266.282202,-1.59033,64.548926
4.6367,0.023706,0.007524,-0.036984,-0.000413,-0.010057,0.013319,0.004835,-0.50217,-0.036668,-1.046719,-266.282202,-1.59033,64.548926
4.6566,0.02321,0.007598,-0.038325,-0.00048,-0.010025,0.01332,0.004849,-0.502127,-0.036984,-1.121809,-266.282202,-1.588873,64.548928
4.6766,0.023534,0.007468,-0.038422,-0.000406,-0.010053,0.013311,0.003773,-0.502036,-0.038207,-1.121809,-266.282202,-1.588873,64.548928
4.6968,0.023734,0.007478,-0.036557,-0.000347,-0.010075,0.013305,0.003773,-0.502036,-0.038207,-1.121809,-266.282202,-1.588873,64.548928
4.7167,0.023368,0.007358,-0.037991,-0.000299,-0.010094,0.013301,0.005094,-0.502182,-0.036557,-1.046805,-266.282202,-1.597238,64.548929
4.7367,0.023565,0.00752,-0.038001,-0.000371,-0.010062,0.013306,0.004641,-0.50222,-0.037149,-1.046805,-266.282202,-1.597238,64.548929
4.7566,0.023598,0.00775,-0.038134,-0.000429,-0.010037,0.013309,0.004189,-0.502112,-0.038,-1.121853,-266.282201,-1.587221,64.548932
4.7766,0.023796,0.007704,-0.036915,-0.000404,-0.010051,0.013304,0.004157,-0.501899,-0.038123,-1.121853,-266.282201,-1.587221,64.548932
4.7967,0.022851,0.007495,-0.037617,-0.000384,-0.010062,0.013302,0.004157,-0.501899,-0.038123,-1.121853,-266.282201,-1.587221,64.548932
4.8168,0.023619,0.007528,-0.037755,-0.000368,-0.010072,0.0133,0.003671,-0.502145,-0.037617,-1.046761,-266.282202,-1.594412,64.548933
4.8362,0.023522,0.007646,-0.037142,-0.000344,-0.01008,0.013298,0.003956,-0.50213,-0.037673,-1.046761,-266.282202,-1.594412,64.548933
4.8569,0.023446,0.007593,-0.038304,-0.000325,-0.010086,0.013297,0.004584,-0.502002,-0.037142,-0.971887,-266.282202,-1.591037,64.548934
4.8767,0.023529,0.007552,-0.037612,-0.000306,-0.010095,0.013297,0.003977,-0.50203,-0.038198,-0.971887,-266.282202,-1.591037,64.548934
4.8969,0.023418,0.007393,-0.038439,-0.000291,-0.010102,0.013297,0.003977,-0.50203,-0.038198,-0.971887,-266.282202,-1.591037,64.548934
4.9165,0.023114,0.007702,-0.036992,-0.000279,-0.010107,0.013297,0.003819,-0.50223,-0.038439,-1.046787,-266.282201,-1.588622,64.548935
4.9368,0.023678,0.00748,-0.037223,-0.000276,-0.010108,0.013297,0.003998,-0.502114,-0.037842,-1.046787,-266.282201,-1.588622,64.548935
4.9562,0.023542,0.008005,-0.037738,-0.000274,-0.010108,0.013298,0.004699,-0.502167,-0.037223,-1.122047,-266.282201,-1.586099,64.548939
4.9765,0.023283,0.007656,-0.037691,-0.000289,-0.010109,0.013299,0.004336,-0.501681,-0.037691,-1.122047,-266.282201,-1.586099,64.548939
4.9966,0.023357,0.007698,-0.03904,-0.000301,-0.01011,0.0133,0.004336,-0.501681,-0.037691,-1.122047,-266.282201,-1.586099,64.548939
5.0166,0.023593,0.007389,-0.037797,-0.000311,-0.010111,0.013301,0.003452,-0.501915,-0.039038,-1.196783,-266.282199,-1.585838,64.548961
5.0366,0.023521,0.007744,-0.038585,-0.000275,-0.010122,0.013299,0.003805,-0.50205,-0.038533,-1.196783,-266.282199,-1.585838,64.548961
5.0565,0.023159,0.007804,-0.037307,-0.000246,-0.010131,0.013298,0.003848,-0.501879,-0.038581,-1.27177,-266.282191,-1.587844,64.549027
5.0765,0.023155,0.007624,-0.037874,-0.00025,-0.010132,0.013299,0.00411,-0.501845,-0.037425,-1.27177,-266.282191,-1.587844,64.549027
5.0965,0.02341,0.007832,-0.038134,-0.000253,-0.010133,0.0133,0.00411,-0.501845,-0.037425,-1.27177,-266.282191,-1.587844,64.549027
5.1167,0.023422,0.007608,-0.038225,-0.000255,-0.010134,0.013301,0.003966,-0.50182,-0.038104,-1.34681,-266.282148,-1.58426,64.549421
5.137,0.0236,0.007412,-0.037273,-0.000241,-0.010139,0.0133,0.003952,-0.501904,-0.03815,-1.34681,-266.282148,-1.58426,64.549421
5.1562,0.023377,0.007529,-0.037265,-0.000229,-0.010144,0.0133,0.004594,-0.502277,-0.037216,-1.421782,-266.282038,-1.584768,64.550406
5.1763,0.023504,0.007466,-0.036938,-0.000283,-0.010119,0.013305,0.004396,-0.502133,-0.037257,-1.421782,-266.282038,-1.584768,64.550406
5.1966,0.023686,0.007629,-0.037167,-0.000327,-0.010099,0.013307,0.004396,-0.502133,-0.037257,-1.421782,-266.282038,-1.584768,64.550406
5.2166,0.023451,0.007817,-0.03834,-0.000362,-0.010082,0.013308,0.00473,-0.502159,-0.036984,-1.496803,-266.281771,-1.583352,64.552809
5.2364,0.023418,0.006809,-0.038224,-0.000383,-0.010073,0.013308,0.004391,-0.502032,-0.037516,-1.496803,-266.281771,-1.583352,64.552809
5.2568,0.023165,0.007365,-0.036901,-0.000401,-0.010066,0.013307,0.003928,-0.502819,-0.038224,-1.421817,-266.281771,-1.590651,64.55281
5.2768,0.023662,0.007571,-0.038006,-0.000423,-0.01005,0.013307,0.004312,-0.502335,-0.03702,-1.421817,-266.281771,-1.590651,64.55281
5.2966,0.023767,0.007299,-0.036591,-0.000441,-0.010038,0.013307,0.004312,-0.502335,-0.03702,-1.421817,-266.281771,-1.590651,64.55281
5.3165,0.023278,0.007459,-0.03732,-0.000455,-0.010028,0.013306,0.00511,-0.50236,-0.03659,-1.346821,-266.281771,-1.59283,64.552811
5.3367,0.023087,0.007642,-0.036739,-0.000513,-0.01,0.013308,0.004758,-0.502289,-0.036888,-1.346821,-266.281771,-1.59283,64.552811
5.3567,0.023325,0.007506,-0.037822,-0.00056,-0.009977,0.013309,0.004354,-0.502014,-0.036739,-1.271825,-266.281771,-1.595868,64.552811
5.3769,0.023426,0.006944,-0.036799,-0.00051,-0.009997,0.013303,0.004069,-0.502118,-0.037725,-1.271825,-266.281771,-1.595868,64.552811
5.3967,0.02297,0.007268,-0.037087,-0.000471,-0.010014,0.013298,0.004069,-0.502118,-0.037725,-1.271825,-266.281771,-1.595868,64.552811
5.4167,0.02318,0.00739,-0.037866,-0.000439,-0.010027,0.013296,0.00406,-0.502381,-0.037087,-1.196817,-266.281771,-1.601701,64.552812
5.4366,0.023502,0.007069,-0.037864,-0.000415,-0.010034,0.013294,0.003984,-0.502325,-0.037404,-1.196817,-266.281771,-1.601701,64.552812
5.4563,0.023421,0.007097,-0.038329,-0.000395,-0.01004,0.013294,0.004196,-0.502566,-0.037864,-1.121819,-266.281771,-1.594985,64.552813
5.4768,0.023403,0.007099,-0.037437,-0.00038,-0.01004,0.013293,0.003905,-0.502532,-0.03829,-1.121819,-266.281771,-1.594985,64.552813
5.4965,0.02323,0.007035,-0.03612,-0.000367,-0.01004,0.013293,0.003905,-0.502532,-0.03829,-1.121819,-266.281771,-1.594985,64.552813
5.5165,0.023662,0.007536,-0.038237,-0.000357,-0.01004,0.013292,0.004813,-0.502633,-0.03612,-1.046692,-266.281771,-1.592546,64.552814
5.5363,0.023077,0.007026,-0.036727,-0.000419,-0.010014,0.013297,0.004548,-0.502411,-0.036987,-1.046692,-266.281771,-1.592546,64.552814
5.5566,0.023402,0.007565,-0.03579,-0.000468,-0.009993,0.0133,0.004351,-0.50263,-0.036727,-0.971821,-266.281771,-1.590456,64.552814
5.5765,0.023296,0.007307,-0.036758,-0.000549,-0.00996,0.013305,0.005068,-0.502164,-0.03589,-0.971821,-266.281771,-1.590456,64.552814
5.5964,0.023753,0.007285,-0.037414,-0.000613,-0.009934,0.013307,0.005068,-0.502164,-0.03589,-0.971821,-266.281771,-1.590456,64.552814
5.6166,0.023637,0.00735,-0.038432,-0.000666,-0.009912,0.013308,0.004676,-0.502358,-0.037414,-0.896829,-266.281771,-1.596645,64.552815
5.6367,0.02315,0.007336,-0.036548,-0.000647,-0.00992,0.013303,0.004421,-0.502324,-0.037823,-0.896829,-266.281771,-1.596645,64.552815
5.6562,0.023368,0.007477,-0.037629,-0.000632,-0.009926,0.013299,0.004514,-0.502324,-0.036548,-0.821822,-266.281771,-1.607682,64.552816
5.6764,0.02358,0.007486,-0.036543,-0.000589,-0.009947,0.013295,0.004212,-0.502177,-0.03753,-0.821822,-266.281771,-1.607682,64.552816
5.6962,0.023452,0.007581,-0.037578,-0.000554,-0.009963,0.013292,0.004212,-0.502177,-0.03753,-0.821822,-266.281771,-1.607682,64.552816
5.717,0.023327,0.007637,-0.039372,-0.000527,-0.009977,0.01329,0.004292,-0.502059,-0.037578,-0.746775,-266.281772,-1.605798,64.552816
5.7365,0.023329,0.007215,-0.036846,-0.000456,-0.010008,0.013286,0.003876,-0.502022,-0.038295,-0.746775,-266.281772,-1.605798,64.552816
5.7564,0.023455,0.006703,-0.038056,-0.0004,-0.010034,0.013285,0.004542,-0.502439,-0.036846,-0.671828,-266.281772,-1.599894,64.552817
5.7766,0.023361,0.007554,-0.036814,-0.000428,-0.01001,0.013289,0.004095,-0.502883,-0.037947,-0.671828,-266.281772,-1.599894,64.552817
5.7966,0.023297,0.007291,-0.037923,-0.00045,-0.009989,0.013292,0.004095,-0.502883,-0.037947,-0.671828,-266.281772,-1.599894,64.552817
5.8165,0.022738,0.007262,-0.036051,-0.000467,-0.009973,0.013293,0.003961,-0.502343,-0.037923,-0.596815,-266.281772,-1.592826,64.552818
5.8366,0.023364,0.007415,-0.037168,-0.000457,-0.009981,0.013292,0.004122,-0.502369,-0.037158,-0.596815,-266.281772,-1.592826,64.552818
5.8568,0.023186,0.007632,-0.037913,-0.000448,-0.009988,0.013291,0.004413,-0.502233,-0.037168,-0.521803,-266.281772,-1.596627,64.552819
5.8772,0.023516,0.007481,-0.037481,-0.000396,-0.010016,0.013287,0.003903,-0.502022,-0.037848,-0.521803,-266.281772,-1.596627,64.552819
5.8969,0.023599,0.007322,-0.03734,-0.000355,-0.010039,0.013286,0.003903,-0.502022,-0.037848,-0.521803,-266.281772,-1.596627,64.552819
5.9165,0.023244,0.007301,-0.037133,-0.000322,-0.010058,0.013285,0.00456,-0.502323,-0.03734,-0.446712,-266.281772,-1.595527,64.552819
5.9366,0.023418,0.007124,-0.038696,-0.000376,-0.010037,0.013291,0.004457,-0.502333,-0.037255,-0.446712,-266.281772,-1.595527,64.552819
5.9564,0.023275,0.00722,-0.036307,-0.00042,-0.010019,0.013295,0.003688,-0.502494,-0.038696,-0.521886,-266.281772,-1.588526,64.55282
5.9766,0.02324,0.007059,-0.037207,-0.000486,-0.009988,0.0133,0.004678,-0.502448,-0.036496,-0.521886,-266.281772,-1.588526,64.55282
5.9968,0.023087,0.007228,-0.036353,-0.000539,-0.009963,0.013302,0.004678,-0.502448,-0.036496,-0.521886,-266.281772,-1.588526,64.55282
6.0168,0.023544,0.007472,-0.038781,-0.000582,-0.009943,0.013304,0.004551,-0.502435,-0.036353,-0.446822,-266.281772,-1.593937,64.552821
6.0367,0.023108,0.007362,-0.037139,-0.000557,-0.009955,0.013299,0.004224,-0.502313,-0.037371,-0.446822,-266.281772,-1.593937,64.552821
6.0565,0.023361,0.007203,-0.036448,-0.000537,-0.009964,0.013296,0.004172,-0.502286,-0.037139,-0.371682,-266.281772,-1.602991,64.552822
6.0766,0.023341,0.007209,-0.038406,-0.000585,-0.009941,0.013299,0.004725,-0.502443,-0.036507,-0.371682,-266.281772,-1.602991,64.552822
6.0963,0.023019,0.007416,-0.037844,-0.000624,-0.009923,0.0133,0.004725,-0.502443,-0.036507,-0.371682,-266.281772,-1.602991,64.552822
6.1167,0.023566,0.007222,-0.036355,-0.000655,-0.009908,0.013301,0.003723,-0.502219,-0.037844,-0.29704,-266.281772,-1.600473,64.552822
6.1373,0.023401,0.007347,-0.037931,-0.00062,-0.009924,0.013296,0.004257,-0.50231,-0.037235,-0.29704,-266.281772,-1.600473,64.552822
6.1566,0.023244,0.00723,-0.036901,-0.000592,-0.009937,0.013293,0.004061,-0.502287,-0.037931,-0.222174,-266.281772,-1.607116,64.552823
6.1767,0.023344,0.007582,-0.038304,-0.000591,-0.009937,0.013293,0.004397,-0.502411,-0.036991,-0.222174,-266.281772,-1.607116,64.552823
6.1963,0.023462,0.007579,-0.036384,-0.000591,-0.009937,0.013292,0.004397,-0.502411,-0.036991,-0.222174,-266.281772,-1.607116,64.552823
6.2169,0.023545,0.007192,-0.037501,-0.00059,-0.009937,0.013292,0.00491,-0.502084,-0.036384,-0.147066,-266.281772,-1.603552,64.552824
6.2363,0.02345,0.006947,-0.037057,-0.000615,-0.009929,0.013294,0.004712,-0.502233,-0.036841,-0.147066,-266.281772,-1.603552,64.552824
6.2565,0.023203,0.007526,-0.036856,-0.000635,-0.009923,0.013295,0.004555,-0.502703,-0.037057,-0.072168,-266.281772,-1.603493,64.552824
6.2765,0.023208,0.007443,-0.03632,-0.000616,-0.009934,0.013293,0.004424,-0.50218,-0.036874,-0.072168,-266.281772,-1.603493,64.552824
6.2964,0.023377,0.007179,-0.036039,-0.000602,-0.009943,0.013292,0.004424,-0.50218,-0.036874,-0.072168,-266.281772,-1.603493,64.552824
6.3164,0.023303,0.007245,-0.03743,-0.00059,-0.00995,0.013291,0.005001,-0.502489,-0.036039,0.002826,-266.281772,-1.605949,64.552825
6.3366,0.023295,0.007249,-0.038193,-0.000625,-0.009932,0.013294,0.004683,-0.502452,-0.036604,0.002826,-266.281772,-1.605949,64.552825
6.3565,0.022935,0.007207,-0.037392,-0.000652,-0.009917,0.013296,0.003821,-0.502379,-0.038193,0.077827,-266.281772,-1.603442,64.552826
6.3765,0.022966,0.006911,-0.03827,-0.000576,-0.009944,0.01329,0.003865,-0.502431,-0.03746,0.077827,-266.281772,-1.603442,64.552826
6.3966,0.023398,0.007369,-0.036846,-0.000516,-0.009966,0.013286,0.003865,-0.502431,-0.03746,0.077827,-266.281772,-1.603442,64.552826
6.4164,0.023145,0.00748,-0.036797,-0.000468,-0.009985,0.013284,0.004611,-0.502285,-0.036846,0.152949,-266.281772,-1.606946,64.552827
6.4363,0.023317,0.00713,-0.036966,-0.000496,-0.009977,0.013288,0.004517,-0.502239,-0.036826,0.152949,-266.281772,-1.606946,64.552827
6.4561,0.023201,0.007427,-0.037175,-0.000518,-0.009971,0.013291,0.004469,-0.502521,-0.036966,0.228104,-266.281773,-1.59663,64.552827
6.4763,0.023078,0.007375,-0.035687,-0.000508,-0.009978,0.01329,0.004266,-0.502248,-0.037157,0.228104,-266.281773,-1.59663,64.552827
6.4963,0.023216,0.007347,-0.037296,-0.0005,-0.009984,0.01329,0.004266,-0.502248,-0.037157,0.228104,-266.281773,-1.59663,64.552827
6.5163,0.022979,0.006996,-0.037628,-0.000494,-0.009988,0.01329,0.004199,-0.502298,-0.037296,0.302846,-266.281773,-1.599448,64.552828
6.5366,0.022775,0.007462,-0.036651,-0.000471,-0.009995,0.013289,0.004032,-0.50244,-0.037433,0.302846,-266.281773,-1.599448,64.552828
6.5562,0.023356,0.007409,-0.037549,-0.000452,-0.010001,0.013289,0.004088,-0.502196,-0.036651,0.377967,-266.281773,-1.598069,64.552829
6.5763,0.02345,0.007597,-0.037284,-0.000446,-0.010006,0.013289,0.0042,-0.502228,-0.037475,0.377967,-266.281773,-1.598069,64.552829
6.5963,0.023159,0.007312,-0.038027,-0.000441,-0.010011,0.01329,0.0042,-0.502228,-0.037475,0.377967,-266.281773,-1.598069,64.552829
6.6162,0.023111,0.007239,-0.03752,-0.000437,-0.010014,0.01329,0.00377,-0.50232,-0.038027,0.453036,-266.281773,-1.595764,64.552829
6.6366,0.023517,0.006925,-0.035499,-0.000399,-0.010028,0.013289,0.003857,-0.502354,-0.037818,0.453036,-266.281773,-1.595764,64.552829
6.6562,0.023526,0.007208,-0.038106,-0.000368,-0.010039,0.013288,0.005416,-0.502754,-0.035499,0.52792,-266.281773,-1.594918,64.55283
6.6763,0.023432,0.006986,-0.036582,-0.000389,-0.010029,0.013291,0.004193,-0.502446,-0.037916,0.52792,-266.281773,-1.594918,64.55283
6.6963,0.023367,0.007252,-0.039424,-0.000406,-0.010021,0.013293,0.004193,-0.502446,-0.037916,0.52792,-266.281773,-1.594918,64.55283
6.7164,0.023329,0.007515,-0.038088,-0.000419,-0.010015,0.013294,0.003266,-0.502351,-0.039424,0.603345,-266.281773,-1.591074,64.552831
6.7365,0.023019,0.007198,-0.037541,-0.000337,-0.010046,0.013288,0.00354,-0.502251,-0.038854,0.603345,-266.281773,-1.591074,64.552831
6.7565,0.023816,0.00745,-0.036847,-0.000272,-0.010071,0.013286,0.003877,-0.502442,-0.037541,0.678433,-266.281773,-1.593882,64.552832
6.7764,0.023092,0.007276,-0.037798,-0.00038,-0.010028,0.013296,0.004944,-0.502221,-0.036898,0.678433,-266.281773,-1.593882,64.552832
6.7965,0.023205,0.007248,-0.036081,-0.000468,-0.009993,0.013302,0.004944,-0.502221,-0.036898,0.678433,-266.281773,-1.593882,64.552832
6.8167,0.02312,0.007157,-0.037254,-0.000538,-0.009964,0.013305,0.004808,-0.50242,-0.036081,0.753358,-266.281773,-1.58575,64.552833
6.837,0.023044,0.007451,-0.03799,-0.000564,-0.009951,0.013304,0.004528,-0.502449,-0.036562,0.753358,-266.281773,-1.58575,64.552833
6.8569,0.023069,0.007323,-0.037673,-0.000586,-0.009941,0.013303,0.003673,-0.502184,-0.037986,0.82795,-266.28178,-1.600531,64.552895
6.8767,0.023245,0.007178,-0.037463,-0.000513,-0.00997,0.013295,0.003844,-0.502304,-0.0377,0.82795,-266.28178,-1.600531,64.552895
6.8967,0.023369,0.007222,-0.037939,-0.000455,-0.009994,0.013291,0.003844,-0.502304,-0.0377,0.82795,-266.28178,-1.600531,64.552895
6.9167,0.023417,0.007024,-0.037733,-0.000409,-0.010013,0.013288,0.004022,-0.50243,-0.037913,0.902936,-266.281815,-1.60321,64.553231
6.9366,0.02376,0.007199,-0.037528,-0.000412,-0.01001,0.013289,0.004086,-0.502507,-0.037836,0.902936,-266.281815,-1.60321,64.553231
6.9564,0.023288,0.007455,-0.037791,-0.000415,-0.010008,0.01329,0.004624,-0.502452,-0.037514,0.977831,-266.28184,-1.593344,64.553463
6.9765,0.022856,0.007179,-0.03763,-0.000399,-0.010019,0.01329,0.004073,-0.502205,-0.037765,0.977831,-266.28184,-1.593344,64.553463
6.9963,0.023402,0.006892,-0.037044,-0.000387,-0.010028,0.013289,0.004073,-0.502205,-0.037765,0.977831,-266.28184,-1.593344,64.553463
7.0167,0.023234,0.007034,-0.038736,-0.000377,-0.010035,0.01329,0.004509,-0.502798,-0.036989,1.052826,-266.281915,-1.593664,64.554167
7.0366,0.023452,0.007315,-0.037574,-0.000399,-0.010018,0.013292,0.004094,-0.502716,-0.037689,1.052826,-266.281915,-1.593664,64.554167
7.0566,0.023122,0.007129,-0.03674,-0.000417,-0.010005,0.013294,0.004288,-0.502382,-0.037497,1.127822,-266.282057,-1.591543,64.555481
7.0767,0.023047,0.006985,-0.03622,-0.000454,-0.009988,0.013296,0.00438,-0.502517,-0.0368,1.127822,-266.282057,-1.591543,64.555481
7.0965,0.02349,0.007003,-0.037749,-0.000484,-0.009975,0.013297,0.00438,-0.502517,-0.0368,1.127822,-266.282057,-1.591543,64.555481
7.1166,0.023053,0.006782,-0.037133,-0.000508,-0.009964,0.013297,0.004226,-0.502817,-0.037502,1.202996,-266.282396,-1.593791,64.558671
7.1368,0.022705,0.006946,-0.036791,-0.000523,-0.009949,0.013363,0.00418,-0.502858,-0.037324,1.202996,-266.282396,-1.593791,64.558671
7.1562,0.022526,0.006599,-0.036254,-0.000535,-0.009936,0.013415,0.003922,-0.50296,-0.036461,1.277923,-266.283051,-1.598898,64.564367
7.1765,0.022672,0.006365,-0.037297,-0.000543,-0.009918,0.013514,0.00403,-0.503069,-0.036255,1.277923,-266.283051,-1.598898,64.564367
7.1963,0.022895,0.006721,-0.035815,-0.00055,-0.009902,0.013593,0.00403,-0.503069,-0.036255,1.277923,-266.283051,-1.598898,64.564367
7.2166,0.022453,0.006342,-0.034533,-0.000555,-0.00989,0.013656,0.004596,-0.503365,-0.035256,1.273039,-266.283779,-1.60029,64.571611
7.2364,0.02214,0.006122,-0.03486,-0.000665,-0.009816,0.013787,0.004694,-0.503408,-0.034893,1.273039,-266.283779,-1.60029,64.571611
7.2568,0.022303,0.005806,-0.035234,-0.000753,-0.009757,0.013889,0.004338,-0.503871,-0.034441,1.22689,-266.284416,-1.601223,64.578664
7.2765,0.022146,0.005335,-0.03316,-0.000817,-0.00969,0.014032,0.004336,-0.503892,-0.035145,1.22689,-266.284416,-1.601223,64.578664
7.2963,0.021675,0.005678,-0.034239,-0.000867,-0.009636,0.014145,0.004336,-0.503892,-0.035145,1.22689,-266.284416,-1.601223,64.578664
7.3163,0.021677,0.005234,-0.033582,-0.000905,-0.009592,0.014234,0.004193,-0.504251,-0.033916,1.151865,-266.284747,-1.612066,64.582745
7.3362,0.021702,0.005462,-0.034904,-0.000975,-0.009508,0.014344,0.004339,-0.504371,-0.033741,1.151865,-266.284747,-1.612066,64.582745
7.3561,0.021249,0.005368,-0.03328,-0.00103,-0.00944,0.014429,0.003901,-0.50426,-0.034857,1.076819,-266.284801,-1.620276,64.58352
7.3762,0.021756,0.005508,-0.035234,-0.001058,-0.009394,0.0145,0.004247,-0.504344,-0.033412,1.076819,-266.284801,-1.620276,64.58352
7.3964,0.021924,0.004929,-0.035451,-0.001081,-0.009356,0.014556,0.004247,-0.504344,-0.033412,1.076819,-266.284801,-1.620276,64.58352
7.4164,0.021986,0.005229,-0.034257,-0.001098,-0.009326,0.014599,0.003847,-0.504754,-0.035446,1.001832,-266.284805,-1.627143,64.583586
7.4364,0.021772,0.005133,-0.034583,-0.001114,-0.009279,0.014632,0.00412,-0.50464,-0.034963,1.001832,-266.284805,-1.627143,64.583586
7.4565,0.022015,0.005408,-0.035508,-0.001127,-0.009241,0.014657,0.004138,-0.504563,-0.034582,0.926967,-266.284805,-1.630911,64.583592
7.4763,0.021746,0.00508,-0.034466,-0.001082,-0.009258,0.014667,0.00393,-0.504295,-0.035429,0.926967,-266.284805,-1.630911,64.583592
7.4963,0.021803,0.00529,-0.033586,-0.001047,-0.009272,0.014676,0.00393,-0.504295,-0.035429,0.926967,-266.284805,-1.630911,64.583592
7.5163,0.02173,0.0053,-0.03303,-0.001019,-0.009282,0.014684,0.004677,-0.504423,-0.033586,0.851796,-266.284805,-1.632643,64.583595
7.5363,0.021557,0.005278,-0.033711,-0.001118,-0.009226,0.014698,0.004763,-0.504423,-0.03336,0.851796,-266.284805,-1.632643,64.583595
7.5565,0.021558,0.005202,-0.035592,-0.001196,-0.009182,0.014706,0.004367,-0.504434,-0.033708,0.776974,-266.284808,-1.626583,64.583638
7.5768,0.021509,0.004725,-0.03594,-0.001078,-0.009219,0.014685,0.003496,-0.504472,-0.035422,0.776974,-266.284808,-1.626583,64.583638
7.5966,0.021316,0.00533,-0.033901,-0.000986,-0.009248,0.014669,0.003496,-0.504472,-0.035422,0.776974,-266.284808,-1.626583,64.583638
7.6162,0.021498,0.005282,-0.035178,-0.000914,-0.009272,0.014658,0.00403,-0.504378,-0.0339,0.70198,-266.284809,-1.636569,64.583651
7.6362,0.021385,0.005431,-0.034761,-0.000906,-0.009281,0.014627,0.00384,-0.504388,-0.034417,0.70198,-266.284809,-1.636569,64.583651
7.6561,0.0217,0.005141,-0.033862,-0.0009,-0.009288,0.014601,0.003656,-0.504294,-0.03471,0.626973,-266.284852,-1.6209,64.584463
7.6763,0.021878,0.005346,-0.034021,-0.000977,-0.009249,0.014545,0.004364,-0.504544,-0.033935,0.626973,-266.284852,-1.6209,64.584463
7.6962,0.021599,0.005024,-0.034378,-0.001039,-0.009219,0.014499,0.004364,-0.504544,-0.033935,0.626973,-266.284852,-1.6209,64.584463
7.7164,0.021832,0.005085,-0.032092,-0.001088,-0.009195,0.01446,0.00405,-0.504832,-0.034133,0.551979,-266.285009,-1.620165,64.587414
7.7364,0.020886,0.004992,-0.031754,-0.001176,-0.009138,0.014394,0.004628,-0.504777,-0.03327,0.551979,-266.285009,-1.620165,64.587414
7.7566,0.021207,0.00473,-0.034198,-0.001246,-0.009092,0.014339,0.004676,-0.504877,-0.031558,0.476979,-266.285205,-1.63106,64.590502
7.7767,0.02116,0.00501,-0.034054,-0.001206,-0.009085,0.014245,0.003852,-0.50497,-0.033946,0.476979,-266.285205,-1.63106,64.590502
7.7964,0.021124,0.004726,-0.034051,-0.001175,-0.009079,0.01417,0.003852,-0.50497,-0.033946,0.476979,-266.285205,-1.63106,64.590502
7.8165,0.021014,0.004025,-0.034587,-0.001151,-0.009074,0.01411,0.003731,-0.50516,-0.033768,0.401978,-266.285451,-1.640516,64.593903
7.8362,0.021144,0.004787,-0.035198,-0.001119,-0.009032,0.014061,0.003584,-0.505388,-0.034068,0.401978,-266.285451,-1.640516,64.593903
7.8567,0.020862,0.004242,-0.033551,-0.001094,-0.008999,0.014021,0.003155,-0.505137,-0.034826,0.377117,-266.285943,-1.635744,64.599831
7.8768,0.020728,0.004463,-0.031934,-0.001103,-0.008951,0.014047,0.003705,-0.505455,-0.033636,0.377117,-266.285943,-1.635744,64.599831
7.8968,0.020559,0.004149,-0.034346,-0.001111,-0.008913,0.014065,0.003705,-0.505455,-0.033636,0.377117,-266.285943,-1.635744,64.599831
7.9168,0.020183,0.004043,-0.031217,-0.001116,-0.008882,0.014079,0.002987,-0.505924,-0.033762,0.378941,-266.286412,-1.633014,64.606836
7.9364,0.020566,0.003497,-0.032444,-0.001121,-0.008796,0.014168,0.0035,-0.505879,-0.03266,0.378941,-266.286412,-1.633014,64.606836
7.9561,0.020386,0.003222,-0.031052,-0.001125,-0.008728,0.014235,0.003988,-0.50645,-0.032103,0.304267,-266.286763,-1.634556,64.612179
7.9768,0.019926,0.003633,-0.031198,-0.001326,-0.008496,0.014374,0.0045,-0.506536,-0.031128,0.304267,-266.286763,-1.634556,64.612179
7.9975,0.019774,0.003348,-0.032253,-0.001486,-0.008314,0.014476,0.0045,-0.506536,-0.031128,0.304267,-266.286763,-1.634556,64.612179
8.0168,0.019436,0.002838,-0.030458,-0.001613,-0.008171,0.014549,0.003311,-0.506495,-0.032079,0.229271,-266.286896,-1.635281,64.614239
8.0366,0.019662,0.00341,-0.031232,-0.001577,-0.008074,0.014614,0.003551,-0.506684,-0.031397,0.229271,-266.286896,-1.635281,64.614239
8.0561,0.019582,0.003305,-0.033005,-0.00155,-0.007999,0.014662,0.003736,-0.506341,-0.031232,0.154265,-266.286896,-1.665062,64.614245
8.0765,0.020013,0.003628,-0.0328,-0.00136,-0.008032,0.014675,0.002842,-0.50641,-0.032844,0.154265,-266.286896,-1.665062,64.614245
8.0967,0.020052,0.003169,-0.031797,-0.001215,-0.008058,0.014688,0.002842,-0.50641,-0.032844,0.154265,-266.286896,-1.665062,64.614245
8.1165,0.019812,0.00341,-0.032113,-0.001105,-0.008079,0.014699,0.003838,-0.506573,-0.031797,0.079277,-266.286897,-1.661955,64.614247
8.1366,0.019667,0.003809,-0.03142,-0.001189,-0.008039,0.014724,0.003673,-0.506472,-0.031927,0.079277,-266.286897,-1.661955,64.614247
8.1569,0.019638,0.003355,-0.030481,-0.001254,-0.008009,0.014742,0.003645,-0.505939,-0.03142,0.004213,-266.286897,-1.635512,64.614248
8.1768,0.019747,0.003053,-0.030889,-0.001358,-0.007983,0.014749,0.004054,-0.506366,-0.030567,0.004213,-266.286897,-1.635512,64.614248
8.1967,0.019614,0.00297,-0.031111,-0.001439,-0.007963,0.014753,0.004054,-0.506366,-0.030567,0.004213,-266.286897,-1.635512,64.614248
8.2167,0.019627,0.003296,-0.029813,-0.001502,-0.007948,0.014755,0.00375,-0.506783,-0.031111,-0.070726,-266.286897,-1.644403,64.614251
8.2366,0.019601,0.0033,-0.03099,-0.001569,-0.007887,0.014742,0.004025,-0.506658,-0.030582,-0.070726,-266.286897,-1.644403,64.614251
8.2561,0.019595,0.003455,-0.032213,-0.001621,-0.007838,0.014728,0.003798,-0.506457,-0.030987,-0.145721,-266.286902,-1.659153,64.614296
8.2768,0.019319,0.003361,-0.032318,-0.001488,-0.007917,0.014659,0.003226,-0.506296,-0.032102,-0.145721,-266.286902,-1.659153,64.614296
8.2968,0.020155,0.003099,-0.030465,-0.001386,-0.007979,0.014608,0.003226,-0.506296,-0.032102,-0.145721,-266.286902,-1.659153,64.614296
8.3165,0.019654,0.003621,-0.031381,-0.001308,-0.008027,0.01457,0.004618,-0.506672,-0.030451,-0.220733,-266.286921,-1.666773,64.614457
8.337,0.020067,0.00316,-0.03198,-0.001427,-0.007983,0.014531,0.004226,-0.506452,-0.030827,-0.220733,-266.286921,-1.666773,64.614457
8.3569,0.019439,0.003216,-0.030078,-0.001521,-0.007949,0.014497,0.003754,-0.506608,-0.031931,-0.295736,-266.28699,-1.647935,64.615199
8.3769,0.019488,0.003051,-0.032062,-0.001579,-0.007917,0.014415,0.004069,-0.506559,-0.030245,-0.295736,-266.28699,-1.647935,64.615199
8.3963,0.019564,0.003264,-0.031183,-0.001625,-0.007893,0.014348,0.004069,-0.506559,-0.030245,-0.295736,-266.28699,-1.647935,64.615199
8.4167,0.019465,0.002945,-0.030371,-0.001661,-0.007873,0.014293,0.003633,-0.50662,-0.03095,-0.370731,-266.287267,-1.661077,64.617847
8.4364,0.019836,0.003277,-0.030893,-0.001652,-0.00785,0.014203,0.003773,-0.506718,-0.030682,-0.370731,-266.287267,-1.661077,64.617847
8.4562,0.01921,0.002648,-0.030991,-0.001645,-0.007831,0.014129,0.004035,-0.50667,-0.030544,-0.446062,-266.287891,-1.670528,64.622983
8.4765,0.019304,0.002764,-0.029236,-0.001608,-0.007757,0.014085,0.003458,-0.507079,-0.030936,-0.446062,-266.287891,-1.670528,64.622983
8.4965,0.019378,0.0031,-0.03066,-0.00158,-0.007701,0.014045,0.003458,-0.507079,-0.030936,-0.446062,-266.287891,-1.670528,64.622983
8.5167,0.018524,0.002453,-0.030253,-0.001559,-0.007657,0.01401,0.003665,-0.506985,-0.030071,-0.451909,-266.28862,-1.670408,64.629576
8.5371,0.018787,0.002689,-0.029216,-0.001544,-0.007601,0.01404,0.003425,-0.507156,-0.030077,-0.451909,-266.28862,-1.670408,64.629576
8.5568,0.018483,0.002311,-0.028212,-0.001533,-0.007558,0.014061,0.003837,-0.507318,-0.028804,-0.52345,-266.289283,-1.666639,64.635577
8.5763,0.018336,0.002368,-0.028313,-0.001654,-0.007416,0.014166,0.00407,-0.507482,-0.028245,-0.52345,-266.289283,-1.666639,64.635577
8.5967,0.018283,0.001608,-0.028584,-0.00175,-0.007305,0.014243,0.00407,-0.507482,-0.028245,-0.52345,-266.289283,-1.666639,64.635577
8.6167,0.018668,0.001983,-0.027275,-0.001826,-0.007219,0.014299,0.003639,-0.508475,-0.028037,-0.59148,-266.289969,-1.665467,64.641601
8.6367,0.018128,0.002198,-0.02904,-0.001921,-0.006961,0.014445,0.004086,-0.508246,-0.027664,-0.59148,-266.289969,-1.665467,64.641601
8.6565,0.017278,0.001607,-0.026749,-0.001998,-0.006762,0.014548,0.003265,-0.50778,-0.028655,-0.666469,-266.290771,-1.684757,64.647029
8.6765,0.017334,0.001411,-0.027682,-0.001984,-0.006624,0.014666,0.003602,-0.508182,-0.026899,-0.666469,-266.290771,-1.684757,64.647029
8.6969,0.017537,0.001732,-0.028202,-0.001975,-0.006518,0.014754,0.003602,-0.508182,-0.026899,-0.666469,-266.290771,-1.684757,64.647029
8.7164,0.017312,0.001482,-0.027769,-0.001968,-0.006436,0.014819,0.00309,-0.508264,-0.027779,-0.741588,-266.291584,-1.697824,64.651429
8.7363,0.017016,0.001563,-0.026571,-0.001874,-0.006343,0.014913,0.003107,-0.50831,-0.027727,-0.741588,-266.291584,-1.697824,64.651429
8.7565,0.016789,0.001073,-0.026849,-0.001803,-0.006272,0.014984,0.003424,-0.508377,-0.026301,-0.816546,-266.292344,-1.6972,64.655053
8.7767,0.016718,0.001151,-0.028072,-0.001757,-0.006096,0.015099,0.003125,-0.508717,-0.026786,-0.816546,-266.292344,-1.6972,64.655053
8.797,0.016868,0.001508,-0.027092,-0.001724,-0.005963,0.015182,0.003125,-0.508717,-0.026786,-0.816546,-266.292344,-1.6972,64.655053
8.8169,0.016464,0.001051,-0.026739,-0.0017,-0.005863,0.01524,0.003004,-0.508448,-0.026756,-0.891592,-266.29308,-1.687163,64.658418
8.8368,0.016437,0.001238,-0.02552,-0.001636,-0.005819,0.015297,0.002927,-0.508594,-0.026711,-0.891592,-266.29308,-1.687163,64.658418
8.8564,0.016354,0.00057,-0.027093,-0.001588,-0.005787,0.015341,0.003393,-0.508682,-0.025302,-0.966538,-266.293779,-1.68238,64.661195
8.8768,0.016264,0.000768,-0.026122,-0.00149,-0.005572,0.015441,0.002614,-0.509197,-0.02692,-0.966538,-266.293779,-1.68238,64.661195
8.8969,0.01637,0.000792,-0.02714,-0.00142,-0.005412,0.01551,0.002614,-0.509197,-0.02692,-0.966538,-266.293779,-1.68238,64.661195
8.9166,0.016145,0.000511,-0.025172,-0.001369,-0.005291,0.015558,0.002484,-0.509159,-0.026779,-1.041548,-266.294671,-1.675166,64.664663
8.9365,0.01646,0.000661,-0.027263,-0.001377,-0.005188,0.015601,0.002813,-0.509243,-0.026086,-1.041548,-266.294671,-1.675166,64.664663
8.9561,0.016108,0.000481,-0.025923,-0.001384,-0.005109,0.01563,0.00253,-0.50923,-0.027031,-1.116549,-266.29551,-1.663072,64.667481
8.9763,0.015988,0.000477,-0.024956,-0.001401,-0.005025,0.015646,0.002856,-0.509342,-0.026008,-1.116549,-266.29551,-1.663072,64.667481
8.9964,0.016052,0.001096,-0.025129,-0.001414,-0.00496,0.015654,0.002856,-0.509342,-0.026008,-1.116549,-266.29551,-1.663072,64.667481
9.0163,0.015652,7.4e-05,-0.024288,-0.001425,-0.004911,0.015657,0.003189,-0.508891,-0.024681,-1.191643,-266.296794,-1.664985,64.671546
9.0362,0.015573,0.000291,-0.024082,-0.001505,-0.004903,0.015637,0.003215,-0.50927,-0.024468,-1.191643,-266.296794,-1.664985,64.671546
9.0566,0.014864,0.000505,-0.024261,-0.001566,-0.004896,0.01562,0.003248,-0.5097,-0.023634,-1.266616,-266.298542,-1.66895,64.676771
9.0766,0.015013,9.3e-05,-0.023716,-0.001472,-0.00485,0.015621,0.002556,-0.509383,-0.024184,-1.266616,-266.298542,-1.66895,64.676771
9.0963,0.015501,0.000232,-0.024195,-0.001402,-0.004817,0.01562,0.002556,-0.509383,-0.024184,-1.266616,-266.298542,-1.66895,64.676771
9.1162,0.014577,3.9e-05,-0.024066,-0.00135,-0.004793,0.015618,0.003093,-0.50982,-0.023548,-1.245574,-266.300486,-1.678861,64.682531
9.1367,0.014566,-0.00032,-0.024089,-0.001354,-0.004639,0.015656,0.00276,-0.50984,-0.023686,-1.245574,-266.300486,-1.678861,64.682531
9.1564,0.014394,-0.000246,-0.021626,-0.001359,-0.004522,0.01568,0.002238,-0.510318,-0.023609,-1.293616,-266.302389,-1.66472,64.688084
9.1769,0.014063,-0.000223,-0.024348,-0.001454,-0.004362,0.015717,0.003277,-0.510148,-0.021757,-1.293616,-266.302389,-1.66472,64.688084
9.1968,0.014118,-0.000283,-0.021519,-0.00153,-0.004237,0.015739,0.003277,-0.510148,-0.021757,-1.293616,-266.302389,-1.66472,64.688084
9.2164,0.013714,-0.000716,-0.022279,-0.001591,-0.004139,0.015751,0.003083,-0.510351,-0.020869,-1.308138,-266.304465,-1.666903,64.6937
9.2367,0.013771,-0.000673,-0.02219,-0.001527,-0.003947,0.015797,0.002781,-0.510469,-0.021362,-1.308138,-266.304465,-1.666903,64.6937
9.2561,0.013044,-0.000666,-0.019622,-0.001483,-0.0038,0.015827,0.002402,-0.510677,-0.021691,-1.28823,-266.30672,-1.685931,64.699172
9.2767,0.012996,-0.001301,-0.02065,-0.001485,-0.003664,0.015867,0.002977,-0.510585,-0.019785,-1.28823,-266.30672,-1.685931,64.699172
9.2967,0.013319,-0.001064,-0.022671,-0.00149,-0.003558,0.015893,0.002977,-0.510585,-0.019785,-1.28823,-266.30672,-1.685931,64.699172
9.3164,0.012565,-0.000837,-0.020513,-0.001495,-0.003476,0.015909,0.001693,-0.511088,-0.02202,-1.323222,-266.309092,-1.680457,64.704484
9.3366,0.012656,-0.00059,-0.018586,-0.001192,-0.003234,0.015959,0.00185,-0.510963,-0.021344,-1.323222,-266.309092,-1.680457,64.704484
9.3566,0.012218,-0.001259,-0.02024,-0.00097,-0.003053,0.015994,0.003128,-0.510612,-0.018079,-1.335708,-266.311657,-1.683613,64.709791
9.3763,0.012417,-0.001001,-0.01958,-0.000838,-0.002883,0.016051,0.001999,-0.511114,-0.020032,-1.335708,-266.311657,-1.683613,64.709791
9.3964,0.012391,-0.000945,-0.020363,-0.000742,-0.002754,0.01609,0.001999,-0.511114,-0.020032,-1.335708,-266.311657,-1.683613,64.709791
9.4172,0.011931,-0.001424,-0.019265,-0.00067,-0.002656,0.016116,0.001968,-0.510948,-0.019792,-1.41088,-266.313984,-1.646317,64.714202
9.437,0.011752,-0.000931,-0.018313,-0.000623,-0.002581,0.016147,0.002021,-0.511119,-0.019507,-1.41088,-266.313984,-1.646317,64.714202
9.4566,0.011295,-0.001396,-0.018548,-0.000588,-0.002524,0.016169,0.002391,-0.510923,-0.017842,-1.477834,-266.316638,-1.624355,64.718803
9.4767,0.011646,-0.001839,-0.018801,-0.000514,-0.002427,0.016212,0.001887,-0.511276,-0.018456,-1.477834,-266.316638,-1.624355,64.718803
9.4968,0.011613,-0.001355,-0.018999,-0.000459,-0.002353,0.016244,0.001887,-0.511276,-0.018456,-1.477834,-266.316638,-1.624355,64.718803
9.5162,0.01112,-0.000944,-0.017119,-0.000417,-0.002296,0.016266,0.001897,-0.511368,-0.018324,-1.490997,-266.319582,-1.618169,64.723759
9.5362,0.010835,-0.001495,-0.017696,-0.00045,-0.002295,0.016287,0.002097,-0.511175,-0.017752,-1.490997,-266.319582,-1.618169,64.723759
9.5562,0.010611,-0.001323,-0.016472,-0.000474,-0.002293,0.016304,0.001797,-0.511487,-0.017187,-1.516255,-266.322597,-1.604883,64.728582
9.5765,0.01077,-0.001501,-0.015357,-0.000506,-0.002273,0.016319,0.002173,-0.511278,-0.01651,-1.516255,-266.322597,-1.604883,64.728582
9.5965,0.010975,-0.001558,-0.016201,-0.00053,-0.002256,0.016331,0.002173,-0.511278,-0.01651,-1.516255,-266.322597,-1.604883,64.728582
9.6164,0.010252,-0.001767,-0.016385,-0.000547,-0.002242,0.01634,0.002692,-0.511587,-0.015518,-1.509011,-266.325686,-1.609479,64.733514
9.6368,0.010521,-0.001595,-0.017048,-0.00058,-0.002156,0.016358,0.002354,-0.511645,-0.015804,-1.509011,-266.325686,-1.609479,64.733514
9.6565,0.010127,-0.001641,-0.013882,-0.000607,-0.002088,0.01637,0.001808,-0.511591,-0.016534,-1.50016,-266.328762,-1.615559,64.738365
9.6767,0.009829,-0.001405,-0.015998,-0.000763,-0.002098,0.016329,0.002934,-0.511596,-0.014095,-1.50016,-266.328762,-1.615559,64.738365
9.6968,0.009664,-0.001891,-0.014102,-0.000884,-0.002101,0.016297,0.002934,-0.511596,-0.014095,-1.50016,-266.328762,-1.615559,64.738365
9.7163,0.009435,-0.001715,-0.014169,-0.000977,-0.002101,0.016274,0.002445,-0.511928,-0.013417,-1.494237,-266.331932,-1.620954,64.743201
9.7367,0.009108,-0.001659,-0.014809,-0.000904,-0.002005,0.016259,0.002347,-0.511831,-0.013642,-1.494237,-266.331932,-1.620954,64.743201
9.7562,0.008773,-0.001836,-0.012229,-0.000851,-0.001932,0.016245,0.001525,-0.511667,-0.014309,-1.446727,-266.334951,-1.651803,64.747818
9.7765,0.008727,-0.001747,-0.0131,-0.00084,-0.001899,0.016165,0.002453,-0.51179,-0.012375,-1.446727,-266.334951,-1.651803,64.747818
9.7966,0.008347,-0.002074,-0.013137,-0.000833,-0.001873,0.016103,0.002453,-0.51179,-0.012375,-1.446727,-266.334951,-1.651803,64.747818
9.8165,0.008624,-0.002186,-0.011735,-0.000828,-0.001853,0.016055,0.001611,-0.512109,-0.012464,-1.464734,-266.338125,-1.642434,64.752513
9.8366,0.008296,-0.002145,-0.013128,-0.000693,-0.001732,0.016019,0.002023,-0.512135,-0.012092,-1.464734,-266.338125,-1.642434,64.752513
9.8564,0.00788,-0.002188,-0.011963,-0.000592,-0.00164,0.015989,0.001574,-0.51216,-0.012617,-1.467032,-266.341323,-1.641712,64.757187
9.8764,0.008069,-0.002402,-0.012372,-0.000445,-0.00155,0.015959,0.001759,-0.512155,-0.011996,-1.467032,-266.341323,-1.641712,64.757187
9.8964,0.008107,-0.002238,-0.011087,-0.000335,-0.001482,0.015934,0.001759,-0.512155,-0.011996,-1.467032,-266.341323,-1.641712,64.757187
9.9169,0.00745,-0.002268,-0.010429,-0.000252,-0.00143,0.015914,0.002428,-0.512274,-0.010433,-1.498081,-266.344518,-1.62264,64.761667
9.9363,0.007304,-0.002432,-0.012137,-0.000318,-0.001412,0.015757,0.002305,-0.512268,-0.010354,-1.498081,-266.344518,-1.62264,64.761667
9.9561,0.007239,-0.002578,-0.010566,-0.00037,-0.001395,0.01564,0.001106,-0.512438,-0.011652,-1.540369,-266.347707,-1.593421,64.765955
9.9764,0.007116,-0.002351,-0.009779,-0.000262,-0.00129,0.015597,0.001791,-0.512543,-0.01063,-1.540369,-266.347707,-1.593421,64.765955
9.9967,0.007303,-0.001955,-0.010561,-0.000182,-0.001208,0.015564,0.001791,-0.512543,-0.01063,-1.540369,-266.347707,-1.593421,64.765955
10.0168,0.006649,-0.002183,-0.009882,-0.000122,-0.001145,0.015538,0.001901,-0.511985,-0.00991,-1.525493,-266.350956,-1.604566,64.770313
10.0365,0.006654,-0.002276,-0.009214,-0.000107,-0.001201,0.015406,0.001781,-0.512062,-0.009823,-1.525493,-266.350956,-1.604566,64.770313
10.0561,0.006248,-0.002224,-0.009719,-9.5e-05,-0.001243,0.01531,0.001951,-0.51229,-0.008734,-1.556154,-266.354207,-1.582287,64.774456
10.0763,0.005971,-0.002552,-0.010544,4.9e-05,-0.001217,0.015218,0.001348,-0.512209,-0.009611,-1.556154,-266.354207,-1.582287,64.774456
10.0963,0.006649,-0.002478,-0.007911,0.000157,-0.001198,0.015152,0.001348,-0.512209,-0.009611,-1.556154,-266.354207,-1.582287,64.774456
10.1165,0.005847,-0.002395,-0.00788,0.000239,-0.001184,0.015105,0.00261,-0.512514,-0.007271,-1.559125,-266.357452,-1.579728,64.778696
10.1363,0.00557,-0.002557,-0.008035,8.3e-05,-0.001201,0.014686,0.002294,-0.512466,-0.007442,-1.559125,-266.357452,-1.579728,64.778696
10.1569,0.005604,-0.00227,-0.006599,-4.1e-05,-0.001208,0.014399,0.001479,-0.512577,-0.007575,-1.600481,-266.360527,-1.54786,64.782676
10.1765,0.005528,-0.002416,-0.006532,-0.000117,-0.001243,0.013993,0.00217,-0.51229,-0.006663,-1.600481,-266.360527,-1.54786,64.782676
10.1965,0.005604,-0.002603,-0.006255,-0.00018,-0.001265,0.013721,0.00217,-0.51229,-0.006663,-1.600481,-266.360527,-1.54786,64.782676
10.217,0.005441,-0.002558,-0.005412,-0.000232,-0.001279,0.013542,0.002412,-0.512642,-0.005671,-1.565424,-266.363468,-1.574871,64.786552
10.2369,0.005433,-0.00252,-0.007189,-0.000315,-0.00126,0.013078,0.002519,-0.512611,-0.005499,-1.565424,-266.363468,-1.574871,64.786552
10.2568,0.00461,-0.002664,-0.004219,-0.000385,-0.001238,0.012775,0.001759,-0.512547,-0.006765,-1.537657,-266.366214,-1.595066,64.790303
10.2765,0.004914,-0.002783,-0.004496,-0.0004,-0.00121,0.012187,0.002396,-0.512652,-0.004425,-1.537657,-266.366214,-1.595066,64.790303
10.2969,0.00452,-0.002829,-0.006109,-0.000419,-0.001182,0.011805,0.002396,-0.512652,-0.004425,-1.537657,-266.366214,-1.595066,64.790303
10.3164,0.004066,-0.002987,-0.004397,-0.00044,-0.001156,0.011561,0.001388,-0.51287,-0.005582,-1.512255,-266.368803,-1.613328,64.793865
10.3369,0.004586,-0.002806,-0.005654,-0.000244,-0.001026,0.011636,0.001563,-0.512922,-0.005041,-1.512255,-266.368803,-1.613328,64.793865
10.3565,0.004344,-0.003117,-0.004745,-9.6e-05,-0.000925,0.011697,0.001688,-0.512835,-0.005285,-1.496391,-266.371164,-1.624317,64.797145
10.3766,0.004472,-0.002863,-0.003598,-5.9e-05,-0.000844,0.011655,0.001904,-0.51309,-0.004773,-1.496391,-266.371164,-1.624317,64.797145
10.3965,0.004365,-0.002772,-0.004078,-3.3e-05,-0.000778,0.01163,0.001904,-0.51309,-0.004773,-1.496391,-266.371164,-1.624317,64.797145
10.4166,0.00378,-0.003062,-0.00372,-1.4e-05,-0.000726,0.011616,0.002281,-0.512803,-0.003628,-1.555299,-266.373451,-1.58274,64.800112
10.437,0.003728,-0.003047,-0.001995,-5.1e-05,-0.000738,0.011143,0.002118,-0.512912,-0.003614,-1.555299,-266.373451,-1.58274,64.800112
10.4565,0.003889,-0.002766,-0.002765,-8.3e-05,-0.000743,0.010826,0.00271,-0.513069,-0.001626,-1.568625,-266.375986,-1.572565,64.803225
10.4765,0.003485,-0.003029,-0.004662,-0.000193,-0.000799,0.010153,0.002499,-0.512792,-0.002646,-1.568625,-266.375986,-1.572565,64.803225
10.4969,0.003405,-0.002324,-0.002913,-0.000284,-0.000837,0.009705,0.002499,-0.512792,-0.002646,-1.568625,-266.375986,-1.572565,64.803225
10.5163,0.003524,-0.002388,-0.001214,-0.000358,-0.000861,0.009412,0.001915,-0.512352,-0.002463,-1.556597,-266.378322,-1.582128,64.806153
10.5364,0.003037,-0.002698,-0.003696,-0.0004,-0.000954,0.00881,0.002318,-0.51237,-0.001902,-1.556597,-266.378322,-1.582128,64.806153
10.5566,0.0032,-0.002573,-0.001303,-0.000437,-0.001022,0.00841,0.001141,-0.51272,-0.003421,-1.497601,-266.380126,-1.624969,64.808589
10.5765,0.002983,-0.003016,-0.003684,-0.000467,-0.001038,0.007913,0.002413,-0.512587,-0.001475,-1.497601,-266.380126,-1.624969,64.808589
10.5965,0.002948,-0.002851,-0.004085,-0.000495,-0.001047,0.007582,0.002413,-0.512587,-0.001475,-1.497601,-266.380126,-1.624969,64.808589
10.6165,0.003087,-0.002912,-0.001713,-0.00052,-0.001051,0.007362,0.000847,-0.512889,-0.003741,-1.464933,-266.381745,-1.641674,64.811005
10.6365,0.002939,-0.002878,-0.001681,-0.000285,-0.000917,0.007936,0.001406,-0.512903,-0.002868,-1.464933,-266.381745,-1.641674,64.811005
10.6564,0.002842,-0.003259,-0.001035,-0.000105,-0.000819,0.008341,0.002066,-0.51291,-0.001456,-1.420996,-266.383083,-1.664284,64.813144
10.6765,0.002467,-0.002834,-2e-06,-0.000138,-0.000774,0.007667,0.00229,-0.513228,-0.001062,-1.420996,-266.383083,-1.664284,64.813144
10.6966,0.002745,-0.002945,-0.001664,-0.000171,-0.000733,0.007204,0.00229,-0.513228,-0.001062,-1.420996,-266.383083,-1.664284,64.813144
10.7166,0.002653,-0.002955,-0.002077,-0.000202,-0.000696,0.006886,0.00189,-0.512969,-0.001416,-1.495881,-266.384301,-1.5894,64.814828
10.7366,0.002669,-0.002753,-0.002178,-0.000134,-0.000664,0.007008,0.001767,-0.512966,-0.001661,-1.495881,-266.384301,-1.5894,64.814828
10.7564,0.002339,-0.003116,-0.00213,-8.2e-05,-0.000641,0.007092,0.001553,-0.512774,-0.001962,-1.513289,-266.385688,-1.611997,64.816763
10.7764,0.002486,-0.002813,-0.001765,8.8e-05,-0.000572,0.007385,0.001277,-0.513088,-0.002105,-1.513289,-266.385688,-1.611997,64.816763
10.7964,0.002171,-0.003076,-0.001098,0.000219,-0.000522,0.007587,0.001277,-0.513088,-0.002105,-1.513289,-266.385688,-1.611997,64.816763
10.8163,0.002036,-0.002873,-0.001541,0.00032,-0.000485,0.007724,0.001607,-0.513101,-0.000811,-1.548596,-266.38712,-1.587275,64.818693
10.8362,0.001701,-0.003199,-0.001366,0.000361,-0.000492,0.007247,0.00146,-0.51301,-0.001078,-1.548596,-266.38712,-1.587275,64.818693
10.8565,0.00216,-0.003175,-0.001286,0.00039,-0.000494,0.006914,0.001011,-0.51321,-0.001175,-1.623547,-266.388441,-1.512324,64.820315
10.8766,0.001661,-0.003246,-0.000166,0.000415,-0.000464,0.006801,0.001461,-0.513179,-0.001266,-1.623547,-266.388441,-1.512324,64.820315
10.8963,0.002187,-0.003319,0.001483,0.000434,-0.000439,0.00672,0.001461,-0.513179,-0.001266,-1.623547,-266.388441,-1.512324,64.820315
10.9163,0.00219,-0.003131,-0.001445,0.000447,-0.000419,0.006662,0.002958,-0.513338,0.001757,-1.674955,-266.389865,-1.488339,64.822112
10.9364,0.001503,-0.002914,-0.001527,0.000294,-0.000467,0.005621,0.002343,-0.513255,0.000475,-1.674955,-266.389865,-1.488339,64.822112
10.9564,0.001524,-0.003436,0.000908,0.000165,-0.000497,0.004892,0.000738,-0.512927,-0.001317,-1.692699,-266.391324,-1.471506,64.823902
10.9765,0.001626,-0.003101,-0.000316,0.000175,-0.000466,0.00426,0.001885,-0.513395,0.000734,-1.692699,-266.391324,-1.471506,64.823902
10.9963,0.001633,-0.003143,-0.000181,0.000176,-0.000437,0.003819,0.001885,-0.513395,0.000734,-1.692699,-266.391324,-1.471506,64.823902
11.0163,0.001556,-0.003501,-0.000775,0.00017,-0.000412,0.003513,0.001547,-0.513162,5e-06,-1.636965,-266.392231,-1.52348,64.82517
11.0366,0.001653,-0.003081,0.00183,0.000261,-0.000362,0.00388,0.00139,-0.513303,-0.000292,-1.636965,-266.392231,-1.52348,64.82517
11.0564,0.00154,-0.003085,0.000172,0.000332,-0.000327,0.004133,0.002591,-0.513093,0.001939,-1.668458,-266.392914,-1.504471,64.826175
11.0763,0.001521,-0.002917,0.001675,0.000302,-0.000362,0.00394,0.00171,-0.513086,0.000327,-1.668458,-266.392914,-1.504471,64.826175
11.0964,0.001337,-0.003068,0.001404,0.000277,-0.000388,0.003804,0.00171,-0.513086,0.000327,-1.668458,-266.392914,-1.504471,64.826175
11.1163,0.001338,-0.003349,0.001271,0.000258,-0.000407,0.003708,0.002066,-0.51308,0.001563,-1.720636,-266.393732,-1.45497,64.827232
11.1363,0.001068,-0.003378,0.001702,0.000197,-0.000434,0.003065,0.002034,-0.513192,0.001461,-1.720636,-266.393732,-1.45497,64.827232
11.1569,0.001097,-0.003257,-0.000397,0.000142,-0.000451,0.002617,0.001944,-0.51339,0.001819,-1.70852,-266.394475,-1.474706,64.828295
11.1764,0.001464,-0.003349,-2.7e-05,0.000337,-0.000374,0.003199,0.00099,-0.51327,-0.000191,-1.70852,-266.394475,-1.474706,64.828295
11.1966,0.001475,-0.003052,0.001811,0.000488,-0.00032,0.0036,0.00099,-0.51327,-0.000191,-1.70852,-266.394475,-1.474706,64.828295
11.2166,0.001659,-0.003344,0.002088,0.000607,-0.000281,0.003876,0.002405,-0.513069,0.001919,-1.693899,-266.39493,-1.501636,64.829104
11.2368,0.001359,-0.003137,0.001428,0.000377,-0.000382,0.002942,0.002535,-0.513183,0.002,-1.693899,-266.39493,-1.501636,64.829104
11.2565,0.001275,-0.003288,0.000493,0.000188,-0.000452,0.002285,0.002087,-0.513136,0.001428,-1.618898,-266.39493,-1.426635,64.829104
11.2768,0.0014,-0.00354,0.001228,0.000228,-0.000409,0.002537,0.001573,-0.513275,0.000572,-1.618898,-266.39493,-1.426635,64.829104
11.2968,0.001114,-0.003289,0.000118,0.000258,-0.000377,0.002709,0.001573,-0.513275,0.000572,-1.618898,-266.39493,-1.426635,64.829104
11.3165,0.001544,-0.003266,0.00112,0.000282,-0.000353,0.002824,0.001175,-0.513289,0.000118,-1.543739,-266.39493,-1.469308,64.829104
11.3365,0.001551,-0.003365,0.001532,0.000302,-0.000333,0.002928,0.001561,-0.513279,0.00053,-1.543739,-266.39493,-1.469308,64.829104
11.3563,0.001419,-0.003557,0.002155,0.000318,-0.000319,0.002996,0.002332,-0.513364,0.001532,-1.468693,-266.39493,-1.436048,64.829104
11.3763,0.001405,-0.003317,0.000616,0.000175,-0.000345,0.002276,0.002502,-0.51354,0.002102,-1.468693,-266.39493,-1.436048,64.829104
11.3965,0.001358,-0.003274,0.001703,5.5e-05,-0.000359,0.001767,0.002502,-0.51354,0.002102,-1.468693,-266.39493,-1.436048,64.829104
11.4165,0.001576,-0.003463,0.000225,-4.5e-05,-0.000364,0.00141,0.002226,-0.513274,0.001703,-1.393691,-266.39493,-1.424047,64.829104
11.4363,0.001441,-0.003212,0.003021,-5.7e-05,-0.000349,0.001638,0.00201,-0.51335,0.001107,-1.393691,-266.39493,-1.424047,64.829104
11.4568,0.00108,-0.003122,0.002147,-6.6e-05,-0.000339,0.001792,0.002981,-0.513216,0.003044,-1.468488,-266.395033,-1.498844,64.829358
11.4766,0.001095,-0.003442,0.001568,-0.000117,-0.000392,0.00136,0.002242,-0.513129,0.002223,-1.468488,-266.395033,-1.498844,64.829358
11.4964,0.001279,-0.003036,0.001226,-0.000161,-0.000431,0.001057,0.002242,-0.513129,0.002223,-1.468488,-266.395033,-1.498844,64.829358
11.5167,0.001436,-0.003324,0.001084,-0.000198,-0.00046,0.000845,0.001903,-0.513047,0.001286,-1.483824,-266.395275,-1.574057,64.829814
11.5369,0.001065,-0.003353,9.8e-05,-0.000177,-0.000445,0.001187,0.001938,-0.513161,0.001211,-1.483824,-266.395275,-1.574057,64.829814
11.5562,0.001265,-0.003312,0.00125,-0.000159,-0.000436,0.001421,0.001115,-0.513353,9.8e-05,-1.409038,-266.395275,-1.499271,64.829814
11.5763,0.001256,-0.00299,0.000855,-0.00011,-0.0004,0.001618,0.001836,-0.513315,0.001152,-1.409038,-266.395275,-1.499271,64.829814
11.5962,0.000873,-0.003119,-0.000858,-7.2e-05,-0.000373,0.001751,0.001836,-0.513315,0.001152,-1.409038,-266.395275,-1.499271,64.829814
11.6166,0.001246,-0.003267,0.00117,-4.3e-05,-0.000354,0.001839,0.000435,-0.513124,-0.000839,-1.333868,-266.395331,-1.574442,64.829976
11.6369,0.001138,-0.003293,9.4e-05,0.000172,-0.000302,0.002555,0.001011,-0.513183,-1.4e-05,-1.333868,-266.395331,-1.574442,64.829976
11.6566,0.000785,-0.003255,0.000593,0.000341,-0.000269,0.003048,0.001184,-0.513299,0.000128,-1.408801,-266.395511,-1.59988,64.83032
11.6767,0.000831,-0.00311,0.001094,0.000461,-0.000248,0.003058,0.001096,-0.513259,0.000552,-1.408801,-266.395511,-1.59988,64.83032
11.6966,0.00134,-0.003308,0.000747,0.000554,-0.000234,0.00306,0.001096,-0.513259,0.000552,-1.408801,-266.395511,-1.59988,64.83032
11.7164,0.001078,-0.003239,0.001082,0.000626,-0.000224,0.003056,0.001721,-0.513308,0.000747,-1.333895,-266.395511,-1.524973,64.83032
11.7368,0.00096,-0.002889,0.001603,0.000538,-0.00025,0.002865,0.001684,-0.51328,0.000883,-1.333895,-266.395511,-1.524973,64.83032
11.7566,0.001109,-0.003231,0.001796,0.000469,-0.000268,0.002728,0.001777,-0.512889,0.001603,-1.258917,-266.395511,-1.449995,64.83032
11.7763,0.001189,-0.003207,0.0008,0.000356,-0.000322,0.002174,0.002002,-0.513199,0.001778,-1.258917,-266.395511,-1.449995,64.83032
11.7965,0.001322,-0.003168,0.002022,0.000264,-0.000359,0.001787,0.002002,-0.513199,0.001778,-1.258917,-266.395511,-1.449995,64.83032
11.8164,0.00111,-0.003265,0.00048,0.000189,-0.000385,0.001517,0.002354,-0.513167,0.002022,-1.183906,-266.395511,-1.374985,64.83032
11.8369,0.001318,-0.003133,0.002225,0.000132,-0.000394,0.001519,0.001947,-0.513207,0.001395,-1.183906,-266.395511,-1.374985,64.83032
11.8563,0.00109,-0.00308,0.000583,8.8e-05,-0.000401,0.001521,0.002453,-0.513132,0.002225,-1.108905,-266.395511,-1.427905,64.83032
11.8769,0.001016,-0.00341,0.000222,0.000153,-0.000388,0.001882,0.00148,-0.513084,0.000726,-1.108905,-266.395511,-1.427905,64.83032
11.8964,0.001578,-0.002952,0.001489,0.000204,-0.000382,0.002132,0.00148,-0.513084,0.000726,-1.108905,-266.395511,-1.427905,64.83032
11.9164,0.00143,-0.003443,0.000897,0.000245,-0.00038,0.002305,0.002337,-0.512952,0.001489,-1.184006,-266.395511,-1.503005,64.830321
11.9367,0.000878,-0.003047,0.001534,0.000127,-0.000417,0.002141,0.002152,-0.513155,0.001245,-1.184006,-266.395511,-1.503005,64.830321
11.9566,0.001009,-0.003285,0.000875,3.5e-05,-0.000443,0.002026,0.00166,-0.513046,0.001534,-1.108893,-266.395511,-1.434672,64.830321
11.9767,0.001105,-0.003053,0.0023,0.00013,-0.000398,0.002121,0.001473,-0.513264,0.000931,-1.108893,-266.395511,-1.434672,64.830321
11.9966,0.001491,-0.002912,0.000964,0.000203,-0.000365,0.002187,0.001473,-0.513264,0.000931,-1.108893,-266.395511,-1.434672,64.830321
12.0163,0.001469,-0.00313,0.002798,0.000259,-0.000341,0.002232,0.001983,-0.512912,0.000965,-1.18385,-266.395514,-1.50963,64.830328
12.0363,0.000882,-0.002879,0.000247,9e-05,-0.000432,0.001842,0.002361,-0.513001,0.001723,-1.18385,-266.395514,-1.50963,64.830328
12.0561,0.001142,-0.003366,0.001728,-4.3e-05,-0.000498,0.001572,0.001008,-0.512879,0.000247,-1.108887,-266.395514,-1.434667,64.830328
12.0767,0.001036,-0.002992,0.002231,-3.2e-05,-0.000463,0.001458,0.001937,-0.513324,0.001603,-1.108887,-266.395514,-1.434667,64.830328
12.0967,0.001369,-0.003089,0.001869,-2.5e-05,-0.000436,0.00138,0.001937,-0.513324,0.001603,-1.108887,-266.395514,-1.434667,64.830328
12.1165,0.001286,-0.002997,0.001125,-2.2e-05,-0.000413,0.001327,0.002322,-0.51309,0.001873,-1.183899,-266.395527,-1.509678,64.830369
12.1365,0.001151,-0.003286,0.001934,-8.7e-05,-0.000452,0.001297,0.002133,-0.513052,0.001567,-1.183899,-266.395527,-1.509678,64.830369
12.1562,0.001072,-0.003345,0.001217,-0.000137,-0.000481,0.001278,0.002138,-0.513287,0.001941,-1.25886,-266.395551,-1.584639,64.830443
12.1763,0.001011,-0.003175,0.001683,-6.5e-05,-0.000428,0.001425,0.00173,-0.51334,0.001279,-1.25886,-266.395551,-1.584639,64.830443
12.1966,0.001134,-0.00314,0.00139,-1e-05,-0.000388,0.001528,0.00173,-0.51334,0.001279,-1.25886,-266.395551,-1.584639,64.830443
12.2166,0.000969,-0.003464,0.001972,3.2e-05,-0.000358,0.001598,0.001839,-0.513153,0.001427,-1.183778,-266.395643,-1.659721,64.830795
12.2366,0.00113,-0.003176,0.000779,2.9e-05,-0.000358,0.001453,0.001895,-0.513282,0.001656,-1.183778,-266.395643,-1.659721,64.830795
12.2561,0.001126,-0.003399,0.002388,2.5e-05,-0.000357,0.001352,0.001528,-0.513176,0.000781,-1.258739,-266.395651,-1.58476,64.830813
12.2767,0.000851,-0.003422,0.000503,-4.3e-05,-0.00037,0.001009,0.002276,-0.513379,0.002254,-1.258739,-266.395651,-1.58476,64.830813
12.2966,0.000889,-0.00363,0.000109,-0.0001,-0.000377,0.000771,0.002276,-0.513379,0.002254,-1.258739,-266.395651,-1.58476,64.830813
12.3167,0.000938,-0.003112,0.0018,-0.000147,-0.00038,0.000606,0.000945,-0.513632,0.000116,-1.333811,-266.395671,-1.549374,64.830864
12.3362,0.001071,-0.003257,0.001643,2.4e-05,-0.000303,0.001234,0.001313,-0.513422,0.000796,-1.333811,-266.395671,-1.549374,64.830864
12.3564,0.001012,-0.003027,0.002819,0.000158,-0.000248,0.001667,0.001909,-0.513256,0.001643,-1.25903,-266.395671,-1.474594,64.830864
12.3763,0.001482,-0.00351,0.000912,2.1e-05,-0.000353,0.001037,0.0024,-0.513046,0.002711,-1.25903,-266.395671,-1.474594,64.830864
12.3964,0.001282,-0.003253,0.001943,-9e-05,-0.00043,0.000595,0.0024,-0.513046,0.002711,-1.25903,-266.395671,-1.474594,64.830864
12.4168,0.001213,-0.002998,0.001526,-0.00018,-0.000486,0.000288,0.002273,-0.513252,0.001943,-1.184032,-266.395671,-1.446987,64.830864
12.4368,0.001321,-0.003378,0.001118,-0.000212,-0.000486,0.000501,0.002155,-0.513145,0.001768,-1.184032,-266.395671,-1.446987,64.830864
12.4573,0.001077,-0.003104,0.00197,-0.000236,-0.000487,0.000649,0.001891,-0.513378,0.001118,-1.108632,-266.395671,-1.371588,64.830864
12.4767,0.001028,-0.003075,0.001959,-0.000231,-0.000485,0.000699,0.00206,-0.513134,0.001874,-1.108632,-266.395671,-1.371588,64.830864
12.4966,0.000886,-0.003344,0.000807,-0.000227,-0.000484,0.000734,0.00206,-0.513134,0.001874,-1.108632,-266.395671,-1.371588,64.830864
12.5163,0.00125,-0.002982,0.000522,-0.000224,-0.000484,0.000758,0.001298,-0.513344,0.000807,-1.033845,-266.395671,-1.296801,64.830864
12.5365,0.001282,-0.00316,0.00267,-6.7e-05,-0.00042,0.0014,0.001388,-0.513194,0.000689,-1.033845,-266.395671,-1.296801,64.830864
12.5562,0.001195,-0.002958,0.000289,5.5e-05,-0.000376,0.001844,0.002644,-0.513158,0.00267,-0.958884,-266.395671,-1.22184,64.830864
12.5766,0.001097,-0.00306,0.002086,0.000126,-0.000382,0.00228,0.001427,-0.512971,0.000443,-0.958884,-266.395671,-1.22184,64.830864
12.5965,0.001212,-0.003335,0.000101,0.000184,-0.000391,0.002579,0.001427,-0.512971,0.000443,-0.958884,-266.395671,-1.22184,64.830864
12.6166,0.001334,-0.003328,0.001442,0.00023,-0.000401,0.002782,0.001263,-0.513335,0.000101,-1.034479,-266.395671,-1.297435,64.830864
12.6368,0.001109,-0.003444,0.002579,0.000249,-0.000366,0.002809,0.001599,-0.513332,0.000659,-1.034479,-266.395671,-1.297435,64.830864
12.6565,0.001011,-0.003448,0.001409,0.000264,-0.000338,0.002824,0.002424,-0.513442,0.002579,-0.959858,-266.395671,-1.372056,64.830864
12.6764,0.001021,-0.002849,0.002721,0.000254,-0.000321,0.002384,0.001789,-0.513447,0.001509,-0.959858,-266.395671,-1.372056,64.830864
12.6965,0.001093,-0.003057,0.001183,0.000243,-0.000304,0.002075,0.001789,-0.513447,0.001509,-0.959858,-266.395671,-1.372056,64.830864
12.7165,0.001121,-0.003392,0.002748,0.000231,-0.00029,0.001858,0.001696,-0.513057,0.001183,-0.885081,-266.395671,-1.443612,64.830864
12.737,0.001154,-0.003199,0.001772,0.000152,-0.000333,0.001548,0.002032,-0.513192,0.001818,-0.885081,-266.395671,-1.443612,64.830864
12.7566,0.000982,-0.003259,0.000883,8.9e-05,-0.000365,0.001333,0.002058,-0.513198,0.001772,-0.810213,-266.395671,-1.410354,64.830864
12.7764,0.001,-0.003088,0.001908,0.000162,-0.000335,0.00163,0.001484,-0.513254,0.000957,-0.810213,-266.395671,-1.410354,64.830864
12.7969,0.001283,-0.00319,0.000877,0.000219,-0.000314,0.001836,0.001484,-0.513254,0.000957,-0.810213,-266.395671,-1.410354,64.830864
12.8163,0.000693,-0.003304,0.002462,0.000263,-0.0003,0.001978,0.001731,-0.51319,0.000877,-0.735002,-266.395671,-1.485564,64.830865
12.8366,0.001008,-0.003152,0.00228,0.000225,-0.00032,0.001784,0.001818,-0.513235,0.001509,-0.735002,-266.395671,-1.485564,64.830865
12.8566,0.001327,-0.003251,0.00154,0.000193,-0.000333,0.001649,0.002171,-0.51315,0.00228,-0.660217,-266.395671,-1.410779,64.830865
12.877,0.001301,-0.003085,0.002462,0.000101,-0.000362,0.001506,0.002117,-0.513242,0.001602,-0.660217,-266.395671,-1.410779,64.830865
12.8976,0.001517,-0.003196,0.000982,2.8e-05,-0.000382,0.001408,0.002117,-0.513242,0.001602,-0.660217,-266.395671,-1.410779,64.830865
12.9164,0.000824,-0.003196,0.001368,-2.9e-05,-0.000396,0.001341,0.002018,-0.513196,0.000982,-0.585055,-266.395671,-1.427577,64.830865
12.9365,0.001093,-0.003309,0.00167,-1.4e-05,-0.000388,0.001535,0.001817,-0.513196,0.001139,-0.585055,-266.395671,-1.427577,64.830865
12.9562,0.000964,-0.003328,0.000142,-2e-06,-0.000383,0.00167,0.001944,-0.513309,0.00167,-0.659894,-266.395671,-1.502416,64.830865
12.9765,0.00118,-0.003208,0.002088,0.000184,-0.000313,0.002252,0.001116,-0.513326,0.000276,-0.659894,-266.395671,-1.502416,64.830865
12.9969,0.001307,-0.002884,0.003053,0.00033,-0.000264,0.002655,0.001116,-0.513326,0.000276,-0.659894,-266.395671,-1.502416,64.830865
13.0168,0.001013,-0.003476,0.000371,0.000444,-0.00023,0.002933,0.002864,-0.512882,0.003053,-0.734947,-266.395671,-1.572105,64.830865
13.0365,0.001744,-0.003092,0.002179,0.00029,-0.000321,0.002223,0.002204,-0.513118,0.001987,-0.734947,-266.395671,-1.572105,64.830865
13.0561,0.001295,-0.003403,0.000789,0.000164,-0.000386,0.001725,0.002856,-0.51309,0.002179,-0.659945,-266.395671,-1.497104,64.830865
13.0766,0.001206,-0.003516,0.002262,0.000152,-0.000354,0.00193,0.0018,-0.513375,0.000913,-0.659945,-266.395671,-1.497104,64.830865
13.0966,0.000876,-0.003784,0.001622,0.000143,-0.00033,0.002071,0.0018,-0.513375,0.000913,-0.659945,-266.395671,-1.497104,64.830865
13.1164,0.001513,-0.003212,0.002432,0.000137,-0.000313,0.002167,0.001703,-0.513783,0.001622,-0.584948,-266.395671,-1.457295,64.830865
13.1368,0.001307,-0.003177,0.003081,9.1e-05,-0.000305,0.001716,0.002132,-0.51355,0.001952,-0.584948,-266.395671,-1.457295,64.830865
13.1562,0.000987,-0.003671,0.002158,5.1e-05,-0.000295,0.0014,0.002879,-0.513175,0.003081,-0.659897,-266.395671,-1.487315,64.830865
13.1769,0.001026,-0.003511,0.001271,2.2e-05,-0.000278,0.001054,0.00216,-0.513625,0.002242,-0.659897,-266.395671,-1.487315,64.830865
13.1968,0.000901,-0.003333,0.000326,-5e-06,-0.000262,0.000813,0.00216,-0.513625,0.002242,-0.659897,-266.395671,-1.487315,64.830865
13.2164,0.001368,-0.002652,0.001606,-3e-05,-0.000247,0.000645,0.001067,-0.513333,0.000326,-0.734899,-266.395671,-1.526594,64.830865
13.2367,0.001114,-0.003381,0.001423,4e-05,-0.000269,0.001212,0.001528,-0.513052,0.000853,-0.734899,-266.395671,-1.526594,64.830865
13.2566,0.001199,-0.003057,0.003084,9.6e-05,-0.000291,0.001605,0.00184,-0.51338,0.001423,-0.810056,-266.395671,-1.60175,64.830865
13.2769,0.000883,-0.003121,0.000874,-7.7e-05,-0.000404,0.000892,0.002705,-0.513077,0.002966,-0.810056,-266.395671,-1.60175,64.830865
13.2976,0.000944,-0.003494,0.001248,-0.000219,-0.000486,0.000392,0.002705,-0.513077,0.002966,-0.810056,-266.395671,-1.60175,64.830865
13.3169,0.001059,-0.003263,-4.3e-05,-0.000333,-0.000545,4.5e-05,0.00158,-0.513494,0.001248,-0.885445,-266.395671,-1.526361,64.830865
13.337,0.001431,-0.002996,-0.000117,-0.000132,-0.000431,0.000903,0.001359,-0.5134,0.000722,-0.885445,-266.395671,-1.526361,64.830865
13.3565,0.00115,-0.003195,-0.00017,2.5e-05,-0.000349,0.001495,0.001371,-0.512996,-0.000117,-0.810973,-266.395671,-1.451889,64.830865
13.3764,0.001051,-0.003392,0.002164,0.0002,-0.000298,0.002403,0.001087,-0.51318,-0.000166,-0.810973,-266.395671,-1.451889,64.830865
13.3964,0.001349,-0.003413,0.001743,0.000338,-0.000266,0.003032,0.001087,-0.51318,-0.000166,-0.810973,-266.395671,-1.451889,64.830865
13.4168,0.001231,-0.003272,0.000588,0.000449,-0.000247,0.003465,0.002238,-0.513412,0.001743,-0.886406,-266.395671,-1.527321,64.830865
13.4367,0.001678,-0.003157,0.001582,0.000355,-0.000275,0.002958,0.00195,-0.513355,0.001273,-0.886406,-266.395671,-1.527321,64.830865
13.4565,0.001536,-0.00325,0.000538,0.000278,-0.000293,0.002598,0.002485,-0.513157,0.001582,-0.811858,-266.395671,-1.452774,64.830865
13.4768,0.001317,-0.003745,0.000738,0.000215,-0.00031,0.002689,0.001871,-0.513241,0.000632,-0.811858,-266.395671,-1.452774,64.830865
13.4967,0.001206,-0.003244,-0.000214,0.000168,-0.000322,0.002749,0.001871,-0.513241,0.000632,-0.811858,-266.395671,-1.452774,64.830865
13.5166,0.001281,-0.003349,0.000223,0.000132,-0.000332,0.002788,0.001097,-0.513244,-0.000214,-0.73686,-266.395671,-1.42375,64.830865
13.5368,0.001264,-0.003101,0.000647,0.000264,-0.000288,0.003202,0.001218,-0.513287,-3.6e-05,-0.73686,-266.395671,-1.42375,64.830865
13.5562,0.001114,-0.004042,0.000648,0.000368,-0.000257,0.003489,0.001594,-0.5131,0.000647,-0.811858,-266.395671,-1.498748,64.830865
13.5768,0.000923,-0.002989,0.001717,0.000433,-0.00017,0.003311,0.001457,-0.513968,0.000648,-0.811858,-266.395671,-1.498748,64.830865
13.5967,0.000922,-0.003111,0.002394,0.000481,-0.0001,0.003183,0.001457,-0.513968,0.000648,-0.811858,-266.395671,-1.498748,64.830865
13.6165,0.001072,-0.00357,0.000942,0.000517,-4.3e-05,0.003092,0.002143,-0.51311,0.002394,-0.736429,-266.395671,-1.423319,64.830866
13.637,0.001442,-0.003424,0.002694,0.000425,-0.000125,0.002413,0.001903,-0.513297,0.001803,-0.736429,-266.395671,-1.423319,64.830866
13.6567,0.00119,-0.003286,0.000284,0.000348,-0.000184,0.001938,0.002815,-0.513422,0.002694,-0.661833,-266.395671,-1.348722,64.830866
13.6763,0.001325,-0.003173,0.002187,0.000366,-0.000187,0.002293,0.00147,-0.513299,0.000504,-0.661833,-266.395671,-1.348722,64.830866
13.6966,0.000633,-0.003164,0.00162,0.000382,-0.000192,0.00254,0.00147,-0.513299,0.000504,-0.661833,-266.395671,-1.348722,64.830866
13.7163,0.00129,-0.00318,0.002271,0.000396,-0.000198,0.00271,0.001459,-0.513164,0.00162,-0.586849,-266.395671,-1.321792,64.830866
13.7367,0.001315,-0.003257,0.002045,0.000333,-0.000262,0.002109,0.001859,-0.51317,0.001883,-0.586849,-266.395671,-1.321792,64.830866
13.7565,0.001041,-0.003309,0.001374,0.000279,-0.000308,0.001688,0.002357,-0.513256,0.002045,-0.511851,-266.395671,-1.360181,64.830866
13.7768,0.001067,-0.003511,0.001466,0.000249,-0.000311,0.001622,0.001787,-0.513304,0.001424,-0.511851,-266.395671,-1.360181,64.830866
13.7968,0.000908,-0.003125,0.001547,0.000224,-0.000313,0.001577,0.001787,-0.513304,0.001424,-0.511851,-266.395671,-1.360181,64.830866
13.8168,0.001552,-0.003137,0.001887,0.000204,-0.000313,0.001546,0.001697,-0.513125,0.001547,-0.436341,-266.395671,-1.365174,64.830866
13.8367,0.001077,-0.003552,0.001681,0.000124,-0.000359,0.001389,0.002027,-0.513129,0.001684,-0.436341,-266.395671,-1.365174,64.830866
13.8566,0.00123,-0.003225,0.002975,6.2e-05,-0.000393,0.001281,0.001935,-0.513551,0.001681,-0.361847,-266.395671,-1.410081,64.830866
13.8768,0.001225,-0.0032,0.001239,-8.5e-05,-0.000451,0.000702,0.002673,-0.513252,0.002858,-0.361847,-266.395671,-1.410081,64.830866
13.897,0.001551,-0.002969,0.003478,-0.000206,-0.000491,0.0003,0.002673,-0.513252,0.002858,-0.361847,-266.395671,-1.410081,64.830866
13.9166,0.000972,-0.003424,0.001319,-0.000305,-0.000517,2.3e-05,0.003325,-0.512966,0.003478,-0.43683,-266.395671,-1.485064,64.830866
13.9366,0.001453,-0.003515,0.000861,-0.000395,-0.000548,-6.9e-05,0.002648,-0.51315,0.002608,-0.43683,-266.395671,-1.485064,64.830866
13.9568,0.000831,-0.003587,0.00032,-0.000467,-0.00057,-0.000128,0.001892,-0.513515,0.000861,-0.361813,-266.395671,-1.410047,64.830866
13.9765,0.001214,-0.003658,0.001214,-0.000158,-0.000409,0.000995,0.001065,-0.513581,0.000362,-0.361813,-266.395671,-1.410047,64.830866
13.9966,0.000982,-0.003371,0.001246,8.3e-05,-0.00029,0.001773,0.001065,-0.513581,0.000362,-0.361813,-266.395671,-1.410047,64.830866
14.0163,0.001222,-0.002963,-4.9e-05,0.000272,-0.000204,0.002309,0.001618,-0.51337,0.001246,-0.28644,-266.395671,-1.334674,64.830866
14.037,0.001446,-0.003308,-4.2e-05,0.000308,-0.000218,0.002457,0.001447,-0.513205,0.00072,-0.28644,-266.395671,-1.334674,64.830866
14.0565,0.001113,-0.003608,0.001278,0.000338,-0.000231,0.002554,0.001425,-0.513308,-4.2e-05,-0.211798,-266.395671,-1.403731,64.830866
14.0769,0.001109,-0.003322,0.001067,0.00032,-0.00021,0.002386,0.001734,-0.513581,0.001159,-0.211798,-266.395671,-1.403731,64.830866
14.0969,0.001211,-0.003368,0.00015,0.000305,-0.000191,0.002265,0.001734,-0.513581,0.001159,-0.211798,-266.395671,-1.403731,64.830866
14.1169,0.000932,-0.003001,0.002341,0.000293,-0.000175,0.002178,0.001287,-0.513368,0.00015,-0.13682,-266.395671,-1.384515,64.830866
14.1369,0.00096,-0.003187,0.001906,0.000285,-0.000208,0.002169,0.001627,-0.513219,0.001036,-0.13682,-266.395671,-1.384515,64.830866
14.1571,0.001181,-0.003354,0.002603,0.000279,-0.000234,0.00216,0.001932,-0.513186,0.001906,-0.061783,-266.395671,-1.378643,64.830866
14.1768,0.001041,-0.003192,0.001872,0.000133,-0.000303,0.001452,0.002453,-0.513336,0.002537,-0.061783,-266.395671,-1.378643,64.830866
14.1968,0.001162,-0.00333,0.003321,1.2e-05,-0.00035,0.000956,0.002453,-0.513336,0.002537,-0.061783,-266.395671,-1.378643,64.830866
14.2165,0.000791,-0.003056,0.002532,-8.7e-05,-0.000382,0.00061,0.002856,-0.513327,0.003321,0.013179,-266.395671,-1.393312,64.830866
14.2366,0.001199,-0.00308,0.000152,-0.000183,-0.000431,0.000184,0.002539,-0.513216,0.002998,0.013179,-266.395671,-1.393312,64.830866
14.2566,0.001632,-0.002966,0.001883,-0.000263,-0.000466,-0.00011,0.001277,-0.513083,0.000157,0.088172,-266.395678,-1.468305,64.830932
14.2767,0.000901,-0.00332,0.002567,-0.000362,-0.000518,0.000239,0.002472,-0.512976,0.001726,0.088172,-266.395678,-1.468305,64.830932
14.2968,0.001076,-0.003138,0.001282,-0.000437,-0.000558,0.000481,0.002472,-0.512976,0.001726,0.088172,-266.395678,-1.468305,64.830932
14.3166,0.001345,-0.003328,0.002032,-0.000493,-0.00059,0.000649,0.00173,-0.513137,0.001282,0.163177,-266.395678,-1.393299,64.830932
14.3369,0.001665,-0.003163,0.002479,-0.00041,-0.000542,0.000846,0.001995,-0.513214,0.001586,0.163177,-266.395678,-1.393299,64.830932
14.3567,0.001128,-0.003147,0.001338,-0.000347,-0.000506,0.000981,0.00293,-0.513161,0.002479,0.238167,-266.395678,-1.31831,64.830932
14.3764,0.000924,-0.003473,0.00094,-0.000286,-0.000484,0.001145,0.001912,-0.513148,0.001442,0.238167,-266.395678,-1.31831,64.830932
14.3968,0.000759,-0.003598,0.001948,-0.000239,-0.000468,0.001257,0.001912,-0.513148,0.001442,0.238167,-266.395678,-1.31831,64.830932
14.4162,0.001417,-0.003357,0.002859,-0.000202,-0.000458,0.001333,0.001753,-0.513598,0.001948,0.163153,-266.395678,-1.243296,64.830932
14.4365,0.001397,-0.003454,0.000396,-0.000198,-0.000425,0.000982,0.002218,-0.513497,0.002325,0.163153,-266.395678,-1.243296,64.830932
14.4567,0.000858,-0.003263,0.001585,-0.0002,-0.000397,0.000736,0.001599,-0.513454,0.000396,0.088004,-266.395678,-1.318444,64.830932
14.4764,0.000635,-0.003296,0.001548,-0.000106,-0.000364,0.000952,0.001661,-0.513277,0.001491,0.088004,-266.395678,-1.318444,64.830932
14.4963,0.000995,-0.002963,0.001361,-3.2e-05,-0.00034,0.001099,0.001661,-0.513277,0.001491,0.088004,-266.395678,-1.318444,64.830932
14.5167,0.001238,-0.00329,0.000859,2.5e-05,-0.000324,0.0012,0.001689,-0.512962,0.001361,0.01283,-266.395678,-1.24327,64.830932
14.5366,0.00108,-0.003258,0.001128,4.7e-05,-0.000339,0.001437,0.001684,-0.513096,0.001156,0.01283,-266.395678,-1.24327,64.830932
14.5562,0.001468,-0.003372,0.001892,6.7e-05,-0.000353,0.0016,0.001656,-0.513257,0.001128,0.087504,-266.395678,-1.317944,64.830932
14.5764,0.001329,-0.003475,0.002782,-4.1e-05,-0.000375,0.001379,0.002363,-0.513361,0.001823,0.087504,-266.395678,-1.317944,64.830932
14.5966,0.001017,-0.003533,0.002395,-0.000126,-0.000389,0.001225,0.002363,-0.513361,0.001823,0.087504,-266.395678,-1.317944,64.830932
14.6166,0.001251,-0.003339,0.002235,-0.000194,-0.000397,0.001118,0.002238,-0.513531,0.002395,0.162503,-266.395678,-1.392943,64.830932
14.6366,0.001266,-0.003626,0.000243,-0.000214,-0.000387,0.00082,0.002301,-0.513452,0.002329,0.162503,-266.395678,-1.392943,64.830932
14.6565,0.001205,-0.003357,0.001351,-0.000234,-0.000377,0.000613,0.00139,-0.513626,0.000243,0.087405,-266.395678,-1.317845,64.830932
14.6765,0.001284,-0.003128,0.002223,-0.000176,-0.000338,0.000989,0.00185,-0.51338,0.001255,0.087405,-266.395678,-1.317845,64.830932
14.6965,0.000841,-0.003406,0.003385,-0.000129,-0.000311,0.001248,0.00185,-0.51338,0.001255,0.087405,-266.395678,-1.317845,64.830932
14.7162,0.001172,-0.003557,0.001087,-9.2e-05,-0.000293,0.001426,0.002567,-0.513403,0.003385,0.012386,-266.395678,-1.242826,64.830932
14.7362,0.00117,-0.003375,0.001125,-0.000112,-0.0003,0.001003,0.002212,-0.513468,0.002415,0.012386,-266.395678,-1.242826,64.830932
14.7565,0.000914,-0.003304,0.001625,-0.000133,-0.000303,0.000707,0.001744,-0.513375,0.001125,-0.063025,-266.395678,-1.318236,64.830932
14.7765,0.001155,-0.003597,0.001305,-7.1e-05,-0.000291,0.000881,0.001743,-0.513309,0.001583,-0.063025,-266.395678,-1.318236,64.830932
14.7963,0.00118,-0.003508,-0.000387,-2.3e-05,-0.000283,0.001001,0.001743,-0.513309,0.001583,-0.063025,-266.395678,-1.318236,64.830932
14.8166,0.001556,-0.003102,0.001752,1.5e-05,-0.000279,0.001083,0.000982,-0.513508,-0.000387,-0.137657,-266.395678,-1.243603,64.830932
14.8366,0.001072,-0.003258,0.000261,6.9e-05,-0.000249,0.001737,0.001582,-0.513342,0.000488,-0.137657,-266.395678,-1.243603,64.830932
14.8563,0.000959,-0.003252,0.001201,0.000116,-0.00023,0.002188,0.001205,-0.513258,0.000261,-0.212495,-266.395678,-1.318441,64.830932
