mach0312/omni-docking-bench/src/icros_test_setup/results/MPPI_sample/timeseries/trial_054.csv
t,x,y,yaw,vx,vy,wz,bl_x,bl_y,bl_yaw,front_steering_joint,front_wheel_joint,rear_steering_joint,rear_wheel_joint
0.0,-0.068373,-0.023112,0.08414,0.004683,-0.000638,0.001557,-0.026634,-0.530939,0.083756,0.066678,-260.480815,-0.327228,72.317484
0.0004,-0.068366,-0.023243,0.084807,0.003854,-0.000525,0.001282,-0.026634,-0.530939,0.083756,0.066678,-260.4776,-0.327228,72.320871
0.0007,-0.068072,-0.023458,0.084653,0.002968,-0.000405,0.000987,-0.026318,-0.531725,0.083443,0.066678,-260.475123,-0.327228,72.323481
0.0009,-0.068056,-0.023134,0.084546,0.002032,-0.000277,0.000676,-0.026175,-0.531631,0.08376,0.066678,-260.473248,-0.327228,72.325456
0.0012,-0.068359,-0.022587,0.085059,0.001042,-0.000142,0.000347,-0.026175,-0.531631,0.08376,0.066678,-260.472434,-0.327228,72.326315
0.0015,-0.068262,-0.022967,0.085231,0.0,0.0,0.0,-0.026033,-0.531338,0.084005,0.066678,-260.472434,-0.327228,72.326315
0.0019,-0.068014,-0.023386,0.087025,0.0,0.0,0.0,-0.026033,-0.531338,0.084005,0.066678,-260.472434,-0.327228,72.326315
0.0021,-0.068205,-0.023178,0.084748,0.0,0.0,0.0,-0.025884,-0.531284,0.084383,0.066678,-260.472434,-0.327228,72.326315
0.0024,-0.068689,-0.023172,0.084937,0.0,0.0,0.0,-0.025884,-0.531284,0.084383,0.066678,-260.472434,-0.327228,72.326315
0.0168,-0.067987,-0.023173,0.083165,0.0,0.0,0.0,-0.024911,-0.531358,0.084958,0.066678,-260.472434,-0.327228,72.326315
0.0364,-0.068129,-0.023393,0.08445,0.0,0.0,0.0,-0.025621,-0.531411,0.083165,0.066678,-260.472434,-0.327228,72.326315
0.0567,-0.068217,-0.023267,0.08499,0.0,0.0,0.0,-0.025415,-0.531477,0.083683,0.066678,-260.472434,-0.327228,72.326315
0.0766,-0.067762,-0.023362,0.08456,0.0,0.0,0.0,-0.024924,-0.531426,0.08499,0.066678,-260.472434,-0.327228,72.326315
0.0968,-0.068005,-0.023478,0.08531,0.0,0.0,0.0,-0.024709,-0.53153,0.084599,0.066678,-260.472434,-0.327228,72.326315
0.1168,-0.067691,-0.02324,0.084388,0.003131,0.002917,-0.005043,-0.024709,-0.53153,0.084599,0.066678,-260.472434,-0.327228,72.326315
0.1368,-0.068167,-0.023207,0.084222,0.00344,0.003174,-0.00542,-0.024704,-0.531426,0.084388,0.066678,-260.472434,-0.327228,72.326315
0.1567,-0.067963,-0.023534,0.086461,0.003712,0.003384,-0.005734,-0.024933,-0.531415,0.08432,0.066678,-260.472434,-0.327228,72.326315
0.1765,-0.068095,-0.023255,0.086746,0.00395,0.003561,-0.005983,-0.023923,-0.531629,0.086461,-0.008309,-260.472434,-0.252241,72.326315
0.1969,-0.067974,-0.02331,0.086104,0.004149,0.003723,-0.006211,-0.023911,-0.531363,0.08672,-0.008309,-260.472434,-0.252241,72.326315
0.2167,-0.067971,-0.02345,0.085897,0.004322,0.003859,-0.006393,-0.023911,-0.531363,0.08672,-0.008309,-260.472434,-0.252241,72.326315
0.2368,-0.068183,-0.023603,0.084308,0.004472,0.003975,-0.006537,-0.024217,-0.53157,0.085897,-0.023627,-260.472433,-0.177239,72.326315
0.2569,-0.068252,-0.023016,0.085112,0.004606,0.004068,-0.006654,-0.024636,-0.531661,0.085245,-0.023627,-260.472433,-0.177239,72.326315
0.2763,-0.068339,-0.022907,0.085219,0.004722,0.004146,-0.006745,-0.024897,-0.531169,0.085112,-0.00394,-260.472433,-0.102123,72.326316
0.2966,-0.067962,-0.023062,0.085308,0.004833,0.004197,-0.00682,-0.024927,-0.531066,0.08521,-0.00394,-260.472433,-0.102123,72.326316
0.3166,-0.068093,-0.023239,0.085024,0.00493,0.004241,-0.006878,-0.024927,-0.531066,0.08521,-0.00394,-260.472433,-0.102123,72.326316
0.3365,-0.068326,-0.022881,0.086548,0.005013,0.004279,-0.006923,-0.024783,-0.531397,0.085024,0.005597,-260.472433,-0.027132,72.326316
0.3569,-0.06819,-0.02312,0.085508,0.005081,0.004318,-0.006956,-0.024554,-0.531218,0.085668,0.005597,-260.472433,-0.027132,72.326316
0.3764,-0.068057,-0.023235,0.08495,0.00514,0.004352,-0.006981,-0.024634,-0.531256,0.085508,0.010112,-260.472433,0.048209,72.326316
0.3964,-0.067713,-0.022984,0.085246,0.005191,0.004381,-0.007,-0.024779,-0.531391,0.084969,0.010112,-260.472433,0.048209,72.326316
0.4166,-0.068022,-0.023331,0.084067,0.005235,0.004406,-0.007014,-0.024779,-0.531391,0.084969,0.010112,-260.472433,0.048209,72.326316
0.4364,-0.067879,-0.023127,0.085031,0.005274,0.004428,-0.007025,-0.025198,-0.53153,0.084067,0.017182,-260.472433,0.124584,72.326317
0.4564,-0.068155,-0.023301,0.084593,0.005308,0.004445,-0.007033,-0.024939,-0.53143,0.084462,0.017182,-260.472433,0.124584,72.326317
0.4769,-0.06801,-0.023253,0.085207,0.005338,0.00446,-0.007038,-0.025064,-0.531477,0.084593,0.026041,-260.472432,0.197928,72.326317
0.4971,-0.068037,-0.023211,0.085898,0.005362,0.004476,-0.007041,-0.024647,-0.531409,0.085154,0.026041,-260.472432,0.197928,72.326317
0.5166,-0.068074,-0.023068,0.085841,0.005383,0.00449,-0.007043,-0.024647,-0.531409,0.085154,0.026041,-260.472432,0.197928,72.326317
0.5371,-0.067957,-0.023053,0.084665,0.005401,0.004502,-0.007044,-0.024349,-0.53119,0.085841,0.030201,-260.472432,0.272911,72.326318
0.5571,-0.068089,-0.0233,0.085187,0.005419,0.004511,-0.007044,-0.024544,-0.531205,0.085364,0.030201,-260.472432,0.272911,72.326318
0.5768,-0.067833,-0.023218,0.082667,0.005434,0.004518,-0.007044,-0.024697,-0.531451,0.085187,0.037123,-260.472432,0.347776,72.326318
0.597,-0.068194,-0.023537,0.0852,0.005453,0.004515,-0.007045,-0.025632,-0.531474,0.082886,0.037123,-260.472432,0.347776,72.326318
0.6169,-0.068085,-0.023157,0.085506,0.00547,0.004512,-0.007046,-0.025632,-0.531474,0.082886,0.037123,-260.472432,0.347776,72.326318
0.6367,-0.068214,-0.023151,0.085871,0.005485,0.004511,-0.007045,-0.02453,-0.531294,0.085505,0.039676,-260.472431,0.42287,72.32632
0.6566,-0.067918,-0.023276,0.084521,0.00549,0.00452,-0.007042,-0.024507,-0.531285,0.085658,0.039676,-260.472431,0.42287,72.32632
0.6772,-0.067558,-0.023109,0.084615,0.005495,0.004529,-0.00704,-0.024863,-0.531455,0.084521,0.037823,-260.472425,0.498088,72.326331
0.6978,-0.068373,-0.02345,0.08514,0.005498,0.004537,-0.007037,-0.024493,-0.5313,0.084606,0.037823,-260.472425,0.498088,72.326331
0.717,-0.068063,-0.0237,0.083629,0.005501,0.004544,-0.007035,-0.024493,-0.5313,0.084606,0.037823,-260.472425,0.498088,72.326331
0.7369,-0.067958,-0.023043,0.083722,0.005504,0.004551,-0.007033,-0.025459,-0.531916,0.083626,0.041697,-260.472399,0.572771,72.32638
0.7566,-0.067757,-0.023199,0.085081,0.00551,0.004549,-0.007033,-0.025397,-0.531644,0.083666,0.041697,-260.472399,0.572771,72.32638
0.7766,-0.068191,-0.023026,0.085385,0.005516,0.004548,-0.007032,-0.02441,-0.53135,0.085074,0.046335,-260.472312,0.647897,72.326545
0.7967,-0.067984,-0.023212,0.086827,0.00552,0.004549,-0.007031,-0.024672,-0.531184,0.085356,0.046335,-260.472312,0.647897,72.326545
0.8168,-0.067999,-0.02312,0.087169,0.005524,0.004549,-0.00703,-0.024672,-0.531184,0.085356,0.046335,-260.472312,0.647897,72.326545
0.8363,-0.068262,-0.023086,0.085676,0.005527,0.00455,-0.007029,-0.023569,-0.531164,0.087143,0.045912,-260.472063,0.722778,72.327015
0.8566,-0.068168,-0.023183,0.084301,0.005523,0.004559,-0.007027,-0.023994,-0.531183,0.086543,0.045912,-260.472063,0.722778,72.327015
0.8766,-0.067876,-0.023404,0.085985,0.00552,0.004568,-0.007024,-0.025176,-0.531336,0.084253,0.046365,-260.471495,0.797769,72.328086
0.8963,-0.067818,-0.02334,0.084835,0.005515,0.004578,-0.007022,-0.024174,-0.531502,0.085828,0.046365,-260.471495,0.797769,72.328086
0.9163,-0.068064,-0.022996,0.083081,0.005511,0.004587,-0.007021,-0.024174,-0.531502,0.085828,0.046365,-260.471495,0.797769,72.328086
0.9363,-0.067421,-0.023039,0.085306,0.005508,0.004595,-0.007019,-0.025628,-0.531146,0.082956,0.050251,-260.470452,0.872773,72.330056
0.9566,-0.06797,-0.023112,0.084904,0.005516,0.004585,-0.007022,-0.024938,-0.531151,0.083899,0.050251,-260.470452,0.872773,72.330056
0.9765,-0.067636,-0.022724,0.084263,0.005523,0.004577,-0.007024,-0.024596,-0.531163,0.08475,0.055845,-260.468863,0.947765,72.333066
0.9971,-0.067538,-0.023008,0.085556,0.005529,0.004569,-0.007051,-0.024696,-0.530931,0.084299,0.055845,-260.468863,0.947765,72.333066
1.0166,-0.067324,-0.023071,0.084575,0.005534,0.004562,-0.007073,-0.024696,-0.530931,0.084299,0.055845,-260.468863,0.947765,72.333066
1.0364,-0.067251,-0.022421,0.083747,0.005539,0.004557,-0.007091,-0.024043,-0.531052,0.084301,0.051905,-260.466801,1.013742,72.336961
1.0567,-0.066682,-0.022815,0.084181,0.005539,0.004558,-0.00712,-0.024244,-0.530859,0.084043,0.051905,-260.466801,1.013742,72.336961
1.0763,-0.066602,-0.022417,0.083586,0.00554,0.004559,-0.007144,-0.023637,-0.530849,0.083955,0.040842,-260.464584,1.01347,72.341149
1.0967,-0.066364,-0.022265,0.083883,0.00554,0.00456,-0.00718,-0.023981,-0.530647,0.083607,0.040842,-260.464584,1.01347,72.341149
1.1165,-0.066485,-0.022749,0.083626,0.00554,0.004561,-0.007209,-0.023981,-0.530647,0.083607,0.040842,-260.464584,1.01347,72.341149
1.1366,-0.066126,-0.021693,0.084229,0.00554,0.004562,-0.007234,-0.02367,-0.530758,0.083328,0.035327,-260.462371,1.015152,72.345341
1.1565,-0.066103,-0.021933,0.084855,0.005539,0.004566,-0.00727,-0.023462,-0.530378,0.083661,0.035327,-260.462371,1.015152,72.345341
1.1762,-0.06569,-0.021601,0.083387,0.005537,0.004569,-0.0073,-0.022715,-0.529938,0.084626,0.025914,-260.460154,1.018011,72.349563
1.1969,-0.065936,-0.021544,0.084106,0.00554,0.004566,-0.00734,-0.023161,-0.529831,0.083483,0.025914,-260.460154,1.018011,72.349563
1.2167,-0.065896,-0.021993,0.082436,0.005542,0.004563,-0.007374,-0.023161,-0.529831,0.083483,0.025914,-260.460154,1.018011,72.349563
1.2363,-0.06505,-0.021292,0.081896,0.005544,0.004561,-0.007402,-0.023686,-0.530051,0.08213,0.019946,-260.457941,1.020574,72.353794
1.2564,-0.065316,-0.021319,0.080655,0.005549,0.004554,-0.00744,-0.023517,-0.529836,0.082,0.019946,-260.457941,1.020574,72.353794
1.2762,-0.064973,-0.020974,0.083035,0.005553,0.004549,-0.007471,-0.024062,-0.529502,0.08042,0.007256,-260.45573,1.0227,72.358038
1.2962,-0.064794,-0.021185,0.082671,0.005557,0.004544,-0.007511,-0.022789,-0.529234,0.082791,0.007256,-260.45573,1.0227,72.358038
1.3163,-0.064998,-0.020989,0.080835,0.005561,0.004539,-0.007544,-0.022789,-0.529234,0.082791,0.007256,-260.45573,1.0227,72.358038
1.3363,-0.064591,-0.021281,0.081484,0.005564,0.004535,-0.007572,-0.023601,-0.529115,0.080524,-0.002475,-260.453514,1.023472,72.362294
1.3564,-0.064281,-0.021007,0.081825,0.005571,0.004525,-0.007609,-0.023364,-0.529284,0.080878,-0.002475,-260.453514,1.023472,72.362294
1.3768,-0.063764,-0.021185,0.082172,0.005578,0.004516,-0.00764,-0.022432,-0.529142,0.081584,-0.016068,-260.45129,1.024901,72.366579
1.3972,-0.063872,-0.020769,0.081723,0.005567,0.004534,-0.007672,-0.021939,-0.529429,0.082112,-0.016068,-260.45129,1.024901,72.366579
1.4173,-0.063639,-0.020856,0.081931,0.005557,0.00455,-0.007699,-0.021939,-0.529429,0.082112,-0.016068,-260.45129,1.024901,72.366579
1.4367,-0.063532,-0.020504,0.081837,0.005549,0.004562,-0.007722,-0.021685,-0.528939,0.081613,-0.026901,-260.449067,1.024905,72.370858
1.4565,-0.063268,-0.020467,0.080437,0.005548,0.004565,-0.007752,-0.021724,-0.528858,0.081667,-0.026901,-260.449067,1.024905,72.370858
1.4765,-0.062983,-0.02005,0.080514,0.005546,0.004568,-0.007777,-0.022125,-0.528659,0.080191,-0.027675,-260.446844,1.031799,72.375188
1.4967,-0.062804,-0.019946,0.081607,0.005553,0.004557,-0.007807,-0.021971,-0.528412,0.080475,-0.027675,-260.446844,1.031799,72.375188
1.5166,-0.063012,-0.02046,0.079663,0.00556,0.004548,-0.007831,-0.021971,-0.528412,0.080475,-0.027675,-260.446844,1.031799,72.375188
1.5367,-0.062716,-0.02038,0.080388,0.005565,0.004541,-0.007851,-0.022211,-0.528634,0.079338,-0.032805,-260.444626,1.033912,72.379521
1.5566,-0.062751,-0.019494,0.082075,0.005566,0.00454,-0.007869,-0.022002,-0.528651,0.07973,-0.032805,-260.444626,1.033912,72.379521
1.5767,-0.062289,-0.019678,0.08042,0.005567,0.004538,-0.007884,-0.020775,-0.527619,0.081826,-0.04569,-260.442403,1.033277,72.383859
1.5971,-0.062213,-0.019598,0.080229,0.00557,0.004535,-0.007898,-0.021264,-0.527987,0.080529,-0.04569,-260.442403,1.033277,72.383859
1.6165,-0.06165,-0.019612,0.079369,0.005572,0.004533,-0.00791,-0.021264,-0.527987,0.080529,-0.04569,-260.442403,1.033277,72.383859
1.6365,-0.061342,-0.019393,0.07966,0.005573,0.004531,-0.00792,-0.020998,-0.527799,0.07904,-0.049646,-260.440176,1.033897,72.388208
1.6564,-0.06168,-0.019387,0.079289,0.005573,0.004532,-0.007928,-0.020875,-0.527765,0.079255,-0.049646,-260.440176,1.033897,72.388208
1.6763,-0.061262,-0.019018,0.079994,0.005572,0.004533,-0.007936,-0.021119,-0.527627,0.079038,-0.054889,-260.437943,1.034091,72.392568
1.6967,-0.061169,-0.019133,0.077313,0.005574,0.004531,-0.007944,-0.020553,-0.5274,0.0799,-0.054889,-260.437943,1.034091,72.392568
1.7164,-0.060866,-0.019262,0.077621,0.005575,0.004529,-0.007951,-0.020553,-0.5274,0.0799,-0.054889,-260.437943,1.034091,72.392568
1.7365,-0.060704,-0.019003,0.078954,0.005576,0.004528,-0.007957,-0.021102,-0.527519,0.077289,-0.056289,-260.435712,1.034746,72.39693
1.7565,-0.060561,-0.019073,0.078851,0.005578,0.004524,-0.007963,-0.020821,-0.527452,0.077934,-0.056289,-260.435712,1.034746,72.39693
1.7763,-0.060169,-0.018566,0.078506,0.00558,0.004521,-0.007968,-0.020223,-0.527331,0.078598,-0.059458,-260.433477,1.034805,72.401298
1.7964,-0.060402,-0.01913,0.078461,0.005581,0.00452,-0.007973,-0.020169,-0.527016,0.078501,-0.059458,-260.433477,1.034805,72.401298
1.8167,-0.06026,-0.018287,0.076848,0.005581,0.00452,-0.007978,-0.020169,-0.527016,0.078501,-0.059458,-260.433477,1.034805,72.401298
1.8364,-0.059971,-0.018184,0.077457,0.005582,0.004519,-0.007981,-0.020888,-0.526576,0.076515,-0.061811,-260.431241,1.034496,72.405666
1.8565,-0.060012,-0.018213,0.078749,0.005594,0.004499,-0.007989,-0.020706,-0.526584,0.076865,-0.061811,-260.431241,1.034496,72.405666
1.8767,-0.059295,-0.018138,0.077134,0.005604,0.004483,-0.007995,-0.019725,-0.526475,0.078494,-0.063611,-260.429005,1.034631,72.410035
1.8964,-0.059103,-0.017908,0.078515,0.005604,0.004483,-0.007997,-0.019963,-0.526601,0.07724,-0.063611,-260.429005,1.034631,72.410035
1.9167,-0.059281,-0.018186,0.078226,0.005605,0.004483,-0.007999,-0.019963,-0.526601,0.07724,-0.063611,-260.429005,1.034631,72.410035
1.9366,-0.058929,-0.017892,0.077705,0.005605,0.004483,-0.008,-0.019208,-0.526422,0.077892,-0.071209,-260.426758,1.031559,72.414399
1.9565,-0.058533,-0.017853,0.077689,0.005599,0.004491,-0.008001,-0.019237,-0.52637,0.077776,-0.071209,-260.426758,1.031559,72.414399
1.9767,-0.058426,-0.017275,0.077029,0.005595,0.004498,-0.008001,-0.018785,-0.526159,0.077435,-0.071765,-260.42451,1.031713,72.418767
1.9968,-0.058587,-0.017556,0.076647,0.005599,0.004492,-0.008005,-0.019139,-0.525788,0.077051,-0.071765,-260.42451,1.031713,72.418767
2.0169,-0.058183,-0.017433,0.078664,0.005602,0.004487,-0.008008,-0.019139,-0.525788,0.077051,-0.071765,-260.42451,1.031713,72.418767
2.0368,-0.057887,-0.017318,0.07617,0.005605,0.004482,-0.00801,-0.017887,-0.52565,0.078329,-0.069368,-260.422272,1.033195,72.423128
2.057,-0.057657,-0.016907,0.074716,0.005598,0.004492,-0.00801,-0.018346,-0.525703,0.077415,-0.069368,-260.422272,1.033195,72.423128
2.0765,-0.057423,-0.016961,0.07653,0.005592,0.0045,-0.00801,-0.01942,-0.525328,0.074461,-0.073071,-260.420021,1.031952,72.427503
2.0972,-0.057313,-0.017201,0.075548,0.005593,0.004498,-0.008012,-0.018507,-0.525448,0.076341,-0.073071,-260.420021,1.031952,72.427503
2.1168,-0.057318,-0.016716,0.077424,0.005594,0.004496,-0.008014,-0.018507,-0.525448,0.076341,-0.073071,-260.420021,1.031952,72.427503
2.1368,-0.056892,-0.016935,0.075544,0.005595,0.004495,-0.008015,-0.017652,-0.524983,0.07709,-0.069906,-260.417782,1.033743,72.431867
2.1565,-0.057007,-0.016837,0.075542,0.005592,0.004498,-0.008016,-0.017934,-0.525163,0.076417,-0.069906,-260.417782,1.033743,72.431867
2.1765,-0.056202,-0.016121,0.073497,0.00559,0.004501,-0.008017,-0.018351,-0.525227,0.075287,-0.07146,-260.415539,1.033461,72.436239
2.1968,-0.056679,-0.016374,0.074859,0.005604,0.004479,-0.008022,-0.018708,-0.524779,0.073644,-0.07146,-260.415539,1.033461,72.436239
2.2165,-0.056748,-0.016123,0.073758,0.005615,0.00446,-0.008026,-0.018708,-0.524779,0.073644,-0.07146,-260.415539,1.033461,72.436239
2.2365,-0.055825,-0.016064,0.075475,0.005625,0.004445,-0.008029,-0.018946,-0.524532,0.073422,-0.070597,-260.413294,1.034123,72.44062
2.2566,-0.055636,-0.016199,0.076529,0.005631,0.004434,-0.00803,-0.01827,-0.524541,0.07423,-0.070597,-260.413294,1.034123,72.44062
2.2766,-0.055792,-0.015925,0.075823,0.005637,0.004425,-0.008031,-0.016477,-0.524553,0.076275,-0.081365,-260.411042,1.029163,72.444972
2.2969,-0.055362,-0.015707,0.075146,0.005628,0.004439,-0.008027,-0.017093,-0.52446,0.075849,-0.081365,-260.411042,1.029163,72.444972
2.3167,-0.055729,-0.015806,0.073827,0.005621,0.004451,-0.008024,-0.017093,-0.52446,0.075849,-0.081365,-260.411042,1.029163,72.444972
2.3365,-0.055181,-0.015955,0.074041,0.005614,0.00446,-0.008022,-0.017891,-0.524215,0.073492,-0.084969,-260.408782,1.027275,72.449326
2.3569,-0.054771,-0.016254,0.074214,0.005618,0.004454,-0.008024,-0.017686,-0.524333,0.073678,-0.084969,-260.408782,1.027275,72.449326
2.3766,-0.054513,-0.015521,0.072685,0.005621,0.004448,-0.008025,-0.016789,-0.524695,0.073959,-0.078038,-260.406529,1.03052,72.453694
2.397,-0.05449,-0.015438,0.073555,0.005622,0.004447,-0.008026,-0.017408,-0.524212,0.072783,-0.078038,-260.406529,1.03052,72.453694
2.4168,-0.054838,-0.015706,0.074443,0.005623,0.004446,-0.008026,-0.017408,-0.524212,0.072783,-0.078038,-260.406529,1.03052,72.453694
2.4366,-0.054228,-0.015534,0.073062,0.005623,0.004445,-0.008026,-0.016687,-0.524091,0.074108,-0.080449,-260.404273,1.02946,72.458058
2.4567,-0.053968,-0.015108,0.071695,0.005617,0.004454,-0.008024,-0.01679,-0.524101,0.073639,-0.080449,-260.404273,1.02946,72.458058
2.4768,-0.054084,-0.015084,0.073421,0.005612,0.004462,-0.008023,-0.017267,-0.523644,0.07144,-0.081085,-260.402018,1.029185,72.462418
2.4966,-0.053776,-0.015143,0.074287,0.005614,0.004458,-0.008024,-0.016716,-0.523696,0.073235,-0.081085,-260.402018,1.029185,72.462418
2.5169,-0.053465,-0.014898,0.073604,0.005615,0.004455,-0.008025,-0.016716,-0.523696,0.073235,-0.081085,-260.402018,1.029185,72.462418
2.5368,-0.053418,-0.014652,0.072435,0.005616,0.004453,-0.008026,-0.015739,-0.523312,0.073266,-0.077932,-260.399769,1.030772,72.466779
2.5569,-0.053065,-0.014927,0.072244,0.005614,0.004455,-0.008025,-0.016022,-0.52329,0.072896,-0.077932,-260.399769,1.030772,72.466779
2.5765,-0.052531,-0.01476,0.072163,0.005612,0.004457,-0.008025,-0.016084,-0.523443,0.071988,-0.079716,-260.397509,1.030123,72.471155
2.5972,-0.052793,-0.014498,0.07239,0.005604,0.004469,-0.008023,-0.015779,-0.523426,0.072136,-0.079716,-260.397509,1.030123,72.471155
2.6165,-0.052891,-0.014623,0.071708,0.005597,0.00448,-0.008021,-0.015779,-0.523426,0.072136,-0.079716,-260.397509,1.030123,72.471155
2.6367,-0.052229,-0.014399,0.070183,0.005591,0.004488,-0.008021,-0.016131,-0.52311,0.071372,-0.078969,-260.395259,1.030604,72.475516
2.6564,-0.052058,-0.014659,0.071773,0.005598,0.004475,-0.008024,-0.016241,-0.5231,0.07085,-0.078969,-260.395259,1.030604,72.475516
2.6767,-0.052025,-0.013941,0.070741,0.005605,0.004465,-0.008027,-0.015319,-0.523191,0.071518,-0.073288,-260.393018,1.033607,72.479884
2.6967,-0.051532,-0.014019,0.071073,0.005613,0.004451,-0.00803,-0.015911,-0.522704,0.070796,-0.073288,-260.393018,1.033607,72.479884
2.7171,-0.052012,-0.014135,0.070319,0.005619,0.00444,-0.008031,-0.015911,-0.522704,0.070796,-0.073288,-260.393018,1.033607,72.479884
2.7368,-0.051818,-0.014088,0.070692,0.005625,0.00443,-0.008033,-0.015959,-0.522672,0.069984,-0.077982,-260.390771,1.031589,72.484247
2.7571,-0.051222,-0.013867,0.071142,0.005629,0.004424,-0.008033,-0.015866,-0.522707,0.070237,-0.077982,-260.390771,1.031589,72.484247
2.7767,-0.051194,-0.013407,0.070628,0.005632,0.004418,-0.008033,-0.014802,-0.522424,0.070887,-0.084402,-260.388514,1.028514,72.488605
2.7968,-0.051015,-0.013081,0.071231,0.005635,0.004413,-0.008032,-0.015159,-0.522154,0.070638,-0.084402,-260.388514,1.028514,72.488605
2.8168,-0.050669,-0.013237,0.0693,0.005638,0.004408,-0.008032,-0.015159,-0.522154,0.070638,-0.084402,-260.388514,1.028514,72.488605
2.8368,-0.050285,-0.013174,0.06916,0.00564,0.004404,-0.008032,-0.015132,-0.521813,0.068964,-0.086355,-260.386257,1.027414,72.492954
2.8564,-0.050626,-0.012961,0.069925,0.005645,0.004394,-0.008033,-0.01507,-0.521847,0.069005,-0.086355,-260.386257,1.027414,72.492954
2.8769,-0.04998,-0.01312,0.069914,0.00565,0.004385,-0.008033,-0.014823,-0.521562,0.069668,-0.088681,-260.383993,1.026126,72.497307
2.8968,-0.0503,-0.012682,0.070187,0.005644,0.004395,-0.00803,-0.014387,-0.521838,0.069878,-0.088681,-260.383993,1.026126,72.497307
2.9169,-0.050008,-0.013073,0.069815,0.005638,0.004403,-0.008027,-0.014387,-0.521838,0.069878,-0.088681,-260.383993,1.026126,72.497307
2.9367,-0.049359,-0.012794,0.068458,0.005634,0.004409,-0.008025,-0.014208,-0.521631,0.069479,-0.091964,-260.381723,1.024429,72.501656
2.9568,-0.049113,-0.012828,0.070239,0.005633,0.004409,-0.008025,-0.014289,-0.521595,0.069026,-0.091964,-260.381723,1.024429,72.501656
2.9765,-0.048822,-0.012478,0.068868,0.005632,0.00441,-0.008025,-0.01315,-0.521417,0.069982,-0.087171,-260.379462,1.026662,72.506007
2.9967,-0.049051,-0.012625,0.069301,0.005627,0.004415,-0.008024,-0.013667,-0.521275,0.068955,-0.087171,-260.379462,1.026662,72.506007
3.0168,-0.049027,-0.012427,0.069283,0.005623,0.00442,-0.008023,-0.013667,-0.521275,0.068955,-0.087171,-260.379462,1.026662,72.506007
3.0368,-0.04865,-0.012586,0.070373,0.00562,0.004424,-0.008023,-0.013498,-0.521002,0.068947,-0.087088,-260.377197,1.0268,72.510368
3.0568,-0.048765,-0.011966,0.068703,0.005612,0.004435,-0.008021,-0.013182,-0.521111,0.069493,-0.087088,-260.377197,1.0268,72.510368
3.077,-0.047768,-0.011884,0.068463,0.005605,0.004444,-0.00802,-0.013585,-0.520611,0.068449,-0.084422,-260.374945,1.028355,72.514714
3.0969,-0.048104,-0.01193,0.067645,0.005605,0.004443,-0.008021,-0.012935,-0.520674,0.068449,-0.084422,-260.374945,1.028355,72.514714
3.1171,-0.048058,-0.011847,0.068252,0.005604,0.004442,-0.008022,-0.012935,-0.520674,0.068449,-0.084422,-260.374945,1.028355,72.514714
3.137,-0.047185,-0.011473,0.067706,0.005603,0.004441,-0.008022,-0.013055,-0.520458,0.067916,-0.080843,-260.372693,1.030359,72.519077
3.1569,-0.047633,-0.012182,0.06731,0.005608,0.004431,-0.008025,-0.012876,-0.520372,0.067791,-0.080843,-260.372693,1.030359,72.519077
3.1764,-0.046929,-0.01127,0.066946,0.005613,0.004422,-0.008026,-0.013163,-0.520874,0.067055,-0.081658,-260.370444,1.030467,72.523434
3.1967,-0.046981,-0.011122,0.066774,0.00562,0.004409,-0.008028,-0.012834,-0.520184,0.066943,-0.081658,-260.370444,1.030467,72.523434
3.2171,-0.047104,-0.011701,0.067759,0.005625,0.004398,-0.00803,-0.012834,-0.520184,0.066943,-0.081658,-260.370444,1.030467,72.523434
3.2367,-0.046637,-0.011233,0.066618,0.00563,0.004389,-0.00803,-0.012351,-0.52033,0.067423,-0.085326,-260.36819,1.028937,72.527789
3.2569,-0.046755,-0.011083,0.066848,0.005626,0.004394,-0.008028,-0.012464,-0.520213,0.067054,-0.085326,-260.36819,1.028937,72.527789
3.2767,-0.046432,-0.010796,0.067223,0.005623,0.004398,-0.008026,-0.012518,-0.519793,0.066593,-0.091253,-260.365932,1.026129,72.532129
3.2974,-0.046099,-0.010698,0.068476,0.005629,0.004386,-0.008028,-0.012195,-0.51965,0.067156,-0.091253,-260.365932,1.026129,72.532129
3.3169,-0.046456,-0.010642,0.066991,0.005634,0.004376,-0.008029,-0.012195,-0.51965,0.067156,-0.091253,-260.365932,1.026129,72.532129
3.3371,-0.045831,-0.01077,0.065008,0.005639,0.004367,-0.008029,-0.012094,-0.519299,0.066656,-0.089333,-260.363663,1.02699,72.536496
3.357,-0.045379,-0.010687,0.066315,0.005649,0.004348,-0.008032,-0.01232,-0.519439,0.065931,-0.089333,-260.363663,1.02699,72.536496
3.3767,-0.045521,-0.010135,0.065608,0.005658,0.004332,-0.008033,-0.011414,-0.519416,0.066061,-0.094896,-260.361409,1.024375,72.540814
3.3965,-0.045554,-0.010165,0.064556,0.00567,0.004311,-0.008035,-0.012018,-0.519063,0.065635,-0.094896,-260.361409,1.024375,72.540814
3.4173,-0.045517,-0.010358,0.066567,0.005679,0.004293,-0.008036,-0.012018,-0.519063,0.065635,-0.094896,-260.361409,1.024375,72.540814
3.4369,-0.044488,-0.010309,0.065844,0.005687,0.004279,-0.008036,-0.011369,-0.519032,0.066231,-0.101192,-260.359136,1.021226,72.545144
3.4567,-0.044769,-0.010177,0.063043,0.005676,0.004296,-0.00803,-0.011165,-0.519079,0.066034,-0.101192,-260.359136,1.021226,72.545144
3.4763,-0.0441,-0.009731,0.063646,0.005666,0.00431,-0.008025,-0.012466,-0.519016,0.062787,-0.110176,-260.356852,1.016493,72.549458
3.4968,-0.04435,-0.01017,0.064592,0.005678,0.004287,-0.008029,-0.011724,-0.518718,0.063559,-0.110176,-260.356852,1.016493,72.549458
3.5165,-0.044538,-0.009932,0.065919,0.005689,0.004268,-0.008031,-0.011724,-0.518718,0.063559,-0.110176,-260.356852,1.016493,72.549458
3.5364,-0.043584,-0.009829,0.064029,0.005697,0.004252,-0.008032,-0.010719,-0.518629,0.065584,-0.104039,-260.354577,1.0193,72.553775
3.5565,-0.043717,-0.009673,0.063519,0.005687,0.004268,-0.008026,-0.010787,-0.518669,0.064915,-0.104039,-260.354577,1.0193,72.553775
3.5765,-0.043247,-0.009214,0.064739,0.005678,0.004281,-0.008022,-0.011172,-0.518498,0.063264,-0.114104,-260.352285,1.014253,72.558086
3.5968,-0.043305,-0.009455,0.064772,0.005674,0.004283,-0.008021,-0.010324,-0.518169,0.064599,-0.114104,-260.352285,1.014253,72.558086
3.6167,-0.043228,-0.00976,0.064059,0.00567,0.004285,-0.00802,-0.010324,-0.518169,0.064599,-0.114104,-260.352285,1.014253,72.558086
3.6365,-0.043192,-0.008994,0.062411,0.005667,0.004287,-0.008019,-0.010355,-0.51852,0.063723,-0.108504,-260.350005,1.016915,72.562395
3.6573,-0.042657,-0.009197,0.064746,0.005671,0.00428,-0.00802,-0.010748,-0.518287,0.063151,-0.108504,-260.350005,1.016915,72.562395
3.6765,-0.042586,-0.008976,0.063489,0.005673,0.004274,-0.008021,-0.009488,-0.51798,0.06449,-0.107375,-260.347725,1.017904,72.566712
3.6973,-0.042599,-0.009219,0.063371,0.005672,0.004273,-0.00802,-0.010153,-0.517944,0.063566,-0.107375,-260.347725,1.017904,72.566712
3.7167,-0.042634,-0.009039,0.062143,0.005671,0.004272,-0.00802,-0.010153,-0.517944,0.063566,-0.107375,-260.347725,1.017904,72.566712
3.7369,-0.042061,-0.008634,0.062712,0.00567,0.004271,-0.008019,-0.010735,-0.517861,0.061808,-0.109663,-260.345439,1.0169,72.571033
3.7565,-0.041752,-0.00888,0.064856,0.005681,0.004249,-0.008023,-0.010448,-0.517744,0.06214,-0.109663,-260.345439,1.0169,72.571033
3.7766,-0.041383,-0.008548,0.060505,0.00569,0.004231,-0.008025,-0.008527,-0.517661,0.064601,-0.110185,-260.343156,1.016973,72.575346
3.7968,-0.041352,-0.008419,0.063155,0.005699,0.004213,-0.008027,-0.010364,-0.517611,0.060842,-0.110185,-260.343156,1.016973,72.575346
3.8167,-0.041715,-0.008301,0.062756,0.005707,0.004198,-0.008028,-0.010364,-0.517611,0.060842,-0.110185,-260.343156,1.016973,72.575346
3.8368,-0.040989,-0.008073,0.061189,0.005714,0.004185,-0.008028,-0.009504,-0.517106,0.062421,-0.11733,-260.340865,1.013587,72.579649
3.8577,-0.041004,-0.007906,0.060143,0.005718,0.004172,-0.008028,-0.009601,-0.517089,0.061873,-0.11733,-260.340865,1.013587,72.579649
3.8765,-0.040474,-0.007811,0.062089,0.005722,0.004161,-0.008027,-0.010177,-0.516841,0.059888,-0.125038,-260.338561,1.009554,72.583944
3.8963,-0.040379,-0.007498,0.06201,0.005716,0.004164,-0.008024,-0.008927,-0.516822,0.061904,-0.125038,-260.338561,1.009554,72.583944
3.9167,-0.040569,-0.008233,0.061925,0.005711,0.004166,-0.008021,-0.008927,-0.516822,0.061904,-0.125038,-260.338561,1.009554,72.583944
3.9365,-0.040174,-0.007645,0.060508,0.005707,0.004167,-0.008019,-0.00878,-0.517067,0.061591,-0.128835,-260.336263,1.007724,72.588213
3.9564,-0.03978,-0.007964,0.063599,0.005702,0.004172,-0.008017,-0.008979,-0.516901,0.061111,-0.128835,-260.336263,1.007724,72.588213
3.9763,-0.039025,-0.007546,0.05935,0.005697,0.004176,-0.008015,-0.007193,-0.516789,0.063344,-0.127316,-260.333953,1.008906,72.592514
3.9965,-0.03949,-0.007362,0.061681,0.005692,0.004179,-0.008013,-0.008639,-0.516652,0.05966,-0.127316,-260.333953,1.008906,72.592514
4.0164,-0.039365,-0.007649,0.061163,0.005687,0.004181,-0.008012,-0.008639,-0.516652,0.05966,-0.127316,-260.333953,1.008906,72.592514
4.0367,-0.039105,-0.007324,0.06015,0.005683,0.004183,-0.008012,-0.007964,-0.516507,0.060829,-0.125627,-260.331665,1.009971,72.596781
4.0566,-0.039336,-0.007124,0.059134,0.005672,0.004193,-0.008009,-0.008134,-0.516443,0.060515,-0.125627,-260.331665,1.009971,72.596781
4.0765,-0.038625,-0.007254,0.059644,0.005663,0.004201,-0.008007,-0.009022,-0.516089,0.058879,-0.12431,-260.329372,1.011349,72.60107
4.0965,-0.038655,-0.007196,0.058172,0.005665,0.004192,-0.008009,-0.008285,-0.516318,0.059565,-0.12431,-260.329372,1.011349,72.60107
4.1167,-0.038556,-0.006883,0.058884,0.005666,0.004185,-0.008011,-0.008285,-0.516318,0.059565,-0.12431,-260.329372,1.011349,72.60107
4.1369,-0.03823,-0.006803,0.059035,0.005666,0.004179,-0.008011,-0.008316,-0.51581,0.05855,-0.121221,-260.327093,1.013669,72.605347
4.1566,-0.037932,-0.006308,0.060095,0.005682,0.004141,-0.008018,-0.008218,-0.51583,0.058708,-0.121221,-260.327093,1.013669,72.605347
4.1764,-0.037837,-0.006532,0.057446,0.005696,0.00411,-0.008022,-0.007129,-0.515244,0.05984,-0.125422,-260.324809,1.012474,72.609625
4.1968,-0.037445,-0.006442,0.058536,0.005719,0.004061,-0.008028,-0.008418,-0.515643,0.057649,-0.125422,-260.324809,1.012474,72.609625
4.2167,-0.037644,-0.006488,0.059326,0.005737,0.004021,-0.008032,-0.008418,-0.515643,0.057649,-0.125422,-260.324809,1.012474,72.609625
4.2365,-0.03725,-0.006131,0.058426,0.005753,0.003989,-0.008034,-0.007179,-0.515406,0.058991,-0.137764,-260.322511,1.007014,72.613885
4.2566,-0.037137,-0.006481,0.057406,0.005744,0.00399,-0.008028,-0.007273,-0.515325,0.058719,-0.137764,-260.322511,1.007014,72.613885
4.2767,-0.036771,-0.006325,0.057726,0.005737,0.003991,-0.008023,-0.007702,-0.515505,0.057153,-0.158193,-260.320202,0.996705,72.618083
4.2965,-0.036832,-0.005827,0.058958,0.005727,0.004,-0.008017,-0.00737,-0.515472,0.057663,-0.158193,-260.320202,0.996705,72.618083
4.3171,-0.036599,-0.006336,0.059048,0.005719,0.004007,-0.008013,-0.00737,-0.515472,0.057663,-0.158193,-260.320202,0.996705,72.618083
4.3368,-0.036385,-0.005609,0.057756,0.005712,0.004013,-0.00801,-0.006273,-0.515267,0.058713,-0.157172,-260.317877,0.997774,72.622318
4.3571,-0.036326,-0.005835,0.058592,0.005692,0.004025,-0.008006,-0.006523,-0.515036,0.05828,-0.157172,-260.317877,0.997774,72.622318
4.3766,-0.035836,-0.005475,0.05869,0.005676,0.004034,-0.008002,-0.006287,-0.514822,0.058337,-0.152695,-260.315571,1.00051,72.62654
4.3964,-0.03597,-0.005292,0.057992,0.005655,0.004032,-0.008001,-0.005945,-0.51461,0.058645,-0.152695,-260.315571,1.00051,72.62654
4.4164,-0.036043,-0.005941,0.057752,0.005637,0.00403,-0.007999,-0.005945,-0.51461,0.058645,-0.152695,-260.315571,1.00051,72.62654
4.4363,-0.035289,-0.005211,0.057704,0.005622,0.004028,-0.007999,-0.006379,-0.514908,0.057417,-0.149304,-260.313276,1.00419,72.630768
4.4566,-0.035327,-0.005249,0.056054,0.005616,0.004021,-0.007999,-0.006148,-0.514665,0.057495,-0.149304,-260.313276,1.00419,72.630768
4.4766,-0.034958,-0.004959,0.056689,0.005611,0.004016,-0.008,-0.006583,-0.51431,0.055799,-0.15121,-260.310999,1.008064,72.634988
4.4965,-0.034467,-0.005245,0.055245,0.005628,0.003957,-0.00801,-0.006099,-0.514147,0.056598,-0.15121,-260.310999,1.008064,72.634988
4.5166,-0.034813,-0.005507,0.057322,0.005641,0.003909,-0.008016,-0.006099,-0.514147,0.056598,-0.15121,-260.310999,1.008064,72.634988
4.5364,-0.034811,-0.0047,0.055045,0.005652,0.003871,-0.00802,-0.005371,-0.514488,0.056987,-0.153901,-260.308727,1.008407,72.639198
4.5564,-0.034138,-0.004844,0.057017,0.005648,0.003862,-0.008017,-0.005915,-0.514236,0.056148,-0.153901,-260.308727,1.008407,72.639198
4.5767,-0.033839,-0.004821,0.056026,0.005644,0.003854,-0.008015,-0.004905,-0.513884,0.056766,-0.17981,-260.306458,0.998245,72.643319
4.5969,-0.033769,-0.004801,0.054385,0.005615,0.003863,-0.008009,-0.005241,-0.514003,0.056077,-0.17981,-260.306458,0.998245,72.643319
4.6166,-0.034142,-0.004794,0.055907,0.00559,0.00387,-0.008006,-0.005241,-0.514003,0.056077,-0.17981,-260.306458,0.998245,72.643319
4.6367,-0.033586,-0.004605,0.054356,0.00557,0.003875,-0.008003,-0.005418,-0.513824,0.055572,-0.18244,-260.304166,0.997892,72.647476
4.6565,-0.033209,-0.004664,0.055677,0.005581,0.003833,-0.00801,-0.005579,-0.513815,0.055037,-0.18244,-260.304166,0.997892,72.647476
4.6772,-0.032696,-0.004407,0.053844,0.00559,0.0038,-0.008014,-0.004658,-0.51374,0.055422,-0.17991,-260.301901,1.004568,72.651632
4.6967,-0.032964,-0.004115,0.055015,0.005582,0.00378,-0.008015,-0.005189,-0.513668,0.053967,-0.17991,-260.301901,1.004568,72.651632
4.7167,-0.032871,-0.004118,0.053704,0.005574,0.003763,-0.008015,-0.005189,-0.513668,0.053967,-0.17991,-260.301901,1.004568,72.651632
4.7367,-0.032193,-0.004163,0.053749,0.005568,0.003749,-0.008016,-0.005271,-0.513212,0.053369,-0.193303,-260.299633,0.999411,72.655747
4.757,-0.032323,-0.003922,0.055536,0.005573,0.00369,-0.008024,-0.005051,-0.513279,0.053485,-0.193303,-260.299633,0.999411,72.655747
4.7771,-0.031825,-0.003761,0.053256,0.005576,0.003643,-0.008029,-0.003844,-0.513007,0.05528,-0.203029,-260.297357,0.998594,72.659863
4.7968,-0.031823,-0.003908,0.053526,0.005559,0.003593,-0.008031,-0.004599,-0.513029,0.053414,-0.203029,-260.297357,0.998594,72.659863
4.817,-0.031643,-0.004022,0.054127,0.005544,0.003553,-0.008033,-0.004599,-0.513029,0.053414,-0.203029,-260.297357,0.998594,72.659863
4.8366,-0.031688,-0.003842,0.053855,0.005531,0.003521,-0.008033,-0.003829,-0.513111,0.053793,-0.222324,-260.29509,0.992677,72.66391
4.8566,-0.031438,-0.003515,0.054834,0.005459,0.003549,-0.008018,-0.003968,-0.513089,0.05378,-0.222324,-260.29509,0.992677,72.66391
4.8765,-0.030845,-0.003314,0.053539,0.0054,0.003569,-0.008009,-0.003318,-0.512628,0.05458,-0.245438,-260.292829,0.989943,72.667906
4.8969,-0.030793,-0.003555,0.05386,0.005326,0.00352,-0.00801,-0.003523,-0.512581,0.05362,-0.245438,-260.292829,0.989943,72.667906
4.9167,-0.031036,-0.003432,0.053556,0.005266,0.00348,-0.008012,-0.003523,-0.512581,0.05362,-0.245438,-260.292829,0.989943,72.667906
4.9367,-0.030736,-0.003559,0.052562,0.005217,0.003448,-0.008013,-0.003518,-0.51254,0.053222,-0.24009,-260.290612,1.002751,72.671909
4.9569,-0.030937,-0.003303,0.051558,0.005189,0.003427,-0.008015,-0.003665,-0.512649,0.052916,-0.24009,-260.290612,1.002751,72.671909
4.977,-0.030062,-0.002772,0.052013,0.005166,0.00341,-0.008017,-0.004496,-0.512509,0.051306,-0.270428,-260.288481,1.011944,72.675782
4.9967,-0.029926,-0.002736,0.052473,0.005166,0.003286,-0.008038,-0.003624,-0.512115,0.051936,-0.270428,-260.288481,1.011944,72.675782
5.0167,-0.029886,-0.003101,0.053042,0.005165,0.003189,-0.008051,-0.003624,-0.512115,0.051936,-0.270428,-260.288481,1.011944,72.675782
5.0367,-0.029891,-0.002799,0.052155,0.005163,0.003113,-0.008059,-0.002639,-0.51223,0.052707,-0.280083,-260.286335,1.014415,72.679688
5.0565,-0.029798,-0.002409,0.052006,0.005056,0.003111,-0.008046,-0.002885,-0.512162,0.052444,-0.280083,-260.286335,1.014415,72.679688
5.0768,-0.0291,-0.002583,0.052429,0.004971,0.003109,-0.008038,-0.003137,-0.511618,0.051763,-0.336991,-260.284261,0.999638,72.683308
5.0971,-0.029296,-0.002603,0.051742,0.004835,0.003059,-0.008038,-0.002433,-0.511855,0.052359,-0.336991,-260.284261,0.999638,72.683308
5.1164,-0.029406,-0.002695,0.05186,0.004726,0.00302,-0.00804,-0.002433,-0.511855,0.052359,-0.336991,-260.284261,0.999638,72.683308
5.1365,-0.028844,-0.002423,0.051457,0.00464,0.002989,-0.008042,-0.00277,-0.51187,0.051526,-0.347448,-260.282162,1.015841,72.687054
5.1565,-0.028971,-0.002159,0.051669,0.004618,0.002937,-0.008051,-0.002683,-0.511804,0.051459,-0.347448,-260.282162,1.015841,72.687054
5.1766,-0.028438,-0.002421,0.051144,0.004599,0.002896,-0.008058,-0.002495,-0.51138,0.051423,-0.392794,-260.280234,1.039745,72.690572
5.1966,-0.028577,-0.002157,0.051192,0.004531,0.002861,-0.008061,-0.002371,-0.511715,0.051157,-0.392794,-260.280234,1.039745,72.690572
5.2165,-0.028344,-0.002377,0.050126,0.004476,0.002833,-0.008064,-0.002371,-0.511715,0.051157,-0.392794,-260.280234,1.039745,72.690572
5.2368,-0.028098,-0.001928,0.048984,0.004432,0.00281,-0.008067,-0.002606,-0.511607,0.049791,-0.414886,-260.278241,1.039069,72.694168
5.2567,-0.027981,-0.001741,0.050161,0.004477,0.002705,-0.008088,-0.002796,-0.511474,0.049424,-0.414886,-260.278241,1.039069,72.694168
5.2762,-0.027081,-0.002229,0.050897,0.004512,0.002624,-0.008101,-0.002275,-0.511004,0.049908,-0.445545,-260.276307,1.050625,72.697679
5.2965,-0.027395,-0.001882,0.050392,0.004177,0.002666,-0.008086,-0.001226,-0.511515,0.0508,-0.445545,-260.276307,1.050625,72.697679
5.3166,-0.027897,-0.002217,0.050964,0.00392,0.002697,-0.008081,-0.001226,-0.511515,0.0508,-0.445545,-260.276307,1.050625,72.697679
5.3363,-0.026787,-0.001617,0.050188,0.003722,0.002719,-0.008082,-0.001738,-0.511438,0.050632,-0.475637,-260.274316,1.033375,72.701137
5.357,-0.027104,-0.001889,0.050313,0.003652,0.002633,-0.008104,-0.001497,-0.511234,0.050411,-0.475637,-260.274316,1.033375,72.701137
5.3766,-0.027011,-0.001944,0.04982,0.003596,0.002566,-0.00812,-0.001359,-0.511167,0.050099,-0.537292,-260.272863,1.108327,72.703992
5.3963,-0.02652,-0.001362,0.051712,0.003575,0.002531,-0.008127,-0.001587,-0.511296,0.049833,-0.537292,-260.272863,1.108327,72.703992
5.4165,-0.027037,-0.00163,0.050077,0.003557,0.002503,-0.008132,-0.001587,-0.511296,0.049833,-0.537292,-260.272863,1.108327,72.703992
5.4364,-0.026535,-0.001619,0.04884,0.003542,0.002481,-0.008136,-0.00137,-0.510881,0.049753,-0.587265,-260.271211,1.125108,72.707182
5.4563,-0.026573,-0.001436,0.048345,0.003507,0.002349,-0.008157,-0.001464,-0.510922,0.049339,-0.587265,-260.271211,1.125108,72.707182
5.4764,-0.026059,-0.001647,0.048981,0.00348,0.002246,-0.008171,-0.00182,-0.510757,0.048089,-0.612337,-260.269496,1.126936,72.71045
5.4964,-0.026187,-0.001632,0.051153,0.003366,0.002216,-0.008173,-0.001145,-0.511008,0.048893,-0.612337,-260.269496,1.126936,72.71045
5.5163,-0.026187,-0.001516,0.047889,0.003277,0.002191,-0.008175,-0.001145,-0.511008,0.048893,-0.612337,-260.269496,1.126936,72.71045
5.5367,-0.025996,-0.001323,0.050621,0.003207,0.002172,-0.008177,-0.001639,-0.510835,0.047565,-0.66775,-260.26781,1.122609,72.713505
5.5564,-0.025473,-0.001617,0.047738,0.003119,0.002074,-0.008192,-0.001026,-0.510756,0.048787,-0.66775,-260.26781,1.122609,72.713505
5.5763,-0.025364,-0.001271,0.048348,0.003051,0.001998,-0.008202,-0.001043,-0.510966,0.047493,-0.721635,-260.266198,1.149939,72.716467
5.5964,-0.025438,-0.001295,0.04824,0.002902,0.001932,-0.00821,-0.00074,-0.510697,0.048262,-0.721635,-260.266198,1.149939,72.716467
5.6164,-0.024971,-0.001087,0.047233,0.002786,0.00188,-0.008216,-0.00074,-0.510697,0.048262,-0.721635,-260.266198,1.149939,72.716467
5.6369,-0.025103,-0.000784,0.047396,0.002695,0.00184,-0.008221,-0.000774,-0.510434,0.046909,-0.778856,-260.264571,1.160159,72.719369
5.657,-0.024985,-0.001247,0.047426,0.002655,0.001663,-0.008245,-0.000829,-0.510331,0.047073,-0.778856,-260.264571,1.160159,72.719369
5.6769,-0.024802,-0.000968,0.047964,0.002623,0.001526,-0.008259,-0.000735,-0.510619,0.047202,-0.853999,-260.263135,1.196468,72.721908
5.6967,-0.024866,-0.00111,0.046827,0.002434,0.001466,-0.008257,-0.000379,-0.510399,0.047888,-0.853999,-260.263135,1.196468,72.721908
5.7168,-0.024723,-0.001222,0.046415,0.002288,0.001418,-0.008255,-0.000379,-0.510399,0.047888,-0.853999,-260.263135,1.196468,72.721908
5.7365,-0.024402,-0.00094,0.04776,0.002173,0.001381,-0.008254,-0.000963,-0.51061,0.046101,-0.928908,-260.261537,1.191021,72.724484
5.7566,-0.024764,-0.000945,0.049111,0.002163,0.001386,-0.00825,-0.000577,-0.510499,0.046749,-0.928908,-260.261537,1.191021,72.724484
5.7766,-0.024162,-0.000549,0.046998,0.002153,0.001389,-0.008246,0.000327,-0.510292,0.048904,-1.003881,-260.260181,1.244478,72.726643
5.7965,-0.024037,-0.000899,0.048199,0.001974,0.001208,-0.008255,-0.000151,-0.510011,0.047159,-1.003881,-260.260181,1.244478,72.726643
5.8166,-0.024123,-0.000704,0.046306,0.001835,0.001068,-0.008259,-0.000151,-0.510011,0.047159,-1.003881,-260.260181,1.244478,72.726643
5.8363,-0.02359,-0.001028,0.047843,0.001726,0.000959,-0.008261,-0.00043,-0.510097,0.045967,-1.037623,-260.258518,1.247539,72.729305
5.8565,-0.023864,-0.000584,0.046234,0.001559,0.000977,-0.008247,8.2e-05,-0.510231,0.046694,-1.037623,-260.258518,1.247539,72.729305
5.8766,-0.023764,-0.000927,0.045304,0.001427,0.000989,-0.008239,-0.000252,-0.510014,0.046044,-1.112615,-260.257223,1.290906,72.731128
5.8969,-0.023557,-0.001042,0.045462,0.001597,0.001032,-0.008233,-0.000628,-0.510368,0.045359,-1.112615,-260.257223,1.290906,72.731128
5.9167,-0.023647,-0.000724,0.046887,0.001727,0.001064,-0.008228,-0.000628,-0.510368,0.045359,-1.112615,-260.257223,1.290906,72.731128
5.9365,-0.023477,-0.000286,0.04557,0.001828,0.001088,-0.008225,0.000304,-0.510128,0.046624,-1.187733,-260.255903,1.338065,72.733033
5.9564,-0.023158,-0.000733,0.045011,0.00163,0.000969,-0.008225,8.4e-05,-0.509971,0.046159,-1.187733,-260.255903,1.338065,72.733033
5.9764,-0.022972,-0.000494,0.045616,0.001477,0.000878,-0.008224,-0.000159,-0.510182,0.044774,-1.135911,-260.254329,1.280081,72.735346
5.9969,-0.022985,-0.00057,0.04495,0.0013,0.000821,-0.008219,0.000247,-0.509981,0.045529,-1.135911,-260.254329,1.280081,72.735346
6.0166,-0.023083,-0.000645,0.045703,0.001162,0.000776,-0.008214,0.000247,-0.509981,0.045529,-1.135911,-260.254329,1.280081,72.735346
6.0366,-0.022982,-0.000421,0.044676,0.001053,0.000741,-0.008212,0.000269,-0.510079,0.045414,-1.210787,-260.252847,1.325511,72.737396
6.0569,-0.023071,-0.000863,0.044951,0.001035,0.00072,-0.00821,8.3e-05,-0.510007,0.045081,-1.210787,-260.252847,1.325511,72.737396
6.0767,-0.022625,-0.000453,0.043961,0.001018,0.000704,-0.008208,-0.000127,-0.510328,0.044754,-1.285721,-260.251527,1.389785,72.73915
6.0966,-0.022778,-0.000665,0.044683,0.001119,0.000677,-0.008209,-0.000203,-0.509992,0.044021,-1.285721,-260.251527,1.389785,72.73915
6.1167,-0.022627,-0.000709,0.045532,0.001195,0.000656,-0.008208,-0.000203,-0.509992,0.044021,-1.285721,-260.251527,1.389785,72.73915
6.1369,-0.0227,-0.000635,0.04314,0.001254,0.000639,-0.008206,0.000625,-0.510151,0.045204,-1.338776,-260.249835,1.394539,72.74137
6.1564,-0.022455,-0.00073,0.044471,0.001196,0.000724,-0.008189,8.3e-05,-0.510151,0.044317,-1.338776,-260.249835,1.394539,72.74137
6.1767,-0.022349,-0.000598,0.043713,0.00115,0.00079,-0.008178,0.000254,-0.510206,0.044226,-1.291492,-260.248128,1.352385,72.743541
6.1969,-0.022138,9.1e-05,0.04369,0.001161,0.000822,-0.008176,-3.3e-05,-0.510118,0.043744,-1.291492,-260.248128,1.352385,72.743541
6.2167,-0.022356,-0.000405,0.044974,0.001169,0.000846,-0.008175,-3.3e-05,-0.510118,0.043744,-1.291492,-260.248128,1.352385,72.743541
6.2364,-0.021949,-0.000189,0.042873,0.001174,0.000865,-0.008175,0.000619,-0.509855,0.044635,-1.303784,-260.246402,1.374501,72.745876
6.2565,-0.02165,-4.3e-05,0.043166,0.001033,0.000759,-0.008181,0.000334,-0.509795,0.043874,-1.303784,-260.246402,1.374501,72.745876
6.2767,-0.021747,-0.000565,0.044075,0.000924,0.000678,-0.008185,0.000394,-0.509539,0.042906,-1.293674,-260.244688,1.37299,72.748262
6.2969,-0.021927,-0.000425,0.043423,0.000718,0.000721,-0.008174,0.000698,-0.510023,0.043962,-1.293674,-260.244688,1.37299,72.748262
6.3168,-0.021562,-0.000498,0.043515,0.000557,0.000754,-0.008168,0.000698,-0.510023,0.043962,-1.293674,-260.244688,1.37299,72.748262
6.3367,-0.021398,-0.000246,0.043034,0.000431,0.000778,-0.008167,0.000658,-0.509987,0.043203,-1.36008,-260.243075,1.409437,72.750362
6.3568,-0.021647,-0.000354,0.043939,0.000359,0.000743,-0.008174,0.000614,-0.509896,0.043097,-1.36008,-260.243075,1.409437,72.750362
6.3767,-0.02127,-0.000136,0.04321,0.000301,0.000716,-0.008179,0.000766,-0.509843,0.043748,-1.435141,-260.241836,1.484499,72.752056
6.397,-0.020909,6.5e-05,0.042011,0.000204,0.000613,-0.008186,0.000761,-0.509675,0.043248,-1.435141,-260.241836,1.484499,72.752056
6.4169,-0.021358,-0.000292,0.041318,0.000128,0.000534,-0.008191,0.000761,-0.509675,0.043248,-1.435141,-260.241836,1.484499,72.752056
6.4365,-0.020828,-0.000298,0.041308,6.7e-05,0.000473,-0.008194,-0.000281,-0.509828,0.041004,-1.50047,-260.240263,1.518056,72.754152
6.4568,-0.02104,-0.000668,0.041851,0.000346,0.00046,-0.00821,-7.2e-05,-0.509839,0.041091,-1.50047,-260.240263,1.518056,72.754152
6.4768,-0.020691,-0.00011,0.041949,0.000561,0.000448,-0.00822,0.000299,-0.510207,0.041608,-1.555903,-260.23858,1.558473,72.756186
6.497,-0.020787,0.000126,0.041143,0.000451,0.000412,-0.008215,0.000663,-0.509708,0.041907,-1.555903,-260.23858,1.558473,72.756186
6.5168,-0.02121,1.4e-05,0.040819,0.000366,0.000384,-0.008211,0.000663,-0.509708,0.041907,-1.555903,-260.23858,1.558473,72.756186
6.5369,-0.021163,-0.000285,0.040897,0.000301,0.000362,-0.008209,-0.000385,-0.509547,0.040568,-1.480796,-260.237233,1.483366,72.757793
6.5567,-0.020518,-0.000531,0.041223,0.000624,0.0003,-0.008226,-0.000353,-0.509673,0.040674,-1.480796,-260.237233,1.483366,72.757793
6.5768,-0.020849,-0.000106,0.041796,0.000876,0.000251,-0.008235,0.000509,-0.510086,0.040969,-1.506168,-260.23542,1.514859,72.759888
6.5971,-0.020648,-0.000124,0.0416,0.000766,0.000246,-0.008226,0.000466,-0.509698,0.04171,-1.506168,-260.23542,1.514859,72.759888
6.6165,-0.020546,-0.000193,0.040754,0.000682,0.000242,-0.00822,0.000466,-0.509698,0.04171,-1.506168,-260.23542,1.514859,72.759888
6.6366,-0.02058,-0.000387,0.039116,0.000617,0.000239,-0.008216,0.000252,-0.509762,0.040523,-1.431306,-260.234126,1.439998,72.761313
6.6564,-0.02061,0.000121,0.040478,0.000789,0.00028,-0.008215,-0.000107,-0.509856,0.039925,-1.431306,-260.234126,1.439998,72.761313
6.6763,-0.020314,-0.000189,0.038372,0.000922,0.000312,-0.008213,4.8e-05,-0.509453,0.040218,-1.442344,-260.232208,1.453898,72.76342
6.697,-0.020121,3e-05,0.041537,0.001225,0.000296,-0.00822,-0.000677,-0.509781,0.038522,-1.442344,-260.232208,1.453898,72.76342
6.7167,-0.019716,0.000167,0.039868,0.001464,0.000283,-0.008224,-0.000677,-0.509781,0.038522,-1.442344,-260.232208,1.453898,72.76342
6.7369,-0.020057,0.000189,0.040216,0.001654,0.000272,-0.008224,0.000645,-0.509415,0.039562,-1.377273,-260.230497,1.399436,72.765349
6.7568,-0.020067,-3e-05,0.040115,0.00134,0.000155,-0.008209,0.000568,-0.509407,0.039795,-1.377273,-260.230497,1.399436,72.765349
6.7766,-0.019949,-0.00025,0.039381,0.0011,6.4e-05,-0.008199,0.000409,-0.509614,0.039968,-1.302184,-260.229394,1.324347,72.766566
6.7967,-0.020029,-0.000208,0.039599,0.001072,0.000146,-0.008181,0.000156,-0.509833,0.039427,-1.302184,-260.229394,1.324347,72.766566
6.8169,-0.019644,-0.00013,0.040383,0.00105,0.000208,-0.008169,0.000156,-0.509833,0.039427,-1.302184,-260.229394,1.324347,72.766566
6.8371,-0.01955,-9e-05,0.038937,0.001031,0.000254,-0.008161,0.000989,-0.50971,0.040058,-1.351779,-260.227479,1.35715,72.768528
6.8567,-0.019554,0.00032,0.038743,0.00081,0.000261,-0.008148,0.00072,-0.509707,0.039573,-1.351779,-260.227479,1.35715,72.768528
6.8766,-0.019233,-0.000119,0.039368,0.000638,0.000267,-0.00814,0.000232,-0.509288,0.038484,-1.356138,-260.225555,1.37643,72.77065
6.8964,-0.019277,8e-06,0.038644,0.000481,0.000265,-0.008139,0.000787,-0.509685,0.039276,-1.356138,-260.225555,1.37643,72.77065
6.9168,-0.019486,-0.000286,0.038207,0.000359,0.000263,-0.00814,0.000787,-0.509685,0.039276,-1.356138,-260.225555,1.37643,72.77065
6.937,-0.018892,-8e-05,0.039381,0.000262,0.000261,-0.008143,1.7e-05,-0.509904,0.037925,-1.431163,-260.22398,1.449631,72.772401
6.9566,-0.01883,-9.2e-05,0.038145,0.000287,0.000299,-0.008147,0.0005,-0.509813,0.03849,-1.431163,-260.22398,1.449631,72.772401
6.9763,-0.018927,-0.000206,0.038929,0.000304,0.000328,-0.008152,0.000627,-0.509714,0.037932,-1.50626,-260.222426,1.520699,72.774126
6.997,-0.019035,0.000344,0.037243,0.000179,0.000364,-0.008143,0.000896,-0.50981,0.03883,-1.50626,-260.222426,1.520699,72.774126
7.0167,-0.019344,0.000103,0.037876,8.2e-05,0.000391,-0.008139,0.000896,-0.50981,0.03883,-1.50626,-260.222426,1.520699,72.774126
7.0366,-0.018615,-3.6e-05,0.037463,5e-06,0.000412,-0.008138,-2e-05,-0.509517,0.037535,-1.505569,-260.220564,1.513613,72.77625
7.0574,-0.018655,-2.6e-05,0.037342,0.000192,0.000309,-0.008167,0.000188,-0.509581,0.037467,-1.505569,-260.220564,1.513613,72.77625
7.0762,-0.018069,4.7e-05,0.038252,0.000336,0.00023,-0.008186,0.000384,-0.509659,0.037112,-1.569669,-260.218932,1.569842,72.778177
7.0967,-0.018317,-4e-06,0.038152,6.4e-05,0.000221,-0.008166,0.001356,-0.509585,0.038157,-1.569669,-260.218932,1.569842,72.778177
7.1169,-0.018396,0.000208,0.038434,-0.000147,0.000214,-0.008153,0.001356,-0.509585,0.038157,-1.569669,-260.218932,1.569842,72.778177
7.1367,-0.018146,-1.7e-05,0.036691,-0.000311,0.000208,-0.008147,0.001212,-0.509407,0.038138,-1.500421,-260.217277,1.506592,72.779991
7.1565,-0.017979,-0.000168,0.036737,-0.000318,0.00016,-0.00816,0.000945,-0.509516,0.037507,-1.500421,-260.217277,1.506592,72.779991
7.1766,-0.018054,-0.000142,0.035717,-0.000325,0.000123,-0.008169,0.000752,-0.50982,0.036586,-1.575138,-260.216168,1.581309,72.781196
7.1966,-0.017867,0.000161,0.036685,-7e-05,0.000184,-0.008174,0.000212,-0.509817,0.035788,-1.575138,-260.216168,1.581309,72.781196
7.2168,-0.017955,-0.000387,0.038163,0.000124,0.00023,-0.008176,0.000212,-0.509817,0.035788,-1.575138,-260.216168,1.581309,72.781196
7.2364,-0.017907,0.000331,0.037057,0.000274,0.000264,-0.008177,0.001491,-0.510012,0.037856,-1.63748,-260.214415,1.63429,72.783037
7.2565,-0.018079,0.000249,0.035778,3e-05,0.000296,-0.008155,0.001285,-0.50973,0.037496,-1.63748,-260.214415,1.63429,72.783037
7.2767,-0.017869,0.000302,0.035864,-0.000158,0.00032,-0.00814,0.000165,-0.50942,0.035614,-1.562471,-260.213221,1.559281,72.784364
7.2965,-0.017794,0.000404,0.035656,-1.7e-05,0.000166,-0.008168,0.000396,-0.509374,0.035835,-1.562471,-260.213221,1.559281,72.784364
7.3165,-0.018034,-0.000174,0.037331,9.2e-05,4.7e-05,-0.008183,0.000396,-0.509374,0.035835,-1.562471,-260.213221,1.559281,72.784364
7.3365,-0.017936,-0.000188,0.036116,0.000176,-4.4e-05,-0.00819,0.000994,-0.509807,0.037009,-1.604711,-260.211461,1.60061,72.786366
7.3565,-0.017711,-4.5e-05,0.035593,0.000109,7.8e-05,-0.008169,0.000782,-0.509825,0.036606,-1.604711,-260.211461,1.60061,72.786366
7.3763,-0.017736,0.000259,0.035478,5.8e-05,0.00017,-0.008155,0.000442,-0.509723,0.035368,-1.535924,-260.209712,1.535302,72.788085
7.3967,-0.017526,-8.3e-05,0.03537,0.000162,7.5e-05,-0.008168,0.000362,-0.509447,0.035457,-1.535924,-260.209712,1.535302,72.788085
7.4167,-0.017439,9.8e-05,0.035624,0.000243,1e-06,-0.008174,0.000362,-0.509447,0.035457,-1.535924,-260.209712,1.535302,72.788085
7.4368,-0.017126,0.0006,0.034874,0.000306,-5.6e-05,-0.008176,0.000727,-0.509572,0.035289,-1.55881,-260.207821,1.559602,72.790109
7.4569,-0.017339,0.000472,0.03498,0.000236,-0.000112,-0.008171,0.000698,-0.509373,0.03508,-1.55881,-260.207821,1.559602,72.790109
7.4765,-0.016903,-5e-06,0.034934,0.000183,-0.000155,-0.008167,0.000507,-0.509217,0.03474,-1.510356,-260.20595,1.508995,72.79194
7.4965,-0.016925,0.000332,0.035363,8.4e-05,-7.3e-05,-0.008153,0.000877,-0.509654,0.034906,-1.510356,-260.20595,1.508995,72.79194
7.5165,-0.016764,2.7e-05,0.034544,8e-06,-1.1e-05,-0.008145,0.000877,-0.509654,0.034906,-1.510356,-260.20595,1.508995,72.79194
7.5371,-0.016583,-7.2e-05,0.034286,-5.2e-05,3.6e-05,-0.008141,0.000858,-0.509675,0.034209,-1.535255,-260.203934,1.532974,72.793834
7.5571,-0.016846,0.000349,0.033838,-9.8e-05,9.6e-05,-0.008137,0.000876,-0.509715,0.034202,-1.535255,-260.203934,1.532974,72.793834
7.5767,-0.016523,0.000165,0.033186,-0.000135,0.000142,-0.008137,0.000407,-0.509358,0.033596,-1.58133,-260.202093,1.581178,72.795702
7.5965,-0.016765,0.000251,0.034564,0.0,8.7e-05,-0.008156,0.000399,-0.509537,0.033211,-1.58133,-260.202093,1.581178,72.795702
7.6167,-0.016762,0.00038,0.034514,0.000104,4.5e-05,-0.008169,0.000399,-0.509537,0.033211,-1.58133,-260.202093,1.581178,72.795702
7.6366,-0.016546,0.000155,0.03355,0.000184,1.3e-05,-0.008176,0.000831,-0.509311,0.034177,-1.598726,-260.200181,1.59718,72.797726
7.6567,-0.016474,7.7e-05,0.035355,0.000132,-4.6e-05,-0.008177,0.000721,-0.509411,0.033883,-1.598726,-260.200181,1.59718,72.797726
7.6764,-0.015784,2.6e-05,0.0334,9.3e-05,-9e-05,-0.008178,0.001558,-0.509603,0.035127,-1.533834,-260.198432,1.534022,72.799484
7.6971,-0.016541,-0.000218,0.031809,-0.000106,0.0,-0.008161,0.001275,-0.509682,0.033543,-1.533834,-260.198432,1.534022,72.799484
7.7167,-0.016746,0.000472,0.034138,-0.000261,7e-05,-0.008153,0.001275,-0.509682,0.033543,-1.533834,-260.198432,1.534022,72.799484
7.737,-0.016046,0.000124,0.032852,-0.000381,0.000123,-0.00815,0.000665,-0.509234,0.033799,-1.552452,-260.196417,1.551776,72.801428
7.7566,-0.015948,8.8e-05,0.032598,-0.000289,2.7e-05,-0.008177,0.000682,-0.509385,0.033372,-1.552452,-260.196417,1.551776,72.801428
7.7766,-0.016084,0.000202,0.032117,-0.00022,-4.7e-05,-0.008195,0.000667,-0.509638,0.032404,-1.627567,-260.194959,1.626891,72.802959
7.7966,-0.016085,0.000173,0.031125,-3.8e-05,-5.7e-05,-0.008212,0.000324,-0.509544,0.032132,-1.627567,-260.194959,1.626891,72.802959
7.8165,-0.015804,0.000574,0.03379,0.000102,-6.6e-05,-0.008223,0.000324,-0.509544,0.032132,-1.627567,-260.194959,1.626891,72.802959
7.8364,-0.015617,0.000486,0.030778,0.00021,-7.4e-05,-0.008229,0.001417,-0.509137,0.033451,-1.614338,-260.192945,1.615155,72.804936
7.8565,-0.015568,-9.9e-05,0.033968,0.000108,-0.000185,-0.008231,0.000857,-0.509194,0.032296,-1.614338,-260.192945,1.615155,72.804936
7.8764,-0.015596,-0.00017,0.031306,3.2e-05,-0.00027,-0.008231,0.001757,-0.509807,0.033762,-1.539311,-260.19133,1.540128,72.806504
7.8971,-0.015718,-2.7e-05,0.03148,0.000107,-7.4e-05,-0.008214,0.000479,-0.509911,0.031493,-1.539311,-260.19133,1.540128,72.806504
7.9166,-0.015358,0.000195,0.031347,0.000163,7.5e-05,-0.008205,0.000479,-0.509911,0.031493,-1.539311,-260.19133,1.540128,72.806504
7.9365,-0.01513,8.2e-05,0.029448,0.000206,0.000189,-0.008201,0.000629,-0.509565,0.031011,-1.564802,-260.189259,1.564122,72.808364
7.9564,-0.015001,0.000522,0.03106,0.000291,0.000152,-0.008214,0.000327,-0.50962,0.030337,-1.564802,-260.189259,1.564122,72.808364
7.9767,-0.014954,0.000326,0.031397,0.000357,0.000124,-0.008223,0.000843,-0.509226,0.030808,-1.528136,-260.187403,1.531232,72.810365
7.9966,-0.015158,0.000325,0.031407,0.000168,5.3e-05,-0.008217,0.001037,-0.509405,0.031332,-1.528136,-260.187403,1.531232,72.810365
8.0164,-0.014979,0.000176,0.030686,2.2e-05,-2e-06,-0.008214,0.001037,-0.509405,0.031332,-1.528136,-260.187403,1.531232,72.810365
8.0363,-0.01503,0.000138,0.029521,-8.9e-05,-4.3e-05,-0.008212,0.000683,-0.509579,0.030351,-1.498046,-260.185494,1.501542,72.81237
8.0563,-0.014558,0.000164,0.03147,3.5e-05,-2.7e-05,-0.008221,0.000415,-0.509603,0.029973,-1.498046,-260.185494,1.501542,72.81237
8.0763,-0.014374,0.000306,0.029644,0.00013,-1.6e-05,-0.008227,0.001489,-0.509584,0.031267,-1.573048,-260.183921,1.576545,72.813917
8.0969,-0.014887,0.000319,0.030336,6.4e-05,-3.8e-05,-0.008223,0.000808,-0.50948,0.029778,-1.573048,-260.183921,1.576545,72.813917
8.1167,-0.014758,0.000516,0.029675,1.4e-05,-5.6e-05,-0.00822,0.000808,-0.50948,0.029778,-1.573048,-260.183921,1.576545,72.813917
8.137,-0.014187,0.00016,0.028403,-2.5e-05,-6.9e-05,-0.008218,0.00038,-0.50926,0.029341,-1.545048,-260.181954,1.544887,72.815871
8.1569,-0.014138,0.000234,0.028506,0.000106,-0.000124,-0.008229,0.000346,-0.509416,0.02891,-1.545048,-260.181954,1.544887,72.815871
8.1762,-0.014279,0.000306,0.029556,0.000208,-0.000166,-0.008235,0.000398,-0.509561,0.028254,-1.575799,-260.179985,1.575939,72.817786
8.1967,-0.013855,0.000386,0.029554,0.000141,-0.000158,-0.008228,0.000758,-0.509479,0.029432,-1.575799,-260.179985,1.575939,72.817786
8.2166,-0.013945,0.000406,0.02971,8.9e-05,-0.000151,-0.008222,0.000758,-0.509479,0.029432,-1.575799,-260.179985,1.575939,72.817786
8.2365,-0.01378,0.000166,0.028243,5e-05,-0.000147,-0.008219,0.001213,-0.509375,0.029387,-1.530874,-260.178044,1.528147,72.819604
8.2566,-0.014044,0.000314,0.030078,-5.1e-05,-0.000133,-0.008211,0.000975,-0.509479,0.028888,-1.530874,-260.178044,1.528147,72.819604
8.2766,-0.013806,7.1e-05,0.028552,-0.000128,-0.000123,-0.008206,0.001295,-0.50946,0.029824,-1.561135,-260.176042,1.560553,72.821492
8.297,-0.013601,0.000247,0.029991,-0.000132,-3.9e-05,-0.008205,0.0008,-0.509699,0.028649,-1.561135,-260.176042,1.560553,72.821492
8.3169,-0.014134,8e-05,0.028486,-0.000136,2.6e-05,-0.008206,0.0008,-0.509699,0.028649,-1.561135,-260.176042,1.560553,72.821492
8.3368,-0.013322,0.000418,0.028306,-0.00014,7.5e-05,-0.008209,0.000387,-0.509718,0.028156,-1.595757,-260.174071,1.597017,72.823368
8.3573,-0.013505,0.000278,0.028798,-0.000104,6.2e-05,-0.008219,0.000679,-0.509581,0.028179,-1.595757,-260.174071,1.597017,72.823368
8.3764,-0.013485,3.3e-05,0.026613,-7.6e-05,5.2e-05,-0.008226,0.001175,-0.509508,0.028536,-1.599179,-260.172095,1.598339,72.825404
8.3964,-0.013919,-0.000175,0.027287,0.000128,0.0001,-0.008238,0.000183,-0.509761,0.026772,-1.599179,-260.172095,1.598339,72.825404
8.4167,-0.013627,-1.2e-05,0.028159,0.000286,0.000136,-0.008246,0.000183,-0.509761,0.026772,-1.599179,-260.172095,1.598339,72.825404
8.4366,-0.013284,0.000306,0.028411,0.000408,0.000164,-0.008253,0.000729,-0.509807,0.027817,-1.586149,-260.170117,1.585831,72.827424
8.4565,-0.013439,0.000262,0.025774,0.000241,0.000179,-0.008243,0.000921,-0.509678,0.028018,-1.586149,-260.170117,1.585831,72.827424
8.4766,-0.012935,-0.000164,0.024589,0.000114,0.00019,-0.008237,-0.000289,-0.509565,0.025578,-1.511204,-260.168661,1.510887,72.828977
8.4967,-0.012962,0.000313,0.025503,0.000492,0.000282,-0.00824,-0.000386,-0.509969,0.024668,-1.511204,-260.168661,1.510887,72.828977
8.5165,-0.013086,6.9e-05,0.026595,0.000788,0.000351,-0.008242,-0.000386,-0.509969,0.024668,-1.511204,-260.168661,1.510887,72.828977
8.5369,-0.013166,0.000324,0.026746,0.001021,0.000405,-0.008243,0.00048,-0.509743,0.026265,-1.547318,-260.166806,1.549029,72.830978
8.557,-0.013186,0.000351,0.02638,0.000872,0.000334,-0.008242,0.000477,-0.50964,0.026424,-1.547318,-260.166806,1.549029,72.830978
8.5767,-0.013194,-3e-05,0.025949,0.000759,0.00028,-0.008241,0.000272,-0.509467,0.026285,-1.472221,-260.166132,1.473933,72.831765
8.5969,-0.013328,0.000416,0.027116,0.000834,0.000301,-0.008237,5.9e-05,-0.509824,0.025974,-1.472221,-260.166132,1.473933,72.831765
8.617,-0.012687,0.000119,0.026917,0.000892,0.000317,-0.008233,5.9e-05,-0.509824,0.025974,-1.472221,-260.166132,1.473933,72.831765
8.6368,-0.012773,0.000415,0.025435,0.000938,0.000329,-0.008229,0.001068,-0.509685,0.026602,-1.412462,-260.164374,1.428939,72.833726
8.6569,-0.012784,0.000163,0.025392,0.000731,0.000262,-0.008218,0.000717,-0.509576,0.026092,-1.412462,-260.164374,1.428939,72.833726
8.6769,-0.012429,0.000258,0.025682,0.000571,0.000211,-0.00821,0.000193,-0.509661,0.025139,-1.373682,-260.162529,1.397369,72.835819
8.697,-0.012142,9e-05,0.026472,0.000479,0.00017,-0.008207,0.000628,-0.509581,0.025622,-1.373682,-260.162529,1.397369,72.835819
8.7169,-0.012307,0.000328,0.024922,0.000407,0.000138,-0.008204,0.000628,-0.509581,0.025622,-1.373682,-260.162529,1.397369,72.835819
8.7367,-0.011555,0.00035,0.025001,0.000351,0.000113,-0.008202,0.000422,-0.509506,0.024631,-1.44883,-260.160891,1.461874,72.8376
8.7565,-0.012235,-6e-05,0.026326,0.000268,6.7e-05,-0.008199,0.000739,-0.509499,0.024748,-1.44883,-260.160891,1.461874,72.8376
8.7763,-0.011837,0.000216,0.025603,0.000204,3.1e-05,-0.008196,0.001199,-0.50988,0.026081,-1.499301,-260.159055,1.50245,72.83952
8.7966,-0.011997,0.000596,0.023538,5e-06,7.6e-05,-0.008176,0.001218,-0.50964,0.025633,-1.499301,-260.159055,1.50245,72.83952
8.8169,-0.012046,0.000292,0.02459,-0.00015,0.00011,-0.008165,0.001218,-0.50964,0.025633,-1.499301,-260.159055,1.50245,72.83952
8.8368,-0.01198,6.1e-05,0.024724,-0.000272,0.000136,-0.008158,0.000502,-0.509552,0.024257,-1.529799,-260.157117,1.530301,72.841482
8.8571,-0.011561,0.00014,0.023549,-0.000153,0.000133,-0.008173,0.000555,-0.509647,0.02441,-1.529799,-260.157117,1.530301,72.841482
8.8764,-0.01182,1.3e-05,0.024401,-6.3e-05,0.00013,-0.008182,0.000444,-0.509716,0.023353,-1.604783,-260.155668,1.605284,72.843012
8.8968,-0.011457,0.000406,0.025751,-1.3e-05,0.000201,-0.008177,0.000607,-0.509824,0.024297,-1.604783,-260.155668,1.605284,72.843012
8.9164,-0.011694,0.000419,0.023396,2.4e-05,0.000255,-0.008174,0.000607,-0.509824,0.024297,-1.604783,-260.155668,1.605284,72.843012
8.9367,-0.01125,0.000385,0.024103,5.1e-05,0.000296,-0.008171,0.000234,-0.509436,0.023059,-1.583792,-260.153746,1.583132,72.845037
8.9573,-0.011097,0.000557,0.0243,8.4e-05,0.000178,-0.008182,0.000568,-0.509448,0.023452,-1.583792,-260.153746,1.583132,72.845037
8.9763,-0.010778,0.000598,0.022839,0.000109,8.8e-05,-0.008187,0.001296,-0.509284,0.024041,-1.559969,-260.1519,1.561183,72.847116
8.9972,-0.011279,0.000445,0.022895,1.8e-05,-3.2e-05,-0.008188,0.000907,-0.50927,0.022932,-1.559969,-260.1519,1.561183,72.847116
9.0164,-0.01094,0.000436,0.022266,-5.2e-05,-0.000123,-0.008187,0.000907,-0.50927,0.022932,-1.559969,-260.1519,1.561183,72.847116
9.0366,-0.01112,0.000534,0.020032,-0.000106,-0.000194,-0.008186,0.000419,-0.509434,0.021926,-1.548543,-260.149946,1.549309,72.849139
9.0566,-0.011048,0.000487,0.02352,0.000216,-0.000231,-0.008202,-0.000118,-0.509405,0.021117,-1.548543,-260.149946,1.549309,72.849139
9.0764,-0.01039,0.000451,0.020822,0.000466,-0.000262,-0.008211,0.000943,-0.509378,0.023274,-1.591111,-260.147984,1.592751,72.850954
9.0967,-0.010724,0.000523,0.02143,0.000508,-0.000267,-0.008214,0.000292,-0.509434,0.02103,-1.591111,-260.147984,1.592751,72.850954
9.1167,-0.010539,0.000111,0.023583,0.000542,-0.000273,-0.008217,0.000292,-0.509434,0.02103,-1.591111,-260.147984,1.592751,72.850954
9.1368,-0.010446,0.000467,0.022014,0.00057,-0.000277,-0.008218,0.001495,-0.509754,0.023356,-1.515978,-260.14659,1.517618,72.852212
9.1568,-0.010535,0.000686,0.023245,0.00029,-0.000176,-0.008189,0.001205,-0.509614,0.022783,-1.515978,-260.14659,1.517618,72.852212
9.1765,-0.010263,0.000222,0.0207,7.4e-05,-9.9e-05,-0.008173,0.001335,-0.509184,0.023011,-1.463667,-260.144693,1.451255,72.853913
9.1967,-0.010669,0.000187,0.02214,0.000177,-6.6e-05,-0.008182,0.000388,-0.509625,0.020896,-1.463667,-260.144693,1.451255,72.853913
9.2166,-0.009964,0.00072,0.023713,0.000255,-4.1e-05,-0.008188,0.000388,-0.509625,0.020896,-1.463667,-260.144693,1.451255,72.853913
9.2367,-0.009981,0.00017,0.023073,0.000314,-2.2e-05,-0.008193,0.002134,-0.509139,0.023463,-1.538538,-260.143201,1.526126,72.855346
9.2567,-0.010238,0.000514,0.022026,-0.000104,-3.9e-05,-0.008164,0.001992,-0.509366,0.023274,-1.538538,-260.143201,1.526126,72.855346
9.2767,-0.009654,0.000364,0.021457,-0.000429,-5.1e-05,-0.008148,0.001005,-0.509363,0.02177,-1.508496,-260.141227,1.507949,72.857303
9.2968,-0.009945,0.000265,0.018957,-0.000498,-4.1e-05,-0.008153,0.001263,-0.509504,0.021472,-1.508496,-260.141227,1.507949,72.857303
9.3167,-0.010284,0.000299,0.020812,-0.000555,-3.2e-05,-0.008159,0.001263,-0.509504,0.021472,-1.508496,-260.141227,1.507949,72.857303
9.3366,-0.01017,0.00028,0.021034,-0.000601,-2.6e-05,-0.008164,0.000329,-0.509592,0.020644,-1.583437,-260.140234,1.58289,72.858276
9.3567,-0.009763,0.000289,0.021319,-0.000362,-1.7e-05,-0.008179,0.000422,-0.509598,0.020785,-1.583437,-260.140234,1.58289,72.858276
9.3768,-0.009566,0.000114,0.021249,-0.000181,-1.1e-05,-0.008187,0.0011,-0.509596,0.021139,-1.658485,-260.138843,1.657938,72.859653
9.3965,-0.009615,0.00041,0.021852,-0.000316,8.2e-05,-0.008164,0.001255,-0.509755,0.02123,-1.658485,-260.138843,1.657938,72.859653
9.4168,-0.009599,0.000571,0.021468,-0.00042,0.000153,-0.00815,0.001255,-0.509755,0.02123,-1.658485,-260.138843,1.657938,72.859653
9.437,-0.009886,0.000735,0.020311,-0.000502,0.000208,-0.008141,0.001342,-0.509312,0.021153,-1.606882,-260.136999,1.607042,72.861489
9.4567,-0.009658,0.000537,0.019645,-0.000483,5.4e-05,-0.008157,0.000988,-0.50925,0.020775,-1.606882,-260.136999,1.607042,72.861489
9.477,-0.009544,0.000439,0.020236,-0.00047,-6.3e-05,-0.008165,0.000346,-0.509359,0.019419,-1.675738,-260.135321,1.667368,72.863312
9.4967,-0.009585,0.000346,0.01977,-0.00038,-9.2e-05,-0.008167,0.000738,-0.509448,0.020154,-1.675738,-260.135321,1.667368,72.863312
9.5171,-0.009384,0.000618,0.018575,-0.000311,-0.000115,-0.008166,0.000738,-0.509448,0.020154,-1.675738,-260.135321,1.667368,72.863312
9.5364,-0.009642,1.8e-05,0.019119,-0.000259,-0.000132,-0.008163,6.9e-05,-0.509297,0.018235,-1.663529,-260.1333,1.665905,72.865283
9.557,-0.009322,0.000444,0.020899,1.9e-05,-0.000132,-0.008169,8.3e-05,-0.509539,0.018557,-1.663529,-260.1333,1.665905,72.865283
9.5763,-0.008986,0.000295,0.019582,0.000235,-0.000132,-0.008169,0.001329,-0.509448,0.020653,-1.621283,-260.13136,1.624034,72.867123
9.5967,-0.009254,0.000532,0.019266,7.1e-05,-8e-05,-0.008145,0.001028,-0.509594,0.019662,-1.621283,-260.13136,1.624034,72.867123
9.6166,-0.009003,0.000344,0.018642,-5.5e-05,-4e-05,-0.00813,0.001028,-0.509594,0.019662,-1.621283,-260.13136,1.624034,72.867123
9.6368,-0.008676,0.000812,0.018491,-0.000151,-9e-06,-0.00812,0.000508,-0.509571,0.018393,-1.546161,-260.129861,1.548912,72.868544
9.6573,-0.008904,0.000974,0.018719,-8.7e-05,-8.4e-05,-0.00813,0.00061,-0.509378,0.018404,-1.546161,-260.129861,1.548912,72.868544
9.6764,-0.008121,0.000821,0.019743,-3.7e-05,-0.000141,-0.008135,0.000638,-0.508936,0.018483,-1.601188,-260.128048,1.601296,72.87035
9.6964,-0.008583,0.000271,0.018435,-0.000347,-0.000234,-0.008116,0.001835,-0.509067,0.019624,-1.601188,-260.128048,1.601296,72.87035
9.7167,-0.008913,0.000539,0.017547,-0.000588,-0.000305,-0.008104,0.001835,-0.509067,0.019624,-1.601188,-260.128048,1.601296,72.87035
9.7369,-0.008388,0.000194,0.018359,-0.000775,-0.00036,-0.008098,3.4e-05,-0.509388,0.017213,-1.578059,-260.126039,1.578484,72.872249
9.7569,-0.00871,6.1e-05,0.019036,-0.000494,-0.000299,-0.008113,0.000421,-0.509526,0.017646,-1.578059,-260.126039,1.578484,72.872249
9.7767,-0.008397,0.000611,0.01818,-0.000282,-0.000254,-0.008123,0.000991,-0.509852,0.018909,-1.653058,-260.124989,1.653483,72.873159
9.7968,-0.008143,0.000566,0.019336,-0.000279,-0.000269,-0.00812,0.000883,-0.509352,0.018235,-1.653058,-260.124989,1.653483,72.873159
9.8166,-0.008444,0.000313,0.019333,-0.000278,-0.000281,-0.008116,0.000883,-0.509352,0.018235,-1.653058,-260.124989,1.653483,72.873159
9.8366,-0.008138,0.000326,0.017341,-0.000278,-0.000291,-0.008112,0.001404,-0.509602,0.019001,-1.624721,-260.122947,1.630525,72.875002
9.8566,-0.008078,7.8e-05,0.01654,-0.000353,-0.000195,-0.008102,0.001118,-0.509601,0.018286,-1.624721,-260.122947,1.630525,72.875002
9.8765,-0.007992,0.000519,0.018131,-0.000411,-0.000123,-0.008098,0.000348,-0.509861,0.016282,-1.623722,-260.120845,1.630303,72.876873
9.8968,-0.007971,0.00012,0.017015,-0.000473,-0.000126,-0.008104,0.001175,-0.509438,0.017957,-1.623722,-260.120845,1.630303,72.876873
9.917,-0.008029,0.000408,0.018378,-0.000521,-0.000128,-0.00811,0.001175,-0.509438,0.017957,-1.623722,-260.120845,1.630303,72.876873
9.9367,-0.007577,0.000502,0.016323,-0.000559,-0.00013,-0.008115,0.001326,-0.509511,0.018047,-1.65167,-260.118858,1.655769,72.878764
9.9564,-0.007749,0.000501,0.016459,-0.000563,-0.00012,-0.008119,0.001089,-0.509479,0.017309,-1.65167,-260.118858,1.655769,72.878764
9.9763,-0.007905,0.000447,0.015302,-0.000567,-0.000112,-0.008122,0.000628,-0.509434,0.016208,-1.680248,-260.116867,1.68609,72.880654
9.9966,-0.008024,0.000306,0.016481,-0.000176,-0.000134,-0.008127,-3.7e-05,-0.509489,0.01537,-1.680248,-260.116867,1.68609,72.880654
10.0167,-0.007842,0.000771,0.017059,0.000127,-0.000152,-0.008127,-3.7e-05,-0.509489,0.01537,-1.680248,-260.116867,1.68609,72.880654
10.0367,-0.007356,0.000306,0.016067,0.000363,-0.000168,-0.008123,0.000834,-0.50916,0.016718,-1.682095,-260.114826,1.687188,72.882606
10.0568,-0.007144,0.000535,0.015638,0.000234,-0.000206,-0.008116,0.000833,-0.509349,0.016417,-1.682095,-260.114826,1.687188,72.882606
10.077,-0.00756,0.000674,0.015149,0.000136,-0.000235,-0.00811,0.000829,-0.509405,0.015553,-1.60708,-260.114159,1.612173,72.88323
10.097,-0.007402,0.000215,0.014082,0.000275,-0.000305,-0.008096,0.000227,-0.509281,0.015182,-1.60708,-260.114159,1.612173,72.88323
10.1173,-0.007225,0.000445,0.017427,0.000384,-0.000358,-0.008081,0.000227,-0.509281,0.015182,-1.60708,-260.114159,1.612173,72.88323
10.1374,-0.007491,0.000557,0.017325,0.000469,-0.000399,-0.008065,0.001668,-0.509486,0.017132,-1.544547,-260.112358,1.541928,72.884868
10.157,-0.007243,0.000403,0.017016,0.000119,-0.000322,-0.008041,0.001539,-0.50944,0.017175,-1.544547,-260.112358,1.541928,72.884868
10.1763,-0.006991,-0.000198,0.014663,-0.000151,-0.000263,-0.008028,0.001448,-0.509534,0.016795,-1.483,-260.110503,1.467616,72.886447
10.1967,-0.007144,0.000819,0.015046,-5.3e-05,1e-05,-0.007986,0.000557,-0.5101,0.014808,-1.483,-260.110503,1.467616,72.886447
10.2164,-0.00723,0.000584,0.01443,1.9e-05,0.000219,-0.007959,0.000557,-0.5101,0.014808,-1.483,-260.110503,1.467616,72.886447
10.2367,-0.007197,0.000215,0.015453,7.1e-05,0.00038,-0.007942,0.000131,-0.509369,0.014231,-1.558562,-260.10927,1.543178,72.887554
10.2568,-0.006763,0.000368,0.015316,0.000176,0.000263,-0.007949,0.000362,-0.509518,0.014717,-1.558562,-260.10927,1.543178,72.887554
10.2767,-0.006638,0.000586,0.015546,0.000257,0.000175,-0.00795,0.00105,-0.50956,0.015066,-1.554892,-260.107493,1.5572,72.889633
10.2966,-0.006958,0.000303,0.014602,2.4e-05,9e-05,-0.007951,0.001271,-0.509369,0.015495,-1.554892,-260.107493,1.5572,72.889633
10.3165,-0.006731,0.000291,0.014817,-0.000155,2.4e-05,-0.007954,0.001271,-0.509369,0.015495,-1.554892,-260.107493,1.5572,72.889633
10.3365,-0.006567,0.000419,0.015962,-0.000294,-2.6e-05,-0.007957,0.000835,-0.509646,0.0145,-1.515859,-260.105704,1.51968,72.891555
10.3566,-0.006094,0.000494,0.014106,-0.000365,1.2e-05,-0.007949,0.00114,-0.509591,0.015066,-1.515859,-260.105704,1.51968,72.891555
10.3763,-0.006534,0.000361,0.015749,-0.000422,4.1e-05,-0.007944,0.001097,-0.509456,0.013938,-1.59084,-260.104406,1.59466,72.89284
10.3964,-0.006463,0.000121,0.014184,-0.00056,6.4e-05,-0.007939,0.001465,-0.509566,0.015594,-1.59084,-260.104406,1.59466,72.89284
10.4166,-0.006366,0.000232,0.013526,-0.000667,8.1e-05,-0.007937,0.001465,-0.509566,0.015594,-1.59084,-260.104406,1.59466,72.89284
10.4365,-0.006327,0.00042,0.014446,-0.000752,9.5e-05,-0.007938,0.000517,-0.50972,0.013237,-1.658188,-260.102724,1.656741,72.89455
10.4567,-0.006138,0.000413,0.01107,-0.000588,0.000111,-0.007905,0.000728,-0.509641,0.013696,-1.658188,-260.102724,1.656741,72.89455
10.4769,-0.006248,0.000449,0.012333,-0.000465,0.000123,-0.007876,-0.000513,-0.509553,0.010851,-1.727727,-260.101057,1.721808,72.896282
10.4972,-0.006143,0.000253,0.014661,-9.9e-05,6.9e-05,-0.007793,-7e-06,-0.509516,0.012196,-1.727727,-260.101057,1.721808,72.896282
10.5166,-0.006173,0.000349,0.014257,0.000184,2.8e-05,-0.007722,-7e-06,-0.509516,0.012196,-1.727727,-260.101057,1.721808,72.896282
10.5368,-0.005944,0.000406,0.01219,0.000403,-4e-06,-0.007661,0.00108,-0.509595,0.013962,-1.669695,-260.099354,1.66479,72.898074
10.5568,-0.006045,0.000687,0.012718,0.000297,1.6e-05,-0.00764,0.000736,-0.509578,0.013176,-1.669695,-260.099354,1.66479,72.898074
10.5768,-0.005971,0.000472,0.013478,0.000217,3e-05,-0.007625,0.00044,-0.509272,0.012635,-1.594344,-260.098713,1.589439,72.898713
10.5971,-0.006079,0.000477,0.013035,0.000115,2e-06,-0.007622,0.000862,-0.509463,0.0134,-1.594344,-260.098713,1.589439,72.898713
10.6168,-0.006039,0.001004,0.011884,3.6e-05,-1.9e-05,-0.007621,0.000862,-0.509463,0.0134,-1.594344,-260.098713,1.589439,72.898713
10.6364,-0.005863,0.000165,0.01225,-2.4e-05,-3.5e-05,-0.00762,3e-05,-0.508959,0.011609,-1.523894,-260.097113,1.524501,72.900334
10.6565,-0.006003,0.000432,0.012816,0.000179,-0.000128,-0.007556,0.000177,-0.509304,0.011841,-1.523894,-260.097113,1.524501,72.900334
10.6765,-0.005556,0.000292,0.012168,0.000335,-0.000198,-0.007501,0.000533,-0.509527,0.012594,-1.57588,-260.095392,1.575958,72.902029
10.6966,-0.00591,0.000496,0.010473,0.000286,-0.000101,-0.007454,0.000639,-0.509658,0.012194,-1.57588,-260.095392,1.575958,72.902029
10.7166,-0.005896,0.00064,0.01038,0.000247,-2.7e-05,-0.007419,0.000639,-0.509658,0.012194,-1.57588,-260.095392,1.575958,72.902029
10.7367,-0.005161,0.000377,0.0115,0.000217,3e-05,-0.007393,-0.000592,-0.509339,0.010122,-1.500931,-260.093817,1.501009,72.903474
10.7565,-0.005295,9.6e-05,0.012926,0.00046,-2.9e-05,-0.007281,-6.1e-05,-0.509442,0.010656,-1.500931,-260.093817,1.501009,72.903474
10.7766,-0.005492,0.000173,0.01119,0.000648,-7.4e-05,-0.00719,0.001304,-0.50986,0.012695,-1.522415,-260.09205,1.523045,72.905264
10.7968,-0.005231,0.000522,0.011131,0.00065,4.6e-05,-0.007151,0.000311,-0.5098,0.011312,-1.522415,-260.09205,1.523045,72.905264
10.817,-0.005173,0.000159,0.012822,0.000652,0.000138,-0.007122,0.000311,-0.5098,0.011312,-1.522415,-260.09205,1.523045,72.905264
10.8367,-0.004989,0.000551,0.010841,0.000654,0.000208,-0.007101,0.001382,-0.509801,0.012601,-1.447501,-260.090728,1.448131,72.906544
10.8575,-0.004939,0.000703,0.012559,0.000403,0.000224,-0.00711,0.001042,-0.509646,0.01186,-1.447501,-260.090728,1.448131,72.906544
10.8767,-0.004715,8.4e-05,0.010407,0.00021,0.000237,-0.007119,0.001487,-0.50925,0.012338,-1.413771,-260.089096,1.42797,72.908336
10.8965,-0.00483,0.000576,0.011,0.000188,0.000307,-0.007031,0.000674,-0.50983,0.01057,-1.413771,-260.089096,1.42797,72.908336
10.9173,-0.005061,4.4e-05,0.010738,0.000169,0.000362,-0.006965,0.000674,-0.50983,0.01057,-1.413771,-260.089096,1.42797,72.908336
10.9372,-0.004833,0.000325,0.00951,0.000151,0.000405,-0.006916,0.000425,-0.50992,0.010524,-1.4888,-260.087914,1.502999,72.909654
10.9567,-0.004673,0.000359,0.012374,0.00029,0.000419,-0.006839,0.000262,-0.509812,0.010093,-1.4888,-260.087914,1.502999,72.909654
10.9763,-0.004597,0.000515,0.009936,0.000395,0.000432,-0.00678,0.001642,-0.509589,0.012164,-1.531259,-260.086456,1.538174,72.911421
10.9969,-0.00464,0.000354,0.010797,0.000359,0.000317,-0.006742,0.000574,-0.509471,0.010122,-1.531259,-260.086456,1.538174,72.911421
11.0173,-0.004409,0.000461,0.010138,0.000331,0.00023,-0.00671,0.000574,-0.509471,0.010122,-1.531259,-260.086456,1.538174,72.911421
11.0367,-0.004556,0.000296,0.008245,0.00031,0.000164,-0.006684,0.000775,-0.509496,0.009885,-1.464838,-260.085128,1.48473,72.913056
11.0568,-0.004233,0.0004,0.009827,0.000395,0.000141,-0.006559,0.000319,-0.509572,0.009189,-1.464838,-260.085128,1.48473,72.913056
11.0763,-0.004023,0.000458,0.010343,0.000458,0.000124,-0.006463,0.000788,-0.50957,0.009617,-1.491894,-260.083577,1.497975,72.914735
11.0972,-0.004346,0.000647,0.009608,0.0002,0.000128,-0.006491,0.001213,-0.509519,0.010272,-1.491894,-260.083577,1.497975,72.914735
11.1172,-0.004228,0.000389,0.009039,2e-06,0.000131,-0.006516,0.001213,-0.509519,0.010272,-1.491894,-260.083577,1.497975,72.914735
11.1367,-0.003742,0.000518,0.010534,-0.000152,0.000133,-0.006536,0.0004,-0.509585,0.008782,-1.451485,-260.082115,1.458681,72.916291
11.1567,-0.003923,0.00049,0.007996,-0.00017,0.000124,-0.006477,0.000905,-0.509531,0.009468,-1.451485,-260.082115,1.458681,72.916291
11.1767,-0.003893,0.000307,0.009257,-0.000187,0.000117,-0.006432,0.000157,-0.509492,0.007899,-1.526404,-260.081394,1.533599,72.917062
11.1971,-0.004348,0.000781,0.009851,-0.000155,0.000155,-0.006352,0.000768,-0.509655,0.009129,-1.526404,-260.081394,1.533599,72.917062
11.2169,-0.003606,0.000562,0.007359,-0.000133,0.000184,-0.006292,0.000768,-0.509655,0.009129,-1.526404,-260.081394,1.533599,72.917062
11.237,-0.003713,0.000418,0.00904,-0.000118,0.000207,-0.006246,0.000143,-0.50942,0.00715,-1.601311,-260.080207,1.608506,72.918322
11.257,-0.004101,0.000658,0.008635,2.5e-05,0.000138,-0.006048,0.000447,-0.509477,0.00789,-1.601311,-260.080207,1.608506,72.918322
11.2769,-0.003738,0.000402,0.008897,0.00013,8.8e-05,-0.005898,0.000299,-0.509317,0.008436,-1.603563,-260.078762,1.600195,72.919932
11.2969,-0.003598,0.000549,0.008894,8.5e-05,9.8e-05,-0.00591,0.000757,-0.509555,0.008848,-1.603563,-260.078762,1.600195,72.919932
11.3168,-0.00359,0.000688,0.00862,5e-05,0.000105,-0.005919,0.000757,-0.509555,0.008848,-1.603563,-260.078762,1.600195,72.919932
11.3369,-0.003732,0.000634,0.006671,2.3e-05,0.000111,-0.005925,0.000811,-0.509289,0.008407,-1.533699,-260.077546,1.535467,72.921209
11.357,-0.003432,0.000616,0.006436,0.000169,3e-06,-0.005776,0.000344,-0.509316,0.007672,-1.533699,-260.077546,1.535467,72.921209
11.377,-0.002879,0.000495,0.008471,0.000278,-7.7e-05,-0.005661,-0.000149,-0.50937,0.006253,-1.564305,-260.076182,1.564691,72.922659
11.397,-0.003201,0.000453,0.008121,4.1e-05,-3.9e-05,-0.005634,0.001293,-0.509476,0.008255,-1.564305,-260.076182,1.564691,72.922659
11.4171,-0.003419,0.000724,0.007955,-0.000142,-9e-06,-0.005614,0.001293,-0.509476,0.008255,-1.564305,-260.076182,1.564691,72.922659
11.4365,-0.003129,0.000558,0.007494,-0.000284,1.3e-05,-0.0056,0.000648,-0.509262,0.007756,-1.492199,-260.074992,1.489675,72.923798
11.4566,-0.003129,0.000287,0.008442,-0.000185,-5.1e-05,-0.005515,0.000668,-0.509331,0.007625,-1.492199,-260.074992,1.489675,72.923798
11.4763,-0.003274,0.00035,0.006862,-0.000112,-9.9e-05,-0.00545,0.001177,-0.509695,0.008366,-1.567243,-260.074409,1.564719,72.924385
11.4968,-0.003248,0.000332,0.009007,8.4e-05,-3e-05,-0.005281,0.000307,-0.509642,0.006987,-1.567243,-260.074409,1.564719,72.924385
11.5165,-0.003118,0.000311,0.008805,0.00023,2.4e-05,-0.005157,0.000307,-0.509642,0.006987,-1.567243,-260.074409,1.564719,72.924385
11.5365,-0.002911,0.000671,0.008321,0.00034,6.6e-05,-0.005066,0.001368,-0.509673,0.008588,-1.603491,-260.073101,1.605494,72.925617
11.5567,-0.002877,0.000609,0.006771,5.7e-05,9.7e-05,-0.005202,0.001353,-0.509525,0.008454,-1.603491,-260.073101,1.605494,72.925617
11.5763,-0.002727,0.000285,0.007131,-0.000158,0.00012,-0.005306,0.000578,-0.509378,0.006687,-1.528493,-260.07247,1.530496,72.926276
11.5965,-0.002522,0.000466,0.006727,-0.000158,0.000169,-0.005177,0.000881,-0.509674,0.007089,-1.528493,-260.07247,1.530496,72.926276
11.617,-0.002893,0.000783,0.006807,-0.000163,0.000208,-0.005083,0.000881,-0.509674,0.007089,-1.528493,-260.07247,1.530496,72.926276
11.637,-0.002673,0.000727,0.007895,-0.000169,0.000239,-0.005014,0.000575,-0.509202,0.006636,-1.603493,-260.071507,1.605496,72.927313
11.6571,-0.002615,0.0004,0.006617,-0.000178,9.7e-05,-0.004984,0.000895,-0.509224,0.007134,-1.603493,-260.071507,1.605496,72.927313
11.6769,-0.002788,0.000382,0.007011,-0.000185,-1e-05,-0.004959,0.000754,-0.509582,0.006459,-1.630752,-260.070396,1.622096,72.928611
11.697,-0.002759,0.000499,0.005722,-0.000156,4.3e-05,-0.004897,0.000784,-0.509603,0.006949,-1.630752,-260.070396,1.622096,72.928611
11.7166,-0.002855,0.000476,0.004993,-0.000135,8.4e-05,-0.004851,0.000784,-0.509603,0.006949,-1.630752,-260.070396,1.622096,72.928611
11.7367,-0.002691,0.000613,0.00583,-0.000121,0.000116,-0.004818,-0.000317,-0.509518,0.004786,-1.631699,-260.06918,1.632102,72.929819
11.757,-0.00235,0.000375,0.007973,0.000238,5.5e-05,-0.004424,-7.5e-05,-0.509462,0.005185,-1.631699,-260.06918,1.632102,72.929819
11.7771,-0.002377,0.000265,0.005258,0.000509,1.1e-05,-0.004145,0.001712,-0.509605,0.00782,-1.613639,-260.068062,1.610401,72.931028
11.7969,-0.00232,0.000184,0.006324,0.000518,9.3e-05,-0.003999,0.000434,-0.509716,0.005485,-1.613639,-260.068062,1.610401,72.931028
11.8172,-0.002017,0.000594,0.005089,0.000523,0.000158,-0.003896,0.000434,-0.509716,0.005485,-1.613639,-260.068062,1.610401,72.931028
11.8365,-0.002448,0.000649,0.007379,0.000526,0.000208,-0.003823,0.000578,-0.509399,0.005061,-1.538592,-260.067902,1.535354,72.931189
11.8565,-0.002421,0.000358,0.006502,0.000367,0.000135,-0.003877,0.000871,-0.509375,0.005978,-1.538592,-260.067902,1.535354,72.931189
11.8766,-0.002141,0.000704,0.007747,0.000247,7.8e-05,-0.003915,0.000897,-0.509629,0.006463,-1.463642,-260.067628,1.460404,72.931514
11.8964,-0.002282,0.000705,0.005069,-0.000116,5.6e-05,-0.0042,0.001737,-0.509309,0.007641,-1.463642,-260.067628,1.460404,72.931514
11.9165,-0.002333,0.00085,0.007408,-0.000394,3.5e-05,-0.004416,0.001737,-0.509309,0.007641,-1.463642,-260.067628,1.460404,72.931514
11.9368,-0.002596,0.000613,0.005907,-0.000607,1.7e-05,-0.004578,0.001455,-0.509133,0.007245,-1.464352,-260.066701,1.471029,72.932502
11.9567,-0.002317,0.000382,0.005633,-0.000551,-6e-05,-0.00456,0.001028,-0.509234,0.006674,-1.464352,-260.066701,1.471029,72.932502
11.9765,-0.002417,0.000583,0.004686,-0.000512,-0.000119,-0.004546,0.000556,-0.50961,0.005633,-1.389497,-260.066701,1.396174,72.932502
11.9963,-0.002187,0.000494,0.005648,-9.5e-05,-0.000132,-0.004098,2.3e-05,-0.509429,0.004768,-1.389497,-260.066701,1.396174,72.932502
12.0172,-0.002293,0.000837,0.006436,0.000219,-0.000141,-0.003784,2.3e-05,-0.509429,0.004768,-1.389497,-260.066701,1.396174,72.932502
12.0367,-0.002257,0.000437,0.006975,0.000456,-0.000146,-0.003563,0.00099,-0.509152,0.006436,-1.314507,-260.066701,1.321184,72.932502
12.0565,-0.00211,0.000672,0.006892,0.000218,-0.000141,-0.003784,0.001118,-0.509317,0.006658,-1.314507,-260.066701,1.321184,72.932502
12.0764,-0.001994,0.000337,0.00498,3.9e-05,-0.00014,-0.003946,0.001418,-0.50932,0.006787,-1.376747,-260.065824,1.349594,72.933273
12.0967,-0.002561,0.000502,0.005432,9.4e-05,-5.3e-05,-0.003747,0.000624,-0.509627,0.005136,-1.376747,-260.065824,1.349594,72.933273
12.1167,-0.001902,0.000572,0.007172,0.000132,1.5e-05,-0.003606,0.000624,-0.509627,0.005136,-1.376747,-260.065824,1.349594,72.933273
12.1367,-0.002185,0.000395,0.006798,0.000158,6.9e-05,-0.003507,0.00176,-0.509417,0.007122,-1.451632,-260.065513,1.424479,72.93355
12.157,-0.002092,0.000575,0.005351,-0.000145,0.000102,-0.003778,0.001567,-0.509489,0.006985,-1.451632,-260.065513,1.424479,72.93355
12.1765,-0.00214,0.000212,0.00501,-0.000376,0.000125,-0.003981,0.000642,-0.509416,0.005251,-1.494603,-260.064775,1.49935,72.934337
12.1965,-0.002308,0.000658,0.004858,-0.000155,0.000192,-0.003744,0.000436,-0.509748,0.005027,-1.494603,-260.064775,1.49935,72.934337
12.2166,-0.002097,0.001032,0.005047,9e-06,0.000245,-0.003578,0.000436,-0.509748,0.005027,-1.494603,-260.064775,1.49935,72.934337
12.2364,-0.00196,0.000755,0.00479,0.00013,0.000288,-0.003461,0.000477,-0.50896,0.005016,-1.56965,-260.0646,1.574397,72.934531
12.2565,-0.002197,0.000581,0.005891,0.00021,7.2e-05,-0.003374,0.00048,-0.509074,0.00492,-1.56965,-260.0646,1.574397,72.934531
12.2768,-0.001894,0.000782,0.004593,0.000271,-9.3e-05,-0.003306,0.000811,-0.509402,0.005795,-1.499653,-260.063958,1.516687,72.935374
12.2968,-0.001857,0.000846,0.005089,0.00032,-0.000166,-0.00319,0.000482,-0.509229,0.004698,-1.499653,-260.063958,1.516687,72.935374
12.3166,-0.002162,0.000953,0.004862,0.000357,-0.000221,-0.003104,0.000482,-0.509229,0.004698,-1.499653,-260.063958,1.516687,72.935374
12.3363,-0.001737,0.000713,0.004939,0.000385,-0.000263,-0.00304,0.000327,-0.509044,0.004745,-1.443355,-260.063238,1.441686,72.936032
12.3565,-0.001862,0.000694,0.003623,0.000394,-0.000324,-0.003023,0.000513,-0.509141,0.00481,-1.443355,-260.063238,1.441686,72.936032
12.3765,-0.001503,0.000605,0.004662,0.000401,-0.000372,-0.003009,-5e-06,-0.509309,0.003546,-1.391167,-260.062554,1.366689,72.936553
12.3963,-0.001957,0.000522,0.00414,0.000313,-0.00031,-0.002916,0.000796,-0.509383,0.004558,-1.391167,-260.062554,1.366689,72.936553
12.4165,-0.002085,0.000243,0.004726,0.000244,-0.000263,-0.002851,0.000796,-0.509383,0.004558,-1.391167,-260.062554,1.366689,72.936553
12.4366,-0.001588,0.000436,0.005511,0.00019,-0.000227,-0.002804,0.000341,-0.509766,0.004608,-1.391344,-260.06171,1.303981,72.937124
12.4566,-0.001886,8.1e-05,0.005038,0.000167,-8.4e-05,-0.002865,0.000702,-0.509683,0.004962,-1.391344,-260.06171,1.303981,72.937124
12.4765,-0.001525,0.000488,0.005347,0.000149,2.4e-05,-0.002912,0.000689,-0.509917,0.004979,-1.466343,-260.061199,1.37898,72.937517
12.4963,-0.001419,0.000485,0.004692,-1.6e-05,7e-05,-0.003024,0.001156,-0.509542,0.005311,-1.466343,-260.061199,1.37898,72.937517
12.5166,-0.00195,0.000312,0.0047,-0.000141,0.000103,-0.003107,0.001156,-0.509542,0.005311,-1.466343,-260.061199,1.37898,72.937517
12.5366,-0.001552,0.000341,0.004123,-0.000238,0.000129,-0.00317,0.000453,-0.509682,0.0046,-1.485915,-260.060621,1.453975,72.938111
12.5566,-0.001536,0.000458,0.005455,-7.3e-05,0.00017,-0.002995,0.000493,-0.509671,0.004395,-1.485915,-260.060621,1.453975,72.938111
12.577,-0.001336,0.000765,0.004838,4.9e-05,0.000204,-0.002874,0.001246,-0.509534,0.005435,-1.560912,-260.060476,1.528971,72.938276
12.5969,-0.001533,0.000679,0.004737,-8.1e-05,0.000104,-0.002918,0.001142,-0.509257,0.004892,-1.560912,-260.060476,1.528971,72.938276
12.6169,-0.001832,0.000674,0.004156,-0.000181,2.8e-05,-0.002949,0.001142,-0.509257,0.004892,-1.560912,-260.060476,1.528971,72.938276
12.6366,-0.001294,0.000469,0.006043,-0.000257,-3.1e-05,-0.002971,0.000289,-0.509313,0.004037,-1.539251,-260.059864,1.545811,72.939049
12.657,-0.001612,0.000571,0.004207,-0.000241,-3.6e-05,-0.002975,0.0009,-0.509397,0.004841,-1.539251,-260.059864,1.545811,72.939049
12.6763,-0.001244,0.000646,0.00502,-0.00023,-4e-05,-0.002979,0.000532,-0.509424,0.004169,-1.614093,-260.059567,1.620652,72.939336
12.6966,-0.001394,0.000614,0.004521,-0.000331,-4.4e-05,-0.002999,0.001246,-0.509355,0.004942,-1.614093,-260.059567,1.620652,72.939336
12.7168,-0.001634,0.000768,0.005946,-0.000408,-4.8e-05,-0.003013,0.001246,-0.509355,0.004942,-1.614093,-260.059567,1.620652,72.939336
12.7366,-0.001257,0.00061,0.005626,-0.000468,-5.1e-05,-0.003024,0.001391,-0.509225,0.005844,-1.689095,-260.058954,1.695655,72.939922
12.7566,-0.001602,0.000447,0.004608,-0.000598,-6.2e-05,-0.003206,0.00148,-0.509289,0.005743,-1.689095,-260.058954,1.695655,72.939922
12.7765,-0.001647,0.000589,0.003972,-0.000695,-7.3e-05,-0.00334,0.000748,-0.509547,0.004608,-1.614098,-260.058954,1.620658,72.939922
12.7967,-0.001742,0.000379,0.005392,-0.000391,-8.5e-05,-0.003018,0.000411,-0.509419,0.004028,-1.614098,-260.058954,1.620658,72.939922
12.817,-0.001429,0.000662,0.002499,-0.000163,-9.3e-05,-0.002793,0.000411,-0.509419,0.004028,-1.614098,-260.058954,1.620658,72.939922
12.8369,-0.001307,0.000422,0.005204,8e-06,-9.8e-05,-0.002634,-0.000155,-0.509337,0.002499,-1.53904,-260.058954,1.5456,72.939922
12.8569,-0.001489,0.000514,0.003866,0.000134,-9.8e-05,-0.002375,0.000443,-0.50943,0.003576,-1.53904,-260.058954,1.5456,72.939922
12.8765,-0.00163,0.000747,0.004426,0.000228,-9.6e-05,-0.002193,0.000483,-0.509486,0.003784,-1.566226,-260.058284,1.56563,72.940516
12.8968,-0.001319,0.000268,0.005271,0.000221,-0.000142,-0.002296,0.000615,-0.50927,0.004364,-1.566226,-260.058284,1.56563,72.940516
12.917,-0.001493,0.000789,0.004234,0.000219,-0.000178,-0.002369,0.000615,-0.50927,0.004364,-1.566226,-260.058284,1.56563,72.940516
12.9365,-0.001109,0.00065,0.003115,0.00022,-0.000207,-0.00242,0.000668,-0.509208,0.004196,-1.491231,-260.058041,1.490635,72.940727
12.957,-0.00136,0.000498,0.003696,0.000243,-0.000235,-0.002278,0.000592,-0.509265,0.003754,-1.491231,-260.058041,1.490635,72.940727
12.9763,-0.001354,0.000448,0.004524,0.000259,-0.000257,-0.002176,0.00053,-0.509504,0.00363,-1.440911,-260.05747,1.41563,72.94116
12.9967,-0.001194,0.00043,0.003013,0.000145,-0.000151,-0.002279,0.000915,-0.509543,0.004438,-1.440911,-260.05747,1.41563,72.94116
13.0164,-0.001064,0.000545,0.002523,5.9e-05,-7.1e-05,-0.002353,0.000915,-0.509543,0.004438,-1.440911,-260.05747,1.41563,72.94116
13.0363,-0.001146,-1.6e-05,0.002617,-6e-06,-1.1e-05,-0.002409,0.000232,-0.509463,0.002443,-1.408838,-260.056902,1.340656,72.94155
13.0565,-0.001197,0.00063,0.004541,0.000223,5.5e-05,-0.001803,0.000215,-0.509689,0.002504,-1.408838,-260.056902,1.340656,72.94155
13.0767,-0.001154,0.000293,0.00415,0.000392,0.000111,-0.001385,0.00112,-0.509364,0.004521,-1.483858,-260.056745,1.415676,72.941705
13.0965,-0.001596,0.00066,0.003746,0.000219,0.000186,-0.001634,0.000977,-0.509673,0.004182,-1.483858,-260.056745,1.415676,72.941705
13.1166,-0.000637,0.000671,0.004,9e-05,0.000241,-0.001816,0.000977,-0.509673,0.004182,-1.483858,-260.056745,1.415676,72.941705
13.1366,-0.000958,0.000636,0.005235,-7e-06,0.000283,-0.00195,0.001404,-0.509325,0.003998,-1.408855,-260.056736,1.340673,72.941717
13.1567,-0.001173,0.000588,0.003876,-0.000241,0.000215,-0.002128,0.001529,-0.509338,0.0045,-1.408855,-260.056736,1.340673,72.941717
13.1766,-0.001246,0.000649,0.004927,-0.00042,0.000162,-0.002258,0.000805,-0.509406,0.00386,-1.483853,-260.056642,1.415671,72.94187
13.1967,-0.001312,0.000515,0.004845,-0.000479,0.000115,-0.00244,0.001225,-0.509351,0.00483,-1.483853,-260.056642,1.415671,72.94187
13.2168,-0.00118,0.000291,0.003578,-0.000524,7.9e-05,-0.002573,0.001225,-0.509351,0.00483,-1.483853,-260.056642,1.415671,72.94187
13.2366,-0.001067,0.000612,0.003455,-0.000558,4.9e-05,-0.002669,0.000645,-0.509706,0.003578,-1.408851,-260.056642,1.340669,72.94187
13.2568,-0.000705,0.000217,0.003902,0.0,0.0,0.0,0.000666,-0.509575,0.003528,-1.408851,-260.056642,1.340669,72.94187
