mach0312/omni-docking-bench/src/icros_test_setup/results/MPPI_sample/timeseries/trial_121.csv
t,x,y,yaw,vx,vy,wz,bl_x,bl_y,bl_yaw,front_steering_joint,front_wheel_joint,rear_steering_joint,rear_wheel_joint
0.0,0.008796,-0.021964,-0.051861,-0.001938,-0.000507,-0.001173,-0.017098,-0.531429,-0.051535,0.563093,-261.622616,-0.107932,69.519608
0.0004,0.008541,-0.021926,-0.053209,-0.000994,-0.00026,-0.000602,-0.016694,-0.531142,-0.051022,0.563093,-261.625081,-0.107932,69.517511
0.0006,0.008484,-0.021801,-0.052466,0.0,0.0,0.0,-0.016694,-0.531142,-0.051022,0.563093,-261.626809,-0.107932,69.516042
0.0009,0.008599,-0.021767,-0.051055,0.0,0.0,0.0,-0.016694,-0.531142,-0.051022,0.563093,-261.627279,-0.107932,69.515641
0.0012,0.008845,-0.021599,-0.052299,0.0,0.0,0.0,-0.017655,-0.530886,-0.052287,0.563093,-261.627279,-0.107932,69.515641
0.0014,0.008465,-0.021815,-0.052858,0.0,0.0,0.0,-0.017824,-0.531153,-0.052651,0.563093,-261.627279,-0.107932,69.515641
0.0016,0.008842,-0.021638,-0.054026,0.0,0.0,0.0,-0.017824,-0.531153,-0.052651,0.563093,-261.627279,-0.107932,69.515641
0.0018,0.008593,-0.021953,-0.052182,0.0,0.0,0.0,-0.017824,-0.531153,-0.052651,0.563093,-261.627279,-0.107932,69.515641
0.0166,0.008339,-0.02194,-0.052604,0.0,0.0,0.0,-0.018008,-0.531259,-0.052182,0.563093,-261.627279,-0.107932,69.515641
0.0367,0.008857,-0.02187,-0.051604,0.0,0.0,0.0,-0.018198,-0.531249,-0.052354,0.563093,-261.627279,-0.107932,69.515641
0.0568,0.008357,-0.021865,-0.051856,0.0,0.0,0.0,-0.01745,-0.531191,-0.051604,0.563093,-261.627279,-0.107932,69.515641
0.0771,0.008399,-0.021332,-0.051409,0.0,0.0,0.0,-0.01802,-0.531181,-0.051833,0.563093,-261.627279,-0.107932,69.515641
0.0971,0.008232,-0.022142,-0.052252,0.0,0.0,0.0,-0.01802,-0.531181,-0.051833,0.563093,-261.627279,-0.107932,69.515641
0.1169,0.008856,-0.021488,-0.052127,-0.000155,0.004962,0.00082,-0.018404,-0.531446,-0.052252,0.563093,-261.627279,-0.107932,69.515641
0.1367,0.009117,-0.021667,-0.052365,-0.000159,0.005441,0.000857,-0.018124,-0.531181,-0.052202,0.563093,-261.627279,-0.107932,69.515641
0.1566,0.008593,-0.021649,-0.051611,-0.00016,0.005852,0.00088,-0.017577,-0.530968,-0.052365,0.638088,-261.627279,-0.182928,69.515641
0.1769,0.00845,-0.021827,-0.052321,-0.000163,0.006211,0.000907,-0.017704,-0.53097,-0.051676,0.638088,-261.627279,-0.182928,69.515641
0.1969,0.00859,-0.021746,-0.053415,-0.000164,0.006519,0.000926,-0.017704,-0.53097,-0.051676,0.638088,-261.627279,-0.182928,69.515641
0.2166,0.008726,-0.021864,-0.051339,-0.000162,0.006785,0.000938,-0.018638,-0.531019,-0.053415,0.713227,-261.627279,-0.258067,69.515641
0.2373,0.008578,-0.021839,-0.051579,-0.000153,0.007009,0.00096,-0.018149,-0.53109,-0.052564,0.713227,-261.627279,-0.258067,69.515641
0.2565,0.008457,-0.021797,-0.0527,-0.000144,0.007202,0.000977,-0.017715,-0.531161,-0.051579,0.788266,-261.627279,-0.333105,69.515641
0.277,0.008498,-0.021879,-0.051575,-0.000133,0.007366,0.001016,-0.018349,-0.531095,-0.052606,0.788266,-261.627279,-0.333105,69.515641
0.2971,0.008361,-0.021653,-0.051677,-0.000122,0.007507,0.001047,-0.018349,-0.531095,-0.052606,0.788266,-261.627279,-0.333105,69.515641
0.3176,0.008731,-0.02211,-0.051739,-0.00011,0.007629,0.001072,-0.017983,-0.530972,-0.051677,0.863325,-261.627279,-0.408164,69.515641
0.3367,0.009094,-0.021848,-0.051479,-0.000109,0.007743,0.001093,-0.017845,-0.531157,-0.051703,0.863325,-261.627279,-0.408164,69.515641
0.3565,0.00878,-0.021849,-0.051872,-0.000107,0.007841,0.001109,-0.017148,-0.531173,-0.051479,0.938271,-261.627279,-0.483111,69.515641
0.3768,0.008884,-0.021746,-0.052498,-0.000109,0.007929,0.001123,-0.017616,-0.531164,-0.051837,0.938271,-261.627279,-0.483111,69.515641
0.3967,0.008635,-0.021889,-0.051927,-0.00011,0.008005,0.001134,-0.017616,-0.531164,-0.051837,0.938271,-261.627279,-0.483111,69.515641
0.4171,0.008356,-0.021808,-0.0541,-0.00011,0.008071,0.001143,-0.017836,-0.531201,-0.051927,1.013092,-261.627279,-0.557931,69.515641
0.4373,0.008614,-0.021971,-0.05153,-9.6e-05,0.008115,0.001148,-0.018396,-0.531145,-0.052805,1.013092,-261.627279,-0.557931,69.515641
0.4566,0.008918,-0.021911,-0.053644,-8.2e-05,0.008153,0.001153,-0.017655,-0.531294,-0.05153,1.08809,-261.627279,-0.63293,69.515641
0.4768,0.008289,-0.021655,-0.053296,-7.2e-05,0.008187,0.001157,-0.018359,-0.531188,-0.053456,1.08809,-261.627279,-0.63293,69.515641
0.4967,0.008547,-0.021576,-0.052917,-6.3e-05,0.008218,0.001161,-0.018359,-0.531188,-0.053456,1.08809,-261.627279,-0.63293,69.515641
0.5169,0.008667,-0.022112,-0.052176,-5.5e-05,0.008244,0.001164,-0.018428,-0.530862,-0.052917,1.163119,-261.627279,-0.707959,69.515641
0.5368,0.008599,-0.021576,-0.051265,-4.7e-05,0.008267,0.001167,-0.018227,-0.531086,-0.052617,1.163119,-261.627279,-0.707959,69.515641
0.5567,0.008749,-0.021751,-0.052267,-4.1e-05,0.008288,0.001169,-0.017535,-0.530906,-0.051265,1.238094,-261.627279,-0.782933,69.515641
0.577,0.008779,-0.021641,-0.051452,-4e-05,0.00831,0.001172,-0.017865,-0.531042,-0.052183,1.238094,-261.627279,-0.782933,69.515641
0.5973,0.0086,-0.021805,-0.052722,-3.9e-05,0.00833,0.001174,-0.017865,-0.531042,-0.052183,1.238094,-261.627279,-0.782933,69.515641
0.6168,0.008575,-0.021888,-0.053915,-3.7e-05,0.008347,0.001176,-0.018276,-0.531097,-0.052722,1.313253,-261.627279,-0.858093,69.515641
0.6365,0.008369,-0.021712,-0.053635,-2.6e-05,0.008352,0.001176,-0.018536,-0.531117,-0.053213,1.313253,-261.627279,-0.858093,69.515641
0.6566,0.008556,-0.021433,-0.051948,-1.6e-05,0.008357,0.001176,-0.018972,-0.530979,-0.053635,1.388238,-261.627279,-0.933077,69.515641
0.677,0.008474,-0.022062,-0.052534,-9e-06,0.008364,0.001177,-0.018015,-0.530765,-0.052091,1.388238,-261.627279,-0.933077,69.515641
0.6967,0.008791,-0.021639,-0.052025,-4e-06,0.00837,0.001177,-0.018015,-0.530765,-0.052091,1.388238,-261.627279,-0.933077,69.515641
0.717,0.008581,-0.021751,-0.052197,1e-06,0.008375,0.001178,-0.01773,-0.530948,-0.052025,1.463223,-261.627277,-1.008062,69.515639
0.7365,0.008679,-0.021958,-0.051951,-1e-06,0.008386,0.001179,-0.017853,-0.530993,-0.052096,1.463223,-261.627277,-1.008062,69.515639
0.7568,0.00853,-0.021528,-0.053232,-3e-06,0.008396,0.00118,-0.017805,-0.531269,-0.051951,1.538205,-261.627262,-1.083045,69.515627
0.7769,0.008465,-0.021807,-0.053652,1e-05,0.00839,0.00118,-0.018538,-0.530844,-0.053125,1.538205,-261.627262,-1.083045,69.515627
0.7972,0.00868,-0.021948,-0.053183,2.1e-05,0.008386,0.001179,-0.018538,-0.530844,-0.053125,1.538205,-261.627262,-1.083045,69.515627
0.8167,0.008986,-0.021375,-0.052224,3e-05,0.008382,0.001179,-0.018431,-0.531221,-0.053182,1.571128,-261.627194,-1.158091,69.515569
0.8366,0.008344,-0.021863,-0.053412,2.8e-05,0.008389,0.00118,-0.018102,-0.530996,-0.052785,1.571128,-261.627194,-1.158091,69.515569
0.8565,0.008613,-0.021792,-0.051481,2.7e-05,0.008395,0.001181,-0.018884,-0.531121,-0.053409,1.567472,-261.626986,-1.233095,69.515394
0.8765,0.008622,-0.0218,-0.052654,1.8e-05,0.008408,0.001182,-0.017737,-0.531116,-0.051644,1.567472,-261.626986,-1.233095,69.515394
0.8968,0.008852,-0.02178,-0.051636,1e-05,0.008419,0.001183,-0.017737,-0.531116,-0.051644,1.567472,-261.626986,-1.233095,69.515394
0.917,0.008739,-0.021602,-0.050083,3e-06,0.008428,0.001184,-0.017474,-0.531048,-0.051628,1.56785,-261.626441,-1.308089,69.514935
0.9369,0.008425,-0.021839,-0.053242,-1.1e-05,0.008443,0.001186,-0.017192,-0.531007,-0.050986,1.56785,-261.626441,-1.308089,69.514935
0.9564,0.008558,-0.021139,-0.051868,-2.2e-05,0.008455,0.001187,-0.018719,-0.53103,-0.053228,1.570444,-261.625248,-1.383096,69.513932
0.9765,0.008648,-0.02189,-0.052642,-1e-05,0.008445,0.001185,-0.017954,-0.530498,-0.051984,1.570444,-261.625248,-1.383096,69.513932
0.9969,0.008483,-0.021476,-0.050989,1e-06,0.008436,0.001183,-0.017954,-0.530498,-0.051984,1.570444,-261.625248,-1.383096,69.513932
1.0165,0.008604,-0.021403,-0.052886,1e-05,0.008429,0.001182,-0.01751,-0.530609,-0.050959,1.573218,-261.623129,-1.458064,69.512147
1.0367,0.008742,-0.021317,-0.05237,1.4e-05,0.008426,0.001182,-0.017859,-0.530619,-0.05175,1.573218,-261.623129,-1.458064,69.512147
1.0569,0.008565,-0.021049,-0.05081,1.8e-05,0.008424,0.001182,-0.017947,-0.5304,-0.05234,1.569702,-261.620159,-1.533076,69.509646
1.0768,0.008227,-0.020784,-0.052446,1.8e-05,0.008425,0.001182,-0.01739,-0.530381,-0.050943,1.569702,-261.620159,-1.533076,69.509646
1.0967,0.008733,-0.020973,-0.051815,1.8e-05,0.008426,0.001183,-0.01739,-0.530381,-0.050943,1.569702,-261.620159,-1.533076,69.509646
1.1169,0.008467,-0.020723,-0.052394,1.9e-05,0.008427,0.001183,-0.017662,-0.529945,-0.051767,1.568848,-261.616599,-1.57311,69.506647
1.1366,0.008437,-0.020572,-0.053071,3.6e-05,0.00841,0.001181,-0.017894,-0.529937,-0.052015,1.568848,-261.616599,-1.57311,69.506647
1.1567,0.008582,-0.020234,-0.053683,5.1e-05,0.008397,0.00118,-0.018601,-0.529587,-0.053033,1.568755,-261.612933,-1.57322,69.503561
1.1767,0.008643,-0.019987,-0.052683,8.6e-05,0.008362,0.001176,-0.018767,-0.529493,-0.053627,1.568755,-261.612933,-1.57322,69.503561
1.1966,0.008729,-0.020146,-0.052584,0.000116,0.008332,0.001174,-0.018767,-0.529493,-0.053627,1.568755,-261.612933,-1.57322,69.503561
1.2169,0.008959,-0.019775,-0.052487,0.000142,0.008308,0.001173,-0.018056,-0.529091,-0.052535,1.565223,-261.609287,-1.577416,69.500491
1.237,0.008679,-0.019978,-0.052101,0.00016,0.008292,0.001173,-0.017947,-0.529043,-0.05251,1.565223,-261.609287,-1.577416,69.500491
1.2568,0.008736,-0.019237,-0.051964,0.000175,0.008279,0.001173,-0.017862,-0.529024,-0.052064,1.555047,-261.605692,-1.589516,69.497467
1.2769,0.008487,-0.01924,-0.052664,0.000194,0.008261,0.001173,-0.017762,-0.528577,-0.05197,1.555047,-261.605692,-1.589516,69.497467
1.2969,0.008424,-0.019427,-0.052398,0.00021,0.008246,0.001173,-0.017762,-0.528577,-0.05197,1.555047,-261.605692,-1.589516,69.497467
1.3165,0.008477,-0.018577,-0.052102,0.000224,0.008233,0.001173,-0.018262,-0.528382,-0.052349,1.551393,-261.602095,-1.593875,69.494442
1.3368,0.008261,-0.019277,-0.052715,0.000252,0.008204,0.001172,-0.018185,-0.528138,-0.052242,1.551393,-261.602095,-1.593875,69.494442
1.3569,0.008484,-0.018661,-0.052689,0.000276,0.008181,0.001171,-0.01859,-0.528308,-0.052678,1.545769,-261.598518,-1.600593,69.491437
1.3767,0.008519,-0.018731,-0.052338,0.000303,0.008153,0.001171,-0.018392,-0.52797,-0.052686,1.545769,-261.598518,-1.600593,69.491437
1.3968,0.00856,-0.018615,-0.051786,0.000327,0.008129,0.00117,-0.018392,-0.52797,-0.052686,1.545769,-261.598518,-1.600593,69.491437
1.4169,0.008261,-0.018133,-0.053155,0.000347,0.00811,0.001171,-0.01781,-0.527591,-0.051737,1.539805,-261.594969,-1.607723,69.488459
1.4369,0.008214,-0.017828,-0.053074,0.000371,0.008085,0.001197,-0.018222,-0.52748,-0.052306,1.539805,-261.594969,-1.607723,69.488459
1.4567,0.008391,-0.017679,-0.052469,0.000392,0.008064,0.001219,-0.018817,-0.526853,-0.053037,1.531532,-261.591438,-1.617643,69.485499
1.4764,0.0085,-0.017612,-0.051086,0.000423,0.008031,0.001238,-0.018393,-0.526955,-0.052514,1.531532,-261.591438,-1.617643,69.485499
1.4968,0.008598,-0.01794,-0.052036,0.000449,0.008003,0.001254,-0.018393,-0.526955,-0.052514,1.531532,-261.591438,-1.617643,69.485499
1.5171,0.008293,-0.017229,-0.050756,0.000472,0.00798,0.001268,-0.017895,-0.526916,-0.051985,1.526352,-261.587923,-1.624264,69.482577
1.5367,0.008642,-0.017085,-0.051219,0.000486,0.007966,0.001282,-0.017763,-0.526736,-0.051475,1.526352,-261.587923,-1.624264,69.482577
1.5568,0.00892,-0.016907,-0.050582,0.000498,0.007955,0.001294,-0.01744,-0.526164,-0.051179,1.516977,-261.584422,-1.636155,69.479693
1.5767,0.008507,-0.017121,-0.052973,0.000505,0.007951,0.001305,-0.016913,-0.526235,-0.05063,1.516977,-261.584422,-1.636155,69.479693
1.5972,0.008761,-0.01657,-0.051249,0.000511,0.007947,0.001315,-0.016913,-0.526235,-0.05063,1.516977,-261.584422,-1.636155,69.479693
1.6172,0.00845,-0.016668,-0.052387,0.000515,0.007943,0.001323,-0.017327,-0.52557,-0.051195,1.513879,-261.580927,-1.640232,69.476828
1.6368,0.008498,-0.016394,-0.052359,0.000543,0.007911,0.001327,-0.017701,-0.525694,-0.051674,1.513879,-261.580927,-1.640232,69.476828
1.6568,0.009011,-0.015724,-0.05133,0.000566,0.007884,0.001331,-0.018163,-0.525443,-0.052316,1.511958,-261.577415,-1.642917,69.473961
1.6767,0.008587,-0.015867,-0.052091,0.000592,0.007855,0.001334,-0.017239,-0.525073,-0.051411,1.511958,-261.577415,-1.642917,69.473961
1.6973,0.008585,-0.01628,-0.05268,0.000613,0.00783,0.001338,-0.017239,-0.525073,-0.051411,1.511958,-261.577415,-1.642917,69.473961
1.7166,0.008841,-0.015967,-0.051956,0.000632,0.007809,0.001341,-0.018228,-0.525245,-0.052625,1.505762,-261.573941,-1.650724,69.471134
1.7364,0.008845,-0.015351,-0.050574,0.000656,0.007781,0.001344,-0.017986,-0.525221,-0.052347,1.505762,-261.573941,-1.650724,69.471134
1.7565,0.008422,-0.015108,-0.052544,0.000676,0.007758,0.001346,-0.016905,-0.524453,-0.050532,1.497687,-261.57049,-1.660958,69.468334
1.7766,0.00843,-0.015387,-0.0499,0.000714,0.007711,0.001347,-0.018231,-0.524396,-0.052361,1.497687,-261.57049,-1.660958,69.468334
1.7968,0.008726,-0.015163,-0.053215,0.000745,0.007671,0.001348,-0.018231,-0.524396,-0.052361,1.497687,-261.57049,-1.660958,69.468334
1.8165,0.008525,-0.015262,-0.051466,0.000773,0.007638,0.00135,-0.018355,-0.524119,-0.053159,1.492127,-261.567044,-1.668013,69.465544
1.8366,0.008378,-0.014923,-0.052239,0.000796,0.00761,0.001353,-0.018084,-0.524275,-0.052451,1.492127,-261.567044,-1.668013,69.465544
1.8567,0.008873,-0.01427,-0.050506,0.000816,0.007587,0.001355,-0.018215,-0.523988,-0.052196,1.479761,-261.563673,-1.683697,69.462824
1.8768,0.008223,-0.014375,-0.050713,0.000832,0.00757,0.001359,-0.016992,-0.523641,-0.050655,1.479761,-261.563673,-1.683697,69.462824
1.8967,0.008718,-0.014597,-0.05002,0.000845,0.007555,0.001362,-0.016992,-0.523641,-0.050655,1.479761,-261.563673,-1.683697,69.462824
1.9167,0.008876,-0.014351,-0.051209,0.000856,0.007543,0.001365,-0.016731,-0.523644,-0.049963,1.474088,-261.560296,-1.690985,69.460105
1.9375,0.008778,-0.014118,-0.052014,0.000865,0.007534,0.001368,-0.016928,-0.523623,-0.050463,1.474088,-261.560296,-1.690985,69.460105
1.9569,0.008691,-0.013794,-0.052045,0.000872,0.007527,0.001371,-0.017698,-0.523189,-0.051971,1.469003,-261.556926,-1.697638,69.457397
1.977,0.008761,-0.013868,-0.051872,0.000901,0.007486,0.001371,-0.017826,-0.523099,-0.052037,1.469003,-261.556926,-1.697638,69.457397
1.9972,0.008736,-0.013709,-0.052971,0.000926,0.007452,0.001372,-0.017826,-0.523099,-0.052037,1.469003,-261.556926,-1.697638,69.457397
2.0168,0.008589,-0.013291,-0.051499,0.000948,0.007424,0.001373,-0.018213,-0.522681,-0.052914,1.466867,-261.553565,-1.700479,69.454701
2.0367,0.008835,-0.013891,-0.051762,0.000977,0.007382,0.001373,-0.017982,-0.522618,-0.052328,1.466867,-261.553565,-1.700479,69.454701
2.0568,0.00879,-0.013027,-0.052251,0.001002,0.007347,0.001374,-0.017509,-0.522975,-0.051718,1.456616,-261.550251,-1.713692,69.45205
2.0769,0.008557,-0.013174,-0.05202,0.001027,0.007313,0.001375,-0.017815,-0.522375,-0.052204,1.456616,-261.550251,-1.713692,69.45205
2.097,0.008894,-0.012817,-0.050677,0.001047,0.007284,0.001377,-0.017815,-0.522375,-0.052204,1.456616,-261.550251,-1.713692,69.45205
2.1168,0.008873,-0.012717,-0.052209,0.001065,0.007261,0.001379,-0.016883,-0.521859,-0.050619,1.448969,-261.546962,-1.723605,69.449424
2.1368,0.009066,-0.012902,-0.050748,0.001083,0.007236,0.001381,-0.017231,-0.521891,-0.051269,1.448969,-261.546962,-1.723605,69.449424
2.1568,0.008941,-0.012537,-0.051218,0.001099,0.007215,0.001384,-0.016759,-0.522017,-0.050704,1.440067,-261.543705,-1.735287,69.446831
2.1768,0.008886,-0.012276,-0.051779,0.001111,0.007199,0.001386,-0.017132,-0.52187,-0.051172,1.440067,-261.543705,-1.735287,69.446831
2.1969,0.008758,-0.012369,-0.049355,0.001122,0.007185,0.001389,-0.017132,-0.52187,-0.051172,1.440067,-261.543705,-1.735287,69.446831
2.2165,0.008947,-0.012206,-0.050313,0.001131,0.007174,0.001391,-0.016342,-0.521449,-0.049298,1.435273,-261.540453,-1.741654,69.444247
2.2364,0.008617,-0.012034,-0.052312,0.00114,0.007163,0.001393,-0.016483,-0.52146,-0.049708,1.435273,-261.540453,-1.741654,69.444247
2.2563,0.008722,-0.011987,-0.05035,0.001147,0.007153,0.001395,-0.01805,-0.521336,-0.052312,1.430723,-261.540452,-1.666627,69.444247
2.2767,0.008687,-0.012285,-0.052979,0.001162,0.007131,0.001393,-0.017044,-0.52134,-0.050525,1.430723,-261.540452,-1.666627,69.444247
2.297,0.008571,-0.012119,-0.050037,0.001175,0.007112,0.001391,-0.017044,-0.52134,-0.050525,1.430723,-261.540452,-1.666627,69.444247
2.3169,0.009204,-0.011883,-0.052079,0.001185,0.007096,0.00139,-0.016937,-0.521481,-0.050037,1.428467,-261.540452,-1.591764,69.444247
2.3368,0.008677,-0.012164,-0.051165,0.001194,0.007085,0.001386,-0.017104,-0.521362,-0.050872,1.428467,-261.540452,-1.591764,69.444247
2.3568,0.00904,-0.011867,-0.049447,0.001201,0.007075,0.001383,-0.017405,-0.521496,-0.051165,1.422701,-261.540452,-1.516619,69.444247
2.3769,0.008871,-0.012038,-0.050753,0.001199,0.007081,0.001354,-0.016269,-0.521264,-0.049588,1.422701,-261.540452,-1.516619,69.444247
2.3968,0.0086,-0.012005,-0.049578,0.001197,0.007087,0.00133,-0.016269,-0.521264,-0.049588,1.422701,-261.540452,-1.516619,69.444247
2.4171,0.009148,-0.011841,-0.050544,0.001195,0.007091,0.001309,-0.016675,-0.521378,-0.049578,1.420251,-261.540451,-1.441557,69.444248
2.4372,0.008996,-0.012044,-0.052499,0.001197,0.007089,0.001292,-0.016652,-0.5213,-0.049977,1.420251,-261.540451,-1.441557,69.444248
2.4567,0.008902,-0.011942,-0.051688,0.001198,0.007087,0.001278,-0.017767,-0.521341,-0.052499,1.420513,-261.540451,-1.366545,69.444248
2.4768,0.008745,-0.011573,-0.051304,0.001209,0.00707,0.001265,-0.017475,-0.521268,-0.051758,1.420513,-261.540451,-1.366545,69.444248
2.4971,0.009054,-0.012222,-0.050862,0.001217,0.007055,0.001255,-0.017475,-0.521268,-0.051758,1.420513,-261.540451,-1.366545,69.444248
2.517,0.009309,-0.012,-0.05072,0.001225,0.007043,0.001246,-0.016874,-0.521562,-0.050862,1.419688,-261.540451,-1.291639,69.444248
2.537,0.009246,-0.011643,-0.051466,0.001218,0.007057,0.001241,-0.016741,-0.521474,-0.050804,1.419688,-261.540451,-1.291639,69.444248
2.5566,0.008799,-0.011743,-0.051744,0.001212,0.007068,0.001237,-0.01699,-0.520968,-0.051466,1.41509,-261.54045,-1.216768,69.444248
2.5767,0.008894,-0.011627,-0.050461,0.001224,0.007048,0.001231,-0.01753,-0.521053,-0.051721,1.41509,-261.54045,-1.216768,69.444248
2.5969,0.00902,-0.012139,-0.051253,0.001234,0.00703,0.001226,-0.01753,-0.521053,-0.051721,1.41509,-261.54045,-1.216768,69.444248
2.6165,0.009036,-0.011913,-0.050759,0.001243,0.007016,0.001222,-0.017107,-0.521469,-0.051253,1.417113,-261.54045,-1.141584,69.444249
2.6365,0.009071,-0.011868,-0.048792,0.001237,0.007028,0.001221,-0.016997,-0.521382,-0.05105,1.417113,-261.54045,-1.141584,69.444249
2.6564,0.008947,-0.012301,-0.051152,0.001232,0.007038,0.00122,-0.015803,-0.521261,-0.048792,1.41205,-261.54045,-1.066637,69.444249
2.6766,0.008882,-0.011683,-0.050582,0.001221,0.007056,0.00122,-0.017017,-0.521602,-0.050952,1.41205,-261.54045,-1.066637,69.444249
2.6964,0.00928,-0.012063,-0.04987,0.001213,0.007071,0.00122,-0.017017,-0.521602,-0.050952,1.41205,-261.54045,-1.066637,69.444249
2.7166,0.008811,-0.011901,-0.051625,0.001205,0.007083,0.001219,-0.016143,-0.521429,-0.04987,1.413869,-261.540449,-0.991627,69.444249
2.7371,0.008945,-0.01226,-0.051478,0.001201,0.007091,0.001218,-0.016706,-0.521344,-0.050595,1.413869,-261.540449,-0.991627,69.444249
2.7567,0.00872,-0.011939,-0.050989,0.001196,0.007097,0.001217,-0.017297,-0.521584,-0.051478,1.418004,-261.540449,-0.916635,69.44425
2.7767,0.008911,-0.011968,-0.050165,0.001201,0.007089,0.001215,-0.017275,-0.521302,-0.05103,1.418004,-261.540449,-0.916635,69.44425
2.7968,0.008635,-0.011625,-0.051559,0.001204,0.007082,0.001214,-0.017275,-0.521302,-0.05103,1.418004,-261.540449,-0.916635,69.44425
2.8168,0.008893,-0.011953,-0.048859,0.001208,0.007077,0.001213,-0.017648,-0.520947,-0.051559,1.41938,-261.540449,-0.841627,69.44425
2.837,0.009121,-0.011845,-0.050088,0.001211,0.007071,0.001212,-0.01697,-0.521112,-0.050437,1.41938,-261.540449,-0.841627,69.44425
2.8566,0.009211,-0.011707,-0.051563,0.001213,0.007067,0.001211,-0.016413,-0.521205,-0.050088,1.417528,-261.540448,-0.766603,69.44425
2.8769,0.009152,-0.012141,-0.051001,0.001217,0.00706,0.001211,-0.017019,-0.521044,-0.051437,1.417528,-261.540448,-0.766603,69.44425
2.8968,0.008775,-0.012023,-0.048946,0.00122,0.007055,0.00121,-0.017019,-0.521044,-0.051437,1.417528,-261.540448,-0.766603,69.44425
2.9165,0.008469,-0.011471,-0.050374,0.001223,0.00705,0.00121,-0.016177,-0.521412,-0.048946,1.4166,-261.540448,-0.691638,69.44425
2.9372,0.008761,-0.012192,-0.050702,0.001219,0.007058,0.001211,-0.016606,-0.521168,-0.049539,1.4166,-261.540448,-0.691638,69.44425
2.9569,0.009149,-0.012212,-0.051819,0.001215,0.007065,0.001212,-0.017086,-0.521537,-0.050702,1.41504,-261.540448,-0.616612,69.444251
2.9768,0.008871,-0.011897,-0.051027,0.001211,0.007071,0.001212,-0.017252,-0.521528,-0.051724,1.41504,-261.540448,-0.616612,69.444251
2.997,0.009037,-0.012128,-0.051738,0.001208,0.007077,0.001212,-0.017252,-0.521528,-0.051724,1.41504,-261.540448,-0.616612,69.444251
3.0167,0.008832,-0.0124,-0.049202,0.001206,0.007081,0.001212,-0.017338,-0.521446,-0.051738,1.416408,-261.540447,-0.541609,69.444251
3.0369,0.008886,-0.012001,-0.050194,0.001198,0.007094,0.001212,-0.016885,-0.521586,-0.050682,1.416408,-261.540447,-0.541609,69.444251
3.0568,0.008715,-0.011898,-0.051438,0.001191,0.007105,0.001213,-0.016702,-0.521359,-0.050194,1.417858,-261.540447,-0.466543,69.444251
3.0769,0.00907,-0.012051,-0.050627,0.0012,0.00709,0.001211,-0.017438,-0.521235,-0.051331,1.417858,-261.540447,-0.466543,69.444251
3.097,0.008612,-0.012061,-0.050342,0.001207,0.007077,0.00121,-0.017438,-0.521235,-0.051331,1.417858,-261.540447,-0.466543,69.444251
3.1164,0.008477,-0.012386,-0.050045,0.001213,0.007067,0.001209,-0.017051,-0.521414,-0.050342,1.420084,-261.540447,-0.391651,69.444251
3.137,0.008993,-0.011923,-0.050348,0.001207,0.007077,0.00121,-0.017044,-0.521553,-0.050218,1.420084,-261.540447,-0.391651,69.444251
3.1568,0.008868,-0.012055,-0.05183,0.001202,0.007086,0.00121,-0.016673,-0.521277,-0.050348,1.416654,-261.540447,-0.316508,69.444252
3.177,0.009062,-0.012368,-0.051678,0.001207,0.007078,0.00121,-0.017469,-0.521361,-0.051688,1.416654,-261.540447,-0.316508,69.444252
3.1966,0.009012,-0.012067,-0.049591,0.00121,0.007072,0.001209,-0.017469,-0.521361,-0.051688,1.416654,-261.540447,-0.316508,69.444252
3.217,0.008968,-0.011923,-0.051549,0.001214,0.007067,0.001209,-0.016269,-0.52144,-0.049591,1.418342,-261.540446,-0.241779,69.444252
3.2369,0.008824,-0.011597,-0.051905,0.001207,0.007078,0.00121,-0.016695,-0.52136,-0.050391,1.418342,-261.540446,-0.241779,69.444252
3.2565,0.008831,-0.012098,-0.050352,0.001202,0.007087,0.001211,-0.017635,-0.52091,-0.051905,1.416544,-261.540446,-0.166767,69.444252
3.2766,0.008527,-0.012203,-0.05104,0.001199,0.007092,0.001211,-0.016905,-0.521406,-0.050483,1.416544,-261.540446,-0.166767,69.444252
3.2969,0.008968,-0.011942,-0.05006,0.001196,0.007096,0.001211,-0.016905,-0.521406,-0.050483,1.416544,-261.540446,-0.166767,69.444252
3.3165,0.008867,-0.011793,-0.050285,0.001194,0.007099,0.001211,-0.016552,-0.521303,-0.05006,1.418463,-261.540446,-0.091604,69.444252
3.337,0.008808,-0.011537,-0.050861,0.001192,0.007101,0.001211,-0.016641,-0.521239,-0.050153,1.418463,-261.540446,-0.091604,69.444252
3.3568,0.008811,-0.012009,-0.05107,0.001191,0.007103,0.001211,-0.01712,-0.520877,-0.050861,1.419652,-261.540445,-0.016593,69.444253
3.3769,0.008616,-0.011747,-0.050173,0.001195,0.007095,0.00121,-0.017215,-0.521305,-0.051052,1.419652,-261.540445,-0.016593,69.444253
3.3974,0.008825,-0.01224,-0.05103,0.001199,0.007089,0.00121,-0.017215,-0.521305,-0.051052,1.419652,-261.540445,-0.016593,69.444253
3.4169,0.009014,-0.0122,-0.050981,0.001202,0.007084,0.001209,-0.017189,-0.521576,-0.05103,1.420117,-261.540445,0.058378,69.444253
3.4367,0.008783,-0.01223,-0.05325,0.001198,0.007091,0.00121,-0.017101,-0.52156,-0.05101,1.420117,-261.540445,0.058378,69.444253
3.4566,0.00859,-0.012014,-0.051156,0.001195,0.007097,0.00121,-0.018361,-0.521507,-0.05325,1.418323,-261.540445,0.133361,69.444253
3.4767,0.00877,-0.011823,-0.051106,0.001202,0.007085,0.001209,-0.017567,-0.521361,-0.051345,1.418323,-261.540445,0.133361,69.444253
3.4968,0.009051,-0.011625,-0.050493,0.001207,0.007075,0.001208,-0.017567,-0.521361,-0.051345,1.418323,-261.540445,0.133361,69.444253
3.5168,0.008973,-0.012045,-0.050211,0.001212,0.007067,0.001208,-0.01669,-0.520975,-0.050493,1.419487,-261.540444,0.208406,69.444253
3.5368,0.009159,-0.012125,-0.050981,0.00121,0.007072,0.001209,-0.016663,-0.521152,-0.050376,1.419487,-261.540444,0.208406,69.444253
3.5569,0.008493,-0.01183,-0.05026,0.001208,0.007075,0.001209,-0.01683,-0.521462,-0.050981,1.416699,-261.540444,0.283429,69.444254
3.5769,0.008869,-0.0115,-0.050112,0.001211,0.00707,0.001209,-0.017103,-0.521209,-0.05032,1.416699,-261.540444,0.283429,69.444254
3.5972,0.008745,-0.012012,-0.048587,0.001213,0.007066,0.001209,-0.017103,-0.521209,-0.05032,1.416699,-261.540444,0.283429,69.444254
3.6166,0.008762,-0.011955,-0.051128,0.001215,0.007063,0.001209,-0.016024,-0.521411,-0.048587,1.41741,-261.540444,0.358419,69.444254
3.6371,0.009069,-0.01254,-0.049548,0.001207,0.007078,0.00121,-0.016544,-0.521361,-0.049622,1.41741,-261.540444,0.358419,69.444254
3.6569,0.008706,-0.011832,-0.050461,0.0012,0.00709,0.001211,-0.01619,-0.521914,-0.049548,1.416282,-261.540443,0.433344,69.444254
3.6772,0.009285,-0.011565,-0.049564,0.001201,0.007087,0.001211,-0.016943,-0.521249,-0.050378,1.416282,-261.540443,0.433344,69.444254
3.697,0.008928,-0.011631,-0.050696,0.001202,0.007085,0.001211,-0.016943,-0.521249,-0.050378,1.416282,-261.540443,0.433344,69.444254
3.7168,0.009044,-0.012011,-0.050673,0.001203,0.007084,0.00121,-0.016916,-0.520976,-0.050696,1.418756,-261.540443,0.508246,69.444254
3.7367,0.00864,-0.011907,-0.051991,0.001204,0.00708,0.00121,-0.016864,-0.521131,-0.050686,1.418756,-261.540443,0.508246,69.444254
3.7566,0.008855,-0.012046,-0.050233,0.001206,0.007077,0.00121,-0.017864,-0.521218,-0.051991,1.418277,-261.540443,0.583363,69.444255
3.7772,0.008616,-0.012077,-0.051172,0.001202,0.007084,0.00121,-0.01686,-0.521385,-0.050402,1.418277,-261.540443,0.583363,69.444255
3.7966,0.009047,-0.011917,-0.051071,0.001199,0.007089,0.001211,-0.01686,-0.521385,-0.050402,1.418277,-261.540443,0.583363,69.444255
3.8168,0.008784,-0.011894,-0.050237,0.001196,0.007094,0.001211,-0.016988,-0.521252,-0.051071,1.41769,-261.540442,0.658364,69.444255
3.8369,0.009096,-0.011793,-0.05219,0.001198,0.007092,0.001211,-0.016922,-0.521252,-0.05073,1.41769,-261.540442,0.658364,69.444255
3.8573,0.00888,-0.011801,-0.050519,0.001198,0.00709,0.00121,-0.017509,-0.521098,-0.05219,1.419233,-261.540442,0.733368,69.444255
3.8768,0.008997,-0.011674,-0.050799,0.001202,0.007084,0.00121,-0.016937,-0.521145,-0.050686,1.419233,-261.540442,0.733368,69.444255
3.8969,0.008931,-0.012215,-0.050906,0.001204,0.00708,0.00121,-0.016937,-0.521145,-0.050686,1.419233,-261.540442,0.733368,69.444255
3.9174,0.008763,-0.011888,-0.049913,0.001207,0.007076,0.001209,-0.01702,-0.521554,-0.050906,1.418907,-261.540439,0.808363,69.444257
3.9372,0.008637,-0.011517,-0.05062,0.001202,0.007084,0.00121,-0.016884,-0.521432,-0.050505,1.418907,-261.540439,0.808363,69.444257
3.9567,0.008638,-0.011774,-0.051816,0.001198,0.007091,0.001211,-0.017168,-0.520862,-0.050619,1.417586,-261.540427,0.883249,69.444267
3.9772,0.009032,-0.01182,-0.05165,0.001212,0.007067,0.001209,-0.017725,-0.52107,-0.051714,1.417586,-261.540427,0.883249,69.444267
3.9968,0.008915,-0.011928,-0.051183,0.001224,0.007047,0.001207,-0.017725,-0.52107,-0.051714,1.417586,-261.540427,0.883249,69.444267
4.0171,0.009184,-0.011635,-0.049618,0.001234,0.00703,0.001206,-0.017175,-0.521256,-0.051181,1.418939,-261.54038,0.958399,69.444306
4.037,0.008789,-0.011905,-0.050615,0.001229,0.007039,0.001208,-0.016744,-0.521155,-0.050548,1.418939,-261.54038,0.958399,69.444306
4.0564,0.008737,-0.011792,-0.051156,0.001225,0.007046,0.001209,-0.017009,-0.52124,-0.050612,1.413274,-261.540205,1.033239,69.444448
4.0769,0.008733,-0.011848,-0.051039,0.001229,0.00704,0.001209,-0.017311,-0.521134,-0.051108,1.413274,-261.540205,1.033239,69.444448
4.0973,0.008706,-0.011919,-0.050585,0.001233,0.007035,0.001209,-0.017311,-0.521134,-0.051108,1.413274,-261.540205,1.033239,69.444448
4.1167,0.008958,-0.012023,-0.052793,0.001235,0.00703,0.001209,-0.017067,-0.521226,-0.050575,1.414684,-261.539758,1.10828,69.444813
4.1367,0.008723,-0.011881,-0.052243,0.001237,0.007029,0.001209,-0.017411,-0.521256,-0.051438,1.414684,-261.539758,1.10828,69.444813
4.157,0.008852,-0.011868,-0.050847,0.001238,0.007028,0.001209,-0.017887,-0.521118,-0.052228,1.413079,-261.53878,1.183242,69.44561
4.177,0.008967,-0.011934,-0.051025,0.001236,0.007031,0.00121,-0.017142,-0.521197,-0.050972,1.413079,-261.53878,1.183242,69.44561
4.1966,0.009072,-0.011844,-0.050541,0.001235,0.007033,0.00121,-0.017142,-0.521197,-0.050972,1.413079,-261.53878,1.183242,69.44561
4.2167,0.008827,-0.011693,-0.051922,0.001235,0.007034,0.00121,-0.016648,-0.521036,-0.05051,1.412793,-261.537057,1.258241,69.447015
4.2367,0.008962,-0.011438,-0.048593,0.001237,0.007031,0.00121,-0.017048,-0.521005,-0.051083,1.412793,-261.537057,1.258241,69.447015
4.2564,0.009153,-0.011407,-0.049508,0.001238,0.007028,0.00121,-0.015767,-0.52066,-0.048561,1.413284,-261.534547,1.333237,69.44906
4.2765,0.008931,-0.011134,-0.050175,0.001234,0.007034,0.001211,-0.016055,-0.520762,-0.049421,1.413284,-261.534547,1.333237,69.44906
4.2966,0.00884,-0.011244,-0.050587,0.001231,0.00704,0.001212,-0.016055,-0.520762,-0.049421,1.413284,-261.534547,1.333237,69.44906
4.3167,0.00901,-0.010812,-0.051602,0.001228,0.007044,0.001212,-0.016884,-0.520308,-0.050538,1.412685,-261.531493,1.376365,69.451549
4.3368,0.008676,-0.010446,-0.05129,0.001249,0.007004,0.00121,-0.017044,-0.520205,-0.050965,1.412685,-261.531493,1.376365,69.451549
4.3567,0.009075,-0.010295,-0.050993,0.001267,0.006971,0.001208,-0.01742,-0.519553,-0.051251,1.414369,-261.528337,1.378433,69.454121
4.3768,0.00926,-0.01065,-0.049575,0.001294,0.00692,0.001205,-0.016967,-0.519611,-0.051017,1.414369,-261.528337,1.378433,69.454121
4.3966,0.009491,-0.01043,-0.050608,0.001317,0.006877,0.001204,-0.016967,-0.519611,-0.051017,1.414369,-261.528337,1.378433,69.454121
4.4165,0.009054,-0.009879,-0.05063,0.001337,0.006842,0.001203,-0.01624,-0.519488,-0.050557,1.407921,-261.525216,1.370307,69.456663
4.4366,0.00924,-0.01029,-0.050729,0.001354,0.00681,0.001203,-0.016443,-0.519348,-0.050581,1.407921,-261.525216,1.370307,69.456663
4.4564,0.009031,-0.009827,-0.052066,0.001369,0.006784,0.001203,-0.016568,-0.51942,-0.050691,1.39619,-261.522156,1.355348,69.459149
4.4766,0.008756,-0.009612,-0.049485,0.001395,0.006734,0.001202,-0.017428,-0.519149,-0.051948,1.39619,-261.522156,1.355348,69.459149
4.4966,0.009335,-0.010182,-0.051066,0.001418,0.006692,0.001202,-0.017428,-0.519149,-0.051948,1.39619,-261.522156,1.355348,69.459149
4.5166,0.009027,-0.009388,-0.0517,0.001437,0.006658,0.001202,-0.016625,-0.519237,-0.051015,1.390692,-261.519105,1.348222,69.461625
4.5368,0.008947,-0.009604,-0.049628,0.001453,0.00663,0.001202,-0.016905,-0.518987,-0.05129,1.390692,-261.519105,1.348222,69.461625
4.5565,0.009562,-0.009326,-0.049899,0.001466,0.006607,0.001203,-0.016297,-0.518768,-0.04959,1.378777,-261.51611,1.332807,69.46405
4.5767,0.009047,-0.009204,-0.049908,0.001474,0.006593,0.001205,-0.015909,-0.518687,-0.049871,1.378777,-261.51611,1.332807,69.46405
4.597,0.009076,-0.009183,-0.050164,0.001481,0.006582,0.001207,-0.015909,-0.518687,-0.049871,1.378777,-261.51611,1.332807,69.46405
4.6166,0.009481,-0.008624,-0.05079,0.001488,0.006572,0.001209,-0.016422,-0.518269,-0.050113,1.373701,-261.513124,1.326124,69.466463
4.6365,0.009427,-0.008975,-0.048503,0.001509,0.006527,0.001235,-0.016409,-0.518115,-0.050383,1.373701,-261.513124,1.326124,69.466463
4.6567,0.009519,-0.008739,-0.050897,0.001527,0.006489,0.001257,-0.015242,-0.518169,-0.048465,1.370057,-261.510138,1.321144,69.468873
4.6768,0.009023,-0.008534,-0.049913,0.001543,0.006457,0.001278,-0.016322,-0.518076,-0.050685,1.370057,-261.510138,1.321144,69.468873
4.6969,0.00927,-0.00897,-0.051343,0.001557,0.00643,0.001295,-0.016322,-0.518076,-0.050685,1.370057,-261.510138,1.321144,69.468873
4.7165,0.009792,-0.008662,-0.049701,0.001569,0.006408,0.00131,-0.016826,-0.518031,-0.05129,1.363386,-261.50718,1.309962,69.471235
4.7371,0.009484,-0.008045,-0.049866,0.00158,0.006386,0.001323,-0.01629,-0.518001,-0.050631,1.363386,-261.50718,1.309962,69.471235
4.7571,0.009357,-0.007604,-0.051121,0.00159,0.006368,0.001334,-0.015877,-0.517211,-0.049824,1.356521,-261.504242,1.298076,69.473555
4.777,0.009555,-0.007776,-0.051138,0.00162,0.006295,0.001341,-0.016626,-0.516952,-0.051003,1.356521,-261.504242,1.298076,69.473555
4.7967,0.009117,-0.007916,-0.049782,0.001645,0.006234,0.001348,-0.016626,-0.516952,-0.051003,1.356521,-261.504242,1.298076,69.473555
4.8169,0.009646,-0.007493,-0.048768,0.001667,0.006184,0.001354,-0.016181,-0.517022,-0.049726,1.352948,-261.501301,1.291922,69.475863
4.837,0.009215,-0.007854,-0.049917,0.001681,0.006155,0.00136,-0.015777,-0.516936,-0.049328,1.352948,-261.501301,1.291922,69.475863
4.8566,0.010031,-0.00747,-0.049879,0.001693,0.006131,0.001366,-0.016171,-0.517027,-0.049875,1.33734,-261.498454,1.269109,69.47808
4.8768,0.00971,-0.007248,-0.049595,0.001702,0.006113,0.001372,-0.015462,-0.516843,-0.049876,1.33734,-261.498454,1.269109,69.47808
4.8966,0.009754,-0.007294,-0.050584,0.00171,0.006098,0.001377,-0.015462,-0.516843,-0.049876,1.33734,-261.498454,1.269109,69.47808
4.9168,0.009488,-0.00727,-0.050741,0.001717,0.006086,0.001381,-0.015949,-0.51639,-0.050527,1.33239,-261.495587,1.261456,69.480304
4.9371,0.009554,-0.006933,-0.050926,0.001734,0.006043,0.001383,-0.016116,-0.516453,-0.050608,1.33239,-261.495587,1.261456,69.480304
4.9565,0.009782,-0.006858,-0.05023,0.001749,0.006009,0.001385,-0.016342,-0.516081,-0.050882,1.327899,-261.492738,1.254272,69.482505
4.9766,0.009836,-0.006762,-0.049691,0.001764,0.00597,0.001387,-0.015867,-0.516193,-0.050286,1.327899,-261.492738,1.254272,69.482505
4.9965,0.00974,-0.006765,-0.049428,0.001777,0.005937,0.001389,-0.015867,-0.516193,-0.050286,1.327899,-261.492738,1.254272,69.482505
5.0172,0.009465,-0.006281,-0.04938,0.001788,0.005911,0.001391,-0.015373,-0.515896,-0.049371,1.321037,-261.489915,1.244232,69.48468
5.0371,0.009945,-0.006428,-0.049933,0.001803,0.00587,0.001393,-0.0155,-0.515771,-0.049368,1.321037,-261.489915,1.244232,69.48468
5.0569,0.009954,-0.006232,-0.050969,0.001816,0.005837,0.001395,-0.015444,-0.515608,-0.049889,1.312173,-261.487129,1.23111,69.486819
5.077,0.009947,-0.006465,-0.049656,0.001832,0.005792,0.001396,-0.015975,-0.515564,-0.050873,1.312173,-261.487129,1.23111,69.486819
5.0972,0.010108,-0.006358,-0.049864,0.001846,0.005754,0.001397,-0.015975,-0.515564,-0.050873,1.312173,-261.487129,1.23111,69.486819
5.1171,0.009878,-0.005602,-0.048809,0.001858,0.005723,0.001399,-0.015225,-0.515485,-0.049806,1.305703,-261.484363,1.221469,69.488937
5.1369,0.009663,-0.005747,-0.048723,0.001869,0.005691,0.001401,-0.015125,-0.515258,-0.049395,1.305703,-261.484363,1.221469,69.488937
5.1566,0.009875,-0.005455,-0.049888,0.001879,0.005665,0.001403,-0.015108,-0.514964,-0.048679,1.295461,-261.481638,1.206197,69.491014
5.1767,0.009651,-0.005512,-0.04952,0.001895,0.005612,0.001404,-0.015515,-0.514824,-0.049782,1.295461,-261.481638,1.206197,69.491014
5.1969,0.010272,-0.005499,-0.049679,0.001909,0.005569,0.001406,-0.015515,-0.514824,-0.049782,1.295461,-261.481638,1.206197,69.491014
5.2169,0.010107,-0.005665,-0.049116,0.001921,0.005532,0.001407,-0.014963,-0.514638,-0.04962,1.290342,-261.478929,1.198291,69.493075
5.2368,0.010559,-0.005174,-0.048836,0.00193,0.005508,0.001409,-0.01494,-0.514781,-0.049405,1.290342,-261.478929,1.198291,69.493075
5.257,0.010182,-0.005028,-0.047968,0.001937,0.005487,0.001411,-0.014268,-0.514395,-0.048791,1.278785,-261.476278,1.180718,69.495081
5.2771,0.010135,-0.005239,-0.049891,0.001946,0.005457,0.001414,-0.014268,-0.514428,-0.048041,1.278785,-261.476278,1.180718,69.495081
5.2968,0.010157,-0.005312,-0.049739,0.001953,0.005432,0.001416,-0.014268,-0.514428,-0.048041,1.278785,-261.476278,1.180718,69.495081
5.3167,0.010464,-0.004448,-0.050413,0.00196,0.005411,0.001418,-0.015107,-0.514456,-0.04968,1.27466,-261.473625,1.174159,69.497085
5.3367,0.010787,-0.004683,-0.048894,0.001972,0.005367,0.001418,-0.015149,-0.514163,-0.049972,1.27466,-261.473625,1.174159,69.497085
5.3566,0.010231,-0.004662,-0.048973,0.001983,0.00533,0.001418,-0.014069,-0.513905,-0.048849,1.268164,-261.471005,1.163708,69.499058
5.3766,0.010121,-0.004562,-0.05119,0.001992,0.005297,0.001419,-0.014671,-0.514029,-0.048959,1.268164,-261.471005,1.163708,69.499058
5.3966,0.01059,-0.004729,-0.048902,0.002,0.005269,0.00142,-0.014671,-0.514029,-0.048959,1.268164,-261.471005,1.163708,69.499058
5.4171,0.010118,-0.004297,-0.049577,0.002007,0.005246,0.001422,-0.014247,-0.513901,-0.048843,1.261104,-261.468409,1.152805,69.501006
5.4367,0.010577,-0.004306,-0.050417,0.002016,0.005212,0.001422,-0.0146,-0.513783,-0.04913,1.261104,-261.468409,1.152805,69.501006
5.4565,0.01047,-0.00394,-0.04859,0.002024,0.005184,0.001423,-0.015052,-0.513495,-0.050372,1.253582,-261.465839,1.140878,69.50293
5.4765,0.01055,-0.004027,-0.04945,0.002035,0.005134,0.001423,-0.014362,-0.513344,-0.048741,1.253582,-261.465839,1.140878,69.50293
5.4973,0.010246,-0.004125,-0.048341,0.002044,0.005092,0.001424,-0.014362,-0.513344,-0.048741,1.253582,-261.465839,1.140878,69.50293
5.5165,0.010928,-0.003666,-0.050786,0.002052,0.005058,0.001425,-0.014302,-0.513315,-0.048281,1.248164,-261.463291,1.132254,69.504832
5.5365,0.010438,-0.003752,-0.049,0.002062,0.005017,0.001425,-0.014553,-0.513169,-0.049268,1.248164,-261.463291,1.132254,69.504832
5.5566,0.01081,-0.003404,-0.048925,0.00207,0.004983,0.001426,-0.01447,-0.512984,-0.048955,1.237514,-261.460798,1.115147,69.506686
5.5766,0.010372,-0.003406,-0.049338,0.00208,0.004933,0.001426,-0.014159,-0.512802,-0.048925,1.237514,-261.460798,1.115147,69.506686
5.5966,0.010831,-0.003562,-0.048344,0.002088,0.004891,0.001427,-0.014159,-0.512802,-0.048925,1.237514,-261.460798,1.115147,69.506686
5.6166,0.010686,-0.003352,-0.047406,0.002095,0.004857,0.001428,-0.013718,-0.512762,-0.048284,1.230884,-261.458322,1.104427,69.508522
5.6367,0.010969,-0.00287,-0.048404,0.002101,0.004829,0.001429,-0.013611,-0.512746,-0.047919,1.230884,-261.458322,1.104427,69.508522
5.6568,0.010558,-0.003304,-0.04804,0.002105,0.004806,0.001431,-0.013634,-0.512123,-0.048359,1.220194,-261.455898,1.086753,69.510311
5.6767,0.010801,-0.002996,-0.046943,0.002111,0.004778,0.001432,-0.013903,-0.512656,-0.048066,1.220194,-261.455898,1.086753,69.510311
5.6968,0.010872,-0.002817,-0.048423,0.002116,0.004755,0.001433,-0.013903,-0.512656,-0.048066,1.220194,-261.455898,1.086753,69.510311
5.7166,0.011097,-0.002766,-0.048713,0.00212,0.004736,0.001434,-0.013717,-0.512022,-0.048363,1.215823,-261.453477,1.079182,69.512093
5.7368,0.010631,-0.002705,-0.048444,0.002128,0.004679,0.001434,-0.013714,-0.512057,-0.0485,1.215823,-261.453477,1.079182,69.512093
5.7568,0.010947,-0.002391,-0.04991,0.002135,0.004632,0.001434,-0.013991,-0.51196,-0.048399,1.209565,-261.451084,1.068537,69.513851
5.7769,0.01087,-0.002279,-0.048117,0.002144,0.00457,0.001433,-0.014449,-0.511766,-0.049776,1.209565,-261.451084,1.068537,69.513851
5.7967,0.010839,-0.002656,-0.047137,0.002151,0.004519,0.001433,-0.014449,-0.511766,-0.049776,1.209565,-261.451084,1.068537,69.513851
5.8167,0.011019,-0.002245,-0.046832,0.002158,0.004476,0.001433,-0.013095,-0.511901,-0.047077,1.201002,-261.448731,1.053935,69.515571
5.8368,0.011218,-0.00236,-0.049948,0.002162,0.004447,0.001435,-0.012985,-0.511791,-0.046969,1.201002,-261.448731,1.053935,69.515571
5.8565,0.011079,-0.002109,-0.046178,0.002164,0.004423,0.001437,-0.01417,-0.511587,-0.049903,1.187421,-261.44645,1.03088,69.517231
5.8768,0.010969,-0.002177,-0.04822,0.002167,0.004387,0.001439,-0.01261,-0.51156,-0.046504,1.187421,-261.44645,1.03088,69.517231
5.8967,0.010918,-0.002045,-0.049567,0.00217,0.004357,0.001441,-0.01261,-0.51156,-0.046504,1.187421,-261.44645,1.03088,69.517231
5.9167,0.011263,-0.002043,-0.04998,0.002172,0.004332,0.001442,-0.014252,-0.511239,-0.049507,1.183144,-261.444163,1.022764,69.51889
5.9365,0.011519,-0.001828,-0.047882,0.002178,0.004289,0.001442,-0.014226,-0.511286,-0.049693,1.183144,-261.444163,1.022764,69.51889
5.957,0.011177,-0.00173,-0.047728,0.002184,0.004254,0.001442,-0.012817,-0.51111,-0.047836,1.175994,-261.44191,1.009031,69.520517
5.9766,0.011134,-0.001635,-0.046467,0.002187,0.004214,0.001443,-0.013123,-0.51114,-0.047735,1.175994,-261.44191,1.009031,69.520517
5.9971,0.011301,-0.001638,-0.048358,0.00219,0.004181,0.001444,-0.013123,-0.51114,-0.047735,1.175994,-261.44191,1.009031,69.520517
6.0169,0.011078,-0.001408,-0.048884,0.002193,0.004154,0.001445,-0.013253,-0.510869,-0.048298,1.168705,-261.439691,0.996353,69.522115
6.0369,0.01158,-0.001776,-0.049169,0.002196,0.004108,0.001445,-0.013482,-0.510821,-0.04853,1.168705,-261.439691,0.996353,69.522115
6.0566,0.011447,-0.001361,-0.047739,0.002199,0.00407,0.001446,-0.01341,-0.511031,-0.049123,1.160248,-261.437505,0.980379,69.523682
6.0768,0.011525,-0.001314,-0.049207,0.002201,0.004036,0.001447,-0.012934,-0.510796,-0.047861,1.160248,-261.437505,0.980379,69.523682
6.0966,0.010905,-0.001341,-0.048547,0.002203,0.004008,0.001449,-0.012934,-0.510796,-0.047861,1.160248,-261.437505,0.980379,69.523682
6.1169,0.011942,-0.00113,-0.048043,0.002205,0.003985,0.00145,-0.013744,-0.510575,-0.048487,1.152915,-261.435346,0.966715,69.525225
6.1368,0.01175,-0.000968,-0.046438,0.002207,0.003947,0.001451,-0.01325,-0.510542,-0.0483,1.152915,-261.435346,0.966715,69.525225
6.1568,0.011816,-0.001301,-0.048879,0.002209,0.003916,0.001451,-0.011849,-0.510295,-0.046392,1.145731,-261.433213,0.95249,69.526742
6.1769,0.01171,-0.0009,-0.047957,0.00221,0.003899,0.001453,-0.01299,-0.510651,-0.048661,1.145731,-261.433213,0.95249,69.526742
6.1967,0.01174,-0.000988,-0.048504,0.002212,0.003885,0.001454,-0.01299,-0.510651,-0.048661,1.145731,-261.433213,0.95249,69.526742
6.2171,0.012271,-0.000396,-0.047314,0.002213,0.003874,0.001455,-0.012887,-0.51023,-0.048443,1.139649,-261.431103,0.940753,69.528239
6.237,0.011571,-0.000769,-0.049387,0.002212,0.003813,0.001455,-0.012449,-0.510045,-0.047971,1.139649,-261.431103,0.940753,69.528239
6.2572,0.011471,-8.9e-05,-0.047699,0.002211,0.003763,0.001456,-0.01353,-0.510027,-0.049341,1.135808,-261.429009,0.932853,69.529721
6.2771,0.011815,-0.000423,-0.048341,0.00221,0.003685,0.001456,-0.012904,-0.509549,-0.047844,1.135808,-261.429009,0.932853,69.529721
6.2971,0.011803,-0.000386,-0.04888,0.002209,0.003621,0.001456,-0.012904,-0.509549,-0.047844,1.135808,-261.429009,0.932853,69.529721
6.3166,0.011721,0.00011,-0.047363,0.002209,0.003568,0.001456,-0.013016,-0.509625,-0.048819,1.127114,-261.426959,0.91495,69.531164
6.3369,0.011878,-0.00024,-0.048549,0.002209,0.003519,0.001457,-0.012764,-0.509482,-0.048218,1.127114,-261.426959,0.91495,69.531164
6.3564,0.012189,-0.0001,-0.046458,0.002209,0.003478,0.001457,-0.012799,-0.509532,-0.048504,1.110608,-261.425011,0.881145,69.532523
6.3769,0.011909,-0.000518,-0.046615,0.002206,0.003439,0.00146,-0.011602,-0.509543,-0.046628,1.110608,-261.425011,0.881145,69.532523
6.3966,0.012461,-0.000106,-0.046979,0.002203,0.003407,0.001462,-0.011602,-0.509543,-0.046628,1.110608,-261.425011,0.881145,69.532523
6.4168,0.011687,0.000124,-0.048758,0.002201,0.003381,0.001464,-0.011391,-0.509404,-0.046918,1.102646,-261.423066,0.864299,69.533876
6.4365,0.012363,0.00037,-0.050084,0.0022,0.003347,0.001465,-0.012111,-0.509332,-0.047668,1.102646,-261.423066,0.864299,69.533876
6.4564,0.012078,0.000106,-0.047859,0.002199,0.003319,0.001466,-0.013094,-0.508888,-0.050037,1.095326,-261.421157,0.846208,69.535194
6.4766,0.012086,0.000138,-0.046975,0.002199,0.003294,0.001466,-0.012387,-0.509266,-0.048054,1.095326,-261.421157,0.846208,69.535194
6.497,0.011745,0.000168,-0.046809,0.002199,0.003273,0.001467,-0.012387,-0.509266,-0.048054,1.095326,-261.421157,0.846208,69.535194
6.5166,0.011984,0.000421,-0.049736,0.002199,0.003256,0.001467,-0.01202,-0.509139,-0.046747,1.089878,-261.419259,0.833978,69.536501
6.537,0.012172,0.000239,-0.046273,0.002198,0.003226,0.001467,-0.012565,-0.509045,-0.047972,1.089878,-261.419259,0.833978,69.536501
6.5568,0.012063,0.000347,-0.04971,0.002197,0.003201,0.001467,-0.011344,-0.509115,-0.046226,1.083786,-261.417385,0.820713,69.537787
6.5768,0.011882,0.000681,-0.046781,0.002199,0.003187,0.001467,-0.013108,-0.509026,-0.049408,1.083786,-261.417385,0.820713,69.537787
6.597,0.011963,0.000334,-0.045617,0.0022,0.003174,0.001467,-0.013108,-0.509026,-0.049408,1.083786,-261.417385,0.820713,69.537787
6.6166,0.012425,0.000971,-0.046891,0.002201,0.003164,0.001467,-0.011197,-0.509007,-0.045556,1.078576,-261.415531,0.809336,69.539057
6.6366,0.012346,0.00093,-0.048082,0.002192,0.00311,0.001468,-0.011302,-0.508771,-0.046097,1.078576,-261.415531,0.809336,69.539057
6.6563,0.012456,0.000743,-0.047679,0.002185,0.003066,0.00147,-0.012091,-0.508384,-0.048035,1.074072,-261.413686,0.800499,69.540319
6.6766,0.012326,0.00114,-0.046906,0.00218,0.00303,0.00147,-0.011869,-0.508647,-0.047708,1.074072,-261.413686,0.800499,69.540319
6.6965,0.012386,0.000776,-0.046947,0.002177,0.002999,0.001471,-0.011869,-0.508647,-0.047708,1.074072,-261.413686,0.800499,69.540319
6.7166,0.012363,0.00108,-0.048363,0.002174,0.002975,0.001472,-0.011451,-0.50854,-0.046886,1.067117,-261.411887,0.781736,69.541543
6.7368,0.012557,0.001138,-0.04822,0.002169,0.002935,0.001472,-0.011787,-0.508436,-0.047489,1.067117,-261.411887,0.781736,69.541543
6.7568,0.012682,0.001038,-0.047473,0.002165,0.002903,0.001473,-0.011953,-0.508179,-0.048173,1.059333,-261.410125,0.762288,69.542735
6.7768,0.012276,0.001266,-0.04731,0.002159,0.002867,0.001473,-0.011557,-0.508363,-0.047537,1.059333,-261.410125,0.762288,69.542735
6.7966,0.012402,0.001025,-0.045514,0.002155,0.002838,0.001474,-0.011557,-0.508363,-0.047537,1.059333,-261.410125,0.762288,69.542735
6.8167,0.012605,0.001658,-0.046,0.002151,0.002814,0.001475,-0.010706,-0.50833,-0.045453,1.053257,-261.408381,0.746808,69.543911
6.8368,0.012879,0.001303,-0.048986,0.002139,0.002755,0.001477,-0.010753,-0.5081,-0.04567,1.053257,-261.408381,0.746808,69.543911
6.8564,0.012465,0.001094,-0.045855,0.002128,0.002706,0.001478,-0.012022,-0.508,-0.048939,1.045855,-261.406676,0.726809,69.545054
6.8765,0.012676,0.001444,-0.04666,0.002126,0.002694,0.00148,-0.011007,-0.508333,-0.046124,1.045855,-261.406676,0.726809,69.545054
6.8967,0.01284,0.001304,-0.046008,0.002123,0.002683,0.001481,-0.011007,-0.508333,-0.046124,1.045855,-261.406676,0.726809,69.545054
6.9166,0.013134,0.001286,-0.048175,0.002122,0.002674,0.001482,-0.010523,-0.508049,-0.045947,1.037961,-261.405017,0.702984,69.546159
6.9368,0.012838,0.001474,-0.046979,0.002115,0.002642,0.001483,-0.010883,-0.508067,-0.046853,1.037961,-261.405017,0.702984,69.546159
6.9567,0.013018,0.00159,-0.045914,0.00211,0.002615,0.001484,-0.011041,-0.507882,-0.046932,1.035771,-261.403356,0.694997,69.547262
6.9767,0.013009,0.001566,-0.047531,0.002098,0.002566,0.001485,-0.010444,-0.507869,-0.046003,1.035771,-261.403356,0.694997,69.547262
6.9968,0.012597,0.001738,-0.046606,0.002089,0.002526,0.001486,-0.010444,-0.507869,-0.046003,1.035771,-261.403356,0.694997,69.547262
7.0166,0.012704,0.001791,-0.047618,0.002081,0.002493,0.001487,-0.011071,-0.507603,-0.046544,1.031086,-261.401715,0.68086,69.548347
7.0372,0.0131,0.00184,-0.046665,0.002076,0.002462,0.001487,-0.011268,-0.507602,-0.046983,1.031086,-261.401715,0.68086,69.548347
7.0568,0.01289,0.001691,-0.045574,0.002073,0.002436,0.001487,-0.010622,-0.50753,-0.046619,1.021797,-261.40015,0.650814,69.549374
7.0768,0.013058,0.002259,-0.047202,0.002065,0.002407,0.001488,-0.010367,-0.507752,-0.045669,1.021797,-261.40015,0.650814,69.549374
7.0972,0.012925,0.00178,-0.046528,0.002059,0.002384,0.001489,-0.010367,-0.507752,-0.045669,1.021797,-261.40015,0.650814,69.549374
7.1166,0.013121,0.002003,-0.046256,0.002053,0.002364,0.00149,-0.010705,-0.50757,-0.046466,1.015884,-261.398583,0.635224,69.550399
7.1366,0.013124,0.001864,-0.047803,0.002046,0.002333,0.00149,-0.010595,-0.507511,-0.046374,1.015884,-261.398583,0.635224,69.550399
7.1566,0.013363,0.002003,-0.045995,0.002041,0.002308,0.001491,-0.011178,-0.507482,-0.047756,1.010697,-261.397046,0.616201,69.5514
7.1768,0.013094,0.002326,-0.047942,0.002031,0.002272,0.001492,-0.010178,-0.507457,-0.046147,1.010697,-261.397046,0.616201,69.5514
7.1968,0.013236,0.001904,-0.047286,0.002023,0.002242,0.001493,-0.010178,-0.507457,-0.046147,1.010697,-261.397046,0.616201,69.5514
7.2167,0.013574,0.002334,-0.047275,0.002016,0.002218,0.001493,-0.010781,-0.507434,-0.047224,1.005641,-261.395529,0.60031,69.552384
7.2365,0.013454,0.002209,-0.045672,0.002012,0.002197,0.001493,-0.010667,-0.507286,-0.047237,1.005641,-261.395529,0.60031,69.552384
7.2568,0.013575,0.002549,-0.04584,0.002009,0.002179,0.001493,-0.009764,-0.507192,-0.045625,0.998591,-261.394055,0.574829,69.553336
7.2771,0.013228,0.002198,-0.045463,0.001987,0.002108,0.001494,-0.009789,-0.506936,-0.045819,0.998591,-261.394055,0.574829,69.553336
7.2971,0.013134,0.00219,-0.045388,0.00197,0.002051,0.001495,-0.009789,-0.506936,-0.045819,0.998591,-261.394055,0.574829,69.553336
7.3169,0.013528,0.00259,-0.046726,0.001955,0.002003,0.001496,-0.009918,-0.507198,-0.045325,0.994448,-261.392586,0.562836,69.554282
7.3366,0.013412,0.002581,-0.047489,0.00195,0.001983,0.001496,-0.01006,-0.507048,-0.045887,0.994448,-261.392586,0.562836,69.554282
7.3564,0.013327,0.00253,-0.04529,0.001946,0.001967,0.001496,-0.010736,-0.506787,-0.047443,0.980253,-261.391248,0.508523,69.555135
7.3765,0.013443,0.002764,-0.045785,0.001937,0.001936,0.001497,-0.009844,-0.50693,-0.045473,0.980253,-261.391248,0.508523,69.555135
7.3966,0.013393,0.002584,-0.046339,0.001929,0.001911,0.001498,-0.009844,-0.50693,-0.045473,0.980253,-261.391248,0.508523,69.555135
7.4168,0.013747,0.002792,-0.047651,0.001923,0.001891,0.001498,-0.010147,-0.506791,-0.046277,0.976672,-261.389862,0.495927,69.556017
7.4371,0.013186,0.002422,-0.045963,0.001919,0.00187,0.001498,-0.0103,-0.506716,-0.04683,0.976672,-261.389862,0.495927,69.556017
7.4569,0.013505,0.002711,-0.045543,0.001916,0.001854,0.001497,-0.010184,-0.506983,-0.045916,0.969906,-261.388517,0.469606,69.55687
7.4769,0.013486,0.002909,-0.047244,0.001907,0.001828,0.001498,-0.009752,-0.506777,-0.045573,0.969906,-261.388517,0.469606,69.55687
7.4968,0.013916,0.002693,-0.046477,0.0019,0.001806,0.001499,-0.009752,-0.506777,-0.045573,0.969906,-261.388517,0.469606,69.55687
7.5166,0.013737,0.00285,-0.046017,0.001894,0.001789,0.001499,-0.009695,-0.506683,-0.046414,0.96534,-261.387177,0.45573,69.557719
7.5366,0.013905,0.002946,-0.045826,0.001885,0.001762,0.0015,-0.009697,-0.506645,-0.046245,0.96534,-261.387177,0.45573,69.557719
7.5568,0.013797,0.003356,-0.045914,0.001878,0.00174,0.0015,-0.009396,-0.506465,-0.045778,0.959836,-261.385869,0.431978,69.558546
7.5769,0.013688,0.003034,-0.045945,0.001855,0.001674,0.001501,-0.009589,-0.506136,-0.0459,0.959836,-261.385869,0.431978,69.558546
7.5969,0.013633,0.002761,-0.045479,0.001836,0.00162,0.001501,-0.009589,-0.506136,-0.0459,0.959836,-261.385869,0.431978,69.558546
7.617,0.013575,0.002855,-0.046596,0.001821,0.001576,0.001501,-0.009472,-0.506643,-0.045417,0.955439,-261.384575,0.413428,69.559361
7.6371,0.013923,0.003136,-0.04654,0.001826,0.001588,0.001501,-0.009751,-0.506614,-0.045891,0.955439,-261.384575,0.413428,69.559361
7.6566,0.013989,0.003482,-0.04714,0.001829,0.001597,0.001501,-0.009748,-0.506268,-0.046496,0.939836,-261.383426,0.347351,69.560082
7.6769,0.013908,0.002515,-0.045517,0.001819,0.00156,0.001501,-0.010015,-0.505977,-0.047082,0.939836,-261.383426,0.347351,69.560082
7.6973,0.013786,0.003167,-0.046717,0.00181,0.00153,0.0015,-0.010015,-0.505977,-0.047082,0.939836,-261.383426,0.347351,69.560082
7.7169,0.013964,0.003048,-0.045526,0.001803,0.001505,0.001499,-0.009951,-0.506213,-0.046654,0.941658,-261.382186,0.355748,69.560861
7.7368,0.013731,0.002991,-0.04514,0.001801,0.001499,0.0015,-0.009664,-0.506289,-0.046202,0.941658,-261.382186,0.355748,69.560861
7.7569,0.013774,0.003381,-0.046294,0.001799,0.001494,0.0015,-0.009225,-0.506446,-0.045093,0.930617,-261.381009,0.316016,69.5616
7.7768,0.014005,0.003039,-0.045802,0.001794,0.001477,0.0015,-0.009774,-0.506102,-0.04619,0.930617,-261.381009,0.316016,69.5616
7.7966,0.014046,0.00317,-0.044397,0.001789,0.001464,0.0015,-0.009774,-0.506102,-0.04619,0.930617,-261.381009,0.316016,69.5616
7.8167,0.014289,0.003711,-0.043528,0.001786,0.001453,0.0015,-0.008511,-0.506269,-0.044334,0.929566,-261.379806,0.310621,69.562356
7.8368,0.014175,0.003158,-0.044544,0.001748,0.00138,0.001504,-0.008252,-0.506071,-0.043995,0.929566,-261.379806,0.310621,69.562356
7.8565,0.014061,0.003223,-0.045694,0.001718,0.001321,0.001506,-0.008476,-0.506292,-0.044496,0.924916,-261.378627,0.292033,69.563097
7.877,0.014368,0.003268,-0.044993,0.001721,0.001328,0.001506,-0.009166,-0.506247,-0.045588,0.924916,-261.378627,0.292033,69.563097
7.8971,0.014029,0.003149,-0.044897,0.001723,0.001333,0.001507,-0.009166,-0.506247,-0.045588,0.924916,-261.378627,0.292033,69.563097
7.9165,0.013915,0.00337,-0.045203,0.001724,0.001337,0.001507,-0.008791,-0.506288,-0.044838,0.916743,-261.377567,0.229339,69.563759
7.9366,0.014065,0.003685,-0.045481,0.001719,0.001328,0.001507,-0.00892,-0.506211,-0.044978,0.916743,-261.377567,0.229339,69.563759
7.9568,0.014134,0.00359,-0.042344,0.001715,0.00132,0.001508,-0.009065,-0.505748,-0.045433,0.918562,-261.376432,0.237284,69.564468
7.977,0.014045,0.003611,-0.046636,0.001665,0.001228,0.001512,-0.007591,-0.505933,-0.042608,0.918562,-261.376432,0.237284,69.564468
7.9965,0.013891,0.003967,-0.045348,0.001624,0.001154,0.001515,-0.007591,-0.505933,-0.042608,0.918562,-261.376432,0.237284,69.564468
8.0166,0.013818,0.003534,-0.045313,0.001591,0.001094,0.001517,-0.009155,-0.505457,-0.045285,0.917599,-261.375306,0.228835,69.56517
8.0368,0.013866,0.00366,-0.046111,0.001596,0.001093,0.001515,-0.009199,-0.505649,-0.045289,0.917599,-261.375306,0.228835,69.56517
8.0564,0.014346,0.003629,-0.046213,0.001601,0.001092,0.001512,-0.009602,-0.505772,-0.046075,0.903851,-261.374506,0.153947,69.565668
8.0771,0.014126,0.003457,-0.04538,0.001612,0.001108,0.00151,-0.009247,-0.50582,-0.046199,0.903851,-261.374506,0.153947,69.565668
8.0969,0.014516,0.003499,-0.046309,0.001622,0.001122,0.001508,-0.009247,-0.50582,-0.046199,0.903851,-261.374506,0.153947,69.565668
8.1167,0.014081,0.003768,-0.04411,0.001629,0.001132,0.001506,-0.009027,-0.505914,-0.046248,0.899496,-261.373515,0.104629,69.566288
8.1369,0.014633,0.003584,-0.044934,0.001625,0.001123,0.001506,-0.008765,-0.505836,-0.045361,0.899496,-261.373515,0.104629,69.566288
8.1567,0.014298,0.003991,-0.044701,0.001622,0.001115,0.001506,-0.008222,-0.505868,-0.044886,0.899871,-261.372477,0.129701,69.566939
8.177,0.014496,0.003657,-0.043969,0.001601,0.001069,0.001507,-0.008466,-0.50553,-0.044715,0.899871,-261.372477,0.129701,69.566939
8.1968,0.014459,0.003763,-0.04373,0.001583,0.001032,0.001507,-0.008466,-0.50553,-0.044715,0.899871,-261.372477,0.129701,69.566939
8.2171,0.014515,0.003768,-0.045226,0.001569,0.001002,0.001508,-0.007767,-0.505706,-0.043667,0.897814,-261.371437,0.119962,69.567592
8.237,0.014213,0.003973,-0.044665,0.001553,0.000975,0.001509,-0.008076,-0.505703,-0.044298,0.897814,-261.371437,0.119962,69.567592
8.2568,0.014481,0.003699,-0.044616,0.00154,0.000952,0.00151,-0.008511,-0.505491,-0.04462,0.88632,-261.370518,0.051489,69.568173
8.277,0.014235,0.003921,-0.045221,0.001538,0.00095,0.00151,-0.008285,-0.505766,-0.044614,0.88632,-261.370518,0.051489,69.568173
8.2973,0.014093,0.003963,-0.044831,0.001536,0.000948,0.00151,-0.008285,-0.505766,-0.044614,0.88632,-261.370518,0.051489,69.568173
8.3169,0.014491,0.00382,-0.043974,0.001535,0.000946,0.00151,-0.008697,-0.505488,-0.044768,0.883013,-261.369564,0.019463,69.568779
8.3371,0.014319,0.00361,-0.046381,0.001528,0.000932,0.00151,-0.008376,-0.505565,-0.044437,0.883013,-261.369564,0.019463,69.568779
8.3564,0.014351,0.004208,-0.043853,0.001523,0.000919,0.00151,-0.009277,-0.505814,-0.046332,0.883249,-261.368597,0.015593,69.569393
8.3768,0.014541,0.00374,-0.04364,0.001502,0.000879,0.00151,-0.008115,-0.505345,-0.044067,0.883249,-261.368597,0.015593,69.569393
8.3972,0.014097,0.003927,-0.043364,0.001486,0.000845,0.001511,-0.008115,-0.505345,-0.044067,0.883249,-261.368597,0.015593,69.569393
8.4167,0.0146,0.003967,-0.044395,0.001472,0.000819,0.001511,-0.007947,-0.505558,-0.043302,0.879806,-261.367646,-0.001857,69.569999
8.4366,0.014778,0.004375,-0.043496,0.001465,0.000807,0.001512,-0.007975,-0.505543,-0.043742,0.879806,-261.367646,-0.001857,69.569999
8.4574,0.014733,0.003942,-0.04459,0.001458,0.000798,0.001512,-0.007353,-0.50512,-0.043451,0.868997,-261.366802,-0.070746,69.570545
8.477,0.014383,0.004028,-0.046333,0.001453,0.00079,0.001512,-0.007932,-0.505506,-0.044473,0.868997,-261.366802,-0.070746,69.570545
8.4969,0.014786,0.003899,-0.044157,0.001449,0.000784,0.001513,-0.007932,-0.505506,-0.044473,0.868997,-261.366802,-0.070746,69.570545
8.5166,0.014687,0.004019,-0.045889,0.001445,0.00078,0.001513,-0.007665,-0.505573,-0.044094,0.867892,-261.365904,-0.086084,69.571128
8.5367,0.014715,0.003711,-0.045787,0.001447,0.000784,0.001513,-0.008083,-0.505517,-0.044818,0.867892,-261.365904,-0.086084,69.571128
8.5564,0.014722,0.003978,-0.044447,0.001449,0.000787,0.001512,-0.008581,-0.505732,-0.045739,0.867343,-261.365012,-0.099658,69.571708
8.5769,0.014589,0.003763,-0.045096,0.001448,0.000787,0.001513,-0.007992,-0.505536,-0.044556,0.867343,-261.365012,-0.099658,69.571708
8.5969,0.014817,0.004164,-0.044123,0.001447,0.000787,0.001514,-0.007992,-0.505536,-0.044556,0.867343,-261.365012,-0.099658,69.571708
8.6166,0.014734,0.004274,-0.044096,0.001446,0.000787,0.001515,-0.007617,-0.505309,-0.04406,0.868294,-261.364115,-0.09381,69.57229
8.6366,0.014742,0.004283,-0.044771,0.001424,0.000748,0.001517,-0.007663,-0.505274,-0.044067,0.868294,-261.364115,-0.09381,69.57229
8.6567,0.014699,0.004066,-0.044473,0.001406,0.000716,0.001518,-0.008037,-0.505183,-0.044723,0.869432,-261.363219,-0.095133,69.572871
8.6766,0.014852,0.004039,-0.045508,0.001407,0.000718,0.001518,-0.007978,-0.505408,-0.044492,0.869432,-261.363219,-0.095133,69.572871
8.6968,0.014672,0.004267,-0.043695,0.001408,0.000719,0.001518,-0.007978,-0.505408,-0.044492,0.869432,-261.363219,-0.095133,69.572871
8.7167,0.014571,0.004254,-0.043304,0.001409,0.00072,0.001518,-0.007548,-0.50522,-0.043634,0.862943,-261.362392,-0.148931,69.573414
8.7367,0.014764,0.004364,-0.042615,0.001387,0.000682,0.00152,-0.007524,-0.505237,-0.043491,0.862943,-261.362392,-0.148931,69.573414
8.7564,0.014673,0.004456,-0.046472,0.001369,0.000652,0.001521,-0.006917,-0.505152,-0.042567,0.863026,-261.361527,-0.14618,69.573983
8.7765,0.014833,0.004101,-0.043378,0.001386,0.000672,0.001518,-0.008836,-0.505006,-0.046133,0.863026,-261.361527,-0.14618,69.573983
8.7966,0.014968,0.004216,-0.044311,0.0014,0.000688,0.001516,-0.008836,-0.505006,-0.046133,0.863026,-261.361527,-0.14618,69.573983
8.8168,0.014743,0.004089,-0.044014,0.001411,0.0007,0.001514,-0.007567,-0.50526,-0.04425,0.857055,-261.360728,-0.199111,69.574517
8.8365,0.014568,0.004353,-0.044839,0.001396,0.000679,0.001516,-0.007614,-0.505322,-0.044146,0.857055,-261.360728,-0.199111,69.574517
8.8566,0.015112,0.003957,-0.043992,0.001384,0.000661,0.001518,-0.008247,-0.505115,-0.044792,0.855706,-261.35989,-0.157732,69.575073
8.8767,0.014637,0.004334,-0.043842,0.001374,0.000653,0.00152,-0.007394,-0.505511,-0.044058,0.855706,-261.35989,-0.157732,69.575073
8.8969,0.014883,0.004308,-0.044064,0.001367,0.000647,0.001521,-0.007394,-0.505511,-0.044058,0.855706,-261.35989,-0.157732,69.575073
8.9169,0.014724,0.004189,-0.042545,0.00136,0.000642,0.001523,-0.007524,-0.505173,-0.044001,0.854124,-261.35906,-0.189632,69.575628
8.9365,0.015126,0.004187,-0.043219,0.001339,0.000608,0.001524,-0.007291,-0.505242,-0.043403,0.854124,-261.35906,-0.189632,69.575628
8.9564,0.014962,0.004179,-0.042028,0.001321,0.00058,0.001525,-0.006865,-0.505319,-0.043171,0.857537,-261.358234,-0.208717,69.57618
8.9767,0.014739,0.004014,-0.044728,0.001278,0.000524,0.001529,-0.006498,-0.505366,-0.042123,0.857537,-261.358234,-0.208717,69.57618
8.9968,0.014818,0.004318,-0.044795,0.001243,0.000479,0.001532,-0.006498,-0.505366,-0.042123,0.857537,-261.358234,-0.208717,69.57618
9.0169,0.014706,0.004441,-0.044854,0.001215,0.000443,0.001534,-0.007966,-0.505149,-0.044734,0.852605,-261.357464,-0.259635,69.576705
9.037,0.014978,0.004361,-0.043975,0.001239,0.000474,0.00153,-0.008041,-0.505104,-0.044776,0.852605,-261.357464,-0.259635,69.576705
9.0569,0.014632,0.003856,-0.044462,0.001259,0.000498,0.001527,-0.007412,-0.505136,-0.043939,0.849088,-261.356896,-0.334638,69.57711
9.0772,0.014999,0.00437,-0.044253,0.001293,0.000558,0.001524,-0.007983,-0.505597,-0.044416,0.849088,-261.356896,-0.334638,69.57711
9.0971,0.015377,0.004068,-0.044423,0.001321,0.000607,0.001521,-0.007983,-0.505597,-0.044416,0.849088,-261.356896,-0.334638,69.57711
9.1171,0.015274,0.004826,-0.044722,0.001344,0.000646,0.00152,-0.007218,-0.50541,-0.04436,0.849248,-261.356135,-0.332045,69.577641
9.1377,0.015028,0.004416,-0.042751,0.001321,0.000603,0.001521,-0.007337,-0.505105,-0.044499,0.849248,-261.356135,-0.332045,69.577641
9.1572,0.014863,0.004349,-0.045169,0.001302,0.000568,0.001521,-0.006735,-0.505105,-0.042712,0.863835,-261.355492,-0.257225,69.578068
9.1774,0.01475,0.004728,-0.043229,0.001312,0.000577,0.001518,-0.008039,-0.505128,-0.044953,0.863835,-261.355492,-0.257225,69.578068
9.1975,0.015378,0.004634,-0.043818,0.001321,0.000584,0.001516,-0.008039,-0.505128,-0.044953,0.863835,-261.355492,-0.257225,69.578068
9.2167,0.014838,0.004466,-0.042716,0.001327,0.00059,0.001515,-0.006907,-0.504855,-0.043755,0.854705,-261.3547,-0.270568,69.578608
9.237,0.015017,0.004481,-0.045188,0.001283,0.000519,0.001518,-0.006915,-0.504942,-0.043314,0.854705,-261.3547,-0.270568,69.578608
9.257,0.014824,0.004625,-0.043629,0.001246,0.000463,0.00152,-0.007978,-0.504981,-0.04514,0.85114,-261.353903,-0.247611,69.57915
9.2766,0.014954,0.00469,-0.04434,0.001237,0.000443,0.001519,-0.007466,-0.504896,-0.043755,0.85114,-261.353903,-0.247611,69.57915
9.2971,0.014963,0.004599,-0.04329,0.001229,0.000427,0.001518,-0.007466,-0.504896,-0.043755,0.85114,-261.353903,-0.247611,69.57915
9.3171,0.015065,0.004657,-0.043717,0.001223,0.000414,0.001518,-0.007064,-0.504908,-0.043239,0.840264,-261.353289,-0.322461,69.579587
9.337,0.015008,0.004478,-0.043767,0.001203,0.000384,0.001518,-0.007124,-0.504885,-0.043429,0.840264,-261.353289,-0.322461,69.579587
9.3568,0.014919,0.004256,-0.042588,0.001188,0.00036,0.001518,-0.00727,-0.505024,-0.043723,0.831393,-261.352626,-0.397384,69.580072
9.3768,0.014898,0.004311,-0.043457,0.00118,0.000356,0.001519,-0.006833,-0.505259,-0.042682,0.831393,-261.352626,-0.397384,69.580072
9.3967,0.014994,0.004525,-0.045169,0.001173,0.000353,0.001519,-0.006833,-0.505259,-0.042682,0.831393,-261.352626,-0.397384,69.580072
9.4168,0.015256,0.004633,-0.042772,0.001168,0.00035,0.00152,-0.007986,-0.504943,-0.045108,0.825325,-261.351953,-0.445681,69.580578
9.437,0.014669,0.004452,-0.043659,0.001171,0.000351,0.001518,-0.0074,-0.504924,-0.044156,0.825325,-261.351953,-0.445681,69.580578
9.4565,0.014733,0.004635,-0.043544,0.001174,0.000352,0.001517,-0.007552,-0.505053,-0.043611,0.830688,-261.351262,-0.459514,69.581098
9.4769,0.014841,0.004367,-0.043493,0.001177,0.000353,0.001515,-0.007473,-0.504896,-0.043548,0.830688,-261.351262,-0.459514,69.581098
9.4972,0.015163,0.004535,-0.042023,0.00118,0.000354,0.001514,-0.007473,-0.504896,-0.043548,0.830688,-261.351262,-0.459514,69.581098
9.5171,0.015168,0.004541,-0.043493,0.001182,0.000354,0.001513,-0.006212,-0.505003,-0.041959,0.827821,-261.350569,-0.455253,69.581619
9.5368,0.015196,0.004702,-0.044495,0.001148,0.00031,0.001517,-0.006521,-0.504991,-0.042558,0.827821,-261.350569,-0.455253,69.581619
9.5566,0.015156,0.004622,-0.043055,0.00112,0.000274,0.001519,-0.007451,-0.504784,-0.044447,0.824418,-261.349872,-0.449088,69.582145
9.5766,0.015071,0.004434,-0.042986,0.001108,0.000257,0.00152,-0.00685,-0.504895,-0.043173,0.824418,-261.349872,-0.449088,69.582145
9.5967,0.015186,0.003972,-0.043564,0.001098,0.000242,0.001521,-0.00685,-0.504895,-0.043173,0.824418,-261.349872,-0.449088,69.582145
9.6167,0.014601,0.004471,-0.043571,0.001089,0.000231,0.001522,-0.006982,-0.505536,-0.043507,0.82064,-261.349277,-0.524174,69.582614
9.6369,0.0153,0.004479,-0.044509,0.001118,0.000281,0.00152,-0.007236,-0.505333,-0.043527,0.82064,-261.349277,-0.524174,69.582614
9.6564,0.014884,0.004326,-0.043299,0.001142,0.000321,0.001519,-0.007358,-0.505011,-0.044463,0.816869,-261.348662,-0.570199,69.583114
9.6767,0.015148,0.004385,-0.04249,0.001153,0.000338,0.001519,-0.007205,-0.50518,-0.043397,0.816869,-261.348662,-0.570199,69.583114
9.6969,0.015322,0.004472,-0.043441,0.001162,0.000352,0.00152,-0.007205,-0.50518,-0.043397,0.816869,-261.348662,-0.570199,69.583114
9.7167,0.014828,0.003912,-0.042952,0.00117,0.000363,0.00152,-0.006783,-0.505037,-0.043384,0.830163,-261.348055,-0.495217,69.583578
9.7369,0.015155,0.004343,-0.042424,0.001168,0.000364,0.001521,-0.006897,-0.505275,-0.043199,0.830163,-261.348055,-0.495217,69.583578
9.7568,0.015085,0.004711,-0.04333,0.001166,0.000365,0.001522,-0.006439,-0.505189,-0.042378,0.83487,-261.347381,-0.450227,69.584081
9.7765,0.015424,0.004394,-0.04348,0.001148,0.000332,0.001522,-0.006956,-0.504842,-0.043246,0.83487,-261.347381,-0.450227,69.584081
9.7971,0.015411,0.004663,-0.044623,0.001132,0.000305,0.001523,-0.006956,-0.504842,-0.043246,0.83487,-261.347381,-0.450227,69.584081
9.8168,0.014802,0.004716,-0.041137,0.00112,0.000283,0.001523,-0.00729,-0.504816,-0.044559,0.837327,-261.346684,-0.450832,69.584599
9.8367,0.014657,0.004566,-0.042614,0.001103,0.000257,0.001524,-0.006824,-0.50483,-0.043142,0.837327,-261.346684,-0.450832,69.584599
9.8571,0.015217,0.004967,-0.042721,0.001089,0.000236,0.001525,-0.007036,-0.504964,-0.04257,0.825409,-261.346079,-0.523989,69.585073
9.8768,0.015375,0.004617,-0.043097,0.001057,0.000188,0.001527,-0.006608,-0.504606,-0.042703,0.825409,-261.346079,-0.523989,69.585073
9.897,0.015519,0.004856,-0.042985,0.001031,0.00015,0.001528,-0.006608,-0.504606,-0.042703,0.825409,-261.346079,-0.523989,69.585073
9.9167,0.014921,0.004616,-0.045177,0.00101,0.000118,0.001529,-0.006352,-0.504665,-0.042923,0.819857,-261.34546,-0.568215,69.585574
9.9368,0.015162,0.004776,-0.043441,0.001019,0.00013,0.001527,-0.007059,-0.504745,-0.043828,0.819857,-261.34546,-0.568215,69.585574
9.9569,0.015187,0.004561,-0.041904,0.001027,0.000139,0.001526,-0.00696,-0.504741,-0.043402,0.806008,-261.344983,-0.643232,69.585998
9.9765,0.015325,0.004721,-0.043373,0.001004,0.000115,0.001528,-0.006208,-0.504965,-0.04198,0.806008,-261.344983,-0.643232,69.585998
9.9971,0.015047,0.004433,-0.042751,0.000984,9.6e-05,0.00153,-0.006208,-0.504965,-0.04198,0.806008,-261.344983,-0.643232,69.585998
10.0166,0.01531,0.004584,-0.042863,0.000969,8.1e-05,0.001531,-0.006707,-0.505098,-0.042687,0.806512,-261.344392,-0.657315,69.586515
10.0368,0.015441,0.004625,-0.041766,0.00098,0.0001,0.00153,-0.006637,-0.505037,-0.04275,0.806512,-261.344392,-0.657315,69.586515
10.057,0.015197,0.004577,-0.043124,0.00099,0.000116,0.001529,-0.005824,-0.504929,-0.04172,0.809088,-261.343866,-0.722797,69.586999
10.0769,0.015231,0.004843,-0.042629,0.000996,0.000125,0.001528,-0.006712,-0.504947,-0.043011,0.809088,-261.343866,-0.722797,69.586999
10.0968,0.015468,0.004665,-0.041042,0.001002,0.000133,0.001527,-0.006712,-0.504947,-0.043011,0.809088,-261.343866,-0.722797,69.586999
10.1167,0.015482,0.004892,-0.042886,0.001006,0.000139,0.001526,-0.005417,-0.504902,-0.040979,0.814849,-261.343301,-0.690581,69.587502
10.1367,0.015439,0.004508,-0.04146,0.000955,7.6e-05,0.001531,-0.005806,-0.504794,-0.041749,0.814849,-261.343301,-0.690581,69.587502
10.1567,0.015316,0.004416,-0.043277,0.000913,2.6e-05,0.001534,-0.005668,-0.505051,-0.041411,0.816512,-261.342717,-0.667341,69.588011
10.1767,0.015611,0.004803,-0.042679,0.000938,6.3e-05,0.001532,-0.006654,-0.505102,-0.043115,0.816512,-261.342717,-0.667341,69.588011
10.1971,0.015262,0.004819,-0.043476,0.000959,9.3e-05,0.00153,-0.006654,-0.505102,-0.043115,0.816512,-261.342717,-0.667341,69.588011
10.2167,0.015357,0.004558,-0.041917,0.000975,0.000117,0.001529,-0.006873,-0.504699,-0.043426,0.811711,-261.342292,-0.742446,69.588425
10.2366,0.015285,0.004878,-0.040525,0.000971,0.000107,0.001528,-0.006516,-0.50482,-0.042799,0.811711,-261.342292,-0.742446,69.588425
10.2566,0.015539,0.004731,-0.043197,0.000968,9.9e-05,0.001528,-0.005347,-0.504701,-0.040478,0.822777,-261.341738,-0.696941,69.588916
10.277,0.015393,0.004871,-0.041815,0.000957,8.2e-05,0.001528,-0.006384,-0.504785,-0.042959,0.822777,-261.341738,-0.696941,69.588916
10.2965,0.015254,0.00473,-0.043128,0.000949,6.9e-05,0.001528,-0.006384,-0.504785,-0.042959,0.822777,-261.341738,-0.696941,69.588916
10.3165,0.015165,0.004463,-0.040406,0.000942,5.7e-05,0.001528,-0.006694,-0.504793,-0.043065,0.817661,-261.341174,-0.711265,69.589425
10.3368,0.015317,0.004564,-0.042385,0.000932,4.7e-05,0.001529,-0.00617,-0.504928,-0.04196,0.817661,-261.341174,-0.711265,69.589425
10.3569,0.015194,0.004461,-0.040397,0.000924,3.8e-05,0.00153,-0.006263,-0.504977,-0.042337,0.810865,-261.340641,-0.749352,69.589927
10.3765,0.015639,0.004778,-0.043452,0.000886,4e-06,0.001534,-0.005482,-0.50511,-0.040577,0.810865,-261.340641,-0.749352,69.589927
10.3967,0.015355,0.004509,-0.043068,0.000856,-2.4e-05,0.001537,-0.005482,-0.50511,-0.040577,0.810865,-261.340641,-0.749352,69.589927
10.4167,0.015198,0.00438,-0.041514,0.000831,-4.6e-05,0.00154,-0.006565,-0.505018,-0.043004,0.811437,-261.340108,-0.770237,69.590438
10.437,0.015378,0.004821,-0.042218,0.000856,-1.3e-05,0.001537,-0.006317,-0.505084,-0.04239,0.811437,-261.340108,-0.770237,69.590438
10.4567,0.015888,0.004908,-0.041562,0.000876,1.3e-05,0.001535,-0.006124,-0.504726,-0.042177,0.821937,-261.339693,-0.845243,69.590876
10.4766,0.015481,0.004801,-0.042717,0.000816,-6e-05,0.001539,-0.005375,-0.504659,-0.041616,0.821937,-261.339693,-0.845243,69.590876
10.4967,0.01526,0.004503,-0.0412,0.000767,-0.000119,0.001542,-0.005375,-0.504659,-0.041616,0.821937,-261.339693,-0.845243,69.590876
10.5165,0.01512,0.004743,-0.039922,0.000728,-0.000166,0.001544,-0.00571,-0.505065,-0.041137,0.82658,-261.339185,-0.812631,69.591377
10.5365,0.015638,0.004398,-0.042733,0.00072,-0.00017,0.001544,-0.005511,-0.504977,-0.040632,0.82658,-261.339185,-0.812631,69.591377
10.5565,0.015278,0.004615,-0.043042,0.000714,-0.000173,0.001544,-0.006134,-0.50514,-0.042705,0.817863,-261.338929,-0.887715,69.591696
10.5772,0.015243,0.004703,-0.043512,0.000765,-0.000111,0.001537,-0.00662,-0.504932,-0.043012,0.817863,-261.338929,-0.887715,69.591696
10.5969,0.015195,0.00463,-0.042412,0.000807,-6.1e-05,0.001532,-0.00662,-0.504932,-0.043012,0.817863,-261.338929,-0.887715,69.591696
10.617,0.015536,0.004923,-0.042127,0.000842,-2.2e-05,0.001528,-0.006404,-0.504918,-0.04236,0.822957,-261.338587,-0.962725,69.592128
10.6367,0.014989,0.004606,-0.042573,0.000844,-2.5e-05,0.001527,-0.006214,-0.5048,-0.04226,0.822957,-261.338587,-0.962725,69.592128
10.6563,0.015318,0.004904,-0.042108,0.000846,-2.7e-05,0.001526,-0.006696,-0.504934,-0.042533,0.825347,-261.338186,-0.887509,69.592539
10.6767,0.01558,0.00485,-0.041603,0.000841,-4.1e-05,0.001524,-0.006198,-0.50467,-0.042144,0.825347,-261.338186,-0.887509,69.592539
10.6967,0.015503,0.004683,-0.04211,0.000836,-5.2e-05,0.001523,-0.006198,-0.50467,-0.042144,0.825347,-261.338186,-0.887509,69.592539
10.7168,0.015202,0.004624,-0.040268,0.000833,-6.1e-05,0.001522,-0.005933,-0.504868,-0.042048,0.818693,-261.337703,-0.847862,69.593037
10.7366,0.015426,0.005168,-0.039896,0.000813,-8.1e-05,0.001524,-0.005684,-0.504907,-0.041319,0.818693,-261.337703,-0.847862,69.593037
10.7565,0.015363,0.004561,-0.04269,0.000798,-9.7e-05,0.001526,-0.004889,-0.504429,-0.039848,0.806198,-261.337227,-0.871871,69.59355
10.7771,0.015259,0.004623,-0.041546,0.000818,-7.1e-05,0.001524,-0.00627,-0.504927,-0.042442,0.806198,-261.337227,-0.871871,69.59355
10.7965,0.015507,0.00474,-0.041488,0.000834,-5.1e-05,0.001523,-0.00627,-0.504927,-0.042442,0.806198,-261.337227,-0.871871,69.59355
10.8165,0.014911,0.004495,-0.041976,0.000848,-3.4e-05,0.001522,-0.005614,-0.504826,-0.041425,0.808353,-261.336777,-0.911568,69.594058
10.8366,0.015308,0.004461,-0.042023,0.000842,-4e-05,0.001523,-0.00597,-0.504921,-0.041644,0.808353,-261.336777,-0.911568,69.594058
10.8565,0.015189,0.004703,-0.041593,0.000838,-4.5e-05,0.001524,-0.006092,-0.505091,-0.041977,0.81294,-261.336313,-0.849653,69.59454
10.8769,0.014938,0.004647,-0.041522,0.000835,-4.9e-05,0.001524,-0.006022,-0.504877,-0.041624,0.81294,-261.336313,-0.849653,69.59454
10.8968,0.015085,0.004481,-0.041478,0.000833,-5.3e-05,0.001524,-0.006022,-0.504877,-0.041624,0.81294,-261.336313,-0.849653,69.59454
10.9167,0.015279,0.004714,-0.041747,0.000831,-5.5e-05,0.001524,-0.006028,-0.505084,-0.041414,0.81314,-261.335826,-0.86105,69.595054
10.9375,0.015445,0.00462,-0.040471,0.000834,-4.9e-05,0.001524,-0.006015,-0.504985,-0.041544,0.81314,-261.335826,-0.86105,69.595054
10.9564,0.01564,0.004871,-0.041287,0.000837,-4.3e-05,0.001524,-0.005162,-0.504966,-0.040422,0.811529,-261.335344,-0.870596,69.595569
10.9768,0.015514,0.004852,-0.040651,0.000788,-0.000101,0.001528,-0.005386,-0.504719,-0.041206,0.811529,-261.335344,-0.870596,69.595569
10.9969,0.015301,0.004751,-0.040306,0.000748,-0.000147,0.001531,-0.005386,-0.504719,-0.041206,0.811529,-261.335344,-0.870596,69.595569
11.0166,0.015294,0.004363,-0.042176,0.000716,-0.000184,0.001533,-0.005214,-0.504838,-0.040242,0.814387,-261.334857,-0.860853,69.596082
11.0369,0.015424,0.004585,-0.04065,0.000717,-0.000178,0.001533,-0.005616,-0.504979,-0.041024,0.814387,-261.334857,-0.860853,69.596082
11.0564,0.015523,0.004702,-0.041403,0.000718,-0.000172,0.001533,-0.005285,-0.504998,-0.040615,0.810033,-261.334556,-0.935845,69.596467
11.0768,0.015172,0.004773,-0.042249,0.00071,-0.000181,0.001534,-0.005559,-0.504873,-0.041332,0.810033,-261.334556,-0.935845,69.596467
11.0967,0.015463,0.004409,-0.040103,0.000703,-0.000187,0.001534,-0.005559,-0.504873,-0.041332,0.810033,-261.334556,-0.935845,69.596467
11.1165,0.015014,0.004765,-0.040642,0.000697,-0.000193,0.001535,-0.004956,-0.505188,-0.040042,0.816325,-261.334161,-0.996123,69.596965
11.1368,0.01533,0.004551,-0.041285,0.000682,-0.000203,0.001537,-0.00526,-0.505036,-0.04028,0.816325,-261.334161,-0.996123,69.596965
11.1571,0.015699,0.00479,-0.038494,0.000669,-0.000211,0.001539,-0.005698,-0.505022,-0.041237,0.81847,-261.333756,-1.018115,69.597493
11.1771,0.01558,0.004861,-0.040601,0.000553,-0.000314,0.00155,-0.00408,-0.504849,-0.038729,0.81847,-261.333756,-1.018115,69.597493
11.1973,0.015312,0.004949,-0.040979,0.000459,-0.000396,0.001557,-0.00408,-0.504849,-0.038729,0.81847,-261.333756,-1.018115,69.597493
11.2165,0.015182,0.004992,-0.040029,0.000382,-0.000461,0.001562,-0.005554,-0.504632,-0.040915,0.828441,-261.333365,-1.044456,69.598019
11.2365,0.015536,0.004832,-0.040476,0.00041,-0.000441,0.001556,-0.005417,-0.50462,-0.040543,0.828441,-261.333365,-1.044456,69.598019
11.2567,0.015361,0.004592,-0.04141,0.000433,-0.000426,0.001552,-0.005097,-0.504755,-0.040462,0.903477,-261.333292,-1.119492,69.59819
11.2767,0.015704,0.004515,-0.041209,0.000485,-0.000368,0.001545,-0.005694,-0.504951,-0.041325,0.903477,-261.333292,-1.119492,69.59819
11.2968,0.015307,0.004432,-0.041949,0.000529,-0.000322,0.001539,-0.005694,-0.504951,-0.041325,0.903477,-261.333292,-1.119492,69.59819
11.3167,0.015369,0.004674,-0.040823,0.000564,-0.000285,0.001535,-0.006067,-0.505132,-0.041904,0.879084,-261.333101,-1.19434,69.598595
11.3371,0.015102,0.004802,-0.041274,0.000604,-0.000241,0.00153,-0.005809,-0.505038,-0.041453,0.879084,-261.333101,-1.19434,69.598595
11.3568,0.015452,0.004474,-0.040272,0.000637,-0.000205,0.001527,-0.005925,-0.504772,-0.041227,0.858019,-261.332775,-1.1384,69.599104
11.3767,0.01577,0.004947,-0.039892,0.000626,-0.000216,0.001528,-0.005153,-0.505084,-0.040352,0.858019,-261.332775,-1.1384,69.599104
11.3971,0.015184,0.004629,-0.040252,0.000618,-0.000224,0.001529,-0.005153,-0.505084,-0.040352,0.858019,-261.332775,-1.1384,69.599104
11.417,0.015364,0.004715,-0.039963,0.00061,-0.00023,0.00153,-0.005315,-0.504966,-0.040195,0.851305,-261.332425,-1.063397,69.599576
11.4372,0.01503,0.004755,-0.041152,0.000598,-0.000247,0.00153,-0.005187,-0.504931,-0.040092,0.851305,-261.332425,-1.063397,69.599576
11.4567,0.015604,0.004534,-0.040604,0.000589,-0.00026,0.00153,-0.005932,-0.504822,-0.041104,0.856556,-261.332056,-1.087958,69.600096
11.4766,0.015549,0.004701,-0.04005,0.000585,-0.000262,0.001529,-0.005173,-0.505026,-0.040647,0.856556,-261.332056,-1.087958,69.600096
11.4966,0.015382,0.004601,-0.041217,0.000583,-0.000265,0.001529,-0.005173,-0.505026,-0.040647,0.856556,-261.332056,-1.087958,69.600096
11.5165,0.015443,0.004275,-0.038411,0.00058,-0.000266,0.001529,-0.005609,-0.504978,-0.041154,0.853294,-261.331702,-1.112792,69.600623
11.5369,0.015382,0.004478,-0.039682,0.000573,-0.00027,0.00153,-0.005012,-0.505129,-0.040035,0.853294,-261.331702,-1.112792,69.600623
11.5565,0.015304,0.004804,-0.040653,0.000567,-0.000272,0.00153,-0.004832,-0.50513,-0.039633,0.85512,-261.331348,-1.120378,69.601156
11.5768,0.015322,0.004697,-0.038716,0.000568,-0.000278,0.00153,-0.005369,-0.504808,-0.040558,0.85512,-261.331348,-1.120378,69.601156
11.5967,0.015162,0.004439,-0.039005,0.000569,-0.000283,0.001529,-0.005369,-0.504808,-0.040558,0.85512,-261.331348,-1.120378,69.601156
11.6167,0.015337,0.004401,-0.039832,0.00057,-0.000287,0.001529,-0.004703,-0.505185,-0.038941,0.863283,-261.331001,-1.131716,69.601688
11.6369,0.015272,0.004734,-0.039947,0.000553,-0.000295,0.001532,-0.004809,-0.50519,-0.039295,0.863283,-261.331001,-1.131716,69.601688
11.6567,0.014858,0.004429,-0.041062,0.000539,-0.000301,0.001535,-0.005078,-0.504869,-0.039899,0.847992,-261.330657,-1.133872,69.602225
11.677,0.015538,0.004581,-0.039763,0.000597,-0.000235,0.00153,-0.005988,-0.505117,-0.040956,0.847992,-261.330657,-1.133872,69.602225
11.697,0.015346,0.00475,-0.039079,0.000645,-0.000183,0.001526,-0.005988,-0.505117,-0.040956,0.847992,-261.330657,-1.133872,69.602225
11.7166,0.015226,0.004532,-0.040882,0.000684,-0.000141,0.001523,-0.004557,-0.504874,-0.039016,0.867791,-261.33033,-1.160311,69.602755
11.7367,0.015465,0.004512,-0.040526,0.000644,-0.000188,0.001528,-0.004985,-0.504944,-0.039764,0.867791,-261.33033,-1.160311,69.602755
11.7568,0.01532,0.004553,-0.039436,0.000612,-0.000225,0.001531,-0.005184,-0.505074,-0.040493,0.857222,-261.33005,-1.085351,69.603096
11.7768,0.015399,0.004256,-0.039066,0.00058,-0.000256,0.001536,-0.004822,-0.505053,-0.03953,0.857222,-261.33005,-1.085351,69.603096
11.7971,0.015714,0.004514,-0.041424,0.000554,-0.000281,0.001539,-0.004822,-0.505053,-0.03953,0.857222,-261.33005,-1.085351,69.603096
11.8166,0.015022,0.004721,-0.039018,0.000533,-0.000301,0.001542,-0.00538,-0.505059,-0.041359,0.859335,-261.329675,-1.085234,69.603621
11.8365,0.015113,0.004271,-0.040659,0.000538,-0.000298,0.001543,-0.005171,-0.504992,-0.040401,0.859335,-261.329675,-1.085234,69.603621
11.8564,0.015226,0.004233,-0.040378,0.000541,-0.000296,0.001544,-0.005603,-0.505317,-0.040615,0.876698,-261.329375,-1.160228,69.604106
11.8768,0.015403,0.004721,-0.038377,0.000577,-0.000247,0.001543,-0.005382,-0.505349,-0.040397,0.876698,-261.329375,-1.160228,69.604106
11.8965,0.015467,0.004727,-0.040279,0.000606,-0.000208,0.001542,-0.005382,-0.505349,-0.040397,0.876698,-261.329375,-1.160228,69.604106
11.9168,0.015237,0.004734,-0.040999,0.00063,-0.000177,0.001542,-0.005048,-0.504873,-0.040215,0.874063,-261.329038,-1.158854,69.604647
11.9366,0.015633,0.00453,-0.040856,0.000618,-0.000202,0.001544,-0.005297,-0.50486,-0.040527,0.874063,-261.329038,-1.158854,69.604647
11.9571,0.015421,0.004801,-0.04005,0.000608,-0.000222,0.001545,-0.005181,-0.50505,-0.040814,0.881483,-261.328702,-1.083904,69.605083
11.977,0.015179,0.004086,-0.040638,0.000577,-0.000261,0.001547,-0.005015,-0.504815,-0.04012,0.881483,-261.328702,-1.083904,69.605083
11.9969,0.015236,0.004323,-0.040324,0.000553,-0.000292,0.001548,-0.005015,-0.504815,-0.04012,0.881483,-261.328702,-1.083904,69.605083
12.017,0.014981,0.004078,-0.040081,0.000533,-0.000317,0.001549,-0.005299,-0.505273,-0.040259,0.870833,-261.328325,-1.09029,69.605607
12.037,0.015461,0.004268,-0.040834,0.000571,-0.000263,0.001547,-0.005359,-0.50537,-0.04018,0.870833,-261.328325,-1.09029,69.605607
12.0571,0.015002,0.004388,-0.039493,0.000601,-0.000221,0.001546,-0.005344,-0.505317,-0.04079,0.867771,-261.328028,-1.165281,69.606101
12.0772,0.014751,0.003809,-0.038963,0.000604,-0.000215,0.001547,-0.005152,-0.505224,-0.039608,0.867771,-261.328028,-1.165281,69.606101
12.0968,0.015032,0.004052,-0.039744,0.000606,-0.00021,0.001547,-0.005152,-0.505224,-0.039608,0.867771,-261.328028,-1.165281,69.606101
12.1169,0.015459,0.004326,-0.038911,0.000608,-0.000206,0.001547,-0.00521,-0.505555,-0.039685,0.877468,-261.327681,-1.094656,69.606585
12.1369,0.01512,0.004368,-0.039273,0.000603,-0.000201,0.001549,-0.004873,-0.505448,-0.039366,0.877468,-261.327681,-1.094656,69.606585
12.1571,0.015374,0.004577,-0.039423,0.000599,-0.000196,0.001551,-0.004885,-0.505246,-0.039224,0.881953,-261.327299,-1.084916,69.607105
12.1772,0.015135,0.004407,-0.039452,0.000562,-0.000238,0.001553,-0.004739,-0.505047,-0.039402,0.881953,-261.327299,-1.084916,69.607105
12.1969,0.015121,0.004555,-0.038935,0.000532,-0.000272,0.001554,-0.004739,-0.505047,-0.039402,0.881953,-261.327299,-1.084916,69.607105
12.2167,0.015398,0.004494,-0.040325,0.000508,-0.000299,0.001555,-0.004706,-0.505068,-0.03887,0.898014,-261.326917,-1.088269,69.607618
12.2368,0.015452,0.004668,-0.039959,0.000501,-0.000308,0.001554,-0.004888,-0.505078,-0.039452,0.898014,-261.326917,-1.088269,69.607618
12.2571,0.015209,0.004346,-0.036695,0.000495,-0.000315,0.001554,-0.004907,-0.504934,-0.039917,0.907955,-261.326633,-1.163263,69.608083
12.2768,0.014978,0.004157,-0.039968,0.000389,-0.000393,0.001563,-0.003627,-0.505277,-0.036983,0.907955,-261.326633,-1.163263,69.608083
12.2966,0.015378,0.004635,-0.038808,0.000303,-0.000455,0.00157,-0.003627,-0.505277,-0.036983,0.907955,-261.326633,-1.163263,69.608083
12.3171,0.015432,0.004589,-0.039411,0.000234,-0.000503,0.001575,-0.00439,-0.504995,-0.038744,0.907768,-261.326316,-1.197143,69.608616
12.3371,0.015297,0.004364,-0.040827,0.000242,-0.000502,0.001571,-0.004497,-0.505005,-0.039007,0.907768,-261.326316,-1.197143,69.608616
12.3567,0.015372,0.004312,-0.038438,0.000248,-0.000502,0.001569,-0.005516,-0.505215,-0.040814,0.982768,-261.326263,-1.272143,69.608771
12.3766,0.015228,0.004449,-0.039829,0.000258,-0.000485,0.001565,-0.004342,-0.505303,-0.038651,0.982768,-261.326263,-1.272143,69.608771
12.3966,0.01504,0.003897,-0.038568,0.000266,-0.000472,0.001562,-0.004342,-0.505303,-0.038651,0.982768,-261.326263,-1.272143,69.608771
12.4166,0.015568,0.004442,-0.038243,0.000272,-0.000462,0.00156,-0.004617,-0.505738,-0.038525,1.057767,-261.326124,-1.347142,69.609167
12.4367,0.015416,0.004598,-0.037325,0.000289,-0.000433,0.001558,-0.004339,-0.505516,-0.038406,1.057767,-261.326124,-1.347142,69.609167
12.4564,0.014926,0.004108,-0.040062,0.000302,-0.00041,0.001555,-0.003608,-0.505062,-0.037276,1.065093,-261.325904,-1.381023,69.609732
12.4769,0.015379,0.004711,-0.038998,0.00038,-0.00033,0.001547,-0.00533,-0.505446,-0.039809,1.065093,-261.325904,-1.381023,69.609732
12.4972,0.015329,0.004086,-0.038727,0.000443,-0.000267,0.001541,-0.00533,-0.505446,-0.039809,1.065093,-261.325904,-1.381023,69.609732
12.5169,0.015011,0.004419,-0.038506,0.000495,-0.000216,0.001537,-0.004405,-0.505549,-0.038663,1.060021,-261.325659,-1.351984,69.610284
12.5371,0.015208,0.004268,-0.038207,0.000476,-0.000238,0.00154,-0.004494,-0.505408,-0.03859,1.060021,-261.325659,-1.351984,69.610284
12.5564,0.014763,0.004312,-0.039691,0.000461,-0.000255,0.001542,-0.004266,-0.505364,-0.038181,0.984773,-261.325483,-1.276736,69.610536
12.5766,0.015004,0.00441,-0.040312,0.000504,-0.00022,0.001536,-0.005365,-0.505294,-0.039555,0.984773,-261.325483,-1.276736,69.610536
12.5967,0.015021,0.004367,-0.038372,0.000539,-0.000192,0.001532,-0.005365,-0.505294,-0.039555,0.984773,-261.325483,-1.276736,69.610536
12.6164,0.014941,0.004591,-0.039381,0.000568,-0.00017,0.001528,-0.004527,-0.505268,-0.038313,0.979709,-261.32518,-1.203351,69.611006
12.6366,0.014981,0.004381,-0.040001,0.000544,-0.000204,0.00153,-0.004774,-0.505166,-0.038741,0.979709,-261.32518,-1.203351,69.611006
12.6568,0.015086,0.004367,-0.039142,0.000525,-0.000232,0.001531,-0.0054,-0.505216,-0.039962,0.930982,-261.324876,-1.128346,69.611402
12.6767,0.015179,0.003916,-0.03941,0.000525,-0.000237,0.00153,-0.004919,-0.505241,-0.039214,0.930982,-261.324876,-1.128346,69.611402
12.6967,0.015114,0.00435,-0.040477,0.000525,-0.000241,0.001529,-0.004919,-0.505241,-0.039214,0.930982,-261.324876,-1.128346,69.611402
12.7167,0.014789,0.004173,-0.03985,0.000525,-0.000244,0.001528,-0.005502,-0.505243,-0.040413,0.929028,-261.324527,-1.147891,69.611911
12.7367,0.015172,0.004304,-0.039159,0.000568,-0.0002,0.001523,-0.005511,-0.505317,-0.040177,0.929028,-261.324527,-1.147891,69.611911
12.7568,0.014972,0.004508,-0.038526,0.000604,-0.000165,0.00152,-0.004778,-0.505313,-0.039111,0.919482,-261.324181,-1.151196,69.612426
12.7767,0.015177,0.004427,-0.040738,0.000565,-0.00021,0.001523,-0.004681,-0.505132,-0.038576,0.919482,-261.324181,-1.151196,69.612426
12.7967,0.015083,0.004393,-0.039468,0.000534,-0.000247,0.001526,-0.004681,-0.505132,-0.038576,0.919482,-261.324181,-1.151196,69.612426
12.8167,0.015212,0.004681,-0.038828,0.000508,-0.000276,0.001528,-0.005019,-0.505217,-0.039411,0.901945,-261.323836,-1.0762,69.612868
12.8368,0.01494,0.004427,-0.036787,0.000498,-0.00029,0.001527,-0.00484,-0.505103,-0.039167,0.901945,-261.323836,-1.0762,69.612868
12.8571,0.015096,0.004058,-0.038723,0.00049,-0.000302,0.001527,-0.003804,-0.505235,-0.036745,0.91275,-261.32355,-1.151206,69.613319
12.8766,0.015036,0.004284,-0.036591,0.000486,-0.000291,0.001531,-0.004554,-0.505525,-0.038502,0.91275,-261.32355,-1.151206,69.613319
12.8965,0.015077,0.004065,-0.039361,0.000483,-0.000282,0.001534,-0.004554,-0.505525,-0.038502,0.91275,-261.32355,-1.151206,69.613319
12.9167,0.014872,0.003754,-0.037967,0.00048,-0.000274,0.001537,-0.004972,-0.505553,-0.039299,0.91023,-261.323239,-1.192629,69.613836
12.9373,0.015007,0.004196,-0.038846,0.000503,-0.000236,0.001539,-0.00477,-0.505689,-0.038744,0.91023,-261.323239,-1.192629,69.613836
12.9566,0.014929,0.004236,-0.03821,0.000522,-0.000205,0.00154,-0.004785,-0.505429,-0.038797,0.945192,-261.322918,-1.194175,69.614348
12.9769,0.014854,0.004321,-0.03785,0.000504,-0.000224,0.001543,-0.004574,-0.505395,-0.03826,0.945192,-261.322918,-1.194175,69.614348
12.9967,0.014659,0.004031,-0.037354,0.00049,-0.00024,0.001545,-0.004574,-0.505395,-0.03826,0.945192,-261.322918,-1.194175,69.614348
13.0167,0.01499,0.004056,-0.038011,0.000479,-0.000252,0.001546,-0.004367,-0.505623,-0.037293,0.953991,-261.322572,-1.14347,69.61483
13.0367,0.014601,0.004518,-0.039293,0.000466,-0.000255,0.001549,-0.004374,-0.505605,-0.037579,0.953991,-261.322572,-1.14347,69.61483
13.0569,0.014758,0.004616,-0.038377,0.000455,-0.000257,0.001551,-0.005419,-0.505097,-0.039246,0.965768,-261.322248,-1.189968,69.615327
13.0766,0.014801,0.004515,-0.037465,0.000449,-0.00028,0.00155,-0.004861,-0.505016,-0.038449,0.965768,-261.322248,-1.189968,69.615327
13.0968,0.01494,0.003922,-0.037801,0.000445,-0.000299,0.00155,-0.004861,-0.505016,-0.038449,0.965768,-261.322248,-1.189968,69.615327
13.1169,0.015322,0.004151,-0.039574,0.000442,-0.000314,0.00155,-0.004315,-0.505725,-0.037737,0.98799,-261.321922,-1.209844,69.615835
13.1369,0.014908,0.004326,-0.03776,0.00045,-0.000292,0.001553,-0.004533,-0.505614,-0.038479,0.98799,-261.321922,-1.209844,69.615835
13.1565,0.014882,0.004164,-0.038056,0.000456,-0.000274,0.001555,-0.004332,-0.505321,-0.037712,0.960155,-261.32162,-1.233389,69.616358
13.1771,0.014962,0.004242,-0.039662,0.000449,-0.000279,0.001557,-0.004504,-0.505455,-0.038023,0.960155,-261.32162,-1.233389,69.616358
13.1966,0.014981,0.004332,-0.037774,0.000443,-0.000282,0.001559,-0.004504,-0.505455,-0.038023,0.960155,-261.32162,-1.233389,69.616358
13.2165,0.014972,0.004084,-0.036935,0.000438,-0.000284,0.001561,-0.004261,-0.505316,-0.03771,0.976344,-261.321296,-1.213852,69.616877
13.237,0.015068,0.004125,-0.03842,0.000396,-0.00032,0.001565,-0.004092,-0.505423,-0.03738,0.976344,-261.321296,-1.213852,69.616877
13.2566,0.014957,0.003669,-0.037258,0.000363,-0.000347,0.001569,-0.004508,-0.505508,-0.038371,0.990908,-261.320979,-1.230596,69.617397
13.2769,0.014813,0.004578,-0.038527,0.000365,-0.000315,0.001573,-0.004079,-0.505938,-0.037349,0.990908,-261.320979,-1.230596,69.617397
13.2968,0.014961,0.004324,-0.037957,0.000367,-0.000289,0.001576,-0.004079,-0.505938,-0.037349,0.990908,-261.320979,-1.230596,69.617397
13.3168,0.014872,0.003629,-0.037805,0.000368,-0.000267,0.001578,-0.004379,-0.505322,-0.037898,1.035095,-261.320724,-1.29986,69.617883
13.3369,0.014612,0.004325,-0.037256,0.000375,-0.000264,0.001577,-0.004387,-0.505605,-0.037853,1.035095,-261.320724,-1.29986,69.617883
13.3568,0.014807,0.004003,-0.037583,0.00038,-0.000261,0.001576,-0.004373,-0.505329,-0.037208,1.084935,-261.320423,-1.28052,69.618374
13.3766,0.014863,0.00399,-0.037911,0.000382,-0.000261,0.001575,-0.004357,-0.50561,-0.037548,1.084935,-261.320423,-1.28052,69.618374
13.3964,0.014757,0.004172,-0.038739,0.000384,-0.000261,0.001575,-0.004357,-0.50561,-0.037548,1.084935,-261.320423,-1.28052,69.618374
13.4166,0.015074,0.004171,-0.038325,0.000385,-0.000261,0.001575,-0.004979,-0.505457,-0.038673,1.074077,-261.320106,-1.269531,69.618885
13.4366,0.014959,0.003722,-0.03839,0.00041,-0.000247,0.001572,-0.004767,-0.505457,-0.038523,1.074077,-261.320106,-1.269531,69.618885
13.4564,0.014489,0.004366,-0.03785,0.00043,-0.000236,0.00157,-0.004603,-0.505911,-0.03834,1.068337,-261.319786,-1.265478,69.619397
13.4766,0.014414,0.003801,-0.038904,0.00044,-0.000239,0.001569,-0.004792,-0.505325,-0.03789,1.068337,-261.319786,-1.265478,69.619397
13.4965,0.014981,0.004199,-0.037035,0.000449,-0.000242,0.001568,-0.004792,-0.505325,-0.03789,1.068337,-261.319786,-1.265478,69.619397
13.5165,0.014547,0.004033,-0.039296,0.000456,-0.000245,0.001567,-0.003886,-0.505462,-0.036972,1.034361,-261.319464,-1.225255,69.619883
13.5366,0.014334,0.00417,-0.037246,0.000454,-0.000247,0.001568,-0.004541,-0.505508,-0.037917,1.034361,-261.319464,-1.225255,69.619883
13.5565,0.014889,0.004321,-0.039995,0.000453,-0.000248,0.001569,-0.004643,-0.505485,-0.037197,1.000808,-261.319133,-1.20788,69.620386
13.5766,0.014947,0.003831,-0.036656,0.000501,-0.000209,0.001564,-0.005428,-0.50529,-0.039752,1.000808,-261.319133,-1.20788,69.620386
13.5969,0.014688,0.004193,-0.03755,0.000541,-0.000179,0.001561,-0.005428,-0.50529,-0.039752,1.000808,-261.319133,-1.20788,69.620386
13.6165,0.014895,0.003961,-0.03854,0.000573,-0.000155,0.001558,-0.004439,-0.505459,-0.037484,1.003352,-261.318797,-1.211794,69.6209
13.6365,0.01462,0.003896,-0.038917,0.000554,-0.000171,0.001563,-0.004566,-0.505542,-0.037906,1.003352,-261.318797,-1.211794,69.6209
13.6567,0.014552,0.004131,-0.038824,0.000538,-0.000184,0.001566,-0.005209,-0.505722,-0.038879,0.947154,-261.318499,-1.136917,69.621279
13.677,0.015053,0.003991,-0.037934,0.000571,-0.00015,0.001563,-0.005239,-0.505505,-0.038827,0.947154,-261.318499,-1.136917,69.621279
13.6965,0.015017,0.004076,-0.038034,0.000599,-0.000124,0.001561,-0.005239,-0.505505,-0.038827,0.947154,-261.318499,-1.136917,69.621279
13.7165,0.015087,0.00392,-0.035856,0.000621,-0.000103,0.00156,-0.004354,-0.505564,-0.037969,0.962288,-261.318124,-1.129668,69.62178
13.7367,0.014543,0.003581,-0.037185,0.000537,-0.000171,0.001569,-0.003876,-0.505642,-0.037094,0.962288,-261.318124,-1.129668,69.62178
13.7565,0.014823,0.004241,-0.036358,0.000469,-0.000223,0.001575,-0.0044,-0.50607,-0.037142,0.939468,-261.317758,-1.054688,69.622207
13.7767,0.014469,0.004438,-0.036648,0.000393,-0.000288,0.00158,-0.003775,-0.50548,-0.036425,0.939468,-261.317758,-1.054688,69.622207
13.7965,0.014609,0.004197,-0.038589,0.000332,-0.000339,0.001583,-0.003775,-0.50548,-0.036425,0.939468,-261.317758,-1.054688,69.622207
13.8169,0.014717,0.003719,-0.03781,0.000283,-0.000379,0.001585,-0.005053,-0.50543,-0.038545,1.005493,-261.317519,-1.129713,69.622555
13.8368,0.014958,0.004072,-0.036998,0.000342,-0.000317,0.001577,-0.004849,-0.505631,-0.038237,1.005493,-261.317519,-1.129713,69.622555
13.8567,0.014918,0.003875,-0.037341,0.000391,-0.000268,0.001571,-0.003902,-0.505583,-0.036982,1.080502,-261.317433,-1.204722,69.622736
13.8768,0.01464,0.004064,-0.036445,0.000378,-0.00027,0.001571,-0.004103,-0.505754,-0.037309,1.080502,-261.317433,-1.204722,69.622736
13.8968,0.014859,0.004249,-0.037113,0.000367,-0.000272,0.00157,-0.004103,-0.505754,-0.037309,1.080502,-261.317433,-1.204722,69.622736
13.9167,0.014445,0.003925,-0.037908,0.000358,-0.000273,0.001569,-0.00405,-0.505411,-0.037051,1.0565,-261.317135,-1.262768,69.62322
13.9368,0.014675,0.003932,-0.0375,0.000362,-0.000275,0.001565,-0.004391,-0.505534,-0.037396,1.0565,-261.317135,-1.262768,69.62322
13.9569,0.014662,0.004081,-0.036781,0.000366,-0.000277,0.001562,-0.004434,-0.505718,-0.037451,1.089187,-261.316833,-1.287589,69.623719
13.9767,0.014798,0.004099,-0.036022,0.000349,-0.000294,0.001562,-0.004121,-0.505587,-0.036837,1.089187,-261.316833,-1.287589,69.623719
13.9971,0.014231,0.004005,-0.037056,0.000334,-0.000307,0.001561,-0.004121,-0.505587,-0.036837,1.089187,-261.316833,-1.287589,69.623719
14.0168,0.014794,0.004049,-0.035761,0.000323,-0.000317,0.001561,-0.004648,-0.505657,-0.036991,1.074983,-261.316527,-1.281982,69.624231
14.0369,0.014331,0.004016,-0.036422,0.00032,-0.000317,0.00156,-0.004153,-0.505645,-0.036481,1.074983,-261.316527,-1.281982,69.624231
14.0572,0.014409,0.004013,-0.03793,0.000317,-0.000317,0.00156,-0.00423,-0.505656,-0.036374,1.100953,-261.316252,-1.321802,69.624737
14.0768,0.014469,0.003746,-0.036615,0.00037,-0.000267,0.001554,-0.004868,-0.505624,-0.037789,1.100953,-261.316252,-1.321802,69.624737
14.0977,0.014597,0.003836,-0.036642,0.000413,-0.000228,0.00155,-0.004868,-0.505624,-0.037789,1.100953,-261.316252,-1.321802,69.624737
14.1171,0.014612,0.003887,-0.035531,0.000449,-0.000198,0.001546,-0.004074,-0.505835,-0.036577,1.107995,-261.315966,-1.325926,69.625262
14.1365,0.014358,0.003688,-0.037007,0.000402,-0.000229,0.001553,-0.003832,-0.505818,-0.036128,1.107995,-261.315966,-1.325926,69.625262
14.1565,0.014406,0.004014,-0.036379,0.000364,-0.000253,0.001558,-0.004502,-0.505968,-0.036972,1.032639,-261.315726,-1.25057,69.625601
14.1769,0.01456,0.004122,-0.036364,0.000356,-0.000261,0.001558,-0.004174,-0.505676,-0.036429,1.032639,-261.315726,-1.25057,69.625601
14.1968,0.014605,0.00414,-0.03799,0.00035,-0.000268,0.001557,-0.004174,-0.505676,-0.036429,1.032639,-261.315726,-1.25057,69.625601
14.2167,0.014623,0.003662,-0.036653,0.000345,-0.000273,0.001557,-0.004751,-0.505503,-0.037929,1.090562,-261.315432,-1.277583,69.626071
14.2367,0.014571,0.003613,-0.035663,0.000368,-0.000251,0.001554,-0.004474,-0.505702,-0.037409,1.090562,-261.315432,-1.277583,69.626071
14.257,0.014312,0.00368,-0.036918,0.000387,-0.000235,0.001552,-0.003602,-0.506072,-0.035614,1.100441,-261.31513,-1.296159,69.626576
14.2768,0.014807,0.00379,-0.036104,0.000415,-0.000194,0.001552,-0.004429,-0.505982,-0.036797,1.100441,-261.31513,-1.296159,69.626576
14.2971,0.014443,0.003804,-0.037818,0.000437,-0.000162,0.001553,-0.004429,-0.505982,-0.036797,1.100441,-261.31513,-1.296159,69.626576
14.3166,0.014758,0.003781,-0.035659,0.000456,-0.000136,0.001553,-0.004825,-0.505841,-0.037755,1.073881,-261.314817,-1.254778,69.627055
14.3371,0.014486,0.004094,-0.035626,0.000449,-0.000142,0.001556,-0.004252,-0.505864,-0.036894,1.073881,-261.314817,-1.254778,69.627055
14.3579,0.014594,0.003749,-0.036945,0.000443,-0.000146,0.001558,-0.003667,-0.505587,-0.035581,1.059594,-261.314484,-1.179772,69.627477
14.3768,0.014273,0.003764,-0.036572,0.000431,-0.000156,0.001562,-0.004166,-0.505862,-0.036761,1.059594,-261.314484,-1.179772,69.627477
14.3971,0.014457,0.003855,-0.035522,0.000421,-0.000164,0.001566,-0.004166,-0.505862,-0.036761,1.059594,-261.314484,-1.179772,69.627477
14.417,0.014213,0.003794,-0.037146,0.000413,-0.00017,0.001569,-0.003637,-0.50583,-0.035457,1.067592,-261.314117,-1.187017,69.627949
14.4373,0.014884,0.003682,-0.037129,0.000397,-0.000184,0.001572,-0.004081,-0.505841,-0.03614,1.067592,-261.314117,-1.187017,69.627949
14.457,0.014696,0.003578,-0.035946,0.000385,-0.000194,0.001574,-0.004035,-0.505973,-0.03708,1.087854,-261.313768,-1.21954,69.628419
14.4768,0.014595,0.003948,-0.036898,0.000349,-0.000206,0.001581,-0.003667,-0.506083,-0.036042,1.087854,-261.313768,-1.21954,69.628419
14.4973,0.01447,0.004,-0.038079,0.00032,-0.000215,0.001586,-0.003667,-0.506083,-0.036042,1.087854,-261.313768,-1.21954,69.628419
14.5167,0.014559,0.003822,-0.03734,0.000297,-0.000221,0.00159,-0.00493,-0.505639,-0.038014,1.105961,-261.313432,-1.249412,69.628897
14.5368,0.014612,0.004027,-0.035683,0.000348,-0.000187,0.001582,-0.004744,-0.505715,-0.037731,1.105961,-261.313432,-1.249412,69.628897
14.5563,0.014084,0.004021,-0.036384,0.00039,-0.000161,0.001576,-0.003574,-0.505654,-0.035642,1.18098,-261.313173,-1.324431,69.629291
14.5766,0.014364,0.004109,-0.036275,0.000392,-0.000174,0.001574,-0.00439,-0.505643,-0.036318,1.18098,-261.313173,-1.324431,69.629291
14.5967,0.014625,0.003589,-0.036396,0.000395,-0.000185,0.001572,-0.00439,-0.505643,-0.036318,1.18098,-261.313173,-1.324431,69.629291
14.617,0.014297,0.003683,-0.036348,0.000397,-0.000195,0.001571,-0.00392,-0.506079,-0.036341,1.118124,-261.312878,-1.249451,69.629685
14.6369,0.014537,0.003943,-0.036979,0.000393,-0.000183,0.001573,-0.004048,-0.50604,-0.036338,1.118124,-261.312878,-1.249451,69.629685
14.6568,0.014637,0.003984,-0.035716,0.000391,-0.000173,0.001575,-0.004306,-0.505715,-0.03693,1.092241,-261.312537,-1.239585,69.630167
14.6767,0.014371,0.00344,-0.034648,0.000326,-0.000235,0.00158,-0.003637,-0.505693,-0.035819,1.092241,-261.312537,-1.239585,69.630167
14.6967,0.014365,0.004107,-0.035971,0.000274,-0.000284,0.001584,-0.003637,-0.505693,-0.035819,1.092241,-261.312537,-1.239585,69.630167
14.7165,0.014242,0.003739,-0.037084,0.000232,-0.000322,0.001586,-0.00396,-0.505571,-0.035906,1.111077,-261.312186,-1.239492,69.630645
14.7367,0.014442,0.003719,-0.035868,0.000256,-0.000304,0.001583,-0.00425,-0.505712,-0.036385,1.111077,-261.312186,-1.239492,69.630645
14.7566,0.014215,0.004095,-0.03562,0.000277,-0.00029,0.00158,-0.003842,-0.505958,-0.035841,1.18613,-261.312035,-1.314545,69.630934
14.7766,0.014293,0.00355,-0.033529,0.000259,-0.000314,0.001579,-0.003938,-0.505615,-0.035638,1.18613,-261.312035,-1.314545,69.630934
14.7967,0.014406,0.003565,-0.034239,0.000244,-0.000332,0.001578,-0.003938,-0.505615,-0.035638,1.18613,-261.312035,-1.314545,69.630934
14.8166,0.014709,0.003659,-0.035429,0.000232,-0.000347,0.001577,-0.003041,-0.506149,-0.034174,1.181717,-261.311751,-1.353986,69.631435
14.8365,0.01441,0.003774,-0.034549,0.00017,-0.000364,0.001586,-0.003169,-0.506098,-0.03468,1.181717,-261.311751,-1.353986,69.631435
14.8565,0.014195,0.00363,-0.036446,0.00012,-0.000376,0.001593,-0.0032,-0.505932,-0.034501,1.210221,-261.311498,-1.395201,69.631946
14.8769,0.014092,0.003823,-0.035231,0.000185,-0.000308,0.001587,-0.004282,-0.506023,-0.03627,1.210221,-261.311498,-1.395201,69.631946
14.8966,0.014317,0.00429,-0.035136,0.000238,-0.000255,0.001583,-0.004282,-0.506023,-0.03627,1.210221,-261.311498,-1.395201,69.631946
14.9167,0.014376,0.003961,-0.035087,0.000281,-0.000214,0.001579,-0.003596,-0.505405,-0.035098,1.285217,-261.311357,-1.470197,69.63226
14.9368,0.014644,0.003939,-0.035215,0.000217,-0.000288,0.00158,-0.003562,-0.505537,-0.035089,1.285217,-261.311357,-1.470197,69.63226
14.9565,0.01431,0.003803,-0.034596,0.000166,-0.000346,0.00158,-0.003307,-0.50575,-0.03518,1.212453,-261.311136,-1.395202,69.632594
