mach0312/omni-docking-bench/src/icros_test_setup/results/MPPI_sample/timeseries/trial_055.csv
t,x,y,yaw,vx,vy,wz,bl_x,bl_y,bl_yaw,front_steering_joint,front_wheel_joint,rear_steering_joint,rear_wheel_joint
0.0,0.000883,-0.028679,0.001054,-0.000446,-0.006333,-0.001233,0.00056,-0.537425,3.4e-05,-1.633594,-259.812417,1.491113,72.741032
0.0004,0.000834,-0.028805,-0.00211,-0.000368,-0.00523,-0.001018,0.00056,-0.537425,3.4e-05,-1.633594,-259.807222,1.491113,72.736936
0.0008,0.000834,-0.028455,-0.001355,-0.000283,-0.004028,-0.000784,0.000511,-0.537439,-0.000275,-1.633594,-259.803052,1.491113,72.733649
0.0011,0.000847,-0.028718,-8e-05,-0.000194,-0.00276,-0.000537,0.000511,-0.537439,-0.000275,-1.633594,-259.799732,1.491113,72.731031
0.0014,0.000758,-0.028878,-0.001693,-0.0001,-0.001415,-0.000276,0.000477,-0.537471,-0.000528,-1.633594,-259.797925,1.491113,72.729607
0.0017,0.000435,-0.028822,-0.000161,0.0,0.0,0.0,0.00039,-0.537678,-0.000705,-1.633594,-259.797291,1.491113,72.729106
0.0019,0.000722,-0.029118,-0.000284,0.0,0.0,0.0,0.00039,-0.537678,-0.000705,-1.633594,-259.797291,1.491113,72.729106
0.0022,0.00088,-0.029038,-0.00053,0.0,0.0,0.0,0.00039,-0.537678,-0.000705,-1.633594,-259.797291,1.491113,72.729106
0.0024,0.000796,-0.02903,-0.000339,0.0,0.0,0.0,0.000256,-0.538324,-0.00113,-1.633594,-259.797291,1.491113,72.729106
0.0167,0.000919,-0.029258,-0.000207,0.0,0.0,0.0,0.000623,-0.53903,-0.000339,-1.633594,-259.797291,1.491113,72.729106
0.0368,0.000936,-0.02902,-0.001329,0.0,0.0,0.0,0.000701,-0.539122,-0.000285,-1.633594,-259.797291,1.491113,72.729106
0.0567,0.000794,-0.028878,-0.001088,0.0,0.0,0.0,0.000259,-0.539019,-0.001329,-1.633594,-259.797291,1.491113,72.729106
0.0767,0.000884,-0.029224,0.000206,0.0,0.0,0.0,0.000241,-0.538891,-0.001111,-1.633594,-259.797291,1.491113,72.729106
0.0964,0.000859,-0.028956,0.00016,0.0,0.0,0.0,0.000241,-0.538891,-0.001111,-1.633594,-259.797291,1.491113,72.729106
0.1164,0.000582,-0.028835,-0.001707,0.000353,0.001668,0.001055,0.00094,-0.538956,0.00016,-1.633594,-259.797291,1.491113,72.729106
0.1367,0.000488,-0.029321,0.000176,0.000384,0.001796,0.000885,0.000433,-0.538906,-0.000611,-1.633594,-259.797291,1.491113,72.729106
0.1565,0.000768,-0.028658,-0.000729,0.000414,0.001902,0.000751,0.00058,-0.539304,0.000186,-1.708802,-259.797585,1.415906,72.729243
0.1764,0.001436,-0.028949,-0.001859,0.000443,0.001989,0.000664,0.000412,-0.538714,-0.000648,-1.708802,-259.797585,1.415906,72.729243
0.1964,0.001426,-0.028823,-0.001521,0.00047,0.002063,0.000596,0.000412,-0.538714,-0.000648,-1.708802,-259.797585,1.415906,72.729243
0.2164,0.000742,-0.028828,-0.001958,0.000494,0.002124,0.000542,0.000662,-0.538761,-0.001497,-1.744618,-259.798317,1.340991,72.729701
0.2367,0.000546,-0.028856,-0.000792,0.000531,0.002189,0.001022,0.000285,-0.538781,-0.001684,-1.744618,-259.798317,1.340991,72.729701
0.2564,0.000718,-0.028554,-0.000914,0.00056,0.002239,0.001359,0.000142,-0.538856,-0.000792,-1.669595,-259.798317,1.301854,72.729701
0.2765,0.000677,-0.029038,-0.001094,0.000576,0.002268,0.001202,0.000242,-0.538579,-0.000903,-1.669595,-259.798317,1.301854,72.729701
0.2965,0.000402,-0.028764,-0.002671,0.000592,0.002293,0.001089,0.000242,-0.538579,-0.000903,-1.669595,-259.798317,1.301854,72.729701
0.3165,0.000787,-0.02901,-0.000982,0.000607,0.002313,0.001007,-0.00096,-0.538762,-0.002671,-1.594612,-259.798317,1.226871,72.729701
0.3367,0.000571,-0.029126,-0.000693,0.000655,0.002342,0.001466,-0.000451,-0.538863,-0.001982,-1.594612,-259.798317,1.226871,72.729701
0.3566,0.001144,-0.028951,-0.000968,0.000693,0.002363,0.00179,0.000218,-0.539126,-0.000693,-1.519753,-259.798317,1.227745,72.729702
0.3763,0.000825,-0.028737,-0.001566,0.000673,0.002365,0.001513,0.00061,-0.538967,-0.000943,-1.519753,-259.798317,1.227745,72.729702
0.3963,0.000464,-0.028965,-0.000369,0.000659,0.002369,0.001317,0.00061,-0.538967,-0.000943,-1.519753,-259.798317,1.227745,72.729702
0.4164,0.000742,-0.02861,-0.001881,0.000649,0.002372,0.001178,0.000276,-0.538964,-0.000369,-1.444739,-259.798317,1.152731,72.729702
0.4364,0.001121,-0.028972,0.001232,0.000664,0.002376,0.001105,7.3e-05,-0.538818,-0.000991,-1.444739,-259.798317,1.152731,72.729702
0.4561,0.00089,-0.028966,0.000438,0.000676,0.002379,0.001053,0.00175,-0.538971,0.001232,-1.369629,-259.798317,1.196357,72.729702
0.4765,0.000883,-0.028571,0.00063,0.00062,0.002364,0.000218,0.001168,-0.538966,0.000506,-1.369629,-259.798317,1.196357,72.729702
0.4963,0.000749,-0.028813,-0.002261,0.000582,0.002354,-0.000381,0.001168,-0.538966,0.000506,-1.369629,-259.798317,1.196357,72.729702
0.5163,0.000651,-0.028462,-0.000441,0.000556,0.002348,-0.000807,-0.000404,-0.538811,-0.002261,-1.29465,-259.798316,1.199382,72.729702
0.5365,0.000923,-0.028518,0.000764,0.00061,0.002372,-4.1e-05,-6.5e-05,-0.538669,-0.001518,-1.29465,-259.798316,1.199382,72.729702
0.5567,0.000578,-0.029235,-0.001415,0.000651,0.002388,0.000503,0.001313,-0.538518,0.000764,-1.219758,-259.798316,1.274274,72.729702
0.5763,0.000496,-0.028898,-0.000477,0.000678,0.002395,0.000744,-1.6e-05,-0.539172,-0.001224,-1.219758,-259.798316,1.274274,72.729702
0.5967,0.000982,-0.028663,-0.001247,0.000699,0.002399,0.000915,-1.6e-05,-0.539172,-0.001224,-1.219758,-259.798316,1.274274,72.729702
0.6162,0.0009,-0.029193,-0.001548,0.000716,0.002402,0.001036,0.000345,-0.538663,-0.001247,-1.144652,-259.798316,1.267618,72.729702
0.6365,0.000696,-0.028824,-0.000467,0.00072,0.002404,0.001194,0.000249,-0.538879,-0.00137,-1.144652,-259.798316,1.267618,72.729702
0.6563,0.000878,-0.028883,-0.000505,0.000723,0.002406,0.001305,0.000458,-0.538824,-0.000467,-1.069746,-259.798316,1.192711,72.729702
0.6763,0.000905,-0.028801,0.000207,0.000699,0.002394,0.000929,0.000606,-0.538877,-0.000501,-1.069746,-259.798316,1.192711,72.729702
0.6963,0.000534,-0.028769,0.000214,0.000682,0.002386,0.000662,0.000606,-0.538877,-0.000501,-1.069746,-259.798316,1.192711,72.729702
0.7162,0.000467,-0.028937,-0.000126,0.00067,0.002381,0.000474,0.000643,-0.538769,0.000214,-0.99465,-259.798316,1.148406,72.729702
0.7363,0.000748,-0.029081,-0.000351,0.000654,0.00237,2.7e-05,0.000544,-0.538838,7.4e-05,-0.99465,-259.798316,1.148406,72.729702
0.7562,0.000972,-0.02894,-0.001162,0.000646,0.002363,-0.000289,0.000569,-0.539081,-0.000351,-0.919656,-259.798316,1.2234,72.729702
0.7768,0.000799,-0.028891,-0.001259,0.000664,0.002375,0.000118,0.000396,-0.538952,-0.001091,-0.919656,-259.798316,1.2234,72.729702
0.7964,0.00129,-0.029166,-0.000979,0.000676,0.002384,0.000406,0.000396,-0.538952,-0.001091,-0.919656,-259.798316,1.2234,72.729702
0.8165,0.000827,-0.02902,-0.000589,0.000685,0.002389,0.000608,0.00079,-0.539166,-0.000979,-0.844641,-259.798316,1.298415,72.729702
0.8365,0.000437,-0.028944,0.000495,0.000676,0.002389,0.000608,0.000681,-0.539106,-0.000818,-0.844641,-259.798316,1.298415,72.729702
0.8563,0.00096,-0.028621,-0.001324,0.000669,0.002388,0.000608,0.00069,-0.538944,0.000495,-0.769601,-259.798316,1.243568,72.729702
0.8767,0.000925,-0.02879,-0.001216,0.00068,0.002392,0.000789,0.00032,-0.538649,-0.001167,-0.769601,-259.798316,1.243568,72.729702
0.8963,0.000992,-0.028747,-0.000792,0.000689,0.002395,0.000917,0.00032,-0.538649,-0.001167,-0.769601,-259.798316,1.243568,72.729702
0.9163,0.000772,-0.0285,-0.000246,0.000694,0.002396,0.001007,0.000589,-0.538747,-0.000792,-0.694597,-259.798316,1.25061,72.729702
0.9364,0.000704,-0.029316,-0.000734,0.000679,0.002388,0.000753,0.000613,-0.538645,-0.000566,-0.694597,-259.798316,1.25061,72.729702
0.9563,0.000481,-0.028912,-0.001048,0.000668,0.002383,0.000573,0.00033,-0.539316,-0.000734,-0.619607,-259.798316,1.199026,72.729702
0.9763,0.001026,-0.029335,-0.001182,0.000691,0.002386,0.000688,-2.1e-05,-0.538946,-0.001022,-0.619607,-259.798316,1.199026,72.729702
0.9967,0.000584,-0.028657,5.5e-05,0.000709,0.002388,0.00077,-2.1e-05,-0.538946,-0.001022,-0.619607,-259.798316,1.199026,72.729702
1.0164,0.000442,-0.028585,-0.000949,0.000724,0.002389,0.000827,0.000612,-0.538657,5.5e-05,-0.544604,-259.798315,1.253155,72.729703
1.0366,0.000716,-0.028911,-0.000115,0.000712,0.00238,0.000513,0.000342,-0.538627,-0.00036,-0.544604,-259.798315,1.253155,72.729703
1.0564,0.000704,-0.028998,-0.000511,0.000705,0.002374,0.00029,0.000658,-0.538911,-0.000115,-0.469607,-259.798315,1.203952,72.729703
1.0766,0.000986,-0.029012,3.2e-05,0.000698,0.002373,0.000197,0.000462,-0.538991,-0.000477,-0.469607,-259.798315,1.203952,72.729703
1.0964,0.001147,-0.028786,-0.000971,0.000694,0.002372,0.000133,0.000462,-0.538991,-0.000477,-0.469607,-259.798315,1.203952,72.729703
1.117,0.000857,-0.02888,-0.00128,0.000691,0.002372,8.8e-05,0.000652,-0.538786,-0.000971,-0.394648,-259.798315,1.260499,72.729703
1.1366,0.000842,-0.029041,-0.000663,0.000697,0.00238,0.000388,0.000467,-0.538825,-0.001099,-0.394648,-259.798315,1.260499,72.729703
1.1563,0.000565,-0.028649,-0.001186,0.0007,0.002386,0.0006,0.000504,-0.539041,-0.000663,-0.319464,-259.798315,1.280952,72.729703
1.1766,0.000975,-0.029061,-0.000616,0.000718,0.00239,0.000769,8e-06,-0.538683,-0.00114,-0.319464,-259.798315,1.280952,72.729703
1.1964,0.000966,-0.028832,-0.000691,0.000732,0.002392,0.000889,8e-06,-0.538683,-0.00114,-0.319464,-259.798315,1.280952,72.729703
1.2166,0.00069,-0.028741,-0.000454,0.000742,0.002394,0.000973,0.000614,-0.538832,-0.000691,-0.244658,-259.798315,1.237152,72.729703
1.2365,0.001005,-0.028711,0.000848,0.000722,0.002386,0.000743,0.00055,-0.538795,-0.000594,-0.244658,-259.798315,1.237152,72.729703
1.2568,0.000806,-0.028454,-0.001432,0.000708,0.002382,0.00058,0.001437,-0.538711,0.000848,-0.169615,-259.798315,1.179614,72.729703
1.2764,0.000627,-0.028867,-0.001849,0.000719,0.002388,0.000807,0.000188,-0.538475,-0.001243,-0.169615,-259.798315,1.179614,72.729703
1.2965,0.000606,-0.029017,-0.001593,0.000726,0.002391,0.000967,0.000188,-0.538475,-0.001243,-0.169615,-259.798315,1.179614,72.729703
1.3164,0.000894,-0.029004,-0.001429,0.000731,0.002393,0.00108,-0.000206,-0.539016,-0.001593,-0.09454,-259.798315,1.235002,72.729703
1.3365,0.000896,-0.029207,-0.001217,0.000746,0.002398,0.001298,-5.4e-05,-0.539011,-0.001526,-0.09454,-259.798315,1.235002,72.729703
1.3567,0.000919,-0.02887,9.9e-05,0.000757,0.0024,0.001451,0.000275,-0.539207,-0.001217,-0.019605,-259.798315,1.17181,72.729703
1.3769,0.00061,-0.028964,-0.000217,0.000706,0.002382,0.000763,0.000912,-0.538898,-1e-05,-0.019605,-259.798315,1.17181,72.729703
1.3964,0.000752,-0.028796,-0.000525,0.000669,0.002369,0.000273,0.000912,-0.538898,-1e-05,-0.019605,-259.798315,1.17181,72.729703
1.4168,0.000668,-0.028488,0.001658,0.000644,0.002362,-7.3e-05,0.000484,-0.538796,-0.000525,0.055488,-259.798315,1.107143,72.729703
1.4368,0.000828,-0.029064,-0.00154,0.000618,0.002353,-0.000524,0.000908,-0.538669,0.000374,0.055488,-259.798315,1.107143,72.729703
1.4564,0.000795,-0.028643,-0.000756,0.000602,0.002347,-0.000843,4.3e-05,-0.539063,-0.00154,0.130397,-259.798314,1.182053,72.729703
1.4766,0.000839,-0.028592,-0.001976,0.000629,0.002361,-0.000411,0.000377,-0.53868,-0.000825,0.130397,-259.798314,1.182053,72.729703
1.4972,0.000934,-0.028735,-0.001328,0.00065,0.00237,-0.000106,0.000377,-0.53868,-0.000825,0.130397,-259.798314,1.182053,72.729703
1.5165,0.001003,-0.028702,0.000604,0.000665,0.002377,0.000109,0.000257,-0.538735,-0.001328,0.20535,-259.798314,1.257006,72.729703
1.5366,0.00059,-0.028687,-0.000379,0.000659,0.002377,0.000105,0.000689,-0.538721,-0.000535,0.20535,-259.798314,1.257006,72.729703
1.5563,0.001078,-0.028879,-0.000552,0.000655,0.002377,0.000102,0.000397,-0.538687,-0.000379,0.280358,-259.798314,1.290692,72.729703
1.5764,0.000571,-0.029015,-0.001317,0.000649,0.002377,0.000101,0.000763,-0.538863,-0.000537,0.280358,-259.798314,1.290692,72.729703
1.5969,0.000366,-0.028648,0.000215,0.000644,0.002377,0.000101,0.000763,-0.538863,-0.000537,0.280358,-259.798314,1.290692,72.729703
1.6164,0.001094,-0.028886,-0.001062,0.00064,0.002377,0.000101,0.000476,-0.538648,0.000215,0.355408,-259.798314,1.294986,72.729703
1.6365,0.000921,-0.029099,-0.000639,0.000642,0.002374,-2.4e-05,0.000508,-0.538746,-0.00031,0.355408,-259.798314,1.294986,72.729703
1.6566,0.000891,-0.028743,-0.001392,0.000645,0.002371,-0.000112,0.000595,-0.539099,-0.000639,0.430373,-259.798314,1.301187,72.729704
1.6764,0.000953,-0.029034,-0.00133,0.000671,0.002384,0.000363,0.000216,-0.538773,-0.001328,0.430373,-259.798314,1.301187,72.729704
1.6968,0.000949,-0.028925,-0.001023,0.00069,0.002392,0.000698,0.000216,-0.538773,-0.001328,0.430373,-259.798314,1.301187,72.729704
1.7168,0.000606,-0.028822,0.000574,0.000703,0.002396,0.000934,0.000427,-0.538925,-0.001023,0.505398,-259.798314,1.312296,72.729704
1.7367,0.000725,-0.029002,-0.000198,0.000683,0.002386,0.000592,0.000621,-0.538883,-0.000365,0.505398,-259.798314,1.312296,72.729704
1.7562,0.0008,-0.028722,-0.001881,0.00067,0.002379,0.00035,0.000624,-0.539002,-0.000198,0.580355,-259.798314,1.237338,72.729704
1.7765,0.000744,-0.029028,-0.001139,0.000702,0.002392,0.000877,-9.2e-05,-0.538745,-0.001738,0.580355,-259.798314,1.237338,72.729704
1.7964,0.000786,-0.028455,-0.000633,0.000725,0.0024,0.001251,-9.2e-05,-0.538745,-0.001738,0.580355,-259.798314,1.237338,72.729704
1.8164,0.000504,-0.028662,-0.001571,0.000742,0.002404,0.001515,0.000463,-0.538455,-0.000633,0.65539,-259.798314,1.270624,72.729704
1.8367,0.001087,-0.028809,-0.001831,0.000738,0.002398,0.001348,0.000149,-0.53854,-0.00102,0.65539,-259.798314,1.270624,72.729704
1.8566,0.000719,-0.029021,-0.000275,0.000736,0.002393,0.001231,0.000154,-0.538808,-0.001831,0.730399,-259.798313,1.195616,72.729704
1.8763,0.00071,-0.028938,-0.001573,0.000711,0.002381,0.000821,0.000542,-0.539003,-0.000408,0.730399,-259.798313,1.195616,72.729704
1.8963,0.000778,-0.028803,0.000596,0.000694,0.002374,0.000531,0.000542,-0.539003,-0.000408,0.730399,-259.798313,1.195616,72.729704
1.9163,0.000996,-0.028901,-0.00161,0.000683,0.002369,0.000326,0.001082,-0.538803,0.000596,0.805408,-259.798311,1.149301,72.729705
1.9364,0.001005,-0.029149,-0.000308,0.000668,0.002365,0.000128,0.000711,-0.538843,-0.000307,0.805408,-259.798311,1.149301,72.729705
1.9564,0.000967,-0.028622,-0.00292,0.000657,0.002363,-1.1e-05,0.000848,-0.539149,-0.000308,0.880406,-259.798299,1.224299,72.729715
1.9766,0.000943,-0.029101,-0.001844,0.000707,0.002386,0.000992,-0.000406,-0.538664,-0.002699,0.880406,-259.798299,1.224299,72.729715
1.9964,0.000881,-0.028742,-0.000522,0.000744,0.0024,0.001709,-0.000406,-0.538664,-0.002699,0.880406,-259.798299,1.224299,72.729715
2.0165,0.000896,-0.028929,-0.001358,0.000771,0.002408,0.00222,0.000617,-0.538737,-0.000523,0.955396,-259.79825,1.299289,72.729765
2.0366,0.000798,-0.028923,-0.001143,0.00074,0.002394,0.001747,0.000449,-0.538814,-0.000863,0.955396,-259.79825,1.299289,72.729765
2.0566,0.00056,-0.028829,-0.000703,0.000719,0.002384,0.001417,0.000216,-0.538922,-0.001142,1.030262,-259.798239,1.224424,72.729769
2.0765,0.001322,-0.028963,-0.000362,0.000713,0.002377,0.001122,0.000203,-0.538837,-0.000741,1.030262,-259.798239,1.224424,72.729769
2.0968,0.000668,-0.028772,0.000106,0.00071,0.002372,0.000916,0.000203,-0.538837,-0.000741,1.030262,-259.798239,1.224424,72.729769
2.1166,0.000669,-0.029064,-0.002056,0.000709,0.00237,0.000773,0.000729,-0.538757,0.000114,1.105353,-259.798028,1.149332,72.729875
2.1366,0.000712,-0.02883,-0.000885,0.000708,0.00237,0.000693,0.000274,-0.538881,-0.000778,1.105353,-259.798028,1.149332,72.729875
2.1566,0.001391,-0.028585,-4.5e-05,0.000708,0.00237,0.000639,0.000273,-0.538798,-0.000876,1.180391,-259.79753,1.213279,72.73022
2.1766,0.000597,-0.028771,-0.00066,0.000661,0.002361,0.000245,0.001268,-0.538603,-0.00012,1.180391,-259.79753,1.213279,72.73022
2.1966,0.000862,-0.028782,-0.000605,0.000625,0.002355,-3.3e-05,0.001268,-0.538603,-0.00012,1.180391,-259.79753,1.213279,72.73022
2.2166,0.000874,-0.028685,0.000222,0.000599,0.002352,-0.000228,0.000577,-0.53871,-0.000587,1.25524,-259.796697,1.227264,72.730834
2.2365,0.000999,-0.029092,-0.000167,0.0006,0.002353,-0.00029,0.000747,-0.538692,-0.000255,1.25524,-259.796697,1.227264,72.730834
2.2563,0.00098,-0.028749,-0.000394,0.000602,0.002355,-0.000333,0.00093,-0.539033,-0.000172,1.306699,-259.795966,1.302289,72.731652
2.2764,0.0013,-0.028472,-0.001092,0.000605,0.002358,-0.000295,0.000793,-0.53877,-0.000376,1.306699,-259.795966,1.302289,72.731652
2.2964,0.001148,-0.028848,-0.000829,0.000607,0.00236,-0.000268,0.000793,-0.53877,-0.000376,1.306699,-259.795966,1.302289,72.731652
2.3163,0.001067,-0.028363,0.00041,0.000608,0.002362,-0.000248,0.00075,-0.538752,-0.000843,1.297887,-259.795094,1.339571,72.732677
2.3366,0.000959,-0.028737,-0.000342,0.000602,0.002363,-0.000259,0.000969,-0.538581,-0.000329,1.297887,-259.795094,1.339571,72.732677
2.3566,0.000969,-0.02828,0.000688,0.000597,0.002364,-0.000266,0.000804,-0.538662,-0.00035,1.30234,-259.794179,1.333368,72.733709
2.3765,0.001173,-0.028215,-0.000719,0.000564,0.002353,-0.00077,0.001274,-0.53831,0.000595,1.30234,-259.794179,1.333368,72.733709
2.3967,0.001113,-0.028448,-0.000762,0.000541,0.002346,-0.001128,0.001274,-0.53831,0.000595,1.30234,-259.794179,1.333368,72.733709
2.4162,0.001342,-0.028115,-0.001543,0.000525,0.002342,-0.001382,0.000749,-0.538349,-0.000773,1.306117,-259.793267,1.338854,72.734747
2.4365,0.000642,-0.028248,0.001013,0.000559,0.002362,-0.000651,0.000673,-0.538242,-0.001087,1.306117,-259.793267,1.338854,72.734747
2.4562,0.000803,-0.027844,-0.001566,0.000584,0.002375,-0.000135,0.001173,-0.538184,0.000975,1.233762,-259.792726,1.407554,72.735848
2.4765,0.000622,-0.028159,-0.001952,0.000625,0.002387,0.000356,0.000108,-0.53787,-0.001343,1.233762,-259.792726,1.407554,72.735848
2.4966,0.000809,-0.02832,-0.000141,0.000655,0.002395,0.000701,0.000108,-0.53787,-0.001343,1.233762,-259.792726,1.407554,72.735848
2.5163,0.001218,-0.027757,-0.000514,0.000678,0.002399,0.000945,0.000758,-0.538239,-0.000146,1.308756,-259.791952,1.337454,72.736674
2.5365,0.001001,-0.028004,-0.000376,0.000652,0.002387,0.000564,0.000841,-0.538033,-0.000296,1.308756,-259.791952,1.337454,72.736674
2.5563,0.001111,-0.027863,-0.003456,0.000634,0.002378,0.000293,0.000824,-0.537945,-0.000354,1.346859,-259.791016,1.262456,72.73727
2.5762,0.001062,-0.027834,0.001065,0.000693,0.002398,0.001364,-0.000515,-0.537865,-0.00317,1.346859,-259.791016,1.262456,72.73727
2.5964,0.001159,-0.027603,0.000248,0.000736,0.00241,0.002135,-0.000515,-0.537865,-0.00317,1.346859,-259.791016,1.262456,72.73727
2.6165,0.001233,-0.027848,0.000458,0.000767,0.002416,0.002685,0.001311,-0.537505,0.00026,1.327826,-259.789981,1.290147,72.738169
2.6365,0.001126,-0.027758,-0.000715,0.000668,0.002384,0.001444,0.001377,-0.537633,0.000342,1.327826,-259.789981,1.290147,72.738169
2.6561,0.001079,-0.02754,-0.000582,0.000599,0.002362,0.000553,0.000762,-0.537757,-0.000714,1.383862,-259.789956,1.215177,72.738176
2.6765,0.001283,-0.027781,0.000149,0.000593,0.00236,0.000424,0.000781,-0.537559,-0.000593,1.383862,-259.789956,1.215177,72.738176
2.6967,0.001338,-0.027895,-0.001337,0.00059,0.002359,0.000338,0.000781,-0.537559,-0.000593,1.383862,-259.789956,1.215177,72.738176
2.7168,0.001678,-0.027798,0.00021,0.000588,0.00236,0.000282,0.000679,-0.537804,-0.001316,1.352398,-259.788946,1.28295,72.738947
2.7365,0.000841,-0.027893,-0.00109,0.000576,0.002362,0.000303,0.001128,-0.537791,-0.000698,1.352398,-259.788946,1.28295,72.738947
2.7565,0.001273,-0.027739,-0.000862,0.000567,0.002364,0.00032,0.000303,-0.537818,-0.00108,1.344945,-259.787899,1.303465,72.739834
2.7771,0.001155,-0.02787,-0.000451,0.000574,0.002369,0.000431,0.000789,-0.537742,-0.00088,1.344945,-259.787899,1.303465,72.739834
2.7965,0.001243,-0.027857,-0.000227,0.00058,0.002372,0.000511,0.000789,-0.537742,-0.00088,1.344945,-259.787899,1.303465,72.739834
2.8164,0.001109,-0.027481,0.000344,0.000584,0.002374,0.000569,0.001151,-0.537758,-0.000214,1.352933,-259.786854,1.315251,72.740728
2.8365,0.001229,-0.027374,0.00157,0.000556,0.002363,0.000122,0.001209,-0.537633,1.8e-05,1.352933,-259.786854,1.315251,72.740728
2.8564,0.000744,-0.027382,-0.000703,0.000537,0.002356,-0.000193,0.002048,-0.537298,0.001588,1.35927,-259.785752,1.290077,72.741563
2.8766,0.001344,-0.027332,-9.2e-05,0.00056,0.00236,-0.000125,0.000526,-0.537371,-0.000509,1.35927,-259.785752,1.290077,72.741563
2.8965,0.00084,-0.027125,-0.001738,0.000578,0.002363,-7.7e-05,0.000526,-0.537371,-0.000509,1.35927,-259.785752,1.290077,72.741563
2.9166,0.001252,-0.026851,-0.001283,0.000593,0.002365,-4.2e-05,-2.5e-05,-0.537034,-0.001745,1.335232,-259.784903,1.356961,72.742496
2.9367,0.001326,-0.027463,-0.000962,0.000626,0.00238,0.000519,0.000232,-0.536949,-0.001557,1.335232,-259.784903,1.356961,72.742496
2.9565,0.001328,-0.027222,-0.001982,0.000651,0.002389,0.000915,0.000854,-0.537389,-0.000963,1.322462,-259.783954,1.327581,72.743465
2.9765,0.000981,-0.027157,-0.0015,0.000665,0.002398,0.001348,0.000364,-0.537231,-0.001895,1.322462,-259.783954,1.327581,72.743465
2.9966,0.001499,-0.02696,-0.001464,0.000674,0.002404,0.001654,0.000364,-0.537231,-0.001895,1.322462,-259.783954,1.327581,72.743465
3.0168,0.001392,-0.027189,-0.000171,0.00068,0.002406,0.00187,0.000774,-0.536875,-0.001432,1.353537,-259.782937,1.252582,72.744119
3.037,0.001072,-0.027194,-0.001388,0.000647,0.002395,0.001543,0.000992,-0.536992,-0.000918,1.353537,-259.782937,1.252582,72.744119
3.0563,0.001316,-0.027047,0.000415,0.000622,0.002387,0.001313,0.000376,-0.537146,-0.001353,1.381501,-259.782064,1.177689,72.744466
3.0767,0.001007,-0.027057,0.000259,0.000564,0.002367,0.000516,0.00143,-0.537053,0.000266,1.381501,-259.782064,1.177689,72.744466
3.0964,0.000785,-0.026859,-0.001156,0.000524,0.002354,-5.2e-05,0.00143,-0.537053,0.000266,1.381501,-259.782064,1.177689,72.744466
3.1164,0.001447,-0.026955,-0.00078,0.000497,0.002345,-0.000454,0.000221,-0.536759,-0.001102,1.378083,-259.780775,1.196677,72.745142
3.137,0.001476,-0.026829,-0.000887,0.000532,0.002358,-6.7e-05,0.000559,-0.536827,-0.000965,1.378083,-259.780775,1.196677,72.745142
3.1562,0.001086,-0.026641,-0.001625,0.000558,0.002367,0.000207,0.001035,-0.536788,-0.000894,1.335026,-259.780304,1.271512,72.745733
3.1766,0.001226,-0.026962,0.000107,0.000592,0.00238,0.000693,0.000329,-0.536652,-0.001559,1.335026,-259.780304,1.271512,72.745733
3.1967,0.00116,-0.026873,0.000204,0.000617,0.002389,0.001038,0.000329,-0.536652,-0.001559,1.335026,-259.780304,1.271512,72.745733
3.2165,0.001651,-0.026613,0.000938,0.000635,0.002394,0.001282,0.001286,-0.536779,0.000212,1.350532,-259.779333,1.326656,72.746611
3.2366,0.001201,-0.026489,0.000803,0.000562,0.00237,0.000372,0.001636,-0.5367,0.000512,1.350532,-259.779333,1.326656,72.746611
3.2568,0.00138,-0.02665,-0.000469,0.00051,0.002355,-0.000281,0.001624,-0.536432,0.000833,1.373465,-259.778361,1.251484,72.74713
3.2769,0.001258,-0.026942,-9.8e-05,0.000507,0.002356,-0.000277,0.001185,-0.536627,-0.00035,1.373465,-259.778361,1.251484,72.74713
3.2971,0.001195,-0.026173,-0.001017,0.000505,0.002357,-0.000272,0.001185,-0.536627,-0.00035,1.373465,-259.778361,1.251484,72.74713
3.317,0.00106,-0.026499,-0.000373,0.000504,0.002358,-0.000267,0.000695,-0.536097,-0.001025,1.341538,-259.777661,1.326297,72.747934
3.3371,0.001339,-0.02629,-0.000363,0.000525,0.002365,-3.9e-05,0.000768,-0.536251,-0.000762,1.341538,-259.777661,1.326297,72.747934
3.3564,0.001345,-0.026285,-0.000699,0.000541,0.00237,0.000123,0.001169,-0.536217,-0.000371,1.34519,-259.776791,1.373599,72.748928
3.3766,0.001393,-0.02629,0.000941,0.000542,0.002372,0.000188,0.001005,-0.536276,-0.000671,1.34519,-259.776791,1.373599,72.748928
3.3965,0.001568,-0.026544,-0.000138,0.000543,0.002373,0.000235,0.001005,-0.536276,-0.000671,1.34519,-259.776791,1.373599,72.748928
3.4164,0.001428,-0.026298,-0.00043,0.000543,0.002373,0.000267,0.00152,-0.536447,-0.000133,1.352917,-259.775809,1.339135,72.749852
3.4367,0.001621,-0.02658,-0.000547,0.00052,0.002367,6.3e-05,0.001395,-0.536374,-0.000254,1.352917,-259.775809,1.339135,72.749852
3.4567,0.001486,-0.02608,-0.000817,0.000503,0.002363,-8.1e-05,0.001359,-0.536504,-0.000538,1.359992,-259.774774,1.329978,72.750761
3.4768,0.001261,-0.026263,-0.001641,0.00051,0.002368,0.000111,0.001095,-0.536113,-0.000793,1.359992,-259.774774,1.329978,72.750761
3.4972,0.001201,-0.026141,-0.001214,0.000514,0.002372,0.000247,0.001095,-0.536113,-0.000793,1.359992,-259.774774,1.329978,72.750761
3.5169,0.001486,-0.026037,-0.001158,0.000517,0.002374,0.000342,0.000603,-0.536042,-0.001217,1.356628,-259.773847,1.365195,72.751726
3.5369,0.00116,-0.025879,1e-05,0.000538,0.002381,0.000618,0.000719,-0.536029,-0.001194,1.356628,-259.773847,1.365195,72.751726
3.5567,0.00164,-0.026149,-0.000977,0.000554,0.002385,0.000812,0.001181,-0.535804,2.1e-05,1.373356,-259.77281,1.336532,72.752602
3.5767,0.001664,-0.02589,-0.000442,0.000543,0.002383,0.000783,0.001147,-0.536109,-0.000876,1.373356,-259.77281,1.336532,72.752602
3.5965,0.001109,-0.026267,-0.0005,0.000535,0.002381,0.000762,0.001147,-0.536109,-0.000876,1.373356,-259.77281,1.336532,72.752602
3.6165,0.001356,-0.025805,-0.002461,0.000528,0.00238,0.000748,0.000876,-0.536171,-0.000468,1.380856,-259.771685,1.285651,72.753357
3.6367,0.001094,-0.026094,0.000347,0.000552,0.002384,0.000944,0.000562,-0.53601,-0.001278,1.380856,-259.771685,1.285651,72.753357
3.6568,0.001571,-0.025829,-0.001185,0.00057,0.002387,0.001082,0.001287,-0.536019,0.000371,1.386763,-259.770538,1.30286,72.75415
3.6763,0.001262,-0.025713,-0.001142,0.000562,0.002385,0.001063,0.000995,-0.535841,-0.00105,1.386763,-259.770538,1.30286,72.75415
3.6967,0.001684,-0.025603,-0.000152,0.000556,0.002383,0.001049,0.000995,-0.535841,-0.00105,1.386763,-259.770538,1.30286,72.75415
3.7169,0.001573,-0.025772,0.000254,0.000551,0.002382,0.001039,0.00163,-0.535507,-0.000108,1.386023,-259.769348,1.251993,72.754847
3.7368,0.001612,-0.025806,-0.001072,0.0005,0.002365,0.000443,0.001662,-0.535605,4.6e-05,1.386023,-259.769348,1.251993,72.754847
3.7568,0.001577,-0.025318,-0.000919,0.000464,0.002354,1.9e-05,0.001083,-0.53573,-0.001039,1.390025,-259.768125,1.26513,72.755578
3.7771,0.001377,-0.025614,0.000594,0.000475,0.002362,0.000249,0.001106,-0.535349,-0.000928,1.390025,-259.768125,1.26513,72.755578
3.7969,0.001426,-0.025537,0.000803,0.000483,0.002367,0.000412,0.001106,-0.535349,-0.000928,1.390025,-259.768125,1.26513,72.755578
3.8164,0.00146,-0.025453,-0.001659,0.000489,0.00237,0.000527,0.001853,-0.535456,0.000805,1.377336,-259.767332,1.340146,72.756363
3.8369,0.001644,-0.025627,-7e-05,0.000472,0.002362,0.000221,0.001343,-0.535445,-0.000214,1.377336,-259.767332,1.340146,72.756363
3.8563,0.001388,-0.025377,-0.001465,0.00046,0.002356,5e-06,0.001624,-0.535552,-5.3e-05,1.391132,-259.766243,1.336524,72.757201
3.8773,0.001755,-0.025358,-0.000588,0.000493,0.002369,0.000452,0.000725,-0.535387,-0.001345,1.391132,-259.766243,1.336524,72.757201
3.8966,0.001375,-0.025181,-0.001204,0.000517,0.002377,0.000767,0.000725,-0.535387,-0.001345,1.391132,-259.766243,1.336524,72.757201
3.9164,0.001545,-0.025226,-0.001727,0.000535,0.002382,0.000989,0.00078,-0.535085,-0.001204,1.378127,-259.76531,1.377622,72.758132
3.9363,0.001784,-0.025255,-0.000451,0.000549,0.002386,0.001183,0.000735,-0.535132,-0.001419,1.378127,-259.76531,1.377622,72.758132
3.9561,0.001338,-0.025246,1.1e-05,0.000558,0.002388,0.001319,0.001568,-0.53519,-0.000425,1.39346,-259.764277,1.302617,72.758765
3.9763,0.001368,-0.024803,-0.000402,0.000516,0.00237,0.000678,0.001363,-0.535238,-2.5e-05,1.39346,-259.764277,1.302617,72.758765
3.9967,0.00176,-0.025275,0.000322,0.000487,0.002358,0.000222,0.001363,-0.535238,-2.5e-05,1.39346,-259.764277,1.302617,72.758765
4.0167,0.001443,-0.024973,-0.000572,0.000468,0.00235,-0.0001,0.001946,-0.535182,0.000373,1.397769,-259.763081,1.231724,72.759383
4.0368,0.001457,-0.025101,0.000979,0.000443,0.002344,-0.000337,0.001626,-0.535087,-5e-06,1.397769,-259.763081,1.231724,72.759383
4.0565,0.001235,-0.024455,0.000505,0.000424,0.002341,-0.000503,0.001969,-0.535049,0.000977,1.369193,-259.762431,1.306666,72.760067
4.0767,0.001707,-0.024935,0.000464,0.000402,0.002333,-0.000916,0.001534,-0.534504,0.000546,1.369193,-259.762431,1.306666,72.760067
4.0969,0.001367,-0.024779,0.000278,0.000388,0.002327,-0.001209,0.001534,-0.534504,0.000546,1.369193,-259.762431,1.306666,72.760067
4.1164,0.001444,-0.024853,0.000368,0.000379,0.002324,-0.001415,0.001525,-0.534697,0.000261,1.365093,-259.761735,1.381665,72.760966
4.1366,0.001666,-0.024831,0.000596,0.000377,0.002325,-0.001429,0.001571,-0.534752,0.000303,1.365093,-259.761735,1.381665,72.760966
4.157,0.001578,-0.024241,0.000171,0.000376,0.002327,-0.001437,0.00198,-0.534765,0.000556,1.316863,-259.761199,1.452536,72.762108
4.1767,0.002007,-0.024498,0.000129,0.000371,0.002328,-0.001387,0.001693,-0.534283,0.000202,1.316863,-259.761199,1.452536,72.762108
4.1967,0.001757,-0.024486,0.000991,0.000365,0.00233,-0.00135,0.001693,-0.534283,0.000202,1.316863,-259.761199,1.452536,72.762108
4.2164,0.001579,-0.024144,3.5e-05,0.000361,0.00233,-0.001324,0.002278,-0.534388,0.000931,1.31671,-259.760601,1.453932,72.763396
4.237,0.001575,-0.02419,9e-05,0.000337,0.002326,-0.001497,0.002002,-0.534277,0.000559,1.31671,-259.760601,1.453932,72.763396
4.2569,0.001757,-0.024382,-0.001569,0.000318,0.002323,-0.00162,0.001632,-0.534116,4.8e-05,1.337896,-259.75998,1.456287,72.76465
4.2774,0.001773,-0.024159,0.000422,0.00037,0.00235,-0.000657,0.001019,-0.534354,-0.001424,1.337896,-259.75998,1.456287,72.76465
4.2966,0.001646,-0.024148,0.000788,0.000408,0.002367,2.6e-05,0.001019,-0.534354,-0.001424,1.337896,-259.75998,1.456287,72.76465
4.3169,0.001835,-0.024223,-0.001981,0.000436,0.002378,0.000509,0.002061,-0.534052,0.000721,1.336896,-259.759435,1.475131,72.765974
4.3369,0.002038,-0.024506,0.00022,0.000418,0.00237,0.000305,0.001562,-0.53411,-0.000382,1.336896,-259.759435,1.475131,72.765974
4.3565,0.001543,-0.024082,-0.000416,0.000404,0.002364,0.000162,0.002159,-0.534449,0.000231,1.410215,-259.758617,1.400126,72.766608
4.3767,0.001964,-0.024537,-0.001441,0.000401,0.00236,4.7e-05,0.001406,-0.534112,-0.000357,1.410215,-259.758617,1.400126,72.766608
4.3965,0.00175,-0.024255,-0.000716,0.0004,0.002357,-3.4e-05,0.001406,-0.534112,-0.000357,1.410215,-259.758617,1.400126,72.766608
4.417,0.00185,-0.024009,8.9e-05,0.000399,0.002355,-9.1e-05,0.001402,-0.534155,-0.000709,1.408082,-259.757619,1.39419,72.767528
4.4368,0.001787,-0.024117,-0.000805,0.000391,0.002353,-0.000112,0.0016,-0.534086,-0.000391,1.408082,-259.757619,1.39419,72.767528
4.4562,0.002177,-0.023813,-0.000565,0.000384,0.002352,-0.000126,0.00139,-0.534042,-0.000808,1.398972,-259.75669,1.406762,72.768501
4.4769,0.001754,-0.023643,0.000483,0.00037,0.002353,-2.8e-05,0.001844,-0.533829,-0.000587,1.398972,-259.75669,1.406762,72.768501
4.4968,0.00172,-0.024096,0.000626,0.000357,0.002354,4.1e-05,0.001844,-0.533829,-0.000587,1.398972,-259.75669,1.406762,72.768501
4.5167,0.001951,-0.023718,-0.000865,0.000346,0.002354,8.9e-05,0.002055,-0.533998,0.000621,1.403542,-259.755768,1.413994,72.769484
4.5369,0.001644,-0.023839,-0.000161,0.000327,0.002345,-0.000208,0.001835,-0.533873,1.4e-05,1.403542,-259.755768,1.413994,72.769484
4.5563,0.001898,-0.023929,-0.000241,0.000314,0.002339,-0.000417,0.001572,-0.533765,-0.000158,1.428194,-259.754805,1.421566,72.770404
4.5765,0.001853,-0.023763,-0.000585,0.000312,0.002339,-0.000429,0.001758,-0.53391,-0.000233,1.428194,-259.754805,1.421566,72.770404
4.5964,0.001782,-0.023739,-0.000196,0.000311,0.002339,-0.000437,0.001758,-0.53391,-0.000233,1.428194,-259.754805,1.421566,72.770404
4.6164,0.001927,-0.023766,-0.00021,0.000311,0.002339,-0.000442,0.001695,-0.533642,-0.000213,1.421468,-259.753974,1.450507,72.771435
4.6364,0.001814,-0.023982,0.000641,0.000309,0.002339,-0.000456,0.001747,-0.533681,-0.000214,1.421468,-259.753974,1.450507,72.771435
4.6564,0.001952,-0.023769,8.9e-05,0.000309,0.002338,-0.000466,0.002151,-0.533907,0.000627,1.421796,-259.753137,1.452297,72.772486
4.6766,0.001538,-0.023476,4.7e-05,0.00029,0.002333,-0.000665,0.002012,-0.533778,0.000137,1.421796,-259.753137,1.452297,72.772486
4.6967,0.001718,-0.023276,-0.000624,0.000277,0.002329,-0.000806,0.002012,-0.533778,0.000137,1.421796,-259.753137,1.452297,72.772486
4.7165,0.001913,-0.023322,-0.000527,0.000267,0.002326,-0.000906,0.001413,-0.533178,-0.000643,1.42162,-259.752306,1.45365,72.773542
4.7364,0.001952,-0.023527,-0.00039,0.000292,0.002336,-0.00057,0.001509,-0.533226,-0.000598,1.42162,-259.752306,1.45365,72.773542
4.7563,0.002013,-0.022992,-0.001256,0.000311,0.002343,-0.000333,0.001762,-0.533454,-0.000418,1.421319,-259.751596,1.478336,72.774687
4.7766,0.002142,-0.023129,-0.001044,0.000335,0.002355,0.000139,0.001409,-0.53303,-0.001181,1.421319,-259.751596,1.478336,72.774687
4.7964,0.00247,-0.023302,0.00032,0.000351,0.002363,0.000471,0.001409,-0.53303,-0.001181,1.421319,-259.751596,1.478336,72.774687
4.8164,0.002058,-0.02325,0.001223,0.000362,0.002368,0.000704,0.002646,-0.533205,0.000306,1.426454,-259.750743,1.44929,72.775699
4.8369,0.001772,-0.023139,-0.002412,0.000279,0.002344,-0.000117,0.002662,-0.533212,0.000679,1.426454,-259.750743,1.44929,72.775699
4.8562,0.001799,-0.022969,-0.001348,0.000219,0.002328,-0.000705,0.000553,-0.533067,-0.002391,1.442028,-259.749689,1.385952,72.776436
4.8765,0.002037,-0.022552,-0.002302,0.000277,0.002348,-3e-06,0.001061,-0.532974,-0.001443,1.442028,-259.749689,1.385952,72.776436
4.8968,0.002134,-0.022962,-0.001204,0.000321,0.002362,0.000494,0.001061,-0.532974,-0.001443,1.442028,-259.749689,1.385952,72.776436
4.9166,0.002077,-0.023051,6.1e-05,0.000355,0.00237,0.000845,0.00153,-0.53288,-0.001228,1.455846,-259.749052,1.460952,72.777359
4.9367,0.002033,-0.02284,0.000196,0.000338,0.002364,0.000717,0.001764,-0.53294,-0.00071,1.455846,-259.749052,1.460952,72.777359
4.9565,0.002105,-0.022921,-0.001765,0.000326,0.00236,0.000626,0.002143,-0.532771,0.00022,1.448354,-259.748002,1.385958,72.778041
4.9765,0.00163,-0.022819,-0.002341,0.000347,0.002369,0.001006,0.00129,-0.532903,-0.001585,1.448354,-259.748002,1.385958,72.778041
4.9967,0.002225,-0.022899,0.001143,0.000363,0.002374,0.001274,0.00129,-0.532903,-0.001585,1.448354,-259.748002,1.385958,72.778041
5.017,0.002245,-0.022443,-0.000311,0.000374,0.002377,0.001464,0.002822,-0.532801,0.001169,1.452659,-259.746904,1.407661,72.778838
5.0368,0.002137,-0.022725,-0.000727,0.000286,0.002349,0.000479,0.002522,-0.532643,0.000566,1.452659,-259.746904,1.407661,72.778838
5.0567,0.002005,-0.022604,-0.000924,0.000222,0.00233,-0.00023,0.001776,-0.532657,-0.000686,1.457008,-259.745729,1.332522,72.779383
5.0767,0.001982,-0.022976,0.000892,0.000247,0.002339,5.7e-05,0.001557,-0.532605,-0.0009,1.457008,-259.745729,1.332522,72.779383
5.0966,0.002303,-0.022696,-0.000868,0.000266,0.002346,0.00026,0.001557,-0.532605,-0.0009,1.457008,-259.745729,1.332522,72.779383
5.1166,0.001746,-0.02303,-0.000639,0.000281,0.002351,0.000404,0.001869,-0.532628,-0.000875,1.469839,-259.745114,1.40739,72.780077
5.1367,0.001773,-0.022433,-0.00055,0.000284,0.002352,0.000442,0.001687,-0.532784,-0.000779,1.469839,-259.745114,1.40739,72.780077
5.1562,0.001886,-0.022172,0.001039,0.000287,0.002352,0.00047,0.001502,-0.532359,-0.000537,1.46309,-259.744085,1.438081,72.780913
5.1768,0.002079,-0.022419,0.000387,0.000224,0.002331,-0.000393,0.002335,-0.532184,0.000899,1.46309,-259.744085,1.438081,72.780913
5.1966,0.002386,-0.022392,3.7e-05,0.000181,0.002316,-0.001013,0.002335,-0.532184,0.000899,1.46309,-259.744085,1.438081,72.780913
5.2162,0.001697,-0.022726,0.000566,0.000151,0.002307,-0.001457,0.002417,-0.532293,5.7e-05,1.462393,-259.743021,1.432632,72.781749
5.2362,0.002047,-0.022356,-0.000643,0.000148,0.002307,-0.00144,0.00224,-0.532461,0.00027,1.462393,-259.743021,1.432632,72.781749
5.2564,0.00217,-0.022409,-0.000565,0.000146,0.002308,-0.001427,0.001724,-0.532292,-0.000683,1.464444,-259.742522,1.507873,72.782868
5.2766,0.002173,-0.022294,-0.001358,0.000175,0.002322,-0.000948,0.001869,-0.532396,-0.000577,1.464444,-259.742522,1.507873,72.782868
5.2966,0.002376,-0.022256,0.000543,0.000196,0.002331,-0.000611,0.001869,-0.532396,-0.000577,1.464444,-259.742522,1.507873,72.782868
5.3164,0.00248,-0.022173,0.000169,0.00021,0.002338,-0.000373,0.00266,-0.53216,0.000484,1.469261,-259.741948,1.524803,72.784134
5.3365,0.002336,-0.02222,0.001015,0.000167,0.002326,-0.000712,0.002622,-0.532154,0.000349,1.469261,-259.741948,1.524803,72.784134
5.3563,0.00197,-0.022054,-0.002815,0.000133,0.002317,-0.000953,0.00286,-0.532147,0.001003,1.471378,-259.741118,1.48895,72.785142
5.3765,0.001958,-0.021747,0.000936,0.000223,0.002346,0.000231,0.000755,-0.532057,-0.002454,1.471378,-259.741118,1.48895,72.785142
5.3966,0.002162,-0.021694,-0.000221,0.000292,0.002366,0.001078,0.000755,-0.532057,-0.002454,1.471378,-259.741118,1.48895,72.785142
5.4162,0.001825,-0.021926,-0.001481,0.000344,0.002379,0.001683,0.002054,-0.5316,-0.00026,1.494173,-259.740441,1.524883,72.78627
5.4364,0.002682,-0.021983,0.000394,0.000322,0.002365,0.001325,0.001653,-0.531722,-0.000763,1.494173,-259.740441,1.524883,72.78627
5.457,0.002158,-0.021839,8.2e-05,0.000307,0.002356,0.001074,0.002887,-0.531944,0.000421,1.470139,-259.739745,1.44986,72.786553
5.4766,0.002246,-0.022034,-0.000132,0.00025,0.002337,0.000426,0.002261,-0.531847,0.000113,1.470139,-259.739745,1.44986,72.786553
5.4969,0.002176,-0.021748,-0.001394,0.00021,0.002324,-3.3e-05,0.002261,-0.531847,0.000113,1.470139,-259.739745,1.44986,72.786553
5.5162,0.002295,-0.021433,0.000387,0.000181,0.002316,-0.000357,0.001477,-0.531654,-0.001351,1.469378,-259.738596,1.392398,72.787209
5.5364,0.002084,-0.021973,-0.000477,0.00019,0.002322,-0.000173,0.001894,-0.531553,-0.000635,1.469378,-259.738596,1.392398,72.787209
5.5564,0.002342,-0.021789,-0.000783,0.000196,0.002327,-4.2e-05,0.001847,-0.531912,-0.000487,1.484592,-259.737898,1.467391,72.788051
5.5764,0.002139,-0.021416,-0.001022,0.000202,0.002332,0.000117,0.001934,-0.531797,-0.000756,1.484592,-259.737898,1.467391,72.788051
5.5968,0.002339,-0.02176,-0.000552,0.000205,0.002335,0.00023,0.001934,-0.531797,-0.000756,1.484592,-259.737898,1.467391,72.788051
5.6165,0.002188,-0.021484,-0.001142,0.000206,0.002338,0.000309,0.002066,-0.531663,-0.000554,1.485657,-259.73698,1.487496,72.788989
5.6368,0.002047,-0.021704,-0.000492,0.000209,0.00234,0.000386,0.001879,-0.531579,-0.000794,1.485657,-259.73698,1.487496,72.788989
5.6562,0.002133,-0.02162,0.000271,0.000211,0.002341,0.000439,0.001802,-0.53163,-0.000483,1.489365,-259.735968,1.475135,72.789852
5.6764,0.002281,-0.021301,0.000526,0.000177,0.002327,-6.6e-05,0.002231,-0.531617,0.000205,1.489365,-259.735968,1.475135,72.789852
5.6965,0.00224,-0.021109,-0.000202,0.000154,0.002318,-0.000424,0.002231,-0.531617,0.000205,1.489365,-259.735968,1.475135,72.789852
5.7165,0.001826,-0.020822,3.6e-05,0.000138,0.002312,-0.000677,0.002145,-0.531012,-0.000184,1.49014,-259.734922,1.469385,72.790683
5.7364,0.002042,-0.021326,-0.001666,0.00014,0.002312,-0.000692,0.002024,-0.530923,-9.2e-05,1.49014,-259.734922,1.469385,72.790683
5.7565,0.002484,-0.021001,-0.001326,0.000141,0.002312,-0.000702,0.001197,-0.531255,-0.001687,1.498018,-259.734191,1.520057,72.791731
5.777,0.001938,-0.021405,-0.000151,0.000171,0.00233,-3.8e-05,0.001753,-0.53102,-0.00136,1.498018,-259.734191,1.520057,72.791731
5.7964,0.002387,-0.021259,0.001024,0.000192,0.002342,0.000431,0.001753,-0.53102,-0.00136,1.498018,-259.734191,1.520057,72.791731
5.8165,0.001809,-0.02106,-0.002353,0.000206,0.00235,0.000762,0.002915,-0.531162,0.000995,1.49588,-259.733436,1.519265,72.792828
5.8364,0.001832,-0.021011,-0.000953,0.000192,0.002341,0.000482,0.001968,-0.531108,-0.000384,1.49588,-259.733436,1.519265,72.792828
5.8566,0.00196,-0.020523,0.000448,0.000183,0.002335,0.000284,0.001352,-0.53094,-0.00093,1.49762,-259.732364,1.461723,72.793549
5.8775,0.002196,-0.0212,0.001185,0.000152,0.002321,-0.000246,0.00212,-0.530554,0.000336,1.49762,-259.732364,1.461723,72.793549
5.8965,0.002394,-0.021109,-0.000364,0.000132,0.002311,-0.000622,0.00212,-0.530554,0.000336,1.49762,-259.732364,1.461723,72.793549
5.9164,0.002115,-0.020928,-0.000618,0.000119,0.002304,-0.000887,0.002216,-0.531013,-0.000352,1.498009,-259.73137,1.486379,72.794406
5.9366,0.002281,-0.020974,-0.00015,0.00013,0.002312,-0.000636,0.002047,-0.530967,-0.000459,1.498009,-259.73137,1.486379,72.794406
5.9564,0.001914,-0.020699,5.7e-05,0.000138,0.002317,-0.000458,0.002208,-0.530902,-0.000177,1.503397,-259.730683,1.529024,72.795514
5.9765,0.002184,-0.020724,-0.001222,0.000138,0.002313,-0.000606,0.001965,-0.530712,3.6e-05,1.503397,-259.730683,1.529024,72.795514
5.9964,0.002187,-0.020355,-0.001642,0.000139,0.002311,-0.000711,0.001965,-0.530712,3.6e-05,1.503397,-259.730683,1.529024,72.795514
6.0164,0.002205,-0.020408,0.00258,0.000141,0.00231,-0.000784,0.001356,-0.530257,-0.001661,1.503207,-259.729869,1.517749,72.79655
6.0366,0.002087,-0.020643,-0.001368,0.000126,0.002306,-0.000849,0.002237,-0.530307,6.2e-05,1.503207,-259.729869,1.517749,72.79655
6.0566,0.002181,-0.02024,-0.001736,0.000114,0.002304,-0.000895,0.001393,-0.530569,-0.001393,1.494001,-259.729136,1.520321,72.797665
6.0766,0.002101,-0.020422,-0.001899,0.000171,0.002329,-1.9e-05,0.001305,-0.530266,-0.001706,1.494001,-259.729136,1.520321,72.797665
6.0966,0.002138,-0.020221,-0.001378,0.000214,0.002346,0.000603,0.001305,-0.530266,-0.001706,1.494001,-259.729136,1.520321,72.797665
6.1167,0.002708,-0.020645,-0.000198,0.000246,0.002356,0.001044,0.001441,-0.530125,-0.001415,1.506219,-259.728435,1.530941,72.798802
6.1365,0.002402,-0.020514,-0.000638,0.000229,0.002351,0.000971,0.001915,-0.530325,-0.000925,1.506219,-259.728435,1.530941,72.798802
6.1571,0.002275,-0.020545,0.000944,0.000215,0.002347,0.00092,0.002083,-0.530451,-0.00061,1.488823,-259.727422,1.455913,72.799387
6.1771,0.002267,-0.020071,-0.001285,0.000132,0.002321,-2.6e-05,0.002697,-0.530534,0.000807,1.488823,-259.727422,1.455913,72.799387
6.1971,0.002212,-0.02042,-0.000392,7.3e-05,0.002303,-0.000707,0.002697,-0.530534,0.000807,1.488823,-259.727422,1.455913,72.799387
6.2168,0.00233,-0.020299,0.001051,3e-05,0.002291,-0.001193,0.002021,-0.530323,-0.000354,1.496956,-259.726257,1.450867,72.800106
6.2369,0.002156,-0.020397,0.001085,2.6e-05,0.00229,-0.001235,0.002371,-0.530301,0.000232,1.496956,-259.726257,1.450867,72.800106
6.2568,0.002239,-0.020031,-0.00078,2.4e-05,0.002289,-0.001263,0.002711,-0.530339,0.001055,1.551408,-259.725766,1.525928,72.801054
6.277,0.002241,-0.02,-0.000462,5.8e-05,0.002303,-0.00081,0.001917,-0.530055,-0.000622,1.551408,-259.725766,1.525928,72.801054
6.2967,0.002294,-0.020131,-0.002129,8.4e-05,0.002313,-0.000491,0.001917,-0.530055,-0.000622,1.551408,-259.725766,1.525928,72.801054
6.3168,0.002103,-0.019778,-0.001459,0.000103,0.002319,-0.000265,0.001209,-0.530036,-0.002181,1.555119,-259.725172,1.563022,72.802252
6.3367,0.002396,-0.019855,-0.001082,0.00016,0.00234,0.000507,0.001271,-0.529918,-0.001889,1.555119,-259.725172,1.563022,72.802252
6.3563,0.002402,-0.019683,-0.001158,0.000203,0.002354,0.001056,0.001848,-0.529784,-0.00109,1.523205,-259.724337,1.52941,72.803212
6.3779,0.002197,-0.019459,0.001737,0.000198,0.002352,0.001097,0.001815,-0.529688,-0.001153,1.523205,-259.724337,1.52941,72.803212
6.3965,0.00219,-0.019789,-0.000931,0.000194,0.00235,0.001126,0.001815,-0.529688,-0.001153,1.523205,-259.724337,1.52941,72.803212
6.4167,0.002728,-0.019635,0.00011,0.00019,0.002348,0.001147,0.001723,-0.5297,-0.000891,1.503179,-259.723252,1.454411,72.803833
6.4363,0.002375,-0.020086,-0.001707,0.000158,0.002335,0.000806,0.002154,-0.529663,-0.000481,1.503179,-259.723252,1.454411,72.803833
6.4564,0.002462,-0.019576,0.000371,0.000134,0.002326,0.000564,0.001511,-0.53001,-0.00167,1.50852,-259.722029,1.455913,72.804497
6.4763,0.002527,-0.019512,-0.000118,8.1e-05,0.00231,2.5e-05,0.002553,-0.52961,0.000197,1.50852,-259.722029,1.455913,72.804497
6.4964,0.00216,-0.019049,-8.5e-05,4.2e-05,0.002298,-0.000357,0.002553,-0.52961,0.000197,1.50852,-259.722029,1.455913,72.804497
6.5165,0.002228,-0.019591,-0.00033,1.4e-05,0.00229,-0.000626,0.002122,-0.528955,-6.3e-05,1.520824,-259.721001,1.503497,72.80526
6.5366,0.002454,-0.019427,0.000604,2.3e-05,0.002292,-0.000615,0.002097,-0.529203,-0.000169,1.520824,-259.721001,1.503497,72.80526
6.5563,0.002415,-0.019422,0.000731,3e-05,0.002293,-0.000607,0.002763,-0.529359,0.000586,1.563445,-259.720303,1.565549,72.806239
6.5766,0.002166,-0.0195,-0.00071,-1.7e-05,0.002281,-0.001074,0.002785,-0.529414,0.000717,1.563445,-259.720303,1.565549,72.806239
6.5966,0.002284,-0.019482,-0.000406,-5.2e-05,0.002272,-0.001407,0.002785,-0.529414,0.000717,1.563445,-259.720303,1.565549,72.806239
6.6165,0.002473,-0.019381,-0.003209,-7.8e-05,0.002266,-0.001642,0.002078,-0.529387,-0.000432,1.555099,-259.719536,1.559466,72.807302
6.6369,0.002341,-0.019326,1.5e-05,-2e-06,0.002298,-0.00061,0.001568,-0.529372,-0.001576,1.555099,-259.719536,1.559466,72.807302
6.6566,0.002395,-0.019194,-0.001415,5.5e-05,0.00232,0.000124,0.002347,-0.529262,-3.2e-05,1.630021,-259.719085,1.59463,72.808465
6.6765,0.002158,-0.019259,-0.000566,8.6e-05,0.00233,0.000512,0.001733,-0.529196,-0.001294,1.630021,-259.719085,1.59463,72.808465
6.6965,0.002882,-0.019151,-0.002437,0.000109,0.002337,0.000786,0.001733,-0.529196,-0.001294,1.630021,-259.719085,1.59463,72.808465
6.7163,0.002337,-0.019328,-0.002195,0.000126,0.002341,0.00098,0.001641,-0.529065,-0.002432,1.555153,-259.718254,1.546471,72.809244
6.7363,0.002474,-0.018992,-0.000188,0.000159,0.002353,0.001574,0.001465,-0.529164,-0.002333,1.555153,-259.718254,1.546471,72.809244
6.7563,0.002475,-0.01868,-0.000871,0.000183,0.002361,0.001997,0.002382,-0.528922,-0.000158,1.527914,-259.717136,1.498539,72.809908
6.7768,0.002115,-0.01868,-0.000549,0.000147,0.002344,0.001572,0.002062,-0.528698,-0.000806,1.527914,-259.717136,1.498539,72.809908
6.7964,0.002276,-0.018855,-0.001652,0.000121,0.002332,0.001273,0.002062,-0.528698,-0.000806,1.527914,-259.717136,1.498539,72.809908
6.8169,0.00225,-0.019282,2.3e-05,0.000102,0.002324,0.001064,0.00144,-0.528767,-0.001578,1.519599,-259.715868,1.423716,72.810317
6.8365,0.002117,-0.018997,-0.000624,0.000109,0.002322,0.000977,0.001775,-0.528966,-0.000919,1.519599,-259.715868,1.423716,72.810317
6.8567,0.002253,-0.018582,-0.000929,0.000115,0.002321,0.000916,0.001802,-0.528931,-0.000594,1.536472,-259.714814,1.498737,72.81091
6.8771,0.00234,-0.018482,-0.00017,0.000118,0.00232,0.000864,0.001781,-0.528608,-0.0009,1.536472,-259.714814,1.498737,72.81091
6.8968,0.002051,-0.019154,1.8e-05,0.000121,0.002319,0.000828,0.001781,-0.528608,-0.0009,1.536472,-259.714814,1.498737,72.81091
6.9168,0.00223,-0.018709,-0.001419,0.000124,0.002319,0.000803,0.002065,-0.529057,5.6e-05,1.530986,-259.713664,1.505747,72.811614
6.9365,0.001991,-0.018708,0.000626,0.00012,0.002314,0.000593,0.001838,-0.528904,-0.00054,1.530986,-259.713664,1.505747,72.811614
6.9567,0.002422,-0.01856,-0.000236,0.000118,0.002311,0.000444,0.002314,-0.528634,0.000651,1.526827,-259.712538,1.503301,72.812348
6.9764,0.002145,-0.018256,-0.001362,8.2e-05,0.002301,0.000126,0.002303,-0.528563,-0.000147,1.526827,-259.712538,1.503301,72.812348
6.9964,0.002103,-0.018831,-0.000877,5.5e-05,0.002294,-9.8e-05,0.002303,-0.528563,-0.000147,1.526827,-259.712538,1.503301,72.812348
7.0169,0.002399,-0.018067,-0.000844,3.5e-05,0.00229,-0.000256,0.00166,-0.528734,-0.000859,1.525024,-259.711505,1.512867,72.813165
7.0364,0.002445,-0.01835,-0.001102,6e-05,0.0023,1.7e-05,0.001789,-0.528447,-0.00085,1.525024,-259.711505,1.512867,72.813165
7.0565,0.002012,-0.018067,0.001044,7.9e-05,0.002307,0.00021,0.001883,-0.528281,-0.00111,1.55442,-259.71069,1.55651,72.814099
7.077,0.00214,-0.018345,-0.000652,1.8e-05,0.002287,-0.000556,0.002485,-0.528082,0.00085,1.55442,-259.71069,1.55651,72.814099
7.097,0.002141,-0.018034,-0.000456,-2.5e-05,0.002274,-0.001105,0.002485,-0.528082,0.00085,1.55442,-259.71069,1.55651,72.814099
7.1163,0.002138,-0.018455,0.001142,-5.5e-05,0.002265,-0.001496,0.001912,-0.527938,-0.000447,1.538205,-259.709726,1.534375,72.814962
7.1363,0.002138,-0.018272,-0.0004,-4.9e-05,0.002268,-0.001429,0.002241,-0.528137,0.0002,1.538205,-259.709726,1.534375,72.814962
7.1561,0.002329,-0.018317,-0.000871,-4.4e-05,0.00227,-0.00138,0.001932,-0.528209,-0.000442,1.61119,-259.709251,1.587975,72.816077
7.1765,0.002758,-0.018017,0.000232,-4e-06,0.002288,-0.000777,0.001889,-0.528304,-0.000835,1.61119,-259.709251,1.587975,72.816077
7.1968,0.002356,-0.018319,0.000349,2.6e-05,0.002301,-0.000351,0.001889,-0.528304,-0.000835,1.61119,-259.709251,1.587975,72.816077
7.2169,0.002105,-0.017948,0.0002,4.7e-05,0.002309,-5.2e-05,0.002532,-0.528224,0.000291,1.601559,-259.708681,1.584901,72.817321
7.2369,0.002837,-0.017821,-0.000533,1.2e-05,0.002297,-0.000431,0.002399,-0.528101,0.000247,1.601559,-259.708681,1.584901,72.817321
7.2568,0.002014,-0.017709,-0.000612,-1.3e-05,0.002288,-0.0007,0.002567,-0.527752,-0.000535,1.550034,-259.707824,1.550594,72.818201
7.2767,0.002059,-0.017716,-0.001291,1.7e-05,0.002296,-0.000422,0.001785,-0.527709,-0.000605,1.550034,-259.707824,1.550594,72.818201
7.2971,0.00234,-0.017984,0.000827,4e-05,0.002302,-0.000226,0.001785,-0.527709,-0.000605,1.550034,-259.707824,1.550594,72.818201
7.317,0.002505,-0.017739,0.000425,5.7e-05,0.002306,-8.8e-05,0.002761,-0.52789,0.000798,1.578043,-259.707098,1.57576,72.819261
7.337,0.002179,-0.017649,0.00101,-1.1e-05,0.002287,-0.000663,0.002745,-0.527817,0.000643,1.578043,-259.707098,1.57576,72.819261
7.3568,0.002269,-0.017821,-0.000729,-6.2e-05,0.002273,-0.001073,0.002696,-0.527577,0.001008,1.545391,-259.706224,1.546544,72.820177
7.377,0.002392,-0.017571,-0.000789,-3.2e-05,0.002285,-0.000701,0.001969,-0.527796,-0.000573,1.545391,-259.706224,1.546544,72.820177
7.3967,0.002507,-0.017806,0.000587,-1e-05,0.002293,-0.000439,0.001969,-0.527796,-0.000573,1.545391,-259.706224,1.546544,72.820177
7.4166,0.002382,-0.017511,-0.000187,7e-06,0.002298,-0.000254,0.002804,-0.527719,0.000547,1.609037,-259.705637,1.591927,72.821239
7.4367,0.002164,-0.017865,0.00041,-3.6e-05,0.002285,-0.000572,0.002594,-0.527625,0.000244,1.609037,-259.705637,1.591927,72.821239
7.4565,0.002382,-0.017616,-0.00154,-6.9e-05,0.002276,-0.000798,0.002373,-0.527795,0.000402,1.567687,-259.70481,1.56808,72.822185
7.4767,0.002069,-0.017555,-0.000366,-1.6e-05,0.002297,-0.000102,0.001666,-0.527628,-0.001366,1.567687,-259.70481,1.56808,72.822185
7.497,0.002334,-0.017451,-0.000721,2.5e-05,0.002311,0.000391,0.001666,-0.527628,-0.001366,1.567687,-259.70481,1.56808,72.822185
7.5164,0.002269,-0.017048,-0.000893,5.4e-05,0.002321,0.000738,0.001963,-0.527359,-0.000754,1.609175,-259.704122,1.59565,72.823248
7.5366,0.002481,-0.017196,-0.000952,5.2e-05,0.002317,0.000699,0.001902,-0.527222,-0.000814,1.609175,-259.704122,1.59565,72.823248
7.5565,0.002367,-0.017236,0.000693,5e-05,0.002315,0.000672,0.001997,-0.527129,-0.000931,1.551135,-259.70312,1.541667,72.823925
7.5772,0.002251,-0.01722,-0.001236,-2.4e-05,0.002291,-7.5e-05,0.002654,-0.527222,0.000544,1.551135,-259.70312,1.541667,72.823925
7.5965,0.002318,-0.017288,0.000872,-7.8e-05,0.002274,-0.000609,0.002654,-0.527222,0.000544,1.551135,-259.70312,1.541667,72.823925
7.6168,0.002278,-0.016899,-0.001123,-0.000118,0.002262,-0.000988,0.002765,-0.527191,0.0009,1.552297,-259.70203,1.544326,72.824687
7.6367,0.002322,-0.017479,0.002447,-0.000119,0.002261,-0.001008,0.002336,-0.527061,8.3e-05,1.552297,-259.70203,1.544326,72.824687
7.6566,0.002352,-0.01693,-0.000833,-0.00012,0.002261,-0.001021,0.003568,-0.527418,0.002422,1.627289,-259.701485,1.611838,72.825625
7.6768,0.002195,-0.016791,-0.000668,-9.4e-05,0.002271,-0.000685,0.002076,-0.526971,-0.000538,1.627289,-259.701485,1.611838,72.825625
7.6965,0.002332,-0.017047,0.000153,-7.5e-05,0.002278,-0.000448,0.002076,-0.526971,-0.000538,1.627289,-259.701485,1.611838,72.825625
7.7165,0.002526,-0.016802,0.000177,-6.2e-05,0.002283,-0.000281,0.002405,-0.526952,0.00011,1.64382,-259.700832,1.612301,72.826775
7.7369,0.002064,-0.01687,0.000427,-9.1e-05,0.002273,-0.000531,0.00249,-0.52688,0.000133,1.64382,-259.700832,1.612301,72.826775
7.7568,0.002642,-0.016501,-0.001532,-0.000113,0.002266,-0.000709,0.00228,-0.5268,0.000418,1.600045,-259.700016,1.595961,72.827723
7.7769,0.002746,-0.016463,1.6e-05,-7.7e-05,0.002285,-4.3e-05,0.001898,-0.526524,-0.001357,1.600045,-259.700016,1.595961,72.827723
7.7968,0.002384,-0.016286,-0.000753,-5e-05,0.002297,0.000428,0.001898,-0.526524,-0.001357,1.600045,-259.700016,1.595961,72.827723
7.8167,0.002399,-0.016937,-0.001066,-3.1e-05,0.002305,0.00076,0.001995,-0.526193,-0.000782,1.632628,-259.699297,1.612817,72.828781
7.8369,0.002649,-0.016411,-0.0007,-2.5e-05,0.002303,0.00076,0.001938,-0.526485,-0.000901,1.632628,-259.699297,1.612817,72.828781
7.857,0.002856,-0.016377,-0.001217,-2.1e-05,0.002302,0.000761,0.002291,-0.526342,-0.000677,1.581862,-259.698245,1.587437,72.82948
7.8768,0.00245,-0.016256,-0.001122,-3.7e-05,0.002302,0.0009,0.00224,-0.52637,-0.001166,1.581862,-259.698245,1.587437,72.82948
7.8967,0.002278,-0.016345,-0.000313,-5e-05,0.002301,0.000997,0.00224,-0.52637,-0.001166,1.581862,-259.698245,1.587437,72.82948
7.9165,0.002478,-0.016593,7.8e-05,-6.2e-05,0.002299,0.001065,0.002118,-0.526249,-0.000281,1.578523,-259.697139,1.582429,72.830215
7.9368,0.002399,-0.016294,5.9e-05,-9.2e-05,0.002283,0.000558,0.00228,-0.526378,-0.000132,1.578523,-259.697139,1.582429,72.830215
7.9564,0.002405,-0.016003,0.000412,-0.000111,0.002272,0.000199,0.002427,-0.526222,9.2e-05,1.591912,-259.695975,1.608567,72.830866
7.9768,0.002379,-0.016222,-0.002232,-0.00016,0.002256,-0.000333,0.002598,-0.526019,0.000385,1.591912,-259.695975,1.608567,72.830866
7.9972,0.002314,-0.016729,-0.000375,-0.000195,0.002244,-0.00071,0.002598,-0.526019,0.000385,1.591912,-259.695975,1.608567,72.830866
8.017,0.002204,-0.016194,-0.000937,-0.00022,0.002236,-0.000977,0.002118,-0.526635,-0.000367,1.617281,-259.695029,1.622517,72.831716
8.037,0.002389,-0.016404,0.00039,-0.000174,0.00225,-0.000626,0.001959,-0.526446,-0.000597,1.617281,-259.695029,1.622517,72.831716
8.0569,0.002154,-0.016092,-0.001599,-0.000138,0.002261,-0.000378,0.002582,-0.526342,0.000363,1.692275,-259.69445,1.648474,72.832711
8.0767,0.00243,-0.015933,-0.002107,-7.1e-05,0.002281,0.000212,0.001462,-0.526112,-0.001405,1.692275,-259.69445,1.648474,72.832711
8.0964,0.002152,-0.016168,-6.1e-05,-1.9e-05,0.002295,0.000628,0.001462,-0.526112,-0.001405,1.692275,-259.69445,1.648474,72.832711
8.1163,0.002243,-0.015739,-0.000956,2.1e-05,0.002304,0.000922,0.002115,-0.526079,-7.6e-05,1.63856,-259.693677,1.626044,72.833658
8.1364,0.002554,-0.015925,-0.000499,1e-06,0.002293,0.000625,0.001967,-0.525928,-0.00044,1.63856,-259.693677,1.626044,72.833658
8.1566,0.00239,-0.015814,0.000878,-1.3e-05,0.002286,0.000415,0.0023,-0.525863,-0.000474,1.563607,-259.692704,1.558955,72.834249
8.1768,0.002047,-0.016027,-0.000457,-0.000104,0.00226,-0.000364,0.002789,-0.525815,0.000757,1.563607,-259.692704,1.558955,72.834249
8.1969,0.002357,-0.015823,-0.001552,-0.000172,0.002242,-0.000922,0.002789,-0.525815,0.000757,1.563607,-259.692704,1.558955,72.834249
8.2165,0.002683,-0.016111,-0.000235,-0.000222,0.002229,-0.001319,0.001565,-0.525727,-0.001535,1.575798,-259.691696,1.577045,72.835056
8.2368,0.002658,-0.015981,-0.000966,-0.000175,0.00225,-0.000652,0.001975,-0.525874,-0.001,1.575798,-259.691696,1.577045,72.835056
8.2567,0.002376,-0.015867,-0.001756,-0.000141,0.002265,-0.000181,0.002162,-0.525935,-0.000993,1.65084,-259.691321,1.643728,72.835847
8.2765,0.002459,-0.015507,0.000913,-8.1e-05,0.002286,0.00048,0.001542,-0.52587,-0.001688,1.65084,-259.691321,1.643728,72.835847
8.2963,0.002148,-0.015865,-0.000993,-3.5e-05,0.0023,0.000949,0.001542,-0.52587,-0.001688,1.65084,-259.691321,1.643728,72.835847
8.3164,0.002057,-0.015653,-0.000883,-1e-06,0.002308,0.001281,0.001636,-0.52577,-0.001,1.636053,-259.690463,1.629994,72.836793
8.3363,0.002269,-0.015316,0.001136,1.1e-05,0.002304,0.001151,0.001623,-0.525711,-0.000953,1.636053,-259.690463,1.629994,72.836793
8.3566,0.002449,-0.015521,-0.001443,2.1e-05,0.002301,0.00106,0.002848,-0.525251,0.001172,1.571107,-259.68937,1.571426,72.837333
8.3766,0.002394,-0.01562,-0.000457,1.7e-05,0.0023,0.001128,0.001814,-0.525493,-0.001208,1.571107,-259.68937,1.571426,72.837333
8.3965,0.002258,-0.015389,-0.000844,1.4e-05,0.002299,0.001176,0.001814,-0.525493,-0.001208,1.571107,-259.68937,1.571426,72.837333
8.4166,0.00229,-0.015331,1.8e-05,1.1e-05,0.002298,0.00121,0.001828,-0.525292,-0.000799,1.563701,-259.688195,1.558148,72.837992
8.4366,0.002276,-0.015364,-0.000673,-2e-05,0.002284,0.00084,0.002019,-0.525297,-0.000463,1.563701,-259.688195,1.558148,72.837992
8.4565,0.002298,-0.015276,-0.000407,-4.2e-05,0.002275,0.000578,0.001934,-0.525291,-0.000634,1.567097,-259.686981,1.56359,72.838615
8.4763,0.002177,-0.015282,-0.000307,-6.3e-05,0.002268,0.000372,0.002076,-0.525274,-0.000426,1.567097,-259.686981,1.56359,72.838615
8.4964,0.00212,-0.015382,-0.000925,-7.8e-05,0.002263,0.000228,0.002076,-0.525274,-0.000426,1.567097,-259.686981,1.56359,72.838615
8.5164,0.002224,-0.015087,7.2e-05,-8.9e-05,0.00226,0.000127,0.001647,-0.525288,-0.000901,1.586716,-259.68595,1.592559,72.839369
8.5363,0.002047,-0.015284,0.000374,-8.4e-05,0.00226,9.7e-05,0.001897,-0.525195,-0.000501,1.586716,-259.68595,1.592559,72.839369
8.5563,0.002155,-0.015086,-0.000194,-7.8e-05,0.002261,7.7e-05,0.002235,-0.525213,0.000378,1.608992,-259.685027,1.6117,72.840231
8.5767,0.002181,-0.014899,-0.001855,-9.4e-05,0.002255,-0.000134,0.002072,-0.525094,-0.000142,1.608992,-259.685027,1.6117,72.840231
8.5967,0.002242,-0.014894,0.00015,-0.000105,0.00225,-0.000282,0.002072,-0.525094,-0.000142,1.608992,-259.685027,1.6117,72.840231
8.6164,0.001992,-0.015091,-0.000343,-0.000113,0.002248,-0.000386,0.002315,-0.524799,0.000153,1.604793,-259.684104,1.606233,72.841117
8.6365,0.002184,-0.014617,-0.001091,-0.000125,0.002243,-0.00051,0.002112,-0.524907,-4.8e-05,1.604793,-259.684104,1.606233,72.841117
8.6566,0.001831,-0.014933,-0.000886,-0.000133,0.002241,-0.000597,0.001624,-0.524546,-0.001103,1.626732,-259.683305,1.616133,72.842103
8.6765,0.002277,-0.014957,-0.000171,-7.3e-05,0.002256,-0.000191,0.0014,-0.524896,-0.000905,1.626732,-259.683305,1.616133,72.842103
8.6969,0.002115,-0.014697,-0.001893,-2.5e-05,0.002267,9.5e-05,0.0014,-0.524896,-0.000905,1.626732,-259.683305,1.616133,72.842103
8.7167,0.002477,-0.014469,-0.000524,1.1e-05,0.002275,0.000296,0.001144,-0.524603,-0.001917,1.641791,-259.682555,1.621968,72.843142
8.7367,0.002325,-0.014813,-0.001104,2.6e-05,0.002284,0.000662,0.001582,-0.524537,-0.001347,1.641791,-259.682555,1.621968,72.843142
8.7565,0.002394,-0.014319,0.00122,3.5e-05,0.002289,0.000921,0.001762,-0.52475,-0.001096,1.566767,-259.681704,1.565512,72.843868
8.7766,0.002325,-0.014603,-0.001021,-0.000106,0.002251,-0.000112,0.002904,-0.524354,0.001014,1.566767,-259.681704,1.565512,72.843868
8.7965,0.002373,-0.014476,-0.002098,-0.000211,0.002224,-0.00086,0.002904,-0.524354,0.001014,1.566767,-259.681704,1.565512,72.843868
8.8165,0.001931,-0.014525,0.001358,-0.00029,0.002204,-0.001398,0.001304,-0.52438,-0.00206,1.558372,-259.680569,1.550279,72.844555
8.8364,0.00212,-0.014572,-0.000651,-0.000237,0.002222,-0.000882,0.001842,-0.524428,-0.000663,1.558372,-259.680569,1.550279,72.844555
8.8568,0.002208,-0.014671,0.000527,-0.000198,0.002235,-0.000518,0.001788,-0.524571,-0.000651,1.483373,-259.680569,1.625279,72.844555
8.8769,0.002506,-0.014702,5.5e-05,-0.000228,0.002225,-0.000855,0.002415,-0.524662,0.00042,1.483373,-259.680569,1.625279,72.844555
8.8968,0.002365,-0.014394,-0.000302,-0.00025,0.002218,-0.001094,0.002415,-0.524662,0.00042,1.483373,-259.680569,1.625279,72.844555
8.9167,0.00192,-0.014504,0.001514,-0.000266,0.002213,-0.001263,0.002209,-0.524342,-0.000314,1.558376,-259.680142,1.648145,72.845123
8.9367,0.002079,-0.014482,-0.001007,-0.00028,0.002209,-0.001384,0.002404,-0.524401,0.000425,1.558376,-259.680142,1.648145,72.845123
8.9562,0.002029,-0.014378,-0.001436,-0.00029,0.002206,-0.001469,0.001565,-0.524482,-0.001007,1.483387,-259.680142,1.659612,72.845123
8.9769,0.002023,-0.01438,-0.001737,-0.000191,0.002237,-0.000564,0.00132,-0.524386,-0.001398,1.483387,-259.680142,1.659612,72.845123
8.9963,0.002249,-0.014513,-0.001196,-0.000114,0.002258,7.8e-05,0.00132,-0.524386,-0.001398,1.483387,-259.680142,1.659612,72.845123
9.0164,0.002969,-0.014222,-0.001461,-5.5e-05,0.002273,0.000533,0.001639,-0.524513,-0.001196,1.408379,-259.680142,1.664135,72.845123
9.0366,0.001674,-0.014362,-0.00221,-5.5e-05,0.002278,0.000809,0.001877,-0.524394,-0.001305,1.408379,-259.680142,1.664135,72.845123
9.0565,0.002401,-0.01463,-0.000728,-5.7e-05,0.00228,0.001003,0.000549,-0.524322,-0.002201,1.48338,-259.679578,1.599181,72.845546
9.0768,0.002254,-0.014731,-0.000195,-6.5e-05,0.002276,0.000911,0.001895,-0.5246,-0.000861,1.48338,-259.679578,1.599181,72.845546
9.0963,0.00189,-0.014558,3.3e-05,-7.1e-05,0.002272,0.000846,0.001895,-0.5246,-0.000861,1.48338,-259.679578,1.599181,72.845546
9.1163,0.002397,-0.01438,-0.000368,-7.6e-05,0.00227,0.0008,0.001907,-0.524479,6.8e-05,1.558374,-259.678616,1.605244,72.846101
9.1363,0.001875,-0.014477,0.00069,-0.000104,0.002256,0.000358,0.002031,-0.524429,-0.000107,1.558374,-259.678616,1.605244,72.846101
9.1568,0.001959,-0.014187,-0.000421,-0.000123,0.002246,4.4e-05,0.002224,-0.524406,0.000715,1.59819,-259.677539,1.613198,72.846797
9.1767,0.002496,-0.014342,0.000393,-0.000114,0.002245,-5.7e-05,0.001785,-0.524202,-0.000325,1.59819,-259.677539,1.613198,72.846797
9.1967,0.001968,-0.014077,0.000171,-0.000106,0.002244,-0.000128,0.001785,-0.524202,-0.000325,1.59819,-259.677539,1.613198,72.846797
9.2167,0.00264,-0.014298,-0.000529,-9.9e-05,0.002243,-0.000177,0.002051,-0.523984,0.000173,1.624683,-259.67664,1.625997,72.847674
9.2365,0.001924,-0.014312,0.0009,-0.00013,0.002236,-0.000327,0.00218,-0.5241,-0.000111,1.624683,-259.67664,1.625997,72.847674
9.257,0.002127,-0.014058,-0.000377,-0.000153,0.002231,-0.000433,0.002379,-0.52424,0.000894,1.61726,-259.67579,1.612998,72.84861
9.2771,0.001954,-0.013965,-0.000105,-0.000153,0.002231,-0.00043,0.001978,-0.524072,-0.000252,1.61726,-259.67579,1.612998,72.84861
9.2968,0.002347,-0.013876,-0.000717,-0.000153,0.002231,-0.000427,0.001978,-0.524072,-0.000252,1.61726,-259.67579,1.612998,72.84861
9.3168,0.002343,-0.013515,-0.000865,-0.000153,0.002231,-0.000425,0.001976,-0.523785,-0.000734,1.648596,-259.675018,1.632158,72.849588
9.3365,0.002129,-0.013691,-0.000239,-0.000148,0.002238,-0.000128,0.001945,-0.523663,-0.00079,1.648596,-259.675018,1.632158,72.849588
9.3567,0.002195,-0.013831,-0.000585,-0.000145,0.002242,8.1e-05,0.002002,-0.52362,-0.000253,1.648257,-259.674227,1.632165,72.850586
9.3764,0.002158,-0.013575,0.00051,-0.000143,0.002242,9.9e-05,0.001906,-0.523807,-0.000555,1.648257,-259.674227,1.632165,72.850586
9.3964,0.001908,-0.013688,0.000363,-0.000142,0.002242,0.000112,0.001906,-0.523807,-0.000555,1.648257,-259.674227,1.632165,72.850586
9.4165,0.002023,-0.013709,-0.000436,-0.000141,0.002242,0.000121,0.002087,-0.523594,0.000367,1.634149,-259.673312,1.636989,72.851462
9.4366,0.001965,-0.013503,-0.000689,-0.000158,0.002232,-0.000199,0.00197,-0.52363,4.1e-05,1.634149,-259.673312,1.636989,72.851462
9.4564,0.001875,-0.013375,0.000543,-0.000169,0.002225,-0.000426,0.001609,-0.523431,-0.000685,1.631619,-259.672382,1.635766,72.852333
9.4762,0.002542,-0.013553,-0.000952,-0.000199,0.002213,-0.000801,0.002105,-0.523376,0.000439,1.631619,-259.672382,1.635766,72.852333
9.4965,0.001996,-0.013792,-0.000555,-0.000221,0.002205,-0.001067,0.002105,-0.523376,0.000439,1.631619,-259.672382,1.635766,72.852333
9.5165,0.001963,-0.013101,-0.00209,-0.000236,0.002199,-0.001255,0.001706,-0.5237,-0.000573,1.656679,-259.671601,1.638761,72.853319
9.5367,0.002306,-0.013538,-0.000996,-0.000161,0.002224,-0.000507,0.001373,-0.523443,-0.001197,1.656679,-259.671601,1.638761,72.853319
9.5571,0.002199,-0.013639,0.000215,-0.000103,0.002241,2.3e-05,0.001791,-0.523474,-0.001032,1.731678,-259.671074,1.650052,72.854399
9.5766,0.002394,-0.013302,0.000651,-0.000152,0.002228,-0.00029,0.002254,-0.523618,8.2e-05,1.731678,-259.671074,1.650052,72.854399
9.5971,0.002132,-0.013279,0.000708,-0.000188,0.002218,-0.00051,0.002254,-0.523618,8.2e-05,1.731678,-259.671074,1.650052,72.854399
9.6169,0.002276,-0.013009,-0.000389,-0.000216,0.002211,-0.000666,0.002488,-0.523205,0.000709,1.656681,-259.670358,1.617155,72.855106
9.6369,0.002116,-0.013327,-0.001018,-0.000255,0.002201,-0.000874,0.002321,-0.523116,0.000262,1.656681,-259.670358,1.617155,72.855106
9.6565,0.001964,-0.013114,0.000147,-0.000285,0.002193,-0.001021,0.00159,-0.523259,-0.001039,1.690129,-259.669659,1.653238,72.856117
9.6768,0.002006,-0.013261,-0.000642,-0.000275,0.002194,-0.001003,0.001998,-0.523124,3.9e-05,1.690129,-259.669659,1.653238,72.856117
9.6964,0.00222,-0.013193,-0.000275,-0.000268,0.002194,-0.00099,0.001998,-0.523124,3.9e-05,1.690129,-259.669659,1.653238,72.856117
9.7168,0.001765,-0.012906,-0.000699,-0.000261,0.002195,-0.00098,0.00208,-0.523193,-0.000275,1.615148,-259.669659,1.671648,72.856117
9.7365,0.001876,-0.012686,0.000401,-0.000232,0.002204,-0.000703,0.001806,-0.523076,-0.000448,1.615148,-259.669659,1.671648,72.856117
9.7564,0.00211,-0.01275,-6.9e-05,-0.00021,0.002211,-0.000508,0.002075,-0.52263,0.000376,1.690154,-259.669142,1.664024,72.857014
9.7769,0.002177,-0.013308,0.000131,-0.000229,0.002204,-0.0006,0.002074,-0.522736,-3e-05,1.690154,-259.669142,1.664024,72.857014
9.7964,0.001821,-0.012817,-0.001735,-0.000245,0.002199,-0.000666,0.002074,-0.522736,-3e-05,1.690154,-259.669142,1.664024,72.857014
9.8168,0.002067,-0.012832,0.000486,-0.000257,0.002195,-0.000713,0.000927,-0.522724,-0.001756,1.680666,-259.668379,1.653782,72.858023
9.8369,0.002201,-0.012847,8.4e-05,-0.0002,0.00221,-0.0003,0.001491,-0.522757,-0.000846,1.680666,-259.668379,1.653782,72.858023
9.8564,0.002126,-0.012677,-0.001302,-0.000157,0.00222,-9e-06,0.002236,-0.522778,6.2e-05,1.715572,-259.667684,1.668037,72.859056
9.8766,0.002162,-0.0125,-0.001122,-0.000125,0.00223,0.000368,0.00153,-0.522682,-0.001181,1.715572,-259.667684,1.668037,72.859056
9.8969,0.002297,-0.01253,0.000113,-0.000102,0.002237,0.000633,0.00153,-0.522682,-0.001181,1.715572,-259.667684,1.668037,72.859056
9.9166,0.002041,-0.012502,-0.000791,-8.6e-05,0.002241,0.00082,0.002348,-0.522446,0.000113,1.64158,-259.66688,1.641218,72.859864
9.9369,0.001762,-0.012731,-0.001514,-0.00014,0.002224,0.000455,0.002062,-0.522459,-0.000251,1.64158,-259.66688,1.641218,72.859864
9.9568,0.002001,-0.012487,-0.001547,-0.000182,0.002211,0.000196,0.000987,-0.522662,-0.001489,1.60197,-259.665817,1.619874,72.860539
9.9767,0.00199,-0.012444,-0.00071,-0.000115,0.002228,0.000682,0.001191,-0.522498,-0.001541,1.60197,-259.665817,1.619874,72.860539
9.9964,0.002159,-0.012469,-0.001689,-6.4e-05,0.002239,0.001026,0.001191,-0.522498,-0.001541,1.60197,-259.665817,1.619874,72.860539
10.0163,0.001884,-0.012704,-0.000869,-2.5e-05,0.002246,0.001269,0.001291,-0.522381,-0.001682,1.648616,-259.664934,1.657463,72.861332
10.0366,0.00217,-0.012414,-0.000293,-1.1e-05,0.002247,0.001346,0.001352,-0.522504,-0.001346,1.648616,-259.664934,1.657463,72.861332
10.0563,0.001882,-0.012556,-0.001123,-1e-06,0.002248,0.0014,0.00202,-0.522353,-0.000258,1.57896,-259.663901,1.587564,72.861836
10.0768,0.002153,-0.012223,-7.5e-05,2e-06,0.002244,0.001282,0.001374,-0.522534,-0.001042,1.57896,-259.663901,1.587564,72.861836
10.0965,0.002186,-0.012648,-0.001012,4e-06,0.002241,0.0012,0.001374,-0.522534,-0.001042,1.57896,-259.663901,1.587564,72.861836
10.1169,0.002091,-0.012188,-1.2e-05,7e-06,0.00224,0.001141,0.00167,-0.522554,-0.000954,1.570998,-259.662666,1.571246,72.86239
10.1368,0.002125,-0.012583,5.4e-05,-4.3e-05,0.002226,0.000849,0.001837,-0.522396,-0.000567,1.570998,-259.662666,1.571246,72.86239
10.1563,0.001763,-0.012471,-0.000973,-8.2e-05,0.002217,0.000642,0.002152,-0.522512,9e-05,1.568394,-259.661492,1.566222,72.863007
10.1764,0.001934,-0.012511,-0.000865,-5.9e-05,0.002221,0.000661,0.001346,-0.52247,-0.000876,1.568394,-259.661492,1.566222,72.863007
10.1969,0.002169,-0.011944,-0.000359,-4e-05,0.002224,0.000675,0.001346,-0.52247,-0.000876,1.568394,-259.661492,1.566222,72.863007
10.2168,0.00189,-0.011931,-0.000573,-2.5e-05,0.002226,0.000685,0.001983,-0.521856,-0.000334,1.602096,-259.660506,1.61554,72.863697
10.2367,0.001924,-0.012265,-0.000466,-7.5e-05,0.002213,0.000452,0.001826,-0.521876,-0.000428,1.602096,-259.660506,1.61554,72.863697
10.2565,0.001795,-0.012009,-0.001081,-0.000113,0.002204,0.000288,0.001685,-0.522195,-0.000445,1.580116,-259.659472,1.584426,72.864403
10.2768,0.001824,-0.01168,-0.000335,-7.8e-05,0.002212,0.00049,0.001284,-0.522022,-0.001022,1.580116,-259.659472,1.584426,72.864403
10.2965,0.001864,-0.011831,-0.000369,-5.1e-05,0.002218,0.000632,0.001284,-0.522022,-0.001022,1.580116,-259.659472,1.584426,72.864403
10.3163,0.002004,-0.011842,-0.001302,-3e-05,0.002221,0.000732,0.001671,-0.521744,-0.000358,1.618458,-259.658566,1.626708,72.865176
10.3363,0.00174,-0.01175,0.000103,-4.7e-05,0.002216,0.000658,0.001535,-0.521774,-0.000745,1.618458,-259.658566,1.626708,72.865176
10.3562,0.001975,-0.01151,9.1e-05,-6e-05,0.002213,0.000605,0.001792,-0.521683,0.000125,1.582194,-259.657545,1.58794,72.865854
10.3765,0.002695,-0.011868,0.000135,-0.000136,0.002191,0.000113,0.002002,-0.521521,9.5e-05,1.582194,-259.657545,1.58794,72.865854
10.3963,0.002197,-0.011699,-1.2e-05,-0.000194,0.002175,-0.000236,0.002002,-0.521521,9.5e-05,1.582194,-259.657545,1.58794,72.865854
10.4166,0.002003,-0.011651,-0.000152,-0.000237,0.002164,-0.000483,0.002188,-0.521607,1.3e-05,1.593898,-259.656518,1.603153,72.866588
10.4366,0.001902,-0.011353,-0.001002,-0.000273,0.002157,-0.000576,0.00208,-0.521614,-5.2e-05,1.593898,-259.656518,1.603153,72.866588
10.4562,0.001583,-0.011532,-0.001361,-0.000302,0.002152,-0.000641,0.001386,-0.521298,-0.001014,1.668903,-259.655924,1.666928,72.867367
10.4762,0.002365,-0.011425,0.000721,-0.000191,0.002177,-1e-05,0.000933,-0.521508,-0.00133,1.668903,-259.655924,1.666928,72.867367
10.4963,0.001859,-0.011749,-0.000143,-0.000105,0.002194,0.000436,0.000933,-0.521508,-0.00133,1.668903,-259.655924,1.666928,72.867367
10.5164,0.00204,-0.011702,-1.4e-05,-3.7e-05,0.002206,0.000751,0.001774,-0.521666,-0.000168,1.740697,-259.655271,1.689006,72.868304
10.5368,0.001762,-0.011267,-0.000906,-0.0001,0.002189,0.000325,0.001879,-0.521671,-0.000107,1.740697,-259.655271,1.689006,72.868304
10.5564,0.002033,-0.011428,-0.000585,-0.000147,0.002178,2.3e-05,0.001297,-0.521226,-0.000892,1.665612,-259.65465,1.61392,72.868711
10.5767,0.00186,-0.011463,-0.00036,-0.00016,0.002178,8.8e-05,0.001694,-0.521408,-0.000612,1.665612,-259.65465,1.61392,72.868711
10.5967,0.001929,-0.011061,6.8e-05,-0.00017,0.002177,0.000134,0.001694,-0.521408,-0.000612,1.665612,-259.65465,1.61392,72.868711
10.6169,0.001709,-0.011385,0.000207,-0.000179,0.002177,0.000167,0.001958,-0.520972,6.9e-05,1.637642,-259.653791,1.638522,72.869559
10.6372,0.001887,-0.010744,-0.001149,-0.000226,0.002161,-0.000213,0.0019,-0.521128,0.000125,1.637642,-259.653791,1.638522,72.869559
10.6565,0.001804,-0.011044,0.000617,-0.000261,0.00215,-0.000481,0.001296,-0.520674,-0.001144,1.649286,-259.652883,1.656969,72.870386
10.677,0.002057,-0.011003,-0.001082,-0.000311,0.002135,-0.000849,0.002043,-0.521007,0.000456,1.649286,-259.652883,1.656969,72.870386
10.6969,0.001931,-0.010996,5e-06,-0.000348,0.002124,-0.00111,0.002043,-0.521007,0.000456,1.649286,-259.652883,1.656969,72.870386
10.7167,0.001699,-0.011033,-0.002144,-0.000376,0.002116,-0.001294,0.001923,-0.520911,-1.4e-05,1.710428,-259.652182,1.677134,72.871306
10.7367,0.0018,-0.011351,-0.001259,-0.000306,0.002137,-0.000692,0.001387,-0.520951,-0.000881,1.710428,-259.652182,1.677134,72.871306
10.7567,0.001663,-0.011295,-0.001689,-0.000253,0.002152,-0.000268,0.001158,-0.52135,-0.001259,1.635426,-259.652182,1.699376,72.871306
10.7767,0.001936,-0.011343,-0.000412,-0.000142,0.002177,0.000404,0.000832,-0.521299,-0.001652,1.635426,-259.652182,1.699376,72.871306
10.7967,0.002221,-0.011049,0.000538,-5.6e-05,0.002195,0.00088,0.000832,-0.521299,-0.001652,1.635426,-259.652182,1.699376,72.871306
10.8164,0.001872,-0.010844,-0.00061,1e-05,0.002206,0.001217,0.002486,-0.520965,0.000528,1.697157,-259.651433,1.679436,72.872177
10.8364,0.001539,-0.01081,-0.00088,-0.000109,0.002175,0.000565,0.002107,-0.520906,6.1e-05,1.697157,-259.651433,1.679436,72.872177
10.8569,0.002112,-0.010699,-0.000924,-0.0002,0.002152,0.000101,0.001088,-0.520767,-0.000856,1.622166,-259.650703,1.604445,72.872539
10.8765,0.001891,-0.010778,0.000593,-0.000201,0.002156,0.000304,0.001593,-0.520702,-0.000916,1.622166,-259.650703,1.604445,72.872539
10.8963,0.001963,-0.010917,-0.000156,-0.000203,0.002157,0.000448,0.001593,-0.520702,-0.000916,1.622166,-259.650703,1.604445,72.872539
10.9171,0.001917,-0.011134,-0.001294,-0.000206,0.002158,0.000549,0.001876,-0.520835,-0.000153,1.66087,-259.649888,1.666169,72.873308
10.9366,0.002023,-0.0105,-0.000558,-0.000211,0.002156,0.000462,0.00162,-0.520948,-0.000622,1.66087,-259.649888,1.666169,72.873308
10.9568,0.001777,-0.010619,3.1e-05,-0.000215,0.002154,0.000401,0.001731,-0.520432,-0.000541,1.653095,-259.648893,1.683157,72.874037
10.9766,0.001971,-0.010675,-0.000355,-0.000253,0.002139,2.8e-05,0.001788,-0.5206,-1.7e-05,1.653095,-259.648893,1.683157,72.874037
10.9964,0.001776,-0.010721,-0.000927,-0.000281,0.002128,-0.000235,0.001788,-0.5206,-1.7e-05,1.653095,-259.648893,1.683157,72.874037
11.0163,0.001878,-0.010422,0.000749,-0.0003,0.002121,-0.000421,0.001294,-0.520631,-0.00091,1.660157,-259.647932,1.682902,72.874804
11.0363,0.001551,-0.010715,-0.000633,-0.000301,0.002119,-0.000432,0.001686,-0.520536,-0.000233,1.660157,-259.647932,1.682902,72.874804
11.0561,0.001597,-0.010306,0.000716,-0.000301,0.002118,-0.00044,0.001219,-0.520652,-0.000646,1.730552,-259.647237,1.696423,72.875687
11.0768,0.001768,-0.010774,-0.000714,-0.000344,0.002102,-0.000891,0.001895,-0.520334,0.000594,1.730552,-259.647237,1.696423,72.875687
11.0964,0.001553,-0.010437,-0.001537,-0.000375,0.002091,-0.001212,0.001895,-0.520334,0.000594,1.730552,-259.647237,1.696423,72.875687
11.1163,0.001828,-0.010546,-0.000286,-0.000398,0.002083,-0.001439,0.000757,-0.520348,-0.001556,1.732014,-259.646487,1.696161,72.876649
11.1366,0.001873,-0.010416,0.000732,-0.000299,0.00211,-0.000713,0.001132,-0.520418,-0.001041,1.732014,-259.646487,1.696161,72.876649
11.1566,0.001708,-0.010498,-0.000349,-0.000223,0.002128,-0.0002,0.002246,-0.520416,0.000732,1.657009,-259.646487,1.704274,72.87665
11.1768,0.001335,-0.01032,0.001167,-0.000229,0.002126,-0.000262,0.001593,-0.52049,-0.000254,1.657009,-259.646487,1.704274,72.87665
11.1967,0.001807,-0.010711,-0.001198,-0.000233,0.002124,-0.000306,0.001593,-0.52049,-0.000254,1.657009,-259.646487,1.704274,72.87665
11.217,0.001505,-0.010338,-0.002137,-0.000236,0.002122,-0.000337,0.001187,-0.520624,-0.001206,1.681629,-259.645704,1.669675,72.877527
11.2368,0.001523,-0.010614,0.000975,-0.00014,0.002146,0.000326,0.000873,-0.520498,-0.001585,1.681629,-259.645704,1.669675,72.877527
11.2564,0.001644,-0.01004,0.001403,-6.6e-05,0.002161,0.000796,0.002012,-0.520546,0.000964,1.69344,-259.644933,1.671919,72.878461
11.2763,0.001542,-0.010304,0.000295,-0.00024,0.002116,-0.000345,0.002329,-0.520081,0.001364,1.69344,-259.644933,1.671919,72.878461
11.2972,0.001821,-0.010285,-0.00143,-0.000368,0.002082,-0.001176,0.002329,-0.520081,0.001364,1.69344,-259.644933,1.671919,72.878461
11.3169,0.001814,-0.010558,0.000169,-0.000463,0.002057,-0.001778,0.001088,-0.520211,-0.001403,1.618399,-259.644077,1.610434,72.879003
11.3369,0.001808,-0.010128,-0.000476,-0.000387,0.002083,-0.00109,0.001415,-0.520343,-0.000766,1.618399,-259.644077,1.610434,72.879003
11.3567,0.001934,-0.009994,-0.001392,-0.000329,0.002101,-0.000606,0.001565,-0.520128,-0.000476,1.543442,-259.644077,1.685391,72.879003
11.377,0.001651,-0.010329,-0.001496,-0.000268,0.002119,1.3e-05,0.001254,-0.520005,-0.001312,1.543442,-259.644077,1.685391,72.879003
11.3973,0.001944,-0.009773,-0.000839,-0.000222,0.00213,0.00045,0.001254,-0.520005,-0.001312,1.543442,-259.644077,1.685391,72.879003
11.4166,0.001892,-0.009974,-0.001282,-0.000187,0.002137,0.000757,0.001516,-0.519773,-0.000839,1.468344,-259.644077,1.703266,72.879003
11.4363,0.001762,-0.01042,-0.000889,-0.000186,0.002134,0.000826,0.001402,-0.519856,-0.001022,1.468344,-259.644077,1.703266,72.879003
11.4565,0.001791,-0.009823,0.000446,-0.000185,0.00213,0.000874,0.001307,-0.520379,-0.000875,1.543507,-259.643444,1.682091,72.879413
11.4773,0.001599,-0.010131,-0.00074,-0.000277,0.002102,0.00018,0.001956,-0.519869,0.000332,1.543507,-259.643444,1.682091,72.879413
11.4965,0.001843,-0.010127,0.000947,-0.000345,0.002081,-0.000315,0.001956,-0.519869,0.000332,1.543507,-259.643444,1.682091,72.879413
11.5163,0.001658,-0.009973,0.000717,-0.000395,0.002066,-0.000666,0.002321,-0.52005,0.000979,1.618399,-259.642524,1.68644,72.879966
11.5369,0.001655,-0.009972,-5.5e-05,-0.000467,0.002048,-0.001194,0.002198,-0.520009,0.000875,1.618399,-259.642524,1.68644,72.879966
11.5563,0.001465,-0.009954,0.00082,-0.000519,0.002035,-0.00157,0.001627,-0.519972,-5.5e-05,1.543372,-259.642524,1.729142,72.879967
11.577,0.001523,-0.009684,1e-05,-0.000517,0.002033,-0.001772,0.001861,-0.519955,0.000745,1.543372,-259.642524,1.729142,72.879967
11.597,0.001765,-0.009822,-0.001453,-0.000513,0.002032,-0.001915,0.001861,-0.519955,0.000745,1.543372,-259.642524,1.729142,72.879967
11.6168,0.001707,-0.009773,9e-05,-0.000509,0.002033,-0.002014,0.001024,-0.519821,-0.001453,1.46842,-259.642524,1.742589,72.879967
11.6367,0.001564,-0.009997,0.000936,-0.000417,0.002061,-0.001224,0.001318,-0.519802,-0.00083,1.46842,-259.642524,1.742589,72.879967
11.6567,0.001277,-0.010341,5.1e-05,-0.000347,0.00208,-0.000667,0.002041,-0.519997,0.000936,1.393553,-259.642524,1.725476,72.879967
11.6767,0.001832,-0.009778,-0.000301,-0.000305,0.002084,-0.0008,0.001366,-0.520312,0.000126,1.393553,-259.642524,1.725476,72.879967
11.697,0.001708,-0.009841,-0.000183,-0.000271,0.002088,-0.000895,0.001366,-0.520312,0.000126,1.393553,-259.642524,1.725476,72.879967
11.7166,0.001925,-0.010217,0.000565,-0.000243,0.002092,-0.000961,0.001615,-0.519841,-0.000183,1.318386,-259.642524,1.70948,72.879967
11.7365,0.001667,-0.009812,-0.000818,-0.000285,0.002085,-0.001003,0.00186,-0.519995,0.000123,1.318386,-259.642524,1.70948,72.879967
11.7562,0.001843,-0.009926,-2.7e-05,-0.000319,0.002079,-0.001033,0.00125,-0.519808,-0.00082,1.393329,-259.642489,1.66118,72.88003
11.7763,0.001944,-0.009414,-7.5e-05,-0.000334,0.002078,-0.000931,0.001778,-0.519916,-9.8e-05,1.393329,-259.642489,1.66118,72.88003
11.7965,0.001477,-0.009664,0.000188,-0.000347,0.002076,-0.00086,0.001778,-0.519916,-9.8e-05,1.393329,-259.642489,1.66118,72.88003
11.8166,0.00183,-0.009923,0.000598,-0.000358,0.002075,-0.00081,0.001573,-0.519664,0.000188,1.318415,-259.642489,1.688036,72.88003
11.8363,0.001639,-0.009841,-0.00049,-0.000382,0.002065,-0.001024,0.001804,-0.51977,0.000356,1.318415,-259.642489,1.688036,72.88003
11.8564,0.001417,-0.00994,0.001382,-0.000399,0.002058,-0.001175,0.001389,-0.519841,-0.00049,1.243332,-259.642489,1.709274,72.88003
11.877,0.002106,-0.009969,0.000728,-0.000454,0.002043,-0.001712,0.002056,-0.51993,0.001213,1.243332,-259.642489,1.709274,72.88003
11.8969,0.001637,-0.00989,6.5e-05,-0.000492,0.002033,-0.002095,0.002056,-0.51993,0.001213,1.243332,-259.642489,1.709274,72.88003
11.9167,0.001687,-0.010145,-9.6e-05,-0.00052,0.002026,-0.002368,0.00167,-0.51989,6.5e-05,1.168403,-259.642489,1.713662,72.88003
11.9367,0.001842,-0.010133,-0.001344,-0.000469,0.002044,-0.001919,0.001657,-0.519994,-1e-06,1.168403,-259.642489,1.713662,72.88003
11.9568,0.0013,-0.009715,-7.4e-05,-0.000432,0.002056,-0.001604,0.001156,-0.520132,-0.001344,1.093308,-259.642489,1.719378,72.88003
11.9767,0.002038,-0.00959,-0.000541,-0.000355,0.002069,-0.00128,0.001253,-0.519752,-0.000188,1.093308,-259.642489,1.719378,72.88003
11.9967,0.001784,-0.010079,-0.000797,-0.000296,0.002077,-0.001052,0.001253,-0.519752,-0.000188,1.093308,-259.642489,1.719378,72.88003
12.0168,0.001593,-0.010031,-0.002253,-0.000251,0.002083,-0.000892,0.001378,-0.520078,-0.000797,1.018436,-259.642489,1.712239,72.88003
12.0368,0.001931,-0.009969,0.00016,-0.000169,0.002109,-0.000156,0.001003,-0.520059,-0.001382,1.018436,-259.642489,1.712239,72.88003
12.057,0.001846,-0.010112,-0.001203,-0.000106,0.002126,0.000366,0.002012,-0.519969,0.00016,1.093433,-259.642489,1.665888,72.880031
12.0767,0.001787,-0.00989,-0.000465,-9.8e-05,0.002132,0.000582,0.001303,-0.520099,-0.001079,1.093433,-259.642489,1.665888,72.880031
12.0966,0.001623,-0.009775,0.001027,-9.4e-05,0.002136,0.000734,0.001303,-0.520099,-0.001079,1.093433,-259.642489,1.665888,72.880031
12.1165,0.001906,-0.009912,-0.000413,-9.2e-05,0.002138,0.00084,0.002147,-0.519774,0.001027,1.168427,-259.642479,1.626689,72.880038
12.1367,0.00203,-0.010066,-0.000153,-0.000203,0.002107,0.000103,0.001962,-0.51983,0.000439,1.168427,-259.642479,1.626689,72.880038
12.1565,0.001684,-0.009604,0.001063,-0.000286,0.002085,-0.000423,0.001953,-0.520063,-0.000152,1.243474,-259.642434,1.627141,72.880066
12.1768,0.001855,-0.010011,0.000984,-0.000392,0.002056,-0.001054,0.002202,-0.519644,0.000955,1.243474,-259.642434,1.627141,72.880066
12.1968,0.002123,-0.009863,0.000372,-0.000471,0.002035,-0.001507,0.002202,-0.519644,0.000955,1.243474,-259.642434,1.627141,72.880066
12.2165,0.001781,-0.009821,-0.000371,-0.00053,0.00202,-0.001829,0.002313,-0.519861,0.000372,1.318463,-259.64242,1.692232,72.880084
12.237,0.002008,-0.009799,0.000667,-0.000531,0.002027,-0.001585,0.002019,-0.519845,6.9e-05,1.318463,-259.64242,1.692232,72.880084
12.2562,0.001795,-0.009883,-0.00069,-0.000534,0.00203,-0.001413,0.002348,-0.519799,0.000667,1.243503,-259.64242,1.738074,72.880084
12.2768,0.001535,-0.009594,-0.000217,-0.000467,0.00205,-0.000939,0.001523,-0.519876,-0.00057,1.243503,-259.64242,1.738074,72.880084
12.2969,0.001766,-0.009953,-0.00027,-0.000416,0.002065,-0.000605,0.001523,-0.519876,-0.00057,1.243503,-259.64242,1.738074,72.880084
12.3165,0.001744,-0.009911,0.000995,-0.000377,0.002075,-0.000371,0.001628,-0.519953,-0.00027,1.168456,-259.64242,1.663027,72.880084
12.3364,0.001704,-0.009802,0.000256,-0.000405,0.002065,-0.000654,0.001882,-0.519936,0.000245,1.168456,-259.64242,1.663027,72.880084
12.3563,0.001823,-0.010046,-0.001624,-0.000424,0.002059,-0.000854,0.001834,-0.519802,0.000256,1.093499,-259.64242,1.733352,72.880084
12.3768,0.001854,-0.009657,0.00069,-0.000318,0.002088,-9.9e-05,0.00107,-0.520024,-0.001456,1.093499,-259.64242,1.733352,72.880084
12.3969,0.002281,-0.010103,2.5e-05,-0.000236,0.002109,0.000436,0.00107,-0.520024,-0.001456,1.093499,-259.64242,1.733352,72.880084
12.4167,0.001956,-0.009855,-0.000155,-0.000173,0.002123,0.000813,0.002293,-0.520103,2.5e-05,1.018494,-259.64242,1.733736,72.880085
12.4374,0.002048,-0.010041,-0.000597,-0.000274,0.002099,0.00034,0.002125,-0.520003,-4.8e-05,1.018494,-259.64242,1.733736,72.880085
12.4562,0.001612,-0.010087,-0.001394,-0.000351,0.002081,4e-06,0.001744,-0.520041,-0.000597,1.093488,-259.642419,1.676946,72.880085
12.4763,0.001748,-0.010098,-0.000729,-0.000252,0.002102,0.000441,0.000978,-0.520082,-0.001322,1.093488,-259.642419,1.676946,72.880085
12.4966,0.001414,-0.009898,0.000521,-0.000175,0.002117,0.000749,0.000978,-0.520082,-0.001322,1.093488,-259.642419,1.676946,72.880085
12.5166,0.00172,-0.01002,0.000255,-0.000116,0.002127,0.000967,0.00168,-0.519898,0.000521,1.168533,-259.642418,1.738095,72.880086
12.5365,0.001689,-0.009681,-0.001037,-0.000195,0.002103,0.000201,0.001749,-0.519947,0.000413,1.168533,-259.642418,1.738095,72.880086
12.5565,0.001968,-0.009498,-6e-06,-0.000252,0.002086,-0.000347,0.00116,-0.519678,-0.001036,1.243486,-259.642382,1.663142,72.880107
12.5769,0.002122,-0.009857,-0.001438,-0.000313,0.002071,-0.000454,0.001894,-0.519514,-9.7e-05,1.243486,-259.642382,1.663142,72.880107
12.5967,0.001595,-0.009564,0.000938,-0.00036,0.00206,-0.00053,0.001894,-0.519514,-9.7e-05,1.243486,-259.642382,1.663142,72.880107
12.6168,0.00169,-0.010191,0.000233,-0.000397,0.002051,-0.000582,0.002074,-0.519561,0.000938,1.318546,-259.64236,1.68019,72.880134
12.6368,0.001531,-0.010029,0.000511,-0.00044,0.00204,-0.001023,0.001966,-0.519817,0.000651,1.318546,-259.64236,1.68019,72.880134
12.6566,0.001736,-0.010243,0.000666,-0.000471,0.002032,-0.001336,0.001792,-0.520029,0.000511,1.243602,-259.64236,1.734219,72.880134
12.6768,0.001641,-0.010083,-9.5e-05,-0.000494,0.00203,-0.001559,0.002051,-0.520224,0.000653,1.243602,-259.64236,1.734219,72.880134
12.6967,0.001786,-0.009966,1.5e-05,-0.000509,0.002031,-0.001716,0.002051,-0.520224,0.000653,1.243602,-259.64236,1.734219,72.880134
12.7166,0.001867,-0.009765,0.00025,-0.00052,0.002032,-0.001827,0.001794,-0.519966,1.5e-05,1.168548,-259.64236,1.734837,72.880134
12.7363,0.001386,-0.009493,-0.000727,-0.000506,0.002038,-0.001608,0.001876,-0.519884,0.000111,1.168548,-259.64236,1.734837,72.880134
12.7568,0.001725,-0.009762,-0.000714,-0.000496,0.002043,-0.001454,0.001015,-0.519493,-0.000727,1.093607,-259.64236,1.734678,72.880134
12.7768,0.001805,-0.009946,-0.000935,-0.000413,0.002063,-0.000889,0.00133,-0.519738,-0.000715,1.093607,-259.64236,1.734678,72.880134
12.7968,0.001496,-0.010224,0.000148,-0.000349,0.002077,-0.000491,0.00133,-0.519738,-0.000715,1.093607,-259.64236,1.734678,72.880134
12.8165,0.001649,-0.010182,0.000256,-0.000301,0.002087,-0.000212,0.001572,-0.520224,0.000148,1.018548,-259.64236,1.738532,72.880134
12.8364,0.002002,-0.009795,0.000542,-0.00031,0.002082,-0.000514,0.001657,-0.520207,0.000192,1.018548,-259.64236,1.738532,72.880134
12.8565,0.001827,-0.009722,-0.001269,-0.000316,0.002079,-0.000728,0.002278,-0.519794,0.000542,1.093534,-259.64236,1.705808,72.880134
12.8765,0.001703,-0.010036,0.000677,-0.000264,0.002095,-0.000179,0.001284,-0.519728,-0.001098,1.093534,-259.64236,1.705808,72.880134
12.8965,0.001831,-0.009826,-0.001176,-0.000225,0.002105,0.000208,0.001284,-0.519728,-0.001098,1.093534,-259.64236,1.705808,72.880134
12.9166,0.001812,-0.010022,0.000422,-0.000197,0.002111,0.000479,0.001231,-0.519825,-0.001176,1.018574,-259.64236,1.69519,72.880134
12.9367,0.001644,-0.009801,0.000419,-0.000215,0.002106,0.000365,0.001555,-0.519905,-0.000526,1.018574,-259.64236,1.69519,72.880134
12.9564,0.001736,-0.009785,-0.000688,-0.000228,0.002102,0.000284,0.001857,-0.519801,0.000419,1.093573,-259.642359,1.67871,72.880135
12.9765,0.001459,-0.009683,0.000816,-0.000224,0.002101,0.000263,0.001426,-0.519786,-0.000591,1.093573,-259.642359,1.67871,72.880135
12.9974,0.001577,-0.009921,-0.000368,-0.00022,0.002099,0.000248,0.001426,-0.519786,-0.000591,1.093573,-259.642359,1.67871,72.880135
13.0169,0.001636,-0.009635,0.000719,-0.000217,0.002099,0.000237,0.001389,-0.519921,-0.000368,1.168664,-259.642356,1.688626,72.880138
13.0366,0.001852,-0.010166,-0.001234,-0.000251,0.002086,-0.000127,0.001629,-0.519809,5.8e-05,1.168664,-259.642356,1.688626,72.880138
13.0565,0.001565,-0.009984,-0.001052,-0.000274,0.002078,-0.000383,0.001223,-0.520165,-0.001233,1.243535,-259.642341,1.681529,72.88015
13.0771,0.0015,-0.010139,7.1e-05,-0.000199,0.002097,4.4e-05,0.001047,-0.52,-0.001069,1.243535,-259.642341,1.681529,72.88015
13.0965,0.001757,-0.009869,-0.001593,-0.000141,0.00211,0.000345,0.001047,-0.52,-0.001069,1.243535,-259.642341,1.681529,72.88015
13.1164,0.001696,-0.010045,-0.00182,-9.7e-05,0.00212,0.000557,0.000945,-0.519866,-0.001594,1.318664,-259.642324,1.688869,72.880172
13.1364,0.001522,-0.010097,-0.000175,-3.8e-05,0.002135,0.001006,0.000873,-0.519939,-0.001686,1.318664,-259.642324,1.688869,72.880172
13.1564,0.001824,-0.010146,0.000918,8e-06,0.002144,0.001324,0.001434,-0.520081,-0.000171,1.393692,-259.642092,1.62514,72.88034
13.1763,0.001761,-0.010079,-0.000107,-0.000158,0.002105,0.000261,0.002219,-0.520139,0.000825,1.393692,-259.642092,1.62514,72.88034
13.1966,0.002042,-0.009697,0.000599,-0.000281,0.002078,-0.000508,0.002219,-0.520139,0.000825,1.393692,-259.642092,1.62514,72.88034
13.2167,0.001538,-0.00993,0.001302,-0.000373,0.002059,-0.001058,0.002351,-0.519646,0.000631,1.468695,-259.64141,1.565155,72.880649
13.2371,0.001798,-0.009876,-0.001698,-0.000463,0.002038,-0.00149,0.002291,-0.519755,0.000908,1.468695,-259.64141,1.565155,72.880649
13.2563,0.001874,-0.009644,-3e-06,-0.000531,0.002023,-0.001797,0.000931,-0.519875,-0.001698,1.393814,-259.64141,1.640036,72.880649
13.2766,0.001639,-0.009738,0.00054,-0.000506,0.002033,-0.001444,0.001792,-0.519664,-0.000148,1.393814,-259.64141,1.640036,72.880649
13.2964,0.001547,-0.009946,9.8e-05,-0.000488,0.00204,-0.001196,0.001792,-0.519664,-0.000148,1.393814,-259.64141,1.640036,72.880649
13.3168,0.002046,-0.010068,-0.000262,-0.000476,0.002044,-0.001021,0.001597,-0.519946,9.8e-05,1.318664,-259.64141,1.715186,72.880649
13.3369,0.001738,-0.00995,1.2e-05,-0.000453,0.002051,-0.000953,0.001726,-0.519996,-5e-05,1.318664,-259.64141,1.715186,72.880649
13.3568,0.001783,-0.009959,0.000643,-0.000436,0.002056,-0.000905,0.001745,-0.51995,1.2e-05,1.243756,-259.64141,1.640278,72.880649
13.3769,0.001604,-0.010153,0.000415,-0.000476,0.002045,-0.001215,0.002078,-0.519958,0.000586,1.243756,-259.64141,1.640278,72.880649
13.3965,0.00171,-0.009704,-0.000897,-0.000507,0.002038,-0.001435,0.002078,-0.519958,0.000586,1.243756,-259.64141,1.640278,72.880649
13.4168,0.001734,-0.009998,0.000569,-0.000529,0.002033,-0.00159,0.001252,-0.519704,-0.000897,1.168823,-259.64141,1.715211,72.880649
13.4365,0.001899,-0.009489,-0.000322,-0.000472,0.002049,-0.001213,0.001568,-0.519824,-0.000298,1.168823,-259.64141,1.715211,72.880649
13.4565,0.001575,-0.009669,-0.000808,-0.000428,0.002059,-0.000948,0.001734,-0.519489,-0.000322,1.09382,-259.64141,1.745131,72.880649
13.4766,0.001805,-0.009749,0.001282,-0.000347,0.002075,-0.000507,0.001214,-0.519653,-0.000765,1.09382,-259.64141,1.745131,72.880649
13.4968,0.001533,-0.010183,-0.000264,-0.000285,0.002086,-0.000196,0.001214,-0.519653,-0.000765,1.09382,-259.64141,1.745131,72.880649
13.5168,0.001332,-0.009903,0.000801,-0.000237,0.002093,2.2e-05,0.001398,-0.520183,-0.000264,1.018781,-259.64141,1.731705,72.880649
13.5369,0.001881,-0.009854,0.000409,-0.000249,0.002086,-0.000338,0.001538,-0.520068,0.000171,1.018781,-259.64141,1.731705,72.880649
13.5562,0.001634,-0.009957,-0.000279,-0.000256,0.002082,-0.000592,0.00209,-0.519853,0.000409,1.093782,-259.641409,1.684449,72.88065
13.5764,0.00183,-0.009403,-0.000822,-0.000256,0.002083,-0.000557,0.001544,-0.519948,-0.000219,1.093782,-259.641409,1.684449,72.88065
13.5969,0.002043,-0.009829,0.000891,-0.000256,0.002084,-0.000532,0.001544,-0.519948,-0.000219,1.093782,-259.641409,1.684449,72.88065
13.6168,0.001739,-0.009965,-9.2e-05,-0.000257,0.002085,-0.000514,0.002498,-0.519829,0.000891,1.168786,-259.641409,1.675301,72.880651
13.6367,0.001705,-0.010191,6.3e-05,-0.000347,0.002065,-0.000884,0.002167,-0.519885,0.000487,1.168786,-259.641409,1.675301,72.880651
13.6563,0.001957,-0.009711,0.000469,-0.000416,0.002051,-0.001147,0.001737,-0.52019,6.3e-05,1.243844,-259.641404,1.677412,72.880657
13.6768,0.001995,-0.010033,0.000239,-0.000471,0.002039,-0.001303,0.002155,-0.519754,0.000433,1.243844,-259.641404,1.677412,72.880657
13.6965,0.00177,-0.009864,0.000301,-0.000514,0.00203,-0.001414,0.002155,-0.519754,0.000433,1.243844,-259.641404,1.677412,72.880657
13.7164,0.002068,-0.009915,-0.000363,-0.000547,0.002023,-0.001492,0.001924,-0.519864,0.000301,1.168951,-259.641404,1.720892,72.880658
13.7365,0.001689,-0.009954,0.000998,-0.000532,0.00203,-0.001326,0.001907,-0.519885,2.7e-05,1.168951,-259.641404,1.720892,72.880658
13.7567,0.001671,-0.009929,-0.000987,-0.000522,0.002035,-0.001208,0.002198,-0.519954,0.000998,1.093845,-259.641404,1.645786,72.880658
13.7768,0.001651,-0.009687,-6.7e-05,-0.000421,0.00206,-0.000663,0.001256,-0.519931,-0.000817,1.093845,-259.641404,1.645786,72.880658
13.7967,0.001397,-0.009769,0.000469,-0.000344,0.002078,-0.000279,0.001256,-0.519931,-0.000817,1.093845,-259.641404,1.645786,72.880658
13.8169,0.001988,-0.010204,0.000915,-0.000284,0.00209,-9e-06,0.001636,-0.519769,0.000469,1.018822,-259.641404,1.570763,72.880658
13.8369,0.001866,-0.009606,0.000677,-0.000351,0.002071,-0.00061,0.001968,-0.519945,0.00065,1.018822,-259.641404,1.570763,72.880658
13.8568,0.002057,-0.009505,0.000843,-0.000399,0.002058,-0.001038,0.002211,-0.519606,0.000677,1.093704,-259.641404,1.645645,72.880658
13.877,0.0019,-0.009723,-0.001325,-0.00051,0.002029,-0.001429,0.002462,-0.519514,0.000828,1.093704,-259.641404,1.645645,72.880658
13.8967,0.001832,-0.009941,0.001231,-0.000595,0.002007,-0.001708,0.002462,-0.519514,0.000828,1.093704,-259.641404,1.645645,72.880658
13.917,0.001584,-0.009511,0.000176,-0.000661,0.001991,-0.001906,0.00246,-0.51994,0.001231,1.018614,-259.641404,1.717974,72.880658
13.9368,0.001692,-0.009578,0.000934,-0.000665,0.001991,-0.002034,0.002139,-0.519765,0.0008,1.018614,-259.641404,1.717974,72.880658
13.9567,0.00167,-0.009561,-0.001087,-0.000667,0.001992,-0.002125,0.002168,-0.519577,0.000934,0.943703,-259.641404,1.643062,72.880658
13.9766,0.001783,-0.009812,-0.000213,-0.000531,0.002027,-0.001258,0.001207,-0.519562,-0.000913,0.943703,-259.641404,1.643062,72.880658
13.9964,0.001699,-0.009811,-0.000746,-0.000427,0.002051,-0.000647,0.001207,-0.519562,-0.000913,0.943703,-259.641404,1.643062,72.880658
14.0165,0.001911,-0.009559,0.001483,-0.000347,0.002067,-0.000216,0.001318,-0.519811,-0.000746,0.868577,-259.641404,1.567937,72.880658
14.0365,0.001674,-0.009512,-0.000635,-0.000385,0.002056,-0.000504,0.001875,-0.519707,0.000174,0.868577,-259.641404,1.567937,72.880658
14.0568,0.001687,-0.009936,-0.000174,-0.000413,0.002048,-0.000709,0.00135,-0.519512,-0.000635,0.793559,-259.641404,1.642956,72.880658
14.0766,0.001913,-0.009832,0.000929,-0.000386,0.002055,-0.000642,0.001577,-0.519899,-0.000214,0.793559,-259.641404,1.642956,72.880658
14.0965,0.002144,-0.009539,0.000858,-0.000365,0.00206,-0.000594,0.001577,-0.519899,-0.000214,0.793559,-259.641404,1.642956,72.880658
14.117,0.001544,-0.009833,-0.000164,-0.000349,0.002064,-0.000561,0.002581,-0.519538,0.000858,0.718574,-259.641404,1.71794,72.880658
14.1365,0.001698,-0.010115,-0.00148,-0.00042,0.002046,-0.000891,0.002121,-0.519659,0.000438,0.718574,-259.641404,1.71794,72.880658
14.1563,0.001435,-0.009683,-0.000601,-0.000475,0.002033,-0.001125,0.000943,-0.520114,-0.00148,0.643575,-259.641404,1.7147,72.880658
14.1771,0.001926,-0.01002,-0.000682,-0.000371,0.002054,-0.000681,0.001112,-0.51972,-0.000676,0.643575,-259.641404,1.7147,72.880658
14.1966,0.001968,-0.009527,0.000554,-0.00029,0.00207,-0.000368,0.001112,-0.51972,-0.000676,0.643575,-259.641404,1.7147,72.880658
14.2166,0.001785,-0.009349,-0.00222,-0.000227,0.002081,-0.000148,0.00225,-0.519527,0.000554,0.568593,-259.641404,1.743811,72.880658
14.2366,0.001443,-0.00963,0.001176,-0.00025,0.002077,-5.1e-05,0.001607,-0.519455,-0.000564,0.568593,-259.641404,1.743811,72.880658
14.2566,0.001737,-0.0096,-0.000312,-0.000268,0.002074,1.6e-05,0.002042,-0.519629,0.001176,0.643499,-259.641404,1.675047,72.880658
14.2769,0.001672,-0.009695,0.001388,-0.000288,0.002067,-0.000152,0.001621,-0.519603,-0.000175,0.643499,-259.641404,1.675047,72.880658
14.2963,0.001736,-0.009828,0.000907,-0.000303,0.002062,-0.000271,0.001621,-0.519603,-0.000175,0.643499,-259.641404,1.675047,72.880658
14.3164,0.001857,-0.009459,-0.000784,-0.000314,0.002059,-0.000355,0.002198,-0.519827,0.000907,0.718574,-259.641404,1.700045,72.880658
14.3363,0.001647,-0.010243,-0.002223,-0.000362,0.002048,-0.000627,0.001894,-0.519676,0.000213,0.718574,-259.641404,1.700045,72.880658
14.3563,0.001931,-0.009695,4e-05,-0.000398,0.00204,-0.000819,0.000513,-0.520242,-0.002223,0.793601,-259.641404,1.707962,72.880659
14.3766,0.001987,-0.009892,0.001671,-0.000409,0.002042,-0.000752,0.001827,-0.519742,-0.000156,0.793601,-259.641404,1.707962,72.880659
14.3965,0.001972,-0.009791,-0.000218,-0.000418,0.002043,-0.000704,0.001827,-0.519742,-0.000156,0.793601,-259.641404,1.707962,72.880659
14.4167,0.001914,-0.009801,0.000101,-0.000426,0.002044,-0.000671,0.001861,-0.519791,-0.000218,0.718618,-259.641404,1.726203,72.880659
14.4367,0.001567,-0.010066,0.00104,-0.000442,0.002043,-0.000685,0.001904,-0.519795,-8.7e-05,0.718618,-259.641404,1.726203,72.880659
14.4562,0.002049,-0.009943,-0.000558,-0.000454,0.002042,-0.000696,0.002097,-0.520066,0.00104,0.643607,-259.641404,1.742736,72.880659
14.477,0.001406,-0.009869,0.000378,-0.000442,0.00205,-0.000521,0.001794,-0.519953,-0.000416,0.643607,-259.641404,1.742736,72.880659
14.4968,0.001282,-0.009501,-0.00061,-0.000433,0.002056,-0.000398,0.001794,-0.519953,-0.000416,0.643607,-259.641404,1.742736,72.880659
14.5167,0.001698,-0.00953,0.000274,-0.000427,0.002061,-0.000311,0.000971,-0.519501,-0.00061,0.568685,-259.641404,1.667815,72.880659
14.5368,0.002075,-0.009817,0.001401,-0.000375,0.002062,-0.000344,0.001324,-0.519513,-0.00025,0.568685,-259.641404,1.667815,72.880659
14.5563,0.002091,-0.009716,0.000525,-0.000333,0.002063,-0.000366,0.00279,-0.519817,0.001401,0.493693,-259.641404,1.592822,72.880659
14.5765,0.001962,-0.009854,0.001128,-0.000444,0.002037,-0.000839,0.002397,-0.519725,0.000603,0.493693,-259.641404,1.592822,72.880659
14.5966,0.001521,-0.009766,0.001575,-0.000529,0.002019,-0.001176,0.002397,-0.519725,0.000603,0.493693,-259.641404,1.592822,72.880659
14.6164,0.001795,-0.009751,0.000462,-0.000595,0.002005,-0.001416,0.002324,-0.519765,0.001575,0.418723,-259.641404,1.667792,72.880659
14.6366,0.001625,-0.009775,-0.001292,-0.00063,0.001995,-0.001846,0.002205,-0.519759,0.001123,0.418723,-259.641404,1.667792,72.880659
14.6567,0.001441,-0.009671,0.000981,-0.000654,0.001989,-0.002152,0.000966,-0.519774,-0.001292,0.343709,-259.641404,1.592778,72.880659
14.6764,0.001699,-0.010214,-0.000619,-0.000624,0.001995,-0.002195,0.001852,-0.51968,0.000771,0.343709,-259.641404,1.592778,72.880659
14.6968,0.001713,-0.009574,-0.001343,-0.000599,0.002,-0.002224,0.001852,-0.51968,0.000771,0.343709,-259.641404,1.592778,72.880659
14.7167,0.002073,-0.009802,0.000254,-0.000579,0.002004,-0.002244,0.001028,-0.519574,-0.001343,0.268717,-259.641404,1.517786,72.880659
14.7365,0.001564,-0.01017,0.001429,-0.000498,0.002032,-0.001452,0.001504,-0.519666,-0.000696,0.268717,-259.641404,1.517786,72.880659
14.7562,0.001852,-0.009579,-0.000439,-0.000437,0.002051,-0.000894,0.002293,-0.52017,0.001429,0.19367,-259.641404,1.592833,72.880659
14.7766,0.001993,-0.009735,-0.000411,-0.000422,0.002055,-0.000735,0.001688,-0.519632,-0.000271,0.19367,-259.641404,1.592833,72.880659
14.7963,0.001557,-0.010304,0.00058,-0.000412,0.002056,-0.000624,0.001688,-0.519632,-0.000271,0.19367,-259.641404,1.592833,72.880659
14.8167,0.002055,-0.009587,-0.000716,-0.000404,0.002057,-0.000546,0.001852,-0.520304,0.00058,0.118711,-259.641404,1.667791,72.880659
14.8363,0.001919,-0.009921,7.7e-05,-0.000407,0.002056,-0.000671,0.001786,-0.520011,5.1e-05,0.118711,-259.641404,1.667791,72.880659
14.8562,0.001685,-0.009807,-0.000825,-0.000409,0.002056,-0.00076,0.001958,-0.519921,7.7e-05,0.043674,-259.641404,1.738107,72.880659
14.8764,0.001297,-0.010065,-0.000654,-0.000345,0.002072,-0.000385,0.001327,-0.519817,-0.000744,0.043674,-259.641404,1.738107,72.880659
14.8963,0.002116,-0.009919,-0.000833,-0.000297,0.002083,-0.000122,0.001327,-0.519817,-0.000744,0.043674,-259.641404,1.738107,72.880659
14.9163,0.00181,-0.009984,-0.001332,-0.000259,0.002091,6.3e-05,0.001691,-0.519918,-0.000833,-0.031281,-259.641404,1.731685,72.880659
14.9364,0.001585,-0.009922,0.001188,-0.000242,0.0021,0.000347,0.001462,-0.519945,-0.001037,-0.031281,-259.641404,1.731685,72.880659
14.9563,0.001835,-0.010037,-6.1e-05,-0.000231,0.002106,0.000546,0.002191,-0.519922,0.001188,-0.106311,-259.641404,1.69653,72.880659
14.9772,0.001858,-0.009423,-0.000254,-0.000285,0.00209,9.7e-05,0.001839,-0.520027,5.2e-05,-0.106311,-259.641404,1.69653,72.880659
14.997,0.002008,-0.009935,-0.000798,-0.000324,0.00208,-0.000221,0.001839,-0.520027,5.2e-05,-0.106311,-259.641404,1.69653,72.880659
15.0168,0.002068,-0.010206,-0.000179,-0.000353,0.002072,-0.000447,0.001601,-0.519935,-0.000798,-0.181279,-259.641404,1.700418,72.880659
15.0364,0.00196,-0.0097,0.00011,-0.000354,0.002078,-0.000275,0.001753,-0.520045,-0.000547,-0.181279,-259.641404,1.700418,72.880659
15.0562,0.00184,-0.009771,0.000331,-0.000356,0.002081,-0.000154,0.002016,-0.5197,0.00011,-0.256274,-259.641404,1.720288,72.880659
15.0769,0.001787,-0.009903,0.000405,-0.000412,0.002064,-0.000538,0.00201,-0.519764,0.000311,-0.256274,-259.641404,1.720288,72.880659
15.0973,0.0018,-0.00991,-0.001077,-0.000453,0.002052,-0.00081,0.00201,-0.519764,0.000311,-0.256274,-259.641404,1.720288,72.880659
