mach0312/omni-docking-bench/src/icros_test_setup/results/MPPI_sample/timeseries/trial_070.csv
t,x,y,yaw,vx,vy,wz,bl_x,bl_y,bl_yaw,front_steering_joint,front_wheel_joint,rear_steering_joint,rear_wheel_joint
0.0,-0.017144,-0.022497,0.069375,0.007482,-0.001476,0.003907,0.018172,-0.531364,0.070271,0.121111,-260.029921,-0.476493,68.096162
0.0004,-0.017165,-0.022688,0.069276,0.002038,-0.000402,0.001064,0.018714,-0.531291,0.070896,0.121111,-260.026479,-0.476493,68.100006
0.0006,-0.017012,-0.022739,0.070106,0.001047,-0.000207,0.000547,0.018315,-0.531362,0.069668,0.121111,-260.023714,-0.476493,68.103096
0.0009,-0.017086,-0.022753,0.068116,0.0,0.0,0.0,0.018315,-0.531362,0.069668,0.121111,-260.021507,-0.476493,68.105561
0.0012,-0.016973,-0.022611,0.07099,0.0,0.0,0.0,0.018315,-0.531362,0.069668,0.121111,-260.020309,-0.476493,68.106899
0.0014,-0.017323,-0.022701,0.070166,0.0,0.0,0.0,0.018664,-0.531404,0.071014,0.121111,-260.019887,-0.476493,68.107371
0.0017,-0.016885,-0.022909,0.070435,0.0,0.0,0.0,0.018664,-0.531404,0.071014,0.121111,-260.019887,-0.476493,68.107371
0.0019,-0.016889,-0.022815,0.070198,0.0,0.0,0.0,0.018508,-0.53159,0.07031,0.121111,-260.019887,-0.476493,68.107371
0.0022,-0.016998,-0.022718,0.068844,0.0,0.0,0.0,0.018508,-0.53159,0.07031,0.121111,-260.019887,-0.476493,68.107371
0.0024,-0.017345,-0.022666,0.068792,0.0,0.0,0.0,0.017672,-0.531588,0.068839,0.121111,-260.019887,-0.476493,68.107371
0.0173,-0.016834,-0.023352,0.069662,0.0,0.0,0.0,0.017711,-0.53146,0.068792,0.121111,-260.019887,-0.476493,68.107371
0.0373,-0.017351,-0.022943,0.07044,0.0,0.0,0.0,0.018579,-0.532056,0.069584,0.121111,-260.019887,-0.476493,68.107371
0.0577,-0.017249,-0.022932,0.07091,0.0,0.0,0.0,0.018579,-0.532056,0.069584,0.121111,-260.019887,-0.476493,68.107371
0.0777,-0.016475,-0.022882,0.071512,0.0,0.0,0.0,0.018885,-0.53165,0.07091,0.121111,-260.019887,-0.476493,68.107371
0.0975,-0.017251,-0.022534,0.070488,0.0,0.0,0.0,0.019326,-0.531621,0.071156,0.121111,-260.019887,-0.476493,68.107371
0.1176,-0.017103,-0.022801,0.070106,-0.005255,0.000924,-0.009235,0.018668,-0.531267,0.070488,0.121111,-260.019887,-0.476493,68.107371
0.1377,-0.017079,-0.022708,0.070842,-0.005731,0.000997,-0.010001,0.018626,-0.531523,0.07014,0.121111,-260.019887,-0.476493,68.107371
0.1578,-0.016763,-0.023208,0.069549,-0.006137,0.001056,-0.010623,0.018626,-0.531523,0.07014,0.121111,-260.019887,-0.476493,68.107371
0.1778,-0.016929,-0.022862,0.069566,-0.006483,0.001103,-0.011127,0.018678,-0.531975,0.069549,0.19615,-260.019887,-0.551532,68.10737
0.1977,-0.017133,-0.022935,0.070884,-0.006771,0.001146,-0.011569,0.018615,-0.531834,0.069556,0.19615,-260.019887,-0.551532,68.10737
0.2175,-0.017,-0.022749,0.070485,-0.007018,0.00118,-0.011929,0.018988,-0.531654,0.070884,0.271102,-260.019893,-0.626484,68.107363
0.2374,-0.017159,-0.022771,0.069458,-0.007241,0.001201,-0.012305,0.018923,-0.531498,0.070521,0.271102,-260.019893,-0.626484,68.107363
0.2574,-0.016737,-0.022658,0.070475,-0.007433,0.001216,-0.012612,0.018923,-0.531498,0.070521,0.271102,-260.019893,-0.626484,68.107363
0.2779,-0.016655,-0.023071,0.070518,-0.007599,0.001229,-0.012862,0.019171,-0.531391,0.070471,0.346106,-260.019943,-0.701487,68.107304
0.2975,-0.017327,-0.022565,0.069872,-0.007745,0.001236,-0.013065,0.019215,-0.53156,0.07049,0.346106,-260.019943,-0.701487,68.107304
0.3173,-0.017093,-0.022834,0.07005,-0.007871,0.001241,-0.01323,0.01826,-0.531318,0.069851,0.421215,-260.020205,-0.776596,68.106997
0.3382,-0.016971,-0.023068,0.068388,-0.007965,0.001253,-0.013366,0.018572,-0.531559,0.070031,0.421215,-260.020205,-0.776596,68.106997
0.3575,-0.017175,-0.023025,0.070588,-0.008046,0.001263,-0.013478,0.018572,-0.531559,0.070031,0.421215,-260.020205,-0.776596,68.106997
0.3777,-0.017367,-0.022873,0.068705,-0.008117,0.001271,-0.013569,0.018717,-0.531741,0.070485,0.496098,-260.021095,-0.85148,68.105956
0.3978,-0.017278,-0.022652,0.069301,-0.008168,0.001283,-0.013645,0.018272,-0.531711,0.069748,0.496098,-260.021095,-0.85148,68.105956
0.4172,-0.017398,-0.023209,0.070893,-0.008213,0.001293,-0.013707,0.017908,-0.531409,0.069113,0.571113,-260.023099,-0.866757,68.103613
0.4373,-0.017255,-0.023019,0.069379,-0.008257,0.001298,-0.013758,0.018645,-0.531879,0.070719,0.571113,-260.023099,-0.866757,68.103613
0.4573,-0.017042,-0.022747,0.069635,-0.008295,0.001302,-0.0138,0.018645,-0.531879,0.070719,0.571113,-260.023099,-0.866757,68.103613
0.4782,-0.017322,-0.022855,0.070051,-0.008328,0.001305,-0.013835,0.018183,-0.531481,0.06923,0.646101,-260.026261,-0.866415,68.099914
0.4977,-0.01692,-0.022842,0.069472,-0.008354,0.001309,-0.013992,0.018229,-0.531527,0.06951,0.646101,-260.026261,-0.866415,68.099914
0.5176,-0.01718,-0.022671,0.067981,-0.008377,0.001312,-0.014118,0.018231,-0.53159,0.069058,0.709115,-260.03038,-0.864133,68.095101
0.5377,-0.01749,-0.023056,0.067993,-0.00838,0.001324,-0.014297,0.01752,-0.531501,0.068057,0.709115,-260.03038,-0.864133,68.095101
0.5577,-0.017058,-0.022607,0.06873,-0.008384,0.001335,-0.014442,0.01752,-0.531501,0.068057,0.709115,-260.03038,-0.864133,68.095101
0.5773,-0.017495,-0.022384,0.067112,-0.008388,0.001344,-0.01456,0.017613,-0.531372,0.068139,0.717568,-260.034819,-0.87027,68.089912
0.5976,-0.01736,-0.022434,0.06644,-0.008388,0.001354,-0.014726,0.017205,-0.531313,0.067654,0.717568,-260.034819,-0.87027,68.089912
0.6177,-0.017246,-0.022437,0.067814,-0.008388,0.001362,-0.014862,0.016231,-0.531284,0.065978,0.732759,-260.039303,-0.884265,68.084654
0.6373,-0.017339,-0.022397,0.066815,-0.008389,0.00137,-0.015034,0.017197,-0.531266,0.067617,0.732759,-260.039303,-0.884265,68.084654
0.6577,-0.017039,-0.022342,0.067294,-0.00839,0.001376,-0.015175,0.017197,-0.531266,0.067617,0.732759,-260.039303,-0.884265,68.084654
0.6776,-0.017378,-0.022331,0.066876,-0.008391,0.001382,-0.01529,0.016902,-0.531154,0.066674,0.743598,-260.043852,-0.893923,68.079308
0.6976,-0.017229,-0.02235,0.066704,-0.008383,0.001392,-0.015439,0.01678,-0.531165,0.066685,0.743598,-260.043852,-0.893923,68.079308
0.7178,-0.017499,-0.022538,0.065392,-0.008378,0.001401,-0.015562,0.016498,-0.53119,0.066222,0.758841,-260.048449,-0.906686,68.073896
0.7375,-0.017547,-0.022234,0.065117,-0.008343,0.001425,-0.015711,0.015872,-0.531425,0.065439,0.758841,-260.048449,-0.906686,68.073896
0.7575,-0.01725,-0.022042,0.065698,-0.008315,0.001446,-0.015833,0.015872,-0.531425,0.065439,0.758841,-260.048449,-0.906686,68.073896
0.7774,-0.017341,-0.022266,0.06376,-0.008292,0.001464,-0.015935,0.01588,-0.530907,0.065049,0.768786,-260.053097,-0.915731,68.068413
0.7975,-0.017695,-0.021934,0.064284,-0.008273,0.001479,-0.016059,0.015543,-0.531034,0.064448,0.768786,-260.053097,-0.915731,68.068413
0.8176,-0.017377,-0.022109,0.065918,-0.008257,0.001493,-0.016161,0.014804,-0.530851,0.063782,0.783961,-260.057734,-0.933328,68.062895
0.8371,-0.017857,-0.022147,0.06475,-0.008257,0.001496,-0.016281,0.01606,-0.530985,0.065674,0.783961,-260.057734,-0.933328,68.062895
0.8581,-0.017183,-0.022273,0.063883,-0.008258,0.0015,-0.016381,0.01606,-0.530985,0.065674,0.783961,-260.057734,-0.933328,68.062895
0.8774,-0.017794,-0.02213,0.062194,-0.008258,0.001503,-0.016464,0.015027,-0.531192,0.063207,0.792687,-260.062432,-0.942435,68.057285
0.8976,-0.017602,-0.022369,0.062397,-0.008212,0.00153,-0.016569,0.014527,-0.531168,0.062715,0.792687,-260.062432,-0.942435,68.057285
0.9177,-0.017466,-0.021899,0.062475,-0.008174,0.001553,-0.016655,0.013934,-0.531345,0.061872,0.802909,-260.06717,-0.950408,68.051624
0.9376,-0.017479,-0.02229,0.061804,-0.008141,0.001574,-0.016749,0.014322,-0.530943,0.062393,0.802909,-260.06717,-0.950408,68.051624
0.958,-0.017531,-0.021781,0.06369,-0.008113,0.001592,-0.016827,0.014322,-0.530943,0.062393,0.802909,-260.06717,-0.950408,68.051624
0.978,-0.017362,-0.021755,0.060551,-0.00809,0.001607,-0.016892,0.014585,-0.530703,0.062995,0.811869,-260.071905,-0.96201,68.045926
0.9978,-0.017338,-0.022035,0.063003,-0.008069,0.001621,-0.01696,0.014106,-0.530746,0.061926,0.811869,-260.071905,-0.96201,68.045926
1.0175,-0.017598,-0.021858,0.060371,-0.008052,0.001634,-0.017017,0.014512,-0.530988,0.062466,0.822221,-260.076641,-0.974639,68.040186
1.0375,-0.017136,-0.021922,0.061973,-0.008008,0.001658,-0.017076,0.013281,-0.530932,0.060534,0.822221,-260.076641,-0.974639,68.040186
1.0572,-0.017633,-0.022324,0.061562,-0.007971,0.001679,-0.017125,0.013281,-0.530932,0.060534,0.822221,-260.076641,-0.974639,68.040186
1.0777,-0.017578,-0.021883,0.059984,-0.007941,0.001696,-0.017165,0.013403,-0.531311,0.060851,0.827498,-260.081394,-0.980856,68.034404
1.0975,-0.01715,-0.022176,0.060826,-0.007909,0.001715,-0.017204,0.013199,-0.531166,0.060418,0.827498,-260.081394,-0.980856,68.034404
1.1174,-0.017634,-0.021862,0.059047,-0.007883,0.001731,-0.017237,0.013597,-0.531194,0.060281,0.835899,-260.086121,-0.993005,68.028601
1.1375,-0.017318,-0.021679,0.059366,-0.007843,0.001752,-0.017272,0.012549,-0.53099,0.059127,0.835899,-260.086121,-0.993005,68.028601
1.1574,-0.017365,-0.021598,0.059906,-0.007811,0.001769,-0.017301,0.012549,-0.53099,0.059127,0.835899,-260.086121,-0.993005,68.028601
1.1777,-0.017535,-0.02183,0.059873,-0.007784,0.001785,-0.017324,0.012835,-0.53063,0.059185,0.840161,-260.090841,-0.999323,68.022776
1.1974,-0.017609,-0.021642,0.058346,-0.007777,0.001791,-0.017346,0.012857,-0.530741,0.059384,0.840161,-260.090841,-0.999323,68.022776
1.2172,-0.017091,-0.021457,0.057494,-0.007771,0.001796,-0.017365,0.011881,-0.530732,0.057796,0.846366,-260.095551,-1.008977,68.016918
1.2374,-0.017895,-0.021294,0.057856,-0.007747,0.001809,-0.017388,0.012178,-0.530621,0.057492,0.846366,-260.095551,-1.008977,68.016918
1.2581,-0.017603,-0.021405,0.057608,-0.007727,0.00182,-0.017406,0.012178,-0.530621,0.057492,0.846366,-260.095551,-1.008977,68.016918
1.2772,-0.017245,-0.021175,0.056506,-0.007711,0.001829,-0.017421,0.011432,-0.530502,0.056881,0.847927,-260.100241,-1.011014,68.011075
1.2976,-0.0175,-0.021648,0.055819,-0.007675,0.001846,-0.017441,0.011446,-0.530438,0.056646,0.847927,-260.100241,-1.011014,68.011075
1.3179,-0.017314,-0.021502,0.057282,-0.007646,0.001861,-0.017457,0.010706,-0.530809,0.055268,0.851865,-260.104918,-1.016957,68.005219
1.3375,-0.017517,-0.021396,0.056073,-0.007628,0.001871,-0.017472,0.01177,-0.530676,0.057082,0.851865,-260.104918,-1.016957,68.005219
1.3572,-0.017144,-0.021387,0.055132,-0.007613,0.001879,-0.017484,0.01177,-0.530676,0.057082,0.851865,-260.104918,-1.016957,68.005219
1.3776,-0.01714,-0.021387,0.053947,-0.007601,0.001886,-0.017494,0.010637,-0.530552,0.054404,0.855521,-260.109574,-1.022658,67.999358
1.3975,-0.017023,-0.021304,0.054897,-0.007547,0.001909,-0.017512,0.010484,-0.530584,0.05413,0.855521,-260.109574,-1.022658,67.999358
1.4174,-0.016911,-0.021172,0.054697,-0.007503,0.001928,-0.017525,0.010716,-0.530489,0.054342,0.858281,-260.114219,-1.026929,67.99349
1.4379,-0.017097,-0.021144,0.052835,-0.007486,0.001937,-0.017535,0.010937,-0.530414,0.05464,0.858281,-260.114219,-1.026929,67.99349
1.4579,-0.017241,-0.02094,0.053507,-0.007473,0.001944,-0.017542,0.010937,-0.530414,0.05464,0.858281,-260.114219,-1.026929,67.99349
1.4779,-0.016909,-0.021219,0.052493,-0.007461,0.001951,-0.017549,0.009718,-0.530147,0.052775,0.863425,-260.118842,-1.03483,67.987607
1.4976,-0.017147,-0.020911,0.052171,-0.007408,0.001972,-0.017562,0.009736,-0.530294,0.052572,0.863425,-260.118842,-1.03483,67.987607
1.5181,-0.016835,-0.020816,0.05118,-0.007365,0.00199,-0.017573,0.009209,-0.530167,0.051616,0.865692,-260.123461,-1.038547,67.981709
1.5375,-0.017005,-0.021048,0.051986,-0.007312,0.00201,-0.017584,0.009242,-0.530148,0.051188,0.865692,-260.123461,-1.038547,67.981709
1.5572,-0.016831,-0.021243,0.052395,-0.007268,0.002028,-0.017593,0.009242,-0.530148,0.051188,0.865692,-260.123461,-1.038547,67.981709
1.5778,-0.016908,-0.020854,0.050213,-0.007232,0.002043,-0.0176,0.009569,-0.530477,0.051666,0.870745,-260.127992,-1.046051,67.975881
1.5973,-0.017274,-0.020672,0.05172,-0.007196,0.002057,-0.017607,0.00918,-0.530362,0.050997,0.870745,-260.127992,-1.046051,67.975881
1.6173,-0.016588,-0.020512,0.049204,-0.007166,0.00207,-0.017611,0.008858,-0.529937,0.05116,0.877631,-260.132515,-1.056226,67.970009
1.6376,-0.016885,-0.020782,0.047673,-0.007122,0.002086,-0.017619,0.008516,-0.529896,0.049345,0.877631,-260.132515,-1.056226,67.970009
1.6573,-0.016813,-0.020711,0.050282,-0.007086,0.0021,-0.017625,0.008516,-0.529896,0.049345,0.877631,-260.132515,-1.056226,67.970009
1.6773,-0.016567,-0.020566,0.049211,-0.007056,0.002112,-0.017628,0.008517,-0.529995,0.049547,0.881022,-260.137019,-1.061316,67.964133
1.6972,-0.016706,-0.020874,0.050118,-0.007029,0.002123,-0.017632,0.008483,-0.529968,0.049323,0.881022,-260.137019,-1.061316,67.964133
1.7172,-0.016411,-0.020544,0.048703,-0.007006,0.002132,-0.017635,0.008617,-0.530177,0.049559,0.886796,-260.141477,-1.069563,67.95827
1.7373,-0.016749,-0.020786,0.048112,-0.006986,0.00214,-0.017637,0.008424,-0.529957,0.048749,0.886796,-260.141477,-1.069563,67.95827
1.7573,-0.016444,-0.020682,0.049001,-0.006969,0.002148,-0.017639,0.008424,-0.529957,0.048749,0.886796,-260.141477,-1.069563,67.95827
1.7773,-0.016707,-0.020786,0.046949,-0.006954,0.002154,-0.01764,0.00824,-0.529995,0.048265,0.889359,-260.145918,-1.073339,67.952408
1.7973,-0.016258,-0.020337,0.047908,-0.006913,0.002167,-0.017646,0.007791,-0.53008,0.047641,0.889359,-260.145918,-1.073339,67.952408
1.8175,-0.01643,-0.02068,0.046602,-0.006879,0.002179,-0.01765,0.007942,-0.529694,0.047347,0.891939,-260.150346,-1.077246,67.946539
1.8376,-0.016519,-0.020492,0.04631,-0.006833,0.002193,-0.017656,0.007372,-0.530084,0.04664,0.891939,-260.150346,-1.077246,67.946539
1.8578,-0.016285,-0.02046,0.046043,-0.006794,0.002205,-0.01766,0.007372,-0.530084,0.04664,0.891939,-260.150346,-1.077246,67.946539
1.8775,-0.016048,-0.020318,0.045187,-0.006762,0.002216,-0.017662,0.006897,-0.529842,0.045304,0.896179,-260.154748,-1.08276,67.940675
1.8976,-0.016235,-0.020471,0.045543,-0.00672,0.002229,-0.017666,0.006901,-0.529815,0.045171,0.896179,-260.154748,-1.08276,67.940675
1.9175,-0.0161,-0.020598,0.044945,-0.006685,0.00224,-0.017669,0.006766,-0.529882,0.044982,0.90281,-260.159107,-1.091226,67.934823
1.9373,-0.016422,-0.01976,0.045514,-0.006647,0.002251,-0.017672,0.006799,-0.530062,0.04492,0.90281,-260.159107,-1.091226,67.934823
1.9577,-0.016359,-0.019695,0.044938,-0.006616,0.002261,-0.017673,0.006799,-0.530062,0.04492,0.90281,-260.159107,-1.091226,67.934823
1.9778,-0.016314,-0.019782,0.046115,-0.00659,0.002269,-0.017673,0.006268,-0.529099,0.044199,0.907328,-260.163452,-1.096824,67.928961
1.9975,-0.015994,-0.020063,0.043878,-0.006575,0.002274,-0.017673,0.006618,-0.529148,0.044903,0.907328,-260.163452,-1.096824,67.928961
2.0177,-0.016034,-0.02,0.04275,-0.006562,0.002279,-0.017672,0.006164,-0.529509,0.043316,0.9127,-260.167757,-1.103561,67.923115
2.0377,-0.015761,-0.020145,0.043453,-0.006506,0.002292,-0.017679,0.005786,-0.529529,0.042771,0.9127,-260.167757,-1.103561,67.923115
2.0578,-0.01601,-0.020345,0.043203,-0.00646,0.002304,-0.017683,0.005786,-0.529529,0.042771,0.9127,-260.167757,-1.103561,67.923115
2.0774,-0.015951,-0.020044,0.042001,-0.006421,0.002314,-0.017685,0.005739,-0.529786,0.042465,0.914161,-260.172056,-1.105559,67.917265
2.0976,-0.01648,-0.019623,0.04219,-0.006378,0.002324,-0.017688,0.005593,-0.529697,0.042188,0.914161,-260.172056,-1.105559,67.917265
2.1173,-0.015393,-0.019301,0.041498,-0.006343,0.002333,-0.017689,0.004824,-0.529104,0.041631,0.923098,-260.176303,-1.115488,67.911439
2.1375,-0.015731,-0.019945,0.042614,-0.006329,0.002338,-0.017687,0.005663,-0.528881,0.041479,0.923098,-260.176303,-1.115488,67.911439
2.1574,-0.015837,-0.019697,0.04095,-0.006318,0.002342,-0.017685,0.005663,-0.528881,0.041479,0.923098,-260.176303,-1.115488,67.911439
2.1776,-0.015725,-0.019213,0.041328,-0.006309,0.002345,-0.017683,0.004774,-0.529183,0.040213,0.928041,-260.180524,-1.120997,67.90562
2.1972,-0.015607,-0.019559,0.040406,-0.006265,0.002354,-0.017687,0.004977,-0.529007,0.040583,0.928041,-260.180524,-1.120997,67.90562
2.2171,-0.015098,-0.019511,0.038882,-0.006228,0.002362,-0.01769,0.004791,-0.529076,0.039843,0.929706,-260.184748,-1.123279,67.899781
2.2375,-0.015585,-0.019614,0.039116,-0.006184,0.002371,-0.017693,0.004723,-0.529118,0.038938,0.929706,-260.184748,-1.123279,67.899781
2.2574,-0.015437,-0.019797,0.040027,-0.006148,0.002378,-0.017695,0.004723,-0.529118,0.038938,0.929706,-260.184748,-1.123279,67.899781
2.2772,-0.015102,-0.019304,0.037544,-0.006118,0.002385,-0.017695,0.004708,-0.5293,0.039289,0.935228,-260.188941,-1.128976,67.89396
2.2972,-0.01563,-0.019435,0.037586,-0.006077,0.002393,-0.017698,0.004402,-0.529143,0.038485,0.935228,-260.188941,-1.128976,67.89396
2.3175,-0.015276,-0.018917,0.037711,-0.006042,0.0024,-0.017699,0.003338,-0.529006,0.037024,0.942571,-260.193092,-1.136557,67.888162
2.3377,-0.015212,-0.018815,0.039168,-0.005993,0.002408,-0.017703,0.003887,-0.528591,0.037621,0.942571,-260.193092,-1.136557,67.888162
2.3583,-0.015315,-0.018828,0.036904,-0.005951,0.002415,-0.017705,0.003887,-0.528591,0.037621,0.942571,-260.193092,-1.136557,67.888162
2.3776,-0.015207,-0.019119,0.037053,-0.005918,0.002421,-0.017705,0.003245,-0.528389,0.036163,0.947777,-260.197231,-1.141784,67.882356
2.3971,-0.015135,-0.018797,0.036656,-0.005863,0.002428,-0.017709,0.003395,-0.528533,0.036439,0.947777,-260.197231,-1.141784,67.882356
2.4173,-0.014866,-0.018664,0.035616,-0.005819,0.002435,-0.017711,0.003365,-0.528385,0.036094,0.95665,-260.201328,-1.150312,67.876572
2.4375,-0.01488,-0.01881,0.038275,-0.005779,0.002441,-0.017712,0.00329,-0.528341,0.03563,0.95665,-260.201328,-1.150312,67.876572
2.4578,-0.014973,-0.019388,0.03588,-0.005746,0.002446,-0.017711,0.00329,-0.528341,0.03563,0.95665,-260.201328,-1.150312,67.876572
2.4777,-0.014705,-0.018828,0.034295,-0.005718,0.00245,-0.01771,0.003075,-0.528967,0.03514,0.963965,-260.205403,-1.15705,67.870792
2.4978,-0.01454,-0.018873,0.035746,-0.005672,0.002456,-0.017712,0.002927,-0.528777,0.034709,0.963965,-260.205403,-1.15705,67.870792
2.5176,-0.014857,-0.018454,0.034729,-0.005634,0.002461,-0.017712,0.003502,-0.528476,0.035183,0.971221,-260.209455,-1.16382,67.865015
2.5374,-0.014795,-0.018001,0.035943,-0.005606,0.002464,-0.017711,0.002898,-0.528171,0.034741,0.971221,-260.209455,-1.16382,67.865015
2.5576,-0.014264,-0.018347,0.033962,-0.005582,0.002468,-0.017709,0.002898,-0.528171,0.034741,0.971221,-260.209455,-1.16382,67.865015
2.5779,-0.014585,-0.018383,0.033954,-0.005563,0.00247,-0.017707,0.002815,-0.527958,0.033224,0.977621,-260.213477,-1.169532,67.85926
2.5976,-0.014431,-0.018263,0.03205,-0.005541,0.002473,-0.017705,0.002751,-0.528001,0.033437,0.977621,-260.213477,-1.169532,67.85926
2.6178,-0.01439,-0.018593,0.032564,-0.005524,0.002475,-0.017704,0.001732,-0.527929,0.031487,0.982773,-260.217485,-1.174221,67.853503
2.6379,-0.014236,-0.018284,0.031646,-0.005472,0.002478,-0.017709,0.002161,-0.528283,0.032435,0.982773,-260.217485,-1.174221,67.853503
2.6575,-0.014118,-0.018575,0.032063,-0.00543,0.002482,-0.017711,0.002161,-0.528283,0.032435,0.982773,-260.217485,-1.174221,67.853503
2.6777,-0.014159,-0.018214,0.032679,-0.005395,0.002485,-0.017712,0.001997,-0.528217,0.031323,0.98571,-260.221485,-1.17683,67.847749
2.6975,-0.013783,-0.018067,0.031057,-0.00537,0.002487,-0.01771,0.002178,-0.528093,0.031794,0.98571,-260.221485,-1.17683,67.847749
2.7176,-0.013918,-0.017959,0.031932,-0.005349,0.002489,-0.017709,0.00188,-0.527747,0.030495,0.996168,-260.22545,-1.185468,67.842015
2.738,-0.01402,-0.017936,0.030861,-0.005342,0.00249,-0.017705,0.002315,-0.527699,0.031782,0.996168,-260.22545,-1.185468,67.842015
2.7575,-0.013666,-0.017994,0.032056,-0.005337,0.002491,-0.017701,0.002315,-0.527699,0.031782,0.996168,-260.22545,-1.185468,67.842015
2.7776,-0.013723,-0.018148,0.029361,-0.005333,0.002491,-0.017698,0.002453,-0.527635,0.031315,0.999806,-260.229401,-1.188563,67.83629
2.7978,-0.013544,-0.018209,0.030793,-0.005307,0.002493,-0.0177,0.001938,-0.527743,0.030437,0.999806,-260.229401,-1.188563,67.83629
2.8171,-0.01363,-0.017587,0.029127,-0.005286,0.002494,-0.0177,0.001986,-0.527893,0.03023,1.000666,-260.233359,-1.189465,67.83055
2.8375,-0.013633,-0.01807,0.028144,-0.00523,0.002495,-0.017708,0.001278,-0.527411,0.029193,1.000666,-260.233359,-1.189465,67.83055
2.8572,-0.013635,-0.018003,0.028834,-0.005184,0.002496,-0.017712,0.001278,-0.527411,0.029193,1.000666,-260.233359,-1.189465,67.83055
2.8772,-0.013472,-0.017525,0.028374,-0.005146,0.002497,-0.017714,0.000844,-0.527694,0.028095,1.004595,-260.237293,-1.192595,67.824834
2.8972,-0.013313,-0.017729,0.026588,-0.00509,0.002498,-0.017719,0.000881,-0.52753,0.028123,1.004595,-260.237293,-1.192595,67.824834
2.9172,-0.013306,-0.017577,0.025436,-0.005044,0.002499,-0.017721,8e-05,-0.527474,0.026027,1.004595,-260.237293,-1.192595,67.824834
2.9376,-0.013304,-0.017433,0.027059,-0.004933,0.002496,-0.017736,-0.000309,-0.527413,0.025458,1.016961,-260.241198,-1.20203,67.819136
2.9577,-0.013418,-0.01768,0.026635,-0.004842,0.002493,-0.017745,-0.000309,-0.527413,0.025458,1.016961,-260.241198,-1.20203,67.819136
2.9774,-0.013315,-0.017564,0.026178,-0.004767,0.002492,-0.017748,-4.8e-05,-0.527401,0.025898,1.025996,-260.245077,-1.208848,67.813459
2.9975,-0.013016,-0.017752,0.026675,-0.004722,0.002492,-0.017745,-3.9e-05,-0.527385,0.025927,1.025996,-260.245077,-1.208848,67.813459
3.0172,-0.012861,-0.017853,0.02472,-0.004684,0.002493,-0.017741,0.000435,-0.527497,0.026119,1.051958,-260.248883,-1.227402,67.807854
3.0373,-0.012777,-0.017666,0.02461,-0.004644,0.002493,-0.017737,-0.000213,-0.52768,0.024797,1.051958,-260.248883,-1.227402,67.807854
3.0572,-0.012616,-0.017224,0.025765,-0.004611,0.002493,-0.017733,-0.000213,-0.52768,0.024797,1.051958,-260.248883,-1.227402,67.807854
3.0775,-0.01261,-0.017221,0.02565,-0.004584,0.002493,-0.017729,0.000326,-0.526956,0.025029,1.059185,-260.252681,-1.232819,67.802245
3.0973,-0.01255,-0.017402,0.024269,-0.004598,0.002495,-0.017717,0.000362,-0.526984,0.025197,1.059185,-260.252681,-1.232819,67.802245
3.1176,-0.012446,-0.017239,0.022719,-0.004609,0.002496,-0.017708,-0.000322,-0.527176,0.023706,1.067955,-260.256479,-1.239364,67.796621
3.1377,-0.012404,-0.017176,0.02359,-0.004544,0.002491,-0.017715,-0.000819,-0.52711,0.022779,1.067955,-260.256479,-1.239364,67.796621
3.1576,-0.012111,-0.017422,0.023378,-0.00449,0.002487,-0.017719,-0.000819,-0.52711,0.022779,1.067955,-260.256479,-1.239364,67.796621
3.1776,-0.012259,-0.016899,0.022119,-0.004446,0.002485,-0.01772,-0.000384,-0.527182,0.022637,1.06487,-260.260282,-1.237455,67.790988
3.1977,-0.011962,-0.016791,0.02108,-0.004421,0.002483,-0.017716,-0.00065,-0.527004,0.02234,1.06487,-260.260282,-1.237455,67.790988
3.2176,-0.011878,-0.016888,0.021811,-0.0044,0.002482,-0.017713,-0.001355,-0.526602,0.020518,1.080914,-260.264064,-1.248345,67.785373
3.2381,-0.011969,-0.017146,0.02166,-0.004372,0.00248,-0.017711,-0.000805,-0.526752,0.021692,1.080914,-260.264064,-1.248345,67.785373
3.258,-0.011749,-0.016899,0.021293,-0.00435,0.002478,-0.017708,-0.000805,-0.526752,0.021692,1.080914,-260.264064,-1.248345,67.785373
3.2781,-0.011779,-0.016803,0.021115,-0.004331,0.002477,-0.017705,-0.001075,-0.526684,0.020558,1.08512,-260.267808,-1.251309,67.779808
3.2972,-0.011892,-0.016432,0.021168,-0.004299,0.002473,-0.017705,-0.001071,-0.526675,0.020695,1.08512,-260.267808,-1.251309,67.779808
3.3171,-0.011348,-0.016482,0.017506,-0.004272,0.002471,-0.017703,-0.001237,-0.526242,0.020604,1.091661,-260.271562,-1.255766,67.774223
3.3372,-0.011565,-0.016327,0.020057,-0.004168,0.002456,-0.017711,-0.002318,-0.526385,0.017764,1.091661,-260.271562,-1.255766,67.774223
3.3571,-0.011439,-0.016685,0.021092,-0.004083,0.002443,-0.017712,-0.002318,-0.526385,0.017764,1.091661,-260.271562,-1.255766,67.774223
3.3772,-0.011187,-0.016437,0.019463,-0.004013,0.002434,-0.017711,-0.000863,-0.526472,0.020352,1.097485,-260.275308,-1.259631,67.768646
3.3971,-0.011352,-0.016769,0.018635,-0.004039,0.002438,-0.017696,-0.001047,-0.526407,0.019904,1.097485,-260.275308,-1.259631,67.768646
3.4172,-0.010989,-0.016285,0.017225,-0.004059,0.002441,-0.017685,-0.001976,-0.526606,0.01808,1.124322,-260.278966,-1.276711,67.763197
3.4374,-0.01102,-0.016409,0.017525,-0.004001,0.002433,-0.017682,-0.002191,-0.526241,0.017272,1.124322,-260.278966,-1.276711,67.763197
3.4574,-0.010874,-0.016378,0.017631,-0.003953,0.002426,-0.017677,-0.002191,-0.526241,0.017272,1.124322,-260.278966,-1.276711,67.763197
3.4772,-0.010302,-0.01611,0.017633,-0.003913,0.00242,-0.017672,-0.002054,-0.5262,0.016892,1.118719,-260.28268,-1.273339,67.757661
3.4975,-0.011208,-0.016348,0.017742,-0.003908,0.00242,-0.017658,-0.00177,-0.526119,0.01711,1.118719,-260.28268,-1.273339,67.757661
3.5171,-0.010677,-0.016192,0.017288,-0.003904,0.00242,-0.017647,-0.002286,-0.526193,0.017182,1.133575,-260.286359,-1.282858,67.752176
3.5373,-0.010694,-0.015908,0.016486,-0.003892,0.002418,-0.017641,-0.001906,-0.526119,0.017249,1.133575,-260.286359,-1.282858,67.752176
3.5577,-0.010431,-0.016203,0.01697,-0.003881,0.002416,-0.017635,-0.001906,-0.526119,0.017249,1.133575,-260.286359,-1.282858,67.752176
3.5782,-0.009949,-0.016003,0.013935,-0.003873,0.002415,-0.01763,-0.001942,-0.52603,0.016231,1.133795,-260.290049,-1.283164,67.746671
3.5978,-0.010428,-0.015972,0.015613,-0.003837,0.002407,-0.017611,-0.002325,-0.525988,0.015217,1.133795,-260.290049,-1.283164,67.746671
3.6177,-0.010256,-0.015912,0.013303,-0.003808,0.0024,-0.017594,-0.002591,-0.525835,0.015051,1.136647,-260.293731,-1.285062,67.741176
3.6375,-0.009822,-0.015958,0.013831,-0.003714,0.002376,-0.01755,-0.003399,-0.52586,0.013431,1.136647,-260.293731,-1.285062,67.741176
3.6578,-0.00982,-0.015677,0.016429,-0.003637,0.002355,-0.017511,-0.003399,-0.52586,0.013431,1.136647,-260.293731,-1.285062,67.741176
3.6774,-0.00984,-0.015835,0.016107,-0.003574,0.002337,-0.017477,-0.001603,-0.52551,0.015692,1.142671,-260.297397,-1.288821,67.735706
3.6975,-0.010023,-0.01576,0.014886,-0.003638,0.002349,-0.01747,-0.00163,-0.525603,0.015775,1.142671,-260.297397,-1.288821,67.735706
3.7175,-0.00955,-0.01543,0.013639,-0.00369,0.002358,-0.017468,-0.002545,-0.525631,0.014334,1.165781,-260.300983,-1.30271,67.730371
3.7375,-0.009462,-0.015637,0.013079,-0.003664,0.00235,-0.01744,-0.002596,-0.525402,0.013674,1.165781,-260.300983,-1.30271,67.730371
3.7578,-0.009389,-0.015762,0.014021,-0.003644,0.002343,-0.017417,-0.002596,-0.525402,0.013674,1.165781,-260.300983,-1.30271,67.730371
3.7775,-0.008978,-0.015332,0.012032,-0.003627,0.002337,-0.017397,-0.002394,-0.525616,0.013291,1.15297,-260.304607,-1.294793,67.724975
3.7976,-0.009463,-0.015124,0.014281,-0.003616,0.00233,-0.017339,-0.002593,-0.525475,0.012699,1.15297,-260.304607,-1.294793,67.724975
3.8173,-0.00891,-0.015591,0.013157,-0.003608,0.002324,-0.017292,-0.002296,-0.524999,0.013726,1.158298,-260.308224,-1.297952,67.719594
3.8375,-0.008925,-0.015456,0.010519,-0.003627,0.002324,-0.017269,-0.002214,-0.525495,0.013179,1.158298,-260.308224,-1.297952,67.719594
3.8575,-0.008435,-0.015115,0.011445,-0.003643,0.002324,-0.017252,-0.002214,-0.525495,0.013179,1.158298,-260.308224,-1.297952,67.719594
3.8777,-0.00829,-0.015395,0.01092,-0.003656,0.002324,-0.017238,-0.002751,-0.524985,0.01072,1.158006,-260.311821,-1.29779,67.714242
3.8984,-0.008828,-0.01541,0.012109,-0.003631,0.002314,-0.017079,-0.002756,-0.525128,0.010718,1.158006,-260.311821,-1.29779,67.714242
3.9179,-0.008486,-0.014836,0.009324,-0.003611,0.002303,-0.016954,-0.002772,-0.525299,0.011551,1.151557,-260.31541,-1.293622,67.708902
3.9377,-0.008488,-0.014856,0.009235,-0.003536,0.002281,-0.01674,-0.003648,-0.524854,0.009501,1.151557,-260.31541,-1.293622,67.708902
3.9577,-0.008758,-0.015104,0.008913,-0.003475,0.00226,-0.016576,-0.003648,-0.524854,0.009501,1.151557,-260.31541,-1.293622,67.708902
3.9777,-0.008185,-0.014852,0.008156,-0.003425,0.002242,-0.01645,-0.004364,-0.524989,0.008204,1.149172,-260.318939,-1.292893,67.703638
3.9978,-0.008403,-0.015226,0.008444,-0.003356,0.00222,-0.016139,-0.004243,-0.524915,0.008103,1.149172,-260.318939,-1.292893,67.703638
4.0174,-0.007725,-0.014805,0.008158,-0.003301,0.002199,-0.015908,-0.004206,-0.525138,0.00792,1.157272,-260.322343,-1.298972,67.698544
4.0377,-0.007777,-0.014922,0.007428,-0.003297,0.00219,-0.015727,-0.003628,-0.524817,0.00811,1.157272,-260.322343,-1.298972,67.698544
4.0578,-0.008165,-0.014796,0.00831,-0.003294,0.00218,-0.015593,-0.003628,-0.524817,0.00811,1.157272,-260.322343,-1.298972,67.698544
4.0777,-0.007843,-0.014622,0.008366,-0.003292,0.002171,-0.015494,-0.004066,-0.524687,0.007643,1.157006,-260.325627,-1.300514,67.693598
4.0975,-0.007379,-0.014943,0.005941,-0.003272,0.002156,-0.015379,-0.003883,-0.524643,0.007861,1.157006,-260.325627,-1.300514,67.693598
4.1177,-0.007203,-0.015088,0.008097,-0.003256,0.002143,-0.015293,-0.004454,-0.524865,0.005448,1.146771,-260.328821,-1.295048,67.688773
4.1376,-0.007528,-0.015014,0.0074,-0.003299,0.002146,-0.015208,-0.003204,-0.525049,0.007831,1.146771,-260.328821,-1.295048,67.688773
4.1577,-0.007383,-0.014678,0.006788,-0.003334,0.002147,-0.015146,-0.003204,-0.525049,0.007831,1.146771,-260.328821,-1.295048,67.688773
4.1776,-0.007197,-0.01457,0.006035,-0.003363,0.002147,-0.015101,-0.004058,-0.524577,0.006147,1.14592,-260.331981,-1.294463,67.683998
4.1976,-0.007068,-0.014762,0.005624,-0.003329,0.00214,-0.014677,-0.004099,-0.52456,0.006028,1.14592,-260.331981,-1.294463,67.683998
4.2178,-0.006975,-0.01493,0.004763,-0.003302,0.002128,-0.014373,-0.004306,-0.524686,0.005146,1.127194,-260.335091,-1.283243,67.679291
4.2378,-0.006784,-0.014568,0.004462,-0.003263,0.002126,-0.013773,-0.004529,-0.524899,0.004774,1.127194,-260.335091,-1.283243,67.679291
4.2577,-0.007234,-0.014433,0.00469,-0.003236,0.002114,-0.013352,-0.004529,-0.524899,0.004774,1.127194,-260.335091,-1.283243,67.679291
4.2778,-0.006864,-0.014142,0.002683,-0.003216,0.002098,-0.013057,-0.00498,-0.524339,0.004092,1.109908,-260.338045,-1.276808,67.674758
4.2976,-0.006788,-0.014495,0.004548,-0.003138,0.002084,-0.012354,-0.005207,-0.524248,0.003447,1.109908,-260.338045,-1.276808,67.674758
4.3177,-0.006647,-0.014195,0.003587,-0.00308,0.00206,-0.011866,-0.004568,-0.524425,0.004145,1.070142,-260.340648,-1.261784,67.670649
4.3379,-0.006505,-0.014314,0.002822,-0.003063,0.002036,-0.011592,-0.0048,-0.524209,0.003616,1.070142,-260.340648,-1.261784,67.670649
4.3576,-0.006565,-0.014287,0.003023,-0.003051,0.002013,-0.011402,-0.0048,-0.524209,0.003616,1.070142,-260.340648,-1.261784,67.670649
4.3775,-0.006664,-0.014366,0.002518,-0.003042,0.00199,-0.011271,-0.005149,-0.524201,0.002538,1.034945,-260.34301,-1.251168,67.666812
4.3974,-0.007092,-0.013897,0.002679,-0.003002,0.001984,-0.010663,-0.005258,-0.524257,0.002474,1.034945,-260.34301,-1.251168,67.666812
4.4179,-0.006154,-0.01409,0.003744,-0.002974,0.001971,-0.010237,-0.005822,-0.523832,0.002322,1.014621,-260.345299,-1.240513,67.663085
4.4377,-0.006295,-0.01385,0.00149,-0.003007,0.001949,-0.01042,-0.004385,-0.524062,0.003605,1.014621,-260.345299,-1.240513,67.663085
4.4574,-0.006612,-0.014183,0.000974,-0.003034,0.001932,-0.010552,-0.004385,-0.524062,0.003605,1.014621,-260.345299,-1.240513,67.663085
4.4777,-0.006122,-0.013888,0.000765,-0.003057,0.001919,-0.010647,-0.006234,-0.524104,0.000565,0.963713,-260.347287,-1.223747,67.65975
4.4976,-0.006175,-0.013751,0.000898,-0.002933,0.001935,-0.009242,-0.006044,-0.524007,0.000599,0.963713,-260.347287,-1.223747,67.65975
4.5174,-0.006275,-0.013844,0.000711,-0.002845,0.001933,-0.008232,-0.005814,-0.52369,0.00056,0.982555,-260.349481,-1.222601,67.656182
4.5381,-0.005695,-0.014023,0.002126,-0.002787,0.001916,-0.007554,-0.005908,-0.523827,0.000681,0.982555,-260.349481,-1.222601,67.656182
4.5577,-0.005883,-0.013839,0.00072,-0.002745,0.001894,-0.007067,-0.005908,-0.523827,0.000681,0.982555,-260.349481,-1.222601,67.656182
4.5781,-0.005498,-0.013562,0.000753,-0.002716,0.001869,-0.006718,-0.005591,-0.523789,0.000487,0.907454,-260.350596,-1.182822,67.654188
4.5973,-0.005981,-0.014041,0.000952,-0.002722,0.001856,-0.006402,-0.005405,-0.52369,0.000569,0.907454,-260.350596,-1.182822,67.654188
4.6177,-0.006348,-0.013739,4.9e-05,-0.00273,0.001842,-0.006174,-0.005532,-0.524017,0.000852,0.832449,-260.35123,-1.144006,67.653006
4.6377,-0.005914,-0.01402,0.000439,-0.002681,0.001816,-0.005785,-0.006256,-0.523762,0.000114,0.832449,-260.35123,-1.144006,67.653006
4.6575,-0.006307,-0.013761,0.000527,-0.002644,0.00179,-0.005502,-0.006256,-0.523762,0.000114,0.832449,-260.35123,-1.144006,67.653006
4.6776,-0.005655,-0.013665,-0.001348,-0.002615,0.001765,-0.005295,-0.006088,-0.523729,0.000403,0.757426,-260.351846,-1.118133,67.651855
4.6974,-0.006225,-0.01354,0.001126,-0.002589,0.001753,-0.004922,-0.006198,-0.523699,-0.000329,0.757426,-260.351846,-1.118133,67.651855
4.7173,-0.006182,-0.013456,0.000618,-0.00257,0.001739,-0.004651,-0.00568,-0.523521,0.001059,0.682508,-260.352292,-1.08882,67.651017
4.7372,-0.005932,-0.013965,0.001251,-0.002582,0.001704,-0.004982,-0.005852,-0.523461,0.000654,0.682508,-260.352292,-1.08882,67.651017
4.7574,-0.006093,-0.013858,-9e-06,-0.002592,0.001679,-0.005213,-0.005852,-0.523461,0.000654,0.682508,-260.352292,-1.08882,67.651017
4.7772,-0.006172,-0.013842,0.000583,-0.0026,0.00166,-0.005373,-0.006127,-0.52384,-6.9e-05,0.607509,-260.352608,-1.059473,67.650423
4.7973,-0.006216,-0.013861,0.001328,-0.002603,0.001658,-0.005236,-0.006027,-0.523839,0.000191,0.607509,-260.352608,-1.059473,67.650423
4.8173,-0.005685,-0.013816,0.000851,-0.002606,0.001654,-0.005132,-0.005618,-0.52381,0.001165,0.557476,-260.353772,-1.08641,67.648302
4.8374,-0.005934,-0.013478,0.000185,-0.002659,0.001653,-0.005433,-0.005289,-0.523813,0.000871,0.557476,-260.353772,-1.08641,67.648302
4.8577,-0.006062,-0.013711,0.000118,-0.002703,0.001655,-0.005646,-0.005289,-0.523813,0.000871,0.557476,-260.353772,-1.08641,67.648302
4.8776,-0.005861,-0.01372,-0.000351,-0.002738,0.001658,-0.005798,-0.006108,-0.523644,-9e-05,0.516545,-260.354935,-1.072406,67.646185
4.8978,-0.005796,-0.013985,-0.00024,-0.002698,0.001667,-0.005324,-0.006092,-0.523667,-0.00022,0.516545,-260.354935,-1.072406,67.646185
4.9176,-0.006305,-0.013452,-0.001032,-0.002669,0.001669,-0.00498,-0.005997,-0.523938,-0.000405,0.591547,-260.356113,-1.086113,67.644103
4.9379,-0.005968,-0.013435,0.000905,-0.002587,0.001663,-0.00438,-0.006759,-0.523494,-0.000982,0.591547,-260.356113,-1.086113,67.644103
4.9579,-0.006079,-0.013106,0.000386,-0.002525,0.001651,-0.003941,-0.006759,-0.523494,-0.000982,0.591547,-260.356113,-1.086113,67.644103
4.9776,-0.006359,-0.01335,-0.000569,-0.002477,0.001636,-0.003618,-0.00597,-0.523053,0.000217,0.516553,-260.357065,-1.055259,67.642386
4.9977,-0.005919,-0.013296,0.000441,-0.002474,0.001607,-0.003814,-0.006257,-0.523167,-0.000122,0.516553,-260.357065,-1.055259,67.642386
5.0174,-0.006231,-0.013418,-0.000131,-0.002471,0.001584,-0.003949,-0.005713,-0.523285,0.000409,0.441562,-260.357313,-0.998578,67.641938
5.0379,-0.006282,-0.013227,-0.000642,-0.002477,0.00157,-0.004069,-0.006247,-0.523405,-8.5e-05,0.441562,-260.357313,-0.998578,67.641938
5.0578,-0.006163,-0.013649,-0.001803,-0.002482,0.00156,-0.00415,-0.006247,-0.523405,-8.5e-05,0.441562,-260.357313,-0.998578,67.641938
5.0778,-0.005933,-0.013617,2e-05,-0.002485,0.001553,-0.004205,-0.007164,-0.523598,-0.001937,0.366499,-260.358141,-1.01698,67.640447
5.0974,-0.006088,-0.013292,-0.000872,-0.002449,0.001566,-0.003715,-0.006669,-0.523599,-0.001157,0.366499,-260.358141,-1.01698,67.640447
5.1174,-0.005749,-0.013001,-0.000611,-0.002423,0.001572,-0.003359,-0.006611,-0.523242,-0.001005,0.387705,-260.359205,-1.02821,67.638539
5.1376,-0.006084,-0.013195,-0.000786,-0.00243,0.001566,-0.003335,-0.006114,-0.52302,-0.000653,0.387705,-260.359205,-1.02821,67.638539
5.1574,-0.006156,-0.013305,-0.002127,-0.002435,0.00156,-0.003316,-0.006114,-0.52302,-0.000653,0.387705,-260.359205,-1.02821,67.638539
5.1773,-0.005629,-0.013193,-0.001506,-0.002439,0.001556,-0.0033,-0.007294,-0.523271,-0.002207,0.312706,-260.35973,-0.981286,67.637612
5.1976,-0.006051,-0.013051,-0.001016,-0.002375,0.001561,-0.002743,-0.006933,-0.523235,-0.00193,0.312706,-260.35973,-0.981286,67.637612
5.2174,-0.006457,-0.013046,0.000382,-0.002328,0.00156,-0.002339,-0.006629,-0.523014,-0.0011,0.237706,-260.360498,-0.971517,67.636275
5.2376,-0.005947,-0.012961,-5.9e-05,-0.002347,0.001519,-0.003097,-0.006297,-0.523041,0.000246,0.237706,-260.360498,-0.971517,67.636275
5.2577,-0.005872,-0.013273,-0.000972,-0.002363,0.001492,-0.003637,-0.006297,-0.523041,0.000246,0.237706,-260.360498,-0.971517,67.636275
5.2777,-0.006278,-0.013268,-0.000219,-0.002376,0.001476,-0.004022,-0.00639,-0.52326,-0.000999,0.162658,-260.360713,-0.909022,67.635925
5.2975,-0.006129,-0.013283,-0.001839,-0.002376,0.001491,-0.003795,-0.006392,-0.523262,-0.000685,0.162658,-260.360713,-0.909022,67.635925
5.3175,-0.00615,-0.013114,-0.001639,-0.002377,0.0015,-0.003629,-0.007094,-0.523265,-0.001879,0.237617,-260.361066,-0.983981,67.635294
5.3378,-0.006134,-0.012386,-0.001317,-0.00232,0.001508,-0.003086,-0.006997,-0.523126,-0.001662,0.237617,-260.361066,-0.983981,67.635294
5.3579,-0.005999,-0.013302,-0.001917,-0.002279,0.00151,-0.002691,-0.006997,-0.523126,-0.001662,0.237617,-260.361066,-0.983981,67.635294
5.3778,-0.006322,-0.012643,-0.000599,-0.002248,0.001506,-0.002404,-0.007071,-0.523241,-0.002061,0.29277,-260.362007,-1.001725,67.633622
5.3977,-0.005904,-0.013026,0.000346,-0.00223,0.001496,-0.002268,-0.006903,-0.522993,-0.001489,0.29277,-260.362007,-1.001725,67.633622
5.4177,-0.006204,-0.012957,-0.002827,-0.002216,0.001487,-0.002167,-0.005741,-0.523019,0.000329,0.217776,-260.362179,-0.926732,67.633337
5.4377,-0.006001,-0.012893,-0.001727,-0.002153,0.001483,-0.001698,-0.007479,-0.52296,-0.00255,0.217776,-260.362179,-0.926732,67.633337
5.4578,-0.006245,-0.012981,-0.001716,-0.002106,0.001475,-0.001357,-0.007479,-0.52296,-0.00255,0.217776,-260.362179,-0.926732,67.633337
5.4776,-0.006321,-0.01288,-7.5e-05,-0.00207,0.001464,-0.001109,-0.007144,-0.522967,-0.001743,0.142782,-260.362401,-0.903026,67.632979
5.4976,-0.006093,-0.01283,-0.001368,-0.002103,0.001435,-0.00154,-0.006827,-0.52293,-0.001067,0.142782,-260.362401,-0.903026,67.632979
5.5176,-0.006484,-0.013112,-0.000376,-0.00213,0.001417,-0.00184,-0.006791,-0.522829,-0.001368,0.067772,-260.362411,-0.828015,67.632965
5.5377,-0.006287,-0.013035,-0.002549,-0.002168,0.001399,-0.002354,-0.006687,-0.523085,-0.000469,0.067772,-260.362411,-0.828015,67.632965
5.5574,-0.006073,-0.013064,-0.000831,-0.002198,0.00139,-0.002716,-0.006687,-0.523085,-0.000469,0.067772,-260.362411,-0.828015,67.632965
5.5774,-0.006219,-0.012984,0.000215,-0.002221,0.001386,-0.00297,-0.006541,-0.523037,-0.000873,-0.007218,-260.362835,-0.873156,67.632311
5.5975,-0.006099,-0.012683,-0.001159,-0.002257,0.001394,-0.003166,-0.006368,-0.523012,-0.000431,-0.007218,-260.362835,-0.873156,67.632311
5.6177,-0.006481,-0.012974,-0.001882,-0.002285,0.001402,-0.003304,-0.006724,-0.52266,-0.0012,0.067786,-260.363259,-0.94816,67.631582
5.6374,-0.006123,-0.012811,-0.000512,-0.002224,0.001414,-0.002773,-0.007381,-0.522945,-0.001826,0.067786,-260.363259,-0.94816,67.631582
5.6576,-0.005918,-0.012842,-0.001855,-0.002178,0.001419,-0.002388,-0.007381,-0.522945,-0.001826,0.067786,-260.363259,-0.94816,67.631582
5.6783,-0.006265,-0.012796,-0.000758,-0.002144,0.001418,-0.002108,-0.006915,-0.522807,-0.001923,0.142856,-260.36376,-0.981775,67.630711
5.6977,-0.006072,-0.012883,-0.002182,-0.002153,0.001421,-0.002052,-0.006814,-0.522798,-0.00146,0.142856,-260.36376,-0.981775,67.630711
5.7172,-0.005845,-0.012973,-0.002745,-0.002161,0.001422,-0.00201,-0.007217,-0.522863,-0.002217,0.067986,-260.364156,-0.906904,67.630075
5.7374,-0.006459,-0.012694,-0.003493,-0.002123,0.001439,-0.001509,-0.007244,-0.52296,-0.002699,0.067986,-260.364156,-0.906904,67.630075
5.7574,-0.006357,-0.012591,-0.003031,-0.002096,0.001448,-0.001148,-0.007244,-0.52296,-0.002699,0.067986,-260.364156,-0.906904,67.630075
5.7773,-0.006219,-0.012934,-0.002511,-0.002077,0.001451,-0.000886,-0.007964,-0.522551,-0.003091,-0.007004,-260.364734,-0.886632,67.629163
5.7973,-0.00632,-0.01271,-0.001969,-0.002023,0.001431,-0.000653,-0.007783,-0.522701,-0.002864,-0.007004,-260.364734,-0.886632,67.629163
5.8173,-0.006733,-0.012882,-0.000132,-0.00198,0.001412,-0.000483,-0.007328,-0.522707,-0.001972,-0.08201,-260.364782,-0.811625,67.629102
5.8374,-0.006434,-0.013062,-0.004168,-0.002029,0.00137,-0.001494,-0.006848,-0.522866,-0.000297,-0.08201,-260.364782,-0.811625,67.629102
5.8573,-0.006116,-0.012886,-0.002518,-0.002072,0.001345,-0.002211,-0.006848,-0.522866,-0.000297,-0.08201,-260.364782,-0.811625,67.629102
5.8779,-0.006256,-0.012972,-0.00248,-0.002106,0.001332,-0.002717,-0.007403,-0.522883,-0.00252,-0.157002,-260.364818,-0.736634,67.629061
5.8976,-0.006165,-0.012696,-0.002075,-0.002065,0.00136,-0.002099,-0.007451,-0.522918,-0.002504,-0.157002,-260.364818,-0.736634,67.629061
5.9176,-0.006298,-0.012527,-0.002446,-0.002037,0.001376,-0.001647,-0.007231,-0.52269,-0.002082,-0.08194,-260.364898,-0.811696,67.628923
5.9376,-0.006112,-0.01293,-0.000496,-0.002003,0.001373,-0.001354,-0.007517,-0.52254,-0.002413,-0.08194,-260.364898,-0.811696,67.628923
5.9575,-0.006342,-0.012704,-0.003099,-0.001977,0.001366,-0.001139,-0.007517,-0.52254,-0.002413,-0.08194,-260.364898,-0.811696,67.628923
5.9775,-0.006549,-0.012808,-0.000735,-0.001957,0.001359,-0.000981,-0.007993,-0.522654,-0.003157,-0.156934,-260.36558,-0.863466,67.627892
5.9976,-0.006354,-0.012442,0.000159,-0.00195,0.001347,-0.000956,-0.007563,-0.522712,-0.002172,-0.156934,-260.36558,-0.863466,67.627892
6.0175,-0.006154,-0.012736,-0.002544,-0.001944,0.001337,-0.000935,-0.006301,-0.522425,0.000142,-0.232,-260.365945,-0.7884,67.62741
6.0377,-0.00606,-0.012907,-0.00205,-0.001949,0.001339,-0.000866,-0.007345,-0.522704,-0.002295,-0.232,-260.365945,-0.7884,67.62741
6.0576,-0.006546,-0.01245,-0.002373,-0.001953,0.001339,-0.000815,-0.007345,-0.522704,-0.002295,-0.232,-260.365945,-0.7884,67.62741
6.0774,-0.006302,-0.012874,-0.000816,-0.001957,0.001338,-0.000777,-0.007815,-0.52241,-0.002404,-0.306904,-260.366544,-0.776073,67.626629
6.0972,-0.006197,-0.01283,-0.001528,-0.001965,0.001321,-0.000968,-0.007375,-0.522594,-0.001762,-0.306904,-260.366544,-0.776073,67.626629
6.1173,-0.006104,-0.012342,-0.001653,-0.001969,0.001309,-0.001102,-0.007028,-0.522795,-0.00155,-0.381903,-260.367244,-0.747024,67.625756
6.1377,-0.006708,-0.012764,-0.003067,-0.001992,0.001308,-0.001242,-0.006957,-0.522378,-0.001645,-0.381903,-260.367244,-0.747024,67.625756
6.1576,-0.0065,-0.012412,-0.002104,-0.002009,0.001308,-0.001341,-0.006957,-0.522378,-0.001645,-0.381903,-260.367244,-0.747024,67.625756
6.1774,-0.006708,-0.012601,-0.002391,-0.002023,0.00131,-0.00141,-0.007648,-0.522361,-0.002146,-0.312445,-260.367989,-0.788702,67.624749
6.1974,-0.006441,-0.012713,-0.002893,-0.001975,0.001301,-0.001223,-0.007772,-0.522454,-0.002252,-0.312445,-260.367989,-0.788702,67.624749
6.2173,-0.00701,-0.012353,-0.002014,-0.001938,0.001291,-0.001088,-0.007971,-0.522674,-0.00293,-0.237435,-260.368696,-0.820763,67.623738
6.2375,-0.006669,-0.012295,-0.001379,-0.001895,0.001268,-0.001056,-0.008034,-0.52238,-0.002099,-0.237435,-260.368696,-0.820763,67.623738
6.2572,-0.006495,-0.012237,-0.002783,-0.00186,0.001248,-0.00103,-0.008034,-0.52238,-0.002099,-0.237435,-260.368696,-0.820763,67.623738
6.2775,-0.007226,-0.012206,-0.00204,-0.001831,0.001231,-0.001011,-0.007987,-0.522186,-0.002824,-0.312285,-260.36943,-0.789947,67.622746
6.2977,-0.006442,-0.012169,-0.003349,-0.001789,0.001219,-0.000842,-0.00811,-0.522188,-0.002507,-0.312285,-260.36943,-0.789947,67.622746
6.3173,-0.007021,-0.012243,-0.002469,-0.001755,0.001206,-0.000721,-0.008208,-0.522127,-0.003381,-0.323268,-260.370201,-0.790011,67.621707
6.3375,-0.006775,-0.012136,-0.002358,-0.00172,0.00119,-0.00062,-0.008277,-0.522229,-0.002549,-0.323268,-260.370201,-0.790011,67.621707
6.3578,-0.006382,-0.011816,-0.002039,-0.001692,0.001176,-0.000547,-0.008277,-0.522229,-0.002549,-0.323268,-260.370201,-0.790011,67.621707
6.3775,-0.00698,-0.012452,-0.002176,-0.00167,0.001163,-0.000493,-0.007485,-0.521772,-0.002066,-0.39825,-260.370862,-0.75346,67.620876
6.3981,-0.006857,-0.012357,-0.001265,-0.001681,0.001153,-0.000616,-0.00774,-0.522045,-0.002114,-0.39825,-260.370862,-0.75346,67.620876
6.4179,-0.007037,-0.012649,-0.002216,-0.001689,0.001147,-0.000702,-0.007549,-0.522323,-0.001279,-0.473224,-260.37153,-0.719926,67.620086
6.4375,-0.006818,-0.012126,-0.003073,-0.001693,0.001144,-0.000756,-0.008112,-0.522616,-0.00213,-0.473224,-260.37153,-0.719926,67.620086
6.4577,-0.006798,-0.01203,-0.003023,-0.001695,0.001142,-0.000793,-0.008112,-0.522616,-0.00213,-0.473224,-260.37153,-0.719926,67.620086
6.4776,-0.007143,-0.012393,-0.00223,-0.001697,0.001141,-0.000819,-0.008404,-0.521984,-0.00305,-0.402224,-260.372198,-0.750715,67.619245
6.4973,-0.006586,-0.011983,-0.000994,-0.001657,0.001134,-0.000626,-0.008361,-0.522145,-0.002718,-0.402224,-260.372198,-0.750715,67.619245
6.5173,-0.006949,-0.011922,-0.001485,-0.001627,0.001126,-0.000487,-0.007145,-0.521948,-0.001019,-0.361042,-260.372901,-0.768708,67.618331
6.5373,-0.006959,-0.012103,-0.002886,-0.001652,0.001104,-0.000902,-0.00766,-0.521922,-0.001446,-0.361042,-260.372901,-0.768708,67.618331
6.5572,-0.006936,-0.012167,-0.001927,-0.001671,0.001091,-0.001193,-0.00766,-0.521922,-0.001446,-0.361042,-260.372901,-0.768708,67.618331
6.5778,-0.00676,-0.012118,-0.002902,-0.001686,0.001085,-0.001397,-0.007973,-0.522129,-0.001945,-0.436047,-260.373479,-0.718921,67.617647
6.5977,-0.006942,-0.011992,-0.002787,-0.001664,0.001095,-0.001174,-0.008088,-0.52212,-0.002337,-0.436047,-260.373479,-0.718921,67.617647
6.6176,-0.007031,-0.012246,-0.001172,-0.001648,0.001101,-0.001014,-0.008373,-0.521984,-0.002793,-0.361134,-260.373596,-0.793833,67.617469
6.6375,-0.007104,-0.01232,-0.003716,-0.00168,0.001095,-0.001327,-0.007696,-0.522222,-0.001318,-0.361134,-260.373596,-0.793833,67.617469
6.6578,-0.006964,-0.012218,-0.002857,-0.001704,0.001094,-0.001547,-0.007696,-0.522222,-0.001318,-0.361134,-260.373596,-0.793833,67.617469
6.6778,-0.006979,-0.011779,-0.003591,-0.001723,0.001097,-0.001702,-0.008484,-0.522173,-0.002895,-0.286142,-260.374219,-0.806706,67.616605
6.6973,-0.007186,-0.011872,-0.001629,-0.001645,0.001106,-0.00112,-0.008623,-0.522007,-0.003182,-0.286142,-260.374219,-0.806706,67.616605
6.7176,-0.007534,-0.011723,-0.001097,-0.001587,0.001107,-0.000698,-0.008035,-0.521859,-0.001644,-0.211136,-260.374438,-0.881712,67.616257
6.7376,-0.00698,-0.012004,-0.002543,-0.001593,0.001067,-0.001206,-0.008089,-0.521734,-0.001146,-0.211136,-260.374438,-0.881712,67.616257
6.7575,-0.007124,-0.011998,-0.002971,-0.001598,0.00104,-0.001561,-0.008089,-0.521734,-0.001146,-0.211136,-260.374438,-0.881712,67.616257
6.7778,-0.006947,-0.012053,-0.002539,-0.0016,0.001022,-0.001808,-0.008669,-0.521976,-0.002988,-0.286177,-260.374744,-0.806671,67.615866
6.7974,-0.007053,-0.01192,-0.003443,-0.001559,0.001043,-0.001313,-0.008498,-0.522005,-0.002806,-0.286177,-260.374744,-0.806671,67.615866
6.818,-0.006845,-0.01215,-0.003092,-0.001528,0.001055,-0.000955,-0.008815,-0.521912,-0.003448,-0.211225,-260.374824,-0.881623,67.615733
6.8375,-0.007201,-0.011677,-0.002611,-0.001506,0.001071,-0.000591,-0.008456,-0.522127,-0.003123,-0.211225,-260.374824,-0.881623,67.615733
6.8576,-0.006914,-0.012183,-0.002778,-0.001492,0.001079,-0.000328,-0.008456,-0.522127,-0.003123,-0.211225,-260.374824,-0.881623,67.615733
6.8773,-0.007231,-0.011858,-0.002303,-0.001482,0.001083,-0.000138,-0.008384,-0.522145,-0.002812,-0.28637,-260.375356,-0.820051,67.614988
6.8978,-0.006932,-0.01191,-0.002389,-0.001485,0.001071,-0.000181,-0.008399,-0.522023,-0.002607,-0.28637,-260.375356,-0.820051,67.614988
6.9173,-0.007354,-0.011962,-0.003896,-0.001488,0.001062,-0.00021,-0.008158,-0.521904,-0.002392,-0.361359,-260.375462,-0.745061,67.614876
6.9377,-0.007102,-0.011765,-0.003258,-0.001426,0.00105,0.000136,-0.009241,-0.521953,-0.003768,-0.361359,-260.375462,-0.745061,67.614876
6.9574,-0.007123,-0.012084,-0.003149,-0.00138,0.001036,0.000387,-0.009241,-0.521953,-0.003768,-0.361359,-260.375462,-0.745061,67.614876
6.9773,-0.007349,-0.011596,-0.003279,-0.001344,0.001022,0.000568,-0.00876,-0.522061,-0.003156,-0.436394,-260.375805,-0.674914,67.614504
6.9979,-0.007318,-0.011928,-0.001539,-0.001341,0.001007,0.000525,-0.008871,-0.521867,-0.003207,-0.436394,-260.375805,-0.674914,67.614504
7.0173,-0.00707,-0.011564,-0.003431,-0.001338,0.000994,0.000495,-0.008106,-0.521926,-0.001538,-0.511352,-260.375851,-0.599956,67.614468
7.0374,-0.00733,-0.011819,-0.002561,-0.00133,0.000982,0.000494,-0.008759,-0.521592,-0.00327,-0.511352,-260.375851,-0.599956,67.614468
7.0574,-0.007228,-0.011728,-0.000956,-0.001324,0.000971,0.000495,-0.008759,-0.521592,-0.00327,-0.511352,-260.375851,-0.599956,67.614468
7.078,-0.007142,-0.011654,-0.001962,-0.001318,0.000962,0.000496,-0.007731,-0.521718,-0.000953,-0.586365,-260.37605,-0.524944,67.614307
7.0977,-0.007475,-0.012128,-0.001461,-0.001386,0.000942,-0.00026,-0.007901,-0.52169,-0.001364,-0.586365,-260.37605,-0.524944,67.614307
7.1172,-0.007646,-0.012251,-0.00311,-0.001441,0.000934,-0.000787,-0.008245,-0.522112,-0.001455,-0.661364,-260.376462,-0.463629,67.613974
7.1373,-0.007417,-0.01212,-0.003246,-0.001413,0.000945,-0.000524,-0.00915,-0.522236,-0.00297,-0.661364,-260.376462,-0.463629,67.613974
7.1572,-0.007288,-0.012071,-0.001145,-0.001392,0.000951,-0.000333,-0.00915,-0.522236,-0.00297,-0.661364,-260.376462,-0.463629,67.613974
7.1774,-0.007027,-0.011945,-0.001457,-0.001376,0.000954,-0.000195,-0.007874,-0.522069,-0.001145,-0.586334,-260.376478,-0.538659,67.613954
7.1973,-0.007363,-0.011929,-0.002272,-0.001448,0.000952,-0.000778,-0.007831,-0.522017,-0.001274,-0.586334,-260.376478,-0.538659,67.613954
7.2173,-0.00757,-0.012095,-0.002045,-0.001506,0.000958,-0.001185,-0.008555,-0.521906,-0.002275,-0.545378,-260.376968,-0.613681,67.613422
7.2376,-0.007273,-0.01176,-0.001619,-0.001501,0.000965,-0.001133,-0.00861,-0.522077,-0.002064,-0.545378,-260.376968,-0.613681,67.613422
7.2574,-0.007465,-0.011806,-0.003265,-0.001497,0.00097,-0.001093,-0.00861,-0.522077,-0.002064,-0.545378,-260.376968,-0.613681,67.613422
7.2773,-0.007105,-0.012301,-0.0031,-0.001494,0.000974,-0.001063,-0.009132,-0.521802,-0.003265,-0.47039,-260.376989,-0.688669,67.61339
7.2977,-0.007576,-0.011906,-0.002176,-0.00145,0.000988,-0.000644,-0.00895,-0.522005,-0.003198,-0.47039,-260.376989,-0.688669,67.61339
7.3178,-0.007377,-0.011722,-0.003002,-0.001417,0.000994,-0.000342,-0.008697,-0.521896,-0.002182,-0.395437,-260.377144,-0.763622,67.613167
7.3378,-0.007656,-0.011737,-0.002126,-0.001391,0.000985,-0.000216,-0.00889,-0.521735,-0.00293,-0.395437,-260.377144,-0.763622,67.613167
7.3575,-0.007309,-0.012057,-0.003528,-0.001371,0.000975,-0.000124,-0.00889,-0.521735,-0.00293,-0.395437,-260.377144,-0.763622,67.613167
7.3777,-0.007391,-0.011685,-0.004437,-0.001356,0.000966,-5.8e-05,-0.009154,-0.522022,-0.00354,-0.470358,-260.377647,-0.704222,67.61259
7.3975,-0.007416,-0.011621,-0.001821,-0.001308,0.000964,0.000291,-0.009364,-0.521879,-0.003908,-0.470358,-260.377647,-0.704222,67.61259
7.4172,-0.007294,-0.011341,-0.002179,-0.001272,0.000959,0.000543,-0.008375,-0.521599,-0.001823,-0.545308,-260.378111,-0.635908,67.612114
7.4379,-0.007804,-0.011382,-0.002259,-0.001304,0.00093,0.000119,-0.008404,-0.521361,-0.002148,-0.545308,-260.378111,-0.635908,67.612114
7.4574,-0.007695,-0.011697,-0.002689,-0.001328,0.000912,-0.000176,-0.008404,-0.521361,-0.002148,-0.545308,-260.378111,-0.635908,67.612114
7.4774,-0.007324,-0.011929,-0.001337,-0.001345,0.000901,-0.000382,-0.009079,-0.521687,-0.002687,-0.620406,-260.378273,-0.56081,67.611987
7.4976,-0.007794,-0.011762,-0.002236,-0.001361,0.000899,-0.000528,-0.008645,-0.521784,-0.002139,-0.620406,-260.378273,-0.56081,67.611987
7.5174,-0.007363,-0.011883,-0.003218,-0.001373,0.000899,-0.000629,-0.008955,-0.521746,-0.002239,-0.545413,-260.378565,-0.635802,67.611645
7.5373,-0.007594,-0.011472,-0.000347,-0.001348,0.000913,-0.000346,-0.009001,-0.521868,-0.003134,-0.545413,-260.378565,-0.635802,67.611645
7.5572,-0.007455,-0.011432,-0.003398,-0.00133,0.000921,-0.000143,-0.009001,-0.521868,-0.003134,-0.545413,-260.378565,-0.635802,67.611645
7.5774,-0.007415,-0.011517,-0.002386,-0.001317,0.000925,2e-06,-0.009214,-0.521411,-0.003406,-0.470371,-260.378835,-0.710844,67.6113
7.598,-0.007417,-0.011794,-0.003177,-0.001297,0.000913,5.2e-05,-0.008977,-0.521452,-0.002987,-0.470371,-260.378835,-0.710844,67.6113
7.6173,-0.007461,-0.011325,-0.00256,-0.001281,0.000901,8.8e-05,-0.009064,-0.521773,-0.003179,-0.545321,-260.379232,-0.635894,67.610903
7.6374,-0.007583,-0.011344,-0.0024,-0.001281,0.000887,-1.7e-05,-0.008794,-0.521361,-0.002613,-0.545321,-260.379232,-0.635894,67.610903
7.6574,-0.007454,-0.01133,-0.003022,-0.00128,0.000876,-9e-05,-0.008794,-0.521361,-0.002613,-0.545321,-260.379232,-0.635894,67.610903
7.6773,-0.007371,-0.011737,-0.003054,-0.001278,0.000868,-0.00014,-0.00904,-0.521297,-0.00302,-0.620362,-260.37976,-0.584511,67.610395
7.6976,-0.007893,-0.012073,-0.001951,-0.001262,0.000868,-2.9e-05,-0.009,-0.521471,-0.003033,-0.620362,-260.37976,-0.584511,67.610395
7.7174,-0.00741,-0.011464,-0.000597,-0.00125,0.000866,5e-05,-0.008924,-0.522048,-0.001955,-0.549378,-260.380286,-0.641122,67.609836
7.7373,-0.008155,-0.01174,-0.002522,-0.001327,0.000854,-0.000884,-0.007821,-0.521513,-0.000715,-0.549378,-260.380286,-0.641122,67.609836
7.7574,-0.007933,-0.01155,-0.003584,-0.00139,0.000854,-0.001544,-0.007821,-0.521513,-0.000715,-0.549378,-260.380286,-0.641122,67.609836
7.7776,-0.007535,-0.01127,-0.003103,-0.001442,0.000861,-0.00201,-0.009807,-0.521515,-0.003582,-0.621852,-260.380828,-0.588986,67.609306
7.7975,-0.007693,-0.011579,-0.003459,-0.001347,0.00087,-0.001302,-0.009529,-0.521409,-0.003385,-0.621852,-260.380828,-0.588986,67.609306
7.8173,-0.007961,-0.011721,-0.001135,-0.001276,0.00087,-0.000783,-0.009457,-0.521576,-0.003459,-0.546855,-260.380828,-0.663984,67.609306
7.8374,-0.007711,-0.01134,-0.002137,-0.001311,0.000856,-0.001175,-0.00862,-0.521709,-0.001336,-0.546855,-260.380828,-0.663984,67.609306
7.858,-0.007495,-0.011573,-0.001437,-0.001338,0.000851,-0.001446,-0.00862,-0.521709,-0.001336,-0.546855,-260.380828,-0.663984,67.609306
7.8774,-0.00766,-0.011596,-0.002745,-0.00136,0.000851,-0.001633,-0.008241,-0.521563,-0.001442,-0.471864,-260.380965,-0.738975,67.609115
7.8978,-0.007431,-0.011165,-0.00321,-0.001362,0.000868,-0.001485,-0.008577,-0.521574,-0.001975,-0.471864,-260.380965,-0.738975,67.609115
7.9174,-0.007879,-0.011318,-0.001586,-0.001365,0.00088,-0.001378,-0.009068,-0.521163,-0.00321,-0.396859,-260.380966,-0.81398,67.609114
7.9375,-0.007646,-0.011388,-0.002108,-0.001355,0.00087,-0.00141,-0.00872,-0.521305,-0.001723,-0.396859,-260.380966,-0.81398,67.609114
7.9577,-0.00793,-0.01163,-0.002374,-0.001347,0.000862,-0.001431,-0.00872,-0.521305,-0.001723,-0.396859,-260.380966,-0.81398,67.609114
7.9773,-0.00796,-0.011246,-0.003897,-0.00134,0.000856,-0.001444,-0.009146,-0.521624,-0.002378,-0.321803,-260.381018,-0.889036,67.60903
7.9976,-0.007929,-0.011796,-0.00332,-0.00128,0.000858,-0.000985,-0.009476,-0.521467,-0.003003,-0.321803,-260.381018,-0.889036,67.60903
8.0173,-0.007531,-0.011528,-0.001936,-0.001234,0.000854,-0.000653,-0.009628,-0.521788,-0.003325,-0.24684,-260.381097,-0.913985,67.6089
8.0378,-0.007833,-0.011229,-0.00157,-0.00126,0.000857,-0.000746,-0.00862,-0.52155,-0.002063,-0.24684,-260.381097,-0.913985,67.6089
8.0579,-0.007791,-0.011419,-0.001674,-0.001281,0.000861,-0.000811,-0.00862,-0.52155,-0.002063,-0.24684,-260.381097,-0.913985,67.6089
8.0779,-0.007227,-0.011358,-0.001787,-0.001298,0.000865,-0.000856,-0.008678,-0.521394,-0.001694,-0.321741,-260.381445,-0.839084,67.608436
8.0977,-0.00772,-0.011707,-0.003439,-0.001319,0.000861,-0.001025,-0.008461,-0.521376,-0.001735,-0.321741,-260.381445,-0.839084,67.608436
8.1174,-0.007697,-0.011211,-0.00158,-0.001334,0.000861,-0.001143,-0.009512,-0.521678,-0.003464,-0.257763,-260.381944,-0.818566,67.60773
8.1381,-0.007756,-0.011402,-0.00297,-0.001335,0.000854,-0.001223,-0.008596,-0.521251,-0.001751,-0.257763,-260.381944,-0.818566,67.60773
8.158,-0.007901,-0.011118,-0.002519,-0.001335,0.00085,-0.00128,-0.008596,-0.521251,-0.001751,-0.257763,-260.381944,-0.818566,67.60773
8.1776,-0.007862,-0.011522,-0.001295,-0.001334,0.000848,-0.001319,-0.009225,-0.521089,-0.002551,-0.182904,-260.38233,-0.862921,67.60714
8.1982,-0.007753,-0.01182,-0.003667,-0.001312,0.000841,-0.001228,-0.008946,-0.52126,-0.002048,-0.182904,-260.38233,-0.862921,67.60714
8.2177,-0.008246,-0.011413,-0.0024,-0.001294,0.000835,-0.001162,-0.009652,-0.521796,-0.003694,-0.107913,-260.382695,-0.89163,67.606559
8.2376,-0.00799,-0.011596,-0.005099,-0.001253,0.000826,-0.00094,-0.009488,-0.521445,-0.002519,-0.107913,-260.382695,-0.89163,67.606559
8.2575,-0.007937,-0.011516,-0.001892,-0.001221,0.000816,-0.000781,-0.009488,-0.521445,-0.002519,-0.107913,-260.382695,-0.89163,67.606559
8.2777,-0.007938,-0.011106,-0.003021,-0.001196,0.000806,-0.000666,-0.008956,-0.52148,-0.00194,-0.096117,-260.383211,-0.873295,67.605759
8.2977,-0.007893,-0.011166,-0.001118,-0.001188,0.000799,-0.000632,-0.009174,-0.521324,-0.002384,-0.096117,-260.383211,-0.873295,67.605759
8.3174,-0.007805,-0.011216,-0.001392,-0.001182,0.000793,-0.000606,-0.008479,-0.521156,-0.001128,-0.171109,-260.38341,-0.798302,67.60549
8.3375,-0.007958,-0.01167,-0.002954,-0.00122,0.000782,-0.001013,-0.008512,-0.52121,-0.00137,-0.171109,-260.38341,-0.798302,67.60549
8.3575,-0.007868,-0.011221,-0.001722,-0.00125,0.000779,-0.001298,-0.008512,-0.52121,-0.00137,-0.171109,-260.38341,-0.798302,67.60549
8.3774,-0.007621,-0.011213,-0.000804,-0.001274,0.00078,-0.001499,-0.008777,-0.521202,-0.00174,-0.246254,-260.383719,-0.777427,67.605082
8.3973,-0.00816,-0.011064,-0.001488,-0.001293,0.000785,-0.001646,-0.008474,-0.521204,-0.001357,-0.246254,-260.383719,-0.777427,67.605082
8.4177,-0.007657,-0.011531,-0.002718,-0.001309,0.000791,-0.001749,-0.008923,-0.521061,-0.001492,-0.171348,-260.383766,-0.852333,67.605004
8.4376,-0.008043,-0.011282,-0.002526,-0.001279,0.000815,-0.001326,-0.009032,-0.521485,-0.002604,-0.171348,-260.383766,-0.852333,67.605004
8.4578,-0.00786,-0.011113,-0.002462,-0.001259,0.00083,-0.001022,-0.009032,-0.521485,-0.002604,-0.171348,-260.383766,-0.852333,67.605004
8.4778,-0.007884,-0.010981,-0.001643,-0.001245,0.000839,-0.000805,-0.009121,-0.521109,-0.002467,-0.096375,-260.383808,-0.927307,67.604933
8.498,-0.007925,-0.01148,-0.002151,-0.001232,0.000821,-0.00083,-0.00896,-0.521056,-0.002135,-0.096375,-260.383808,-0.927307,67.604933
8.5175,-0.007875,-0.010999,-0.002764,-0.001221,0.000807,-0.000847,-0.009041,-0.521466,-0.002166,-0.171356,-260.384068,-0.852326,67.604566
8.5374,-0.007742,-0.011301,-0.001763,-0.001186,0.000798,-0.000648,-0.009264,-0.521039,-0.00271,-0.171356,-260.384068,-0.852326,67.604566
8.5577,-0.007845,-0.011479,-0.001086,-0.001159,0.000787,-0.000504,-0.009264,-0.521039,-0.00271,-0.171356,-260.384068,-0.852326,67.604566
8.5776,-0.008097,-0.011506,-0.003694,-0.001138,0.000776,-0.000401,-0.008446,-0.521447,-0.001119,-0.233154,-260.384535,-0.826127,67.603896
8.5976,-0.008093,-0.011357,-0.001317,-0.001157,0.000772,-0.000528,-0.009067,-0.521466,-0.002155,-0.233154,-260.384535,-0.826127,67.603896
8.6175,-0.007818,-0.011336,-0.004005,-0.001172,0.000771,-0.000618,-0.008781,-0.521346,-0.001325,-0.308154,-260.384759,-0.751127,67.603624
8.6376,-0.007906,-0.01131,-0.003207,-0.001115,0.000777,-0.00015,-0.009768,-0.521333,-0.003774,-0.308154,-260.384759,-0.751127,67.603624
8.658,-0.007991,-0.011271,-0.00211,-0.001073,0.000776,0.00019,-0.009768,-0.521333,-0.003774,-0.308154,-260.384759,-0.751127,67.603624
8.6779,-0.007797,-0.011424,-0.003064,-0.001043,0.000771,0.000435,-0.009115,-0.521238,-0.002135,-0.324336,-260.385246,-0.775671,67.602976
8.6977,-0.008371,-0.011429,-0.003593,-0.001066,0.000755,0.000195,-0.00922,-0.521309,-0.002517,-0.324336,-260.385246,-0.775671,67.602976
8.7176,-0.00789,-0.011506,-0.003815,-0.001084,0.000745,2.6e-05,-0.010204,-0.521426,-0.003593,-0.399384,-260.38525,-0.700622,67.602974
8.7377,-0.007872,-0.011446,-0.00274,-0.001051,0.000749,0.000326,-0.009867,-0.521496,-0.003796,-0.399384,-260.38525,-0.700622,67.602974
8.7578,-0.007982,-0.011153,-0.001031,-0.001027,0.00075,0.000541,-0.009867,-0.521496,-0.003796,-0.399384,-260.38525,-0.700622,67.602974
8.7776,-0.007939,-0.011282,-0.003175,-0.00101,0.000748,0.000696,-0.008527,-0.521142,-0.001033,-0.47434,-260.385461,-0.625667,67.602765
8.7975,-0.007663,-0.011308,-0.002926,-0.001057,0.000722,0.000131,-0.008955,-0.521197,-0.001918,-0.47434,-260.385461,-0.625667,67.602765
8.8175,-0.007847,-0.011322,-0.001979,-0.001093,0.000708,-0.000261,-0.009156,-0.521306,-0.002926,-0.549336,-260.385472,-0.550671,67.602758
8.8375,-0.008016,-0.011734,-0.002917,-0.001127,0.000712,-0.000472,-0.008882,-0.521319,-0.002061,-0.549336,-260.385472,-0.550671,67.602758
8.8579,-0.008046,-0.011417,-0.00319,-0.001153,0.000719,-0.000619,-0.008882,-0.521319,-0.002061,-0.549336,-260.385472,-0.550671,67.602758
8.8776,-0.00807,-0.011189,-0.003302,-0.001173,0.000727,-0.000721,-0.009706,-0.521394,-0.003197,-0.474345,-260.385818,-0.625662,67.602363
8.8974,-0.008189,-0.011095,-0.002638,-0.001127,0.000731,-0.000383,-0.009729,-0.521308,-0.00324,-0.474345,-260.385818,-0.625662,67.602363
8.9176,-0.008534,-0.011213,-0.001534,-0.001092,0.000731,-0.000139,-0.009545,-0.521087,-0.002642,-0.399354,-260.385951,-0.700653,67.602181
8.9376,-0.008039,-0.011239,-0.004189,-0.001106,0.0007,-0.000578,-0.009337,-0.521201,-0.001632,-0.399354,-260.385951,-0.700653,67.602181
8.9576,-0.008188,-0.011399,-0.004821,-0.001116,0.00068,-0.000884,-0.009337,-0.521201,-0.001632,-0.399354,-260.385951,-0.700653,67.602181
8.9777,-0.007607,-0.011149,-0.002507,-0.001122,0.000669,-0.001098,-0.010679,-0.521372,-0.004826,-0.474339,-260.386309,-0.64169,67.601796
8.9978,-0.008439,-0.010918,-0.002758,-0.001058,0.000691,-0.000477,-0.009949,-0.521278,-0.003878,-0.474339,-260.386309,-0.64169,67.601796
9.0177,-0.008181,-0.010862,-0.003562,-0.001012,0.000701,-2.3e-05,-0.009846,-0.520916,-0.002758,-0.399343,-260.386314,-0.716686,67.601789
9.0375,-0.008041,-0.010847,-0.003717,-0.000969,0.000683,0.000188,-0.009983,-0.520864,-0.003489,-0.399343,-260.386314,-0.716686,67.601789
9.0576,-0.008719,-0.011046,-0.002477,-0.000936,0.000666,0.000341,-0.009983,-0.520864,-0.003489,-0.399343,-260.386314,-0.716686,67.601789
9.0777,-0.008008,-0.011222,-0.003239,-0.000911,0.00065,0.000452,-0.010002,-0.521032,-0.00248,-0.474253,-260.386535,-0.641777,67.601564
9.0976,-0.008127,-0.010868,-0.003027,-0.000918,0.000632,0.000301,-0.009864,-0.521108,-0.002791,-0.474253,-260.386535,-0.641777,67.601564
9.1175,-0.007964,-0.011116,-0.003544,-0.000923,0.00062,0.000197,-0.009673,-0.520864,-0.003026,-0.549346,-260.38657,-0.566684,67.601538
9.1375,-0.008051,-0.011318,-0.003062,-0.000915,0.000628,0.000362,-0.009762,-0.52109,-0.003498,-0.549346,-260.38657,-0.566684,67.601538
9.1576,-0.008164,-0.010871,-0.002854,-0.00091,0.000633,0.000481,-0.009762,-0.52109,-0.003498,-0.549346,-260.38657,-0.566684,67.601538
9.1777,-0.008359,-0.011044,-0.002192,-0.000907,0.000636,0.000565,-0.009648,-0.520851,-0.002849,-0.624298,-260.386909,-0.49619,67.601238
9.1976,-0.00845,-0.010952,-0.002131,-0.000925,0.000617,0.00031,-0.009583,-0.520926,-0.002584,-0.624298,-260.386909,-0.49619,67.601238
9.2174,-0.007998,-0.011166,-0.002029,-0.000937,0.000605,0.000132,-0.009546,-0.520945,-0.002128,-0.699246,-260.387069,-0.421241,67.601123
9.2375,-0.008351,-0.011135,-0.002104,-0.000985,0.000608,-0.0002,-0.00908,-0.521144,-0.002038,-0.699246,-260.387069,-0.421241,67.601123
9.2575,-0.008225,-0.011167,-0.004384,-0.001022,0.000616,-0.000433,-0.00908,-0.521144,-0.002038,-0.699246,-260.387069,-0.421241,67.601123
9.2778,-0.008408,-0.010649,-0.002819,-0.00105,0.000625,-0.000596,-0.010492,-0.521141,-0.004379,-0.631894,-260.387449,-0.496242,67.600772
9.2978,-0.008474,-0.01099,-0.004472,-0.000983,0.000625,-0.000145,-0.010233,-0.520938,-0.003744,-0.631894,-260.387449,-0.496242,67.600772
9.3176,-0.007944,-0.011227,-0.003396,-0.000932,0.000619,0.000182,-0.010756,-0.520985,-0.004473,-0.556891,-260.387461,-0.571245,67.600755
9.3374,-0.008516,-0.010981,-0.002524,-0.000926,0.000631,0.000351,-0.009773,-0.521203,-0.003492,-0.556891,-260.387461,-0.571245,67.600755
9.3575,-0.008606,-0.010954,-0.001766,-0.000922,0.000639,0.000472,-0.009773,-0.521203,-0.003492,-0.556891,-260.387461,-0.571245,67.600755
9.3779,-0.008007,-0.010771,-0.003486,-0.000921,0.000644,0.000559,-0.009537,-0.520934,-0.001761,-0.631899,-260.387823,-0.499152,67.600431
9.3976,-0.008107,-0.010861,-0.003601,-0.000933,0.000616,0.000251,-0.009639,-0.520866,-0.002446,-0.631899,-260.387823,-0.499152,67.600431
9.4177,-0.008525,-0.011354,-0.001771,-0.000941,0.000597,3.7e-05,-0.009954,-0.520851,-0.003597,-0.706891,-260.388004,-0.42416,67.600301
9.4376,-0.008102,-0.011275,-0.001786,-0.000977,0.000592,-0.000319,-0.009473,-0.521311,-0.001924,-0.706891,-260.388004,-0.42416,67.600301
9.4575,-0.008474,-0.011064,-0.003999,-0.001005,0.000592,-0.000567,-0.009473,-0.521311,-0.001924,-0.706891,-260.388004,-0.42416,67.600301
9.4775,-0.008463,-0.010773,-0.002331,-0.001025,0.000597,-0.00074,-0.010537,-0.521044,-0.003996,-0.631567,-260.388278,-0.499484,67.600032
9.4976,-0.008551,-0.010855,-0.001601,-0.000972,0.000597,-0.000378,-0.010171,-0.520929,-0.003302,-0.631567,-260.388278,-0.499484,67.600032
9.5175,-0.008197,-0.011408,-0.002253,-0.000931,0.000593,-0.000117,-0.009368,-0.520855,-0.001601,-0.556577,-260.38828,-0.574474,67.60003
9.5378,-0.008305,-0.0113,-0.003314,-0.000971,0.000603,-0.00031,-0.009348,-0.521354,-0.002192,-0.556577,-260.38828,-0.574474,67.60003
9.5573,-0.008443,-0.011021,-0.002843,-0.001002,0.000614,-0.000446,-0.009348,-0.521354,-0.002192,-0.556577,-260.38828,-0.574474,67.60003
9.5773,-0.008568,-0.011264,-0.00309,-0.001026,0.000626,-0.000542,-0.009929,-0.520996,-0.002848,-0.510959,-260.38868,-0.619936,67.599602
9.5975,-0.008283,-0.010712,-0.00253,-0.000993,0.000623,-0.000346,-0.01002,-0.521101,-0.002946,-0.510959,-260.38868,-0.619936,67.599602
9.6176,-0.008671,-0.010868,-0.002092,-0.000967,0.000618,-0.000204,-0.009583,-0.520703,-0.002533,-0.435954,-260.388817,-0.694941,67.599422
9.6378,-0.008627,-0.011141,-0.00382,-0.000966,0.000594,-0.000406,-0.009725,-0.520853,-0.00213,-0.435954,-260.388817,-0.694941,67.599422
9.6578,-0.008231,-0.011405,-0.002969,-0.000964,0.000578,-0.000547,-0.009725,-0.520853,-0.00213,-0.435954,-260.388817,-0.694941,67.599422
9.6781,-0.008552,-0.010842,-0.00279,-0.00096,0.000566,-0.000645,-0.009783,-0.521378,-0.002977,-0.471088,-260.389231,-0.654611,67.598956
9.6979,-0.008776,-0.011069,-0.003404,-0.000947,0.000581,-0.000428,-0.009866,-0.521155,-0.002902,-0.471088,-260.389231,-0.654611,67.598956
9.7178,-0.008778,-0.010737,-0.002049,-0.000938,0.000591,-0.000273,-0.010518,-0.521062,-0.003406,-0.396088,-260.389305,-0.729611,67.598854
9.7377,-0.008658,-0.010985,-0.003854,-0.00093,0.000566,-0.000436,-0.009888,-0.520766,-0.002175,-0.396088,-260.389305,-0.729611,67.598854
9.7577,-0.00864,-0.011257,-0.003094,-0.000923,0.000547,-0.000551,-0.009888,-0.520766,-0.002175,-0.396088,-260.389305,-0.729611,67.598854
9.7778,-0.008806,-0.010782,-0.002424,-0.000916,0.000534,-0.00063,-0.010255,-0.521231,-0.003105,-0.424946,-260.389695,-0.679357,67.598397
9.7977,-0.008514,-0.011059,-0.002466,-0.000896,0.000538,-0.000446,-0.010171,-0.521042,-0.002825,-0.424946,-260.389695,-0.679357,67.598397
9.8178,-0.008405,-0.01085,-0.003482,-0.00088,0.00054,-0.000314,-0.00978,-0.521053,-0.00247,-0.349962,-260.389794,-0.754342,67.598258
9.8375,-0.008983,-0.011037,-0.002773,-0.000852,0.000546,-3.4e-05,-0.010147,-0.520865,-0.003395,-0.349962,-260.389794,-0.754342,67.598258
9.8578,-0.008393,-0.010735,-0.00284,-0.000832,0.000547,0.000167,-0.010147,-0.520865,-0.003395,-0.349962,-260.389794,-0.754342,67.598258
9.8773,-0.008428,-0.010872,-0.003265,-0.000817,0.000546,0.000311,-0.009875,-0.520712,-0.002852,-0.376707,-260.390147,-0.693157,67.597832
9.898,-0.008262,-0.010958,-0.002654,-0.000817,0.000538,0.00029,-0.009968,-0.520774,-0.003022,-0.376707,-260.390147,-0.693157,67.597832
9.9174,-0.008787,-0.01057,-0.00246,-0.000817,0.000531,0.000276,-0.009616,-0.520955,-0.002654,-0.451607,-260.390162,-0.618258,67.59782
9.9374,-0.008314,-0.010958,-0.002727,-0.000819,0.000506,6.8e-05,-0.010002,-0.520604,-0.002477,-0.451607,-260.390162,-0.618258,67.59782
9.9579,-0.00855,-0.011183,-0.001984,-0.00082,0.000488,-7.8e-05,-0.010002,-0.520604,-0.002477,-0.451607,-260.390162,-0.618258,67.59782
9.9776,-0.008348,-0.010988,-0.003577,-0.000819,0.000475,-0.00018,-0.009568,-0.521178,-0.001983,-0.526598,-260.390239,-0.543267,67.597756
9.9978,-0.008481,-0.01062,-0.002407,-0.000841,0.000493,-0.000187,-0.009813,-0.5211,-0.002627,-0.526598,-260.390239,-0.543267,67.597756
10.0174,-0.008794,-0.010902,-0.003807,-0.000858,0.000508,-0.000193,-0.009728,-0.520607,-0.002411,-0.451596,-260.39051,-0.618269,67.597451
10.0375,-0.008774,-0.010878,-0.004658,-0.000811,0.000505,0.000136,-0.010644,-0.520871,-0.00368,-0.451596,-260.39051,-0.618269,67.597451
10.0576,-0.008777,-0.010829,-0.004062,-0.000776,0.0005,0.000372,-0.010644,-0.520871,-0.00368,-0.451596,-260.39051,-0.618269,67.597451
10.0775,-0.008444,-0.011026,-0.004253,-0.000749,0.000493,0.000541,-0.010885,-0.520803,-0.00407,-0.42647,-260.390885,-0.629625,67.597029
10.0977,-0.008753,-0.010949,-0.003272,-0.000715,0.00049,0.000796,-0.010775,-0.520892,-0.004148,-0.42647,-260.390885,-0.629625,67.597029
10.1171,-0.008718,-0.010905,-0.004678,-0.000691,0.000484,0.00098,-0.010422,-0.520947,-0.003272,-0.501816,-260.390886,-0.55428,67.597028
10.1374,-0.008596,-0.011013,-0.00307,-0.000656,0.000475,0.001218,-0.011045,-0.520904,-0.004557,-0.501816,-260.390886,-0.55428,67.597028
10.1573,-0.008534,-0.011148,-0.003421,-0.00063,0.000464,0.001392,-0.011045,-0.520904,-0.004557,-0.501816,-260.390886,-0.55428,67.597028
10.1774,-0.008499,-0.010929,-0.003807,-0.000611,0.000452,0.001517,-0.010278,-0.521145,-0.003421,-0.576597,-260.390886,-0.479499,67.597028
10.1975,-0.00891,-0.010989,-0.003028,-0.000645,0.00045,0.001328,-0.010345,-0.521055,-0.003579,-0.576597,-260.390886,-0.479499,67.597028
10.2172,-0.008778,-0.010793,-0.003932,-0.000671,0.000451,0.001194,-0.010455,-0.520987,-0.003028,-0.651555,-260.390886,-0.404541,67.597028
10.2373,-0.008706,-0.010747,-0.003153,-0.000662,0.000438,0.001178,-0.010755,-0.520806,-0.003853,-0.651555,-260.390886,-0.404541,67.597028
10.2576,-0.008754,-0.010812,-0.001975,-0.000655,0.000427,0.001168,-0.010755,-0.520806,-0.003853,-0.651555,-260.390886,-0.404541,67.597028
10.2774,-0.008887,-0.011082,-0.002324,-0.000649,0.000418,0.001161,-0.009761,-0.520811,-0.001975,-0.72656,-260.390886,-0.329536,67.597028
10.2975,-0.008943,-0.010747,-0.002122,-0.000708,0.000403,0.00054,-0.009888,-0.520921,-0.002117,-0.72656,-260.390886,-0.329536,67.597028
10.3173,-0.008402,-0.011072,-0.002152,-0.000755,0.0004,0.000108,-0.010025,-0.520746,-0.002122,-0.801494,-260.390886,-0.254602,67.597028
10.3373,-0.008488,-0.010881,-0.002427,-0.000809,0.00042,-0.000172,-0.009544,-0.521043,-0.00215,-0.801494,-260.390886,-0.254602,67.597028
10.3575,-0.008465,-0.010809,-0.002885,-0.000851,0.000441,-0.000368,-0.009544,-0.521043,-0.00215,-0.801494,-260.390886,-0.254602,67.597028
10.3773,-0.009045,-0.010812,-0.003577,-0.000884,0.000461,-0.000505,-0.009944,-0.520803,-0.002882,-0.726393,-260.390972,-0.329702,67.596948
10.3976,-0.008617,-0.010831,-0.00326,-0.000849,0.000469,-0.000248,-0.01032,-0.520805,-0.003164,-0.726393,-260.390972,-0.329702,67.596948
10.4179,-0.008583,-0.010694,-0.001725,-0.000823,0.000472,-6.4e-05,-0.01028,-0.520828,-0.00326,-0.651525,-260.390972,-0.404571,67.596948
10.4377,-0.009094,-0.010589,-0.001889,-0.000854,0.000465,-0.000418,-0.009532,-0.520705,-0.001855,-0.651525,-260.390972,-0.404571,67.596948
10.4574,-0.008655,-0.010785,-0.003255,-0.000878,0.000464,-0.000666,-0.009532,-0.520705,-0.001855,-0.651525,-260.390972,-0.404571,67.596948
10.4772,-0.008806,-0.010676,-0.002953,-0.000895,0.000468,-0.000839,-0.01033,-0.520773,-0.003254,-0.576368,-260.391136,-0.479728,67.596777
10.4975,-0.008686,-0.010833,-0.003978,-0.000853,0.000476,-0.0005,-0.010324,-0.520732,-0.003132,-0.576368,-260.391136,-0.479728,67.596777
10.5171,-0.00841,-0.010998,-0.002504,-0.000821,0.000478,-0.000255,-0.010715,-0.520828,-0.003978,-0.501542,-260.391136,-0.554553,67.596777
10.5375,-0.008502,-0.010805,-0.002243,-0.000838,0.000493,-0.000243,-0.009774,-0.520982,-0.002629,-0.501542,-260.391136,-0.554553,67.596777
10.5575,-0.008802,-0.010801,-0.002991,-0.000852,0.000506,-0.000234,-0.009774,-0.520982,-0.002629,-0.501542,-260.391136,-0.554553,67.596777
10.5774,-0.009168,-0.010569,-0.003485,-0.000864,0.000516,-0.000227,-0.01035,-0.520785,-0.002997,-0.426418,-260.391367,-0.629677,67.596506
10.5976,-0.009072,-0.01068,-0.003701,-0.000819,0.000499,-3.9e-05,-0.010604,-0.520691,-0.003204,-0.426418,-260.391367,-0.629677,67.596506
10.6172,-0.008617,-0.010457,-0.001679,-0.000785,0.000482,9.7e-05,-0.010986,-0.52066,-0.003708,-0.412195,-260.391739,-0.648847,67.596078
10.6373,-0.008977,-0.010858,-0.001363,-0.000812,0.000461,-0.000308,-0.009604,-0.520473,-0.001854,-0.412195,-260.391739,-0.648847,67.596078
10.6573,-0.008931,-0.010599,-0.002264,-0.000831,0.000449,-0.000591,-0.009604,-0.520473,-0.001854,-0.412195,-260.391739,-0.648847,67.596078
10.6776,-0.008763,-0.010683,-0.005626,-0.000846,0.000444,-0.000789,-0.010098,-0.52059,-0.002264,-0.486907,-260.391883,-0.574135,67.595944
10.6976,-0.008791,-0.010666,-0.004054,-0.000784,0.000447,-0.00031,-0.010734,-0.520624,-0.003654,-0.486907,-260.391883,-0.574135,67.595944
10.7171,-0.008518,-0.010696,-0.00414,-0.000737,0.000444,3.8e-05,-0.010859,-0.520662,-0.004055,-0.411883,-260.391884,-0.649159,67.595942
10.7372,-0.008861,-0.010718,-0.003991,-0.000698,0.000451,0.000425,-0.010649,-0.520689,-0.004133,-0.411883,-260.391884,-0.649159,67.595942
10.7573,-0.008544,-0.010708,-0.00287,-0.00067,0.000453,0.000706,-0.010649,-0.520689,-0.004133,-0.411883,-260.391884,-0.649159,67.595942
10.7773,-0.0089,-0.010732,-0.00307,-0.00065,0.000451,0.000909,-0.010024,-0.520697,-0.002871,-0.486855,-260.392066,-0.574187,67.595765
10.7973,-0.008762,-0.010698,-0.001415,-0.000675,0.000438,0.000685,-0.010206,-0.520709,-0.002952,-0.486855,-260.392066,-0.574187,67.595765
10.8175,-0.008799,-0.010753,-0.000709,-0.000693,0.000431,0.000527,-0.009484,-0.520697,-0.001415,-0.561763,-260.392066,-0.499279,67.595765
10.8375,-0.00841,-0.01057,-0.002252,-0.000768,0.000418,-0.000533,-0.009184,-0.520749,-0.00076,-0.561763,-260.392066,-0.499279,67.595765
10.8572,-0.008408,-0.010714,-0.003595,-0.000831,0.000416,-0.001281,-0.009184,-0.520749,-0.00076,-0.561763,-260.392066,-0.499279,67.595765
10.8775,-0.008887,-0.010915,-0.005003,-0.000883,0.000423,-0.001806,-0.010242,-0.520709,-0.003594,-0.637262,-260.392085,-0.42378,67.595752
10.8978,-0.008916,-0.010774,-0.002,-0.000802,0.000454,-0.000945,-0.010737,-0.520792,-0.004177,-0.637262,-260.392085,-0.42378,67.595752
10.9176,-0.008593,-0.010514,-0.003247,-0.000742,0.000471,-0.000306,-0.009935,-0.520773,-0.002,-0.562643,-260.392085,-0.498399,67.595752
10.9376,-0.008581,-0.010783,-0.002813,-0.00073,0.000467,-0.000136,-0.01022,-0.520536,-0.003132,-0.562643,-260.392085,-0.498399,67.595752
10.9575,-0.008467,-0.010349,-0.00206,-0.000721,0.000461,-1e-05,-0.01022,-0.520536,-0.003132,-0.562643,-260.392085,-0.498399,67.595752
10.9776,-0.008773,-0.010715,-0.003608,-0.000714,0.000456,8.3e-05,-0.009525,-0.520344,-0.002061,-0.487787,-260.39216,-0.573256,67.595659
10.9972,-0.008936,-0.010687,-0.003091,-0.000727,0.000448,5e-06,-0.009974,-0.520495,-0.002699,-0.487787,-260.39216,-0.573256,67.595659
11.0175,-0.008956,-0.01072,-0.00229,-0.000736,0.000442,-4.7e-05,-0.010529,-0.520674,-0.00309,-0.562976,-260.392414,-0.515624,67.595421
11.0378,-0.00881,-0.01048,-0.002973,-0.00075,0.000432,-0.000208,-0.01016,-0.520714,-0.002359,-0.562976,-260.392414,-0.515624,67.595421
11.0576,-0.008829,-0.010611,-0.002961,-0.00076,0.000425,-0.000319,-0.01016,-0.520714,-0.002359,-0.562976,-260.392414,-0.515624,67.595421
11.0773,-0.008625,-0.010502,-0.003499,-0.000767,0.000422,-0.000396,-0.010367,-0.520592,-0.002962,-0.512222,-260.392723,-0.569579,67.595101
11.0976,-0.009045,-0.010632,-0.003991,-0.000742,0.000425,-0.000164,-0.010388,-0.520552,-0.003181,-0.512222,-260.392723,-0.569579,67.595101
11.1179,-0.00896,-0.010587,-0.004394,-0.000723,0.000424,3e-06,-0.011085,-0.520625,-0.003992,-0.437323,-260.392785,-0.644478,67.59502
11.1375,-0.008528,-0.010765,-0.002002,-0.000659,0.000416,0.000452,-0.011191,-0.520586,-0.004358,-0.437323,-260.392785,-0.644478,67.59502
11.1574,-0.008767,-0.010633,-0.003375,-0.000611,0.000406,0.00078,-0.011191,-0.520586,-0.004358,-0.437323,-260.392785,-0.644478,67.59502
11.1777,-0.008606,-0.01053,-0.003822,-0.000576,0.000393,0.001018,-0.010509,-0.520617,-0.003376,-0.5126,-260.393019,-0.569201,67.594788
11.1973,-0.00888,-0.010568,-0.003459,-0.000586,0.000386,0.000964,-0.010531,-0.520579,-0.003558,-0.5126,-260.393019,-0.569201,67.594788
11.2176,-0.008672,-0.010811,-0.002855,-0.000595,0.000381,0.000926,-0.010644,-0.520565,-0.003459,-0.587311,-260.393019,-0.49449,67.594788
11.2376,-0.008333,-0.010528,-0.001837,-0.000635,0.000382,0.000686,-0.010173,-0.520788,-0.002908,-0.587311,-260.393019,-0.49449,67.594788
11.2576,-0.008855,-0.010599,-0.002887,-0.000665,0.000387,0.000517,-0.010173,-0.520788,-0.002908,-0.587311,-260.393019,-0.49449,67.594788
11.2775,-0.008696,-0.010495,-0.003416,-0.000689,0.000393,0.000399,-0.010327,-0.520597,-0.002887,-0.662404,-260.393019,-0.419397,67.594788
11.2972,-0.008883,-0.010857,-0.004224,-0.000688,0.000389,0.000378,-0.010373,-0.520554,-0.003103,-0.662404,-260.393019,-0.419397,67.594788
11.3171,-0.008884,-0.010423,-0.002779,-0.000686,0.000386,0.000363,-0.011046,-0.520846,-0.004219,-0.737414,-260.39319,-0.344387,67.594659
11.3381,-0.009253,-0.010729,-0.003386,-0.000686,0.000375,0.000275,-0.010354,-0.520451,-0.002879,-0.737414,-260.39319,-0.344387,67.594659
11.3579,-0.008907,-0.010634,-0.001268,-0.000685,0.000368,0.000214,-0.010354,-0.520451,-0.002879,-0.737414,-260.39319,-0.344387,67.594659
11.3773,-0.009095,-0.010582,-0.002736,-0.000683,0.000363,0.000171,-0.009577,-0.52062,-0.001256,-0.725064,-260.393489,-0.268862,67.594429
11.3976,-0.009194,-0.010612,-0.002381,-0.00072,0.000353,-0.000255,-0.009949,-0.520602,-0.001854,-0.725064,-260.393489,-0.268862,67.594429
11.4175,-0.009077,-0.010393,-0.001371,-0.000747,0.00035,-0.000552,-0.010422,-0.520603,-0.002376,-0.650659,-260.393712,-0.343267,67.594231
11.4378,-0.008859,-0.010508,-0.002712,-0.00077,0.00034,-0.000938,-0.009835,-0.520411,-0.001461,-0.650659,-260.393712,-0.343267,67.594231
11.4577,-0.00864,-0.010791,-0.002916,-0.000787,0.000338,-0.001207,-0.009835,-0.520411,-0.001461,-0.650659,-260.393712,-0.343267,67.594231
11.4775,-0.008954,-0.010265,-0.004514,-0.0008,0.00034,-0.001396,-0.010128,-0.520789,-0.002916,-0.575693,-260.393713,-0.418234,67.594231
11.4975,-0.009083,-0.010336,-0.003942,-0.000745,0.00037,-0.000776,-0.010585,-0.520575,-0.003563,-0.575693,-260.393713,-0.418234,67.594231
11.5173,-0.009193,-0.010425,-0.001685,-0.000705,0.000387,-0.000324,-0.011093,-0.520332,-0.003942,-0.500683,-260.393713,-0.493243,67.594231
11.5376,-0.008903,-0.010719,-0.002284,-0.000719,0.000368,-0.000594,-0.010145,-0.520416,-0.001887,-0.500683,-260.393713,-0.493243,67.594231
11.5578,-0.008896,-0.010892,-0.002863,-0.000728,0.000356,-0.000782,-0.010145,-0.520416,-0.001887,-0.500683,-260.393713,-0.493243,67.594231
11.5779,-0.009167,-0.011354,-0.003246,-0.000735,0.00035,-0.000913,-0.010362,-0.520887,-0.002864,-0.425677,-260.393774,-0.56825,67.594154
11.5974,-0.009216,-0.010846,-0.00273,-0.000725,0.000381,-0.00058,-0.01055,-0.521075,-0.00302,-0.425677,-260.393774,-0.56825,67.594154
11.6173,-0.008679,-0.010709,-0.002764,-0.00072,0.000403,-0.000341,-0.010608,-0.520844,-0.00273,-0.350553,-260.393774,-0.643373,67.594154
11.6373,-0.00905,-0.010473,-0.002324,-0.000727,0.000414,-0.000258,-0.010134,-0.520719,-0.002761,-0.350553,-260.393774,-0.643373,67.594154
11.6573,-0.008984,-0.010365,-0.002729,-0.000733,0.000422,-0.000198,-0.010134,-0.520719,-0.002761,-0.350553,-260.393774,-0.643373,67.594154
11.6773,-0.008911,-0.010497,-0.002286,-0.000738,0.000428,-0.000156,-0.010401,-0.520349,-0.002741,-0.275563,-260.394024,-0.703711,67.593838
11.6973,-0.008948,-0.010748,-0.002688,-0.000731,0.000412,-0.000206,-0.01027,-0.520408,-0.002555,-0.275563,-260.394024,-0.703711,67.593838
11.7172,-0.008817,-0.010481,-0.002111,-0.000724,0.000399,-0.00024,-0.010334,-0.520738,-0.002693,-0.350555,-260.394226,-0.628719,67.593613
11.7373,-0.008862,-0.010751,-0.003754,-0.000743,0.000394,-0.00041,-0.009932,-0.520502,-0.002161,-0.350555,-260.394226,-0.628719,67.593613
11.7578,-0.009171,-0.010895,-0.004036,-0.000756,0.000393,-0.00053,-0.009932,-0.520502,-0.002161,-0.350555,-260.394226,-0.628719,67.593613
11.7775,-0.008676,-0.01024,-0.003194,-0.000767,0.000394,-0.000614,-0.011259,-0.520874,-0.004046,-0.335104,-260.394529,-0.645653,67.593253
11.7974,-0.009233,-0.010472,-0.000839,-0.000713,0.000399,-0.000164,-0.010875,-0.520614,-0.003701,-0.335104,-260.394529,-0.645653,67.593253
11.8172,-0.008579,-0.010823,-0.002316,-0.000673,0.000399,0.000162,-0.009665,-0.52047,-0.000841,-0.260221,-260.394576,-0.720535,67.593187
11.8372,-0.009153,-0.010796,-0.00268,-0.000721,0.000406,-0.000112,-0.009753,-0.520792,-0.002192,-0.260221,-260.394576,-0.720535,67.593187
11.8572,-0.00929,-0.011025,-0.003137,-0.000759,0.000415,-0.000305,-0.009753,-0.520792,-0.002192,-0.260221,-260.394576,-0.720535,67.593187
11.8775,-0.00917,-0.010274,-0.002718,-0.000788,0.000425,-0.000441,-0.01089,-0.521022,-0.003137,-0.335381,-260.394583,-0.645376,67.593181
11.898,-0.009147,-0.010392,-0.002455,-0.000755,0.000417,-0.000266,-0.010754,-0.520715,-0.002966,-0.335381,-260.394583,-0.645376,67.593181
11.9174,-0.008785,-0.010697,-0.002915,-0.000729,0.000408,-0.000141,-0.010416,-0.520381,-0.002464,-0.260442,-260.394797,-0.720314,67.592901
11.9376,-0.009048,-0.010621,-0.001749,-0.000726,0.000411,-7.7e-05,-0.010285,-0.520667,-0.002877,-0.260442,-260.394797,-0.720314,67.592901
11.9578,-0.009317,-0.010825,-0.002126,-0.000724,0.000412,-3.1e-05,-0.010285,-0.520667,-0.002877,-0.260442,-260.394797,-0.720314,67.592901
11.978,-0.008715,-0.01048,-0.001728,-0.000723,0.000413,2e-06,-0.010418,-0.520815,-0.00213,-0.33547,-260.394966,-0.645286,67.592715
11.998,-0.009115,-0.01038,-0.002753,-0.000747,0.000399,-0.000323,-0.010083,-0.520676,-0.001966,-0.33547,-260.394966,-0.645286,67.592715
12.0179,-0.009089,-0.010489,-0.001602,-0.000764,0.000391,-0.00055,-0.01053,-0.520372,-0.002755,-0.410469,-260.395114,-0.570287,67.592567
12.0374,-0.0092,-0.010609,-0.002183,-0.000778,0.000379,-0.000825,-0.00996,-0.520478,-0.001701,-0.410469,-260.395114,-0.570287,67.592567
12.0577,-0.009075,-0.010924,-0.003284,-0.000788,0.000373,-0.001018,-0.00996,-0.520478,-0.001701,-0.410469,-260.395114,-0.570287,67.592567
12.0776,-0.009337,-0.010378,-0.003004,-0.000795,0.000371,-0.001153,-0.010753,-0.520919,-0.003286,-0.335463,-260.395141,-0.645293,67.59253
12.0975,-0.009036,-0.010423,-0.002786,-0.000748,0.000384,-0.000713,-0.010801,-0.520695,-0.003169,-0.335463,-260.395141,-0.645293,67.59253
12.1174,-0.009053,-0.01067,-0.003391,-0.000713,0.000388,-0.000395,-0.010457,-0.520421,-0.002786,-0.260492,-260.395141,-0.720264,67.59253
12.1375,-0.009073,-0.010553,-0.002217,-0.000683,0.000391,-0.000112,-0.010755,-0.520647,-0.00334,-0.260492,-260.395141,-0.720264,67.59253
12.1576,-0.008872,-0.010495,-0.003011,-0.000661,0.00039,9.1e-05,-0.010755,-0.520647,-0.00334,-0.260492,-260.395141,-0.720264,67.59253
12.1778,-0.00918,-0.010251,-0.00289,-0.000645,0.000387,0.000237,-0.010436,-0.520477,-0.003027,-0.203545,-260.395417,-0.723844,67.592169
12.198,-0.009265,-0.010582,-0.003339,-0.000639,0.000372,0.000218,-0.010529,-0.520382,-0.002973,-0.203545,-260.395417,-0.723844,67.592169
12.2175,-0.009527,-0.010513,-0.002679,-0.000635,0.00036,0.000205,-0.010968,-0.520579,-0.003339,-0.278525,-260.395418,-0.648864,67.592169
12.2378,-0.009185,-0.010538,-0.004361,-0.000627,0.000337,0.000112,-0.010901,-0.520517,-0.002739,-0.278525,-260.395418,-0.648864,67.592169
12.2572,-0.008919,-0.010403,-0.001625,-0.00062,0.00032,4.8e-05,-0.010901,-0.520517,-0.002739,-0.278525,-260.395418,-0.648864,67.592169
12.2775,-0.008976,-0.01066,-0.003853,-0.000614,0.000306,3e-06,-0.009749,-0.520402,-0.001625,-0.353407,-260.395426,-0.573982,67.592162
12.2972,-0.009513,-0.010733,-0.002868,-0.000636,0.000313,-9.6e-05,-0.010233,-0.520505,-0.002531,-0.353407,-260.395426,-0.573982,67.592162
12.3176,-0.009095,-0.010236,-0.003271,-0.000653,0.00032,-0.000165,-0.010988,-0.520725,-0.002868,-0.428425,-260.395608,-0.498963,67.59198
12.3375,-0.009346,-0.010384,-0.003395,-0.000624,0.000314,2.1e-05,-0.010784,-0.520275,-0.003236,-0.428425,-260.395608,-0.498963,67.59198
12.3575,-0.009003,-0.010877,-0.004043,-0.000601,0.000307,0.000154,-0.010784,-0.520275,-0.003236,-0.428425,-260.395608,-0.498963,67.59198
12.3773,-0.009103,-0.010641,-0.002531,-0.000584,0.000299,0.000249,-0.011086,-0.520862,-0.004048,-0.353372,-260.39582,-0.572348,67.591741
12.3974,-0.00921,-0.010773,-0.002591,-0.000584,0.000313,0.000384,-0.010804,-0.520769,-0.003425,-0.353372,-260.39582,-0.572348,67.591741
12.4178,-0.009244,-0.010543,-0.003779,-0.000586,0.000323,0.00048,-0.010533,-0.520771,-0.002591,-0.428412,-260.395831,-0.497308,67.591732
12.4379,-0.009107,-0.010526,-0.001945,-0.000565,0.000318,0.000621,-0.011118,-0.520559,-0.00368,-0.428412,-260.395831,-0.497308,67.591732
12.458,-0.008925,-0.010552,-0.003107,-0.000549,0.000311,0.000722,-0.011118,-0.520559,-0.00368,-0.428412,-260.395831,-0.497308,67.591732
12.4781,-0.008923,-0.010417,-0.002474,-0.000537,0.000304,0.000794,-0.010509,-0.520549,-0.003107,-0.503477,-260.395832,-0.422243,67.591731
12.4976,-0.009326,-0.010545,-0.001093,-0.000567,0.000302,0.000575,-0.010378,-0.520495,-0.00285,-0.503477,-260.395832,-0.422243,67.591731
12.5177,-0.009599,-0.010177,-0.002801,-0.000591,0.000303,0.00042,-0.009883,-0.520544,-0.001093,-0.578301,-260.395832,-0.347419,67.591731
12.5376,-0.009451,-0.010691,-0.003787,-0.000583,0.000272,0.000228,-0.010924,-0.520208,-0.002647,-0.578301,-260.395832,-0.347419,67.591731
12.5574,-0.009326,-0.010771,-0.001577,-0.000575,0.000249,9.3e-05,-0.010924,-0.520208,-0.002647,-0.578301,-260.395832,-0.347419,67.591731
12.5774,-0.009052,-0.010338,-0.003686,-0.000567,0.000231,0.0,-0.010135,-0.520768,-0.001575,-0.653303,-260.395892,-0.272417,67.591687
12.5974,-0.009163,-0.010212,-0.003365,-0.000594,0.000243,-0.000135,-0.010459,-0.520592,-0.002431,-0.653303,-260.395892,-0.272417,67.591687
12.618,-0.009252,-0.010371,-0.003237,-0.000614,0.000255,-0.00023,-0.010884,-0.520207,-0.003364,-0.578309,-260.395955,-0.347411,67.591624
12.6378,-0.009159,-0.010136,-0.00306,-0.00059,0.00026,-1.9e-05,-0.010901,-0.520353,-0.003248,-0.578309,-260.395955,-0.347411,67.591624
12.6575,-0.009154,-0.010394,-0.001231,-0.000571,0.000261,0.000131,-0.010901,-0.520353,-0.003248,-0.578309,-260.395955,-0.347411,67.591624
12.6776,-0.009199,-0.010317,-0.003779,-0.000558,0.000261,0.000239,-0.009783,-0.520393,-0.001231,-0.503314,-260.395964,-0.422406,67.591614
12.6979,-0.008996,-0.010482,-0.000842,-0.000586,0.000256,-3.3e-05,-0.010328,-0.520361,-0.002265,-0.503314,-260.395964,-0.422406,67.591614
12.7175,-0.008999,-0.010561,-0.003398,-0.000608,0.000255,-0.000224,-0.009432,-0.520478,-0.00084,-0.57832,-260.396062,-0.3474,67.591533
12.7377,-0.009297,-0.010304,-0.00295,-0.000603,0.000275,-3.2e-05,-0.01062,-0.520551,-0.003177,-0.57832,-260.396062,-0.3474,67.591533
12.7577,-0.009327,-0.010154,-0.002378,-0.0006,0.00029,0.000104,-0.01062,-0.520551,-0.003177,-0.57832,-260.396062,-0.3474,67.591533
12.7778,-0.009035,-0.01065,-0.003262,-0.000599,0.0003,0.000201,-0.010541,-0.520152,-0.002378,-0.50322,-260.396071,-0.4225,67.591522
12.7974,-0.009048,-0.010435,-0.001939,-0.000601,0.00029,0.000112,-0.010604,-0.52035,-0.002732,-0.50322,-260.396071,-0.4225,67.591522
12.8171,-0.009532,-0.010486,-0.004009,-0.000603,0.000284,5e-05,-0.010048,-0.520428,-0.001936,-0.578143,-260.396251,-0.347577,67.591369
12.8374,-0.009103,-0.010505,-0.002633,-0.000558,0.000278,0.000354,-0.011445,-0.520477,-0.003829,-0.578143,-260.396251,-0.347577,67.591369
12.8577,-0.008967,-0.010439,-0.003355,-0.000524,0.00027,0.000572,-0.011445,-0.520477,-0.003829,-0.578143,-260.396251,-0.347577,67.591369
12.8775,-0.009091,-0.010214,-0.003982,-0.000499,0.000262,0.000728,-0.010699,-0.520426,-0.003353,-0.503043,-260.396476,-0.397464,67.591153
12.8975,-0.008909,-0.010293,-0.002991,-0.000497,0.000261,0.000778,-0.010873,-0.520337,-0.003608,-0.503043,-260.396476,-0.397464,67.591153
12.9172,-0.009187,-0.010669,-0.002096,-0.000497,0.00026,0.000813,-0.010434,-0.52029,-0.002991,-0.577981,-260.396476,-0.322526,67.591153
12.9374,-0.009534,-0.010453,-0.003352,-0.000553,0.000256,0.000329,-0.010271,-0.520636,-0.002172,-0.577981,-260.396476,-0.322526,67.591153
12.9573,-0.008957,-0.010159,-0.00298,-0.000598,0.00026,-8e-06,-0.010271,-0.520636,-0.002172,-0.577981,-260.396476,-0.322526,67.591153
12.9777,-0.009277,-0.010572,-0.002577,-0.000632,0.000268,-0.000244,-0.010477,-0.520157,-0.00298,-0.653051,-260.396476,-0.247455,67.591153
12.9975,-0.009483,-0.01062,-0.004452,-0.000625,0.000273,-0.000174,-0.010524,-0.520327,-0.002814,-0.653051,-260.396476,-0.247455,67.591153
13.0176,-0.009464,-0.010803,-0.002799,-0.00062,0.000276,-0.000125,-0.011754,-0.520615,-0.004452,-0.57807,-260.396477,-0.322436,67.591152
13.0374,-0.009297,-0.010632,-0.00229,-0.000615,0.000283,-4.4e-05,-0.010965,-0.520785,-0.00294,-0.57807,-260.396477,-0.322436,67.591152
13.0576,-0.009341,-0.010318,-0.004526,-0.000611,0.000288,1.3e-05,-0.010965,-0.520785,-0.00294,-0.57807,-260.396477,-0.322436,67.591152
13.0775,-0.00939,-0.010791,-0.002875,-0.000608,0.000292,5.4e-05,-0.011654,-0.520311,-0.004525,-0.503031,-260.396522,-0.397476,67.591102
13.0973,-0.009298,-0.010486,-0.003453,-0.000566,0.00029,0.000365,-0.011333,-0.520503,-0.00386,-0.503031,-260.396522,-0.397476,67.591102
13.1175,-0.009254,-0.01039,-0.002894,-0.000535,0.000285,0.000589,-0.011079,-0.520474,-0.003451,-0.490943,-260.396797,-0.402607,67.590839
13.1375,-0.009093,-0.010689,-0.001935,-0.000545,0.000275,0.000459,-0.010763,-0.520396,-0.002945,-0.490943,-260.396797,-0.402607,67.590839
13.1583,-0.009163,-0.010252,-0.00325,-0.000551,0.000268,0.000368,-0.010763,-0.520396,-0.002945,-0.490943,-260.396797,-0.402607,67.590839
13.1777,-0.009133,-0.010167,-0.003237,-0.000556,0.000263,0.000304,-0.01082,-0.520249,-0.00325,-0.565959,-260.396798,-0.327591,67.590839
13.1973,-0.009627,-0.010604,-0.002991,-0.000545,0.000257,0.000358,-0.010806,-0.520215,-0.003245,-0.565959,-260.396798,-0.327591,67.590839
13.2171,-0.009344,-0.010812,-0.002101,-0.000537,0.000252,0.000397,-0.01116,-0.520598,-0.002987,-0.640979,-260.396928,-0.252571,67.590736
13.2375,-0.009315,-0.010328,-0.00213,-0.000582,0.000255,4.4e-05,-0.01048,-0.520792,-0.002177,-0.640979,-260.396928,-0.252571,67.590736
13.2575,-0.009388,-0.010912,-0.003462,-0.000617,0.000262,-0.000203,-0.01048,-0.520792,-0.002177,-0.640979,-260.396928,-0.252571,67.590736
13.2778,-0.009041,-0.010292,-0.003293,-0.000643,0.000271,-0.000376,-0.011162,-0.520904,-0.003457,-0.715956,-260.397029,-0.177593,67.590662
13.2977,-0.009689,-0.010671,-0.00233,-0.000617,0.000286,-7.9e-05,-0.010982,-0.520652,-0.003389,-0.715956,-260.397029,-0.177593,67.590662
13.3171,-0.009173,-0.010757,-0.004246,-0.000598,0.000295,0.000134,-0.010877,-0.52067,-0.00233,-0.640977,-260.397029,-0.252572,67.590662
13.3378,-0.009401,-0.010436,-0.00306,-0.000564,0.000305,0.000485,-0.011297,-0.520745,-0.004073,-0.640977,-260.397029,-0.252572,67.590662
13.3579,-0.009202,-0.010687,-0.003126,-0.00054,0.00031,0.000737,-0.011297,-0.520745,-0.004073,-0.640977,-260.397029,-0.252572,67.590662
13.3779,-0.009017,-0.010539,-0.003005,-0.000523,0.000312,0.000919,-0.010817,-0.520675,-0.003121,-0.56605,-260.397255,-0.327499,67.590459
13.3977,-0.009409,-0.010603,-0.002929,-0.000545,0.000304,0.000738,-0.010711,-0.520618,-0.003074,-0.56605,-260.397255,-0.327499,67.590459
13.4171,-0.009398,-0.010396,-0.005226,-0.000562,0.000301,0.00061,-0.010903,-0.520601,-0.002929,-0.641167,-260.397255,-0.252383,67.590459
13.4378,-0.009548,-0.010475,-0.003672,-0.00049,0.000286,0.00105,-0.011959,-0.520408,-0.00502,-0.641167,-260.397255,-0.252383,67.590459
13.4578,-0.009458,-0.010348,-0.003759,-0.000437,0.000268,0.001374,-0.011959,-0.520408,-0.00502,-0.641167,-260.397255,-0.252383,67.590459
13.4775,-0.009589,-0.01036,-0.003055,-0.000396,0.000249,0.001613,-0.011376,-0.520344,-0.003758,-0.716032,-260.397268,-0.177518,67.59045
13.4974,-0.009517,-0.01066,-0.00179,-0.000412,0.000221,0.001347,-0.01128,-0.52035,-0.003465,-0.716032,-260.397268,-0.177518,67.59045
13.5171,-0.009578,-0.010401,-0.003031,-0.000423,0.000201,0.001161,-0.01043,-0.52066,-0.00179,-0.791332,-260.397268,-0.102218,67.59045
13.5375,-0.009255,-0.010562,-0.003312,-0.00045,0.000185,0.000846,-0.011061,-0.520422,-0.00292,-0.791332,-260.397268,-0.102218,67.59045
13.5574,-0.009329,-0.010355,-0.003632,-0.00047,0.000177,0.000626,-0.011061,-0.520422,-0.00292,-0.791332,-260.397268,-0.102218,67.59045
13.5773,-0.009141,-0.010783,-0.003854,-0.000483,0.000174,0.000472,-0.011181,-0.520352,-0.003632,-0.866041,-260.397268,-0.027509,67.59045
13.5973,-0.009475,-0.009985,-0.001327,-0.000478,0.000191,0.000629,-0.011151,-0.520528,-0.003723,-0.866041,-260.397268,-0.027509,67.59045
13.6176,-0.009518,-0.010684,-0.003372,-0.000475,0.000204,0.000741,-0.010156,-0.519983,-0.001323,-0.790956,-260.397344,0.047576,67.590394
13.6372,-0.009465,-0.010624,-0.001671,-0.000488,0.000205,0.000649,-0.011139,-0.520617,-0.003184,-0.790956,-260.397344,0.047576,67.590394
13.6576,-0.009332,-0.010312,-0.002308,-0.000497,0.000208,0.000584,-0.011139,-0.520617,-0.003184,-0.790956,-260.397344,0.047576,67.590394
13.6775,-0.009233,-0.010355,-0.003473,-0.000504,0.000211,0.000538,-0.01051,-0.520311,-0.002308,-0.865852,-260.397353,0.122471,67.590388
13.6972,-0.009805,-0.010559,-0.003378,-0.000521,0.000208,0.000366,-0.01071,-0.520327,-0.002779,-0.865852,-260.397353,0.122471,67.590388
13.7173,-0.009078,-0.010133,-0.002241,-0.000534,0.000208,0.000245,-0.011541,-0.52055,-0.003365,-0.81956,-260.397591,0.197502,67.590222
13.7373,-0.009333,-0.010372,-0.002062,-0.000559,0.000206,-4e-06,-0.010333,-0.520167,-0.002335,-0.81956,-260.397591,0.197502,67.590222
13.7576,-0.00936,-0.010345,-0.002525,-0.000577,0.000207,-0.000178,-0.010333,-0.520167,-0.002335,-0.81956,-260.397591,0.197502,67.590222
13.7774,-0.009532,-0.010066,-0.003018,-0.000591,0.000211,-0.0003,-0.010649,-0.520343,-0.002523,-0.744442,-260.397614,0.122384,67.590202
13.7973,-0.009422,-0.010633,-0.002929,-0.000578,0.000211,-0.000245,-0.010822,-0.520229,-0.002726,-0.744442,-260.397614,0.122384,67.590202
13.8173,-0.009365,-0.010321,-0.002946,-0.000568,0.00021,-0.000206,-0.010916,-0.520631,-0.002929,-0.66959,-260.397614,0.047532,67.590202
13.8373,-0.009368,-0.010311,-0.002534,-0.000558,0.000217,-0.0001,-0.010872,-0.520346,-0.002944,-0.66959,-260.397614,0.047532,67.590202
13.8576,-0.00938,-0.010675,-0.0031,-0.000551,0.000221,-2.5e-05,-0.010872,-0.520346,-0.002944,-0.66959,-260.397614,0.047532,67.590202
13.8772,-0.009353,-0.010109,-0.002223,-0.000546,0.000223,2.9e-05,-0.010961,-0.520672,-0.0031,-0.594594,-260.397614,-0.027465,67.590202
13.8976,-0.009012,-0.010611,-0.004687,-0.000553,0.000227,-3e-06,-0.010765,-0.520439,-0.002738,-0.594594,-260.397614,-0.027465,67.590202
13.9176,-0.009314,-0.010014,-0.002783,-0.000558,0.000231,-2.5e-05,-0.011404,-0.520605,-0.004687,-0.519484,-260.397638,-0.102575,67.590179
13.9376,-0.009449,-0.010274,-0.002519,-0.000544,0.000224,2.7e-05,-0.010791,-0.520063,-0.002946,-0.519484,-260.397638,-0.102575,67.590179
13.9573,-0.009431,-0.010302,-0.003957,-0.000533,0.000217,6.4e-05,-0.010791,-0.520063,-0.002946,-0.519484,-260.397638,-0.102575,67.590179
13.9772,-0.009165,-0.010335,-0.003427,-0.000524,0.00021,9.1e-05,-0.011452,-0.520297,-0.003957,-0.444442,-260.397671,-0.177616,67.590145
13.9976,-0.009264,-0.010589,-0.004658,-0.000496,0.000216,0.000361,-0.011231,-0.520311,-0.003738,-0.444442,-260.397671,-0.177616,67.590145
14.0171,-0.00935,-0.010107,-0.002268,-0.000475,0.000218,0.000555,-0.011653,-0.520578,-0.004656,-0.469579,-260.397863,-0.252597,67.589966
14.0373,-0.009447,-0.010603,-0.001525,-0.0005,0.000203,0.000266,-0.010606,-0.520146,-0.002473,-0.469579,-260.397863,-0.252597,67.589966
14.0575,-0.009536,-0.010617,-0.003565,-0.000517,0.000195,6.3e-05,-0.010606,-0.520146,-0.002473,-0.469579,-260.397863,-0.252597,67.589966
14.0775,-0.009472,-0.010342,-0.003151,-0.00053,0.000191,-7.9e-05,-0.011354,-0.520614,-0.003565,-0.544599,-260.397864,-0.177576,67.589966
14.0976,-0.009501,-0.010146,-0.003398,-0.000512,0.000202,0.000137,-0.011242,-0.520502,-0.003396,-0.544599,-260.397864,-0.177576,67.589966
14.1177,-0.009438,-0.010283,-0.0033,-0.0005,0.000209,0.000292,-0.011236,-0.520142,-0.003398,-0.469724,-260.397886,-0.252451,67.589942
14.1376,-0.00937,-0.010262,-0.00186,-0.000488,0.000206,0.000371,-0.011131,-0.520269,-0.003308,-0.469724,-260.397886,-0.252451,67.589942
14.1574,-0.009452,-0.01058,-0.001669,-0.000479,0.000202,0.000428,-0.011131,-0.520269,-0.003308,-0.469724,-260.397886,-0.252451,67.589942
14.1772,-0.009389,-0.010265,-0.003259,-0.000472,0.000198,0.000468,-0.01031,-0.520577,-0.001667,-0.544854,-260.397965,-0.177321,67.589879
14.1975,-0.009309,-0.010387,-0.002628,-0.000509,0.000195,0.00015,-0.010615,-0.520447,-0.00232,-0.544854,-260.397965,-0.177321,67.589879
14.2174,-0.009321,-0.010463,-0.004075,-0.000538,0.000197,-7.4e-05,-0.01065,-0.520385,-0.002628,-0.619819,-260.397976,-0.102356,67.589871
14.2373,-0.009132,-0.010306,-0.002134,-0.000503,0.000212,0.000301,-0.011334,-0.520452,-0.003949,-0.619819,-260.397976,-0.102356,67.589871
14.2574,-0.009725,-0.01084,-0.003146,-0.000479,0.00022,0.000571,-0.011334,-0.520452,-0.003949,-0.619819,-260.397976,-0.102356,67.589871
14.2776,-0.009398,-0.010488,-0.003503,-0.000461,0.000224,0.000765,-0.01133,-0.520837,-0.003146,-0.544832,-260.397982,-0.177343,67.589865
14.2975,-0.009326,-0.010728,-0.003332,-0.000472,0.000223,0.000703,-0.011271,-0.520693,-0.003292,-0.544832,-260.397982,-0.177343,67.589865
14.3182,-0.009527,-0.010661,-0.003063,-0.00048,0.000222,0.000659,-0.011025,-0.520726,-0.003332,-0.619753,-260.397982,-0.102422,67.589865
14.3378,-0.009128,-0.01012,-0.002135,-0.000495,0.000224,0.00056,-0.011083,-0.520665,-0.003086,-0.619753,-260.397982,-0.102422,67.589865
14.3578,-0.009812,-0.01037,-0.002958,-0.000507,0.000226,0.00049,-0.011083,-0.520665,-0.003086,-0.619753,-260.397982,-0.102422,67.589865
14.3778,-0.008972,-0.010427,-0.002744,-0.000516,0.000228,0.000441,-0.01132,-0.520368,-0.002958,-0.694864,-260.397985,-0.027311,67.589864
14.3975,-0.009379,-0.010055,-0.00211,-0.000522,0.000221,0.00033,-0.010938,-0.520391,-0.002872,-0.694864,-260.397985,-0.027311,67.589864
14.4176,-0.009809,-0.010349,-0.001996,-0.000527,0.000217,0.000252,-0.010468,-0.520048,-0.002099,-0.767303,-260.398205,0.047549,67.589704
14.438,-0.009118,-0.010244,-0.002789,-0.000546,0.000195,-0.000137,-0.010797,-0.520322,-0.002005,-0.767303,-260.398205,0.047549,67.589704
14.4581,-0.009893,-0.01021,-0.002719,-0.00056,0.000182,-0.000409,-0.010797,-0.520322,-0.002005,-0.767303,-260.398205,0.047549,67.589704
14.4777,-0.009575,-0.010244,-0.002384,-0.00057,0.000175,-0.000598,-0.011289,-0.520204,-0.002713,-0.69219,-260.398318,-0.027563,67.589612
14.4973,-0.009213,-0.010501,-0.004642,-0.000551,0.000173,-0.000511,-0.011095,-0.520219,-0.002583,-0.69219,-260.398318,-0.027563,67.589612
14.5175,-0.009583,-0.010557,-0.003705,-0.000537,0.00017,-0.000448,-0.011581,-0.520495,-0.004642,-0.617289,-260.398318,-0.102465,67.589612
14.5375,-0.009598,-0.010474,-0.002509,-0.0005,0.00019,-1.4e-05,-0.011482,-0.520548,-0.003793,-0.617289,-260.398318,-0.102465,67.589612
14.558,-0.009475,-0.010211,-0.001808,-0.000474,0.000202,0.0003,-0.011482,-0.520548,-0.003793,-0.617289,-260.398318,-0.102465,67.589612
14.5773,-0.009315,-0.010338,-0.002651,-0.000456,0.000209,0.000526,-0.010397,-0.52021,-0.001808,-0.542146,-260.398318,-0.177607,67.589612
14.5976,-0.009573,-0.010296,-0.002751,-0.000495,0.000196,0.000116,-0.010506,-0.520261,-0.002147,-0.542146,-260.398318,-0.177607,67.589612
