mach0312/omni-docking-bench/src/icros_test_setup/results/MPPI_sample/timeseries/trial_002.csv
t,x,y,yaw,vx,vy,wz,bl_x,bl_y,bl_yaw,front_steering_joint,front_wheel_joint,rear_steering_joint,rear_wheel_joint
0.0,0.048881,-0.000689,-0.028811,0.00829,-0.000119,-0.012993,0.032076,-0.510063,-0.027126,-0.770945,-263.909467,0.755997,62.530119
0.0003,0.048795,-0.000142,-0.030431,0.007482,-0.000107,-0.011726,0.032237,-0.510076,-0.027262,-0.770945,-263.903714,0.755997,62.53579
0.0006,0.049468,-0.000127,-0.028724,0.006601,-9.5e-05,-0.010346,0.032237,-0.510076,-0.027262,-0.770945,-263.89867,0.755997,62.540762
0.0008,0.049533,-0.000548,-0.029846,0.005664,-8.1e-05,-0.008876,0.033472,-0.509857,-0.027572,-0.770945,-263.894993,0.755997,62.544387
0.0011,0.0499,-9.7e-05,-0.030475,0.004665,-6.7e-05,-0.007311,0.033472,-0.509857,-0.027572,-0.770945,-263.892388,0.755997,62.546955
0.0014,0.049955,-0.00074,-0.030072,0.003588,-5.1e-05,-0.005623,0.033037,-0.510066,-0.028995,-0.770945,-263.892388,0.755997,62.546955
0.0016,0.050164,-0.000203,-0.030079,0.002456,-3.5e-05,-0.00385,0.033037,-0.510066,-0.028995,-0.770945,-263.892388,0.755997,62.546955
0.0018,0.050536,-0.000791,-0.030737,0.001258,-1.8e-05,-0.001971,0.033037,-0.510066,-0.028995,-0.770945,-263.892388,0.755997,62.546955
0.0166,0.050227,-0.0005,-0.031223,0.0,0.0,0.0,0.034828,-0.510019,-0.03011,-0.770945,-263.892388,0.755997,62.546955
0.0367,0.050326,-0.000258,-0.031188,0.0,0.0,0.0,0.034358,-0.510254,-0.031306,-0.770945,-263.891686,0.755997,62.547647
0.0567,0.050273,-0.00073,-0.031784,0.0,0.0,0.0,0.034391,-0.510154,-0.031267,-0.770945,-263.891686,0.755997,62.547647
0.0766,0.050513,-0.000717,-0.0316,0.0,0.0,0.0,0.034066,-0.510473,-0.031784,-0.770945,-263.891686,0.755997,62.547647
0.0969,0.05068,-0.000595,-0.030362,0.0,0.0,0.0,0.034371,-0.510463,-0.031616,-0.770945,-263.891686,0.755997,62.547647
0.1166,0.050364,-0.000706,-0.02946,-0.002594,0.00183,0.000589,0.034371,-0.510463,-0.031616,-0.770945,-263.891686,0.755997,62.547647
0.1363,0.050558,-0.000626,-0.031384,-0.002794,0.002045,0.00076,0.035342,-0.510484,-0.02946,-0.770945,-263.891686,0.755997,62.547647
0.1563,0.050309,-0.000413,-0.031519,-0.002957,0.002235,0.001048,0.035024,-0.51044,-0.030238,-0.770945,-263.891686,0.755997,62.547647
0.1762,0.050462,-0.000481,-0.030276,-0.003091,0.002404,0.001282,0.034237,-0.51016,-0.031519,-0.701113,-263.891686,0.68113,62.547646
0.1965,0.050658,-0.000266,-0.029476,-0.0032,0.002547,0.001602,0.034955,-0.51024,-0.030384,-0.701113,-263.891686,0.68113,62.547646
0.2167,0.050302,-0.000162,-0.031142,-0.003289,0.002675,0.001862,0.034955,-0.51024,-0.030384,-0.701113,-263.891686,0.68113,62.547646
0.2361,0.050582,-0.000299,-0.030566,-0.003363,0.002788,0.002072,0.034423,-0.509915,-0.031142,-0.776221,-263.891687,0.606023,62.547646
0.2563,0.050528,-0.000925,-0.028647,-0.003422,0.00288,0.002352,0.034662,-0.509976,-0.030901,-0.776221,-263.891687,0.606023,62.547646
0.2763,0.05028,4.8e-05,-0.0307,-0.003472,0.002963,0.002578,0.03592,-0.510716,-0.028647,-0.851542,-263.891687,0.530701,62.547646
0.2965,0.050811,-0.000555,-0.028324,-0.003513,0.003031,0.00286,0.034736,-0.509798,-0.030524,-0.851542,-263.891687,0.530701,62.547646
0.3163,0.050661,-0.000769,-0.029737,-0.003547,0.003092,0.003088,0.034736,-0.509798,-0.030524,-0.851542,-263.891687,0.530701,62.547646
0.3364,0.050487,-0.000134,-0.031817,-0.003575,0.003146,0.003273,0.035497,-0.510543,-0.029737,-0.917606,-263.891687,0.456,62.547646
0.3566,0.050662,-0.000332,-0.030564,-0.0036,0.003209,0.003501,0.03499,-0.510269,-0.030592,-0.917606,-263.891687,0.456,62.547646
0.3764,0.050659,-0.000564,-0.030709,-0.003621,0.003264,0.003688,0.035077,-0.510093,-0.030564,-0.963495,-263.891687,0.381025,62.547646
0.3962,0.050566,-0.00013,-0.029793,-0.003639,0.003313,0.003898,0.035006,-0.510304,-0.030697,-0.963495,-263.891687,0.381025,62.547646
0.4167,0.050443,-0.000462,-0.02927,-0.003654,0.003356,0.00407,0.035006,-0.510304,-0.030697,-0.963495,-263.891687,0.381025,62.547646
0.4363,0.050012,-0.000312,-0.031042,-0.003666,0.003394,0.004211,0.035518,-0.510244,-0.02927,-0.989891,-263.891689,0.305997,62.547645
0.4561,0.050474,-0.000668,-0.030325,-0.003676,0.003424,0.004397,0.034986,-0.510173,-0.029976,-0.989891,-263.891689,0.305997,62.547645
0.4765,0.050812,-0.000202,-0.029614,-0.003684,0.003451,0.004549,0.03501,-0.510433,-0.030323,-1.019829,-263.891715,0.231044,62.547631
0.4967,0.050488,-0.00017,-0.02949,-0.003691,0.00347,0.004674,0.03565,-0.510017,-0.029675,-1.019829,-263.891715,0.231044,62.547631
0.5163,0.050501,-0.000763,-0.029193,-0.003697,0.003488,0.004776,0.03565,-0.510017,-0.029675,-1.019829,-263.891715,0.231044,62.547631
0.5363,0.05027,-0.000528,-0.030413,-0.003702,0.003503,0.004861,0.035606,-0.510539,-0.029179,-1.036667,-263.891893,0.156018,62.547539
0.5569,0.050384,-0.000431,-0.029649,-0.003707,0.003529,0.00493,0.035258,-0.510437,-0.029684,-1.036667,-263.891893,0.156018,62.547539
0.576,0.05011,-0.000458,-0.03012,-0.003712,0.003552,0.004988,0.035238,-0.510184,-0.029608,-1.051184,-263.892585,0.080966,62.547192
0.5962,0.050624,2.6e-05,-0.02994,-0.003715,0.003564,0.005034,0.034792,-0.510221,-0.030073,-1.051184,-263.892585,0.080966,62.547192
0.616,0.05039,-0.000573,-0.031262,-0.003717,0.003575,0.005072,0.034792,-0.510221,-0.030073,-1.051184,-263.892585,0.080966,62.547192
0.6362,0.050123,-0.000441,-0.029039,-0.003719,0.003585,0.005104,0.034378,-0.510257,-0.031156,-1.058358,-263.894004,0.00603,62.546489
0.6564,0.050103,-0.000152,-0.029403,-0.003721,0.003594,0.00513,0.03475,-0.510237,-0.030284,-1.058358,-263.894004,0.00603,62.546489
0.6764,0.050013,-0.000133,-0.029776,-0.003722,0.003602,0.005151,0.035022,-0.509844,-0.029275,-1.064189,-263.896334,-0.068861,62.54535
0.6964,0.049846,-0.000131,-0.030983,-0.003722,0.003599,0.005168,0.034842,-0.509897,-0.029728,-1.064189,-263.896334,-0.068861,62.54535
0.7165,0.049834,-0.000255,-0.029768,-0.003722,0.003597,0.005183,0.034842,-0.509897,-0.029728,-1.064189,-263.896334,-0.068861,62.54535
0.7363,0.049463,0.000179,-0.028509,-0.003722,0.003595,0.005195,0.03451,-0.50988,-0.029561,-1.066715,-263.899275,-0.121751,62.543919
0.7563,0.049704,4.5e-05,-0.029207,-0.003722,0.003591,0.00525,0.034659,-0.509757,-0.029117,-1.066715,-263.899275,-0.121751,62.543919
0.7761,0.049378,0.000368,-0.0295,-0.003722,0.003587,0.005295,0.034695,-0.50962,-0.029042,-1.067936,-263.902366,-0.113085,62.54242
0.7965,0.049157,0.000506,-0.030335,-0.00372,0.003572,0.005349,0.034361,-0.509423,-0.029453,-1.067936,-263.902366,-0.113085,62.54242
0.8163,0.049374,0.00023,-0.027988,-0.003719,0.003559,0.005394,0.034361,-0.509423,-0.029453,-1.067936,-263.902366,-0.113085,62.54242
0.8362,0.048962,0.000775,-0.030015,-0.003719,0.003549,0.00543,0.034951,-0.509417,-0.027768,-1.071307,-263.905455,-0.094683,62.540933
0.8563,0.049062,0.000109,-0.030207,-0.003717,0.003535,0.005478,0.034404,-0.509227,-0.028662,-1.071307,-263.905455,-0.094683,62.540933
0.8767,0.048667,0.00072,-0.028754,-0.003716,0.003524,0.005517,0.033546,-0.509544,-0.030037,-1.074419,-263.908529,-0.062521,62.539467
0.8964,0.048321,0.000524,-0.029562,-0.003715,0.003509,0.005567,0.03396,-0.509104,-0.028856,-1.074419,-263.908529,-0.062521,62.539467
0.9162,0.048928,0.00079,-0.028875,-0.003714,0.003498,0.005608,0.03396,-0.509104,-0.028856,-1.074419,-263.908529,-0.062521,62.539467
0.9361,0.048388,0.000758,-0.028637,-0.003714,0.003488,0.005642,0.034053,-0.508847,-0.028646,-1.076343,-263.911634,-0.04148,62.537992
0.9561,0.048384,0.000633,-0.029436,-0.003713,0.003474,0.005688,0.033927,-0.508905,-0.028616,-1.076343,-263.911634,-0.04148,62.537992
0.9764,0.048185,0.000871,-0.028106,-0.003712,0.003462,0.005725,0.03326,-0.509033,-0.029259,-1.079063,-263.914734,-0.011358,62.536528
0.9964,0.048062,0.000984,-0.028704,-0.003711,0.003452,0.005773,0.033794,-0.508931,-0.0282,-1.079063,-263.914734,-0.011358,62.536528
1.0163,0.048094,0.000725,-0.028565,-0.003711,0.003445,0.005813,0.033794,-0.508931,-0.0282,-1.079063,-263.914734,-0.011358,62.536528
1.0363,0.047885,0.001117,-0.028002,-0.003711,0.003439,0.005845,0.033378,-0.508918,-0.028326,-1.080742,-263.917867,0.009376,62.535053
1.0572,0.047742,0.001425,-0.028233,-0.003711,0.003429,0.005888,0.033453,-0.508806,-0.028167,-1.080742,-263.917867,0.009376,62.535053
1.0767,0.047497,0.001489,-0.027744,-0.00371,0.00342,0.005924,0.03323,-0.508259,-0.028047,-1.083804,-263.921005,0.035363,62.533584
1.0963,0.047225,0.00129,-0.027675,-0.003708,0.003397,0.005966,0.033333,-0.508304,-0.027762,-1.083804,-263.921005,0.035363,62.533584
1.1167,0.047145,0.001128,-0.027916,-0.003706,0.003378,0.006001,0.033333,-0.508304,-0.027762,-1.083804,-263.921005,0.035363,62.533584
1.1366,0.04703,0.001251,-0.027701,-0.003705,0.003363,0.006029,0.032759,-0.508526,-0.027668,-1.085651,-263.924171,0.053223,62.532106
1.1562,0.047203,0.00165,-0.027398,-0.003705,0.003355,0.006063,0.0328,-0.50852,-0.027653,-1.085651,-263.924171,0.053223,62.532106
1.1764,0.04669,0.001282,-0.028057,-0.003705,0.003349,0.006091,0.033119,-0.50805,-0.02721,-1.086687,-263.927305,0.086032,62.530641
1.1963,0.047019,0.001352,-0.027399,-0.003704,0.003342,0.00612,0.03244,-0.508472,-0.027976,-1.086687,-263.927305,0.086032,62.530641
1.2164,0.046723,0.001501,-0.028957,-0.003704,0.003335,0.006143,0.03244,-0.508472,-0.027976,-1.086687,-263.927305,0.086032,62.530641
1.2366,0.0464,0.001429,-0.026679,-0.003704,0.00333,0.006163,0.031807,-0.508141,-0.028703,-1.088124,-263.930488,0.099775,62.529157
1.2568,0.046761,0.002035,-0.02739,-0.003703,0.003317,0.006182,0.032194,-0.508226,-0.027845,-1.088124,-263.930488,0.099775,62.529157
1.2762,0.046062,0.001992,-0.027793,-0.003702,0.003306,0.006197,0.03268,-0.507665,-0.027195,-1.089566,-263.933674,0.116668,62.527672
1.2966,0.04593,0.002232,-0.02698,-0.003699,0.003283,0.006212,0.031951,-0.507793,-0.027732,-1.089566,-263.933674,0.116668,62.527672
1.3163,0.046302,0.001924,-0.027111,-0.003697,0.003263,0.006224,0.031951,-0.507793,-0.027732,-1.089566,-263.933674,0.116668,62.527672
1.3367,0.045767,0.002073,-0.025047,-0.003695,0.003247,0.006235,0.032327,-0.507747,-0.026853,-1.089658,-263.936862,0.128584,62.526184
1.3565,0.045604,0.001955,-0.026975,-0.003694,0.003236,0.006246,0.032581,-0.507739,-0.026087,-1.089658,-263.936862,0.128584,62.526184
1.3764,0.045257,0.002304,-0.025654,-0.003693,0.003226,0.006256,0.031734,-0.507754,-0.026777,-1.088372,-263.940023,0.150565,62.524701
1.3965,0.045697,0.002425,-0.027199,-0.003691,0.003211,0.006266,0.032129,-0.507543,-0.025746,-1.088372,-263.940023,0.150565,62.524701
1.4163,0.045307,0.002445,-0.026123,-0.00369,0.003199,0.006274,0.032129,-0.507543,-0.025746,-1.088372,-263.940023,0.150565,62.524701
1.4363,0.045406,0.002707,-0.027426,-0.003689,0.003188,0.006281,0.031834,-0.507242,-0.025861,-1.088097,-263.943201,0.159586,62.523207
1.4562,0.044826,0.00214,-0.025764,-0.003685,0.003165,0.006288,0.031649,-0.507169,-0.026468,-1.088097,-263.943201,0.159586,62.523207
1.4762,0.044617,0.002452,-0.025844,-0.003683,0.003145,0.006294,0.031573,-0.507586,-0.025564,-1.087229,-263.946364,0.173939,62.521714
1.4968,0.044825,0.002791,-0.025551,-0.003682,0.003137,0.006302,0.031445,-0.507391,-0.025809,-1.087229,-263.946364,0.173939,62.521714
1.5163,0.044612,0.002542,-0.025111,-0.003681,0.003129,0.006308,0.031445,-0.507391,-0.025809,-1.087229,-263.946364,0.173939,62.521714
1.5363,0.044653,0.002511,-0.02419,-0.003681,0.003123,0.006314,0.031656,-0.507162,-0.024848,-1.08589,-263.949519,0.187557,62.520217
1.5569,0.04429,0.00286,-0.026082,-0.00368,0.003116,0.00632,0.03191,-0.507219,-0.024548,-1.08589,-263.949519,0.187557,62.520217
1.5768,0.044289,0.00327,-0.025456,-0.00368,0.003109,0.006325,0.030876,-0.506864,-0.025882,-1.085492,-263.952667,0.196492,62.518719
1.5963,0.043917,0.003086,-0.022831,-0.003674,0.00308,0.006329,0.031263,-0.506586,-0.025484,-1.085492,-263.952667,0.196492,62.518719
1.6165,0.044,0.003184,-0.024239,-0.00367,0.003055,0.006333,0.031263,-0.506586,-0.025484,-1.085492,-263.952667,0.196492,62.518719
1.6365,0.043466,0.002894,-0.02203,-0.003667,0.003035,0.006336,0.031488,-0.506532,-0.023974,-1.085199,-263.955819,0.202007,62.517218
1.6567,0.043542,0.003467,-0.025376,-0.003666,0.003026,0.006341,0.031774,-0.5067,-0.023151,-1.085199,-263.955819,0.202007,62.517218
1.6764,0.043207,0.003053,-0.023643,-0.003666,0.003019,0.006345,0.030488,-0.50627,-0.025176,-1.08258,-263.958922,0.223854,62.515725
1.6966,0.043183,0.003445,-0.024936,-0.003665,0.003012,0.006349,0.031086,-0.506752,-0.023769,-1.08258,-263.958922,0.223854,62.515725
1.7167,0.04339,0.00312,-0.024106,-0.003664,0.003005,0.006353,0.031086,-0.506752,-0.023769,-1.08258,-263.958922,0.223854,62.515725
1.7361,0.043205,0.003312,-0.021694,-0.003664,0.003,0.006356,0.030947,-0.506602,-0.023841,-1.082125,-263.962048,0.229355,62.514218
1.7563,0.043165,0.003305,-0.022708,-0.003663,0.002992,0.006359,0.031419,-0.506573,-0.022932,-1.082125,-263.962048,0.229355,62.514218
1.7764,0.042736,0.003552,-0.025041,-0.003662,0.002985,0.006362,0.031471,-0.506466,-0.022506,-1.08157,-263.965167,0.23623,62.512711
1.7964,0.042797,0.003611,-0.024308,-0.003657,0.002962,0.006363,0.030085,-0.506298,-0.024821,-1.08157,-263.965167,0.23623,62.512711
1.8164,0.042626,0.003686,-0.022358,-0.003654,0.002943,0.006365,0.030085,-0.506298,-0.024821,-1.08157,-263.965167,0.23623,62.512711
1.8362,0.042475,0.003959,-0.022385,-0.003651,0.002927,0.006366,0.031074,-0.506059,-0.022093,-1.081096,-263.968276,0.241077,62.511205
1.8563,0.042251,0.00392,-0.024313,-0.003648,0.002911,0.006368,0.031051,-0.505984,-0.022182,-1.081096,-263.968276,0.241077,62.511205
1.877,0.042148,0.003766,-0.022906,-0.003646,0.002898,0.00637,0.029739,-0.505834,-0.024112,-1.078983,-263.971356,0.257384,62.509701
1.8968,0.041834,0.003754,-0.023545,-0.003644,0.002886,0.006372,0.030398,-0.506072,-0.023001,-1.078983,-263.971356,0.257384,62.509701
1.9166,0.041957,0.003793,-0.022314,-0.003643,0.002875,0.006374,0.030398,-0.506072,-0.023001,-1.078983,-263.971356,0.257384,62.509701
1.9363,0.041356,0.004156,-0.02362,-0.003641,0.002867,0.006375,0.030428,-0.505956,-0.022048,-1.077887,-263.974431,0.265778,62.508193
1.9567,0.041596,0.004145,-0.023366,-0.003638,0.00285,0.006376,0.029958,-0.505838,-0.022655,-1.077887,-263.974431,0.265778,62.508193
1.9759,0.040966,0.004155,-0.021941,-0.003635,0.002836,0.006377,0.029567,-0.505622,-0.023164,-1.076736,-263.977502,0.274813,62.50668
1.9961,0.041495,0.004209,-0.022871,-0.003632,0.002819,0.006378,0.029754,-0.505709,-0.022036,-1.076736,-263.977502,0.274813,62.50668
2.0165,0.041657,0.004298,-0.020799,-0.003629,0.002806,0.006379,0.029754,-0.505709,-0.022036,-1.076736,-263.977502,0.274813,62.50668
2.0361,0.040897,0.004061,-0.022317,-0.003627,0.002794,0.00638,0.030901,-0.50547,-0.020533,-1.075573,-263.980558,0.283444,62.505167
2.0561,0.040862,0.004385,-0.022615,-0.003626,0.002785,0.006381,0.030315,-0.505596,-0.021235,-1.075573,-263.980558,0.283444,62.505167
2.0759,0.040696,0.004631,-0.022908,-0.003625,0.002777,0.006383,0.029216,-0.505394,-0.022413,-1.074001,-263.983596,0.295084,62.503653
2.0962,0.040624,0.004481,-0.021902,-0.003618,0.002749,0.006382,0.029025,-0.505244,-0.022856,-1.074001,-263.983596,0.295084,62.503653
2.1161,0.040705,0.004456,-0.021711,-0.003613,0.002726,0.006382,0.029025,-0.505244,-0.022856,-1.074001,-263.983596,0.295084,62.503653
2.1362,0.040431,0.004836,-0.020275,-0.003609,0.002707,0.006383,0.029485,-0.505305,-0.021444,-1.073344,-263.986629,0.299954,62.502139
2.1563,0.040565,0.00468,-0.021678,-0.003607,0.002696,0.006384,0.029715,-0.505191,-0.020935,-1.073344,-263.986629,0.299954,62.502139
2.176,0.039921,0.005052,-0.02146,-0.003605,0.002686,0.006385,0.029397,-0.505112,-0.021476,-1.070736,-263.989622,0.318867,62.500627
2.1962,0.039749,0.004967,-0.019047,-0.0036,0.002662,0.006385,0.02901,-0.504851,-0.021451,-1.070736,-263.989622,0.318867,62.500627
2.2162,0.039885,0.004845,-0.021197,-0.003595,0.002641,0.006385,0.02901,-0.504851,-0.021451,-1.070736,-263.989622,0.318867,62.500627
2.2361,0.03929,0.005006,-0.020087,-0.003591,0.002624,0.006385,0.028927,-0.504925,-0.02093,-1.069913,-263.992628,0.324629,62.499104
2.2561,0.039719,0.004789,-0.019703,-0.003589,0.002612,0.006386,0.028959,-0.504898,-0.020552,-1.069913,-263.992628,0.324629,62.499104
2.276,0.039457,0.005225,-0.020035,-0.003587,0.002603,0.006387,0.029559,-0.505027,-0.019502,-1.06761,-263.995594,0.341349,62.497587
2.2962,0.039321,0.005104,-0.019152,-0.003585,0.00259,0.006388,0.029261,-0.504698,-0.019981,-1.06761,-263.995594,0.341349,62.497587
2.3163,0.039292,0.005109,-0.01953,-0.003583,0.00258,0.006388,0.029261,-0.504698,-0.019981,-1.06761,-263.995594,0.341349,62.497587
2.3365,0.038883,0.005276,-0.019545,-0.003581,0.002572,0.006389,0.029185,-0.504682,-0.019263,-1.066744,-263.998564,0.347291,62.496061
2.3564,0.038987,0.004981,-0.020568,-0.00358,0.002562,0.00639,0.029057,-0.504646,-0.019348,-1.066744,-263.998564,0.347291,62.496061
2.3764,0.038662,0.004942,-0.018255,-0.003578,0.002554,0.00639,0.028387,-0.504828,-0.020365,-1.065484,-264.001514,0.35574,62.494537
2.3962,0.038385,0.005164,-0.018511,-0.00358,0.00256,0.006391,0.02926,-0.504956,-0.018434,-1.065484,-264.001514,0.35574,62.494537
2.4165,0.038472,0.005536,-0.019787,-0.003582,0.002566,0.006391,0.02926,-0.504956,-0.018434,-1.065484,-264.001514,0.35574,62.494537
2.4364,0.03842,0.0057,-0.019216,-0.003584,0.00257,0.006391,0.028233,-0.504254,-0.019519,-1.064766,-264.004466,0.360489,62.493008
2.4565,0.038249,0.004931,-0.01978,-0.003576,0.002541,0.00639,0.028374,-0.504222,-0.019365,-1.064766,-264.004466,0.360489,62.493008
2.4761,0.037652,0.005356,-0.018249,-0.003569,0.002517,0.00639,0.02805,-0.504885,-0.019577,-1.06521,-264.007425,0.356226,62.49148
2.4966,0.037944,0.005708,-0.018266,-0.003568,0.00251,0.00639,0.028315,-0.504583,-0.018354,-1.06521,-264.007425,0.356226,62.49148
2.5167,0.037988,0.005796,-0.018169,-0.003567,0.002504,0.006389,0.028315,-0.504583,-0.018354,-1.06521,-264.007425,0.356226,62.49148
2.5362,0.037832,0.005562,-0.020138,-0.003566,0.0025,0.006389,0.028574,-0.504011,-0.017901,-1.063332,-264.010353,0.37039,62.489953
2.5567,0.037618,0.006272,-0.017852,-0.00356,0.002478,0.006389,0.028157,-0.504127,-0.018757,-1.063332,-264.010353,0.37039,62.489953
2.576,0.037348,0.006066,-0.017556,-0.003555,0.00246,0.006389,0.028401,-0.503565,-0.017648,-1.062819,-264.013283,0.373561,62.488422
2.5964,0.037029,0.006087,-0.017941,-0.003549,0.002439,0.006387,0.02839,-0.503824,-0.017554,-1.062819,-264.013283,0.373561,62.488422
2.6164,0.037431,0.006026,-0.017466,-0.003545,0.002421,0.006385,0.02839,-0.503824,-0.017554,-1.062819,-264.013283,0.373561,62.488422
2.6367,0.036602,0.005632,-0.01633,-0.003541,0.002406,0.006384,0.028376,-0.50379,-0.017198,-1.061235,-264.016198,0.385243,62.486888
2.6568,0.03695,0.00597,-0.017711,-0.003539,0.002399,0.006382,0.028318,-0.503984,-0.016816,-1.061235,-264.016198,0.385243,62.486888
2.676,0.03661,0.005681,-0.01793,-0.003538,0.002394,0.006381,0.027805,-0.503871,-0.017506,-1.059109,-264.019083,0.399134,62.485355
2.6964,0.036307,0.006075,-0.018878,-0.003537,0.002389,0.006383,0.027491,-0.504201,-0.017883,-1.059109,-264.019083,0.399134,62.485355
2.716,0.037021,0.006109,-0.016623,-0.003536,0.002384,0.006384,0.027491,-0.504201,-0.017883,-1.059109,-264.019083,0.399134,62.485355
2.7362,0.035731,0.006717,-0.015981,-0.003535,0.002381,0.006385,0.028398,-0.503718,-0.016357,-1.058468,-264.021968,0.401733,62.483818
2.7566,0.036187,0.006493,-0.018392,-0.00353,0.00236,0.006381,0.028045,-0.503501,-0.016172,-1.058468,-264.021968,0.401733,62.483818
2.7761,0.036017,0.006845,-0.017543,-0.003525,0.002344,0.006378,0.026696,-0.503343,-0.018189,-1.058123,-264.024853,0.40584,62.482278
2.7963,0.03565,0.006561,-0.016854,-0.003512,0.002304,0.006377,0.027034,-0.503095,-0.017587,-1.058123,-264.024853,0.40584,62.482278
2.8166,0.036066,0.006549,-0.017854,-0.003502,0.002271,0.006377,0.027034,-0.503095,-0.017587,-1.058123,-264.024853,0.40584,62.482278
2.836,0.03561,0.006586,-0.015402,-0.003494,0.002244,0.006378,0.026816,-0.50327,-0.017588,-1.056505,-264.027712,0.414635,62.480741
2.8561,0.035354,0.00673,-0.015723,-0.003491,0.002232,0.006377,0.027186,-0.503293,-0.016656,-1.056505,-264.027712,0.414635,62.480741
2.8759,0.03517,0.006746,-0.016294,-0.003488,0.002221,0.006376,0.027226,-0.503135,-0.015522,-1.053396,-264.030503,0.441347,62.479215
2.8968,0.035387,0.006928,-0.017604,-0.003484,0.002206,0.006374,0.026888,-0.503178,-0.016214,-1.053396,-264.030503,0.441347,62.479215
2.9163,0.035362,0.006906,-0.017255,-0.003481,0.002193,0.006373,0.026888,-0.503178,-0.016214,-1.053396,-264.030503,0.441347,62.479215
2.9363,0.034696,0.00676,-0.016131,-0.003478,0.002183,0.006373,0.026418,-0.502923,-0.016988,-1.052437,-264.033317,0.44727,62.477668
2.9567,0.034732,0.006627,-0.016505,-0.003472,0.002163,0.006372,0.026422,-0.503014,-0.01661,-1.052437,-264.033317,0.44727,62.477668
2.9764,0.034771,0.006506,-0.016585,-0.003467,0.002147,0.006372,0.026205,-0.503232,-0.016302,-1.050849,-264.036113,0.456738,62.47612
2.9967,0.034344,0.006839,-0.014799,-0.003467,0.002146,0.006373,0.026298,-0.503403,-0.016549,-1.050849,-264.036113,0.456738,62.47612
3.0169,0.034491,0.007025,-0.014299,-0.003467,0.002145,0.006374,0.026298,-0.503403,-0.016549,-1.050849,-264.036113,0.456738,62.47612
3.0364,0.034248,0.007337,-0.016157,-0.003467,0.002145,0.006375,0.027055,-0.50283,-0.014031,-1.049656,-264.038894,0.466365,62.47457
3.0564,0.034048,0.006578,-0.016556,-0.003462,0.002126,0.006368,0.026624,-0.502727,-0.014842,-1.049656,-264.038894,0.466365,62.47457
3.076,0.033905,0.007191,-0.013964,-0.003457,0.00211,0.006362,0.025495,-0.503282,-0.016353,-1.049534,-264.04168,0.467198,62.473016
3.0967,0.0334,0.007188,-0.016043,-0.003454,0.002101,0.006352,0.026664,-0.502802,-0.014165,-1.049534,-264.04168,0.467198,62.473016
3.1163,0.034128,0.007066,-0.016272,-0.003452,0.002094,0.006344,0.026664,-0.502802,-0.014165,-1.049534,-264.04168,0.467198,62.473016
3.1366,0.033685,0.006972,-0.014957,-0.003451,0.002088,0.006338,0.025686,-0.502776,-0.016006,-1.047783,-264.044445,0.474448,62.471464
3.1568,0.03325,0.007715,-0.014185,-0.003446,0.002073,0.006342,0.02582,-0.502845,-0.01555,-1.047783,-264.044445,0.474448,62.471464
3.1765,0.033105,0.007784,-0.014085,-0.003442,0.002061,0.006346,0.025906,-0.502165,-0.013983,-1.045875,-264.047204,0.47693,62.469907
3.1962,0.033228,0.007309,-0.014175,-0.003431,0.00203,0.006336,0.025914,-0.502162,-0.014066,-1.045875,-264.047204,0.47693,62.469907
3.2164,0.033438,0.007421,-0.014222,-0.003422,0.002004,0.006329,0.025914,-0.502162,-0.014066,-1.045875,-264.047204,0.47693,62.469907
3.2364,0.032946,0.007626,-0.015656,-0.003414,0.001983,0.006324,0.026042,-0.502439,-0.013957,-1.045407,-264.04994,0.485377,62.468356
3.2566,0.032996,0.007602,-0.014798,-0.003409,0.001968,0.006326,0.025589,-0.502377,-0.014614,-1.045407,-264.04994,0.485377,62.468356
3.2764,0.032349,0.008059,-0.01376,-0.003405,0.001955,0.006327,0.025342,-0.502278,-0.014598,-1.042124,-264.052639,0.503305,62.466802
3.2965,0.0327,0.007693,-0.014746,-0.003395,0.001927,0.006319,0.025327,-0.501922,-0.013821,-1.042124,-264.052639,0.503305,62.466802
3.3168,0.032172,0.007676,-0.013419,-0.003386,0.001904,0.006312,0.025327,-0.501922,-0.013821,-1.042124,-264.052639,0.503305,62.466802
3.3363,0.031913,0.007205,-0.013543,-0.00338,0.001884,0.006308,0.025187,-0.502195,-0.013155,-1.041418,-264.055328,0.510968,62.465245
3.3567,0.032562,0.007515,-0.01324,-0.00338,0.001884,0.006298,0.025098,-0.502409,-0.013281,-1.041418,-264.055328,0.510968,62.465245
3.3761,0.032096,0.007666,-0.012702,-0.003381,0.001883,0.006291,0.025703,-0.502379,-0.013039,-1.038428,-264.057983,0.527372,62.463686
3.3964,0.031901,0.007883,-0.013537,-0.003383,0.001885,0.006276,0.02562,-0.502297,-0.012722,-1.038428,-264.057983,0.527372,62.463686
3.4165,0.031765,0.007804,-0.014268,-0.003385,0.001886,0.006265,0.02562,-0.502297,-0.012722,-1.038428,-264.057983,0.527372,62.463686
3.4364,0.031849,0.008143,-0.012647,-0.003386,0.001888,0.006256,0.024348,-0.502063,-0.014004,-1.037344,-264.060639,0.525194,62.462125
3.4567,0.031775,0.00785,-0.013375,-0.003377,0.001865,0.006258,0.024758,-0.501954,-0.013424,-1.037344,-264.060639,0.525194,62.462125
3.4762,0.031599,0.007778,-0.011414,-0.00337,0.001846,0.00626,0.024847,-0.502042,-0.013175,-1.0354,-264.063296,0.518769,62.460564
3.4967,0.031498,0.007839,-0.011841,-0.003374,0.001853,0.006219,0.025693,-0.502173,-0.011556,-1.0354,-264.063296,0.518769,62.460564
3.5165,0.031466,0.008141,-0.012117,-0.003378,0.001858,0.006187,0.025693,-0.502173,-0.011556,-1.0354,-264.063296,0.518769,62.460564
3.5363,0.030969,0.007939,-0.011098,-0.003381,0.001862,0.006163,0.025146,-0.501742,-0.011855,-1.03447,-264.065927,0.530553,62.459005
3.5562,0.031326,0.007887,-0.012813,-0.003376,0.001848,0.006142,0.025196,-0.50185,-0.011518,-1.03447,-264.065927,0.530553,62.459005
3.5763,0.030257,0.008091,-0.012342,-0.003372,0.001836,0.006125,0.024686,-0.502011,-0.012618,-1.029755,-264.068539,0.512528,62.457461
3.5965,0.030848,0.008044,-0.012194,-0.003362,0.00181,0.006135,0.024019,-0.50188,-0.012356,-1.029755,-264.068539,0.512528,62.457461
3.6164,0.030055,0.008143,-0.011722,-0.003353,0.001789,0.006143,0.024019,-0.50188,-0.012356,-1.029755,-264.068539,0.512528,62.457461
3.6367,0.030274,0.008392,-0.012955,-0.003347,0.001772,0.006149,0.023937,-0.501744,-0.011466,-1.026933,-264.071141,0.514137,62.455915
3.6564,0.030151,0.008122,-0.011288,-0.003337,0.001747,0.006145,0.023811,-0.501662,-0.012041,-1.026933,-264.071141,0.514137,62.455915
3.6768,0.029891,0.008318,-0.011101,-0.003329,0.001727,0.006142,0.024289,-0.501788,-0.011093,-1.026395,-264.073708,0.535126,62.45437
3.697,0.030205,0.008625,-0.010726,-0.003326,0.001717,0.006105,0.024229,-0.50166,-0.01109,-1.026395,-264.073708,0.535126,62.45437
3.7167,0.03011,0.008201,-0.009642,-0.003323,0.001709,0.006077,0.024229,-0.50166,-0.01109,-1.026395,-264.073708,0.535126,62.45437
3.7365,0.029377,0.008569,-0.012001,-0.003321,0.001703,0.006056,0.025054,-0.501702,-0.009386,-1.024785,-264.076267,0.546432,62.452814
3.7564,0.029254,0.008332,-0.01016,-0.003318,0.001696,0.006002,0.024308,-0.501568,-0.010418,-1.024785,-264.076267,0.546432,62.452814
3.7762,0.029227,0.008999,-0.009675,-0.003316,0.00169,0.005961,0.023967,-0.501586,-0.009968,-1.019514,-264.078801,0.541168,62.451266
3.7968,0.029276,0.008411,-0.011466,-0.003306,0.001667,0.005876,0.024258,-0.501029,-0.009691,-1.019514,-264.078801,0.541168,62.451266
3.8163,0.029344,0.008565,-0.012655,-0.003297,0.001647,0.005811,0.024258,-0.501029,-0.009691,-1.019514,-264.078801,0.541168,62.451266
3.8362,0.029099,0.008414,-0.010559,-0.00329,0.00163,0.005762,0.022752,-0.501322,-0.012406,-1.014287,-264.081307,0.531707,62.44973
3.8564,0.029086,0.008637,-0.0102,-0.003283,0.00161,0.005826,0.023127,-0.501409,-0.011626,-1.014287,-264.081307,0.531707,62.44973
3.8767,0.028618,0.00836,-0.008967,-0.003277,0.001593,0.005877,0.02378,-0.501284,-0.010017,-1.002252,-264.083742,0.52117,62.448218
3.8972,0.028942,0.0091,-0.010061,-0.003278,0.001603,0.005755,0.024015,-0.501585,-0.009055,-1.002252,-264.083742,0.52117,62.448218
3.9165,0.028995,0.008892,-0.011135,-0.00328,0.001611,0.005663,0.024015,-0.501585,-0.009055,-1.002252,-264.083742,0.52117,62.448218
3.9366,0.028158,0.008692,-0.009835,-0.003282,0.001617,0.005595,0.023182,-0.501008,-0.010891,-1.007024,-264.086165,0.547156,62.446702
3.9568,0.028332,0.008851,-0.009536,-0.003272,0.001589,0.005643,0.02315,-0.501111,-0.010439,-1.007024,-264.086165,0.547156,62.446702
3.9761,0.028416,0.008765,-0.009332,-0.003263,0.001567,0.005681,0.023368,-0.501075,-0.009363,-0.993049,-264.08849,0.501797,62.445254
3.9969,0.028044,0.008949,-0.009585,-0.00326,0.001561,0.00563,0.023628,-0.501199,-0.009326,-0.993049,-264.08849,0.501797,62.445254
4.0167,0.028037,0.00894,-0.010908,-0.003258,0.001556,0.005592,0.023628,-0.501199,-0.009326,-0.993049,-264.08849,0.501797,62.445254
4.0365,0.027599,0.009064,-0.008691,-0.003257,0.001551,0.005563,0.02234,-0.500964,-0.010673,-0.995938,-264.090863,0.527869,62.44376
4.0566,0.02762,0.008963,-0.010308,-0.003244,0.001523,0.005577,0.022664,-0.500937,-0.009832,-0.995938,-264.090863,0.527869,62.44376
4.0764,0.027353,0.009194,-0.00988,-0.003234,0.001499,0.005589,0.02226,-0.50096,-0.010132,-0.988786,-264.093226,0.515659,62.442267
4.0963,0.02754,0.008982,-0.008899,-0.00322,0.001469,0.0056,0.022304,-0.500794,-0.009893,-0.988786,-264.093226,0.515659,62.442267
4.1163,0.027217,0.008833,-0.009055,-0.003209,0.001443,0.005608,0.022304,-0.500794,-0.009893,-0.988786,-264.093226,0.515659,62.442267
4.1366,0.027188,0.009125,-0.008865,-0.0032,0.001422,0.005615,0.022466,-0.501082,-0.008823,-0.98857,-264.095565,0.534423,62.440773
4.1568,0.026997,0.009155,-0.009789,-0.003195,0.001417,0.005527,0.022534,-0.500981,-0.008813,-0.98857,-264.095565,0.534423,62.440773
4.1761,0.02676,0.009199,-0.007841,-0.003191,0.001412,0.005461,0.021905,-0.500775,-0.009612,-0.987729,-264.097864,0.56019,62.439278
4.1961,0.026975,0.009014,-0.007639,-0.003182,0.001403,0.005314,0.022682,-0.500783,-0.007985,-0.987729,-264.097864,0.56019,62.439278
4.2167,0.026943,0.00895,-0.008626,-0.003175,0.001395,0.005205,0.022682,-0.500783,-0.007985,-0.987729,-264.097864,0.56019,62.439278
4.2366,0.026809,0.009452,-0.008399,-0.003169,0.001388,0.005124,0.022411,-0.500971,-0.008399,-0.97893,-264.100139,0.542428,62.437796
4.2569,0.026601,0.009081,-0.007672,-0.003165,0.00138,0.00511,0.022442,-0.500786,-0.008373,-0.97893,-264.100139,0.542428,62.437796
4.2761,0.026214,0.009403,-0.008147,-0.003161,0.001372,0.0051,0.022591,-0.50086,-0.007513,-0.959171,-264.102276,0.502509,62.436396
4.2965,0.026232,0.00921,-0.007653,-0.003151,0.001354,0.005056,0.0221,-0.500602,-0.008085,-0.959171,-264.102276,0.502509,62.436396
4.3161,0.026342,0.009566,-0.009495,-0.003143,0.001339,0.005024,0.0221,-0.500602,-0.008085,-0.959171,-264.102276,0.502509,62.436396
4.3362,0.026048,0.009598,-0.007948,-0.003136,0.001327,0.005,0.021368,-0.500353,-0.009282,-0.956994,-264.104472,0.503685,62.434952
4.3566,0.026139,0.009506,-0.009269,-0.003125,0.001299,0.005045,0.021611,-0.50036,-0.008709,-0.956994,-264.104472,0.503685,62.434952
4.3765,0.025921,0.009561,-0.008838,-0.003116,0.001277,0.00508,0.021312,-0.500429,-0.00911,-0.949483,-264.106622,0.503402,62.433523
4.3962,0.025982,0.009762,-0.007359,-0.003108,0.001256,0.005119,0.021399,-0.500418,-0.008855,-0.949483,-264.106622,0.503402,62.433523
4.4166,0.025667,0.009327,-0.007209,-0.003101,0.001239,0.005148,0.021399,-0.500418,-0.008855,-0.949483,-264.106622,0.503402,62.433523
4.4365,0.025363,0.009642,-0.007703,-0.003095,0.001225,0.005171,0.021862,-0.500606,-0.006999,-0.952451,-264.10875,0.530178,62.432094
4.4571,0.025617,0.009351,-0.007402,-0.003086,0.00122,0.004992,0.021671,-0.500491,-0.007264,-0.952451,-264.10875,0.530178,62.432094
4.4763,0.025053,0.00949,-0.007026,-0.003079,0.001215,0.00486,0.021745,-0.500596,-0.00724,-0.955952,-264.110876,0.558104,62.430648
4.4963,0.025447,0.009584,-0.00819,-0.003071,0.001208,0.004727,0.021487,-0.500503,-0.007035,-0.955952,-264.110876,0.558104,62.430648
4.5164,0.025625,0.009451,-0.005427,-0.003065,0.001203,0.004631,0.021487,-0.500503,-0.007035,-0.955952,-264.110876,0.558104,62.430648
4.5367,0.025185,0.009721,-0.007111,-0.003061,0.001199,0.004561,0.022733,-0.500492,-0.005231,-0.936255,-264.112878,0.517568,62.429282
4.5564,0.024819,0.008873,-0.005703,-0.003058,0.001203,0.004324,0.02224,-0.500394,-0.005974,-0.936255,-264.112878,0.517568,62.429282
4.5766,0.024801,0.009923,-0.005266,-0.003056,0.001207,0.004156,0.021817,-0.501081,-0.005562,-0.91576,-264.114826,0.478325,62.427946
4.5965,0.025037,0.009874,-0.006586,-0.003049,0.0012,0.003888,0.022083,-0.500159,-0.005286,-0.91576,-264.114826,0.478325,62.427946
4.6166,0.024284,0.009856,-0.006866,-0.003043,0.001195,0.0037,0.022083,-0.500159,-0.005286,-0.91576,-264.114826,0.478325,62.427946
4.6361,0.024427,0.009875,-0.008029,-0.003038,0.00119,0.003568,0.020666,-0.500084,-0.006706,-0.886456,-264.116599,0.410853,62.426723
4.6567,0.02447,0.009673,-0.006194,-0.003027,0.001158,0.003797,0.020516,-0.500089,-0.007227,-0.886456,-264.116599,0.410853,62.426723
4.676,0.024153,0.009917,-0.00568,-0.003017,0.001131,0.003969,0.021231,-0.500286,-0.006098,-0.837047,-264.118109,0.335852,62.425659
4.6965,0.024298,0.010168,-0.007036,-0.003007,0.00112,0.003846,0.02125,-0.50009,-0.005709,-0.837047,-264.118109,0.335852,62.425659
4.7163,0.024218,0.009545,-0.004952,-0.003,0.001111,0.003758,0.02125,-0.50009,-0.005709,-0.837047,-264.118109,0.335852,62.425659
4.7364,0.024237,0.009609,-0.005466,-0.002994,0.001104,0.003695,0.021578,-0.500405,-0.004801,-0.867144,-264.119807,0.40483,62.424464
4.7561,0.023911,0.010064,-0.005146,-0.002997,0.001114,0.003508,0.021512,-0.500391,-0.005053,-0.867144,-264.119807,0.40483,62.424464
4.7763,0.023955,0.009907,-0.005802,-0.003,0.001122,0.003375,0.021195,-0.499895,-0.005031,-0.84301,-264.121555,0.36769,62.423218
4.7964,0.023861,0.00987,-0.005506,-0.002992,0.001107,0.003418,0.021009,-0.500067,-0.005731,-0.84301,-264.121555,0.36769,62.423218
4.8162,0.023819,0.009926,-0.005356,-0.002986,0.001095,0.003449,0.021009,-0.500067,-0.005731,-0.84301,-264.121555,0.36769,62.423218
4.836,0.023673,0.009953,-0.006473,-0.002981,0.001084,0.003472,0.020972,-0.500023,-0.005226,-0.815074,-264.123176,0.303582,62.422053
4.8561,0.023749,0.010102,-0.004903,-0.002972,0.001069,0.003485,0.020708,-0.500023,-0.005732,-0.815074,-264.123176,0.303582,62.422053
4.8763,0.02328,0.009864,-0.006386,-0.002965,0.001056,0.003494,0.021155,-0.499858,-0.004795,-0.821606,-264.124892,0.334499,62.420816
4.8964,0.023216,0.009898,-0.005629,-0.002957,0.001038,0.003584,0.020119,-0.5001,-0.006238,-0.821606,-264.124892,0.334499,62.420816
4.9166,0.023248,0.010178,-0.006488,-0.002949,0.001023,0.003649,0.020119,-0.5001,-0.006238,-0.821606,-264.124892,0.334499,62.420816
4.9366,0.023223,0.010331,-0.005664,-0.002943,0.00101,0.003696,0.019816,-0.499767,-0.006342,-0.821917,-264.126629,0.348708,62.419558
4.9564,0.023316,0.009948,-0.006601,-0.002927,0.000984,0.003695,0.020013,-0.499718,-0.006049,-0.821917,-264.126629,0.348708,62.419558
4.9764,0.022863,0.009712,-0.005199,-0.002914,0.000961,0.003693,0.01986,-0.50001,-0.006488,-0.837626,-264.128308,0.400823,62.418337
4.9965,0.022884,0.009918,-0.004263,-0.002915,0.000966,0.003545,0.020177,-0.500256,-0.005304,-0.837626,-264.128308,0.400823,62.418337
5.0166,0.022601,0.010291,-0.005797,-0.002915,0.000969,0.003439,0.020177,-0.500256,-0.005304,-0.837626,-264.128308,0.400823,62.418337
5.0363,0.022803,0.009813,-0.004787,-0.002916,0.000972,0.003362,0.019523,-0.49966,-0.005643,-0.834653,-264.130034,0.417847,62.417069
5.0565,0.022846,0.010073,-0.005054,-0.002904,0.000953,0.003298,0.019851,-0.499868,-0.005276,-0.834653,-264.130034,0.417847,62.417069
5.0764,0.022629,0.010001,-0.004127,-0.002895,0.000938,0.003252,0.020183,-0.499891,-0.004955,-0.803868,-264.131592,0.355306,62.415916
5.0963,0.022194,0.010278,-0.006646,-0.002901,0.000943,0.002959,0.020491,-0.499984,-0.004194,-0.803868,-264.131592,0.355306,62.415916
5.1163,0.022454,0.010435,-0.00444,-0.002905,0.000947,0.002753,0.020491,-0.499984,-0.004194,-0.803868,-264.131592,0.355306,62.415916
5.1365,0.022435,0.009964,-0.002884,-0.002908,0.000951,0.002609,0.020069,-0.499521,-0.004304,-0.790239,-264.133228,0.34741,62.414692
5.1566,0.022037,0.010776,-0.006091,-0.002909,0.000946,0.002372,0.020421,-0.499726,-0.003709,-0.790239,-264.133228,0.34741,62.414692
5.1766,0.021511,0.01051,-0.004832,-0.002908,0.000942,0.002207,0.018866,-0.499195,-0.00603,-0.718745,-264.134316,0.272539,62.413853
5.1965,0.021775,0.01012,-0.005427,-0.002883,0.0009,0.00239,0.019028,-0.499459,-0.004931,-0.718745,-264.134316,0.272539,62.413853
5.2166,0.022056,0.010223,-0.005391,-0.002861,0.000864,0.002523,0.019028,-0.499459,-0.004931,-0.718745,-264.134316,0.272539,62.413853
5.2361,0.021721,0.010639,-0.004387,-0.002843,0.000834,0.00262,0.01922,-0.499743,-0.00532,-0.667124,-264.135377,0.197409,62.413011
5.2569,0.02189,0.010216,-0.004437,-0.002834,0.00082,0.002689,0.019318,-0.499582,-0.004931,-0.667124,-264.135377,0.197409,62.413011
5.2764,0.021733,0.010677,-0.004885,-0.002827,0.000809,0.002739,0.019545,-0.499755,-0.004361,-0.708241,-264.136737,0.2632,62.411942
5.2961,0.021806,0.009982,-0.004356,-0.002816,0.00079,0.00275,0.019265,-0.499355,-0.004834,-0.708241,-264.136737,0.2632,62.411942
5.3166,0.021649,0.010332,-0.003321,-0.002806,0.000774,0.002757,0.019265,-0.499355,-0.004834,-0.708241,-264.136737,0.2632,62.411942
5.3364,0.021563,0.010495,-0.003673,-0.002798,0.000761,0.002762,0.019839,-0.499632,-0.003209,-0.720327,-264.138212,0.296572,62.410783
5.3567,0.021229,0.010304,-0.003588,-0.002809,0.000772,0.002377,0.019765,-0.499575,-0.003384,-0.720327,-264.138212,0.296572,62.410783
5.3766,0.021404,0.010329,-0.005268,-0.002817,0.00078,0.002109,0.019311,-0.499668,-0.003501,-0.718853,-264.139686,0.319545,62.409614
5.3964,0.021417,0.010552,-0.004895,-0.002809,0.000767,0.002342,0.018774,-0.499663,-0.005079,-0.718853,-264.139686,0.319545,62.409614
5.4166,0.0211,0.010512,-0.005217,-0.002802,0.000756,0.002512,0.018774,-0.499663,-0.005079,-0.718853,-264.139686,0.319545,62.409614
5.4364,0.020992,0.010589,-0.003105,-0.002796,0.000747,0.002636,0.018364,-0.499462,-0.005156,-0.643866,-264.140589,0.244558,62.408875
5.457,0.021097,0.010829,-0.003715,-0.002786,0.000733,0.002548,0.01878,-0.499438,-0.004314,-0.643866,-264.140589,0.244558,62.408875
5.4763,0.02107,0.010433,-0.003433,-0.002777,0.000721,0.002484,0.019122,-0.499145,-0.003639,-0.700443,-264.141913,0.299371,62.407815
5.4966,0.020961,0.010684,-0.002548,-0.002784,0.000727,0.002199,0.019298,-0.499526,-0.003448,-0.700443,-264.141913,0.299371,62.407815
5.5168,0.02126,0.010298,-0.002798,-0.002789,0.000732,0.002,0.019298,-0.499526,-0.003448,-0.700443,-264.141913,0.299371,62.407815
5.5362,0.020701,0.010703,-0.003324,-0.002792,0.000736,0.001861,0.019719,-0.49967,-0.002695,-0.678247,-264.143319,0.279244,62.406676
5.5564,0.020838,0.010577,-0.003197,-0.0028,0.000743,0.001603,0.019415,-0.499514,-0.00294,-0.678247,-264.143319,0.279244,62.406676
5.5764,0.020688,0.010574,-0.002263,-0.002805,0.000748,0.001425,0.01915,-0.499406,-0.003155,-0.603294,-264.144201,0.20429,62.405936
5.5963,0.020825,0.010397,-0.003426,-0.002814,0.000753,0.001083,0.019497,-0.499422,-0.00234,-0.603294,-264.144201,0.20429,62.405936
5.6166,0.020807,0.010666,-0.004065,-0.002819,0.000758,0.000849,0.019497,-0.499422,-0.00234,-0.603294,-264.144201,0.20429,62.405936
5.6361,0.020435,0.010667,-0.003901,-0.002823,0.000762,0.000689,0.018664,-0.499314,-0.004024,-0.528246,-264.144972,0.129242,62.405267
5.6566,0.020576,0.010559,-0.004802,-0.002805,0.000738,0.001064,0.018567,-0.499319,-0.003969,-0.528246,-264.144972,0.129242,62.405267
5.6762,0.020374,0.010537,-0.004535,-0.002789,0.000718,0.001334,0.018102,-0.49943,-0.004792,-0.453292,-264.145312,0.054288,62.404952
5.6962,0.020184,0.010413,-0.004074,-0.002771,0.000694,0.001659,0.018063,-0.499455,-0.004556,-0.453292,-264.145312,0.054288,62.404952
5.7168,0.020184,0.010529,-0.003695,-0.002756,0.000674,0.001894,0.018063,-0.499455,-0.004556,-0.453292,-264.145312,0.054288,62.404952
5.7363,0.020076,0.010487,-0.003913,-0.002743,0.000658,0.002064,0.018188,-0.499439,-0.003641,-0.502526,-264.146527,0.034845,62.403886
5.7563,0.020647,0.010657,-0.003828,-0.002735,0.000647,0.001985,0.018132,-0.499463,-0.003743,-0.502526,-264.146527,0.034845,62.403886
5.776,0.020121,0.010474,-0.003269,-0.002728,0.000639,0.001927,0.018651,-0.499327,-0.003801,-0.577405,-264.147182,0.109724,62.403337
5.7964,0.020285,0.01069,-0.003727,-0.002731,0.000642,0.001761,0.018468,-0.499506,-0.003313,-0.577405,-264.147182,0.109724,62.403337
5.8166,0.019777,0.010529,-0.003662,-0.002733,0.000644,0.001644,0.018468,-0.499506,-0.003313,-0.577405,-264.147182,0.109724,62.403337
5.8367,0.019678,0.010868,-0.003941,-0.002734,0.000646,0.001561,0.017808,-0.499443,-0.003591,-0.587303,-264.148345,0.184855,62.40235
5.8567,0.01996,0.010397,-0.004172,-0.002718,0.000623,0.001616,0.017739,-0.499312,-0.003725,-0.587303,-264.148345,0.184855,62.40235
5.8764,0.020182,0.010822,-0.004298,-0.002705,0.000605,0.001655,0.017757,-0.499581,-0.004129,-0.52925,-264.149447,0.112009,62.401392
5.8967,0.019976,0.010359,-0.003147,-0.002694,0.000589,0.001819,0.017965,-0.499209,-0.004281,-0.52925,-264.149447,0.112009,62.401392
5.9162,0.019844,0.010858,-0.002673,-0.002684,0.000577,0.001937,0.017965,-0.499209,-0.004281,-0.52925,-264.149447,0.112009,62.401392
5.9361,0.019816,0.010909,-0.004491,-0.002676,0.000566,0.002019,0.01837,-0.499115,-0.002605,-0.538464,-264.150681,0.149104,62.400322
5.9562,0.019828,0.010796,-0.002999,-0.002671,0.000556,0.001835,0.01801,-0.4991,-0.003373,-0.538464,-264.150681,0.149104,62.400322
5.9761,0.019607,0.01074,-0.004099,-0.002667,0.000548,0.001705,0.018228,-0.499186,-0.002947,-0.591936,-264.151747,0.224237,62.39941
5.9966,0.019614,0.010742,-0.004213,-0.002657,0.000536,0.001782,0.017574,-0.499249,-0.003998,-0.591936,-264.151747,0.224237,62.39941
6.0165,0.019328,0.011063,-0.004596,-0.002649,0.000525,0.001836,0.017574,-0.499249,-0.003998,-0.591936,-264.151747,0.224237,62.39941
6.0365,0.019513,0.010738,-0.003794,-0.002643,0.000516,0.001875,0.016881,-0.49891,-0.00453,-0.537332,-264.152898,0.182811,62.398404
6.0565,0.019318,0.010472,-0.0019,-0.002625,0.000492,0.001954,0.017156,-0.499051,-0.004219,-0.537332,-264.152898,0.182811,62.398404
6.0764,0.01935,0.011159,-0.000831,-0.00261,0.000472,0.00201,0.018269,-0.499511,-0.001843,-0.561361,-264.154085,0.233643,62.397371
6.0964,0.019384,0.010545,-0.003778,-0.002647,0.000494,0.000771,0.018867,-0.498897,-0.000914,-0.561361,-264.154085,0.233643,62.397371
6.1165,0.019172,0.010686,-0.003271,-0.002675,0.000514,-6.4e-05,0.018867,-0.498897,-0.000914,-0.561361,-264.154085,0.233643,62.397371
6.1364,0.019272,0.010775,-0.00289,-0.002695,0.000531,-0.000623,0.017399,-0.499292,-0.003191,-0.577047,-264.15528,0.281914,62.396328
6.1566,0.019213,0.010598,-0.002148,-0.002681,0.000525,-0.000151,0.017551,-0.499262,-0.003058,-0.577047,-264.15528,0.281914,62.396328
6.1764,0.019127,0.011249,-0.002576,-0.00267,0.00052,0.000195,0.018117,-0.499401,-0.002148,-0.502078,-264.15528,0.206945,62.396328
6.1965,0.01917,0.010693,-0.003143,-0.002658,0.000506,0.000282,0.017838,-0.498803,-0.002541,-0.502078,-264.15528,0.206945,62.396328
6.2166,0.01937,0.010843,-0.003154,-0.002648,0.000496,0.000348,0.017838,-0.498803,-0.002541,-0.502078,-264.15528,0.206945,62.396328
6.2365,0.019315,0.011047,-0.001435,-0.00264,0.000487,0.000399,0.017757,-0.499154,-0.003152,-0.42699,-264.155324,0.131857,62.396286
6.2563,0.019144,0.010732,-0.004162,-0.002645,0.000495,0.000405,0.018097,-0.49907,-0.002443,-0.42699,-264.155324,0.131857,62.396286
6.2765,0.018913,0.010655,-0.002983,-0.002649,0.000502,0.000411,0.016997,-0.49926,-0.004153,-0.352077,-264.155653,0.056944,62.395967
6.2964,0.01864,0.010859,-0.003295,-0.002643,0.000499,0.00062,0.017357,-0.499336,-0.003083,-0.352077,-264.155653,0.056944,62.395967
6.3164,0.018952,0.010767,-0.003151,-0.002639,0.000496,0.00077,0.017357,-0.499336,-0.003083,-0.352077,-264.155653,0.056944,62.395967
6.3363,0.018643,0.010651,-0.002095,-0.002636,0.000494,0.000876,0.017275,-0.49922,-0.003135,-0.277079,-264.156349,-0.018053,62.395295
6.3567,0.01853,0.010614,-0.003655,-0.002634,0.000491,0.000831,0.017391,-0.499271,-0.002705,-0.277079,-264.156349,-0.018053,62.395295
6.376,0.018494,0.010772,-0.002438,-0.002633,0.000489,0.0008,0.016594,-0.49937,-0.003633,-0.352084,-264.157309,0.015547,62.3944
6.3966,0.018761,0.010946,-0.003024,-0.002628,0.000481,0.000713,0.017188,-0.499238,-0.002543,-0.352084,-264.157309,0.015547,62.3944
6.4166,0.018886,0.011017,-0.002656,-0.002624,0.000474,0.00065,0.017188,-0.499238,-0.002543,-0.352084,-264.157309,0.015547,62.3944
6.4362,0.018599,0.010856,-0.002904,-0.002621,0.000469,0.000604,0.017421,-0.498961,-0.002623,-0.355294,-264.158427,-9.2e-05,62.393351
6.4568,0.018395,0.010916,-0.00338,-0.002613,0.000459,0.000633,0.017285,-0.499032,-0.002734,-0.355294,-264.158427,-9.2e-05,62.393351
6.4761,0.018208,0.010933,-0.00272,-0.002607,0.000451,0.000652,0.016591,-0.499066,-0.003362,-0.309532,-264.159467,-0.038073,62.39236
6.4968,0.018752,0.010875,-0.00143,-0.002594,0.000433,0.000676,0.016796,-0.499065,-0.002777,-0.309532,-264.159467,-0.038073,62.39236
6.5169,0.01846,0.010988,-0.001401,-0.002583,0.000418,0.000693,0.016796,-0.499065,-0.002777,-0.309532,-264.159467,-0.038073,62.39236
6.5367,0.018304,0.011189,-0.004183,-0.002574,0.000406,0.000704,0.017637,-0.498993,-0.001374,-0.314668,-264.160558,-0.020202,62.391323
6.5567,0.017908,0.010711,-0.002222,-0.002569,0.000397,0.000622,0.017032,-0.498915,-0.002507,-0.314668,-264.160558,-0.020202,62.391323
6.5763,0.018022,0.011032,-0.002813,-0.002564,0.00039,0.000565,0.016694,-0.499275,-0.0022,-0.314144,-264.161626,0.009154,62.390308
6.5965,0.018091,0.010572,-0.00277,-0.002553,0.000375,0.000606,0.016593,-0.498993,-0.002757,-0.314144,-264.161626,0.009154,62.390308
6.6163,0.018495,0.010961,-0.002411,-0.002544,0.000363,0.000635,0.016593,-0.498993,-0.002757,-0.314144,-264.161626,0.009154,62.390308
6.6366,0.017933,0.011186,-0.002262,-0.002536,0.000353,0.000655,0.017161,-0.499021,-0.002388,-0.279052,-264.162663,-0.017504,62.38931
6.6566,0.017768,0.010789,-0.003976,-0.002538,0.000353,0.000526,0.016994,-0.498934,-0.002334,-0.279052,-264.162663,-0.017504,62.38931
6.6762,0.017846,0.011282,-0.001939,-0.00254,0.000353,0.000436,0.015661,-0.499196,-0.003956,-0.288594,-264.163696,0.018597,62.388319
6.6967,0.018119,0.011384,-0.002133,-0.002534,0.000342,0.00029,0.016751,-0.498758,-0.002111,-0.288594,-264.163696,0.018597,62.388319
6.717,0.018021,0.010757,-0.002482,-0.002528,0.000333,0.000188,0.016751,-0.498758,-0.002111,-0.288594,-264.163696,0.018597,62.388319
6.7366,0.017628,0.010767,-0.002931,-0.002523,0.000325,0.000119,0.016657,-0.499228,-0.002465,-0.239423,-264.164657,-0.034212,62.387385
6.7568,0.017748,0.010743,-0.003934,-0.002521,0.000326,0.000261,0.016434,-0.499227,-0.002652,-0.239423,-264.164657,-0.034212,62.387385
6.7765,0.017876,0.010743,-0.001825,-0.002519,0.000326,0.000361,0.015674,-0.499244,-0.003931,-0.164512,-264.165511,-0.09972,62.386538
6.7965,0.017095,0.010749,-0.002964,-0.002531,0.000339,0.000206,0.016826,-0.499255,-0.002016,-0.164512,-264.165511,-0.09972,62.386538
6.8166,0.017554,0.011114,-0.002984,-0.002539,0.00035,9.8e-05,0.016826,-0.499255,-0.002016,-0.164512,-264.165511,-0.09972,62.386538
6.8366,0.01795,0.011194,-0.003582,-0.002546,0.000358,2.3e-05,0.015936,-0.498871,-0.00297,-0.213857,-264.166451,-0.041971,62.385618
6.8567,0.017311,0.011282,-0.00197,-0.002519,0.000327,0.000356,0.016001,-0.498842,-0.003216,-0.213857,-264.166451,-0.041971,62.385618
6.8763,0.017702,0.011004,-0.003215,-0.002497,0.000301,0.000595,0.01624,-0.498708,-0.001969,-0.145216,-264.167284,-0.116945,62.384787
6.8966,0.017509,0.010905,-0.002128,-0.002484,0.000287,0.000733,0.016075,-0.498967,-0.003103,-0.145216,-264.167284,-0.116945,62.384787
6.9168,0.017309,0.011403,-0.003138,-0.002473,0.000274,0.00083,0.016075,-0.498967,-0.003103,-0.145216,-264.167284,-0.116945,62.384787
6.9366,0.01775,0.011029,-0.004035,-0.002465,0.000264,0.000898,0.015647,-0.498586,-0.003129,-0.220249,-264.167889,-0.041912,62.384201
6.9566,0.017173,0.011001,-0.002166,-0.002442,0.000236,0.001053,0.015658,-0.498739,-0.003494,-0.220249,-264.167889,-0.041912,62.384201
6.9761,0.01723,0.011162,-0.004237,-0.002423,0.000213,0.001162,0.016022,-0.498992,-0.002154,-0.295246,-264.168489,0.033085,62.383628
6.9965,0.017549,0.011024,-0.002611,-0.002398,0.000182,0.001377,0.015151,-0.498847,-0.004051,-0.295246,-264.168489,0.033085,62.383628
7.0164,0.016993,0.011017,-0.003495,-0.002376,0.000157,0.00153,0.015151,-0.498847,-0.004051,-0.295246,-264.168489,0.033085,62.383628
7.0365,0.016965,0.010833,-0.002544,-0.002359,0.000137,0.001638,0.015151,-0.498972,-0.003471,-0.363889,-264.169095,0.108088,62.38305
7.0562,0.01697,0.010987,-0.004326,-0.002359,0.000134,0.001453,0.015354,-0.499049,-0.003092,-0.363889,-264.169095,0.108088,62.38305
7.0766,0.016957,0.011349,-0.00241,-0.002358,0.000132,0.001322,0.014738,-0.499005,-0.004312,-0.438866,-264.169455,0.183066,62.382705
7.0963,0.017075,0.011166,-0.003571,-0.002358,0.000126,0.001059,0.015644,-0.498679,-0.002568,-0.438866,-264.169455,0.183066,62.382705
7.1167,0.017033,0.010933,-0.003897,-0.002357,0.000121,0.000877,0.015644,-0.498679,-0.002568,-0.438866,-264.169455,0.183066,62.382705
7.1368,0.017131,0.011047,-0.002318,-0.002356,0.000117,0.000753,0.014965,-0.499057,-0.003853,-0.379036,-264.17028,0.258267,62.381907
7.1566,0.017126,0.011191,-0.001765,-0.002354,0.000117,0.000873,0.015351,-0.499014,-0.003232,-0.379036,-264.17028,0.258267,62.381907
7.1765,0.016995,0.010936,-0.001833,-0.002352,0.000117,0.00096,0.016182,-0.498806,-0.001747,-0.30423,-264.170859,0.183462,62.381339
7.1965,0.016894,0.011096,-0.002422,-0.002378,0.000139,0.000526,0.016069,-0.499041,-0.001825,-0.30423,-264.170859,0.183462,62.381339
7.2171,0.017092,0.011201,-0.002967,-0.002398,0.000158,0.00023,0.016069,-0.499041,-0.001825,-0.30423,-264.170859,0.183462,62.381339
7.2363,0.016556,0.01066,-0.002223,-0.002413,0.000174,2.7e-05,0.015481,-0.498791,-0.002927,-0.29034,-264.171834,0.196954,62.380387
7.2562,0.016548,0.010919,-0.003956,-0.002404,0.000168,0.000184,0.015446,-0.499013,-0.002636,-0.29034,-264.171834,0.196954,62.380387
7.2762,0.016922,0.01129,-0.002904,-0.002398,0.000163,0.000296,0.014518,-0.499076,-0.003953,-0.215491,-264.171989,0.122105,62.380232
7.2965,0.01698,0.0112,-0.002205,-0.002382,0.000147,0.000486,0.015362,-0.498739,-0.002993,-0.215491,-264.171989,0.122105,62.380232
7.3166,0.016899,0.010898,-0.003045,-0.002369,0.000133,0.000621,0.015362,-0.498739,-0.002993,-0.215491,-264.171989,0.122105,62.380232
7.3365,0.016409,0.011149,-0.001207,-0.002358,0.000122,0.000717,0.015272,-0.499095,-0.003033,-0.142384,-264.172709,0.046955,62.379519
7.3565,0.016887,0.011235,-0.002264,-0.002364,0.000126,0.00055,0.015477,-0.498995,-0.002284,-0.142384,-264.172709,0.046955,62.379519
7.376,0.016941,0.011178,-0.003029,-0.002368,0.00013,0.000435,0.015674,-0.498761,-0.002248,-0.21734,-264.173464,0.12191,62.378778
7.397,0.016354,0.011156,-0.003092,-0.002361,0.000123,0.000577,0.015417,-0.498815,-0.002963,-0.21734,-264.173464,0.12191,62.378778
7.4166,0.016478,0.011132,-0.002426,-0.002355,0.000118,0.000679,0.015417,-0.498815,-0.002963,-0.21734,-264.173464,0.12191,62.378778
7.4362,0.016438,0.011033,-0.003351,-0.00235,0.000113,0.00075,0.015153,-0.498861,-0.00241,-0.165492,-264.174323,0.057285,62.377929
7.4566,0.016563,0.011118,-0.001745,-0.00234,0.000101,0.000746,0.01497,-0.498902,-0.002791,-0.165492,-264.174323,0.057285,62.377929
7.4762,0.016493,0.011293,-0.004753,-0.002331,9.1e-05,0.000744,0.015612,-0.498878,-0.001726,-0.238487,-264.175107,0.132139,62.377159
7.4963,0.016596,0.010858,-0.000479,-0.002298,5.2e-05,0.001167,0.014199,-0.498717,-0.00449,-0.238487,-264.175107,0.132139,62.377159
7.5165,0.016612,0.011296,-0.001957,-0.002269,1.9e-05,0.001475,0.014199,-0.498717,-0.00449,-0.238487,-264.175107,0.132139,62.377159
7.5361,0.016405,0.010952,-0.002445,-0.002244,-9e-06,0.001697,0.015518,-0.498699,-0.001926,-0.229596,-264.176055,0.154788,62.376225
7.5562,0.01628,0.011236,-0.002354,-0.002268,9e-06,0.001152,0.015361,-0.498839,-0.002132,-0.229596,-264.176055,0.154788,62.376225
7.5764,0.016265,0.011178,-0.003017,-0.002285,2.4e-05,0.000779,0.015068,-0.498762,-0.002349,-0.304504,-264.176199,0.229696,62.37608
7.5966,0.016362,0.011027,-0.0029,-0.002278,1.7e-05,0.000808,0.014755,-0.498815,-0.002959,-0.304504,-264.176199,0.229696,62.37608
7.6162,0.016031,0.011117,-0.002577,-0.002272,1.2e-05,0.000831,0.014755,-0.498815,-0.002959,-0.304504,-264.176199,0.229696,62.37608
7.6367,0.016097,0.010958,-0.001314,-0.002267,7e-06,0.000848,0.014635,-0.49888,-0.002548,-0.229393,-264.177008,0.195155,62.375275
7.6566,0.016032,0.011049,-0.001622,-0.002278,1.6e-05,0.000537,0.014953,-0.498947,-0.002035,-0.229393,-264.177008,0.195155,62.375275
7.6766,0.016211,0.010896,-0.00266,-0.002287,2.3e-05,0.000323,0.015134,-0.49895,-0.001595,-0.227773,-264.17793,0.221684,62.374354
7.6967,0.015826,0.010742,-0.002523,-0.002291,3.1e-05,0.000374,0.014874,-0.49909,-0.002574,-0.227773,-264.17793,0.221684,62.374354
7.7166,0.015968,0.011154,-0.003375,-0.002294,3.7e-05,0.000411,0.014874,-0.49909,-0.002574,-0.227773,-264.17793,0.221684,62.374354
7.7367,0.015693,0.011539,-0.001247,-0.002297,4.2e-05,0.000439,0.014195,-0.498843,-0.003363,-0.152679,-264.178423,0.14659,62.373862
7.7565,0.015953,0.010832,-0.003073,-0.002281,2.3e-05,0.000433,0.014539,-0.498688,-0.002502,-0.152679,-264.178423,0.14659,62.373862
7.7766,0.015883,0.011204,-0.000216,-0.002267,8e-06,0.00043,0.014316,-0.499164,-0.003059,-0.134075,-264.179312,0.098032,62.372977
7.7966,0.01592,0.01119,-0.002088,-0.002305,3.2e-05,-0.000514,0.015644,-0.498827,-0.000459,-0.134075,-264.179312,0.098032,62.372977
7.8166,0.015826,0.011284,-0.003896,-0.002334,5.4e-05,-0.001157,0.015644,-0.498827,-0.000459,-0.134075,-264.179312,0.098032,62.372977
7.8364,0.015755,0.010915,-0.001676,-0.002355,7.2e-05,-0.001595,0.013745,-0.498712,-0.003878,-0.118634,-264.180223,0.111921,62.372067
7.8563,0.015503,0.011309,-0.002092,-0.002322,4.5e-05,-0.000899,0.014219,-0.498868,-0.002952,-0.118634,-264.180223,0.111921,62.372067
7.8762,0.015758,0.011074,-0.001799,-0.002294,2.3e-05,-0.000391,0.014436,-0.49869,-0.002092,-0.043333,-264.180223,0.03662,62.372066
7.8962,0.015334,0.011126,-0.001475,-0.002293,2.5e-05,-0.000402,0.014805,-0.498904,-0.001825,-0.043333,-264.180223,0.03662,62.372066
7.9164,0.01561,0.011065,-0.001941,-0.002292,2.7e-05,-0.000406,0.014805,-0.498904,-0.001825,-0.043333,-264.180223,0.03662,62.372066
7.9362,0.01554,0.01103,-0.002455,-0.002291,2.9e-05,-0.000406,0.01457,-0.498934,-0.001944,0.031251,-264.180697,-0.037964,62.371592
7.9563,0.015553,0.010669,-0.002863,-0.002281,2.1e-05,-0.000279,0.014449,-0.498948,-0.002153,0.031251,-264.180697,-0.037964,62.371592
7.9762,0.01543,0.010852,-0.003041,-0.002273,1.5e-05,-0.000187,0.014031,-0.499328,-0.002874,0.095306,-264.181472,-0.112963,62.370815
7.9962,0.015318,0.010766,-0.002991,-0.002255,-1e-06,0.000157,0.013889,-0.499162,-0.003027,0.095306,-264.181472,-0.112963,62.370815
8.0164,0.015142,0.010863,-0.002862,-0.00224,-1.4e-05,0.000404,0.013889,-0.499162,-0.003027,0.095306,-264.181472,-0.112963,62.370815
8.0361,0.015018,0.011647,-0.002358,-0.002227,-2.5e-05,0.000579,0.013596,-0.499134,-0.002869,0.043951,-264.182301,-0.056717,62.369985
8.0562,0.015214,0.011275,-0.001409,-0.002204,-5.2e-05,0.000588,0.013676,-0.498812,-0.002659,0.043951,-264.182301,-0.056717,62.369985
8.0762,0.015727,0.01101,-0.002137,-0.002184,-7.4e-05,0.000594,0.014478,-0.498724,-0.001408,-0.031038,-264.182523,0.018272,62.369762
8.0966,0.015423,0.011617,-0.001991,-0.002201,-5.9e-05,0.000392,0.014623,-0.498966,-0.002075,-0.031038,-264.182523,0.018272,62.369762
8.1165,0.015451,0.011346,-0.001689,-0.002214,-4.6e-05,0.000252,0.014623,-0.498966,-0.002075,-0.031038,-264.182523,0.018272,62.369762
8.1362,0.015204,0.01106,-0.00172,-0.002225,-3.6e-05,0.000155,0.014543,-0.498653,-0.001681,-0.106139,-264.182969,0.093373,62.369311
8.1563,0.015388,0.011022,-0.001516,-0.002227,-3.8e-05,-6.7e-05,0.01445,-0.498769,-0.001696,-0.106139,-264.182969,0.093373,62.369311
8.1761,0.015093,0.011277,-0.002192,-0.002228,-4e-05,-0.00022,0.014551,-0.498978,-0.001512,-0.031329,-264.183758,0.05876,62.368521
8.1962,0.015198,0.011509,-0.001851,-0.002214,-5.5e-05,-0.000155,0.014024,-0.498745,-0.00213,-0.031329,-264.183758,0.05876,62.368521
8.2163,0.01535,0.01102,-0.001828,-0.002202,-6.8e-05,-0.000109,0.014024,-0.498745,-0.00213,-0.031329,-264.183758,0.05876,62.368521
8.2362,0.014953,0.011247,-0.003333,-0.002192,-7.8e-05,-7.5e-05,0.014352,-0.49898,-0.001832,0.043649,-264.184384,-0.016218,62.367896
8.2565,0.015505,0.010871,-0.0013,-0.002182,-8.6e-05,6.1e-05,0.013898,-0.498887,-0.002442,0.043649,-264.184384,-0.016218,62.367896
8.2763,0.014575,0.011292,-0.002201,-0.002175,-9.3e-05,0.000157,0.014773,-0.499131,-0.001303,0.056268,-264.185248,0.01473,62.367034
8.2965,0.014884,0.011369,-0.001575,-0.002158,-0.000112,0.000109,0.013563,-0.498743,-0.002124,0.056268,-264.185248,0.01473,62.367034
8.3162,0.014867,0.010782,-0.0037,-0.002144,-0.000128,7.5e-05,0.013563,-0.498743,-0.002124,0.056268,-264.185248,0.01473,62.367034
8.3365,0.015104,0.011689,-0.002156,-0.002132,-0.000141,5.2e-05,0.012901,-0.499218,-0.003694,-0.001322,-264.186008,0.086527,62.366271
8.3568,0.015138,0.011203,-0.001485,-0.002115,-0.000157,0.00034,0.013347,-0.498844,-0.003059,-0.001322,-264.186008,0.086527,62.366271
8.3766,0.014938,0.011254,-0.003645,-0.0021,-0.00017,0.000545,0.014315,-0.4988,-0.001484,0.051227,-264.186823,0.081088,62.365454
8.3968,0.014794,0.011143,-0.002857,-0.00208,-0.000191,0.000796,0.013187,-0.498748,-0.00345,0.051227,-264.186823,0.081088,62.365454
8.4163,0.014698,0.011051,-0.00189,-0.002063,-0.000208,0.000975,0.013187,-0.498748,-0.00345,0.051227,-264.186823,0.081088,62.365454
8.4365,0.014529,0.011294,-0.001877,-0.002049,-0.000222,0.001101,0.013688,-0.498951,-0.001883,-0.023647,-264.187264,0.155962,62.365002
8.4567,0.014416,0.01097,-0.000978,-0.002065,-0.000214,0.000655,0.013635,-0.498852,-0.00188,-0.023647,-264.187264,0.155962,62.365002
8.4767,0.014473,0.011201,-0.003436,-0.002077,-0.000207,0.000348,0.013904,-0.49903,-0.000975,-0.09864,-264.187424,0.230955,62.364831
8.4967,0.014361,0.011233,-0.00263,-0.002053,-0.000229,0.000586,0.012826,-0.498817,-0.003217,-0.09864,-264.187424,0.230955,62.364831
8.5167,0.014838,0.01124,-0.003066,-0.002033,-0.000247,0.000756,0.012826,-0.498817,-0.003217,-0.09864,-264.187424,0.230955,62.364831
8.5369,0.014589,0.010686,-0.001569,-0.002017,-0.000262,0.000877,0.0132,-0.498764,-0.003052,-0.02358,-264.18813,0.19925,62.364112
8.5565,0.014506,0.010976,-0.002569,-0.002031,-0.00025,0.000723,0.01343,-0.498987,-0.00245,-0.02358,-264.18813,0.19925,62.364112
8.5764,0.014384,0.011112,-0.001586,-0.002042,-0.000239,0.000616,0.013164,-0.499025,-0.002559,-0.098516,-264.188532,0.274185,62.363683
8.5969,0.014679,0.011409,-0.00185,-0.002059,-0.000229,0.000233,0.013538,-0.498899,-0.001669,-0.098516,-264.188532,0.274185,62.363683
8.6163,0.014503,0.011442,-0.001345,-0.002072,-0.00022,-3e-05,0.013538,-0.498899,-0.001669,-0.098516,-264.188532,0.274185,62.363683
8.6361,0.014605,0.011003,-0.001383,-0.002081,-0.000212,-0.00021,0.013734,-0.498567,-0.00132,-0.067101,-264.189332,0.292878,62.362849
8.6561,0.014597,0.010953,-0.001859,-0.002093,-0.000203,-0.000478,0.013791,-0.498742,-0.001343,-0.067101,-264.189332,0.292878,62.362849
8.676,0.014606,0.011144,-0.002245,-0.002102,-0.000196,-0.000662,0.013639,-0.499047,-0.001857,0.007797,-264.189461,0.21798,62.362722
8.6965,0.014286,0.011081,-0.002421,-0.002097,-0.000196,-0.000438,0.013477,-0.498872,-0.00221,0.007797,-264.189461,0.21798,62.362722
8.7168,0.014485,0.011151,-0.001052,-0.002093,-0.000196,-0.000278,0.013477,-0.498872,-0.00221,0.007797,-264.189461,0.21798,62.362722
8.7366,0.014692,0.011189,-0.002081,-0.00209,-0.000196,-0.000163,0.013944,-0.498849,-0.001052,0.08279,-264.189513,0.142987,62.362671
8.7566,0.013947,0.011052,-0.001299,-0.002103,-0.000185,-0.000376,0.013814,-0.498833,-0.001476,0.08279,-264.189513,0.142987,62.362671
8.7767,0.01423,0.011268,-0.001311,-0.002112,-0.000177,-0.000523,0.013231,-0.498953,-0.001303,0.140285,-264.1902,0.067791,62.36199
8.7963,0.014156,0.01146,-0.001871,-0.002112,-0.00018,-0.000701,0.013529,-0.498752,-0.00131,0.140285,-264.1902,0.067791,62.36199
8.8167,0.014332,0.010959,-0.001632,-0.00211,-0.000183,-0.000824,0.013529,-0.498752,-0.00131,0.140285,-264.1902,0.067791,62.36199
8.8365,0.014205,0.011123,-0.002102,-0.002109,-0.000185,-0.000908,0.013442,-0.499047,-0.001643,0.215111,-264.190767,-0.007035,62.361437
8.8564,0.01441,0.011175,-0.004265,-0.002104,-0.000186,-0.000746,0.01331,-0.498978,-0.00183,0.215111,-264.190767,-0.007035,62.361437
8.8765,0.014132,0.011082,-0.000806,-0.0021,-0.000187,-0.000631,0.012193,-0.498824,-0.004278,0.290086,-264.191312,-0.08201,62.360913
8.8964,0.014261,0.01126,-0.001478,-0.002109,-0.000181,-0.000856,0.013578,-0.49891,-0.001127,0.290086,-264.191312,-0.08201,62.360913
8.9163,0.013922,0.011076,-0.003019,-0.002116,-0.000175,-0.001013,0.013578,-0.49891,-0.001127,0.290086,-264.191312,-0.08201,62.360913
8.9365,0.014081,0.011241,-0.003346,-0.002121,-0.000171,-0.001121,0.012295,-0.498929,-0.003045,0.265964,-264.192172,-0.094208,62.360079
8.9565,0.014533,0.011365,-0.002919,-0.002075,-0.000212,-0.000481,0.012318,-0.49886,-0.00317,0.265964,-264.192172,-0.094208,62.360079
8.9761,0.013847,0.011125,-0.003979,-0.002036,-0.000246,-1.6e-05,0.013005,-0.498636,-0.002936,0.34097,-264.1927,-0.169214,62.359576
8.9964,0.014022,0.010929,-0.001997,-0.001991,-0.000288,0.000493,0.011918,-0.498851,-0.003889,0.34097,-264.1927,-0.169214,62.359576
9.0162,0.014309,0.010946,-0.002707,-0.001953,-0.000324,0.000862,0.011918,-0.498851,-0.003889,0.34097,-264.1927,-0.169214,62.359576
9.0368,0.014026,0.01127,-0.004201,-0.001921,-0.000353,0.001128,0.012918,-0.499053,-0.00271,0.265872,-264.192803,-0.094116,62.359473
9.0566,0.014009,0.011024,-0.002672,-0.001917,-0.000356,0.001174,0.012492,-0.498919,-0.003323,0.265872,-264.192803,-0.094116,62.359473
9.076,0.014131,0.010843,-0.000865,-0.001914,-0.000359,0.001205,0.012646,-0.498974,-0.002672,0.19084,-264.192803,-0.019084,62.359472
9.0961,0.013896,0.011012,-0.002151,-0.00197,-0.000316,0.000312,0.0136,-0.499141,-0.001021,0.19084,-264.192803,-0.019084,62.359472
9.116,0.013706,0.01127,-0.003128,-0.002014,-0.00028,-0.000294,0.0136,-0.499141,-0.001021,0.19084,-264.192803,-0.019084,62.359472
9.1361,0.014009,0.011013,-0.001468,-0.002049,-0.000249,-0.000705,0.012111,-0.498727,-0.003128,0.115821,-264.192804,0.055935,62.359472
9.1562,0.013868,0.011382,-0.001702,-0.002026,-0.000267,-0.000401,0.012579,-0.498833,-0.002452,0.115821,-264.192804,0.055935,62.359472
9.1762,0.013948,0.010904,-0.002895,-0.002007,-0.000281,-0.00018,0.012975,-0.498619,-0.001707,0.190677,-264.193119,-0.018921,62.359172
9.1963,0.014258,0.011184,-0.002212,-0.001996,-0.000288,8.8e-05,0.012514,-0.499052,-0.002792,0.190677,-264.193119,-0.018921,62.359172
9.2164,0.013825,0.010902,-0.000366,-0.001986,-0.000294,0.00028,0.012514,-0.499052,-0.002792,0.190677,-264.193119,-0.018921,62.359172
9.2367,0.014105,0.011526,-0.002664,-0.001979,-0.000299,0.000418,0.013568,-0.499107,-0.000374,0.192466,-264.193807,0.056175,62.358494
9.2562,0.013774,0.010846,-0.002064,-0.002,-0.000287,-6.6e-05,0.013226,-0.49885,-0.001307,0.192466,-264.193807,0.056175,62.358494
9.2762,0.013468,0.011001,-0.003274,-0.002015,-0.000277,-0.000397,0.012703,-0.499155,-0.002063,0.117468,-264.194039,0.131174,62.358253
9.2962,0.013861,0.010868,-0.002379,-0.00198,-0.000307,3.8e-05,0.011876,-0.49901,-0.003169,0.117468,-264.194039,0.131174,62.358253
9.3163,0.0138,0.011076,-0.003183,-0.00195,-0.000332,0.000352,0.011876,-0.49901,-0.003169,0.117468,-264.194039,0.131174,62.358253
9.3363,0.014348,0.010898,-0.004156,-0.001926,-0.000353,0.000578,0.012126,-0.498927,-0.003188,0.192471,-264.194543,0.056171,62.357765
9.3561,0.014126,0.010641,-0.004227,-0.001915,-0.000363,0.000851,0.012161,-0.498997,-0.003582,0.192471,-264.194543,0.056171,62.357765
9.3759,0.014056,0.011491,-0.002249,-0.001905,-0.000371,0.001046,0.011961,-0.499355,-0.004227,0.117566,-264.194646,0.131076,62.357655
9.3967,0.013744,0.011281,-0.001527,-0.001911,-0.000369,0.000832,0.012823,-0.498584,-0.002428,0.117566,-264.194646,0.131076,62.357655
9.4165,0.013956,0.01091,-0.003149,-0.001915,-0.000367,0.000683,0.012823,-0.498584,-0.002428,0.117566,-264.194646,0.131076,62.357655
9.4364,0.013516,0.01073,-0.002377,-0.001919,-0.000366,0.00058,0.012347,-0.499088,-0.003149,0.042568,-264.194679,0.206073,62.357618
9.4567,0.013933,0.011078,-0.003844,-0.001922,-0.000362,0.000643,0.012329,-0.499162,-0.002834,0.042568,-264.194679,0.206073,62.357618
9.4763,0.01376,0.010746,-0.00164,-0.001924,-0.000358,0.000688,0.011931,-0.498924,-0.003834,0.006194,-264.195194,0.281105,62.357068
9.4966,0.013632,0.011211,-0.002768,-0.001952,-0.000335,0.000359,0.012831,-0.499224,-0.001839,0.006194,-264.195194,0.281105,62.357068
9.5162,0.013895,0.010828,-0.003059,-0.001974,-0.000316,0.000132,0.012831,-0.499224,-0.001839,0.006194,-264.195194,0.281105,62.357068
9.5363,0.013979,0.011324,-0.003044,-0.00199,-0.0003,-2.4e-05,0.012268,-0.499181,-0.003037,-0.03236,-264.195828,0.356082,62.356385
9.5565,0.013823,0.010896,-0.001919,-0.001973,-0.000313,0.000275,0.012325,-0.498976,-0.003037,-0.03236,-264.195828,0.356082,62.356385
9.5764,0.013846,0.010728,-0.001325,-0.001959,-0.000324,0.000488,0.012828,-0.499106,-0.001916,0.042636,-264.196045,0.281085,62.356168
9.5962,0.013874,0.011217,-0.002491,-0.001995,-0.000295,1.8e-05,0.013139,-0.499257,-0.001377,0.042636,-264.196045,0.281085,62.356168
9.6164,0.013541,0.011165,-0.001302,-0.002022,-0.000271,-0.000305,0.013139,-0.499257,-0.001377,0.042636,-264.196045,0.281085,62.356168
9.6364,0.013408,0.011028,-0.003321,-0.002044,-0.000251,-0.000526,0.012797,-0.498848,-0.001282,0.013347,-264.196813,0.307748,62.355362
9.6563,0.01361,0.010981,-0.002124,-0.002018,-0.000273,-0.000368,0.012329,-0.498901,-0.002144,0.013347,-264.196813,0.307748,62.355362
9.6765,0.013344,0.01114,-0.002742,-0.001998,-0.000291,-0.000255,0.012524,-0.499018,-0.002124,0.08871,-264.196855,0.232386,62.355322
9.6963,0.013259,0.010944,-0.00236,-0.001966,-0.000319,9e-06,0.011995,-0.498871,-0.002689,0.08871,-264.196855,0.232386,62.355322
9.7163,0.013723,0.01087,-0.003412,-0.00194,-0.000341,0.000197,0.011995,-0.498871,-0.002689,0.08871,-264.196855,0.232386,62.355322
9.7364,0.013301,0.010868,-0.002467,-0.001919,-0.00036,0.000331,0.011942,-0.499133,-0.003412,0.163339,-264.197256,0.157757,62.354929
9.7565,0.013536,0.010978,-0.002456,-0.001909,-0.000368,0.000528,0.011979,-0.499133,-0.003022,0.163339,-264.197256,0.157757,62.354929
9.7766,0.013068,0.01084,-0.002183,-0.0019,-0.000375,0.000668,0.012241,-0.499028,-0.002451,0.088325,-264.19779,0.23277,62.354375
9.7966,0.013542,0.011042,-0.001369,-0.001899,-0.000378,0.000493,0.011978,-0.499148,-0.002205,0.088325,-264.19779,0.23277,62.354375
9.8164,0.01338,0.011262,-0.002213,-0.001898,-0.000381,0.000372,0.011978,-0.499148,-0.002205,0.088325,-264.19779,0.23277,62.354375
9.836,0.013221,0.011118,-0.004439,-0.001897,-0.000383,0.000288,0.012206,-0.498745,-0.002201,0.013325,-264.198216,0.30777,62.353914
9.8567,0.013448,0.010964,-0.001632,-0.001869,-0.000408,0.000522,0.011687,-0.4988,-0.003121,0.013325,-264.198216,0.30777,62.353914
9.8764,0.01343,0.011059,-0.000214,-0.001847,-0.000429,0.000689,0.012564,-0.499045,-0.001623,0.088361,-264.19887,0.286575,62.353237
9.8965,0.013247,0.011104,-0.001625,-0.001906,-0.00039,-0.000411,0.013253,-0.49895,-0.000335,0.088361,-264.19887,0.286575,62.353237
9.9165,0.013277,0.010717,-0.000497,-0.001951,-0.000358,-0.001158,0.013253,-0.49895,-0.000335,0.088361,-264.19887,0.286575,62.353237
9.9366,0.013458,0.011037,-0.002589,-0.001986,-0.00033,-0.001667,0.012974,-0.499292,-0.000482,0.013413,-264.199341,0.361524,62.352718
9.9568,0.013052,0.010894,-0.000961,-0.00199,-0.000319,-0.001507,0.01263,-0.49916,-0.001332,0.013413,-264.199341,0.361524,62.352718
9.976,0.013242,0.011332,-0.002905,-0.001994,-0.000311,-0.001389,0.012562,-0.499106,-0.000961,0.088308,-264.199341,0.286628,62.352718
9.9964,0.01316,0.01063,-0.000926,-0.00195,-0.000347,-0.000804,0.011834,-0.498706,-0.002728,0.088308,-264.199341,0.286628,62.352718
10.0167,0.013472,0.011058,-0.003115,-0.001913,-0.000376,-0.000379,0.011834,-0.498706,-0.002728,0.088308,-264.199341,0.286628,62.352718
10.0362,0.013533,0.010899,-0.002241,-0.001883,-0.0004,-7.1e-05,0.011883,-0.498939,-0.003115,0.163307,-264.199341,0.211629,62.352718
10.0566,0.013135,0.01089,-0.001998,-0.001878,-0.000401,0.00016,0.012092,-0.499005,-0.002756,0.163307,-264.199341,0.211629,62.352718
10.0761,0.012983,0.011125,-0.003199,-0.001875,-0.000402,0.000326,0.012061,-0.499121,-0.002,0.231645,-264.200052,0.187279,62.352013
10.0962,0.01294,0.010897,-0.002719,-0.001844,-0.000429,0.000542,0.011411,-0.498895,-0.003094,0.231645,-264.200052,0.187279,62.352013
10.1166,0.013008,0.010945,-0.002758,-0.00182,-0.000451,0.000695,0.011411,-0.498895,-0.003094,0.231645,-264.200052,0.187279,62.352013
10.1361,0.012886,0.010738,-0.001899,-0.0018,-0.00047,0.000804,0.011554,-0.499063,-0.002753,0.156673,-264.200514,0.262251,62.351531
10.1562,0.01346,0.010967,-0.003057,-0.001805,-0.000467,0.00066,0.011696,-0.499145,-0.002405,0.156673,-264.200514,0.262251,62.351531
10.1763,0.013516,0.011036,-0.002089,-0.00181,-0.000464,0.00056,0.011885,-0.499034,-0.003053,0.081769,-264.200712,0.337155,62.351308
10.1966,0.013111,0.011005,-0.001457,-0.001832,-0.000445,0.000407,0.012401,-0.498969,-0.002172,0.081769,-264.200712,0.337155,62.351308
10.2167,0.012841,0.011121,-0.003116,-0.00185,-0.000429,0.000301,0.012401,-0.498969,-0.002172,0.081769,-264.200712,0.337155,62.351308
10.2368,0.012763,0.011115,-0.000984,-0.001865,-0.000416,0.000227,0.011184,-0.498894,-0.003096,0.067079,-264.20136,0.41225,62.350599
10.2563,0.012819,0.010888,-0.001421,-0.001846,-0.000435,0.000196,0.011614,-0.498892,-0.002235,0.067079,-264.20136,0.41225,62.350599
10.2761,0.012379,0.01067,-0.002429,-0.001831,-0.00045,0.000176,0.012053,-0.499121,-0.001414,0.142006,-264.201894,0.337323,62.350048
10.2962,0.012855,0.010785,-0.002434,-0.001817,-0.000462,0.0002,0.011217,-0.499312,-0.002341,0.142006,-264.201894,0.337323,62.350048
10.3164,0.013016,0.010776,-0.002141,-0.001806,-0.000471,0.000218,0.011217,-0.499312,-0.002341,0.142006,-264.201894,0.337323,62.350048
10.3364,0.012549,0.010733,-0.002504,-0.001797,-0.000479,0.000232,0.011852,-0.49924,-0.002134,0.185066,-264.202597,0.295455,62.349325
10.3563,0.012812,0.010883,-0.002317,-0.001802,-0.000475,0.000223,0.011606,-0.499252,-0.002284,0.185066,-264.202597,0.295455,62.349325
10.3763,0.012588,0.011293,-0.00206,-0.001805,-0.000471,0.000217,0.011574,-0.499131,-0.00231,0.185642,-264.203314,0.332572,62.348581
10.3966,0.012713,0.01087,-0.001712,-0.001791,-0.000487,0.000135,0.011538,-0.498744,-0.002082,0.185642,-264.203314,0.332572,62.348581
10.4163,0.012664,0.010826,-0.002083,-0.001778,-0.0005,7.8e-05,0.011538,-0.498744,-0.002082,0.185642,-264.203314,0.332572,62.348581
10.4364,0.01266,0.010862,-0.00289,-0.001768,-0.000511,3.9e-05,0.011526,-0.499192,-0.002074,0.18565,-264.204045,0.322782,62.347823
10.4563,0.012558,0.010865,-0.002037,-0.001766,-0.000512,0.000131,0.011379,-0.499171,-0.002407,0.18565,-264.204045,0.322782,62.347823
10.4761,0.012714,0.010788,-0.001645,-0.001764,-0.000513,0.000197,0.011469,-0.499148,-0.002035,0.260406,-264.204694,0.2937,62.347169
10.4964,0.012208,0.010872,-0.002164,-0.001785,-0.000496,-3.8e-05,0.011839,-0.499206,-0.001678,0.260406,-264.204694,0.2937,62.347169
10.5164,0.012752,0.010676,-0.002895,-0.001802,-0.000481,-0.0002,0.011839,-0.499206,-0.001678,0.260406,-264.204694,0.2937,62.347169
10.5363,0.012636,0.011163,-0.002737,-0.001816,-0.00047,-0.000313,0.011206,-0.499342,-0.002888,0.21896,-264.205368,0.344366,62.34647
10.5565,0.012448,0.010684,-0.001053,-0.001794,-0.000486,1.3e-05,0.011212,-0.499138,-0.002826,0.21896,-264.205368,0.344366,62.34647
10.5762,0.012629,0.010604,-0.001775,-0.001777,-0.000499,0.000246,0.011887,-0.499323,-0.001054,0.293795,-264.205694,0.269531,62.34616
10.5964,0.01237,0.010758,-0.003263,-0.001799,-0.000481,1.1e-05,0.011737,-0.49939,-0.001713,0.293795,-264.205694,0.269531,62.34616
10.6168,0.012457,0.010779,-0.00158,-0.001815,-0.000467,-0.000153,0.011737,-0.49939,-0.001713,0.293795,-264.205694,0.269531,62.34616
10.6364,0.012176,0.010613,-0.002195,-0.001829,-0.000454,-0.000265,0.011594,-0.499237,-0.001574,0.218687,-264.206251,0.344639,62.345578
10.6566,0.012491,0.010919,-0.002281,-0.001822,-0.00046,-0.000297,0.011364,-0.499301,-0.001831,0.218687,-264.206251,0.344639,62.345578
10.6763,0.01212,0.010572,-0.003997,-0.001817,-0.000464,-0.000317,0.0113,-0.499087,-0.002282,0.293913,-264.20662,0.269413,62.345224
10.6963,0.012211,0.010604,-0.002217,-0.001763,-0.000509,0.000269,0.010172,-0.499399,-0.003868,0.293913,-264.20662,0.269413,62.345224
10.7164,0.012411,0.01061,-0.00229,-0.001718,-0.000547,0.000696,0.010172,-0.499399,-0.003868,0.293913,-264.20662,0.269413,62.345224
10.7366,0.012333,0.010867,-0.00171,-0.001681,-0.000578,0.001005,0.011187,-0.499405,-0.002297,0.34758,-264.207202,0.194319,62.344671
10.7561,0.012132,0.010637,-0.002033,-0.0017,-0.000566,0.000664,0.011295,-0.499292,-0.002052,0.34758,-264.207202,0.194319,62.344671
10.7764,0.01212,0.010759,-0.002437,-0.001714,-0.000555,0.000428,0.011094,-0.499362,-0.002033,0.272677,-264.207206,0.269222,62.344666
10.7968,0.012377,0.010783,-0.003555,-0.001707,-0.000562,0.000394,0.010896,-0.49925,-0.002402,0.272677,-264.207206,0.269222,62.344666
10.8164,0.012076,0.0109,-0.001999,-0.001701,-0.000567,0.000372,0.010896,-0.49925,-0.002402,0.272677,-264.207206,0.269222,62.344666
10.8363,0.012103,0.010625,-0.002956,-0.001696,-0.000572,0.000357,0.011019,-0.49911,-0.001994,0.197912,-264.207566,0.343987,62.344273
10.8565,0.011871,0.010768,-0.000726,-0.001688,-0.000579,0.000346,0.010837,-0.499222,-0.002397,0.197912,-264.207566,0.343987,62.344273
10.8764,0.012005,0.010725,-0.001113,-0.001682,-0.000584,0.000339,0.011454,-0.499247,-0.000716,0.205719,-264.208166,0.419333,62.343625
10.8964,0.012123,0.010638,-0.002359,-0.001714,-0.000564,-0.000229,0.011437,-0.499273,-0.001078,0.205719,-264.208166,0.419333,62.343625
10.9163,0.012012,0.010621,-0.002814,-0.001738,-0.000548,-0.000617,0.011437,-0.499273,-0.001078,0.205719,-264.208166,0.419333,62.343625
10.9361,0.011643,0.010468,-0.002416,-0.001757,-0.000533,-0.000883,0.010507,-0.499401,-0.0028,0.2206,-264.208849,0.439739,62.342889
10.9565,0.012145,0.010898,-0.000263,-0.001729,-0.000551,-0.000456,0.01046,-0.499456,-0.002642,0.2206,-264.208849,0.439739,62.342889
10.9764,0.012138,0.010815,-0.001627,-0.001706,-0.000566,-0.00015,0.01201,-0.499102,-0.000263,0.295567,-264.208854,0.364772,62.342884
10.9963,0.011864,0.01053,-0.002139,-0.001722,-0.000555,-0.000356,0.011372,-0.499177,-0.001504,0.295567,-264.208854,0.364772,62.342884
11.0162,0.011877,0.010925,-0.002324,-0.001734,-0.000545,-0.000498,0.011372,-0.499177,-0.001504,0.295567,-264.208854,0.364772,62.342884
11.0366,0.01202,0.010426,-0.000684,-0.001743,-0.000537,-0.000595,0.010635,-0.499093,-0.002328,0.367997,-264.20944,0.289762,62.342317
11.0562,0.011636,0.010765,-0.002099,-0.001743,-0.000536,-0.000598,0.011053,-0.499293,-0.001654,0.367997,-264.20944,0.289762,62.342317
11.0761,0.011783,0.010915,-0.0015,-0.001743,-0.000535,-0.000599,0.01054,-0.499243,-0.002105,0.443089,-264.209801,0.21467,62.341994
11.0962,0.011943,0.010464,-0.002131,-0.001735,-0.000542,-0.000642,0.010975,-0.499099,-0.001553,0.443089,-264.209801,0.21467,62.341994
11.1166,0.011832,0.01074,-0.002715,-0.001728,-0.000549,-0.000671,0.010975,-0.499099,-0.001553,0.443089,-264.209801,0.21467,62.341994
11.1366,0.011807,0.010357,-0.001848,-0.001722,-0.000554,-0.00069,0.01039,-0.499277,-0.002733,0.476698,-264.210417,0.139703,62.341445
11.1565,0.011477,0.010621,0.00038,-0.001707,-0.000563,-0.000389,0.01057,-0.499422,-0.002387,0.476698,-264.210417,0.139703,62.341445
11.177,0.011612,0.010561,-0.001494,-0.001694,-0.000571,-0.000174,0.011621,-0.499395,0.00036,0.515405,-264.211143,0.076808,62.340811
11.1969,0.01179,0.010407,-0.001752,-0.001706,-0.000564,-0.000443,0.010914,-0.499435,-0.001333,0.515405,-264.211143,0.076808,62.340811
11.2171,0.012003,0.010445,-0.003419,-0.001714,-0.000559,-0.000629,0.010914,-0.499435,-0.001333,0.515405,-264.211143,0.076808,62.340811
11.2362,0.011835,0.010747,-0.003322,-0.00172,-0.000554,-0.000758,0.01023,-0.499561,-0.003426,0.440273,-264.211445,0.151939,62.34052
11.2566,0.011327,0.010556,-0.003218,-0.001688,-0.000578,-0.000159,0.010191,-0.499438,-0.003385,0.440273,-264.211445,0.151939,62.34052
11.2762,0.011506,0.010713,-0.002184,-0.001662,-0.000598,0.000276,0.009645,-0.499454,-0.003235,0.515137,-264.212039,0.077075,62.340008
11.2964,0.011617,0.01018,-0.003229,-0.001643,-0.000614,0.000251,0.010322,-0.499302,-0.002281,0.515137,-264.212039,0.077075,62.340008
11.3162,0.011689,0.010554,-0.001102,-0.001628,-0.000627,0.000234,0.010322,-0.499302,-0.002281,0.515137,-264.212039,0.077075,62.340008
11.3362,0.011958,0.010501,-0.002725,-0.001615,-0.000638,0.000223,0.011124,-0.499446,-0.001103,0.440094,-264.212068,0.152118,62.339977
11.3565,0.011788,0.010252,-0.003388,-0.001638,-0.00062,1.6e-05,0.010898,-0.499467,-0.001762,0.440094,-264.212068,0.152118,62.339977
11.3765,0.011747,0.010686,-0.003601,-0.001656,-0.000606,-0.000127,0.01005,-0.499748,-0.003389,0.365144,-264.212189,0.227068,62.339849
11.3964,0.011527,0.010427,-0.001788,-0.001621,-0.000634,0.000346,0.009922,-0.499351,-0.003582,0.365144,-264.212189,0.227068,62.339849
11.4166,0.011762,0.010338,-0.001796,-0.001592,-0.000658,0.000688,0.009922,-0.499351,-0.003582,0.365144,-264.212189,0.227068,62.339849
11.4364,0.011769,0.010281,-0.000691,-0.001568,-0.000677,0.000932,0.010785,-0.499684,-0.001801,0.391513,-264.212827,0.302077,62.33923
11.4567,0.01145,0.010545,-0.002158,-0.001621,-0.000638,0.000305,0.011037,-0.499701,-0.001347,0.391513,-264.212827,0.302077,62.33923
11.4767,0.011879,0.010563,-0.003322,-0.001663,-0.000605,-0.000124,0.010348,-0.499454,-0.002158,0.316392,-264.212839,0.377198,62.339215
11.4969,0.011616,0.010418,-0.002054,-0.001641,-0.00062,0.000249,0.0102,-0.499436,-0.003217,0.316392,-264.212839,0.377198,62.339215
11.5165,0.011845,0.010278,-0.002017,-0.001623,-0.000633,0.000518,0.0102,-0.499436,-0.003217,0.316392,-264.212839,0.377198,62.339215
11.5361,0.011786,0.010205,-0.002038,-0.001609,-0.000643,0.000711,0.010757,-0.499742,-0.002022,0.388523,-264.213452,0.308173,62.33862
11.5562,0.011757,0.01032,-0.002432,-0.001639,-0.000619,0.000453,0.010746,-0.499766,-0.002029,0.388523,-264.213452,0.308173,62.33862
11.5764,0.011275,0.01048,-0.003336,-0.001662,-0.000598,0.000275,0.010512,-0.49968,-0.002431,0.313523,-264.213512,0.383173,62.338548
11.5964,0.011213,0.010775,-0.002585,-0.001621,-0.000631,0.000546,0.009662,-0.499533,-0.003251,0.313523,-264.213512,0.383173,62.338548
11.6164,0.011401,0.010364,-0.001654,-0.001588,-0.000657,0.00074,0.009662,-0.499533,-0.003251,0.313523,-264.213512,0.383173,62.338548
11.6361,0.011442,0.010544,-0.001689,-0.001561,-0.000679,0.000878,0.010494,-0.499658,-0.001643,0.253431,-264.214137,0.432093,62.337881
11.6562,0.011171,0.010372,-0.001901,-0.001589,-0.000662,0.00041,0.010523,-0.499577,-0.001661,0.253431,-264.214137,0.432093,62.337881
11.6764,0.011603,0.010533,-0.001746,-0.00161,-0.000648,8.9e-05,0.010187,-0.499632,-0.001896,0.178198,-264.214313,0.507326,62.33766
11.6965,0.011441,0.010835,-0.002928,-0.001627,-0.000635,-8.8e-05,0.010664,-0.499482,-0.00176,0.178198,-264.214313,0.507326,62.33766
11.7165,0.011442,0.01026,-0.002971,-0.001641,-0.000624,-0.000208,0.010664,-0.499482,-0.00176,0.178198,-264.214313,0.507326,62.33766
11.7367,0.011284,0.010109,-0.000733,-0.001651,-0.000615,-0.00029,0.00989,-0.49975,-0.002966,0.253097,-264.214675,0.432427,62.337289
11.7562,0.011565,0.010395,-0.000496,-0.001654,-0.000609,-0.000226,0.010299,-0.499809,-0.002062,0.253097,-264.214675,0.432427,62.337289
11.7762,0.011416,0.010598,-0.001566,-0.001657,-0.000604,-0.00018,0.011294,-0.499612,-0.000496,0.328106,-264.214922,0.357418,62.337059
11.7963,0.011183,0.010252,-0.002372,-0.001666,-0.0006,-0.000388,0.010674,-0.49942,-0.001475,0.328106,-264.214922,0.357418,62.337059
11.8162,0.01201,0.01077,-0.002314,-0.001672,-0.000596,-0.000531,0.010674,-0.49942,-0.001475,0.328106,-264.214922,0.357418,62.337059
11.8362,0.011255,0.010497,-0.001284,-0.001677,-0.000592,-0.000629,0.010771,-0.49925,-0.002321,0.40311,-264.215528,0.289836,62.336478
11.8563,0.01129,0.010493,-0.001312,-0.001675,-0.000592,-0.000522,0.010695,-0.499355,-0.0019,0.40311,-264.215528,0.289836,62.336478
11.8763,0.011527,0.010338,-0.002698,-0.001674,-0.000591,-0.000445,0.010594,-0.499517,-0.001318,0.478002,-264.215916,0.214943,62.33614
11.8967,0.011002,0.010214,-0.002241,-0.001659,-0.0006,-0.000151,0.010186,-0.499648,-0.002583,0.478002,-264.215916,0.214943,62.33614
11.9161,0.011156,0.01039,-0.00209,-0.001647,-0.000608,5.8e-05,0.010186,-0.499648,-0.002583,0.478002,-264.215916,0.214943,62.33614
11.9364,0.011387,0.010443,-0.002377,-0.001637,-0.000614,0.000207,0.010021,-0.499633,-0.002108,0.476059,-264.21666,0.188536,62.335467
11.9562,0.011035,0.010316,-0.002192,-0.001626,-0.000624,0.000185,0.010076,-0.499604,-0.00222,0.476059,-264.21666,0.188536,62.335467
11.9762,0.010873,0.010245,-0.003308,-0.001617,-0.000632,0.00017,0.009905,-0.499686,-0.002193,0.40123,-264.216818,0.263365,62.3353
11.9964,0.011181,0.010212,-0.004096,-0.001574,-0.000665,0.000467,0.009249,-0.499747,-0.003209,0.40123,-264.216818,0.263365,62.3353
12.0164,0.01127,0.010355,-0.003,-0.001538,-0.000693,0.000679,0.009249,-0.499747,-0.003209,0.40123,-264.216818,0.263365,62.3353
12.0364,0.011192,0.010304,-0.001773,-0.00151,-0.000716,0.000829,0.0097,-0.499656,-0.002999,0.326172,-264.217212,0.338423,62.334889
12.0564,0.011146,0.009883,-0.002287,-0.001518,-0.000711,0.000715,0.009936,-0.499674,-0.002498,0.326172,-264.217212,0.338423,62.334889
12.076,0.010918,0.010543,-0.000529,-0.001524,-0.000707,0.000635,0.009975,-0.500117,-0.002287,0.251131,-264.217263,0.413464,62.334824
12.0962,0.010873,0.010338,-0.001674,-0.001568,-0.000684,-0.000242,0.010587,-0.499516,-0.000686,0.251131,-264.217263,0.413464,62.334824
12.1161,0.011143,0.01062,-0.00188,-0.001601,-0.000664,-0.000839,0.010587,-0.499516,-0.000686,0.251131,-264.217263,0.413464,62.334824
12.1361,0.011112,0.010155,-0.002161,-0.001627,-0.000647,-0.001246,0.010152,-0.499391,-0.001871,0.206495,-264.21756,0.488357,62.334466
12.1562,0.010838,0.010504,-0.001357,-0.001616,-0.00065,-0.00094,0.01009,-0.499577,-0.001988,0.206495,-264.21756,0.488357,62.334466
12.1761,0.010855,0.010424,-0.002694,-0.001607,-0.000653,-0.000719,0.010146,-0.499496,-0.001357,0.281505,-264.21756,0.413348,62.334466
12.1963,0.010964,0.010156,-0.000196,-0.001573,-0.000676,-0.00036,0.009541,-0.499567,-0.002573,0.281505,-264.21756,0.413348,62.334466
12.2163,0.011069,0.010152,-0.000305,-0.001546,-0.000695,-0.000102,0.009541,-0.499567,-0.002573,0.281505,-264.21756,0.413348,62.334466
12.2361,0.010807,0.010412,-0.003503,-0.001523,-0.000712,8.4e-05,0.01091,-0.49985,-0.000305,0.356496,-264.217603,0.338356,62.33443
12.2561,0.01094,0.010097,-0.002147,-0.001546,-0.000695,-0.000151,0.010146,-0.499743,-0.001597,0.356496,-264.217603,0.338356,62.33443
12.2764,0.010719,0.010267,-0.001971,-0.001563,-0.000681,-0.000314,0.009808,-0.499918,-0.002146,0.409104,-264.218097,0.413353,62.333924
12.2965,0.010965,0.010603,-0.002126,-0.001556,-0.000686,-0.000269,0.00972,-0.499749,-0.001986,0.409104,-264.218097,0.413353,62.333924
12.3165,0.011063,0.010422,-0.003511,-0.00155,-0.00069,-0.000237,0.00972,-0.499749,-0.001986,0.409104,-264.218097,0.413353,62.333924
12.3363,0.011049,0.010221,-0.001259,-0.001546,-0.000693,-0.000213,0.009226,-0.499595,-0.003518,0.484215,-264.218599,0.338242,62.333464
12.3568,0.011244,0.010153,-0.003476,-0.001534,-0.0007,2e-05,0.0097,-0.499672,-0.002602,0.484215,-264.218599,0.338242,62.333464
12.3764,0.011044,0.010394,-0.00137,-0.001525,-0.000707,0.000185,0.009422,-0.499866,-0.003483,0.489199,-264.219299,0.349136,62.332807
12.3965,0.010383,0.010272,-0.003078,-0.001548,-0.000691,-9.8e-05,0.010263,-0.499629,-0.001552,0.489199,-264.219299,0.349136,62.332807
12.4162,0.011039,0.01005,-0.000988,-0.001567,-0.000678,-0.000293,0.010263,-0.499629,-0.001552,0.489199,-264.219299,0.349136,62.332807
12.4365,0.010929,0.010323,-0.003574,-0.001581,-0.000667,-0.000429,0.010498,-0.499966,-0.000987,0.414101,-264.219674,0.424234,62.33241
12.4567,0.01074,0.01007,-0.002093,-0.001582,-0.000664,-0.000322,0.009921,-0.499848,-0.002052,0.414101,-264.219674,0.424234,62.33241
12.4762,0.010688,0.010322,-0.002791,-0.001583,-0.000661,-0.000246,0.009647,-0.49994,-0.002096,0.489127,-264.220036,0.349209,62.332087
12.4964,0.010878,0.010024,-0.002431,-0.001547,-0.000688,3.4e-05,0.009297,-0.4997,-0.00273,0.489127,-264.220036,0.349209,62.332087
12.516,0.010933,0.010036,5e-06,-0.001518,-0.000711,0.000234,0.009297,-0.4997,-0.00273,0.489127,-264.220036,0.349209,62.332087
12.5365,0.010623,0.009954,-0.002198,-0.001494,-0.000729,0.000375,0.010871,-0.499991,-5e-06,0.473766,-264.22073,0.312176,62.331439
12.5563,0.010824,0.010033,-0.002375,-0.001547,-0.000693,-0.000288,0.010305,-0.500016,-0.000902,0.473766,-264.22073,0.312176,62.331439
12.5761,0.010776,0.010063,-0.001331,-0.001588,-0.000663,-0.000742,0.009601,-0.49997,-0.002374,0.398815,-264.220879,0.387127,62.331271
12.5963,0.010705,0.010264,-0.001947,-0.001601,-0.000651,-0.000803,0.010051,-0.49994,-0.001426,0.398815,-264.220879,0.387127,62.331271
12.6162,0.010314,0.010345,-0.002471,-0.001612,-0.000641,-0.000843,0.010051,-0.49994,-0.001426,0.398815,-264.220879,0.387127,62.331271
12.6365,0.010513,0.010371,-0.000962,-0.00162,-0.000633,-0.000868,0.009043,-0.499659,-0.002474,0.473816,-264.221008,0.312125,62.331165
12.6565,0.010705,0.010382,-0.003913,-0.001586,-0.000659,-0.000709,0.009439,-0.499647,-0.00186,0.473816,-264.221008,0.312125,62.331165
12.6763,0.010287,0.010081,-0.001373,-0.001559,-0.00068,-0.000595,0.008696,-0.49962,-0.003918,0.548818,-264.221213,0.237124,62.330998
12.6965,0.010858,0.010271,-0.002731,-0.00155,-0.000686,-0.000614,0.009505,-0.499891,-0.001606,0.548818,-264.221213,0.237124,62.330998
12.7164,0.010753,0.010636,-0.000975,-0.001544,-0.000692,-0.000627,0.009505,-0.499891,-0.001606,0.548818,-264.221213,0.237124,62.330998
12.7364,0.010526,0.009999,-0.003053,-0.001538,-0.000696,-0.000635,0.010194,-0.499391,-0.000998,0.589917,-264.221928,0.200583,62.330392
12.7565,0.011081,0.010347,-0.002791,-0.00153,-0.000702,-0.000546,0.009687,-0.499642,-0.001839,0.589917,-264.221928,0.200583,62.330392
12.776,0.01051,0.010388,-0.002853,-0.001524,-0.000707,-0.000482,0.009609,-0.499673,-0.002811,0.613881,-264.222673,0.197689,62.32977
12.7966,0.010498,0.009661,-0.002281,-0.001486,-0.000735,-9.7e-05,0.009102,-0.499616,-0.00285,0.613881,-264.222673,0.197689,62.32977
12.8162,0.010874,0.010145,-0.001778,-0.001455,-0.000759,0.000179,0.009102,-0.499616,-0.00285,0.613881,-264.222673,0.197689,62.32977
12.8364,0.010428,0.009751,-0.000808,-0.00143,-0.000778,0.000375,0.009909,-0.499881,-0.001797,0.581186,-264.223341,0.264322,62.329192
12.8562,0.01065,0.010212,-0.003171,-0.001473,-0.000748,-3.7e-05,0.009946,-0.500034,-0.001396,0.581186,-264.223341,0.264322,62.329192
12.8761,0.010506,0.009965,-0.002585,-0.001506,-0.000723,-0.000321,0.009029,-0.499787,-0.003171,0.506144,-264.223381,0.339364,62.329146
12.8965,0.010555,0.010048,-0.001962,-0.00149,-0.000733,-4.9e-05,0.009174,-0.500011,-0.002636,0.506144,-264.223381,0.339364,62.329146
12.9164,0.010223,0.010232,-0.00337,-0.001477,-0.000741,0.000146,0.009174,-0.500011,-0.002636,0.506144,-264.223381,0.339364,62.329146
12.9363,0.010611,0.010099,-0.003099,-0.001467,-0.000748,0.000284,0.008443,-0.499795,-0.003383,0.548052,-264.224068,0.336408,62.328525
12.9562,0.010522,0.009667,-0.001531,-0.001426,-0.000779,0.000564,0.008677,-0.49984,-0.003268,0.548052,-264.224068,0.336408,62.328525
12.9762,0.010753,0.009989,-0.00162,-0.001393,-0.000805,0.000765,0.009728,-0.500339,-0.001531,0.472974,-264.224239,0.411485,62.328337
12.9963,0.010429,0.010039,-0.002402,-0.001442,-0.00077,0.000321,0.009908,-0.50004,-0.001612,0.472974,-264.224239,0.411485,62.328337
13.0163,0.010497,0.010038,-0.00273,-0.001481,-0.000741,1.6e-05,0.009908,-0.50004,-0.001612,0.472974,-264.224239,0.411485,62.328337
13.0365,0.010306,0.00976,-0.002948,-0.001512,-0.000718,-0.000194,0.009101,-0.499963,-0.002729,0.398093,-264.224279,0.486367,62.328284
13.0564,0.010522,0.009897,-0.002254,-0.001487,-0.000735,9.4e-05,0.008976,-0.500077,-0.00282,0.398093,-264.224279,0.486367,62.328284
13.076,0.010488,0.010155,-0.003303,-0.001468,-0.000748,0.0003,0.00934,-0.500117,-0.002257,0.473362,-264.224753,0.411098,62.327838
13.0966,0.010252,0.009589,-0.001485,-0.001436,-0.000772,0.000558,0.00885,-0.499867,-0.003209,0.473362,-264.224753,0.411098,62.327838
13.1168,0.010066,0.009859,-0.002055,-0.001411,-0.000792,0.000742,0.00885,-0.499867,-0.003209,0.473362,-264.224753,0.411098,62.327838
13.1363,0.010132,0.010021,-0.001028,-0.00139,-0.000808,0.000873,0.008982,-0.500157,-0.002051,0.398643,-264.225111,0.485817,62.327442
13.1562,0.010253,0.009822,-0.002844,-0.001413,-0.000796,0.0004,0.00923,-0.500087,-0.001639,0.398643,-264.225111,0.485817,62.327442
13.176,0.01024,0.009697,-0.003885,-0.001429,-0.000786,7.6e-05,0.008796,-0.500179,-0.002841,0.323613,-264.225191,0.560847,62.327332
13.1961,0.010166,0.009944,-0.001281,-0.001393,-0.000811,0.000538,0.008307,-0.500288,-0.003791,0.323613,-264.225191,0.560847,62.327332
13.2162,0.010522,0.010219,-0.002782,-0.001363,-0.000832,0.000873,0.008307,-0.500288,-0.003791,0.323613,-264.225191,0.560847,62.327332
13.2362,0.009764,0.010071,-0.001774,-0.001338,-0.000849,0.001114,0.009062,-0.499799,-0.002778,0.398593,-264.225624,0.527635,62.326888
13.2563,0.009886,0.009873,-0.002579,-0.001341,-0.00085,0.000858,0.008975,-0.499854,-0.00237,0.398593,-264.225624,0.527635,62.326888
13.276,0.010293,0.009859,-0.001653,-0.001344,-0.00085,0.000681,0.008568,-0.500127,-0.002578,0.323598,-264.225653,0.602629,62.326845
13.2964,0.010395,0.00987,-0.002339,-0.001382,-0.000824,0.000308,0.009374,-0.500139,-0.001732,0.323598,-264.225653,0.602629,62.326845
13.3163,0.010308,0.009578,-0.001501,-0.001411,-0.000803,5.3e-05,0.009374,-0.500139,-0.001732,0.323598,-264.225653,0.602629,62.326845
13.3363,0.009858,0.00976,-0.002175,-0.001434,-0.000785,-0.000122,0.009503,-0.500444,-0.001484,0.312327,-264.226039,0.677747,62.326339
13.3564,0.009997,0.00998,-0.003704,-0.001452,-0.000769,-0.000228,0.009192,-0.500364,-0.001762,0.312327,-264.226039,0.677747,62.326339
13.3763,0.010135,0.009874,-0.001235,-0.001466,-0.000756,-0.0003,0.008099,-0.500021,-0.003702,0.387206,-264.226174,0.602867,62.32621
13.3962,0.010212,0.009987,-0.003193,-0.00148,-0.000746,-0.000483,0.009382,-0.500116,-0.001449,0.387206,-264.226174,0.602867,62.32621
13.416,0.010221,0.009815,-0.002015,-0.001491,-0.000737,-0.000609,0.009382,-0.500116,-0.001449,0.387206,-264.226174,0.602867,62.32621
13.4364,0.010279,0.009973,-0.002903,-0.001499,-0.000731,-0.000694,0.009178,-0.500192,-0.002015,0.462336,-264.226346,0.527737,62.326054
13.4565,0.009967,0.009518,-0.001638,-0.001482,-0.00074,-0.000396,0.009021,-0.500124,-0.002378,0.462336,-264.226346,0.527737,62.326054
13.4759,0.010194,0.009819,-0.001642,-0.001469,-0.000748,-0.000184,0.009127,-0.500484,-0.001638,0.537208,-264.22642,0.452865,62.325995
13.4966,0.010263,0.009838,-0.003127,-0.001482,-0.000738,-0.000312,0.009337,-0.500206,-0.001642,0.537208,-264.22642,0.452865,62.325995
13.5167,0.010438,0.010316,-0.003185,-0.001492,-0.00073,-0.000401,0.009337,-0.500206,-0.001642,0.537208,-264.22642,0.452865,62.325995
13.5362,0.009808,0.00991,-0.002909,-0.0015,-0.000723,-0.000462,0.008754,-0.499711,-0.003193,0.530034,-264.227078,0.408731,62.325376
13.5564,0.009979,0.009903,-0.002137,-0.001449,-0.000761,-2.2e-05,0.008574,-0.499867,-0.003079,0.530034,-264.227078,0.408731,62.325376
13.5763,0.010233,0.009705,-0.002722,-0.001407,-0.000792,0.000295,0.008854,-0.500113,-0.002147,0.590465,-264.227613,0.333889,62.324913
13.5965,0.009973,0.009851,-0.001696,-0.001404,-0.000793,0.000403,0.008844,-0.500278,-0.002673,0.590465,-264.227613,0.333889,62.324913
13.6166,0.009797,0.009967,-0.001972,-0.001402,-0.000793,0.000479,0.008844,-0.500278,-0.002673,0.590465,-264.227613,0.333889,62.324913
13.6366,0.009923,0.009458,-0.002918,-0.0014,-0.000794,0.000532,0.00878,-0.500037,-0.001972,0.515326,-264.227724,0.409029,62.324789
13.6566,0.009747,0.009776,-0.002059,-0.001389,-0.000803,0.000459,0.008639,-0.500241,-0.002355,0.515326,-264.227724,0.409029,62.324789
13.676,0.010372,0.010145,-0.002127,-0.001381,-0.000811,0.000408,0.008689,-0.500227,-0.002058,0.440447,-264.227829,0.483908,62.324662
13.6967,0.009912,0.009697,-0.00141,-0.00139,-0.000806,0.000288,0.009232,-0.499888,-0.002121,0.440447,-264.227829,0.483908,62.324662
13.7169,0.009958,0.009793,-0.001058,-0.001398,-0.000802,0.000204,0.009232,-0.499888,-0.002121,0.440447,-264.227829,0.483908,62.324662
13.7365,0.010339,0.009955,-0.002367,-0.001403,-0.000799,0.000146,0.009383,-0.500226,-0.001051,0.386134,-264.228184,0.558893,62.324247
13.7564,0.009629,0.009683,-0.001662,-0.001426,-0.000785,-0.000113,0.009277,-0.500154,-0.001583,0.386134,-264.228184,0.558893,62.324247
13.7764,0.01028,0.009425,-0.003889,-0.001443,-0.000773,-0.000292,0.008741,-0.500338,-0.001658,0.461121,-264.228748,0.564383,62.323651
13.7966,0.010286,0.009895,-0.003049,-0.001416,-0.000789,0.000253,0.008334,-0.500551,-0.003691,0.461121,-264.228748,0.564383,62.323651
13.8168,0.009484,0.009719,-0.003733,-0.001394,-0.000804,0.000649,0.008334,-0.500551,-0.003691,0.461121,-264.228748,0.564383,62.323651
13.8365,0.009944,0.009561,-0.002433,-0.001375,-0.000815,0.000934,0.007551,-0.500294,-0.003736,0.536167,-264.229084,0.489337,62.323348
13.8564,0.010215,0.009951,-0.002623,-0.001336,-0.000843,0.001005,0.008017,-0.500354,-0.003206,0.536167,-264.229084,0.489337,62.323348
13.8763,0.01014,0.009854,-0.002063,-0.001305,-0.000866,0.001055,0.008876,-0.500048,-0.002623,0.46121,-264.2291,0.564294,62.323326
13.8965,0.010274,0.009657,-0.001653,-0.001332,-0.000849,0.000723,0.00907,-0.500137,-0.002111,0.46121,-264.2291,0.564294,62.323326
13.9165,0.010087,0.009196,-0.002158,-0.001354,-0.000835,0.000494,0.00907,-0.500137,-0.002111,0.46121,-264.2291,0.564294,62.323326
13.9367,0.009593,0.009625,-0.003415,-0.00137,-0.000824,0.000336,0.008983,-0.500805,-0.002157,0.386085,-264.229132,0.639419,62.323278
13.9566,0.010123,0.009982,-0.002976,-0.001372,-0.00082,0.000424,0.008521,-0.500629,-0.002669,0.386085,-264.229132,0.639419,62.323278
13.9761,0.009639,0.010063,-0.001893,-0.001374,-0.000816,0.000487,0.008563,-0.500041,-0.002965,0.423977,-264.22972,0.644272,62.322608
13.9965,0.009865,0.009738,-0.002134,-0.001361,-0.00083,0.000281,0.008662,-0.499947,-0.001983,0.423977,-264.22972,0.644272,62.322608
14.0165,0.010021,0.009196,-0.001764,-0.00135,-0.000841,0.000139,0.008662,-0.499947,-0.001983,0.423977,-264.22972,0.644272,62.322608
14.0362,0.009971,0.00958,-0.003022,-0.00134,-0.00085,4.2e-05,0.009069,-0.500835,-0.001745,0.361029,-264.230259,0.680889,62.321958
14.0565,0.009671,0.009777,-0.002465,-0.001365,-0.000827,8.7e-05,0.0088,-0.500667,-0.002269,0.361029,-264.230259,0.680889,62.321958
14.0761,0.009731,0.009534,-0.00188,-0.001385,-0.000808,0.000119,0.008393,-0.500233,-0.002462,0.436011,-264.230556,0.605906,62.321656
14.0967,0.009506,0.009759,-0.00226,-0.001392,-0.000803,1.3e-05,0.008739,-0.500446,-0.00193,0.436011,-264.230556,0.605906,62.321656
14.1164,0.00953,0.00948,-0.000429,-0.001398,-0.000798,-6e-05,0.008739,-0.500446,-0.00193,0.436011,-264.230556,0.605906,62.321656
14.1362,0.009616,0.009562,-0.003358,-0.001403,-0.000794,-0.000111,0.009257,-0.500552,-0.000425,0.48815,-264.231141,0.566494,62.321044
14.1561,0.009573,0.009709,-0.003393,-0.001409,-0.00079,-0.000271,0.008696,-0.500507,-0.001625,0.48815,-264.231141,0.566494,62.321044
14.1764,0.009653,0.009517,-8.2e-05,-0.001415,-0.000786,-0.000381,0.007805,-0.50031,-0.003395,0.551152,-264.231688,0.491596,62.320519
14.1965,0.009679,0.009887,-0.002194,-0.001466,-0.000754,-0.001094,0.009456,-0.500469,-0.000363,0.551152,-264.231688,0.491596,62.320519
14.2164,0.009304,0.009572,-0.001271,-0.001507,-0.000726,-0.001583,0.009456,-0.500469,-0.000363,0.551152,-264.231688,0.491596,62.320519
14.237,0.009476,0.009585,-0.002147,-0.001539,-0.000703,-0.001919,0.008613,-0.500453,-0.001281,0.624281,-264.232197,0.416431,62.320076
14.2562,0.009559,0.009726,-0.003542,-0.001506,-0.000724,-0.00155,0.008516,-0.50044,-0.001627,0.624281,-264.232197,0.416431,62.320076
14.2763,0.009699,0.009247,-0.002706,-0.001478,-0.000741,-0.001284,0.007752,-0.500271,-0.003542,0.699123,-264.232197,0.341589,62.320076
14.2966,0.009416,0.009437,-0.00333,-0.001449,-0.000757,-0.0007,0.008268,-0.500708,-0.002781,0.699123,-264.232197,0.341589,62.320076
14.317,0.009441,0.009651,-0.001807,-0.001424,-0.00077,-0.000278,0.008268,-0.500708,-0.002781,0.699123,-264.232197,0.341589,62.320076
14.3364,0.009721,0.009235,-0.002222,-0.001404,-0.000781,2.7e-05,0.008513,-0.500352,-0.001811,0.774113,-264.232272,0.266598,62.320023
14.3564,0.009421,0.009439,-0.003433,-0.0014,-0.000784,-3.3e-05,0.008542,-0.500516,-0.001975,0.774113,-264.232272,0.266598,62.320023
14.3764,0.009815,0.0094,-0.002224,-0.001396,-0.000787,-7.4e-05,0.007666,-0.50056,-0.003434,0.698986,-264.23234,0.341725,62.319954
14.3964,0.00924,0.009414,-0.001169,-0.001396,-0.000786,3.1e-05,0.00859,-0.500596,-0.002332,0.698986,-264.23234,0.341725,62.319954
14.4167,0.009631,0.009473,-0.001785,-0.001396,-0.000785,0.000105,0.00859,-0.500596,-0.002332,0.698986,-264.23234,0.341725,62.319954
14.4366,0.00918,0.009375,-0.003473,-0.001397,-0.000784,0.000157,0.008694,-0.500542,-0.00179,0.624107,-264.232643,0.416605,62.31966
14.4567,0.009533,0.009601,-0.002326,-0.001373,-0.000802,0.000242,0.008166,-0.500576,-0.002477,0.624107,-264.232643,0.416605,62.31966
14.4764,0.009655,0.009276,-0.003095,-0.001355,-0.000816,0.000302,0.008327,-0.50041,-0.002326,0.549111,-264.232927,0.491601,62.319358
14.4965,0.009561,0.009765,-0.002967,-0.001338,-0.000827,0.000516,0.008098,-0.500695,-0.003029,0.549111,-264.232927,0.491601,62.319358
14.5169,0.009509,0.009472,-0.00178,-0.001325,-0.000837,0.000667,0.008098,-0.500695,-0.003029,0.549111,-264.232927,0.491601,62.319358
14.5362,0.009445,0.009847,-0.001694,-0.001314,-0.000844,0.000773,0.008568,-0.500547,-0.001775,0.473967,-264.233276,0.566745,62.318966
14.5566,0.009186,0.009505,-0.002345,-0.001328,-0.000841,0.000383,0.008569,-0.500388,-0.001742,0.473967,-264.233276,0.566745,62.318966
14.5762,0.009193,0.009246,-0.002983,-0.001338,-0.000837,0.000114,0.00798,-0.5005,-0.002341,0.39911,-264.233409,0.641602,62.318784
14.5965,0.009471,0.009607,-0.001852,-0.001304,-0.00086,0.000345,0.007699,-0.500729,-0.002925,0.39911,-264.233409,0.641602,62.318784
14.6165,0.009268,0.009154,-0.000732,-0.001277,-0.000878,0.000509,0.007699,-0.500729,-0.002925,0.39911,-264.233409,0.641602,62.318784
14.6365,0.00913,0.009198,-0.001347,-0.001254,-0.000893,0.000627,0.008851,-0.500872,-0.000727,0.474113,-264.233879,0.595495,62.318291
14.6566,0.009101,0.009251,-0.003686,-0.00131,-0.000858,-8.4e-05,0.008681,-0.500846,-0.000978,0.474113,-264.233879,0.595495,62.318291
14.676,0.009439,0.009604,-0.002526,-0.001354,-0.000828,-0.000569,0.007201,-0.500757,-0.003679,0.399115,-264.234133,0.670493,62.317956
14.6963,0.00927,0.009283,-0.002375,-0.001325,-0.000847,-0.000237,0.008063,-0.500427,-0.00263,0.399115,-264.234133,0.670493,62.317956
14.7162,0.009405,0.009463,-0.002349,-0.001302,-0.000863,2e-06,0.008063,-0.500427,-0.00263,0.399115,-264.234133,0.670493,62.317956
14.7364,0.00946,0.009436,-0.002022,-0.001283,-0.000876,0.000175,0.008205,-0.500537,-0.002349,0.474118,-264.234158,0.59549,62.317937
14.7563,0.009509,0.009573,-0.002509,-0.001288,-0.000872,0.000157,0.008297,-0.500548,-0.002215,0.474118,-264.234158,0.59549,62.317937
14.7763,0.009413,0.009369,-0.002241,-0.001292,-0.000869,0.000146,0.008193,-0.500449,-0.002504,0.540217,-264.234687,0.65367,62.317365
14.7967,0.008847,0.009601,-0.002297,-0.001296,-0.000866,0.000157,0.008262,-0.500616,-0.002262,0.540217,-264.234687,0.65367,62.317365
14.8165,0.009467,0.009107,-0.002581,-0.001299,-0.000863,0.000165,0.008262,-0.500616,-0.002262,0.540217,-264.234687,0.65367,62.317365
14.8362,0.008914,0.009501,-0.003669,-0.001302,-0.000861,0.000172,0.008097,-0.500927,-0.002575,0.543048,-264.235289,0.638275,62.316723
14.8564,0.009411,0.009201,-0.002296,-0.001272,-0.00088,0.000421,0.007653,-0.500752,-0.003028,0.543048,-264.235289,0.638275,62.316723
14.8766,0.008972,0.009026,-0.003148,-0.001248,-0.000896,0.000597,0.008199,-0.500825,-0.00229,0.526064,-264.235886,0.638365,62.31608
14.8969,0.00897,0.009199,-0.000844,-0.001224,-0.000911,0.000735,0.007437,-0.50096,-0.003073,0.526064,-264.235886,0.638365,62.31608
14.9166,0.008657,0.008629,-0.003301,-0.001205,-0.000923,0.000832,0.007437,-0.50096,-0.003073,0.526064,-264.235886,0.638365,62.31608
14.9362,0.008995,0.009037,-0.00168,-0.00119,-0.000933,0.0009,0.006944,-0.501388,-0.00329,0.451354,-264.236178,0.713075,62.315698
14.9568,0.008738,0.0091,-0.002412,-0.00119,-0.000932,0.000815,0.007419,-0.50122,-0.002644,0.451354,-264.236178,0.713075,62.315698
14.976,0.009072,0.009205,-0.002025,-0.00119,-0.000931,0.000754,0.007491,-0.500911,-0.002402,0.376451,-264.236393,0.787978,62.31537
