mach0312/omni-docking-bench/src/icros_test_setup/results/MPPI_sample/timeseries/trial_051.csv
t,x,y,yaw,vx,vy,wz,bl_x,bl_y,bl_yaw,front_steering_joint,front_wheel_joint,rear_steering_joint,rear_wheel_joint
0.0,0.017879,-0.022091,-0.070269,-0.006407,-0.000924,-0.002442,-0.017702,-0.531024,-0.070645,0.360493,-261.445107,-0.088382,72.254282
0.0004,0.018034,-0.022923,-0.069961,0.0,0.0,0.0,-0.017702,-0.531024,-0.070645,0.360493,-261.448547,-0.088382,72.251051
0.0007,0.017807,-0.022355,-0.069644,0.0,0.0,0.0,-0.016725,-0.530955,-0.068414,0.360493,-261.450897,-0.088382,72.248844
0.001,0.017631,-0.022383,-0.071126,0.0,0.0,0.0,-0.016852,-0.531186,-0.068544,0.360493,-261.452385,-0.088382,72.247445
0.0013,0.017901,-0.022668,-0.070063,0.0,0.0,0.0,-0.016852,-0.531186,-0.068544,0.360493,-261.452385,-0.088382,72.247445
0.0016,0.017785,-0.02256,-0.070805,0.0,0.0,0.0,-0.016852,-0.531186,-0.068544,0.360493,-261.452385,-0.088382,72.247445
0.0018,0.017722,-0.02227,-0.069616,0.0,0.0,0.0,-0.017279,-0.531053,-0.069518,0.360493,-261.452385,-0.088382,72.247445
0.0021,0.017754,-0.022659,-0.069853,0.0,0.0,0.0,-0.017279,-0.531053,-0.069518,0.360493,-261.452385,-0.088382,72.247445
0.0023,0.017671,-0.022482,-0.07016,0.0,0.0,0.0,-0.017551,-0.53118,-0.069766,0.360493,-261.452385,-0.088382,72.247445
0.0026,0.017754,-0.022522,-0.069877,0.0,0.0,0.0,-0.017551,-0.53118,-0.069766,0.360493,-261.452385,-0.088382,72.247445
0.0167,0.017577,-0.022332,-0.069953,0.0,0.0,0.0,-0.017854,-0.531278,-0.069877,0.360493,-261.452385,-0.088382,72.247445
0.0369,0.017863,-0.022096,-0.070544,0.0,0.0,0.0,-0.01805,-0.531103,-0.069946,0.360493,-261.452385,-0.088382,72.247445
0.0569,0.017777,-0.022483,-0.069926,0.0,0.0,0.0,-0.01805,-0.531103,-0.069946,0.360493,-261.452385,-0.088382,72.247445
0.0764,0.018302,-0.022205,-0.070226,0.0,0.0,0.0,-0.017857,-0.531236,-0.069926,0.360493,-261.452385,-0.088382,72.247445
0.0969,0.017946,-0.022231,-0.071336,0.0,0.0,0.0,-0.017704,-0.531118,-0.070049,0.360493,-261.452385,-0.088382,72.247445
0.1173,0.018111,-0.022419,-0.069149,0.001193,0.003941,0.00603,-0.018404,-0.530934,-0.071336,0.360493,-261.452385,-0.088382,72.247445
0.137,0.017771,-0.022387,-0.070663,0.001291,0.004276,0.006504,-0.017264,-0.531171,-0.069384,0.360493,-261.452385,-0.088382,72.247445
0.1567,0.017989,-0.022231,-0.070311,0.001378,0.004555,0.006889,-0.017264,-0.531171,-0.069384,0.360493,-261.452385,-0.088382,72.247445
0.1767,0.017714,-0.022567,-0.069904,0.001456,0.004786,0.007202,-0.01784,-0.53097,-0.070311,0.43538,-261.452385,-0.013495,72.247445
0.1966,0.017838,-0.022661,-0.070594,0.001539,0.004969,0.007496,-0.017867,-0.531114,-0.070145,0.43538,-261.452385,-0.013495,72.247445
0.2164,0.017608,-0.022162,-0.069593,0.00161,0.005121,0.007735,-0.018135,-0.53139,-0.070594,0.510459,-261.452385,0.061584,72.247445
0.2365,0.017317,-0.022314,-0.070003,0.001674,0.005246,0.007927,-0.017881,-0.53097,-0.069683,0.510459,-261.452385,0.061584,72.247445
0.2567,0.017668,-0.022188,-0.069484,0.001729,0.005351,0.008082,-0.017881,-0.53097,-0.069683,0.510459,-261.452385,0.061584,72.247445
0.2764,0.017775,-0.022301,-0.068883,0.001778,0.005439,0.008208,-0.01774,-0.530958,-0.069484,0.585343,-261.452385,0.136468,72.247445
0.2966,0.017974,-0.022582,-0.069617,0.001812,0.005518,0.008308,-0.017573,-0.531012,-0.069241,0.585343,-261.452385,0.136468,72.247445
0.3162,0.017879,-0.022043,-0.069936,0.001843,0.005584,0.008389,-0.017502,-0.531347,-0.069617,0.660334,-261.452385,0.211459,72.247446
0.3364,0.017633,-0.022168,-0.069824,0.001876,0.005636,0.008455,-0.017736,-0.530846,-0.069907,0.660334,-261.452385,0.211459,72.247446
0.3565,0.017836,-0.022919,-0.069526,0.001906,0.00568,0.008507,-0.017736,-0.530846,-0.069907,0.660334,-261.452385,0.211459,72.247446
0.3765,0.017633,-0.02227,-0.069392,0.001932,0.005717,0.008549,-0.017594,-0.531687,-0.069526,0.735334,-261.452384,0.244895,72.247446
0.3966,0.017895,-0.022235,-0.069694,0.001941,0.005757,0.008583,-0.017649,-0.531424,-0.069471,0.735334,-261.452384,0.244895,72.247446
0.4167,0.017916,-0.022952,-0.070459,0.001949,0.00579,0.00861,-0.01762,-0.530997,-0.069694,0.810336,-261.452381,0.251101,72.247446
0.4367,0.017374,-0.022789,-0.068505,0.00196,0.005817,0.008631,-0.017956,-0.531626,-0.070392,0.810336,-261.452381,0.251101,72.247446
0.457,0.017559,-0.022365,-0.070146,0.00197,0.00584,0.008648,-0.017956,-0.531626,-0.070392,0.810336,-261.452381,0.251101,72.247446
0.4764,0.017429,-0.022199,-0.070453,0.001979,0.00586,0.008662,-0.018186,-0.53111,-0.070145,0.885474,-261.452368,0.266418,72.247449
0.4969,0.017602,-0.022356,-0.071631,0.002007,0.005864,0.008674,-0.018303,-0.531037,-0.070272,0.885474,-261.452368,0.266418,72.247449
0.5169,0.01765,-0.022776,-0.070816,0.002031,0.005868,0.008683,-0.018897,-0.531046,-0.071628,0.960448,-261.452309,0.280236,72.247459
0.5364,0.017574,-0.022808,-0.071418,0.002046,0.005874,0.008691,-0.018476,-0.531458,-0.070886,0.960448,-261.452309,0.280236,72.247459
0.557,0.017609,-0.022326,-0.069804,0.002059,0.005879,0.008696,-0.018476,-0.531458,-0.070886,0.960448,-261.452309,0.280236,72.247459
0.577,0.017647,-0.022046,-0.07092,0.002071,0.005884,0.008701,-0.017954,-0.531074,-0.06979,1.035472,-261.452097,0.271017,72.247499
0.5969,0.017632,-0.022729,-0.070835,0.002084,0.005885,0.008705,-0.018169,-0.530948,-0.070242,1.035472,-261.452097,0.271017,72.247499
0.6166,0.017903,-0.022079,-0.069321,0.002095,0.005887,0.008708,-0.018447,-0.531428,-0.070802,1.110359,-261.451498,0.268475,72.247611
0.6368,0.017583,-0.022174,-0.070576,0.00209,0.005897,0.00871,-0.017509,-0.530902,-0.069446,1.110359,-261.451498,0.268475,72.247611
0.6568,0.018223,-0.022316,-0.06953,0.002086,0.005905,0.008712,-0.017509,-0.530902,-0.069446,1.110359,-261.451498,0.268475,72.247611
0.6772,0.017787,-0.022033,-0.06964,0.002083,0.005913,0.008713,-0.017165,-0.531018,-0.06943,1.185496,-261.450168,0.264915,72.247865
0.6968,0.017798,-0.02203,-0.071063,0.002077,0.005921,0.008714,-0.017381,-0.53092,-0.069505,1.185496,-261.450168,0.264915,72.247865
0.7172,0.017803,-0.022288,-0.070117,0.002073,0.005928,0.008715,-0.018361,-0.530652,-0.070924,1.26049,-261.447805,0.27658,72.248313
0.7368,0.017413,-0.022465,-0.068629,0.002081,0.005927,0.008715,-0.017962,-0.530997,-0.070179,1.26049,-261.447805,0.27658,72.248313
0.7566,0.017735,-0.02199,-0.066943,0.002089,0.005926,0.008716,-0.017962,-0.530997,-0.070179,1.26049,-261.447805,0.27658,72.248313
0.7767,0.017726,-0.021959,-0.068923,0.002095,0.005925,0.008717,-0.016292,-0.530665,-0.066666,1.335478,-261.444297,0.284464,72.248975
0.7965,0.017572,-0.021657,-0.069137,0.002078,0.005937,0.008778,-0.016723,-0.530677,-0.067536,1.335478,-261.444297,0.284464,72.248975
0.8166,0.017503,-0.021389,-0.06857,0.002065,0.005947,0.008828,-0.017583,-0.530263,-0.068871,1.386699,-261.439901,0.279733,72.249812
0.8367,0.017645,-0.021504,-0.069408,0.002083,0.005939,0.0089,-0.017449,-0.530188,-0.068583,1.386699,-261.439901,0.279733,72.249812
0.8566,0.01767,-0.021803,-0.068391,0.002097,0.005931,0.00896,-0.017449,-0.530188,-0.068583,1.386699,-261.439901,0.279733,72.249812
0.8764,0.017117,-0.021095,-0.067739,0.002109,0.005924,0.009008,-0.01708,-0.53037,-0.068024,1.390653,-261.4353,0.262938,72.250666
0.8964,0.017191,-0.021161,-0.066673,0.002115,0.005921,0.009078,-0.017204,-0.530154,-0.067861,1.390653,-261.4353,0.262938,72.250666
0.9166,0.017704,-0.021262,-0.068619,0.00212,0.005918,0.009135,-0.016713,-0.529857,-0.066407,1.388228,-261.430975,0.197805,72.251467
0.9367,0.017552,-0.021053,-0.069365,0.002125,0.005915,0.00921,-0.017213,-0.530035,-0.068414,1.388228,-261.430975,0.197805,72.251467
0.9566,0.017169,-0.020847,-0.068847,0.002129,0.005912,0.009271,-0.017213,-0.530035,-0.068414,1.388228,-261.430975,0.197805,72.251467
0.9766,0.017192,-0.020843,-0.066879,0.002133,0.005909,0.009321,-0.017812,-0.529403,-0.068474,1.388476,-261.426417,0.158562,72.252304
0.9972,0.017392,-0.020718,-0.069094,0.002154,0.005895,0.009391,-0.017428,-0.529497,-0.067787,1.388476,-261.426417,0.158562,72.252304
1.017,0.01709,-0.020379,-0.067066,0.002171,0.005883,0.009448,-0.017742,-0.529327,-0.068811,1.388998,-261.421942,0.101075,72.253117
1.0365,0.01716,-0.020488,-0.06784,0.002185,0.005872,0.009524,-0.017144,-0.529232,-0.067211,1.388998,-261.421942,0.101075,72.253117
1.0569,0.017184,-0.019821,-0.067332,0.002196,0.005864,0.009586,-0.017144,-0.529232,-0.067211,1.388998,-261.421942,0.101075,72.253117
1.0769,0.017142,-0.020209,-0.066881,0.002205,0.005856,0.009636,-0.017026,-0.528435,-0.066951,1.38661,-261.417377,0.0517,72.253954
1.0966,0.017298,-0.020379,-0.065248,0.002222,0.005843,0.009706,-0.016979,-0.528667,-0.066878,1.38661,-261.417377,0.0517,72.253954
1.1166,0.016676,-0.019534,-0.065866,0.002235,0.005832,0.009764,-0.015878,-0.529124,-0.064962,1.385168,-261.412911,-0.013367,72.254778
1.1366,0.016894,-0.019927,-0.065136,0.002248,0.005822,0.009833,-0.0168,-0.52848,-0.065774,1.385168,-261.412911,-0.013367,72.254778
1.1566,0.016894,-0.01981,-0.065799,0.002258,0.005813,0.00989,-0.0168,-0.52848,-0.065774,1.385168,-261.412911,-0.013367,72.254778
1.1769,0.017119,-0.019327,-0.065868,0.002266,0.005805,0.009937,-0.016534,-0.528477,-0.065405,1.383496,-261.408271,-0.058646,72.255644
1.1968,0.016722,-0.019223,-0.065579,0.002268,0.005801,0.009995,-0.016487,-0.528346,-0.065547,1.383496,-261.408271,-0.058646,72.255644
1.2166,0.016797,-0.019221,-0.063775,0.002269,0.005798,0.010042,-0.01662,-0.527956,-0.065278,1.382258,-261.403674,-0.116098,72.256511
1.2366,0.016642,-0.018743,-0.06441,0.002257,0.005804,0.010094,-0.01578,-0.528156,-0.063888,1.382258,-261.403674,-0.116098,72.256511
1.2567,0.016909,-0.01938,-0.06465,0.002247,0.005808,0.010137,-0.01578,-0.528156,-0.063888,1.382258,-261.403674,-0.116098,72.256511
1.2767,0.016657,-0.018841,-0.066081,0.002239,0.005812,0.010172,-0.015931,-0.528082,-0.064237,1.382856,-261.398869,-0.146681,72.257419
1.2965,0.016616,-0.019209,-0.064454,0.002254,0.005801,0.010211,-0.016376,-0.527906,-0.064963,1.382856,-261.398869,-0.146681,72.257419
1.317,0.016294,-0.018617,-0.065933,0.002266,0.005792,0.010242,-0.016151,-0.527975,-0.064138,1.386678,-261.394071,-0.177115,72.258311
1.3368,0.016407,-0.018359,-0.064264,0.002306,0.005763,0.010274,-0.017204,-0.52754,-0.065762,1.386678,-261.394071,-0.177115,72.258311
1.3565,0.016754,-0.018356,-0.065855,0.002339,0.005739,0.0103,-0.017204,-0.52754,-0.065762,1.386678,-261.394071,-0.177115,72.258311
1.3767,0.016577,-0.018462,-0.063187,0.002365,0.005718,0.010321,-0.016699,-0.527018,-0.065432,1.384832,-261.389225,-0.201853,72.259226
1.3969,0.016292,-0.018427,-0.063986,0.002373,0.00571,0.010341,-0.01625,-0.527165,-0.064469,1.384832,-261.389225,-0.201853,72.259226
1.4167,0.016241,-0.018472,-0.064016,0.002379,0.005704,0.010358,-0.016234,-0.527211,-0.063667,1.376534,-261.38445,-0.242767,72.260175
1.4368,0.016404,-0.018117,-0.064266,0.002381,0.005699,0.010376,-0.016368,-0.5274,-0.063971,1.376534,-261.38445,-0.242767,72.260175
1.4567,0.016704,-0.018244,-0.064763,0.002384,0.005696,0.01039,-0.016368,-0.5274,-0.063971,1.376534,-261.38445,-0.242767,72.260175
1.4767,0.016063,-0.017817,-0.064229,0.002386,0.005693,0.010402,-0.016187,-0.526944,-0.064332,1.375578,-261.379568,-0.256028,72.261154
1.4966,0.016045,-0.017934,-0.062224,0.002401,0.00568,0.010416,-0.016371,-0.526844,-0.06424,1.375578,-261.379568,-0.256028,72.261154
1.5167,0.015666,-0.017394,-0.060685,0.002414,0.00567,0.010428,-0.015582,-0.526771,-0.061893,1.375286,-261.374672,-0.269968,72.262141
1.5363,0.016198,-0.017263,-0.062837,0.002407,0.005673,0.010441,-0.015289,-0.526475,-0.060776,1.375286,-261.374672,-0.269968,72.262141
1.5565,0.016352,-0.017235,-0.061004,0.002401,0.005675,0.010451,-0.015289,-0.526475,-0.060776,1.375286,-261.374672,-0.269968,72.262141
1.5764,0.015618,-0.016871,-0.060652,0.002396,0.005677,0.01046,-0.014626,-0.526056,-0.060569,1.372928,-261.369766,-0.281863,72.263145
1.5966,0.015884,-0.017442,-0.060857,0.002394,0.005677,0.010471,-0.014888,-0.525979,-0.060552,1.372928,-261.369766,-0.281863,72.263145
1.6167,0.015594,-0.016461,-0.059885,0.002393,0.005678,0.01048,-0.015047,-0.526323,-0.060525,1.374728,-261.364847,-0.288486,72.264145
1.6365,0.015414,-0.017033,-0.059676,0.002404,0.005669,0.010491,-0.014935,-0.525605,-0.059924,1.374728,-261.364847,-0.288486,72.264145
1.6567,0.015629,-0.017233,-0.06068,0.002413,0.005662,0.010501,-0.014935,-0.525605,-0.059924,1.374728,-261.364847,-0.288486,72.264145
1.6766,0.015573,-0.016596,-0.062107,0.00242,0.005656,0.010509,-0.015184,-0.526064,-0.060243,1.375209,-261.359932,-0.293318,72.265143
1.6969,0.015286,-0.016696,-0.060026,0.002435,0.005644,0.010519,-0.015537,-0.525854,-0.060952,1.375209,-261.359932,-0.293318,72.265143
1.7167,0.015268,-0.016348,-0.059282,0.002448,0.005634,0.010527,-0.015221,-0.525602,-0.059692,1.37299,-261.355018,-0.305261,72.266155
1.737,0.015698,-0.016257,-0.059618,0.002454,0.005628,0.010536,-0.014969,-0.525457,-0.059302,1.37299,-261.355018,-0.305261,72.266155
1.7568,0.015359,-0.016255,-0.061205,0.00246,0.005623,0.010544,-0.014969,-0.525457,-0.059302,1.37299,-261.355018,-0.305261,72.266155
1.7766,0.016016,-0.01658,-0.058279,0.002464,0.005619,0.01055,-0.015719,-0.525071,-0.060765,1.370581,-261.350101,-0.314128,72.267183
1.7968,0.015078,-0.016171,-0.059543,0.002469,0.005614,0.010557,-0.014879,-0.525307,-0.059702,1.370581,-261.350101,-0.314128,72.267183
1.8163,0.015136,-0.015726,-0.058668,0.002473,0.00561,0.010563,-0.015182,-0.525093,-0.059206,1.36929,-261.345182,-0.323054,72.268221
1.8365,0.01518,-0.016159,-0.057751,0.002487,0.005598,0.01057,-0.014801,-0.524862,-0.058699,1.36929,-261.345182,-0.323054,72.268221
1.8568,0.015354,-0.015808,-0.058638,0.002499,0.005588,0.010575,-0.014801,-0.524862,-0.058699,1.36929,-261.345182,-0.323054,72.268221
1.8766,0.015188,-0.015928,-0.056492,0.002509,0.00558,0.01058,-0.014417,-0.524702,-0.058195,1.368587,-261.340259,-0.327928,72.269266
1.8968,0.014977,-0.015255,-0.059096,0.002496,0.005587,0.010584,-0.014076,-0.524843,-0.057456,1.368587,-261.340259,-0.327928,72.269266
1.9164,0.014909,-0.015377,-0.057998,0.002486,0.005594,0.010587,-0.015055,-0.524193,-0.05876,1.365413,-261.335349,-0.337985,72.270327
1.9366,0.014561,-0.01528,-0.05971,0.002506,0.005578,0.010592,-0.014685,-0.524481,-0.05805,1.365413,-261.335349,-0.337985,72.270327
1.9568,0.014694,-0.015017,-0.058505,0.002523,0.005565,0.010597,-0.014685,-0.524481,-0.05805,1.365413,-261.335349,-0.337985,72.270327
1.9763,0.014785,-0.014691,-0.058158,0.002536,0.005554,0.010601,-0.015008,-0.523916,-0.058061,1.367527,-261.330424,-0.337472,72.271381
1.9968,0.014773,-0.015284,-0.057544,0.002573,0.005524,0.010607,-0.014934,-0.523855,-0.058049,1.367527,-261.330424,-0.337472,72.271381
2.0166,0.014805,-0.014283,-0.057548,0.002603,0.005499,0.010611,-0.014468,-0.524268,-0.057206,1.362992,-261.325509,-0.348244,72.27246
2.0367,0.014759,-0.014651,-0.057437,0.002627,0.005478,0.010616,-0.014519,-0.523501,-0.057502,1.362992,-261.325509,-0.348244,72.27246
2.0566,0.01427,-0.014884,-0.055933,0.002646,0.00546,0.010619,-0.014519,-0.523501,-0.057502,1.362992,-261.325509,-0.348244,72.27246
2.0766,0.014167,-0.014321,-0.056703,0.002662,0.005445,0.010622,-0.01412,-0.523864,-0.055491,1.356835,-261.320621,-0.360686,72.273569
2.097,0.014494,-0.014398,-0.055898,0.002666,0.00544,0.010624,-0.01436,-0.523689,-0.055939,1.356835,-261.320621,-0.360686,72.273569
2.1167,0.014285,-0.013983,-0.057626,0.002669,0.005435,0.010625,-0.013905,-0.523434,-0.055561,1.351288,-261.315745,-0.373109,72.274709
2.1369,0.014317,-0.013813,-0.05443,0.002704,0.005404,0.01063,-0.014979,-0.523154,-0.057428,1.351288,-261.315745,-0.373109,72.274709
2.1569,0.014534,-0.013811,-0.05677,0.002733,0.005378,0.010633,-0.014979,-0.523154,-0.057428,1.351288,-261.315745,-0.373109,72.274709
2.1769,0.014292,-0.013894,-0.055423,0.002757,0.005356,0.010635,-0.014279,-0.522769,-0.056326,1.35061,-261.310859,-0.376223,72.275856
2.1964,0.014213,-0.013868,-0.055781,0.002761,0.005349,0.010637,-0.014133,-0.522884,-0.055903,1.35061,-261.310859,-0.376223,72.275856
2.217,0.014062,-0.013685,-0.05532,0.002765,0.005343,0.010638,-0.014124,-0.522911,-0.055445,1.34227,-261.306016,-0.391904,72.277044
2.2371,0.014499,-0.013375,-0.055186,0.002768,0.005338,0.010639,-0.014131,-0.522898,-0.055314,1.34227,-261.306016,-0.391904,72.277044
2.2569,0.014218,-0.01367,-0.053781,0.00277,0.005334,0.01064,-0.014131,-0.522898,-0.055314,1.34227,-261.306016,-0.391904,72.277044
2.2766,0.014398,-0.013186,-0.053594,0.002772,0.005331,0.01064,-0.01307,-0.522716,-0.053336,1.341387,-261.30116,-0.395274,72.27824
2.2964,0.014223,-0.013208,-0.054203,0.00275,0.005346,0.01064,-0.012995,-0.522584,-0.05339,1.341387,-261.30116,-0.395274,72.27824
2.3165,0.013861,-0.012856,-0.053732,0.002732,0.005359,0.010639,-0.01331,-0.522294,-0.053865,1.340574,-261.296291,-0.398736,72.279446
2.3367,0.014022,-0.0129,-0.053612,0.002749,0.005345,0.010642,-0.013507,-0.522126,-0.053727,1.340574,-261.296291,-0.398736,72.279446
2.3569,0.014014,-0.013184,-0.054594,0.002763,0.005332,0.010644,-0.013507,-0.522126,-0.053727,1.340574,-261.296291,-0.398736,72.279446
2.3767,0.013585,-0.012346,-0.052466,0.002774,0.005322,0.010646,-0.013689,-0.522207,-0.05415,1.344359,-261.291437,-0.39499,72.280627
2.3967,0.013775,-0.012466,-0.053583,0.002788,0.00531,0.010647,-0.013459,-0.521953,-0.053413,1.344359,-261.291437,-0.39499,72.280627
2.4172,0.013583,-0.012179,-0.052219,0.002799,0.005299,0.010649,-0.013442,-0.521569,-0.053243,1.340361,-261.286583,-0.402054,72.281831
2.4371,0.01362,-0.012309,-0.053658,0.002813,0.005285,0.010651,-0.013069,-0.521483,-0.052294,1.340361,-261.286583,-0.402054,72.281831
2.4566,0.013781,-0.011978,-0.051523,0.002824,0.005274,0.010653,-0.013069,-0.521483,-0.052294,1.340361,-261.286583,-0.402054,72.281831
2.4764,0.01368,-0.012164,-0.05047,0.002834,0.005264,0.010655,-0.012356,-0.521086,-0.051078,1.337964,-261.281734,-0.406516,72.283049
2.4965,0.0138,-0.011866,-0.051195,0.002823,0.005271,0.010655,-0.012216,-0.521236,-0.050779,1.337964,-261.281734,-0.406516,72.283049
2.5165,0.013481,-0.011998,-0.051916,0.002814,0.005277,0.010655,-0.0122,-0.521035,-0.050856,1.33458,-261.276887,-0.413347,72.284288
2.5366,0.013639,-0.011485,-0.050687,0.002827,0.005264,0.010657,-0.012912,-0.521279,-0.051808,1.33458,-261.276887,-0.413347,72.284288
2.5565,0.013498,-0.012017,-0.050909,0.002838,0.005254,0.010658,-0.012912,-0.521279,-0.051808,1.33458,-261.276887,-0.413347,72.284288
2.5775,0.013235,-0.011718,-0.048414,0.002847,0.005245,0.010659,-0.012326,-0.521142,-0.050464,1.336427,-261.272042,-0.412332,72.285516
2.5964,0.013127,-0.01167,-0.050733,0.00283,0.005257,0.010658,-0.011949,-0.521108,-0.049569,1.336427,-261.272042,-0.412332,72.285516
2.6166,0.01344,-0.011221,-0.05069,0.002815,0.005268,0.010658,-0.012637,-0.520853,-0.050394,1.333132,-261.267204,-0.418087,72.286762
2.6369,0.013366,-0.011289,-0.049866,0.002839,0.005247,0.010661,-0.012416,-0.520582,-0.050649,1.333132,-261.267204,-0.418087,72.286762
2.6569,0.013661,-0.011275,-0.051579,0.002859,0.005229,0.010663,-0.012416,-0.520582,-0.050649,1.333132,-261.267204,-0.418087,72.286762
2.6768,0.013286,-0.011107,-0.051241,0.002874,0.005215,0.010665,-0.012504,-0.520383,-0.051134,1.336143,-261.262365,-0.415195,72.287992
2.6969,0.013342,-0.010883,-0.050601,0.002901,0.00519,0.010669,-0.012625,-0.52038,-0.051126,1.336143,-261.262365,-0.415195,72.287992
2.7171,0.013145,-0.010583,-0.048511,0.002923,0.005168,0.010671,-0.012354,-0.52007,-0.050263,1.330451,-261.257543,-0.424523,72.289252
2.7373,0.01304,-0.010694,-0.049732,0.002925,0.005164,0.010672,-0.011647,-0.519982,-0.048644,1.330451,-261.257543,-0.424523,72.289252
2.7573,0.013037,-0.010855,-0.050552,0.002926,0.00516,0.010673,-0.011647,-0.519982,-0.048644,1.330451,-261.257543,-0.424523,72.289252
2.7771,0.012976,-0.010319,-0.049475,0.002927,0.005156,0.010674,-0.012601,-0.519994,-0.050106,1.325707,-261.252733,-0.432339,72.290537
2.797,0.013099,-0.010861,-0.048298,0.00296,0.005125,0.010678,-0.012441,-0.519848,-0.049798,1.325707,-261.252733,-0.432339,72.290537
2.8163,0.012467,-0.010042,-0.047614,0.002986,0.005099,0.01068,-0.011422,-0.520106,-0.047957,1.325144,-261.247919,-0.435709,72.291828
2.8368,0.012776,-0.010085,-0.048181,0.003,0.005083,0.010683,-0.011768,-0.519511,-0.047627,1.325144,-261.247919,-0.435709,72.291828
2.8569,0.012215,-0.010101,-0.047462,0.003011,0.00507,0.010684,-0.011768,-0.519511,-0.047627,1.325144,-261.247919,-0.435709,72.291828
2.8769,0.01275,-0.010014,-0.048274,0.00302,0.005059,0.010686,-0.011846,-0.519319,-0.047015,1.319337,-261.243134,-0.444946,72.293147
2.8969,0.01244,-0.009947,-0.04573,0.003037,0.00504,0.010688,-0.011836,-0.519336,-0.047467,1.319337,-261.243134,-0.444946,72.293147
2.9172,0.012315,-0.009309,-0.049474,0.003051,0.005024,0.01069,-0.010771,-0.519257,-0.045389,1.315774,-261.238344,-0.452332,72.294491
2.9367,0.012686,-0.009965,-0.046749,0.003112,0.00496,0.010697,-0.012705,-0.518729,-0.049082,1.315774,-261.238344,-0.452332,72.294491
2.9567,0.012545,-0.009661,-0.047965,0.003161,0.004907,0.010703,-0.012705,-0.518729,-0.049082,1.315774,-261.238344,-0.452332,72.294491
2.9767,0.012522,-0.009569,-0.045906,0.003201,0.004862,0.010707,-0.01177,-0.51887,-0.047518,1.312618,-261.233541,-0.458111,72.295858
2.9967,0.012203,-0.009614,-0.047435,0.003185,0.004872,0.010705,-0.011384,-0.518914,-0.046795,1.312618,-261.233541,-0.458111,72.295858
3.0166,0.012518,-0.009373,-0.046538,0.003172,0.00488,0.010703,-0.011873,-0.518893,-0.0471,1.297095,-261.2289,-0.482677,72.297274
3.0368,0.01276,-0.009347,-0.047504,0.003161,0.004887,0.010701,-0.011263,-0.51882,-0.046572,1.297095,-261.2289,-0.482677,72.297274
3.0564,0.012495,-0.009158,-0.046331,0.003153,0.004892,0.0107,-0.011263,-0.51882,-0.046572,1.297095,-261.2289,-0.482677,72.297274
3.0768,0.01258,-0.009171,-0.045621,0.003146,0.004897,0.010699,-0.010983,-0.518413,-0.045883,1.299824,-261.224161,-0.481314,72.298705
3.0967,0.012235,-0.009018,-0.045846,0.00314,0.004899,0.010699,-0.010843,-0.518483,-0.045725,1.299824,-261.224161,-0.481314,72.298705
3.1167,0.011834,-0.008857,-0.046335,0.003136,0.004902,0.010699,-0.011031,-0.51833,-0.045504,1.302254,-261.219412,-0.479958,72.300126
3.1365,0.012429,-0.008645,-0.04422,0.003171,0.004866,0.010704,-0.011718,-0.518304,-0.046247,1.302254,-261.219412,-0.479958,72.300126
3.1566,0.011984,-0.008658,-0.045922,0.003198,0.004837,0.010707,-0.011718,-0.518304,-0.046247,1.302254,-261.219412,-0.479958,72.300126
3.1765,0.01194,-0.008298,-0.043332,0.00322,0.004813,0.010709,-0.011288,-0.517922,-0.045475,1.303139,-261.214672,-0.480063,72.301539
3.1966,0.011916,-0.008361,-0.044477,0.003229,0.0048,0.010712,-0.01081,-0.517857,-0.044551,1.303139,-261.214672,-0.480063,72.301539
3.2168,0.011889,-0.008637,-0.043562,0.003235,0.00479,0.010714,-0.010651,-0.517708,-0.044136,1.294404,-261.209967,-0.492536,72.302996
3.2367,0.012053,-0.007927,-0.042938,0.003211,0.004809,0.010711,-0.010344,-0.518107,-0.043595,1.294404,-261.209967,-0.492536,72.302996
3.2566,0.011711,-0.008221,-0.042739,0.003192,0.004826,0.010709,-0.010344,-0.518107,-0.043595,1.294404,-261.209967,-0.492536,72.302996
3.2766,0.011572,-0.007817,-0.04429,0.003177,0.004839,0.010708,-0.009935,-0.517561,-0.042291,1.292711,-261.205261,-0.496647,72.304466
3.2967,0.011698,-0.007697,-0.043676,0.003198,0.004816,0.010713,-0.010356,-0.517439,-0.043054,1.292711,-261.205261,-0.496647,72.304466
3.3166,0.011569,-0.007899,-0.044754,0.003215,0.004797,0.010717,-0.010462,-0.517061,-0.043335,1.298534,-261.200539,-0.49158,72.305906
3.3364,0.011511,-0.008021,-0.043001,0.00326,0.004748,0.010723,-0.011172,-0.517351,-0.044608,1.298534,-261.200539,-0.49158,72.305906
3.3565,0.011656,-0.007905,-0.042647,0.003295,0.004708,0.010727,-0.011172,-0.517351,-0.044608,1.298534,-261.200539,-0.49158,72.305906
3.3768,0.011596,-0.00739,-0.042737,0.003324,0.004675,0.01073,-0.009945,-0.517247,-0.042199,1.29457,-261.195828,-0.498133,72.307369
3.3975,0.011672,-0.007297,-0.043026,0.00332,0.004673,0.010731,-0.010029,-0.517094,-0.042365,1.29457,-261.195828,-0.498133,72.307369
3.4163,0.011541,-0.007251,-0.042172,0.003317,0.004671,0.010732,-0.010151,-0.516678,-0.042679,1.283007,-261.191167,-0.514534,72.308889
3.4364,0.011383,-0.007414,-0.04268,0.003329,0.004654,0.010735,-0.009971,-0.51678,-0.0422,1.283007,-261.191167,-0.514534,72.308889
3.4565,0.01172,-0.007168,-0.042393,0.003338,0.00464,0.010738,-0.009971,-0.51678,-0.0422,1.283007,-261.191167,-0.514534,72.308889
3.4766,0.011273,-0.006937,-0.041864,0.003345,0.004628,0.010739,-0.009747,-0.51652,-0.041944,1.283468,-261.186488,-0.516368,72.310413
3.4967,0.011261,-0.007102,-0.041001,0.003362,0.004604,0.010743,-0.009862,-0.516486,-0.04186,1.283468,-261.186488,-0.516368,72.310413
3.5167,0.01153,-0.007094,-0.040149,0.003376,0.004584,0.010746,-0.009531,-0.51653,-0.040658,1.280215,-261.181819,-0.523584,72.311958
3.5364,0.011036,-0.006738,-0.040681,0.003341,0.004614,0.010743,-0.008986,-0.516663,-0.040176,1.280215,-261.181819,-0.523584,72.311958
3.5571,0.011213,-0.006688,-0.041038,0.003313,0.004638,0.010741,-0.008986,-0.516663,-0.040176,1.280215,-261.181819,-0.523584,72.311958
3.5767,0.011262,-0.006322,-0.040245,0.00329,0.004658,0.010739,-0.009561,-0.516073,-0.040588,1.27673,-261.177171,-0.530165,72.313519
3.5972,0.011731,-0.006431,-0.040727,0.003329,0.004613,0.010749,-0.009422,-0.515986,-0.040399,1.27673,-261.177171,-0.530165,72.313519
3.6162,0.01102,-0.006175,-0.039298,0.00336,0.004575,0.010756,-0.008922,-0.515863,-0.040383,1.285493,-261.172461,-0.523914,72.31505
3.6363,0.0113,-0.006187,-0.040381,0.00338,0.004547,0.010762,-0.009006,-0.515781,-0.039358,1.285493,-261.172461,-0.523914,72.31505
3.6565,0.010926,-0.006369,-0.04074,0.003395,0.004524,0.010766,-0.009006,-0.515781,-0.039358,1.285493,-261.172461,-0.523914,72.31505
3.6766,0.011203,-0.006277,-0.037811,0.003407,0.004505,0.01077,-0.009699,-0.515762,-0.040295,1.277961,-261.167839,-0.535469,72.316602
3.6967,0.010946,-0.005844,-0.040073,0.003416,0.004491,0.010772,-0.009008,-0.515803,-0.039212,1.277961,-261.167839,-0.535469,72.316602
3.7165,0.010779,-0.005823,-0.03701,0.003422,0.004479,0.010773,-0.009373,-0.515296,-0.039733,1.272514,-261.163231,-0.546412,72.318187
3.7368,0.01113,-0.005857,-0.038656,0.003412,0.004479,0.010776,-0.008197,-0.515451,-0.037227,1.272514,-261.163231,-0.546412,72.318187
3.7569,0.011075,-0.005461,-0.038899,0.003404,0.004479,0.010778,-0.008197,-0.515451,-0.037227,1.272514,-261.163231,-0.546412,72.318187
3.777,0.011032,-0.005552,-0.038459,0.003397,0.004479,0.01078,-0.008609,-0.514894,-0.038449,1.27071,-261.158607,-0.550506,72.319791
3.7972,0.0108,-0.005248,-0.038715,0.003438,0.004424,0.010791,-0.008579,-0.514987,-0.038401,1.27071,-261.158607,-0.550506,72.319791
3.8167,0.010712,-0.005753,-0.038223,0.003469,0.00438,0.010798,-0.008825,-0.514727,-0.038371,1.272837,-261.15398,-0.554793,72.321389
3.8368,0.010478,-0.005899,-0.038444,0.003482,0.004361,0.010798,-0.008775,-0.515313,-0.038219,1.272837,-261.15398,-0.554793,72.321389
3.8566,0.01078,-0.005346,-0.036395,0.003492,0.004345,0.010798,-0.008775,-0.515313,-0.038219,1.272837,-261.15398,-0.554793,72.321389
3.877,0.010487,-0.005463,-0.037395,0.0035,0.004332,0.010798,-0.007626,-0.514831,-0.035945,1.264634,-261.149374,-0.568238,72.323036
3.8964,0.010356,-0.005099,-0.036327,0.003496,0.004325,0.010802,-0.008008,-0.514926,-0.036499,1.264634,-261.149374,-0.568238,72.323036
3.9163,0.010621,-0.004571,-0.037761,0.003493,0.004319,0.010804,-0.008052,-0.514629,-0.035986,1.260831,-261.144807,-0.573865,72.324694
3.9365,0.010417,-0.004678,-0.037034,0.003557,0.004226,0.01082,-0.008574,-0.514239,-0.037583,1.260831,-261.144807,-0.573865,72.324694
3.9567,0.010532,-0.004992,-0.036702,0.003607,0.00415,0.010832,-0.008574,-0.514239,-0.037583,1.260831,-261.144807,-0.573865,72.324694
3.9768,0.010461,-0.004413,-0.036137,0.003645,0.004088,0.010839,-0.00803,-0.514473,-0.03625,1.261136,-261.140215,-0.578298,72.326366
3.9966,0.01069,-0.004771,-0.036057,0.003648,0.004069,0.010841,-0.007985,-0.514291,-0.036151,1.261136,-261.140215,-0.578298,72.326366
4.0167,0.010434,-0.004324,-0.034979,0.00365,0.004053,0.010842,-0.007577,-0.514316,-0.035719,1.242679,-261.135766,-0.607002,72.328111
4.0369,0.010576,-0.004746,-0.036109,0.003641,0.00404,0.010846,-0.007411,-0.514031,-0.035022,1.242679,-261.135766,-0.607002,72.328111
4.0569,0.010239,-0.004352,-0.035145,0.003632,0.00403,0.010849,-0.007411,-0.514031,-0.035022,1.242679,-261.135766,-0.607002,72.328111
4.0769,0.010092,-0.004129,-0.034269,0.003625,0.004021,0.01085,-0.007523,-0.513873,-0.034694,1.241312,-261.131274,-0.613348,72.329889
4.0966,0.010537,-0.004441,-0.033806,0.003634,0.003991,0.010856,-0.007448,-0.513837,-0.034469,1.241312,-261.131274,-0.613348,72.329889
4.1167,0.010347,-0.004372,-0.033463,0.003641,0.003966,0.010859,-0.006582,-0.514026,-0.033461,1.242669,-261.126782,-0.623221,72.331672
4.1368,0.010063,-0.004069,-0.034415,0.003582,0.004011,0.010854,-0.006698,-0.514074,-0.033445,1.242669,-261.126782,-0.623221,72.331672
4.1568,0.009906,-0.004386,-0.03429,0.003536,0.004046,0.01085,-0.006698,-0.514074,-0.033445,1.242669,-261.126782,-0.623221,72.331672
4.1769,0.009771,-0.003816,-0.034212,0.0035,0.004075,0.010847,-0.007421,-0.513925,-0.033836,1.239931,-261.122305,-0.63206,72.333474
4.1968,0.010059,-0.003375,-0.034286,0.003542,0.00402,0.010856,-0.007505,-0.513741,-0.033936,1.239931,-261.122305,-0.63206,72.333474
4.2165,0.009824,-0.003928,-0.032678,0.003574,0.003976,0.010861,-0.007308,-0.51295,-0.033942,1.254668,-261.117808,-0.629736,72.335204
4.2363,0.009734,-0.004173,-0.032713,0.003575,0.003953,0.010868,-0.006873,-0.513589,-0.032769,1.254668,-261.117808,-0.629736,72.335204
4.2567,0.009961,-0.003779,-0.033938,0.003575,0.003934,0.010872,-0.006873,-0.513589,-0.032769,1.254668,-261.117808,-0.629736,72.335204
4.2765,0.00985,-0.003443,-0.032907,0.003575,0.003919,0.010874,-0.007189,-0.513324,-0.033484,1.245827,-261.113352,-0.639384,72.336977
4.2963,0.010045,-0.003459,-0.03244,0.003608,0.003855,0.010885,-0.007067,-0.513242,-0.033199,1.245827,-261.113352,-0.639384,72.336977
4.3163,0.009549,-0.003307,-0.032709,0.003633,0.003803,0.010892,-0.006379,-0.51307,-0.032095,1.244409,-261.108896,-0.650939,72.338773
4.3364,0.009777,-0.003029,-0.032662,0.003666,0.003734,0.010902,-0.007058,-0.513031,-0.032638,1.244409,-261.108896,-0.650939,72.338773
4.3565,0.009817,-0.003248,-0.033493,0.00369,0.003679,0.010909,-0.007058,-0.513031,-0.032638,1.244409,-261.108896,-0.650939,72.338773
4.3765,0.009873,-0.003238,-0.03148,0.003708,0.003634,0.010912,-0.007105,-0.512809,-0.033039,1.236342,-261.104494,-0.665063,72.340609
4.3967,0.009794,-0.003087,-0.032139,0.003713,0.003591,0.010918,-0.00671,-0.512863,-0.032353,1.236342,-261.104494,-0.665063,72.340609
4.4164,0.009851,-0.002849,-0.03111,0.003715,0.003556,0.010922,-0.006473,-0.512712,-0.031794,1.22518,-261.100152,-0.685165,72.342509
4.4366,0.009564,-0.002891,-0.029757,0.003689,0.003519,0.010931,-0.006048,-0.512606,-0.031154,1.22518,-261.100152,-0.685165,72.342509
4.4567,0.009529,-0.003246,-0.031811,0.003667,0.00349,0.010936,-0.006048,-0.512606,-0.031154,1.22518,-261.100152,-0.685165,72.342509
4.4768,0.009245,-0.002641,-0.030316,0.003648,0.003466,0.010938,-0.006532,-0.512844,-0.031354,1.222349,-261.095807,-0.697682,72.344445
4.4966,0.009547,-0.002621,-0.031668,0.003652,0.003438,0.010938,-0.006384,-0.512649,-0.030878,1.222349,-261.095807,-0.697682,72.344445
4.5172,0.00975,-0.002384,-0.030232,0.003655,0.003416,0.010937,-0.006483,-0.512259,-0.031323,1.225618,-261.091541,-0.722307,72.346369
4.5366,0.009525,-0.002502,-0.02963,0.003643,0.003345,0.010951,-0.005739,-0.512156,-0.03032,1.225618,-261.091541,-0.722307,72.346369
4.5564,0.00925,-0.002925,-0.028184,0.003632,0.003289,0.010959,-0.005739,-0.512156,-0.03032,1.225618,-261.091541,-0.722307,72.346369
4.5767,0.008995,-0.002496,-0.029017,0.003621,0.003244,0.010963,-0.004965,-0.512584,-0.027726,1.223461,-261.087244,-0.72902,72.34833
4.5965,0.009282,-0.002421,-0.028458,0.003547,0.003278,0.010954,-0.005287,-0.512445,-0.028198,1.223461,-261.087244,-0.72902,72.34833
4.6168,0.009357,-0.002244,-0.028305,0.00349,0.003305,0.010947,-0.005113,-0.512116,-0.028114,1.221491,-261.083084,-0.761484,72.350297
4.6365,0.009077,-0.002377,-0.028996,0.003455,0.003261,0.010955,-0.005075,-0.512042,-0.028272,1.221491,-261.083084,-0.761484,72.350297
4.6567,0.009289,-0.002206,-0.028718,0.003425,0.003227,0.010959,-0.005075,-0.512042,-0.028272,1.221491,-261.083084,-0.761484,72.350297
4.6767,0.009112,-0.002111,-0.030389,0.0034,0.0032,0.010959,-0.005205,-0.511862,-0.028262,1.234712,-261.078872,-0.769555,72.352231
4.697,0.009059,-0.002301,-0.028714,0.003445,0.003122,0.010965,-0.005669,-0.511852,-0.029076,1.234712,-261.078872,-0.769555,72.352231
4.7167,0.009146,-0.002074,-0.026355,0.003478,0.003061,0.010967,-0.005473,-0.511993,-0.028369,1.239757,-261.074746,-0.798881,72.354154
4.7366,0.009184,-0.001834,-0.027123,0.003366,0.00307,0.010968,-0.004393,-0.5119,-0.026517,1.239757,-261.074746,-0.798881,72.354154
4.7567,0.008837,-0.001807,-0.027619,0.003278,0.003076,0.010966,-0.004393,-0.5119,-0.026517,1.239757,-261.074746,-0.798881,72.354154
4.7771,0.009253,-0.001931,-0.026177,0.00321,0.003082,0.010963,-0.005098,-0.511489,-0.02716,1.22846,-261.070616,-0.807795,72.35616
4.797,0.008877,-0.001923,-0.027805,0.003216,0.003008,0.010969,-0.004677,-0.511583,-0.026711,1.22846,-261.070616,-0.807795,72.35616
4.8163,0.008519,-0.001282,-0.02668,0.003217,0.002951,0.010971,-0.0052,-0.511634,-0.027466,1.253531,-261.066628,-0.844463,72.358033
4.8371,0.008786,-0.0019,-0.026752,0.003284,0.002804,0.010983,-0.005091,-0.511146,-0.026736,1.253531,-261.066628,-0.844463,72.358033
4.8569,0.008575,-0.0016,-0.026183,0.003334,0.002689,0.010988,-0.005091,-0.511146,-0.026736,1.253531,-261.066628,-0.844463,72.358033
4.8764,0.008585,-0.001411,-0.026776,0.00337,0.002599,0.010989,-0.004639,-0.511305,-0.025725,1.249062,-261.062579,-0.861594,72.359999
4.8963,0.009116,-0.001093,-0.025163,0.003361,0.00256,0.010984,-0.004798,-0.51126,-0.0261,1.249062,-261.062579,-0.861594,72.359999
4.9164,0.008543,-0.001291,-0.024718,0.003353,0.002529,0.010978,-0.003608,-0.510853,-0.024819,1.223473,-261.058692,-0.88431,72.362086
4.9368,0.008715,-0.001444,-0.026384,0.00326,0.002489,0.010983,-0.004015,-0.511106,-0.024709,1.223473,-261.058692,-0.88431,72.362086
4.9566,0.008845,-0.001485,-0.025009,0.003186,0.002459,0.010983,-0.004015,-0.511106,-0.024709,1.223473,-261.058692,-0.88431,72.362086
4.9762,0.008755,-0.0011,-0.025148,0.003128,0.002435,0.010979,-0.003766,-0.511223,-0.02455,1.22244,-261.054769,-0.894254,72.364225
4.9965,0.008255,-0.001509,-0.024455,0.003062,0.002419,0.010976,-0.003873,-0.511095,-0.024741,1.22244,-261.054769,-0.894254,72.364225
5.0168,0.008213,-0.001083,-0.025537,0.003011,0.002407,0.01097,-0.004118,-0.511284,-0.024117,1.241082,-261.051045,-0.938627,72.366266
5.0367,0.008344,-0.001255,-0.023884,0.003083,0.002345,0.010962,-0.00474,-0.510947,-0.025389,1.241082,-261.051045,-0.938627,72.366266
5.057,0.008606,-0.00065,-0.024917,0.003138,0.002295,0.010955,-0.00474,-0.510947,-0.025389,1.241082,-261.051045,-0.938627,72.366266
5.0765,0.007773,-0.000785,-0.023943,0.00318,0.002257,0.010948,-0.003973,-0.510395,-0.024461,1.251523,-261.047241,-0.95918,72.368345
5.097,0.008236,-0.001138,-0.025662,0.003171,0.002124,0.010961,-0.004147,-0.510483,-0.024198,1.251523,-261.047241,-0.95918,72.368345
5.1166,0.008126,-0.000683,-0.023861,0.003161,0.002022,0.010966,-0.004748,-0.510901,-0.025314,1.229151,-261.043482,-0.948166,72.370505
5.1365,0.008261,-0.000507,-0.023239,0.003141,0.001965,0.010962,-0.004101,-0.510568,-0.023976,1.229151,-261.043482,-0.948166,72.370505
5.1565,0.008462,-0.000853,-0.023461,0.003124,0.001921,0.010956,-0.004101,-0.510568,-0.023976,1.229151,-261.043482,-0.948166,72.370505
5.1766,0.008122,-0.000742,-0.021152,0.00311,0.001886,0.010949,-0.00337,-0.510632,-0.023008,1.222968,-261.039821,-0.976253,72.372733
5.1968,0.007724,-0.000488,-0.022674,0.002929,0.001887,0.010957,-0.003069,-0.510621,-0.022205,1.222968,-261.039821,-0.976253,72.372733
5.217,0.007883,-0.00065,-0.024419,0.002792,0.001889,0.010957,-0.003739,-0.510299,-0.022327,1.222794,-261.036195,-0.995965,72.375007
5.237,0.008132,-0.000348,-0.024309,0.002895,0.00184,0.010941,-0.004491,-0.510478,-0.024216,1.222794,-261.036195,-0.995965,72.375007
5.2564,0.00815,-0.000426,-0.022341,0.002975,0.001801,0.010927,-0.004491,-0.510478,-0.024216,1.222794,-261.036195,-0.995965,72.375007
5.2766,0.007936,-0.000368,-0.023763,0.003037,0.00177,0.010917,-0.003131,-0.510227,-0.021908,1.256217,-261.03278,-1.044261,72.37711
5.2968,0.00795,-0.000768,-0.021988,0.002977,0.001684,0.010927,-0.003548,-0.510217,-0.022616,1.256217,-261.03278,-1.044261,72.37711
5.3169,0.007665,-0.000281,-0.022492,0.002929,0.001619,0.010929,-0.003167,-0.510592,-0.02165,1.225256,-261.029293,-1.015668,72.37935
5.3369,0.007684,-0.000523,-0.020418,0.00292,0.001562,0.010922,-0.003742,-0.51019,-0.022397,1.225256,-261.029293,-1.015668,72.37935
5.357,0.007718,-0.00062,-0.02048,0.002913,0.001518,0.010914,-0.003742,-0.51019,-0.022397,1.225256,-261.029293,-1.015668,72.37935
5.3765,0.007637,-0.000457,-0.020611,0.002906,0.001484,0.010905,-0.002604,-0.510449,-0.020028,1.231338,-261.025828,-1.045802,72.381652
5.3966,0.007714,-0.000487,-0.021613,0.002702,0.001523,0.010908,-0.002699,-0.510401,-0.020213,1.231338,-261.025828,-1.045802,72.381652
5.4169,0.007459,6.8e-05,-0.022471,0.002551,0.001553,0.010906,-0.003214,-0.510323,-0.021267,1.228088,-261.022379,-1.059299,72.38402
5.4366,0.007509,-0.000578,-0.021677,0.002659,0.001428,0.010899,-0.003925,-0.509847,-0.022345,1.228088,-261.022379,-1.059299,72.38402
5.4567,0.007222,-0.000292,-0.020267,0.002742,0.001331,0.010891,-0.003925,-0.509847,-0.022345,1.228088,-261.022379,-1.059299,72.38402
5.477,0.007166,-0.000317,-0.019668,0.002804,0.001255,0.010883,-0.003013,-0.510128,-0.01984,1.269722,-261.019157,-1.107671,72.386159
5.4968,0.007432,-0.000329,-0.018918,0.002685,0.001276,0.010877,-0.002941,-0.510158,-0.01972,1.269722,-261.019157,-1.107671,72.386159
5.5166,0.007262,-0.000128,-0.019933,0.002594,0.001293,0.010869,-0.002129,-0.510201,-0.018581,1.229747,-261.015901,-1.091178,72.388519
5.537,0.00699,-2.4e-05,-0.021478,0.002511,0.001272,0.010869,-0.00283,-0.510041,-0.019796,1.229747,-261.015901,-1.091178,72.388519
5.5568,0.007221,0.000276,-0.019191,0.002448,0.001257,0.010866,-0.00283,-0.510041,-0.019796,1.229747,-261.015901,-1.091178,72.388519
5.5766,0.007345,-0.000482,-0.018209,0.002399,0.001245,0.01086,-0.002459,-0.50958,-0.018746,1.25466,-261.012638,-1.118942,72.390843
5.5969,0.007146,-0.000223,-0.020181,0.002238,0.00119,0.010874,-0.002237,-0.509904,-0.018478,1.25466,-261.012638,-1.118942,72.390843
5.6166,0.006756,-0.000109,-0.017117,0.002118,0.001149,0.010877,-0.00307,-0.510081,-0.019842,1.275215,-261.009422,-1.151861,72.393145
5.6372,0.007386,-0.000391,-0.018675,0.001979,0.001163,0.010865,-0.00207,-0.510037,-0.01735,1.275215,-261.009422,-1.151861,72.393145
5.6566,0.006688,-8e-06,-0.01787,0.001875,0.001175,0.010852,-0.00207,-0.510037,-0.01735,1.275215,-261.009422,-1.151861,72.393145
5.6765,0.006865,0.000474,-0.016931,0.001797,0.001185,0.010839,-0.00234,-0.509883,-0.017439,1.305453,-261.006369,-1.202903,72.395371
5.6965,0.006809,-0.000107,-0.017513,0.001761,0.001084,0.010838,-0.0021,-0.509704,-0.017185,1.305453,-261.006369,-1.202903,72.395371
5.7165,0.005781,9.1e-05,-0.017385,0.001732,0.001009,0.01083,-0.002067,-0.509994,-0.017186,1.344482,-261.003359,-1.251492,72.397523
5.7373,0.006687,-9.5e-05,-0.017623,0.001879,0.001008,0.010788,-0.00299,-0.509845,-0.01735,1.344482,-261.003359,-1.251492,72.397523
5.7569,0.006393,2.8e-05,-0.017417,0.001991,0.001006,0.010757,-0.00299,-0.509845,-0.01735,1.344482,-261.003359,-1.251492,72.397523
5.7766,0.006376,-6.2e-05,-0.015431,0.002077,0.001004,0.010734,-0.002417,-0.509854,-0.016967,1.347378,-261.000251,-1.271116,72.399856
5.7969,0.006886,-0.000322,-0.016718,0.001941,0.001013,0.010737,-0.002033,-0.509909,-0.016289,1.347378,-261.000251,-1.271116,72.399856
5.8167,0.00597,0.000132,-0.015774,0.001839,0.001021,0.010736,-0.001579,-0.510222,-0.016404,1.302626,-260.997375,-1.212722,72.40203
5.8371,0.00611,-0.000148,-0.016069,0.001766,0.001006,0.010728,-0.002027,-0.509841,-0.015815,1.302626,-260.997375,-1.212722,72.40203
5.8571,0.006227,6e-05,-0.017343,0.001711,0.000995,0.010718,-0.002027,-0.509841,-0.015815,1.302626,-260.997375,-1.212722,72.40203
5.8766,0.006172,-6.5e-05,-0.013307,0.00167,0.000987,0.010708,-0.002543,-0.509823,-0.016909,1.332727,-260.994369,-1.250075,72.404279
5.8965,0.006434,0.000342,-0.016279,0.001565,0.000998,0.010696,-0.001754,-0.509898,-0.015402,1.332727,-260.994369,-1.250075,72.404279
5.9167,0.005811,0.000203,-0.014607,0.001487,0.001006,0.010683,-0.001815,-0.50956,-0.015944,1.352502,-260.991344,-1.278708,72.406553
5.9367,0.005722,0.000435,-0.016212,0.001408,0.000951,0.010669,-0.001652,-0.509724,-0.014711,1.352502,-260.991344,-1.278708,72.406553
5.9564,0.005919,0.000434,-0.015795,0.001347,0.00091,0.010652,-0.001652,-0.509724,-0.014711,1.352502,-260.991344,-1.278708,72.406553
5.9763,0.005366,0.000144,-0.014203,0.001301,0.00088,0.010635,-0.002074,-0.509462,-0.015358,1.375902,-260.988341,-1.307656,72.40879
5.9965,0.005398,0.000142,-0.014142,0.001358,0.000824,0.010616,-0.001986,-0.509598,-0.014834,1.375902,-260.988341,-1.307656,72.40879
6.0168,0.005718,0.000368,-0.01491,0.001399,0.000781,0.010601,-0.001774,-0.50978,-0.013812,1.39619,-260.985424,-1.343128,72.411034
6.0367,0.005649,4e-06,-0.014209,0.001403,0.000743,0.01059,-0.001873,-0.509592,-0.014794,1.39619,-260.985424,-1.343128,72.411034
6.0564,0.005438,0.000477,-0.014676,0.001406,0.000714,0.010579,-0.001873,-0.509592,-0.014794,1.39619,-260.985424,-1.343128,72.411034
6.0765,0.00543,8.6e-05,-0.013578,0.001406,0.000692,0.01057,-0.001988,-0.509437,-0.014235,1.380249,-260.982489,-1.329802,72.413363
6.0966,0.004967,0.000347,-0.01351,0.00138,0.000694,0.010539,-0.001782,-0.509607,-0.013919,1.380249,-260.982489,-1.329802,72.413363
6.1163,0.005016,0.000387,-0.013042,0.001361,0.000696,0.010514,-0.001878,-0.509585,-0.013174,1.376524,-260.979574,-1.331487,72.415738
6.1366,0.004756,0.000126,-0.014391,0.001311,0.00068,0.010468,-0.001654,-0.509569,-0.013036,1.376524,-260.979574,-1.331487,72.415738
6.1565,0.004739,0.000479,-0.013878,0.001273,0.000668,0.01043,-0.001654,-0.509569,-0.013036,1.376524,-260.979574,-1.331487,72.415738
6.1764,0.004798,0.00065,-0.011641,0.001245,0.000659,0.010398,-0.002281,-0.509443,-0.013438,1.381897,-260.976681,-1.33745,72.418088
6.1965,0.004856,0.000329,-0.01209,0.001269,0.000596,0.010359,-0.001813,-0.509388,-0.012661,1.381897,-260.976681,-1.33745,72.418088
6.2166,0.00467,0.00053,-0.011922,0.001286,0.000547,0.010327,-0.00127,-0.509614,-0.011761,1.39504,-260.973852,-1.355458,72.420402
6.2368,0.004698,0.000576,-0.010292,0.001174,0.000512,0.010271,-0.001396,-0.509449,-0.011891,1.39504,-260.973852,-1.355458,72.420402
6.2568,0.004712,0.000454,-0.011884,0.001089,0.000486,0.010224,-0.001396,-0.509449,-0.011891,1.39504,-260.973852,-1.355458,72.420402
6.2767,0.004186,0.000578,-0.011504,0.001025,0.000467,0.010186,-0.001294,-0.509488,-0.011452,1.385261,-260.971071,-1.351072,72.422756
6.2969,0.003993,0.000902,-0.011778,0.000988,0.00045,0.01012,-0.001444,-0.509445,-0.011423,1.385261,-260.971071,-1.351072,72.422756
6.317,0.004646,0.000523,-0.012225,0.000959,0.000437,0.010068,-0.001982,-0.509049,-0.011468,1.418703,-260.968488,-1.394509,72.424988
6.3368,0.004171,0.000299,-0.011645,0.000995,0.000423,0.010067,-0.001621,-0.509404,-0.012145,1.418703,-260.968488,-1.394509,72.424988
6.357,0.004488,0.000489,-0.010743,0.001022,0.000411,0.010066,-0.001621,-0.509404,-0.012145,1.418703,-260.968488,-1.394509,72.424988
6.3765,0.003748,0.000524,-0.011138,0.001041,0.000402,0.010066,-0.000951,-0.509463,-0.010324,1.426141,-260.965833,-1.404367,72.427298
6.3969,0.004212,0.000766,-0.011306,0.000962,0.000395,0.009962,-0.001351,-0.509453,-0.01061,1.426141,-260.965833,-1.404367,72.427298
6.4162,0.00387,0.000594,-0.008493,0.000903,0.000389,0.009882,-0.001521,-0.50919,-0.010986,1.413162,-260.963185,-1.391542,72.429629
6.4366,0.00387,0.000405,-0.010777,0.000546,0.000303,0.009629,-0.000544,-0.509371,-0.008676,1.413162,-260.963185,-1.391542,72.429629
6.4568,0.00406,0.000893,-0.00802,0.00028,0.00024,0.009437,-0.000544,-0.509371,-0.008676,1.413162,-260.963185,-1.391542,72.429629
6.4767,0.003827,0.000443,-0.011064,7.9e-05,0.000194,0.009292,7e-06,-0.509075,-0.007612,1.431111,-260.960629,-1.412159,72.431882
6.4965,0.003652,0.000482,-0.00946,9e-06,0.000129,0.009217,-0.000732,-0.509257,-0.008973,1.431111,-260.960629,-1.412159,72.431882
6.5164,0.003663,0.000448,-0.011207,-4.6e-05,8.1e-05,0.009159,-0.001166,-0.509491,-0.009297,1.505873,-260.959327,-1.486921,72.433098
6.5364,0.00339,0.000434,-0.009755,0.000285,0.000187,0.009242,-0.001974,-0.509518,-0.011032,1.505873,-260.959327,-1.486921,72.433098
6.5565,0.003083,0.000607,-0.010533,0.000541,0.000267,0.009314,-0.001974,-0.509518,-0.011032,1.505873,-260.959327,-1.486921,72.433098
6.5769,0.002986,0.000537,-0.008405,0.00074,0.000329,0.009376,-0.002289,-0.509362,-0.010225,1.57886,-260.957511,-1.561947,72.434862
6.5968,0.003046,0.000596,-0.009426,0.000872,0.000326,0.009284,-0.001889,-0.509396,-0.009453,1.57886,-260.957511,-1.561947,72.434862
6.6167,0.003213,0.000555,-0.009337,0.000974,0.000324,0.009217,-0.001753,-0.509375,-0.009249,1.503992,-260.956073,-1.487079,72.436147
6.6367,0.003004,0.000497,-0.008341,0.000969,0.000319,0.009152,-0.001567,-0.509418,-0.009321,1.503992,-260.956073,-1.487079,72.436147
6.6566,0.003494,0.000598,-0.006797,0.000967,0.000316,0.009103,-0.001567,-0.509418,-0.009321,1.503992,-260.956073,-1.487079,72.436147
6.6764,0.003076,0.000445,-0.008291,0.000967,0.000313,0.009065,5.4e-05,-0.509381,-0.00651,1.428895,-260.954287,-1.411982,72.437744
6.6967,0.00294,0.000378,-0.007864,0.000545,0.000254,0.008755,-0.000433,-0.509443,-0.0072,1.428895,-260.954287,-1.411982,72.437744
6.7168,0.003143,0.000921,-0.007121,0.000233,0.000211,0.008524,-0.001041,-0.509597,-0.00758,1.407031,-260.951953,-1.387789,72.439835
6.7369,0.0026,0.00059,-0.007802,5.3e-05,6.4e-05,0.00835,-0.000535,-0.509112,-0.007147,1.407031,-260.951953,-1.387789,72.439835
6.7569,0.002819,0.000685,-0.006002,-8.4e-05,-4.6e-05,0.008217,-0.000535,-0.509112,-0.007147,1.407031,-260.951953,-1.387789,72.439835
6.7766,0.002398,0.000225,-0.005901,-0.000188,-0.000129,0.008113,-0.00023,-0.5093,-0.005794,1.482111,-260.950682,-1.462869,72.441007
6.7972,0.002695,0.000708,-0.007424,-0.000351,-6.6e-05,0.007734,-0.000383,-0.509489,-0.005813,1.482111,-260.950682,-1.462869,72.441007
6.8165,0.002673,0.000961,-0.005641,-0.000473,-1.8e-05,0.007465,-0.001089,-0.50928,-0.007281,1.557012,-260.94962,-1.53777,72.442125
6.8363,0.002406,0.000696,-0.008324,-0.000589,-0.000146,0.007287,-0.000283,-0.509053,-0.005781,1.557012,-260.94962,-1.53777,72.442125
6.8564,0.002253,0.000511,-0.007107,-0.000679,-0.000242,0.007154,-0.000283,-0.509053,-0.005781,1.557012,-260.94962,-1.53777,72.442125
6.8764,0.002325,0.000736,-0.009399,-0.00075,-0.000315,0.007054,-0.001377,-0.509477,-0.00692,1.632052,-260.948532,-1.612811,72.443222
6.8965,0.002631,0.000855,-0.006846,-0.000319,-0.000183,0.007262,-0.001819,-0.509382,-0.0079,1.632052,-260.948532,-1.612811,72.443222
6.9168,0.002662,0.000881,-0.007279,1.4e-05,-8.3e-05,0.007426,-0.00086,-0.509133,-0.006846,1.557097,-260.948532,-1.687766,72.443222
6.9368,0.00229,0.000753,-0.008357,5.5e-05,-0.000134,0.007478,-0.001033,-0.509108,-0.007239,1.557097,-260.948532,-1.687766,72.443222
6.9567,0.002326,0.000949,-0.007291,8.7e-05,-0.000174,0.007513,-0.001033,-0.509108,-0.007239,1.557097,-260.948532,-1.687766,72.443222
6.9765,0.002767,0.000453,-0.006967,0.000111,-0.000203,0.007534,-0.001395,-0.50904,-0.007045,1.567658,-260.947121,-1.612759,72.444685
6.9964,0.002332,0.000884,-0.008268,0.000162,-0.000178,0.007487,-0.001148,-0.509242,-0.006985,1.567658,-260.947121,-1.612759,72.444685
7.0169,0.002716,0.000554,-0.00635,0.000203,-0.000159,0.007451,-0.001882,-0.509104,-0.008046,1.545566,-260.94549,-1.5477,72.446468
7.0366,0.001946,0.000689,-0.006002,4.7e-05,-0.000111,0.007351,-0.000644,-0.509407,-0.006491,1.545566,-260.94549,-1.5477,72.446468
7.0566,0.002445,0.000569,-0.007054,-6.7e-05,-7.4e-05,0.007277,-0.000644,-0.509407,-0.006491,1.545566,-260.94549,-1.5477,72.446468
7.0765,0.001852,0.000639,-0.006319,-0.000151,-4.5e-05,0.007222,-0.001144,-0.509425,-0.006747,1.524695,-260.943754,-1.527796,72.448329
7.0969,0.002024,0.000486,-0.005907,-1.1e-05,-5e-06,0.007167,-0.001235,-0.509395,-0.006537,1.524695,-260.943754,-1.527796,72.448329
7.1163,0.001752,0.000348,-0.005376,9.7e-05,2.5e-05,0.007129,-0.000992,-0.509506,-0.005718,1.599688,-260.942322,-1.602789,72.449791
7.137,0.00191,0.00055,-0.007098,8.5e-05,0.000119,0.006858,-0.00099,-0.509632,-0.005398,1.599688,-260.942322,-1.602789,72.449791
7.1574,0.001706,0.00075,-0.004169,7.9e-05,0.000189,0.00667,-0.00099,-0.509632,-0.005398,1.599688,-260.942322,-1.602789,72.449791
7.1767,0.001846,0.000799,-0.004317,7.7e-05,0.000244,0.006541,-0.000417,-0.509245,-0.003895,1.548703,-260.940719,-1.548446,72.451375
7.1967,0.001908,0.000573,-0.005519,-0.000133,0.00011,0.006115,-0.000392,-0.509225,-0.004033,1.548703,-260.940719,-1.548446,72.451375
7.2167,0.001289,0.000491,-0.005314,-0.000293,1e-05,0.005819,-0.000904,-0.509411,-0.005309,1.552548,-260.939024,-1.550179,72.452876
7.2371,0.001058,0.000764,-0.004636,-8.3e-05,7e-05,0.005895,-0.001373,-0.509494,-0.005303,1.552548,-260.939024,-1.550179,72.452876
7.2569,0.001379,0.00091,-0.005636,7.7e-05,0.000115,0.005954,-0.001373,-0.509494,-0.005303,1.552548,-260.939024,-1.550179,72.452876
7.2765,0.001319,0.000469,-0.005017,0.000199,0.000149,0.006002,-0.001501,-0.509082,-0.00546,1.627553,-260.93799,-1.625184,72.453903
7.2969,0.001223,0.000407,-0.0055,0.000303,9.8e-05,0.006037,-0.001393,-0.509267,-0.005254,1.627553,-260.93799,-1.625184,72.453903
7.3165,0.001531,0.000719,-0.003224,0.000381,5.8e-05,0.006064,-0.001581,-0.509582,-0.005371,1.55208,-260.936954,-1.549711,72.454859
7.3367,0.001135,0.000494,-0.004348,1.9e-05,-1e-05,0.005581,-0.000225,-0.509301,-0.003382,1.55208,-260.936954,-1.549711,72.454859
7.3567,0.00144,0.000512,-0.00398,-0.000253,-6e-05,0.005244,-0.000225,-0.509301,-0.003382,1.55208,-260.936954,-1.549711,72.454859
7.3764,0.00128,0.000552,-0.00514,-0.000458,-9.7e-05,0.005008,-0.000578,-0.509482,-0.003777,1.477084,-260.935744,-1.474715,72.456031
7.397,0.001173,0.000753,-0.003947,-0.000364,-4.1e-05,0.00509,-0.000888,-0.509465,-0.004309,1.477084,-260.935744,-1.474715,72.456031
7.4168,0.001398,0.000617,-0.004531,-0.000292,1e-06,0.005151,-0.00084,-0.509244,-0.003924,1.55172,-260.935569,-1.549351,72.456218
7.4365,0.001138,0.000627,-0.003827,-0.000229,-1e-06,0.005247,-0.000906,-0.509366,-0.004475,1.55172,-260.935569,-1.549351,72.456218
7.4566,0.00145,0.000879,-0.004503,-0.000182,-4e-06,0.005318,-0.000906,-0.509366,-0.004475,1.55172,-260.935569,-1.549351,72.456218
7.4764,0.000819,0.000493,-0.006793,-0.000146,-6e-06,0.005369,-0.000851,-0.509116,-0.004359,1.626612,-260.934729,-1.624244,72.457057
7.4963,0.000866,0.000784,-0.004127,8.5e-05,-1e-05,0.005584,-0.001573,-0.509269,-0.005321,1.626612,-260.934729,-1.624244,72.457057
7.5165,0.000826,0.001078,-0.003615,0.000261,-1.4e-05,0.005742,-0.001243,-0.509211,-0.003956,1.615467,-260.933422,-1.615302,72.458369
7.5367,0.000934,0.000411,-0.004267,0.00024,-0.000155,0.005427,-0.001038,-0.508945,-0.003637,1.615467,-260.933422,-1.615302,72.458369
7.5567,0.001506,0.000749,-0.003212,0.000221,-0.000261,0.005206,-0.001038,-0.508945,-0.003637,1.615467,-260.933422,-1.615302,72.458369
7.5769,0.00088,0.000996,-0.002284,0.000206,-0.000343,0.00505,-0.00013,-0.509249,-0.003059,1.540436,-260.932529,-1.540272,72.45927
7.5973,0.000761,0.001174,-0.003208,-0.000125,-0.000372,0.004638,-0.000195,-0.509145,-0.002716,1.540436,-260.932529,-1.540272,72.45927
7.6166,0.000665,0.000742,-0.00284,-0.000373,-0.000395,0.004348,-0.000869,-0.508834,-0.003055,1.495869,-260.931484,-1.510814,72.460575
7.6366,0.000565,0.00033,-0.004935,-0.000329,-0.000364,0.004162,-0.000791,-0.509218,-0.002852,1.495869,-260.931484,-1.510814,72.460575
7.6572,0.000932,0.000734,-0.002881,-0.000296,-0.000341,0.004035,-0.000791,-0.509218,-0.002852,1.495869,-260.931484,-1.510814,72.460575
7.6767,0.000776,0.000928,-0.003573,-0.000272,-0.000324,0.003947,-0.000538,-0.509268,-0.002837,1.570475,-260.931267,-1.585419,72.460865
7.6972,0.001345,0.000328,-0.003423,-0.000271,-0.000325,0.003988,-0.000748,-0.509186,-0.003137,1.570475,-260.931267,-1.585419,72.460865
7.7167,0.000624,0.000567,-0.002059,-0.000271,-0.000326,0.004015,-0.000405,-0.509676,-0.003338,1.645807,-260.930697,-1.660751,72.46161
7.7365,0.000572,0.00052,-0.004102,-0.000396,-0.000239,0.003664,-0.000424,-0.509454,-0.002165,1.645807,-260.930697,-1.660751,72.46161
7.7566,0.000565,0.000451,-0.00365,-0.000488,-0.000173,0.003419,-0.000424,-0.509454,-0.002165,1.645807,-260.930697,-1.660751,72.46161
7.7769,0.000647,0.000586,-0.003692,-0.000556,-0.000123,0.003249,-0.001307,-0.509559,-0.003489,1.697486,-260.92987,-1.668006,72.462686
7.797,0.000817,0.000585,-0.003644,-0.00032,-4e-05,0.00358,-0.001278,-0.509497,-0.003557,1.697486,-260.92987,-1.668006,72.462686
7.8162,0.000637,0.00026,-0.004202,-0.000141,2.1e-05,0.003823,-0.001041,-0.509412,-0.003644,1.622008,-260.92987,-1.592528,72.462686
7.8369,0.000649,0.000447,-0.002296,4.6e-05,0.00015,0.004144,-0.00147,-0.50971,-0.004159,1.622008,-260.92987,-1.592528,72.462686
7.8567,0.000639,0.000503,-0.002459,0.000191,0.000246,0.004382,-0.00147,-0.50971,-0.004159,1.622008,-260.92987,-1.592528,72.462686
7.8771,0.000176,0.000553,-0.003587,0.000303,0.00032,0.004557,-0.00062,-0.509495,-0.002303,1.630376,-260.928954,-1.631475,72.463586
7.8968,0.000418,0.000297,-0.004038,0.000268,0.00028,0.004276,-0.001029,-0.509474,-0.002792,1.630376,-260.928954,-1.631475,72.463586
7.9172,0.000436,0.000558,-0.00283,0.000243,0.00025,0.004079,-0.00164,-0.509695,-0.00398,1.555693,-260.928463,-1.556792,72.463976
7.9365,0.000486,0.000496,-0.002055,0.000236,0.000225,0.003993,-0.001065,-0.509463,-0.002933,1.555693,-260.928463,-1.556792,72.463976
7.9565,0.000501,0.000537,-0.003157,0.000231,0.000207,0.003932,-0.001065,-0.509463,-0.002933,1.555693,-260.928463,-1.556792,72.463976
7.9766,0.000346,0.000764,-0.002164,0.000228,0.000194,0.00389,-0.001102,-0.509452,-0.003021,1.48227,-260.927586,-1.48177,72.464695
7.9969,0.000466,8.1e-05,-0.003107,0.000195,0.000143,0.003769,-0.00096,-0.509362,-0.002655,1.48227,-260.927586,-1.48177,72.464695
8.0168,0.000569,0.000758,-0.003335,0.000169,0.000105,0.003683,-0.001111,-0.509911,-0.002984,1.48246,-260.926558,-1.466869,72.465569
8.0365,0.000177,0.000629,-0.003958,0.000203,6.2e-05,0.003839,-0.00113,-0.509299,-0.003297,1.48246,-260.926558,-1.466869,72.465569
8.0568,5.4e-05,0.000616,-0.002575,0.000227,2.9e-05,0.003948,-0.00113,-0.509299,-0.003297,1.48246,-260.926558,-1.466869,72.465569
8.0765,0.000115,0.000822,-0.002749,0.000245,3e-06,0.004025,-0.001253,-0.509378,-0.002423,1.498957,-260.925627,-1.491921,72.466417
8.0968,1.3e-05,0.000709,-0.002647,0.000307,-1.3e-05,0.003803,-0.001266,-0.509295,-0.002538,1.498957,-260.925627,-1.491921,72.466417
8.1166,5.1e-05,0.000566,-0.000652,0.000352,-2.6e-05,0.003648,-0.001329,-0.509289,-0.002521,1.471576,-260.924658,-1.471342,72.467384
8.1367,0.000302,0.000695,-0.001302,7e-05,-2.6e-05,0.002776,-0.000377,-0.50942,-0.000816,1.471576,-260.924658,-1.471342,72.467384
8.1567,-0.000304,0.000454,-0.003061,-0.000141,-2.5e-05,0.00217,-0.000377,-0.50942,-0.000816,1.471576,-260.924658,-1.471342,72.467384
8.1771,0.000122,0.001094,-0.002185,-0.0003,-2.3e-05,0.00175,-0.001852,-0.509544,-0.002924,1.412114,-260.923855,-1.415694,72.468205
8.197,4.8e-05,0.000762,-0.001195,-5.1e-05,-2.6e-05,0.002204,-0.001503,-0.509286,-0.00261,1.412114,-260.923855,-1.415694,72.468205
8.2168,0.000132,0.000851,-0.001831,0.000139,-3e-05,0.002531,-0.000561,-0.509237,-0.001195,1.337101,-260.923855,-1.34068,72.468205
8.2366,0.000185,0.000646,-0.002847,6.3e-05,-0.000108,0.002468,-0.000779,-0.509156,-0.001772,1.337101,-260.923855,-1.34068,72.468205
8.2566,6e-06,0.000378,-0.001044,6e-06,-0.000167,0.002423,-0.000779,-0.509156,-0.001772,1.337101,-260.923855,-1.34068,72.468205
8.2765,9.7e-05,0.000584,-0.001719,-3.7e-05,-0.000211,0.002391,-0.000521,-0.509622,-0.00099,1.412121,-260.923538,-1.415701,72.468535
8.2968,-0.000202,0.000353,-0.002329,-0.000135,-0.000112,0.002129,-0.000627,-0.509536,-0.001285,1.412121,-260.923538,-1.415701,72.468535
8.3166,-0.000494,0.000511,-0.001949,-0.000205,-3.6e-05,0.001949,-0.001389,-0.509648,-0.002303,1.487267,-260.923368,-1.490847,72.468763
8.3366,0.000323,0.000827,-0.00261,1.3e-05,3.1e-05,0.002102,-0.00148,-0.509502,-0.001979,1.487267,-260.923368,-1.490847,72.468763
8.3568,-5.9e-05,0.000823,-0.000716,0.000182,8.3e-05,0.002215,-0.00148,-0.509502,-0.001979,1.487267,-260.923368,-1.490847,72.468763
8.3769,-0.000477,0.001139,-0.001411,0.000312,0.000123,0.002298,-0.000424,-0.509177,-0.000716,1.412368,-260.923368,-1.565746,72.468763
8.3969,0.000231,0.000677,-0.003123,0.000187,-3.5e-05,0.001958,-0.000737,-0.509048,-0.000998,1.412368,-260.923368,-1.565746,72.468763
8.4166,-0.000347,0.000502,-0.000707,9.2e-05,-0.000153,0.001716,-0.001359,-0.509319,-0.003094,1.369117,-260.923117,-1.490826,72.468974
8.4364,-0.000191,0.000857,-0.001307,1.9e-05,-8.4e-05,0.001477,-0.000764,-0.509482,-0.000913,1.369117,-260.923117,-1.490826,72.468974
8.4565,-0.000128,0.000852,-0.001059,-3.5e-05,-3.2e-05,0.00131,-0.000764,-0.509482,-0.000913,1.369117,-260.923117,-1.490826,72.468974
8.4765,-1.9e-05,5.3e-05,-0.002095,-7.4e-05,8e-06,0.001193,-0.000665,-0.509153,-0.000998,1.444235,-260.92281,-1.494606,72.469385
8.4964,-0.000397,0.000563,-0.001959,-7.9e-05,4.2e-05,0.001365,-0.000839,-0.509482,-0.001445,1.444235,-260.92281,-1.494606,72.469385
8.5163,-0.000158,0.000658,-0.00224,-8.2e-05,6.8e-05,0.001486,-0.001396,-0.509436,-0.001949,1.519269,-260.922733,-1.56964,72.469461
8.5364,-5.9e-05,0.000799,-0.001442,6.5e-05,5.7e-05,0.001876,-0.001308,-0.509349,-0.002214,1.519269,-260.922733,-1.56964,72.469461
8.5566,2.8e-05,0.000777,-0.00142,0.000177,4.8e-05,0.002154,-0.001308,-0.509349,-0.002214,1.519269,-260.922733,-1.56964,72.469461
8.5765,-0.000426,0.000748,-0.001363,0.000262,4e-05,0.002351,-0.000697,-0.509221,-0.00138,1.594287,-260.922482,-1.644658,72.469677
8.5967,8.8e-05,0.000403,-0.002321,0.000193,-2.4e-05,0.002154,-0.000872,-0.509233,-0.001369,1.594287,-260.922482,-1.644658,72.469677
8.6167,-0.00026,0.000527,-0.001682,0.000141,-7.2e-05,0.002013,-0.001095,-0.509596,-0.002307,1.519354,-260.922376,-1.569725,72.469778
8.6365,-0.000394,0.000684,-0.000633,0.0,0.0,0.0,-0.001116,-0.509483,-0.001735,1.519354,-260.922376,-1.569725,72.469778
8.6564,-5.5e-05,0.000673,-0.001951,0.0,0.0,0.0,-0.001116,-0.509483,-0.001735,1.519354,-260.922376,-1.569725,72.469778
