mach0312/omni-docking-bench/src/icros_test_setup/results/MPPI_sample/timeseries/trial_027.csv
t,x,y,yaw,vx,vy,wz,bl_x,bl_y,bl_yaw,front_steering_joint,front_wheel_joint,rear_steering_joint,rear_wheel_joint
0.0,-0.046738,0.027793,0.08691,0.0,0.0,0.0,-0.003785,-0.480454,0.085598,0.197939,-265.980116,0.00367,66.819987
0.0003,-0.046669,0.027809,0.085778,0.0,0.0,0.0,-0.003785,-0.480454,0.085598,0.197939,-265.979574,0.00367,66.820519
0.0006,-0.046988,0.027911,0.086098,0.0,0.0,0.0,-0.003785,-0.480454,0.085598,0.197939,-265.979574,0.00367,66.820519
0.0009,-0.046734,0.02771,0.085876,0.0,0.0,0.0,-0.003193,-0.480502,0.087148,0.197939,-265.979574,0.00367,66.820519
0.0012,-0.046748,0.027476,0.086181,0.0,0.0,0.0,-0.003193,-0.480502,0.087148,0.197939,-265.979574,0.00367,66.820519
0.0015,-0.046663,0.027334,0.085959,0.0,0.0,0.0,-0.002972,-0.480427,0.087122,0.197939,-265.979574,0.00367,66.820519
0.0018,-0.046887,0.02764,0.085622,0.0,0.0,0.0,-0.002972,-0.480427,0.087122,0.197939,-265.979574,0.00367,66.820519
0.0156,-0.047015,0.027791,0.087143,0.0,0.0,0.0,-0.003273,-0.480491,0.085622,0.197939,-265.979574,0.00367,66.820519
0.0358,-0.047077,0.027773,0.086505,0.0,0.0,0.0,-0.002685,-0.480293,0.087008,0.197939,-265.979574,0.00367,66.820519
0.0559,-0.046723,0.027418,0.086514,0.0,0.0,0.0,-0.002685,-0.480293,0.087008,0.197939,-265.979574,0.00367,66.820519
0.0757,-0.046789,0.027666,0.086611,0.0,0.0,0.0,-0.002655,-0.480674,0.086514,0.197939,-265.979574,0.00367,66.820519
0.0961,-0.046646,0.027733,0.08549,0.0,0.0,0.0,-0.002662,-0.480571,0.086554,0.197939,-265.979574,0.00367,66.820519
0.1157,-0.046808,0.027422,0.085787,-0.003102,-0.003156,0.001901,-0.003099,-0.480405,0.08549,0.197939,-265.979574,0.00367,66.820519
0.1359,-0.046622,0.027272,0.086374,-0.003357,-0.003424,0.002151,-0.00311,-0.48068,0.085764,0.197939,-265.979574,0.00367,66.820519
0.1563,-0.047077,0.027637,0.08695,-0.003571,-0.003649,0.002379,-0.00311,-0.48068,0.085764,0.197939,-265.979574,0.00367,66.820519
0.1756,-0.046926,0.027382,0.086224,-0.003752,-0.003837,0.002585,-0.002788,-0.480437,0.08695,0.27327,-265.979574,0.079001,66.820519
0.196,-0.046959,0.027993,0.085166,-0.003913,-0.003995,0.002772,-0.002876,-0.480553,0.086656,0.27327,-265.979574,0.079001,66.820519
0.2159,-0.046881,0.027624,0.0857,-0.004049,-0.004129,0.002938,-0.003577,-0.480159,0.085166,0.347854,-265.979574,0.153586,66.820519
0.2365,-0.047,0.027754,0.08477,-0.00415,-0.004239,0.003084,-0.003257,-0.480475,0.085655,0.347854,-265.979574,0.153586,66.820519
0.2559,-0.046636,0.027729,0.087224,-0.004236,-0.004331,0.003214,-0.003257,-0.480475,0.085655,0.347854,-265.979574,0.153586,66.820519
0.2758,-0.046889,0.027419,0.086149,-0.004309,-0.00441,0.003328,-0.002208,-0.480332,0.087224,0.423028,-265.979574,0.22876,66.820519
0.296,-0.047169,0.0278,0.085536,-0.004395,-0.004478,0.003434,-0.002531,-0.480476,0.08679,0.423028,-265.979574,0.22876,66.820519
0.3158,-0.046768,0.027785,0.086557,-0.004468,-0.004535,0.003526,-0.003599,-0.480335,0.085536,0.497842,-265.979574,0.303573,66.820518
0.3357,-0.046875,0.02748,0.08571,-0.004522,-0.004582,0.003606,-0.002762,-0.480309,0.086465,0.497842,-265.979574,0.303573,66.820518
0.3558,-0.046807,0.027608,0.08691,-0.004569,-0.004621,0.003676,-0.002762,-0.480309,0.086465,0.497842,-265.979574,0.303573,66.820518
0.3759,-0.046735,0.027202,0.087311,-0.004608,-0.004654,0.003738,-0.002539,-0.480467,0.08691,0.489611,-265.979575,0.378577,66.820517
0.3958,-0.046814,0.027641,0.08576,-0.004652,-0.004683,0.003793,-0.002427,-0.480625,0.087073,0.489611,-265.979575,0.378577,66.820517
0.4155,-0.047082,0.028074,0.088325,-0.00469,-0.004706,0.003841,-0.00313,-0.480485,0.08576,0.475288,-265.979579,0.45358,66.82051
0.436,-0.046563,0.027301,0.084711,-0.004734,-0.004727,0.003885,-0.002187,-0.479987,0.088096,0.475288,-265.979579,0.45358,66.82051
0.4561,-0.047011,0.027278,0.087701,-0.00477,-0.004744,0.003923,-0.002187,-0.479987,0.088096,0.475288,-265.979579,0.45358,66.82051
0.4759,-0.047075,0.027651,0.085762,-0.004801,-0.004758,0.003955,-0.002343,-0.480763,0.087701,0.466233,-265.979598,0.528591,66.82048
0.4958,-0.04701,0.027587,0.085875,-0.004804,-0.004767,0.00398,-0.002767,-0.480647,0.086917,0.466233,-265.979598,0.528591,66.82048
0.5156,-0.046687,0.028279,0.087188,-0.004807,-0.004775,0.004002,-0.003274,-0.480539,0.085877,0.453863,-265.979669,0.603577,66.820364
0.5358,-0.047285,0.027925,0.0849,-0.004826,-0.004783,0.004024,-0.002367,-0.479852,0.087071,0.453863,-265.979669,0.603577,66.820364
0.5561,-0.046949,0.027925,0.084974,-0.004842,-0.00479,0.004043,-0.002367,-0.479852,0.087071,0.453863,-265.979669,0.603577,66.820364
0.5758,-0.046931,0.027494,0.085876,-0.004856,-0.004795,0.00406,-0.003686,-0.480252,0.084984,0.451524,-265.97987,0.678612,66.820039
0.5959,-0.046661,0.027356,0.086698,-0.004825,-0.004795,0.004068,-0.003485,-0.480407,0.085349,0.451524,-265.97987,0.678612,66.820039
0.616,-0.046802,0.027754,0.087143,-0.0048,-0.004795,0.004076,-0.002538,-0.480761,0.086719,0.444979,-265.980351,0.75358,66.819256
0.6361,-0.046734,0.027277,0.087347,-0.004818,-0.0048,0.00409,-0.002428,-0.480352,0.087107,0.444979,-265.980351,0.75358,66.819256
0.656,-0.046899,0.027624,0.086095,-0.004833,-0.004803,0.004101,-0.002428,-0.480352,0.087107,0.444979,-265.980351,0.75358,66.819256
0.6758,-0.04719,0.027156,0.087867,-0.004845,-0.004806,0.004111,-0.003129,-0.480569,0.086153,0.447869,-265.981227,0.828673,66.817822
0.6961,-0.046948,0.027423,0.086316,-0.004839,-0.004807,0.004117,-0.002853,-0.480706,0.086867,0.447869,-265.981227,0.828673,66.817822
0.7161,-0.047736,0.02734,0.085443,-0.004834,-0.004807,0.004122,-0.003082,-0.480786,0.086396,0.442422,-265.982665,0.903671,66.815467
0.736,-0.047117,0.027202,0.084913,-0.004784,-0.004802,0.004121,-0.004116,-0.480804,0.085533,0.442422,-265.982665,0.903671,66.815467
0.7562,-0.047584,0.02683,0.087214,-0.004743,-0.004798,0.004121,-0.004116,-0.480804,0.085533,0.442422,-265.982665,0.903671,66.815467
0.7761,-0.047379,0.026882,0.088358,-0.004708,-0.004796,0.004122,-0.003327,-0.481427,0.087367,0.442313,-265.98458,0.978574,66.812326
0.796,-0.047534,0.026987,0.084815,-0.004718,-0.004799,0.00413,-0.002957,-0.481327,0.08779,0.442313,-265.98458,0.978574,66.812326
0.8158,-0.04812,0.026577,0.086254,-0.004726,-0.004801,0.004137,-0.004466,-0.481343,0.084945,0.450629,-265.986654,0.998791,66.808876
0.8361,-0.048095,0.026964,0.085119,-0.004684,-0.004796,0.004163,-0.004217,-0.481519,0.086145,0.450629,-265.986654,0.998791,66.808876
0.8561,-0.047954,0.026672,0.086826,-0.004649,-0.004793,0.004186,-0.004217,-0.481519,0.086145,0.450629,-265.986654,0.998791,66.808876
0.876,-0.047915,0.026206,0.087369,-0.00462,-0.00479,0.004206,-0.003909,-0.481625,0.086999,0.448496,-265.988756,0.997913,66.805383
0.8961,-0.04842,0.026484,0.086894,-0.004612,-0.004791,0.004234,-0.003727,-0.481741,0.08717,0.448496,-265.988756,0.997913,66.805383
0.9159,-0.048629,0.026343,0.086814,-0.004606,-0.004792,0.004258,-0.004293,-0.481756,0.087027,0.448251,-265.990797,1.010182,66.801923
0.9356,-0.048866,0.026441,0.087775,-0.004574,-0.004788,0.004284,-0.004406,-0.481747,0.086841,0.448251,-265.990797,1.010182,66.801923
0.9558,-0.048888,0.026317,0.08705,-0.004548,-0.004786,0.004305,-0.004406,-0.481747,0.086841,0.448251,-265.990797,1.010182,66.801923
0.9759,-0.048729,0.025953,0.088008,-0.004526,-0.004784,0.004324,-0.004723,-0.481968,0.087228,0.444017,-265.992836,1.013632,66.79844
0.996,-0.048403,0.025918,0.085196,-0.004505,-0.004783,0.004349,-0.004412,-0.482036,0.087564,0.444017,-265.992836,1.013632,66.79844
1.0159,-0.049178,0.025974,0.087504,-0.004488,-0.004782,0.00437,-0.005136,-0.482395,0.085334,0.44226,-265.994845,1.023398,66.794952
1.0356,-0.049181,0.025779,0.088267,-0.004463,-0.004779,0.004395,-0.004655,-0.482107,0.087342,0.44226,-265.994845,1.023398,66.794952
1.0556,-0.049251,0.025611,0.086973,-0.004443,-0.004777,0.004416,-0.004655,-0.482107,0.087342,0.44226,-265.994845,1.023398,66.794952
1.076,-0.049194,0.02513,0.086085,-0.004425,-0.004776,0.004435,-0.005119,-0.482675,0.087155,0.439948,-265.996828,1.02861,66.791476
1.0961,-0.04947,0.025554,0.087683,-0.004383,-0.00477,0.004455,-0.005233,-0.482828,0.086731,0.439948,-265.996828,1.02861,66.791476
1.1157,-0.049936,0.025185,0.0867,-0.004347,-0.004765,0.004473,-0.004935,-0.48265,0.087824,0.43703,-265.998774,1.036843,66.788012
1.136,-0.049728,0.024999,0.088411,-0.004299,-0.004757,0.004493,-0.005708,-0.482885,0.086805,0.43703,-265.998774,1.036843,66.788012
1.1561,-0.049791,0.025096,0.088137,-0.004259,-0.004752,0.004512,-0.005708,-0.482885,0.086805,0.43703,-265.998774,1.036843,66.788012
1.1758,-0.050339,0.024734,0.088176,-0.004225,-0.004747,0.004528,-0.005062,-0.483139,0.088324,0.437467,-266.000698,1.045312,66.784537
1.1961,-0.050181,0.025085,0.087889,-0.004213,-0.004747,0.004551,-0.005234,-0.483225,0.088284,0.437467,-266.000698,1.045312,66.784537
1.2154,-0.050775,0.024947,0.089192,-0.004202,-0.004748,0.00457,-0.005534,-0.483107,0.088032,0.438579,-266.002567,1.058507,66.781085
1.236,-0.050465,0.024524,0.088208,-0.004191,-0.004747,0.00459,-0.005365,-0.483038,0.089119,0.438579,-266.002567,1.058507,66.781085
1.2558,-0.050363,0.024561,0.087704,-0.004181,-0.004747,0.004606,-0.005365,-0.483038,0.089119,0.438579,-266.002567,1.058507,66.781085
1.276,-0.050634,0.024442,0.088664,-0.004173,-0.004747,0.004621,-0.005847,-0.48369,0.087894,0.435703,-266.004403,1.06227,66.777665
1.2958,-0.050602,0.024265,0.089456,-0.004147,-0.004743,0.004632,-0.005714,-0.48366,0.088228,0.435703,-266.004403,1.06227,66.777665
1.3154,-0.051031,0.024031,0.088204,-0.004125,-0.00474,0.004641,-0.005159,-0.483859,0.089603,0.432262,-266.006241,1.066949,66.774209
1.3357,-0.051377,0.024092,0.089719,-0.004092,-0.004735,0.004649,-0.006026,-0.483983,0.088338,0.432262,-266.006241,1.066949,66.774209
1.3558,-0.051033,0.023943,0.086497,-0.004065,-0.00473,0.004656,-0.006026,-0.483983,0.088338,0.432262,-266.006241,1.066949,66.774209
1.3759,-0.051593,0.023751,0.090782,-0.004042,-0.004727,0.004663,-0.007129,-0.484363,0.086691,0.432765,-266.008065,1.072145,66.770746
1.3961,-0.051187,0.023801,0.088403,-0.004005,-0.00472,0.004667,-0.006406,-0.484298,0.088426,0.432765,-266.008065,1.072145,66.770746
1.4155,-0.052144,0.023418,0.088798,-0.003975,-0.004715,0.004672,-0.006274,-0.484368,0.08855,0.435181,-266.009847,1.080631,66.767314
1.4359,-0.051579,0.023703,0.087887,-0.00393,-0.004705,0.004675,-0.006871,-0.484564,0.088785,0.435181,-266.009847,1.080631,66.767314
1.4559,-0.051703,0.023411,0.089261,-0.003892,-0.004698,0.004678,-0.006871,-0.484564,0.088785,0.435181,-266.009847,1.080631,66.767314
1.4759,-0.051921,0.023227,0.090137,-0.00386,-0.004692,0.004682,-0.006388,-0.484769,0.089456,0.437926,-266.011593,1.087175,66.763914
1.496,-0.051803,0.023004,0.089385,-0.003857,-0.004694,0.00469,-0.006253,-0.484766,0.089754,0.437926,-266.011593,1.087175,66.763914
1.5159,-0.052213,0.022962,0.088251,-0.003853,-0.004695,0.004697,-0.006386,-0.485119,0.089534,0.443296,-266.013298,1.098244,66.76053
1.536,-0.052114,0.02282,0.089876,-0.00381,-0.004686,0.004697,-0.007189,-0.485068,0.088376,0.443296,-266.013298,1.098244,66.76053
1.556,-0.052522,0.022988,0.091189,-0.003774,-0.004678,0.004698,-0.007189,-0.485068,0.088376,0.443296,-266.013298,1.098244,66.76053
1.5759,-0.051992,0.022901,0.089356,-0.003744,-0.004672,0.0047,-0.006223,-0.485104,0.091385,0.442739,-266.015004,1.099616,66.757135
1.5964,-0.052771,0.022708,0.090105,-0.003753,-0.004677,0.004709,-0.006344,-0.485112,0.090589,0.442739,-266.015004,1.099616,66.757135
1.6155,-0.053001,0.022502,0.090783,-0.003761,-0.004681,0.004715,-0.006985,-0.485382,0.090255,0.44841,-266.016662,1.110087,66.753774
1.6359,-0.052801,0.02266,0.090887,-0.003747,-0.004679,0.004718,-0.00679,-0.485404,0.090743,0.44841,-266.016662,1.110087,66.753774
1.6561,-0.053004,0.022408,0.090698,-0.003735,-0.004677,0.004721,-0.00679,-0.485404,0.090743,0.44841,-266.016662,1.110087,66.753774
1.6763,-0.053099,0.022508,0.089177,-0.003725,-0.004676,0.004723,-0.006952,-0.485707,0.090896,0.446626,-266.018342,1.109203,66.750371
1.6965,-0.05325,0.022369,0.091039,-0.003695,-0.004669,0.004723,-0.007271,-0.48563,0.090201,0.446626,-266.018342,1.109203,66.750371
1.7161,-0.053599,0.022269,0.08884,-0.00367,-0.004663,0.004723,-0.006988,-0.485678,0.09119,0.448232,-266.019996,1.112996,66.746998
1.7366,-0.053085,0.022025,0.091459,-0.003609,-0.004646,0.004718,-0.008258,-0.485724,0.089012,0.448232,-266.019996,1.112996,66.746998
1.7563,-0.053495,0.022016,0.089426,-0.003558,-0.004632,0.004716,-0.008258,-0.485724,0.089012,0.448232,-266.019996,1.112996,66.746998
1.7763,-0.053701,0.022032,0.090357,-0.003516,-0.004621,0.004715,-0.008084,-0.486154,0.089624,0.45128,-266.021613,1.118223,66.74367
1.7961,-0.053597,0.021612,0.091042,-0.003489,-0.004615,0.004716,-0.007941,-0.486073,0.089934,0.45128,-266.021613,1.118223,66.74367
1.8158,-0.054001,0.021727,0.092593,-0.003467,-0.004611,0.004718,-0.007327,-0.486432,0.091191,0.459885,-266.023176,1.132452,66.740372
1.8359,-0.054038,0.021111,0.091128,-0.003491,-0.004621,0.004727,-0.006895,-0.486128,0.092473,0.459885,-266.023176,1.132452,66.740372
1.8565,-0.054116,0.021236,0.091601,-0.003511,-0.004629,0.004733,-0.006895,-0.486128,0.092473,0.459885,-266.023176,1.132452,66.740372
1.8757,-0.05425,0.021291,0.089907,-0.003528,-0.004635,0.004738,-0.007592,-0.486832,0.0918,0.462676,-266.024725,1.137451,66.737071
1.8961,-0.053996,0.021399,0.092334,-0.003489,-0.004624,0.004735,-0.007953,-0.486782,0.091066,0.462676,-266.024725,1.137451,66.737071
1.9158,-0.054287,0.02086,0.092233,-0.003457,-0.004615,0.004732,-0.007071,-0.486587,0.092486,0.458499,-266.026298,1.132643,66.733746
1.9357,-0.054495,0.021132,0.09201,-0.003456,-0.004616,0.004735,-0.007298,-0.486946,0.092264,0.458499,-266.026298,1.132643,66.733746
1.9557,-0.054502,0.02091,0.09276,-0.003454,-0.004617,0.004737,-0.007298,-0.486946,0.092264,0.458499,-266.026298,1.132643,66.733746
1.9759,-0.054741,0.020414,0.0916,-0.003453,-0.004618,0.004739,-0.007388,-0.487103,0.092958,0.462726,-266.027841,1.139143,66.730445
1.9958,-0.054637,0.020818,0.091011,-0.003432,-0.004612,0.004738,-0.007687,-0.487266,0.092431,0.462726,-266.027841,1.139143,66.730445
2.0155,-0.054958,0.020728,0.091519,-0.003415,-0.004608,0.004737,-0.008382,-0.487228,0.091163,0.462941,-266.029405,1.13992,66.727095
2.0359,-0.054881,0.020724,0.092478,-0.003375,-0.004595,0.004733,-0.008354,-0.487148,0.091503,0.462941,-266.029405,1.13992,66.727095
2.0559,-0.055126,0.020541,0.091486,-0.003341,-0.004585,0.004731,-0.008354,-0.487148,0.091503,0.462941,-266.029405,1.13992,66.727095
2.0759,-0.055177,0.020441,0.091743,-0.003313,-0.004577,0.00473,-0.008656,-0.487528,0.091681,0.465291,-266.030913,1.143588,66.723842
2.0956,-0.055416,0.020224,0.092429,-0.003276,-0.004565,0.004728,-0.008589,-0.487506,0.091729,0.465291,-266.030913,1.143588,66.723842
2.116,-0.055461,0.0196,0.093591,-0.003244,-0.004556,0.004727,-0.008436,-0.487754,0.092579,0.47124,-266.032397,1.153139,66.720582
2.136,-0.055263,0.019851,0.09256,-0.003239,-0.004556,0.00473,-0.007863,-0.488138,0.093506,0.47124,-266.032397,1.153139,66.720582
2.156,-0.055664,0.020099,0.092749,-0.003235,-0.004557,0.004732,-0.007863,-0.488138,0.093506,0.47124,-266.032397,1.153139,66.720582
2.1762,-0.055572,0.019777,0.091152,-0.003231,-0.004557,0.004734,-0.008547,-0.487911,0.092947,0.475218,-266.033858,1.159761,66.71733
2.196,-0.055924,0.019868,0.09292,-0.00319,-0.004543,0.00473,-0.00881,-0.488015,0.092227,0.475218,-266.033858,1.159761,66.71733
2.2159,-0.055996,0.019633,0.094887,-0.003157,-0.004532,0.004728,-0.008691,-0.488085,0.093071,0.475968,-266.035309,1.161507,66.714089
2.236,-0.056384,0.019587,0.091731,-0.003172,-0.00454,0.004734,-0.007771,-0.488081,0.094733,0.475968,-266.035309,1.161507,66.714089
2.2559,-0.055848,0.019377,0.092942,-0.003185,-0.004546,0.004738,-0.007771,-0.488081,0.094733,0.475968,-266.035309,1.161507,66.714089
2.2761,-0.056667,0.01942,0.093335,-0.003196,-0.004551,0.004741,-0.00863,-0.488623,0.09314,0.480229,-266.036732,1.168569,66.710867
2.2963,-0.056456,0.019058,0.092252,-0.003151,-0.004535,0.004736,-0.008848,-0.48854,0.093242,0.480229,-266.036732,1.168569,66.710867
2.3157,-0.056693,0.019147,0.094175,-0.003115,-0.004522,0.004732,-0.009562,-0.488927,0.092403,0.47789,-266.038172,1.165398,66.707623
2.3359,-0.056561,0.018626,0.093836,-0.003085,-0.004512,0.00473,-0.008811,-0.48863,0.094029,0.47789,-266.038172,1.165398,66.707623
2.3561,-0.056799,0.019104,0.094477,-0.00306,-0.004504,0.004729,-0.008811,-0.48863,0.094029,0.47789,-266.038172,1.165398,66.707623
2.3759,-0.056988,0.018732,0.093966,-0.003039,-0.004498,0.004729,-0.008798,-0.488822,0.094675,0.482565,-266.039576,1.172974,66.704415
2.3957,-0.057194,0.018696,0.093427,-0.003012,-0.004488,0.004727,-0.008948,-0.488925,0.09441,0.482565,-266.039576,1.172974,66.704415
2.4156,-0.056976,0.018692,0.095349,-0.002989,-0.004481,0.004727,-0.009699,-0.489231,0.093578,0.486997,-266.04095,1.180376,66.701223
2.4358,-0.05716,0.018586,0.095049,-0.002986,-0.004481,0.004729,-0.00854,-0.489021,0.095199,0.486997,-266.04095,1.180376,66.701223
2.4556,-0.057658,0.018153,0.093332,-0.002983,-0.004482,0.004731,-0.00854,-0.489021,0.095199,0.486997,-266.04095,1.180376,66.701223
2.4755,-0.057256,0.018465,0.093497,-0.00298,-0.004482,0.004732,-0.010235,-0.489826,0.09353,0.489907,-266.042304,1.185396,66.698046
2.4962,-0.057357,0.018208,0.093735,-0.002906,-0.00445,0.004723,-0.010007,-0.489638,0.093539,0.489907,-266.042304,1.185396,66.698046
2.5159,-0.057488,0.017957,0.094964,-0.002845,-0.004425,0.004717,-0.009703,-0.489704,0.093886,0.49051,-266.043657,1.186624,66.694861
2.5358,-0.057296,0.017905,0.096275,-0.002825,-0.004419,0.004718,-0.009182,-0.489749,0.094879,0.49051,-266.043657,1.186624,66.694861
2.5559,-0.057873,0.017999,0.093812,-0.002809,-0.004415,0.00472,-0.009182,-0.489749,0.094879,0.49051,-266.043657,1.186624,66.694861
2.5758,-0.05788,0.017869,0.095445,-0.002796,-0.004411,0.004721,-0.0102,-0.489954,0.094008,0.497269,-266.044946,1.199521,66.691738
2.5958,-0.057484,0.017871,0.096659,-0.002755,-0.004395,0.004718,-0.009838,-0.489918,0.094613,0.497269,-266.044946,1.199521,66.691738
2.6158,-0.058238,0.017618,0.093827,-0.002721,-0.004381,0.004717,-0.00834,-0.489897,0.096809,0.49932,-266.046226,1.203302,66.688612
2.6357,-0.058092,0.017305,0.093971,-0.002672,-0.004361,0.004713,-0.010237,-0.490123,0.094152,0.49932,-266.046226,1.203302,66.688612
2.656,-0.057988,0.017595,0.095025,-0.002632,-0.004344,0.004712,-0.010237,-0.490123,0.094152,0.49932,-266.046226,1.203302,66.688612
2.6765,-0.05858,0.017426,0.095034,-0.002599,-0.004331,0.004711,-0.009694,-0.490297,0.095222,0.504016,-266.047466,1.21231,66.685515
2.6961,-0.058294,0.017253,0.095078,-0.002581,-0.004325,0.004713,-0.009904,-0.490309,0.095169,0.504016,-266.047466,1.21231,66.685515
2.7163,-0.058451,0.017387,0.094697,-0.002566,-0.00432,0.004715,-0.009946,-0.490589,0.095227,0.50999,-266.048653,1.224782,66.68246
2.7359,-0.058192,0.016935,0.09501,-0.002541,-0.00431,0.004714,-0.010206,-0.490359,0.094752,0.50999,-266.048653,1.224782,66.68246
2.7561,-0.058736,0.017208,0.093337,-0.002519,-0.004302,0.004715,-0.010206,-0.490359,0.094752,0.50999,-266.048653,1.224782,66.68246
2.7756,-0.058567,0.017102,0.096326,-0.002502,-0.004296,0.004716,-0.011294,-0.490763,0.093534,0.51167,-266.049832,1.228414,66.6794
2.7958,-0.058824,0.016958,0.096476,-0.002465,-0.004279,0.004714,-0.010576,-0.490691,0.0947,0.51167,-266.049832,1.228414,66.6794
2.8164,-0.059081,0.016386,0.095116,-0.002435,-0.004266,0.004713,-0.009764,-0.490813,0.096626,0.514905,-266.050979,1.235354,66.676367
2.8362,-0.058784,0.01627,0.096328,-0.002398,-0.004249,0.004711,-0.01057,-0.491272,0.095258,0.514905,-266.050979,1.235354,66.676367
2.8558,-0.058864,0.016326,0.097319,-0.002367,-0.004235,0.004711,-0.01057,-0.491272,0.095258,0.514905,-266.050979,1.235354,66.676367
2.876,-0.05915,0.016302,0.095252,-0.002341,-0.004224,0.004711,-0.009394,-0.491448,0.097516,0.517944,-266.052099,1.2423,66.67335
2.8957,-0.058884,0.016257,0.095034,-0.002344,-0.004227,0.004715,-0.009905,-0.491445,0.096631,0.517944,-266.052099,1.2423,66.67335
2.9158,-0.059219,0.015903,0.095903,-0.002346,-0.00423,0.004719,-0.010551,-0.491583,0.095184,0.521993,-266.053177,1.252321,66.670365
2.9359,-0.059423,0.016247,0.098155,-0.00232,-0.004218,0.004717,-0.010401,-0.491745,0.095846,0.521993,-266.053177,1.252321,66.670365
2.9558,-0.059414,0.015603,0.096057,-0.002298,-0.004208,0.004717,-0.010401,-0.491745,0.095846,0.521993,-266.053177,1.252321,66.670365
2.9763,-0.059429,0.015767,0.096312,-0.00228,-0.004201,0.004717,-0.010581,-0.492231,0.096255,0.521783,-266.05426,1.25222,66.667369
2.9962,-0.059912,0.015523,0.096955,-0.002252,-0.004187,0.004716,-0.010512,-0.492108,0.096301,0.521783,-266.05426,1.25222,66.667369
3.0157,-0.06003,0.016004,0.096884,-0.00223,-0.004176,0.004715,-0.010602,-0.492222,0.097106,0.524658,-266.055314,1.25931,66.664393
3.0357,-0.059688,0.015551,0.097537,-0.002215,-0.00417,0.004716,-0.010691,-0.491665,0.096911,0.524658,-266.055314,1.25931,66.664393
3.0558,-0.059692,0.015611,0.097432,-0.002203,-0.004166,0.004718,-0.010691,-0.491665,0.096911,0.524658,-266.055314,1.25931,66.664393
3.076,-0.059827,0.015455,0.097231,-0.002193,-0.004162,0.004719,-0.010157,-0.492153,0.097629,0.52666,-266.056345,1.264747,66.661433
3.096,-0.059927,0.015268,0.097291,-0.002192,-0.004162,0.004721,-0.010231,-0.492167,0.097489,0.52666,-266.056345,1.264747,66.661433
3.1157,-0.060317,0.01523,0.097743,-0.00219,-0.004163,0.004723,-0.010444,-0.492458,0.09744,0.528216,-266.057359,1.268954,66.658488
3.1357,-0.060235,0.015301,0.098651,-0.002172,-0.004154,0.004722,-0.010541,-0.492354,0.097724,0.528216,-266.057359,1.268954,66.658488
3.1557,-0.059973,0.015279,0.097229,-0.002157,-0.004147,0.004722,-0.010541,-0.492354,0.097724,0.528216,-266.057359,1.268954,66.658488
3.1756,-0.060471,0.014675,0.098165,-0.002145,-0.004141,0.004722,-0.010539,-0.492495,0.097427,0.528316,-266.058373,1.269482,66.655536
3.1958,-0.060641,0.014684,0.098123,-0.002128,-0.004132,0.004721,-0.010527,-0.492666,0.097746,0.528316,-266.058373,1.269482,66.655536
3.2154,-0.060743,0.014651,0.09811,-0.002113,-0.004125,0.004721,-0.010734,-0.493001,0.098273,0.530053,-266.059371,1.274436,66.652588
3.2359,-0.060587,0.014622,0.09791,-0.002085,-0.00411,0.004719,-0.010785,-0.492911,0.09813,0.530053,-266.059371,1.274436,66.652588
3.2558,-0.060434,0.014861,0.097258,-0.002062,-0.004097,0.004718,-0.010785,-0.492911,0.09813,0.530053,-266.059371,1.274436,66.652588
3.2758,-0.060682,0.014337,0.098554,-0.002042,-0.004087,0.004718,-0.010981,-0.492909,0.097455,0.531144,-266.060348,1.277949,66.649672
3.2959,-0.060869,0.013955,0.099895,-0.002022,-0.004077,0.004718,-0.010797,-0.493042,0.097918,0.531144,-266.060348,1.277949,66.649672
3.3159,-0.060978,0.014437,0.097482,-0.002006,-0.004068,0.004718,-0.010059,-0.493638,0.100045,0.533255,-266.061295,1.285706,66.64677
3.3357,-0.061128,0.01428,0.097353,-0.001971,-0.004048,0.004716,-0.011227,-0.493194,0.097722,0.533255,-266.061295,1.285706,66.64677
3.3556,-0.061244,0.014438,0.098655,-0.001943,-0.004032,0.004715,-0.011227,-0.493194,0.097722,0.533255,-266.061295,1.285706,66.64677
3.376,-0.061135,0.014116,0.098614,-0.001919,-0.00402,0.004715,-0.011078,-0.49326,0.098853,0.534218,-266.062227,1.289827,66.643877
3.3958,-0.060908,0.013927,0.100189,-0.001904,-0.004012,0.004716,-0.011022,-0.49334,0.098778,0.534218,-266.062227,1.289827,66.643877
3.4162,-0.061495,0.013356,0.099631,-0.001892,-0.004006,0.004717,-0.009945,-0.493649,0.100339,0.536135,-266.063119,1.299524,66.641017
3.4358,-0.061575,0.014082,0.098272,-0.001875,-0.003997,0.004717,-0.010697,-0.49408,0.099702,0.536135,-266.063119,1.299524,66.641017
3.4557,-0.061127,0.013881,0.09712,-0.001861,-0.003989,0.004718,-0.010697,-0.49408,0.099702,0.536135,-266.063119,1.299524,66.641017
3.4765,-0.061626,0.01367,0.099247,-0.001849,-0.003983,0.004719,-0.011736,-0.493891,0.097317,0.536601,-266.063999,1.302716,66.638161
3.4957,-0.061983,0.013511,0.098074,-0.001813,-0.003961,0.004716,-0.01148,-0.493882,0.098128,0.536601,-266.063999,1.302716,66.638161
3.5156,-0.061641,0.013221,0.099045,-0.001784,-0.003944,0.004715,-0.012092,-0.49417,0.098224,0.537117,-266.06486,1.307687,66.635318
3.5359,-0.06204,0.013299,0.099352,-0.001756,-0.003927,0.004714,-0.011293,-0.494277,0.098978,0.537117,-266.06486,1.307687,66.635318
3.5556,-0.061866,0.013072,0.098305,-0.001733,-0.003914,0.004714,-0.011293,-0.494277,0.098978,0.537117,-266.06486,1.307687,66.635318
3.5758,-0.062054,0.013265,0.100704,-0.001714,-0.003903,0.004715,-0.011869,-0.494637,0.098503,0.537872,-266.06569,1.315103,66.6325
3.5956,-0.062133,0.013061,0.099266,-0.001688,-0.003887,0.004714,-0.011433,-0.494459,0.099422,0.537872,-266.06569,1.315103,66.6325
3.6157,-0.061768,0.012746,0.100557,-0.001666,-0.003874,0.004714,-0.011632,-0.494558,0.099416,0.538244,-266.066487,1.323296,66.629704
3.6357,-0.061968,0.012904,0.100171,-0.001673,-0.00388,0.004719,-0.010669,-0.494674,0.100461,0.538244,-266.066487,1.323296,66.629704
3.6558,-0.062004,0.013012,0.098674,-0.001679,-0.003885,0.004722,-0.010669,-0.494674,0.100461,0.538244,-266.066487,1.323296,66.629704
3.6757,-0.062323,0.012539,0.099871,-0.001683,-0.003889,0.004724,-0.011815,-0.494675,0.098871,0.538219,-266.067263,1.328902,66.626922
3.6956,-0.062395,0.012366,0.100663,-0.001643,-0.003863,0.00472,-0.011682,-0.494794,0.099301,0.538219,-266.067263,1.328902,66.626922
3.7159,-0.062662,0.012729,0.099942,-0.00161,-0.003841,0.004718,-0.011184,-0.495181,0.100814,0.537707,-266.068063,1.327274,66.624072
3.7359,-0.062529,0.01262,0.100035,-0.001575,-0.003817,0.004715,-0.011805,-0.494951,0.100225,0.537707,-266.068063,1.327274,66.624072
3.7559,-0.062844,0.012276,0.09886,-0.001545,-0.003798,0.004714,-0.011805,-0.494951,0.100225,0.537707,-266.068063,1.327274,66.624072
3.7756,-0.062829,0.012177,0.100746,-0.001521,-0.003783,0.004714,-0.012557,-0.495396,0.099053,0.537426,-266.068797,1.335708,66.621369
3.7962,-0.062926,0.012326,0.101978,-0.001476,-0.003752,0.004711,-0.012151,-0.495351,0.099759,0.537426,-266.068797,1.335708,66.621369
3.8157,-0.062598,0.011756,0.099738,-0.001439,-0.003726,0.00471,-0.011043,-0.495149,0.102128,0.536177,-266.069504,1.346359,66.618636
3.836,-0.062984,0.01231,0.099487,-0.001413,-0.003709,0.00471,-0.01175,-0.495667,0.099953,0.536177,-266.069504,1.346359,66.618636
3.8562,-0.062822,0.011482,0.099475,-0.001391,-0.003695,0.004711,-0.01175,-0.495667,0.099953,0.536177,-266.069504,1.346359,66.618636
3.876,-0.063029,0.011863,0.102762,-0.001374,-0.003684,0.004712,-0.012217,-0.496158,0.099672,0.533509,-266.07017,1.356238,66.615942
3.896,-0.063528,0.011853,0.101703,-0.001358,-0.003674,0.004713,-0.011614,-0.495889,0.100943,0.533509,-266.07017,1.356238,66.615942
3.9159,-0.063017,0.011373,0.102021,-0.001345,-0.003666,0.004714,-0.011781,-0.495633,0.101853,0.530793,-266.070807,1.364447,66.613259
3.9358,-0.063422,0.011554,0.100559,-0.001351,-0.003672,0.004718,-0.011139,-0.495951,0.102014,0.530793,-266.070807,1.364447,66.613259
3.9559,-0.063166,0.011777,0.099942,-0.001356,-0.003677,0.004721,-0.011139,-0.495951,0.102014,0.530793,-266.070807,1.364447,66.613259
3.976,-0.06346,0.011702,0.102133,-0.00136,-0.003681,0.004723,-0.012321,-0.495836,0.100139,0.529333,-266.071429,1.36817,66.610592
3.9957,-0.063692,0.011209,0.100224,-0.001337,-0.003665,0.004722,-0.011974,-0.495774,0.100977,0.529333,-266.071429,1.36817,66.610592
4.0158,-0.06388,0.011177,0.102771,-0.001318,-0.003652,0.004721,-0.012694,-0.496353,0.100374,0.529757,-266.072061,1.366539,66.607906
4.0359,-0.063341,0.011146,0.100905,-0.001303,-0.003642,0.00472,-0.011662,-0.496158,0.102566,0.529757,-266.072061,1.366539,66.607906
4.0557,-0.063692,0.011267,0.102013,-0.001291,-0.003633,0.00472,-0.011662,-0.496158,0.102566,0.529757,-266.072061,1.366539,66.607906
4.0758,-0.063667,0.011071,0.102216,-0.001281,-0.003626,0.004721,-0.011795,-0.496239,0.10221,0.52787,-266.07267,1.371731,66.605244
4.0957,-0.064032,0.011179,0.100097,-0.001266,-0.003616,0.00472,-0.011731,-0.496268,0.102235,0.52787,-266.07267,1.371731,66.605244
4.1157,-0.064029,0.01066,0.102622,-0.001254,-0.003607,0.00472,-0.013097,-0.496387,0.100248,0.52571,-266.073262,1.376543,66.602592
4.1359,-0.064186,0.010841,0.10257,-0.001225,-0.003585,0.004718,-0.011904,-0.496639,0.102415,0.52571,-266.073262,1.376543,66.602592
4.156,-0.063756,0.010828,0.103465,-0.001202,-0.003568,0.004716,-0.011904,-0.496639,0.102415,0.52571,-266.073262,1.376543,66.602592
4.1763,-0.064213,0.010764,0.101659,-0.001183,-0.003553,0.004716,-0.011119,-0.496601,0.103662,0.523876,-266.073841,1.380002,66.599948
4.1957,-0.064087,0.010708,0.102819,-0.001177,-0.00355,0.004717,-0.011657,-0.49662,0.102886,0.523876,-266.073841,1.380002,66.599948
4.2158,-0.064116,0.010338,0.102454,-0.001172,-0.003547,0.004718,-0.011768,-0.496715,0.102968,0.517527,-266.074384,1.389003,66.597337
4.2357,-0.064472,0.010382,0.103272,-0.001146,-0.003526,0.004716,-0.011941,-0.496969,0.102508,0.517527,-266.074384,1.389003,66.597337
4.2557,-0.063874,0.010418,0.102224,-0.001124,-0.00351,0.004715,-0.011941,-0.496969,0.102508,0.517527,-266.074384,1.389003,66.597337
4.2756,-0.064238,0.010416,0.103151,-0.001106,-0.003496,0.004714,-0.011865,-0.497072,0.102422,0.516404,-266.074923,1.390483,66.594723
4.2956,-0.064522,0.010084,0.103444,-0.001095,-0.003488,0.004715,-0.011812,-0.497009,0.102739,0.516404,-266.074923,1.390483,66.594723
4.3157,-0.064534,0.009711,0.101931,-0.001086,-0.003481,0.004715,-0.011883,-0.497305,0.103594,0.508595,-266.07543,1.398974,66.592136
4.3356,-0.064649,0.009853,0.103382,-0.001031,-0.003434,0.004709,-0.012575,-0.497618,0.102082,0.508595,-266.07543,1.398974,66.592136
4.3555,-0.064505,0.009818,0.103278,-0.000986,-0.003396,0.004705,-0.012575,-0.497618,0.102082,0.508595,-266.07543,1.398974,66.592136
4.3761,-0.064965,0.009982,0.102045,-0.000949,-0.003364,0.004703,-0.011957,-0.497614,0.103475,0.505804,-266.075925,1.401721,66.58956
4.3959,-0.064878,0.009863,0.103247,-0.000928,-0.003348,0.004703,-0.01239,-0.49753,0.102915,0.505804,-266.075925,1.401721,66.58956
4.4155,-0.064876,0.009942,0.104619,-0.000911,-0.003335,0.004703,-0.012334,-0.497529,0.103394,0.4785,-266.076346,1.419778,66.587079
4.4358,-0.0649,0.009612,0.10491,-0.000931,-0.003353,0.004709,-0.011682,-0.497297,0.104519,0.4785,-266.076346,1.419778,66.587079
4.4558,-0.065035,0.00986,0.105153,-0.000947,-0.003369,0.004713,-0.011682,-0.497297,0.104519,0.4785,-266.076346,1.419778,66.587079
4.4757,-0.064987,0.009473,0.102089,-0.00096,-0.003381,0.004717,-0.01153,-0.497466,0.10535,0.469383,-266.076753,1.425077,66.584575
4.4955,-0.065205,0.009431,0.104641,-0.000943,-0.003368,0.004715,-0.012117,-0.497643,0.104085,0.469383,-266.076753,1.425077,66.584575
4.5154,-0.065415,0.009323,0.103554,-0.00093,-0.003356,0.004714,-0.011955,-0.497889,0.104791,0.480568,-266.077185,1.418644,66.582047
4.5357,-0.06524,0.009697,0.104041,-0.000891,-0.003322,0.00471,-0.012631,-0.497945,0.103672,0.480568,-266.077185,1.418644,66.582047
4.5558,-0.065146,0.009443,0.10559,-0.000859,-0.003294,0.004707,-0.012631,-0.497945,0.103672,0.480568,-266.077185,1.418644,66.582047
4.5754,-0.064966,0.008974,0.105293,-0.000832,-0.003271,0.004705,-0.011419,-0.49786,0.105787,0.474268,-266.077603,1.422792,66.579528
4.5955,-0.065416,0.008951,0.104204,-0.000852,-0.003289,0.00471,-0.0114,-0.498016,0.105608,0.474268,-266.077603,1.422792,66.579528
4.6156,-0.065493,0.00882,0.103549,-0.000868,-0.003304,0.004713,-0.012384,-0.498387,0.104351,0.445315,-266.077966,1.436138,66.577088
4.6357,-0.065315,0.008962,0.104652,-0.000819,-0.003259,0.004707,-0.012743,-0.498448,0.103628,0.445315,-266.077966,1.436138,66.577088
4.6557,-0.065433,0.008495,0.105011,-0.000779,-0.003222,0.004702,-0.012743,-0.498448,0.103628,0.445315,-266.077966,1.436138,66.577088
4.6759,-0.065735,0.00856,0.104948,-0.000746,-0.003192,0.0047,-0.011998,-0.498837,0.105208,0.455848,-266.078352,1.431311,66.574596
4.6955,-0.065695,0.008923,0.104945,-0.000729,-0.003177,0.004699,-0.012128,-0.49877,0.105124,0.455848,-266.078352,1.431311,66.574596
4.7159,-0.065539,0.008545,0.106087,-0.000716,-0.003166,0.004699,-0.012283,-0.49837,0.105089,0.406718,-266.078663,1.44839,66.572253
4.736,-0.065819,0.008643,0.104379,-0.000731,-0.003181,0.004703,-0.011601,-0.498574,0.106008,0.406718,-266.078663,1.44839,66.572253
4.7557,-0.06583,0.008187,0.105058,-0.000743,-0.003193,0.004706,-0.011601,-0.498574,0.106008,0.406718,-266.078663,1.44839,66.572253
4.776,-0.066072,0.008247,0.105701,-0.000753,-0.003203,0.004708,-0.012365,-0.499135,0.105254,0.391613,-266.078972,1.452764,66.569831
4.7958,-0.065949,0.008438,0.106345,-0.000718,-0.00317,0.004703,-0.012326,-0.499058,0.105458,0.391613,-266.078972,1.452764,66.569831
4.8159,-0.066198,0.0084,0.106474,-0.00069,-0.003143,0.0047,-0.011829,-0.498784,0.106494,0.410647,-266.079298,1.447566,66.5674
4.8358,-0.066001,0.008497,0.105449,-0.000691,-0.003145,0.004701,-0.011983,-0.498724,0.106484,0.410647,-266.079298,1.447566,66.5674
4.8559,-0.066213,0.008122,0.105061,-0.000692,-0.003147,0.004702,-0.011983,-0.498724,0.106484,0.410647,-266.079298,1.447566,66.5674
4.8759,-0.066209,0.008131,0.105648,-0.000693,-0.003149,0.004703,-0.012745,-0.499197,0.105254,0.376634,-266.079589,1.456562,66.565027
4.8957,-0.066308,0.008165,0.106727,-0.000657,-0.003114,0.004699,-0.012619,-0.499143,0.105435,0.376634,-266.079589,1.456562,66.565027
4.9157,-0.066163,0.007855,0.105838,-0.000627,-0.003085,0.004696,-0.011991,-0.499035,0.106877,0.379661,-266.079887,1.456282,66.562603
4.9355,-0.066255,0.008004,0.106766,-0.00061,-0.003069,0.004695,-0.01226,-0.499273,0.105941,0.379661,-266.079887,1.456282,66.562603
4.9559,-0.066191,0.007744,0.106274,-0.000595,-0.003055,0.004695,-0.01226,-0.499273,0.105941,0.379661,-266.079887,1.456282,66.562603
4.976,-0.066528,0.007977,0.105055,-0.000583,-0.003044,0.004695,-0.012105,-0.499506,0.106464,0.333584,-266.080143,1.465823,66.560291
4.9963,-0.066421,0.007721,0.106943,-0.000562,-0.003023,0.004693,-0.01249,-0.499401,0.105913,0.333584,-266.080143,1.465823,66.560291
5.0157,-0.066529,0.007493,0.10572,-0.000544,-0.003006,0.004692,-0.011992,-0.499462,0.10709,0.294334,-266.080382,1.472441,66.557963
5.0358,-0.066556,0.007576,0.107269,-0.000515,-0.002976,0.00469,-0.012657,-0.499648,0.105832,0.294334,-266.080382,1.472441,66.557963
5.0556,-0.066485,0.008144,0.104519,-0.000492,-0.002952,0.004688,-0.012657,-0.499648,0.105832,0.294334,-266.080382,1.472441,66.557963
5.0759,-0.066876,0.007365,0.107299,-0.000472,-0.002933,0.004688,-0.013287,-0.499196,0.104709,0.251613,-266.080599,1.478423,66.555685
5.0966,-0.066751,0.007619,0.10791,-0.000459,-0.00292,0.004688,-0.012868,-0.499416,0.105787,0.251613,-266.080599,1.478423,66.555685
5.1155,-0.066548,0.007104,0.107582,-0.000447,-0.00291,0.004688,-0.011828,-0.499494,0.108035,0.177001,-266.080759,1.489503,66.553735
5.1362,-0.066324,0.00704,0.10728,-0.000454,-0.002917,0.004689,-0.011791,-0.499909,0.10763,0.177001,-266.080759,1.489503,66.553735
5.156,-0.066623,0.007678,0.106606,-0.00046,-0.002923,0.00469,-0.011791,-0.499909,0.10763,0.177001,-266.080759,1.489503,66.553735
5.1764,-0.066717,0.006867,0.107926,-0.000464,-0.002927,0.00469,-0.012362,-0.499539,0.106786,0.102938,-266.080924,1.493452,66.551614
5.1956,-0.067055,0.007165,0.105569,-0.000461,-0.002924,0.004689,-0.012127,-0.499807,0.10727,0.102938,-266.080924,1.493452,66.551614
5.2159,-0.066778,0.006771,0.106842,-0.000458,-0.002922,0.004688,-0.013319,-0.500089,0.105717,0.134435,-266.081109,1.49084,66.549314
5.2358,-0.0669,0.006917,0.107625,-0.000426,-0.002887,0.004684,-0.012464,-0.500307,0.106761,0.134435,-266.081109,1.49084,66.549314
5.2556,-0.067318,0.006791,0.107372,-0.0004,-0.002859,0.00468,-0.012464,-0.500307,0.106761,0.134435,-266.081109,1.49084,66.549314
5.2758,-0.067073,0.006696,0.106229,-0.000379,-0.002836,0.004678,-0.012669,-0.500395,0.107567,0.127311,-266.081293,1.491776,66.547007
5.2959,-0.067136,0.006977,0.109085,-0.000348,-0.002802,0.004675,-0.012804,-0.500423,0.107044,0.127311,-266.081293,1.491776,66.547007
5.3162,-0.067196,0.006837,0.107845,-0.000322,-0.002774,0.004673,-0.011614,-0.500045,0.109172,0.052726,-266.081382,1.504336,66.545673
5.3361,-0.067173,0.006452,0.106787,-0.000328,-0.002781,0.004672,-0.012226,-0.500186,0.107997,0.052726,-266.081382,1.504336,66.545673
5.356,-0.067155,0.006499,0.107542,-0.000332,-0.002787,0.004672,-0.012226,-0.500186,0.107997,0.052726,-266.081382,1.504336,66.545673
5.3757,-0.067147,0.006953,0.107209,-0.000336,-0.002792,0.004671,-0.012414,-0.500583,0.107588,-0.022403,-266.081414,1.513579,66.545131
5.3959,-0.066913,0.006733,0.10673,-0.000323,-0.002778,0.004662,-0.012479,-0.500398,0.10744,-0.022403,-266.081414,1.513579,66.545131
5.4154,-0.067281,0.006232,0.106283,-0.000313,-0.002767,0.004654,-0.012585,-0.500425,0.10683,-0.097274,-266.081505,1.511341,66.543613
5.4359,-0.067202,0.006599,0.10943,-0.00027,-0.002717,0.004641,-0.013126,-0.500851,0.106337,-0.097274,-266.081505,1.511341,66.543613
5.456,-0.06753,0.006371,0.107777,-0.000235,-0.002676,0.00463,-0.013126,-0.500851,0.106337,-0.097274,-266.081505,1.511341,66.543613
5.4759,-0.06734,0.006378,0.108835,-0.000206,-0.002642,0.004622,-0.012671,-0.500756,0.107919,-0.172274,-266.0816,1.515039,66.541968
5.4961,-0.067438,0.006404,0.108533,-0.000209,-0.002647,0.004618,-0.012376,-0.500704,0.108307,-0.172274,-266.0816,1.515039,66.541968
5.5154,-0.067475,0.006514,0.107732,-0.000211,-0.002651,0.004614,-0.012195,-0.500595,0.108534,-0.247268,-266.0816,1.533155,66.541954
5.5361,-0.067408,0.006957,0.108416,-0.000214,-0.002655,0.004602,-0.012597,-0.500535,0.107805,-0.247268,-266.0816,1.533155,66.541954
5.5562,-0.068111,0.006212,0.108184,-0.000216,-0.002658,0.004592,-0.012597,-0.500535,0.107805,-0.247268,-266.0816,1.533155,66.541954
5.576,-0.067481,0.006482,0.108781,-0.000217,-0.002661,0.004583,-0.013044,-0.500813,0.108194,-0.322276,-266.081606,1.532157,66.541838
5.5961,-0.067501,0.006383,0.107886,-0.000212,-0.002655,0.004567,-0.012669,-0.500689,0.108432,-0.322276,-266.081606,1.532157,66.541838
5.6157,-0.067605,0.00638,0.107367,-0.000207,-0.00265,0.004553,-0.012585,-0.500685,0.107941,-0.397274,-266.081645,1.530988,66.541011
5.6363,-0.067331,0.006825,0.108599,-0.000197,-0.002638,0.004537,-0.01292,-0.500685,0.107422,-0.397274,-266.081645,1.530988,66.541011
5.6559,-0.067371,0.006223,0.109408,-0.000188,-0.002628,0.004523,-0.01292,-0.500685,0.107422,-0.397274,-266.081645,1.530988,66.541011
5.6762,-0.067563,0.00595,0.106927,-0.000181,-0.002621,0.004512,-0.011682,-0.5008,0.109531,-0.472279,-266.081709,1.532611,66.539603
5.6965,-0.067784,0.006076,0.108301,-0.000184,-0.002624,0.004501,-0.012269,-0.500945,0.108492,-0.472279,-266.081709,1.532611,66.539603
5.7163,-0.067418,0.006168,0.107995,-0.000186,-0.002626,0.004492,-0.012657,-0.500989,0.108391,-0.547368,-266.081765,1.537176,66.538256
5.736,-0.067629,0.006262,0.107475,-0.000185,-0.002625,0.00448,-0.012466,-0.500875,0.108035,-0.547368,-266.081765,1.537176,66.538256
5.7561,-0.067681,0.005933,0.108277,-0.000184,-0.002624,0.004471,-0.012466,-0.500875,0.108035,-0.547368,-266.081765,1.537176,66.538256
5.7757,-0.067597,0.005903,0.108077,-0.000184,-0.002623,0.004463,-0.012564,-0.50119,0.108465,-0.562537,-266.081853,1.53616,66.536103
5.7958,-0.067883,0.005892,0.1075,-0.000169,-0.002606,0.004453,-0.012572,-0.501174,0.108324,-0.562537,-266.081853,1.53616,66.536103
5.8162,-0.067973,0.00619,0.107262,-0.000157,-0.002591,0.004446,-0.01316,-0.501243,0.107634,-0.50733,-266.081933,1.536468,66.534075
5.8361,-0.067664,0.005803,0.107918,-0.000136,-0.002567,0.004442,-0.013355,-0.500916,0.107302,-0.50733,-266.081933,1.536468,66.534075
5.8555,-0.067897,0.006351,0.108355,-0.000119,-0.002547,0.00444,-0.013355,-0.500916,0.107302,-0.50733,-266.081933,1.536468,66.534075
5.8757,-0.067826,0.006224,0.108895,-0.000105,-0.00253,0.004438,-0.012741,-0.50073,0.108476,-0.581939,-266.081985,1.541192,66.532681
5.8956,-0.068067,0.00608,0.108147,-0.00012,-0.002549,0.004444,-0.0126,-0.500748,0.108662,-0.581939,-266.081985,1.541192,66.532681
5.9162,-0.068059,0.005353,0.110106,-0.000133,-0.002564,0.004448,-0.013019,-0.500943,0.108151,-0.657007,-266.081988,1.550673,66.532618
5.9358,-0.06805,0.005416,0.108007,-0.000128,-0.002557,0.004443,-0.012105,-0.501506,0.109937,-0.657007,-266.081988,1.550673,66.532618
5.9556,-0.068168,0.005954,0.107924,-0.000124,-0.002551,0.004438,-0.012105,-0.501506,0.109937,-0.657007,-266.081988,1.550673,66.532618
5.9762,-0.067759,0.005954,0.109277,-0.000121,-0.002547,0.004434,-0.013231,-0.501135,0.10802,-0.732047,-266.08203,1.545701,66.531514
5.9962,-0.06745,0.005921,0.108897,-0.000116,-0.002541,0.00443,-0.012784,-0.501088,0.108545,-0.732047,-266.08203,1.545701,66.531514
6.0158,-0.068041,0.005669,0.107637,-0.000111,-0.002536,0.004426,-0.01202,-0.501102,0.108973,-0.807055,-266.082074,1.547807,66.530386
6.0359,-0.068369,0.00553,0.108967,-8.8e-05,-0.002507,0.004425,-0.013147,-0.501358,0.107754,-0.807055,-266.082074,1.547807,66.530386
6.0559,-0.06767,0.005608,0.111294,-6.9e-05,-0.002483,0.004424,-0.013147,-0.501358,0.107754,-0.807055,-266.082074,1.547807,66.530386
6.0759,-0.068157,0.005408,0.110242,-5.3e-05,-0.002464,0.004424,-0.011023,-0.501301,0.111405,-0.882075,-266.082122,1.549583,66.529119
6.0956,-0.06821,0.0056,0.108649,-8.8e-05,-0.002504,0.004435,-0.011439,-0.501388,0.110945,-0.882075,-266.082122,1.549583,66.529119
6.1157,-0.068345,0.005488,0.109659,-0.000116,-0.002537,0.004443,-0.012908,-0.501395,0.108652,-0.956904,-266.082125,1.560569,66.529066
6.1362,-0.067945,0.005684,0.110078,-0.000104,-0.002523,0.004442,-0.012563,-0.501445,0.109574,-0.956904,-266.082125,1.560569,66.529066
6.1557,-0.068176,0.005723,0.110187,-9.4e-05,-0.002511,0.004441,-0.012563,-0.501445,0.109574,-0.956904,-266.082125,1.560569,66.529066
6.176,-0.068366,0.005345,0.109327,-8.6e-05,-0.002502,0.004441,-0.012087,-0.501288,0.11037,-0.98903,-266.082207,1.548709,66.527008
6.1958,-0.068423,0.005225,0.110373,-8.6e-05,-0.002502,0.004444,-0.012342,-0.50143,0.10997,-0.98903,-266.082207,1.548709,66.527008
6.2159,-0.068251,0.00563,0.109838,-8.6e-05,-0.002502,0.004447,-0.012244,-0.501715,0.110451,-1.063892,-266.082257,1.554298,66.525862
6.236,-0.068616,0.005376,0.1087,-9e-05,-0.002507,0.004449,-0.012337,-0.501335,0.109895,-1.063892,-266.082257,1.554298,66.525862
6.2562,-0.06822,0.005358,0.109566,-9.3e-05,-0.002512,0.004451,-0.012337,-0.501335,0.109895,-1.063892,-266.082257,1.554298,66.525862
6.2759,-0.068247,0.005451,0.109555,-9.5e-05,-0.002515,0.004452,-0.012447,-0.501666,0.109711,-1.139048,-266.082329,1.554352,66.524237
6.2957,-0.067848,0.004959,0.109727,-8.3e-05,-0.0025,0.004449,-0.012462,-0.501604,0.109664,-1.139048,-266.082329,1.554352,66.524237
6.3155,-0.06879,0.005444,0.111282,-7.4e-05,-0.002488,0.004447,-0.011994,-0.502054,0.109868,-1.135065,-266.082419,1.552621,66.522141
6.3363,-0.068204,0.004715,0.109854,-8.1e-05,-0.002497,0.004448,-0.01214,-0.501462,0.111167,-1.135065,-266.082419,1.552621,66.522141
6.3557,-0.068283,0.005337,0.110761,-8.7e-05,-0.002505,0.004448,-0.01214,-0.501462,0.111167,-1.135065,-266.082419,1.552621,66.522141
6.3758,-0.068351,0.004805,0.110048,-9.2e-05,-0.002511,0.004449,-0.011904,-0.501619,0.110906,-1.210143,-266.082494,1.556631,66.520511
6.3957,-0.068538,0.00523,0.109363,-8.3e-05,-0.002498,0.004448,-0.012081,-0.501829,0.110573,-1.210143,-266.082494,1.556631,66.520511
6.4159,-0.068845,0.00473,0.110461,-7.5e-05,-0.002488,0.004447,-0.012868,-0.501798,0.109497,-1.150663,-266.08258,1.553166,66.518533
6.436,-0.068976,0.005193,0.110583,-4.2e-05,-0.002445,0.004451,-0.012645,-0.502134,0.110385,-1.150663,-266.08258,1.553166,66.518533
6.4561,-0.068758,0.004842,0.111583,-1.5e-05,-0.002409,0.004456,-0.012645,-0.502134,0.110385,-1.150663,-266.08258,1.553166,66.518533
6.4758,-0.068697,0.004439,0.111334,7e-06,-0.002381,0.00446,-0.011961,-0.502073,0.11174,-1.225791,-266.082661,1.556424,66.516778
6.496,-0.068954,0.004438,0.110395,1.2e-05,-0.002374,0.004468,-0.01199,-0.502218,0.111592,-1.225791,-266.082661,1.556424,66.516778
6.5154,-0.068684,0.004735,0.110345,1.6e-05,-0.002369,0.004475,-0.012766,-0.502466,0.110411,-1.300775,-266.082676,1.572259,66.516554
6.5358,-0.068461,0.005012,0.10982,3.2e-05,-0.002348,0.004475,-0.012543,-0.502189,0.110351,-1.300775,-266.082676,1.572259,66.516554
6.5559,-0.068645,0.004804,0.109677,4.6e-05,-0.002331,0.004476,-0.012543,-0.502189,0.110351,-1.300775,-266.082676,1.572259,66.516554
6.5759,-0.068849,0.004578,0.11085,5.7e-05,-0.002317,0.004477,-0.01282,-0.502151,0.109715,-1.375771,-266.082705,1.573936,66.516143
6.5956,-0.068956,0.00473,0.110013,6.9e-05,-0.0023,0.004475,-0.012659,-0.502211,0.110188,-1.375771,-266.082705,1.573936,66.516143
6.6161,-0.068777,0.005195,0.10938,8e-05,-0.002287,0.004473,-0.012961,-0.502199,0.110037,-1.450824,-266.082733,1.58205,66.515802
6.6361,-0.068844,0.004924,0.111335,8.3e-05,-0.002285,0.004474,-0.013092,-0.501796,0.109437,-1.450824,-266.082733,1.58205,66.515802
6.6562,-0.068693,0.004633,0.111056,8.6e-05,-0.002282,0.004475,-0.013092,-0.501796,0.109437,-1.450824,-266.082733,1.58205,66.515802
6.6762,-0.068697,0.004835,0.110361,8.8e-05,-0.00228,0.004476,-0.012171,-0.502226,0.111056,-1.375894,-266.082733,1.586668,66.515802
6.6961,-0.068875,0.00476,0.110568,8.4e-05,-0.002286,0.004468,-0.012316,-0.502159,0.110774,-1.375894,-266.082733,1.586668,66.515802
6.7159,-0.068466,0.004779,0.111504,8.1e-05,-0.00229,0.004462,-0.0126,-0.502126,0.110568,-1.301012,-266.082733,1.588354,66.515802
6.7357,-0.069095,0.004286,0.111476,5.9e-05,-0.002317,0.004454,-0.011793,-0.50206,0.111423,-1.301012,-266.082733,1.588354,66.515802
6.7557,-0.068905,0.004595,0.110693,4.2e-05,-0.002339,0.004446,-0.011793,-0.50206,0.111423,-1.301012,-266.082733,1.588354,66.515802
6.7757,-0.068833,0.00463,0.108933,2.8e-05,-0.002356,0.00444,-0.012567,-0.502283,0.110693,-1.225865,-266.082733,1.586865,66.515802
6.7957,-0.068884,0.004441,0.110731,5.4e-05,-0.002321,0.004423,-0.0129,-0.502309,0.109977,-1.225865,-266.082733,1.586865,66.515802
6.8159,-0.068828,0.004629,0.111005,7.5e-05,-0.002293,0.004409,-0.012527,-0.50244,0.110738,-1.300751,-266.082741,1.576226,66.515695
6.8358,-0.068975,0.004551,0.110154,7.5e-05,-0.002293,0.004391,-0.012349,-0.502251,0.110981,-1.300751,-266.082741,1.576226,66.515695
6.856,-0.069206,0.004485,0.111201,7.5e-05,-0.002294,0.004376,-0.012349,-0.502251,0.110981,-1.300751,-266.082741,1.576226,66.515695
6.8757,-0.068671,0.004797,0.110574,7.5e-05,-0.002294,0.004364,-0.01261,-0.502365,0.111201,-1.225753,-266.082741,1.585828,66.515695
6.896,-0.068498,0.0052,0.111084,7.9e-05,-0.002289,0.004346,-0.012521,-0.502251,0.110943,-1.225753,-266.082741,1.585828,66.515695
6.9161,-0.068828,0.004599,0.111437,8.2e-05,-0.002285,0.004331,-0.011962,-0.501657,0.111084,-1.15066,-266.082741,1.585826,66.515694
6.9361,-0.068926,0.005003,0.110971,7.1e-05,-0.002298,0.004297,-0.0121,-0.502188,0.111407,-1.15066,-266.082741,1.585826,66.515694
6.9563,-0.068752,0.00474,0.109843,6.2e-05,-0.002309,0.004269,-0.0121,-0.502188,0.111407,-1.15066,-266.082741,1.585826,66.515694
6.9762,-0.068655,0.004978,0.110862,5.5e-05,-0.002319,0.004245,-0.012844,-0.502187,0.109843,-1.075643,-266.082741,1.587406,66.515694
6.9961,-0.068774,0.004567,0.109744,5.8e-05,-0.002316,0.004224,-0.012594,-0.502066,0.11026,-1.075643,-266.082741,1.587406,66.515694
7.0158,-0.06875,0.004491,0.110849,5.9e-05,-0.002314,0.004207,-0.012917,-0.502365,0.109744,-1.000671,-266.082741,1.582021,66.515694
7.0359,-0.068973,0.004912,0.11151,6.8e-05,-0.002302,0.004192,-0.012383,-0.502378,0.110754,-1.000671,-266.082741,1.582021,66.515694
7.0559,-0.069014,0.004548,0.111298,7.5e-05,-0.002292,0.004179,-0.012383,-0.502378,0.110754,-1.000671,-266.082741,1.582021,66.515694
7.0758,-0.068949,0.004775,0.111184,8e-05,-0.002285,0.004169,-0.012369,-0.502297,0.111298,-0.925682,-266.082741,1.58298,66.515694
7.0961,-0.068969,0.004672,0.109667,7.7e-05,-0.002289,0.004161,-0.012366,-0.502206,0.111251,-0.925682,-266.082741,1.58298,66.515694
7.1158,-0.068881,0.004672,0.111721,7.5e-05,-0.002292,0.004155,-0.013151,-0.502264,0.109667,-0.850672,-266.082741,1.587388,66.515694
7.1359,-0.068462,0.004876,0.110341,6.4e-05,-0.002306,0.004151,-0.012121,-0.502159,0.111541,-0.850672,-266.082741,1.587388,66.515694
7.1556,-0.068702,0.004805,0.111604,5.6e-05,-0.002316,0.004147,-0.012121,-0.502159,0.111541,-0.850672,-266.082741,1.587388,66.515694
7.1758,-0.068663,0.004814,0.109237,4.9e-05,-0.002325,0.004144,-0.011902,-0.502023,0.111604,-0.775678,-266.082741,1.586264,66.515693
7.1958,-0.069179,0.004533,0.109905,4.7e-05,-0.002328,0.00414,-0.012379,-0.502073,0.110633,-0.775678,-266.082741,1.586264,66.515693
7.2158,-0.068951,0.005108,0.110078,4.6e-05,-0.00233,0.004138,-0.01324,-0.50239,0.109905,-0.70067,-266.082741,1.5809,66.515693
7.2359,-0.06857,0.004568,0.110496,5e-05,-0.002325,0.004135,-0.012951,-0.501854,0.110063,-0.70067,-266.082741,1.5809,66.515693
7.2561,-0.068651,0.004801,0.110533,5.4e-05,-0.002321,0.004133,-0.012951,-0.501854,0.110063,-0.70067,-266.082741,1.5809,66.515693
7.2759,-0.068952,0.004619,0.111903,5.7e-05,-0.002318,0.004131,-0.012394,-0.502086,0.110533,-0.625585,-266.082741,1.580218,66.515693
7.2957,-0.068794,0.004913,0.111693,5.2e-05,-0.002324,0.00413,-0.012234,-0.502129,0.111089,-0.625585,-266.082741,1.580218,66.515693
7.3157,-0.068455,0.004603,0.1112,4.8e-05,-0.002329,0.004129,-0.01195,-0.501909,0.111693,-0.550775,-266.082741,1.582644,66.515693
7.3361,-0.069041,0.004613,0.109697,3.9e-05,-0.00234,0.004129,-0.011868,-0.502218,0.111243,-0.550775,-266.082741,1.582644,66.515693
7.3563,-0.068324,0.004453,0.110635,3.1e-05,-0.00235,0.004128,-0.011868,-0.502218,0.111243,-0.550775,-266.082741,1.582644,66.515693
7.376,-0.068749,0.004648,0.110946,2.4e-05,-0.002357,0.004128,-0.012015,-0.502429,0.110635,-0.475648,-266.082741,1.580731,66.515693
7.3963,-0.068832,0.004763,0.110409,3.1e-05,-0.002348,0.004125,-0.012123,-0.502343,0.110761,-0.475648,-266.082741,1.580731,66.515693
7.416,-0.068975,0.004573,0.111397,3.7e-05,-0.00234,0.004124,-0.012638,-0.502132,0.110409,-0.550519,-266.082741,1.575816,66.515693
7.4362,-0.068886,0.005154,0.111516,4.2e-05,-0.002333,0.004122,-0.012313,-0.502254,0.111307,-0.550519,-266.082741,1.575816,66.515693
7.4565,-0.068517,0.004676,0.10922,4.7e-05,-0.002327,0.004121,-0.012313,-0.502254,0.111307,-0.550519,-266.082741,1.575816,66.515693
7.476,-0.068923,0.004653,0.111061,5e-05,-0.002323,0.004121,-0.012926,-0.502285,0.10922,-0.475525,-266.082741,1.578404,66.515692
7.4961,-0.068822,0.004827,0.11108,6.4e-05,-0.002305,0.004119,-0.012711,-0.502252,0.10997,-0.475525,-266.082741,1.578404,66.515692
7.5161,-0.068754,0.004794,0.110912,7.5e-05,-0.002291,0.004118,-0.012288,-0.50203,0.11108,-0.40053,-266.082741,1.581208,66.515692
7.5362,-0.068884,0.004972,0.11129,6.6e-05,-0.002303,0.00412,-0.012303,-0.502069,0.110928,-0.40053,-266.082741,1.581208,66.515692
7.5556,-0.068727,0.004601,0.112138,5.9e-05,-0.002313,0.004121,-0.012303,-0.502069,0.110928,-0.40053,-266.082741,1.581208,66.515692
7.5755,-0.068744,0.004542,0.112267,5.3e-05,-0.002321,0.004122,-0.011657,-0.502196,0.112138,-0.32552,-266.082741,1.586321,66.515692
7.5957,-0.068853,0.004451,0.110282,3.5e-05,-0.002342,0.004124,-0.011637,-0.502217,0.11219,-0.32552,-266.082741,1.586321,66.515692
7.6154,-0.068645,0.004706,0.112041,2.1e-05,-0.00236,0.004125,-0.012723,-0.502451,0.110282,-0.250505,-266.082741,1.58174,66.515692
7.6355,-0.06875,0.004858,0.112161,8e-06,-0.002376,0.004125,-0.011721,-0.502128,0.111886,-0.250505,-266.082741,1.58174,66.515692
7.6554,-0.068657,0.004677,0.111274,-2e-06,-0.002389,0.004126,-0.011721,-0.502128,0.111886,-0.250505,-266.082741,1.58174,66.515692
7.6758,-0.06878,0.004735,0.110545,-1.1e-05,-0.0024,0.004126,-0.012025,-0.502168,0.111274,-0.325536,-266.082741,1.575135,66.515692
7.6955,-0.068689,0.004526,0.10979,-2e-06,-0.002389,0.004124,-0.012227,-0.502162,0.110975,-0.325536,-266.082741,1.575135,66.515692
7.7154,-0.068825,0.004775,0.109228,5e-06,-0.00238,0.004122,-0.012809,-0.502403,0.10979,-0.400535,-266.082741,1.568601,66.515691
7.7358,-0.068818,0.004703,0.111091,3.5e-05,-0.00234,0.004118,-0.013193,-0.502205,0.109278,-0.400535,-266.082741,1.568601,66.515691
7.7559,-0.069067,0.004714,0.112083,6.1e-05,-0.002307,0.004116,-0.013193,-0.502205,0.109278,-0.400535,-266.082741,1.568601,66.515691
7.776,-0.068604,0.004736,0.11074,8.1e-05,-0.00228,0.004115,-0.012024,-0.502086,0.112083,-0.475532,-266.082741,1.571736,66.515691
7.7959,-0.069036,0.004905,0.109969,6.8e-05,-0.002299,0.004117,-0.012113,-0.502108,0.111535,-0.475532,-266.082741,1.571736,66.515691
7.8157,-0.068963,0.004586,0.111435,5.6e-05,-0.002314,0.004119,-0.013064,-0.502015,0.109969,-0.400579,-266.082741,1.58779,66.515691
7.8359,-0.068744,0.004684,0.108773,5.7e-05,-0.002313,0.004119,-0.012322,-0.502229,0.111304,-0.400579,-266.082741,1.58779,66.515691
7.856,-0.06886,0.00486,0.110694,5.8e-05,-0.002312,0.004119,-0.012322,-0.502229,0.111304,-0.400579,-266.082741,1.58779,66.515691
7.8755,-0.068762,0.004708,0.111158,5.9e-05,-0.002311,0.004119,-0.012521,-0.502019,0.110694,-0.325572,-266.082741,1.58245,66.515691
7.8956,-0.068808,0.004667,0.11067,5.5e-05,-0.002316,0.00412,-0.012385,-0.50207,0.110884,-0.325572,-266.082741,1.58245,66.515691
7.9157,-0.06878,0.004856,0.10932,5.2e-05,-0.002321,0.004121,-0.012482,-0.502213,0.11067,-0.250486,-266.082741,1.583062,66.515691
7.9356,-0.069154,0.004591,0.10978,6.9e-05,-0.0023,0.004119,-0.013079,-0.50211,0.109441,-0.250486,-266.082741,1.583062,66.515691
7.9557,-0.068498,0.004655,0.109366,8.2e-05,-0.002283,0.004118,-0.013079,-0.50211,0.109441,-0.250486,-266.082741,1.583062,66.515691
7.9755,-0.068909,0.004963,0.112921,9.3e-05,-0.002269,0.004118,-0.012832,-0.502298,0.109366,-0.175582,-266.082741,1.581623,66.51569
7.9955,-0.068756,0.00441,0.110664,8.1e-05,-0.002285,0.00412,-0.012265,-0.502091,0.110816,-0.175582,-266.082741,1.581623,66.51569
8.0154,-0.06885,0.004747,0.111556,7.1e-05,-0.002298,0.004121,-0.012433,-0.502471,0.110664,-0.100578,-266.082741,1.590252,66.51569
8.0359,-0.068765,0.004757,0.110404,5.9e-05,-0.002313,0.004123,-0.012102,-0.502113,0.111487,-0.100578,-266.082741,1.590252,66.51569
8.0556,-0.069062,0.004012,0.109988,5e-05,-0.002325,0.004124,-0.012102,-0.502113,0.111487,-0.100578,-266.082741,1.590252,66.51569
8.0759,-0.068738,0.004609,0.111769,4.2e-05,-0.002336,0.004124,-0.013081,-0.502906,0.109988,-0.025203,-266.082741,1.585576,66.51569
8.0959,-0.068765,0.004628,0.110237,6.7e-05,-0.0023,0.00412,-0.012581,-0.502622,0.110714,-0.025203,-266.082741,1.585576,66.51569
8.1159,-0.068716,0.005034,0.110689,8.8e-05,-0.002271,0.004117,-0.012658,-0.502277,0.110237,0.049519,-266.082741,1.579375,66.51569
8.1361,-0.068631,0.004781,0.111062,7.3e-05,-0.002293,0.00412,-0.012404,-0.501881,0.110651,0.049519,-266.082741,1.579375,66.51569
8.1561,-0.068794,0.004686,0.111275,6e-05,-0.002311,0.004122,-0.012404,-0.501881,0.110651,0.049519,-266.082741,1.579375,66.51569
8.1759,-0.068298,0.004984,0.10986,4.9e-05,-0.002325,0.004124,-0.012161,-0.50216,0.111275,0.124603,-266.082741,1.589269,66.51569
8.1955,-0.068737,0.004933,0.112243,4.4e-05,-0.002332,0.004124,-0.012251,-0.50207,0.110696,0.124603,-266.082741,1.589269,66.51569
8.2156,-0.069036,0.004477,0.110905,4e-05,-0.002338,0.004124,-0.011614,-0.501858,0.112243,0.199429,-266.082741,1.58091,66.515689
8.2358,-0.068742,0.004655,0.110766,5.3e-05,-0.00232,0.004122,-0.012508,-0.502346,0.111017,0.199429,-266.082741,1.58091,66.515689
8.2562,-0.068456,0.00492,0.110159,6.4e-05,-0.002305,0.00412,-0.012508,-0.502346,0.111017,0.199429,-266.082741,1.58091,66.515689
8.2758,-0.068658,0.004733,0.110231,7.3e-05,-0.002293,0.004119,-0.012388,-0.501989,0.110159,0.274581,-266.082741,1.578976,66.515689
8.2958,-0.068654,0.00453,0.111115,6.9e-05,-0.002299,0.00412,-0.012455,-0.502063,0.110188,0.274581,-266.082741,1.578976,66.515689
8.3159,-0.068758,0.004582,0.110145,6.5e-05,-0.002305,0.004121,-0.012102,-0.502325,0.111115,0.349424,-266.082741,1.586044,66.515689
8.3358,-0.068823,0.004793,0.10999,7.7e-05,-0.002289,0.004119,-0.012647,-0.502327,0.110228,0.349424,-266.082741,1.586044,66.515689
8.3556,-0.06917,0.004954,0.110398,8.7e-05,-0.002276,0.004118,-0.012647,-0.502327,0.110228,0.349424,-266.082741,1.586044,66.515689
8.3757,-0.068861,0.004992,0.11037,9.5e-05,-0.002265,0.004118,-0.012981,-0.501941,0.110398,0.424519,-266.082741,1.58436,66.515689
8.3959,-0.068886,0.004595,0.109942,9.1e-05,-0.002271,0.004119,-0.01286,-0.501926,0.110387,0.424519,-266.082741,1.58436,66.515689
8.4155,-0.068304,0.004609,0.109229,8.8e-05,-0.002276,0.004121,-0.012928,-0.502325,0.109942,0.499518,-266.082741,1.590679,66.515689
8.4359,-0.069067,0.0048,0.111478,9.9e-05,-0.002261,0.004119,-0.012728,-0.502349,0.109293,0.499518,-266.082741,1.590679,66.515689
8.4561,-0.068322,0.004479,0.111632,0.000108,-0.002249,0.004118,-0.012728,-0.502349,0.109293,0.499518,-266.082741,1.590679,66.515689
8.4759,-0.068473,0.004563,0.110678,0.000116,-0.002239,0.004118,-0.011508,-0.502346,0.111632,0.574425,-266.082741,1.589174,66.515688
8.4958,-0.068576,0.004582,0.110756,9.6e-05,-0.002264,0.00412,-0.011769,-0.502334,0.11124,0.574425,-266.082741,1.589174,66.515688
8.5155,-0.068563,0.004758,0.111299,8e-05,-0.002284,0.004122,-0.012206,-0.502293,0.110757,0.649552,-266.08274,1.595162,66.515684
8.5366,-0.068711,0.004617,0.110663,6.2e-05,-0.002307,0.004124,-0.011942,-0.502103,0.111254,0.649552,-266.08274,1.595162,66.515684
8.5562,-0.068541,0.005004,0.110647,4.7e-05,-0.002326,0.004125,-0.011942,-0.502103,0.111254,0.649552,-266.08274,1.595162,66.515684
8.5757,-0.068367,0.00486,0.109512,3.5e-05,-0.002342,0.004126,-0.012226,-0.501877,0.110647,0.724587,-266.08274,1.587452,66.515679
8.596,-0.068929,0.004904,0.111772,3.3e-05,-0.002346,0.004126,-0.012395,-0.501965,0.110169,0.724587,-266.08274,1.587452,66.515679
8.6156,-0.068622,0.004445,0.110736,3e-05,-0.00235,0.004126,-0.012043,-0.501914,0.111772,0.799897,-266.08274,1.578052,66.515677
8.6361,-0.068612,0.004648,0.110699,4.1e-05,-0.002335,0.004123,-0.012243,-0.502387,0.110826,0.799897,-266.08274,1.578052,66.515677
8.6559,-0.068835,0.004776,0.11224,5e-05,-0.002324,0.004121,-0.012243,-0.502387,0.110826,0.799897,-266.08274,1.578052,66.515677
8.6756,-0.068803,0.004545,0.111707,5.7e-05,-0.002314,0.00412,-0.011713,-0.502015,0.11224,0.874525,-266.08274,1.577019,66.515672
8.6956,-0.069017,0.004703,0.111437,3.9e-05,-0.002336,0.004122,-0.01181,-0.502122,0.112022,0.874525,-266.08274,1.577019,66.515672
8.7156,-0.068506,0.004869,0.110837,2.5e-05,-0.002354,0.004123,-0.012301,-0.502137,0.111444,0.949424,-266.082736,1.582504,66.515572
8.7358,-0.06907,0.004375,0.109509,1.8e-05,-0.002363,0.004124,-0.012113,-0.502014,0.110894,0.949424,-266.082736,1.582504,66.515572
8.7557,-0.068689,0.004692,0.111508,1.3e-05,-0.002371,0.004124,-0.012113,-0.502014,0.110894,0.949424,-266.082736,1.582504,66.515572
8.7755,-0.068882,0.004458,0.109864,8e-06,-0.002377,0.004124,-0.011938,-0.502144,0.111512,1.024432,-266.082734,1.57599,66.515521
8.7958,-0.069075,0.004852,0.111524,2.1e-05,-0.00236,0.004122,-0.012355,-0.502276,0.110842,1.024432,-266.082734,1.57599,66.515521
8.8155,-0.068308,0.004722,0.111802,3.2e-05,-0.002347,0.00412,-0.012315,-0.501981,0.111527,1.099424,-266.082733,1.57248,66.515484
8.8358,-0.069066,0.00483,0.110803,8e-06,-0.002375,0.004123,-0.011489,-0.502083,0.111778,1.099424,-266.082733,1.57248,66.515484
8.8559,-0.069115,0.004962,0.111603,-1.1e-05,-0.002399,0.004125,-0.011489,-0.502083,0.111778,1.099424,-266.082733,1.57248,66.515484
8.8761,-0.06895,0.004619,0.111281,-2.6e-05,-0.002418,0.004126,-0.012312,-0.501891,0.111648,1.174428,-266.082715,1.577295,66.514976
8.8962,-0.068837,0.004553,0.110503,-1.8e-05,-0.002409,0.004124,-0.012312,-0.50203,0.111505,1.174428,-266.082715,1.577295,66.514976
8.9157,-0.06894,0.005046,0.110811,-1.2e-05,-0.002401,0.004123,-0.012595,-0.502336,0.110503,1.099432,-266.082715,1.565479,66.514976
8.9359,-0.068793,0.005017,0.110208,-7e-06,-0.002395,0.004122,-0.012546,-0.501873,0.110783,1.099432,-266.082715,1.565479,66.514976
8.956,-0.068862,0.004784,0.110737,-2e-06,-0.00239,0.004122,-0.012546,-0.501873,0.110783,1.099432,-266.082715,1.565479,66.514976
8.9756,-0.068717,0.004406,0.110464,2e-06,-0.002387,0.004122,-0.012501,-0.502093,0.110738,1.174428,-266.082715,1.568348,66.514968
8.9961,-0.068601,0.004552,0.110551,1.8e-05,-0.002365,0.004119,-0.012499,-0.502253,0.110626,1.174428,-266.082715,1.568348,66.514968
9.0162,-0.068955,0.004553,0.11155,3.2e-05,-0.002347,0.004118,-0.012334,-0.502342,0.110563,1.249432,-266.08271,1.571127,66.514794
9.0356,-0.068663,0.004138,0.112998,3.7e-05,-0.00234,0.004117,-0.012199,-0.502285,0.111445,1.249432,-266.08271,1.571127,66.514794
9.0555,-0.068743,0.004754,0.111721,4e-05,-0.002335,0.004117,-0.012199,-0.502285,0.111445,1.249432,-266.08271,1.571127,66.514794
9.0757,-0.068712,0.00471,0.110087,4.3e-05,-0.002331,0.004117,-0.011874,-0.50214,0.111851,1.324436,-266.082658,1.577388,66.513332
9.096,-0.069119,0.004424,0.109254,4.2e-05,-0.002334,0.004118,-0.012201,-0.502174,0.11115,1.324436,-266.082658,1.577388,66.513332
9.1159,-0.069181,0.004419,0.112023,4e-05,-0.002336,0.004118,-0.013501,-0.502608,0.109384,1.338182,-266.082583,1.579747,66.5114
9.136,-0.068672,0.004709,0.110211,5e-05,-0.002322,0.004117,-0.012289,-0.502409,0.111791,1.338182,-266.082583,1.579747,66.5114
9.1561,-0.068706,0.004352,0.112059,5.9e-05,-0.002311,0.004116,-0.012289,-0.502409,0.111791,1.338182,-266.082583,1.579747,66.5114
9.1761,-0.068953,0.004203,0.11126,6.5e-05,-0.002302,0.004116,-0.011663,-0.502547,0.112231,1.349834,-266.08251,1.579112,66.509463
9.1959,-0.06895,0.00417,0.113312,6.9e-05,-0.002296,0.004144,-0.011927,-0.502597,0.111863,1.349834,-266.08251,1.579112,66.509463
9.2157,-0.069359,0.004181,0.111489,7.3e-05,-0.002291,0.004168,-0.011275,-0.502626,0.11343,1.274827,-266.08243,1.584346,66.507718
9.236,-0.069361,0.004097,0.111848,9.2e-05,-0.002266,0.004193,-0.012496,-0.502653,0.11167,1.274827,-266.08243,1.584346,66.507718
9.2558,-0.069229,0.004277,0.111814,0.000107,-0.002245,0.004215,-0.012496,-0.502653,0.11167,1.274827,-266.08243,1.584346,66.507718
9.2755,-0.069498,0.004192,0.112819,0.00012,-0.002228,0.004233,-0.012309,-0.502633,0.111987,1.292427,-266.082324,1.585822,66.505792
9.2963,-0.069138,0.003945,0.110469,0.000124,-0.002222,0.004257,-0.012214,-0.502616,0.112348,1.292427,-266.082324,1.585822,66.505792
9.316,-0.068922,0.004022,0.111564,0.000127,-0.002218,0.004277,-0.012901,-0.503014,0.1106,1.247538,-266.082179,1.595667,66.50393
9.3362,-0.069351,0.003918,0.111552,0.000139,-0.002201,0.004301,-0.01221,-0.50283,0.111484,1.247538,-266.082179,1.595667,66.50393
9.3564,-0.069252,0.003858,0.110953,0.000149,-0.002187,0.004321,-0.01221,-0.50283,0.111484,1.247538,-266.082179,1.595667,66.50393
9.3765,-0.069004,0.004215,0.113975,0.000158,-0.002175,0.004338,-0.012766,-0.503098,0.111132,1.258751,-266.082013,1.597134,66.502002
9.3967,-0.069485,0.00361,0.111427,0.000162,-0.00217,0.004358,-0.01205,-0.502856,0.112304,1.258751,-266.082013,1.597134,66.502002
9.4159,-0.069222,0.003615,0.111595,0.000165,-0.002165,0.004376,-0.012762,-0.503296,0.111565,1.249508,-266.081814,1.603477,66.500075
9.436,-0.06935,0.003727,0.113526,0.000192,-0.002126,0.004396,-0.012457,-0.503224,0.1116,1.249508,-266.081814,1.603477,66.500075
9.4559,-0.069529,0.00386,0.11316,0.000214,-0.002093,0.004413,-0.012457,-0.503224,0.1116,1.249508,-266.081814,1.603477,66.500075
9.4762,-0.06942,0.003571,0.11172,0.000232,-0.002067,0.004428,-0.011923,-0.502967,0.113343,1.256775,-266.081601,1.604833,66.49814
9.4964,-0.069716,0.003562,0.113323,0.000235,-0.002062,0.00445,-0.01218,-0.503092,0.112706,1.256775,-266.081601,1.604833,66.49814
9.5159,-0.069327,0.003697,0.114367,0.000238,-0.002058,0.004469,-0.01203,-0.50323,0.113463,1.2217,-266.081336,1.619388,66.496273
9.5357,-0.069681,0.003368,0.113046,0.000212,-0.002094,0.004495,-0.011209,-0.502998,0.114291,1.2217,-266.081336,1.619388,66.496273
9.5558,-0.069751,0.003615,0.110309,0.00019,-0.002123,0.004517,-0.011209,-0.502998,0.114291,1.2217,-266.081336,1.619388,66.496273
9.5757,-0.069739,0.00291,0.115041,0.000172,-0.002147,0.004534,-0.013589,-0.50337,0.110496,1.229771,-266.081051,1.620516,66.494358
9.5961,-0.069992,0.003166,0.11368,0.000213,-0.002086,0.004544,-0.012612,-0.503522,0.112368,1.229771,-266.081051,1.620516,66.494358
9.6164,-0.069756,0.003056,0.114812,0.000246,-0.002037,0.004553,-0.012128,-0.503604,0.113813,1.30071,-266.080813,1.605851,66.492549
9.6358,-0.070202,0.003347,0.115336,0.000249,-0.002033,0.004564,-0.011403,-0.503591,0.114728,1.30071,-266.080813,1.605851,66.492549
9.6558,-0.069718,0.003409,0.113817,0.00025,-0.00203,0.004572,-0.011403,-0.503591,0.114728,1.30071,-266.080813,1.605851,66.492549
9.6755,-0.07008,0.003065,0.113465,0.000252,-0.002027,0.00458,-0.011778,-0.503371,0.113999,1.251154,-266.080513,1.621823,66.490701
9.6958,-0.06997,0.003054,0.114193,0.000264,-0.00201,0.004586,-0.012004,-0.503497,0.113802,1.251154,-266.080513,1.621823,66.490701
9.7156,-0.070142,0.003257,0.113962,0.000273,-0.001997,0.004591,-0.011843,-0.503688,0.114339,1.254582,-266.080189,1.623006,66.488766
9.7361,-0.069795,0.003025,0.112415,0.000282,-0.001985,0.004597,-0.012119,-0.503461,0.114003,1.254582,-266.080189,1.623006,66.488766
9.7563,-0.069692,0.002683,0.1133,0.000289,-0.001975,0.004602,-0.012119,-0.503461,0.114003,1.254582,-266.080189,1.623006,66.488766
9.776,-0.069957,0.003159,0.114925,0.000295,-0.001967,0.004607,-0.012012,-0.504129,0.113492,1.244373,-266.079848,1.627659,66.486846
9.796,-0.070097,0.002852,0.113774,0.000309,-0.001944,0.00461,-0.01179,-0.503872,0.114099,1.244373,-266.079848,1.627659,66.486846
9.8163,-0.070253,0.003023,0.113808,0.000321,-0.001926,0.004612,-0.012181,-0.503912,0.11392,1.235676,-266.079491,1.632413,66.484937
9.8361,-0.070298,0.002913,0.114755,0.000334,-0.001905,0.004616,-0.012322,-0.503702,0.113826,1.235676,-266.079491,1.632413,66.484937
9.8561,-0.070207,0.002774,0.112346,0.000346,-0.001889,0.004619,-0.012322,-0.503702,0.113826,1.235676,-266.079491,1.632413,66.484937
9.876,-0.0706,0.002448,0.112654,0.000355,-0.001875,0.004622,-0.013009,-0.504089,0.112539,1.225436,-266.079113,1.638313,66.48304
9.8965,-0.070523,0.002642,0.114037,0.000394,-0.001809,0.004621,-0.013111,-0.504191,0.112607,1.225436,-266.079113,1.638313,66.48304
9.9159,-0.070699,0.002348,0.115785,0.000427,-0.001756,0.004622,-0.012472,-0.504104,0.114185,1.212695,-266.078709,1.646158,66.481162
9.9361,-0.069942,0.002622,0.114975,0.000431,-0.001748,0.004624,-0.011844,-0.504228,0.115644,1.212695,-266.078709,1.646158,66.481162
9.9563,-0.070422,0.002768,0.114375,0.000434,-0.001742,0.004626,-0.011844,-0.504228,0.115644,1.212695,-266.078709,1.646158,66.481162
9.9757,-0.070528,0.002327,0.114467,0.000437,-0.001737,0.004628,-0.012192,-0.50397,0.114567,1.190226,-266.078256,1.663737,66.479346
9.9957,-0.070442,0.002676,0.115736,0.000443,-0.001727,0.00463,-0.012223,-0.504126,0.114548,1.190226,-266.078256,1.663737,66.479346
10.0156,-0.070853,0.002479,0.115516,0.000448,-0.001719,0.004632,-0.011528,-0.503965,0.115883,1.189406,-266.077786,1.666285,66.477513
10.0358,-0.070765,0.00254,0.113816,0.000447,-0.001721,0.004635,-0.01202,-0.50411,0.115557,1.189406,-266.077786,1.666285,66.477513
10.0558,-0.07066,0.002551,0.11568,0.000446,-0.001723,0.004637,-0.01202,-0.50411,0.115557,1.189406,-266.077786,1.666285,66.477513
10.0758,-0.070468,0.002558,0.115156,0.000446,-0.001724,0.004639,-0.011768,-0.504109,0.115875,1.186943,-266.077308,1.669016,66.475685
10.0955,-0.070592,0.002529,0.115359,0.00044,-0.001732,0.004641,-0.011806,-0.504099,0.115605,1.186943,-266.077308,1.669016,66.475685
10.1161,-0.070684,0.002195,0.116573,0.000436,-0.001739,0.004643,-0.011869,-0.504134,0.115507,1.188925,-266.076829,1.668256,66.473854
10.1365,-0.070981,0.002217,0.114797,0.000433,-0.001742,0.004644,-0.01141,-0.504328,0.116486,1.188925,-266.076829,1.668256,66.473854
10.1559,-0.070787,0.002386,0.115702,0.00043,-0.001744,0.004645,-0.01141,-0.504328,0.116486,1.188925,-266.076829,1.668256,66.473854
10.1759,-0.070739,0.001797,0.116353,0.000428,-0.001746,0.004646,-0.011884,-0.504275,0.115896,1.192677,-266.076358,1.665735,66.472017
10.1958,-0.071027,0.002225,0.115395,0.000439,-0.001727,0.004645,-0.011737,-0.504479,0.116105,1.192677,-266.076358,1.665735,66.472017
10.216,-0.070954,0.002072,0.114631,0.000448,-0.001711,0.004645,-0.012286,-0.504436,0.115543,1.196983,-266.075889,1.663889,66.470176
10.236,-0.070937,0.001702,0.115854,0.000475,-0.001667,0.004644,-0.01259,-0.504571,0.114719,1.196983,-266.075889,1.663889,66.470176
10.2561,-0.070666,0.001507,0.11706,0.000496,-0.00163,0.004644,-0.01259,-0.504571,0.114719,1.196983,-266.075889,1.663889,66.470176
10.2759,-0.070734,0.001996,0.11711,0.000514,-0.001601,0.004644,-0.011075,-0.505071,0.117254,1.19186,-266.075405,1.669061,66.468349
10.2958,-0.071269,0.001847,0.115745,0.000511,-0.001602,0.004643,-0.0111,-0.504851,0.117218,1.19186,-266.075405,1.669061,66.468349
10.3159,-0.071103,0.001907,0.116535,0.000508,-0.001603,0.004643,-0.012349,-0.504789,0.115891,1.176704,-266.074874,1.686072,66.466578
10.3359,-0.070987,0.001763,0.116193,0.000513,-0.001595,0.004644,-0.011853,-0.50465,0.116485,1.176704,-266.074874,1.686072,66.466578
10.3557,-0.070992,0.001788,0.115583,0.000517,-0.001589,0.004644,-0.011853,-0.50465,0.116485,1.176704,-266.074874,1.686072,66.466578
10.3759,-0.071075,0.001771,0.117546,0.00052,-0.001584,0.004645,-0.012147,-0.504873,0.115777,1.179738,-266.07434,1.684798,66.464788
10.3958,-0.070857,0.001923,0.115572,0.000527,-0.00157,0.004644,-0.01178,-0.504814,0.116527,1.179738,-266.07434,1.684798,66.464788
10.4158,-0.071432,0.001948,0.116942,0.000533,-0.001559,0.004644,-0.012024,-0.504723,0.11572,1.17759,-266.073797,1.687822,66.463008
10.4355,-0.070877,0.001475,0.117508,0.000532,-0.001562,0.004646,-0.011935,-0.504585,0.116843,1.17759,-266.073797,1.687822,66.463008
10.4555,-0.071234,0.001964,0.114788,0.000531,-0.001565,0.004647,-0.011935,-0.504585,0.116843,1.17759,-266.073797,1.687822,66.463008
10.4762,-0.071406,0.001564,0.116907,0.00053,-0.001567,0.004648,-0.012791,-0.504742,0.114982,1.175312,-266.073244,1.691543,66.461237
10.4962,-0.071265,0.001883,0.115591,0.000547,-0.001536,0.004647,-0.012428,-0.504837,0.115799,1.175312,-266.073244,1.691543,66.461237
10.5158,-0.071468,0.001797,0.117193,0.000561,-0.001511,0.004646,-0.012422,-0.504761,0.115738,1.176068,-266.072693,1.690463,66.459462
10.5366,-0.071666,0.001406,0.117464,0.000559,-0.001516,0.004647,-0.011885,-0.504712,0.117076,1.176068,-266.072693,1.690463,66.459462
10.556,-0.071541,0.001238,0.117269,0.000556,-0.00152,0.004648,-0.011885,-0.504712,0.117076,1.176068,-266.072693,1.690463,66.459462
10.5763,-0.071482,0.001596,0.116303,0.000554,-0.001523,0.004649,-0.011841,-0.505319,0.117463,1.170328,-266.072119,1.699201,66.457714
10.5961,-0.071335,0.001481,0.117525,0.000573,-0.001488,0.004646,-0.012025,-0.505179,0.117013,1.170328,-266.072119,1.699201,66.457714
10.6157,-0.071748,0.001473,0.117086,0.000588,-0.001459,0.004644,-0.011512,-0.505048,0.117674,1.172047,-266.071546,1.697207,66.455952
10.636,-0.071671,0.001178,0.11625,0.000596,-0.001444,0.004644,-0.012111,-0.505039,0.117145,1.172047,-266.071546,1.697207,66.455952
10.6558,-0.071215,0.001567,0.115787,0.000603,-0.001431,0.004644,-0.012111,-0.505039,0.117145,1.172047,-266.071546,1.697207,66.455952
10.6757,-0.071836,0.001117,0.117832,0.000608,-0.001421,0.004644,-0.012264,-0.505075,0.11598,1.16739,-266.070948,1.706841,66.454222
10.6959,-0.071377,0.001384,0.116933,0.000619,-0.001401,0.004643,-0.012103,-0.505193,0.116763,1.16739,-266.070948,1.706841,66.454222
10.716,-0.071893,0.000768,0.11856,0.000627,-0.001385,0.004643,-0.011852,-0.505176,0.11708,1.164741,-266.070333,1.712747,66.452503
10.7359,-0.072007,0.001203,0.119055,0.00064,-0.001356,0.00464,-0.011592,-0.505612,0.118439,1.164741,-266.070333,1.712747,66.452503
10.7557,-0.071683,0.00098,0.11784,0.000651,-0.001331,0.004638,-0.011592,-0.505612,0.118439,1.164741,-266.070333,1.712747,66.452503
10.776,-0.071705,0.000953,0.119354,0.00066,-0.001311,0.004637,-0.011691,-0.505537,0.118034,1.162756,-266.069701,1.718231,66.450796
10.7958,-0.071983,0.001255,0.118723,0.00066,-0.00131,0.004636,-0.011398,-0.505496,0.118592,1.162756,-266.069701,1.718231,66.450796
10.8159,-0.071994,0.000885,0.117968,0.000659,-0.001309,0.004636,-0.011551,-0.505194,0.118871,1.161032,-266.069039,1.728852,66.44912
10.8358,-0.07181,0.001137,0.118369,0.000669,-0.00129,0.004636,-0.011934,-0.505541,0.118051,1.161032,-266.069039,1.728852,66.44912
10.856,-0.071966,0.001276,0.119895,0.000677,-0.001274,0.004635,-0.011934,-0.505541,0.118051,1.161032,-266.069039,1.728852,66.44912
10.876,-0.07206,0.001052,0.119165,0.000683,-0.001261,0.004635,-0.010932,-0.505114,0.120088,1.162099,-266.068377,1.728697,66.447447
10.8961,-0.071835,0.00111,0.117585,0.000661,-0.001301,0.004638,-0.01113,-0.505208,0.119736,1.162099,-266.068377,1.728697,66.447447
10.9159,-0.072001,0.0008,0.119473,0.000643,-0.001334,0.00464,-0.011978,-0.505406,0.117732,1.160072,-266.067692,1.736284,66.445787
10.936,-0.072203,0.001,0.118351,0.000645,-0.001328,0.004638,-0.011281,-0.505552,0.119327,1.160072,-266.067692,1.736284,66.445787
10.9564,-0.072067,0.000542,0.118524,0.000647,-0.001323,0.004637,-0.011281,-0.505552,0.119327,1.160072,-266.067692,1.736284,66.445787
10.9758,-0.072243,0.000557,0.119082,0.000649,-0.00132,0.004637,-0.011728,-0.505932,0.118717,1.165797,-266.067041,1.723885,66.444105
10.996,-0.071909,0.000673,0.120945,0.000669,-0.001277,0.004634,-0.011694,-0.505897,0.11889,1.165797,-266.067041,1.723885,66.444105
11.0155,-0.072248,0.000716,0.11996,0.000686,-0.001243,0.004632,-0.010352,-0.505641,0.121092,1.165652,-266.066384,1.725773,66.442427
11.0361,-0.072155,0.000965,0.119407,0.00068,-0.001254,0.004632,-0.011136,-0.505623,0.120071,1.165652,-266.066384,1.725773,66.442427
11.0559,-0.072186,0.000606,0.118625,0.000675,-0.001262,0.004632,-0.011136,-0.505623,0.120071,1.165652,-266.066384,1.725773,66.442427
11.0759,-0.071981,0.000384,0.12182,0.000671,-0.001269,0.004632,-0.011795,-0.505858,0.118818,1.162558,-266.065693,1.737667,66.440776
11.0962,-0.072128,0.000858,0.121259,0.000675,-0.001258,0.004631,-0.011056,-0.505855,0.120075,1.162558,-266.065693,1.737667,66.440776
11.116,-0.072023,0.000967,0.121239,0.000679,-0.001249,0.004629,-0.010412,-0.505434,0.121406,1.164751,-266.065014,1.732971,66.439115
11.1368,-0.072244,0.000521,0.119364,0.000643,-0.001311,0.004633,-0.010347,-0.505303,0.12126,1.164751,-266.065014,1.732971,66.439115
11.1561,-0.072172,0.000508,0.120986,0.000615,-0.001361,0.004635,-0.010347,-0.505303,0.12126,1.164751,-266.065014,1.732971,66.439115
11.176,-0.072238,0.000252,0.121756,0.000591,-0.001402,0.004637,-0.010585,-0.505812,0.12118,1.164583,-266.064329,1.735794,66.437466
11.1959,-0.072242,0.000427,0.119909,0.000601,-0.001382,0.004633,-0.010463,-0.505883,0.121437,1.164583,-266.064329,1.735794,66.437466
11.2158,-0.072277,0.000217,0.120311,0.000609,-0.001366,0.00463,-0.011211,-0.505952,0.120055,1.178655,-266.063718,1.709584,66.435779
11.2356,-0.072741,9.5e-05,0.119487,0.000634,-0.001317,0.004626,-0.011081,-0.506083,0.120292,1.178655,-266.063718,1.709584,66.435779
11.2555,-0.072494,0.000423,0.121653,0.000654,-0.001277,0.004623,-0.011081,-0.506083,0.120292,1.178655,-266.063718,1.709584,66.435779
11.2755,-0.072586,0.000165,0.119561,0.00067,-0.001245,0.004621,-0.010571,-0.505861,0.121847,1.176431,-266.063084,1.714896,66.434084
11.2954,-0.072326,0.000577,0.12177,0.00068,-0.001227,0.00462,-0.011052,-0.506003,0.120934,1.176431,-266.063084,1.714896,66.434084
11.3157,-0.072772,0.000207,0.121192,0.000687,-0.001212,0.00462,-0.01035,-0.505683,0.121916,1.169101,-266.062403,1.734121,66.432446
11.3357,-0.072314,0.000258,0.121246,0.000694,-0.001199,0.004619,-0.011048,-0.506022,0.121262,1.169101,-266.062403,1.734121,66.432446
11.3556,-0.072725,0.000417,0.121558,0.000699,-0.001189,0.004618,-0.011048,-0.506022,0.121262,1.169101,-266.062403,1.734121,66.432446
11.3757,-0.072928,0.000246,0.1213,0.000704,-0.00118,0.004618,-0.010849,-0.505867,0.121751,1.167113,-266.061704,1.739559,66.43081
11.3956,-0.072704,0.000514,0.121226,0.000703,-0.001183,0.004618,-0.010996,-0.50593,0.121588,1.167113,-266.061704,1.739559,66.43081
11.4159,-0.073007,0.000299,0.121002,0.000702,-0.001185,0.004619,-0.011003,-0.505778,0.121373,1.165419,-266.060991,1.744938,66.429188
11.4362,-0.072612,0.000547,0.119401,0.000709,-0.001173,0.004619,-0.011405,-0.505956,0.121043,1.165419,-266.060991,1.744938,66.429188
11.4559,-0.072788,0.000668,0.120448,0.000714,-0.001164,0.004619,-0.011405,-0.505956,0.121043,1.165419,-266.060991,1.744938,66.429188
11.4762,-0.07308,7.6e-05,0.120517,0.000719,-0.001156,0.004619,-0.011473,-0.505683,0.120641,1.165465,-266.060278,1.744216,66.42756
11.496,-0.07271,4.2e-05,0.121501,0.000724,-0.001148,0.00462,-0.011587,-0.505908,0.120613,1.165465,-266.060278,1.744216,66.42756
11.5159,-0.072851,-0.000157,0.122855,0.000728,-0.001142,0.004621,-0.010897,-0.506198,0.121501,1.163301,-266.060278,1.669155,66.42756
11.5355,-0.072789,0.000189,0.121143,0.000726,-0.001138,0.00461,-0.010401,-0.506303,0.122734,1.163301,-266.060278,1.669155,66.42756
11.5558,-0.072807,-1e-06,0.120802,0.000725,-0.001134,0.004602,-0.010401,-0.506303,0.122734,1.163301,-266.060278,1.669155,66.42756
11.5757,-0.072953,0.000146,0.122608,0.000724,-0.001132,0.004595,-0.011348,-0.506285,0.120802,1.162083,-266.060278,1.594116,66.42756
11.5959,-0.072789,0.000132,0.12099,0.000729,-0.001123,0.004581,-0.011026,-0.506176,0.121559,1.162083,-266.060278,1.594116,66.42756
11.6158,-0.073204,-8.6e-05,0.121008,0.000732,-0.001116,0.00457,-0.011235,-0.50614,0.12099,1.162448,-266.060278,1.518844,66.42756
11.6359,-0.072676,0.000203,0.122075,0.000747,-0.001085,0.004551,-0.011605,-0.506338,0.121007,1.162448,-266.060278,1.518844,66.42756
11.6561,-0.072825,5.3e-05,0.120243,0.00076,-0.001061,0.004535,-0.011605,-0.506338,0.121007,1.162448,-266.060278,1.518844,66.42756
11.6759,-0.072505,0.000193,0.122915,0.00077,-0.001041,0.004523,-0.011649,-0.506265,0.120243,1.158685,-266.060278,1.444108,66.42756
11.6958,-0.072988,-8.2e-05,0.122379,0.000761,-0.001058,0.004504,-0.010969,-0.506141,0.121329,1.158685,-266.060278,1.444108,66.42756
11.7158,-0.072616,0.000121,0.121116,0.000754,-0.001072,0.004488,-0.01073,-0.506268,0.122379,1.150295,-266.060278,1.369181,66.42756
11.7358,-0.073154,0.000257,0.123564,0.000749,-0.001081,0.004466,-0.010974,-0.506154,0.12123,1.150295,-266.060278,1.369181,66.42756
11.7556,-0.072879,-0.000283,0.12215,0.000745,-0.001089,0.004447,-0.010974,-0.506154,0.12123,1.150295,-266.060278,1.369181,66.42756
11.776,-0.072858,0.000149,0.121489,0.000742,-0.001096,0.004432,-0.010737,-0.506483,0.12215,1.146473,-266.060278,1.294223,66.42756
11.7959,-0.072835,4.3e-05,0.122589,0.000744,-0.00109,0.004408,-0.010865,-0.506325,0.121882,1.146473,-266.060278,1.294223,66.42756
11.8155,-0.072817,-5e-05,0.120771,0.000745,-0.001085,0.004389,-0.010471,-0.50613,0.122589,1.139266,-266.060278,1.219222,66.427561
11.8359,-0.0727,0.000112,0.121777,0.000753,-0.00107,0.004363,-0.011291,-0.506317,0.120937,1.139266,-266.060278,1.219222,66.427561
11.8559,-0.072748,6.8e-05,0.122413,0.000759,-0.001057,0.004342,-0.011291,-0.506317,0.120937,1.139266,-266.060278,1.219222,66.427561
11.876,-0.072768,0.000248,0.122383,0.000763,-0.001047,0.004324,-0.010473,-0.506116,0.122413,1.133834,-266.060278,1.144212,66.427561
11.8958,-0.072895,-2.8e-05,0.121304,0.000743,-0.001086,0.004281,-0.010488,-0.506043,0.122401,1.133834,-266.060278,1.144212,66.427561
11.916,-0.072776,0.000204,0.121338,0.000726,-0.001118,0.004244,-0.011181,-0.506281,0.121304,1.124049,-266.060278,1.069219,66.427561
11.9359,-0.072865,-4.4e-05,0.122178,0.000723,-0.001124,0.004214,-0.011057,-0.506067,0.121335,1.124049,-266.060278,1.069219,66.427561
11.9561,-0.072914,0.000156,0.122139,0.000721,-0.001129,0.004188,-0.011057,-0.506067,0.121335,1.124049,-266.060278,1.069219,66.427561
11.9761,-0.072686,-0.000107,0.122328,0.00072,-0.001133,0.004167,-0.010778,-0.506045,0.122139,1.113368,-266.060278,0.9941,66.427561
11.9957,-0.073092,0.000238,0.120573,0.000714,-0.001142,0.004149,-0.010644,-0.506148,0.122217,1.113368,-266.060278,0.9941,66.427561
12.0155,-0.072853,-0.000231,0.121855,0.00071,-0.001149,0.004134,-0.011749,-0.506059,0.120573,1.099364,-266.060278,0.918995,66.427561
12.0359,-0.072862,0.000233,0.122698,0.000722,-0.001123,0.004119,-0.010941,-0.506414,0.121739,1.099364,-266.060278,0.918995,66.427561
12.0558,-0.072531,-0.000142,0.121882,0.000732,-0.001102,0.004107,-0.010941,-0.506414,0.121739,1.099364,-266.060278,0.918995,66.427561
12.0762,-0.072718,-8e-05,0.120538,0.000739,-0.001085,0.004098,-0.010525,-0.506358,0.121882,1.094203,-266.060278,0.844216,66.427561
12.0959,-0.072973,0.000111,0.120615,0.000743,-0.001076,0.00409,-0.010879,-0.506367,0.121333,1.094203,-266.060278,0.844216,66.427561
12.1157,-0.072837,-0.000123,0.122646,0.000746,-0.001069,0.004083,-0.011608,-0.506184,0.120615,1.09007,-266.060278,0.769224,66.427562
12.1358,-0.072646,-1.2e-05,0.122122,0.00074,-0.001081,0.004078,-0.01055,-0.506282,0.122462,1.09007,-266.060278,0.769224,66.427562
12.1562,-0.072828,0.000239,0.12081,0.000734,-0.001091,0.004074,-0.01055,-0.506282,0.122462,1.09007,-266.060278,0.769224,66.427562
12.1757,-0.072504,0.000214,0.122495,0.00073,-0.001099,0.00407,-0.011365,-0.506044,0.12081,1.088267,-266.060278,0.694196,66.427562
12.1961,-0.072955,5.7e-05,0.122104,0.000721,-0.001118,0.004069,-0.010886,-0.506012,0.121495,1.088267,-266.060278,0.694196,66.427562
12.2154,-0.072761,-0.000275,0.120814,0.000714,-0.001134,0.004068,-0.010837,-0.506146,0.122104,1.086598,-266.060277,0.619189,66.427562
12.2356,-0.07266,-0.000218,0.122562,0.000734,-0.001092,0.004064,-0.011257,-0.506522,0.120925,1.086598,-266.060277,0.619189,66.427562
12.2556,-0.07314,-0.0001,0.121631,0.00075,-0.001059,0.004061,-0.011257,-0.506522,0.120925,1.086598,-266.060277,0.619189,66.427562
12.2757,-0.072555,0.000531,0.122315,0.000763,-0.001032,0.004058,-0.011262,-0.506332,0.121631,1.084376,-266.060277,0.544072,66.427562
12.2956,-0.072976,2.3e-05,0.120887,0.00075,-0.00106,0.004059,-0.010881,-0.506057,0.12191,1.084376,-266.060277,0.544072,66.427562
12.3156,-0.072893,0.000209,0.122037,0.000739,-0.001084,0.00406,-0.011474,-0.506255,0.120887,1.085577,-266.060277,0.469229,66.427562
12.3357,-0.072917,5e-06,0.12233,0.000729,-0.001106,0.00406,-0.010868,-0.506021,0.121933,1.085577,-266.060277,0.469229,66.427562
12.3556,-0.072524,9.2e-05,0.120219,0.00072,-0.001124,0.004061,-0.010868,-0.506021,0.121933,1.085577,-266.060277,0.469229,66.427562
12.3755,-0.072791,-0.000189,0.120603,0.000714,-0.001139,0.004061,-0.01136,-0.506227,0.120219,1.083921,-266.060277,0.394223,66.427562
12.3957,-0.073158,0.000145,0.121572,0.000729,-0.001109,0.004059,-0.01139,-0.506332,0.120376,1.083921,-266.060277,0.394223,66.427562
12.4161,-0.073126,-0.000305,0.122157,0.000741,-0.001085,0.004058,-0.011309,-0.506091,0.121572,1.081901,-266.060277,0.31909,66.427562
12.4364,-0.072698,0.000152,0.123389,0.00075,-0.001065,0.004056,-0.011011,-0.506467,0.122104,1.081901,-266.060277,0.31909,66.427562
12.4557,-0.072911,-0.000323,0.121375,0.000757,-0.001048,0.004054,-0.011011,-0.506467,0.122104,1.081901,-266.060277,0.31909,66.427562
12.4756,-0.072971,-0.000137,0.12213,0.000763,-0.001035,0.004053,-0.011162,-0.506571,0.121375,1.082121,-266.060277,0.244214,66.427563
12.4957,-0.072702,0.000682,0.121822,0.000769,-0.001023,0.004052,-0.011029,-0.506475,0.121686,1.082121,-266.060277,0.244214,66.427563
12.5158,-0.072918,0.000169,0.121938,0.000773,-0.001013,0.004051,-0.010726,-0.505538,0.121822,1.083591,-266.060277,0.169077,66.427563
12.5363,-0.07276,0.000259,0.120176,0.000755,-0.001051,0.004054,-0.010869,-0.505997,0.121928,1.083591,-266.060277,0.169077,66.427563
12.5561,-0.072717,0.000308,0.12195,0.000741,-0.001081,0.004056,-0.010869,-0.505997,0.121928,1.083591,-266.060277,0.169077,66.427563
12.5758,-0.072927,0.000166,0.121065,0.000729,-0.001106,0.004057,-0.010677,-0.505904,0.12195,1.08428,-266.060277,0.094121,66.427563
12.5961,-0.07277,-0.000233,0.122544,0.000721,-0.001125,0.004058,-0.010944,-0.505984,0.12159,1.08428,-266.060277,0.094121,66.427563
12.6155,-0.072394,-1.2e-05,0.121452,0.000714,-0.00114,0.004059,-0.010428,-0.506408,0.122544,1.082252,-266.060277,0.019218,66.427563
12.636,-0.07286,-0.00021,0.121201,0.000714,-0.001137,0.004058,-0.01059,-0.506269,0.121552,1.082252,-266.060277,0.019218,66.427563
12.6556,-0.072739,-0.000299,0.122303,0.000714,-0.001135,0.004056,-0.01059,-0.506269,0.121552,1.082252,-266.060277,0.019218,66.427563
12.676,-0.073058,0.000372,0.121439,0.000715,-0.001134,0.004055,-0.010519,-0.50649,0.122303,1.080974,-266.060277,-0.055777,66.427563
12.6956,-0.072917,-8.2e-05,0.121073,0.000717,-0.001129,0.004055,-0.010827,-0.506239,0.121952,1.080974,-266.060277,-0.055777,66.427563
12.7159,-0.07277,0.000144,0.12382,0.000719,-0.001125,0.004054,-0.011321,-0.506349,0.121073,1.081846,-266.060277,-0.130777,66.427563
12.7358,-0.072774,0.0001,0.120778,0.000692,-0.001174,0.004056,-0.009917,-0.505986,0.123581,1.081846,-266.060277,-0.130777,66.427563
12.7557,-0.072485,-0.000223,0.122703,0.000669,-0.001214,0.004057,-0.009917,-0.505986,0.123581,1.081846,-266.060277,-0.130777,66.427563
12.7757,-0.072886,2.4e-05,0.120762,0.000652,-0.001245,0.004058,-0.010063,-0.506388,0.122703,1.081701,-266.060277,-0.205877,66.427563
12.7961,-0.072924,-0.000129,0.121608,0.000667,-0.001216,0.004055,-0.010624,-0.506337,0.121917,1.081701,-266.060277,-0.205877,66.427563
12.8158,-0.072722,0.000275,0.123174,0.000679,-0.001193,0.004053,-0.011056,-0.506363,0.121608,1.084502,-266.060277,-0.280779,66.427564
12.8355,-0.072645,-0.00032,0.122069,0.000661,-0.001227,0.004055,-0.010151,-0.505906,0.123034,1.084502,-266.060277,-0.280779,66.427564
12.8557,-0.072869,0.000318,0.121082,0.000646,-0.001256,0.004056,-0.010151,-0.505906,0.123034,1.084502,-266.060277,-0.280779,66.427564
12.8763,-0.073028,5.4e-05,0.121899,0.000634,-0.001278,0.004057,-0.011268,-0.505948,0.121082,1.0841,-266.060277,-0.355783,66.427564
12.8959,-0.073103,0.000382,0.122693,0.000649,-0.001254,0.004056,-0.011164,-0.506035,0.121415,1.0841,-266.060277,-0.355783,66.427564
12.9155,-0.072806,0.000228,0.121107,0.000662,-0.001235,0.004056,-0.010687,-0.505784,0.122693,1.084203,-266.060277,-0.43091,66.427564
12.9358,-0.072878,0.000352,0.121327,0.000671,-0.001221,0.004056,-0.011148,-0.506015,0.121244,1.084203,-266.060277,-0.43091,66.427564
12.9556,-0.072766,-0.0002,0.123014,0.000678,-0.001209,0.004056,-0.011148,-0.506015,0.121244,1.084203,-266.060277,-0.43091,66.427564
12.9757,-0.072733,0.000467,0.120927,0.000684,-0.0012,0.004056,-0.010187,-0.506346,0.123014,1.081512,-266.060277,-0.505911,66.427564
12.9957,-0.073046,-8.8e-05,0.120794,0.000684,-0.001199,0.004056,-0.010597,-0.50613,0.122177,1.081512,-266.060277,-0.505911,66.427564
13.0157,-0.07305,-2.9e-05,0.123067,0.000684,-0.001199,0.004055,-0.011591,-0.506372,0.120794,1.079119,-266.060276,-0.5808,66.427564
13.0361,-0.072714,-1.3e-05,0.121595,0.000686,-0.001194,0.004054,-0.010562,-0.506193,0.122833,1.079119,-266.060276,-0.5808,66.427564
13.0558,-0.072865,-3.1e-05,0.122591,0.000687,-0.00119,0.004054,-0.010562,-0.506193,0.122833,1.079119,-266.060276,-0.5808,66.427564
13.0756,-0.072779,-0.000173,0.122308,0.000688,-0.001188,0.004053,-0.0105,-0.506203,0.122591,1.079454,-266.060276,-0.655779,66.427564
13.096,-0.07305,7.6e-05,0.122711,0.000691,-0.001179,0.004052,-0.010523,-0.506268,0.122476,1.079454,-266.060276,-0.655779,66.427564
13.116,-0.072912,0.000297,0.122202,0.000694,-0.001172,0.004051,-0.010624,-0.506089,0.122711,1.080181,-266.060276,-0.730783,66.427565
13.1358,-0.072779,0.000343,0.122988,0.000686,-0.001191,0.004053,-0.010734,-0.505917,0.122247,1.080181,-266.060276,-0.730783,66.427565
13.1556,-0.07284,-1.5e-05,0.121386,0.000679,-0.001207,0.004055,-0.010734,-0.505917,0.122247,1.080181,-266.060276,-0.730783,66.427565
13.176,-0.072923,-6.6e-05,0.121428,0.000673,-0.001219,0.004056,-0.011085,-0.506263,0.121386,1.080929,-266.060276,-0.805878,66.427566
13.1963,-0.072821,-8.6e-05,0.121939,0.00069,-0.001186,0.004054,-0.01111,-0.506282,0.121403,1.080929,-266.060276,-0.805878,66.427566
13.2154,-0.073036,3.8e-05,0.122016,0.000703,-0.00116,0.004053,-0.010785,-0.506299,0.12194,1.079515,-266.060274,-0.880814,66.42757
13.2361,-0.07296,0.000296,0.122282,0.000707,-0.001152,0.004053,-0.010946,-0.506182,0.122009,1.079515,-266.060274,-0.880814,66.42757
13.2559,-0.072908,-8.6e-05,0.120937,0.000711,-0.001146,0.004053,-0.010946,-0.506182,0.122009,1.079515,-266.060274,-0.880814,66.42757
13.276,-0.073074,-0.000131,0.122309,0.000714,-0.001141,0.004053,-0.011379,-0.506362,0.120939,1.079953,-266.060265,-0.955796,66.427594
13.2959,-0.072857,9.7e-05,0.121752,0.000726,-0.001116,0.004052,-0.011164,-0.506345,0.121499,1.079953,-266.060265,-0.955796,66.427594
13.3162,-0.072421,0.00016,0.122577,0.000735,-0.001097,0.004052,-0.010914,-0.506129,0.121759,1.079797,-266.060232,-1.030805,66.427674
13.3361,-0.072804,0.000305,0.121293,0.000712,-0.001139,0.004054,-0.010139,-0.506024,0.122504,1.079797,-266.060232,-1.030805,66.427674
13.3558,-0.072955,-1.7e-05,0.122867,0.000693,-0.001174,0.004055,-0.010139,-0.506024,0.122504,1.079797,-266.060232,-1.030805,66.427674
13.376,-0.072732,-0.000211,0.122975,0.000678,-0.001201,0.004055,-0.010442,-0.506177,0.122892,1.08063,-266.060134,-1.10581,66.427903
13.3962,-0.072778,4.7e-05,0.123773,0.000679,-0.001198,0.004054,-0.010331,-0.506252,0.122929,1.08063,-266.060134,-1.10581,66.427903
13.4155,-0.073105,0.000345,0.122851,0.00068,-0.001195,0.004053,-0.009805,-0.50606,0.123807,1.082411,-266.059976,-1.18089,66.428311
13.4357,-0.073107,0.000203,0.123517,0.000666,-0.001223,0.004055,-0.010535,-0.505834,0.122939,1.082411,-266.059976,-1.18089,66.428311
13.456,-0.073216,-0.000178,0.122363,0.000655,-0.001246,0.004057,-0.010535,-0.505834,0.122939,1.082411,-266.059976,-1.18089,66.428311
13.4758,-0.072845,3.9e-05,0.122738,0.000647,-0.001265,0.004058,-0.010945,-0.506387,0.122446,1.082804,-266.059684,-1.255785,66.429062
13.496,-0.073135,3e-05,0.122111,0.000662,-0.001235,0.004056,-0.010721,-0.506281,0.122575,1.082804,-266.059684,-1.255785,66.429062
13.5158,-0.072959,-5.3e-05,0.122312,0.000674,-0.001211,0.004054,-0.010992,-0.506198,0.122202,1.08128,-266.05929,-1.330972,66.430152
13.5357,-0.072823,-6.3e-05,0.120722,0.000683,-0.001194,0.004053,-0.010756,-0.50624,0.122308,1.08128,-266.05929,-1.330972,66.430152
13.5557,-0.072808,3.8e-05,0.12286,0.00069,-0.00118,0.004052,-0.010756,-0.50624,0.122308,1.08128,-266.05929,-1.330972,66.430152
13.5756,-0.073122,-6e-06,0.121109,0.000696,-0.001169,0.004052,-0.010274,-0.506162,0.12302,1.081333,-266.058749,-1.39001,66.431566
13.5961,-0.072491,0.000244,0.121426,0.0007,-0.001162,0.004075,-0.01077,-0.506211,0.122264,1.081333,-266.058749,-1.39001,66.431566
13.6155,-0.072966,-0.000224,0.122401,0.000703,-0.001157,0.004094,-0.010689,-0.506035,0.121555,1.081181,-266.058157,-1.3821,66.433051
13.6361,-0.073176,2.4e-05,0.121579,0.000711,-0.001139,0.004118,-0.010695,-0.506378,0.122334,1.081181,-266.058157,-1.3821,66.433051
13.6556,-0.072927,-0.000108,0.121946,0.000717,-0.001125,0.004138,-0.010695,-0.506378,0.122334,1.081181,-266.058157,-1.3821,66.433051
13.6759,-0.073011,-0.000284,0.12262,0.000723,-0.001114,0.004154,-0.010853,-0.506365,0.122117,1.089055,-266.057552,-1.380953,66.434536
13.6962,-0.07338,-7.8e-05,0.122488,0.000729,-0.0011,0.004176,-0.010759,-0.506407,0.122341,1.089055,-266.057552,-1.380953,66.434536
13.7159,-0.07305,-9.8e-05,0.123565,0.000735,-0.00109,0.004194,-0.01104,-0.506289,0.122621,1.100865,-266.056915,-1.375362,66.436021
13.7357,-0.073027,-2.6e-05,0.122194,0.000722,-0.001113,0.004219,-0.010268,-0.506219,0.123486,1.100865,-266.056915,-1.375362,66.436021
13.7556,-0.072902,-0.000406,0.122677,0.000712,-0.001132,0.00424,-0.010268,-0.506219,0.123486,1.100865,-266.056915,-1.375362,66.436021
13.7758,-0.073143,-3.9e-05,0.123966,0.000704,-0.001147,0.004257,-0.010457,-0.506614,0.122853,1.107979,-266.056257,-1.372262,66.437509
13.7957,-0.073429,-0.000315,0.121617,0.000707,-0.001139,0.004278,-0.010301,-0.50642,0.123325,1.107979,-266.056257,-1.372262,66.437509
13.8154,-0.073438,-0.000758,0.123082,0.000709,-0.001133,0.004295,-0.011531,-0.506581,0.121752,1.119542,-266.055615,-1.384998,66.439027
13.8356,-0.073223,-0.000606,0.122964,0.000738,-0.001071,0.004315,-0.010887,-0.506873,0.122969,1.119542,-266.055615,-1.384998,66.439027
13.8558,-0.073171,-0.000346,0.123147,0.00076,-0.001021,0.004333,-0.010887,-0.506873,0.122969,1.119542,-266.055615,-1.384998,66.439027
13.8756,-0.073491,-0.000736,0.122478,0.000779,-0.00098,0.004347,-0.010489,-0.506527,0.123327,1.126443,-266.054953,-1.384134,66.440561
13.8957,-0.073042,-0.000476,0.123953,0.000786,-0.000966,0.004368,-0.010774,-0.506694,0.122994,1.126443,-266.054953,-1.384134,66.440561
13.9158,-0.073917,-0.000656,0.122962,0.000792,-0.000955,0.004385,-0.00996,-0.50659,0.124089,1.135511,-266.054222,-1.359693,66.442032
13.9358,-0.07343,-0.000668,0.124161,0.000808,-0.000921,0.004405,-0.011251,-0.50679,0.123058,1.135511,-266.054222,-1.359693,66.442032
13.9557,-0.073104,-0.000667,0.123906,0.000821,-0.000894,0.004422,-0.011251,-0.50679,0.123058,1.135511,-266.054222,-1.359693,66.442032
13.9766,-0.073344,-0.000709,0.123677,0.000831,-0.000872,0.004436,-0.010036,-0.506792,0.124089,1.140203,-266.053466,-1.356224,66.443512
13.9956,-0.07373,-0.000898,0.122722,0.000826,-0.000879,0.004452,-0.010188,-0.506805,0.123946,1.140203,-266.053466,-1.356224,66.443512
14.0155,-0.073549,-0.001182,0.122684,0.000821,-0.000885,0.004465,-0.011269,-0.507087,0.122863,1.146034,-266.052662,-1.342763,66.444978
14.0355,-0.073737,-0.000698,0.124264,0.000849,-0.000817,0.004477,-0.011148,-0.507325,0.122708,1.146034,-266.052662,-1.342763,66.444978
14.0557,-0.073273,-0.000698,0.125428,0.000871,-0.000762,0.004487,-0.011148,-0.507325,0.122708,1.146034,-266.052662,-1.342763,66.444978
14.0755,-0.073511,-0.001076,0.12478,0.000889,-0.000717,0.004496,-0.009434,-0.506724,0.125615,1.151377,-266.051856,-1.347174,66.446458
14.0959,-0.073497,-0.000798,0.124614,0.000866,-0.000761,0.004505,-0.009676,-0.506886,0.125296,1.151377,-266.051856,-1.347174,66.446458
14.1158,-0.073887,-0.00047,0.123906,0.000848,-0.000797,0.004513,-0.010078,-0.506862,0.124756,1.157749,-266.050978,-1.319492,66.447875
14.136,-0.073548,-0.000553,0.124845,0.000839,-0.000823,0.004522,-0.010791,-0.506586,0.123982,1.157749,-266.050978,-1.319492,66.447875
14.1557,-0.073449,-0.000596,0.125508,0.000832,-0.000844,0.00453,-0.010791,-0.506586,0.123982,1.157749,-266.050978,-1.319492,66.447875
14.1757,-0.073979,-0.001108,0.124449,0.000827,-0.000861,0.004537,-0.009568,-0.506613,0.125696,1.162372,-266.050132,-1.336583,66.449324
14.1956,-0.073867,-0.00121,0.125604,0.000818,-0.000878,0.004542,-0.010012,-0.506839,0.125212,1.162372,-266.050132,-1.336583,66.449324
14.2159,-0.073874,-0.001107,0.125799,0.000811,-0.000891,0.004545,-0.009947,-0.507216,0.125749,1.162384,-266.049301,-1.347059,66.450811
14.2356,-0.073745,-0.000884,0.123973,0.000813,-0.000881,0.004547,-0.009889,-0.507091,0.125802,1.162384,-266.049301,-1.347059,66.450811
14.2556,-0.073651,-0.001011,0.124672,0.000815,-0.000872,0.004548,-0.009889,-0.507091,0.125802,1.162384,-266.049301,-1.347059,66.450811
14.2758,-0.07414,-0.000734,0.125282,0.000816,-0.000865,0.004549,-0.010195,-0.507085,0.124862,1.164637,-266.04848,-1.353232,66.452315
14.2956,-0.07355,-0.000901,0.124019,0.000818,-0.000864,0.004552,-0.01028,-0.506945,0.125057,1.164637,-266.04848,-1.353232,66.452315
14.3157,-0.073857,-0.001495,0.125495,0.000819,-0.000862,0.004555,-0.010433,-0.507008,0.124164,1.167463,-266.047646,-1.350393,66.45381
14.3361,-0.074036,-0.000965,0.124901,0.000836,-0.000816,0.004554,-0.010054,-0.507447,0.125393,1.167463,-266.047646,-1.350393,66.45381
14.3561,-0.074277,-0.000961,0.12497,0.00085,-0.000779,0.004554,-0.010054,-0.507447,0.125393,1.167463,-266.047646,-1.350393,66.45381
14.3768,-0.07393,-0.001071,0.126105,0.000861,-0.000749,0.004554,-0.010669,-0.507015,0.12516,1.167552,-266.046813,-1.3497,66.455302
14.3964,-0.074045,-0.000785,0.126465,0.000857,-0.000762,0.004557,-0.010303,-0.507021,0.12557,1.167552,-266.046813,-1.3497,66.455302
14.4161,-0.074013,-0.001065,0.126364,0.000853,-0.000772,0.00456,-0.00969,-0.506732,0.126609,1.17011,-266.045935,-1.331679,66.456748
14.4364,-0.074038,-0.000919,0.127104,0.000839,-0.000801,0.004562,-0.009733,-0.506978,0.126391,1.17011,-266.045935,-1.331679,66.456748
14.4561,-0.074312,-0.001105,0.126975,0.000828,-0.000824,0.004564,-0.009733,-0.506978,0.126391,1.17011,-266.045935,-1.331679,66.456748
14.4761,-0.073874,-0.001346,0.124762,0.000819,-0.000843,0.004566,-0.009689,-0.507027,0.127166,1.169816,-266.045061,-1.335405,66.45821
14.4965,-0.074002,-0.001052,0.126935,0.000824,-0.000831,0.004566,-0.00998,-0.507175,0.126204,1.169816,-266.045061,-1.335405,66.45821
14.5159,-0.074032,-0.00124,0.1257,0.000828,-0.000822,0.004566,-0.00941,-0.506972,0.12708,1.172269,-266.044219,-1.348941,66.459695
14.5357,-0.074408,-0.000949,0.126176,0.000833,-0.00081,0.004567,-0.010033,-0.507196,0.125827,1.172269,-266.044219,-1.348941,66.459695
14.5559,-0.07402,-0.001522,0.127237,0.000837,-0.000801,0.004567,-0.010033,-0.507196,0.125827,1.172269,-266.044219,-1.348941,66.459695
14.5758,-0.07423,-0.001271,0.126927,0.00084,-0.000793,0.004568,-0.009265,-0.507429,0.127427,1.172368,-266.043365,-1.345346,66.461177
14.5959,-0.074318,-0.001019,0.126669,0.000838,-0.000791,0.004566,-0.009428,-0.507325,0.127243,1.172368,-266.043365,-1.345346,66.461177
14.6154,-0.074518,-0.001451,0.127899,0.000836,-0.000789,0.004565,-0.00986,-0.506954,0.126813,1.17241,-266.042499,-1.340462,66.462649
14.6361,-0.074523,-0.001209,0.127896,0.000833,-0.000793,0.004565,-0.009498,-0.507259,0.127816,1.17241,-266.042499,-1.340462,66.462649
14.6558,-0.074295,-0.001113,0.125691,0.00083,-0.000796,0.004565,-0.009498,-0.507259,0.127816,1.17241,-266.042499,-1.340462,66.462649
14.6756,-0.074254,-0.001356,0.126993,0.000828,-0.000799,0.004565,-0.010322,-0.507118,0.125882,1.174657,-266.041634,-1.341107,66.464115
14.6958,-0.0744,-0.001428,0.128467,0.000831,-0.000794,0.004566,-0.010048,-0.507175,0.126357,1.174657,-266.041634,-1.341107,66.464115
14.7158,-0.074186,-0.001179,0.128075,0.000835,-0.00079,0.004567,-0.009032,-0.507248,0.128612,1.176493,-266.040772,-1.344024,66.465588
14.7359,-0.07472,-0.001432,0.12724,0.000812,-0.000833,0.004568,-0.009044,-0.507025,0.128131,1.176493,-266.040772,-1.344024,66.465588
14.7557,-0.074459,-0.001168,0.127768,0.000794,-0.000867,0.004569,-0.009044,-0.507025,0.128131,1.176493,-266.040772,-1.344024,66.465588
14.7759,-0.074449,-0.001715,0.128734,0.000779,-0.000895,0.004569,-0.009435,-0.507039,0.127959,1.175358,-266.039904,-1.341724,66.46706
14.796,-0.07502,-0.001382,0.126976,0.00078,-0.000889,0.004567,-0.009241,-0.507231,0.128302,1.175358,-266.039904,-1.341724,66.46706
14.8158,-0.074598,-0.001167,0.12944,0.000781,-0.000884,0.004566,-0.010408,-0.507301,0.127119,1.180901,-266.03909,-1.36253,66.468556
14.836,-0.074982,-0.001171,0.127915,0.000761,-0.000924,0.004567,-0.008905,-0.506936,0.12925,1.180901,-266.03909,-1.36253,66.468556
14.856,-0.07415,-0.001612,0.128172,0.000744,-0.000956,0.004567,-0.008905,-0.506936,0.12925,1.180901,-266.03909,-1.36253,66.468556
14.8757,-0.074955,-0.001507,0.128741,0.000731,-0.000982,0.004568,-0.008925,-0.507461,0.128362,1.181438,-266.038267,-1.361168,66.470057
14.8957,-0.074832,-0.001172,0.128229,0.000747,-0.000944,0.004564,-0.009149,-0.507393,0.128541,1.181438,-266.038267,-1.361168,66.470057
14.9162,-0.074847,-0.001413,0.127762,0.00076,-0.000913,0.004561,-0.009587,-0.507012,0.128373,1.186535,-266.037492,-1.379358,66.471585
14.9357,-0.074773,-0.00127,0.128239,0.000775,-0.000886,0.004562,-0.00984,-0.507237,0.127822,1.186535,-266.037492,-1.379358,66.471585
14.9559,-0.074989,-0.001587,0.127589,0.000787,-0.000865,0.004562,-0.00984,-0.507237,0.127822,1.186535,-266.037492,-1.379358,66.471585
14.9758,-0.074828,-0.001537,0.127971,0.000797,-0.000848,0.004562,-0.010059,-0.507475,0.127779,1.18554,-266.036685,-1.368252,66.473093
14.9959,-0.074672,-0.001861,0.128513,0.000814,-0.000812,0.004562,-0.009923,-0.507434,0.12788,1.18554,-266.036685,-1.368252,66.473093
15.0158,-0.074847,-0.001595,0.127847,0.000828,-0.000782,0.004562,-0.009282,-0.507679,0.128657,1.180844,-266.035849,-1.354992,66.474576
15.0358,-0.074652,-0.001921,0.129348,0.000837,-0.00076,0.004561,-0.009775,-0.507455,0.127923,1.180844,-266.035849,-1.354992,66.474576
15.056,-0.074922,-0.001473,0.127411,0.000846,-0.000742,0.004561,-0.009775,-0.507455,0.127923,1.180844,-266.035849,-1.354992,66.474576
15.0757,-0.074931,-0.00172,0.128522,0.000852,-0.000727,0.004561,-0.010079,-0.507367,0.127602,1.179117,-266.034985,-1.342917,66.476036
