mach0312/omni-docking-bench/src/icros_test_setup/results/MPPI_sample/timeseries/trial_056.csv
t,x,y,yaw,vx,vy,wz,bl_x,bl_y,bl_yaw,front_steering_joint,front_wheel_joint,rear_steering_joint,rear_wheel_joint
0.0,0.02141,-0.02936,-0.0348,-0.003684,-0.001358,-0.002729,0.004856,-0.538593,-0.033039,0.687487,-259.342728,-0.083453,72.894754
0.0004,0.021205,-0.029276,-0.034481,-0.003163,-0.001166,-0.002343,0.004856,-0.538593,-0.033039,0.687487,-259.345869,-0.083453,72.892318
0.0007,0.020966,-0.029059,-0.034189,-0.002603,-0.00096,-0.001928,0.004321,-0.538417,-0.034356,0.687487,-259.348481,-0.083453,72.890292
0.001,0.020636,-0.029066,-0.033391,-0.002006,-0.00074,-0.001486,0.004017,-0.538546,-0.034589,0.687487,-259.35064,-0.083453,72.888618
0.0014,0.020716,-0.029178,-0.033211,-0.001374,-0.000507,-0.001018,0.004017,-0.538546,-0.034589,0.687487,-259.351987,-0.083453,72.887574
0.0017,0.020912,-0.029189,-0.035161,-0.000703,-0.000259,-0.000521,0.004517,-0.539261,-0.032824,0.687487,-259.352697,-0.083453,72.887023
0.002,0.020939,-0.029283,-0.035423,0.0,0.0,0.0,0.004517,-0.539261,-0.032824,0.687487,-259.352697,-0.083453,72.887023
0.0023,0.020853,-0.02965,-0.034497,0.0,0.0,0.0,0.004222,-0.538629,-0.033545,0.687487,-259.352697,-0.083453,72.887023
0.0025,0.020782,-0.029142,-0.035428,0.0,0.0,0.0,0.004222,-0.538629,-0.033545,0.687487,-259.352697,-0.083453,72.887023
0.0165,0.020602,-0.029271,-0.035226,0.0,0.0,0.0,0.003215,-0.539308,-0.0346,0.687487,-259.352697,-0.083453,72.887023
0.0352,0.020817,-0.029345,-0.033942,0.0,0.0,0.0,0.002641,-0.538955,-0.035226,0.687487,-259.352697,-0.083453,72.887023
0.0554,0.020536,-0.029252,-0.035555,0.0,0.0,0.0,0.002977,-0.538992,-0.034729,0.687487,-259.352697,-0.083453,72.887023
0.0754,0.020815,-0.029492,-0.033732,0.0,0.0,0.0,0.002406,-0.538929,-0.035555,0.687487,-259.352697,-0.083453,72.887023
0.0956,0.02079,-0.029485,-0.035522,0.0,0.0,0.0,0.00351,-0.539179,-0.03389,0.687487,-259.352697,-0.083453,72.887023
0.1154,0.021046,-0.029171,-0.036004,0.001149,0.006939,0.006858,0.00351,-0.539179,-0.03389,0.687487,-259.352697,-0.083453,72.887023
0.1353,0.02064,-0.029428,-0.033264,0.00129,0.007557,0.007406,0.002688,-0.538841,-0.036004,0.687487,-259.352697,-0.083453,72.887023
0.1554,0.020667,-0.029486,-0.033542,0.001428,0.008085,0.007882,0.003091,-0.538965,-0.034889,0.687487,-259.352697,-0.083453,72.887023
0.1753,0.020905,-0.029334,-0.034412,0.001556,0.008536,0.008267,0.003564,-0.539199,-0.033542,0.762423,-259.352697,-0.008517,72.887023
0.1955,0.020879,-0.029421,-0.034434,0.001663,0.008917,0.008609,0.003376,-0.539046,-0.034338,0.762423,-259.352697,-0.008517,72.887023
0.2153,0.020556,-0.029137,-0.03456,0.00176,0.009243,0.008886,0.003376,-0.539046,-0.034338,0.762423,-259.352697,-0.008517,72.887023
0.2352,0.021004,-0.029329,-0.033233,0.001848,0.009521,0.009112,0.002934,-0.538833,-0.03456,0.837531,-259.352697,0.06659,72.887023
0.2551,0.020859,-0.029426,-0.035631,0.001925,0.009759,0.009325,0.003387,-0.538919,-0.034025,0.837531,-259.352697,0.06659,72.887023
0.2753,0.020932,-0.029533,-0.03539,0.001995,0.009963,0.009498,0.002692,-0.539102,-0.035631,0.912394,-259.352697,0.141454,72.887023
0.2951,0.021062,-0.029409,-0.034176,0.002073,0.010143,0.00972,0.00287,-0.539203,-0.035412,0.912394,-259.352697,0.141454,72.887023
0.3152,0.020707,-0.028878,-0.032997,0.002142,0.010296,0.0099,0.00287,-0.539203,-0.035412,0.912394,-259.352697,0.141454,72.887023
0.3352,0.020535,-0.029136,-0.033824,0.002204,0.010428,0.010046,0.003882,-0.5386,-0.032997,0.987401,-259.352697,0.216461,72.887023
0.3556,0.020843,-0.029344,-0.035689,0.002233,0.010533,0.010163,0.003639,-0.5387,-0.033335,0.987401,-259.352697,0.216461,72.887023
0.375,0.021048,-0.029516,-0.035299,0.00226,0.010623,0.010258,0.002645,-0.539019,-0.035689,1.062482,-259.352697,0.291542,72.887023
0.3952,0.020954,-0.02917,-0.032368,0.002304,0.010707,0.010337,0.003016,-0.539183,-0.035331,1.062482,-259.352697,0.291542,72.887023
0.4152,0.02062,-0.029281,-0.035239,0.002343,0.010778,0.010402,0.003016,-0.539183,-0.035331,1.062482,-259.352697,0.291542,72.887023
0.4351,0.021079,-0.029194,-0.036353,0.002377,0.01084,0.010454,0.002652,-0.538964,-0.035239,1.137624,-259.352697,0.366684,72.887023
0.4552,0.020914,-0.02909,-0.034325,0.002419,0.010895,0.010498,0.002607,-0.53892,-0.035697,1.137624,-259.352697,0.366684,72.887023
0.4757,0.020593,-0.029398,-0.033444,0.002456,0.010943,0.010534,0.003412,-0.538789,-0.034325,1.212554,-259.352696,0.441614,72.887023
0.4956,0.020787,-0.028775,-0.036378,0.002462,0.010976,0.01056,0.003529,-0.539084,-0.033521,1.212554,-259.352696,0.441614,72.887023
0.5157,0.020582,-0.029405,-0.034581,0.002467,0.011004,0.010582,0.003529,-0.539084,-0.033521,1.212554,-259.352696,0.441614,72.887023
0.5355,0.020379,-0.029432,-0.035096,0.002473,0.01103,0.0106,0.002949,-0.5391,-0.034581,1.287511,-259.352693,0.516571,72.887024
0.5556,0.020752,-0.029566,-0.034623,0.002501,0.011058,0.010617,0.002759,-0.539107,-0.034791,1.287511,-259.352693,0.516571,72.887024
0.5754,0.020738,-0.029327,-0.035322,0.002525,0.011082,0.010632,0.003098,-0.539259,-0.034622,1.362503,-259.352665,0.591563,72.887032
0.5955,0.020584,-0.028892,-0.033344,0.002545,0.011103,0.010643,0.002759,-0.53903,-0.035263,1.362503,-259.352665,0.591563,72.887032
0.6162,0.020864,-0.029528,-0.033888,0.002563,0.01112,0.010652,0.002759,-0.53903,-0.035263,1.362503,-259.352665,0.591563,72.887032
0.6356,0.021117,-0.029509,-0.033045,0.002578,0.011135,0.01066,0.003587,-0.539226,-0.033878,1.428106,-259.352513,0.666619,72.887077
0.6554,0.020846,-0.029495,-0.033577,0.002559,0.011138,0.010663,0.003859,-0.539227,-0.033544,1.428106,-259.352513,0.666619,72.887077
0.6756,0.020657,-0.029243,-0.034248,0.002543,0.011141,0.010666,0.003734,-0.539182,-0.033549,1.425711,-259.351968,0.741588,72.887239
0.6959,0.020812,-0.028883,-0.034341,0.002548,0.01115,0.010671,0.003241,-0.538964,-0.034186,1.425711,-259.351968,0.741588,72.887239
0.7159,0.020012,-0.029144,-0.034645,0.002551,0.011158,0.010675,0.003241,-0.538964,-0.034186,1.425711,-259.351968,0.741588,72.887239
0.7356,0.020985,-0.029285,-0.03469,0.002555,0.011165,0.010678,0.002372,-0.538759,-0.034562,1.427732,-259.350716,0.816552,72.887609
0.7554,0.020626,-0.029038,-0.032809,0.002572,0.011175,0.010683,0.002749,-0.538839,-0.034604,1.427732,-259.350716,0.816552,72.887609
0.7757,0.020549,-0.029417,-0.033201,0.002588,0.011183,0.010686,0.003934,-0.538639,-0.032681,1.427347,-259.348141,0.891481,72.888373
0.7959,0.021033,-0.028794,-0.033953,0.002574,0.011182,0.010686,0.00365,-0.539084,-0.033147,1.427347,-259.348141,0.891481,72.888373
0.8158,0.020799,-0.028993,-0.033886,0.002563,0.011182,0.010686,0.00365,-0.539084,-0.033147,1.427347,-259.348141,0.891481,72.888373
0.8355,0.020368,-0.028611,-0.032856,0.002554,0.011182,0.010687,0.003604,-0.538414,-0.033601,1.425707,-259.343666,0.966458,72.889705
0.8554,0.020732,-0.028333,-0.034011,0.002543,0.011181,0.010763,0.003617,-0.538349,-0.033259,1.425707,-259.343666,0.966458,72.889705
0.8756,0.020238,-0.027941,-0.034193,0.002534,0.011181,0.010824,0.00347,-0.537744,-0.033724,1.427588,-259.337661,1.041957,72.891487
0.8957,0.020729,-0.02843,-0.032995,0.002548,0.011187,0.01092,0.00287,-0.537636,-0.034134,1.427588,-259.337661,1.041957,72.891487
0.9156,0.020709,-0.028202,-0.033847,0.002559,0.011192,0.010997,0.00287,-0.537636,-0.034134,1.427588,-259.337661,1.041957,72.891487
0.9353,0.02027,-0.027394,-0.0308,0.002569,0.011196,0.011058,0.003572,-0.53745,-0.033397,1.429313,-259.330531,1.064507,72.89356
0.9557,0.020104,-0.027637,-0.031797,0.00254,0.011188,0.011155,0.00399,-0.537275,-0.032288,1.429313,-259.330531,1.064507,72.89356
0.9756,0.020223,-0.027219,-0.031638,0.002515,0.011182,0.011233,0.003982,-0.537027,-0.031446,1.428648,-259.323304,1.046509,72.895605
0.9956,0.020114,-0.027507,-0.032258,0.002488,0.011175,0.011344,0.004085,-0.536952,-0.031605,1.428648,-259.323304,1.046509,72.895605
1.0156,0.019882,-0.027345,-0.032996,0.002465,0.01117,0.011434,0.004085,-0.536952,-0.031605,1.428648,-259.323304,1.046509,72.895605
1.0352,0.019992,-0.026361,-0.031471,0.002446,0.011166,0.011508,0.003178,-0.536601,-0.032524,1.432275,-259.316031,1.043679,72.897602
1.056,0.020366,-0.026492,-0.032112,0.002446,0.011169,0.011616,0.003497,-0.536352,-0.032051,1.432275,-259.316031,1.043679,72.897602
1.0753,0.019802,-0.025743,-0.030745,0.002446,0.011171,0.011704,0.00408,-0.535877,-0.031746,1.437162,-259.308685,1.036962,72.899525
1.0954,0.020318,-0.025666,-0.032241,0.002419,0.011164,0.011819,0.004125,-0.535517,-0.030816,1.437162,-259.308685,1.036962,72.899525
1.1152,0.020148,-0.026127,-0.031866,0.002397,0.011158,0.011912,0.004125,-0.535517,-0.030816,1.437162,-259.308685,1.036962,72.899525
1.1357,0.019755,-0.025504,-0.031608,0.002378,0.011155,0.011988,0.004016,-0.535405,-0.031378,1.43808,-259.301308,1.024517,72.901404
1.1556,0.019716,-0.02551,-0.031375,0.002369,0.011154,0.012092,0.003874,-0.535288,-0.031416,1.43808,-259.301308,1.024517,72.901404
1.175,0.019559,-0.024708,-0.029666,0.002361,0.011154,0.012177,0.003804,-0.534907,-0.030995,1.442773,-259.293871,1.015396,72.903205
1.1959,0.019689,-0.024932,-0.029116,0.002332,0.011145,0.012282,0.004382,-0.534503,-0.02976,1.442773,-259.293871,1.015396,72.903205
1.2155,0.019628,-0.024695,-0.030034,0.002307,0.011139,0.012369,0.004382,-0.534503,-0.02976,1.442773,-259.293871,1.015396,72.903205
1.2355,0.019618,-0.024467,-0.02712,0.002286,0.011134,0.01244,0.004426,-0.534,-0.029522,1.444458,-259.286401,1.004787,72.90496
1.2556,0.019491,-0.024201,-0.028878,0.002244,0.011121,0.01253,0.00498,-0.534059,-0.02851,1.444458,-259.286401,1.004787,72.90496
1.2751,0.019333,-0.024132,-0.028035,0.002207,0.011111,0.012604,0.004849,-0.533637,-0.028483,1.449344,-259.278849,0.996961,72.906646
1.2954,0.019137,-0.023449,-0.027963,0.002174,0.011102,0.012691,0.005025,-0.53389,-0.028054,1.449344,-259.278849,0.996961,72.906646
1.3152,0.019204,-0.023682,-0.028516,0.002145,0.011096,0.012764,0.005025,-0.53389,-0.028054,1.449344,-259.278849,0.996961,72.906646
1.3355,0.019634,-0.022749,-0.027763,0.002121,0.011091,0.012823,0.004768,-0.533013,-0.027989,1.453971,-259.271289,0.996774,72.908268
1.3554,0.019298,-0.022975,-0.026902,0.002089,0.011082,0.012889,0.005069,-0.532772,-0.027837,1.453971,-259.271289,0.996774,72.908268
1.3755,0.018687,-0.022652,-0.026792,0.002062,0.011075,0.012943,0.005657,-0.53244,-0.026494,1.459167,-259.263667,0.993806,72.909825
1.3957,0.019062,-0.022739,-0.027429,0.002036,0.011068,0.012999,0.005082,-0.532449,-0.026747,1.459167,-259.263667,0.993806,72.909825
1.4158,0.019095,-0.022458,-0.02853,0.002015,0.011064,0.013045,0.005082,-0.532449,-0.026747,1.459167,-259.263667,0.993806,72.909825
1.4359,0.018252,-0.021586,-0.027051,0.001997,0.01106,0.013084,0.004646,-0.531789,-0.027988,1.46258,-259.256043,0.994055,72.911335
1.4557,0.018572,-0.022041,-0.027041,0.001993,0.011061,0.013123,0.004583,-0.531581,-0.027554,1.46258,-259.256043,0.994055,72.911335
1.4755,0.018633,-0.021252,-0.026378,0.001989,0.011063,0.013155,0.004857,-0.531503,-0.026623,1.466374,-259.248373,0.994048,72.912801
1.4956,0.01818,-0.021838,-0.026233,0.001959,0.011052,0.013185,0.005158,-0.531095,-0.026378,1.466374,-259.248373,0.994048,72.912801
1.5156,0.018456,-0.021238,-0.026078,0.001933,0.011043,0.01321,0.005158,-0.531095,-0.026378,1.466374,-259.248373,0.994048,72.912801
1.535,0.018523,-0.020854,-0.025186,0.001911,0.011037,0.013231,0.005253,-0.530603,-0.025526,1.467002,-259.240703,0.989577,72.914248
1.5553,0.018348,-0.020798,-0.026431,0.001875,0.011024,0.013253,0.005436,-0.530587,-0.025326,1.467002,-259.240703,0.989577,72.914248
1.5753,0.017867,-0.019683,-0.024167,0.001846,0.011014,0.013271,0.00494,-0.530271,-0.026011,1.471189,-259.233019,0.996971,72.915656
1.5952,0.018217,-0.020141,-0.026193,0.001806,0.010999,0.01329,0.005495,-0.52958,-0.024304,1.471189,-259.233019,0.996971,72.915656
1.6155,0.018081,-0.020253,-0.02486,0.001772,0.010987,0.013306,0.005495,-0.52958,-0.024304,1.471189,-259.233019,0.996971,72.915656
1.6354,0.018128,-0.019809,-0.023927,0.001744,0.010977,0.01332,0.005492,-0.529636,-0.024304,1.474566,-259.225345,1.005396,72.917032
1.6554,0.017673,-0.019864,-0.024793,0.001712,0.010966,0.013335,0.005678,-0.529595,-0.024088,1.474566,-259.225345,1.005396,72.917032
1.6751,0.017782,-0.01934,-0.023387,0.001686,0.010958,0.013348,0.005093,-0.529361,-0.024371,1.479793,-259.217697,1.020402,72.918361
1.6953,0.017277,-0.019081,-0.024187,0.001653,0.010946,0.013362,0.005793,-0.529198,-0.023452,1.479793,-259.217697,1.020402,72.918361
1.7155,0.017575,-0.019711,-0.021809,0.001625,0.010937,0.013374,0.005793,-0.529198,-0.023452,1.479793,-259.217697,1.020402,72.918361
1.7352,0.017239,-0.018402,-0.022581,0.001602,0.01093,0.013384,0.006534,-0.529133,-0.02125,1.482817,-259.210037,1.029735,72.919668
1.7552,0.017837,-0.018752,-0.023155,0.001558,0.010912,0.013394,0.006213,-0.528729,-0.021729,1.482817,-259.210037,1.029735,72.919668
1.7752,0.017077,-0.018348,-0.022418,0.001521,0.010897,0.013403,0.006088,-0.52827,-0.022731,1.487139,-259.202394,1.044165,72.920939
1.7952,0.017463,-0.018153,-0.020009,0.001505,0.010893,0.013414,0.005687,-0.528207,-0.022424,1.487139,-259.202394,1.044165,72.920939
1.8158,0.017198,-0.018227,-0.021489,0.001491,0.01089,0.013424,0.005687,-0.528207,-0.022424,1.487139,-259.202394,1.044165,72.920939
1.8354,0.016749,-0.017518,-0.022261,0.001479,0.010888,0.013432,0.006313,-0.527653,-0.020925,1.491268,-259.194781,1.059624,72.922175
1.8556,0.016706,-0.017545,-0.022307,0.001446,0.010873,0.013439,0.005959,-0.527499,-0.02139,1.491268,-259.194781,1.059624,72.922175
1.8751,0.016601,-0.017204,-0.019985,0.001418,0.010862,0.013446,0.005385,-0.527071,-0.021878,1.493476,-259.187129,1.067148,72.9234
1.8955,0.016941,-0.016843,-0.02146,0.00137,0.010839,0.013451,0.006318,-0.527081,-0.020137,1.493476,-259.187129,1.067148,72.9234
1.9154,0.016681,-0.017031,-0.021287,0.001331,0.010822,0.013455,0.006318,-0.527081,-0.020137,1.493476,-259.187129,1.067148,72.9234
1.9352,0.016504,-0.01647,-0.020898,0.001297,0.010807,0.01346,0.005895,-0.526463,-0.020726,1.496611,-259.179498,1.079581,72.924599
1.9555,0.016254,-0.016571,-0.019934,0.001276,0.010799,0.013466,0.005883,-0.526368,-0.020731,1.496611,-259.179498,1.079581,72.924599
1.975,0.016522,-0.015826,-0.019015,0.001258,0.010793,0.013471,0.006136,-0.52613,-0.019511,1.502742,-259.17195,1.106059,72.925744
1.9952,0.015998,-0.015757,-0.017764,0.001188,0.010755,0.013472,0.006767,-0.525752,-0.019037,1.502742,-259.17195,1.106059,72.925744
2.0152,0.016087,-0.015592,-0.019159,0.001129,0.010724,0.013473,0.006767,-0.525752,-0.019037,1.502742,-259.17195,1.106059,72.925744
2.0356,0.015851,-0.015592,-0.018636,0.001079,0.010699,0.013475,0.006377,-0.525049,-0.018597,1.504772,-259.164331,1.114988,72.926886
2.0551,0.015755,-0.015447,-0.018962,0.001044,0.010684,0.013479,0.006372,-0.525184,-0.018548,1.504772,-259.164331,1.114988,72.926886
2.0752,0.015215,-0.014942,-0.018408,0.001015,0.010671,0.013482,0.006125,-0.525027,-0.018548,1.513864,-259.156992,1.158926,72.927929
2.0954,0.01557,-0.014859,-0.018231,0.00101,0.010672,0.013487,0.005855,-0.524854,-0.018399,1.513864,-259.156992,1.158926,72.927929
2.1151,0.015718,-0.014692,-0.019168,0.001006,0.010674,0.013491,0.005855,-0.524854,-0.018399,1.513864,-259.156992,1.158926,72.927929
2.1355,0.015122,-0.014119,-0.017423,0.001002,0.010675,0.013494,0.005993,-0.524156,-0.018608,1.517172,-259.14945,1.1762,72.928981
2.1553,0.015228,-0.014095,-0.017399,0.000967,0.010654,0.013494,0.0061,-0.524057,-0.018053,1.517172,-259.14945,1.1762,72.928981
2.1752,0.01496,-0.013833,-0.016893,0.000938,0.010638,0.013495,0.006393,-0.52368,-0.016971,1.517863,-259.14187,1.180056,72.930034
2.1954,0.014689,-0.013771,-0.01769,0.000893,0.010609,0.013492,0.006351,-0.523737,-0.016879,1.517863,-259.14187,1.180056,72.930034
2.2158,0.015029,-0.013769,-0.016669,0.000855,0.010587,0.013491,0.006351,-0.523737,-0.016879,1.517863,-259.14187,1.180056,72.930034
2.2352,0.01474,-0.01281,-0.016435,0.000823,0.010569,0.01349,0.006575,-0.523257,-0.016108,1.521171,-259.134368,1.197705,72.931055
2.2555,0.014562,-0.013248,-0.015466,0.00077,0.010533,0.013485,0.006492,-0.522997,-0.016176,1.521171,-259.134368,1.197705,72.931055
2.2753,0.014352,-0.012789,-0.014843,0.000724,0.010504,0.013481,0.006705,-0.522857,-0.015045,1.52705,-259.126973,1.231088,72.932025
2.2954,0.014212,-0.012503,-0.014668,0.000667,0.010464,0.013461,0.006777,-0.522727,-0.014839,1.52705,-259.126973,1.231088,72.932025
2.3157,0.014719,-0.012715,-0.015095,0.000618,0.010431,0.013446,0.006777,-0.522727,-0.014839,1.52705,-259.126973,1.231088,72.932025
2.3353,0.014044,-0.012114,-0.013789,0.000577,0.010405,0.013435,0.007056,-0.522224,-0.01454,1.532156,-259.119591,1.26198,72.932963
2.3554,0.014257,-0.012031,-0.014741,0.000512,0.010358,0.013408,0.007042,-0.52211,-0.014171,1.532156,-259.119591,1.26198,72.932963
2.3753,0.013666,-0.01178,-0.01414,0.000456,0.010319,0.013388,0.006761,-0.521659,-0.014332,1.539788,-259.112468,1.314191,72.933833
2.3954,0.013564,-0.011877,-0.014348,0.000427,0.010301,0.013371,0.006483,-0.521706,-0.014136,1.539788,-259.112468,1.314191,72.933833
2.4157,0.013505,-0.011785,-0.013797,0.000403,0.010286,0.013359,0.006483,-0.521706,-0.014136,1.539788,-259.112468,1.314191,72.933833
2.4356,0.013344,-0.011148,-0.012979,0.000381,0.010274,0.013349,0.006494,-0.521315,-0.013249,1.546126,-259.105326,1.360942,72.934679
2.4554,0.013673,-0.011129,-0.013641,0.000348,0.010248,0.013304,0.006587,-0.521186,-0.013083,1.546126,-259.105326,1.360942,72.934679
2.4755,0.013019,-0.010726,-0.01202,0.00032,0.010226,0.013268,0.006732,-0.52076,-0.013223,1.550099,-259.098075,1.392881,72.935527
2.4953,0.013,-0.010818,-0.012474,0.00027,0.010179,0.013191,0.006876,-0.520679,-0.012107,1.550099,-259.098075,1.392881,72.935527
2.5155,0.013324,-0.010428,-0.013416,0.000226,0.010142,0.013132,0.006876,-0.520679,-0.012107,1.550099,-259.098075,1.392881,72.935527
2.5354,0.012654,-0.010459,-0.012155,0.000189,0.010112,0.013086,0.006501,-0.519957,-0.012864,1.553334,-259.090837,1.421132,72.936375
2.5552,0.01291,-0.010247,-0.013018,0.000153,0.010085,0.01307,0.006485,-0.520095,-0.012519,1.553334,-259.090837,1.421132,72.936375
2.575,0.012904,-0.009924,-0.01148,0.000122,0.010063,0.013058,0.006281,-0.519901,-0.012625,1.560354,-259.084015,1.481851,72.937177
2.5953,0.012734,-0.009569,-0.010054,6.8e-05,0.010012,0.012992,0.006979,-0.519875,-0.011565,1.560354,-259.084015,1.481851,72.937177
2.6155,0.012593,-0.010082,-0.011767,2.2e-05,0.009971,0.012941,0.006979,-0.519875,-0.011565,1.560354,-259.084015,1.481851,72.937177
2.6353,0.012151,-0.009608,-0.009954,-1.8e-05,0.009939,0.012902,0.006602,-0.51963,-0.011226,1.564028,-259.076908,1.512377,72.938001
2.6552,0.012507,-0.009413,-0.010634,-4.5e-05,0.009907,0.012802,0.006793,-0.519564,-0.010653,1.564028,-259.076908,1.512377,72.938001
2.6751,0.012092,-0.008667,-0.010809,-6.9e-05,0.009882,0.012726,0.007087,-0.51909,-0.010252,1.571787,-259.070281,1.57937,72.938766
2.6958,0.011472,-0.008812,-0.00975,-0.000122,0.009827,0.012669,0.006625,-0.518663,-0.01074,1.571787,-259.070281,1.57937,72.938766
2.7164,0.011949,-0.008685,-0.010468,-0.000167,0.009783,0.012625,0.006625,-0.518663,-0.01074,1.571787,-259.070281,1.57937,72.938766
2.7359,0.011279,-0.008236,-0.009062,-0.000206,0.009748,0.012592,0.006612,-0.518243,-0.009934,1.57471,-259.063286,1.603539,72.939603
2.7557,0.011992,-0.008483,-0.010109,-0.000246,0.009687,0.012437,0.00663,-0.518186,-0.009534,1.57471,-259.063286,1.603539,72.939603
2.7754,0.011479,-0.007508,-0.009091,-0.000283,0.009639,0.012322,0.006833,-0.518168,-0.009736,1.58259,-259.0568,1.670452,72.940371
2.7956,0.011232,-0.00786,-0.008781,-0.000353,0.009544,0.012174,0.006842,-0.517534,-0.00913,1.58259,-259.0568,1.670452,72.940371
2.8157,0.011217,-0.007761,-0.007371,-0.000413,0.009469,0.012065,0.006842,-0.517534,-0.00913,1.58259,-259.0568,1.670452,72.940371
2.8353,0.010883,-0.007152,-0.007763,-0.000465,0.009409,0.011984,0.007449,-0.51735,-0.006865,1.587265,-259.050056,1.703794,72.941209
2.8554,0.011309,-0.007003,-0.007999,-0.00051,0.009305,0.011553,0.007234,-0.517218,-0.007173,1.587265,-259.050056,1.703794,72.941209
2.8754,0.010824,-0.006797,-0.007975,-0.000555,0.009224,0.011247,0.007229,-0.516986,-0.007999,1.598616,-259.050056,1.628794,72.941209
2.8954,0.011305,-0.00733,-0.008941,-0.000611,0.009165,0.01117,0.0068,-0.516799,-0.007977,1.598616,-259.050056,1.628794,72.941209
2.9156,0.011237,-0.007288,-0.008991,-0.00066,0.009117,0.011113,0.0068,-0.516799,-0.007977,1.598616,-259.050056,1.628794,72.941209
2.9353,0.01089,-0.007223,-0.007203,-0.000701,0.009078,0.011072,0.006651,-0.517268,-0.008991,1.60525,-259.050055,1.5538,72.941209
2.9552,0.01122,-0.007247,-0.008862,-0.000722,0.009082,0.011069,0.006882,-0.517244,-0.008263,1.60525,-259.050055,1.5538,72.941209
2.9754,0.010803,-0.007285,-0.008237,-0.000739,0.009084,0.011066,0.006701,-0.517227,-0.008862,1.615029,-259.050054,1.478796,72.941209
2.9954,0.010731,-0.007483,-0.007629,-0.000737,0.009108,0.011041,0.006612,-0.517264,-0.008294,1.615029,-259.050054,1.478796,72.941209
3.0158,0.010943,-0.007338,-0.00827,-0.000735,0.009126,0.01102,0.006612,-0.517264,-0.008294,1.615029,-259.050054,1.478796,72.941209
3.0354,0.010718,-0.007337,-0.008072,-0.000734,0.009141,0.011002,0.006725,-0.517321,-0.00827,1.617435,-259.050054,1.403796,72.941209
3.0557,0.011057,-0.007582,-0.008334,-0.00073,0.009156,0.010941,0.006675,-0.517321,-0.008189,1.617435,-259.050054,1.403796,72.941209
3.0763,0.011042,-0.007419,-0.007251,-0.000728,0.009168,0.010891,0.006807,-0.517564,-0.008334,1.617018,-259.050053,1.32879,72.941208
3.0955,0.010979,-0.007099,-0.008143,-0.000737,0.009148,0.010686,0.007277,-0.517425,-0.007386,1.617018,-259.050053,1.32879,72.941208
3.1155,0.010712,-0.007775,-0.010606,-0.000747,0.009133,0.010531,0.007277,-0.517425,-0.007386,1.617018,-259.050053,1.32879,72.941208
3.1353,0.010948,-0.007355,-0.007822,-0.000757,0.009123,0.010412,0.005303,-0.517746,-0.010606,1.616758,-259.050052,1.253659,72.941208
3.1553,0.011259,-0.007064,-0.009639,-0.000711,0.009215,0.010547,0.005977,-0.517581,-0.009473,1.616758,-259.050052,1.253659,72.941208
3.1752,0.011173,-0.007426,-0.008731,-0.000671,0.009287,0.010648,0.006343,-0.51704,-0.009639,1.619673,-259.050052,1.178688,72.941208
3.1955,0.011026,-0.007324,-0.006715,-0.000681,0.009289,0.010615,0.006688,-0.517375,-0.008808,1.619673,-259.050052,1.178688,72.941208
3.2155,0.01113,-0.007089,-0.00876,-0.000689,0.00929,0.010586,0.006688,-0.517375,-0.008808,1.619673,-259.050052,1.178688,72.941208
3.2354,0.011085,-0.007208,-0.007169,-0.000695,0.009291,0.010559,0.006663,-0.517069,-0.00876,1.613252,-259.050051,1.103661,72.941208
3.2553,0.010873,-0.007183,-0.007496,-0.000716,0.009257,0.010403,0.006977,-0.517121,-0.008108,1.613252,-259.050051,1.103661,72.941208
3.2755,0.011371,-0.007063,-0.009034,-0.000735,0.00923,0.010282,0.00705,-0.517168,-0.007496,1.614904,-259.050051,1.028683,72.941208
3.2955,0.011264,-0.007722,-0.008923,-0.000751,0.009226,0.010231,0.006789,-0.517053,-0.008903,1.614904,-259.050051,1.028683,72.941208
3.3156,0.011134,-0.00766,-0.008886,-0.000764,0.009223,0.010187,0.006789,-0.517053,-0.008903,1.614904,-259.050051,1.028683,72.941208
3.3352,0.011036,-0.007374,-0.008488,-0.000774,0.009219,0.01015,0.006602,-0.51764,-0.008886,1.618132,-259.05005,0.953651,72.941208
3.3556,0.011208,-0.007153,-0.009384,-0.000749,0.009255,0.010051,0.006645,-0.517523,-0.008722,1.618132,-259.05005,0.953651,72.941208
3.3753,0.010781,-0.007157,-0.007421,-0.000728,0.009283,0.00997,0.006422,-0.51713,-0.009384,1.620964,-259.050049,0.878696,72.941208
3.3953,0.010894,-0.007551,-0.008798,-0.00073,0.009258,0.009757,0.006947,-0.517142,-0.007589,1.620964,-259.050049,0.878696,72.941208
3.4155,0.010814,-0.007155,-0.008016,-0.000733,0.009239,0.009598,0.006947,-0.517142,-0.007589,1.620964,-259.050049,0.878696,72.941208
3.4357,0.011019,-0.007348,-0.0086,-0.000738,0.009224,0.009479,0.006726,-0.517138,-0.008016,1.618142,-259.050049,0.803643,72.941208
3.4553,0.010988,-0.007336,-0.00872,-0.000736,0.009236,0.009478,0.006688,-0.517217,-0.008257,1.618142,-259.050049,0.803643,72.941208
3.4755,0.010953,-0.007573,-0.008408,-0.000734,0.009247,0.009476,0.006541,-0.517317,-0.00872,1.619938,-259.050048,0.728683,72.941207
3.4953,0.010942,-0.007128,-0.008912,-0.000717,0.009277,0.009495,0.006655,-0.517535,-0.008435,1.619938,-259.050048,0.728683,72.941207
3.5156,0.010826,-0.007245,-0.008763,-0.000702,0.009302,0.009507,0.006655,-0.517535,-0.008435,1.619938,-259.050048,0.728683,72.941207
3.5354,0.010934,-0.007145,-0.008885,-0.00069,0.009321,0.009515,0.006356,-0.517225,-0.008763,1.619597,-259.050048,0.653657,72.941207
3.5554,0.011058,-0.007295,-0.008762,-0.000685,0.009333,0.009558,0.006375,-0.517184,-0.008813,1.619597,-259.050048,0.653657,72.941207
3.5754,0.011163,-0.007662,-0.007995,-0.00068,0.009342,0.009589,0.006589,-0.517275,-0.008762,1.616366,-259.050047,0.578792,72.941207
3.5953,0.010946,-0.007304,-0.008573,-0.000682,0.009334,0.009528,0.00704,-0.517612,-0.008065,1.616366,-259.050047,0.578792,72.941207
3.6154,0.011036,-0.007379,-0.009701,-0.000685,0.009327,0.009482,0.00704,-0.517612,-0.008065,1.616366,-259.050047,0.578792,72.941207
3.6353,0.010947,-0.00719,-0.007482,-0.000688,0.009322,0.009448,0.006089,-0.517355,-0.009701,1.615509,-259.050046,0.503796,72.941207
3.6554,0.010663,-0.007436,-0.008121,-0.000687,0.009332,0.009503,0.006515,-0.517282,-0.008794,1.615509,-259.050046,0.503796,72.941207
3.6752,0.01082,-0.007574,-0.009458,-0.000685,0.00934,0.009543,0.006521,-0.517419,-0.008121,1.616354,-259.050046,0.428797,72.941207
3.6952,0.011034,-0.007036,-0.007206,-0.000646,0.009392,0.009623,0.006045,-0.517539,-0.009335,1.616354,-259.050046,0.428797,72.941207
3.7152,0.010822,-0.007153,-0.008759,-0.000613,0.009433,0.009682,0.006045,-0.517539,-0.009335,1.616354,-259.050046,0.428797,72.941207
3.7356,0.010925,-0.007125,-0.00884,-0.000584,0.009465,0.009727,0.006355,-0.517133,-0.008759,1.615944,-259.050045,0.35374,72.941207
3.7553,0.010889,-0.007649,-0.008245,-0.000596,0.009442,0.009708,0.00638,-0.517122,-0.008792,1.615944,-259.050045,0.35374,72.941207
3.7752,0.010646,-0.007293,-0.008241,-0.000606,0.009424,0.009693,0.006684,-0.517631,-0.008245,1.608685,-259.050045,0.428686,72.941207
3.7954,0.010927,-0.006913,-0.009036,-0.000603,0.009413,0.009622,0.006465,-0.517307,-0.008241,1.608685,-259.050045,0.428686,72.941207
3.8156,0.010926,-0.007529,-0.008535,-0.000601,0.009405,0.009569,0.006465,-0.517307,-0.008241,1.608685,-259.050045,0.428686,72.941207
3.8354,0.011045,-0.007228,-0.008068,-0.0006,0.009399,0.009529,0.006573,-0.517511,-0.008535,1.610277,-259.050044,0.503686,72.941207
3.8555,0.010886,-0.007306,-0.008164,-0.000613,0.009385,0.009512,0.006719,-0.517389,-0.008345,1.610277,-259.050044,0.503686,72.941207
3.8753,0.010826,-0.007328,-0.007555,-0.000623,0.009375,0.009499,0.006722,-0.517289,-0.008164,1.61023,-259.050043,0.578699,72.941207
3.8953,0.010994,-0.007269,-0.008427,-0.000637,0.009343,0.009391,0.006951,-0.517311,-0.007609,1.61023,-259.050043,0.578699,72.941207
3.9159,0.011113,-0.007495,-0.007645,-0.000651,0.009319,0.009314,0.006951,-0.517311,-0.007609,1.61023,-259.050043,0.578699,72.941207
3.9351,0.010754,-0.007145,-0.00656,-0.000663,0.0093,0.009258,0.007214,-0.51748,-0.007645,1.611828,-259.050043,0.653684,72.941207
3.9556,0.010936,-0.007264,-0.009538,-0.000684,0.009265,0.009152,0.007294,-0.517339,-0.007201,1.611828,-259.050043,0.653684,72.941207
3.9757,0.010843,-0.007301,-0.007913,-0.000703,0.009238,0.009077,0.006071,-0.51724,-0.009538,1.615121,-259.050042,0.578683,72.941207
3.9962,0.011112,-0.006979,-0.008406,-0.000708,0.009251,0.009149,0.006724,-0.51728,-0.008098,1.615121,-259.050042,0.578683,72.941207
4.0155,0.010951,-0.007307,-0.008197,-0.000711,0.009261,0.009205,0.006724,-0.51728,-0.008098,1.615121,-259.050042,0.578683,72.941207
4.0356,0.010657,-0.007452,-0.008887,-0.000713,0.009269,0.009247,0.006771,-0.51729,-0.008197,1.618311,-259.050041,0.503659,72.941207
4.0558,0.01077,-0.007053,-0.007438,-0.000704,0.009293,0.00932,0.006514,-0.517346,-0.008471,1.618311,-259.050041,0.503659,72.941207
4.0752,0.010827,-0.007154,-0.009155,-0.000695,0.009312,0.009376,0.006976,-0.517039,-0.007438,1.618566,-259.050041,0.428682,72.941207
4.0959,0.011095,-0.007114,-0.007516,-0.000687,0.009332,0.009466,0.006233,-0.517124,-0.008997,1.618566,-259.050041,0.428682,72.941207
4.1158,0.01107,-0.00748,-0.009107,-0.000679,0.009347,0.009534,0.006233,-0.517124,-0.008997,1.618566,-259.050041,0.428682,72.941207
4.1358,0.010776,-0.007366,-0.007822,-0.000672,0.009359,0.009585,0.006426,-0.517459,-0.009107,1.616969,-259.05004,0.353681,72.941207
4.1554,0.01089,-0.007049,-0.008784,-0.000665,0.009365,0.009585,0.006571,-0.517416,-0.008592,1.616969,-259.05004,0.353681,72.941207
4.1751,0.011116,-0.007554,-0.007866,-0.00066,0.009369,0.009584,0.00641,-0.517029,-0.008784,1.614915,-259.05004,0.278682,72.941207
4.1953,0.011059,-0.0072,-0.009015,-0.000669,0.009347,0.009505,0.007042,-0.517492,-0.007949,1.614915,-259.05004,0.278682,72.941207
4.2155,0.011395,-0.0073,-0.008637,-0.000678,0.009329,0.009446,0.007042,-0.517492,-0.007949,1.614915,-259.05004,0.278682,72.941207
4.2355,0.010835,-0.007177,-0.00815,-0.000686,0.009316,0.009404,0.00699,-0.517281,-0.008637,1.614141,-259.050039,0.20368,72.941206
4.2555,0.010991,-0.006999,-0.008038,-0.000704,0.009302,0.00943,0.006866,-0.517233,-0.008442,1.614141,-259.050039,0.20368,72.941206
4.2755,0.011267,-0.007534,-0.009222,-0.000718,0.00929,0.00945,0.006891,-0.516983,-0.008038,1.616337,-259.050038,0.12857,72.941206
4.2959,0.011289,-0.00727,-0.009028,-0.000711,0.009314,0.009531,0.006592,-0.517466,-0.009118,1.616337,-259.050038,0.12857,72.941206
4.3154,0.010713,-0.007369,-0.009031,-0.000703,0.009333,0.009592,0.006592,-0.517466,-0.009118,1.616337,-259.050038,0.12857,72.941206
4.3354,0.011137,-0.007452,-0.009338,-0.000697,0.009348,0.009638,0.006108,-0.517348,-0.009031,1.618435,-259.050038,0.053623,72.941206
4.3552,0.010731,-0.007209,-0.008945,-0.000672,0.009378,0.009678,0.006216,-0.517381,-0.009155,1.618435,-259.050038,0.053623,72.941206
4.3754,0.011136,-0.007237,-0.00789,-0.00065,0.009401,0.009707,0.006169,-0.517189,-0.008945,1.616487,-259.050037,-0.021321,72.941206
4.3955,0.011214,-0.007476,-0.007831,-0.000672,0.009355,0.009597,0.007023,-0.517218,-0.00799,1.616487,-259.050037,-0.021321,72.941206
4.4152,0.011072,-0.00746,-0.009251,-0.000691,0.009318,0.009516,0.007023,-0.517218,-0.00799,1.616487,-259.050037,-0.021321,72.941206
4.4356,0.01099,-0.007058,-0.00849,-0.000708,0.00929,0.009457,0.006354,-0.517438,-0.009251,1.613186,-259.050037,-0.09632,72.941206
4.4556,0.011283,-0.006968,-0.005717,-0.000702,0.009308,0.00952,0.006479,-0.517275,-0.00894,1.613186,-259.050037,-0.09632,72.941206
4.4753,0.010884,-0.007327,-0.008184,-0.000697,0.009322,0.009567,0.008367,-0.51696,-0.005717,1.617762,-259.050036,-0.171366,72.941206
4.4955,0.011225,-0.007186,-0.00879,-0.000701,0.009306,0.009493,0.006857,-0.517279,-0.007966,1.617762,-259.050036,-0.171366,72.941206
4.5154,0.010928,-0.007229,-0.009324,-0.000705,0.009294,0.009439,0.006857,-0.517279,-0.007966,1.617762,-259.050036,-0.171366,72.941206
4.5352,0.010949,-0.007121,-0.008995,-0.000709,0.009284,0.0094,0.006173,-0.517206,-0.009324,1.616729,-259.050035,-0.246369,72.941206
4.5553,0.010865,-0.007506,-0.010547,-0.000698,0.009311,0.009498,0.006249,-0.517163,-0.00919,1.616729,-259.050035,-0.246369,72.941206
4.5751,0.011106,-0.007623,-0.008839,-0.000688,0.009333,0.009572,0.005487,-0.517478,-0.010547,1.617934,-259.050035,-0.321372,72.941205
4.5956,0.010746,-0.007177,-0.008828,-0.000671,0.00936,0.009613,0.0065,-0.517592,-0.00899,1.617934,-259.050035,-0.321372,72.941205
4.616,0.010726,-0.007233,-0.007917,-0.000656,0.009382,0.009643,0.0065,-0.517592,-0.00899,1.617934,-259.050035,-0.321372,72.941205
4.6355,0.010972,-0.007409,-0.008548,-0.000643,0.009399,0.009666,0.006689,-0.517217,-0.007917,1.61611,-259.050034,-0.396367,72.941205
4.6554,0.010838,-0.007272,-0.008761,-0.000646,0.00938,0.009592,0.006658,-0.517286,-0.00817,1.61611,-259.050034,-0.396367,72.941205
4.6754,0.010705,-0.00743,-0.009355,-0.000649,0.009366,0.009538,0.006369,-0.517252,-0.008761,1.612783,-259.050034,-0.471429,72.941205
4.6959,0.011123,-0.007274,-0.008592,-0.000618,0.009408,0.009613,0.005973,-0.517394,-0.009302,1.612783,-259.050034,-0.471429,72.941205
4.7161,0.011022,-0.007399,-0.008995,-0.000591,0.009441,0.00967,0.005973,-0.517394,-0.009302,1.612783,-259.050034,-0.471429,72.941205
4.7359,0.011119,-0.00723,-0.008091,-0.000567,0.009467,0.009713,0.006434,-0.517379,-0.008995,1.613491,-259.050033,-0.546344,72.941205
4.7555,0.010853,-0.007372,-0.008845,-0.000587,0.009439,0.009678,0.006659,-0.517312,-0.008631,1.613491,-259.050033,-0.546344,72.941205
4.7753,0.011008,-0.007561,-0.009503,-0.000603,0.009416,0.009652,0.006341,-0.517352,-0.008845,1.607631,-259.050032,-0.62148,72.941205
4.7956,0.010712,-0.007457,-0.009934,-0.000586,0.009443,0.009709,0.006177,-0.517522,-0.009448,1.607631,-259.050032,-0.62148,72.941205
4.8158,0.011376,-0.007381,-0.009044,-0.000571,0.009464,0.009752,0.006177,-0.517522,-0.009448,1.607631,-259.050032,-0.62148,72.941205
4.8354,0.011114,-0.007152,-0.010007,-0.000558,0.00948,0.009784,0.006763,-0.51736,-0.009044,1.610163,-259.050032,-0.696498,72.941205
4.8554,0.011279,-0.007186,-0.008767,-0.000578,0.00946,0.009803,0.006465,-0.517268,-0.009425,1.610163,-259.050032,-0.696498,72.941205
4.8754,0.010918,-0.007309,-0.008064,-0.000593,0.009444,0.009817,0.006808,-0.517166,-0.008767,1.606907,-259.05003,-0.771321,72.941204
4.8952,0.011032,-0.007701,-0.008556,-0.000608,0.009405,0.009691,0.006806,-0.517282,-0.008124,1.606907,-259.05003,-0.771321,72.941204
4.9157,0.010841,-0.007206,-0.008139,-0.000622,0.009376,0.009599,0.006806,-0.517282,-0.008124,1.606907,-259.05003,-0.771321,72.941204
4.9355,0.01087,-0.007639,-0.007548,-0.000636,0.009352,0.009532,0.00669,-0.517189,-0.008138,1.609199,-259.050023,-0.846457,72.941203
4.9553,0.011236,-0.007301,-0.007026,-0.000642,0.009337,0.009454,0.006826,-0.517369,-0.007895,1.609199,-259.050023,-0.846457,72.941203
4.9753,0.011018,-0.007299,-0.007251,-0.000648,0.009326,0.009398,0.007653,-0.517287,-0.007024,1.612678,-259.049983,-0.921457,72.941193
4.9957,0.011183,-0.006946,-0.007895,-0.000673,0.009278,0.009253,0.007348,-0.517285,-0.007232,1.612678,-259.049983,-0.921457,72.941193
5.0152,0.011304,-0.007287,-0.007812,-0.000697,0.009241,0.00915,0.007348,-0.517285,-0.007232,1.612678,-259.049983,-0.921457,72.941193
5.0355,0.010753,-0.007147,-0.008012,-0.000719,0.009212,0.009078,0.007318,-0.517262,-0.007802,1.613765,-259.04983,-0.996458,72.941156
5.0555,0.010965,-0.007393,-0.008612,-0.000739,0.009205,0.009122,0.007047,-0.517206,-0.007888,1.613765,-259.04983,-0.996458,72.941156
5.0755,0.010822,-0.007103,-0.007707,-0.000755,0.009199,0.009156,0.006569,-0.517347,-0.008585,1.619499,-259.049283,-1.071557,72.941018
5.0952,0.011178,-0.007497,-0.008779,-0.000762,0.009198,0.009169,0.006864,-0.517109,-0.007781,1.619499,-259.049283,-1.071557,72.941018
5.1152,0.010867,-0.007382,-0.009781,-0.000768,0.009197,0.00918,0.006864,-0.517109,-0.007781,1.619499,-259.049283,-1.071557,72.941018
5.135,0.010952,-0.006829,-0.007129,-0.000772,0.009196,0.009188,0.005868,-0.517263,-0.009684,1.621815,-259.047811,-1.146469,72.940652
5.1553,0.011094,-0.007126,-0.008115,-0.000767,0.00922,0.00929,0.006463,-0.517068,-0.00862,1.621815,-259.047811,-1.146469,72.940652
5.1755,0.010829,-0.006928,-0.008651,-0.000761,0.009239,0.009368,0.006941,-0.516969,-0.007972,1.622904,-259.044945,-1.221469,72.939943
5.1954,0.010844,-0.00708,-0.00839,-0.000763,0.009243,0.009421,0.006464,-0.516907,-0.00858,1.622904,-259.044945,-1.221469,72.939943
5.2153,0.010704,-0.006691,-0.007522,-0.000763,0.009245,0.009461,0.006464,-0.516907,-0.00858,1.622904,-259.044945,-1.221469,72.939943
5.2355,0.010408,-0.006765,-0.009075,-0.000763,0.009247,0.009491,0.006843,-0.516391,-0.007229,1.6216,-259.0405,-1.296309,72.938875
5.2553,0.010509,-0.006755,-0.009912,-0.000775,0.009212,0.009496,0.006406,-0.516502,-0.007949,1.6216,-259.0405,-1.296309,72.938875
5.2752,0.010331,-0.006221,-0.006532,-0.000785,0.009185,0.009504,0.005434,-0.51645,-0.009625,1.621481,-259.034768,-1.353129,72.93753
5.2952,0.010119,-0.005853,-0.008308,-0.000814,0.0091,0.009342,0.006864,-0.516217,-0.006784,1.621481,-259.034768,-1.353129,72.93753
5.3158,0.010033,-0.00601,-0.008485,-0.000841,0.009034,0.009233,0.006864,-0.516217,-0.006784,1.621481,-259.034768,-1.353129,72.93753
5.3351,0.009961,-0.005624,-0.005925,-0.000867,0.008983,0.00916,0.005676,-0.515608,-0.008088,1.623091,-259.028786,-1.342697,72.936147
5.3552,0.010046,-0.005685,-0.006755,-0.000897,0.008924,0.009211,0.006188,-0.515567,-0.00716,1.623091,-259.028786,-1.342697,72.936147
5.3755,0.009575,-0.005046,-0.006598,-0.000922,0.008877,0.009255,0.006575,-0.51539,-0.006467,1.630214,-259.022985,-1.320232,72.934758
5.3956,0.009867,-0.0052,-0.006897,-0.000964,0.008774,0.009203,0.006239,-0.515051,-0.006573,1.630214,-259.022985,-1.320232,72.934758
5.4154,0.009473,-0.004938,-0.006707,-0.001001,0.008692,0.009173,0.006239,-0.515051,-0.006573,1.630214,-259.022985,-1.320232,72.934758
5.4358,0.009368,-0.005121,-0.005261,-0.001032,0.008627,0.009158,0.006016,-0.51456,-0.006325,1.634176,-259.017246,-1.292285,72.933436
5.4552,0.009197,-0.004776,-0.006223,-0.001065,0.008527,0.009007,0.006283,-0.514742,-0.00585,1.634176,-259.017246,-1.292285,72.933436
5.4752,0.009025,-0.004346,-0.006297,-0.001095,0.008449,0.008907,0.005993,-0.514502,-0.005943,1.643271,-259.011756,-1.242798,72.932202
5.4957,0.008854,-0.004615,-0.00534,-0.001128,0.008364,0.008953,0.005827,-0.514337,-0.006255,1.643271,-259.011756,-1.242798,72.932202
5.5152,0.008751,-0.004187,-0.005329,-0.001155,0.008295,0.008994,0.005827,-0.514337,-0.006255,1.643271,-259.011756,-1.242798,72.932202
5.5351,0.008698,-0.004119,-0.003505,-0.001178,0.00824,0.009028,0.005989,-0.51383,-0.00496,1.649488,-259.006229,-1.221745,72.930931
5.5554,0.009291,-0.00409,-0.004316,-0.001198,0.008082,0.008517,0.006364,-0.513907,-0.004317,1.649488,-259.006229,-1.221745,72.930931
5.5754,0.008478,-0.003718,-0.004822,-0.001225,0.007962,0.008167,0.007055,-0.513837,-0.004045,1.656201,-259.001007,-1.163067,72.929808
5.5957,0.008688,-0.003168,-0.003345,-0.001263,0.007855,0.008076,0.006104,-0.513711,-0.004744,1.656201,-259.001007,-1.163067,72.929808
5.6163,0.008746,-0.004084,-0.00373,-0.001299,0.007771,0.008019,0.006104,-0.513711,-0.004744,1.656201,-259.001007,-1.163067,72.929808
5.6355,0.00842,-0.002941,-0.003398,-0.00133,0.007704,0.007985,0.006793,-0.513749,-0.003391,1.665122,-258.995837,-1.179953,72.92853
5.6557,0.008568,-0.003302,-0.004032,-0.001357,0.007551,0.007476,0.006744,-0.513377,-0.003355,1.665122,-258.995837,-1.179953,72.92853
5.6758,0.008114,-0.00297,-0.00364,-0.001391,0.007434,0.007128,0.006472,-0.513062,-0.003789,1.676127,-258.99097,-1.131053,72.927328
5.6956,0.007844,-0.002487,-0.00201,-0.00143,0.007302,0.007008,0.006273,-0.512963,-0.003641,1.676127,-258.99097,-1.131053,72.927328
5.7152,0.008038,-0.002721,-0.00405,-0.001467,0.007199,0.006929,0.006273,-0.512963,-0.003641,1.676127,-258.99097,-1.131053,72.927328
5.7354,0.007683,-0.002131,-0.003603,-0.0015,0.007117,0.00688,0.005915,-0.512408,-0.003755,1.688273,-258.986264,-1.146649,72.925988
5.7556,0.007916,-0.002753,-0.003483,-0.001524,0.006948,0.006867,0.00588,-0.512258,-0.003659,1.688273,-258.986264,-1.146649,72.925988
5.775,0.007937,-0.00195,-0.004186,-0.001546,0.006813,0.00686,0.006095,-0.512533,-0.003273,1.702545,-258.981891,-1.095609,72.924732
5.7954,0.007418,-0.002016,-0.002688,-0.001579,0.006663,0.007015,0.005825,-0.511985,-0.004098,1.702545,-258.981891,-1.095609,72.924732
5.8158,0.00739,-0.002122,-0.003998,-0.001605,0.006542,0.007125,0.005825,-0.511985,-0.004098,1.702545,-258.981891,-1.095609,72.924732
5.835,0.007708,-0.002182,-0.003051,-0.001626,0.006444,0.007204,0.00529,-0.511845,-0.003724,1.710385,-258.977667,-1.038308,72.923575
5.8552,0.007456,-0.00152,-0.003679,-0.001612,0.00636,0.007013,0.005635,-0.511951,-0.003418,1.710385,-258.977667,-1.038308,72.923575
5.875,0.007379,-0.001475,-0.001139,-0.001604,0.006294,0.006877,0.005544,-0.511366,-0.003514,1.719586,-258.974468,-0.96311,72.922813
5.8952,0.007449,-0.001491,-0.001282,-0.001597,0.006105,0.005813,0.006688,-0.511458,-0.001335,1.719586,-258.974468,-0.96311,72.922813
5.9152,0.006997,-0.001399,-0.00267,-0.001608,0.005963,0.005065,0.006688,-0.511458,-0.001335,1.719586,-258.974468,-0.96311,72.922813
5.935,0.006872,-0.001127,-0.000485,-0.001629,0.005856,0.004542,0.005571,-0.511142,-0.002392,1.722471,-258.970366,-0.917097,72.921793
5.9553,0.006612,-0.001282,-0.003522,-0.001632,0.005728,0.004315,0.005994,-0.511106,-0.001581,1.722471,-258.970366,-0.917097,72.921793
5.975,0.006997,-0.001296,-0.00373,-0.00164,0.005627,0.004157,0.004816,-0.511279,-0.003522,1.647481,-258.970366,-0.992087,72.921793
5.9952,0.007082,-0.001275,-0.002542,-0.001654,0.005635,0.004923,0.005071,-0.511291,-0.003712,1.647481,-258.970366,-0.992087,72.921793
6.0159,0.007229,-0.001482,-0.002765,-0.001654,0.005635,0.005483,0.005071,-0.511291,-0.003712,1.647481,-258.970366,-0.992087,72.921793
6.0357,0.006761,-0.000673,-0.001489,-0.001647,0.005629,0.005887,0.005819,-0.51148,-0.002765,1.572441,-258.970366,-1.067127,72.921793
6.0556,0.007289,-0.001312,-0.003125,-0.001648,0.005567,0.005584,0.005894,-0.511151,-0.002245,1.572441,-258.970366,-1.067127,72.921793
6.0753,0.006663,-0.001338,-0.001479,-0.001653,0.005519,0.005368,0.005695,-0.511309,-0.003125,1.497584,-258.970366,-0.99227,72.921793
6.0956,0.006541,-0.001495,-0.001168,-0.001648,0.005515,0.004912,0.005891,-0.511335,-0.001618,1.497584,-258.970366,-0.99227,72.921793
6.1156,0.00678,-0.001272,-0.003192,-0.00165,0.005516,0.004589,0.005891,-0.511335,-0.001618,1.497584,-258.970366,-0.99227,72.921793
6.1356,0.006568,-0.001313,-0.001515,-0.001657,0.005519,0.00436,0.005152,-0.511269,-0.003192,1.422414,-258.970367,-0.935097,72.921793
6.1555,0.006897,-0.001488,-0.002397,-0.001666,0.005545,0.004604,0.005418,-0.511287,-0.0025,1.422414,-258.970367,-0.935097,72.921793
6.1755,0.00686,-0.001041,-0.003339,-0.001669,0.005563,0.004777,0.005674,-0.511487,-0.002397,1.347402,-258.970367,-1.010109,72.921793
6.1956,0.006911,-0.001667,-0.001699,-0.001677,0.005553,0.00519,0.005201,-0.511077,-0.003258,1.347402,-258.970367,-1.010109,72.921793
6.2158,0.006887,-0.001172,-0.002849,-0.001677,0.005542,0.005483,0.005201,-0.511077,-0.003258,1.347402,-258.970367,-1.010109,72.921793
6.2354,0.00667,-0.001712,-0.001774,-0.001672,0.00553,0.005689,0.005434,-0.51117,-0.002849,1.272454,-258.970367,-1.007927,72.921793
6.2555,0.007029,-0.001301,-0.003116,-0.001663,0.00557,0.005481,0.00557,-0.511393,-0.002406,1.272454,-258.970367,-1.007927,72.921793
6.2752,0.006949,-0.000897,-0.003287,-0.001658,0.005602,0.005332,0.005439,-0.511299,-0.003116,1.197501,-258.970368,-0.932974,72.921793
6.2953,0.006728,-0.001222,-0.003652,-0.001665,0.005561,0.005563,0.005288,-0.510931,-0.003272,1.197501,-258.970368,-0.932974,72.921793
6.3161,0.00688,-0.001386,-0.001959,-0.001667,0.005526,0.005723,0.005288,-0.510931,-0.003272,1.197501,-258.970368,-0.932974,72.921793
6.3354,0.00678,-0.001347,-0.001787,-0.001665,0.005496,0.005833,0.005881,-0.511385,-0.001959,1.122557,-258.970368,-0.955631,72.921792
6.3553,0.006935,-0.000956,-0.003681,-0.001657,0.005531,0.005322,0.005876,-0.511369,-0.001889,1.122557,-258.970368,-0.955631,72.921792
6.3752,0.006882,-0.00143,-0.002513,-0.001657,0.005563,0.004962,0.005058,-0.510952,-0.003681,1.047483,-258.970368,-0.880557,72.921792
6.3952,0.007133,-0.001439,-0.002659,-0.001666,0.005626,0.005011,0.005553,-0.511387,-0.002614,1.047483,-258.970368,-0.880557,72.921792
6.4158,0.006996,-0.001198,-0.001158,-0.001672,0.005675,0.005042,0.005553,-0.511387,-0.002614,1.047483,-258.970368,-0.880557,72.921792
6.4354,0.007144,-0.001222,-0.001908,-0.001677,0.005713,0.005061,0.006405,-0.511197,-0.001158,0.972493,-258.970369,-0.955547,72.921792
6.4553,0.006896,-0.001427,-0.001636,-0.001686,0.005676,0.004558,0.00631,-0.511207,-0.001463,0.972493,-258.970369,-0.955547,72.921792
6.4756,0.006835,-0.001442,-0.000982,-0.001701,0.005651,0.004206,0.006062,-0.511426,-0.001636,0.897384,-258.970369,-1.001992,72.921792
6.4953,0.00697,-0.00136,-0.002488,-0.001706,0.005668,0.00374,0.006311,-0.51144,-0.001038,0.897384,-258.970369,-1.001992,72.921792
6.5159,0.006692,-0.000787,-0.002482,-0.001716,0.005687,0.003414,0.006311,-0.51144,-0.001038,0.897384,-258.970369,-1.001992,72.921792
6.5354,0.006927,-0.000916,-0.002873,-0.00173,0.005706,0.003185,0.005426,-0.510785,-0.002482,0.822471,-258.970369,-1.06653,72.921792
6.5556,0.006593,-0.00133,-0.001296,-0.001749,0.005649,0.003753,0.005441,-0.510838,-0.002642,0.822471,-258.970369,-1.06653,72.921792
6.5752,0.006911,-0.001285,-0.003262,-0.001756,0.0056,0.004159,0.005933,-0.51133,-0.001296,0.747493,-258.97037,-1.139568,72.921792
6.5956,0.007176,-0.001054,-0.001738,-0.001759,0.005657,0.0046,0.005307,-0.511287,-0.00309,0.747493,-258.97037,-1.139568,72.921792
6.6163,0.006786,-0.001638,-0.002512,-0.001754,0.005698,0.004917,0.005307,-0.511287,-0.00309,0.747493,-258.97037,-1.139568,72.921792
6.6354,0.007042,-0.0009,-0.002846,-0.001745,0.005728,0.005142,0.005505,-0.511637,-0.002512,0.67245,-258.97037,-1.064525,72.921792
6.6554,0.006979,-0.00096,-0.004215,-0.001735,0.00575,0.005132,0.005538,-0.511351,-0.002641,0.67245,-258.97037,-1.064525,72.921792
6.6751,0.00683,-0.001271,-0.003926,-0.001726,0.005767,0.005124,0.004829,-0.510956,-0.004215,0.59749,-258.97037,-0.989565,72.921792
6.6956,0.007003,-0.001278,-0.002194,-0.001701,0.005796,0.005559,0.004828,-0.51124,-0.00395,0.59749,-258.97037,-0.989565,72.921792
6.7156,0.007142,-0.000687,-0.001804,-0.001673,0.005814,0.005869,0.004828,-0.51124,-0.00395,0.59749,-258.97037,-0.989565,72.921792
6.7356,0.007261,-0.001185,-0.002363,-0.001644,0.005823,0.006089,0.006222,-0.510686,-0.001804,0.52245,-258.970371,-0.991279,72.921792
6.7556,0.007217,-0.001435,-0.001269,-0.001648,0.005706,0.005522,0.006153,-0.510891,-0.002035,0.52245,-258.970371,-0.991279,72.921792
6.7757,0.007014,-0.001494,-0.002028,-0.001661,0.005619,0.005127,0.00657,-0.511435,-0.001269,0.597454,-258.97037,-0.916275,72.921791
6.7953,0.006928,-0.001162,-0.001835,-0.001667,0.005661,0.004813,0.006033,-0.511488,-0.001959,0.597454,-258.97037,-0.916275,72.921791
6.8155,0.006859,-0.001036,-0.001783,-0.001677,0.005697,0.004597,0.006033,-0.511488,-0.001959,0.597454,-258.97037,-0.916275,72.921791
6.8352,0.007235,-0.001371,-0.000933,-0.001689,0.005729,0.004448,0.00595,-0.511036,-0.001783,0.522588,-258.970371,-0.982095,72.921791
6.8553,0.00681,-0.001163,-0.002169,-0.001702,0.005688,0.004103,0.006282,-0.511173,-0.001434,0.522588,-258.970371,-0.982095,72.921791
6.8752,0.006915,-0.001441,-0.002192,-0.001718,0.005659,0.003863,0.005704,-0.511162,-0.002169,0.447572,-258.970371,-1.057111,72.921791
6.8954,0.007072,-0.000759,-0.002592,-0.001733,0.005705,0.004039,0.005789,-0.511416,-0.00219,0.447572,-258.970371,-1.057111,72.921791
6.9154,0.006962,-0.001153,-0.001825,-0.001742,0.005741,0.004167,0.005789,-0.511416,-0.00219,0.447572,-258.970371,-1.057111,72.921791
6.9358,0.006975,-0.001449,-0.001894,-0.001748,0.005768,0.004259,0.006031,-0.511152,-0.001825,0.372476,-258.970371,-1.090766,72.921791
6.9553,0.006924,-0.001315,-0.003467,-0.001755,0.005753,0.004178,0.006022,-0.511273,-0.001854,0.372476,-258.970371,-1.090766,72.921791
6.9757,0.007129,-0.00133,-0.002148,-0.001763,0.005741,0.004122,0.005156,-0.511312,-0.003467,0.297462,-258.970372,-1.066432,72.921791
6.9956,0.00684,-0.000759,-0.002887,-0.001779,0.005751,0.004269,0.005944,-0.511327,-0.002282,0.297462,-258.970372,-1.066432,72.921791
7.0155,0.007127,-0.001209,-0.002115,-0.001791,0.005757,0.004373,0.005944,-0.511327,-0.002282,0.297462,-258.970372,-1.066432,72.921791
7.0357,0.00653,-0.00109,-0.00188,-0.001798,0.005762,0.004448,0.006048,-0.511207,-0.002115,0.222481,-258.970372,-1.070322,72.921791
7.0553,0.006757,-0.001206,-0.003307,-0.001792,0.005733,0.00439,0.005853,-0.511159,-0.002019,0.222481,-258.970372,-1.070322,72.921791
7.0754,0.00697,-0.00136,-0.001434,-0.001788,0.00571,0.00435,0.005071,-0.511204,-0.003307,0.147462,-258.970372,-1.037363,72.921791
7.0958,0.006705,-0.00108,-0.002815,-0.001786,0.005714,0.004123,0.006138,-0.511346,-0.001595,0.147462,-258.970372,-1.037363,72.921791
7.1156,0.006668,-0.001596,-0.002882,-0.001787,0.005719,0.003964,0.006138,-0.511346,-0.001595,0.147462,-258.970372,-1.037363,72.921791
7.1358,0.006676,-0.000724,-0.001073,-0.001791,0.005725,0.003853,0.005198,-0.511594,-0.002882,0.072424,-258.970373,-1.041112,72.92179
7.1559,0.007061,-0.001057,-0.002334,-0.001783,0.005734,0.004031,0.005573,-0.511244,-0.002154,0.072424,-258.970373,-1.041112,72.92179
7.1754,0.007102,-0.001115,-0.002159,-0.001774,0.00574,0.004157,0.005871,-0.511056,-0.002334,-0.002589,-258.970373,-1.082512,72.92179
7.1951,0.006873,-0.001284,-0.001359,-0.00179,0.005707,0.004253,0.00599,-0.511109,-0.002173,-0.002589,-258.970373,-1.082512,72.92179
7.2154,0.006806,-0.001367,-0.001683,-0.001801,0.005681,0.00432,0.00599,-0.511109,-0.002173,-0.002589,-258.970373,-1.082512,72.92179
7.235,0.00654,-0.000817,-0.002884,-0.00181,0.00566,0.004368,0.005948,-0.511366,-0.001683,-0.077584,-258.970373,-1.064608,72.92179
7.2554,0.006544,-0.001311,-0.002504,-0.001793,0.005658,0.004404,0.005589,-0.511141,-0.002173,-0.077584,-258.970373,-1.064608,72.92179
7.2752,0.006817,-0.00139,-0.003044,-0.001779,0.005656,0.00443,0.005267,-0.511309,-0.002504,-0.152398,-258.970374,-1.026927,72.92179
7.2959,0.006892,-0.001059,-0.001706,-0.001767,0.00572,0.004763,0.005265,-0.51138,-0.002995,-0.152398,-258.970374,-1.026927,72.92179
7.3158,0.007107,-0.001277,-0.002884,-0.001752,0.005768,0.005,0.005265,-0.51138,-0.002995,-0.152398,-258.970374,-1.026927,72.92179
7.3359,0.006894,-0.00161,-0.002231,-0.001735,0.005802,0.005168,0.005636,-0.511275,-0.002884,-0.227413,-258.970374,-1.028153,72.92179
7.3558,0.006725,-0.001215,-0.002215,-0.001733,0.005816,0.00514,0.005685,-0.51141,-0.002619,-0.227413,-258.970374,-1.028153,72.92179
7.3755,0.006716,-0.001212,-0.002676,-0.001732,0.005827,0.005119,0.005595,-0.511214,-0.002215,-0.302459,-258.970374,-0.990595,72.92179
7.3956,0.007146,-0.001541,-0.001634,-0.001713,0.005806,0.005116,0.005372,-0.51121,-0.002635,-0.302459,-258.970374,-0.990595,72.92179
7.4157,0.007002,-0.00106,-0.00181,-0.001698,0.005789,0.005113,0.005372,-0.51121,-0.002635,-0.302459,-258.970374,-0.990595,72.92179
7.4356,0.006783,-0.001347,-0.000805,-0.001685,0.005775,0.00511,0.006079,-0.511059,-0.00181,-0.377473,-258.970375,-1.000549,72.92179
7.4562,0.006877,-0.000931,-0.00227,-0.001685,0.005721,0.00455,0.006199,-0.511176,-0.001401,-0.377473,-258.970375,-1.000549,72.92179
7.4755,0.007018,-0.001233,-0.003325,-0.001693,0.005683,0.00416,0.005719,-0.510929,-0.00227,-0.452409,-258.970375,-1.005089,72.92179
7.4952,0.006965,-0.000726,-0.001103,-0.001712,0.005704,0.004642,0.005356,-0.511204,-0.003235,-0.452409,-258.970375,-1.005089,72.92179
7.5165,0.00691,-0.001014,-0.001601,-0.001721,0.005717,0.00499,0.005356,-0.511204,-0.003235,-0.452409,-258.970375,-1.005089,72.92179
7.5356,0.00692,-0.001418,-0.002999,-0.001722,0.005724,0.005238,0.006094,-0.511013,-0.001601,-0.527556,-258.970375,-1.076446,72.921789
7.5557,0.007096,-0.001199,-0.001931,-0.001716,0.005696,0.004986,0.005823,-0.511168,-0.00214,-0.527556,-258.970375,-1.076446,72.921789
7.5752,0.00675,-0.000864,-0.001869,-0.001714,0.005676,0.00481,0.006112,-0.511198,-0.001931,-0.602408,-258.970376,-1.001594,72.921789
7.5953,0.00708,-0.001414,-0.001072,-0.001709,0.005606,0.004573,0.005824,-0.510892,-0.001874,-0.602408,-258.970376,-1.001594,72.921789
7.6155,0.006722,-0.001296,-0.002725,-0.00171,0.005553,0.004408,0.005824,-0.510892,-0.001874,-0.602408,-258.970376,-1.001594,72.921789
7.6358,0.006772,-0.001407,-0.002871,-0.001714,0.005512,0.004293,0.005332,-0.511294,-0.002725,-0.677502,-258.970376,-1.011512,72.921789
7.6556,0.006826,-0.000962,-0.004614,-0.001712,0.005592,0.004584,0.005322,-0.511339,-0.002784,-0.677502,-258.970376,-1.011512,72.921789
7.6757,0.007468,-0.001398,-0.003,-0.001707,0.005653,0.004792,0.004473,-0.510956,-0.004614,-0.752403,-258.970377,-1.035669,72.921789
7.6956,0.006969,-0.000958,-0.002403,-0.001738,0.00569,0.005062,0.00581,-0.511358,-0.003141,-0.752403,-258.970377,-1.035669,72.921789
7.7157,0.006646,-0.001057,-0.002913,-0.00176,0.005718,0.005255,0.00581,-0.511358,-0.003141,-0.752403,-258.970377,-1.035669,72.921789
7.7354,0.007061,-0.00136,-0.002554,-0.001774,0.005739,0.005391,0.00516,-0.511055,-0.002913,-0.827562,-258.970382,-1.011463,72.921787
7.7553,0.00728,-0.001265,-0.001651,-0.00175,0.005728,0.005354,0.005407,-0.51118,-0.002764,-0.827562,-258.970382,-1.011463,72.921787
7.7752,0.006934,-0.001497,-0.001922,-0.00173,0.00572,0.005327,0.006437,-0.511263,-0.00165,-0.902536,-258.970403,-0.943314,72.92178
7.7957,0.006891,-0.001215,-0.003035,-0.00172,0.00574,0.004935,0.005997,-0.511475,-0.001897,-0.902536,-258.970403,-0.943314,72.92178
7.8151,0.006946,-0.001145,-0.001788,-0.001717,0.005759,0.004662,0.005997,-0.511475,-0.001897,-0.902536,-258.970403,-0.943314,72.92178
7.8357,0.006666,-0.000951,-0.001608,-0.001719,0.005778,0.004472,0.006031,-0.511139,-0.001784,-0.977411,-258.970485,-0.959042,72.921753
7.8555,0.006947,-0.001345,-0.001893,-0.00172,0.005718,0.004261,0.005955,-0.511062,-0.001712,-0.977411,-258.970485,-0.959042,72.921753
7.8753,0.006777,-0.000983,-0.001581,-0.001725,0.005673,0.004114,0.005975,-0.511333,-0.001885,-1.052405,-258.970718,-1.034035,72.921659
7.8958,0.006572,-0.001436,-0.001771,-0.00173,0.005627,0.003963,0.005971,-0.511011,-0.001606,-1.052405,-258.970718,-1.034035,72.921659
7.9154,0.006749,-0.001148,-0.003073,-0.001737,0.005593,0.003857,0.005971,-0.511011,-0.001606,-1.052405,-258.970718,-1.034035,72.921659
7.9355,0.006722,-0.001289,-0.004132,-0.001746,0.005567,0.003784,0.005159,-0.5111,-0.003042,-1.127584,-258.971397,-1.070972,72.921367
7.9557,0.006659,-0.001447,-0.000947,-0.001737,0.005626,0.004452,0.004936,-0.511169,-0.00348,-1.127584,-258.971397,-1.070972,72.921367
7.9751,0.007212,-0.000853,-0.001516,-0.00172,0.005667,0.004937,0.006143,-0.511371,-0.000898,-1.202407,-258.972822,-1.078604,72.920714
7.9954,0.006769,-0.001004,-0.001393,-0.001729,0.005585,0.004463,0.006411,-0.510894,-0.00146,-1.202407,-258.972822,-1.078604,72.920714
8.0152,0.007069,-0.000951,-0.00304,-0.001744,0.005524,0.004131,0.006411,-0.510894,-0.00146,-1.202407,-258.972822,-1.078604,72.920714
8.0357,0.00665,-0.0008,-0.000726,-0.001762,0.005479,0.0039,0.00547,-0.510819,-0.00293,-1.277546,-258.974783,-1.003465,72.920014
8.0557,0.006395,-0.000857,-0.002109,-0.001769,0.005443,0.003998,0.005797,-0.510796,-0.00201,-1.277546,-258.974783,-1.003465,72.920014
8.075,0.006258,-0.000242,-0.002502,-0.001774,0.005414,0.00407,0.00527,-0.510703,-0.002,-1.350298,-258.977621,-1.053589,72.918759
8.0954,0.006594,-0.000723,-0.001874,-0.001726,0.005285,0.004324,0.005005,-0.510274,-0.002452,-1.350298,-258.977621,-1.053589,72.918759
8.1152,0.006227,-0.000655,-0.002851,-0.001685,0.00518,0.004504,0.005005,-0.510274,-0.002452,-1.350298,-258.977621,-1.053589,72.918759
8.1353,0.006216,-0.000272,-0.002581,-0.001651,0.005095,0.004629,0.004701,-0.510428,-0.002682,-1.349879,-258.980825,-1.02608,72.917404
8.1553,0.006058,-0.000238,-0.001647,-0.001605,0.005037,0.004798,0.004774,-0.510338,-0.002622,-1.349879,-258.980825,-1.02608,72.917404
8.1756,0.005793,0.000258,-0.002783,-0.001566,0.004988,0.004919,0.005172,-0.510093,-0.001517,-1.36537,-258.983697,-0.951029,72.916409
8.1958,0.006595,-0.000102,-0.001415,-0.001481,0.004816,0.005041,0.004443,-0.509764,-0.002662,-1.36537,-258.983697,-0.951029,72.916409
8.2156,0.005748,-0.000459,-0.001318,-0.001414,0.004678,0.005127,0.004443,-0.509764,-0.002662,-1.36537,-258.983697,-0.951029,72.916409
8.2353,0.005964,0.000138,-0.000519,-0.001361,0.004567,0.005188,0.005013,-0.510257,-0.00112,-1.377305,-258.986827,-0.902472,72.915437
8.2553,0.005838,1.5e-05,-0.002327,-0.001352,0.004514,0.004355,0.005285,-0.510074,-0.000853,-1.377305,-258.986827,-0.902472,72.915437
8.2753,0.005594,0.000406,-0.000365,-0.001356,0.004478,0.003772,0.004616,-0.509862,-0.002189,-1.39665,-258.989462,-0.827469,72.914782
8.296,0.00554,0.000675,-0.000468,-0.001344,0.004355,0.003183,0.005338,-0.509611,-0.000514,-1.39665,-258.989462,-0.827469,72.914782
8.3159,0.005542,0.000518,-0.000773,-0.001343,0.004262,0.002768,0.005338,-0.509611,-0.000514,-1.39665,-258.989462,-0.827469,72.914782
8.3353,0.005735,0.000393,-0.000331,-0.001351,0.004191,0.002477,0.005112,-0.509376,-0.000679,-1.373418,-258.991034,-0.902599,72.9142
8.3552,0.005872,0.000262,-0.000701,-0.001352,0.004104,0.002285,0.005286,-0.509455,-0.000532,-1.373418,-258.991034,-0.902599,72.9142
8.3754,0.00578,0.0004,-0.00111,-0.001359,0.004036,0.002151,0.00549,-0.509671,-0.000658,-1.338259,-258.992234,-0.977473,72.913586
8.3953,0.005753,0.000717,-0.0008,-0.001384,0.004018,0.002344,0.005237,-0.509603,-0.001068,-1.338259,-258.992234,-0.977473,72.913586
8.4155,0.005375,0.000797,-0.002153,-0.001402,0.004002,0.002485,0.005237,-0.509603,-0.001068,-1.338259,-258.992234,-0.977473,72.913586
8.4354,0.00575,0.000976,0.000936,-0.001417,0.003988,0.002588,0.004232,-0.509075,-0.002083,-1.322088,-258.993905,-1.052568,72.912665
8.4557,0.005547,0.000803,-0.000838,-0.00138,0.003858,0.002556,0.005037,-0.50904,-0.000849,-1.322088,-258.993905,-1.052568,72.912665
8.4755,0.005414,0.001158,-4e-05,-0.001353,0.003755,0.002534,0.005075,-0.50907,-0.000755,-1.321644,-258.9962,-1.0388,72.911549
8.4954,0.005173,0.000975,-0.001291,-0.001331,0.003636,0.002104,0.005363,-0.508855,-9.8e-05,-1.321644,-258.9962,-1.0388,72.911549
8.5156,0.004955,0.000827,-0.000988,-0.001321,0.003543,0.001797,0.005363,-0.508855,-9.8e-05,-1.321644,-258.9962,-1.0388,72.911549
8.5352,0.005259,0.001003,-0.000641,-0.001319,0.003471,0.001579,0.004395,-0.509016,-0.000882,-1.321016,-258.998375,-1.020954,72.91052
8.5553,0.005362,0.000987,-0.00114,-0.001276,0.003429,0.001805,0.004606,-0.508991,-0.000773,-1.321016,-258.998375,-1.020954,72.91052
8.5751,0.004779,0.001483,-0.00111,-0.001239,0.003392,0.001965,0.004742,-0.508912,-0.001094,-1.281755,-259.000063,-1.086449,72.909487
8.5956,0.004911,0.001421,-0.001037,-0.001153,0.003272,0.002269,0.004257,-0.508546,-0.001106,-1.281755,-259.000063,-1.086449,72.909487
8.6154,0.005362,0.001114,7.2e-05,-0.001082,0.003173,0.002483,0.004257,-0.508546,-0.001106,-1.281755,-259.000063,-1.086449,72.909487
8.6355,0.005043,0.001787,0.000545,-0.001023,0.003092,0.002634,0.005349,-0.508748,0.000152,-1.30722,-259.001916,-1.05617,72.908506
8.6553,0.004891,0.001543,0.000804,-0.001043,0.003037,0.001952,0.005332,-0.508516,0.00032,-1.30722,-259.001916,-1.05617,72.908506
8.6751,0.004948,0.001569,0.000864,-0.001069,0.002997,0.001462,0.005273,-0.508373,0.000875,-1.356456,-259.003545,-0.981268,72.907896
8.6956,0.004968,0.001292,0.00042,-0.001083,0.002948,0.00084,0.005377,-0.508421,0.000868,-1.356456,-259.003545,-0.981268,72.907896
8.7154,0.004646,0.001903,-7e-06,-0.001103,0.002913,0.000392,0.005377,-0.508421,0.000868,-1.356456,-259.003545,-0.981268,72.907896
8.7358,0.005063,0.001539,-0.000509,-0.001125,0.002888,6.8e-05,0.004607,-0.508003,4.1e-05,-1.302657,-259.00477,-1.056267,72.907179
8.7559,0.004394,0.001859,-0.000881,-0.001099,0.00282,0.000404,0.004683,-0.508178,-0.000177,-1.302657,-259.00477,-1.056267,72.907179
8.7754,0.00474,0.001872,2.7e-05,-0.001076,0.002763,0.000642,0.003921,-0.508083,-0.000878,-1.227657,-259.005561,-1.131267,72.906408
8.7956,0.00483,0.001602,-0.00132,-0.001049,0.002706,0.000746,0.004677,-0.508121,-5.5e-05,-1.227657,-259.005561,-1.131267,72.906408
8.8162,0.004895,0.001915,-0.000811,-0.001028,0.002658,0.000818,0.004677,-0.508121,-5.5e-05,-1.227657,-259.005561,-1.131267,72.906408
8.8354,0.004864,0.001817,-0.001481,-0.00101,0.002619,0.000867,0.004436,-0.50797,-0.000785,-1.24219,-259.006886,-1.144891,72.905373
8.8555,0.004579,0.001789,-0.001164,-0.000978,0.002574,0.00145,0.004298,-0.508043,-0.001064,-1.24219,-259.006886,-1.144891,72.905373
8.8752,0.004704,0.002131,2.8e-05,-0.000944,0.002533,0.001865,0.003953,-0.508128,-0.001137,-1.260372,-259.008189,-1.120557,72.904458
8.8955,0.004753,0.001974,-1.6e-05,-0.000913,0.002469,0.001623,0.004648,-0.507888,-7.6e-05,-1.260372,-259.008189,-1.120557,72.904458
8.9155,0.004425,0.002049,0.000817,-0.000892,0.002419,0.001449,0.004648,-0.507888,-7.6e-05,-1.260372,-259.008189,-1.120557,72.904458
8.9353,0.004921,0.002078,1.5e-05,-0.000877,0.002379,0.001322,0.004817,-0.507878,0.000868,-1.31924,-259.009213,-1.045561,72.904004
8.9554,0.004445,0.002027,-0.00053,-0.000874,0.002349,0.000904,0.004859,-0.507888,0.000527,-1.31924,-259.009213,-1.045561,72.904004
8.9757,0.004384,0.002318,2.7e-05,-0.000877,0.002327,0.000604,0.004147,-0.507897,-0.000488,-1.302291,-259.010525,-1.061912,72.903289
8.9955,0.004669,0.002295,0.000561,-0.000839,0.002272,0.000692,0.004375,-0.507697,-1.5e-05,-1.302291,-259.010525,-1.061912,72.903289
9.0155,0.004196,0.002023,-0.000329,-0.000808,0.002227,0.000753,0.004375,-0.507697,-1.5e-05,-1.302291,-259.010525,-1.061912,72.903289
9.0359,0.004391,0.002209,0.000584,-0.000783,0.00219,0.000796,0.003997,-0.507894,-0.000307,-1.256244,-259.011493,-1.137041,72.902557
9.0554,0.004553,0.002114,-0.000784,-0.000761,0.002179,0.000786,0.004275,-0.507842,5.8e-05,-1.256244,-259.011493,-1.137041,72.902557
9.0752,0.004538,0.002602,0.001039,-0.000742,0.002169,0.000778,0.004128,-0.507817,-0.000759,-1.286019,-259.012594,-1.139885,72.901816
9.0957,0.004402,0.002503,-0.000528,-0.000754,0.00212,0.000331,0.004986,-0.50743,0.000885,-1.286019,-259.012594,-1.139885,72.901816
9.1161,0.003992,0.002395,0.000195,-0.00077,0.002083,8e-06,0.004986,-0.50743,0.000885,-1.286019,-259.012594,-1.139885,72.901816
9.1359,0.004266,0.002739,-0.000679,-0.000787,0.002055,-0.000225,0.00406,-0.507515,0.000227,-1.297161,-259.013692,-1.157772,72.901077
9.1555,0.004437,0.002639,0.000189,-0.00072,0.002,0.000187,0.003997,-0.507396,-0.000154,-1.297161,-259.013692,-1.157772,72.901077
9.1755,0.004172,0.002693,-0.000458,-0.000663,0.001952,0.000478,0.004516,-0.507312,0.000184,-1.221695,-259.014307,-1.226118,72.900385
9.1953,0.004291,0.002561,-0.000303,-0.000614,0.001902,0.000819,0.00399,-0.507305,-0.0004,-1.221695,-259.014307,-1.226118,72.900385
9.2153,0.004287,0.002349,0.000805,-0.000571,0.001858,0.00106,0.00399,-0.507305,-0.0004,-1.221695,-259.014307,-1.226118,72.900385
9.2355,0.004243,0.002558,0.000519,-0.000534,0.00182,0.001229,0.004672,-0.507575,0.000823,-1.283626,-259.015174,-1.190885,72.899723
9.2557,0.004012,0.002572,-0.000445,-0.000559,0.001829,0.000742,0.0046,-0.50751,0.000698,-1.283626,-259.015174,-1.190885,72.899723
9.2757,0.00446,0.002679,-0.000893,-0.000585,0.001839,0.000393,0.003771,-0.507382,-0.000414,-1.358974,-259.016014,-1.115537,72.899341
9.2957,0.004341,0.002686,0.001914,-0.000567,0.001818,0.000987,0.003983,-0.507324,-0.000849,-1.358974,-259.016014,-1.115537,72.899341
9.3152,0.003965,0.002576,0.000755,-0.000545,0.001796,0.001413,0.003983,-0.507324,-0.000849,-1.358974,-259.016014,-1.115537,72.899341
9.3355,0.003956,0.002558,-0.00056,-0.000521,0.001776,0.001715,0.00433,-0.507364,0.000768,-1.296489,-259.016695,-1.190301,72.898804
9.3555,0.004118,0.002401,0.00039,-0.000483,0.001752,0.001348,0.004055,-0.507389,0.000221,-1.296489,-259.016695,-1.190301,72.898804
9.3753,0.004083,0.003276,0.001749,-0.000457,0.001736,0.001085,0.004311,-0.507579,0.000408,-1.371534,-259.017089,-1.115256,72.898681
9.3956,0.00393,0.003163,-0.001305,-0.000462,0.001669,0.000219,0.004917,-0.506796,0.001634,-1.371534,-259.017089,-1.115256,72.898681
9.4154,0.004159,0.002806,-0.00084,-0.000476,0.001621,-0.000413,0.004917,-0.506796,0.001634,-1.371534,-259.017089,-1.115256,72.898681
9.4354,0.003857,0.003024,0.000225,-0.000495,0.001585,-0.000874,0.003712,-0.507125,-0.000796,-1.382711,-259.018019,-1.168532,72.898237
9.4555,0.004113,0.002924,0.001778,-0.000461,0.00157,-0.00016,0.003815,-0.507056,-0.000377,-1.382711,-259.018019,-1.168532,72.898237
9.4751,0.004193,0.002781,0.001031,-0.000425,0.001551,0.000348,0.005016,-0.507064,0.001772,-1.307809,-259.018122,-1.243434,72.898043
9.4958,0.004535,0.002841,0.000626,-0.000472,0.001576,-8.9e-05,0.004745,-0.507205,0.001095,-1.307809,-259.018122,-1.243434,72.898043
9.5158,0.003921,0.003145,0.001165,-0.000514,0.001599,-0.000404,0.004745,-0.507205,0.001095,-1.307809,-259.018122,-1.243434,72.898043
9.5353,0.004286,0.003085,0.00128,-0.000551,0.001619,-0.000631,0.004498,-0.506791,0.001179,-1.334388,-259.018834,-1.263535,72.897492
9.5555,0.004121,0.002949,-0.001013,-0.000547,0.001584,-0.000848,0.004674,-0.506834,0.001221,-1.334388,-259.018834,-1.263535,72.897492
9.5751,0.003961,0.003046,0.000305,-0.000548,0.001557,-0.001005,0.003595,-0.507021,-0.001024,-1.25948,-259.019141,-1.302497,72.89702
9.595,0.004131,0.003102,0.000985,-0.000519,0.001539,-0.000571,0.00407,-0.506958,0.000188,-1.25948,-259.019141,-1.302497,72.89702
9.6151,0.004374,0.003044,0.000352,-0.00049,0.00152,-0.000262,0.00407,-0.506958,0.000188,-1.25948,-259.019141,-1.302497,72.89702
9.6358,0.004031,0.002655,-0.000557,-0.000463,0.001503,-4.4e-05,0.004544,-0.506925,0.000333,-1.184437,-259.019347,-1.323383,72.896599
9.6553,0.004423,0.003156,-0.001399,-0.000473,0.001517,0.000225,0.004221,-0.507091,-2.9e-05,-1.184437,-259.019347,-1.323383,72.896599
9.6756,0.004544,0.003173,0.001248,-0.000478,0.001526,0.000418,0.003697,-0.506802,-0.001401,-1.259384,-259.019883,-1.27698,72.896044
9.6956,0.004166,0.00342,0.001238,-0.00052,0.001523,-8e-06,0.005052,-0.506822,0.00102,-1.259384,-259.019883,-1.27698,72.896044
9.7156,0.004322,0.003187,0.000654,-0.000559,0.001524,-0.000316,0.005052,-0.506822,0.00102,-1.259384,-259.019883,-1.27698,72.896044
9.7357,0.004154,0.003095,-0.000459,-0.000595,0.001527,-0.000537,0.004638,-0.506755,0.000669,-1.308509,-259.020545,-1.210907,72.895557
9.7556,0.003794,0.002811,0.000156,-0.000573,0.001505,-0.000255,0.00434,-0.50681,0.000207,-1.308509,-259.020545,-1.210907,72.895557
9.7753,0.004378,0.002945,0.000615,-0.000553,0.001485,-5.4e-05,0.003865,-0.507164,0.000148,-1.233516,-259.020817,-1.260237,72.895161
9.7954,0.004052,0.003123,-7e-06,-0.000575,0.001509,-0.000117,0.004617,-0.507063,0.000573,-1.233516,-259.020817,-1.260237,72.895161
9.8152,0.003684,0.003549,0.001271,-0.000592,0.001529,-0.000162,0.004617,-0.507063,0.000573,-1.233516,-259.020817,-1.260237,72.895161
9.8352,0.003938,0.003669,0.000134,-0.000607,0.001546,-0.000194,0.004309,-0.506391,0.001268,-1.206976,-259.021418,-1.221478,72.894536
9.8559,0.003801,0.003514,0.001634,-0.000511,0.001451,-0.000317,0.004182,-0.506359,0.000801,-1.206976,-259.021418,-1.221478,72.894536
9.8757,0.004029,0.003377,0.000246,-0.000437,0.001373,-0.000408,0.004615,-0.506438,0.001628,-1.168951,-259.022024,-1.221247,72.893844
9.8954,0.003889,0.003432,0.00042,-0.00041,0.001343,-0.000249,0.004194,-0.506604,0.000368,-1.168951,-259.022024,-1.221247,72.893844
9.916,0.003819,0.003125,0.000283,-0.000388,0.001317,-0.000137,0.004194,-0.506604,0.000368,-1.168951,-259.022024,-1.221247,72.893844
9.9353,0.00371,0.003513,0.000437,-0.000368,0.001295,-5.8e-05,0.003947,-0.506825,0.000268,-1.2,-259.022446,-1.296207,72.893257
9.9557,0.003774,0.003454,0.001544,-0.000325,0.001274,2e-05,0.003939,-0.50668,0.000336,-1.2,-259.022446,-1.296207,72.893257
9.9756,0.004073,0.003675,0.000999,-0.00029,0.001255,7.5e-05,0.004551,-0.506509,0.001542,-1.275036,-259.022911,-1.300998,72.892767
9.9953,0.003934,0.003782,-0.001194,-0.000294,0.001222,-0.000262,0.004579,-0.506339,0.001046,-1.275036,-259.022911,-1.300998,72.892767
10.0153,0.003936,0.003633,-0.001238,-0.000302,0.001196,-0.000506,0.004579,-0.506339,0.001046,-1.275036,-259.022911,-1.300998,72.892767
10.0353,0.003907,0.003805,-0.000153,-0.000311,0.001177,-0.000681,0.003294,-0.50632,-0.001235,-1.350072,-259.023388,-1.335261,72.892322
10.0552,0.003745,0.003068,-0.00071,-0.000233,0.001131,0.000193,0.003513,-0.506263,-0.00079,-1.350072,-259.023388,-1.335261,72.892322
10.0751,0.004053,0.003623,-0.000457,-0.00016,0.001086,0.000821,0.003378,-0.506909,-0.000723,-1.275107,-259.023591,-1.377833,72.89192
10.0953,0.00365,0.003797,0.000732,-0.000134,0.001068,0.001097,0.003782,-0.506421,-0.000481,-1.275107,-259.023591,-1.377833,72.89192
10.1153,0.003961,0.003393,-0.000181,-0.000109,0.001051,0.001293,0.003782,-0.506421,-0.000481,-1.275107,-259.023591,-1.377833,72.89192
10.1351,0.004134,0.003708,0.000874,-8.5e-05,0.001035,0.001432,0.003863,-0.506585,-0.000165,-1.350141,-259.023907,-1.302799,72.8918
10.1552,0.003796,0.003473,0.000544,-9.5e-05,0.001032,0.001114,0.004158,-0.506461,0.000266,-1.350141,-259.023907,-1.302799,72.8918
10.1751,0.004103,0.003544,0.000411,-0.000106,0.001031,0.000886,0.004072,-0.506518,0.000557,-1.425118,-259.024121,-1.227821,72.89178
10.1951,0.003337,0.003726,-0.000186,-0.00013,0.001037,0.000635,0.004291,-0.506461,0.000424,-1.425118,-259.024121,-1.227821,72.89178
10.2151,0.0039,0.003691,-7.9e-05,-0.000151,0.001044,0.000456,0.004291,-0.506461,0.000424,-1.425118,-259.024121,-1.227821,72.89178
10.2356,0.003905,0.0036,-3e-06,-0.00017,0.001051,0.000328,0.003856,-0.506279,-5.4e-05,-1.50011,-259.024557,-1.302813,72.891641
10.2553,0.004054,0.003503,0.00118,-0.000141,0.001035,0.000495,0.003875,-0.506326,-3e-05,-1.50011,-259.024557,-1.302813,72.891641
10.2752,0.004206,0.003387,-0.000269,-0.000116,0.00102,0.000614,0.004651,-0.506468,0.001189,-1.435604,-259.024994,-1.373224,72.891341
10.2956,0.003899,0.003812,-0.001575,-0.000148,0.001053,0.000752,0.004119,-0.506599,-0.000143,-1.435604,-259.024994,-1.373224,72.891341
10.3153,0.003657,0.003916,0.000541,-0.000173,0.001078,0.000851,0.004119,-0.506599,-0.000143,-1.435604,-259.024994,-1.373224,72.891341
10.3359,0.00403,0.004043,0.000541,-0.00019,0.001099,0.000923,0.003928,-0.506043,0.000565,-1.488136,-259.025525,-1.393424,72.891093
10.3553,0.003835,0.003698,0.000868,-0.000137,0.001037,0.000604,0.004081,-0.506003,0.000558,-1.488136,-259.025525,-1.393424,72.891093
10.3757,0.004102,0.003844,0.001401,-9.9e-05,0.000989,0.000373,0.004275,-0.50628,0.000886,-1.456873,-259.025952,-1.318465,72.890947
10.3955,0.003821,0.003853,0.001255,-0.000141,0.000991,-0.000194,0.004768,-0.506165,0.001356,-1.456873,-259.025952,-1.318465,72.890947
10.416,0.003775,0.004154,9e-06,-0.000182,0.000997,-0.000604,0.004768,-0.506165,0.001356,-1.456873,-259.025952,-1.318465,72.890947
10.4359,0.003609,0.003966,0.000561,-0.00022,0.001005,-0.000899,0.003775,-0.505814,2.1e-05,-1.489688,-259.026329,-1.393414,72.890711
10.4561,0.003878,0.003911,0.000452,-0.000155,0.000957,-0.000517,0.003823,-0.505898,0.000237,-1.489688,-259.026329,-1.393414,72.890711
10.4756,0.004183,0.00384,0.000713,-9.8e-05,0.000914,-0.000247,0.004108,-0.506086,0.000449,-1.414695,-259.02635,-1.430078,72.890645
10.4955,0.003834,0.004142,0.000938,-0.00014,0.000928,-0.000316,0.004507,-0.506153,0.000689,-1.414695,-259.02635,-1.430078,72.890645
10.5152,0.00351,0.003737,0.000642,-0.000174,0.00094,-0.000366,0.004507,-0.506153,0.000689,-1.414695,-259.02635,-1.430078,72.890645
10.536,0.003809,0.003807,0.000104,-0.000202,0.00095,-0.000402,0.003834,-0.506226,0.000633,-1.442625,-259.026643,-1.478688,72.890238
10.5555,0.003956,0.003905,0.00057,-0.000155,0.000935,-0.000268,0.003845,-0.506209,0.000415,-1.442625,-259.026643,-1.478688,72.890238
10.5751,0.003765,0.004094,-0.000455,-0.000117,0.000922,-0.000173,0.004243,-0.506075,0.000562,-1.367585,-259.026828,-1.403648,72.889931
10.5957,0.003604,0.003939,0.000774,-5.3e-05,0.000883,0.00033,0.003596,-0.50592,-0.000365,-1.367585,-259.026828,-1.403648,72.889931
10.6156,0.004107,0.004203,-2.7e-05,5e-06,0.000847,0.000688,0.003596,-0.50592,-0.000365,-1.367585,-259.026828,-1.403648,72.889931
10.6356,0.004318,0.003971,-0.001083,5.5e-05,0.000813,0.000944,0.004088,-0.505762,-3.4e-05,-1.428913,-259.027125,-1.457794,72.88956
10.6555,0.003963,0.003945,0.000696,5.2e-05,0.000797,0.001169,0.003957,-0.505866,-0.000461,-1.428913,-259.027125,-1.457794,72.88956
10.6758,0.004122,0.004158,0.001273,5.3e-05,0.000781,0.001329,0.004318,-0.506055,0.000696,-1.50391,-259.027125,-1.382797,72.88956
10.6957,0.003827,0.003798,0.000643,1e-05,0.00078,0.000558,0.004732,-0.50586,0.001223,-1.50391,-259.027125,-1.382797,72.88956
10.7158,0.003888,0.003852,0.001268,-3.2e-05,0.000785,-1e-06,0.004732,-0.50586,0.001223,-1.50391,-259.027125,-1.382797,72.88956
10.7356,0.003755,0.004277,0.000431,-7.2e-05,0.000794,-0.000404,0.004535,-0.506147,0.001268,-1.578971,-259.027125,-1.307735,72.88956
10.7552,0.003622,0.003845,0.000381,-7.9e-05,0.000797,-0.000547,0.004308,-0.505975,0.000928,-1.578971,-259.027125,-1.307735,72.88956
10.7754,0.004097,0.00419,-0.000485,-8.7e-05,0.000801,-0.000649,0.003815,-0.506145,0.000376,-1.504023,-259.027213,-1.382684,72.889392
10.7952,0.003515,0.003979,0.000677,-6.6e-05,0.00079,1.1e-05,0.003846,-0.505837,-0.000416,-1.504023,-259.027213,-1.382684,72.889392
10.8156,0.003483,0.004007,0.001239,-4.1e-05,0.000776,0.000483,0.003846,-0.505837,-0.000416,-1.504023,-259.027213,-1.382684,72.889392
10.8354,0.004015,0.003834,-2.9e-05,-1.6e-05,0.000761,0.000821,0.004113,-0.505973,0.001223,-1.428683,-259.027309,-1.458024,72.889116
10.8552,0.003661,0.004133,0.000304,-3e-06,0.000759,0.000446,0.004067,-0.506049,0.000713,-1.428683,-259.027309,-1.458024,72.889116
10.8752,0.004353,0.003941,-0.000256,3e-06,0.00076,0.000176,0.003815,-0.505849,0.000323,-1.503334,-259.027677,-1.511171,72.88904
10.8956,0.004001,0.00394,0.001468,-3.3e-05,0.000782,0.000474,0.004187,-0.50604,-0.000205,-1.503334,-259.027677,-1.511171,72.88904
10.9153,0.004,0.004497,-0.000348,-5.8e-05,0.000798,0.000688,0.004187,-0.50604,-0.000205,-1.503334,-259.027677,-1.511171,72.88904
10.9354,0.004115,0.003824,0.000942,-7.6e-05,0.00081,0.000841,0.003822,-0.505475,-0.000342,-1.574539,-259.027977,-1.575772,72.888815
10.9554,0.003658,0.003881,2e-05,-5.2e-05,0.000784,0.000738,0.004143,-0.505762,0.000191,-1.574539,-259.027977,-1.575772,72.888815
10.9758,0.003529,0.004024,0.001278,-3.4e-05,0.000763,0.000663,0.003668,-0.50611,2.9e-05,-1.513773,-259.028151,-1.500712,72.888775
10.9957,0.003909,0.003623,0.002705,-1.1e-05,0.000752,0.000126,0.004124,-0.50599,0.00114,-1.513773,-259.028151,-1.500712,72.888775
11.0156,0.003603,0.003836,0.000199,2e-06,0.000747,-0.000264,0.004124,-0.50599,0.00114,-1.513773,-259.028151,-1.500712,72.888775
11.0357,0.003749,0.004081,0.00073,8e-06,0.000746,-0.000545,0.003703,-0.506133,0.000226,-1.541933,-259.028609,-1.476768,72.888634
11.0553,0.003854,0.004266,-0.000495,1.9e-05,0.000751,-0.000383,0.003875,-0.506041,0.000437,-1.541933,-259.028609,-1.476768,72.888634
11.0756,0.003459,0.004237,0.000284,3e-05,0.000753,-0.000268,0.003601,-0.505715,-0.00051,-1.590472,-259.028744,-1.551733,72.888282
11.0957,0.003287,0.004231,0.000793,9e-05,0.000718,-5.7e-05,0.003603,-0.505758,0.000216,-1.590472,-259.028744,-1.551733,72.888282
11.1158,0.003625,0.004283,-0.000103,0.000141,0.000687,9.3e-05,0.003603,-0.505758,0.000216,-1.590472,-259.028744,-1.551733,72.888282
11.1359,0.004115,0.004103,0.000355,0.000183,0.00066,0.000199,0.003574,-0.505687,-0.000114,-1.620984,-259.028966,-1.60306,72.887935
11.1552,0.004225,0.00427,-0.000102,0.000178,0.000652,0.000343,0.003869,-0.50577,7.7e-05,-1.620984,-259.028966,-1.60306,72.887935
11.1758,0.003752,0.004176,0.000962,0.000176,0.000644,0.000445,0.004173,-0.50573,-0.000102,-1.545992,-259.028966,-1.528068,72.887935
11.1954,0.003823,0.00403,0.000629,0.000148,0.000647,8.9e-05,0.004237,-0.505816,0.000871,-1.545992,-259.028966,-1.528068,72.887935
11.2159,0.003387,0.00445,0.001063,0.000122,0.000653,-0.000166,0.004237,-0.505816,0.000871,-1.545992,-259.028966,-1.528068,72.887935
11.2356,0.003955,0.004422,0.000529,9.8e-05,0.000659,-0.00035,0.003929,-0.505549,0.001063,-1.470971,-259.028966,-1.453046,72.887935
11.2556,0.003883,0.004247,0.000342,0.000115,0.000634,-0.000461,0.004051,-0.505561,0.000844,-1.470971,-259.028966,-1.453046,72.887935
11.2751,0.003723,0.004352,-0.000196,0.000128,0.000615,-0.000541,0.004057,-0.505753,0.000342,-1.396011,-259.028966,-1.528006,72.887935
11.2955,0.00425,0.004327,0.000223,0.000152,0.000604,-5.8e-05,0.003662,-0.505657,-0.000148,-1.396011,-259.028966,-1.528006,72.887935
11.316,0.003649,0.00415,0.001762,0.000177,0.000592,0.000288,0.003662,-0.505657,-0.000148,-1.396011,-259.028966,-1.528006,72.887935
11.3353,0.004282,0.004264,0.001637,0.000202,0.000578,0.000534,0.004548,-0.505849,0.001762,-1.321111,-259.028966,-1.602906,72.887935
11.3554,0.003693,0.0044,0.000915,0.000128,0.000607,-0.000226,0.00478,-0.505803,0.001711,-1.321111,-259.028966,-1.602906,72.887935
11.3751,0.00381,0.004204,4.4e-05,6.1e-05,0.000636,-0.000778,0.00416,-0.5056,0.000915,-1.246096,-259.028966,-1.52789,72.887935
11.3951,0.003904,0.004447,0.000181,6.8e-05,0.00064,-0.000371,0.00386,-0.505779,0.000117,-1.246096,-259.028966,-1.52789,72.887935
11.4153,0.003758,0.003864,-0.001205,7.8e-05,0.000639,-8.2e-05,0.00386,-0.505779,0.000117,-1.246096,-259.028966,-1.52789,72.887935
11.4355,0.004124,0.004373,0.001009,9.1e-05,0.000637,0.000124,0.003143,-0.506135,-0.001205,-1.170961,-259.028966,-1.603025,72.887935
11.4553,0.003943,0.004078,0.001398,9.4e-05,0.000649,0.000499,0.003754,-0.505927,-0.0003,-1.170961,-259.028966,-1.603025,72.887935
11.4753,0.003866,0.003883,0.002604,0.000103,0.000656,0.000768,0.004655,-0.505921,0.001398,-1.245808,-259.028968,-1.677872,72.887934
11.4951,0.00371,0.004302,0.000754,4e-06,0.000713,-0.000318,0.005142,-0.506097,0.002489,-1.245808,-259.028968,-1.677872,72.887934
11.5155,0.003703,0.004422,-0.000432,-8.5e-05,0.000766,-0.001118,0.005142,-0.506097,0.002489,-1.245808,-259.028968,-1.677872,72.887934
11.5351,0.003978,0.004493,0.000293,-0.000164,0.000815,-0.001702,0.003482,-0.505578,-0.000432,-1.320815,-259.028968,-1.602865,72.887934
11.5552,0.003794,0.004153,0.00142,-0.000106,0.000779,-0.000859,0.003738,-0.50555,-0.000145,-1.320815,-259.028968,-1.602865,72.887934
11.575,0.004045,0.00415,0.000454,-4.8e-05,0.000741,-0.000262,0.004518,-0.505847,0.00142,-1.245815,-259.028969,-1.527864,72.887934
11.5952,0.003733,0.004179,0.000629,-6.4e-05,0.000746,-0.00023,0.004298,-0.505849,0.00054,-1.245815,-259.028969,-1.527864,72.887934
11.6152,0.004038,0.00393,-7e-05,-7.6e-05,0.00075,-0.000211,0.004298,-0.505849,0.00054,-1.245815,-259.028969,-1.527864,72.887934
11.6351,0.004148,0.003801,0.000123,-8.5e-05,0.000752,-0.0002,0.004,-0.506059,-7.5e-05,-1.32081,-259.029058,-1.517808,72.887795
11.6551,0.004014,0.004027,0.001761,-9.9e-05,0.000778,9.8e-05,0.004085,-0.506114,5e-06,-1.32081,-259.029058,-1.517808,72.887795
11.675,0.003635,0.004183,0.000808,-0.000106,0.000797,0.000311,0.004909,-0.505953,0.001755,-1.39581,-259.029257,-1.474254,72.887521
11.6952,0.003406,0.004376,0.001491,-7e-05,0.000771,-6e-06,0.004124,-0.505828,0.000893,-1.39581,-259.029257,-1.474254,72.887521
11.7151,0.003686,0.004027,0.003031,-4.4e-05,0.000752,-0.000235,0.004124,-0.505828,0.000893,-1.39581,-259.029257,-1.474254,72.887521
11.7351,0.003952,0.004456,0.001174,-2.5e-05,0.000738,-0.000402,0.005228,-0.505942,0.003042,-1.463499,-259.029592,-1.399247,72.887312
11.7555,0.004135,0.004339,-0.000384,-7.2e-05,0.000747,-0.001113,0.00495,-0.505776,0.002279,-1.463499,-259.029592,-1.399247,72.887312
11.7751,0.00411,0.004759,0.000921,-0.000117,0.00076,-0.001629,0.003938,-0.505645,-0.000393,-1.519399,-259.029726,-1.474291,72.887046
11.7955,0.003693,0.004132,0.000675,-0.000115,0.000733,-0.001343,0.004522,-0.505277,0.000803,-1.519399,-259.029726,-1.474291,72.887046
11.8161,0.003932,0.004536,-0.000911,-0.00011,0.000708,-0.001142,0.004522,-0.505277,0.000803,-1.519399,-259.029726,-1.474291,72.887046
11.8353,0.004121,0.00428,0.00025,-0.000105,0.000684,-0.001001,0.003468,-0.505464,-0.000911,-1.44445,-259.029726,-1.504056,72.887046
11.8552,0.003651,0.004451,0.001761,-6.6e-05,0.00067,-0.000213,0.003777,-0.505565,-0.000451,-1.44445,-259.029726,-1.504056,72.887046
11.8754,0.003667,0.004336,-0.000118,-2.4e-05,0.000652,0.00035,0.004549,-0.505549,0.001761,-1.369456,-259.029726,-1.49021,72.887046
11.8953,0.003865,0.00433,0.000648,3.8e-05,0.000627,0.000478,0.003691,-0.505654,5e-05,-1.369456,-259.029726,-1.49021,72.887046
11.9156,0.003745,0.004633,-6.5e-05,9.1e-05,0.000605,0.000568,0.003691,-0.505654,5e-05,-1.369456,-259.029726,-1.49021,72.887046
11.9355,0.003758,0.004503,0.000628,0.000134,0.000586,0.00063,0.00371,-0.50535,-5.6e-05,-1.444469,-259.029937,-1.515831,72.886939
11.9554,0.003981,0.004465,0.00103,0.00017,0.000554,0.000578,0.003859,-0.505408,0.000222,-1.444469,-259.029937,-1.515831,72.886939
11.975,0.003696,0.004184,-0.000268,0.000198,0.000528,0.000539,0.004506,-0.505535,0.00103,-1.51947,-259.029937,-1.440831,72.886939
11.9956,0.003692,0.00442,-0.000141,0.000213,0.000535,0.000714,0.003646,-0.505791,-0.00015,-1.51947,-259.029937,-1.440831,72.886939
12.0158,0.003231,0.004339,0.000886,0.000227,0.000539,0.000839,0.003646,-0.505791,-0.00015,-1.51947,-259.029937,-1.440831,72.886939
12.036,0.00394,0.004391,5.9e-05,0.000242,0.000541,0.000928,0.003682,-0.505661,0.000886,-1.444506,-259.029937,-1.365867,72.886939
12.0555,0.004057,0.004559,0.000248,0.000263,0.000524,0.00061,0.003799,-0.50564,0.000551,-1.444506,-259.029937,-1.365867,72.886939
12.0751,0.003858,0.004418,3e-05,0.000277,0.000513,0.000382,0.004183,-0.505441,0.000248,-1.369457,-259.029937,-1.290818,72.886939
12.0953,0.003994,0.004014,-0.000545,0.000264,0.000512,0.000487,0.003901,-0.50557,5e-05,-1.369457,-259.029937,-1.290818,72.886939
12.1152,0.003688,0.004336,0.001672,0.000256,0.00051,0.000561,0.003901,-0.50557,5e-05,-1.369457,-259.029937,-1.290818,72.886939
12.1352,0.003634,0.00455,0.000225,0.000249,0.000508,0.000615,0.004541,-0.505663,0.001672,-1.294457,-259.029937,-1.215818,72.886939
12.1552,0.003792,0.004326,-0.000746,0.000233,0.000507,0.000117,0.004212,-0.505575,0.001072,-1.294457,-259.029937,-1.215818,72.886939
12.175,0.00413,0.004346,0.000299,0.000215,0.00051,-0.000243,0.003411,-0.505674,-0.000746,-1.219159,-259.029937,-1.14052,72.886939
12.1956,0.003985,0.004374,-0.000751,0.000168,0.000534,-5.6e-05,0.004209,-0.505655,0.000211,-1.219159,-259.029937,-1.14052,72.886939
12.2152,0.003934,0.004095,0.002608,0.000132,0.000553,7.9e-05,0.004209,-0.505655,0.000211,-1.219159,-259.029937,-1.14052,72.886939
12.2355,0.004017,0.004318,0.000212,0.000105,0.000568,0.000175,0.005264,-0.505903,0.002608,-1.144286,-259.029937,-1.065646,72.886939
12.2555,0.003885,0.00383,-0.000579,4.2e-05,0.000603,-0.000459,0.004803,-0.505814,0.001637,-1.144286,-259.029937,-1.065646,72.886939
12.2755,0.003725,0.004408,0.000825,-1.5e-05,0.000637,-0.000919,0.00359,-0.50617,-0.000579,-1.219101,-259.029937,-0.990831,72.886939
12.2957,0.003744,0.004394,-0.001156,0.0,0.000632,-0.00079,0.004097,-0.505642,0.000703,-1.219101,-259.029937,-0.990831,72.886939
12.3154,0.004141,0.004211,-1.1e-05,1.4e-05,0.000626,-0.0007,0.004097,-0.505642,0.000703,-1.219101,-259.029937,-0.990831,72.886939
12.3356,0.003902,0.004162,0.000418,2.6e-05,0.000621,-0.000636,0.004135,-0.505789,-1.1e-05,-1.2942,-259.029937,-1.06593,72.886938
12.3556,0.003974,0.004176,0.000845,5e-06,0.000641,-0.000304,0.004127,-0.505809,0.000162,-1.2942,-259.029937,-1.06593,72.886938
12.375,0.003512,0.003879,-0.000349,-6e-06,0.000655,-6.7e-05,0.004405,-0.505824,0.000845,-1.369104,-259.029937,-1.140834,72.886937
12.3959,0.003862,0.004457,0.000715,5e-05,0.000667,0.00034,0.003425,-0.506096,-0.000247,-1.369104,-259.029937,-1.140834,72.886937
12.4153,0.003753,0.00459,0.000568,0.000101,0.000674,0.000631,0.003425,-0.506096,-0.000247,-1.369104,-259.029937,-1.140834,72.886937
12.4353,0.003978,0.004358,-0.001092,0.000146,0.000676,0.000839,0.004042,-0.505409,0.000568,-1.444254,-259.029944,-1.215983,72.886929
12.4556,0.003961,0.004354,-3.9e-05,0.000179,0.000637,0.00091,0.003788,-0.505504,-0.000111,-1.444254,-259.029944,-1.215983,72.886929
12.4751,0.003818,0.003985,0.000266,0.000207,0.000604,0.000959,0.003942,-0.505646,-3.9e-05,-1.519216,-259.029944,-1.141021,72.886929
12.4956,0.004024,0.004146,0.002161,0.000184,0.000621,0.000793,0.003953,-0.505983,0.000239,-1.519216,-259.029944,-1.141021,72.886929
12.5156,0.003606,0.004227,0.000986,0.000165,0.000636,0.000674,0.003953,-0.505983,0.000239,-1.519216,-259.029944,-1.141021,72.886929
12.5355,0.003672,0.004029,0.000526,0.000149,0.00065,0.000589,0.004109,-0.505773,0.000986,-1.594263,-259.029944,-1.065974,72.886929
12.5552,0.003968,0.00435,-4.1e-05,0.000148,0.000646,0.000233,0.00404,-0.505854,0.000799,-1.594263,-259.029944,-1.065974,72.886929
12.5752,0.003986,0.004329,-0.000781,0.000144,0.000645,-2.3e-05,0.003947,-0.50565,-4.1e-05,-1.669139,-259.029944,-0.991098,72.886929
12.5954,0.004007,0.00437,1e-06,0.000161,0.000633,0.00062,0.003619,-0.505669,-0.000717,-1.669139,-259.029944,-0.991098,72.886929
12.6155,0.00392,0.003948,0.000175,0.000183,0.000619,0.001082,0.003619,-0.505669,-0.000717,-1.669139,-259.029944,-0.991098,72.886929
12.6353,0.003549,0.003946,0.00114,0.000207,0.000603,0.001411,0.004009,-0.506052,0.000175,-1.59404,-259.029944,-0.915999,72.886929
12.6555,0.003467,0.004574,-0.000427,0.000181,0.000624,0.000936,0.004059,-0.506053,0.00057,-1.59404,-259.029944,-0.915999,72.886929
12.6751,0.004072,0.004271,0.001533,0.000155,0.000645,0.000596,0.003254,-0.505411,-0.000391,-1.669002,-259.030416,-0.895972,72.887035
12.6954,0.003696,0.004513,-0.002104,0.000102,0.000653,-3.8e-05,0.004715,-0.5057,0.001368,-1.669002,-259.030416,-0.895972,72.887035
12.7152,0.003747,0.004391,0.000696,5.3e-05,0.000666,-0.000497,0.004715,-0.5057,0.001368,-1.669002,-259.030416,-0.895972,72.887035
12.7356,0.004137,0.004515,0.001183,7e-06,0.000679,-0.000828,0.004102,-0.505608,0.000696,-1.723527,-259.030416,-0.820964,72.887035
12.7556,0.003756,0.004718,0.001559,1e-06,0.00067,-0.000831,0.004363,-0.505558,0.000895,-1.723527,-259.030416,-0.820964,72.887035
12.775,0.003707,0.004752,0.000376,-5e-06,0.000662,-0.000834,0.004551,-0.505281,0.001559,-1.648535,-259.030416,-0.895956,72.887035
12.796,0.003284,0.004218,0.000138,4.8e-05,0.000618,-0.000609,0.003957,-0.505251,0.000483,-1.648535,-259.030416,-0.895956,72.887035
12.8155,0.003515,0.0043,0.000727,9.2e-05,0.00058,-0.00045,0.003957,-0.505251,0.000483,-1.648535,-259.030416,-0.895956,72.887035
12.8357,0.003789,0.004033,0.001788,0.000129,0.000546,-0.000337,0.003886,-0.505699,0.000727,-1.573625,-259.030416,-0.970866,72.887034
12.8556,0.003819,0.004457,-0.000656,0.000107,0.000566,-0.000613,0.004217,-0.505808,0.001158,-1.573625,-259.030416,-0.970866,72.887034
12.8752,0.003724,0.004698,-0.001047,8.7e-05,0.000584,-0.00081,0.003484,-0.505543,-0.000656,-1.49863,-259.030416,-1.045861,72.887034
12.8955,0.003696,0.004209,0.000245,0.000171,0.000549,0.000216,0.003215,-0.505323,-0.001014,-1.49863,-259.030416,-1.045861,72.887034
12.9159,0.003597,0.003929,0.000536,0.000251,0.000512,0.000955,0.003215,-0.505323,-0.001014,-1.49863,-259.030416,-1.045861,72.887034
12.9357,0.003699,0.004615,0.001885,0.000324,0.000475,0.001485,0.003871,-0.506071,0.000536,-1.423493,-259.030416,-1.120998,72.887034
12.9556,0.004104,0.004393,0.00107,0.000286,0.00049,0.000736,0.004194,-0.50579,0.001088,-1.423493,-259.030416,-1.120998,72.887034
12.9756,0.003513,0.004034,0.000764,0.000249,0.000509,0.000195,0.004649,-0.505607,0.00107,-1.348518,-259.030416,-1.046022,72.887034
12.9957,0.003976,0.004375,-6.4e-05,0.000224,0.000535,-4.6e-05,0.003963,-0.505936,0.000789,-1.348518,-259.030416,-1.046022,72.887034
13.0155,0.004127,0.004453,0.001589,0.000202,0.000559,-0.000218,0.003963,-0.505936,0.000789,-1.348518,-259.030416,-1.046022,72.887034
13.0353,0.003605,0.004364,0.000342,0.000183,0.000579,-0.000342,0.004937,-0.505547,0.001589,-1.27338,-259.030416,-0.970885,72.887034
13.0554,0.00401,0.004701,-4.7e-05,0.000141,0.000586,-0.000583,0.004467,-0.505583,0.001082,-1.27338,-259.030416,-0.970885,72.887034
13.0755,0.003915,0.004532,0.000995,0.000103,0.000594,-0.000756,0.003986,-0.505299,-4.7e-05,-1.198633,-259.030416,-0.896137,72.887034
13.0955,0.003382,0.00469,0.000939,8.3e-05,0.00059,-0.000792,0.004386,-0.505454,0.00091,-1.198633,-259.030416,-0.896137,72.887034
13.1157,0.003602,0.004337,0.001707,6.6e-05,0.000586,-0.000817,0.004386,-0.505454,0.00091,-1.198633,-259.030416,-0.896137,72.887034
13.1352,0.003757,0.004122,0.00122,5.1e-05,0.000584,-0.000835,0.004473,-0.505662,0.001707,-1.123385,-259.030416,-0.971385,72.887034
13.1554,0.003924,0.004406,-0.000773,2.7e-05,0.000601,-0.001132,0.004435,-0.50575,0.001509,-1.123385,-259.030416,-0.971385,72.887034
13.1751,0.003896,0.004308,-0.000115,4e-06,0.000617,-0.001345,0.00353,-0.505594,-0.000773,-1.048637,-259.030416,-1.046133,72.887034
13.1954,0.003613,0.004337,0.001942,1.6e-05,0.000623,-0.000613,0.003809,-0.505683,-0.000176,-1.048637,-259.030416,-1.046133,72.887034
13.2153,0.00329,0.004416,0.000561,3.5e-05,0.000621,-9.2e-05,0.003809,-0.505683,-0.000176,-1.048637,-259.030416,-1.046133,72.887034
13.2352,0.003428,0.004771,0.000601,5.8e-05,0.000616,0.00028,0.003576,-0.505584,0.000561,-1.123653,-259.030416,-1.121149,72.887034
13.2552,0.003909,0.004215,-0.000637,0.000141,0.000569,0.000144,0.003641,-0.505439,0.000577,-1.123653,-259.030416,-1.121149,72.887034
13.2755,0.003488,0.004542,0.000872,0.000205,0.00053,4.4e-05,0.003584,-0.505785,-0.000637,-1.198636,-259.030416,-1.196133,72.887034
13.2951,0.00376,0.004282,0.000804,0.000223,0.000512,-0.000123,0.003903,-0.505486,0.000743,-1.198636,-259.030416,-1.196133,72.887034
13.3156,0.003748,0.004497,0.000964,0.000236,0.000498,-0.000244,0.003903,-0.505486,0.000743,-1.198636,-259.030416,-1.196133,72.887034
13.3352,0.003605,0.004433,-0.00032,0.000245,0.000487,-0.000332,0.004239,-0.505502,0.000964,-1.123521,-259.030416,-1.121017,72.887034
13.3552,0.003524,0.004639,-0.000583,0.000239,0.000486,-0.000233,0.00391,-0.505529,0.000434,-1.123521,-259.030416,-1.121017,72.887034
13.3751,0.003625,0.004454,0.000585,0.000236,0.000485,-0.000163,0.003226,-0.505361,-0.000583,-1.048496,-259.030416,-1.045993,72.887034
13.3952,0.003858,0.004452,0.000241,0.000242,0.000481,-0.000141,0.003865,-0.50553,0.000487,-1.048496,-259.030416,-1.045993,72.887034
13.4155,0.003417,0.004586,0.000967,0.000246,0.000477,-0.000125,0.003865,-0.50553,0.000487,-1.048496,-259.030416,-1.045993,72.887034
13.4351,0.003438,0.004461,0.00141,0.00025,0.000474,-0.000114,0.00391,-0.505413,0.000967,-0.973442,-259.030416,-0.970939,72.887034
13.4552,0.003656,0.004769,0.000621,0.000257,0.000462,-0.000442,0.004011,-0.505465,0.001148,-0.973442,-259.030416,-0.970939,72.887034
13.4753,0.003683,0.004276,-0.000366,0.000259,0.000456,-0.000678,0.003973,-0.505231,0.000621,-0.898636,-259.030416,-0.896133,72.887034
13.4953,0.003751,0.004372,0.000596,0.000264,0.000471,-8.1e-05,0.003536,-0.505683,-0.000284,-0.898636,-259.030416,-0.896133,72.887034
13.5153,0.003646,0.004271,0.001925,0.000277,0.000479,0.000346,0.003536,-0.505683,-0.000284,-0.898636,-259.030416,-0.896133,72.887034
13.5355,0.003632,0.004395,-0.000729,0.000293,0.000482,0.000651,0.004627,-0.505728,0.001925,-0.823427,-259.030416,-0.820924,72.887034
13.5553,0.003677,0.004664,-0.000475,0.000271,0.000489,0.00025,0.004074,-0.505678,0.000851,-0.823427,-259.030416,-0.820924,72.887034
13.5754,0.003778,0.004239,0.000609,0.000249,0.000498,-3.8e-05,0.003434,-0.505336,-0.000475,-0.748617,-259.030416,-0.746113,72.887034
13.5951,0.003684,0.004802,0.001036,0.000221,0.000515,-7.2e-05,0.004033,-0.505725,0.000516,-0.748617,-259.030416,-0.746113,72.887034
13.6152,0.00416,0.004868,-0.000498,0.000199,0.000529,-9.6e-05,0.004033,-0.505725,0.000516,-0.748617,-259.030416,-0.746113,72.887034
13.6356,0.003699,0.004822,-0.001476,0.000181,0.000542,-0.000113,0.003906,-0.505132,-0.000498,-0.673487,-259.030416,-0.670983,72.887034
13.656,0.003748,0.004479,4e-05,0.000229,0.000506,0.000651,0.003516,-0.50515,-0.000895,-0.673487,-259.030416,-0.670983,72.887034
13.6756,0.003669,0.004091,0.001171,0.000277,0.00047,0.001199,0.003769,-0.505521,4e-05,-0.598598,-259.030416,-0.596095,72.887034
13.6956,0.003867,0.004427,0.001135,0.000237,0.000498,0.000534,0.004223,-0.505875,0.001073,-0.598598,-259.030416,-0.596095,72.887034
13.7157,0.003702,0.004502,-0.001012,0.000199,0.000526,5.4e-05,0.004223,-0.505875,0.001073,-0.598598,-259.030416,-0.596095,72.887034
13.7357,0.003544,0.004446,0.000273,0.000163,0.000554,-0.000291,0.003186,-0.505498,-0.001012,-0.523372,-259.030416,-0.67132,72.887034
13.7553,0.003718,0.004274,-0.000666,0.00022,0.000534,0.000308,0.003393,-0.505521,-0.000477,-0.523372,-259.030416,-0.67132,72.887034
13.7757,0.003695,0.004295,0.000154,0.000273,0.000513,0.000737,0.003378,-0.505726,-0.000666,-0.448394,-259.030416,-0.596342,72.887034
13.7956,0.003723,0.004508,0.000452,0.000277,0.000512,0.000725,0.00374,-0.505707,8.4e-05,-0.448394,-259.030416,-0.596342,72.887034
13.8156,0.003537,0.004655,0.002043,0.00028,0.000512,0.000716,0.00374,-0.505707,8.4e-05,-0.448394,-259.030416,-0.596342,72.887034
13.8357,0.003829,0.004238,0.000837,0.000283,0.000512,0.00071,0.004579,-0.505344,0.002043,-0.37351,-259.030416,-0.521458,72.887034
13.8557,0.003863,0.004602,0.002253,0.000248,0.000508,-2.5e-05,0.004447,-0.505515,0.001551,-0.37351,-259.030416,-0.521458,72.887034
13.8755,0.003802,0.004233,0.00111,0.000213,0.000511,-0.00056,0.005012,-0.505396,0.002253,-0.298634,-259.030416,-0.446582,72.887034
13.8959,0.003749,0.004272,0.000357,0.000158,0.000541,-0.000797,0.004422,-0.505736,0.001207,-0.298634,-259.030416,-0.446582,72.887034
13.9157,0.003755,0.004553,0.002058,0.000111,0.000568,-0.000966,0.004422,-0.505736,0.001207,-0.298634,-259.030416,-0.446582,72.887034
13.9359,0.003602,0.004335,0.001389,7.1e-05,0.000591,-0.001088,0.004804,-0.505446,0.002058,-0.223459,-259.030416,-0.371407,72.887034
13.9559,0.003886,0.004573,0.000897,4.4e-05,0.000594,-0.001426,0.0046,-0.505537,0.001781,-0.223459,-259.030416,-0.371407,72.887034
13.9755,0.003798,0.004338,0.000984,1.8e-05,0.0006,-0.001669,0.004343,-0.505427,0.000897,-0.298456,-259.030416,-0.446404,72.887034
13.9956,0.003552,0.004732,-0.000913,-2e-06,0.000614,-0.001469,0.004304,-0.505642,0.000977,-0.298456,-259.030416,-0.446404,72.887034
14.0155,0.003713,0.004365,0.000279,-1.6e-05,0.000623,-0.001327,0.004304,-0.505642,0.000977,-0.298456,-259.030416,-0.446404,72.887034
14.0355,0.003714,0.004307,0.000655,-2.6e-05,0.00063,-0.001227,0.003856,-0.505635,0.000279,-0.373447,-259.030416,-0.521395,72.887034
14.0555,0.003913,0.004513,-0.000407,-4e-06,0.000626,-0.000863,0.003935,-0.505659,0.000434,-0.373447,-259.030416,-0.521395,72.887034
14.075,0.003537,0.004548,0.001763,1.9e-05,0.000619,-0.000606,0.003706,-0.505487,-0.000407,-0.298458,-259.030416,-0.596383,72.887034
14.0954,0.003693,0.004557,-8.5e-05,3e-05,0.000599,-0.000989,0.004375,-0.505455,0.001582,-0.298458,-259.030416,-0.596383,72.887034
14.1152,0.003791,0.004559,0.001625,3.5e-05,0.000586,-0.001266,0.004375,-0.505455,0.001582,-0.298458,-259.030416,-0.596383,72.887034
14.1354,0.003683,0.004606,-0.000647,3.6e-05,0.000577,-0.001465,0.004619,-0.50544,0.001625,-0.373499,-259.030416,-0.671424,72.887034
14.1552,0.00338,0.004417,-0.000406,4.5e-05,0.000569,-0.001166,0.004095,-0.505421,0.000684,-0.373499,-259.030416,-0.671424,72.887034
14.175,0.003554,0.004751,0.001505,5.6e-05,0.000559,-0.000955,0.003173,-0.505583,-0.000406,-0.44847,-259.030416,-0.746395,72.887034
14.1953,0.003907,0.004066,-0.000269,7.9e-05,0.000534,-0.001135,0.004227,-0.505276,0.001348,-0.44847,-259.030416,-0.746395,72.887034
14.215,0.004169,0.004217,0.000106,9.5e-05,0.000515,-0.001265,0.004227,-0.505276,0.001348,-0.44847,-259.030416,-0.746395,72.887034
14.2354,0.003539,0.004171,0.000586,0.000106,0.0005,-0.001358,0.004223,-0.505783,0.000106,-0.416546,-259.030416,-0.821452,72.887034
14.2553,0.003825,0.004658,0.000758,6.8e-05,0.000541,-0.000895,0.004064,-0.505802,0.000305,-0.416546,-259.030416,-0.821452,72.887034
14.275,0.003768,0.004319,0.000389,4.4e-05,0.00057,-0.000564,0.004212,-0.505342,0.000758,-0.491492,-259.030416,-0.896398,72.887034
14.2953,0.004191,0.0045,0.000829,5.4e-05,0.000572,-0.000389,0.003988,-0.505652,0.000421,-0.491492,-259.030416,-0.896398,72.887034
14.3152,0.003948,0.00443,0.002187,6.4e-05,0.000573,-0.000265,0.003988,-0.505652,0.000421,-0.491492,-259.030416,-0.896398,72.887034
14.3359,0.00355,0.004314,0.000413,7.4e-05,0.000573,-0.000177,0.005063,-0.505569,0.002187,-0.416506,-259.030416,-0.971384,72.887034
14.3558,0.004196,0.004213,0.001517,4.9e-05,0.00058,-0.000639,0.004535,-0.505616,0.001468,-0.416506,-259.030416,-0.971384,72.887034
14.3757,0.003826,0.004416,0.001396,2.3e-05,0.000591,-0.000971,0.00497,-0.505787,0.001517,-0.491357,-259.030416,-1.046236,72.887034
14.3952,0.003678,0.004642,-0.000274,-5e-06,0.000604,-0.001184,0.004575,-0.505601,0.001407,-0.491357,-259.030416,-1.046236,72.887034
14.4153,0.003507,0.004651,-0.000314,-3.1e-05,0.000616,-0.001336,0.004575,-0.505601,0.001407,-0.491357,-259.030416,-1.046236,72.887034
14.435,0.004193,0.004314,8.3e-05,-5.5e-05,0.000628,-0.001445,0.003347,-0.505349,-0.000314,-0.416199,-259.030416,-1.121394,72.887034
14.4552,0.003333,0.004581,0.000246,-7e-06,0.000612,-0.00069,0.003708,-0.505486,-0.000152,-0.416199,-259.030416,-1.121394,72.887034
14.4753,0.003565,0.00453,0.001968,4.1e-05,0.000592,-0.000154,0.003458,-0.505419,0.000246,-0.341375,-259.030416,-1.196218,72.887034
14.4954,0.003545,0.004204,-0.000321,4.3e-05,0.000576,-0.000757,0.004474,-0.505465,0.001821,-0.341375,-259.030416,-1.196218,72.887034
14.5156,0.003749,0.004211,0.000373,4e-05,0.000567,-0.001194,0.004474,-0.505465,0.001821,-0.341375,-259.030416,-1.196218,72.887034
14.5355,0.003648,0.004531,-0.000412,3.3e-05,0.000563,-0.001511,0.003939,-0.505789,0.000373,-0.416514,-259.030416,-1.271357,72.887034
14.5555,0.003471,0.004383,0.000656,5.2e-05,0.000571,-0.000846,0.003733,-0.505657,5e-05,-0.416514,-259.030416,-1.271357,72.887034
14.5755,0.003631,0.004408,0.002347,7.6e-05,0.000571,-0.000374,0.003806,-0.505617,0.000656,-0.491515,-259.030416,-1.346359,72.887034
14.5954,0.003845,0.004282,0.00097,3.9e-05,0.00058,-0.001058,0.004736,-0.505593,0.002194,-0.491515,-259.030416,-1.346359,72.887034
14.6155,0.003675,0.004402,0.00017,2e-06,0.000593,-0.001555,0.004736,-0.505593,0.002194,-0.491515,-259.030416,-1.346359,72.887034
14.6353,0.003999,0.004181,-0.000141,-3.3e-05,0.000608,-0.001915,0.003762,-0.505598,0.00017,-0.41652,-259.030416,-1.421354,72.887034
14.6553,0.00373,0.004342,0.000513,-2.3e-05,0.000619,-0.001124,0.003829,-0.505688,4.3e-05,-0.41652,-259.030416,-1.421354,72.887034
14.6756,0.00369,0.004222,0.000561,-4e-06,0.000622,-0.000564,0.003992,-0.505658,0.000513,-0.491426,-259.030416,-1.49626,72.887034
14.6953,0.003758,0.00408,0.000792,1e-05,0.000624,-0.000451,0.003978,-0.505768,0.000557,-0.491426,-259.030416,-1.49626,72.887034
14.7157,0.003612,0.004268,0.002261,2.3e-05,0.000625,-0.000373,0.003978,-0.505768,0.000557,-0.491426,-259.030416,-1.49626,72.887034
14.7356,0.003791,0.00438,8.4e-05,3.5e-05,0.000625,-0.000321,0.004765,-0.505731,0.002261,-0.566579,-259.030416,-1.566475,72.887034
14.7556,0.003798,0.004069,-0.000113,2.5e-05,0.000625,-0.000687,0.004378,-0.505685,0.001358,-0.566579,-259.030416,-1.566475,72.887034
14.7751,0.003451,0.004414,-0.000353,1.4e-05,0.000629,-0.000951,0.003741,-0.505931,-0.000113,-0.641587,-259.030416,-1.613956,72.887034
14.7951,0.00396,0.004074,0.001548,9.6e-05,0.000605,-0.000233,0.003314,-0.505618,-0.000331,-0.641587,-259.030416,-1.613956,72.887034
14.8152,0.003722,0.004182,0.000663,0.000172,0.000579,0.000278,0.003314,-0.505618,-0.000331,-0.641587,-259.030416,-1.613956,72.887034
14.8357,0.003978,0.00428,-0.000546,0.00024,0.000553,0.000641,0.00406,-0.505817,0.000663,-0.566784,-259.030416,-1.582021,72.887034
14.8558,0.003983,0.004348,0.000418,0.000221,0.000561,0.000608,0.003913,-0.505778,0.000169,-0.566784,-259.030416,-1.582021,72.887034
14.8755,0.003931,0.004382,0.000718,0.000206,0.000567,0.000584,0.004196,-0.505652,0.000418,-0.491777,-259.030416,-1.507014,72.887034
14.8955,0.003882,0.004193,0.001973,0.000175,0.00057,0.00028,0.004289,-0.505621,0.000692,-0.491777,-259.030416,-1.507014,72.887034
14.9153,0.003677,0.004355,0.001118,0.000147,0.000574,6.2e-05,0.004289,-0.505621,0.000692,-0.491777,-259.030416,-1.507014,72.887034
14.9353,0.00408,0.004213,0.000425,0.000122,0.000579,-9.5e-05,0.004248,-0.505645,0.001118,-0.416642,-259.030416,-1.431879,72.887034
14.9554,0.003656,0.004427,0.000581,0.0001,0.000589,-0.000279,0.004268,-0.505703,0.000832,-0.416642,-259.030416,-1.431879,72.887034
14.9755,0.00382,0.004589,0.001152,8e-05,0.000598,-0.000412,0.003953,-0.505573,0.000581,-0.341656,-259.030416,-1.356893,72.887034
14.9951,0.004167,0.004394,-0.001158,7.8e-05,0.000585,-0.000634,0.00436,-0.505428,0.001092,-0.341656,-259.030416,-1.356893,72.887034
