mach0312/omni-docking-bench/src/icros_test_setup/results/MPPI_sample/timeseries/trial_099.csv
t,x,y,yaw,vx,vy,wz,bl_x,bl_y,bl_yaw,front_steering_joint,front_wheel_joint,rear_steering_joint,rear_wheel_joint
0.0,-0.047266,0.02767,0.088267,0.003969,0.000121,0.000818,-0.003841,-0.480466,0.086566,0.155055,-264.040111,-0.095231,68.392994
0.0003,-0.046627,0.027695,0.087456,0.003109,9.4e-05,0.000641,-0.00396,-0.48109,0.086227,0.155055,-264.03671,-0.095231,68.39637
0.0006,-0.046844,0.027597,0.086467,0.002128,6.5e-05,0.000439,-0.003674,-0.480637,0.086196,0.155055,-264.033814,-0.095231,68.399244
0.0009,-0.046739,0.027548,0.087553,0.001095,3.3e-05,0.000226,-0.003674,-0.480637,0.086196,0.155055,-264.03183,-0.095231,68.401212
0.0012,-0.046705,0.02773,0.086511,3e-06,0.0,1e-06,-0.003674,-0.480637,0.086196,0.155055,-264.030569,-0.095231,68.402464
0.0015,-0.046352,0.027489,0.087079,0.0,0.0,0.0,-0.003649,-0.480685,0.08559,0.155055,-264.030568,-0.095231,68.402465
0.0018,-0.046669,0.027542,0.08555,0.0,0.0,0.0,-0.003649,-0.480685,0.08559,0.155055,-264.030568,-0.095231,68.402465
0.0022,-0.046617,0.027623,0.08652,0.0,0.0,0.0,-0.003675,-0.480695,0.085806,0.155055,-264.030568,-0.095231,68.402465
0.0024,-0.046561,0.027438,0.086727,0.0,0.0,0.0,-0.003675,-0.480695,0.085806,0.155055,-264.030568,-0.095231,68.402465
0.0166,-0.046462,0.02754,0.086191,0.0,0.0,0.0,-0.002385,-0.480645,0.086727,0.155055,-264.030568,-0.095231,68.402465
0.0367,-0.046612,0.027752,0.08648,0.0,0.0,0.0,-0.002544,-0.480574,0.086237,0.155055,-264.030568,-0.095231,68.402465
0.0567,-0.046513,0.027314,0.087141,0.0,0.0,0.0,-0.002544,-0.480574,0.086237,0.155055,-264.030568,-0.095231,68.402465
0.0765,-0.046558,0.027944,0.085247,0.0,0.0,0.0,-0.002127,-0.480751,0.087141,0.155055,-264.030568,-0.095231,68.402465
0.0965,-0.046171,0.027273,0.084964,0.0,0.0,0.0,-0.00254,-0.480526,0.086365,0.155055,-264.030568,-0.095231,68.402465
0.1166,-0.046514,0.027823,0.085609,0.003285,-0.004123,-0.009553,-0.002891,-0.480887,0.084964,0.155055,-264.030568,-0.095231,68.402465
0.1367,-0.046487,0.027684,0.08614,0.003563,-0.0045,-0.01027,-0.002905,-0.480359,0.085554,0.155055,-264.030568,-0.095231,68.402465
0.1568,-0.046462,0.027552,0.085835,0.003793,-0.004822,-0.010837,-0.002905,-0.480359,0.085554,0.155055,-264.030568,-0.095231,68.402465
0.1767,-0.04636,0.027651,0.085922,0.003984,-0.005096,-0.011283,-0.00274,-0.480571,0.085835,0.08003,-264.030568,-0.020206,68.402465
0.1969,-0.046805,0.027486,0.08608,0.004135,-0.005329,-0.011634,-0.00268,-0.480529,0.08587,0.08003,-264.030568,-0.020206,68.402465
0.2166,-0.046167,0.027623,0.086851,0.004261,-0.00553,-0.011908,-0.002959,-0.480625,0.08608,0.005062,-264.030568,0.054762,68.402465
0.2365,-0.046442,0.027699,0.086384,0.004344,-0.0057,-0.01212,-0.002017,-0.480469,0.086785,0.005062,-264.030568,0.054762,68.402465
0.2575,-0.046217,0.027653,0.087275,0.004412,-0.005846,-0.012283,-0.002017,-0.480469,0.086785,0.005062,-264.030568,0.054762,68.402465
0.2765,-0.046149,0.027496,0.08537,0.004469,-0.005972,-0.01241,-0.001763,-0.480406,0.087275,-0.069984,-264.030568,0.129808,68.402465
0.2967,-0.046634,0.027791,0.08604,0.004521,-0.00608,-0.012508,-0.002118,-0.480501,0.086524,-0.069984,-264.030568,0.129808,68.402465
0.3166,-0.046303,0.027628,0.087326,0.004565,-0.006173,-0.012584,-0.002807,-0.480322,0.08604,-0.144938,-264.030568,0.204762,68.402465
0.3367,-0.046185,0.027489,0.08878,0.004596,-0.006252,-0.012641,-0.001912,-0.480419,0.08721,-0.144938,-264.030568,0.204762,68.402465
0.3567,-0.046579,0.027351,0.085342,0.004621,-0.006321,-0.012686,-0.001912,-0.480419,0.08721,-0.144938,-264.030568,0.204762,68.402465
0.3767,-0.046781,0.027476,0.086679,0.004642,-0.006379,-0.01272,-0.003107,-0.480793,0.085342,-0.21984,-264.030567,0.279664,68.402466
0.3966,-0.046586,0.027547,0.087225,0.004697,-0.006432,-0.012747,-0.002911,-0.480718,0.085891,-0.21984,-264.030567,0.279664,68.402466
0.4168,-0.046659,0.027485,0.087327,0.004743,-0.006477,-0.012767,-0.002157,-0.480514,0.087225,-0.294978,-264.030567,0.290858,68.402466
0.4367,-0.046542,0.027336,0.086776,0.004753,-0.006514,-0.012781,-0.002177,-0.480566,0.087317,-0.294978,-264.030567,0.290858,68.402466
0.4568,-0.046406,0.02763,0.085675,0.004761,-0.006546,-0.012791,-0.002177,-0.480566,0.087317,-0.294978,-264.030567,0.290858,68.402466
0.4768,-0.046539,0.027406,0.08666,0.004767,-0.006573,-0.012799,-0.002765,-0.4805,0.085675,-0.369857,-264.030566,0.271479,68.402466
0.4968,-0.046393,0.027561,0.086087,0.00479,-0.006598,-0.012805,-0.002616,-0.480573,0.086075,-0.369857,-264.030566,0.271479,68.402466
0.5165,-0.046414,0.027813,0.085913,0.004808,-0.00662,-0.012809,-0.002543,-0.480551,0.086087,-0.44484,-264.030565,0.255152,68.402466
0.5365,-0.04674,0.027332,0.087737,0.004824,-0.006638,-0.012812,-0.002642,-0.480328,0.085929,-0.44484,-264.030565,0.255152,68.402466
0.5566,-0.046312,0.027819,0.087418,0.004837,-0.006654,-0.012814,-0.002642,-0.480328,0.085929,-0.44484,-264.030565,0.255152,68.402466
0.5766,-0.046634,0.027483,0.086508,0.004847,-0.006668,-0.012815,-0.001785,-0.480233,0.087418,-0.519848,-264.030565,0.245235,68.402466
0.5967,-0.04658,0.027065,0.08526,0.004836,-0.006679,-0.012814,-0.002103,-0.480386,0.08705,-0.519848,-264.030565,0.245235,68.402466
0.6162,-0.046555,0.02779,0.086315,0.004827,-0.006688,-0.012814,-0.00315,-0.481082,0.08526,-0.519848,-264.030565,0.245235,68.402466
0.637,-0.046184,0.027475,0.086179,0.004839,-0.006698,-0.012815,-0.002638,-0.480379,0.086222,-0.594839,-264.030564,0.234606,68.402467
0.6568,-0.046726,0.027777,0.087922,0.004849,-0.006706,-0.012815,-0.002638,-0.480379,0.086222,-0.594839,-264.030564,0.234606,68.402467
0.6766,-0.046597,0.027618,0.087442,0.004857,-0.006713,-0.012815,-0.001943,-0.480253,0.087922,-0.669844,-264.030559,0.23164,68.402468
0.6966,-0.046439,0.027768,0.087436,0.004839,-0.006717,-0.012813,-0.00199,-0.480327,0.087727,-0.669844,-264.030559,0.23164,68.402468
0.7162,-0.046674,0.027889,0.087713,0.004824,-0.006722,-0.012813,-0.001903,-0.480284,0.087435,-0.744843,-264.030538,0.22537,68.402475
0.7363,-0.046194,0.027443,0.086695,0.004811,-0.006725,-0.012812,-0.00199,-0.480162,0.087689,-0.744843,-264.030538,0.22537,68.402475
0.7566,-0.046514,0.027551,0.086561,0.0048,-0.006729,-0.012812,-0.00199,-0.480162,0.087689,-0.744843,-264.030538,0.22537,68.402475
0.7766,-0.046713,0.027257,0.085614,0.004791,-0.006732,-0.012812,-0.002418,-0.480542,0.086555,-0.819937,-264.030453,0.224933,68.402503
0.7967,-0.046646,0.027536,0.08688,0.004812,-0.006737,-0.012812,-0.002695,-0.480677,0.086173,-0.819937,-264.030453,0.224933,68.402503
0.8162,-0.046774,0.027648,0.086933,0.00483,-0.006741,-0.012812,-0.002382,-0.480547,0.086864,-0.894942,-264.030175,0.224156,68.402592
0.8364,-0.04645,0.02747,0.084307,0.004835,-0.006744,-0.012812,-0.002484,-0.480436,0.086926,-0.894942,-264.030175,0.224156,68.402592
0.8563,-0.046619,0.027518,0.087267,0.004839,-0.006746,-0.012811,-0.002484,-0.480436,0.086926,-0.894942,-264.030175,0.224156,68.402592
0.8763,-0.046494,0.02753,0.086411,0.004843,-0.006748,-0.012811,-0.002131,-0.480569,0.087208,-0.970101,-264.029402,0.220813,68.402841
0.8964,-0.046468,0.027209,0.087447,0.004838,-0.006749,-0.01281,-0.002269,-0.480571,0.086876,-0.970101,-264.029402,0.220813,68.402841
0.9163,-0.04625,0.027442,0.086441,0.004835,-0.00675,-0.01281,-0.001866,-0.480892,0.087342,-1.044843,-264.027675,0.218704,68.403399
0.9364,-0.046262,0.027423,0.087624,0.00483,-0.006751,-0.01281,-0.002187,-0.480677,0.086514,-1.044843,-264.027675,0.218704,68.403399
0.9564,-0.045788,0.027524,0.08675,0.004826,-0.006752,-0.012809,-0.002187,-0.480677,0.086514,-1.044843,-264.027675,0.218704,68.403399
0.9764,-0.045874,0.027443,0.087395,0.004822,-0.006753,-0.012809,-0.001467,-0.480682,0.086492,-1.119966,-264.024573,0.218452,68.404399
0.9963,-0.046049,0.027173,0.086437,0.004791,-0.006751,-0.01288,-0.001408,-0.480667,0.086829,-1.119966,-264.024573,0.218452,68.404399
1.0166,-0.045929,0.026821,0.08474,0.004765,-0.00675,-0.012937,-0.001881,-0.481071,0.086133,-1.19485,-264.019918,0.218412,68.405897
1.0364,-0.045486,0.02736,0.085056,0.004793,-0.006753,-0.013035,-0.002676,-0.481332,0.084851,-1.19485,-264.019918,0.218412,68.405897
1.0568,-0.045267,0.027055,0.085012,0.004816,-0.006754,-0.013113,-0.002676,-0.481332,0.084851,-1.19485,-264.019918,0.218412,68.405897
1.0766,-0.044547,0.027011,0.084412,0.004836,-0.006755,-0.013176,-0.001753,-0.481353,0.084502,-1.256391,-264.01415,0.237148,68.407732
1.0967,-0.044884,0.026829,0.083232,0.004812,-0.006752,-0.013284,-0.001648,-0.481309,0.084409,-1.256391,-264.01415,0.237148,68.407732
1.1165,-0.044152,0.026337,0.083067,0.004792,-0.006749,-0.013371,-0.002315,-0.481605,0.082816,-1.255021,-264.007966,0.261195,68.40972
1.1366,-0.044343,0.026438,0.083766,0.004785,-0.006748,-0.013501,-0.00187,-0.481888,0.083024,-1.255021,-264.007966,0.261195,68.40972
1.1565,-0.044218,0.02692,0.084365,0.00478,-0.006746,-0.013606,-0.00187,-0.481888,0.083024,-1.255021,-264.007966,0.261195,68.40972
1.1765,-0.04368,0.026163,0.081628,0.004775,-0.006744,-0.013692,-0.001023,-0.481527,0.083813,-1.259954,-264.001769,0.287513,68.411697
1.1966,-0.043908,0.026674,0.083234,0.004754,-0.006741,-0.013817,-0.001444,-0.481811,0.082841,-1.259954,-264.001769,0.287513,68.411697
1.2167,-0.043324,0.02599,0.082583,0.004737,-0.006737,-0.013919,-0.001343,-0.481756,0.08281,-1.264618,-263.995593,0.326673,68.413662
1.2365,-0.042711,0.026077,0.084113,0.004715,-0.006733,-0.014053,-0.001254,-0.482237,0.082582,-1.264618,-263.995593,0.326673,68.413662
1.2565,-0.043125,0.026167,0.083267,0.004697,-0.00673,-0.014162,-0.001254,-0.482237,0.082582,-1.264618,-263.995593,0.326673,68.413662
1.2764,-0.042716,0.025769,0.081853,0.004682,-0.006726,-0.014252,-0.000491,-0.482326,0.082694,-1.269415,-263.989312,0.356467,68.415652
1.2966,-0.042296,0.025473,0.08252,0.004647,-0.00672,-0.014373,-0.000681,-0.482437,0.082284,-1.269415,-263.989312,0.356467,68.415652
1.3164,-0.042074,0.025588,0.081181,0.004618,-0.006715,-0.014472,-9.7e-05,-0.482986,0.08208,-1.27618,-263.983057,0.399678,68.417623
1.3364,-0.041855,0.025615,0.079868,0.004593,-0.006711,-0.014599,-0.000653,-0.482765,0.081239,-1.27618,-263.983057,0.399678,68.417623
1.3564,-0.041896,0.025326,0.083007,0.004573,-0.006707,-0.014703,-0.000653,-0.482765,0.081239,-1.27618,-263.983057,0.399678,68.417623
1.3766,-0.041139,0.025147,0.080127,0.004556,-0.006703,-0.014788,0.000602,-0.483178,0.082411,-1.282182,-263.976671,0.430945,68.419624
1.3964,-0.04132,0.025329,0.079024,0.004504,-0.006695,-0.014901,0.000254,-0.483224,0.081417,-1.282182,-263.976671,0.430945,68.419624
1.4164,-0.040813,0.024943,0.08029,0.004462,-0.006687,-0.014993,-0.000902,-0.483275,0.078567,-1.288977,-263.970302,0.4725,68.421613
1.4365,-0.040452,0.024818,0.080752,0.004437,-0.006683,-0.015106,1e-05,-0.483411,0.080112,-1.288977,-263.970302,0.4725,68.421613
1.457,-0.041076,0.024824,0.078685,0.004416,-0.006679,-0.015199,1e-05,-0.483411,0.080112,-1.288977,-263.970302,0.4725,68.421613
1.4767,-0.040275,0.024452,0.07774,0.004399,-0.006676,-0.015275,-0.000784,-0.483859,0.078067,-1.296304,-263.963837,0.505519,68.423616
1.4966,-0.03996,0.024487,0.079043,0.004417,-0.006677,-0.015365,-0.000713,-0.483949,0.077865,-1.296304,-263.963837,0.505519,68.423616
1.5163,-0.039343,0.024279,0.078133,0.004432,-0.006677,-0.015438,0.000463,-0.484117,0.078567,-1.302558,-263.957347,0.54272,68.425625
1.5364,-0.039524,0.024202,0.078274,0.004394,-0.006669,-0.015512,0.000471,-0.484171,0.078147,-1.302558,-263.957347,0.54272,68.425625
1.5567,-0.039497,0.024207,0.077712,0.004362,-0.006663,-0.015573,0.000471,-0.484171,0.078147,-1.302558,-263.957347,0.54272,68.425625
1.5765,-0.038728,0.024135,0.079263,0.004336,-0.006658,-0.015624,0.000302,-0.484518,0.077066,-1.302271,-263.950673,0.555578,68.427709
1.5966,-0.038605,0.024317,0.078422,0.004297,-0.00665,-0.015675,0.000881,-0.484444,0.077894,-1.302271,-263.950673,0.555578,68.427709
1.6165,-0.038238,0.02395,0.077974,0.004264,-0.006644,-0.015718,0.001501,-0.484313,0.077933,-1.309267,-263.944085,0.586983,68.429755
1.6367,-0.038323,0.023881,0.077816,0.004211,-0.006634,-0.01576,0.001497,-0.484494,0.077945,-1.309267,-263.944085,0.586983,68.429755
1.6567,-0.038184,0.023707,0.076462,0.004167,-0.006626,-0.015795,0.001497,-0.484494,0.077945,-1.309267,-263.944085,0.586983,68.429755
1.6765,-0.037424,0.023495,0.078227,0.00413,-0.00662,-0.015825,0.000972,-0.485065,0.075807,-1.314073,-263.937399,0.606073,68.43182
1.6967,-0.037578,0.023432,0.076974,0.004095,-0.006614,-0.015857,0.001591,-0.485046,0.076721,-1.314073,-263.937399,0.606073,68.43182
1.7167,-0.036984,0.023169,0.075098,0.004067,-0.006609,-0.015883,0.001784,-0.485255,0.076478,-1.322425,-263.930763,0.635324,68.433847
1.7366,-0.0372,0.02362,0.075656,0.004055,-0.006608,-0.015913,0.001328,-0.485391,0.075187,-1.322425,-263.930763,0.635324,68.433847
1.7566,-0.036701,0.023256,0.074637,0.004046,-0.006607,-0.015938,0.001328,-0.485391,0.075187,-1.322425,-263.930763,0.635324,68.433847
1.7769,-0.03631,0.022983,0.074705,0.004037,-0.006606,-0.015958,0.001517,-0.485585,0.073978,-1.326449,-263.924076,0.650066,68.435879
1.7968,-0.036134,0.022917,0.07384,0.004018,-0.006602,-0.01598,0.001637,-0.485619,0.074201,-1.326449,-263.924076,0.650066,68.435879
1.8167,-0.035612,0.02264,0.072799,0.004001,-0.006599,-0.015999,0.001633,-0.485893,0.073334,-1.32873,-263.917357,0.661133,68.43792
1.8366,-0.035601,0.022649,0.073731,0.003994,-0.006598,-0.016021,0.001504,-0.486009,0.072822,-1.32873,-263.917357,0.661133,68.43792
1.8566,-0.035538,0.022782,0.072737,0.003988,-0.006597,-0.016039,0.001504,-0.486009,0.072822,-1.32873,-263.917357,0.661133,68.43792
1.8766,-0.035186,0.022501,0.071822,0.003983,-0.006596,-0.016054,0.001712,-0.486132,0.072069,-1.331092,-263.910617,0.670396,68.439962
1.8968,-0.034634,0.022555,0.072465,0.003974,-0.006594,-0.016071,0.00161,-0.486184,0.07189,-1.331092,-263.910617,0.670396,68.439962
1.917,-0.034273,0.022137,0.070788,0.003967,-0.006593,-0.016085,0.002432,-0.486306,0.071956,-1.332582,-263.903873,0.678202,68.442005
1.9367,-0.034139,0.022214,0.072473,0.00395,-0.006589,-0.0161,0.001858,-0.486572,0.070861,-1.332582,-263.903873,0.678202,68.442005
1.9568,-0.034405,0.021891,0.071244,0.003935,-0.006586,-0.016114,0.001858,-0.486572,0.070861,-1.332582,-263.903873,0.678202,68.442005
1.9764,-0.033801,0.022039,0.07147,0.003923,-0.006584,-0.016125,0.002083,-0.487078,0.070572,-1.333696,-263.897137,0.683451,68.444046
1.9967,-0.033317,0.021641,0.070333,0.00389,-0.006576,-0.016136,0.002321,-0.486939,0.070858,-1.333696,-263.897137,0.683451,68.444046
2.0167,-0.033203,0.021302,0.069959,0.003863,-0.00657,-0.016146,0.002663,-0.487299,0.069819,-1.336426,-263.890375,0.693972,68.446089
2.0369,-0.032742,0.021929,0.070745,0.003832,-0.006563,-0.016158,0.002472,-0.487448,0.069923,-1.336426,-263.890375,0.693972,68.446089
2.0567,-0.033236,0.021499,0.069804,0.003806,-0.006558,-0.016168,0.002472,-0.487448,0.069923,-1.336426,-263.890375,0.693972,68.446089
2.0765,-0.032178,0.021228,0.070272,0.003785,-0.006553,-0.016176,0.002514,-0.487521,0.069131,-1.339899,-263.883657,0.70563,68.448109
2.0968,-0.032493,0.021556,0.069902,0.003742,-0.006543,-0.016184,0.002989,-0.487548,0.069517,-1.339899,-263.883657,0.70563,68.448109
2.1166,-0.031973,0.020842,0.069001,0.003707,-0.006536,-0.016191,0.003262,-0.487398,0.069388,-1.344431,-263.876925,0.720985,68.45012
2.137,-0.032038,0.021033,0.068907,0.003666,-0.006526,-0.016198,0.003202,-0.487908,0.069008,-1.344431,-263.876925,0.720985,68.45012
2.1565,-0.031818,0.020947,0.069822,0.003632,-0.006519,-0.016205,0.003202,-0.487908,0.069008,-1.344431,-263.876925,0.720985,68.45012
2.1764,-0.031393,0.020727,0.068395,0.003604,-0.006513,-0.016212,0.003935,-0.48807,0.069149,-1.348806,-263.870228,0.735271,68.452108
2.1966,-0.031097,0.021129,0.067655,0.003553,-0.0065,-0.016216,0.003763,-0.488105,0.068764,-1.348806,-263.870228,0.735271,68.452108
2.2164,-0.030616,0.020283,0.066815,0.00351,-0.006489,-0.016221,0.003509,-0.487903,0.067141,-1.35465,-263.86355,0.754555,68.454074
2.2367,-0.030441,0.020001,0.067493,0.003489,-0.006486,-0.016229,0.003447,-0.488528,0.066818,-1.35465,-263.86355,0.754555,68.454074
2.2567,-0.030729,0.020412,0.067015,0.003472,-0.006483,-0.016235,0.003447,-0.488528,0.066818,-1.35465,-263.86355,0.754555,68.454074
2.2765,-0.029823,0.02013,0.066898,0.003458,-0.006481,-0.01624,0.003588,-0.488703,0.066339,-1.35991,-263.856879,0.772092,68.456023
2.2966,-0.030054,0.020084,0.065946,0.003423,-0.006472,-0.016243,0.003882,-0.488743,0.066487,-1.35991,-263.856879,0.772092,68.456023
2.3171,-0.029261,0.019715,0.066748,0.003394,-0.006465,-0.016247,0.003677,-0.489006,0.065428,-1.363004,-263.85017,0.782491,68.457975
2.337,-0.029914,0.019686,0.066063,0.003326,-0.006444,-0.016248,0.004671,-0.489146,0.066613,-1.363004,-263.85017,0.782491,68.457975
2.357,-0.029252,0.019991,0.065618,0.003271,-0.006428,-0.016249,0.004671,-0.489146,0.066613,-1.363004,-263.85017,0.782491,68.457975
2.3766,-0.029178,0.019619,0.06352,0.003225,-0.006415,-0.016252,0.004348,-0.489171,0.064943,-1.366599,-263.843491,0.794752,68.459908
2.3964,-0.029094,0.019387,0.065113,0.003228,-0.00642,-0.016259,0.003886,-0.489277,0.064271,-1.366599,-263.843491,0.794752,68.459908
2.4165,-0.027854,0.018973,0.064341,0.003231,-0.006423,-0.016263,0.004203,-0.489725,0.064607,-1.375944,-263.836959,0.827771,68.461778
2.4366,-0.028304,0.01909,0.063394,0.003174,-0.006405,-0.016262,0.00488,-0.48996,0.064339,-1.375944,-263.836959,0.827771,68.461778
2.4568,-0.029101,0.019185,0.063671,0.003128,-0.00639,-0.016262,0.00488,-0.48996,0.064339,-1.375944,-263.836959,0.827771,68.461778
2.4767,-0.027433,0.019079,0.062501,0.003089,-0.006379,-0.016263,0.003501,-0.490041,0.06299,-1.375785,-263.830272,0.826737,68.463691
2.4966,-0.027503,0.019248,0.062947,0.00311,-0.006389,-0.016269,0.003903,-0.490023,0.062708,-1.375785,-263.830272,0.826737,68.463691
2.5168,-0.027362,0.018269,0.061831,0.003127,-0.006397,-0.016273,0.004688,-0.489935,0.062438,-1.383626,-263.823756,0.85519,68.465539
2.5365,-0.027214,0.018606,0.062113,0.003118,-0.006395,-0.016274,0.004207,-0.490691,0.06186,-1.383626,-263.823756,0.85519,68.465539
2.5564,-0.026723,0.018512,0.062706,0.003111,-0.006394,-0.016274,0.004207,-0.490691,0.06186,-1.383626,-263.823756,0.85519,68.465539
2.5768,-0.026706,0.018472,0.062255,0.003105,-0.006393,-0.016275,0.005384,-0.490745,0.062025,-1.381663,-263.817107,0.847474,68.467428
2.5967,-0.026453,0.018585,0.062913,0.003044,-0.00637,-0.016271,0.005254,-0.490691,0.06204,-1.381663,-263.817107,0.847474,68.467428
2.6162,-0.025925,0.018349,0.060837,0.002994,-0.006352,-0.016269,0.005723,-0.490604,0.062393,-1.382917,-263.810444,0.851747,68.469317
2.6369,-0.026084,0.018065,0.058957,0.00296,-0.006342,-0.01627,0.005141,-0.490709,0.060942,-1.382917,-263.810444,0.851747,68.469317
2.6564,-0.025882,0.017827,0.061478,0.002932,-0.006333,-0.016271,0.005141,-0.490709,0.060942,-1.382917,-263.810444,0.851747,68.469317
2.6764,-0.025344,0.018229,0.062219,0.002908,-0.006326,-0.016273,0.005592,-0.491464,0.060805,-1.389026,-263.80388,0.874879,68.471168
2.6965,-0.024855,0.017972,0.059817,0.00284,-0.006299,-0.016269,0.005928,-0.491213,0.06131,-1.389026,-263.80388,0.874879,68.471168
2.7163,-0.024575,0.017377,0.059507,0.002784,-0.006278,-0.016268,0.005737,-0.49131,0.059303,-1.393855,-263.797311,0.892917,68.473012
2.7365,-0.02516,0.017617,0.058341,0.002741,-0.006262,-0.016269,0.005759,-0.491695,0.059465,-1.393855,-263.797311,0.892917,68.473012
2.7568,-0.025014,0.017202,0.059124,0.002705,-0.00625,-0.01627,0.005759,-0.491695,0.059465,-1.393855,-263.797311,0.892917,68.473012
2.777,-0.02409,0.017139,0.057231,0.002676,-0.00624,-0.016272,0.005251,-0.492159,0.058453,-1.400766,-263.790812,0.920276,68.474827
2.7967,-0.024157,0.017581,0.059205,0.002677,-0.006243,-0.016276,0.005196,-0.492134,0.057872,-1.400766,-263.790812,0.920276,68.474827
2.8166,-0.023869,0.016956,0.056912,0.002679,-0.006245,-0.016278,0.006116,-0.491717,0.058693,-1.406885,-263.78432,0.944453,68.476635
2.8364,-0.023641,0.017201,0.057887,0.002678,-0.006247,-0.01628,0.005227,-0.492185,0.057038,-1.406885,-263.78432,0.944453,68.476635
2.8564,-0.023474,0.017286,0.058237,0.002677,-0.006248,-0.016281,0.005227,-0.492185,0.057038,-1.406885,-263.78432,0.944453,68.476635
2.8767,-0.022816,0.016823,0.055606,0.002677,-0.006249,-0.016282,0.006337,-0.492103,0.057558,-1.406811,-263.777768,0.943732,68.478458
2.8967,-0.022693,0.016902,0.056198,0.002632,-0.006229,-0.016278,0.006022,-0.492249,0.056684,-1.406811,-263.777768,0.943732,68.478458
2.9167,-0.022503,0.016487,0.054766,0.002594,-0.006214,-0.016276,0.006049,-0.492488,0.055678,-1.406962,-263.771191,0.943833,68.480286
2.937,-0.022255,0.016569,0.056153,0.002588,-0.006212,-0.016279,0.005472,-0.492736,0.054818,-1.406962,-263.771191,0.943833,68.480286
2.9566,-0.022407,0.016401,0.056071,0.002583,-0.006211,-0.016281,0.005472,-0.492736,0.054818,-1.406962,-263.771191,0.943833,68.480286
2.9768,-0.021939,0.016401,0.055973,0.002579,-0.00621,-0.016283,0.006296,-0.493049,0.055396,-1.411554,-263.764683,0.962641,68.482092
2.9969,-0.021713,0.0159,0.055122,0.002515,-0.006181,-0.016278,0.006433,-0.492975,0.055557,-1.411554,-263.764683,0.962641,68.482092
3.0168,-0.021221,0.015896,0.054104,0.002464,-0.006157,-0.016276,0.006477,-0.493517,0.054606,-1.412517,-263.75814,0.966473,68.483907
3.0369,-0.021695,0.015419,0.054822,0.002418,-0.006136,-0.016275,0.006373,-0.49338,0.054121,-1.412517,-263.75814,0.966473,68.483907
3.0568,-0.021305,0.015866,0.055036,0.00238,-0.00612,-0.016276,0.006373,-0.49338,0.054121,-1.412517,-263.75814,0.966473,68.483907
3.0769,-0.020884,0.015397,0.055171,0.002349,-0.006106,-0.016278,0.006864,-0.49361,0.054365,-1.418926,-263.751692,0.993573,68.485695
3.0971,-0.020725,0.015881,0.053912,0.002279,-0.006071,-0.016274,0.007034,-0.493729,0.054622,-1.418926,-263.751692,0.993573,68.485695
3.1168,-0.020023,0.015063,0.05368,0.002222,-0.006043,-0.016273,0.006841,-0.493565,0.053402,-1.425434,-263.745303,1.021168,68.487467
3.1367,-0.020355,0.015397,0.052028,0.002151,-0.006006,-0.01627,0.007303,-0.494158,0.053632,-1.425434,-263.745303,1.021168,68.487467
3.1567,-0.020191,0.015139,0.05345,0.002093,-0.005977,-0.016269,0.007303,-0.494158,0.053632,-1.425434,-263.745303,1.021168,68.487467
3.1765,-0.019921,0.014674,0.05384,0.002045,-0.005954,-0.016271,0.00716,-0.494376,0.052781,-1.432674,-263.738968,1.052514,68.489227
3.1967,-0.019554,0.015339,0.050034,0.001998,-0.00593,-0.016271,0.00732,-0.49449,0.053134,-1.432674,-263.738968,1.052514,68.489227
3.2163,-0.019638,0.014889,0.052175,0.001959,-0.005911,-0.016273,0.006024,-0.494203,0.049532,-1.442803,-263.732749,1.096479,68.490965
3.2365,-0.0188,0.015269,0.048818,0.001955,-0.005912,-0.016277,0.006886,-0.494408,0.051935,-1.442803,-263.732749,1.096479,68.490965
3.2567,-0.019277,0.014751,0.051254,0.001952,-0.005913,-0.01628,0.006886,-0.494408,0.051935,-1.442803,-263.732749,1.096479,68.490965
3.2769,-0.018722,0.014549,0.05016,0.001949,-0.005915,-0.016283,0.006944,-0.494819,0.050581,-1.447831,-263.726415,1.11817,68.492742
3.2968,-0.018903,0.014703,0.050283,0.001936,-0.005908,-0.016283,0.006916,-0.494843,0.050329,-1.447831,-263.726415,1.11817,68.492742
3.3164,-0.017929,0.014383,0.050415,0.001925,-0.005904,-0.016284,0.006802,-0.494836,0.049766,-1.448496,-263.720021,1.120287,68.494533
3.3364,-0.018222,0.014603,0.049594,0.001869,-0.005871,-0.01628,0.007695,-0.494967,0.050337,-1.448496,-263.720021,1.120287,68.494533
3.3566,-0.017795,0.014222,0.050061,0.001824,-0.005845,-0.016278,0.007695,-0.494967,0.050337,-1.448496,-263.720021,1.120287,68.494533
3.3765,-0.017606,0.013679,0.04819,0.001787,-0.005824,-0.016277,0.007818,-0.495381,0.049382,-1.449907,-263.713647,1.126233,68.496321
3.3966,-0.017635,0.01397,0.046834,0.001754,-0.005805,-0.016278,0.007478,-0.495551,0.048816,-1.449907,-263.713647,1.126233,68.496321
3.4164,-0.017475,0.01386,0.046567,0.001727,-0.00579,-0.016279,0.006306,-0.49565,0.046327,-1.45795,-263.707438,1.161356,68.498077
3.4364,-0.016877,0.013526,0.048883,0.001779,-0.005822,-0.016288,0.006273,-0.495602,0.04652,-1.45795,-263.707438,1.161356,68.498077
3.4565,-0.017018,0.013611,0.047455,0.001822,-0.005848,-0.016294,0.006273,-0.495602,0.04652,-1.45795,-263.707438,1.161356,68.498077
3.4764,-0.016779,0.013692,0.047845,0.001856,-0.005868,-0.016297,0.007259,-0.496053,0.046776,-1.46148,-263.701119,1.176694,68.499872
3.4966,-0.016937,0.013251,0.048382,0.001804,-0.005835,-0.016289,0.007414,-0.495945,0.047137,-1.46148,-263.701119,1.176694,68.499872
3.5166,-0.015819,0.01312,0.046788,0.001762,-0.005809,-0.016284,0.007795,-0.496332,0.047872,-1.454009,-263.694856,1.144379,68.501637
3.5366,-0.015923,0.013246,0.046503,0.001682,-0.005756,-0.016274,0.008018,-0.496332,0.046855,-1.454009,-263.694856,1.144379,68.501637
3.5569,-0.016004,0.013419,0.046812,0.001617,-0.005715,-0.016269,0.008018,-0.496332,0.046855,-1.454009,-263.694856,1.144379,68.501637
3.5763,-0.015666,0.01292,0.045944,0.001564,-0.005682,-0.016267,0.007946,-0.496259,0.046138,-1.459426,-263.688591,1.168141,68.503413
3.5965,-0.015234,0.01286,0.046469,0.001528,-0.00566,-0.016268,0.007879,-0.496401,0.045982,-1.459426,-263.688591,1.168141,68.503413
3.6164,-0.015024,0.012898,0.04435,0.001498,-0.005644,-0.016269,0.008512,-0.496761,0.045973,-1.470994,-263.682563,1.218462,68.505154
3.6365,-0.015101,0.012385,0.045002,0.001481,-0.005635,-0.016271,0.007668,-0.496622,0.044463,-1.470994,-263.682563,1.218462,68.505154
3.6569,-0.015337,0.012666,0.044626,0.001467,-0.005627,-0.016272,0.007668,-0.496622,0.044463,-1.470994,-263.682563,1.218462,68.505154
3.6764,-0.014623,0.012667,0.043981,0.001455,-0.005622,-0.016274,0.007487,-0.497058,0.04395,-1.474939,-263.676344,1.235049,68.50696
3.6964,-0.014608,0.012327,0.043293,0.001437,-0.00561,-0.016274,0.007623,-0.496996,0.043885,-1.474939,-263.676344,1.235049,68.50696
3.7165,-0.013948,0.012039,0.043808,0.001422,-0.005601,-0.016275,0.007518,-0.497371,0.042776,-1.477534,-263.670094,1.24565,68.508783
3.7367,-0.014175,0.012284,0.042976,0.001354,-0.005551,-0.016269,0.008316,-0.497472,0.043695,-1.477534,-263.670094,1.24565,68.508783
3.7564,-0.013938,0.011788,0.043544,0.001298,-0.005511,-0.016267,0.008316,-0.497472,0.043695,-1.477534,-263.670094,1.24565,68.508783
3.7767,-0.013474,0.011675,0.043236,0.001254,-0.00548,-0.016267,0.008331,-0.49796,0.042865,-1.479543,-263.663858,1.254087,68.510607
3.7967,-0.013707,0.011772,0.044263,0.001194,-0.005435,-0.016265,0.008438,-0.497941,0.04294,-1.479543,-263.663858,1.254087,68.510607
3.8163,-0.012841,0.011837,0.040837,0.001146,-0.0054,-0.016266,0.008906,-0.497896,0.043761,-1.489644,-263.657858,1.29649,68.512403
3.8365,-0.012855,0.012163,0.042349,0.001138,-0.005397,-0.016271,0.008061,-0.497759,0.04106,-1.489644,-263.657858,1.29649,68.512403
3.8569,-0.013193,0.011637,0.040352,0.001131,-0.005394,-0.016276,0.008061,-0.497759,0.04106,-1.489644,-263.657858,1.29649,68.512403
3.8764,-0.01277,0.01127,0.041916,0.001125,-0.005392,-0.016279,0.007437,-0.498168,0.039681,-1.496195,-263.651791,1.32323,68.514248
3.8968,-0.012425,0.011541,0.039204,0.001111,-0.005382,-0.01628,0.007919,-0.49824,0.040515,-1.496195,-263.651791,1.32323,68.514248
3.9167,-0.012147,0.011133,0.040028,0.0011,-0.005374,-0.016281,0.007607,-0.498237,0.038686,-1.497564,-263.645633,1.32843,68.516125
3.9369,-0.012048,0.010982,0.039376,0.001067,-0.005347,-0.016279,0.008209,-0.498448,0.039891,-1.497564,-263.645633,1.32843,68.516125
3.9568,-0.012318,0.011096,0.042443,0.00104,-0.005327,-0.016279,0.008209,-0.498448,0.039891,-1.497564,-263.645633,1.32843,68.516125
3.9767,-0.011263,0.011183,0.038458,0.001018,-0.00531,-0.016279,0.009376,-0.498667,0.041764,-1.499106,-263.639495,1.334577,68.518004
3.997,-0.011372,0.01123,0.040023,0.000953,-0.005257,-0.016272,0.008957,-0.498599,0.040321,-1.499106,-263.639495,1.334577,68.518004
4.0165,-0.01152,0.010937,0.039713,0.000901,-0.005214,-0.01627,0.009073,-0.498527,0.039509,-1.504146,-263.633424,1.35445,68.519888
4.0368,-0.01135,0.010432,0.038212,0.000868,-0.005189,-0.016272,0.00876,-0.498657,0.03967,-1.504146,-263.633424,1.35445,68.519888
4.0571,-0.011367,0.010505,0.038373,0.000842,-0.005168,-0.016274,0.00876,-0.498657,0.03967,-1.504146,-263.633424,1.35445,68.519888
4.0769,-0.010768,0.010467,0.03678,0.00082,-0.005152,-0.016277,0.008244,-0.499333,0.037702,-1.511374,-263.627432,1.382193,68.521786
4.097,-0.010819,0.0102,0.037275,0.000813,-0.005146,-0.016282,0.008143,-0.499298,0.037244,-1.511374,-263.627432,1.382193,68.521786
4.117,-0.010394,0.010471,0.03673,0.000808,-0.005142,-0.016286,0.008219,-0.499607,0.036761,-1.516524,-263.621424,1.401217,68.523717
4.137,-0.010339,0.010171,0.035305,0.000796,-0.005132,-0.01629,0.008325,-0.49923,0.036707,-1.516524,-263.621424,1.401217,68.523717
4.1572,-0.010389,0.010472,0.037159,0.000787,-0.005125,-0.016294,0.008325,-0.49923,0.036707,-1.516524,-263.621424,1.401217,68.523717
4.1767,-0.00989,0.009832,0.034222,0.000779,-0.005119,-0.016297,0.008599,-0.499389,0.036477,-1.517329,-263.615377,1.404309,68.525667
4.1966,-0.00964,0.009942,0.035182,0.000767,-0.005107,-0.016299,0.008176,-0.499612,0.03547,-1.517329,-263.615377,1.404309,68.525667
4.2165,-0.008985,0.009765,0.035815,0.000757,-0.005097,-0.016301,0.008329,-0.499904,0.034664,-1.519135,-263.609347,1.410975,68.527624
4.2367,-0.009359,0.009349,0.036524,0.00068,-0.005024,-0.01629,0.009195,-0.499915,0.035687,-1.519135,-263.609347,1.410975,68.527624
4.2564,-0.009434,0.009062,0.035885,0.000618,-0.004966,-0.016284,0.009195,-0.499915,0.035687,-1.519135,-263.609347,1.410975,68.527624
4.2764,-0.008856,0.009591,0.033671,0.000569,-0.004921,-0.016283,0.008903,-0.500821,0.035204,-1.520567,-263.603319,1.416291,68.52959
4.2965,-0.009193,0.009239,0.034338,0.00053,-0.004883,-0.016285,0.008666,-0.500559,0.034498,-1.520567,-263.603319,1.416291,68.52959
4.3162,-0.008687,0.008999,0.032718,0.0005,-0.004852,-0.016288,0.008339,-0.500611,0.033836,-1.532563,-263.597555,1.458094,68.531549
4.3364,-0.008413,0.009447,0.03359,0.000506,-0.004856,-0.016298,0.008028,-0.500725,0.032792,-1.532563,-263.597555,1.458094,68.531549
4.3563,-0.008387,0.00903,0.035382,0.00051,-0.004859,-0.016305,0.008028,-0.500725,0.032792,-1.532563,-263.597555,1.458094,68.531549
4.3766,-0.008018,0.008867,0.034094,0.000514,-0.004861,-0.016311,0.009681,-0.500852,0.034703,-1.537058,-263.591627,1.473075,68.533599
4.3965,-0.008084,0.008867,0.032826,0.000428,-0.004772,-0.016297,0.009552,-0.500869,0.034368,-1.537058,-263.591627,1.473075,68.533599
4.4166,-0.00735,0.008829,0.032848,0.000359,-0.004701,-0.01629,0.008675,-0.501012,0.032311,-1.536124,-263.585724,1.470332,68.535639
4.4367,-0.007865,0.008599,0.032835,0.000314,-0.004656,-0.01629,0.009336,-0.500914,0.032773,-1.536124,-263.585724,1.470332,68.535639
4.4568,-0.007535,0.008823,0.032385,0.000277,-0.00462,-0.016293,0.009336,-0.500914,0.032773,-1.536124,-263.585724,1.470332,68.535639
4.4771,-0.007193,0.008564,0.031184,0.000247,-0.004591,-0.016297,0.008999,-0.501103,0.031714,-1.546275,-263.579968,1.502431,68.537705
4.4965,-0.007039,0.008635,0.031645,0.000236,-0.00458,-0.016303,0.008884,-0.501159,0.031423,-1.546275,-263.579968,1.502431,68.537705
4.5164,-0.006941,0.008624,0.029496,0.000226,-0.004571,-0.016309,0.009109,-0.501255,0.031129,-1.553792,-263.5742,1.524696,68.539833
4.5365,-0.006869,0.008131,0.030156,0.000259,-0.004604,-0.016322,0.008192,-0.501171,0.029618,-1.553792,-263.5742,1.524696,68.539833
4.5566,-0.00672,0.008671,0.029476,0.000285,-0.004629,-0.01633,0.008192,-0.501171,0.029618,-1.553792,-263.5742,1.524696,68.539833
4.5766,-0.006196,0.008098,0.028138,0.000306,-0.004649,-0.016336,0.008326,-0.501298,0.028794,-1.555213,-263.568388,1.528801,68.54199
4.5966,-0.006329,0.008169,0.030688,0.000303,-0.004644,-0.016336,0.008257,-0.501485,0.028447,-1.555213,-263.568388,1.528801,68.54199
4.6165,-0.005593,0.0079,0.028453,0.000301,-0.00464,-0.016337,0.009334,-0.501738,0.030169,-1.549886,-263.562561,1.513448,68.544116
4.6369,-0.00592,0.008023,0.02756,0.000241,-0.004571,-0.016324,0.008954,-0.501887,0.028579,-1.549886,-263.562561,1.513448,68.544116
4.6569,-0.005788,0.00777,0.027914,0.000194,-0.004517,-0.016317,0.008954,-0.501887,0.028579,-1.549886,-263.562561,1.513448,68.544116
4.6768,-0.005257,0.007341,0.028392,0.000156,-0.004474,-0.016315,0.008464,-0.502225,0.02723,-1.550182,-263.556699,1.514396,68.546259
4.6967,-0.005423,0.007897,0.028014,0.000111,-0.004419,-0.016311,0.008778,-0.502341,0.027629,-1.550182,-263.556699,1.514396,68.546259
4.7169,-0.005164,0.007501,0.026719,7.6e-05,-0.004376,-0.016311,0.008871,-0.502043,0.027502,-1.560012,-263.551009,1.542442,68.548424
4.7371,-0.005239,0.007317,0.027147,6.6e-05,-0.004362,-0.016317,0.008497,-0.5023,0.026761,-1.560012,-263.551009,1.542442,68.548424
4.7571,-0.004953,0.007296,0.026778,5.8e-05,-0.004351,-0.016322,0.008497,-0.5023,0.026761,-1.560012,-263.551009,1.542442,68.548424
4.7765,-0.004483,0.007453,0.025868,5.2e-05,-0.004342,-0.016326,0.00871,-0.502704,0.026098,-1.565484,-263.545305,1.557162,68.550647
4.7967,-0.004553,0.007476,0.026447,2.1e-05,-0.004302,-0.016324,0.00871,-0.502591,0.025926,-1.565484,-263.545305,1.557162,68.550647
4.8165,-0.003959,0.007077,0.025681,-4e-06,-0.00427,-0.016323,0.008939,-0.502484,0.025926,-1.567175,-263.539562,1.56159,68.552906
4.8366,-0.004032,0.006801,0.026844,-5.1e-05,-0.004211,-0.016319,0.009122,-0.50274,0.025677,-1.567175,-263.539562,1.56159,68.552906
4.8567,-0.00432,0.007007,0.026661,-8.8e-05,-0.004164,-0.016318,0.009122,-0.50274,0.025677,-1.567175,-263.539562,1.56159,68.552906
4.8766,-0.003675,0.006926,0.025213,-0.000117,-0.004127,-0.01632,0.00928,-0.502989,0.025982,-1.57107,-263.533896,1.571481,68.555173
4.8966,-0.003277,0.006845,0.025377,-0.000158,-0.004073,-0.016318,0.009241,-0.502978,0.02559,-1.57107,-263.533896,1.571481,68.555173
4.9166,-0.003297,0.006614,0.023526,-0.00019,-0.004029,-0.016319,0.009663,-0.503121,0.024861,-1.579099,-263.528284,1.590831,68.557499
4.9374,-0.002826,0.006261,0.024614,-0.000207,-0.004002,-0.016324,0.00878,-0.503241,0.023611,-1.579099,-263.528284,1.590831,68.557499
4.957,-0.003406,0.006901,0.022728,-0.000221,-0.00398,-0.016329,0.00878,-0.503241,0.023611,-1.579099,-263.528284,1.590831,68.557499
4.9769,-0.002645,0.006446,0.023806,-0.000231,-0.003963,-0.016334,0.00818,-0.503135,0.022049,-1.584394,-263.522688,1.602842,68.559874
4.9969,-0.002933,0.006885,0.021482,-0.000238,-0.00395,-0.01634,0.008731,-0.50327,0.022706,-1.584394,-263.522688,1.602842,68.559874
5.0166,-0.002616,0.006168,0.02169,-0.000243,-0.003941,-0.016346,0.008017,-0.503123,0.020964,-1.587388,-263.517132,1.609239,68.562272
5.0367,-0.002153,0.006447,0.021583,-0.000252,-0.003918,-0.016348,0.008408,-0.503668,0.021603,-1.587388,-263.517132,1.609239,68.562272
5.0565,-0.002503,0.006678,0.024278,-0.00026,-0.0039,-0.016351,0.008408,-0.503668,0.021603,-1.587388,-263.517132,1.609239,68.562272
5.077,-0.00188,0.006216,0.021994,-0.000265,-0.003886,-0.016354,0.009871,-0.503337,0.023596,-1.588243,-263.511565,1.610982,68.56469
5.0968,-0.001989,0.006389,0.022078,-0.000314,-0.00382,-0.016345,0.00965,-0.503489,0.022858,-1.588243,-263.511565,1.610982,68.56469
5.1166,-0.001754,0.006068,0.021477,-0.000353,-0.003768,-0.01634,0.009264,-0.50361,0.021558,-1.589904,-263.506024,1.614214,68.567129
5.1368,-0.001722,0.006016,0.020866,-0.000382,-0.003725,-0.01634,0.009204,-0.503802,0.021458,-1.589904,-263.506024,1.614214,68.567129
5.1568,-0.001641,0.006011,0.020687,-0.000405,-0.003691,-0.016341,0.009204,-0.503802,0.021458,-1.589904,-263.506024,1.614214,68.567129
5.1765,-0.001549,0.005928,0.020219,-0.000422,-0.003664,-0.016344,0.008897,-0.504037,0.020006,-1.596504,-263.500516,1.627643,68.569621
5.1965,-0.000981,0.006172,0.018884,-0.000432,-0.003644,-0.016349,0.008839,-0.504026,0.020016,-1.596504,-263.500516,1.627643,68.569621
5.2167,-0.000681,0.005635,0.019867,-0.000439,-0.003628,-0.016353,0.008638,-0.503852,0.01837,-1.601738,-263.495085,1.637541,68.57214
5.2371,-0.000916,0.005443,0.018849,-0.000477,-0.003567,-0.016346,0.00938,-0.504235,0.019713,-1.601738,-263.495085,1.637541,68.57214
5.2565,-0.000835,0.005841,0.017713,-0.000506,-0.003518,-0.016344,0.00938,-0.504235,0.019713,-1.601738,-263.495085,1.637541,68.57214
5.2766,-0.000396,0.005296,0.017573,-0.00053,-0.00348,-0.016345,0.008183,-0.504231,0.017031,-1.603,-263.489634,1.639657,68.574691
5.2966,-0.000561,0.005538,0.015765,-0.00051,-0.003494,-0.016356,0.00834,-0.504412,0.017176,-1.603,-263.489634,1.639657,68.574691
5.3165,-9.1e-05,0.005188,0.016604,-0.000495,-0.003505,-0.016364,0.007463,-0.504509,0.015248,-1.61012,-263.484255,1.652074,68.577296
5.3364,9.9e-05,0.005098,0.017194,-0.000498,-0.003484,-0.01636,0.008301,-0.504728,0.016469,-1.61012,-263.484255,1.652074,68.577296
5.3565,-0.00021,0.005375,0.018794,-0.0005,-0.003466,-0.016358,0.008301,-0.504728,0.016469,-1.61012,-263.484255,1.652074,68.577296
5.3767,0.000105,0.005402,0.015138,-0.000501,-0.003453,-0.016358,0.009356,-0.504682,0.018112,-1.607456,-263.478863,1.646949,68.579893
5.3965,0.000387,0.004915,0.016182,-0.000516,-0.003427,-0.016355,0.008725,-0.50464,0.016811,-1.607456,-263.478863,1.646949,68.579893
5.4169,0.000874,0.004867,0.01422,-0.000527,-0.003406,-0.016354,0.008625,-0.505128,0.015663,-1.60804,-263.47348,1.647265,68.582517
5.4367,0.000699,0.005121,0.015928,-0.000534,-0.003378,-0.01633,0.008176,-0.505093,0.014336,-1.60804,-263.47348,1.647265,68.582517
5.457,0.00077,0.004657,0.014191,-0.000538,-0.003355,-0.016311,0.008176,-0.505093,0.014336,-1.60804,-263.47348,1.647265,68.582517
5.4766,0.00123,0.00461,0.014029,-0.000541,-0.003338,-0.016297,0.007987,-0.505434,0.013509,-1.610144,-263.468121,1.650743,68.585157
5.4969,0.000963,0.004703,0.013342,-0.000558,-0.003289,-0.016266,0.00815,-0.505412,0.013645,-1.610144,-263.468121,1.650743,68.585157
5.517,0.001443,0.004528,0.014523,-0.000571,-0.003251,-0.016242,0.007751,-0.505358,0.012824,-1.611448,-263.462798,1.652337,68.587813
5.537,0.001774,0.004708,0.013213,-0.000606,-0.003189,-0.016229,0.008735,-0.505418,0.014318,-1.611448,-263.462798,1.652337,68.587813
5.5566,0.001189,0.004902,0.014512,-0.000633,-0.00314,-0.016222,0.008735,-0.505418,0.014318,-1.611448,-263.462798,1.652337,68.587813
5.5769,0.001764,0.004412,0.013281,-0.000654,-0.003102,-0.016219,0.008568,-0.505181,0.013833,-1.614146,-263.457537,1.656262,68.590484
5.5972,0.001846,0.004726,0.01465,-0.000658,-0.003093,-0.016209,0.008553,-0.505343,0.013532,-1.614146,-263.457537,1.656262,68.590484
5.6167,0.002205,0.004355,0.01241,-0.000661,-0.003086,-0.0162,0.009297,-0.505319,0.014132,-1.621067,-263.452341,1.666691,68.593211
5.6369,0.00221,0.004125,0.013286,-0.000675,-0.00305,-0.01616,0.008603,-0.505585,0.012541,-1.621067,-263.452341,1.666691,68.593211
5.6567,0.002416,0.004386,0.012524,-0.000686,-0.003022,-0.016129,0.008603,-0.505585,0.012541,-1.621067,-263.452341,1.666691,68.593211
5.677,0.002572,0.003649,0.012285,-0.000694,-0.003001,-0.016106,0.008777,-0.505704,0.011845,-1.621662,-263.447133,1.667545,68.595952
5.697,0.00228,0.004081,0.011172,-0.000725,-0.002928,-0.01605,0.008798,-0.505968,0.011946,-1.621662,-263.447133,1.667545,68.595952
5.7164,0.003274,0.004138,0.008874,-0.000748,-0.002871,-0.016009,0.007957,-0.505984,0.010657,-1.624832,-263.441991,1.67203,68.598699
5.7366,0.002846,0.004561,0.009359,-0.000709,-0.00289,-0.015712,0.007812,-0.505859,0.009001,-1.624832,-263.441991,1.67203,68.598699
5.7565,0.00328,0.00379,0.010204,-0.000676,-0.002907,-0.01549,0.007812,-0.505859,0.009001,-1.624832,-263.441991,1.67203,68.598699
5.7764,0.003308,0.003636,0.010702,-0.000647,-0.002922,-0.015324,0.008453,-0.506303,0.009537,-1.629895,-263.436931,1.678734,68.601474
5.7966,0.003505,0.003686,0.010348,-0.000685,-0.002834,-0.015287,0.00858,-0.506331,0.009942,-1.629895,-263.436931,1.678734,68.601474
5.8164,0.003671,0.003749,0.009057,-0.000713,-0.002766,-0.015263,0.008762,-0.506379,0.009861,-1.623449,-263.43202,1.671,68.604058
5.8367,0.003908,0.003624,0.010098,-0.000717,-0.002736,-0.015153,0.008329,-0.506247,0.009102,-1.623449,-263.43202,1.671,68.604058
5.8568,0.003967,0.003938,0.009762,-0.000719,-0.002714,-0.015072,0.008329,-0.506247,0.009102,-1.623449,-263.43202,1.671,68.604058
5.8764,0.004002,0.003486,0.008803,-0.000719,-0.002697,-0.015013,0.008917,-0.506153,0.009125,-1.6297,-263.427183,1.679112,68.606692
5.8963,0.003995,0.003414,0.009249,-0.000736,-0.002658,-0.014936,0.008738,-0.506307,0.008919,-1.6297,-263.427183,1.679112,68.606692
5.9164,0.004393,0.003561,0.007883,-0.000748,-0.002628,-0.01488,0.00869,-0.506649,0.008773,-1.631333,-263.42243,1.681474,68.609295
5.9365,0.004552,0.003634,0.008075,-0.000752,-0.002596,-0.014679,0.008436,-0.506447,0.007935,-1.631333,-263.42243,1.681474,68.609295
5.9564,0.004571,0.003821,0.008259,-0.000753,-0.002573,-0.014533,0.008436,-0.506447,0.007935,-1.631333,-263.42243,1.681474,68.609295
5.9768,0.004639,0.003044,0.006228,-0.000752,-0.002556,-0.014426,0.008753,-0.506271,0.007638,-1.634577,-263.417733,1.686122,68.611896
5.9964,0.004689,0.003083,0.006082,-0.000753,-0.002524,-0.014152,0.00836,-0.506564,0.006981,-1.634577,-263.417733,1.686122,68.611896
6.0164,0.00503,0.003051,0.005725,-0.000751,-0.002501,-0.013955,0.007767,-0.506988,0.005625,-1.636881,-263.413183,1.690495,68.614413
6.0364,0.004989,0.00353,0.006122,-0.000749,-0.002433,-0.013481,0.007933,-0.506949,0.005694,-1.636881,-263.413183,1.690495,68.614413
6.0565,0.005138,0.003171,0.006513,-0.000744,-0.002386,-0.013147,0.007933,-0.506949,0.005694,-1.636881,-263.413183,1.690495,68.614413
6.0767,0.005445,0.002878,0.005598,-0.000735,-0.002354,-0.012912,0.008429,-0.506923,0.005931,-1.638784,-263.408771,1.694817,68.616836
6.0963,0.00533,0.002641,0.006391,-0.000746,-0.002304,-0.012747,0.008373,-0.507013,0.005728,-1.638784,-263.408771,1.694817,68.616836
6.1166,0.005784,0.00269,0.004926,-0.000752,-0.002268,-0.012632,0.008567,-0.507424,0.00598,-1.64247,-263.404662,1.702901,68.61907
6.1363,0.005626,0.002923,0.00514,-0.000768,-0.002189,-0.012331,0.008318,-0.507317,0.004996,-1.64247,-263.404662,1.702901,68.61907
6.1563,0.005495,0.003415,0.003985,-0.000776,-0.002131,-0.012121,0.008318,-0.507317,0.004996,-1.64247,-263.404662,1.702901,68.61907
6.1765,0.006278,0.002877,0.00507,-0.000781,-0.002088,-0.011975,0.007496,-0.506676,0.003458,-1.646019,-263.40066,1.708054,68.621268
6.1963,0.005616,0.00269,0.005136,-0.000755,-0.002124,-0.011586,0.008056,-0.506869,0.004061,-1.646019,-263.40066,1.708054,68.621268
6.2164,0.006259,0.002743,0.004495,-0.000732,-0.002156,-0.011312,0.008211,-0.50737,0.004757,-1.653645,-263.396894,1.719111,68.623377
6.2364,0.005924,0.002549,0.006183,-0.000745,-0.002113,-0.011244,0.008522,-0.507264,0.004498,-1.653645,-263.396894,1.719111,68.623377
6.2563,0.006143,0.002856,0.00333,-0.000755,-0.002082,-0.011198,0.008522,-0.507264,0.004498,-1.653645,-263.396894,1.719111,68.623377
6.277,0.006821,0.002592,0.001479,-0.000761,-0.002058,-0.011167,0.007812,-0.507231,0.002858,-1.65137,-263.393261,1.723582,68.625298
6.2965,0.00642,0.002834,0.002762,-0.000764,-0.002028,-0.010238,0.007712,-0.507313,0.002244,-1.65137,-263.393261,1.723582,68.625298
6.3165,0.006788,0.002147,0.002968,-0.000754,-0.002014,-0.009592,0.007804,-0.50723,0.002408,-1.656302,-263.389698,1.729261,68.627227
6.3367,0.006798,0.002797,0.001622,-0.00077,-0.001922,-0.009419,0.008259,-0.507802,0.002904,-1.656302,-263.389698,1.729261,68.627227
6.3568,0.006664,0.002598,0.00332,-0.000779,-0.001853,-0.009303,0.008259,-0.507802,0.002904,-1.656302,-263.389698,1.729261,68.627227
6.3767,0.007062,0.002764,0.003141,-0.000784,-0.001801,-0.009226,0.008357,-0.507399,0.00332,-1.666313,-263.389697,1.654187,68.627227
6.3965,0.006771,0.002395,0.002628,-0.000771,-0.001837,-0.009323,0.008484,-0.507331,0.003246,-1.666313,-263.389697,1.654187,68.627227
6.4164,0.006852,0.00255,0.00315,-0.000761,-0.001865,-0.00939,0.008112,-0.507603,0.002628,-1.675812,-263.389697,1.579277,68.627226
6.4365,0.006693,0.0026,0.003821,-0.000757,-0.001869,-0.009368,0.008428,-0.507461,0.003104,-1.675812,-263.389697,1.579277,68.627226
6.4563,0.007057,0.00269,0.001992,-0.000753,-0.001873,-0.009349,0.008428,-0.507461,0.003104,-1.675812,-263.389697,1.579277,68.627226
6.4765,0.006671,0.002943,0.003987,-0.00075,-0.001876,-0.009332,0.008073,-0.507309,0.001992,-1.670608,-263.389697,1.504363,68.627226
6.4967,0.00667,0.002496,0.003208,-0.000734,-0.001919,-0.009207,0.008333,-0.507203,0.002814,-1.670608,-263.389697,1.504363,68.627226
6.5169,0.006897,0.002702,0.002337,-0.00072,-0.001954,-0.009111,0.008307,-0.507501,0.003208,-1.669509,-263.389696,1.429292,68.627226
6.5364,0.007021,0.00246,0.003684,-0.000709,-0.001971,-0.00887,0.00811,-0.507317,0.002424,-1.669509,-263.389696,1.429292,68.627226
6.5564,0.006966,0.002512,0.002483,-0.000698,-0.001986,-0.008693,0.00811,-0.507317,0.002424,-1.669509,-263.389696,1.429292,68.627226
6.5766,0.006491,0.002413,0.003197,-0.000688,-0.001999,-0.008562,0.008232,-0.507487,0.002483,-1.666295,-263.389696,1.354199,68.627226
6.5966,0.006885,0.00268,0.003711,-0.000689,-0.001984,-0.008594,0.008187,-0.507527,0.002774,-1.666295,-263.389696,1.354199,68.627226
6.6167,0.007001,0.0026,0.001626,-0.00069,-0.001972,-0.008612,0.008778,-0.507317,0.003711,-1.665729,-263.389696,1.279376,68.627226
6.6369,0.006799,0.00246,0.00167,-0.000679,-0.001987,-0.008209,0.007912,-0.507392,0.001805,-1.665729,-263.389696,1.279376,68.627226
6.6569,0.006873,0.002361,0.002708,-0.000668,-0.002003,-0.007919,0.007912,-0.507392,0.001805,-1.665729,-263.389696,1.279376,68.627226
6.6769,0.006669,0.002111,0.00164,-0.000657,-0.002017,-0.007709,0.008254,-0.507637,0.002708,-1.665865,-263.389695,1.20422,68.627226
6.6968,0.006869,0.002455,0.002712,-0.00066,-0.001983,-0.007741,0.00795,-0.507739,0.002275,-1.665865,-263.389695,1.20422,68.627226
6.7167,0.006811,0.002224,0.001439,-0.000662,-0.001955,-0.007761,0.008252,-0.507544,0.002712,-1.668232,-263.389695,1.129375,68.627226
6.7371,0.00678,0.002961,0.00225,-0.000656,-0.001932,-0.007448,0.007609,-0.507754,0.001553,-1.668232,-263.389695,1.129375,68.627226
6.757,0.006554,0.002546,0.002883,-0.000649,-0.001916,-0.007222,0.007609,-0.507754,0.001553,-1.668232,-263.389695,1.129375,68.627226
6.7769,0.006603,0.002758,0.001573,-0.000641,-0.001905,-0.007058,0.008024,-0.507452,0.002883,-1.669424,-263.389695,1.054377,68.627225
6.7968,0.006832,0.00228,0.002117,-0.000618,-0.001972,-0.007285,0.007772,-0.507366,0.002348,-1.669424,-263.389695,1.054377,68.627225
6.8165,0.006836,0.002462,0.002754,-0.000601,-0.002022,-0.00744,0.007912,-0.507719,0.002117,-1.67357,-263.389695,0.979375,68.627225
6.8369,0.00688,0.00232,0.002331,-0.000615,-0.00202,-0.007643,0.008213,-0.507552,0.0027,-1.67357,-263.389695,0.979375,68.627225
6.8567,0.00667,0.002407,0.000838,-0.000627,-0.002017,-0.007783,0.008213,-0.507552,0.0027,-1.67357,-263.389695,0.979375,68.627225
6.8764,0.006719,0.002675,0.00114,-0.000638,-0.002013,-0.007877,0.007098,-0.507593,0.000838,-1.662011,-263.389694,0.904227,68.627225
6.8964,0.006771,0.002468,0.001263,-0.000617,-0.002032,-0.007192,0.00718,-0.507484,0.000961,-1.662011,-263.389694,0.904227,68.627225
6.9165,0.006589,0.002271,0.00237,-0.000594,-0.002052,-0.006707,0.007415,-0.507531,0.001263,-1.664047,-263.389694,0.829384,68.627225
6.9367,0.006844,0.002499,0.001824,-0.000598,-0.002032,-0.006936,0.007763,-0.50771,0.002271,-1.664047,-263.389694,0.829384,68.627225
6.9566,0.006646,0.002383,0.002271,-0.000602,-0.002016,-0.0071,0.007763,-0.50771,0.002271,-1.664047,-263.389694,0.829384,68.627225
6.9763,0.007081,0.002794,0.00319,-0.000605,-0.002001,-0.007219,0.007805,-0.507616,0.002271,-1.66707,-263.389694,0.754385,68.627225
6.9965,0.006359,0.002345,0.003099,-0.000612,-0.002023,-0.007447,0.008177,-0.507446,0.00265,-1.66707,-263.389694,0.754385,68.627225
7.0164,0.006863,0.002581,0.001781,-0.00062,-0.002038,-0.007609,0.007939,-0.507652,0.003099,-1.66489,-263.389694,0.679295,68.627225
7.0365,0.006741,0.002009,0.003405,-0.000614,-0.002051,-0.007437,0.007786,-0.507439,0.001894,-1.66489,-263.389694,0.679295,68.627225
7.0567,0.006729,0.003042,0.00397,-0.000609,-0.002063,-0.007314,0.007786,-0.507439,0.001894,-1.66489,-263.389694,0.679295,68.627225
7.0765,0.006752,0.002544,0.003533,-0.000604,-0.002074,-0.007227,0.008754,-0.506954,0.00397,-1.663218,-263.389693,0.604257,68.627225
7.0965,0.006573,0.002813,0.002631,-0.00062,-0.002117,-0.007783,0.008673,-0.507155,0.003793,-1.663218,-263.389693,0.604257,68.627225
7.1163,0.006548,0.002754,0.001153,-0.000635,-0.002148,-0.008184,0.007915,-0.507186,0.002631,-1.663637,-263.389693,0.529267,68.627225
7.1369,0.006887,0.002585,0.002817,-0.000605,-0.00218,-0.007544,0.007194,-0.507241,0.001262,-1.663637,-263.389693,0.529267,68.627225
7.1568,0.006541,0.002863,0.003639,-0.000575,-0.00221,-0.007095,0.007194,-0.507241,0.001262,-1.663637,-263.389693,0.529267,68.627225
7.1764,0.006777,0.002368,0.001812,-0.000547,-0.002237,-0.006781,0.008396,-0.507133,0.003639,-1.659391,-263.389693,0.453865,68.627225
7.1964,0.006666,0.002705,0.001438,-0.000563,-0.002232,-0.007192,0.008112,-0.507337,0.002891,-1.659391,-263.389693,0.453865,68.627225
7.2164,0.007126,0.002319,0.004275,-0.000576,-0.002226,-0.007491,0.0074,-0.507294,0.001438,-1.656349,-263.389693,0.37938,68.627225
7.2365,0.006536,0.002772,0.002761,-0.000633,-0.002154,-0.007996,0.009133,-0.507641,0.004018,-1.656349,-263.389693,0.37938,68.627225
7.2564,0.006932,0.002415,0.002744,-0.00068,-0.002094,-0.008366,0.009133,-0.507641,0.004018,-1.656349,-263.389693,0.37938,68.627225
7.2764,0.006902,0.00276,0.001949,-0.000718,-0.002044,-0.008635,0.008332,-0.507583,0.002744,-1.655363,-263.389692,0.304391,68.627224
7.2965,0.006711,0.00241,0.003115,-0.000715,-0.002041,-0.008347,0.008154,-0.507442,0.002419,-1.655363,-263.389692,0.304391,68.627224
7.3164,0.006701,0.002642,0.00319,-0.000711,-0.002041,-0.008146,0.0083,-0.507588,0.003115,-1.668616,-263.389692,0.229394,68.627224
7.3364,0.006829,0.002523,0.001574,-0.000707,-0.002059,-0.008266,0.008326,-0.507376,0.003183,-1.668616,-263.389692,0.229394,68.627224
7.3564,0.0068,0.002725,0.002952,-0.000705,-0.002073,-0.008351,0.008326,-0.507376,0.003183,-1.668616,-263.389692,0.229394,68.627224
7.3763,0.006992,0.002517,0.00183,-0.000704,-0.002082,-0.00841,0.008306,-0.507273,0.002952,-1.671791,-263.389692,0.154378,68.627224
7.3963,0.006714,0.002622,0.002366,-0.000698,-0.002087,-0.008222,0.00815,-0.507358,0.002493,-1.671791,-263.389692,0.154378,68.627224
7.4169,0.006789,0.002613,0.002321,-0.000693,-0.002093,-0.008091,0.00792,-0.507377,0.002366,-1.668008,-263.389691,0.07938,68.627224
7.4367,0.006759,0.002313,0.003334,-0.000682,-0.002099,-0.007936,0.007968,-0.507385,0.002325,-1.668008,-263.389691,0.07938,68.627224
7.4565,0.006988,0.002239,0.001309,-0.000673,-0.002105,-0.007827,0.007968,-0.507385,0.002325,-1.668008,-263.389691,0.07938,68.627224
7.4764,0.006578,0.002629,0.0027,-0.000665,-0.00211,-0.007752,0.007656,-0.507761,0.001309,-1.668984,-263.389691,0.004379,68.627224
7.4964,0.006916,0.002437,0.001818,-0.000663,-0.00208,-0.00751,0.007778,-0.507601,0.001877,-1.668984,-263.389691,0.004379,68.627224
7.5164,0.006492,0.002849,0.002499,-0.000659,-0.002059,-0.007342,0.007843,-0.507562,0.001818,-1.667586,-263.389691,-0.070606,68.627224
7.5367,0.006763,0.002541,0.002382,-0.00063,-0.002121,-0.007466,0.007773,-0.507186,0.002439,-1.667586,-263.389691,-0.070606,68.627224
7.5573,0.006942,0.002307,0.001126,-0.000609,-0.002169,-0.007552,0.007773,-0.507186,0.002439,-1.667586,-263.389691,-0.070606,68.627224
7.5764,0.006991,0.002605,0.002315,-0.000593,-0.002204,-0.007613,0.007516,-0.507693,0.001126,-1.671177,-263.389691,-0.14563,68.627224
7.5967,0.006901,0.002994,0.00188,-0.000606,-0.002154,-0.007299,0.007787,-0.50757,0.001616,-1.671177,-263.389691,-0.14563,68.627224
7.6168,0.006654,0.002533,0.001383,-0.000614,-0.002118,-0.00708,0.00786,-0.507005,0.00188,-1.657068,-263.38969,-0.220784,68.627224
7.6366,0.006561,0.002475,0.002371,-0.000594,-0.002129,-0.006849,0.007401,-0.507428,0.001425,-1.657068,-263.38969,-0.220784,68.627224
7.6566,0.006769,0.002434,0.002954,-0.000577,-0.002138,-0.006687,0.007401,-0.507428,0.001425,-1.657068,-263.38969,-0.220784,68.627224
7.6769,0.007191,0.002245,0.001522,-0.000561,-0.002146,-0.006572,0.008275,-0.507564,0.002954,-1.665755,-263.38969,-0.295783,68.627224
7.6968,0.007117,0.002418,0.002762,-0.000585,-0.002107,-0.006865,0.008148,-0.507643,0.002363,-1.665755,-263.38969,-0.295783,68.627224
7.7167,0.006576,0.002608,0.0024,-0.000604,-0.002074,-0.007078,0.008526,-0.50758,0.002762,-1.661633,-263.38969,-0.370818,68.627223
7.7371,0.006871,0.002477,0.002904,-0.000599,-0.002097,-0.007269,0.007862,-0.507407,0.002431,-1.661633,-263.38969,-0.370818,68.627223
7.7566,0.00685,0.002262,0.00232,-0.000595,-0.002113,-0.007405,0.007862,-0.507407,0.002431,-1.661633,-263.38969,-0.370818,68.627223
7.7767,0.006784,0.002644,0.002518,-0.000593,-0.002124,-0.007501,0.008034,-0.507736,0.00232,-1.665007,-263.38969,-0.445783,68.627223
7.7968,0.006877,0.002245,0.001768,-0.000608,-0.002096,-0.00755,0.008048,-0.50758,0.002402,-1.665007,-263.38969,-0.445783,68.627223
7.817,0.007155,0.002271,0.000394,-0.000619,-0.002074,-0.007586,0.007779,-0.507754,0.001768,-1.659041,-263.389689,-0.520756,68.627223
7.8364,0.006829,0.00251,0.003998,-0.000636,-0.002022,-0.006719,0.007393,-0.507731,0.000517,-1.659041,-263.389689,-0.520756,68.627223
7.8571,0.006653,0.002664,0.002676,-0.00064,-0.001988,-0.00611,0.007393,-0.507731,0.000517,-1.659041,-263.389689,-0.520756,68.627223
7.8764,0.006616,0.002509,0.0024,-0.000635,-0.001967,-0.005684,0.008018,-0.507334,0.002676,-1.662889,-263.389689,-0.595659,68.627223
7.8966,0.006493,0.002358,0.001392,-0.000621,-0.002024,-0.006303,0.007946,-0.507397,0.002565,-1.662889,-263.389689,-0.595659,68.627223
7.9168,0.006867,0.002706,0.002109,-0.000613,-0.002064,-0.006751,0.007203,-0.507641,0.001391,-1.687054,-263.389681,-0.670743,68.627221
7.9364,0.006909,0.002573,0.001421,-0.000602,-0.002097,-0.006888,0.007881,-0.507322,0.002049,-1.687054,-263.389681,-0.670743,68.627221
7.9565,0.006737,0.002976,0.003583,-0.000595,-0.002122,-0.006986,0.007881,-0.507322,0.002049,-1.687054,-263.389681,-0.670743,68.627221
7.9763,0.006517,0.0024,0.003355,-0.00059,-0.00214,-0.007057,0.008564,-0.507021,0.003582,-1.669489,-263.389677,-0.745815,68.627219
7.9965,0.006837,0.002686,0.00221,-0.000604,-0.002163,-0.007574,0.008426,-0.507258,0.003489,-1.669489,-263.389677,-0.745815,68.627219
8.0166,0.006898,0.002244,0.00243,-0.000618,-0.002177,-0.007947,0.007964,-0.507313,0.002209,-1.661955,-263.389663,-0.820738,68.627215
8.0366,0.007205,0.002533,0.002674,-0.000641,-0.002109,-0.007854,0.008121,-0.507715,0.00241,-1.661955,-263.389663,-0.820738,68.627215
8.0564,0.006969,0.002538,0.00237,-0.000657,-0.002058,-0.007791,0.008121,-0.507715,0.00241,-1.661955,-263.389663,-0.820738,68.627215
8.0764,0.006818,0.002732,0.00318,-0.00067,-0.002018,-0.007749,0.008177,-0.507462,0.002366,-1.658525,-263.389635,-0.895628,68.627203
8.0967,0.007098,0.002659,0.002774,-0.000669,-0.002039,-0.007838,0.008285,-0.507381,0.002701,-1.658525,-263.389635,-0.895628,68.627203
8.1164,0.00692,0.002296,0.002461,-0.00067,-0.002055,-0.0079,0.008511,-0.507342,0.002763,-1.669645,-263.389513,-0.970747,68.627153
8.1371,0.006849,0.002368,0.002709,-0.000681,-0.002021,-0.007857,0.008203,-0.507672,0.002486,-1.669645,-263.389513,-0.970747,68.627153
8.1564,0.007088,0.002279,0.002502,-0.000689,-0.001994,-0.007829,0.008203,-0.507672,0.002486,-1.669645,-263.389513,-0.970747,68.627153
8.177,0.006638,0.002222,0.003207,-0.000696,-0.001974,-0.00781,0.008359,-0.50773,0.002465,-1.667831,-263.389192,-1.045781,68.627021
8.1968,0.006762,0.002538,0.004387,-0.000707,-0.001948,-0.00789,0.008323,-0.50775,0.002766,-1.667831,-263.389192,-1.045781,68.627021
8.2167,0.006589,0.002294,0.00145,-0.000715,-0.001926,-0.007948,0.008991,-0.507475,0.00432,-1.67358,-263.38844,-1.120742,68.626701
8.2365,0.006599,0.002268,0.0038,-0.000692,-0.001931,-0.007571,0.007466,-0.507688,0.001684,-1.67358,-263.38844,-1.120742,68.626701
8.2568,0.006738,0.002641,0.00233,-0.000671,-0.001937,-0.007308,0.007466,-0.507688,0.001684,-1.67358,-263.38844,-1.120742,68.626701
8.2768,0.007036,0.002563,0.002273,-0.000652,-0.001944,-0.007123,0.007908,-0.507399,0.002169,-1.675904,-263.387106,-1.195833,68.626112
8.2966,0.007089,0.002422,0.003572,-0.000643,-0.001982,-0.007213,0.008024,-0.507419,0.002194,-1.675904,-263.387106,-1.195833,68.626112
8.3164,0.007046,0.002462,0.001114,-0.000638,-0.002011,-0.007276,0.008893,-0.507625,0.003386,-1.673964,-263.385024,-1.270767,68.625292
8.3366,0.007175,0.002202,0.00047,-0.000637,-0.002006,-0.006931,0.007723,-0.507547,0.0013,-1.673964,-263.385024,-1.270767,68.625292
8.3565,0.006714,0.002378,0.000455,-0.000633,-0.002006,-0.006692,0.007723,-0.507547,0.0013,-1.673964,-263.385024,-1.270767,68.625292
8.3766,0.007093,0.002384,0.00041,-0.000627,-0.002008,-0.006526,0.006921,-0.507704,0.000161,-1.669295,-263.382508,-1.314439,68.624316
8.3968,0.006957,0.00202,0.000485,-0.000618,-0.001995,-0.005836,0.007075,-0.507677,0.000229,-1.669295,-263.382508,-1.314439,68.624316
8.4165,0.007523,0.001983,0.001883,-0.000603,-0.001989,-0.00535,0.007185,-0.508041,0.000286,-1.675004,-263.380197,-1.263787,68.62352
8.4365,0.007505,0.002057,0.002178,-0.000633,-0.001915,-0.005759,0.00837,-0.508021,0.001735,-1.675004,-263.380197,-1.263787,68.62352
8.4568,0.007871,0.00202,0.002365,-0.000658,-0.001854,-0.00606,0.00837,-0.508021,0.001735,-1.675004,-263.380197,-1.263787,68.62352
8.4767,0.00752,0.002341,0.001798,-0.000679,-0.001804,-0.006282,0.009059,-0.50804,0.002197,-1.684975,-263.378609,-1.188806,68.623096
8.4965,0.007444,0.002293,0.001137,-0.000703,-0.001778,-0.006573,0.008802,-0.507891,0.002014,-1.684975,-263.378609,-1.188806,68.623096
8.5167,0.007475,0.001944,0.001068,-0.000723,-0.001755,-0.006786,0.008004,-0.507761,0.000948,-1.690616,-263.376462,-1.248321,68.622286
8.5366,0.007401,0.001857,0.000401,-0.000733,-0.001708,-0.006475,0.008017,-0.508034,0.001049,-1.690616,-263.376462,-1.248321,68.622286
8.5567,0.007399,0.002064,0.002333,-0.000738,-0.001674,-0.006259,0.008017,-0.508034,0.001049,-1.690616,-263.376462,-1.248321,68.622286
8.5764,0.007197,0.002001,-0.001161,-0.00074,-0.001649,-0.00611,0.00856,-0.508007,0.002053,-1.69269,-263.374116,-1.277096,68.621301
8.5965,0.007753,0.001861,0.001869,-0.000735,-0.001634,-0.005815,0.007751,-0.508012,0.000696,-1.69269,-263.374116,-1.277096,68.621301
8.6167,0.007794,0.001705,0.001422,-0.000728,-0.001624,-0.005609,0.008683,-0.508189,0.001682,-1.707396,-263.372029,-1.229482,68.620452
8.6367,0.00806,0.002004,8.1e-05,-0.000747,-0.001564,-0.005836,0.008533,-0.508288,0.001436,-1.707396,-263.372029,-1.229482,68.620452
8.657,0.007817,0.001663,0.000672,-0.000762,-0.001516,-0.006004,0.008533,-0.508288,0.001436,-1.707396,-263.372029,-1.229482,68.620452
8.677,0.008064,0.001627,-0.00044,-0.000774,-0.001478,-0.006129,0.00813,-0.508403,0.000445,-1.714001,-263.370049,-1.186822,68.619698
8.6967,0.008,0.002073,-0.000476,-0.0008,-0.001412,-0.005473,0.008007,-0.508398,5.4e-05,-1.714001,-263.370049,-1.186822,68.619698
8.7163,0.007787,0.001678,-0.000589,-0.000814,-0.001366,-0.005007,0.007734,-0.507971,-0.000663,-1.717903,-263.368036,-1.241716,68.618785
8.7367,0.007775,0.001724,1.7e-05,-0.000816,-0.001352,-0.004348,0.007507,-0.508295,-0.000604,-1.717903,-263.368036,-1.241716,68.618785
8.7565,0.007484,0.001544,-0.000623,-0.000811,-0.001347,-0.003879,0.007507,-0.508295,-0.000604,-1.717903,-263.368036,-1.241716,68.618785
8.777,0.008042,0.001587,-0.0011,-0.000802,-0.001347,-0.003545,0.007167,-0.508456,-0.000623,-1.642848,-263.368036,-1.166661,68.618784
8.7968,0.008207,0.001668,-0.000506,-0.000791,-0.001326,-0.003196,0.007296,-0.508438,-0.000819,-1.642848,-263.368036,-1.166661,68.618784
8.8163,0.008299,0.001326,0.002116,-0.000779,-0.001313,-0.002947,0.007949,-0.508332,-0.000506,-1.567886,-263.368036,-1.091699,68.618784
8.8368,0.007979,0.001458,-0.000479,-0.000799,-0.001291,-0.004123,0.009257,-0.508643,0.001893,-1.567886,-263.368036,-1.091699,68.618784
8.857,0.007767,0.001934,-0.000575,-0.000817,-0.001265,-0.004984,0.009257,-0.508643,0.001893,-1.567886,-263.368036,-1.091699,68.618784
8.8764,0.008025,0.001545,0.000178,-0.000833,-0.001236,-0.005609,0.007474,-0.508066,-0.000575,-1.492899,-263.368036,-1.016712,68.618784
8.8968,0.007827,0.001839,-0.001311,-0.000828,-0.001265,-0.004968,0.007742,-0.508228,-0.000261,-1.492899,-263.368036,-1.016712,68.618784
8.9162,0.007859,0.001687,-0.000253,-0.000818,-0.001292,-0.004507,0.007159,-0.50816,-0.001311,-1.417738,-263.368036,-1.091873,68.618784
8.9368,0.008182,0.002042,-0.000785,-0.000806,-0.001315,-0.004133,0.007682,-0.5083,-0.000342,-1.417738,-263.368036,-1.091873,68.618784
8.957,0.008046,0.001316,-0.001313,-0.000793,-0.001335,-0.003862,0.007682,-0.5083,-0.000342,-1.417738,-263.368036,-1.091873,68.618784
8.9768,0.008267,0.001772,-0.000213,-0.000781,-0.001353,-0.003666,0.007376,-0.508683,-0.001313,-1.342872,-263.368036,-1.05999,68.618784
8.9967,0.008016,0.001812,-0.000171,-0.000791,-0.001324,-0.003248,0.007693,-0.508499,-0.000867,-1.342872,-263.368036,-1.05999,68.618784
9.0169,0.008108,0.00155,-0.000605,-0.000794,-0.001306,-0.002947,0.007929,-0.508188,-0.000171,-1.268045,-263.368037,-0.985163,68.618784
9.0369,0.008109,0.001734,-0.001817,-0.000786,-0.00131,-0.002889,0.007812,-0.508424,-0.000562,-1.268045,-263.368037,-0.985163,68.618784
9.057,0.007916,0.001455,-0.000764,-0.00078,-0.001313,-0.002846,0.007812,-0.508424,-0.000562,-1.268045,-263.368037,-0.985163,68.618784
9.077,0.008245,0.001967,-3.2e-05,-0.000774,-0.001316,-0.002813,0.007526,-0.508545,-0.000764,-1.193012,-263.368037,-0.91013,68.618784
9.0968,0.008234,0.001367,-0.002183,-0.000762,-0.001337,-0.002848,0.007817,-0.508333,-0.000461,-1.193012,-263.368037,-0.91013,68.618784
9.117,0.007687,0.001391,0.000356,-0.000754,-0.001353,-0.002871,0.00712,-0.508632,-0.002183,-1.117863,-263.368037,-0.834982,68.618784
9.1371,0.008041,0.001446,-0.002012,-0.000742,-0.00133,-0.003197,0.007802,-0.508611,0.000133,-1.117863,-263.368037,-0.834982,68.618784
9.157,0.008015,0.001659,9.7e-05,-0.000735,-0.00131,-0.00343,0.007802,-0.508611,0.000133,-1.117863,-263.368037,-0.834982,68.618784
9.1769,0.007911,0.001471,-0.000513,-0.000729,-0.001292,-0.003596,0.008065,-0.508341,9.7e-05,-1.042859,-263.368037,-0.759977,68.618784
9.197,0.008181,0.001681,-0.000447,-0.000728,-0.001303,-0.003567,0.007896,-0.508417,-0.000151,-1.042859,-263.368037,-0.759977,68.618784
9.2167,0.008039,0.002051,-0.000948,-0.000727,-0.001312,-0.003544,0.007953,-0.508319,-0.000447,-0.968024,-263.368037,-0.834811,68.618784
9.2368,0.008166,0.001655,-0.001923,-0.000717,-0.001389,-0.003148,0.00759,-0.50798,-0.000905,-0.968024,-263.368037,-0.834811,68.618784
9.2568,0.007973,0.001942,0.001177,-0.000706,-0.001452,-0.00286,0.00759,-0.50798,-0.000905,-0.968024,-263.368037,-0.834811,68.618784
9.277,0.008123,0.001437,-0.000463,-0.000697,-0.001503,-0.002649,0.008573,-0.508058,0.001177,-0.892914,-263.368037,-0.864923,68.618784
9.2968,0.008224,0.001881,0.000313,-0.000699,-0.001504,-0.00323,0.008287,-0.508268,0.000493,-0.892914,-263.368037,-0.864923,68.618784
9.3167,0.008075,0.001724,-0.0002,-0.000703,-0.0015,-0.003646,0.008384,-0.508119,0.000313,-0.817706,-263.368037,-0.789715,68.618784
9.3369,0.00831,0.001479,-0.000379,-0.000711,-0.001488,-0.003588,0.008007,-0.508263,-0.000157,-0.817706,-263.368037,-0.789715,68.618784
9.3571,0.007691,0.001928,-0.000999,-0.000716,-0.00148,-0.003546,0.008007,-0.508263,-0.000157,-0.817706,-263.368037,-0.789715,68.618784
9.3769,0.008031,0.001625,-0.001898,-0.00072,-0.001473,-0.003515,0.007182,-0.508072,-0.000999,-0.742882,-263.368037,-0.801773,68.618784
9.397,0.008403,0.001474,-0.000813,-0.000715,-0.001485,-0.00289,0.007133,-0.508196,-0.001368,-0.742882,-263.368037,-0.801773,68.618784
9.4165,0.008277,0.001805,5.6e-05,-0.000706,-0.001499,-0.002439,0.007988,-0.508526,-0.000813,-0.667891,-263.368037,-0.752124,68.618784
9.4364,0.007871,0.001985,-0.000832,-0.000709,-0.0015,-0.002806,0.008278,-0.508223,-1.8e-05,-0.667891,-263.368037,-0.752124,68.618784
9.457,0.008035,0.002062,-0.000236,-0.000715,-0.001498,-0.003067,0.008278,-0.508223,-1.8e-05,-0.667891,-263.368037,-0.752124,68.618784
9.4765,0.008149,0.001318,-0.000267,-0.000721,-0.001495,-0.003253,0.007914,-0.507938,-0.000236,-0.592885,-263.368037,-0.677118,68.618784
9.4968,0.008081,0.001275,-0.001462,-0.000721,-0.001492,-0.003258,0.007955,-0.508242,-0.000249,-0.592885,-263.368037,-0.677118,68.618784
9.5169,0.007672,0.001814,-0.000653,-0.000722,-0.001489,-0.003261,0.007336,-0.508724,-0.001462,-0.517897,-263.368037,-0.60213,68.618784
9.5371,0.007829,0.001372,0.000158,-0.000708,-0.001497,-0.003012,0.007339,-0.508232,-0.000722,-0.517897,-263.368037,-0.60213,68.618784
9.5569,0.008174,0.001673,0.000275,-0.000695,-0.001504,-0.002834,0.007339,-0.508232,-0.000722,-0.517897,-263.368037,-0.60213,68.618784
9.5767,0.008415,0.001757,0.000128,-0.000682,-0.001511,-0.002705,0.008314,-0.508327,0.000275,-0.442872,-263.368037,-0.608491,68.618784
9.5965,0.008113,0.001605,-0.000177,-0.000694,-0.001499,-0.003114,0.008382,-0.508292,0.000214,-0.442872,-263.368037,-0.608491,68.618784
9.6167,0.007983,0.001441,-0.002216,-0.000706,-0.001486,-0.003408,0.008023,-0.508395,-0.000177,-0.367897,-263.368037,-0.533515,68.618784
9.6368,0.008436,0.00165,-0.000652,-0.000724,-0.001426,-0.00252,0.006951,-0.508544,-0.002046,-0.367897,-263.368037,-0.533515,68.618784
9.657,0.007832,0.001765,0.000964,-0.000729,-0.001385,-0.001879,0.006951,-0.508544,-0.002046,-0.367897,-263.368037,-0.533515,68.618784
9.6767,0.008069,0.001973,0.000263,-0.000725,-0.001358,-0.001418,0.008324,-0.508235,0.000964,-0.292863,-263.368037,-0.60855,68.618784
9.6964,0.008045,0.00159,-0.000419,-0.00071,-0.001427,-0.002458,0.008274,-0.508148,0.000673,-0.292863,-263.368037,-0.60855,68.618784
9.7164,0.008102,0.001946,-0.001144,-0.000702,-0.001472,-0.003203,0.007832,-0.508409,-0.000419,-0.217831,-263.368037,-0.533518,68.618784
9.7365,0.008195,0.001639,-0.000185,-0.000704,-0.001498,-0.002811,0.007547,-0.508086,-0.001079,-0.217831,-263.368037,-0.533518,68.618784
9.7566,0.008003,0.001126,-0.001507,-0.000702,-0.00152,-0.002526,0.007547,-0.508086,-0.001079,-0.217831,-263.368037,-0.533518,68.618784
9.7764,0.008405,0.001932,-0.000459,-0.000699,-0.00154,-0.002319,0.007234,-0.508873,-0.001507,-0.14304,-263.368038,-0.604556,68.618784
9.7964,0.007969,0.001339,0.001854,-0.000714,-0.001473,-0.002143,0.007613,-0.508547,-0.001083,-0.14304,-263.368038,-0.604556,68.618784
9.8168,0.008067,0.001885,0.000581,-0.000723,-0.001422,-0.002018,0.008915,-0.50866,0.001854,-0.068041,-263.368038,-0.529557,68.618784
9.8363,0.008377,0.001669,0.000993,-0.000716,-0.001466,-0.002888,0.008414,-0.508164,0.000696,-0.068041,-263.368038,-0.529557,68.618784
9.8563,0.007409,0.001826,-0.000785,-0.000714,-0.001492,-0.003512,0.008414,-0.508164,0.000696,-0.068041,-263.368038,-0.529557,68.618784
9.8766,0.008244,0.001589,-0.000142,-0.000716,-0.001508,-0.003958,0.007009,-0.508174,-0.000785,0.006957,-263.368038,-0.454559,68.618784
9.8964,0.008023,0.00179,-0.000562,-0.000712,-0.001498,-0.003613,0.007481,-0.50827,-0.000524,0.006957,-263.368038,-0.454559,68.618784
9.9166,0.00785,0.001416,-0.000793,-0.000706,-0.001494,-0.003367,0.007737,-0.50821,-0.000562,0.081952,-263.368038,-0.529554,68.618784
9.9366,0.008124,0.001859,-0.001147,-0.000716,-0.001436,-0.003046,0.007471,-0.508551,-0.000773,0.081952,-263.368038,-0.529554,68.618784
9.9566,0.008036,0.001871,-0.001191,-0.00072,-0.001395,-0.002819,0.007471,-0.508551,-0.000773,0.081952,-263.368038,-0.529554,68.618784
9.9766,0.008012,0.001596,0.001704,-0.00072,-0.001364,-0.002658,0.007429,-0.508128,-0.001191,0.157025,-263.368038,-0.604626,68.618784
9.9967,0.007843,0.001942,8e-05,-0.000712,-0.001397,-0.002969,0.008022,-0.50824,-9e-06,0.157025,-263.368038,-0.604626,68.618784
10.0165,0.007819,0.001747,-0.000321,-0.000708,-0.00142,-0.00319,0.007884,-0.508058,8e-05,0.231954,-263.368038,-0.529697,68.618784
10.0364,0.008135,0.001414,0.000733,-0.000698,-0.001441,-0.003196,0.007676,-0.508236,-0.000285,0.231954,-263.368038,-0.529697,68.618784
10.0566,0.007615,0.001369,-0.000622,-0.000691,-0.001457,-0.003199,0.007676,-0.508236,-0.000285,0.231954,-263.368038,-0.529697,68.618784
10.0764,0.007656,0.001623,-0.000629,-0.000685,-0.00147,-0.0032,0.007298,-0.508631,-0.000622,0.306997,-263.368038,-0.60474,68.618784
10.0965,0.007945,0.001478,-0.001071,-0.000684,-0.001429,-0.003005,0.007313,-0.508527,-0.000625,0.306997,-263.368038,-0.60474,68.618784
10.1166,0.008007,0.001802,-0.00129,-0.000681,-0.001399,-0.002867,0.007399,-0.508522,-0.001071,0.381954,-263.368038,-0.616013,68.618784
10.1367,0.007803,0.001705,-0.000261,-0.000685,-0.00142,-0.002463,0.007353,-0.508226,-0.001271,0.381954,-263.368038,-0.616013,68.618784
10.1567,0.007923,0.001713,-0.000809,-0.000685,-0.00144,-0.002173,0.007353,-0.508226,-0.001271,0.381954,-263.368038,-0.616013,68.618784
10.1766,0.008025,0.001878,-0.000807,-0.000682,-0.001457,-0.001964,0.007511,-0.508287,-0.000809,0.456953,-263.368038,-0.541014,68.618784
10.1967,0.007949,0.001477,-0.000551,-0.000674,-0.001475,-0.002043,0.007553,-0.50822,-0.000808,0.456953,-263.368038,-0.541014,68.618784
10.2164,0.007974,0.001856,-0.001023,-0.000669,-0.001488,-0.002098,0.007668,-0.508523,-0.000551,0.531961,-263.368038,-0.466005,68.618784
10.2368,0.00829,0.00168,-0.001773,-0.000664,-0.001505,-0.00205,0.007472,-0.508178,-0.00098,0.531961,-263.368038,-0.466005,68.618784
10.2569,0.007819,0.001485,0.000106,-0.00066,-0.001518,-0.002016,0.007472,-0.508178,-0.00098,0.531961,-263.368038,-0.466005,68.618784
10.277,0.00787,0.001798,0.000284,-0.000657,-0.001528,-0.00199,0.007873,-0.508515,0.000106,0.606953,-263.368038,-0.391013,68.618784
10.2963,0.007822,0.001756,-0.000604,-0.000657,-0.001512,-0.002581,0.007931,-0.508388,0.000178,0.606953,-263.368038,-0.391013,68.618784
10.3166,0.007919,0.001492,-2.2e-05,-0.00066,-0.001494,-0.003005,0.007514,-0.508244,-0.000604,0.681953,-263.368038,-0.316014,68.618784
10.3365,0.008153,0.001581,-0.001267,-0.000671,-0.001456,-0.003166,0.007872,-0.508485,-7.5e-05,0.681953,-263.368038,-0.316014,68.618784
10.3569,0.007755,0.00151,-0.000326,-0.000679,-0.001425,-0.003282,0.007872,-0.508485,-7.5e-05,0.681953,-263.368038,-0.316014,68.618784
10.3765,0.008305,0.001831,0.000272,-0.000687,-0.0014,-0.003365,0.007589,-0.50849,-0.000326,0.756961,-263.368038,-0.391022,68.618784
10.3967,0.008023,0.001816,-0.001595,-0.000692,-0.001399,-0.003426,0.007935,-0.50836,-8.4e-05,0.756961,-263.368038,-0.391022,68.618784
10.4165,0.007685,0.001502,-4.5e-05,-0.000696,-0.001399,-0.003469,0.007209,-0.508183,-0.001595,0.831955,-263.368039,-0.466015,68.618784
10.4364,0.008251,0.002029,-0.000218,-0.000694,-0.001384,-0.003438,0.007621,-0.508469,-0.000188,0.831955,-263.368039,-0.466015,68.618784
10.4565,0.007849,0.001645,-0.001236,-0.000692,-0.001373,-0.003416,0.007621,-0.508469,-0.000188,0.831955,-263.368039,-0.466015,68.618784
10.4765,0.008543,0.001767,-0.000667,-0.000689,-0.001365,-0.003401,0.007219,-0.508355,-0.001236,0.906958,-263.36804,-0.541018,68.618783
10.4967,0.007936,0.001845,-0.002569,-0.000704,-0.001371,-0.002971,0.007621,-0.508305,-0.001003,0.906958,-263.36804,-0.541018,68.618783
10.5166,0.007681,0.001769,-0.000866,-0.000712,-0.00138,-0.002663,0.006625,-0.508154,-0.00257,0.981953,-263.368053,-0.616014,68.61878
10.5367,0.007551,0.001361,0.000313,-0.000692,-0.001418,-0.002438,0.007183,-0.508224,-0.001024,0.981953,-263.368053,-0.616014,68.61878
10.5564,0.008063,0.001722,7.8e-05,-0.000674,-0.001448,-0.002275,0.007183,-0.508224,-0.001024,0.981953,-263.368053,-0.616014,68.61878
10.5765,0.008099,0.001299,0.000234,-0.000659,-0.001472,-0.002157,0.008101,-0.508279,7.4e-05,1.056969,-263.368095,-0.540998,68.61877
10.5967,0.00774,0.00144,-3.1e-05,-0.000669,-0.00145,-0.002678,0.008149,-0.508451,0.000139,1.056969,-263.368095,-0.540998,68.61877
10.6164,0.008006,0.001879,0.000936,-0.00068,-0.001428,-0.003052,0.007724,-0.50856,-3.1e-05,1.13196,-263.368095,-0.466007,68.61877
10.6366,0.008108,0.001631,-0.000172,-0.000683,-0.001464,-0.003704,0.008415,-0.508161,0.000848,1.13196,-263.368095,-0.466007,68.61877
10.6565,0.008076,0.001532,0.000146,-0.000689,-0.001486,-0.004171,0.008415,-0.508161,0.000848,1.13196,-263.368095,-0.466007,68.61877
10.6763,0.008081,0.0017,-0.000717,-0.000696,-0.001499,-0.004504,0.008137,-0.508487,0.000105,1.206949,-263.368557,-0.540996,68.618658
10.6965,0.008135,0.00157,-0.000679,-0.000717,-0.001454,-0.004145,0.007964,-0.508413,-0.000235,1.206949,-263.368557,-0.540996,68.618658
10.7173,0.007751,0.001858,0.00085,-0.000731,-0.001422,-0.00389,0.007788,-0.508431,-0.00068,1.28194,-263.368567,-0.615988,68.618655
10.7367,0.008199,0.001666,0.001497,-0.000722,-0.001455,-0.004235,0.008149,-0.508168,0.000711,1.28194,-263.368567,-0.615988,68.618655
10.7564,0.007671,0.001354,-0.000213,-0.000716,-0.001477,-0.00448,0.008149,-0.508168,0.000711,1.28194,-263.368567,-0.615988,68.618655
10.7763,0.008164,0.001517,-0.001662,-0.000713,-0.001493,-0.004653,0.007556,-0.508658,-0.000244,1.35695,-263.368871,-0.690998,68.618561
10.7968,0.007928,0.001733,-0.000836,-0.000737,-0.001417,-0.003936,0.007457,-0.508588,-0.000826,1.35695,-263.368871,-0.690998,68.618561
10.8162,0.008041,0.00167,-0.001429,-0.000748,-0.001365,-0.003426,0.0075,-0.508271,-0.000847,1.407733,-263.369003,-0.766007,68.618515
10.8367,0.008118,0.001432,-0.002121,-0.000751,-0.001371,-0.002817,0.007329,-0.508324,-0.001377,1.407733,-263.369003,-0.766007,68.618515
10.8567,0.007818,0.001411,-0.000474,-0.000748,-0.001381,-0.002379,0.007329,-0.508324,-0.001377,1.407733,-263.369003,-0.766007,68.618515
10.8765,0.008192,0.001567,0.000795,-0.000741,-0.001392,-0.002063,0.007546,-0.508643,-0.000611,1.357803,-263.370361,-0.771851,68.618114
10.8965,0.008066,0.001281,-0.000378,-0.000735,-0.00137,-0.002509,0.007972,-0.508564,-5.3e-05,1.357803,-263.370361,-0.771851,68.618114
10.9166,0.008171,0.001618,-0.001345,-0.000733,-0.001349,-0.002827,0.007873,-0.508718,-0.000378,1.298187,-263.370362,-0.69691,68.618114
10.9365,0.008552,0.001528,0.000225,-0.000741,-0.001344,-0.002437,0.00752,-0.508412,-0.001257,1.298187,-263.370362,-0.69691,68.618114
10.9567,0.007618,0.001968,-0.001827,-0.000743,-0.001344,-0.002157,0.00752,-0.508412,-0.001257,1.298187,-263.370362,-0.69691,68.618114
10.9767,0.008214,0.001112,-0.001468,-0.000741,-0.001346,-0.001955,0.006674,-0.508055,-0.001881,1.336909,-263.370922,-0.621904,68.617968
10.9968,0.00798,0.001834,-0.00038,-0.000724,-0.001359,-0.001608,0.006995,-0.508398,-0.001718,1.336909,-263.370922,-0.621904,68.617968
11.0166,0.008008,0.001503,-0.001245,-0.000707,-0.001372,-0.001359,0.007786,-0.508166,-0.00038,1.286798,-263.370922,-0.546906,68.617968
11.0366,0.008227,0.00136,-0.001407,-0.000699,-0.001368,-0.001428,0.007411,-0.508466,-0.001167,1.286798,-263.370922,-0.546906,68.617968
11.0566,0.007801,0.001498,-0.000684,-0.000692,-0.001364,-0.001477,0.007411,-0.508466,-0.001167,1.286798,-263.370922,-0.546906,68.617968
11.0765,0.00781,0.00112,-0.00011,-0.000687,-0.00136,-0.001511,0.007453,-0.508502,-0.000684,1.260174,-263.370922,-0.471904,68.617968
11.0965,0.008136,0.001307,-0.001006,-0.00068,-0.001333,-0.001899,0.007576,-0.508656,-0.000449,1.260174,-263.370922,-0.471904,68.617968
11.1166,0.00805,0.001671,5.8e-05,-0.000676,-0.001309,-0.002176,0.007622,-0.508693,-0.001006,1.278427,-263.370922,-0.396911,68.617968
11.1369,0.007977,0.001679,-0.001682,-0.000675,-0.001336,-0.00261,0.008038,-0.508362,-3.8e-05,1.278427,-263.370922,-0.396911,68.617968
11.1569,0.007796,0.001839,-0.00205,-0.000678,-0.001354,-0.002918,0.008038,-0.508362,-3.8e-05,1.278427,-263.370922,-0.396911,68.617968
11.1765,0.008258,0.001483,-0.000913,-0.000682,-0.001365,-0.003138,0.006748,-0.508166,-0.00206,1.31994,-263.371039,-0.321908,68.617939
11.1964,0.008223,0.001644,-0.000635,-0.00069,-0.001378,-0.002521,0.007176,-0.50831,-0.001591,1.31994,-263.371039,-0.321908,68.617939
11.2166,0.008194,0.001659,-0.001452,-0.000691,-0.001392,-0.002077,0.007896,-0.508361,-0.000647,1.365751,-263.3712,-0.397007,68.617897
11.2365,0.007984,0.001662,-0.000868,-0.000698,-0.001394,-0.001846,0.007493,-0.508343,-0.00138,1.365751,-263.3712,-0.397007,68.617897
11.2566,0.00831,0.001636,-0.000424,-0.000701,-0.001398,-0.001679,0.007493,-0.508343,-0.00138,1.365751,-263.3712,-0.397007,68.617897
11.2766,0.007717,0.001447,-0.001033,-0.000701,-0.001402,-0.001559,0.008094,-0.508364,-0.000425,1.316653,-263.371204,-0.322119,68.617896
11.2966,0.007795,0.001414,-0.001551,-0.000696,-0.001396,-0.001822,0.007723,-0.508441,-0.000674,1.316653,-263.371204,-0.322119,68.617896
11.3165,0.00794,0.001482,-0.001187,-0.000694,-0.001389,-0.002008,0.007004,-0.508585,-0.001551,1.281346,-263.371204,-0.247069,68.617896
11.3367,0.008343,0.001301,-0.001915,-0.000692,-0.001367,-0.001861,0.007305,-0.508524,-0.00122,1.281346,-263.371204,-0.247069,68.617896
11.3564,0.008009,0.001597,-0.001413,-0.000689,-0.001351,-0.001755,0.007305,-0.508524,-0.00122,1.281346,-263.371204,-0.247069,68.617896
11.3764,0.007844,0.001335,0.000454,-0.000685,-0.00134,-0.00168,0.007287,-0.508404,-0.001415,1.311495,-263.371229,-0.172115,68.617889
11.3965,0.008184,0.001615,-6.4e-05,-0.00068,-0.001337,-0.001917,0.00761,-0.508511,-0.000651,1.311495,-263.371229,-0.172115,68.617889
11.4163,0.007779,0.001464,0.000972,-0.000677,-0.001333,-0.002085,0.008151,-0.508385,-6.4e-05,1.288835,-263.371231,-0.097115,68.617889
11.4363,0.008249,0.001593,-0.000615,-0.000682,-0.001343,-0.003015,0.008264,-0.508523,0.000881,1.288835,-263.371231,-0.097115,68.617889
11.4563,0.008041,0.001518,-0.001092,-0.000689,-0.001344,-0.003685,0.008264,-0.508523,0.000881,1.288835,-263.371231,-0.097115,68.617889
11.4764,0.008057,0.001019,-0.002603,-0.000698,-0.001339,-0.004167,0.007468,-0.508512,-0.001143,1.316491,-263.371848,-0.022011,68.617733
11.4966,0.008256,0.001281,-0.001413,-0.00073,-0.001274,-0.003185,0.007161,-0.508708,-0.001751,1.316491,-263.371848,-0.022011,68.617733
11.5164,0.008409,0.001951,-0.0007,-0.000747,-0.001231,-0.002479,0.007535,-0.508718,-0.001413,1.391491,-263.371848,-0.097011,68.617733
11.5365,0.00841,0.001432,-0.001089,-0.00074,-0.001302,-0.002456,0.008007,-0.508108,-0.000763,1.391491,-263.371848,-0.097011,68.617733
11.5566,0.008325,0.001245,-0.00104,-0.000736,-0.001358,-0.002434,0.008007,-0.508108,-0.000763,1.391491,-263.371848,-0.097011,68.617733
11.5764,0.008227,0.001671,-0.001322,-0.000733,-0.001402,-0.002415,0.007785,-0.50877,-0.001068,1.316496,-263.37217,-0.172006,68.617642
11.5966,0.008139,0.001569,-0.000761,-0.000747,-0.001354,-0.00217,0.00769,-0.508592,-0.001175,1.316496,-263.37217,-0.172006,68.617642
11.6166,0.008255,0.001389,-0.001711,-0.000755,-0.001319,-0.001996,0.007729,-0.508472,-0.000832,1.321309,-263.37326,-0.099099,68.617372
11.6365,0.008105,0.001264,-0.00123,-0.000761,-0.00129,-0.001662,0.007413,-0.5086,-0.001635,1.321309,-263.37326,-0.099099,68.617372
11.6564,0.008047,0.001407,-0.001186,-0.000762,-0.001271,-0.001425,0.007413,-0.5086,-0.001635,1.321309,-263.37326,-0.099099,68.617372
11.6766,0.007881,0.001597,-0.000814,-0.000759,-0.001258,-0.001255,0.007429,-0.508614,-0.001222,1.28149,-263.373697,-0.024098,68.617246
11.6965,0.00819,0.001476,-0.002079,-0.000739,-0.001271,-0.001409,0.007443,-0.508531,-0.001061,1.28149,-263.373697,-0.024098,68.617246
11.7164,0.008012,0.001123,-0.000905,-0.000724,-0.001279,-0.001517,0.00713,-0.508523,-0.002079,1.212061,-263.373699,0.050892,68.617245
11.7366,0.0079,0.001531,-0.001249,-0.000724,-0.001226,-0.001602,0.007512,-0.508844,-0.001013,1.212061,-263.373699,0.050892,68.617245
11.7565,0.008036,0.001234,-0.000751,-0.000723,-0.001185,-0.001664,0.007512,-0.508844,-0.001013,1.212061,-263.373699,0.050892,68.617245
11.7768,0.008016,0.001065,-0.000437,-0.000723,-0.001152,-0.001709,0.00765,-0.50877,-0.000756,1.253689,-263.373762,0.125903,68.617223
11.7966,0.008088,0.001393,-0.000397,-0.00072,-0.001131,-0.001943,0.007708,-0.508837,-0.000627,1.253689,-263.373762,0.125903,68.617223
11.8175,0.007788,0.001643,-0.001716,-0.00072,-0.001113,-0.00211,0.007862,-0.508643,-0.000451,1.252747,-263.374679,0.148608,68.616934
11.8365,0.008522,0.001667,-0.000937,-0.000698,-0.001183,-0.00178,0.006998,-0.508384,-0.001604,1.252747,-263.374679,0.148608,68.616934
11.8563,0.008127,0.001446,-0.000387,-0.000679,-0.001238,-0.00154,0.006998,-0.508384,-0.001604,1.252747,-263.374679,0.148608,68.616934
11.8777,0.008076,0.001522,-0.001048,-0.000662,-0.001283,-0.001366,0.007927,-0.508558,-0.000393,1.279629,-263.374763,0.073606,68.616909
11.8966,0.007852,0.001033,0.000193,-0.000664,-0.001288,-0.001698,0.007774,-0.508527,-0.000654,1.279629,-263.374763,0.073606,68.616909
11.9164,0.007965,0.001493,-0.000328,-0.000668,-0.001289,-0.001933,0.00795,-0.508968,0.000193,1.267767,-263.374773,0.148601,68.616905
11.9364,0.007861,0.000978,-0.003397,-0.000668,-0.001292,-0.002299,0.007812,-0.508549,-0.000281,1.267767,-263.374773,0.148601,68.616905
11.9565,0.008552,0.001199,0.000244,-0.00067,-0.00129,-0.002559,0.007812,-0.508549,-0.000281,1.267767,-263.374773,0.148601,68.616905
11.9766,0.008071,0.001455,-0.00084,-0.000675,-0.001287,-0.002744,0.008649,-0.508854,0.000165,1.306636,-263.375769,0.161653,68.616642
11.9965,0.007906,0.001346,-0.002337,-0.000699,-0.001244,-0.002881,0.008234,-0.508734,-0.000255,1.306636,-263.375769,0.161653,68.616642
12.0167,0.008078,0.001013,-0.001259,-0.000719,-0.00121,-0.002979,0.006714,-0.508652,-0.002337,1.346901,-263.375769,0.086657,68.616642
12.0368,0.008263,0.001274,-0.000778,-0.00074,-0.001137,-0.002481,0.00737,-0.508956,-0.001357,1.346901,-263.375769,0.086657,68.616642
12.0568,0.007989,0.001377,-0.001655,-0.000751,-0.001084,-0.002126,0.00737,-0.508956,-0.001357,1.346901,-263.375769,0.086657,68.616642
12.077,0.008135,0.001418,-0.002191,-0.000755,-0.001046,-0.001874,0.007145,-0.508622,-0.001655,1.337859,-263.375769,0.011645,68.616642
12.0968,0.008158,0.001324,-0.000232,-0.000745,-0.001083,-0.00149,0.007094,-0.508606,-0.001872,1.337859,-263.375769,0.011645,68.616642
12.1167,0.008291,0.001295,-0.001791,-0.000733,-0.001115,-0.001213,0.008026,-0.508697,-0.000269,1.262868,-263.376345,-0.063346,68.616452
12.137,0.00803,0.001333,-0.001685,-0.000735,-0.001117,-0.001099,0.007435,-0.508704,-0.001656,1.262868,-263.376345,-0.063346,68.616452
12.157,0.008492,0.00105,-0.00137,-0.000735,-0.00112,-0.001017,0.007435,-0.508704,-0.001656,1.262868,-263.376345,-0.063346,68.616452
12.1765,0.008419,0.000985,-0.001676,-0.000735,-0.001124,-0.000957,0.007793,-0.50895,-0.00137,1.194662,-263.376351,0.01166,68.61645
12.1964,0.008328,0.001267,-0.002072,-0.000748,-0.001075,-0.000974,0.0077,-0.508976,-0.001495,1.194662,-263.376351,0.01166,68.61645
12.2169,0.008312,0.001185,-0.000169,-0.000757,-0.001038,-0.000987,0.007271,-0.508732,-0.002072,1.164537,-263.376352,0.086656,68.616449
12.2365,0.008205,0.001368,-0.003019,-0.00075,-0.001054,-0.001592,0.008136,-0.508807,-0.000349,1.164537,-263.376352,0.086656,68.616449
12.257,0.008418,0.00113,-0.000967,-0.000748,-0.001061,-0.002022,0.008136,-0.508807,-0.000349,1.164537,-263.376352,0.086656,68.616449
12.2769,0.008066,0.001091,-0.000323,-0.00075,-0.001062,-0.002327,0.007924,-0.508871,-0.00097,1.138348,-263.376383,0.161653,68.616434
12.2966,0.007968,0.001412,-0.002852,-0.000756,-0.001044,-0.002348,0.007914,-0.508887,-0.000705,1.138348,-263.376383,0.161653,68.616434
12.3166,0.008412,0.001088,-0.001601,-0.000762,-0.001029,-0.002362,0.006513,-0.508586,-0.002852,1.213349,-263.376385,0.086653,68.616434
12.3367,0.007966,0.000707,-0.001653,-0.000778,-0.001007,-0.001896,0.007501,-0.508883,-0.00171,1.213349,-263.376385,0.086653,68.616434
12.3568,0.008292,0.001273,-0.001729,-0.000786,-0.000995,-0.001562,0.007501,-0.508883,-0.00171,1.213349,-263.376385,0.086653,68.616434
12.3766,0.008238,0.00115,-0.001536,-0.000789,-0.000988,-0.001323,0.00741,-0.508726,-0.001729,1.271745,-263.376388,0.011529,68.616433
12.3969,0.007951,0.001269,-0.000924,-0.000781,-0.001007,-0.001184,0.007428,-0.508776,-0.001651,1.271745,-263.376388,0.011529,68.616433
12.4169,0.008108,0.001354,-0.001569,-0.000773,-0.001022,-0.001082,0.00747,-0.508742,-0.000942,1.196895,-263.376695,0.086378,68.616306
12.4364,0.008485,0.001162,0.000758,-0.000754,-0.001062,-0.001076,0.007322,-0.508655,-0.001513,1.196895,-263.376695,0.086378,68.616306
12.4567,0.008093,0.001053,-0.00303,-0.000738,-0.001092,-0.00107,0.007322,-0.508655,-0.001513,1.196895,-263.376695,0.086378,68.616306
12.4765,0.008276,0.001224,0.000156,-0.000726,-0.001116,-0.001063,0.006544,-0.50895,-0.003037,1.140133,-263.37679,0.161409,68.616263
12.4966,0.008105,0.001064,-0.002423,-0.000728,-0.001089,-0.000941,0.007274,-0.50888,-0.001749,1.140133,-263.37679,0.161409,68.616263
12.5172,0.008053,0.001097,-0.000843,-0.000728,-0.001069,-0.000856,0.006868,-0.508936,-0.002425,1.18053,-263.376837,0.236439,68.616241
12.5365,0.008175,0.001017,-0.00033,-0.00072,-0.001057,-0.00115,0.007548,-0.508906,-0.000999,1.18053,-263.376837,0.236439,68.616241
12.5566,0.008427,0.000829,-0.000539,-0.000716,-0.001045,-0.001359,0.007548,-0.508906,-0.000999,1.18053,-263.376837,0.236439,68.616241
12.5765,0.008003,0.001286,-0.00172,-0.000713,-0.001035,-0.001506,0.00815,-0.509173,-0.000542,1.141761,-263.376881,0.311415,68.616218
12.5966,0.008006,0.001023,-0.002223,-0.000722,-0.001007,-0.001597,0.007735,-0.508988,-0.001019,1.141761,-263.376881,0.311415,68.616218
12.6163,0.008107,0.001205,-0.001892,-0.00073,-0.000985,-0.001662,0.006858,-0.508997,-0.002252,1.216755,-263.377401,0.23642,68.616038
12.637,0.008266,0.001464,-0.002734,-0.000729,-0.000996,-0.001306,0.007115,-0.508814,-0.001927,1.216755,-263.377401,0.23642,68.616038
12.6566,0.008118,0.001204,-0.001034,-0.000725,-0.001007,-0.001052,0.007115,-0.508814,-0.001927,1.216755,-263.377401,0.23642,68.616038
12.6766,0.008275,0.001053,-0.000258,-0.00072,-0.001018,-0.000869,0.007582,-0.508808,-0.001052,1.221005,-263.377647,0.161417,68.615953
12.6966,0.008378,0.001088,-0.000366,-0.000715,-0.001025,-0.00131,0.007814,-0.508868,-0.000724,1.221005,-263.377647,0.161417,68.615953
12.7164,0.008451,0.001237,-0.002176,-0.000715,-0.001027,-0.001621,0.008191,-0.508913,-0.000367,1.14561,-263.377675,0.236812,68.615939
12.7368,0.007933,0.001102,-0.001427,-0.000732,-0.001028,-0.001242,0.007415,-0.508775,-0.00202,1.14561,-263.377675,0.236812,68.615939
12.7572,0.007771,0.000992,-0.002261,-0.000742,-0.001032,-0.00097,0.007415,-0.508775,-0.00202,1.14561,-263.377675,0.236812,68.615939
12.7766,0.008355,0.000679,-0.001714,-0.000748,-0.001037,-0.000775,0.006602,-0.50903,-0.002294,1.220334,-263.378115,0.162088,68.615792
12.7967,0.008016,0.001267,-0.00182,-0.000741,-0.000978,-0.000601,0.006962,-0.509152,-0.002059,1.220334,-263.378115,0.162088,68.615792
12.8168,0.008314,0.001261,-0.000116,-0.000733,-0.000933,-0.000478,0.007088,-0.508732,-0.00182,1.145272,-263.378127,0.23715,68.615786
12.8366,0.007862,0.001075,-0.00194,-0.000724,-0.000989,-0.001297,0.008159,-0.508739,-0.000255,1.145272,-263.378127,0.23715,68.615786
12.8565,0.00813,0.00101,-0.001624,-0.00072,-0.001026,-0.001876,0.008159,-0.508739,-0.000255,1.145272,-263.378127,0.23715,68.615786
12.8766,0.008061,0.001012,-0.001751,-0.000721,-0.00105,-0.002285,0.007301,-0.50899,-0.001624,1.070191,-263.378136,0.312231,68.615779
12.8971,0.008319,0.001254,-0.00059,-0.000734,-0.001009,-0.001856,0.007247,-0.508989,-0.001676,1.070191,-263.378136,0.312231,68.615779
12.9163,0.008118,0.001293,-0.002119,-0.00074,-0.000981,-0.001548,0.008018,-0.508746,-0.00059,1.144984,-263.378137,0.237438,68.615779
12.9369,0.008492,0.00116,-0.002458,-0.000734,-0.001014,-0.001206,0.007111,-0.508709,-0.002004,1.144984,-263.378137,0.237438,68.615779
12.9564,0.008387,0.000766,-0.001667,-0.000726,-0.001041,-0.000959,0.007111,-0.508709,-0.002004,1.144984,-263.378137,0.237438,68.615779
12.9766,0.008475,0.000947,-0.002592,-0.000719,-0.001064,-0.000779,0.00752,-0.509256,-0.0017,1.204376,-263.378572,0.162023,68.615623
12.9967,0.007986,0.001485,-0.000777,-0.000737,-0.000988,-0.000599,0.00737,-0.509176,-0.002066,1.204376,-263.378572,0.162023,68.615623
13.0167,0.008303,0.001086,-0.002628,-0.00075,-0.000932,-0.000473,0.007589,-0.508516,-0.000777,1.134115,-263.378579,0.236548,68.615619
13.0368,0.00836,0.000815,-0.001097,-0.000743,-0.000946,-0.000243,0.007016,-0.508878,-0.00247,1.134115,-263.378579,0.236548,68.615619
13.0568,0.008269,0.000922,-0.00178,-0.000736,-0.000958,-7.8e-05,0.007016,-0.508878,-0.00247,1.134115,-263.378579,0.236548,68.615619
13.0765,0.008079,0.000967,-0.00094,-0.000729,-0.000969,4.1e-05,0.00736,-0.509078,-0.001781,1.058982,-263.37859,0.311681,68.615611
13.0968,0.008005,0.001001,-0.001776,-0.000722,-0.000953,-0.000308,0.007458,-0.50906,-0.001436,1.058982,-263.37859,0.311681,68.615611
13.1163,0.007815,0.001127,-0.000742,-0.000718,-0.000938,-0.000553,0.0071,-0.508998,-0.001776,0.984017,-263.37859,0.386647,68.615611
13.1369,0.007825,0.001349,-0.001304,-0.000697,-0.000968,-0.001038,0.007407,-0.508884,-0.000831,0.984017,-263.37859,0.386647,68.615611
13.1569,0.008012,0.001167,-0.002132,-0.000683,-0.000987,-0.001379,0.007407,-0.508884,-0.000831,0.984017,-263.37859,0.386647,68.615611
13.177,0.008114,0.000971,-0.001317,-0.000674,-0.000999,-0.001618,0.006919,-0.508839,-0.002137,1.058004,-263.378703,0.461681,68.615539
13.1966,0.008158,0.001427,-0.002314,-0.000684,-0.000988,-0.001323,0.007128,-0.508916,-0.001808,1.058004,-263.378703,0.461681,68.615539
13.2168,0.008399,0.001196,-0.001956,-0.000688,-0.000982,-0.001112,0.006977,-0.508572,-0.002315,1.132871,-263.378721,0.386814,68.615533
13.2366,0.00821,0.001084,-0.001571,-0.000701,-0.000997,-0.000892,0.007366,-0.508784,-0.001986,1.132871,-263.378721,0.386814,68.615533
13.2564,0.008135,0.001037,-0.001937,-0.000711,-0.00101,-0.000734,0.007366,-0.508784,-0.001986,1.132871,-263.378721,0.386814,68.615533
13.2763,0.008109,0.0009,-0.000858,-0.000717,-0.001021,-0.00062,0.007119,-0.509001,-0.001982,1.178104,-263.379408,0.415307,68.615246
13.2965,0.008101,0.000921,-0.002007,-0.000715,-0.00099,-0.000727,0.007344,-0.509046,-0.001524,1.178104,-263.379408,0.415307,68.615246
13.3162,0.008233,0.001052,-0.000731,-0.000715,-0.000965,-0.000804,0.007073,-0.509083,-0.002011,1.103161,-263.37952,0.490251,68.615177
13.3366,0.007837,0.000953,-0.003624,-0.000714,-0.000966,-0.001201,0.007793,-0.508959,-0.00084,1.103161,-263.37952,0.490251,68.615177
13.3568,0.0084,0.000787,-0.001129,-0.000715,-0.000964,-0.001481,0.007793,-0.508959,-0.00084,1.103161,-263.37952,0.490251,68.615177
13.3762,0.007861,0.000958,-0.001592,-0.000719,-0.00096,-0.001679,0.007798,-0.509247,-0.001158,1.114392,-263.380079,0.565266,68.614882
13.3965,0.008073,0.001314,-0.001018,-0.00073,-0.000913,-0.00156,0.007489,-0.509167,-0.001339,1.114392,-263.380079,0.565266,68.614882
13.4165,0.008345,0.000779,-0.000956,-0.000737,-0.000877,-0.001477,0.007553,-0.508685,-0.001018,1.189255,-263.380079,0.490403,68.614881
13.4366,0.008133,0.001027,-0.001231,-0.000744,-0.000852,-0.001604,0.007831,-0.509174,-0.000962,1.189255,-263.380079,0.490403,68.614881
13.4564,0.008128,0.000857,-0.001508,-0.000752,-0.000831,-0.001695,0.007831,-0.509174,-0.000962,1.189255,-263.380079,0.490403,68.614881
13.4767,0.008422,0.001124,-0.001857,-0.000758,-0.000814,-0.00176,0.007359,-0.509143,-0.001509,1.178272,-263.380087,0.415318,68.614878
13.4966,0.008308,0.00103,-0.001821,-0.000763,-0.00082,-0.001488,0.007406,-0.509033,-0.001652,1.178272,-263.380087,0.415318,68.614878
13.5167,0.008238,0.00074,-0.003157,-0.000764,-0.000827,-0.001293,0.007379,-0.508969,-0.001821,1.189272,-263.380087,0.340321,68.614878
13.5364,0.007995,0.000614,-0.002401,-0.000766,-0.000789,-0.000634,0.006693,-0.509233,-0.003041,1.189272,-263.380087,0.340321,68.614878
13.5566,0.008074,0.001074,-0.001648,-0.000762,-0.000763,-0.000157,0.006693,-0.509233,-0.003041,1.189272,-263.380087,0.340321,68.614878
13.5765,0.008124,0.000829,-0.002243,-0.000753,-0.000747,0.000186,0.007226,-0.508934,-0.001659,1.129403,-263.380257,0.265262,68.614806
13.5963,0.008127,0.001177,-0.003396,-0.000731,-0.000786,-1.1e-05,0.007125,-0.509031,-0.001898,1.129403,-263.380257,0.265262,68.614806
13.6164,0.008231,0.000757,-0.001718,-0.000716,-0.000814,-0.000147,0.006395,-0.50882,-0.003396,1.054537,-263.380257,0.340128,68.614806
13.6369,0.008106,0.000894,-0.003382,-0.000715,-0.000799,-0.000244,0.007268,-0.509204,-0.00187,1.054537,-263.380257,0.340128,68.614806
13.6568,0.008206,0.00087,-0.002029,-0.000716,-0.000787,-0.000312,0.007268,-0.509204,-0.00187,1.054537,-263.380257,0.340128,68.614806
13.6766,0.008238,0.001674,-0.002292,-0.000717,-0.000777,-0.000359,0.007171,-0.50913,-0.002029,0.979542,-263.380268,0.415123,68.614796
13.697,0.008243,0.001203,-0.002174,-0.000706,-0.000843,-0.000303,0.007129,-0.508802,-0.002136,0.979542,-263.380268,0.415123,68.614796
13.7166,0.008363,0.00108,-0.002394,-0.000699,-0.000895,-0.00026,0.007125,-0.508805,-0.00218,0.947263,-263.38045,0.490122,68.614661
13.7364,0.008047,0.000923,-0.002499,-0.000703,-0.000911,-0.000127,0.00714,-0.508908,-0.002374,0.947263,-263.38045,0.490122,68.614661
13.7564,0.008177,0.000885,-0.000903,-0.000705,-0.000925,-3.3e-05,0.00714,-0.508908,-0.002374,0.947263,-263.38045,0.490122,68.614661
13.7766,0.008121,0.000892,-0.001012,-0.000707,-0.000936,3.6e-05,0.007711,-0.509121,-0.000906,0.985116,-263.380542,0.565115,68.614588
13.7969,0.00818,0.000729,-0.003214,-0.000701,-0.000924,-0.000554,0.007667,-0.509116,-0.00095,0.985116,-263.380542,0.565115,68.614588
13.8169,0.008087,0.001228,-0.001145,-0.000701,-0.000908,-0.000971,0.006538,-0.509271,-0.003214,0.912927,-263.380587,0.640124,68.614541
13.8369,0.007691,0.001028,-0.002554,-0.000694,-0.000945,-0.001091,0.007419,-0.508815,-0.001325,0.912927,-263.380587,0.640124,68.614541
13.8569,0.008196,0.000948,-0.001724,-0.000691,-0.000972,-0.001172,0.007419,-0.508815,-0.001325,0.912927,-263.380587,0.640124,68.614541
13.8765,0.007965,0.00087,-0.002948,-0.000689,-0.000993,-0.001227,0.007309,-0.509059,-0.001731,0.988024,-263.380727,0.565027,68.614476
13.8965,0.007992,0.000791,-0.001137,-0.000698,-0.000949,-0.000863,0.006961,-0.509088,-0.002231,0.988024,-263.380727,0.565027,68.614476
13.9168,0.008237,0.000955,-0.000608,-0.000702,-0.000918,-0.000604,0.007406,-0.509215,-0.001144,1.063018,-263.380893,0.490033,68.614411
13.9368,0.008363,0.000976,-0.003381,-0.000703,-0.000917,-0.00116,0.007883,-0.50906,-0.000653,1.063018,-263.380893,0.490033,68.614411
13.9567,0.007968,0.000903,-0.002119,-0.000706,-0.000912,-0.001553,0.007883,-0.50906,-0.000653,1.063018,-263.380893,0.490033,68.614411
13.9765,0.007511,0.000418,-0.001094,-0.000712,-0.000904,-0.00183,0.006868,-0.509119,-0.002136,1.071415,-263.381253,0.565132,68.614193
13.9965,0.008139,0.000887,-0.001068,-0.000711,-0.00084,-0.001503,0.006901,-0.509313,-0.001707,1.071415,-263.381253,0.565132,68.614193
14.0167,0.007846,0.00081,-0.00149,-0.000705,-0.000794,-0.00127,0.007594,-0.509113,-0.001068,1.146346,-263.381253,0.490202,68.614193
14.0368,0.008102,0.000913,-0.002262,-0.0007,-0.000787,-0.001223,0.007129,-0.509182,-0.001454,1.146346,-263.381253,0.490202,68.614193
14.0567,0.007879,0.001015,-0.002999,-0.000695,-0.000781,-0.001189,0.007129,-0.509182,-0.001454,1.146346,-263.381253,0.490202,68.614193
14.0767,0.00795,0.000884,-0.000528,-0.00069,-0.000777,-0.001164,0.006349,-0.508984,-0.003,1.148426,-263.381272,0.415203,68.614185
14.0968,0.008273,0.00108,-0.003377,-0.000685,-0.000797,-0.000927,0.006899,-0.509038,-0.001979,1.148426,-263.381272,0.415203,68.614185
14.1165,0.007957,0.000585,-0.003346,-0.000679,-0.000815,-0.000757,0.006547,-0.508922,-0.003383,1.136471,-263.381396,0.340201,68.614133
14.1368,0.008039,0.000811,-0.00128,-0.000675,-0.000754,-0.000142,0.006275,-0.50937,-0.00335,1.136471,-263.381396,0.340201,68.614133
14.1567,0.008286,0.000742,-0.001365,-0.000666,-0.000712,0.000301,0.006275,-0.50937,-0.00335,1.136471,-263.381396,0.340201,68.614133
14.1764,0.007919,0.000669,-0.000433,-0.000653,-0.000683,0.000617,0.00757,-0.509281,-0.001388,1.082114,-263.3818,0.415172,68.613919
14.1966,0.008403,0.000942,-0.002185,-0.000652,-0.000698,-0.000132,0.00762,-0.509304,-0.001001,1.082114,-263.3818,0.415172,68.613919
14.2166,0.008227,0.000869,-0.00201,-0.000657,-0.000702,-0.000657,0.007288,-0.509057,-0.002185,1.007191,-263.3818,0.490095,68.613919
14.2366,0.008394,0.000561,-0.00257,-0.000669,-0.000721,-0.000557,0.00721,-0.509123,-0.002026,1.007191,-263.3818,0.490095,68.613919
14.2564,0.007925,0.000764,-0.001589,-0.000678,-0.000737,-0.000483,0.00721,-0.509123,-0.002026,1.007191,-263.3818,0.490095,68.613919
14.2763,0.008201,0.00044,-0.00078,-0.000686,-0.000749,-0.000427,0.007089,-0.509262,-0.001615,1.033754,-263.382279,0.429422,68.613649
14.2969,0.008036,0.000766,-0.002437,-0.000686,-0.00072,-0.000712,0.007378,-0.509387,-0.001276,1.033754,-263.382279,0.429422,68.613649
14.3167,0.007848,0.000574,-0.001316,-0.000688,-0.000695,-0.000912,0.006781,-0.509245,-0.002446,0.97442,-263.382538,0.50442,68.613471
14.3364,0.008281,0.000923,-0.001316,-0.000684,-0.000669,-0.000979,0.007138,-0.509409,-0.001426,0.97442,-263.382538,0.50442,68.613471
14.3566,0.008213,0.000476,-0.002193,-0.000682,-0.000648,-0.001026,0.007138,-0.509409,-0.001426,0.97442,-263.382538,0.50442,68.613471
14.3767,0.008404,0.000763,-0.002003,-0.00068,-0.000632,-0.001058,0.007089,-0.509529,-0.002199,1.049428,-263.382646,0.429412,68.613417
14.3964,0.008266,0.000371,-0.001192,-0.0007,-0.000606,-0.000783,0.007208,-0.509411,-0.002121,1.049428,-263.382646,0.429412,68.613417
14.4165,0.00809,0.00058,-0.001216,-0.000714,-0.000588,-0.000586,0.007657,-0.509629,-0.001193,1.081867,-263.382666,0.354422,68.613408
14.4365,0.008645,0.000786,-0.002826,-0.000712,-0.000584,-0.000852,0.007487,-0.509439,-0.001214,1.081867,-263.382666,0.354422,68.613408
14.4567,0.008032,0.001243,-0.001452,-0.000712,-0.000579,-0.001039,0.007487,-0.509439,-0.001214,1.081867,-263.382666,0.354422,68.613408
14.4764,0.008053,0.000465,-0.001614,-0.000714,-0.000573,-0.001171,0.007273,-0.508773,-0.001469,1.006861,-263.382976,0.312107,68.613212
14.4967,0.008092,0.000891,-0.002131,-0.000707,-0.000631,-0.001131,0.007253,-0.509088,-0.001531,1.006861,-263.382976,0.312107,68.613212
14.5166,0.007801,0.001082,-0.002562,-0.000702,-0.000676,-0.0011,0.007005,-0.509108,-0.002132,1.064695,-263.382984,0.23702,68.613208
14.5366,0.008042,0.000714,-0.001617,-0.00068,-0.000742,-0.000685,0.00654,-0.508934,-0.002524,1.064695,-263.382984,0.23702,68.613208
14.557,0.008073,0.001097,-0.002851,-0.00066,-0.000795,-0.000385,0.00654,-0.508934,-0.002524,1.064695,-263.382984,0.23702,68.613208
14.5767,0.008042,0.000856,-0.001108,-0.000642,-0.000838,-0.000167,0.006607,-0.508914,-0.002869,1.090515,-263.383237,0.162097,68.613091
14.5965,0.008189,0.000768,-0.003257,-0.000643,-0.000853,-0.000149,0.006962,-0.50901,-0.002148,1.090515,-263.383237,0.162097,68.613091
14.6167,0.007947,0.000896,-0.002133,-0.000645,-0.000865,-0.000135,0.006528,-0.509229,-0.003257,1.015342,-263.383237,0.23727,68.613091
14.6365,0.008144,0.000779,-0.000368,-0.000644,-0.000855,-8.3e-05,0.006829,-0.509114,-0.002235,1.015342,-263.383237,0.23727,68.613091
14.6565,0.008161,0.000768,-0.001388,-0.000642,-0.000848,-4.7e-05,0.006829,-0.509114,-0.002235,1.015342,-263.383237,0.23727,68.613091
14.6764,0.008091,0.000813,-0.001818,-0.000641,-0.000842,-2.1e-05,0.007454,-0.509232,-0.001388,0.973458,-263.383238,0.312103,68.613091
14.6963,0.008091,0.000651,-0.001886,-0.000649,-0.000823,-0.000287,0.007336,-0.509213,-0.001563,0.973458,-263.383238,0.312103,68.613091
14.7163,0.007927,0.000634,-0.002998,-0.000658,-0.000806,-0.000475,0.007129,-0.509348,-0.001886,0.9275,-263.383239,0.387088,68.61309
14.7364,0.007985,0.000748,-0.003119,-0.000657,-0.000752,-7.7e-05,0.006465,-0.509363,-0.002897,0.9275,-263.383239,0.387088,68.61309
14.7565,0.008368,0.000665,-0.000888,-0.000652,-0.000714,0.000207,0.006465,-0.509363,-0.002897,0.9275,-263.383239,0.387088,68.61309
14.7764,0.008071,0.000877,-0.001634,-0.000645,-0.000686,0.000408,0.007908,-0.509342,-0.000894,1.002496,-263.383361,0.462083,68.61301
14.7968,0.008043,0.000718,-0.000679,-0.00065,-0.000702,-0.000177,0.007636,-0.509254,-0.001194,1.002496,-263.383361,0.462083,68.61301
14.8164,0.007928,0.000552,-0.003683,-0.00066,-0.00071,-0.000588,0.007697,-0.509282,-0.000679,0.927483,-263.383362,0.537096,68.613009
14.8364,0.0081,0.000648,-0.002093,-0.000652,-0.000662,-4e-06,0.006191,-0.50943,-0.003426,0.927483,-263.383362,0.537096,68.613009
14.8566,0.008247,0.000778,-0.001875,-0.000639,-0.00063,0.000416,0.006191,-0.50943,-0.003426,0.927483,-263.383362,0.537096,68.613009
14.8765,0.008178,0.000524,-0.000797,-0.000625,-0.000607,0.000718,0.007267,-0.509246,-0.001896,1.002618,-263.383786,0.488648,68.612757
14.8963,0.008269,0.000806,-0.000249,-0.00063,-0.000625,0.000152,0.007472,-0.509344,-0.001445,1.002618,-263.383786,0.488648,68.612757
