mach0312/omni-docking-bench/src/icros_test_setup/results/MPPI_sample/timeseries/trial_123.csv
t,x,y,yaw,vx,vy,wz,bl_x,bl_y,bl_yaw,front_steering_joint,front_wheel_joint,rear_steering_joint,rear_wheel_joint
0.0,0.017047,-0.022734,-0.069389,-0.004627,-0.000831,-0.000665,-0.016676,-0.531195,-0.067788,0.261149,-261.214788,0.091513,69.601681
0.0003,0.016882,-0.022425,-0.067715,-0.003801,-0.000682,-0.000546,-0.016676,-0.531195,-0.067788,0.261149,-261.218278,0.091513,69.598295
0.0006,0.016683,-0.022117,-0.06772,-0.002936,-0.000527,-0.000422,-0.016651,-0.530841,-0.066871,0.261149,-261.221082,0.091513,69.595574
0.001,0.01667,-0.022679,-0.066704,-0.002014,-0.000362,-0.000289,-0.016651,-0.530841,-0.066871,0.261149,-261.223314,0.091513,69.593409
0.0013,0.016861,-0.022414,-0.067902,-0.00103,-0.000185,-0.000148,-0.016593,-0.531106,-0.066817,0.261149,-261.224531,0.091513,69.592228
0.0016,0.016628,-0.022485,-0.069247,0.0,0.0,0.0,-0.016593,-0.531106,-0.066817,0.261149,-261.224957,0.091513,69.591815
0.0018,0.016885,-0.022603,-0.067921,0.0,0.0,0.0,-0.017859,-0.531129,-0.069306,0.261149,-261.224957,0.091513,69.591815
0.0021,0.016336,-0.022703,-0.068073,0.0,0.0,0.0,-0.018953,-0.531232,-0.070911,0.261149,-261.224957,0.091513,69.591815
0.0023,0.016082,-0.022448,-0.068668,0.0,0.0,0.0,-0.018953,-0.531232,-0.070911,0.261149,-261.224957,0.091513,69.591815
0.0166,0.016134,-0.022603,-0.068323,0.0,0.0,0.0,-0.018303,-0.531514,-0.06806,0.261149,-261.224957,0.091513,69.591815
0.0362,0.016366,-0.022551,-0.069202,0.0,0.0,0.0,-0.018683,-0.531414,-0.068323,0.261149,-261.224957,0.091513,69.591815
0.0566,0.016582,-0.022408,-0.06776,0.0,0.0,0.0,-0.018771,-0.53138,-0.068681,0.261149,-261.224957,0.091513,69.591815
0.0767,0.016215,-0.022445,-0.068192,0.0,0.0,0.0,-0.017949,-0.531237,-0.06776,0.261149,-261.224957,0.091513,69.591815
0.0967,0.016456,-0.022568,-0.06931,0.0,0.0,0.0,-0.018486,-0.531258,-0.068155,0.261149,-261.224957,0.091513,69.591815
0.1165,0.016345,-0.022351,-0.069458,0.000583,0.002182,0.009144,-0.018486,-0.531258,-0.068155,0.261149,-261.224957,0.091513,69.591815
0.1369,0.016832,-0.022753,-0.067,0.000642,0.002376,0.009929,-0.01905,-0.531121,-0.069458,0.261149,-261.224957,0.091513,69.591815
0.1566,0.016482,-0.02266,-0.066774,0.000689,0.002547,0.01058,-0.018334,-0.531322,-0.068445,0.261149,-261.224957,0.091513,69.591815
0.1766,0.016425,-0.022799,-0.068806,0.000731,0.002691,0.01112,-0.017547,-0.531523,-0.066774,0.336123,-261.224957,0.016539,69.591815
0.1964,0.016604,-0.022699,-0.069049,0.000766,0.002815,0.011567,-0.018542,-0.531586,-0.068625,0.336123,-261.224957,0.016539,69.591815
0.2167,0.016418,-0.022783,-0.06828,0.000796,0.002921,0.01194,-0.018542,-0.531586,-0.068625,0.336123,-261.224957,0.016539,69.591815
0.2364,0.01675,-0.022483,-0.066491,0.000823,0.003012,0.012249,-0.018378,-0.531595,-0.06828,0.411142,-261.224957,-0.05848,69.591815
0.2566,0.016816,-0.022615,-0.067632,0.000836,0.003101,0.012503,-0.017875,-0.531498,-0.067555,0.411142,-261.224957,-0.05848,69.591815
0.2766,0.016231,-0.022263,-0.067178,0.000847,0.003176,0.012715,-0.01765,-0.53145,-0.067632,0.486022,-261.224957,-0.13336,69.591815
0.2966,0.016362,-0.022736,-0.068333,0.000864,0.003234,0.012893,-0.017972,-0.531143,-0.06722,0.486022,-261.224957,-0.13336,69.591815
0.3166,0.016535,-0.022985,-0.068441,0.000879,0.003284,0.013041,-0.017972,-0.531143,-0.06722,0.486022,-261.224957,-0.13336,69.591815
0.3366,0.016368,-0.022149,-0.068833,0.000892,0.003327,0.013164,-0.018342,-0.531791,-0.068441,0.561147,-261.224957,-0.208485,69.591815
0.3566,0.016704,-0.022695,-0.068063,0.000906,0.003362,0.013267,-0.018492,-0.531444,-0.068601,0.561147,-261.224957,-0.208485,69.591815
0.3765,0.01652,-0.022444,-0.067516,0.000918,0.003392,0.013353,-0.017981,-0.531514,-0.068063,0.636155,-261.224957,-0.283493,69.591815
0.3969,0.016498,-0.02273,-0.068142,0.00092,0.003427,0.013424,-0.017895,-0.531303,-0.067565,0.636155,-261.224957,-0.283493,69.591815
0.4168,0.016748,-0.022893,-0.069256,0.000922,0.003456,0.013483,-0.017895,-0.531303,-0.067565,0.636155,-261.224957,-0.283493,69.591815
0.4365,0.016499,-0.022878,-0.067782,0.000924,0.003481,0.013534,-0.018544,-0.53167,-0.069256,0.711031,-261.224957,-0.358369,69.591815
0.4568,0.016202,-0.02251,-0.068278,0.000927,0.003501,0.013576,-0.018339,-0.531685,-0.068652,0.711031,-261.224957,-0.358369,69.591815
0.4766,0.016363,-0.022643,-0.068376,0.00093,0.003519,0.013612,-0.018593,-0.531321,-0.068278,0.786127,-261.224957,-0.433465,69.591815
0.497,0.01644,-0.02226,-0.069016,0.000938,0.003527,0.013644,-0.018491,-0.531441,-0.068368,0.786127,-261.224957,-0.433465,69.591815
0.5168,0.016191,-0.022373,-0.069107,0.000946,0.003535,0.013671,-0.018491,-0.531441,-0.068368,0.786127,-261.224957,-0.433465,69.591815
0.5366,0.0163,-0.02249,-0.068208,0.000952,0.003542,0.013694,-0.019026,-0.531156,-0.069107,0.861194,-261.224957,-0.508532,69.591815
0.5563,0.016162,-0.022523,-0.067925,0.000966,0.003539,0.013715,-0.018789,-0.531218,-0.068732,0.861194,-261.224957,-0.508532,69.591815
0.5763,0.01626,-0.02237,-0.068493,0.000978,0.003537,0.013732,-0.018453,-0.531347,-0.067925,0.936343,-261.224957,-0.583681,69.591815
0.5966,0.016274,-0.022259,-0.067747,0.000986,0.003538,0.013747,-0.018627,-0.53119,-0.068441,0.936343,-261.224957,-0.583681,69.591815
0.6162,0.016797,-0.022745,-0.068595,0.000993,0.00354,0.013759,-0.018627,-0.53119,-0.068441,0.936343,-261.224957,-0.583681,69.591815
0.6363,0.016697,-0.022121,-0.067545,0.000999,0.003542,0.01377,-0.018159,-0.531545,-0.068595,1.011013,-261.224957,-0.658351,69.591815
0.6563,0.016264,-0.022422,-0.067467,0.000991,0.003557,0.013777,-0.017981,-0.531305,-0.068165,1.011013,-261.224957,-0.658351,69.591815
0.6761,0.016152,-0.022527,-0.070046,0.000984,0.00357,0.013783,-0.018118,-0.531261,-0.067467,1.086032,-261.224957,-0.73337,69.591815
0.6962,0.016289,-0.022745,-0.068355,0.001002,0.003555,0.013793,-0.019428,-0.531275,-0.069839,1.086032,-261.224957,-0.73337,69.591815
0.7162,0.01629,-0.022656,-0.067867,0.001018,0.003542,0.013801,-0.019428,-0.531275,-0.069839,1.086032,-261.224957,-0.73337,69.591815
0.7362,0.016201,-0.022706,-0.067941,0.001032,0.003533,0.013808,-0.018296,-0.531482,-0.067867,1.161321,-261.224957,-0.808659,69.591815
0.7565,0.016294,-0.022516,-0.067557,0.001023,0.003547,0.013809,-0.018347,-0.531501,-0.067897,1.161321,-261.224957,-0.808659,69.591815
0.7766,0.015943,-0.022464,-0.066741,0.001015,0.003559,0.013812,-0.018134,-0.531352,-0.067557,1.236038,-261.224952,-0.883376,69.591817
0.7965,0.016747,-0.022369,-0.067092,0.001007,0.00357,0.013814,-0.018075,-0.531331,-0.066811,1.236038,-261.224952,-0.883376,69.591817
0.8164,0.016677,-0.02221,-0.067869,0.001,0.00358,0.013816,-0.018075,-0.531331,-0.066811,1.236038,-261.224952,-0.883376,69.591817
0.8363,0.016094,-0.022126,-0.068934,0.000994,0.003588,0.013818,-0.017909,-0.531035,-0.067865,1.311153,-261.224915,-0.958491,69.591832
0.8565,0.01649,-0.022713,-0.06779,0.000998,0.003584,0.013821,-0.018366,-0.530986,-0.068299,1.311153,-261.224915,-0.958491,69.591832
0.8767,0.016471,-0.022455,-0.067657,0.001002,0.003581,0.013824,-0.018053,-0.531538,-0.067774,1.38603,-261.224733,-1.033368,69.591907
0.8964,0.016486,-0.02307,-0.066653,0.000994,0.003591,0.013825,-0.018012,-0.531311,-0.067667,1.38603,-261.224733,-1.033368,69.591907
0.9164,0.016455,-0.022463,-0.067378,0.000987,0.003598,0.013825,-0.018012,-0.531311,-0.067667,1.38603,-261.224733,-1.033368,69.591907
0.9364,0.016589,-0.022812,-0.067115,0.000981,0.003605,0.013826,-0.017871,-0.531285,-0.067301,1.461031,-261.224071,-1.108368,69.592179
0.9563,0.016041,-0.022354,-0.068181,0.00097,0.003616,0.013826,-0.017765,-0.531436,-0.067217,1.461031,-261.224071,-1.108368,69.592179
0.9765,0.015925,-0.022221,-0.067129,0.00096,0.003626,0.013827,-0.018687,-0.531131,-0.068041,1.489526,-261.222506,-1.183371,69.592819
0.9965,0.016483,-0.02223,-0.066981,0.000968,0.003617,0.01383,-0.018321,-0.531075,-0.067204,1.489526,-261.222506,-1.183371,69.592819
1.0165,0.016472,-0.022407,-0.066846,0.000974,0.003611,0.013832,-0.018321,-0.531075,-0.067204,1.489526,-261.222506,-1.183371,69.592819
1.0362,0.015984,-0.02224,-0.066962,0.000979,0.003605,0.013834,-0.01756,-0.531184,-0.066526,1.49141,-261.21981,-1.258367,69.593913
1.0564,0.01619,-0.02215,-0.068715,0.000974,0.003611,0.013923,-0.017792,-0.531139,-0.066667,1.49141,-261.21981,-1.258367,69.593913
1.0765,0.015942,-0.022107,-0.066933,0.000969,0.003617,0.013995,-0.018793,-0.530854,-0.068357,1.489717,-261.215862,-1.333368,69.595526
1.0965,0.015802,-0.021615,-0.065445,0.000975,0.00361,0.014114,-0.018221,-0.530951,-0.067038,1.489717,-261.215862,-1.333368,69.595526
1.1163,0.016111,-0.022115,-0.066843,0.00098,0.003606,0.014211,-0.018221,-0.530951,-0.067038,1.489717,-261.215862,-1.333368,69.595526
1.1366,0.015698,-0.022137,-0.06653,0.000985,0.003602,0.01429,-0.017904,-0.530832,-0.066275,1.491309,-261.211132,-1.376752,69.597474
1.1563,0.015432,-0.022095,-0.065816,0.000987,0.003601,0.01442,-0.018022,-0.530888,-0.066313,1.491309,-261.211132,-1.376752,69.597474
1.1764,0.015055,-0.021556,-0.064642,0.00099,0.0036,0.014525,-0.018071,-0.530879,-0.065361,1.491082,-261.206161,-1.380949,69.599572
1.1967,0.015526,-0.021685,-0.064299,0.000997,0.003594,0.014678,-0.017902,-0.530516,-0.064677,1.491082,-261.206161,-1.380949,69.599572
1.2165,0.015576,-0.021834,-0.067116,0.001003,0.00359,0.014802,-0.017902,-0.530516,-0.064677,1.491082,-261.206161,-1.380949,69.599572
1.2364,0.015103,-0.021396,-0.06483,0.001008,0.003587,0.014904,-0.018577,-0.530539,-0.066512,1.491614,-261.201183,-1.385236,69.601705
1.2564,0.014822,-0.021849,-0.062715,0.001021,0.003576,0.015045,-0.018311,-0.530435,-0.065759,1.491614,-261.201183,-1.385236,69.601705
1.2763,0.01469,-0.0216,-0.063078,0.001032,0.003567,0.015162,-0.017103,-0.530734,-0.062239,1.491534,-261.196065,-1.390062,69.60396
1.2966,0.014516,-0.021197,-0.065502,0.001025,0.003578,0.015307,-0.01743,-0.530592,-0.062995,1.491534,-261.196065,-1.390062,69.60396
1.3163,0.014786,-0.021289,-0.064298,0.001018,0.003587,0.015427,-0.01743,-0.530592,-0.062995,1.491534,-261.196065,-1.390062,69.60396
1.3362,0.014757,-0.021415,-0.06281,0.001013,0.003595,0.015526,-0.017932,-0.53009,-0.063668,1.490548,-261.190939,-1.391544,69.606265
1.3567,0.014648,-0.021216,-0.061576,0.001019,0.003591,0.015656,-0.017647,-0.530205,-0.063241,1.490548,-261.190939,-1.391544,69.606265
1.3766,0.013711,-0.021106,-0.062315,0.001024,0.003587,0.015763,-0.016697,-0.530138,-0.061083,1.493477,-261.185707,-1.40038,69.608648
1.3965,0.013993,-0.020937,-0.061581,0.001036,0.003577,0.015897,-0.017925,-0.530112,-0.062177,1.493477,-261.185707,-1.40038,69.608648
1.4164,0.013833,-0.020872,-0.063831,0.001046,0.003569,0.016008,-0.017925,-0.530112,-0.062177,1.493477,-261.185707,-1.40038,69.608648
1.4366,0.013691,-0.02078,-0.062384,0.001055,0.003562,0.016099,-0.018647,-0.529686,-0.063171,1.493443,-261.180406,-1.402819,69.611098
1.4565,0.013934,-0.021107,-0.06207,0.001078,0.00354,0.016214,-0.01842,-0.52971,-0.062776,1.493443,-261.180406,-1.402819,69.611098
1.4765,0.013262,-0.02026,-0.059156,0.001098,0.003522,0.016309,-0.017661,-0.530013,-0.061557,1.492174,-261.175032,-1.404059,69.613641
1.4965,0.013632,-0.020484,-0.06172,0.001095,0.003529,0.01641,-0.016957,-0.52942,-0.059346,1.492174,-261.175032,-1.404059,69.613641
1.5165,0.013329,-0.020474,-0.060553,0.001093,0.003535,0.016495,-0.016957,-0.52942,-0.059346,1.492174,-261.175032,-1.404059,69.613641
1.5363,0.013023,-0.020051,-0.058839,0.001092,0.003541,0.016567,-0.017479,-0.529395,-0.059869,1.48956,-261.169621,-1.401923,69.616253
1.5569,0.012839,-0.020142,-0.059706,0.001098,0.003537,0.016645,-0.017265,-0.529286,-0.059372,1.48956,-261.169621,-1.401923,69.616253
1.5764,0.01252,-0.019778,-0.06026,0.001103,0.003535,0.01671,-0.017552,-0.529123,-0.059178,1.491033,-261.164143,-1.406309,69.618919
1.5963,0.012845,-0.020498,-0.059635,0.001129,0.003507,0.016779,-0.018133,-0.528871,-0.060134,1.491033,-261.164143,-1.406309,69.618919
1.6166,0.01293,-0.020073,-0.058678,0.001152,0.003485,0.016836,-0.018133,-0.528871,-0.060134,1.491033,-261.164143,-1.406309,69.618919
1.6362,0.012272,-0.019974,-0.059406,0.001172,0.003467,0.016883,-0.016924,-0.52905,-0.057976,1.490728,-261.158628,-1.407007,69.621624
1.6564,0.012212,-0.02003,-0.058248,0.001174,0.003471,0.016926,-0.017357,-0.529043,-0.058477,1.490728,-261.158628,-1.407007,69.621624
1.6767,0.012109,-0.019713,-0.058204,0.001175,0.003474,0.016961,-0.017434,-0.529057,-0.057712,1.485934,-261.153102,-1.401201,69.624399
1.6967,0.012046,-0.020107,-0.057132,0.001183,0.003469,0.016997,-0.017545,-0.528862,-0.058133,1.485934,-261.153102,-1.401201,69.624399
1.7166,0.011937,-0.019812,-0.057497,0.00119,0.003465,0.017026,-0.017545,-0.528862,-0.058133,1.485934,-261.153102,-1.401201,69.624399
1.7368,0.011493,-0.01941,-0.057383,0.001196,0.003461,0.017051,-0.017314,-0.528827,-0.056788,1.486066,-261.14755,-1.401787,69.627193
1.7566,0.011638,-0.019006,-0.0564,0.001203,0.003456,0.017077,-0.017488,-0.528706,-0.056949,1.486066,-261.14755,-1.401787,69.627193
1.7769,0.011557,-0.019748,-0.056151,0.00121,0.003452,0.017098,-0.017066,-0.528087,-0.055857,1.484837,-261.141979,-1.400485,69.630014
1.7965,0.011384,-0.019155,-0.055264,0.001206,0.00346,0.017119,-0.017062,-0.528852,-0.05609,1.484837,-261.141979,-1.400485,69.630014
1.8169,0.011498,-0.019567,-0.054027,0.001202,0.003466,0.017136,-0.017062,-0.528852,-0.05609,1.484837,-261.141979,-1.400485,69.630014
1.8363,0.011061,-0.019484,-0.055081,0.001199,0.003471,0.017151,-0.015984,-0.528681,-0.05331,1.483938,-261.136401,-1.39943,69.632852
1.8563,0.010819,-0.019391,-0.054505,0.001188,0.003485,0.017165,-0.016397,-0.528677,-0.053948,1.483938,-261.136401,-1.39943,69.632852
1.8762,0.010235,-0.018674,-0.054716,0.001179,0.003496,0.017178,-0.016921,-0.528525,-0.053959,1.485031,-261.130802,-1.401233,69.635694
1.8962,0.010583,-0.019129,-0.054018,0.001205,0.003465,0.017198,-0.017586,-0.527962,-0.054617,1.485031,-261.130802,-1.401233,69.635694
1.9162,0.010672,-0.019321,-0.055508,0.001228,0.00344,0.017215,-0.017586,-0.527962,-0.054617,1.485031,-261.130802,-1.401233,69.635694
1.9366,0.010213,-0.018721,-0.053829,0.001247,0.003419,0.017228,-0.017566,-0.528392,-0.054789,1.48674,-261.125188,-1.403892,69.638532
1.9564,0.010278,-0.01873,-0.053257,0.001257,0.003411,0.017239,-0.017422,-0.52821,-0.054318,1.48674,-261.125188,-1.403892,69.638532
1.9764,0.010082,-0.018576,-0.053232,0.001266,0.003405,0.017249,-0.016825,-0.5279,-0.052707,1.481558,-261.119589,-1.396944,69.641416
1.9965,0.009785,-0.018469,-0.052825,0.001273,0.003399,0.017259,-0.017031,-0.527852,-0.053159,1.481558,-261.119589,-1.396944,69.641416
2.0165,0.009852,-0.018451,-0.051846,0.00128,0.003395,0.017268,-0.017031,-0.527852,-0.053159,1.481558,-261.119589,-1.396944,69.641416
2.0369,0.009447,-0.018355,-0.052214,0.001285,0.003391,0.017275,-0.016518,-0.527626,-0.051125,1.480237,-261.113998,-1.395105,69.644309
2.0565,0.009025,-0.018845,-0.051194,0.001291,0.003387,0.017282,-0.016773,-0.527624,-0.051479,1.480237,-261.113998,-1.395105,69.644309
2.0766,0.008934,-0.017977,-0.049701,0.001295,0.003384,0.017289,-0.017026,-0.528071,-0.050642,1.478866,-261.108391,-1.393175,69.647222
2.0965,0.009123,-0.018252,-0.051415,0.001298,0.003383,0.017295,-0.016454,-0.527404,-0.049754,1.478866,-261.108391,-1.393175,69.647222
2.1164,0.008835,-0.018099,-0.051271,0.001301,0.003382,0.017301,-0.016454,-0.527404,-0.049754,1.478866,-261.108391,-1.393175,69.647222
2.1364,0.008523,-0.018167,-0.049139,0.001303,0.003381,0.017305,-0.01724,-0.527291,-0.050549,1.478181,-261.102797,-1.392211,69.650134
2.1563,0.008743,-0.01814,-0.049795,0.001315,0.003369,0.017312,-0.016943,-0.527381,-0.049891,1.478181,-261.102797,-1.392211,69.650134
2.1765,0.008623,-0.018282,-0.049241,0.001324,0.003359,0.017317,-0.016595,-0.527403,-0.049245,1.477655,-261.097193,-1.391453,69.653056
2.1964,0.008138,-0.018136,-0.049596,0.00132,0.003366,0.01732,-0.016488,-0.527635,-0.049213,1.477655,-261.097193,-1.391453,69.653056
2.2163,0.008378,-0.017938,-0.047369,0.001316,0.003373,0.017322,-0.016488,-0.527635,-0.049213,1.477655,-261.097193,-1.391453,69.653056
2.2363,0.007581,-0.017798,-0.04669,0.001313,0.003377,0.017324,-0.015709,-0.527229,-0.046645,1.476041,-261.091594,-1.389308,69.655991
2.2563,0.007779,-0.017419,-0.048568,0.001309,0.003383,0.017327,-0.015912,-0.527218,-0.046579,1.476041,-261.091594,-1.389308,69.655991
2.2768,0.007331,-0.017736,-0.046944,0.001305,0.003388,0.017329,-0.016934,-0.526712,-0.048016,1.476984,-261.085986,-1.390457,69.65892
2.2966,0.00778,-0.017218,-0.047481,0.001317,0.003374,0.017334,-0.016629,-0.527127,-0.047012,1.476984,-261.085986,-1.390457,69.65892
2.317,0.007791,-0.017328,-0.046869,0.001327,0.003362,0.017338,-0.016629,-0.527127,-0.047012,1.476984,-261.085986,-1.390457,69.65892
2.3368,0.007099,-0.017463,-0.047186,0.001336,0.003353,0.017341,-0.016042,-0.526629,-0.046143,1.477666,-261.080374,-1.391377,69.661845
2.3567,0.006753,-0.017285,-0.047392,0.001348,0.00334,0.017344,-0.016405,-0.526721,-0.046482,1.477666,-261.080374,-1.391377,69.661845
2.3764,0.006689,-0.016867,-0.045625,0.001357,0.00333,0.017347,-0.01736,-0.526608,-0.046839,1.47527,-261.074771,-1.388265,69.664789
2.3967,0.006936,-0.01695,-0.045831,0.001378,0.003306,0.017352,-0.01664,-0.526356,-0.045706,1.47527,-261.074771,-1.388265,69.664789
2.4164,0.007169,-0.017298,-0.045617,0.001395,0.003287,0.017355,-0.01664,-0.526356,-0.045706,1.47527,-261.074771,-1.388265,69.664789
2.4365,0.00636,-0.016634,-0.045216,0.00141,0.003271,0.017357,-0.016025,-0.526631,-0.044891,1.473616,-261.069176,-1.386074,69.667744
2.4566,0.006404,-0.016585,-0.045179,0.001417,0.003267,0.017358,-0.016289,-0.526404,-0.044939,1.473616,-261.069176,-1.386074,69.667744
2.4764,0.006148,-0.016582,-0.045446,0.001422,0.003264,0.017358,-0.016579,-0.525963,-0.044626,1.46947,-261.063581,-1.380689,69.67074
2.497,0.006609,-0.016977,-0.044878,0.001446,0.003236,0.017362,-0.016984,-0.526043,-0.045354,1.46947,-261.063581,-1.380689,69.67074
2.5165,0.006243,-0.016715,-0.042847,0.001466,0.003214,0.017365,-0.016984,-0.526043,-0.045354,1.46947,-261.063581,-1.380689,69.67074
2.5363,0.005903,-0.01638,-0.042097,0.001484,0.003195,0.017367,-0.015537,-0.526114,-0.042123,1.468608,-261.057993,-1.379379,69.673735
2.5568,0.005539,-0.016499,-0.042382,0.001475,0.003212,0.017364,-0.015539,-0.52602,-0.042028,1.468608,-261.057993,-1.379379,69.673735
2.5764,0.005713,-0.016861,-0.042577,0.001467,0.003225,0.017361,-0.016019,-0.525942,-0.041833,1.463704,-261.052479,-1.373217,69.676738
2.5967,0.005139,-0.016444,-0.042283,0.001462,0.003234,0.01736,-0.015994,-0.526353,-0.042484,1.463704,-261.052479,-1.373217,69.676738
2.6169,0.005729,-0.016003,-0.041763,0.001458,0.00324,0.017359,-0.015994,-0.526353,-0.042484,1.463704,-261.052479,-1.373217,69.676738
2.6366,0.004924,-0.016154,-0.039761,0.001455,0.003246,0.017358,-0.015497,-0.525426,-0.041037,1.465113,-261.046911,-1.374543,69.67975
2.6571,0.00489,-0.016397,-0.040061,0.001458,0.003243,0.017359,-0.015428,-0.525545,-0.040428,1.465113,-261.046911,-1.374543,69.67975
2.6768,0.004598,-0.016196,-0.04035,0.001461,0.00324,0.017359,-0.015486,-0.525886,-0.039508,1.466132,-261.041341,-1.375543,69.68275
2.6963,0.004445,-0.016016,-0.038773,0.001468,0.003231,0.017361,-0.01593,-0.525785,-0.040249,1.466132,-261.041341,-1.375543,69.68275
2.7166,0.004495,-0.016237,-0.040161,0.001475,0.003224,0.017362,-0.01593,-0.525785,-0.040249,1.466132,-261.041341,-1.375543,69.68275
2.7365,0.003905,-0.015791,-0.040048,0.00148,0.003218,0.017363,-0.015914,-0.525693,-0.039434,1.46565,-261.035775,-1.374935,69.685751
2.7564,0.004282,-0.015876,-0.039439,0.001494,0.003201,0.017365,-0.016152,-0.525551,-0.039601,1.46565,-261.035775,-1.374935,69.685751
2.7766,0.00443,-0.015667,-0.039312,0.001506,0.003187,0.017367,-0.015775,-0.525379,-0.038886,1.464114,-261.030213,-1.373023,69.688765
2.7965,0.00375,-0.015843,-0.038267,0.001512,0.003181,0.017367,-0.015625,-0.525277,-0.039248,1.464114,-261.030213,-1.373023,69.688765
2.8165,0.003625,-0.016267,-0.038038,0.001518,0.003177,0.017367,-0.015625,-0.525277,-0.039248,1.464114,-261.030213,-1.373023,69.688765
2.8366,0.003572,-0.015684,-0.038374,0.001522,0.003173,0.017367,-0.015702,-0.525768,-0.037311,1.462037,-261.024664,-1.370525,69.691793
2.8566,0.003373,-0.015264,-0.036612,0.001525,0.003171,0.017366,-0.015814,-0.525565,-0.037663,1.462037,-261.024664,-1.370525,69.691793
2.8768,0.003438,-0.015089,-0.03704,0.001527,0.00317,0.017366,-0.015242,-0.524823,-0.036059,1.460766,-261.019119,-1.368817,69.694828
2.8963,0.002951,-0.015296,-0.035658,0.001539,0.003156,0.017368,-0.015428,-0.524742,-0.036928,1.460766,-261.019119,-1.368817,69.694828
2.9163,0.003412,-0.015153,-0.035422,0.00155,0.003144,0.017369,-0.015428,-0.524742,-0.036928,1.460766,-261.019119,-1.368817,69.694828
2.9364,0.002625,-0.015365,-0.034206,0.001558,0.003134,0.017369,-0.014582,-0.524703,-0.034698,1.460377,-261.013574,-1.368213,69.697865
2.9563,0.002989,-0.015336,-0.035486,0.00155,0.003147,0.017366,-0.01467,-0.524838,-0.03441,1.460377,-261.013574,-1.368213,69.697865
2.9765,0.002449,-0.014844,-0.034769,0.001543,0.003158,0.017364,-0.015053,-0.524917,-0.034936,1.457882,-261.008042,-1.365241,69.700919
2.9966,0.002445,-0.015177,-0.03594,0.001555,0.003143,0.017366,-0.015258,-0.524563,-0.034756,1.457882,-261.008042,-1.365241,69.700919
3.0167,0.002217,-0.014834,-0.035919,0.001565,0.003131,0.017368,-0.015258,-0.524563,-0.034756,1.457882,-261.008042,-1.365241,69.700919
3.0367,0.002484,-0.015048,-0.03374,0.001573,0.003121,0.017368,-0.016028,-0.524375,-0.035194,1.459119,-261.002505,-1.366451,69.70396
3.0566,0.002182,-0.014898,-0.03443,0.001586,0.003106,0.01737,-0.015481,-0.524518,-0.03451,1.459119,-261.002505,-1.366451,69.70396
3.0764,0.001739,-0.0144,-0.033958,0.001597,0.003094,0.017371,-0.01532,-0.524498,-0.033878,1.456705,-260.996978,-1.36367,69.70702
3.0966,0.001586,-0.014688,-0.032228,0.001616,0.003069,0.017374,-0.015551,-0.524135,-0.033924,1.456705,-260.996978,-1.36367,69.70702
3.117,0.001441,-0.014746,-0.03353,0.001632,0.00305,0.017375,-0.015551,-0.524135,-0.033924,1.456705,-260.996978,-1.36367,69.70702
3.1362,0.001438,-0.014324,-0.032154,0.001647,0.003034,0.017376,-0.015585,-0.524332,-0.032805,1.454789,-260.991461,-1.361451,69.710092
3.1566,0.001007,-0.014689,-0.030835,0.001654,0.003028,0.017375,-0.01532,-0.524206,-0.032453,1.454789,-260.991461,-1.361451,69.710092
3.1765,0.000891,-0.013962,-0.032999,0.00166,0.003023,0.017374,-0.014661,-0.524351,-0.030282,1.450714,-260.985966,-1.356852,69.713193
3.1963,0.001109,-0.014482,-0.032757,0.001685,0.002991,0.017378,-0.015823,-0.523737,-0.032739,1.450714,-260.985966,-1.356852,69.713193
3.2163,0.00097,-0.014538,-0.0312,0.001706,0.002966,0.01738,-0.015823,-0.523737,-0.032739,1.450714,-260.985966,-1.356852,69.713193
3.2363,0.000845,-0.014405,-0.031939,0.001724,0.002945,0.017381,-0.014866,-0.524165,-0.030474,1.449614,-260.980473,-1.355382,69.7163
3.257,0.000823,-0.014089,-0.030207,0.001718,0.002958,0.017377,-0.015094,-0.524142,-0.030993,1.449614,-260.980473,-1.355382,69.7163
3.2767,0.000654,-0.014144,-0.028453,0.001714,0.002969,0.017373,-0.014523,-0.523764,-0.029653,1.444362,-260.975009,-1.349767,69.719442
3.2964,0.000122,-0.01398,-0.029255,0.001692,0.003002,0.017367,-0.01391,-0.523919,-0.028529,1.444362,-260.975009,-1.349767,69.719442
3.3166,8.1e-05,-0.014017,-0.028628,0.001673,0.00303,0.017362,-0.01391,-0.523919,-0.028529,1.444362,-260.975009,-1.349767,69.719442
3.3364,-0.000279,-0.013681,-0.029361,0.001657,0.003052,0.017359,-0.014442,-0.523686,-0.027902,1.445243,-260.969536,-1.350146,69.722574
3.3563,4.5e-05,-0.013866,-0.029916,0.001668,0.003035,0.017362,-0.014764,-0.52358,-0.028415,1.445243,-260.969536,-1.350146,69.722574
3.3764,-0.000697,-0.013758,-0.02862,0.001677,0.003021,0.017364,-0.015154,-0.523543,-0.029363,1.450041,-260.964039,-1.354786,69.725663
3.3963,-9.2e-05,-0.01377,-0.027759,0.001696,0.002995,0.017368,-0.015276,-0.523544,-0.028658,1.450041,-260.964039,-1.354786,69.725663
3.4164,-0.000249,-0.013572,-0.027133,0.001712,0.002973,0.017371,-0.015276,-0.523544,-0.028658,1.450041,-260.964039,-1.354786,69.725663
3.4365,-0.000702,-0.013631,-0.02718,0.001726,0.002956,0.017373,-0.014012,-0.523259,-0.026407,1.448306,-260.958545,-1.353129,69.728772
3.4564,-0.000403,-0.013848,-0.027877,0.001724,0.002962,0.01737,-0.01423,-0.52332,-0.026641,1.448306,-260.958545,-1.353129,69.728772
3.4763,-0.001443,-0.013221,-0.026043,0.001722,0.002967,0.017368,-0.014561,-0.523557,-0.027325,1.444267,-260.953079,-1.34905,69.731908
3.4964,-0.001433,-0.013392,-0.025512,0.001735,0.002949,0.01737,-0.014707,-0.523087,-0.026127,1.444267,-260.953079,-1.34905,69.731908
3.5164,-0.000896,-0.013512,-0.025432,0.001746,0.002935,0.017372,-0.014707,-0.523087,-0.026127,1.444267,-260.953079,-1.34905,69.731908
3.5364,-0.001706,-0.012678,-0.025585,0.001756,0.002923,0.017372,-0.013789,-0.523225,-0.024706,1.444645,-260.947613,-1.349169,69.735036
3.5572,-0.001183,-0.013056,-0.026409,0.001759,0.002923,0.017371,-0.014173,-0.52292,-0.02498,1.444645,-260.947613,-1.349169,69.735036
3.5762,-0.001648,-0.013245,-0.025904,0.001761,0.002922,0.01737,-0.014592,-0.522786,-0.02585,1.441752,-260.942144,-1.346189,69.738196
3.5964,-0.001603,-0.013168,-0.023536,0.001772,0.002908,0.017372,-0.014832,-0.523045,-0.025873,1.441752,-260.942144,-1.346189,69.738196
3.6165,-0.001527,-0.012992,-0.02527,0.001782,0.002896,0.017372,-0.014832,-0.523045,-0.025873,1.441752,-260.942144,-1.346189,69.738196
3.6366,-0.002253,-0.012773,-0.022898,0.00179,0.002886,0.017373,-0.014336,-0.522709,-0.024543,1.441395,-260.936688,-1.345622,69.741349
3.6565,-0.002301,-0.012846,-0.023406,0.001794,0.002883,0.017372,-0.014161,-0.522667,-0.023786,1.441395,-260.936688,-1.345622,69.741349
3.6764,-0.002434,-0.012679,-0.023329,0.001798,0.00288,0.017371,-0.014177,-0.522616,-0.022853,1.438928,-260.931253,-1.343052,69.744514
3.6965,-0.002622,-0.01245,-0.023367,0.001807,0.002869,0.017372,-0.014314,-0.522542,-0.023257,1.438928,-260.931253,-1.343052,69.744514
3.7164,-0.002649,-0.012344,-0.023549,0.001814,0.00286,0.017372,-0.014314,-0.522542,-0.023257,1.438928,-260.931253,-1.343052,69.744514
3.7364,-0.003364,-0.012652,-0.022426,0.001821,0.002852,0.017372,-0.014579,-0.522084,-0.02282,1.438321,-260.925798,-1.342277,69.747695
3.7564,-0.002858,-0.012355,-0.023204,0.00184,0.002825,0.017375,-0.014661,-0.52225,-0.022575,1.438321,-260.925798,-1.342277,69.747695
3.7766,-0.003014,-0.012306,-0.022517,0.001857,0.002802,0.017377,-0.014631,-0.522128,-0.022652,1.436325,-260.920367,-1.340212,69.750881
3.7964,-0.003374,-0.012395,-0.022104,0.00187,0.002785,0.017378,-0.014506,-0.522168,-0.022502,1.436325,-260.920367,-1.340212,69.750881
3.8164,-0.003585,-0.011979,-0.020753,0.001882,0.002772,0.017378,-0.014506,-0.522168,-0.022502,1.436325,-260.920367,-1.340212,69.750881
3.8366,-0.003372,-0.012471,-0.021864,0.001892,0.00276,0.017378,-0.014088,-0.521753,-0.020024,1.433246,-260.914961,-1.337392,69.754086
3.8572,-0.0037,-0.012523,-0.020806,0.001901,0.00275,0.017377,-0.014253,-0.521979,-0.020679,1.433246,-260.914961,-1.337392,69.754086
3.8765,-0.003912,-0.012483,-0.020198,0.001908,0.002742,0.017376,-0.014248,-0.522325,-0.020249,1.43027,-260.909559,-1.334401,69.757316
3.8963,-0.003477,-0.011797,-0.019887,0.001905,0.00275,0.017371,-0.014212,-0.522369,-0.020174,1.43027,-260.909559,-1.334401,69.757316
3.9163,-0.004052,-0.012093,-0.020483,0.001903,0.002757,0.017368,-0.014212,-0.522369,-0.020174,1.43027,-260.909559,-1.334401,69.757316
3.9364,-0.00433,-0.012026,-0.020071,0.001901,0.002763,0.017365,-0.014415,-0.521873,-0.019755,1.428847,-260.904164,-1.332911,69.760556
3.9569,-0.004094,-0.011672,-0.017042,0.001914,0.002741,0.017367,-0.014467,-0.52188,-0.0198,1.428847,-260.904164,-1.332911,69.760556
3.9766,-0.004628,-0.011981,-0.016811,0.001926,0.002724,0.017367,-0.012723,-0.521511,-0.01649,1.429576,-260.898763,-1.333052,69.763784
3.997,-0.004526,-0.011782,-0.018764,0.001911,0.002746,0.017347,-0.013155,-0.521869,-0.016754,1.429576,-260.898763,-1.333052,69.763784
4.0165,-0.004856,-0.012053,-0.016726,0.001897,0.002764,0.017331,-0.013155,-0.521869,-0.016754,1.429576,-260.898763,-1.333052,69.763784
4.0366,-0.004768,-0.011798,-0.016761,0.001885,0.002779,0.017317,-0.013303,-0.521869,-0.015999,1.427278,-260.893352,-1.331116,69.767044
4.0567,-0.005016,-0.011678,-0.01769,0.00188,0.002783,0.017303,-0.013299,-0.521796,-0.016234,1.427278,-260.893352,-1.331116,69.767044
4.0768,-0.005648,-0.01182,-0.014513,0.001876,0.002785,0.017292,-0.013976,-0.521511,-0.017141,1.430552,-260.887974,-1.333558,69.770242
4.0965,-0.005117,-0.011867,-0.01587,0.001867,0.00279,0.017252,-0.013126,-0.52174,-0.014713,1.430552,-260.887974,-1.333558,69.770242
4.1165,-0.005488,-0.01122,-0.015693,0.001859,0.002793,0.01722,-0.013126,-0.52174,-0.014713,1.430552,-260.887974,-1.333558,69.770242
4.1366,-0.005589,-0.011843,-0.015107,0.001853,0.002795,0.017194,-0.013411,-0.521042,-0.014966,1.431168,-260.882591,-1.334085,69.773437
4.1569,-0.00589,-0.011436,-0.015388,0.001864,0.002773,0.017182,-0.013355,-0.521325,-0.014941,1.431168,-260.882591,-1.334085,69.773437
4.1762,-0.00587,-0.011161,-0.013045,0.001874,0.002755,0.017172,-0.013677,-0.521287,-0.01484,1.432295,-260.877221,-1.334763,69.776607
4.1968,-0.005922,-0.011085,-0.012658,0.001865,0.002757,0.017091,-0.012625,-0.521128,-0.013181,1.432295,-260.877221,-1.334763,69.776607
4.2166,-0.005859,-0.011292,-0.013138,0.001859,0.002757,0.017027,-0.012625,-0.521128,-0.013181,1.432295,-260.877221,-1.334763,69.776607
4.2364,-0.006321,-0.010962,-0.012976,0.001854,0.002757,0.016975,-0.012479,-0.521133,-0.012419,1.430242,-260.871871,-1.333056,69.779789
4.2564,-0.006077,-0.011162,-0.014053,0.001851,0.002753,0.016893,-0.012655,-0.521034,-0.01256,1.430242,-260.871871,-1.333056,69.779789
4.2761,-0.0064,-0.011009,-0.012991,0.001849,0.002748,0.016828,-0.013184,-0.521025,-0.013511,1.430501,-260.86657,-1.331889,69.782922
4.2971,-0.006607,-0.01054,-0.01128,0.001859,0.002728,0.016808,-0.013037,-0.520966,-0.01301,1.430501,-260.86657,-1.331889,69.782922
4.3167,-0.006599,-0.01087,-0.012628,0.001868,0.002712,0.016791,-0.013037,-0.520966,-0.01301,1.430501,-260.86657,-1.331889,69.782922
4.3365,-0.006931,-0.011214,-0.011419,0.001876,0.002699,0.016777,-0.012961,-0.520715,-0.011924,1.429777,-260.861302,-1.329966,69.786027
4.3567,-0.007149,-0.01087,-0.011098,0.001878,0.002692,0.016651,-0.012867,-0.520892,-0.011636,1.429777,-260.861302,-1.329966,69.786027
4.3762,-0.007394,-0.010393,-0.011747,0.00188,0.002685,0.016553,-0.012748,-0.520753,-0.01056,1.426875,-260.85607,-1.327169,69.789138
4.3963,-0.007077,-0.010689,-0.009785,0.001905,0.002642,0.01648,-0.013326,-0.520388,-0.011617,1.426875,-260.85607,-1.327169,69.789138
4.4168,-0.00727,-0.0108,-0.011656,0.001926,0.002606,0.016422,-0.013326,-0.520388,-0.011617,1.426875,-260.85607,-1.327169,69.789138
4.4364,-0.007522,-0.010632,-0.009169,0.001945,0.002577,0.016376,-0.013135,-0.520654,-0.010964,1.424869,-260.850905,-1.322717,69.792196
4.4562,-0.007442,-0.010809,-0.01005,0.001945,0.002587,0.016136,-0.012746,-0.520624,-0.010156,1.424869,-260.850905,-1.322717,69.792196
4.4766,-0.007956,-0.010375,-0.009926,0.001946,0.002594,0.015954,-0.012504,-0.520702,-0.009529,1.417411,-260.845818,-1.314651,69.795264
4.4967,-0.00837,-0.010847,-0.009227,0.001959,0.00258,0.01577,-0.01297,-0.520376,-0.009865,1.417411,-260.845818,-1.314651,69.795264
4.5169,-0.008139,-0.010873,-0.00842,0.001971,0.002568,0.015631,-0.01297,-0.520376,-0.009865,1.417411,-260.845818,-1.314651,69.795264
4.5374,-0.008064,-0.010077,-0.009162,0.00198,0.002557,0.015525,-0.012351,-0.520747,-0.007753,1.414325,-260.840829,-1.305025,69.798224
4.5567,-0.008404,-0.010044,-0.007859,0.00198,0.002568,0.015119,-0.012496,-0.520458,-0.008238,1.414325,-260.840829,-1.305025,69.798224
4.5762,-0.008879,-0.010212,-0.008983,0.001981,0.002576,0.014824,-0.012348,-0.519947,-0.007366,1.407786,-260.835972,-1.29227,69.801091
4.5967,-0.008469,-0.00975,-0.008352,0.002005,0.002539,0.014733,-0.013356,-0.520165,-0.00881,1.407786,-260.835972,-1.29227,69.801091
4.6169,-0.008953,-0.010353,-0.007782,0.002025,0.002508,0.014664,-0.013356,-0.520165,-0.00881,1.407786,-260.835972,-1.29227,69.801091
4.6369,-0.008837,-0.01038,-0.00688,0.002043,0.002483,0.014613,-0.012838,-0.520231,-0.007163,1.402082,-260.83128,-1.274043,69.803785
4.6569,-0.008939,-0.009859,-0.006994,0.002043,0.00249,0.014141,-0.01263,-0.520274,-0.006978,1.402082,-260.83128,-1.274043,69.803785
4.6766,-0.008894,-0.010323,-0.006893,0.002045,0.002494,0.013803,-0.01244,-0.519767,-0.006527,1.393557,-260.826653,-1.263641,69.806483
4.6963,-0.008772,-0.010097,-0.006095,0.002044,0.002503,0.01352,-0.012409,-0.520259,-0.006838,1.393557,-260.826653,-1.263641,69.806483
4.7162,-0.009288,-0.009668,-0.006044,0.002044,0.00251,0.013319,-0.012409,-0.520259,-0.006838,1.393557,-260.826653,-1.263641,69.806483
4.7366,-0.0097,-0.009939,-0.005467,0.002043,0.002515,0.013176,-0.012286,-0.519556,-0.005473,1.385702,-260.822259,-1.238989,69.808966
4.7563,-0.009341,-0.009666,-0.004432,0.002053,0.002495,0.012636,-0.012359,-0.519698,-0.005405,1.385702,-260.822259,-1.238989,69.808966
4.777,-0.00954,-0.009592,-0.005481,0.002064,0.002475,0.012257,-0.011536,-0.519582,-0.004016,1.379699,-260.817986,-1.216961,69.811308
4.7967,-0.009735,-0.009747,-0.004941,0.002075,0.002455,0.011955,-0.01225,-0.519579,-0.005306,1.379699,-260.817986,-1.216961,69.811308
4.8166,-0.009391,-0.009714,-0.004842,0.002086,0.002438,0.011743,-0.01225,-0.519579,-0.005306,1.379699,-260.817986,-1.216961,69.811308
4.8362,-0.009962,-0.009398,-0.004013,0.002097,0.002424,0.011595,-0.011776,-0.519607,-0.004342,1.366497,-260.814022,-1.180102,69.81342
4.8563,-0.009293,-0.009626,-0.00479,0.002095,0.002428,0.011071,-0.011861,-0.519509,-0.004151,1.366497,-260.814022,-1.180102,69.81342
4.8766,-0.010341,-0.009299,-0.0041,0.002096,0.002429,0.010703,-0.01167,-0.519544,-0.004427,1.353666,-260.810203,-1.147797,69.815424
4.8967,-0.010133,-0.009553,-0.002085,0.002113,0.0024,0.010432,-0.01236,-0.519313,-0.004111,1.353666,-260.810203,-1.147797,69.815424
4.9165,-0.009788,-0.009634,-0.002709,0.002129,0.002375,0.010241,-0.01236,-0.519313,-0.004111,1.353666,-260.810203,-1.147797,69.815424
4.9364,-0.010305,-0.009456,-0.003492,0.002142,0.002354,0.010108,-0.011085,-0.519535,-0.002279,1.341115,-260.806666,-1.098956,69.817195
4.9566,-0.010156,-0.0094,-0.003101,0.002125,0.002391,0.009424,-0.011485,-0.51949,-0.002726,1.341115,-260.806666,-1.098956,69.817195
4.9765,-0.010654,-0.009166,-0.003011,0.002113,0.002416,0.008941,-0.011671,-0.519324,-0.002788,1.324713,-260.80325,-1.059678,69.818897
4.9968,-0.009928,-0.009205,-0.003199,0.002128,0.002388,0.008719,-0.01214,-0.519175,-0.002975,1.324713,-260.80325,-1.059678,69.818897
5.0168,-0.010197,-0.009723,-0.003112,0.002142,0.002364,0.008562,-0.01214,-0.519175,-0.002975,1.324713,-260.80325,-1.059678,69.818897
5.0368,-0.010606,-0.009197,-0.001634,0.002155,0.002344,0.008452,-0.011709,-0.519634,-0.002789,1.308728,-260.800443,-0.984675,69.820173
5.0569,-0.010482,-0.008956,-0.002408,0.002143,0.002368,0.008048,-0.01159,-0.519446,-0.002282,1.308728,-260.800443,-0.984675,69.820173
5.0764,-0.010204,-0.009134,-0.002521,0.002135,0.002386,0.007761,-0.011646,-0.518886,-0.002158,1.291251,-260.797547,-0.918104,69.821488
5.0962,-0.010573,-0.008967,-0.002429,0.002137,0.002381,0.007651,-0.0115,-0.519106,-0.002475,1.291251,-260.797547,-0.918104,69.821488
5.1164,-0.010507,-0.00886,-0.003969,0.002139,0.002376,0.007572,-0.0115,-0.519106,-0.002475,1.291251,-260.797547,-0.918104,69.821488
5.137,-0.010813,-0.009203,-0.002642,0.002141,0.002372,0.007516,-0.012452,-0.518768,-0.003679,1.279711,-260.794894,-0.843099,69.822622
5.1568,-0.01046,-0.008814,-0.000954,0.002164,0.002325,0.007803,-0.012324,-0.518934,-0.003222,1.279711,-260.794894,-0.843099,69.822622
5.1765,-0.010688,-0.008724,-0.003306,0.002184,0.002288,0.008006,-0.01088,-0.51874,-0.00072,1.272527,-260.792054,-0.803128,69.823824
5.1972,-0.010464,-0.008636,0.000334,0.002205,0.002251,0.008084,-0.012241,-0.518719,-0.00307,1.272527,-260.792054,-0.803128,69.823824
5.2168,-0.01022,-0.008937,-0.000697,0.002223,0.002221,0.008136,-0.012241,-0.518719,-0.00307,1.272527,-260.792054,-0.803128,69.823824
5.2365,-0.010613,-0.008425,-0.001609,0.002238,0.002197,0.008169,-0.010491,-0.518849,-0.000387,1.275398,-260.789274,-0.87233,69.825082
5.2562,-0.011241,-0.008726,-0.001404,0.002217,0.002255,0.007119,-0.010869,-0.518664,-0.000854,1.275398,-260.789274,-0.87233,69.825082
5.2762,-0.011119,-0.00842,-0.001142,0.0022,0.002295,0.006359,-0.011886,-0.518657,-0.001146,1.268886,-260.786295,-0.895194,69.826498
5.2965,-0.01102,-0.009035,0.000653,0.002212,0.002272,0.005961,-0.011714,-0.518438,-0.001129,1.268886,-260.786295,-0.895194,69.826498
5.3163,-0.011155,-0.008587,0.000956,0.002225,0.002251,0.005674,-0.011714,-0.518438,-0.001129,1.268886,-260.786295,-0.895194,69.826498
5.3367,-0.011113,-0.008599,-0.000691,0.002236,0.002232,0.005468,-0.010642,-0.51856,0.00104,1.228782,-260.785509,-0.820314,69.826824
5.3567,-0.010961,-0.008394,0.001084,0.002223,0.002272,0.004593,-0.010973,-0.518573,0.000346,1.228782,-260.785509,-0.820314,69.826824
5.3768,-0.010671,-0.008375,0.000315,0.002211,0.002298,0.003949,-0.010401,-0.518386,0.001106,1.18909,-260.785228,-0.745319,69.82694
5.3965,-0.010919,-0.008393,0.000351,0.002196,0.002324,0.003452,-0.0105,-0.518376,0.000391,1.18909,-260.785228,-0.745319,69.82694
5.4165,-0.01059,-0.008646,0.00213,0.002184,0.002342,0.003086,-0.0105,-0.518376,0.000391,1.18909,-260.785228,-0.745319,69.82694
5.4365,-0.010681,-0.008364,0.000543,0.002174,0.002354,0.002817,-0.009504,-0.518645,0.00213,1.131932,-260.785228,-0.670314,69.826941
5.4563,-0.010974,-0.00844,-0.001046,0.002141,0.00241,0.002177,-0.009868,-0.518532,0.001488,1.131932,-260.785228,-0.670314,69.826941
5.4762,-0.010483,-0.009037,-0.000836,0.002113,0.002451,0.001704,-0.011508,-0.51844,-0.001046,1.080717,-260.785228,-0.595317,69.826941
5.4963,-0.011087,-0.008628,-0.000239,0.002114,0.002434,0.002484,-0.010965,-0.518981,-0.000855,1.080717,-260.785228,-0.595317,69.826941
5.5163,-0.010784,-0.008631,-0.000197,0.002113,0.002423,0.003039,-0.010965,-0.518981,-0.000855,1.080717,-260.785228,-0.595317,69.826941
5.537,-0.011046,-0.008682,-0.000147,0.002111,0.002418,0.003433,-0.010884,-0.518631,-0.000197,1.026573,-260.785227,-0.520316,69.826941
5.5567,-0.011132,-0.008507,0.000626,0.002116,0.002404,0.003352,-0.01098,-0.518651,-0.000176,1.026573,-260.785227,-0.520316,69.826941
5.5767,-0.010427,-0.009002,-0.000409,0.002121,0.002393,0.003289,-0.010813,-0.518507,0.000626,1.101583,-260.785227,-0.445306,69.826941
5.5965,-0.010757,-0.008359,2.3e-05,0.002108,0.002413,0.003317,-0.010652,-0.518958,-0.000316,1.101583,-260.785227,-0.445306,69.826941
5.6164,-0.010727,-0.008084,4.4e-05,0.002097,0.002429,0.003333,-0.010652,-0.518958,-0.000316,1.101583,-260.785227,-0.445306,69.826941
5.6366,-0.010616,-0.008576,-0.001113,0.002088,0.002442,0.003342,-0.010704,-0.518084,4.4e-05,1.121853,-260.785224,-0.370299,69.826942
5.6566,-0.010783,-0.0086,-0.000665,0.002106,0.002403,0.003423,-0.0109,-0.518285,-0.000429,1.121853,-260.785224,-0.370299,69.826942
5.6761,-0.010853,-0.008553,-0.000675,0.002121,0.002373,0.003478,-0.011122,-0.518599,-0.000664,1.13502,-260.785214,-0.29526,69.826946
5.6963,-0.010673,-0.008736,-0.001503,0.002134,0.002349,0.003656,-0.011191,-0.518557,-0.000674,1.13502,-260.785214,-0.29526,69.826946
5.7167,-0.011029,-0.008643,-0.000612,0.002145,0.00233,0.003783,-0.011191,-0.518557,-0.000674,1.13502,-260.785214,-0.29526,69.826946
5.7365,-0.010949,-0.008673,5e-06,0.002154,0.002316,0.003871,-0.011336,-0.518638,-0.000602,1.129998,-260.785093,-0.220259,69.826999
5.7562,-0.010778,-0.008462,0.000706,0.002158,0.002315,0.003766,-0.011177,-0.518652,-0.000353,1.129998,-260.785093,-0.220259,69.826999
5.7766,-0.010802,-0.008652,0.001476,0.002161,0.002313,0.003687,-0.010382,-0.518425,0.000775,1.139415,-260.783995,-0.145264,69.827458
5.7966,-0.010812,-0.008558,0.000333,0.002132,0.002379,0.002806,-0.010076,-0.51863,0.001418,1.139415,-260.783995,-0.145264,69.827458
5.8166,-0.010977,-0.00843,-0.0004,0.002107,0.002425,0.00215,-0.010076,-0.51863,0.001418,1.139415,-260.783995,-0.145264,69.827458
5.8368,-0.010617,-0.00881,-0.000865,0.002087,0.002458,0.001662,-0.011126,-0.518374,-0.0003,1.128726,-260.782757,-0.070194,69.827988
5.8565,-0.01073,-0.008404,-0.000695,0.002105,0.002412,0.002271,-0.011092,-0.518543,-0.000517,1.128726,-260.782757,-0.070194,69.827988
5.8767,-0.010731,-0.008479,-0.000231,0.00212,0.002378,0.002706,-0.011085,-0.518404,-0.000695,1.053838,-260.782756,0.004694,69.827988
5.8963,-0.01073,-0.008888,0.000314,0.002128,0.002361,0.002883,-0.01087,-0.518472,-0.000273,1.053838,-260.782756,0.004694,69.827988
5.9165,-0.010883,-0.008486,-0.00109,0.002134,0.002348,0.003008,-0.01087,-0.518472,-0.000273,1.053838,-260.782756,0.004694,69.827988
5.9372,-0.011161,-0.008435,0.000429,0.00214,0.002338,0.003096,-0.011423,-0.51847,-0.001067,1.086713,-260.782436,0.079695,69.828146
5.9564,-0.011426,-0.008552,0.000231,0.002153,0.002313,0.003259,-0.011225,-0.518454,-0.000454,1.086713,-260.782436,0.079695,69.828146
5.9761,-0.010999,-0.008412,0.000864,0.002165,0.002294,0.003376,-0.011255,-0.518496,0.00031,1.102446,-260.780975,0.15469,69.82882
5.9964,-0.010894,-0.008171,0.001286,0.002156,0.002319,0.002811,-0.010619,-0.518417,0.000818,1.102446,-260.780975,0.15469,69.82882
6.0166,-0.01058,-0.008521,0.000538,0.002149,0.002335,0.002395,-0.010619,-0.518417,0.000818,1.102446,-260.780975,0.15469,69.82882
6.0369,-0.010547,-0.00814,0.00075,0.002144,0.002346,0.002088,-0.010218,-0.518428,0.000675,1.10956,-260.779098,0.106946,69.82966
6.0566,-0.011014,-0.008292,-0.000873,0.002132,0.002363,0.001898,-0.010186,-0.5183,0.000721,1.10956,-260.779098,0.106946,69.82966
6.0766,-0.010789,-0.008132,0.001394,0.002123,0.002376,0.001759,-0.011451,-0.518284,-0.000863,1.036305,-260.778903,0.182051,69.82977
6.0966,-0.011272,-0.007969,-0.000165,0.002119,0.002381,0.001449,-0.010195,-0.518145,0.001201,1.036305,-260.778903,0.182051,69.82977
6.1166,-0.010482,-0.008008,-0.000521,0.002115,0.002384,0.001221,-0.010195,-0.518145,0.001201,1.036305,-260.778903,0.182051,69.82977
6.1363,-0.01089,-0.008276,0.001056,0.002113,0.002385,0.001054,-0.010737,-0.517998,-0.00051,1.019236,-260.778727,0.257078,69.829878
6.1564,-0.010947,-0.007879,-8e-06,0.002128,0.002353,0.001457,-0.010577,-0.518111,0.000135,1.019236,-260.778727,0.257078,69.829878
6.1773,-0.010821,-0.00792,-0.001044,0.002139,0.002329,0.001746,-0.010948,-0.517876,-6e-06,0.961563,-260.778663,0.332066,69.829926
6.1967,-0.010891,-0.007895,7.8e-05,0.002172,0.002259,0.002545,-0.011317,-0.517915,-0.000951,0.961563,-260.778663,0.332066,69.829926
6.2164,-0.011006,-0.008463,-0.00122,0.002199,0.002206,0.003124,-0.011317,-0.517915,-0.000951,0.961563,-260.778663,0.332066,69.829926
6.2367,-0.01083,-0.008255,0.000605,0.002222,0.002166,0.003542,-0.011582,-0.518416,-0.001179,1.00862,-260.777856,0.407037,69.830426
6.2568,-0.010966,-0.00794,-0.000152,0.002224,0.002174,0.00356,-0.011137,-0.518344,-0.000435,1.00862,-260.777856,0.407037,69.830426
6.2765,-0.011039,-0.008327,0.000639,0.002226,0.002181,0.003573,-0.01104,-0.517935,-0.000146,1.083689,-260.777742,0.331969,69.830478
6.2966,-0.011068,-0.007894,0.000793,0.002215,0.002214,0.003066,-0.01074,-0.518293,0.000574,1.083689,-260.777742,0.331969,69.830478
6.3168,-0.010357,-0.00837,0.000604,0.002206,0.002237,0.002692,-0.01074,-0.518293,0.000574,1.083689,-260.777742,0.331969,69.830478
6.3368,-0.010663,-0.008063,0.001431,0.0022,0.002253,0.002417,-0.010034,-0.518353,0.000625,1.099108,-260.77742,0.256963,69.830624
6.357,-0.010785,-0.008011,0.002009,0.002176,0.002297,0.002041,-0.009991,-0.518233,0.000957,1.099108,-260.77742,0.256963,69.830624
6.3764,-0.011138,-0.007937,0.00131,0.002157,0.00233,0.001764,-0.009702,-0.51795,0.002075,1.037917,-260.775955,0.331799,69.831413
6.3964,-0.010737,-0.007763,-0.000138,0.002159,0.002325,0.001386,-0.010402,-0.517935,0.001378,1.037917,-260.775955,0.331799,69.831413
6.4164,-0.010854,-0.008067,-0.00071,0.002161,0.002318,0.001107,-0.010402,-0.517935,0.001378,1.037917,-260.775955,0.331799,69.831413
6.4366,-0.010494,-0.007884,0.000169,0.002164,0.00231,0.000901,-0.011166,-0.518018,-0.000666,1.006554,-260.775093,0.406943,69.831946
6.4569,-0.010607,-0.007762,-0.001319,0.002183,0.002267,0.001603,-0.010853,-0.517958,-0.000322,1.006554,-260.775093,0.406943,69.831946
6.4767,-0.010602,-0.008208,0.00209,0.002199,0.002236,0.002106,-0.01126,-0.517744,-0.001308,0.931706,-260.774719,0.481791,69.832237
6.4968,-0.010648,-0.007999,-0.000164,0.002167,0.0023,0.001483,-0.009684,-0.518166,0.001798,0.931706,-260.774719,0.481791,69.832237
6.5168,-0.010734,-0.008259,-8.8e-05,0.002141,0.002347,0.00102,-0.009684,-0.518166,0.001798,0.931706,-260.774719,0.481791,69.832237
6.5364,-0.010698,-0.007707,0.002612,0.00212,0.002382,0.000676,-0.010702,-0.518182,-1.6e-05,1.006833,-260.773352,0.407602,69.833026
6.5565,-0.010509,-0.007987,-0.000522,0.002123,0.002369,0.000727,-0.010149,-0.517979,0.001062,1.006833,-260.773352,0.407602,69.833026
6.5765,-0.010673,-0.007733,0.002175,0.002126,0.002359,0.000761,-0.010765,-0.517978,-0.000517,0.931947,-260.773165,0.482488,69.83318
6.5964,-0.010435,-0.007722,0.00101,0.00212,0.002367,0.000439,-0.009676,-0.517755,0.001922,0.931947,-260.773165,0.482488,69.83318
6.6164,-0.01058,-0.008065,0.000963,0.002115,0.002372,0.000201,-0.009676,-0.517755,0.001922,0.931947,-260.773165,0.482488,69.83318
6.6363,-0.010753,-0.007897,0.001369,0.002112,0.002374,2.6e-05,-0.010053,-0.518031,0.00098,0.925398,-260.77263,0.557486,69.833611
6.6563,-0.010468,-0.007683,-0.001282,0.002116,0.002364,0.000215,-0.010049,-0.517972,0.001142,0.925398,-260.77263,0.557486,69.833611
6.6762,-0.010368,-0.007333,0.001804,0.002119,0.002357,0.000349,-0.011103,-0.517666,-0.001278,0.850283,-260.772315,0.632601,69.833924
6.6962,-0.010341,-0.007476,0.000556,0.002126,0.002338,0.000285,-0.009596,-0.517362,0.001526,0.850283,-260.772315,0.632601,69.833924
6.7168,-0.010729,-0.007223,0.000939,0.002132,0.002322,0.000236,-0.009596,-0.517362,0.001526,0.850283,-260.772315,0.632601,69.833924
6.7367,-0.01039,-0.007577,-0.000999,0.002138,0.002309,0.0002,-0.01019,-0.517161,0.000953,0.881404,-260.77144,0.707473,69.834716
6.7565,-0.01053,-0.007837,0.000793,0.002171,0.002242,0.000848,-0.010471,-0.517323,0.00016,0.881404,-260.77144,0.707473,69.834716
6.7761,-0.01042,-0.007415,0.000596,0.002199,0.00219,0.001311,-0.010067,-0.517773,0.000799,0.849416,-260.770316,0.782481,69.835778
6.7963,-0.01039,-0.007629,-0.000667,0.002207,0.002179,0.001399,-0.010109,-0.517442,0.000613,0.849416,-260.770316,0.782481,69.835778
6.8164,-0.010657,-0.007687,0.000194,0.002214,0.00217,0.00146,-0.010109,-0.517442,0.000613,0.849416,-260.770316,0.782481,69.835778
6.8362,-0.010378,-0.007451,0.00056,0.002219,0.002163,0.001503,-0.010522,-0.517647,0.000212,0.924585,-260.76971,0.707312,69.836202
6.8562,-0.010534,-0.007295,0.000198,0.002228,0.002152,0.001665,-0.010341,-0.517562,0.000358,0.924585,-260.76971,0.707312,69.836202
6.8766,-0.010473,-0.007521,0.00012,0.002234,0.002145,0.00178,-0.010396,-0.517256,0.00022,0.946604,-260.768896,0.632355,69.836748
6.8964,-0.010272,-0.007635,0.00258,0.002245,0.002129,0.001986,-0.010409,-0.517496,0.000129,0.946604,-260.768896,0.632355,69.836748
6.9166,-0.010532,-0.007756,0.000597,0.002253,0.002118,0.002134,-0.010409,-0.517496,0.000129,0.946604,-260.768896,0.632355,69.836748
6.9365,-0.010255,-0.006852,0.001425,0.00226,0.00211,0.00224,-0.010177,-0.517703,0.000634,0.965927,-260.768027,0.557173,69.837294
6.9565,-0.010207,-0.007606,0.000823,0.002253,0.002128,0.001905,-0.009906,-0.517348,0.000962,0.965927,-260.768027,0.557173,69.837294
6.9767,-0.010239,-0.007272,0.001554,0.002249,0.00214,0.001659,-0.00976,-0.517577,0.000847,0.994611,-260.76738,0.482376,69.837665
6.9965,-0.01012,-0.007201,0.000281,0.002234,0.00217,0.001255,-0.009472,-0.517296,0.001494,0.994611,-260.76738,0.482376,69.837665
7.0169,-0.010561,-0.007261,0.000201,0.002223,0.002192,0.000958,-0.009472,-0.517296,0.001494,0.994611,-260.76738,0.482376,69.837665
7.0365,-0.010013,-0.007222,0.000359,0.002213,0.002208,0.000739,-0.010368,-0.517174,0.000267,0.951279,-260.765889,0.464314,69.838634
7.0566,-0.010561,-0.007032,0.001049,0.002233,0.002167,0.001145,-0.010139,-0.517184,0.000312,0.951279,-260.765889,0.464314,69.838634
7.0766,-0.010422,-0.007125,0.001786,0.002248,0.002137,0.001434,-0.009992,-0.517001,0.001063,0.876582,-260.765252,0.539145,69.839154
7.0967,-0.010478,-0.007101,-0.00036,0.002242,0.002152,0.001007,-0.009553,-0.517112,0.001721,0.876582,-260.765252,0.539145,69.839154
7.1164,-0.010294,-0.007115,5.3e-05,0.002237,0.002161,0.000692,-0.009553,-0.517112,0.001721,0.876582,-260.765252,0.539145,69.839154
7.1366,-0.010286,-0.007022,0.001759,0.002234,0.002167,0.00046,-0.010178,-0.517031,0.00011,0.929731,-260.763833,0.51106,69.840127
7.1567,-0.010053,-0.007117,0.000981,0.002247,0.002139,0.0007,-0.009849,-0.517017,0.000783,0.929731,-260.763833,0.51106,69.840127
7.1761,-0.009707,-0.007341,0.001565,0.002257,0.002118,0.000872,-0.009518,-0.517086,0.000992,0.854719,-260.763199,0.586073,69.840686
7.1962,-0.010088,-0.007125,0.002885,0.002227,0.002173,0.000662,-0.008963,-0.517315,0.001514,0.854719,-260.763199,0.586073,69.840686
7.2162,-0.010194,-0.006976,0.001814,0.002202,0.002217,0.000508,-0.008963,-0.517315,0.001514,0.854719,-260.763199,0.586073,69.840686
7.2362,-0.010101,-0.006769,0.001282,0.002181,0.002252,0.000396,-0.009176,-0.516888,0.00185,0.865217,-260.761824,0.612219,69.841776
7.2563,-0.010045,-0.006596,0.00228,0.002189,0.00223,0.00028,-0.009276,-0.516829,0.001621,0.865217,-260.761824,0.612219,69.841776
7.2766,-0.010058,-0.00684,-0.001299,0.002196,0.002211,0.000195,-0.008829,-0.516542,0.002292,0.852221,-260.760827,0.687234,69.842668
7.2967,-0.010051,-0.00672,0.001542,0.002237,0.002115,0.001446,-0.010549,-0.51681,-0.000977,0.852221,-260.760827,0.687234,69.842668
7.3166,-0.009773,-0.006847,0.001343,0.002273,0.002039,0.002354,-0.010549,-0.51681,-0.000977,0.852221,-260.760827,0.687234,69.842668
7.3364,-0.009915,-0.006547,-4.1e-05,0.002302,0.001982,0.00301,-0.009006,-0.516764,0.001351,0.815068,-260.759678,0.761305,69.843756
7.3568,-0.009817,-0.006492,0.000511,0.002299,0.002003,0.002565,-0.00938,-0.516665,0.000777,0.815068,-260.759678,0.761305,69.843756
7.3765,-0.009677,-0.006667,0.000976,0.002297,0.002016,0.002236,-0.009556,-0.516492,0.000511,0.890155,-260.759678,0.686218,69.843757
7.3965,-0.009541,-0.006647,-0.0002,0.002291,0.002034,0.001921,-0.009214,-0.516651,0.000934,0.890155,-260.759678,0.686218,69.843757
7.4165,-0.009831,-0.006688,-0.000253,0.002287,0.002046,0.001688,-0.009214,-0.516651,0.000934,0.890155,-260.759678,0.686218,69.843757
7.4366,-0.009637,-0.006577,0.001475,0.002284,0.002055,0.001516,-0.009955,-0.516682,-0.000249,0.965072,-260.759587,0.6113,69.84381
7.4569,-0.009956,-0.006598,0.001981,0.002293,0.002039,0.001626,-0.009518,-0.516638,0.000454,0.965072,-260.759587,0.6113,69.84381
7.4762,-0.009344,-0.006375,0.00035,0.0023,0.002027,0.001704,-0.008898,-0.516552,0.00201,0.917078,-260.758589,0.536306,69.844487
7.4966,-0.009988,-0.00683,0.002949,0.002304,0.002017,0.001734,-0.009138,-0.516388,0.000502,0.917078,-260.758589,0.536306,69.844487
7.5166,-0.009699,-0.006621,0.000664,0.002308,0.00201,0.001756,-0.009138,-0.516388,0.000502,0.917078,-260.758589,0.536306,69.844487
7.5369,-0.009612,-0.006764,0.003134,0.00231,0.002004,0.00177,-0.009288,-0.516555,0.000715,0.927426,-260.757427,0.461304,69.845245
7.5565,-0.009845,-0.006462,0.001907,0.002289,0.002051,0.001257,-0.008762,-0.516631,0.001703,0.927426,-260.757427,0.461304,69.845245
7.5764,-0.009779,-0.006742,-0.000623,0.002272,0.002085,0.000878,-0.008807,-0.516403,0.001957,0.927977,-260.756035,0.386295,69.846143
7.5973,-0.009382,-0.006554,0.000472,0.002296,0.002035,0.001642,-0.00999,-0.516712,-0.000413,0.927977,-260.756035,0.386295,69.846143
7.6167,-0.009792,-0.006069,0.002953,0.002314,0.001998,0.002191,-0.00999,-0.516712,-0.000413,0.927977,-260.756035,0.386295,69.846143
7.6362,-0.009548,-0.006355,0.002094,0.002329,0.001971,0.002586,-0.008242,-0.516031,0.002974,0.856724,-260.755416,0.461584,69.846634
7.6565,-0.009388,-0.006363,0.001517,0.002314,0.002026,0.001611,-0.008336,-0.516162,0.00261,0.856724,-260.755416,0.461584,69.846634
7.6761,-0.009379,-0.006283,0.000735,0.0023,0.002063,0.000874,-0.008601,-0.51635,0.001529,0.931778,-260.755107,0.386529,69.846806
7.6961,-0.009531,-0.006404,0.002951,0.002306,0.002045,0.001,-0.008966,-0.516288,0.000808,0.931778,-260.755107,0.386529,69.846806
7.7163,-0.009617,-0.006324,0.002042,0.00231,0.002032,0.001086,-0.008966,-0.516288,0.000808,0.931778,-260.755107,0.386529,69.846806
7.7363,-0.009339,-0.006514,0.001702,0.002312,0.002022,0.001144,-0.00853,-0.516285,0.002064,0.857137,-260.75446,0.461171,69.847321
7.7563,-0.009483,-0.006517,0.002061,0.002293,0.002057,0.000722,-0.0085,-0.516373,0.00192,0.857137,-260.75446,0.461171,69.847321
7.7764,-0.009346,-0.006588,0.000973,0.002278,0.002083,0.000411,-0.008363,-0.516455,0.002095,0.866318,-260.75311,0.519637,69.848329
7.7962,-0.009246,-0.006339,0.002177,0.00227,0.002093,0.000521,-0.008801,-0.516572,0.001078,0.866318,-260.75311,0.519637,69.848329
7.8162,-0.009161,-0.006618,0.00147,0.002264,0.002102,0.000598,-0.008801,-0.516572,0.001078,0.866318,-260.75311,0.519637,69.848329
7.8366,-0.009104,-0.006366,0.00173,0.002257,0.00211,0.000652,-0.00835,-0.516566,0.001485,0.797552,-260.752299,0.594635,69.849055
7.8566,-0.009463,-0.006268,0.00256,0.002236,0.002141,0.000475,-0.008291,-0.516478,0.001587,0.797552,-260.752299,0.594635,69.849055
7.8768,-0.009125,-0.006077,0.000461,0.002219,0.002165,0.000344,-0.008091,-0.516203,0.002579,0.837993,-260.751044,0.648644,69.850109
7.897,-0.00904,-0.006086,0.001384,0.002241,0.002113,0.000683,-0.008814,-0.516085,0.000654,0.837993,-260.751044,0.648644,69.850109
7.9166,-0.009305,-0.00626,-0.000249,0.002257,0.002073,0.000924,-0.008814,-0.516085,0.000654,0.837993,-260.751044,0.648644,69.850109
7.9366,-0.009422,-0.006196,0.002622,0.002271,0.002042,0.001097,-0.009347,-0.516177,-0.000236,0.819414,-260.749859,0.722187,69.851187
7.9567,-0.009213,-0.006076,0.00172,0.002277,0.00203,0.001083,-0.008822,-0.516175,0.000934,0.819414,-260.749859,0.722187,69.851187
7.9763,-0.009231,-0.005973,0.003012,0.002282,0.00202,0.001071,-0.008296,-0.516036,0.001737,0.873813,-260.74905,0.647188,69.851794
7.9966,-0.00888,-0.005685,0.002981,0.00226,0.002075,0.000376,-0.007747,-0.515975,0.002898,0.873813,-260.74905,0.647188,69.851794
8.0169,-0.009108,-0.005681,0.002209,0.002242,0.002115,-0.000145,-0.007747,-0.515975,0.002898,0.873813,-260.74905,0.647188,69.851794
8.0367,-0.009175,-0.005715,0.002056,0.002227,0.002143,-0.000532,-0.007903,-0.515608,0.002245,0.86442,-260.747885,0.57219,69.852675
8.0566,-0.008811,-0.005898,-0.000761,0.002235,0.002111,-0.000589,-0.007985,-0.515643,0.002172,0.86442,-260.747885,0.57219,69.852675
8.0767,-0.009015,-0.006169,0.001788,0.002242,0.002085,-0.000633,-0.009184,-0.515886,-0.000761,0.789414,-260.747665,0.647196,69.852929
8.0966,-0.009099,-0.006221,0.001619,0.002239,0.002091,-0.000441,-0.0082,-0.516143,0.00156,0.789414,-260.747665,0.647196,69.852929
8.1167,-0.009093,-0.005701,0.002246,0.002235,0.002097,-0.000305,-0.0082,-0.516143,0.00156,0.789414,-260.747665,0.647196,69.852929
8.1366,-0.008997,-0.00576,0.001274,0.00223,0.002103,-0.000208,-0.007908,-0.515664,0.00224,0.714424,-260.747199,0.722186,69.853483
8.1568,-0.008675,-0.006028,0.000771,0.002238,0.002078,-0.000243,-0.008083,-0.515699,0.001845,0.714424,-260.747199,0.722186,69.853483
8.1765,-0.00872,-0.005732,0.001766,0.002244,0.002058,-0.00027,-0.008216,-0.515965,0.000764,0.725061,-260.746084,0.785322,69.854662
8.1965,-0.008503,-0.005984,0.0005,0.002241,0.002057,-0.000228,-0.007852,-0.51575,0.001674,0.725061,-260.746084,0.785322,69.854662
8.2164,-0.008748,-0.006113,0.001931,0.002238,0.002057,-0.000198,-0.007852,-0.51575,0.001674,0.725061,-260.746084,0.785322,69.854662
8.2365,-0.009058,-0.005735,0.001076,0.002236,0.002057,-0.000177,-0.007671,-0.516027,0.001919,0.700555,-260.744922,0.780516,69.855913
8.2567,-0.008439,-0.005608,0.002588,0.002233,0.002061,-0.000124,-0.008001,-0.515898,0.001575,0.700555,-260.744922,0.780516,69.855913
8.2768,-0.008437,-0.005357,0.001841,0.00223,0.002065,-8.6e-05,-0.007048,-0.515541,0.002582,0.717009,-260.743743,0.769492,69.857151
8.2966,-0.008685,-0.005709,0.001256,0.002229,0.002052,-0.000181,-0.007454,-0.515369,0.001908,0.717009,-260.743743,0.769492,69.857151
8.3166,-0.008385,-0.005626,0.000998,0.002227,0.002042,-0.000251,-0.007454,-0.515369,0.001908,0.717009,-260.743743,0.769492,69.857151
8.3367,-0.008552,-0.005131,0.000948,0.002227,0.002033,-0.000303,-0.007784,-0.51554,0.000994,0.734108,-260.742549,0.759428,69.858373
8.3565,-0.008762,-0.005992,0.002244,0.002247,0.00199,6.2e-05,-0.007889,-0.515363,0.000975,0.734108,-260.742549,0.759428,69.858373
8.3766,-0.008247,-0.00543,0.000211,0.002262,0.001957,0.000322,-0.007549,-0.515927,0.002234,0.692804,-260.741432,0.783423,69.859585
8.3963,-0.008363,-0.005564,0.001231,0.002279,0.001927,0.000805,-0.008083,-0.515471,0.000393,0.692804,-260.741432,0.783423,69.859585
8.4168,-0.008401,-0.005144,0.002158,0.002292,0.001904,0.001151,-0.008083,-0.515471,0.000393,0.692804,-260.741432,0.783423,69.859585
8.4369,-0.008494,-0.005632,0.000506,0.002302,0.001887,0.001397,-0.007233,-0.515081,0.002166,0.760877,-260.740519,0.708361,69.860424
8.4569,-0.008217,-0.005269,0.002007,0.002296,0.001898,0.001064,-0.007626,-0.515294,0.001503,0.760877,-260.740519,0.708361,69.860424
8.4765,-0.008264,-0.005126,0.003687,0.002292,0.001904,0.000819,-0.007178,-0.515253,0.002014,0.835836,-260.740208,0.633402,69.860643
8.4965,-0.008749,-0.004979,0.001687,0.002251,0.001987,4.1e-05,-0.006454,-0.515134,0.003536,0.835836,-260.740208,0.633402,69.860643
8.5171,-0.008424,-0.005284,0.003276,0.002217,0.002049,-0.000546,-0.006454,-0.515134,0.003536,0.835836,-260.740208,0.633402,69.860643
8.5364,-0.008225,-0.005038,0.002001,0.002189,0.002094,-0.000987,-0.006669,-0.51521,0.003305,0.809382,-260.739034,0.558401,69.861593
8.5562,-0.008223,-0.005217,0.002549,0.002184,0.002089,-0.001112,-0.006877,-0.515132,0.002779,0.809382,-260.739034,0.558401,69.861593
8.5773,-0.008125,-0.005427,0.00157,0.002179,0.002084,-0.001205,-0.006916,-0.51521,0.002548,0.734379,-260.738947,0.633404,69.861707
8.5964,-0.007967,-0.005299,0.00256,0.002184,0.002072,-0.000881,-0.007287,-0.515406,0.00166,0.734379,-260.738947,0.633404,69.861707
8.6164,-0.008237,-0.004755,0.000631,0.002187,0.002064,-0.000653,-0.007287,-0.515406,0.00166,0.734379,-260.738947,0.633404,69.861707
8.6364,-0.008,-0.005254,0.000624,0.002187,0.002059,-0.000492,-0.007899,-0.514742,0.000627,0.659373,-260.738776,0.70841,69.861945
8.6564,-0.00813,-0.00501,0.000724,0.002228,0.001969,0.000123,-0.007807,-0.514952,0.000625,0.659373,-260.738776,0.70841,69.861945
8.6764,-0.007944,-0.005258,-0.000691,0.002261,0.001899,0.000558,-0.007704,-0.514958,0.000713,0.677332,-260.737869,0.783527,69.862984
8.6963,-0.008237,-0.005085,0.003657,0.002292,0.001841,0.001515,-0.008247,-0.515232,-0.000582,0.677332,-260.737869,0.783527,69.862984
8.7168,-0.008018,-0.005237,0.002369,0.002317,0.001797,0.002203,-0.008247,-0.515232,-0.000582,0.677332,-260.737869,0.783527,69.862984
8.7363,-0.008167,-0.004561,0.000632,0.002337,0.001766,0.002697,-0.006764,-0.515195,0.002376,0.752549,-260.737235,0.70831,69.863531
8.7566,-0.008255,-0.004717,0.001251,0.002323,0.001799,0.00198,-0.007197,-0.514932,0.001668,0.752549,-260.737235,0.70831,69.863531
8.7766,-0.008033,-0.005089,0.001728,0.002313,0.001821,0.001446,-0.007617,-0.514717,0.001251,0.827319,-260.737234,0.633541,69.863532
8.7963,-0.00798,-0.004958,0.00087,0.002298,0.00185,0.001035,-0.007183,-0.515063,0.001696,0.827319,-260.737234,0.633541,69.863532
8.8163,-0.007587,-0.004704,2.7e-05,0.002287,0.001871,0.000731,-0.007183,-0.515063,0.001696,0.827319,-260.737234,0.633541,69.863532
8.8364,-0.008191,-0.004944,0.002308,0.002278,0.001885,0.000505,-0.00754,-0.514674,4.4e-05,0.863213,-260.736724,0.557968,69.863889
8.8568,-0.007873,-0.005,0.002422,0.00229,0.001855,0.000651,-0.007321,-0.51478,0.000972,0.863213,-260.736724,0.557968,69.863889
8.8765,-0.008325,-0.00479,0.001977,0.002299,0.001832,0.000753,-0.006579,-0.514948,0.002436,0.788818,-260.735675,0.605376,69.864809
8.8967,-0.008297,-0.004863,0.001163,0.002298,0.001831,0.000404,-0.007248,-0.514801,0.002019,0.788818,-260.735675,0.605376,69.864809
8.9169,-0.008443,-0.004778,-0.000529,0.002298,0.001829,0.000147,-0.007248,-0.514801,0.002019,0.788818,-260.735675,0.605376,69.864809
8.9362,-0.007914,-0.004716,0.001399,0.002299,0.001825,-4.3e-05,-0.008623,-0.514706,-0.0005,0.783835,-260.734464,0.538173,69.865808
8.9562,-0.007831,-0.00447,0.001218,0.002336,0.00175,0.000613,-0.008022,-0.514702,0.000292,0.783835,-260.734464,0.538173,69.865808
8.9765,-0.007823,-0.004616,0.001643,0.002366,0.001693,0.001081,-0.007168,-0.514436,0.001221,0.708573,-260.733784,0.613436,69.866495
8.9964,-0.00806,-0.004833,0.000593,0.002353,0.001712,0.000795,-0.006997,-0.514601,0.001612,0.708573,-260.733784,0.613436,69.866495
9.0167,-0.007705,-0.005029,0.002615,0.002344,0.001726,0.000583,-0.006997,-0.514601,0.001612,0.708573,-260.733784,0.613436,69.866495
9.0363,-0.007822,-0.004667,0.000928,0.002336,0.001735,0.000427,-0.006326,-0.514991,0.002632,0.782576,-260.733151,0.538167,69.866984
9.0565,-0.007642,-0.00482,0.001853,0.002308,0.001789,0.000187,-0.006746,-0.514852,0.001926,0.782576,-260.733151,0.538167,69.866984
9.0761,-0.007678,-0.004654,0.003066,0.002285,0.00183,1e-05,-0.006629,-0.51477,0.001866,0.707762,-260.73204,0.563018,69.867984
9.0965,-0.007359,-0.004582,0.002362,0.002248,0.001886,-0.00044,-0.006151,-0.514659,0.002975,0.707762,-260.73204,0.563018,69.867984
9.1163,-0.007842,-0.004815,0.004027,0.002218,0.001927,-0.000774,-0.006151,-0.514659,0.002975,0.707762,-260.73204,0.563018,69.867984
9.1365,-0.007495,-0.004445,0.000109,0.002192,0.001957,-0.00102,-0.00571,-0.51475,0.004029,0.676988,-260.731096,0.638094,69.868925
9.1566,-0.007346,-0.004739,0.002072,0.002186,0.00195,-0.001038,-0.006401,-0.514619,0.002442,0.676988,-260.731096,0.638094,69.868925
9.1763,-0.007729,-0.004476,0.000514,0.00218,0.001944,-0.001052,-0.006265,-0.514719,0.002065,0.602403,-260.730756,0.712678,69.869373
9.1965,-0.007441,-0.004527,0.002083,0.002227,0.001849,-0.00027,-0.007376,-0.514494,0.00063,0.602403,-260.730756,0.712678,69.869373
9.217,-0.007369,-0.004653,0.001297,0.002264,0.001776,0.000282,-0.007376,-0.514494,0.00063,0.602403,-260.730756,0.712678,69.869373
9.2367,-0.007207,-0.004329,0.001085,0.002294,0.00172,0.000672,-0.006648,-0.514604,0.001274,0.538238,-260.730122,0.788265,69.870217
9.2562,-0.007139,-0.00501,0.000786,0.002286,0.001729,0.000671,-0.006643,-0.514486,0.001194,0.538238,-260.730122,0.788265,69.870217
9.2767,-0.00763,-0.004633,0.000296,0.00228,0.001737,0.000667,-0.006727,-0.515001,0.000786,0.612783,-260.729934,0.71372,69.870377
9.2968,-0.0074,-0.004071,0.000413,0.002302,0.001706,0.001087,-0.00741,-0.514665,0.000341,0.612783,-260.729934,0.71372,69.870377
9.3166,-0.007667,-0.004384,0.003236,0.00232,0.001684,0.001385,-0.00741,-0.514665,0.000341,0.612783,-260.729934,0.71372,69.870377
9.3367,-0.007364,-0.004254,0.002903,0.002334,0.001668,0.001598,-0.005977,-0.514351,0.003242,0.687656,-260.729414,0.638847,69.870815
9.357,-0.007016,-0.004154,0.00163,0.002294,0.00174,0.00074,-0.005934,-0.514307,0.003104,0.687656,-260.729414,0.638847,69.870815
9.3767,-0.007306,-0.004176,0.002937,0.002261,0.001791,9.3e-05,-0.006179,-0.514148,0.001632,0.76264,-260.729289,0.563863,69.870901
9.3965,-0.007002,-0.004012,0.001852,0.00223,0.001819,-0.000315,-0.005843,-0.514171,0.002813,0.76264,-260.729289,0.563863,69.870901
9.4167,-0.007461,-0.004158,0.002298,0.002205,0.001838,-0.00062,-0.005843,-0.514171,0.002813,0.76264,-260.729289,0.563863,69.870901
9.4365,-0.007078,-0.004227,0.001812,0.002184,0.001851,-0.000847,-0.006213,-0.514097,0.002302,0.687633,-260.728358,0.63887,69.87181
9.457,-0.007403,-0.004336,0.000681,0.002187,0.001824,-0.000783,-0.006181,-0.514143,0.002104,0.687633,-260.728358,0.63887,69.87181
9.4761,-0.007322,-0.004227,0.000913,0.00219,0.001804,-0.000741,-0.007025,-0.514312,0.000674,0.612624,-260.727931,0.713878,69.872347
9.4964,-0.007358,-0.00459,0.002248,0.002224,0.001744,-0.000188,-0.00687,-0.514233,0.000891,0.612624,-260.727931,0.713878,69.872347
9.5164,-0.007138,-0.004276,0.000649,0.00225,0.001699,0.000203,-0.00687,-0.514233,0.000891,0.612624,-260.727931,0.713878,69.872347
9.5366,-0.006835,-0.004377,0.002086,0.002271,0.001665,0.000478,-0.00673,-0.514213,0.000624,0.552966,-260.727068,0.788866,69.873401
9.5567,-0.007268,-0.004055,0.000259,0.002261,0.001685,0.000517,-0.006331,-0.514272,0.001216,0.552966,-260.727068,0.788866,69.873401
9.5764,-0.007557,-0.00405,0.001924,0.002251,0.0017,0.000543,-0.007117,-0.51404,0.000259,0.627997,-260.726765,0.713835,69.873669
9.5965,-0.006959,-0.0043,0.00086,0.002263,0.001669,0.000344,-0.006624,-0.514048,0.001774,0.627997,-260.726765,0.713835,69.873669
9.6165,-0.007128,-0.003999,0.001917,0.002274,0.001643,0.000197,-0.006624,-0.514048,0.001774,0.627997,-260.726765,0.713835,69.873669
9.6363,-0.00718,-0.00417,0.001727,0.002284,0.001622,8.8e-05,-0.006101,-0.513959,0.001924,0.702969,-260.72612,0.638863,69.874229
9.6566,-0.006559,-0.004008,0.002556,0.002272,0.001633,-2.2e-05,-0.006176,-0.51404,0.001845,0.702969,-260.72612,0.638863,69.874229
9.6767,-0.006979,-0.004024,0.001871,0.002263,0.001642,-0.000104,-0.00519,-0.513959,0.002558,0.63303,-260.725089,0.601658,69.875238
9.6966,-0.006642,-0.004065,0.00187,0.002244,0.001661,-0.000193,-0.00596,-0.514017,0.001922,0.63303,-260.725089,0.601658,69.875238
9.7164,-0.007122,-0.004293,0.00214,0.002229,0.001675,-0.000259,-0.00596,-0.514017,0.001922,0.63303,-260.725089,0.601658,69.875238
9.7364,-0.006508,-0.003781,0.000975,0.002216,0.001685,-0.000306,-0.005941,-0.514226,0.002136,0.609043,-260.724036,0.645772,69.876319
9.7566,-0.006901,-0.003973,0.001118,0.002206,0.001695,-0.000244,-0.005959,-0.514037,0.001663,0.609043,-260.724036,0.645772,69.876319
9.7764,-0.006902,-0.004091,0.003495,0.002196,0.001702,-0.000198,-0.006264,-0.513921,0.001109,0.594453,-260.723021,0.701501,69.87742
9.7963,-0.00687,-0.004355,0.002241,0.002141,0.001778,-0.000672,-0.00522,-0.51407,0.003279,0.594453,-260.723021,0.701501,69.87742
9.8163,-0.00647,-0.004013,0.000388,0.002096,0.001833,-0.001023,-0.00522,-0.51407,0.003279,0.594453,-260.723021,0.701501,69.87742
9.8365,-0.006439,-0.003705,0.000726,0.002058,0.001873,-0.001281,-0.006182,-0.513943,0.00038,0.623908,-260.721955,0.692785,69.878545
9.8569,-0.007109,-0.003738,0.0014,0.0021,0.001779,-0.000362,-0.006125,-0.513838,0.000519,0.623908,-260.721955,0.692785,69.878545
9.8767,-0.006715,-0.003317,0.002328,0.002133,0.001708,0.000286,-0.006371,-0.513718,0.00139,0.548868,-260.721634,0.767824,69.879008
9.8969,-0.006844,-0.003828,0.000729,0.00214,0.00163,1.6e-05,-0.005588,-0.513344,0.002258,0.548868,-260.721634,0.767824,69.879008
9.9172,-0.006524,-0.00379,0.003145,0.002147,0.001568,-0.000188,-0.005588,-0.513344,0.002258,0.548868,-260.721634,0.767824,69.879008
9.9368,-0.006472,-0.003633,0.003093,0.002154,0.001519,-0.000342,-0.004881,-0.513757,0.003145,0.62433,-260.721136,0.692363,69.879468
9.9566,-0.006298,-0.003854,0.001152,0.002094,0.0016,-0.000728,-0.004882,-0.5137,0.003123,0.62433,-260.721136,0.692363,69.879468
9.9761,-0.006841,-0.003912,0.001626,0.002044,0.00166,-0.001013,-0.005648,-0.51381,0.001143,0.549445,-260.720228,0.676107,69.880462
9.9967,-0.006561,-0.003389,0.001249,0.002073,0.001638,-0.0007,-0.005978,-0.5139,0.001583,0.549445,-260.720228,0.676107,69.880462
10.0166,-0.006468,-0.003944,0.002728,0.002094,0.001623,-0.000479,-0.005978,-0.5139,0.001583,0.549445,-260.720228,0.676107,69.880462
10.0366,-0.006097,-0.003456,0.001995,0.002112,0.001613,-0.000324,-0.005024,-0.513903,0.002707,0.474701,-260.719687,0.750851,69.881184
10.0562,-0.00629,-0.003775,0.002218,0.00207,0.001656,-0.000516,-0.00504,-0.513717,0.002415,0.474701,-260.719687,0.750851,69.881184
10.0764,-0.006342,-0.003301,0.001264,0.002036,0.001687,-0.000657,-0.005105,-0.513735,0.002208,0.549568,-260.718885,0.708899,69.882061
10.0964,-0.006617,-0.003582,-0.000227,0.002069,0.001592,-0.000328,-0.005652,-0.51333,0.001332,0.549568,-260.718885,0.708899,69.882061
10.1167,-0.006171,-0.003455,0.001153,0.002096,0.00152,-9.6e-05,-0.005652,-0.51333,0.001332,0.549568,-260.718885,0.708899,69.882061
10.1367,-0.006021,-0.003581,0.000467,0.002117,0.001466,6.8e-05,-0.005508,-0.513393,0.00113,0.563384,-260.718045,0.78434,69.883079
10.1564,-0.006267,-0.003378,0.001209,0.00213,0.001443,0.000401,-0.005612,-0.513463,0.000856,0.563384,-260.718045,0.78434,69.883079
10.177,-0.006203,-0.003716,0.001855,0.00214,0.001427,0.000639,-0.005617,-0.513351,0.001206,0.618727,-260.717497,0.709775,69.883617
10.1964,-0.006016,-0.003478,0.001268,0.002111,0.001485,0.000398,-0.005285,-0.513684,0.001801,0.618727,-260.717497,0.709775,69.883617
10.2165,-0.00647,-0.003527,0.002757,0.002088,0.001528,0.000222,-0.005285,-0.513684,0.001801,0.618727,-260.717497,0.709775,69.883617
10.2363,-0.006051,-0.003634,-0.001004,0.002069,0.001561,9.3e-05,-0.005038,-0.513504,0.002761,0.69394,-260.717158,0.634562,69.883904
10.2564,-0.006516,-0.003473,0.000705,0.002087,0.001533,0.000246,-0.005662,-0.513555,0.001215,0.69394,-260.717158,0.634562,69.883904
10.2766,-0.006456,-0.003206,0.002786,0.002101,0.001512,0.000355,-0.006091,-0.513424,0.000708,0.663528,-260.716123,0.628379,69.884912
10.2964,-0.005702,-0.003053,0.000966,0.002087,0.001493,-6e-05,-0.005122,-0.513221,0.00261,0.663528,-260.716123,0.628379,69.884912
10.3166,-0.005773,-0.003321,0.001234,0.002076,0.001475,-0.000367,-0.005122,-0.513221,0.00261,0.663528,-260.716123,0.628379,69.884912
10.3365,-0.00572,-0.002887,0.000894,0.002067,0.001459,-0.000595,-0.005065,-0.513263,0.001248,0.688483,-260.715141,0.553327,69.885803
10.3567,-0.006302,-0.003275,0.001316,0.002074,0.001409,-0.00018,-0.005138,-0.513101,0.001103,0.688483,-260.715141,0.553327,69.885803
10.3761,-0.005773,-0.003312,0.002028,0.002077,0.001372,0.000115,-0.005609,-0.513259,0.001314,0.613534,-260.714832,0.628276,69.886167
10.3964,-0.005658,-0.00314,0.001398,0.002039,0.001414,-4e-05,-0.004804,-0.513307,0.001973,0.613534,-260.714832,0.628276,69.886167
10.4163,-0.005574,-0.00315,0.001356,0.002008,0.001445,-0.000154,-0.004804,-0.513307,0.001973,0.613534,-260.714832,0.628276,69.886167
10.4362,-0.005799,-0.003317,0.000859,0.001982,0.001468,-0.000237,-0.004803,-0.513096,0.001361,0.606739,-260.713899,0.559792,69.887072
10.4565,-0.00552,-0.00307,0.000921,0.001988,0.001439,4.3e-05,-0.005022,-0.51318,0.001156,0.606739,-260.713899,0.559792,69.887072
10.4766,-0.005779,-0.003131,0.00189,0.001991,0.001418,0.000243,-0.005,-0.513035,0.000917,0.588812,-260.713157,0.634487,69.887867
10.4965,-0.005537,-0.002888,0.001831,0.001977,0.001412,0.000122,-0.004829,-0.51312,0.001801,0.588812,-260.713157,0.634487,69.887867
10.5166,-0.00596,-0.002767,0.00194,0.001965,0.001406,3.2e-05,-0.004829,-0.51312,0.001801,0.588812,-260.713157,0.634487,69.887867
10.5363,-0.005579,-0.003401,0.001162,0.001956,0.001401,-3.4e-05,-0.0049,-0.512716,0.001949,0.663696,-260.712301,0.567488,69.888665
10.5564,-0.005507,-0.003033,0.001607,0.001961,0.001364,-1.1e-05,-0.004927,-0.512989,0.001629,0.663696,-260.712301,0.567488,69.888665
10.5765,-0.005278,-0.002887,0.000501,0.001966,0.001335,4e-06,-0.004631,-0.512992,0.001606,0.614688,-260.711432,0.628521,69.889542
10.5966,-0.005651,-0.003101,0.001973,0.001984,0.001281,0.000494,-0.004984,-0.512895,0.000602,0.614688,-260.711432,0.628521,69.889542
10.6165,-0.00575,-0.003311,0.000635,0.001997,0.00124,0.000843,-0.004984,-0.512895,0.000602,0.614688,-260.711432,0.628521,69.889542
10.6363,-0.005273,-0.002659,0.001316,0.002007,0.00121,0.001091,-0.005346,-0.513256,0.000636,0.59755,-260.710502,0.595662,69.890472
10.6564,-0.005562,-0.00306,0.000405,0.002011,0.00121,0.001111,-0.005033,-0.513006,0.000913,0.59755,-260.710502,0.595662,69.890472
10.6762,-0.005482,-0.002849,0.002234,0.002015,0.001211,0.001124,-0.005348,-0.513055,0.000407,0.672556,-260.710376,0.520655,69.890567
10.6966,-0.005351,-0.002885,0.003161,0.001968,0.001239,0.000676,-0.004431,-0.512866,0.002073,0.672556,-260.710376,0.520655,69.890567
10.7164,-0.005303,-0.003053,0.00228,0.00193,0.001258,0.000346,-0.004431,-0.512866,0.002073,0.672556,-260.710376,0.520655,69.890567
10.7364,-0.00533,-0.002803,0.002034,0.001899,0.001269,0.000103,-0.004117,-0.513035,0.00229,0.747644,-260.710061,0.445568,69.890804
10.7565,-0.005241,-0.002871,0.003331,0.001845,0.001311,-0.00012,-0.004186,-0.512938,0.002187,0.747644,-260.710061,0.445568,69.890804
10.7766,-0.005098,-0.002847,0.002737,0.001802,0.001341,-0.000283,-0.003507,-0.512844,0.003336,0.672663,-260.709515,0.520548,69.891333
10.7966,-0.00544,-0.002787,0.00124,0.001708,0.001397,-0.000591,-0.003682,-0.512844,0.002792,0.672663,-260.709515,0.520548,69.891333
10.8164,-0.005671,-0.002916,0.001628,0.001632,0.001437,-0.000817,-0.003682,-0.512844,0.002792,0.672663,-260.709515,0.520548,69.891333
10.8365,-0.005242,-0.002845,0.002045,0.00157,0.001465,-0.000983,-0.0048,-0.512888,0.001626,0.597729,-260.709073,0.595482,69.891818
10.8563,-0.005275,-0.002329,0.00236,0.001615,0.001415,-0.000758,-0.004551,-0.512867,0.001797,0.597729,-260.709073,0.595482,69.891818
10.8765,-0.004798,-0.002954,0.001639,0.001652,0.001379,-0.000598,-0.004062,-0.512322,0.002357,0.522734,-260.708962,0.670478,69.891979
10.8972,-0.00531,-0.002702,0.000953,0.001622,0.001401,-0.000454,-0.00397,-0.512897,0.001703,0.522734,-260.708962,0.670478,69.891979
10.9164,-0.005402,-0.003009,0.001563,0.001596,0.001419,-0.000351,-0.00397,-0.512897,0.001703,0.522734,-260.708962,0.670478,69.891979
10.9365,-0.005376,-0.003052,0.002222,0.001575,0.001432,-0.000277,-0.004554,-0.512969,0.001548,0.550492,-260.708408,0.745537,69.892665
10.9569,-0.005019,-0.002878,0.000939,0.001599,0.001429,-0.000268,-0.004422,-0.512998,0.00182,0.550492,-260.708408,0.745537,69.892665
10.9767,-0.005152,-0.002959,0.001767,0.001618,0.001427,-0.000262,-0.004502,-0.512845,0.000931,0.625429,-260.707804,0.793846,69.893337
10.9967,-0.005302,-0.002212,0.001477,0.001623,0.001426,-0.000209,-0.004271,-0.512947,0.001695,0.625429,-260.707804,0.793846,69.893337
11.0169,-0.004765,-0.002619,0.000591,0.001626,0.001426,-0.000171,-0.004271,-0.512947,0.001695,0.625429,-260.707804,0.793846,69.893337
11.0362,-0.004995,-0.002896,0.001785,0.001629,0.001427,-0.000143,-0.004398,-0.512561,0.00058,0.664329,-260.707006,0.775663,69.894217
11.0562,-0.00485,-0.002759,0.002466,0.001644,0.001369,0.000153,-0.004261,-0.512692,0.001075,0.664329,-260.707006,0.775663,69.894217
11.0762,-0.004865,-0.002896,0.00215,0.001656,0.001326,0.000364,-0.003541,-0.512713,0.002462,0.688103,-260.706179,0.749024,69.895089
11.0964,-0.005067,-0.002572,0.001763,0.001594,0.001382,7.2e-05,-0.003747,-0.512877,0.002176,0.688103,-260.706179,0.749024,69.895089
11.1165,-0.005049,-0.002701,0.002235,0.001544,0.001422,-0.000141,-0.003747,-0.512877,0.002176,0.688103,-260.706179,0.749024,69.895089
11.1363,-0.004812,-0.002574,0.001738,0.001504,0.001451,-0.000297,-0.003868,-0.512664,0.002241,0.752009,-260.70562,0.674011,69.89558
11.1564,-0.004687,-0.002483,0.002232,0.001505,0.001401,-0.00035,-0.003886,-0.512622,0.002036,0.752009,-260.70562,0.674011,69.89558
11.1766,-0.005135,-0.00269,0.001924,0.001506,0.001363,-0.00039,-0.003517,-0.512453,0.002227,0.701149,-260.70509,0.74902,69.896177
11.1965,-0.004972,-0.002025,0.002146,0.001525,0.001332,-0.000386,-0.004123,-0.512678,0.001938,0.701149,-260.70509,0.74902,69.896177
11.2164,-0.00457,-0.00231,0.000716,0.00154,0.001308,-0.000384,-0.004123,-0.512678,0.001938,0.701149,-260.70509,0.74902,69.896177
11.2365,-0.00502,-0.002878,0.001182,0.001553,0.00129,-0.000384,-0.00415,-0.512261,0.000702,0.641375,-260.704441,0.81604,69.896937
11.2565,-0.004752,-0.002572,0.002067,0.001589,0.00122,7.4e-05,-0.004253,-0.512507,0.000897,0.641375,-260.704441,0.81604,69.896937
11.2765,-0.00478,-0.002372,0.001545,0.001617,0.001169,0.0004,-0.003652,-0.512532,0.002055,0.596872,-260.703728,0.775927,69.897763
11.2963,-0.004801,-0.002432,0.002582,0.001608,0.00113,0.000332,-0.003965,-0.512382,0.001582,0.596872,-260.703728,0.775927,69.897763
11.3166,-0.004427,-0.002815,0.001187,0.001602,0.0011,0.000281,-0.003965,-0.512382,0.001582,0.596872,-260.703728,0.775927,69.897763
11.3364,-0.004573,-0.002254,0.002484,0.001597,0.001077,0.000241,-0.003803,-0.5128,0.001189,0.672302,-260.703495,0.700497,69.897965
11.3567,-0.00496,-0.002346,0.000665,0.00154,0.00113,0.000147,-0.003598,-0.512575,0.001718,0.672302,-260.703495,0.700497,69.897965
11.3765,-0.004773,-0.002374,0.001709,0.001494,0.001169,7.9e-05,-0.004591,-0.512323,0.000667,0.6542,-260.703001,0.626027,69.898418
11.3963,-0.004829,-0.002174,0.001748,0.001511,0.001113,8.3e-05,-0.003963,-0.512367,0.001614,0.6542,-260.703001,0.626027,69.898418
11.4164,-0.004844,-0.002052,0.001644,0.001524,0.00107,8.4e-05,-0.003963,-0.512367,0.001614,0.6542,-260.703001,0.626027,69.898418
11.4363,-0.004731,-0.002416,0.000862,0.001535,0.001037,8.4e-05,-0.003944,-0.512003,0.001648,0.683685,-260.702245,0.64379,69.899152
11.4567,-0.004229,-0.002042,0.001461,0.001564,0.000954,0.000209,-0.004078,-0.512165,0.001329,0.683685,-260.702245,0.64379,69.899152
11.4768,-0.004667,-0.002359,0.000778,0.001588,0.000891,0.000296,-0.003442,-0.512013,0.001464,0.616679,-260.701601,0.57096,69.899776
11.4967,-0.004657,-0.002177,0.001384,0.001617,0.000869,0.00058,-0.004196,-0.512328,0.000837,0.616679,-260.701601,0.57096,69.899776
11.5166,-0.004356,-0.002295,0.001029,0.001641,0.000853,0.000782,-0.004196,-0.512328,0.000837,0.616679,-260.701601,0.57096,69.899776
11.5366,-0.004362,-0.002119,-0.000473,0.001659,0.000843,0.000927,-0.003787,-0.512267,0.001034,0.593967,-260.701071,0.49584,69.900257
11.5563,-0.004503,-0.002185,0.002106,0.001673,0.000819,0.001251,-0.004121,-0.512202,0.000409,0.593967,-260.701071,0.49584,69.900257
11.5766,-0.004321,-0.002017,0.001182,0.001683,0.000802,0.001482,-0.003421,-0.51218,0.002109,0.669053,-260.700951,0.420754,69.90035
11.5964,-0.004302,-0.002665,0.001473,0.001643,0.000785,0.00125,-0.003693,-0.512031,0.001261,0.669053,-260.700951,0.420754,69.90035
11.6163,-0.004563,-0.002102,0.000692,0.001612,0.000771,0.001078,-0.003693,-0.512031,0.001261,0.669053,-260.700951,0.420754,69.90035
11.6364,-0.004455,-0.001705,0.000835,0.001586,0.000759,0.000952,-0.004209,-0.512101,0.000692,0.743996,-260.700935,0.345811,69.900361
11.6566,-0.004751,-0.002039,0.000521,0.001625,0.000689,0.001099,-0.004133,-0.511934,0.000753,0.743996,-260.700935,0.345811,69.900361
11.6765,-0.004279,-0.002125,0.001184,0.001657,0.000637,0.001203,-0.004466,-0.512028,0.00053,0.701682,-260.700603,0.270522,69.900616
11.6968,-0.004168,-0.002203,0.002219,0.001634,0.00067,0.001093,-0.003748,-0.512115,0.001123,0.701682,-260.700603,0.270522,69.900616
11.7164,-0.004389,-0.002087,-9.7e-05,0.001615,0.000695,0.001013,-0.003748,-0.512115,0.001123,0.701682,-260.700603,0.270522,69.900616
11.7361,-0.004365,-0.00224,0.0035,0.001599,0.000713,0.000955,-0.004427,-0.512081,-9.1e-05,0.691311,-260.700457,0.195953,69.900728
11.7564,-0.004295,-0.002205,0.001359,0.001574,0.000742,0.000795,-0.003662,-0.512145,0.001395,0.691311,-260.700457,0.195953,69.900728
11.7762,-0.004342,-0.00191,0.001632,0.001554,0.000762,0.00068,-0.003561,-0.512185,0.001383,0.681046,-260.699789,0.120823,69.90125
11.7968,-0.004119,-0.002182,0.001834,0.001526,0.000735,0.000516,-0.003512,-0.511929,0.001614,0.681046,-260.699789,0.120823,69.90125
11.8164,-0.004336,-0.002171,0.001246,0.001503,0.000713,0.000396,-0.003512,-0.511929,0.001614,0.681046,-260.699789,0.120823,69.90125
11.8367,-0.004387,-0.002187,0.000638,0.001484,0.000695,0.000307,-0.003647,-0.512145,0.001271,0.648431,-260.699137,0.196149,69.901782
11.8572,-0.004181,-0.00224,0.001291,0.001501,0.000712,0.000492,-0.00381,-0.512159,0.001014,0.648431,-260.699137,0.196149,69.901782
11.8765,-0.004188,-0.002168,0.000641,0.001514,0.000726,0.000625,-0.003494,-0.512226,0.001299,0.57379,-260.698711,0.27079,69.902169
11.8965,-0.004247,-0.00201,0.002931,0.001529,0.000736,0.00088,-0.003833,-0.512172,0.000688,0.57379,-260.698711,0.27079,69.902169
11.9166,-0.004348,-0.002451,-0.000367,0.00154,0.000744,0.001063,-0.003833,-0.512172,0.000688,0.57379,-260.698711,0.27079,69.902169
11.9367,-0.004068,-0.002061,0.002192,0.001548,0.000752,0.001195,-0.004477,-0.512424,-0.000344,0.63187,-260.698029,0.223762,69.902733
11.9563,-0.004193,-0.002101,0.003358,0.001553,0.000781,0.001285,-0.003849,-0.512272,0.000691,0.63187,-260.698029,0.223762,69.902733
11.9766,-0.004233,-0.00227,0.002157,0.001556,0.000804,0.00135,-0.002461,-0.512088,0.003369,0.706336,-260.697709,0.149296,69.902965
11.9967,-0.004203,-0.00209,0.001546,0.001452,0.000888,0.000776,-0.003076,-0.512253,0.002259,0.706336,-260.697709,0.149296,69.902965
12.0166,-0.004232,-0.00223,0.00178,0.001368,0.000947,0.000351,-0.003076,-0.512253,0.002259,0.706336,-260.697709,0.149296,69.902965
12.0365,-0.003682,-0.002061,0.001655,0.0013,0.000988,3.9e-05,-0.003288,-0.512209,0.001808,0.781497,-260.69721,0.074135,69.903309
12.0563,-0.004318,-0.002094,0.000829,0.001256,0.000984,-6e-06,-0.003101,-0.512147,0.001749,0.781497,-260.69721,0.074135,69.903309
12.0765,-0.004122,-0.001772,0.003065,0.001219,0.000981,-4.1e-05,-0.003895,-0.512094,0.000829,0.706657,-260.697208,0.148975,69.903311
12.0967,-0.004112,-0.002168,0.002993,0.001133,0.000921,-0.000417,-0.002674,-0.511797,0.002873,0.706657,-260.697208,0.148975,69.903311
12.1162,-0.003872,-0.002099,0.001737,0.001064,0.000873,-0.000699,-0.002674,-0.511797,0.002873,0.706657,-260.697208,0.148975,69.903311
12.1362,-0.004025,-0.002363,0.002039,0.001008,0.000834,-0.000909,-0.002986,-0.512098,0.001737,0.664904,-260.697204,0.22408,69.903316
12.1563,-0.004268,-0.001739,0.00256,0.001001,0.000882,-0.000744,-0.002985,-0.512206,0.00186,0.664904,-260.697204,0.22408,69.903316
12.1765,-0.004077,-0.001969,0.00194,0.000994,0.00092,-0.000625,-0.002962,-0.511737,0.00256,0.589993,-260.697204,0.298991,69.903316
12.1964,-0.00414,-0.001945,0.000145,0.00101,0.000877,-0.000578,-0.003076,-0.511947,0.001997,0.589993,-260.697204,0.298991,69.903316
12.2165,-0.00411,-0.002171,0.001762,0.001022,0.000845,-0.000546,-0.003076,-0.511947,0.001997,0.589993,-260.697204,0.298991,69.903316
12.2363,-0.004027,-0.001793,0.001939,0.001032,0.000821,-0.000525,-0.003211,-0.512171,0.001762,0.515007,-260.697203,0.373977,69.903317
12.2566,-0.003864,-0.002147,0.002377,0.001047,0.000816,-0.000453,-0.00314,-0.512015,0.001835,0.515007,-260.697203,0.373977,69.903317
12.2766,-0.004029,-0.00221,0.000852,0.001059,0.000812,-0.000401,-0.002651,-0.512145,0.002377,0.451518,-260.69719,0.449074,69.903334
12.2966,-0.004132,-0.00219,0.00241,0.001118,0.000822,1.4e-05,-0.003529,-0.512205,0.000958,0.451518,-260.69719,0.449074,69.903334
12.3165,-0.003795,-0.00189,0.003184,0.001165,0.000832,0.000312,-0.003529,-0.512205,0.000958,0.451518,-260.69719,0.449074,69.903334
12.3367,-0.00368,-0.002257,0.001971,0.0,0.0,0.0,-0.002163,-0.511883,0.003183,0.49152,-260.697116,0.52459,69.903426
12.3564,-0.004136,-0.002385,0.000601,0.0,0.0,0.0,-0.002373,-0.512036,0.002685,0.49152,-260.697116,0.52459,69.903426
12.3763,-0.00417,-0.002123,0.002485,0.0,0.0,0.0,-0.00383,-0.512385,0.000601,0.49152,-260.697116,0.52459,69.903426
12.3962,-0.003981,-0.001907,0.001745,0.0,0.0,0.0,-0.002992,-0.512147,0.002303,0.49152,-260.697116,0.52459,69.903426
12.4163,-0.004339,-0.001894,0.000888,0.0,0.0,0.0,-0.002992,-0.512147,0.002303,0.49152,-260.697116,0.52459,69.903426
12.4362,-0.003953,-0.002114,0.00141,0.0,0.0,0.0,-0.003887,-0.511894,0.000888,0.49152,-260.697116,0.52459,69.903426
12.4564,-0.00405,-0.001914,0.002174,0.0,0.0,0.0,-0.00362,-0.511984,0.001101,0.49152,-260.697116,0.52459,69.903426
12.4762,-0.004445,-0.002279,0.002395,0.0,0.0,0.0,-0.002941,-0.511913,0.002174,0.49152,-260.697116,0.52459,69.903426
12.4968,-0.003592,-0.002013,0.001299,0.0,0.0,0.0,-0.0032,-0.512246,0.002376,0.49152,-260.697116,0.52459,69.903426
12.5164,-0.003973,-0.002075,0.001349,0.0,0.0,0.0,-0.0032,-0.512246,0.002376,0.49152,-260.697116,0.52459,69.903426
12.5365,-0.004034,-0.001775,0.000695,0.0,0.0,0.0,-0.003285,-0.512074,0.001349,0.49152,-260.697116,0.52459,69.903426
12.5562,-0.003921,-0.001969,0.00269,0.0,0.0,0.0,-0.003444,-0.511954,0.001086,0.49152,-260.697116,0.52459,69.903426
12.5761,-0.003952,-0.001899,0.001731,0.0,0.0,0.0,-0.002549,-0.511967,0.00269,0.49152,-260.697116,0.52459,69.903426
12.5963,-0.003925,-0.002402,0.002066,0.0,0.0,0.0,-0.003031,-0.511904,0.001802,0.49152,-260.697116,0.52459,69.903426
12.6167,-0.003862,-0.002034,0.003206,0.0,0.0,0.0,-0.003031,-0.511904,0.001802,0.49152,-260.697116,0.52459,69.903426
12.6362,-0.004249,-0.001707,0.001738,0.0,0.0,0.0,-0.002227,-0.512031,0.003206,0.49152,-260.697116,0.52459,69.903426
12.6563,-0.003938,-0.002204,0.00047,0.0,0.0,0.0,-0.002708,-0.511894,0.002584,0.49152,-260.697116,0.52459,69.903426
12.6769,-0.004083,-0.001954,0.002912,0.0,0.0,0.0,-0.003698,-0.512204,0.00047,0.49152,-260.697116,0.52459,69.903426
12.6968,-0.003726,-0.001846,0.002151,0.0,0.0,0.0,-0.002688,-0.511973,0.002712,0.49152,-260.697116,0.52459,69.903426
12.7167,-0.004121,-0.002189,0.0014,0.0,0.0,0.0,-0.002688,-0.511973,0.002712,0.49152,-260.697116,0.52459,69.903426
12.7366,-0.003859,-0.002096,0.001127,0.0,0.0,0.0,-0.003407,-0.512189,0.0014,0.49152,-260.697116,0.52459,69.903426
12.7563,-0.004231,-0.002058,0.001077,0.0,0.0,0.0,-0.003356,-0.512151,0.001288,0.49152,-260.697116,0.52459,69.903426
12.7765,-0.004123,-0.00199,0.002201,0.0,0.0,0.0,-0.003682,-0.512057,0.001077,0.49152,-260.697116,0.52459,69.903426
12.7964,-0.004056,-0.00192,-7e-05,0.0,0.0,0.0,-0.003059,-0.511995,0.002105,0.49152,-260.697116,0.52459,69.903426
12.8162,-0.004008,-0.00228,0.001292,0.0,0.0,0.0,-0.003059,-0.511995,0.002105,0.49152,-260.697116,0.52459,69.903426
12.8369,-0.003923,-0.001967,0.002045,0.0,0.0,0.0,-0.003348,-0.51228,0.001292,0.49152,-260.697116,0.52459,69.903426
12.8573,-0.004392,-0.001472,0.000506,0.0,0.0,0.0,-0.003155,-0.51215,0.001604,0.49152,-260.697116,0.52459,69.903426
12.8767,-0.004241,-0.002071,0.000868,0.0,0.0,0.0,-0.004134,-0.511472,0.000506,0.49152,-260.697116,0.52459,69.903426
12.8964,-0.004116,-0.00182,0.001488,0.0,0.0,0.0,-0.003829,-0.512017,0.000835,0.49152,-260.697116,0.52459,69.903426
12.9166,-0.004089,-0.002109,0.001326,0.0,0.0,0.0,-0.003829,-0.512017,0.000835,0.49152,-260.697116,0.52459,69.903426
12.9364,-0.004277,-0.002129,0.002718,0.0,0.0,0.0,-0.003413,-0.512108,0.001326,0.49152,-260.697116,0.52459,69.903426
12.9565,-0.004534,-0.002117,0.001604,0.0,0.0,0.0,-0.003194,-0.512116,0.00191,0.49152,-260.697116,0.52459,69.903426
12.9763,-0.004121,-0.001779,0.002819,0.0,0.0,0.0,-0.003716,-0.512116,0.001604,0.49152,-260.697116,0.52459,69.903426
12.9963,-0.003836,-0.002185,0.001901,0.0,0.0,0.0,-0.002778,-0.511808,0.002708,0.49152,-260.697116,0.52459,69.903426
13.0166,-0.004222,-0.002324,0.004004,0.0,0.0,0.0,-0.002778,-0.511808,0.002708,0.49152,-260.697116,0.52459,69.903426
13.0362,-0.004356,-0.001804,0.001836,0.0,0.0,0.0,-0.00218,-0.51232,0.004004,0.49152,-260.697116,0.52459,69.903426
13.0568,-0.004463,-0.001737,0.001606,0.0,0.0,0.0,-0.002691,-0.512107,0.003111,0.49152,-260.697116,0.52459,69.903426
13.0767,-0.004175,-0.001873,0.002312,0.0,0.0,0.0,-0.003644,-0.511736,0.001606,0.49152,-260.697116,0.52459,69.903426
13.0965,-0.003949,-0.002142,0.001934,0.0,0.0,0.0,-0.003055,-0.511859,0.002247,0.49152,-260.697116,0.52459,69.903426
13.1164,-0.004361,-0.001908,0.00243,0.0,0.0,0.0,-0.003055,-0.511859,0.002247,0.49152,-260.697116,0.52459,69.903426
13.1365,-0.004245,-0.002032,-0.00015,0.0,0.0,0.0,-0.003122,-0.511907,0.00243,0.49152,-260.697116,0.52459,69.903426
13.1567,-0.003935,-0.001982,0.001382,0.0,0.0,0.0,-0.00361,-0.511958,0.00138,0.49152,-260.697116,0.52459,69.903426
13.1768,-0.004004,-0.001558,0.00105,0.0,0.0,0.0,-0.00323,-0.511981,0.001382,0.49152,-260.697116,0.52459,69.903426
13.1967,-0.004005,-0.001918,0.002227,0.0,0.0,0.0,-0.003447,-0.511596,0.00108,0.49152,-260.697116,0.52459,69.903426
13.2165,-0.003964,-0.001933,0.002967,0.0,0.0,0.0,-0.003447,-0.511596,0.00108,0.49152,-260.697116,0.52459,69.903426
13.2363,-0.004243,-0.001934,0.003602,0.0,0.0,0.0,-0.002451,-0.511931,0.002967,0.49152,-260.697116,0.52459,69.903426
13.2568,-0.004478,-0.00204,0.00311,0.0,0.0,0.0,-0.002432,-0.511931,0.003227,0.49152,-260.697116,0.52459,69.903426
13.2769,-0.004318,-0.001935,0.000869,0.0,0.0,0.0,-0.002891,-0.512037,0.00311,0.49152,-260.697116,0.52459,69.903426
13.2968,-0.003749,-0.002321,0.002145,0.0,0.0,0.0,-0.003798,-0.511943,0.001045,0.49152,-260.697116,0.52459,69.903426
13.3165,-0.004451,-0.002284,0.002849,0.0,0.0,0.0,-0.003798,-0.511943,0.001045,0.49152,-260.697116,0.52459,69.903426
13.3368,-0.004323,-0.002233,0.002305,0.0,0.0,0.0,-0.002998,-0.512282,0.002849,0.49152,-260.697116,0.52459,69.903426
13.3564,-0.004451,-0.00215,0.001511,0.0,0.0,0.0,-0.003061,-0.512261,0.002621,0.49152,-260.697116,0.52459,69.903426
13.3762,-0.003861,-0.002028,0.002276,0.0,0.0,0.0,-0.00368,-0.512149,0.001511,0.49152,-260.697116,0.52459,69.903426
13.3964,-0.004243,-0.00195,0.000654,0.0,0.0,0.0,-0.002789,-0.512038,0.002207,0.49152,-260.697116,0.52459,69.903426
13.4166,-0.003917,-0.002033,0.001508,0.0,0.0,0.0,-0.002789,-0.512038,0.002207,0.49152,-260.697116,0.52459,69.903426
13.4368,-0.004045,-0.001607,0.001692,0.0,0.0,0.0,-0.003148,-0.512032,0.001508,0.49152,-260.697116,0.52459,69.903426
13.457,-0.004251,-0.00172,0.002784,0.0,0.0,0.0,-0.003162,-0.511859,0.001583,0.49152,-260.697116,0.52459,69.903426
13.4766,-0.003939,-0.001942,0.001363,0.0,0.0,0.0,-0.002831,-0.511718,0.002784,0.49152,-260.697116,0.52459,69.903426
13.4964,-0.00424,-0.002119,0.002374,0.0,0.0,0.0,-0.003211,-0.511923,0.001476,0.49152,-260.697116,0.52459,69.903426
13.5168,-0.004124,-0.002042,0.002581,0.0,0.0,0.0,-0.003211,-0.511923,0.001476,0.49152,-260.697116,0.52459,69.903426
13.5363,-0.004213,-0.001946,0.003254,0.0,0.0,0.0,-0.002808,-0.51204,0.002581,0.49152,-260.697116,0.52459,69.903426
13.5568,-0.004205,-0.001904,0.00313,0.0,0.0,0.0,-0.002705,-0.512001,0.002853,0.49152,-260.697116,0.52459,69.903426
13.5767,-0.003337,-0.002173,0.001078,0.0,0.0,0.0,-0.002609,-0.511902,0.00313,0.49152,-260.697116,0.52459,69.903426
13.5963,-0.004157,-0.002387,0.002718,0.0,0.0,0.0,-0.002772,-0.51215,0.001253,0.49152,-260.697116,0.52459,69.903426
13.6163,-0.004206,-0.002218,0.002556,0.0,0.0,0.0,-0.002772,-0.51215,0.001253,0.49152,-260.697116,0.52459,69.903426
13.637,-0.004232,-0.001729,0.002278,0.0,0.0,0.0,-0.002902,-0.512216,0.002556,0.49152,-260.697116,0.52459,69.903426
13.6565,-0.00406,-0.001689,0.001895,0.0,0.0,0.0,-0.002971,-0.512015,0.002442,0.49152,-260.697116,0.52459,69.903426
13.6761,-0.003779,-0.001835,0.001737,0.0,0.0,0.0,-0.003094,-0.511688,0.001895,0.49152,-260.697116,0.52459,69.903426
13.6967,-0.004042,-0.002221,0.000708,0.0,0.0,0.0,-0.002909,-0.511823,0.00175,0.49152,-260.697116,0.52459,69.903426
13.7167,-0.004056,-0.001888,0.000379,0.0,0.0,0.0,-0.002909,-0.511823,0.00175,0.49152,-260.697116,0.52459,69.903426
13.7367,-0.004396,-0.001947,0.000983,0.0,0.0,0.0,-0.003863,-0.511888,0.000379,0.49152,-260.697116,0.52459,69.903426
13.7562,-0.004165,-0.001902,0.000842,0.0,0.0,0.0,-0.003876,-0.511912,0.000625,0.49152,-260.697116,0.52459,69.903426
13.7761,-0.003814,-0.002076,0.003977,0.0,0.0,0.0,-0.003735,-0.511902,0.000842,0.49152,-260.697116,0.52459,69.903426
13.7963,-0.004418,-0.002042,0.001692,0.0,0.0,0.0,-0.001961,-0.512057,0.003695,0.49152,-260.697116,0.52459,69.903426
13.8165,-0.003967,-0.001985,0.002365,0.0,0.0,0.0,-0.001961,-0.512057,0.003695,0.49152,-260.697116,0.52459,69.903426
13.8367,-0.004258,-0.002326,0.001414,0.0,0.0,0.0,-0.002761,-0.511984,0.002365,0.49152,-260.697116,0.52459,69.903426
13.8564,-0.003992,-0.001856,0.00138,0.0,0.0,0.0,-0.003077,-0.512123,0.001977,0.49152,-260.697116,0.52459,69.903426
13.8761,-0.004261,-0.002092,0.002018,0.0,0.0,0.0,-0.003288,-0.511856,0.00138,0.49152,-260.697116,0.52459,69.903426
13.8963,-0.003942,-0.001966,0.002111,0.0,0.0,0.0,-0.003237,-0.51207,0.001961,0.49152,-260.697116,0.52459,69.903426
13.9168,-0.004006,-0.002105,0.001394,0.0,0.0,0.0,-0.003237,-0.51207,0.001961,0.49152,-260.697116,0.52459,69.903426
13.9363,-0.004104,-0.002342,0.002364,0.0,0.0,0.0,-0.003296,-0.512104,0.001394,0.49152,-260.697116,0.52459,69.903426
13.9568,-0.003992,-0.001745,0.001513,0.0,0.0,0.0,-0.003134,-0.512201,0.00179,0.49152,-260.697116,0.52459,69.903426
13.9763,-0.004077,-0.002535,3.8e-05,0.0,0.0,0.0,-0.003221,-0.511744,0.001513,0.49152,-260.697116,0.52459,69.903426
13.9964,-0.004367,-0.002204,0.001701,0.0,0.0,0.0,-0.003981,-0.512462,0.000174,0.49152,-260.697116,0.52459,69.903426
14.0164,-0.004249,-0.002128,0.000654,0.0,0.0,0.0,-0.003981,-0.512462,0.000174,0.49152,-260.697116,0.52459,69.903426
14.0365,-0.004314,-0.001968,0.00217,0.0,0.0,0.0,-0.003915,-0.512128,0.000654,0.49152,-260.697116,0.52459,69.903426
14.0563,-0.003901,-0.001986,0.000253,0.0,0.0,0.0,-0.003624,-0.512062,0.001277,0.49152,-260.697116,0.52459,69.903426
14.0763,-0.004289,-0.002054,0.001597,0.0,0.0,0.0,-0.003772,-0.511986,0.000253,0.49152,-260.697116,0.52459,69.903426
14.0965,-0.00421,-0.002173,0.001211,0.0,0.0,0.0,-0.003499,-0.512047,0.001482,0.49152,-260.697116,0.52459,69.903426
14.1164,-0.004192,-0.00175,0.003586,0.0,0.0,0.0,-0.003499,-0.512047,0.001482,0.49152,-260.697116,0.52459,69.903426
14.1363,-0.00421,-0.001761,-0.000235,0.0,0.0,0.0,-0.002363,-0.511747,0.003586,0.49152,-260.697116,0.52459,69.903426
14.1568,-0.004085,-0.001728,0.002036,0.0,0.0,0.0,-0.003193,-0.511753,0.001973,0.49152,-260.697116,0.52459,69.903426
14.1761,-0.004018,-0.002164,0.001157,0.0,0.0,0.0,-0.003047,-0.511727,0.002036,0.49152,-260.697116,0.52459,69.903426
14.1963,-0.004409,-0.001928,0.002245,0.0,0.0,0.0,-0.003393,-0.512124,0.001236,0.49152,-260.697116,0.52459,69.903426
14.2165,-0.004041,-0.002281,0.001892,0.0,0.0,0.0,-0.003393,-0.512124,0.001236,0.49152,-260.697116,0.52459,69.903426
14.2367,-0.004084,-0.002075,0.001291,0.0,0.0,0.0,-0.003076,-0.51228,0.001892,0.49152,-260.697116,0.52459,69.903426
14.2567,-0.003991,-0.002394,-1e-05,0.0,0.0,0.0,-0.003219,-0.512197,0.001647,0.49152,-260.697116,0.52459,69.903426
14.2766,-0.004088,-0.002061,0.001971,0.0,0.0,0.0,-0.003996,-0.512394,-1e-05,0.49152,-260.697116,0.52459,69.903426
14.297,-0.004316,-0.002241,0.002436,0.0,0.0,0.0,-0.003151,-0.512086,0.001822,0.49152,-260.697116,0.52459,69.903426
14.3167,-0.003944,-0.002043,0.001408,0.0,0.0,0.0,-0.003151,-0.512086,0.001822,0.49152,-260.697116,0.52459,69.903426
14.3368,-0.004516,-0.00232,0.002804,0.0,0.0,0.0,-0.003226,-0.512042,0.001408,0.49152,-260.697116,0.52459,69.903426
14.3567,-0.003958,-0.002095,5.8e-05,0.0,0.0,0.0,-0.00317,-0.512153,0.001971,0.49152,-260.697116,0.52459,69.903426
14.3763,-0.003945,-0.002005,0.001602,0.0,0.0,0.0,-0.003928,-0.512095,5.8e-05,0.49152,-260.697116,0.52459,69.903426
14.3966,-0.003822,-0.002154,0.002967,0.0,0.0,0.0,-0.003194,-0.512012,0.001474,0.49152,-260.697116,0.52459,69.903426
14.4169,-0.004203,-0.001881,0.0022,0.0,0.0,0.0,-0.003194,-0.512012,0.001474,0.49152,-260.697116,0.52459,69.903426
14.4368,-0.004022,-0.001895,0.002606,0.0,0.0,0.0,-0.003081,-0.51188,0.0022,0.49152,-260.697116,0.52459,69.903426
14.4565,-0.004252,-0.002182,0.000572,0.0,0.0,0.0,-0.00293,-0.511885,0.002358,0.49152,-260.697116,0.52459,69.903426
14.4765,-0.004015,-0.001689,0.002382,0.0,0.0,0.0,-0.00396,-0.512182,0.000572,0.49152,-260.697116,0.52459,69.903426
14.4968,-0.004073,-0.001786,0.001526,0.0,0.0,0.0,-0.002905,-0.511732,0.002217,0.49152,-260.697116,0.52459,69.903426
14.5164,-0.004291,-0.001908,0.002407,0.0,0.0,0.0,-0.002905,-0.511732,0.002217,0.49152,-260.697116,0.52459,69.903426
14.5364,-0.00404,-0.001864,0.002331,0.0,0.0,0.0,-0.003063,-0.511906,0.002407,0.49152,-260.697116,0.52459,69.903426
14.5567,-0.004236,-0.002094,0.000344,0.0,0.0,0.0,-0.002976,-0.511888,0.002376,0.49152,-260.697116,0.52459,69.903426
14.5766,-0.004015,-0.001547,0.001904,0.0,0.0,0.0,-0.00406,-0.512094,0.000344,0.49152,-260.697116,0.52459,69.903426
14.5966,-0.004245,-0.002043,0.00255,0.0,0.0,0.0,-0.003137,-0.511596,0.001762,0.49152,-260.697116,0.52459,69.903426
14.6167,-0.004217,-0.002148,0.002447,0.0,0.0,0.0,-0.003137,-0.511596,0.001762,0.49152,-260.697116,0.52459,69.903426
14.637,-0.004339,-0.00203,0.000608,0.0,0.0,0.0,-0.002968,-0.512146,0.002447,0.49152,-260.697116,0.52459,69.903426
14.6567,-0.004248,-0.001817,0.00094,0.0,0.0,0.0,-0.003403,-0.512098,0.001693,0.49152,-260.697116,0.52459,69.903426
14.6763,-0.004032,-0.001876,0.000301,0.0,0.0,0.0,-0.003768,-0.511817,0.00094,0.49152,-260.697116,0.52459,69.903426
14.6966,-0.004347,-0.002093,0.002008,0.0,0.0,0.0,-0.003869,-0.51187,0.000358,0.49152,-260.697116,0.52459,69.903426
14.7165,-0.003843,-0.001947,0.000906,0.0,0.0,0.0,-0.003869,-0.51187,0.000358,0.49152,-260.697116,0.52459,69.903426
14.7364,-0.003778,-0.002393,0.000546,0.0,0.0,0.0,-0.003381,-0.511946,0.000906,0.49152,-260.697116,0.52459,69.903426
14.7565,-0.004321,-0.002186,0.00265,0.0,0.0,0.0,-0.003429,-0.512128,0.00076,0.49152,-260.697116,0.52459,69.903426
14.7764,-0.003991,-0.002113,0.002778,0.0,0.0,0.0,-0.002969,-0.512185,0.00265,0.49152,-260.697116,0.52459,69.903426
14.7964,-0.004027,-0.002119,0.002359,0.0,0.0,0.0,-0.002612,-0.512118,0.002766,0.49152,-260.697116,0.52459,69.903426
14.8165,-0.004255,-0.002276,0.001025,0.0,0.0,0.0,-0.002612,-0.512118,0.002766,0.49152,-260.697116,0.52459,69.903426
14.8365,-0.004198,-0.002118,0.001114,0.0,0.0,0.0,-0.003732,-0.512275,0.001025,0.49152,-260.697116,0.52459,69.903426
14.8565,-0.004442,-0.001834,0.001651,0.0,0.0,0.0,-0.003691,-0.512212,0.001061,0.49152,-260.697116,0.52459,69.903426
14.8761,-0.004388,-0.001763,0.001213,0.0,0.0,0.0,-0.0036,-0.511833,0.001651,0.49152,-260.697116,0.52459,69.903426
14.8963,-0.004444,-0.002059,0.001906,0.0,0.0,0.0,-0.003756,-0.511769,0.001249,0.49152,-260.697116,0.52459,69.903426
14.9165,-0.004442,-0.00212,0.002098,0.0,0.0,0.0,-0.003756,-0.511769,0.001249,0.49152,-260.697116,0.52459,69.903426
14.9366,-0.003914,-0.002262,0.001968,0.0,0.0,0.0,-0.003372,-0.512118,0.002098,0.49152,-260.697116,0.52459,69.903426
14.9568,-0.004008,-0.001805,0.001774,0.0,0.0,0.0,-0.003187,-0.512175,0.002046,0.49152,-260.697116,0.52459,69.903426
14.9767,-0.004153,-0.002273,0.000776,0.0,0.0,0.0,-0.003103,-0.511805,0.001774,0.49152,-260.697116,0.52459,69.903426
14.9969,-0.004318,-0.001964,0.00192,0.0,0.0,0.0,-0.003699,-0.512231,0.000865,0.49152,-260.697116,0.52459,69.903426
15.0167,-0.004511,-0.001932,0.000383,0.0,0.0,0.0,-0.003699,-0.512231,0.000865,0.49152,-260.697116,0.52459,69.903426
15.0367,-0.004147,-0.001932,0.001135,0.0,0.0,0.0,-0.004316,-0.511932,0.000383,0.49152,-260.697116,0.52459,69.903426
15.0564,-0.004047,-0.001961,0.001977,0.0,0.0,0.0,-0.004004,-0.511932,0.000697,0.49152,-260.697116,0.52459,69.903426
15.0767,-0.00432,-0.001941,0.000687,0.0,0.0,0.0,-0.003039,-0.51196,0.001977,0.49152,-260.697116,0.52459,69.903426
15.0967,-0.00417,-0.001933,0.00265,0.0,0.0,0.0,-0.003889,-0.511942,0.000798,0.49152,-260.697116,0.52459,69.903426
15.1163,-0.004272,-0.002328,0.002564,0.0,0.0,0.0,-0.003889,-0.511942,0.000798,0.49152,-260.697116,0.52459,69.903426
15.1369,-0.004507,-0.001676,0.00116,0.0,0.0,0.0,-0.002964,-0.512326,0.002564,0.49152,-260.697116,0.52459,69.903426
15.1567,-0.004092,-0.001538,0.002204,0.0,0.0,0.0,-0.003353,-0.51206,0.00199,0.49152,-260.697116,0.52459,69.903426
15.1761,-0.003948,-0.002148,0.003448,0.0,0.0,0.0,-0.002968,-0.511537,0.002204,0.49152,-260.697116,0.52459,69.903426
15.1962,-0.004222,-0.001953,0.001233,0.0,0.0,0.0,-0.00226,-0.51209,0.003335,0.49152,-260.697116,0.52459,69.903426
15.2167,-0.004393,-0.002272,0.001399,0.0,0.0,0.0,-0.00226,-0.51209,0.003335,0.49152,-260.697116,0.52459,69.903426
15.2367,-0.004183,-0.001976,0.001877,0.0,0.0,0.0,-0.00368,-0.512272,0.001399,0.49152,-260.697116,0.52459,69.903426
15.2564,-0.003872,-0.00238,0.001139,0.0,0.0,0.0,-0.003495,-0.512151,0.001594,0.49152,-260.697116,0.52459,69.903426
15.2765,-0.003935,-0.002299,-5.7e-05,0.0,0.0,0.0,-0.003291,-0.512379,0.001139,0.49152,-260.697116,0.52459,69.903426
15.2967,-0.003914,-0.001769,0.002836,0.0,0.0,0.0,-0.003903,-0.512306,5.2e-05,0.49152,-260.697116,0.52459,69.903426
15.3163,-0.004093,-0.001986,0.002255,0.0,0.0,0.0,-0.003903,-0.512306,5.2e-05,0.49152,-260.697116,0.52459,69.903426
15.3367,-0.004191,-0.002276,0.001561,0.0,0.0,0.0,-0.002943,-0.511985,0.002255,0.49152,-260.697116,0.52459,69.903426
