mach0312/omni-docking-bench/src/icros_test_setup/results/MPPI_sample/timeseries/trial_136.csv
t,x,y,yaw,vx,vy,wz,bl_x,bl_y,bl_yaw,front_steering_joint,front_wheel_joint,rear_steering_joint,rear_wheel_joint
0.0,0.019077,-0.019227,0.00091,0.003005,-0.002916,0.00062,0.01841,-0.52832,4.6e-05,-0.701257,-257.5667,-0.831371,66.858948
0.0004,0.019487,-0.020142,0.000271,0.00207,-0.002009,0.000427,0.01841,-0.52832,4.6e-05,-0.701257,-257.563112,-0.831371,66.863016
0.0008,0.019545,-0.019973,0.000744,0.001091,-0.001059,0.000225,0.019067,-0.52896,0.000411,-0.701257,-257.560647,-0.831371,66.86581
0.0011,0.019476,-0.01971,0.001029,5.3e-05,-5.2e-05,1.1e-05,0.019067,-0.52896,0.000411,-0.701257,-257.559072,-0.831371,66.867596
0.0014,0.019591,-0.019918,0.001634,0.0,0.0,0.0,0.019067,-0.52896,0.000411,-0.701257,-257.559044,-0.831371,66.867628
0.0016,0.020169,-0.020376,0.001912,0.0,0.0,0.0,0.019787,-0.529641,0.001417,-0.701257,-257.559044,-0.831371,66.867628
0.002,0.019732,-0.020068,0.000659,0.0,0.0,0.0,0.019787,-0.529641,0.001417,-0.701257,-257.559044,-0.831371,66.867628
0.0022,0.019424,-0.019927,0.000799,0.0,0.0,0.0,0.019511,-0.529421,0.000759,-0.701257,-257.559044,-0.831371,66.867628
0.0025,0.019397,-0.020113,0.000763,0.0,0.0,0.0,0.019511,-0.529421,0.000759,-0.701257,-257.559044,-0.831371,66.867628
0.017,0.019972,-0.019594,0.000636,0.0,0.0,0.0,0.01979,-0.530097,0.000766,-0.701257,-257.559044,-0.831371,66.867628
0.037,0.019699,-0.020281,0.000889,0.0,0.0,0.0,0.01979,-0.530097,0.000766,-0.701257,-257.559044,-0.831371,66.867628
0.0569,0.020115,-0.019991,0.001361,0.0,0.0,0.0,0.020152,-0.530281,0.000889,-0.701257,-257.559044,-0.831371,66.867628
0.077,0.019785,-0.020136,-0.000283,0.0,0.0,0.0,0.020419,-0.530163,0.001081,-0.701257,-257.559044,-0.831371,66.867628
0.0971,0.019774,-0.019756,0.000486,0.0,0.0,0.0,0.019641,-0.530136,-0.000283,-0.701257,-257.559044,-0.831371,66.867628
0.1168,0.019751,-0.019869,0.001199,-0.001881,-1.3e-05,3e-06,0.019989,-0.529788,0.000419,-0.701257,-257.559044,-0.831371,66.867628
0.1368,0.01981,-0.019849,5.6e-05,-0.002073,-6e-06,0.00027,0.019989,-0.529788,0.000419,-0.701257,-257.559044,-0.831371,66.867628
0.157,0.019893,-0.019821,0.001111,-0.002239,-2e-06,0.00048,0.019839,-0.529849,5.6e-05,-0.701257,-257.559044,-0.831371,66.867628
0.1774,0.019875,-0.01989,0.000704,-0.002386,-1e-06,0.000611,0.020091,-0.529838,0.000485,-0.701257,-257.559044,-0.831371,66.867628
0.1972,0.019611,-0.019795,0.001465,-0.002514,-0.0,0.000722,0.020234,-0.52989,0.000704,-0.626376,-257.559044,-0.75649,66.867628
0.2175,0.019981,-0.020083,-0.000785,-0.002633,-1.3e-05,0.000372,0.020347,-0.529803,0.001396,-0.626376,-257.559044,-0.75649,66.867628
0.2371,0.019908,-0.02003,0.000686,-0.002736,-2.2e-05,0.000134,0.020347,-0.529803,0.001396,-0.626376,-257.559044,-0.75649,66.867628
0.2571,0.020009,-0.020162,0.001094,-0.002826,-2.9e-05,-2.5e-05,0.020258,-0.53003,0.000686,-0.551369,-257.559044,-0.681483,66.867628
0.2771,0.020171,-0.020409,-0.000414,-0.002898,-2.5e-05,0.000134,0.020384,-0.530084,0.000853,-0.551369,-257.559044,-0.681483,66.867628
0.2969,0.019754,-0.019827,-0.000572,-0.002961,-2.3e-05,0.000254,0.01996,-0.530409,-0.000414,-0.476379,-257.559044,-0.606493,66.867628
0.3174,0.019959,-0.020257,0.000124,-0.002996,-2e-06,0.001107,0.019503,-0.529875,-0.000559,-0.476379,-257.559044,-0.606493,66.867628
0.3372,0.019849,-0.020005,-0.000148,-0.003029,1.2e-05,0.001721,0.019503,-0.529875,-0.000559,-0.476379,-257.559044,-0.606493,66.867628
0.357,0.019648,-0.020252,-0.000527,-0.003059,2.2e-05,0.002165,0.019773,-0.530004,-0.000148,-0.401205,-257.559044,-0.53132,66.867628
0.3773,0.019484,-0.019898,0.000867,-0.003084,2.9e-05,0.002347,0.019611,-0.530106,-0.000304,-0.401205,-257.559044,-0.53132,66.867628
0.3969,0.01966,-0.020036,0.000706,-0.003106,3.3e-05,0.002482,0.019926,-0.529898,0.000867,-0.413905,-257.559045,-0.456372,66.867628
0.417,0.019763,-0.019685,0.000342,-0.003139,2.1e-05,0.002038,0.020013,-0.530024,0.00072,-0.413905,-257.559045,-0.456372,66.867628
0.4368,0.019507,-0.020052,-0.000439,-0.003167,1.2e-05,0.001723,0.020013,-0.530024,0.00072,-0.413905,-257.559045,-0.456372,66.867628
0.4569,0.019569,-0.019886,0.001176,-0.00319,6e-06,0.001501,0.019283,-0.530051,-0.000439,-0.462702,-257.559045,-0.381294,66.867628
0.477,0.019975,-0.020081,0.00078,-0.003202,1.1e-05,0.00161,0.019643,-0.529984,0.000217,-0.462702,-257.559045,-0.381294,66.867628
0.4968,0.020088,-0.019785,0.001111,-0.003212,1.4e-05,0.001689,0.020373,-0.53008,0.00078,-0.387888,-257.559045,-0.306479,66.867627
0.517,0.019787,-0.019871,0.00061,-0.003248,-1.1e-05,0.001305,0.020631,-0.52981,0.001083,-0.387888,-257.559045,-0.306479,66.867627
0.5369,0.019466,-0.020288,0.00034,-0.003277,-3e-05,0.001032,0.020631,-0.52981,0.001083,-0.387888,-257.559045,-0.306479,66.867627
0.557,0.019865,-0.020066,0.001144,-0.003302,-4.5e-05,0.000837,0.019639,-0.530288,0.00034,-0.31472,-257.559047,-0.231347,66.867625
0.5771,0.020007,-0.020227,0.001201,-0.0033,-3.5e-05,0.000905,0.019969,-0.530197,0.000667,-0.31472,-257.559047,-0.231347,66.867625
0.5969,0.019799,-0.020028,0.000968,-0.003298,-2.6e-05,0.000954,0.020614,-0.530225,0.001201,-0.239856,-257.559108,-0.156483,66.867565
0.6166,0.019775,-0.020063,0.001051,-0.003308,-3e-05,0.000826,0.02032,-0.530044,0.000988,-0.239856,-257.559108,-0.156483,66.867565
0.6371,0.019476,-0.020266,-0.000558,-0.003317,-3.3e-05,0.000736,0.02032,-0.530044,0.000988,-0.239856,-257.559108,-0.156483,66.867565
0.6569,0.019745,-0.019783,-2.6e-05,-0.003324,-3.5e-05,0.000672,0.019172,-0.530263,-0.000557,-0.167223,-257.559296,-0.081365,66.867375
0.6776,0.01977,-0.020073,0.001444,-0.003306,-1.2e-05,0.001337,0.019398,-0.530067,-0.00034,-0.167223,-257.559296,-0.081365,66.867375
0.6968,0.019691,-0.020146,0.001886,-0.003291,5e-06,0.001809,0.020458,-0.53007,0.001448,-0.112402,-257.559903,-0.006374,66.866767
0.7171,0.019771,-0.020499,0.002194,-0.003305,-1.8e-05,0.001075,0.020633,-0.530139,0.001848,-0.112402,-257.559903,-0.006374,66.866767
0.737,0.019594,-0.020215,0.001083,-0.003319,-3.6e-05,0.000545,0.020633,-0.530139,0.001848,-0.112402,-257.559903,-0.006374,66.866767
0.7569,0.019835,-0.019896,0.000804,-0.003331,-4.7e-05,0.000163,0.020134,-0.530214,0.001085,-0.187434,-257.560018,0.068657,66.866652
0.7771,0.019625,-0.020085,0.000644,-0.003332,-4.1e-05,0.000288,0.020178,-0.530083,0.000969,-0.187434,-257.560018,0.068657,66.866652
0.7969,0.019351,-0.019934,0.002123,-0.003333,-3.6e-05,0.000374,0.019889,-0.530083,0.000653,-0.112497,-257.560839,0.044097,66.86583
0.817,0.019717,-0.019851,0.001371,-0.003341,-4.6e-05,-2.2e-05,0.020381,-0.529946,0.001992,-0.112497,-257.560839,0.044097,66.86583
0.8369,0.019608,-0.019829,0.001634,-0.003347,-5.3e-05,-0.000305,0.020381,-0.529946,0.001992,-0.112497,-257.560839,0.044097,66.86583
0.8568,0.019371,-0.019919,0.001889,-0.003352,-5.7e-05,-0.000509,0.020311,-0.52983,0.001648,-0.057709,-257.562089,0.078995,66.864579
0.8769,0.019302,-0.020097,0.002087,-0.003356,-5.8e-05,-0.000554,0.020305,-0.529866,0.001748,-0.057709,-257.562089,0.078995,66.864579
0.8969,0.019424,-0.020098,0.00085,-0.00336,-5.9e-05,-0.000587,0.02032,-0.530097,0.002087,0.017386,-257.562676,0.0039,66.863994
0.9169,0.019261,-0.020155,0.001371,-0.003348,-4.2e-05,-0.000237,0.019896,-0.530097,0.000957,0.017386,-257.562676,0.0039,66.863994
0.9368,0.019324,-0.019914,0.001273,-0.003339,-2.9e-05,7e-06,0.019896,-0.530097,0.000957,0.017386,-257.562676,0.0039,66.863994
0.9567,0.019122,-0.02005,0.001329,-0.003333,-1.8e-05,0.000177,0.01987,-0.529915,0.001259,0.092399,-257.563661,-0.071113,66.863013
0.9769,0.018842,-0.019579,0.001563,-0.003328,-1.3e-05,0.000136,0.019829,-0.529971,0.001286,0.092399,-257.563661,-0.071113,66.863013
0.9966,0.019337,-0.019773,0.000318,-0.003324,-8e-06,0.000105,0.01957,-0.529579,0.001563,0.017373,-257.564537,0.003913,66.862135
1.0169,0.018785,-0.019926,0.001591,-0.003317,3e-06,0.000524,0.019502,-0.529757,0.000425,0.017373,-257.564537,0.003913,66.862135
1.0367,0.018897,-0.01967,3.4e-05,-0.003311,1.1e-05,0.00082,0.019502,-0.529757,0.000425,0.017373,-257.564537,0.003913,66.862135
1.0568,0.018694,-0.019683,0.000714,-0.003307,1.6e-05,0.001028,0.018779,-0.52967,3.9e-05,-0.017,-257.565835,0.021716,66.860838
1.0768,0.018694,-0.019983,0.001605,-0.003291,3.1e-05,0.001232,0.018878,-0.529675,0.000317,-0.017,-257.565835,0.021716,66.860838
1.097,0.018739,-0.02053,0.002129,-0.003277,4.2e-05,0.001377,0.019469,-0.529982,0.001611,-0.091963,-257.566376,0.096679,66.860298
1.1169,0.018777,-0.020247,0.003451,-0.003268,3.6e-05,0.00067,0.019791,-0.53048,0.002082,-0.091963,-257.566376,0.096679,66.860298
1.1368,0.01868,-0.019884,-8.3e-05,-0.003262,3.3e-05,0.00016,0.019791,-0.53048,0.002082,-0.091963,-257.566376,0.096679,66.860298
1.1568,0.018668,-0.020089,0.001294,-0.003257,3.3e-05,-0.000208,0.018575,-0.529884,-6.5e-05,-0.166854,-257.56699,0.17157,66.859687
1.1772,0.018551,-0.019989,0.001558,-0.003243,5.3e-05,0.000268,0.018885,-0.52997,0.000509,-0.166854,-257.56699,0.17157,66.859687
1.197,0.019024,-0.019906,0.000284,-0.003232,6.9e-05,0.000601,0.01932,-0.529989,0.001562,-0.091484,-257.567309,0.096201,66.859368
1.2171,0.018406,-0.020098,0.001457,-0.003232,7.4e-05,0.000893,0.019182,-0.529913,0.000401,-0.091484,-257.567309,0.096201,66.859368
1.2373,0.018582,-0.020152,0.000416,-0.003232,7.7e-05,0.001098,0.019182,-0.529913,0.000401,-0.091484,-257.567309,0.096201,66.859368
1.2568,0.018179,-0.020238,0.001207,-0.003231,8e-05,0.001242,0.018663,-0.530149,0.00044,-0.134008,-257.568579,0.092112,66.858104
1.2768,0.018431,-0.020006,0.001959,-0.003214,9.3e-05,0.001154,0.018702,-0.530185,0.000757,-0.134008,-257.568579,0.092112,66.858104
1.2967,0.018995,-0.019975,0.000958,-0.003201,0.000105,0.00109,0.019364,-0.530004,0.00198,-0.209194,-257.569437,0.167298,66.857256
1.3175,0.018024,-0.019707,0.001643,-0.003213,9.4e-05,0.000903,0.01947,-0.529978,0.001045,-0.209194,-257.569437,0.167298,66.857256
1.3371,0.018007,-0.020204,0.000605,-0.003222,8.6e-05,0.00077,0.01947,-0.529978,0.001045,-0.209194,-257.569437,0.167298,66.857256
1.3568,0.018187,-0.019923,0.001509,-0.00323,8e-05,0.000674,0.018184,-0.5302,0.00065,-0.236305,-257.570736,0.173497,66.855973
1.3769,0.018045,-0.019905,1.6e-05,-0.00321,9.6e-05,0.000621,0.018485,-0.530086,0.001007,-0.236305,-257.570736,0.173497,66.855973
1.397,0.017637,-0.020233,0.001363,-0.003195,0.00011,0.000583,0.017969,-0.529903,3.4e-05,-0.161374,-257.571809,0.102339,66.854907
1.4171,0.018079,-0.020091,0.002974,-0.003175,0.000125,0.000441,0.018295,-0.530202,0.001244,-0.161374,-257.571809,0.102339,66.854907
1.4375,0.017992,-0.019871,0.001293,-0.003159,0.000139,0.00034,0.018295,-0.530202,0.001244,-0.161374,-257.571809,0.102339,66.854907
1.4569,0.017923,-0.02026,0.001109,-0.003146,0.000151,0.000267,0.018519,-0.529866,0.001317,-0.14498,-257.573083,0.076845,66.853643
1.4772,0.017812,-0.019987,7.3e-05,-0.003143,0.000154,0.000221,0.018492,-0.530025,0.001235,-0.14498,-257.573083,0.076845,66.853643
1.4968,0.017775,-0.02001,0.000875,-0.003142,0.000158,0.000187,0.01776,-0.529983,8.1e-05,-0.099494,-257.574206,0.003975,66.852525
1.517,0.017468,-0.02008,0.001404,-0.003132,0.000169,0.000375,0.018178,-0.530007,0.000808,-0.099494,-257.574206,0.003975,66.852525
1.5367,0.017703,-0.019824,0.001063,-0.003125,0.000178,0.000508,0.018178,-0.530007,0.000808,-0.099494,-257.574206,0.003975,66.852525
1.557,0.017423,-0.020079,8.9e-05,-0.003119,0.000185,0.000602,0.018115,-0.529817,0.001071,-0.086334,-257.575456,-0.013747,66.851279
1.5768,0.017515,-0.020067,0.00124,-0.003107,0.000196,0.000741,0.017833,-0.529925,0.000666,-0.086334,-257.575456,-0.013747,66.851279
1.5973,0.017279,-0.019712,0.002208,-0.003097,0.000205,0.00084,0.018067,-0.530063,0.001254,-0.16125,-257.576482,0.058464,66.850268
1.6167,0.017495,-0.019605,0.000926,-0.003105,0.000187,0.000262,0.018371,-0.529742,0.002124,-0.16125,-257.576482,0.058464,66.850268
1.6371,0.017282,-0.019858,0.001576,-0.003111,0.000175,-0.000155,0.018371,-0.529742,0.002124,-0.16125,-257.576482,0.058464,66.850268
1.6573,0.0174,-0.019662,0.002692,-0.003117,0.000167,-0.000453,0.017968,-0.529849,0.001607,-0.227828,-257.577635,0.099039,66.849139
1.6775,0.017151,-0.019911,0.001996,-0.003119,0.000165,-0.00064,0.018284,-0.529771,0.002055,-0.227828,-257.577635,0.099039,66.849139
1.697,0.017228,-0.020103,0.001235,-0.00312,0.000163,-0.000774,0.018156,-0.52991,0.001998,-0.152836,-257.577795,0.024047,66.848977
1.7172,0.01755,-0.019959,0.001572,-0.003105,0.000182,-0.00054,0.017884,-0.530086,0.001304,-0.152836,-257.577795,0.024047,66.848977
1.7368,0.017247,-0.020042,0.001679,-0.003093,0.000197,-0.000377,0.017884,-0.530086,0.001304,-0.152836,-257.577795,0.024047,66.848977
1.757,0.017407,-0.019971,0.001956,-0.003083,0.000209,-0.000264,0.018082,-0.53004,0.001679,-0.077824,-257.577994,-0.050965,66.848775
1.7771,0.017154,-0.019524,0.00143,-0.003085,0.000206,-0.000402,0.018211,-0.530011,0.001792,-0.077824,-257.577994,-0.050965,66.848775
1.7967,0.017112,-0.020258,0.000169,-0.003087,0.000205,-0.0005,0.017798,-0.529518,0.001423,-0.015432,-257.579069,-0.11943,66.847693
1.817,0.016777,-0.019856,0.001566,-0.003058,0.000235,0.000181,0.017247,-0.530192,0.00028,-0.015432,-257.579069,-0.11943,66.847693
1.837,0.017402,-0.019985,0.000848,-0.003035,0.000259,0.000659,0.017247,-0.530192,0.00028,-0.015432,-257.579069,-0.11943,66.847693
1.8574,0.016984,-0.019753,0.001811,-0.003018,0.000276,0.000997,0.017714,-0.529977,0.000828,0.032643,-257.580223,-0.163739,66.846524
1.8773,0.016914,-0.019708,0.001706,-0.003026,0.000267,0.000753,0.017779,-0.529885,0.001224,0.032643,-257.580223,-0.163739,66.846524
1.8973,0.016746,-0.01966,0.000668,-0.003032,0.00026,0.000579,0.017779,-0.529707,0.001706,-0.042336,-257.580295,-0.08876,66.846454
1.9171,0.017016,-0.020204,0.00176,-0.003026,0.000267,0.000682,0.017149,-0.529664,0.000761,-0.042336,-257.580295,-0.08876,66.846454
1.9374,0.016695,-0.020254,0.000421,-0.003021,0.000273,0.000754,0.017149,-0.529664,0.000761,-0.042336,-257.580295,-0.08876,66.846454
1.9567,0.016753,-0.020074,0.001883,-0.003016,0.000277,0.000804,0.016841,-0.53025,0.000426,-0.117319,-257.580956,-0.013777,66.845806
1.977,0.017216,-0.019643,0.000746,-0.003003,0.000287,0.000707,0.01719,-0.530177,0.001022,-0.117319,-257.580956,-0.013777,66.845806
1.9968,0.016712,-0.020013,0.001935,-0.002993,0.000295,0.000637,0.017531,-0.529638,0.00076,-0.19232,-257.581795,0.061224,66.844992
2.017,0.016907,-0.019519,0.002309,-0.003,0.000282,0.000229,0.017681,-0.529978,0.00183,-0.19232,-257.581795,0.061224,66.844992
2.037,0.01647,-0.020072,-8e-06,-0.003007,0.000273,-6.4e-05,0.017681,-0.529978,0.00183,-0.19232,-257.581795,0.061224,66.844992
2.0572,0.016638,-0.019528,0.001429,-0.003012,0.000267,-0.000273,0.016344,-0.53006,1.8e-05,-0.224616,-257.582987,0.031606,66.843828
2.0771,0.01654,-0.0202,0.002993,-0.002994,0.000288,0.000169,0.016748,-0.52984,0.000598,-0.224616,-257.582987,0.031606,66.843828
2.0971,0.016458,-0.019607,0.001211,-0.002979,0.000303,0.000478,0.018034,-0.530194,0.002996,-0.149492,-257.583396,-0.043518,66.843415
2.1171,0.016316,-0.019954,0.00033,-0.002984,0.000298,0.000314,0.017159,-0.529659,0.001369,-0.149492,-257.583396,-0.043518,66.843415
2.1373,0.016771,-0.019881,0.002211,-0.002988,0.000295,0.000197,0.017159,-0.529659,0.001369,-0.149492,-257.583396,-0.043518,66.843415
2.1571,0.016346,-0.020013,0.000997,-0.002991,0.000293,0.000113,0.017781,-0.529868,0.00223,-0.197306,-257.584539,-0.003732,66.842295
2.1772,0.016597,-0.020127,0.001402,-0.002993,0.000289,-0.000107,0.01739,-0.529926,0.00173,-0.197306,-257.584539,-0.003732,66.842295
2.1972,0.016837,-0.020135,0.001061,-0.002995,0.000286,-0.000263,0.017232,-0.530119,0.001405,-0.122328,-257.585549,-0.074806,66.841289
2.2171,0.016032,-0.019936,0.000173,-0.00299,0.000294,-8.1e-05,0.01736,-0.530133,0.001092,-0.122328,-257.585549,-0.074806,66.841289
2.2373,0.016406,-0.020027,0.002834,-0.002987,0.0003,4.7e-05,0.01736,-0.530133,0.001092,-0.122328,-257.585549,-0.074806,66.841289
2.2571,0.016117,-0.02,0.002429,-0.002984,0.000305,0.000136,0.017748,-0.530015,0.002826,-0.047323,-257.586541,-0.147982,66.840287
2.2773,0.016314,-0.019934,0.002574,-0.002985,0.000289,-0.000438,0.017576,-0.530007,0.002663,-0.047323,-257.586541,-0.147982,66.840287
2.297,0.015781,-0.019702,0.001655,-0.002986,0.000279,-0.000852,0.017548,-0.529924,0.002577,-0.122324,-257.587532,-0.074064,66.839302
2.3172,0.015865,-0.019787,0.002484,-0.002974,0.000291,-0.000791,0.016704,-0.529721,0.001738,-0.122324,-257.587532,-0.074064,66.839302
2.3369,0.015923,-0.019517,0.002889,-0.002964,0.000302,-0.00075,0.016704,-0.529721,0.001738,-0.122324,-257.587532,-0.074064,66.839302
2.3569,0.015983,-0.02002,0.001781,-0.002956,0.000311,-0.000722,0.017359,-0.529511,0.002886,-0.047318,-257.587882,-0.14907,66.838941
2.3773,0.016121,-0.019816,0.002116,-0.00296,0.000303,-0.000979,0.017164,-0.529718,0.002436,-0.047318,-257.587882,-0.14907,66.838941
2.3972,0.016007,-0.019915,0.002297,-0.002964,0.000297,-0.001163,0.01713,-0.529807,0.002101,0.027679,-257.588764,-0.224067,66.838031
2.4177,0.015937,-0.019978,0.001064,-0.002964,0.000298,-0.001233,0.017169,-0.529902,0.002276,0.027679,-257.588764,-0.224067,66.838031
2.4369,0.015807,-0.019676,0.001745,-0.002964,0.000299,-0.001283,0.017169,-0.529902,0.002276,0.027679,-257.588764,-0.224067,66.838031
2.4567,0.01593,-0.019677,0.002415,-0.002964,0.0003,-0.001319,0.01661,-0.529666,0.001715,0.102677,-257.589594,-0.299065,66.837163
2.4769,0.016157,-0.019867,0.001286,-0.002961,0.000307,-0.001235,0.016828,-0.529669,0.002001,0.102677,-257.589594,-0.299065,66.837163
2.4971,0.015851,-0.019892,0.001355,-0.002958,0.000312,-0.001175,0.016729,-0.529858,0.001249,0.16883,-257.590656,-0.357161,66.836046
2.5174,0.015663,-0.019948,0.00117,-0.002944,0.00033,-0.00084,0.016554,-0.529889,0.001344,0.16883,-257.590656,-0.357161,66.836046
2.5373,0.015793,-0.019613,0.003176,-0.002932,0.000343,-0.000606,0.016554,-0.529889,0.001344,0.16883,-257.590656,-0.357161,66.836046
2.5572,0.015617,-0.020027,0.002433,-0.002922,0.000354,-0.000443,0.017292,-0.529598,0.003128,0.136423,-257.591821,-0.334981,66.834823
2.5773,0.015599,-0.019922,-0.00018,-0.002927,0.000338,-0.000915,0.0171,-0.529773,0.002837,0.136423,-257.591821,-0.334981,66.834823
2.5976,0.015302,-0.019842,0.001375,-0.002931,0.000325,-0.001254,0.015461,-0.529917,-0.000193,0.061424,-257.592409,-0.259982,66.834222
2.6172,0.01561,-0.019624,0.001215,-0.002905,0.000353,-0.000838,0.015953,-0.529848,0.001235,0.061424,-257.592409,-0.259982,66.834222
2.6374,0.015605,-0.019612,-0.000383,-0.002885,0.000375,-0.000549,0.015953,-0.529848,0.001235,0.061424,-257.592409,-0.259982,66.834222
2.6574,0.015204,-0.019514,0.000655,-0.002868,0.000392,-0.000347,0.015315,-0.529602,-0.000421,0.136387,-257.593311,-0.334945,66.833271
2.6774,0.015124,-0.020038,-0.000185,-0.002842,0.00042,0.000439,0.015395,-0.529565,1.3e-05,0.136387,-257.593311,-0.334945,66.833271
2.6973,0.015394,-0.019728,0.000801,-0.002821,0.00044,0.000992,0.014993,-0.530034,-0.000195,0.061447,-257.593779,-0.260005,66.832794
2.7168,0.015417,-0.019596,0.001984,-0.002813,0.000446,0.001007,0.015726,-0.529756,0.000709,0.061447,-257.593779,-0.260005,66.832794
2.7372,0.015348,-0.019718,0.000495,-0.002807,0.000452,0.001015,0.015726,-0.529756,0.000709,0.061447,-257.593779,-0.260005,66.832794
2.7569,0.015348,-0.01981,-0.000589,-0.002802,0.000456,0.00102,0.015599,-0.529718,0.000495,-0.013526,-257.593792,-0.185032,66.832781
2.7773,0.015306,-0.019704,0.001627,-0.002786,0.000469,0.001373,0.015376,-0.529755,5.8e-05,-0.013526,-257.593792,-0.185032,66.832781
2.7967,0.01527,-0.019745,0.002078,-0.002773,0.000478,0.001622,0.016131,-0.529702,0.001627,-0.088524,-257.593851,-0.110034,66.832726
2.8174,0.015657,-0.02004,-0.000555,-0.002788,0.000452,0.000871,0.016312,-0.52974,0.002039,-0.088524,-257.593851,-0.110034,66.832726
2.8375,0.015272,-0.019534,0.000423,-0.002802,0.000432,0.000328,0.016312,-0.52974,0.002039,-0.088524,-257.593851,-0.110034,66.832726
2.8571,0.015521,-0.019431,0.001761,-0.002815,0.000419,-6.5e-05,0.015486,-0.529534,0.000424,-0.163622,-257.593874,-0.034937,66.832705
2.8771,0.015034,-0.020014,0.000487,-0.002818,0.000423,0.000133,0.015866,-0.529492,0.000968,-0.163622,-257.593874,-0.034937,66.832705
2.8969,0.015522,-0.019757,0.000881,-0.002821,0.000426,0.000269,0.015213,-0.530005,0.000488,-0.134043,-257.594738,-0.109973,66.831837
2.9171,0.015476,-0.019685,0.002297,-0.002817,0.000432,0.000424,0.0159,-0.529779,0.000846,-0.134043,-257.594738,-0.109973,66.831837
2.9372,0.01535,-0.019856,-0.000353,-0.002815,0.000437,0.000532,0.0159,-0.529779,0.000846,-0.134043,-257.594738,-0.109973,66.831837
2.957,0.014819,-0.019935,0.001021,-0.002813,0.000441,0.000606,0.015062,-0.52984,-0.000343,-0.206309,-257.595793,-0.092394,66.830801
2.9772,0.014796,-0.019527,0.001647,-0.002787,0.000463,0.000992,0.015163,-0.529877,0.000214,-0.206309,-257.595793,-0.092394,66.830801
2.997,0.015253,-0.019593,0.002737,-0.002765,0.00048,0.001265,0.015559,-0.529515,0.001664,-0.280597,-257.596792,-0.025074,66.829841
3.0169,0.015554,-0.020007,0.000558,-0.002787,0.000443,0.000404,0.016551,-0.529584,0.002645,-0.280597,-257.596792,-0.025074,66.829841
3.0369,0.014774,-0.019787,0.000383,-0.002808,0.000416,-0.000223,0.016551,-0.529584,0.002645,-0.280597,-257.596792,-0.025074,66.829841
3.057,0.014972,-0.01985,0.001219,-0.002825,0.000396,-0.000678,0.014906,-0.529776,0.000405,-0.355721,-257.59745,0.050051,66.829237
3.077,0.014864,-0.019889,0.002232,-0.002797,0.000425,-0.000174,0.015179,-0.529805,0.00074,-0.355721,-257.59745,0.050051,66.829237
3.097,0.014811,-0.019377,0.000611,-0.002776,0.000449,0.000175,0.016001,-0.529887,0.002233,-0.280849,-257.597473,-0.024821,66.829214
3.1173,0.014872,-0.0199,0.001101,-0.002768,0.000461,0.000409,0.015202,-0.529423,0.000757,-0.280849,-257.597473,-0.024821,66.829214
3.137,0.015071,-0.019473,0.001032,-0.002763,0.00047,0.000571,0.015202,-0.529423,0.000757,-0.280849,-257.597473,-0.024821,66.829214
3.157,0.014657,-0.019763,0.004251,-0.002758,0.000477,0.000683,0.015508,-0.529459,0.00104,-0.205753,-257.598343,-0.099918,66.828355
3.1773,0.014959,-0.019697,0.001778,-0.002772,0.000455,7.1e-05,0.016038,-0.52958,0.002359,-0.205753,-257.598343,-0.099918,66.828355
3.197,0.014992,-0.019865,0.000457,-0.002783,0.000439,-0.000372,0.0158,-0.529686,0.001792,-0.280763,-257.599214,-0.024908,66.827526
3.2169,0.01477,-0.019683,-0.000304,-0.002766,0.00046,0.000118,0.015275,-0.529848,0.000581,-0.280763,-257.599214,-0.024908,66.827526
3.237,0.014485,-0.01992,0.001471,-0.002753,0.000476,0.00046,0.015275,-0.529848,0.000581,-0.280763,-257.599214,-0.024908,66.827526
3.257,0.014527,-0.019422,0.00232,-0.002742,0.000489,0.000698,0.015206,-0.529915,0.001474,-0.205873,-257.599493,-0.099798,66.82724
3.277,0.014332,-0.019652,0.001838,-0.002741,0.000484,0.000284,0.015407,-0.529715,0.001816,-0.205873,-257.599493,-0.099798,66.82724
3.2966,0.014364,-0.020054,0.001546,-0.00274,0.000483,-1.3e-05,0.015205,-0.529641,0.001852,-0.280872,-257.600339,-0.024798,66.826437
3.3172,0.014699,-0.019553,0.002884,-0.002725,0.000494,-0.000125,0.015154,-0.530016,0.001574,-0.280872,-257.600339,-0.024798,66.826437
3.3371,0.014699,-0.019528,0.001476,-0.002713,0.000504,-0.000207,0.015154,-0.530016,0.001574,-0.280872,-257.600339,-0.024798,66.826437
3.3574,0.014911,-0.019527,0.002103,-0.002703,0.000513,-0.000266,0.015386,-0.529518,0.001482,-0.205865,-257.600971,-0.099805,66.825804
3.3774,0.014514,-0.019425,0.000697,-0.002719,0.000502,-0.000376,0.015622,-0.52952,0.001735,-0.205865,-257.600971,-0.099805,66.825804
3.3974,0.014158,-0.019387,0.001419,-0.002732,0.000493,-0.000456,0.014813,-0.529417,0.000695,-0.130878,-257.60168,-0.174792,66.825079
3.4174,0.014374,-0.019434,0.000906,-0.002723,0.000503,-0.000344,0.014872,-0.529389,0.001356,-0.130878,-257.60168,-0.174792,66.825079
3.4371,0.014241,-0.019764,0.000838,-0.002716,0.000511,-0.000266,0.014872,-0.529389,0.001356,-0.130878,-257.60168,-0.174792,66.825079
3.4572,0.014358,-0.019419,0.000978,-0.00271,0.000517,-0.000212,0.014575,-0.529748,0.000825,-0.078345,-257.602572,-0.249911,66.824155
3.4771,0.014259,-0.019348,0.001023,-0.002694,0.000533,5.8e-05,0.014679,-0.529612,0.000885,-0.078345,-257.602572,-0.249911,66.824155
3.4967,0.014297,-0.019575,0.00096,-0.002681,0.000545,0.000246,0.014701,-0.529332,0.001017,-0.142229,-257.603594,-0.234177,66.823115
3.5167,0.014372,-0.019538,0.001399,-0.002675,0.000551,0.000339,0.014775,-0.529553,0.000965,-0.142229,-257.603594,-0.234177,66.823115
3.537,0.014195,-0.019617,0.001602,-0.002671,0.000555,0.000404,0.014775,-0.529553,0.000965,-0.142229,-257.603594,-0.234177,66.823115
3.5573,0.014117,-0.019488,0.001722,-0.002667,0.000559,0.00045,0.014931,-0.529601,0.001606,-0.217253,-257.604396,-0.159153,66.822331
3.5773,0.013779,-0.019666,0.002366,-0.00267,0.000552,0.000164,0.014948,-0.529553,0.001654,-0.217253,-257.604396,-0.159153,66.822331
3.5972,0.014089,-0.019611,0.000485,-0.002672,0.000547,-3.9e-05,0.014913,-0.52965,0.002377,-0.292284,-257.605346,-0.106039,66.821419
3.617,0.013955,-0.019684,0.002417,-0.002654,0.000564,0.0003,0.014384,-0.529614,0.000653,-0.292284,-257.605346,-0.106039,66.821419
3.6372,0.013889,-0.019619,0.001993,-0.002639,0.000577,0.000538,0.014384,-0.529614,0.000653,-0.292284,-257.605346,-0.106039,66.821419
3.6572,0.013743,-0.019399,0.002007,-0.002627,0.000587,0.000705,0.014825,-0.529602,0.001995,-0.217275,-257.606126,-0.181048,66.820637
3.6773,0.013526,-0.019612,0.001483,-0.002631,0.000574,0.000211,0.014792,-0.529517,0.002,-0.217275,-257.606126,-0.181048,66.820637
3.697,0.013518,-0.019543,0.000667,-0.002635,0.000566,-0.000144,0.014236,-0.529602,0.001491,-0.292122,-257.606737,-0.106201,66.820065
3.7172,0.013879,-0.019661,0.002612,-0.002609,0.000589,0.000183,0.01389,-0.529547,0.000743,-0.292122,-257.606737,-0.106201,66.820065
3.7371,0.013496,-0.019929,0.00108,-0.002588,0.000607,0.000411,0.01389,-0.529547,0.000743,-0.292122,-257.606737,-0.106201,66.820065
3.7574,0.013572,-0.019666,0.001623,-0.002571,0.000621,0.000571,0.01398,-0.529915,0.001082,-0.217119,-257.607384,-0.181205,66.81941
3.7774,0.01353,-0.019711,0.001246,-0.002561,0.000626,0.000408,0.014142,-0.529812,0.001301,-0.217119,-257.607384,-0.181205,66.81941
3.7971,0.013622,-0.019559,0.000926,-0.002552,0.000632,0.000292,0.014111,-0.529699,0.001255,-0.292105,-257.608104,-0.106218,66.818732
3.8175,0.013541,-0.019208,0.000944,-0.002548,0.000637,0.000376,0.014093,-0.529571,0.000957,-0.292105,-257.608104,-0.106218,66.818732
3.837,0.013956,-0.019292,0.002555,-0.002545,0.000641,0.000435,0.014093,-0.529571,0.000957,-0.292105,-257.608104,-0.106218,66.818732
3.857,0.01334,-0.019363,0.003323,-0.002542,0.000644,0.000476,0.01516,-0.529266,0.002567,-0.307415,-257.609092,-0.175827,66.817776
3.8769,0.013752,-0.01932,0.000673,-0.00257,0.000607,-0.000253,0.015098,-0.529301,0.002875,-0.307415,-257.609092,-0.175827,66.817776
3.8974,0.013093,-0.019182,0.00038,-0.002593,0.000579,-0.000783,0.014019,-0.529301,0.000688,-0.352401,-257.610117,-0.137986,66.816804
3.9175,0.013183,-0.019434,0.001776,-0.002562,0.00061,-7.5e-05,0.01335,-0.529192,0.000409,-0.352401,-257.610117,-0.137986,66.816804
3.9371,0.013212,-0.019467,0.002395,-0.002538,0.000633,0.000419,0.01335,-0.529192,0.000409,-0.352401,-257.610117,-0.137986,66.816804
3.9568,0.013393,-0.01919,0.001853,-0.00252,0.000651,0.000764,0.014426,-0.529463,0.002396,-0.2774,-257.610194,-0.212987,66.816721
3.9771,0.013272,-0.019465,0.001556,-0.002533,0.000632,0.000198,0.014389,-0.529351,0.002174,-0.2774,-257.610194,-0.212987,66.816721
3.9968,0.013322,-0.0192,0.00134,-0.002545,0.000619,-0.00021,0.014023,-0.529453,0.001564,-0.352398,-257.610781,-0.137989,66.816183
4.0167,0.013139,-0.019356,0.003234,-0.002548,0.000622,-0.000161,0.014005,-0.529222,0.001361,-0.352398,-257.610781,-0.137989,66.816183
4.037,0.013119,-0.019659,0.000215,-0.002549,0.000625,-0.00013,0.014005,-0.529222,0.001361,-0.352398,-257.610781,-0.137989,66.816183
4.0568,0.01346,-0.019346,0.001514,-0.002551,0.000627,-0.00011,0.013179,-0.529647,0.000218,-0.277406,-257.611261,-0.212981,66.815692
4.077,0.013363,-0.01954,0.001437,-0.002531,0.000645,0.000209,0.013599,-0.529524,0.000742,-0.277406,-257.611261,-0.212981,66.815692
4.0972,0.012972,-0.018999,0.002478,-0.002516,0.000659,0.000431,0.014023,-0.529522,0.001434,-0.215866,-257.612203,-0.265708,66.814738
4.1176,0.012934,-0.01937,0.002269,-0.002531,0.000637,-0.000127,0.014214,-0.529041,0.00239,-0.215866,-257.612203,-0.265708,66.814738
4.137,0.012864,-0.019498,0.000615,-0.002544,0.000621,-0.000528,0.014214,-0.529041,0.00239,-0.215866,-257.612203,-0.265708,66.814738
4.1571,0.012858,-0.019132,6.9e-05,-0.002555,0.00061,-0.000817,0.013113,-0.529482,0.000621,-0.291035,-257.612861,-0.190539,66.814113
4.1774,0.012822,-0.019363,0.001119,-0.002517,0.000644,-9.4e-05,0.013015,-0.529335,0.000394,-0.291035,-257.612861,-0.190539,66.814113
4.197,0.01299,-0.019547,0.001014,-0.002487,0.000671,0.000412,0.013379,-0.529359,0.001119,-0.21608,-257.613036,-0.265495,66.813923
4.2168,0.012813,-0.019183,0.001375,-0.002477,0.000681,0.000437,0.013495,-0.529531,0.001023,-0.21608,-257.613036,-0.265495,66.813923
4.2368,0.013192,-0.019248,0.002336,-0.002469,0.000689,0.000453,0.013495,-0.529531,0.001023,-0.21608,-257.613036,-0.265495,66.813923
4.2567,0.012703,-0.019082,0.0004,-0.002462,0.000695,0.000462,0.014317,-0.52923,0.002342,-0.291087,-257.6137,-0.190487,66.813291
4.2769,0.012838,-0.019261,0.002749,-0.002474,0.000685,0.000223,0.013735,-0.529168,0.001551,-0.291087,-257.6137,-0.190487,66.813291
4.2968,0.012808,-0.019498,0.001157,-0.002483,0.000678,5.1e-05,0.01417,-0.529241,0.002761,-0.365954,-257.614632,-0.166282,66.812413
4.3171,0.012973,-0.019637,0.000435,-0.002474,0.000686,4.3e-05,0.013461,-0.529475,0.001296,-0.365954,-257.614632,-0.166282,66.812413
4.3369,0.012647,-0.019535,0.001794,-0.002466,0.000692,3.6e-05,0.013461,-0.529475,0.001296,-0.365954,-257.614632,-0.166282,66.812413
4.3568,0.012858,-0.019436,0.001753,-0.00246,0.000697,3e-05,0.013481,-0.529512,0.001798,-0.29086,-257.615438,-0.241376,66.811612
4.3768,0.01252,-0.019492,0.001459,-0.002459,0.000695,-0.000189,0.013583,-0.529478,0.00178,-0.29086,-257.615438,-0.241376,66.811612
4.3966,0.012491,-0.019576,0.000807,-0.002458,0.000694,-0.000345,0.013187,-0.529469,0.00146,-0.283043,-257.616447,-0.269341,66.810607
4.4169,0.012735,-0.019113,0.001132,-0.002432,0.000715,-2.6e-05,0.012924,-0.529565,0.000866,-0.283043,-257.616447,-0.269341,66.810607
4.4368,0.012553,-0.019425,0.001359,-0.002411,0.000732,0.000197,0.012924,-0.529565,0.000866,-0.283043,-257.616447,-0.269341,66.810607
4.4566,0.012299,-0.019202,0.001791,-0.002394,0.000745,0.000354,0.013165,-0.529402,0.001349,-0.208172,-257.617237,-0.344213,66.809781
4.4766,0.011974,-0.019183,0.000984,-0.002396,0.000742,0.00015,0.013175,-0.529318,0.001528,-0.208172,-257.617237,-0.344213,66.809781
4.4968,0.01259,-0.019158,0.001363,-0.002396,0.00074,4e-06,0.012439,-0.529173,0.000985,-0.283166,-257.617729,-0.269219,66.809314
4.517,0.011962,-0.018833,0.002018,-0.002401,0.000737,-8e-06,0.013206,-0.529158,0.001328,-0.283166,-257.617729,-0.269219,66.809314
4.5369,0.012723,-0.019046,0.000732,-0.002405,0.000736,-1.7e-05,0.013206,-0.529158,0.001328,-0.283166,-257.617729,-0.269219,66.809314
4.557,0.012276,-0.019009,0.003,-0.002409,0.000735,-2.4e-05,0.012998,-0.529016,0.000733,-0.300323,-257.618715,-0.298385,66.808328
4.5773,0.01227,-0.018988,0.00213,-0.002418,0.000726,-0.000176,0.013316,-0.529008,0.001657,-0.300323,-257.618715,-0.298385,66.808328
4.5971,0.012283,-0.018935,0.001082,-0.002426,0.00072,-0.000284,0.01328,-0.528963,0.002129,-0.290365,-257.61972,-0.301609,66.80732
4.6174,0.012142,-0.019413,0.001429,-0.002418,0.000728,-0.000139,0.01287,-0.528936,0.001173,-0.290365,-257.61972,-0.301609,66.80732
4.6372,0.012391,-0.019244,0.001215,-0.002412,0.000734,-3.7e-05,0.01287,-0.528936,0.001173,-0.290365,-257.61972,-0.301609,66.80732
4.6569,0.012391,-0.018944,-6e-06,-0.002407,0.000739,3.4e-05,0.012921,-0.529217,0.001204,-0.221395,-257.620602,-0.352852,66.806403
4.6773,0.012075,-0.019027,-0.000471,-0.002392,0.000751,0.000319,0.012693,-0.529102,0.000709,-0.221395,-257.620602,-0.352852,66.806403
4.697,0.011788,-0.019409,0.001761,-0.00238,0.00076,0.00052,0.01177,-0.529008,-0.00047,-0.296247,-257.621452,-0.289822,66.805557
4.7173,0.012354,-0.019361,0.001669,-0.002363,0.000766,0.000245,0.012607,-0.529374,0.001577,-0.296247,-257.621452,-0.289822,66.805557
4.7368,0.012075,-0.019075,-0.000487,-0.002348,0.000772,4.8e-05,0.012607,-0.529374,0.001577,-0.296247,-257.621452,-0.289822,66.805557
4.7569,0.01171,-0.019077,0.001569,-0.002336,0.000778,-9.2e-05,0.011762,-0.529055,-0.000477,-0.371701,-257.622117,-0.214368,66.804941
4.7768,0.011751,-0.019158,0.002932,-0.002311,0.000798,0.00042,0.01206,-0.529061,0.000358,-0.371701,-257.622117,-0.214368,66.804941
4.7966,0.011689,-0.01924,0.000167,-0.002292,0.000813,0.00078,0.013194,-0.529139,0.002932,-0.299633,-257.62281,-0.28892,66.804238
4.8169,0.01185,-0.018923,0.000956,-0.002266,0.00083,0.001016,0.011886,-0.529231,0.000389,-0.299633,-257.62281,-0.28892,66.804238
4.8368,0.011969,-0.018569,0.000423,-0.002245,0.000843,0.001183,0.011886,-0.529231,0.000389,-0.299633,-257.62281,-0.28892,66.804238
4.8567,0.012053,-0.019073,0.002654,-0.002228,0.000853,0.001301,0.012151,-0.528559,0.000429,-0.3749,-257.623173,-0.213653,66.803918
4.8768,0.011638,-0.019071,0.001971,-0.002254,0.000831,0.000916,0.01266,-0.528767,0.001338,-0.3749,-257.623173,-0.213653,66.803918
4.8967,0.01196,-0.018523,0.002492,-0.002276,0.000814,0.000641,0.012629,-0.529066,0.001975,-0.449658,-257.62338,-0.138895,66.803751
4.9167,0.011396,-0.019132,0.001975,-0.002311,0.000778,8e-06,0.013176,-0.52857,0.002446,-0.449658,-257.62338,-0.138895,66.803751
4.9368,0.011953,-0.018992,0.000905,-0.00234,0.000751,-0.00045,0.013176,-0.52857,0.002446,-0.449658,-257.62338,-0.138895,66.803751
4.9567,0.011862,-0.018981,0.002284,-0.002365,0.000731,-0.00078,0.012325,-0.52896,0.000931,-0.48708,-257.624356,-0.183517,66.802874
4.9772,0.012084,-0.018978,0.001571,-0.002358,0.000742,-0.000625,0.012602,-0.528964,0.001488,-0.48708,-257.624356,-0.183517,66.802874
4.9967,0.011281,-0.018923,0.001602,-0.002352,0.000751,-0.000519,0.012884,-0.528976,0.001572,-0.412073,-257.624379,-0.258524,66.802848
5.017,0.0121,-0.018509,0.001107,-0.002332,0.000766,-0.000498,0.012165,-0.528927,0.0016,-0.412073,-257.624379,-0.258524,66.802848
5.0367,0.011763,-0.018677,0.002438,-0.002316,0.000778,-0.000485,0.012165,-0.528927,0.0016,-0.412073,-257.624379,-0.258524,66.802848
5.0568,0.011446,-0.01908,0.002178,-0.002304,0.000788,-0.000477,0.01298,-0.528666,0.002437,-0.336932,-257.624638,-0.333664,66.802568
5.0767,0.011648,-0.019076,0.001756,-0.002316,0.000775,-0.000767,0.012803,-0.528834,0.002331,-0.336932,-257.624638,-0.333664,66.802568
5.0976,0.011432,-0.019201,0.002049,-0.002327,0.000766,-0.000973,0.012495,-0.529058,0.001749,-0.262076,-257.625256,-0.40852,66.801902
5.1174,0.011686,-0.018534,0.002368,-0.002318,0.000773,-0.001001,0.012476,-0.529187,0.002023,-0.262076,-257.625256,-0.40852,66.801902
5.1369,0.011527,-0.019222,0.002371,-0.002311,0.000779,-0.001022,0.012476,-0.529187,0.002023,-0.262076,-257.625256,-0.40852,66.801902
5.157,0.011643,-0.019099,7.1e-05,-0.002305,0.000785,-0.001037,0.012692,-0.529205,0.002358,-0.186982,-257.625673,-0.483614,66.801419
5.1772,0.011441,-0.018881,0.00191,-0.002293,0.000798,-0.000783,0.012273,-0.52916,0.00142,-0.186982,-257.625673,-0.483614,66.801419
5.1967,0.010998,-0.019092,0.000445,-0.002284,0.000808,-0.000606,0.012361,-0.528861,0.001888,-0.111981,-257.626352,-0.551554,66.800624
5.217,0.01171,-0.018901,0.000281,-0.002241,0.000839,-4.8e-05,0.011315,-0.529072,0.000561,-0.111981,-257.626352,-0.551554,66.800624
5.2367,0.011266,-0.019162,-3.7e-05,-0.002207,0.000864,0.000343,0.011315,-0.529072,0.000561,-0.111981,-257.626352,-0.551554,66.800624
5.2571,0.011598,-0.018906,0.000616,-0.00218,0.000883,0.000617,0.011169,-0.529134,-5.8e-05,-0.187157,-257.62712,-0.476378,66.799775
5.2769,0.011412,-0.019032,0.00162,-0.002164,0.000895,0.000998,0.011463,-0.529038,0.000214,-0.187157,-257.62712,-0.476378,66.799775
5.2972,0.010826,-0.018657,0.000827,-0.002151,0.000904,0.001268,0.012234,-0.52903,0.00162,-0.261887,-257.627179,-0.401648,66.799723
5.3169,0.011071,-0.019015,0.001605,-0.002145,0.000904,0.001098,0.011338,-0.528691,0.0009,-0.261887,-257.627179,-0.401648,66.799723
5.3367,0.01133,-0.018762,-0.000317,-0.00214,0.000905,0.000976,0.011338,-0.528691,0.0009,-0.261887,-257.627179,-0.401648,66.799723
5.3573,0.011283,-0.01887,5.4e-05,-0.002136,0.000906,0.000889,0.011167,-0.528762,-0.000317,-0.336895,-257.62719,-0.32664,66.799714
5.3768,0.011333,-0.01897,0.001511,-0.002125,0.000916,0.001398,0.011226,-0.528807,-0.000164,-0.336895,-257.62719,-0.32664,66.799714
5.3971,0.011367,-0.01865,0.000455,-0.002116,0.000922,0.001758,0.012088,-0.528964,0.001513,-0.41202,-257.627423,-0.251515,66.799519
5.4172,0.011272,-0.018717,0.000892,-0.00213,0.000912,0.001631,0.01164,-0.528676,0.000544,-0.41202,-257.627423,-0.251515,66.799519
5.4369,0.01119,-0.018352,0.001033,-0.002141,0.000903,0.00154,0.01164,-0.528676,0.000544,-0.41202,-257.627423,-0.251515,66.799519
5.4566,0.01127,-0.018915,0.001802,-0.00215,0.000897,0.001475,0.011714,-0.528351,0.001034,-0.487024,-257.627454,-0.176511,66.799497
5.477,0.011436,-0.018573,0.002077,-0.002171,0.000878,0.001038,0.011908,-0.528581,0.001349,-0.487024,-257.627454,-0.176511,66.799497
5.4966,0.011102,-0.018837,0.00159,-0.002188,0.000863,0.000725,0.012474,-0.528564,0.002087,-0.561887,-257.627786,-0.101647,66.799241
5.5175,0.011056,-0.018981,-0.000359,-0.002198,0.000853,0.000377,0.011957,-0.528814,0.00163,-0.561887,-257.627786,-0.101647,66.799241
5.5368,0.011123,-0.018955,0.001072,-0.002206,0.000846,0.000127,0.011957,-0.528814,0.00163,-0.561887,-257.627786,-0.101647,66.799241
5.5569,0.011135,-0.018923,0.001733,-0.002212,0.000842,-5.3e-05,0.01159,-0.528924,0.0011,-0.538285,-257.628675,-0.176889,66.798464
5.5771,0.010959,-0.018629,0.002649,-0.002207,0.000847,-6.1e-05,0.011755,-0.52892,0.00136,-0.538285,-257.628675,-0.176889,66.798464
5.597,0.011183,-0.018972,-8.2e-05,-0.002202,0.000852,-6.9e-05,0.012289,-0.528619,0.002652,-0.463496,-257.628958,-0.251679,66.798179
5.6167,0.01101,-0.018795,0.002033,-0.002176,0.000874,0.000552,0.011237,-0.528942,0.000148,-0.463496,-257.628958,-0.251679,66.798179
5.6371,0.011289,-0.018645,0.000448,-0.002156,0.000891,0.00099,0.011237,-0.528942,0.000148,-0.463496,-257.628958,-0.251679,66.798179
5.6568,0.010971,-0.018927,0.002265,-0.002139,0.000902,0.001299,0.01146,-0.528624,0.00045,-0.388348,-257.629534,-0.326826,66.797595
5.6774,0.011088,-0.018588,0.00189,-0.002151,0.000891,0.00098,0.011727,-0.528745,0.001196,-0.388348,-257.629534,-0.326826,66.797595
5.6966,0.010925,-0.01864,-0.000209,-0.002161,0.000883,0.000752,0.012046,-0.528585,0.001891,-0.46321,-257.629621,-0.251964,66.797527
5.717,0.010741,-0.018923,0.000791,-0.002138,0.0009,0.001223,0.010929,-0.528635,-1.9e-05,-0.46321,-257.629621,-0.251964,66.797527
5.7372,0.010965,-0.018799,6.1e-05,-0.002119,0.000913,0.001555,0.010929,-0.528635,-1.9e-05,-0.46321,-257.629621,-0.251964,66.797527
5.7576,0.011053,-0.01883,0.002399,-0.002104,0.000922,0.00179,0.010921,-0.528769,8.6e-05,-0.53817,-257.630465,-0.193347,66.796797
5.7769,0.010803,-0.018391,7.2e-05,-0.002111,0.000912,0.001402,0.011475,-0.52879,0.001049,-0.53817,-257.630465,-0.193347,66.796797
5.797,0.010974,-0.01856,0.001681,-0.002118,0.000906,0.001124,0.01083,-0.528387,7.7e-05,-0.613511,-257.630615,-0.118006,66.796688
5.8174,0.010829,-0.017914,0.000782,-0.002139,0.000888,0.000701,0.011746,-0.528545,0.001546,-0.613511,-257.630615,-0.118006,66.796688
5.8375,0.01073,-0.018205,0.002493,-0.002156,0.000875,0.000397,0.011746,-0.528545,0.001546,-0.613511,-257.630615,-0.118006,66.796688
5.8569,0.01027,-0.018674,0.002017,-0.00217,0.000865,0.000179,0.011914,-0.528166,0.002539,-0.644695,-257.631653,-0.103152,66.795854
5.8775,0.011051,-0.018919,0.001959,-0.002178,0.000852,-0.000293,0.011659,-0.528364,0.002336,-0.644695,-257.631653,-0.103152,66.795854
5.8971,0.010594,-0.018659,0.001121,-0.002185,0.000843,-0.000632,0.012038,-0.528913,0.001963,-0.569849,-257.631832,-0.177998,66.795681
5.917,0.010817,-0.018907,0.003008,-0.00217,0.000859,-0.000388,0.011244,-0.528681,0.001197,-0.569849,-257.631832,-0.177998,66.795681
5.9371,0.010384,-0.018605,-0.000223,-0.002157,0.000873,-0.000219,0.011244,-0.528681,0.001197,-0.569849,-257.631832,-0.177998,66.795681
5.9568,0.010861,-0.018414,0.001,-0.002147,0.000883,-0.000102,0.010268,-0.528604,-0.000222,-0.494844,-257.631848,-0.253003,66.795663
5.9772,0.010597,-0.018703,0.000956,-0.00212,0.000906,0.000463,0.010713,-0.528527,0.000271,-0.494844,-257.631848,-0.253003,66.795663
5.9967,0.010867,-0.01867,0.00115,-0.002098,0.000923,0.000859,0.01105,-0.52869,0.000959,-0.419866,-257.63231,-0.327981,66.795192
6.0167,0.010539,-0.01861,0.001176,-0.002107,0.000916,0.000695,0.011415,-0.528671,0.001133,-0.419866,-257.63231,-0.327981,66.795192
6.0371,0.010727,-0.018735,0.000538,-0.002115,0.000912,0.000577,0.011415,-0.528671,0.001133,-0.419866,-257.63231,-0.327981,66.795192
6.0568,0.010712,-0.01823,0.001617,-0.00212,0.000909,0.000492,0.010964,-0.52872,0.000548,-0.494908,-257.63274,-0.252939,66.794831
6.0767,0.010625,-0.018627,7.5e-05,-0.002119,0.000911,0.000508,0.011187,-0.528523,0.000975,-0.494908,-257.63274,-0.252939,66.794831
6.0971,0.010044,-0.018744,0.00244,-0.002119,0.000912,0.000518,0.010597,-0.528599,9e-05,-0.518188,-257.633698,-0.27946,66.793965
6.1173,0.010659,-0.018267,0.002487,-0.00211,0.000906,-1.7e-05,0.011225,-0.528728,0.002237,-0.518188,-257.633698,-0.27946,66.793965
6.1371,0.010465,-0.018312,0.001926,-0.002103,0.000903,-0.000401,0.011225,-0.528728,0.002237,-0.518188,-257.633698,-0.27946,66.793965
6.1572,0.010321,-0.018505,0.001647,-0.002098,0.000902,-0.000677,0.011359,-0.528273,0.001948,-0.525399,-257.634677,-0.274045,66.793085
6.1777,0.010406,-0.018715,0.00053,-0.002104,0.0009,-0.000708,0.011267,-0.528365,0.001826,-0.525399,-257.634677,-0.274045,66.793085
6.197,0.010372,-0.018703,0.002365,-0.00211,0.000899,-0.000732,0.010672,-0.528713,0.00053,-0.450355,-257.634732,-0.349089,66.793022
6.2172,0.010718,-0.018569,0.002577,-0.002115,0.000895,-0.000909,0.011507,-0.528703,0.002222,-0.450355,-257.634732,-0.349089,66.793022
6.2369,0.010363,-0.018731,0.002245,-0.002119,0.000892,-0.001035,0.011507,-0.528703,0.002222,-0.450355,-257.634732,-0.349089,66.793022
6.2571,0.010103,-0.018581,0.001636,-0.002123,0.00089,-0.001125,0.011491,-0.528722,0.002243,-0.37513,-257.63489,-0.424314,66.792839
6.2773,0.010431,-0.018346,0.003599,-0.00212,0.000894,-0.001098,0.011262,-0.528663,0.001994,-0.37513,-257.63489,-0.424314,66.792839
6.2969,0.010323,-0.018153,9.8e-05,-0.002118,0.000898,-0.00108,0.012258,-0.528339,0.003597,-0.300321,-257.635004,-0.499123,66.792698
6.3173,0.010368,-0.0185,0.002515,-0.002096,0.00092,-0.000297,0.010545,-0.52817,0.000418,-0.300321,-257.635004,-0.499123,66.792698
6.3372,0.010262,-0.018342,0.000155,-0.00208,0.000936,0.000251,0.010545,-0.52817,0.000418,-0.300321,-257.635004,-0.499123,66.792698
6.3568,0.010274,-0.018617,0.001368,-0.002068,0.000948,0.000635,0.010303,-0.528325,0.000142,-0.225495,-257.635363,-0.573949,66.792255
6.377,0.010563,-0.018444,0.002498,-0.002053,0.000958,0.000792,0.010565,-0.528439,0.000628,-0.225495,-257.635363,-0.573949,66.792255
6.397,0.01054,-0.018503,0.000921,-0.002042,0.000965,0.000901,0.011834,-0.528441,0.002497,-0.30051,-257.635392,-0.498934,66.79223
6.4168,0.010096,-0.018467,0.001311,-0.002053,0.000957,0.000757,0.011086,-0.528497,0.001067,-0.30051,-257.635392,-0.498934,66.79223
6.4367,0.010172,-0.018146,0.000603,-0.002061,0.000951,0.000653,0.011086,-0.528497,0.001067,-0.30051,-257.635392,-0.498934,66.79223
6.4569,0.010277,-0.018669,0.001074,-0.002068,0.000946,0.000578,0.010476,-0.528144,0.000603,-0.375506,-257.635429,-0.423938,66.792199
6.4767,0.010395,-0.018485,0.002791,-0.002058,0.000953,0.000656,0.010622,-0.528364,0.000801,-0.375506,-257.635429,-0.423938,66.792199
6.4972,0.010201,-0.017983,0.003518,-0.00205,0.000958,0.00071,0.011791,-0.528472,0.002794,-0.450831,-257.635829,-0.348613,66.791847
6.5172,0.0103,-0.018597,0.001146,-0.002091,0.00091,-0.000241,0.011975,-0.528023,0.003454,-0.450831,-257.635829,-0.348613,66.791847
6.5372,0.010267,-0.018447,0.000318,-0.002126,0.000873,-0.000939,0.011975,-0.528023,0.003454,-0.450831,-257.635829,-0.348613,66.791847
6.5567,0.010186,-0.018286,0.001223,-0.002156,0.000844,-0.001449,0.010376,-0.528424,0.000332,-0.525496,-257.636433,-0.273948,66.791331
6.5769,0.01006,-0.018433,0.001085,-0.002124,0.000877,-0.000682,0.010547,-0.528365,0.000697,-0.525496,-257.636433,-0.273948,66.791331
6.597,0.01018,-0.018705,0.001611,-0.002098,0.000902,-0.000151,0.010614,-0.528433,0.001085,-0.450494,-257.636433,-0.34895,66.791331
6.6169,0.01022,-0.018155,0.002744,-0.002088,0.000911,-0.000207,0.010966,-0.52868,0.001563,-0.450494,-257.636433,-0.34895,66.791331
6.6371,0.010406,-0.018466,0.002362,-0.00208,0.000918,-0.000251,0.010966,-0.52868,0.001563,-0.450494,-257.636433,-0.34895,66.791331
6.6567,0.010042,-0.0184,0.001463,-0.002074,0.000925,-0.000286,0.011542,-0.528435,0.002359,-0.375498,-257.637135,-0.423946,66.790606
6.6772,0.009572,-0.018029,0.000183,-0.002084,0.000917,-0.000494,0.011227,-0.528417,0.001993,-0.375498,-257.637135,-0.423946,66.790606
6.6969,0.009893,-0.018436,0.001244,-0.002093,0.000912,-0.000644,0.009604,-0.528002,0.000175,-0.34684,-257.637955,-0.487449,66.789733
6.7168,0.009947,-0.018524,0.000985,-0.002069,0.000931,-0.000379,0.010454,-0.5284,0.001161,-0.34684,-257.637955,-0.487449,66.789733
6.7372,0.01026,-0.018411,0.00286,-0.00205,0.000946,-0.000196,0.010454,-0.5284,0.001161,-0.34684,-257.637955,-0.487449,66.789733
6.7571,0.009558,-0.018603,0.001443,-0.002034,0.000958,-6.9e-05,0.011652,-0.528378,0.002841,-0.271487,-257.638622,-0.557533,66.78897
6.7775,0.010184,-0.01827,0.000624,-0.002044,0.000945,-0.000452,0.011094,-0.528466,0.002273,-0.271487,-257.638622,-0.557533,66.78897
6.7967,0.009742,-0.018217,0.001743,-0.002052,0.000936,-0.000726,0.010464,-0.528253,0.00062,-0.346122,-257.639147,-0.482898,66.788437
6.8173,0.009978,-0.018557,0.002723,-0.002047,0.000942,-0.000664,0.010613,-0.528218,0.00164,-0.346122,-257.639147,-0.482898,66.788437
6.8372,0.009953,-0.018134,0.001393,-0.002042,0.000947,-0.000621,0.010613,-0.528218,0.00164,-0.346122,-257.639147,-0.482898,66.788437
6.8567,0.009881,-0.018399,0.001899,-0.002039,0.00095,-0.000591,0.010605,-0.528107,0.001376,-0.270995,-257.639721,-0.558025,66.787764
6.8772,0.009513,-0.018278,0.002356,-0.002037,0.000953,-0.000549,0.010699,-0.528224,0.001589,-0.270995,-257.639721,-0.558025,66.787764
6.8967,0.010079,-0.018421,0.0018,-0.002036,0.000955,-0.00052,0.01065,-0.528246,0.002337,-0.281366,-257.640572,-0.57169,66.786792
6.9175,0.009871,-0.018156,0.000609,-0.002041,0.000952,-0.000606,0.010971,-0.528407,0.001836,-0.281366,-257.640572,-0.57169,66.786792
6.9372,0.009733,-0.018332,0.001664,-0.002046,0.000949,-0.000668,0.010971,-0.528407,0.001836,-0.281366,-257.640572,-0.57169,66.786792
6.9569,0.009562,-0.01796,0.003087,-0.002049,0.000946,-0.000712,0.010498,-0.528292,0.001643,-0.303587,-257.64141,-0.558746,66.78585
6.9769,0.009653,-0.018102,0.00298,-0.002048,0.000944,-0.000901,0.010749,-0.528151,0.00223,-0.303587,-257.64141,-0.558746,66.78585
6.9967,0.009584,-0.017759,0.003208,-0.002047,0.000942,-0.001036,0.011112,-0.528072,0.002959,-0.244795,-257.642194,-0.592982,66.784932
7.0171,0.00931,-0.0179,0.002076,-0.002066,0.000919,-0.001458,0.011207,-0.527784,0.003184,-0.244795,-257.642194,-0.592982,66.784932
7.0369,0.009642,-0.01793,0.000834,-0.002084,0.000901,-0.001761,0.011207,-0.527784,0.003184,-0.244795,-257.642194,-0.592982,66.784932
7.0567,0.009538,-0.018227,0.001754,-0.002099,0.000887,-0.001979,0.009998,-0.527897,0.000799,-0.169829,-257.642867,-0.655905,66.784092
7.0768,0.009692,-0.018213,0.002311,-0.002067,0.000919,-0.001315,0.010167,-0.528027,0.001184,-0.169829,-257.642867,-0.655905,66.784092
7.0974,0.009503,-0.018248,0.001878,-0.002041,0.000942,-0.000853,0.010861,-0.528206,0.002305,-0.094818,-257.642988,-0.730915,66.783924
7.1172,0.009551,-0.018278,0.001416,-0.002029,0.000951,-0.000868,0.010498,-0.528243,0.001918,-0.094818,-257.642988,-0.730915,66.783924
7.137,0.009241,-0.018177,-0.000235,-0.002019,0.000958,-0.000881,0.010498,-0.528243,0.001918,-0.094818,-257.642988,-0.730915,66.783924
7.1569,0.00948,-0.017743,0.0013,-0.002012,0.000963,-0.000891,0.009064,-0.52815,-0.000263,-0.169815,-257.643558,-0.655919,66.783237
7.1771,0.009202,-0.017555,0.002154,-0.001966,0.000996,-0.000141,0.009498,-0.527981,0.000372,-0.169815,-257.643558,-0.655919,66.783237
7.1966,0.009242,-0.017554,0.00313,-0.00193,0.001022,0.000385,0.010238,-0.527524,0.002126,-0.205208,-257.644361,-0.643127,66.782254
7.2173,0.009554,-0.017789,0.001662,-0.001959,0.000988,-0.000365,0.010782,-0.527548,0.003039,-0.205208,-257.644361,-0.643127,66.782254
7.2368,0.009717,-0.017836,0.001738,-0.001983,0.000962,-0.000911,0.010782,-0.527548,0.003039,-0.205208,-257.644361,-0.643127,66.782254
7.2567,0.009521,-0.0181,0.00147,-0.002004,0.000942,-0.001307,0.0106,-0.527834,0.001737,-0.280219,-257.644394,-0.568115,66.782224
7.2768,0.009559,-0.018061,0.001832,-0.002006,0.000951,-0.00105,0.010465,-0.527942,0.001628,-0.280219,-257.644394,-0.568115,66.782224
7.297,0.009485,-0.018254,0.000994,-0.002007,0.000957,-0.000874,0.010471,-0.528049,0.001821,-0.205241,-257.644676,-0.643094,66.781852
7.3172,0.009098,-0.018128,0.000282,-0.001982,0.000978,-0.000495,0.010042,-0.528231,0.001083,-0.205241,-257.644676,-0.643094,66.781852
7.337,0.009127,-0.017989,0.001565,-0.001962,0.000994,-0.000232,0.010042,-0.528231,0.001083,-0.205241,-257.644676,-0.643094,66.781852
7.3571,0.009231,-0.017935,0.00168,-0.001947,0.001007,-5.1e-05,0.009842,-0.527948,0.001529,-0.207677,-257.645496,-0.639014,66.780852
7.3768,0.009159,-0.017825,0.000758,-0.001936,0.001012,-0.000161,0.009932,-0.527938,0.001586,-0.207677,-257.645496,-0.639014,66.780852
7.3968,0.009068,-0.017854,0.00123,-0.001928,0.001016,-0.000241,0.00953,-0.527818,0.000754,-0.282668,-257.645705,-0.564023,66.780641
7.417,0.009425,-0.017498,0.000714,-0.001912,0.001028,-0.000114,0.00968,-0.52785,0.001188,-0.282668,-257.645705,-0.564023,66.780641
7.4369,0.009484,-0.017801,0.000356,-0.001899,0.001037,-2.7e-05,0.00968,-0.52785,0.001188,-0.282668,-257.645705,-0.564023,66.780641
7.4569,0.009429,-0.01805,0.001681,-0.001889,0.001044,3.4e-05,0.009607,-0.527772,0.000345,-0.357678,-257.646315,-0.542955,66.779991
7.4771,0.009013,-0.017366,0.001651,-0.001888,0.001047,0.000227,0.009876,-0.527882,0.000886,-0.357678,-257.646315,-0.542955,66.779991
7.497,0.009281,-0.017866,0.000844,-0.001887,0.001049,0.000362,0.009814,-0.527345,0.001649,-0.43267,-257.646884,-0.496414,66.779427
7.5171,0.009425,-0.017848,0.001763,-0.001882,0.001052,0.000443,0.009718,-0.527819,0.000913,-0.43267,-257.646884,-0.496414,66.779427
7.5371,0.008841,-0.018072,0.002534,-0.001877,0.001055,0.0005,0.009718,-0.527819,0.000913,-0.43267,-257.646884,-0.496414,66.779427
7.5569,0.009212,-0.017854,0.000717,-0.001874,0.001057,0.000539,0.010085,-0.528046,0.002539,-0.507781,-257.647424,-0.421304,66.778938
7.5768,0.009033,-0.01762,0.002804,-0.001874,0.001049,0.000166,0.009872,-0.527965,0.001796,-0.507781,-257.647424,-0.421304,66.778938
7.5968,0.009046,-0.017802,0.001832,-0.001875,0.001044,-0.000101,0.010418,-0.527594,0.002815,-0.582664,-257.648108,-0.370264,66.778348
7.617,0.008975,-0.018286,0.000825,-0.001884,0.001035,-0.000342,0.010017,-0.527781,0.001921,-0.582664,-257.648108,-0.370264,66.778348
7.6373,0.009345,-0.017571,0.000835,-0.001892,0.001029,-0.000514,0.010017,-0.527781,0.001921,-0.582664,-257.648108,-0.370264,66.778348
7.6575,0.008842,-0.017875,0.001726,-0.001899,0.001024,-0.000637,0.009726,-0.527548,0.000837,-0.507665,-257.648579,-0.445262,66.777864
7.6774,0.008711,-0.017899,0.000827,-0.001893,0.001032,-0.0004,0.00972,-0.527678,0.001199,-0.507665,-257.648579,-0.445262,66.777864
7.6969,0.008518,-0.017966,0.001753,-0.001889,0.001037,-0.000234,0.009113,-0.527889,0.000824,-0.432662,-257.64883,-0.520265,66.777567
7.7173,0.009064,-0.017407,0.000862,-0.001865,0.001048,-0.000336,0.009384,-0.527958,0.00167,-0.432662,-257.64883,-0.520265,66.777567
7.7368,0.008908,-0.017478,0.001378,-0.001845,0.001058,-0.000409,0.009384,-0.527958,0.00167,-0.432662,-257.64883,-0.520265,66.777567
7.7569,0.008759,-0.017478,0.001155,-0.001829,0.001065,-0.000462,0.009534,-0.527435,0.001369,-0.442286,-257.649645,-0.558463,66.776698
7.7773,0.008807,-0.017871,0.002727,-0.00183,0.001068,-0.000319,0.009449,-0.527448,0.001281,-0.442286,-257.649645,-0.558463,66.776698
7.797,0.008659,-0.017668,0.00125,-0.001831,0.00107,-0.00022,0.010146,-0.527839,0.002714,-0.404753,-257.650354,-0.633415,66.775889
7.8172,0.00845,-0.017308,0.00078,-0.001822,0.001075,-0.000196,0.009369,-0.527681,0.001378,-0.404753,-257.650354,-0.633415,66.775889
7.8372,0.008641,-0.017337,0.002323,-0.001815,0.00108,-0.00018,0.009369,-0.527681,0.001378,-0.404753,-257.650354,-0.633415,66.775889
7.8568,0.008495,-0.017816,0.000245,-0.00181,0.001083,-0.000169,0.009758,-0.527296,0.002315,-0.472696,-257.651086,-0.581916,66.775109
7.8768,0.008529,-0.017646,0.000465,-0.001806,0.001084,-0.000203,0.009286,-0.527503,0.00147,-0.472696,-257.651086,-0.581916,66.775109
7.8969,0.008489,-0.01714,0.000635,-0.001802,0.001086,-0.000228,0.008709,-0.527612,0.00046,-0.496253,-257.651902,-0.580182,66.774251
7.9178,0.008382,-0.017028,0.002297,-0.001783,0.0011,0.000179,0.0088,-0.527181,0.000619,-0.496253,-257.651902,-0.580182,66.774251
7.9369,0.008664,-0.017465,0.001084,-0.001768,0.00111,0.000465,0.0088,-0.527181,0.000619,-0.496253,-257.651902,-0.580182,66.774251
7.957,0.008528,-0.017661,0.001142,-0.001756,0.001117,0.000666,0.009141,-0.52742,0.001074,-0.483749,-257.65271,-0.596923,66.773386
7.977,0.008444,-0.017419,0.000917,-0.001754,0.001116,0.000564,0.00912,-0.527512,0.001101,-0.483749,-257.65271,-0.596923,66.773386
7.9973,0.008536,-0.017714,-0.00069,-0.001753,0.001115,0.000492,0.0089,-0.527412,0.000919,-0.558737,-257.6529,-0.521935,66.773231
8.0172,0.008517,-0.017705,0.001679,-0.001702,0.001144,0.001317,0.008246,-0.527687,-0.000549,-0.558737,-257.6529,-0.521935,66.773231
8.0372,0.00861,-0.017598,7.6e-05,-0.001661,0.001166,0.001905,0.008246,-0.527687,-0.000549,-0.558737,-257.6529,-0.521935,66.773231
8.0572,0.008151,-0.017261,0.001013,-0.001629,0.001182,0.002323,0.008597,-0.527566,8.8e-05,-0.633824,-257.653533,-0.446847,66.772688
8.0772,0.008307,-0.017372,0.000746,-0.001628,0.001178,0.002069,0.00862,-0.527437,0.000469,-0.633824,-257.653533,-0.446847,66.772688
8.0971,0.008261,-0.017465,-4.8e-05,-0.001627,0.001175,0.001888,0.008688,-0.527372,0.000746,-0.708876,-257.653533,-0.371795,66.772688
8.1171,0.00843,-0.017466,0.001398,-0.001609,0.001182,0.002,0.008277,-0.527457,2.3e-05,-0.708876,-257.653533,-0.371795,66.772688
8.1373,0.008238,-0.016993,0.001787,-0.001594,0.001188,0.002079,0.008277,-0.527457,2.3e-05,-0.708876,-257.653533,-0.371795,66.772688
8.1569,0.00861,-0.017256,0.001705,-0.001582,0.001193,0.002135,0.009146,-0.52699,0.00179,-0.78374,-257.653583,-0.296931,66.772659
8.177,0.008354,-0.01719,0.00219,-0.001626,0.001157,0.001348,0.009279,-0.527096,0.001756,-0.78374,-257.653583,-0.296931,66.772659
8.1967,0.008426,-0.0173,0.000552,-0.001664,0.001129,0.000779,0.009468,-0.527187,0.002193,-0.85878,-257.653642,-0.221891,66.772628
8.2169,0.008047,-0.0176,0.000748,-0.001668,0.001131,0.000859,0.008776,-0.52729,0.000699,-0.85878,-257.653642,-0.221891,66.772628
8.2369,0.007992,-0.017222,0.003229,-0.001671,0.001133,0.000913,0.008776,-0.52729,0.000699,-0.85878,-257.653642,-0.221891,66.772628
8.2572,0.008462,-0.017267,0.00041,-0.001674,0.001134,0.000949,0.009597,-0.527193,0.003252,-0.783773,-257.654199,-0.296898,66.772197
8.277,0.008449,-0.017501,0.001717,-0.001697,0.001112,0.000354,0.009214,-0.52722,0.002093,-0.783773,-257.654199,-0.296898,66.772197
8.297,0.007996,-0.017104,0.002602,-0.001718,0.001096,-7.5e-05,0.009272,-0.527465,0.001747,-0.797216,-257.655146,-0.319843,66.7715
8.317,0.007562,-0.017501,0.001667,-0.001738,0.001078,-0.000542,0.009316,-0.527133,0.002526,-0.797216,-257.655146,-0.319843,66.7715
8.3368,0.008091,-0.017013,0.00279,-0.001755,0.001066,-0.000879,0.009316,-0.527133,0.002526,-0.797216,-257.655146,-0.319843,66.7715
8.3574,0.008162,-0.017195,0.001872,-0.00177,0.001057,-0.001122,0.009505,-0.527005,0.002792,-0.722221,-257.65524,-0.394838,66.771404
8.377,0.008204,-0.017552,0.00254,-0.001785,0.00105,-0.001257,0.009347,-0.527082,0.002419,-0.722221,-257.65524,-0.394838,66.771404
8.3968,0.008088,-0.017311,0.002322,-0.001798,0.001046,-0.001355,0.0095,-0.527551,0.00254,-0.647215,-257.65524,-0.469844,66.771403
8.4175,0.008546,-0.017287,0.001802,-0.001801,0.001048,-0.001396,0.009293,-0.527331,0.002342,-0.647215,-257.65524,-0.469844,66.771403
8.437,0.007939,-0.017059,0.001207,-0.001804,0.00105,-0.001427,0.009293,-0.527331,0.002342,-0.647215,-257.65524,-0.469844,66.771403
8.457,0.008077,-0.01754,0.001077,-0.001806,0.001052,-0.00145,0.008554,-0.527059,0.001207,-0.572233,-257.655242,-0.544826,66.771401
8.477,0.008364,-0.017384,0.000923,-0.001777,0.001077,-0.00094,0.008584,-0.527256,0.001154,-0.572233,-257.655242,-0.544826,66.771401
8.4972,0.008334,-0.017539,0.001452,-0.001753,0.001096,-0.000586,0.008835,-0.527383,0.000923,-0.497103,-257.655246,-0.619957,66.771395
8.517,0.007958,-0.01707,0.001759,-0.00175,0.001102,-0.000458,0.009053,-0.527524,0.001404,-0.497103,-257.655246,-0.619957,66.771395
8.5371,0.007961,-0.017692,0.001789,-0.001748,0.001107,-0.000371,0.009053,-0.527524,0.001404,-0.497103,-257.655246,-0.619957,66.771395
8.5569,0.008186,-0.017515,0.001289,-0.001746,0.00111,-0.00031,0.008816,-0.527655,0.001771,-0.422225,-257.655846,-0.692381,66.770676
8.5769,0.008134,-0.017701,0.000119,-0.001733,0.001117,-0.000344,0.008821,-0.527592,0.001569,-0.422225,-257.655846,-0.692381,66.770676
8.5967,0.008203,-0.017035,0.001286,-0.001722,0.001123,-0.000369,0.008146,-0.527669,0.00011,-0.485263,-257.656554,-0.639758,66.769896
8.617,0.007927,-0.017234,0.001675,-0.001723,0.001125,-0.000205,0.008793,-0.52709,0.00118,-0.485263,-257.656554,-0.639758,66.769896
8.6367,0.008004,-0.017009,0.002187,-0.001724,0.001127,-9e-05,0.008793,-0.52709,0.00118,-0.485263,-257.656554,-0.639758,66.769896
8.6567,0.008119,-0.017032,0.002358,-0.001725,0.001128,-9e-06,0.009048,-0.526961,0.002172,-0.480412,-257.657323,-0.664257,66.769029
8.6768,0.007892,-0.016997,0.000843,-0.001743,0.00111,-0.000404,0.009152,-0.526985,0.002247,-0.480412,-257.657323,-0.664257,66.769029
8.6971,0.007687,-0.016971,0.00146,-0.001758,0.001097,-0.000687,0.008279,-0.526969,0.000842,-0.555505,-257.657959,-0.589164,66.768392
8.7169,0.008271,-0.0173,0.002154,-0.001737,0.00111,-0.000535,0.008416,-0.526969,0.001405,-0.555505,-257.657959,-0.589164,66.768392
8.7371,0.00809,-0.017068,0.001531,-0.00172,0.001121,-0.000429,0.008416,-0.526969,0.001405,-0.555505,-257.657959,-0.589164,66.768392
8.7571,0.008105,-0.01714,0.002211,-0.001706,0.00113,-0.000356,0.008838,-0.527046,0.001523,-0.48051,-257.658294,-0.664159,66.767979
8.7771,0.007502,-0.017042,0.000672,-0.00172,0.001121,-0.000478,0.008995,-0.527081,0.001802,-0.48051,-257.658294,-0.664159,66.767979
8.7967,0.007827,-0.017295,0.001682,-0.001731,0.001114,-0.000564,0.007791,-0.527006,0.000661,-0.491166,-257.659066,-0.668288,66.767111
8.8173,0.00799,-0.017138,0.001006,-0.001717,0.001122,-0.000535,0.008601,-0.527266,0.001589,-0.491166,-257.659066,-0.668288,66.767111
8.8372,0.007971,-0.017205,0.001872,-0.001706,0.001128,-0.000515,0.008601,-0.527266,0.001589,-0.491166,-257.659066,-0.668288,66.767111
8.8571,0.007812,-0.016964,-0.000527,-0.001696,0.001134,-0.000501,0.00886,-0.527162,0.001851,-0.418353,-257.659751,-0.700353,66.766293
8.877,0.007548,-0.016658,0.00242,-0.001676,0.001148,-0.000145,0.008312,-0.527076,0.000873,-0.418353,-257.659751,-0.700353,66.766293
8.8968,0.008012,-0.016757,0.001373,-0.00166,0.001159,0.000105,0.008729,-0.526622,0.002404,-0.453985,-257.660491,-0.703606,66.765421
8.9172,0.007723,-0.017133,0.000978,-0.001675,0.00115,-4e-06,0.008711,-0.526743,0.001465,-0.453985,-257.660491,-0.703606,66.765421
8.9374,0.007542,-0.016993,0.002553,-0.001687,0.001143,-8.1e-05,0.008711,-0.526743,0.001465,-0.453985,-257.660491,-0.703606,66.765421
8.9568,0.007405,-0.017054,0.001413,-0.001696,0.001137,-0.000136,0.008811,-0.52697,0.002551,-0.528979,-257.660876,-0.628611,66.765049
8.9771,0.007493,-0.016619,0.001474,-0.001688,0.001135,-0.000438,0.008527,-0.527002,0.002086,-0.528979,-257.660876,-0.628611,66.765049
8.9967,0.007428,-0.016555,0.001329,-0.00168,0.001135,-0.000652,0.008191,-0.526583,0.00147,-0.555831,-257.661666,-0.623653,66.764222
9.0171,0.00787,-0.016445,0.001708,-0.001665,0.001146,-0.000482,0.008111,-0.526555,0.001341,-0.555831,-257.661666,-0.623653,66.764222
9.037,0.007242,-0.017042,0.001645,-0.001652,0.001154,-0.000364,0.008111,-0.526555,0.001341,-0.555831,-257.661666,-0.623653,66.764222
9.0568,0.00759,-0.017083,0.000572,-0.001641,0.001161,-0.000281,0.00804,-0.527013,0.001633,-0.480737,-257.662092,-0.698747,66.763694
9.0769,0.00751,-0.017095,0.001762,-0.001615,0.001176,-0.000155,0.00797,-0.527039,0.001196,-0.480737,-257.662092,-0.698747,66.763694
9.0966,0.007541,-0.016863,0.000783,-0.001593,0.001188,-6.7e-05,0.00836,-0.52706,0.001754,-0.54257,-257.66281,-0.68206,66.762902
9.1166,0.007516,-0.016701,0.001375,-0.001579,0.001197,0.00016,0.007974,-0.526879,0.000868,-0.54257,-257.66281,-0.68206,66.762902
9.137,0.007218,-0.016973,0.001711,-0.001568,0.001204,0.000319,0.007974,-0.526879,0.000868,-0.54257,-257.66281,-0.68206,66.762902
9.1572,0.007202,-0.016993,0.001046,-0.001559,0.001209,0.000431,0.008031,-0.526928,0.001708,-0.617605,-257.66351,-0.656903,66.762185
9.1772,0.007337,-0.016862,0.000891,-0.001548,0.00121,0.000238,0.007902,-0.52695,0.001434,-0.617605,-257.66351,-0.656903,66.762185
9.1972,0.00732,-0.016555,0.001632,-0.001538,0.001212,0.000101,0.007761,-0.526839,0.000897,-0.692663,-257.664025,-0.581845,66.761747
9.2173,0.007382,-0.016769,0.001723,-0.001549,0.001204,-5.5e-05,0.008117,-0.526578,0.001568,-0.692663,-257.664025,-0.581845,66.761747
9.2373,0.007254,-0.016553,1.5e-05,-0.001558,0.001198,-0.000166,0.008117,-0.526578,0.001568,-0.692663,-257.664025,-0.581845,66.761747
9.2574,0.007489,-0.016514,0.000699,-0.001566,0.001193,-0.000244,0.007201,-0.526505,1.9e-05,-0.691523,-257.664779,-0.642071,66.761022
9.2777,0.007641,-0.016827,-0.000146,-0.001537,0.001212,0.000339,0.007458,-0.526503,0.000298,-0.691523,-257.664779,-0.642071,66.761022
9.297,0.007085,-0.016925,0.001198,-0.001515,0.001226,0.000751,0.007528,-0.526797,-0.000151,-0.616502,-257.665369,-0.708831,66.760375
9.3182,0.007063,-0.016333,0.000859,-0.0015,0.00123,0.000635,0.007679,-0.526912,0.00108,-0.616502,-257.665369,-0.708831,66.760375
9.3377,0.007192,-0.016855,0.002369,-0.001489,0.001234,0.000551,0.007679,-0.526912,0.00108,-0.616502,-257.665369,-0.708831,66.760375
9.357,0.007597,-0.016814,0.000748,-0.001479,0.001238,0.000492,0.008388,-0.526844,0.002372,-0.691479,-257.66553,-0.633853,66.760254
9.3772,0.007245,-0.01638,0.000189,-0.001501,0.001223,0.000167,0.00822,-0.526831,0.001709,-0.691479,-257.66553,-0.633853,66.760254
9.3966,0.006939,-0.016558,0.001429,-0.001518,0.001211,-6.5e-05,0.007306,-0.526351,0.0002,-0.766484,-257.666174,-0.56496,66.759726
9.4167,0.007225,-0.016187,0.000813,-0.001509,0.001216,-6e-05,0.007635,-0.526538,0.001322,-0.766484,-257.666174,-0.56496,66.759726
9.437,0.00737,-0.016668,0.002547,-0.001502,0.001221,-5.7e-05,0.007635,-0.526538,0.001322,-0.766484,-257.666174,-0.56496,66.759726
9.457,0.006978,-0.016155,0.003044,-0.001496,0.001224,-5.6e-05,0.008627,-0.526634,0.002548,-0.691469,-257.666669,-0.639975,66.759218
9.4769,0.007055,-0.016689,0.002335,-0.001535,0.001193,-0.000612,0.008583,-0.526433,0.002751,-0.691469,-257.666669,-0.639975,66.759218
9.4966,0.007023,-0.016247,0.001849,-0.001567,0.001168,-0.001013,0.008201,-0.526651,0.002333,-0.672067,-257.667386,-0.699638,66.758485
9.5172,0.007092,-0.016478,0.000582,-0.001572,0.001169,-0.000976,0.007984,-0.52628,0.001891,-0.672067,-257.667386,-0.699638,66.758485
9.5367,0.007161,-0.016404,0.001775,-0.001576,0.00117,-0.000952,0.007984,-0.52628,0.001891,-0.672067,-257.667386,-0.699638,66.758485
9.5567,0.00715,-0.01637,0.003176,-0.00158,0.001171,-0.000936,0.008059,-0.526397,0.001772,-0.59713,-257.66746,-0.774576,66.758379
9.577,0.006924,-0.01647,0.00191,-0.001597,0.001161,-0.001104,0.008349,-0.526384,0.002345,-0.59713,-257.66746,-0.774576,66.758379
9.5969,0.007099,-0.016294,0.000425,-0.001612,0.001153,-0.001225,0.00788,-0.526454,0.001901,-0.522116,-257.667722,-0.834331,66.758014
9.617,0.007218,-0.016191,0.001729,-0.001577,0.00118,-0.000476,0.007365,-0.526307,0.000557,-0.522116,-257.667722,-0.834331,66.758014
9.6369,0.007211,-0.016352,0.000988,-0.00155,0.0012,4.8e-05,0.007365,-0.526307,0.000557,-0.522116,-257.667722,-0.834331,66.758014
9.6568,0.007246,-0.01598,0.002624,-0.001528,0.001215,0.000414,0.007696,-0.526336,0.000976,-0.447225,-257.667913,-0.867597,66.757729
9.6768,0.007245,-0.016363,0.000899,-0.001551,0.0012,0.000146,0.008055,-0.526189,0.001645,-0.447225,-257.667913,-0.867597,66.757729
9.6967,0.007295,-0.016324,0.00204,-0.001569,0.00119,-4.7e-05,0.007701,-0.526362,0.000898,-0.522218,-257.667948,-0.792604,66.757698
9.717,0.006934,-0.016005,-0.000185,-0.001591,0.001176,-0.000308,0.008279,-0.526326,0.00194,-0.522218,-257.667948,-0.792604,66.757698
9.7367,0.006808,-0.016264,5.7e-05,-0.001609,0.001165,-0.000495,0.008279,-0.526326,0.00194,-0.522218,-257.667948,-0.792604,66.757698
9.757,0.006659,-0.016341,0.000915,-0.001623,0.001157,-0.000629,0.006798,-0.526234,5.3e-05,-0.597319,-257.668425,-0.717504,66.757213
9.778,0.007095,-0.016298,0.0,-0.001564,0.001191,1.7e-05,0.006928,-0.526274,0.000406,-0.597319,-257.668425,-0.717504,66.757213
9.797,0.007044,-0.016254,0.001686,-0.001517,0.001218,0.00047,0.007061,-0.526272,-1.1e-05,-0.522327,-257.668906,-0.759289,66.756615
9.817,0.006785,-0.016264,0.00116,-0.001528,0.001209,0.000231,0.007828,-0.526254,0.001535,-0.522327,-257.668906,-0.759289,66.756615
9.837,0.006777,-0.016357,0.001494,-0.001538,0.001203,6e-05,0.007828,-0.526254,0.001535,-0.522327,-257.668906,-0.759289,66.756615
9.8571,0.007195,-0.016347,0.001283,-0.001545,0.001198,-6.4e-05,0.007527,-0.526348,0.001494,-0.597395,-257.669048,-0.684221,66.756496
9.8767,0.006693,-0.016155,0.000953,-0.00154,0.001202,-9.6e-05,0.007658,-0.526347,0.001408,-0.597395,-257.669048,-0.684221,66.756496
9.8967,0.006573,-0.016773,0.000838,-0.001536,0.001204,-0.00012,0.007131,-0.526118,0.000951,-0.643696,-257.669794,-0.675125,66.755732
9.9168,0.006967,-0.016257,0.001307,-0.001489,0.001229,0.000134,0.007009,-0.526714,0.000848,-0.643696,-257.669794,-0.675125,66.755732
9.9371,0.006452,-0.016251,0.00116,-0.001451,0.001248,0.000311,0.007009,-0.526714,0.000848,-0.643696,-257.669794,-0.675125,66.755732
9.957,0.006679,-0.01624,0.000913,-0.001421,0.001263,0.000435,0.006979,-0.526201,0.001155,-0.634854,-257.670551,-0.693869,66.754939
9.9769,0.006552,-0.01593,0.001209,-0.001409,0.001268,0.000419,0.007039,-0.526211,0.001056,-0.634854,-257.670551,-0.693869,66.754939
9.9969,0.00674,-0.016314,0.002689,-0.001399,0.001272,0.000407,0.007144,-0.525911,0.001214,-0.709774,-257.670977,-0.618948,66.754585
10.017,0.006392,-0.015966,-0.001252,-0.001436,0.001241,-0.000212,0.008023,-0.526275,0.002558,-0.709774,-257.670977,-0.618948,66.754585
10.0368,0.006834,-0.015932,0.000547,-0.001466,0.001217,-0.000658,0.008023,-0.526275,0.002558,-0.709774,-257.670977,-0.618948,66.754585
10.0567,0.006737,-0.016176,0.002708,-0.001492,0.0012,-0.000978,0.007065,-0.52589,0.000559,-0.784764,-257.671639,-0.631482,66.754029
10.077,0.007016,-0.01597,0.001394,-0.001495,0.001206,-0.000749,0.00749,-0.526002,0.001439,-0.784764,-257.671639,-0.631482,66.754029
10.097,0.006634,-0.016314,0.001158,-0.001497,0.00121,-0.000591,0.007726,-0.525968,0.001394,-0.709766,-257.671656,-0.70648,66.754005
10.117,0.00662,-0.01573,0.000699,-0.00148,0.001223,-0.000358,0.007271,-0.526282,0.00118,-0.709766,-257.671656,-0.70648,66.754005
10.137,0.006765,-0.016449,0.001559,-0.001467,0.001233,-0.000197,0.007271,-0.526282,0.00118,-0.709766,-257.671656,-0.70648,66.754005
10.1567,0.006713,-0.016088,0.000519,-0.001456,0.001241,-8.4e-05,0.007531,-0.526423,0.001551,-0.634772,-257.671973,-0.781474,66.753605
10.1768,0.006466,-0.015977,0.001678,-0.00145,0.001247,1.9e-05,0.007302,-0.526284,0.001128,-0.634772,-257.671973,-0.781474,66.753605
10.1968,0.006531,-0.015987,0.000697,-0.001444,0.001251,9.1e-05,0.00728,-0.52594,0.001676,-0.684953,-257.672662,-0.725997,66.752892
10.2168,0.006497,-0.015857,-6.5e-05,-0.001426,0.001262,0.000315,0.006919,-0.525981,0.000782,-0.684953,-257.672662,-0.725997,66.752892
10.2369,0.006445,-0.016315,0.001099,-0.001411,0.00127,0.000473,0.006919,-0.525981,0.000782,-0.684953,-257.672662,-0.725997,66.752892
10.257,0.006567,-0.016083,0.00104,-0.001399,0.001276,0.000584,0.006949,-0.526266,0.001103,-0.735459,-257.673396,-0.691658,66.752185
10.277,0.00628,-0.016326,0.00146,-0.00139,0.001278,0.000513,0.007003,-0.526185,0.001078,-0.735459,-257.673396,-0.691658,66.752185
10.2974,0.006312,-0.016263,0.000956,-0.001382,0.00128,0.000463,0.006996,-0.5263,0.00147,-0.810507,-257.673943,-0.61661,66.751759
10.3169,0.006448,-0.016355,0.0,-0.001364,0.001288,0.000464,0.006815,-0.526265,0.001001,-0.810507,-257.673943,-0.61661,66.751759
10.3371,0.005988,-0.015431,0.002286,-0.001349,0.001294,0.000465,0.006815,-0.526265,0.001001,-0.810507,-257.673943,-0.61661,66.751759
10.3568,0.006128,-0.015671,0.001302,-0.001336,0.001299,0.000465,0.007097,-0.525377,0.002304,-0.84676,-257.674758,-0.625207,66.751093
10.377,0.006013,-0.01565,-7.5e-05,-0.001349,0.001285,6.6e-05,0.006967,-0.52549,0.001899,-0.84676,-257.674758,-0.625207,66.751093
10.3969,0.006268,-0.015785,-5.4e-05,-0.001359,0.001276,-0.000219,0.005933,-0.525609,-6e-05,-0.869658,-257.675573,-0.649429,66.750433
10.4168,0.006126,-0.016002,0.000675,-0.001314,0.001302,0.000551,0.006208,-0.525766,-5.4e-05,-0.869658,-257.675573,-0.649429,66.750433
10.4367,0.006272,-0.015761,0.001043,-0.001279,0.001321,0.001095,0.006208,-0.525766,-5.4e-05,-0.869658,-257.675573,-0.649429,66.750433
10.4569,0.005779,-0.015832,0.001244,-0.001251,0.001335,0.001479,0.00678,-0.525738,0.001042,-0.794553,-257.675876,-0.724535,66.750099
10.4768,0.006402,-0.015993,0.002688,-0.001258,0.001326,0.001138,0.006627,-0.525774,0.001125,-0.794553,-257.675876,-0.724535,66.750099
10.4969,0.006235,-0.015556,0.001646,-0.001263,0.00132,0.000894,0.007772,-0.52599,0.002689,-0.869547,-257.675902,-0.649541,66.750085
10.5179,0.006212,-0.015637,0.001286,-0.001299,0.001298,0.00045,0.007135,-0.525594,0.001738,-0.869547,-257.675902,-0.649541,66.750085
10.5372,0.006178,-0.015783,0.001841,-0.001329,0.001281,0.000131,0.007135,-0.525594,0.001738,-0.869547,-257.675902,-0.649541,66.750085
10.557,0.00621,-0.015506,0.002263,-0.001353,0.001269,-9.8e-05,0.007078,-0.525743,0.001865,-0.944549,-257.676543,-0.574538,66.749663
10.5768,0.00637,-0.015849,0.000309,-0.001373,0.001257,-0.000382,0.00719,-0.525642,0.002029,-0.944549,-257.676543,-0.574538,66.749663
10.5969,0.006438,-0.016067,0.001907,-0.00139,0.001249,-0.000586,0.006517,-0.52584,0.000311,-0.869558,-257.676722,-0.649529,66.749477
10.6173,0.006347,-0.015701,0.001163,-0.001401,0.001245,-0.000622,0.00733,-0.526045,0.001764,-0.869558,-257.676722,-0.649529,66.749477
10.6371,0.00582,-0.015786,0.000238,-0.001411,0.001243,-0.000649,0.00733,-0.526045,0.001764,-0.869558,-257.676722,-0.649529,66.749477
10.6571,0.00602,-0.015882,0.001002,-0.001419,0.001242,-0.00067,0.005934,-0.52578,0.000237,-0.794555,-257.676798,-0.724532,66.749379
10.6773,0.006255,-0.015511,0.001178,-0.001364,0.001272,-9.1e-05,0.006175,-0.52582,0.000547,-0.794555,-257.676798,-0.724532,66.749379
10.697,0.006212,-0.015381,0.003133,-0.001321,0.001296,0.000314,0.006845,-0.525501,0.001175,-0.719649,-257.676956,-0.799439,66.74917
10.7168,0.005825,-0.015751,0.000971,-0.001374,0.001256,-0.000398,0.00772,-0.525389,0.00295,-0.719649,-257.676956,-0.799439,66.74917
10.7368,0.005983,-0.015788,0.001801,-0.001419,0.001225,-0.000915,0.00772,-0.525389,0.00295,-0.719649,-257.676956,-0.799439,66.74917
10.7571,0.00609,-0.015691,0.001956,-0.001457,0.0012,-0.001289,0.006865,-0.525752,0.001807,-0.794648,-257.677478,-0.724439,66.748718
10.7771,0.005804,-0.015454,0.001294,-0.001443,0.001214,-0.001155,0.006951,-0.525723,0.001868,-0.794648,-257.677478,-0.724439,66.748718
10.7971,0.005909,-0.016021,0.001373,-0.001431,0.001224,-0.001064,0.006463,-0.525453,0.001294,-0.719646,-257.677481,-0.799441,66.748713
10.8174,0.006299,-0.015896,0.001182,-0.001397,0.001247,-0.000776,0.006596,-0.525968,0.001365,-0.719646,-257.677481,-0.799441,66.748713
10.8372,0.005765,-0.01543,0.001294,-0.001369,0.001265,-0.000577,0.006596,-0.525968,0.001365,-0.719646,-257.677481,-0.799441,66.748713
10.8572,0.00569,-0.015611,0.001437,-0.001346,0.001279,-0.000438,0.006418,-0.525422,0.00129,-0.644647,-257.677558,-0.874441,66.748596
10.8775,0.00564,-0.015753,0.00021,-0.001328,0.00129,-0.000335,0.006419,-0.525498,0.001349,-0.644647,-257.677558,-0.874441,66.748596
10.897,0.005906,-0.01548,0.001351,-0.001313,0.001299,-0.000264,0.005704,-0.525713,0.000196,-0.644645,-257.678228,-0.854949,66.747779
10.917,0.005904,-0.015564,0.000934,-0.001307,0.001304,-0.000167,0.006515,-0.525498,0.001249,-0.644645,-257.678228,-0.854949,66.747779
10.9369,0.006131,-0.015738,0.001398,-0.001302,0.001308,-9.9e-05,0.006515,-0.525498,0.001249,-0.644645,-257.678228,-0.854949,66.747779
10.9571,0.005989,-0.01555,0.002357,-0.001298,0.001311,-5.2e-05,0.006793,-0.525687,0.001388,-0.713919,-257.678868,-0.838321,66.747057
10.9769,0.005802,-0.015322,0.001106,-0.001317,0.0013,-0.000253,0.006948,-0.525626,0.001778,-0.713919,-257.678868,-0.838321,66.747057
10.9971,0.005854,-0.015596,0.001033,-0.001332,0.001291,-0.000397,0.006328,-0.525283,0.001105,-0.778153,-257.679537,-0.802244,66.746371
11.0171,0.005697,-0.015126,0.002117,-0.001312,0.001303,-0.000159,0.006374,-0.525567,0.001039,-0.778153,-257.679537,-0.802244,66.746371
11.037,0.006474,-0.015224,0.000223,-0.001296,0.001312,8e-06,0.006374,-0.525567,0.001039,-0.778153,-257.679537,-0.802244,66.746371
11.057,0.006001,-0.015276,0.001724,-0.001283,0.001319,0.000125,0.006545,-0.525181,0.000211,-0.703053,-257.680068,-0.855833,66.745734
11.0771,0.005822,-0.015671,0.002591,-0.001299,0.001315,0.000314,0.006678,-0.525215,0.000832,-0.703053,-257.680068,-0.855833,66.745734
11.097,0.005401,-0.01544,0.001651,-0.001312,0.001311,0.000447,0.007115,-0.525641,0.002592,-0.778086,-257.680595,-0.780801,66.745238
11.1171,0.00567,-0.015526,0.001113,-0.001296,0.001311,0.000124,0.006311,-0.525454,0.001725,-0.778086,-257.680595,-0.780801,66.745238
11.1374,0.005417,-0.015482,0.00101,-0.001283,0.001312,-0.000108,0.006311,-0.525454,0.001725,-0.778086,-257.680595,-0.780801,66.745238
11.1572,0.005767,-0.015403,0.000988,-0.001272,0.001313,-0.000273,0.005894,-0.525443,0.001021,-0.853286,-257.681164,-0.705601,66.744775
11.1773,0.005718,-0.015372,-5.1e-05,-0.001247,0.001327,-5.7e-05,0.006044,-0.525422,0.001009,-0.853286,-257.681164,-0.705601,66.744775
11.1972,0.005629,-0.015593,0.002699,-0.001227,0.001338,9.4e-05,0.00567,-0.52535,-5.3e-05,-0.778614,-257.681534,-0.780273,66.744354
11.2175,0.005802,-0.015259,0.001758,-0.001252,0.001316,-0.000404,0.006882,-0.525568,0.002448,-0.778614,-257.681534,-0.780273,66.744354
11.2374,0.00554,-0.01505,0.000468,-0.001273,0.0013,-0.000762,0.006882,-0.525568,0.002448,-0.778614,-257.681534,-0.780273,66.744354
11.2568,0.005616,-0.015126,0.002015,-0.001291,0.001289,-0.001019,0.005732,-0.524999,0.000472,-0.849275,-257.682212,-0.806655,66.743706
11.2769,0.005538,-0.015188,8.9e-05,-0.001274,0.001303,-0.000618,0.006098,-0.525045,0.001102,-0.849275,-257.682212,-0.806655,66.743706
11.297,0.005457,-0.015008,0.002572,-0.00126,0.001314,-0.000339,0.00558,-0.525185,8.8e-05,-0.774285,-257.68225,-0.881645,66.743647
11.317,0.005676,-0.014795,0.001348,-0.00128,0.001299,-0.000678,0.006661,-0.525022,0.002348,-0.774285,-257.68225,-0.881645,66.743647
11.3369,0.005901,-0.015202,0.000402,-0.001298,0.001288,-0.000921,0.006661,-0.525022,0.002348,-0.774285,-257.68225,-0.881645,66.743647
11.3572,0.005265,-0.015366,0.002454,-0.001312,0.00128,-0.001095,0.006055,-0.52515,0.000388,-0.72109,-257.682891,-0.879338,66.742892
11.377,0.005738,-0.015388,0.003091,-0.001295,0.001295,-0.000733,0.006237,-0.525231,0.001227,-0.72109,-257.682891,-0.879338,66.742892
11.3969,0.005619,-0.015425,0.001348,-0.001281,0.001306,-0.000481,0.007305,-0.525376,0.003085,-0.646088,-257.683023,-0.95434,66.742676
11.4169,0.005478,-0.015365,0.002015,-0.001275,0.001311,-0.000436,0.006394,-0.52542,0.001502,-0.646088,-257.683023,-0.95434,66.742676
11.437,0.005358,-0.015486,0.001714,-0.001271,0.001315,-0.000405,0.006394,-0.52542,0.001502,-0.646088,-257.683023,-0.95434,66.742676
11.4574,0.005629,-0.014847,0.00089,-0.001267,0.001317,-0.000384,0.006182,-0.525434,0.001695,-0.668449,-257.683636,-0.895499,66.741907
11.4771,0.005475,-0.015202,0.001045,-0.001254,0.001325,-0.000307,0.006136,-0.525188,0.001364,-0.668449,-257.683636,-0.895499,66.741907
11.4968,0.005396,-0.014458,0.000693,-0.001243,0.00133,-0.000254,0.005969,-0.52516,0.001033,-0.707324,-257.684286,-0.886124,66.741126
11.5167,0.005414,-0.01485,0.000893,-0.001227,0.00134,0.000104,0.005767,-0.524519,0.000723,-0.707324,-257.684286,-0.886124,66.741126
11.5367,0.005478,-0.01513,0.00275,-0.001215,0.001348,0.000355,0.005767,-0.524519,0.000723,-0.707324,-257.684286,-0.886124,66.741126
11.5568,0.005748,-0.015074,0.00148,-0.001205,0.001353,0.000531,0.006831,-0.525075,0.00274,-0.757126,-257.684942,-0.873802,66.740383
11.5769,0.005489,-0.015114,-0.0001,-0.001237,0.001327,-7e-06,0.006692,-0.525068,0.002229,-0.757126,-257.684942,-0.873802,66.740383
11.5969,0.005281,-0.015437,0.000805,-0.001263,0.001309,-0.000394,0.005423,-0.525099,-9.6e-05,-0.832125,-257.685235,-0.798802,66.740158
11.6168,0.005728,-0.014623,0.00102,-0.001217,0.001333,7e-06,0.005668,-0.525408,0.000728,-0.832125,-257.685235,-0.798802,66.740158
11.6368,0.005141,-0.014875,0.001316,-0.00118,0.001352,0.000288,0.005668,-0.525408,0.000728,-0.832125,-257.685235,-0.798802,66.740158
11.6571,0.005894,-0.014812,0.001344,-0.00115,0.001367,0.000484,0.005777,-0.524837,0.001307,-0.756998,-257.68568,-0.87393,66.739621
11.6773,0.005394,-0.01489,7.3e-05,-0.001166,0.001358,0.000332,0.006099,-0.524822,0.001321,-0.756998,-257.68568,-0.87393,66.739621
11.6968,0.005098,-0.014785,0.000788,-0.001179,0.001351,0.000223,0.005416,-0.524874,7.7e-05,-0.831866,-257.685993,-0.799062,66.739378
11.717,0.005082,-0.014887,0.002081,-0.001152,0.001365,0.000438,0.005491,-0.524792,0.000724,-0.831866,-257.685993,-0.799062,66.739378
11.7371,0.005481,-0.014728,0.002089,-0.00113,0.001375,0.000589,0.005491,-0.524792,0.000724,-0.831866,-257.685993,-0.799062,66.739378
11.7567,0.005324,-0.014621,0.002026,-0.001112,0.001382,0.000695,0.0065,-0.524674,0.002098,-0.900321,-257.686698,-0.800379,66.738748
11.7771,0.00535,-0.014352,0.00199,-0.001157,0.001353,0.000171,0.006437,-0.524646,0.00207,-0.900321,-257.686698,-0.800379,66.738748
11.7969,0.005545,-0.014545,0.001139,-0.001195,0.001331,-0.000206,0.00634,-0.52432,0.002005,-0.975416,-257.687293,-0.725283,66.738337
11.8174,0.00547,-0.015026,0.002119,-0.001212,0.001328,-0.000107,0.006144,-0.524522,0.00122,-0.975416,-257.687293,-0.725283,66.738337
11.8368,0.005207,-0.014468,0.000548,-0.001225,0.001325,-3.9e-05,0.006144,-0.524522,0.00122,-0.975416,-257.687293,-0.725283,66.738337
11.8569,0.005193,-0.014726,0.001327,-0.001236,0.001323,7e-06,0.005467,-0.524447,0.000548,-0.90051,-257.687553,-0.800189,66.738048
11.8768,0.005041,-0.014742,0.000945,-0.001212,0.001336,0.000213,0.005629,-0.524557,0.000864,-0.90051,-257.687553,-0.800189,66.738048
11.8967,0.005043,-0.014618,0.000211,-0.001192,0.001346,0.000358,0.005487,-0.524704,0.000945,-0.825507,-257.688207,-0.817601,66.737397
11.9172,0.005414,-0.014749,0.001482,-0.001145,0.001368,0.000771,0.005177,-0.524623,0.000273,-0.825507,-257.688207,-0.817601,66.737397
11.937,0.005181,-0.014534,0.001949,-0.001107,0.001384,0.001064,0.005177,-0.524623,0.000273,-0.825507,-257.688207,-0.817601,66.737397
11.9568,0.005285,-0.014578,0.002796,-0.001076,0.001396,0.00127,0.006134,-0.524487,0.001961,-0.900622,-257.68885,-0.757515,66.73686
11.9767,0.005175,-0.014736,0.000769,-0.001124,0.00136,0.000511,0.006362,-0.524518,0.0023,-0.900622,-257.68885,-0.757515,66.73686
11.9971,0.005229,-0.01462,0.0019,-0.001164,0.001334,-4e-05,0.00556,-0.524727,0.000775,-0.97551,-257.689045,-0.682627,66.73676
12.017,0.005216,-0.014101,0.001141,-0.001184,0.001326,-0.000244,0.006141,-0.524628,0.001799,-0.97551,-257.689045,-0.682627,66.73676
12.0373,0.005237,-0.015049,-5.1e-05,-0.001199,0.00132,-0.000391,0.006141,-0.524628,0.001799,-0.97551,-257.689045,-0.682627,66.73676
12.0573,0.004995,-0.014734,0.000212,-0.001212,0.001316,-0.000498,0.005189,-0.525024,-4.9e-05,-0.900523,-257.689361,-0.757615,66.736438
12.0773,0.005232,-0.014183,0.000939,-0.001151,0.00135,0.000299,0.005151,-0.524903,5.8e-05,-0.900523,-257.689361,-0.757615,66.736438
12.0969,0.004812,-0.01455,-0.000295,-0.001102,0.001375,0.000858,0.005699,-0.524169,0.000936,-0.825525,-257.689562,-0.832613,66.73618
12.1169,0.005258,-0.014578,0.00173,-0.001044,0.001401,0.001387,0.00475,-0.524517,-0.00019,-0.825525,-257.689562,-0.832613,66.73618
12.1367,0.004921,-0.014877,0.001797,-0.000997,0.00142,0.001762,0.00475,-0.524517,-0.00019,-0.825525,-257.689562,-0.832613,66.73618
12.1573,0.004964,-0.014503,0.002268,-0.000959,0.001435,0.002027,0.005823,-0.524861,0.001804,-0.900662,-257.689808,-0.757476,66.736024
12.1774,0.005249,-0.014214,0.001825,-0.000999,0.001405,0.001179,0.005945,-0.52471,0.001997,-0.900662,-257.689808,-0.757476,66.736024
12.1973,0.004897,-0.014621,0.000846,-0.001033,0.001382,0.000563,0.006179,-0.524214,0.001825,-0.9757,-257.689809,-0.682437,66.736023
12.2167,0.004757,-0.014418,0.003489,-0.001032,0.001386,0.000586,0.005406,-0.524584,0.000935,-0.9757,-257.689809,-0.682437,66.736023
12.2369,0.00521,-0.014561,0.00047,-0.001032,0.00139,0.000598,0.005406,-0.524584,0.000935,-0.9757,-257.689809,-0.682437,66.736023
12.2567,0.004984,-0.014284,0.002839,-0.001031,0.001393,0.000603,0.005415,-0.524516,0.00049,-1.031252,-257.690451,-0.757275,66.735556
12.2771,0.004587,-0.014352,0.000631,-0.001062,0.001379,0.000362,0.005827,-0.524415,0.001453,-1.031252,-257.690451,-0.757275,66.735556
12.2968,0.005032,-0.014234,2.2e-05,-0.001087,0.001369,0.000188,0.004877,-0.524308,0.00065,-1.041193,-257.691258,-0.782178,66.734981
12.3168,0.004685,-0.014239,0.000383,-0.001056,0.001387,0.000767,0.005027,-0.524238,7.7e-05,-1.041193,-257.691258,-0.782178,66.734981
12.3373,0.004803,-0.01418,0.001093,-0.001032,0.001401,0.001175,0.005027,-0.524238,7.7e-05,-1.041193,-257.691258,-0.782178,66.734981
12.3568,0.004692,-0.014369,0.001208,-0.001013,0.00141,0.001463,0.005326,-0.524135,0.0011,-0.966171,-257.691826,-0.856563,66.734469
12.3769,0.005086,-0.014215,0.00302,-0.001019,0.001403,0.001116,0.005315,-0.524224,0.001145,-0.966171,-257.691826,-0.856563,66.734469
12.3969,0.004567,-0.014273,0.001927,-0.001023,0.001398,0.000866,0.006625,-0.52421,0.003022,-1.041087,-257.691876,-0.781647,66.734447
12.4168,0.004749,-0.014077,0.001071,-0.001045,0.00138,0.000314,0.005647,-0.524266,0.002027,-1.041087,-257.691876,-0.781647,66.734447
12.4369,0.004965,-0.014082,0.001234,-0.001063,0.001368,-8.4e-05,0.005647,-0.524266,0.002027,-1.041087,-257.691876,-0.781647,66.734447
12.457,0.004534,-0.014371,0.001363,-0.001078,0.00136,-0.00037,0.005557,-0.52403,0.001266,-1.082637,-257.692649,-0.706524,66.733971
12.4768,0.00466,-0.014555,-0.000665,-0.001078,0.001365,-0.000266,0.005415,-0.524166,0.00131,-1.082637,-257.692649,-0.706524,66.733971
12.4968,0.004806,-0.014106,0.002141,-0.001078,0.00137,-0.000194,0.004317,-0.524551,-0.000665,-1.007399,-257.692708,-0.781762,66.733898
12.5171,0.00473,-0.01427,0.001313,-0.0011,0.00136,-0.000397,0.005755,-0.524146,0.001886,-1.007399,-257.692708,-0.781762,66.733898
12.5368,0.004713,-0.014185,0.000399,-0.001119,0.001352,-0.000543,0.005755,-0.524146,0.001886,-1.007399,-257.692708,-0.781762,66.733898
12.5569,0.004947,-0.014234,0.001711,-0.001133,0.001346,-0.000647,0.004895,-0.524159,0.000398,-0.932629,-257.693012,-0.856531,66.73356
12.5771,0.00467,-0.01451,0.001183,-0.001112,0.001362,-0.00028,0.005272,-0.524186,0.000937,-0.932629,-257.693012,-0.856531,66.73356
12.5967,0.004845,-0.013928,0.000695,-0.001096,0.001373,-2.3e-05,0.005262,-0.524496,0.001179,-0.857638,-257.693192,-0.931523,66.733307
12.6169,0.00472,-0.014348,0.001159,-0.001083,0.001383,0.00026,0.005204,-0.523976,0.000736,-0.857638,-257.693192,-0.931523,66.733307
12.6369,0.004834,-0.014273,0.000913,-0.001073,0.001389,0.000458,0.005204,-0.523976,0.000736,-0.857638,-257.693192,-0.931523,66.733307
12.657,0.004645,-0.014616,0.000918,-0.001065,0.001394,0.000597,0.005255,-0.524217,0.000912,-0.892201,-257.693868,-0.902382,66.732622
12.6775,0.00471,-0.013669,0.000493,-0.001049,0.0014,0.000603,0.005192,-0.524374,0.000915,-0.892201,-257.693868,-0.902382,66.732622
12.6967,0.004526,-0.013645,0.001524,-0.001036,0.001405,0.000607,0.004942,-0.523644,0.000502,-0.967196,-257.694331,-0.827387,66.732289
12.7171,0.004329,-0.0143,0.001254,-0.001049,0.001395,0.000361,0.005273,-0.523643,0.001441,-0.967196,-257.694331,-0.827387,66.732289
12.7369,0.00464,-0.014249,0.000838,-0.00106,0.001388,0.000185,0.005273,-0.523643,0.001441,-0.967196,-257.694331,-0.827387,66.732289
12.7568,0.004459,-0.014104,0.001399,-0.001068,0.001383,5.9e-05,0.005029,-0.524197,0.00086,-1.042453,-257.695057,-0.78463,66.731772
12.7767,0.004445,-0.014046,0.003182,-0.001049,0.001392,0.000138,0.005083,-0.524153,0.001081,-1.042453,-257.695057,-0.78463,66.731772
12.7969,0.004594,-0.013953,0.002297,-0.001033,0.0014,0.000193,0.006046,-0.524015,0.003185,-0.967824,-257.695518,-0.85926,66.731326
12.8169,0.004378,-0.01387,0.000967,-0.001068,0.001375,-0.000309,0.00579,-0.523956,0.002377,-0.967824,-257.695518,-0.85926,66.731326
12.8371,0.004321,-0.014157,0.001869,-0.001097,0.001357,-0.000669,0.00579,-0.523956,0.002377,-0.967824,-257.695518,-0.85926,66.731326
12.8572,0.004403,-0.014166,-3.5e-05,-0.001121,0.001344,-0.000927,0.005231,-0.524098,0.001877,-0.97302,-257.696239,-0.89234,66.730679
12.8772,0.004786,-0.013848,0.001872,-0.001078,0.001368,-0.000557,0.004881,-0.524119,0.001098,-0.97302,-257.696239,-0.89234,66.730679
12.8971,0.004286,-0.013899,-0.00078,-0.001043,0.001387,-0.000299,0.005738,-0.523844,0.001871,-0.898029,-257.696282,-0.967331,66.73061
12.9168,0.005102,-0.013546,0.002373,-0.000956,0.001427,0.000754,0.004057,-0.523893,-0.000538,-0.898029,-257.696282,-0.967331,66.73061
12.9372,0.004081,-0.013855,0.00211,-0.000888,0.001456,0.001501,0.004057,-0.523893,-0.000538,-0.898029,-257.696282,-0.967331,66.73061
12.9572,0.004296,-0.013938,0.002026,-0.000834,0.001477,0.002031,0.005115,-0.523798,0.002098,-0.857288,-257.696899,-0.98438,66.72988
12.9767,0.004796,-0.013635,0.001597,-0.000869,0.001448,0.001158,0.005196,-0.523847,0.002068,-0.857288,-257.696899,-0.98438,66.72988
12.9967,0.004397,-0.013961,0.002262,-0.000899,0.001427,0.000522,0.005611,-0.523634,0.001597,-0.932283,-257.696899,-0.909386,66.72988
13.0169,0.004679,-0.013694,-0.000513,-0.000946,0.001403,1.3e-05,0.005556,-0.523931,0.002202,-0.932283,-257.696899,-0.909386,66.72988
13.037,0.004036,-0.013715,-0.000174,-0.000984,0.001385,-0.000357,0.005556,-0.523931,0.002202,-0.932283,-257.696899,-0.909386,66.72988
13.0567,0.004381,-0.013683,-6.6e-05,-0.001015,0.001373,-0.000625,0.003921,-0.523677,-0.000162,-1.00729,-257.697409,-0.888945,66.729509
13.0767,0.004321,-0.01388,0.000866,-0.000941,0.001411,0.000318,0.004092,-0.523675,-0.000121,-1.00729,-257.697409,-0.888945,66.729509
13.0969,0.004378,-0.013917,0.001146,-0.000884,0.00144,0.000979,0.004754,-0.523868,0.000862,-0.932288,-257.697566,-0.963947,66.729284
13.1173,0.004455,-0.013449,0.002113,-0.000895,0.001436,0.000793,0.004943,-0.523912,0.00112,-0.932288,-257.697566,-0.963947,66.729284
13.1368,0.004463,-0.013859,0.001218,-0.000905,0.001434,0.000656,0.004943,-0.523912,0.00112,-0.932288,-257.697566,-0.963947,66.729284
13.1566,0.004212,-0.013708,0.001799,-0.000913,0.001432,0.000556,0.005076,-0.523846,0.001225,-1.007243,-257.697762,-0.888992,66.729176
13.177,0.003975,-0.013941,0.000835,-0.000933,0.001423,0.000325,0.005097,-0.523787,0.001461,-1.007243,-257.697762,-0.888992,66.729176
13.1969,0.004294,-0.013596,0.001629,-0.000949,0.001416,0.000158,0.004375,-0.523901,0.000851,-1.082274,-257.698465,-0.874891,66.728674
13.2168,0.004495,-0.013764,0.001795,-0.000963,0.001411,-5e-06,0.005054,-0.523621,0.001558,-1.082274,-257.698465,-0.874891,66.728674
13.2366,0.004432,-0.013599,0.002022,-0.000974,0.001406,-0.000123,0.005054,-0.523621,0.001558,-1.082274,-257.698465,-0.874891,66.728674
13.2567,0.004093,-0.013771,0.002084,-0.000983,0.001404,-0.000208,0.005429,-0.523548,0.002027,-1.010657,-257.69907,-0.947459,66.728124
13.2766,0.004562,-0.013713,0.0003,-0.001006,0.001392,-0.000475,0.005313,-0.523633,0.002051,-1.010657,-257.69907,-0.947459,66.728124
13.2968,0.004257,-0.013459,0.003382,-0.001025,0.001383,-0.000665,0.004689,-0.523676,0.000295,-0.935659,-257.699606,-1.000143,66.727518
13.3171,0.004213,-0.013923,0.000151,-0.001076,0.001351,-0.001187,0.005892,-0.523469,0.003172,-0.935659,-257.699606,-1.000143,66.727518
13.3368,0.004064,-0.013697,-0.000214,-0.001118,0.001326,-0.001563,0.005892,-0.523469,0.003172,-0.935659,-257.699606,-1.000143,66.727518
13.3572,0.0042,-0.01361,-4.6e-05,-0.001154,0.001307,-0.001835,0.003931,-0.523662,-0.000228,-0.860026,-257.699937,-1.050611,66.727037
13.3771,0.004558,-0.013652,-0.00033,-0.001049,0.001362,-0.000506,0.004028,-0.523637,-0.000156,-0.860026,-257.699937,-1.050611,66.727037
13.3966,0.004671,-0.013714,0.000391,-0.000965,0.001404,0.000429,0.004028,-0.523637,-0.000156,-0.785653,-257.699937,-1.124985,66.727036
13.417,0.003856,-0.013242,0.001566,-0.000957,0.001415,0.000817,0.004834,-0.523709,0.000336,-0.785653,-257.699937,-1.124985,66.727036
13.437,0.004123,-0.013766,0.000193,-0.000952,0.001423,0.001086,0.004834,-0.523709,0.000336,-0.785653,-257.699937,-1.124985,66.727036
13.4567,0.004292,-0.013428,0.00042,-0.000947,0.001427,0.001271,0.004217,-0.523759,0.000194,-0.861057,-257.700026,-1.04958,66.726967
13.4768,0.004125,-0.013473,0.001401,-0.00091,0.001442,0.001423,0.004336,-0.523622,0.000287,-0.861057,-257.700026,-1.04958,66.726967
13.4971,0.004011,-0.013669,0.002068,-0.00088,0.001453,0.001529,0.004839,-0.523472,0.001401,-0.935741,-257.700034,-0.974896,66.726963
13.517,0.004351,-0.01344,0.001262,-0.000903,0.001432,0.000806,0.005048,-0.523653,0.002017,-0.935741,-257.700034,-0.974896,66.726963
13.5368,0.003892,-0.013443,0.000501,-0.000922,0.001417,0.000282,0.005048,-0.523653,0.002017,-0.935741,-257.700034,-0.974896,66.726963
13.5569,0.004488,-0.013538,0.002781,-0.000939,0.001407,-9.7e-05,0.004147,-0.523442,0.000502,-1.011028,-257.700045,-0.89961,66.726959
13.5771,0.004092,-0.013223,0.001986,-0.000945,0.001408,-0.000127,0.004872,-0.523481,0.001442,-1.011028,-257.700045,-0.89961,66.726959
13.5966,0.004183,-0.01357,0.002266,-0.00095,0.001409,-0.000152,0.00508,-0.523186,0.001984,-0.962313,-257.700581,-0.974315,66.72639
13.6168,0.003946,-0.013216,0.001547,-0.000981,0.001393,-0.000501,0.005316,-0.523534,0.002242,-0.962313,-257.700581,-0.974315,66.72639
13.6367,0.004612,-0.013319,0.002963,-0.001006,0.001381,-0.000753,0.005316,-0.523534,0.002242,-0.962313,-257.700581,-0.974315,66.72639
13.6572,0.004382,-0.013319,0.001442,-0.001027,0.001373,-0.000933,0.006084,-0.523259,0.002957,-0.945597,-257.701216,-1.006828,66.725695
13.6773,0.004328,-0.013224,0.003163,-0.001075,0.001353,-0.001095,0.005681,-0.523277,0.002332,-0.945597,-257.701216,-1.006828,66.725695
13.6971,0.003716,-0.013478,0.001203,-0.001115,0.001337,-0.001211,0.005934,-0.52321,0.003157,-0.870624,-257.701346,-1.0818,66.725476
13.7172,0.003667,-0.013461,0.0013,-0.001058,0.001366,-0.000888,0.004467,-0.523454,0.00137,-0.870624,-257.701346,-1.0818,66.725476
13.7368,0.004098,-0.013169,0.000668,-0.001012,0.001388,-0.000663,0.004467,-0.523454,0.00137,-0.870624,-257.701346,-1.0818,66.725476
13.7572,0.004279,-0.01351,0.000656,-0.000975,0.001406,-0.000506,0.004435,-0.523163,0.000665,-0.795621,-257.701395,-1.078265,66.725386
13.7774,0.004126,-0.013224,0.001347,-0.000951,0.001422,-3.8e-05,0.004507,-0.523304,0.000661,-0.795621,-257.701395,-1.078265,66.725386
13.7971,0.004163,-0.013269,0.001119,-0.000932,0.001433,0.000289,0.004783,-0.523181,0.001331,-0.843915,-257.701956,-1.053656,66.724632
13.8172,0.004362,-0.013371,-2.6e-05,-0.000936,0.001433,0.000279,0.004736,-0.523259,0.001136,-0.843915,-257.701956,-1.053656,66.724632
13.8374,0.004005,-0.013066,0.001186,-0.000939,0.001432,0.00027,0.004736,-0.523259,0.001136,-0.843915,-257.701956,-1.053656,66.724632
13.8573,0.004229,-0.013303,0.001618,-0.000941,0.001432,0.000262,0.004592,-0.523042,0.001189,-0.919034,-257.70226,-0.978537,66.724376
13.8773,0.004289,-0.013191,0.001444,-0.000949,0.001427,0.000149,0.004779,-0.523146,0.001364,-0.919034,-257.70226,-0.978537,66.724376
13.8971,0.003985,-0.012975,0.001949,-0.000956,0.001424,6.8e-05,0.005001,-0.523155,0.001449,-0.993913,-257.702833,-0.933821,66.723886
13.9177,0.003877,-0.013232,0.001419,-0.000978,0.00141,-0.000221,0.00498,-0.522989,0.001904,-0.993913,-257.702833,-0.933821,66.723886
13.9374,0.003833,-0.013412,0.001206,-0.000997,0.0014,-0.000428,0.00498,-0.522989,0.001904,-0.993913,-257.702833,-0.933821,66.723886
13.9569,0.003805,-0.012908,0.001292,-0.001012,0.001392,-0.000575,0.004409,-0.523353,0.001209,-0.99295,-257.703521,-0.965781,66.723225
13.9775,0.004514,-0.013331,0.001053,-0.000979,0.001408,-0.000387,0.004427,-0.523166,0.001243,-0.99295,-257.703521,-0.965781,66.723225
13.9966,0.003883,-0.013435,0.001289,-0.000952,0.00142,-0.000256,0.005037,-0.523308,0.001046,-0.917936,-257.703809,-1.040795,66.722826
14.0172,0.004344,-0.013037,-0.001436,-0.000936,0.001428,-0.000175,0.004584,-0.523422,0.001267,-0.917936,-257.703809,-1.040795,66.722826
14.037,0.004234,-0.013017,0.001992,-0.000923,0.001434,-0.000118,0.004584,-0.523422,0.001267,-0.917936,-257.703809,-1.040795,66.722826
14.0571,0.003704,-0.012909,0.001343,-0.000913,0.001439,-7.8e-05,0.00521,-0.522957,0.001981,-0.925076,-257.704439,-1.027411,66.722092
14.0774,0.00386,-0.013202,0.001226,-0.000938,0.001427,-0.000251,0.004869,-0.52293,0.001719,-0.925076,-257.704439,-1.027411,66.722092
14.0972,0.003977,-0.012856,0.002473,-0.000958,0.001417,-0.000375,0.004458,-0.523159,0.001223,-0.99005,-257.705062,-1.020116,66.721439
14.1172,0.003946,-0.012851,0.001462,-0.000994,0.001396,-0.000716,0.00517,-0.522879,0.002366,-0.99005,-257.705062,-1.020116,66.721439
14.1373,0.003986,-0.013166,0.001057,-0.001024,0.00138,-0.00096,0.00517,-0.522879,0.002366,-0.99005,-257.705062,-1.020116,66.721439
14.1572,0.003518,-0.012662,0.002083,-0.001048,0.001368,-0.001134,0.004492,-0.523115,0.001045,-0.914964,-257.70558,-1.043819,66.720792
14.1779,0.003665,-0.013272,0.001925,-0.001021,0.001384,-0.000882,0.004524,-0.522925,0.001465,-0.914964,-257.70558,-1.043819,66.720792
14.1966,0.003854,-0.012775,0.000959,-0.000999,0.001396,-0.000706,0.004643,-0.523264,0.001921,-0.840089,-257.70565,-1.100323,66.720662
14.217,0.003683,-0.013197,0.001737,-0.000972,0.001411,-0.000378,0.004369,-0.522817,0.001043,-0.840089,-257.70565,-1.100323,66.720662
14.2367,0.00364,-0.01289,0.002329,-0.000951,0.001423,-0.000149,0.004369,-0.522817,0.001043,-0.840089,-257.70565,-1.100323,66.720662
14.2571,0.00334,-0.012757,0.000985,-0.000933,0.001431,1.1e-05,0.00479,-0.522836,0.002302,-0.767997,-257.706154,-1.070252,66.719908
14.2768,0.003768,-0.012607,0.000874,-0.000924,0.001431,-0.000207,0.0044,-0.522798,0.001764,-0.767997,-257.706154,-1.070252,66.719908
14.2969,0.003807,-0.012595,-0.000521,-0.000917,0.00143,-0.000362,0.0042,-0.52259,0.000872,-0.842875,-257.706424,-0.995374,66.71964
14.3175,0.003684,-0.012829,0.00159,-0.000846,0.001462,0.000634,0.003598,-0.522594,-0.000401,-0.842875,-257.706424,-0.995374,66.71964
14.337,0.003933,-0.012486,-0.001129,-0.000791,0.001485,0.001341,0.003598,-0.522594,-0.000401,-0.842875,-257.706424,-0.995374,66.71964
14.3568,0.003301,-0.012521,0.00141,-0.000747,0.001501,0.001842,0.003325,-0.522435,-0.001141,-0.917997,-257.706932,-1.064187,66.719006
14.3771,0.00374,-0.012713,0.000986,-0.000717,0.001509,0.002041,0.003602,-0.522464,-0.000114,-0.917997,-257.706932,-1.064187,66.719006
14.3974,0.003651,-0.012626,-8.7e-05,-0.000693,0.001515,0.002181,0.004243,-0.522713,0.000986,-0.993015,-257.706932,-0.989169,66.719006
14.4178,0.003634,-0.01287,-0.000392,-0.000673,0.001519,0.002216,0.00366,-0.522634,4e-06,-0.993015,-257.706932,-0.989169,66.719006
14.4374,0.003791,-0.01281,0.000876,-0.000658,0.001523,0.00224,0.00366,-0.522634,4e-06,-0.993015,-257.706932,-0.989169,66.719006
14.457,0.003922,-0.012783,0.002622,-0.000645,0.001525,0.002257,0.004237,-0.522809,0.000876,-1.068046,-257.706932,-0.914138,66.719006
14.4771,0.003776,-0.012518,0.001415,-0.000706,0.001491,0.001499,0.004657,-0.522798,0.001593,-1.068046,-257.706932,-0.914138,66.719006
14.4968,0.00378,-0.01278,0.000674,-0.000757,0.001466,0.000951,0.004497,-0.522518,0.001415,-1.143015,-257.706933,-0.839169,66.719006
14.5172,0.003735,-0.012673,0.000831,-0.000762,0.001466,0.000955,0.004156,-0.522758,0.000738,-1.143015,-257.706933,-0.839169,66.719006
14.5367,0.00361,-0.012782,0.000234,-0.000766,0.001467,0.000956,0.004156,-0.522758,0.000738,-1.143015,-257.706933,-0.839169,66.719006
14.5568,0.00403,-0.012563,9.5e-05,-0.000769,0.001468,0.000953,0.003701,-0.522727,0.00027,-1.216403,-257.707725,-0.863135,66.718583
14.577,0.003808,-0.012634,-0.000197,-0.000749,0.001478,0.001235,0.003851,-0.522654,0.000203,-1.216403,-257.707725,-0.863135,66.718583
14.5971,0.003702,-0.012427,0.002017,-0.000733,0.001485,0.001433,0.003683,-0.522587,-0.000166,-1.211993,-257.708601,-0.855919,66.718114
14.6171,0.003625,-0.012427,0.00053,-0.000785,0.001456,0.000803,0.004637,-0.522438,0.001825,-1.211993,-257.708601,-0.855919,66.718114
14.637,0.003484,-0.012708,4.4e-05,-0.000828,0.001434,0.000349,0.004637,-0.522438,0.001825,-1.211993,-257.708601,-0.855919,66.718114
14.657,0.003682,-0.012549,0.000944,-0.000864,0.001419,2.2e-05,0.003488,-0.522668,8e-05,-1.26981,-257.709217,-0.78078,66.717876
14.677,0.004074,-0.012808,0.001627,-0.000819,0.001442,0.000452,0.003764,-0.522615,0.00044,-1.26981,-257.709217,-0.78078,66.717876
14.6972,0.00353,-0.012294,0.00215,-0.000784,0.001459,0.000753,0.0049,-0.5228,0.001629,-1.194808,-257.70932,-0.855782,66.717775
14.7173,0.003573,-0.012692,0.001693,-0.000829,0.001434,0.000203,0.00465,-0.522336,0.002105,-1.194808,-257.70932,-0.855782,66.717775
14.737,0.003632,-0.012558,0.001172,-0.000867,0.001416,-0.000194,0.00465,-0.522336,0.002105,-1.194808,-257.70932,-0.855782,66.717775
14.757,0.003519,-0.012498,0.002053,-0.000897,0.001403,-0.000479,0.004198,-0.522499,0.001202,-1.182994,-257.710114,-0.905541,66.717288
14.7772,0.003326,-0.011876,0.001745,-0.000895,0.001408,-0.000455,0.004344,-0.522491,0.001552,-1.182994,-257.710114,-0.905541,66.717288
14.7973,0.003645,-0.0124,0.000419,-0.000893,0.001413,-0.00044,0.004212,-0.521869,0.001743,-1.108094,-257.7102,-0.980441,66.717173
14.8177,0.00354,-0.012757,0.002082,-0.000859,0.001433,7.6e-05,0.003889,-0.522353,0.000533,-1.108094,-257.7102,-0.980441,66.717173
14.8374,0.00323,-0.012318,0.001989,-0.000832,0.001448,0.000437,0.003889,-0.522353,0.000533,-1.108094,-257.7102,-0.980441,66.717173
14.8574,0.003585,-0.012749,0.001971,-0.00081,0.001459,0.00069,0.004229,-0.52229,0.001982,-1.033001,-257.710457,-1.055534,66.716836
14.8773,0.003578,-0.01252,0.002091,-0.000827,0.001445,0.000202,0.004374,-0.522473,0.001977,-1.033001,-257.710457,-1.055534,66.716836
14.8969,0.003497,-0.012242,0.002135,-0.000841,0.001436,-0.00015,0.00463,-0.522494,0.002102,-1.107902,-257.710895,-0.980633,66.716554
14.9171,0.003519,-0.012464,0.001404,-0.000874,0.001421,-0.000461,0.004589,-0.522262,0.002133,-1.107902,-257.710895,-0.980633,66.716554
14.9371,0.00353,-0.0127,0.001893,-0.000901,0.001409,-0.000685,0.004589,-0.522262,0.002133,-1.107902,-257.710895,-0.980633,66.716554
14.9569,0.00377,-0.012223,0.000823,-0.000923,0.001401,-0.000845,0.004469,-0.522653,0.001889,-1.0329,-257.71138,-1.055635,66.716021
14.9771,0.003567,-0.012561,0.000125,-0.000917,0.001409,-0.000673,0.004353,-0.522474,0.001459,-1.0329,-257.71138,-1.055635,66.716021
