mach0312/omni-docking-bench/src/icros_test_setup/results/MPPI_sample/timeseries/trial_092.csv
t,x,y,yaw,vx,vy,wz,bl_x,bl_y,bl_yaw,front_steering_joint,front_wheel_joint,rear_steering_joint,rear_wheel_joint
0.0,0.021222,0.028236,-0.033245,0.0,0.0,0.0,0.005194,-0.482024,-0.032353,0.086911,-262.62027,-0.834937,65.839446
0.0003,0.0212,0.0284,-0.034502,0.0,0.0,0.0,0.004488,-0.481595,-0.033622,0.086911,-262.621298,-0.834937,65.83792
0.0006,0.021153,0.028349,-0.031597,0.0,0.0,0.0,0.005179,-0.481733,-0.03197,0.086911,-262.621579,-0.834937,65.837504
0.0008,0.021365,0.028422,-0.03363,0.0,0.0,0.0,0.005179,-0.481733,-0.03197,0.086911,-262.621579,-0.834937,65.837504
0.0011,0.020927,0.028504,-0.032577,0.0,0.0,0.0,0.005179,-0.481733,-0.03197,0.086911,-262.621579,-0.834937,65.837504
0.0013,0.02126,0.028269,-0.033993,0.0,0.0,0.0,0.004585,-0.481665,-0.03203,0.086911,-262.621579,-0.834937,65.837504
0.0015,0.021318,0.028481,-0.032739,0.0,0.0,0.0,0.004585,-0.481665,-0.03203,0.086911,-262.621579,-0.834937,65.837504
0.0017,0.02132,0.028472,-0.032964,0.0,0.0,0.0,0.004553,-0.481684,-0.032328,0.086911,-262.621579,-0.834937,65.837504
0.0019,0.021173,0.028414,-0.031779,0.0,0.0,0.0,0.004553,-0.481684,-0.032328,0.086911,-262.621579,-0.834937,65.837504
0.019,0.021459,0.028104,-0.032755,0.0,0.0,0.0,0.00493,-0.481322,-0.03188,0.086911,-262.621579,-0.834937,65.837504
0.0388,0.021427,0.028588,-0.033158,0.0,0.0,0.0,0.00493,-0.481322,-0.03188,0.086911,-262.621579,-0.834937,65.837504
0.0591,0.021206,0.028381,-0.032224,0.0,0.0,0.0,0.004519,-0.481132,-0.033158,0.086911,-262.621579,-0.834937,65.837504
0.0786,0.021416,0.028453,-0.033557,0.0,0.0,0.0,0.004623,-0.481222,-0.032779,0.086911,-262.621579,-0.834937,65.837504
0.0988,0.021544,0.028405,-0.032053,0.0,0.0,0.0,0.004305,-0.48126,-0.033557,0.086911,-262.621579,-0.834937,65.837504
0.119,0.021271,0.028557,-0.032119,-0.00076,-0.004668,0.010328,0.005123,-0.481327,-0.032182,0.086911,-262.621579,-0.834937,65.837504
0.1387,0.02105,0.028122,-0.033351,-0.000868,-0.005056,0.011097,0.005123,-0.481327,-0.032182,0.086911,-262.621579,-0.834937,65.837504
0.1585,0.021266,0.028277,-0.032467,-0.000967,-0.005377,0.011705,0.004044,-0.481595,-0.033351,0.086911,-262.621579,-0.834937,65.837504
0.179,0.021389,0.028615,-0.032245,-0.001029,-0.00564,0.012226,0.00432,-0.481536,-0.032984,0.086911,-262.621579,-0.834937,65.837504
0.1983,0.021203,0.028371,-0.031656,-0.001088,-0.005859,0.012637,0.004946,-0.48112,-0.032245,0.011683,-262.621579,-0.910165,65.837504
0.2185,0.021203,0.028218,-0.032215,-0.001171,-0.006041,0.013039,0.005051,-0.481351,-0.031709,0.011683,-262.621579,-0.910165,65.837504
0.2388,0.02129,0.028343,-0.032043,-0.001246,-0.006192,0.013358,0.005051,-0.481351,-0.031709,0.011683,-262.621579,-0.910165,65.837504
0.2585,0.02122,0.028589,-0.031996,-0.001313,-0.006315,0.01361,0.00495,-0.481395,-0.032043,-0.062994,-262.621579,-0.984842,65.837504
0.2788,0.021402,0.028497,-0.033286,-0.001368,-0.006416,0.013811,0.004932,-0.481294,-0.032024,-0.062994,-262.621579,-0.984842,65.837504
0.2987,0.021039,0.028076,-0.030607,-0.001417,-0.006498,0.013971,0.004429,-0.48122,-0.033286,-0.138068,-262.621579,-1.059916,65.837504
0.3187,0.02114,0.027847,-0.033646,-0.001479,-0.006567,0.014097,0.005342,-0.481644,-0.030846,-0.138068,-262.621579,-1.059916,65.837504
0.3386,0.021418,0.028128,-0.033972,-0.001533,-0.006623,0.014198,0.005342,-0.481644,-0.030846,-0.138068,-262.621579,-1.059916,65.837504
0.3587,0.021406,0.028225,-0.03317,-0.00158,-0.006668,0.014278,0.004096,-0.481578,-0.033972,-0.212956,-262.621579,-1.134803,65.837504
0.3786,0.021139,0.028354,-0.031099,-0.00158,-0.006702,0.014347,0.004255,-0.481545,-0.033649,-0.212956,-262.621579,-1.134803,65.837504
0.3985,0.021558,0.028574,-0.034066,-0.001581,-0.00673,0.014402,0.005281,-0.481399,-0.031099,-0.28796,-262.621579,-1.209807,65.837504
0.419,0.021055,0.028062,-0.032581,-0.001582,-0.006754,0.014445,0.004283,-0.481154,-0.033808,-0.28796,-262.621579,-1.209807,65.837504
0.4389,0.021305,0.028298,-0.032938,-0.001585,-0.006774,0.01448,0.004283,-0.481154,-0.033808,-0.28796,-262.621579,-1.209807,65.837504
0.4585,0.021228,0.028698,-0.032418,-0.001588,-0.00679,0.014508,0.00451,-0.481426,-0.032938,-0.363043,-262.621579,-1.28489,65.837504
0.479,0.021233,0.02825,-0.032283,-0.001604,-0.006805,0.014529,0.004586,-0.481266,-0.032726,-0.363043,-262.621579,-1.28489,65.837504
0.4986,0.021113,0.028263,-0.033008,-0.001618,-0.006818,0.014545,0.004772,-0.481484,-0.032283,-0.437975,-262.621579,-1.359823,65.837507
0.5185,0.021339,0.028231,-0.031975,-0.001622,-0.006827,0.01456,0.004326,-0.481461,-0.032942,-0.437975,-262.621579,-1.359823,65.837507
0.5385,0.02133,0.028277,-0.031618,-0.001626,-0.006834,0.014572,0.004326,-0.481461,-0.032942,-0.437975,-262.621579,-1.359823,65.837507
0.5588,0.020937,0.028217,-0.032239,-0.00163,-0.00684,0.014581,0.005208,-0.481469,-0.031615,-0.51299,-262.621585,-1.434837,65.837541
0.5788,0.021416,0.028233,-0.031929,-0.001656,-0.006847,0.014587,0.004916,-0.481489,-0.031871,-0.51299,-262.621585,-1.434837,65.837541
0.5984,0.021002,0.028521,-0.033665,-0.001678,-0.006853,0.014591,0.005134,-0.481514,-0.031914,-0.588078,-262.621619,-1.509925,65.837749
0.6185,0.021548,0.027993,-0.032623,-0.001659,-0.006853,0.0146,0.003943,-0.481217,-0.03352,-0.588078,-262.621619,-1.509925,65.837749
0.6386,0.021149,0.028219,-0.033189,-0.001643,-0.006854,0.014606,0.003943,-0.481217,-0.03352,-0.588078,-262.621619,-1.509925,65.837749
0.6587,0.021047,0.028048,-0.032517,-0.001631,-0.006855,0.014611,0.004217,-0.481545,-0.0331,-0.663317,-262.621777,-1.585165,65.838693
0.6789,0.021334,0.028041,-0.031573,-0.001636,-0.006858,0.014613,0.004318,-0.481606,-0.032851,-0.663317,-262.621777,-1.585165,65.838693
0.6983,0.020713,0.027901,-0.031577,-0.001641,-0.00686,0.014615,0.005214,-0.481782,-0.031414,-0.73797,-262.622144,-1.659817,65.840899
0.7187,0.020843,0.027853,-0.032428,-0.001661,-0.006863,0.014615,0.004664,-0.481843,-0.031554,-0.73797,-262.622144,-1.659817,65.840899
0.7385,0.021222,0.028003,-0.032394,-0.001677,-0.006865,0.014615,0.004664,-0.481843,-0.031554,-0.73797,-262.622144,-1.659817,65.840899
0.7587,0.021112,0.027843,-0.032302,-0.00169,-0.006866,0.014615,0.00465,-0.481918,-0.031997,-0.812947,-262.622837,-1.674397,65.845066
0.779,0.020697,0.027626,-0.032172,-0.001701,-0.006867,0.014739,0.00464,-0.481929,-0.032076,-0.812947,-262.622837,-1.674397,65.845066
0.7988,0.020169,0.027394,-0.031472,-0.00171,-0.006867,0.014836,0.004236,-0.482312,-0.031739,-0.883638,-262.62382,-1.677424,65.85093
0.8184,0.020036,0.027588,-0.03065,-0.001703,-0.006865,0.015001,0.004128,-0.48236,-0.031474,-0.883638,-262.62382,-1.677424,65.85093
0.8388,0.020032,0.02761,-0.030669,-0.001697,-0.006863,0.015131,0.004128,-0.48236,-0.031474,-0.883638,-262.62382,-1.677424,65.85093
0.8585,0.019622,0.027003,-0.029777,-0.001693,-0.006861,0.015235,0.004314,-0.482432,-0.030055,-0.908831,-262.62492,-1.677745,65.857263
0.8784,0.019729,0.027414,-0.02976,-0.001702,-0.00686,0.0154,0.004356,-0.482603,-0.029871,-0.908831,-262.62492,-1.677745,65.857263
0.8988,0.019162,0.026752,-0.029863,-0.00171,-0.006858,0.015531,0.004497,-0.482566,-0.029299,-0.964897,-262.626053,-1.675168,65.863454
0.9185,0.019212,0.026758,-0.029293,-0.001706,-0.006855,0.01571,0.003979,-0.482992,-0.029793,-0.964897,-262.626053,-1.675168,65.863454
0.9388,0.019227,0.02673,-0.029601,-0.001703,-0.006852,0.015855,0.003979,-0.482992,-0.029793,-0.964897,-262.626053,-1.675168,65.863454
0.9592,0.018746,0.026839,-0.029786,-0.0017,-0.006849,0.015971,0.004054,-0.483328,-0.028959,-0.993755,-262.627289,-1.675059,65.869932
0.9787,0.01891,0.02674,-0.028677,-0.001696,-0.006846,0.016132,0.003846,-0.483203,-0.029216,-0.993755,-262.627289,-1.675059,65.869932
0.9987,0.018468,0.026192,-0.027828,-0.001693,-0.006843,0.016262,0.004229,-0.48326,-0.028186,-1.041232,-262.628591,-1.672848,65.87639
1.0186,0.018292,0.026003,-0.026636,-0.001709,-0.006841,0.016427,0.004271,-0.483592,-0.027835,-1.041232,-262.628591,-1.672848,65.87639
1.0388,0.018306,0.026182,-0.027212,-0.001724,-0.006839,0.016561,0.004271,-0.483592,-0.027835,-1.041232,-262.628591,-1.672848,65.87639
1.0588,0.017649,0.025539,-0.027387,-0.001736,-0.006836,0.01667,0.004352,-0.483909,-0.026541,-1.069498,-262.629978,-1.671374,65.883027
1.0785,0.018002,0.026184,-0.027137,-0.001743,-0.006833,0.016818,0.004072,-0.484088,-0.026807,-1.069498,-262.629978,-1.671374,65.883027
1.099,0.017323,0.025554,-0.027544,-0.00175,-0.006829,0.016939,0.004104,-0.483842,-0.02661,-1.092053,-262.631473,-1.672458,65.889814
1.119,0.017441,0.025389,-0.02693,-0.001726,-0.006822,0.017091,0.003348,-0.484227,-0.027434,-1.092053,-262.631473,-1.672458,65.889814
1.1391,0.017178,0.025912,-0.026102,-0.001708,-0.006817,0.017215,0.003348,-0.484227,-0.027434,-1.092053,-262.631473,-1.672458,65.889814
1.159,0.017005,0.025143,-0.025684,-0.001693,-0.006812,0.017317,0.003787,-0.484197,-0.025395,-1.109146,-262.633037,-1.672314,65.896687
1.1786,0.016886,0.025001,-0.026218,-0.001704,-0.00681,0.017436,0.003826,-0.484428,-0.025431,-1.109146,-262.633037,-1.672314,65.896687
1.199,0.01645,0.025099,-0.024161,-0.001714,-0.006808,0.017534,0.003458,-0.485035,-0.025679,-1.148127,-262.634648,-1.667866,65.903506
1.2193,0.016162,0.025242,-0.025313,-0.001735,-0.006806,0.017641,0.004065,-0.484789,-0.024271,-1.148127,-262.634648,-1.667866,65.903506
1.2388,0.016467,0.024782,-0.023409,-0.001753,-0.006803,0.01773,0.004065,-0.484789,-0.024271,-1.148127,-262.634648,-1.667866,65.903506
1.2584,0.015703,0.024465,-0.024331,-0.001769,-0.0068,0.017804,0.004452,-0.485362,-0.022676,-1.156912,-262.636352,-1.668311,65.910545
1.2787,0.015696,0.024316,-0.024127,-0.001783,-0.006797,0.017884,0.003967,-0.485404,-0.023272,-1.156912,-262.636352,-1.668311,65.910545
1.2984,0.015045,0.024587,-0.023411,-0.001795,-0.006793,0.01795,0.003331,-0.485751,-0.023561,-1.161142,-262.638128,-1.670544,65.917648
1.3187,0.015535,0.024204,-0.022454,-0.001769,-0.006786,0.018019,0.003123,-0.485326,-0.023396,-1.161142,-262.638128,-1.670544,65.917648
1.3384,0.015236,0.024259,-0.023752,-0.001747,-0.00678,0.018076,0.003123,-0.485326,-0.023396,-1.161142,-262.638128,-1.670544,65.917648
1.3584,0.014429,0.023826,-0.023172,-0.00173,-0.006776,0.018123,0.003042,-0.485879,-0.023003,-1.164322,-262.639941,-1.671542,65.924776
1.3789,0.014618,0.024013,-0.022243,-0.001708,-0.006771,0.01817,0.002857,-0.485976,-0.022985,-1.164322,-262.639941,-1.671542,65.924776
1.3986,0.014084,0.023724,-0.021906,-0.00169,-0.006768,0.018208,0.003215,-0.486075,-0.021668,-1.187692,-262.64178,-1.667446,65.931899
1.4185,0.014048,0.023648,-0.019568,-0.00168,-0.006766,0.018247,0.002936,-0.486157,-0.021858,-1.187692,-262.64178,-1.667446,65.931899
1.4389,0.014173,0.023613,-0.020715,-0.001673,-0.006765,0.01828,0.002936,-0.486157,-0.021858,-1.187692,-262.64178,-1.667446,65.931899
1.4584,0.013561,0.0235,-0.021664,-0.001666,-0.006764,0.018306,0.003533,-0.486558,-0.019957,-1.200526,-262.643644,-1.664966,65.939074
1.4784,0.013307,0.023482,-0.021837,-0.001672,-0.006764,0.018333,0.0031,-0.486517,-0.020579,-1.200526,-262.643644,-1.664966,65.939074
1.4986,0.012875,0.023218,-0.01929,-0.001677,-0.006764,0.018355,0.002114,-0.486609,-0.021258,-1.210005,-262.645523,-1.663397,65.946248
1.5187,0.012832,0.022932,-0.018866,-0.001677,-0.006763,0.01838,0.002952,-0.486691,-0.019437,-1.210005,-262.645523,-1.663397,65.946248
1.5389,0.012733,0.02283,-0.01988,-0.001677,-0.006763,0.0184,0.002952,-0.486691,-0.019437,-1.210005,-262.645523,-1.663397,65.946248
1.5588,0.012887,0.022942,-0.017166,-0.001677,-0.006762,0.018417,0.002519,-0.48735,-0.019113,-1.210144,-262.647424,-1.663823,65.953469
1.5786,0.012478,0.022338,-0.018075,-0.001691,-0.006762,0.01843,0.003168,-0.487233,-0.01823,-1.210144,-262.647424,-1.663823,65.953469
1.5986,0.011924,0.02246,-0.017295,-0.001703,-0.006762,0.018442,0.003203,-0.487793,-0.017489,-1.213158,-262.64934,-1.663619,65.960703
1.6187,0.012518,0.022414,-0.018338,-0.001713,-0.006761,0.018449,0.003111,-0.487505,-0.017282,-1.213158,-262.64934,-1.663619,65.960703
1.6391,0.011931,0.022089,-0.016916,-0.001721,-0.00676,0.018455,0.003111,-0.487505,-0.017282,-1.213158,-262.64934,-1.663619,65.960703
1.6588,0.011232,0.02192,-0.015796,-0.001728,-0.006758,0.018461,0.003228,-0.488122,-0.016138,-1.20916,-262.651264,-1.664978,65.967944
1.679,0.011172,0.022064,-0.017451,-0.001744,-0.006755,0.018448,0.003199,-0.488111,-0.015915,-1.20916,-262.651264,-1.664978,65.967944
1.6986,0.01096,0.021614,-0.016733,-0.001757,-0.006753,0.018439,0.002213,-0.488074,-0.016858,-1.205304,-262.653198,-1.666353,65.975188
1.7186,0.010911,0.021451,-0.016042,-0.001728,-0.006747,0.018452,0.002404,-0.488303,-0.016714,-1.205304,-262.653198,-1.666353,65.975188
1.7385,0.010854,0.021565,-0.015718,-0.001705,-0.006743,0.018463,0.002404,-0.488303,-0.016714,-1.205304,-262.653198,-1.666353,65.975188
1.7588,0.009715,0.021197,-0.016301,-0.001685,-0.006741,0.018471,0.002761,-0.488653,-0.014946,-1.199284,-262.655141,-1.668003,65.982456
1.7786,0.010352,0.021156,-0.014894,-0.001661,-0.006736,0.018457,0.002183,-0.48872,-0.015424,-1.199284,-262.655141,-1.668003,65.982456
1.7987,0.009694,0.02072,-0.013698,-0.001641,-0.006733,0.018446,0.0027,-0.488999,-0.014312,-1.215393,-262.657061,-1.66404,65.989632
1.8191,0.009405,0.021027,-0.013713,-0.001651,-0.006732,0.01837,0.002705,-0.489222,-0.013724,-1.215393,-262.657061,-1.66404,65.989632
1.8391,0.009851,0.021251,-0.014528,-0.00166,-0.006731,0.01831,0.002705,-0.489222,-0.013724,-1.215393,-262.657061,-1.66404,65.989632
1.8586,0.009141,0.020524,-0.01321,-0.001666,-0.00673,0.018264,0.002369,-0.488976,-0.013755,-1.223444,-262.658996,-1.661716,65.996886
1.8789,0.008977,0.020567,-0.012386,-0.001653,-0.006728,0.018216,0.002375,-0.489198,-0.013439,-1.223444,-262.658996,-1.661716,65.996886
1.8983,0.00866,0.020503,-0.01185,-0.001643,-0.006726,0.018178,0.002605,-0.489605,-0.01181,-1.210684,-262.660885,-1.663675,66.004064
1.9185,0.008625,0.020452,-0.012368,-0.001644,-0.006722,0.018026,0.002614,-0.489481,-0.011822,-1.210684,-262.660885,-1.663675,66.004064
1.9385,0.008277,0.020284,-0.012752,-0.001644,-0.00672,0.017911,0.002614,-0.489481,-0.011822,-1.210684,-262.660885,-1.663675,66.004064
1.9585,0.008116,0.019922,-0.011318,-0.001643,-0.00672,0.017824,0.001702,-0.489953,-0.011996,-1.211667,-262.662752,-1.662688,66.011212
1.9791,0.008022,0.019958,-0.011822,-0.00161,-0.006715,0.017743,0.001962,-0.490024,-0.011624,-1.211667,-262.662752,-1.662688,66.011212
1.9988,0.00744,0.019813,-0.010695,-0.001582,-0.006713,0.017681,0.001939,-0.490218,-0.01126,-1.195126,-262.664536,-1.663861,66.018258
2.0192,0.007425,0.019774,-0.010875,-0.001558,-0.006707,0.01753,0.001979,-0.490172,-0.010714,-1.195126,-262.664536,-1.663861,66.018258
2.0388,0.007584,0.019587,-0.011572,-0.001538,-0.006705,0.017418,0.001979,-0.490172,-0.010714,-1.195126,-262.664536,-1.663861,66.018258
2.0585,0.006806,0.019471,-0.010045,-0.001521,-0.006705,0.017334,0.001613,-0.490658,-0.010837,-1.201324,-262.666279,-1.660905,66.025251
2.079,0.007023,0.019321,-0.009217,-0.001488,-0.006701,0.017235,0.001633,-0.490627,-0.010429,-1.201324,-262.666279,-1.660905,66.025251
2.0983,0.00623,0.018858,-0.009236,-0.001461,-0.006701,0.017162,0.002271,-0.490874,-0.008655,-1.197465,-262.667946,-1.658512,66.032191
2.1187,0.006669,0.018822,-0.007706,-0.001437,-0.006689,0.016899,0.001588,-0.491108,-0.009153,-1.197465,-262.667946,-1.658512,66.032191
2.1387,0.006313,0.019017,-0.008829,-0.001417,-0.006682,0.016709,0.001588,-0.491108,-0.009153,-1.197465,-262.667946,-1.658512,66.032191
2.1585,0.005772,0.01859,-0.006834,-0.001399,-0.00668,0.016572,0.001747,-0.491244,-0.008109,-1.202133,-262.669567,-1.655601,66.039086
2.1792,0.005743,0.018831,-0.008855,-0.001417,-0.006667,0.016107,0.001959,-0.491338,-0.007509,-1.202133,-262.669567,-1.655601,66.039086
2.1983,0.005266,0.018728,-0.005759,-0.00143,-0.006662,0.015781,0.001181,-0.491361,-0.00833,-1.184708,-262.671045,-1.653849,66.045797
2.2187,0.005632,0.018384,-0.006465,-0.00147,-0.006648,0.015107,0.002223,-0.491283,-0.005964,-1.184708,-262.671045,-1.653849,66.045797
2.2389,0.005351,0.018412,-0.007024,-0.001499,-0.006645,0.014641,0.002223,-0.491283,-0.005964,-1.184708,-262.671045,-1.653849,66.045797
2.2586,0.005181,0.01846,-0.005267,-0.001519,-0.006647,0.01432,0.001711,-0.491838,-0.006402,-1.122936,-262.672287,-1.658297,66.051952
2.2789,0.004839,0.018098,-0.006745,-0.001525,-0.006652,0.014068,0.002024,-0.491744,-0.005868,-1.122936,-262.672287,-1.658297,66.051952
2.2986,0.004996,0.018121,-0.006329,-0.001528,-0.006658,0.013896,0.001372,-0.492015,-0.00647,-1.047926,-262.672906,-1.669166,66.055645
2.3188,0.00444,0.017729,-0.005021,-0.001507,-0.006669,0.013903,0.001731,-0.491888,-0.006328,-1.047926,-262.672906,-1.669166,66.055645
2.3386,0.004481,0.01778,-0.005713,-0.00149,-0.006679,0.01391,0.001731,-0.491888,-0.006328,-1.047926,-262.672906,-1.669166,66.055645
2.3585,0.004375,0.017539,-0.006093,-0.001476,-0.006688,0.013916,0.00153,-0.492382,-0.00535,-0.972929,-262.673494,-1.671362,66.059402
2.3792,0.004356,0.017615,-0.007374,-0.001455,-0.006688,0.013701,0.001419,-0.49243,-0.005609,-0.972929,-262.673494,-1.671362,66.059402
2.3986,0.004072,0.017851,-0.002977,-0.001436,-0.00669,0.013549,0.000552,-0.49256,-0.00698,-0.897932,-262.674323,-1.667679,66.064822
2.4191,0.004057,0.017681,-0.006322,-0.001508,-0.006658,0.01256,0.002371,-0.492194,-0.003319,-0.897932,-262.674323,-1.667679,66.064822
2.4388,0.003678,0.017338,-0.004506,-0.001562,-0.006646,0.01188,0.002371,-0.492194,-0.003319,-0.897932,-262.674323,-1.667679,66.064822
2.4588,0.003483,0.016997,-0.005509,-0.001601,-0.006647,0.011414,0.001322,-0.492919,-0.003974,-0.834718,-262.675131,-1.666443,66.070497
2.4795,0.003828,0.017106,-0.003676,-0.001533,-0.006667,0.011585,0.001045,-0.492981,-0.004552,-0.834718,-262.675131,-1.666443,66.070497
2.4989,0.00336,0.01694,-0.002723,-0.001478,-0.006684,0.011709,0.001953,-0.492891,-0.003675,-0.759245,-262.675131,-1.68782,66.070503
2.5185,0.003718,0.016948,-0.003028,-0.001518,-0.006674,0.01107,0.001969,-0.493043,-0.00281,-0.759245,-262.675131,-1.68782,66.070503
2.5386,0.00337,0.017103,-0.003515,-0.001548,-0.006675,0.010624,0.001969,-0.493043,-0.00281,-0.759245,-262.675131,-1.68782,66.070503
2.5588,0.00369,0.01668,-0.00325,-0.001569,-0.006682,0.010314,0.001576,-0.492903,-0.003498,-0.684712,-262.675152,-1.67719,66.070688
2.5788,0.00367,0.0169,-0.002899,-0.001561,-0.006705,0.010353,0.001757,-0.493068,-0.003398,-0.684712,-262.675152,-1.67719,66.070688
2.5986,0.003772,0.017094,-0.003868,-0.001554,-0.006724,0.010379,0.002192,-0.493098,-0.002899,-0.609708,-262.675152,-1.69112,66.070689
2.6186,0.003563,0.017475,-0.003869,-0.001549,-0.006749,0.010537,0.001834,-0.49292,-0.003782,-0.609708,-262.675152,-1.69112,66.070689
2.6386,0.003976,0.017092,-0.003547,-0.001546,-0.006768,0.010645,0.001834,-0.49292,-0.003782,-0.609708,-262.675152,-1.69112,66.070689
2.6584,0.003897,0.017184,-0.004535,-0.001544,-0.006782,0.010716,0.002167,-0.492905,-0.003547,-0.534657,-262.675152,-1.689201,66.070689
2.6788,0.003353,0.016941,-0.004164,-0.001546,-0.006797,0.010819,0.001931,-0.492867,-0.003947,-0.534657,-262.675152,-1.689201,66.070689
2.6983,0.003559,0.017302,-0.004642,-0.001548,-0.006808,0.010886,0.001229,-0.493054,-0.004164,-0.459713,-262.675152,-1.686174,66.070691
2.7184,0.003275,0.017055,-0.00553,-0.001495,-0.006817,0.011137,0.001195,-0.492726,-0.004598,-0.459713,-262.675152,-1.686174,66.070691
2.7385,0.003361,0.017009,-0.004879,-0.001452,-0.006822,0.011308,0.001195,-0.492726,-0.004598,-0.459713,-262.675152,-1.686174,66.070691
2.7583,0.003461,0.017062,-0.003426,-0.001418,-0.006826,0.011422,0.000872,-0.492986,-0.004877,-0.384723,-262.675155,-1.685358,66.070717
2.7785,0.003828,0.016734,-0.004831,-0.001395,-0.006825,0.011372,0.001216,-0.492965,-0.004284,-0.384723,-262.675155,-1.685358,66.070717
2.7983,0.00323,0.016677,-0.003057,-0.001376,-0.006825,0.011327,0.001351,-0.49332,-0.004727,-0.309717,-262.675316,-1.673208,66.072282
2.8184,0.003483,0.017066,-0.00276,-0.001402,-0.006813,0.010885,0.001641,-0.493324,-0.003201,-0.309717,-262.675316,-1.673208,66.072282
2.8386,0.003331,0.016516,-0.003861,-0.001421,-0.006807,0.010573,0.001641,-0.493324,-0.003201,-0.309717,-262.675316,-1.673208,66.072282
2.8586,0.003228,0.01656,-0.00271,-0.001434,-0.006807,0.010353,0.001339,-0.493589,-0.003675,-0.234718,-262.675529,-1.670593,66.074415
2.8787,0.003723,0.017247,-0.003585,-0.001438,-0.006809,0.010217,0.001542,-0.49354,-0.003262,-0.234718,-262.675529,-1.670593,66.074415
2.8985,0.003716,0.016717,-0.003791,-0.001439,-0.006812,0.010119,0.001894,-0.492751,-0.003583,-0.15972,-262.675532,-1.679612,66.074442
2.9184,0.003195,0.016872,-0.004642,-0.001447,-0.006827,0.010212,0.001792,-0.493237,-0.003775,-0.15972,-262.675532,-1.679612,66.074442
2.9385,0.003215,0.016617,-0.003085,-0.001454,-0.006837,0.010271,0.001792,-0.493237,-0.003775,-0.15972,-262.675532,-1.679612,66.074442
2.9588,0.002717,0.016982,-0.002963,-0.00146,-0.006844,0.010307,0.001641,-0.493382,-0.003083,-0.084425,-262.675535,-1.681134,66.074462
2.979,0.003648,0.016708,-0.003775,-0.001451,-0.006836,0.010019,0.001463,-0.493232,-0.003033,-0.084425,-262.675535,-1.681134,66.074462
2.9987,0.003371,0.016799,-0.003806,-0.001442,-0.006832,0.00981,0.001721,-0.493296,-0.003762,-0.009609,-262.675559,-1.681452,66.074665
3.0193,0.003483,0.017123,-0.004781,-0.001423,-0.006843,0.009927,0.001451,-0.493205,-0.003803,-0.009609,-262.675559,-1.681452,66.074665
3.0392,0.003026,0.016609,-0.003436,-0.001408,-0.00685,0.010002,0.001451,-0.493205,-0.003803,-0.009609,-262.675559,-1.681452,66.074665
3.0591,0.003506,0.016787,-0.003596,-0.001396,-0.006855,0.010047,0.001273,-0.49339,-0.003432,0.065794,-262.675564,-1.68274,66.074705
3.0792,0.003274,0.017113,-0.004547,-0.00139,-0.006854,0.009971,0.001433,-0.493318,-0.003498,0.065794,-262.675564,-1.68274,66.074705
3.0984,0.00285,0.016952,-0.002385,-0.001384,-0.006854,0.009914,0.000952,-0.492895,-0.004526,0.140284,-262.675604,-1.677861,66.075036
3.1186,0.003321,0.01683,-0.003103,-0.001398,-0.006839,0.009523,0.001572,-0.493033,-0.002577,0.140284,-262.675604,-1.677861,66.075036
3.1385,0.003189,0.01671,-0.002731,-0.001408,-0.006833,0.009254,0.001572,-0.493033,-0.002577,0.140284,-262.675604,-1.677861,66.075036
3.1586,0.00335,0.017022,-0.004936,-0.001414,-0.006831,0.009071,0.00179,-0.493313,-0.002692,0.215272,-262.675661,-1.677585,66.075502
3.179,0.003341,0.016817,-0.005127,-0.001395,-0.006846,0.009323,0.001398,-0.493176,-0.003606,0.215272,-262.675661,-1.677585,66.075502
3.1986,0.00324,0.016134,-0.003361,-0.00138,-0.006857,0.009499,0.000725,-0.493178,-0.005124,0.290273,-262.675669,-1.684625,66.075551
3.2187,0.003212,0.01674,-0.00297,-0.001377,-0.006862,0.009613,0.001453,-0.493801,-0.00352,0.290273,-262.675669,-1.684625,66.075551
3.2387,0.003719,0.016904,-0.003449,-0.001375,-0.006866,0.009695,0.001453,-0.493801,-0.00352,0.290273,-262.675669,-1.684625,66.075551
3.2587,0.00343,0.016717,-0.002014,-0.001374,-0.006869,0.009755,0.001952,-0.493125,-0.003401,0.365288,-262.67575,-1.67939,66.076145
3.2788,0.003132,0.016183,-0.003725,-0.001423,-0.006864,0.009539,0.002134,-0.493193,-0.002833,0.365288,-262.67575,-1.67939,66.076145
3.2983,0.003297,0.016566,-0.004373,-0.001463,-0.006861,0.009393,0.001211,-0.493912,-0.00358,0.440281,-262.676051,-1.67753,66.078506
3.3185,0.002966,0.016598,-0.004377,-0.00141,-0.00687,0.009803,0.001079,-0.493477,-0.004294,0.440281,-262.676051,-1.67753,66.078506
3.3386,0.002806,0.01678,-0.002983,-0.001369,-0.006874,0.010093,0.001079,-0.493477,-0.004294,0.440281,-262.676051,-1.67753,66.078506
3.3585,0.002599,0.016514,-0.003057,-0.001337,-0.006876,0.010297,0.001254,-0.493351,-0.002793,0.515281,-262.676401,-1.686376,66.080908
3.3789,0.002749,0.016431,-0.003242,-0.001334,-0.006856,0.009942,0.001164,-0.49342,-0.002879,0.515281,-262.676401,-1.686376,66.080908
3.3986,0.002871,0.01596,-0.000817,-0.001329,-0.006845,0.009699,0.00106,-0.493752,-0.002966,0.440286,-262.676894,-1.67199,66.085381
3.4186,0.002621,0.016142,-0.002579,-0.001441,-0.006798,0.008627,0.002332,-0.494024,-0.000989,0.440286,-262.676894,-1.67199,66.085381
3.4386,0.002626,0.016175,-0.003197,-0.001526,-0.006773,0.007889,0.002332,-0.494024,-0.000989,0.440286,-262.676894,-1.67199,66.085381
3.4587,0.002736,0.016067,-0.002788,-0.001591,-0.006762,0.007383,0.000958,-0.494005,-0.002934,0.515377,-262.67731,-1.674504,66.08868
3.4788,0.002524,0.015905,-0.001736,-0.001525,-0.006791,0.007921,0.0011,-0.493995,-0.002844,0.515377,-262.67731,-1.674504,66.08868
3.4985,0.002553,0.015691,-0.001839,-0.001475,-0.006812,0.008312,0.001637,-0.494103,-0.001726,0.590383,-262.677353,-1.711033,66.088859
3.5187,0.002613,0.015671,-0.002127,-0.00149,-0.00681,0.008141,0.001617,-0.494291,-0.001829,0.590383,-262.677353,-1.711033,66.088859
3.539,0.00249,0.015954,-0.000714,-0.001501,-0.006812,0.008028,0.001617,-0.494291,-0.001829,0.590383,-262.677353,-1.711033,66.088859
3.5585,0.002477,0.016159,0.000384,-0.001509,-0.006816,0.007954,0.002107,-0.494126,-0.00061,0.665416,-262.677617,-1.694252,66.090249
3.5784,0.002234,0.015764,-0.001301,-0.001593,-0.00678,0.007027,0.002337,-0.494018,-0.00019,0.665416,-262.677617,-1.694252,66.090249
3.5985,0.002758,0.015658,-0.001975,-0.001655,-0.006761,0.006368,0.001551,-0.494314,-0.001205,0.740382,-262.67798,-1.699349,66.091975
3.6186,0.002119,0.015721,-0.001705,-0.001633,-0.006793,0.006813,0.001732,-0.494342,-0.001901,0.740382,-262.67798,-1.699349,66.091975
3.6386,0.002131,0.015452,-0.002608,-0.001618,-0.006816,0.007135,0.001732,-0.494342,-0.001901,0.740382,-262.67798,-1.699349,66.091975
3.6584,0.002272,0.015695,-0.001775,-0.001607,-0.006832,0.007368,0.000783,-0.494604,-0.002548,0.815288,-262.678262,-1.72496,66.092891
3.6785,0.001814,0.015567,-0.003706,-0.001544,-0.006843,0.007694,0.001019,-0.494489,-0.002226,0.815288,-262.678262,-1.72496,66.092891
3.6986,0.001345,0.015571,-0.001503,-0.001495,-0.00685,0.007927,-0.000114,-0.494578,-0.003543,0.890287,-262.679041,-1.711673,66.096039
3.7188,0.002063,0.015565,-0.002421,-0.00143,-0.006835,0.007833,0.000515,-0.494449,-0.001677,0.890287,-262.679041,-1.711673,66.096039
3.7388,0.001951,0.015377,-0.000543,-0.001376,-0.006826,0.007768,0.000515,-0.494449,-0.001677,0.890287,-262.679041,-1.711673,66.096039
3.7586,0.001725,0.015,-0.001607,-0.001332,-0.006822,0.007724,0.001613,-0.494902,-0.00022,0.930782,-262.680013,-1.698014,66.100618
3.7788,0.001645,0.015032,-0.001137,-0.001373,-0.006802,0.00718,0.001321,-0.494974,-0.000742,0.930782,-262.680013,-1.698014,66.100618
3.7987,0.001632,0.014752,-0.000699,-0.001404,-0.006793,0.006794,0.001027,-0.495165,-0.000912,1.005786,-262.68092,-1.685688,66.104845
3.819,0.001484,0.014936,-0.001295,-0.001423,-0.006788,0.0065,0.001251,-0.495251,-0.000707,1.005786,-262.68092,-1.685688,66.104845
3.8391,0.001483,0.014947,-0.000236,-0.001437,-0.006788,0.006294,0.001251,-0.495251,-0.000707,1.005786,-262.68092,-1.685688,66.104845
3.8586,0.001353,0.014737,-0.001155,-0.001448,-0.006791,0.006149,0.001309,-0.495311,2.3e-05,1.080799,-262.682006,-1.698368,66.108849
3.8792,0.001638,0.014444,0.000828,-0.001448,-0.006786,0.005892,0.001082,-0.495321,-0.000426,1.080799,-262.682006,-1.698368,66.108849
3.8986,0.00115,0.014032,0.001037,-0.001447,-0.006785,0.00571,0.002016,-0.495766,0.001018,1.125866,-262.683306,-1.707195,66.112965
3.919,0.001314,0.014366,0.000485,-0.001522,-0.006755,0.004856,0.001707,-0.49596,0.001045,1.125866,-262.683306,-1.707195,66.112965
3.9388,0.000791,0.014224,0.000441,-0.001578,-0.006739,0.004239,0.001707,-0.49596,0.001045,1.125866,-262.683306,-1.707195,66.112965
3.9587,0.001243,0.013895,-0.001646,-0.001621,-0.006733,0.003794,0.000956,-0.496056,0.000676,1.157374,-262.684724,-1.710702,66.117049
3.9784,0.000657,0.014053,0.000433,-0.001552,-0.006758,0.004136,0.000724,-0.496108,-0.000247,1.157374,-262.684724,-1.710702,66.117049
3.9988,0.000877,0.013526,0.000841,-0.001498,-0.006776,0.004378,0.000878,-0.495947,0.000433,1.219069,-262.684724,-1.6357,66.117048
4.0186,0.000837,0.013819,0.000647,-0.00152,-0.006767,0.004004,0.001267,-0.496426,0.000804,1.219069,-262.684724,-1.6357,66.117048
4.0388,0.000692,0.013748,-0.000482,-0.001536,-0.006764,0.003735,0.001267,-0.496426,0.000804,1.219069,-262.684724,-1.6357,66.117048
4.0585,0.001043,0.013416,-0.000472,-0.001548,-0.006765,0.003542,0.0004,-0.496456,-0.000393,1.220582,-262.686247,-1.710686,66.119548
4.0784,0.000668,0.013734,-5.8e-05,-0.001471,-0.006792,0.004053,0.000559,-0.496532,-0.000415,1.220582,-262.686247,-1.710686,66.119548
4.0985,0.000621,0.013186,0.000158,-0.001411,-0.006811,0.004415,0.00059,-0.496476,5.1e-05,1.246402,-262.688138,-1.742425,66.123077
4.1186,0.000533,0.013213,0.00043,-0.001386,-0.006808,0.004358,0.000689,-0.496794,0.000154,1.246402,-262.688138,-1.742425,66.123077
4.1385,0.000807,0.012939,0.000712,-0.001366,-0.006806,0.004316,0.000689,-0.496794,0.000154,1.246402,-262.688138,-1.742425,66.123077
4.1584,0.000226,0.012897,0.000356,-0.001349,-0.006807,0.004286,0.001112,-0.497343,0.000895,1.240457,-262.689861,-1.718114,66.126883
4.1787,0.000507,0.013021,0.0004,-0.001357,-0.006795,0.003988,0.000817,-0.497277,0.000696,1.240457,-262.689861,-1.718114,66.126883
4.1985,1.8e-05,0.012534,-0.000331,-0.001362,-0.006788,0.003775,0.000669,-0.497195,0.000536,1.259166,-262.691611,-1.713019,66.130669
4.2189,0.00031,0.012609,0.000421,-0.001264,-0.006796,0.004128,-8e-05,-0.497453,-0.000247,1.259166,-262.691611,-1.713019,66.130669
4.2388,0.00026,0.01282,0.000804,-0.001187,-0.0068,0.004377,-8e-05,-0.497453,-0.000247,1.259166,-262.691611,-1.713019,66.130669
4.2585,-3.8e-05,0.012156,-0.000465,-0.001125,-0.006803,0.004553,0.000614,-0.497462,0.000961,1.275905,-262.693475,-1.719416,66.134327
4.2788,0.000259,0.012334,0.002271,-0.001118,-0.006793,0.004333,0.000244,-0.497651,0.000396,1.275905,-262.693475,-1.719416,66.134327
4.2983,3.5e-05,0.012291,0.000444,-0.001111,-0.006789,0.004174,0.001382,-0.497877,0.002413,1.297934,-262.695106,-1.687701,66.138096
4.3189,-0.000233,0.011862,0.000137,-0.001119,-0.006784,0.003943,0.000361,-0.497735,0.000629,1.297934,-262.695106,-1.687701,66.138096
4.339,-0.000721,0.011825,0.000928,-0.001124,-0.006783,0.003776,0.000361,-0.497735,0.000629,1.297934,-262.695106,-1.687701,66.138096
4.359,-0.000155,0.011384,0.003742,-0.001127,-0.006784,0.003657,-0.000294,-0.498457,0.001102,1.314416,-262.696852,-1.689261,66.141842
4.379,-0.000545,0.011574,0.000421,-0.001168,-0.006751,0.002941,0.000536,-0.498553,0.002199,1.314416,-262.696852,-1.689261,66.141842
4.3987,-0.000556,0.010943,0.002396,-0.001197,-0.006733,0.00242,-0.000366,-0.498642,0.000537,1.328,-262.69872,-1.695145,66.145463
4.4189,-0.000513,0.01133,0.000715,-0.001223,-0.006722,0.002028,0.000571,-0.499029,0.002234,1.328,-262.69872,-1.695145,66.145463
4.4389,-0.000854,0.011407,0.002159,-0.001242,-0.006718,0.001746,0.000571,-0.499029,0.002234,1.328,-262.69872,-1.695145,66.145463
4.4585,-0.00058,0.010595,0.00142,-0.001256,-0.006718,0.001544,0.000198,-0.498871,0.002259,1.346786,-262.700864,-1.7156,66.148763
4.4788,-0.000646,0.010674,-0.000597,-0.001218,-0.00672,0.00152,0.00017,-0.499129,0.001916,1.346786,-262.700864,-1.7156,66.148763
4.4987,-0.000654,0.010321,0.000853,-0.001187,-0.006724,0.001501,-0.00099,-0.499537,-0.000549,1.356601,-262.703201,-1.733329,66.151834
4.5186,-0.000466,0.010591,0.002407,-0.00109,-0.006741,0.002019,-0.000286,-0.499677,0.000738,1.356601,-262.703201,-1.733329,66.151834
4.5388,-0.0008,0.010428,0.0019,-0.001015,-0.006751,0.00238,-0.000286,-0.499677,0.000738,1.356601,-262.703201,-1.733329,66.151834
4.559,-0.00038,0.010114,0.001146,-0.000956,-0.006757,0.002631,0.00012,-0.499851,0.001962,1.369129,-262.705577,-1.724962,66.154932
4.5789,-0.000716,0.010087,0.001018,-0.000974,-0.006749,0.002401,0.00015,-0.499898,0.001624,1.369129,-262.705577,-1.724962,66.154932
4.5988,-0.000988,0.010309,0.000995,-0.000987,-0.006745,0.002235,-0.000226,-0.500119,0.001098,1.387218,-262.707604,-1.684637,66.15819
4.6191,-0.00078,0.009914,0.00195,-0.000917,-0.006742,0.002396,-0.000462,-0.499732,0.001007,1.387218,-262.707604,-1.684637,66.15819
4.6388,-0.000775,0.009859,0.00386,-0.000861,-0.00674,0.002507,-0.000462,-0.499732,0.001007,1.387218,-262.707604,-1.684637,66.15819
4.6587,-0.000876,0.00935,0.001583,-0.000816,-0.006739,0.002583,0.001154,-0.500418,0.003953,1.38933,-262.709781,-1.691916,66.161442
4.6792,-0.001275,0.009582,0.00195,-0.000943,-0.006718,0.001899,0.000651,-0.500545,0.002998,1.38933,-262.709781,-1.691916,66.161442
4.6984,-0.001027,0.00937,0.002128,-0.001042,-0.006706,0.0014,-0.000306,-0.500631,0.002032,1.413928,-262.711832,-1.668636,66.164723
4.7187,-0.000582,0.009257,0.00101,-0.001025,-0.006702,0.001332,2.3e-05,-0.50064,0.002124,1.413928,-262.711832,-1.668636,66.164723
4.7386,-0.001128,0.009085,0.003277,-0.001012,-0.006701,0.001282,2.3e-05,-0.50064,0.002124,1.413928,-262.711832,-1.668636,66.164723
4.7585,-0.001282,0.008602,0.001136,-0.001001,-0.006701,0.001245,0.000503,-0.501184,0.003334,1.394542,-262.714135,-1.707764,66.16768
4.7789,-0.000702,0.008533,0.001692,-0.000991,-0.006686,0.001098,1.2e-05,-0.501302,0.002455,1.394542,-262.714135,-1.707764,66.16768
4.7986,-0.00113,0.008235,0.003444,-0.000984,-0.006676,0.000992,0.000129,-0.50168,0.001732,1.403931,-262.716541,-1.704098,66.170686
4.8186,-0.0016,0.008578,0.000841,-0.001073,-0.006663,0.000641,0.000577,-0.501766,0.003283,1.403931,-262.716541,-1.704098,66.170686
4.8388,-0.001348,0.008584,0.001642,-0.001142,-0.006654,0.000387,0.000577,-0.501766,0.003283,1.403931,-262.716541,-1.704098,66.170686
4.8586,-0.001414,0.008231,0.002769,-0.001196,-0.006648,0.000205,-0.000551,-0.501695,0.001684,1.410154,-262.719002,-1.705063,66.173628
4.8788,-0.001196,0.008276,0.002452,-0.001084,-0.006637,0.000486,-0.000332,-0.501756,0.00213,1.410154,-262.719002,-1.705063,66.173628
4.8993,-0.001448,0.007862,0.003048,-0.000997,-0.006629,0.000681,5.5e-05,-0.501723,0.002452,1.389383,-262.719003,-1.629974,66.173627
4.9188,-0.001081,0.008345,0.001896,-0.001013,-0.006617,0.000503,0.000101,-0.502095,0.00299,1.389383,-262.719003,-1.629974,66.173627
4.9386,-0.001343,0.008398,0.002193,-0.001026,-0.006608,0.000374,0.000101,-0.502095,0.00299,1.389383,-262.719003,-1.629974,66.173627
4.9584,-0.001077,0.007616,0.003112,-0.001035,-0.006601,0.000281,-0.00026,-0.501846,0.002215,1.411743,-262.721246,-1.704981,66.176125
4.9784,-0.001388,0.008293,0.002482,-0.001029,-0.006605,0.000348,5e-05,-0.502093,0.002584,1.411743,-262.721246,-1.704981,66.176125
4.9985,-0.001181,0.007735,0.001552,-0.001025,-0.006607,0.000394,-0.000155,-0.501915,0.002491,1.411185,-262.723839,-1.722451,66.178852
5.0192,-0.001156,0.007471,0.002101,-0.000941,-0.00661,0.000809,-0.000369,-0.502243,0.001641,1.411185,-262.723839,-1.722451,66.178852
5.039,-0.001171,0.007501,0.003173,-0.000877,-0.00661,0.001097,-0.000369,-0.502243,0.001641,1.411185,-262.723839,-1.722451,66.178852
5.0591,-0.001352,0.007272,0.001718,-0.000828,-0.006608,0.001296,0.000405,-0.502775,0.00319,1.411144,-262.726417,-1.719395,66.181621
5.0786,-0.002134,0.007453,0.002449,-0.000872,-0.006584,0.001048,5.5e-05,-0.502787,0.002614,1.411144,-262.726417,-1.719395,66.181621
5.0983,-0.001625,0.006742,0.003712,-0.000905,-0.006566,0.00087,-0.00091,-0.502751,0.00249,1.429401,-262.728703,-1.682227,66.184518
5.119,-0.001466,0.007119,0.000796,-0.000961,-0.006522,0.000439,0.000161,-0.50322,0.003604,1.429401,-262.728703,-1.682227,66.184518
5.1388,-0.001352,0.006846,0.003398,-0.001003,-0.00649,0.000125,0.000161,-0.50322,0.003604,1.429401,-262.728703,-1.682227,66.184518
5.1588,-0.001321,0.006723,0.002771,-0.001036,-0.006466,-0.000102,0.000344,-0.503425,0.003434,1.421951,-262.731133,-1.697615,66.187367
5.1788,-0.001404,0.006413,0.001704,-0.001071,-0.006452,-0.000149,0.000238,-0.503395,0.003169,1.421951,-262.731133,-1.697615,66.187367
5.1986,-0.001659,0.006405,0.002369,-0.001098,-0.006439,-0.000184,-0.000567,-0.50379,0.001701,1.413469,-262.733733,-1.731133,66.189918
5.2186,-0.001669,0.00646,0.002371,-0.000969,-0.006401,0.00011,-0.000462,-0.50362,0.002312,1.413469,-262.733733,-1.731133,66.189918
5.2384,-0.001537,0.006084,0.003005,-0.000871,-0.006371,0.000312,-0.000462,-0.50362,0.002312,1.413469,-262.733733,-1.731133,66.189918
5.2586,-0.001634,0.005894,0.002108,-0.000795,-0.006348,0.000451,-5e-05,-0.504182,0.002997,1.404706,-262.736385,-1.742686,66.192482
5.2786,-0.001892,0.005512,0.001105,-0.000774,-0.006298,0.000419,-0.000268,-0.504181,0.002625,1.404706,-262.736385,-1.742686,66.192482
5.2988,-0.001746,0.005256,0.003319,-0.000759,-0.006259,0.000393,-0.001351,-0.504676,0.001119,1.440555,-262.738673,-1.690303,66.194974
5.3186,-0.001859,0.005761,0.002501,-0.00077,-0.006177,0.000198,-0.00017,-0.504745,0.003124,1.440555,-262.738673,-1.690303,66.194974
5.3389,-0.001638,0.005589,0.001156,-0.000779,-0.006113,5.6e-05,-0.00017,-0.504745,0.003124,1.440555,-262.738673,-1.690303,66.194974
5.3588,-0.001946,0.005074,0.001461,-0.000786,-0.006062,-4.6e-05,-0.00108,-0.504673,0.001172,1.44542,-262.741098,-1.686989,66.19759
5.379,-0.001822,0.005064,0.001412,-0.000544,-0.005984,0.000638,-0.001133,-0.504805,0.001291,1.44542,-262.741098,-1.686989,66.19759
5.3987,-0.001712,0.004782,0.0029,-0.000362,-0.005924,0.001112,-0.001127,-0.505128,0.001411,1.442518,-262.743547,-1.700243,66.200017
5.4189,-0.00183,0.004934,0.002703,-0.000427,-0.005861,0.000823,-0.000315,-0.505218,0.002765,1.442518,-262.743547,-1.700243,66.200017
5.4386,-0.001718,0.004936,0.00243,-0.000476,-0.005811,0.000613,-0.000315,-0.505218,0.002765,1.442518,-262.743547,-1.700243,66.200017
5.4588,-0.001656,0.004771,0.000779,-0.000512,-0.005772,0.000462,-0.000491,-0.505276,0.00247,1.501856,-262.745365,-1.625588,66.202303
5.4787,-0.001575,0.00456,0.001524,-0.000404,-0.005718,0.00074,-0.000805,-0.505282,0.001787,1.501856,-262.745365,-1.625588,66.202303
5.499,-0.00184,0.004414,0.002318,-0.000322,-0.005676,0.000932,-0.000813,-0.505619,0.001538,1.477811,-262.747523,-1.655162,66.204681
5.5187,-0.001861,0.004182,0.003883,-0.000289,-0.005605,0.000874,-0.000674,-0.505598,0.002241,1.477811,-262.747523,-1.655162,66.204681
5.5385,-0.002043,0.004594,0.002754,-0.000264,-0.00555,0.000831,-0.000674,-0.505598,0.002241,1.477811,-262.747523,-1.655162,66.204681
5.5586,-0.001921,0.004145,0.002204,-0.000245,-0.005508,0.000798,-0.00065,-0.505634,0.002792,1.507762,-262.749503,-1.622365,66.207102
5.5787,-0.00216,0.004279,0.003491,-0.00022,-0.005445,0.000657,-0.000712,-0.50575,0.002557,1.507762,-262.749503,-1.622365,66.207102
5.5989,-0.002157,0.003707,0.001954,-0.000201,-0.005397,0.000556,-0.000386,-0.505892,0.003517,1.521981,-262.751504,-1.611681,66.20949
5.6191,-0.001715,0.003948,0.002814,-5.8e-05,-0.005253,0.000658,-0.001092,-0.506266,0.002095,1.521981,-262.751504,-1.611681,66.20949
5.6392,-0.001866,0.003917,0.003237,5e-05,-0.005145,0.000727,-0.001092,-0.506266,0.002095,1.521981,-262.751504,-1.611681,66.20949
5.6586,-0.001893,0.00392,0.001977,0.00013,-0.005065,0.000775,-0.000223,-0.506307,0.00326,1.531156,-262.753525,-1.605749,66.211781
5.6789,-0.002155,0.003666,0.002082,1.4e-05,-0.005052,0.000556,-0.00049,-0.506241,0.002746,1.531156,-262.753525,-1.605749,66.211781
5.6986,-0.00252,0.003439,0.002158,-7.4e-05,-0.00504,0.000402,-0.001089,-0.506475,0.002104,1.599173,-262.75514,-1.547266,66.213729
5.7188,-0.001862,0.003296,0.002804,0.000129,-0.004895,0.000526,-0.00139,-0.506559,0.002154,1.599173,-262.75514,-1.547266,66.213729
5.7385,-0.001499,0.003285,0.002788,0.000282,-0.00479,0.000612,-0.00139,-0.506559,0.002154,1.599173,-262.75514,-1.547266,66.213729
5.7584,-0.002387,0.00334,0.002536,0.000398,-0.004713,0.00067,-7.9e-05,-0.506914,0.002804,1.555424,-262.756967,-1.584742,66.215743
5.7788,-0.001801,0.003195,0.003269,0.000234,-0.004684,0.000488,-0.000504,-0.50683,0.002694,1.555424,-262.756967,-1.584742,66.215743
5.7988,-0.001878,0.003074,0.003412,0.000112,-0.004658,0.00036,-0.000127,-0.506911,0.003284,1.630772,-262.758218,-1.509394,66.21723
5.8187,-0.001383,0.002816,0.002816,-0.000104,-0.004633,4.2e-05,-0.000137,-0.506928,0.003401,1.630772,-262.758218,-1.509394,66.21723
5.8387,-0.002271,0.002722,0.001389,-0.000266,-0.00461,-0.000185,-0.000137,-0.506928,0.003401,1.630772,-262.758218,-1.509394,66.21723
5.8587,-0.002117,0.002919,0.00266,-0.000387,-0.004589,-0.000345,-0.001558,-0.507464,0.001403,1.595967,-262.759917,-1.547896,66.219097
5.8789,-0.001857,0.002729,0.001945,-0.00011,-0.004401,9.9e-05,-0.001232,-0.507329,0.001917,1.595967,-262.759917,-1.547896,66.219097
5.8983,-0.002294,0.002592,0.00277,9.6e-05,-0.004263,0.000405,-0.00087,-0.507371,0.001937,1.521061,-262.761237,-1.622802,66.220303
5.9187,-0.001901,0.002702,0.002115,0.000142,-0.004167,0.00031,-0.00088,-0.507408,0.002694,1.521061,-262.761237,-1.622802,66.220303
5.9385,-0.001817,0.002692,0.002287,0.000176,-0.004096,0.000241,-0.00088,-0.507408,0.002694,1.521061,-262.761237,-1.622802,66.220303
5.9588,-0.001696,0.002129,0.004399,0.000202,-0.004043,0.000191,-0.000647,-0.507457,0.002302,1.594799,-262.762589,-1.549424,66.22182
5.9789,-0.001865,0.002523,0.00414,-2.1e-05,-0.004006,-1e-05,-0.000163,-0.50764,0.003153,1.594799,-262.762589,-1.549424,66.22182
5.9987,-0.0019,0.002434,0.003319,-0.000188,-0.003973,-0.000151,0.000253,-0.507598,0.004146,1.622128,-262.764124,-1.522338,66.223447
6.0187,-0.001875,0.002309,0.003831,-0.000315,-0.003957,-0.000322,-0.000166,-0.507573,0.003393,1.622128,-262.764124,-1.522338,66.223447
6.0389,-0.002045,0.002127,0.003621,-0.00041,-0.003942,-0.000442,-0.000166,-0.507573,0.003393,1.622128,-262.764124,-1.522338,66.223447
6.059,-0.00184,0.002025,0.003294,-0.000482,-0.003927,-0.000526,-0.000201,-0.507993,0.003616,1.547115,-262.765339,-1.597351,66.224607
6.0793,-0.001812,0.00232,0.00044,-0.000525,-0.003801,-0.000612,-0.000183,-0.507999,0.003477,1.547115,-262.765339,-1.597351,66.224607
6.0983,-0.001852,0.002002,0.003153,-0.000558,-0.003703,-0.000672,-0.001596,-0.507771,0.000428,1.471349,-262.766589,-1.673117,66.22567
6.1191,-0.002079,0.001941,0.002814,-0.000518,-0.003631,-0.000542,-0.000346,-0.507983,0.002949,1.471349,-262.766589,-1.673117,66.22567
6.1391,-0.001732,0.001993,0.002688,-0.000491,-0.003575,-0.00045,-0.000346,-0.507983,0.002949,1.471349,-262.766589,-1.673117,66.22567
6.1589,-0.002221,0.001877,0.003401,-0.000471,-0.003532,-0.000385,-0.000382,-0.508146,0.002662,1.436072,-262.768102,-1.738559,66.226887
6.1789,-0.002038,0.001654,0.002451,-0.000422,-0.003444,-0.000343,-0.000427,-0.508152,0.002961,1.436072,-262.768102,-1.738559,66.226887
6.1983,-0.002394,0.0013,0.002636,-0.000386,-0.003378,-0.000315,-0.000803,-0.508457,0.002439,1.446522,-262.769599,-1.712571,66.228201
6.2189,-0.002259,0.001704,0.002473,-0.000126,-0.003101,-0.000169,-0.001028,-0.508681,0.002618,1.446522,-262.769599,-1.712571,66.228201
6.2386,-0.002332,0.001438,0.001825,7e-05,-0.002896,-7.2e-05,-0.001028,-0.508681,0.002618,1.446522,-262.769599,-1.712571,66.228201
6.2591,-0.002166,0.00204,0.002395,0.000218,-0.002745,-8e-06,-0.001417,-0.508701,0.001812,1.462977,-262.771026,-1.691504,66.229476
6.2788,-0.001805,0.001432,0.002075,0.000383,-0.002714,0.000258,-0.001222,-0.508409,0.002053,1.462977,-262.771026,-1.691504,66.229476
6.2985,-0.002301,0.001521,0.002354,0.000508,-0.002693,0.00044,-0.000747,-0.508592,0.002075,1.538331,-262.771356,-1.616151,66.229805
6.3188,-0.002447,0.001345,0.003987,0.000558,-0.002669,0.000452,-0.001072,-0.508488,0.002331,1.538331,-262.771356,-1.616151,66.229805
6.3387,-0.001941,0.001622,0.001505,0.000598,-0.002652,0.000458,-0.001072,-0.508488,0.002331,1.538331,-262.771356,-1.616151,66.229805
6.359,-0.002292,0.001548,0.00276,0.000629,-0.002639,0.00046,-0.001174,-0.508378,0.001505,1.463389,-262.771356,-1.541208,66.229805
6.3787,-0.002193,0.001117,0.002183,0.000643,-0.002671,0.000571,-0.001048,-0.508409,0.002049,1.463389,-262.771356,-1.541208,66.229805
6.3986,-0.002207,0.001855,0.002181,0.000656,-0.002694,0.000648,-0.001079,-0.508882,0.002183,1.387941,-262.771356,-1.46576,66.229805
6.4189,-0.002224,0.00157,0.002904,0.000668,-0.002769,0.000652,-0.001094,-0.508201,0.002181,1.387941,-262.771356,-1.46576,66.229805
6.439,-0.002051,0.001574,0.001959,0.000678,-0.002827,0.000654,-0.001094,-0.508201,0.002181,1.387941,-262.771356,-1.46576,66.229805
6.4585,-0.002057,0.001383,0.002314,0.000686,-0.002872,0.000654,-0.001052,-0.508425,0.001959,1.313328,-262.771356,-1.391147,66.229805
6.4787,-0.002224,0.001582,0.004194,0.000672,-0.002836,0.00068,-0.000981,-0.508502,0.002103,1.313328,-262.771356,-1.391147,66.229805
6.4983,-0.001873,0.001493,0.003895,0.000661,-0.002808,0.000698,-8.5e-05,-0.508413,0.004194,1.23868,-262.771356,-1.363956,66.229805
6.519,-0.00193,0.001734,0.002926,0.000232,-0.002857,0.000132,9.7e-05,-0.508496,0.00392,1.23868,-262.771356,-1.363956,66.229805
6.5387,-0.002056,0.001428,0.001905,-8.9e-05,-0.002889,-0.000278,9.7e-05,-0.508496,0.00392,1.23868,-262.771356,-1.363956,66.229805
6.5592,-0.002347,0.001441,0.002631,-0.00033,-0.002908,-0.000572,-0.001085,-0.508571,0.001905,1.163436,-262.771356,-1.369244,66.229805
6.579,-0.001922,0.001323,0.001943,-7.5e-05,-0.002821,-0.000192,-0.001052,-0.508566,0.002201,1.163436,-262.771356,-1.369244,66.229805
6.5986,-0.002323,0.001434,0.003301,0.000117,-0.002759,6.9e-05,-0.000931,-0.508679,0.001943,1.238186,-262.771404,-1.443994,66.229843
6.6191,-0.002035,0.001281,0.002828,0.000119,-0.00274,-0.000102,-0.000665,-0.508573,0.003183,1.238186,-262.771404,-1.443994,66.229843
6.6389,-0.001897,0.001145,0.002875,0.000121,-0.002727,-0.000225,-0.000665,-0.508573,0.003183,1.238186,-262.771404,-1.443994,66.229843
6.6586,-0.002049,0.001211,0.002063,0.000123,-0.002719,-0.000313,-0.000431,-0.508863,0.002876,1.313281,-262.7715,-1.51909,66.229942
6.6785,-0.002019,0.001528,0.002623,0.0,0.0,0.0,-0.00066,-0.508834,0.002548,1.313281,-262.7715,-1.51909,66.229942
