mach0312/omni-docking-bench/src/icros_test_setup/results/MPPI_sample/timeseries/trial_031.csv
t,x,y,yaw,vx,vy,wz,bl_x,bl_y,bl_yaw,front_steering_joint,front_wheel_joint,rear_steering_joint,rear_wheel_joint
0.0,0.008308,0.020141,-0.051596,0.0,0.0,0.0,-0.017476,-0.489283,-0.052542,0.061162,-262.959082,-0.427934,69.796237
0.0003,0.008239,0.020185,-0.05172,0.0,0.0,0.0,-0.017476,-0.489283,-0.052542,0.061162,-262.959082,-0.427934,69.796237
0.0006,0.00867,0.020124,-0.053583,0.0,0.0,0.0,-0.017937,-0.489196,-0.052317,0.061162,-262.959082,-0.427934,69.796237
0.0008,0.008677,0.020388,-0.051764,0.0,0.0,0.0,-0.017937,-0.489196,-0.052317,0.061162,-262.959082,-0.427934,69.796237
0.001,0.008182,0.020056,-0.053304,0.0,0.0,0.0,-0.018058,-0.489086,-0.052524,0.061162,-262.959082,-0.427934,69.796237
0.0013,0.008629,0.020091,-0.050794,0.0,0.0,0.0,-0.018058,-0.489086,-0.052524,0.061162,-262.959082,-0.427934,69.796237
0.0015,0.008351,0.020081,-0.051525,0.0,0.0,0.0,-0.017714,-0.489187,-0.051968,0.061162,-262.959082,-0.427934,69.796237
0.0184,0.008418,0.020629,-0.050241,0.0,0.0,0.0,-0.017857,-0.489243,-0.05146,0.061162,-262.959082,-0.427934,69.796237
0.0381,0.008521,0.020225,-0.051893,0.0,0.0,0.0,-0.017857,-0.489243,-0.05146,0.061162,-262.959082,-0.427934,69.796237
0.0589,0.008506,0.020287,-0.052032,0.0,0.0,0.0,-0.017932,-0.489089,-0.051893,0.061162,-262.959082,-0.427934,69.796237
0.0784,0.008586,0.020382,-0.052667,0.0,0.0,0.0,-0.017968,-0.489062,-0.05195,0.061162,-262.959082,-0.427934,69.796237
0.0981,0.008242,0.020214,-0.05186,0.0,0.0,0.0,-0.018262,-0.488911,-0.052667,0.061162,-262.959082,-0.427934,69.796237
0.1181,0.00851,0.020012,-0.051616,0.002004,-0.002211,0.006371,-0.018201,-0.489084,-0.051934,0.061162,-262.959082,-0.427934,69.796237
0.1379,0.008595,0.020328,-0.052642,0.002172,-0.002465,0.00688,-0.018201,-0.489084,-0.051934,0.061162,-262.959082,-0.427934,69.796237
0.158,0.008472,0.019961,-0.050463,0.002312,-0.002693,0.007296,-0.01824,-0.488965,-0.052642,0.061162,-262.959082,-0.427934,69.796237
0.178,0.00844,0.020255,-0.052155,0.002421,-0.002904,0.007681,-0.017837,-0.489139,-0.051752,0.061162,-262.959082,-0.427934,69.796237
0.1977,0.008267,0.020401,-0.051478,0.002512,-0.003092,0.007999,-0.018148,-0.489051,-0.052155,0.136103,-262.959082,-0.502876,69.796237
0.218,0.008372,0.020087,-0.052663,0.002587,-0.003262,0.00826,-0.01799,-0.488935,-0.051537,0.136103,-262.959082,-0.502876,69.796237
0.2378,0.008533,0.020358,-0.050685,0.002648,-0.003414,0.008476,-0.01799,-0.488935,-0.051537,0.136103,-262.959082,-0.502876,69.796237
0.2578,0.008781,0.020472,-0.05251,0.002698,-0.003549,0.008653,-0.017305,-0.488987,-0.050685,0.211218,-262.959082,-0.57799,69.796237
0.2778,0.008934,0.020175,-0.053312,0.002731,-0.003677,0.008801,-0.017586,-0.48892,-0.051437,0.211218,-262.959082,-0.57799,69.796237
0.2977,0.008125,0.020287,-0.05188,0.002757,-0.003789,0.008922,-0.018242,-0.489101,-0.053312,0.286247,-262.959082,-0.653019,69.796237
0.3177,0.00859,0.020448,-0.051751,0.002793,-0.003874,0.00902,-0.018315,-0.489033,-0.052008,0.286247,-262.959082,-0.653019,69.796237
0.3378,0.00844,0.020225,-0.05054,0.002823,-0.003948,0.009101,-0.018315,-0.489033,-0.052008,0.286247,-262.959082,-0.653019,69.796237
0.3582,0.008563,0.020279,-0.051857,0.002848,-0.004014,0.00917,-0.017324,-0.489124,-0.05054,0.361105,-262.959081,-0.727878,69.796238
0.3782,0.008269,0.020294,-0.052321,0.002854,-0.004085,0.00923,-0.017548,-0.489088,-0.051078,0.361105,-262.959081,-0.727878,69.796238
0.3979,0.008267,0.020145,-0.053138,0.002859,-0.004147,0.00928,-0.018402,-0.489008,-0.05232,0.436094,-262.959076,-0.802866,69.796254
0.4182,0.008582,0.020384,-0.050953,0.002886,-0.004177,0.009317,-0.018784,-0.489124,-0.053067,0.436094,-262.959076,-0.802866,69.796254
0.4382,0.008621,0.020143,-0.050528,0.002908,-0.004205,0.009349,-0.018784,-0.489124,-0.053067,0.436094,-262.959076,-0.802866,69.796254
0.4579,0.008571,0.02029,-0.049837,0.002927,-0.004229,0.009377,-0.017134,-0.489209,-0.050522,0.488781,-262.959051,-0.877918,69.796333
0.4777,0.008478,0.020416,-0.051205,0.002909,-0.004284,0.009408,-0.017012,-0.489155,-0.050242,0.488781,-262.959051,-0.877918,69.796333
0.4981,0.008363,0.02018,-0.051394,0.002894,-0.004331,0.009434,-0.017617,-0.488923,-0.051188,0.473085,-262.958965,-0.952872,69.796603
0.5181,0.008717,0.020064,-0.051955,0.002896,-0.004357,0.009451,-0.017816,-0.489127,-0.051375,0.473085,-262.958965,-0.952872,69.796603
0.5379,0.008597,0.020106,-0.050746,0.002897,-0.004379,0.009467,-0.017816,-0.489127,-0.051375,0.473085,-262.958965,-0.952872,69.796603
0.5583,0.008408,0.020197,-0.051306,0.002898,-0.004399,0.00948,-0.017246,-0.489263,-0.050691,0.459081,-262.958767,-1.027871,69.797248
0.5784,0.008431,0.020102,-0.052536,0.002892,-0.004422,0.009492,-0.017448,-0.489212,-0.050936,0.459081,-262.958767,-1.027871,69.797248
0.5978,0.00874,0.020185,-0.050366,0.002888,-0.004441,0.009503,-0.018313,-0.489237,-0.052446,0.447492,-262.958359,-1.102916,69.798593
0.6184,0.008244,0.020495,-0.052162,0.002875,-0.004466,0.009513,-0.017059,-0.489177,-0.05055,0.447492,-262.958359,-1.102916,69.798593
0.6386,0.008246,0.020115,-0.051319,0.002864,-0.004488,0.009522,-0.017059,-0.489177,-0.05055,0.447492,-262.958359,-1.102916,69.798593
0.6583,0.008286,0.020108,-0.052807,0.002855,-0.004506,0.009529,-0.01784,-0.489315,-0.051108,0.440825,-262.957659,-1.177866,69.800926
0.6778,0.008706,0.020183,-0.051395,0.002869,-0.0045,0.00953,-0.01815,-0.489273,-0.051768,0.440825,-262.957659,-1.177866,69.800926
0.6978,0.008189,0.019487,-0.051497,0.00288,-0.004495,0.009532,-0.017423,-0.489258,-0.05116,0.431201,-262.956675,-1.252864,69.80428
0.7178,0.008806,0.020033,-0.051344,0.002895,-0.004486,0.009599,-0.018001,-0.489791,-0.051455,0.431201,-262.956675,-1.252864,69.80428
0.7378,0.008462,0.019668,-0.050226,0.002908,-0.004479,0.009655,-0.018001,-0.489791,-0.051455,0.431201,-262.956675,-1.252864,69.80428
0.7578,0.008499,0.019504,-0.050216,0.002919,-0.004473,0.009701,-0.017035,-0.489877,-0.049839,0.431572,-262.955448,-1.298542,69.808425
0.778,0.00863,0.019595,-0.052671,0.002913,-0.004484,0.009772,-0.017049,-0.489889,-0.049949,0.431572,-262.955448,-1.298542,69.808425
0.7978,0.008066,0.019306,-0.050798,0.002907,-0.004493,0.00983,-0.018135,-0.489843,-0.052366,0.461605,-262.954163,-1.297097,69.812682
0.818,0.00798,0.019635,-0.050525,0.002919,-0.004485,0.0099,-0.017853,-0.490026,-0.050924,0.461605,-262.954163,-1.297097,69.812682
0.8379,0.008346,0.01944,-0.048403,0.002929,-0.004477,0.009959,-0.017853,-0.490026,-0.050924,0.461605,-262.954163,-1.297097,69.812682
0.8578,0.008423,0.019141,-0.049798,0.002938,-0.004472,0.010008,-0.016218,-0.490155,-0.047993,0.479103,-262.952859,-1.300604,69.817017
0.878,0.008227,0.018684,-0.049567,0.002922,-0.00449,0.010078,-0.01651,-0.490207,-0.048685,0.479103,-262.952859,-1.300604,69.817017
0.898,0.007811,0.018911,-0.04862,0.002908,-0.004507,0.010136,-0.016957,-0.490834,-0.049253,0.509297,-262.951533,-1.300015,69.821347
0.9177,0.008154,0.019004,-0.049261,0.00291,-0.004506,0.010206,-0.016969,-0.490525,-0.04866,0.509297,-262.951533,-1.300015,69.821347
0.9383,0.007866,0.018957,-0.049506,0.002912,-0.004507,0.010264,-0.016969,-0.490525,-0.04866,0.509297,-262.951533,-1.300015,69.821347
0.9579,0.007952,0.01887,-0.048635,0.002914,-0.004507,0.010311,-0.01726,-0.490612,-0.049084,0.524774,-262.950194,-1.305338,69.825761
0.9778,0.007658,0.018682,-0.048479,0.002919,-0.004504,0.010377,-0.017077,-0.4906,-0.048852,0.524774,-262.950194,-1.305338,69.825761
0.9982,0.007676,0.018557,-0.048018,0.002923,-0.004501,0.01043,-0.016971,-0.490865,-0.048154,0.551079,-262.948839,-1.307367,69.830195
1.0182,0.007365,0.018369,-0.046766,0.002925,-0.0045,0.010503,-0.016814,-0.490863,-0.048013,0.551079,-262.948839,-1.307367,69.830195
1.0381,0.00773,0.018665,-0.048902,0.002927,-0.0045,0.010563,-0.016814,-0.490863,-0.048013,0.551079,-262.948839,-1.307367,69.830195
1.0581,0.007405,0.018444,-0.045216,0.002929,-0.004499,0.010612,-0.017087,-0.490919,-0.048468,0.56898,-262.947459,-1.308158,69.834673
1.0779,0.007628,0.018241,-0.046034,0.002926,-0.004504,0.01068,-0.016485,-0.490988,-0.047086,0.56898,-262.947459,-1.308158,69.834673
1.0976,0.007596,0.018118,-0.045592,0.002923,-0.004508,0.010736,-0.015755,-0.491364,-0.0457,0.594892,-262.94606,-1.310121,69.839171
1.1182,0.007693,0.017985,-0.04612,0.002909,-0.004523,0.010805,-0.015653,-0.491361,-0.045585,0.594892,-262.94606,-1.310121,69.839171
1.138,0.00752,0.017823,-0.046605,0.002898,-0.004536,0.010861,-0.015653,-0.491361,-0.045585,0.594892,-262.94606,-1.310121,69.839171
1.1583,0.007314,0.018078,-0.047634,0.002887,-0.004547,0.010907,-0.016127,-0.491816,-0.046158,0.611286,-262.94464,-1.312524,69.843722
1.1783,0.007154,0.017922,-0.047203,0.002901,-0.004534,0.010955,-0.016459,-0.491645,-0.046709,0.611286,-262.94464,-1.312524,69.843722
1.1976,0.007459,0.017642,-0.046293,0.002912,-0.004523,0.010995,-0.016826,-0.491658,-0.046858,0.632134,-262.943219,-1.318657,69.848317
1.2178,0.00728,0.017612,-0.044129,0.00292,-0.004516,0.011038,-0.016199,-0.491805,-0.046326,0.632134,-262.943219,-1.318657,69.848317
1.2378,0.006906,0.017493,-0.046503,0.002926,-0.004511,0.011073,-0.016199,-0.491805,-0.046326,0.632134,-262.943219,-1.318657,69.848317
1.2578,0.006867,0.017571,-0.045304,0.002931,-0.004507,0.011103,-0.016689,-0.49215,-0.046044,0.64526,-262.941765,-1.317225,69.852948
1.2781,0.007004,0.017242,-0.046093,0.002946,-0.004493,0.011129,-0.016489,-0.492073,-0.045689,0.64526,-262.941765,-1.317225,69.852948
1.2982,0.006816,0.01753,-0.045822,0.002959,-0.004481,0.011152,-0.016409,-0.492363,-0.045741,0.659772,-262.940283,-1.316707,69.857606
1.3182,0.007067,0.017113,-0.044253,0.002969,-0.004472,0.011175,-0.016529,-0.491979,-0.045798,0.659772,-262.940283,-1.316707,69.857606
1.3379,0.006747,0.017386,-0.046294,0.002977,-0.004464,0.011194,-0.016529,-0.491979,-0.045798,0.659772,-262.940283,-1.316707,69.857606
1.3581,0.006764,0.016994,-0.043796,0.002985,-0.004458,0.01121,-0.01674,-0.49226,-0.045829,0.667115,-262.938781,-1.314546,69.862262
1.3778,0.006639,0.016909,-0.044225,0.002992,-0.004451,0.011227,-0.016246,-0.492388,-0.044943,0.667115,-262.938781,-1.314546,69.862262
1.3977,0.006763,0.016944,-0.044235,0.002999,-0.004446,0.011241,-0.01582,-0.492738,-0.043868,0.674933,-262.93725,-1.312674,69.866944
1.4179,0.006534,0.016736,-0.045198,0.002998,-0.004447,0.011257,-0.015787,-0.492579,-0.044187,0.674933,-262.93725,-1.312674,69.866944
1.4381,0.006604,0.016878,-0.044394,0.002998,-0.004449,0.01127,-0.015787,-0.492579,-0.044187,0.674933,-262.93725,-1.312674,69.866944
1.4581,0.00644,0.016379,-0.041911,0.002998,-0.00445,0.011281,-0.015913,-0.492811,-0.043925,0.678911,-262.93571,-1.311639,69.871621
1.4782,0.006459,0.016713,-0.043454,0.002998,-0.00445,0.011292,-0.015496,-0.492981,-0.043046,0.678911,-262.93571,-1.311639,69.871621
1.4981,0.006457,0.016086,-0.041167,0.002999,-0.00445,0.011302,-0.015606,-0.492951,-0.043095,0.68314,-262.934165,-1.312368,69.876311
1.5181,0.006181,0.016147,-0.043504,0.002988,-0.004462,0.011314,-0.014621,-0.493443,-0.041316,0.68314,-262.934165,-1.312368,69.876311
1.5378,0.006112,0.016796,-0.041485,0.002978,-0.004472,0.011324,-0.014621,-0.493443,-0.041316,0.68314,-262.934165,-1.312368,69.876311
1.5579,0.006275,0.016397,-0.041708,0.002971,-0.00448,0.011332,-0.014921,-0.492956,-0.041012,0.685477,-262.932618,-1.312575,69.881
1.5778,0.005917,0.015952,-0.041235,0.002963,-0.004487,0.011341,-0.014936,-0.493061,-0.04124,0.685477,-262.932618,-1.312575,69.881
1.5977,0.005781,0.016116,-0.041179,0.002957,-0.004494,0.011347,-0.015019,-0.493761,-0.040874,0.687909,-262.931081,-1.31591,69.885711
1.6178,0.00595,0.015948,-0.042107,0.002965,-0.004485,0.011352,-0.015192,-0.493487,-0.041133,0.687909,-262.931081,-1.31591,69.885711
1.6379,0.006102,0.015927,-0.041552,0.002972,-0.004478,0.011356,-0.015192,-0.493487,-0.041133,0.687909,-262.931081,-1.31591,69.885711
1.6577,0.006097,0.015699,-0.040512,0.002978,-0.004471,0.01136,-0.014967,-0.493825,-0.041077,0.689221,-262.929548,-1.317532,69.890431
1.678,0.005858,0.015845,-0.039921,0.002982,-0.004467,0.011365,-0.014788,-0.493871,-0.040792,0.689221,-262.929548,-1.317532,69.890431
1.6979,0.00574,0.015514,-0.041517,0.002985,-0.004464,0.011369,-0.014408,-0.493895,-0.039559,0.691683,-262.928001,-1.315454,69.895147
1.7182,0.00558,0.015856,-0.039657,0.003003,-0.004445,0.011371,-0.015331,-0.494041,-0.041322,0.691683,-262.928001,-1.315454,69.895147
1.7378,0.005743,0.015517,-0.038983,0.003019,-0.004429,0.011373,-0.015331,-0.494041,-0.041322,0.691683,-262.928001,-1.315454,69.895147
1.7577,0.005182,0.015236,-0.039456,0.003032,-0.004415,0.011375,-0.014016,-0.494287,-0.038507,0.693082,-262.926449,-1.314836,69.899864
1.7781,0.005666,0.01515,-0.040288,0.003027,-0.004421,0.011382,-0.014376,-0.494342,-0.038839,0.693082,-262.926449,-1.314836,69.899864
1.798,0.005315,0.014826,-0.039832,0.003023,-0.004425,0.011387,-0.014785,-0.494581,-0.039926,0.695874,-262.92487,-1.310023,69.904566
1.8186,0.005406,0.015101,-0.038941,0.003042,-0.004405,0.011387,-0.014971,-0.49476,-0.039822,0.695874,-262.92487,-1.310023,69.904566
1.838,0.00528,0.014926,-0.038591,0.003058,-0.004388,0.011388,-0.014971,-0.49476,-0.039822,0.695874,-262.92487,-1.310023,69.904566
1.858,0.005201,0.01447,-0.039116,0.003072,-0.004373,0.011389,-0.014276,-0.494885,-0.038113,0.696663,-262.923293,-1.311122,69.909277
1.8779,0.005171,0.014919,-0.03732,0.003077,-0.004368,0.011393,-0.014452,-0.49501,-0.038465,0.696663,-262.923293,-1.311122,69.909277
1.898,0.004849,0.014576,-0.037537,0.003081,-0.004364,0.011396,-0.013765,-0.494869,-0.036957,0.699126,-262.921689,-1.306023,69.913968
1.9178,0.005289,0.014198,-0.037985,0.003081,-0.004366,0.011399,-0.014238,-0.495054,-0.037466,0.699126,-262.921689,-1.306023,69.913968
1.9379,0.005056,0.014529,-0.0378,0.00308,-0.004367,0.011403,-0.014238,-0.495054,-0.037466,0.699126,-262.921689,-1.306023,69.913968
1.9579,0.005005,0.014436,-0.037432,0.003079,-0.004368,0.011405,-0.014095,-0.495294,-0.037324,0.70004,-262.920077,-1.305135,69.918663
1.978,0.004956,0.014452,-0.036478,0.00308,-0.004367,0.011407,-0.014075,-0.49528,-0.037313,0.70004,-262.920077,-1.305135,69.918663
1.9977,0.004843,0.014562,-0.035858,0.003081,-0.004367,0.011409,-0.013551,-0.495351,-0.036115,0.700749,-262.918466,-1.305488,69.923361
2.0177,0.004717,0.014075,-0.036035,0.003062,-0.004387,0.011415,-0.013446,-0.495139,-0.035862,0.700749,-262.918466,-1.305488,69.923361
2.0378,0.004914,0.014552,-0.03664,0.003046,-0.004403,0.011419,-0.013446,-0.495139,-0.035862,0.700749,-262.918466,-1.305488,69.923361
2.0581,0.004755,0.014323,-0.035813,0.003033,-0.004417,0.011421,-0.013646,-0.495293,-0.036163,0.701178,-262.916853,-1.305417,69.928059
2.0778,0.004497,0.013691,-0.03688,0.003029,-0.004421,0.011422,-0.013575,-0.495338,-0.035965,0.701178,-262.916853,-1.305417,69.928059
2.098,0.004225,0.01419,-0.03602,0.003025,-0.004424,0.011422,-0.014216,-0.496106,-0.036516,0.700748,-262.915267,-1.310633,69.932772
2.1176,0.0046,0.013741,-0.03569,0.00304,-0.004407,0.011418,-0.014143,-0.495543,-0.036046,0.700748,-262.915267,-1.310633,69.932772
2.1377,0.00458,0.013821,-0.035222,0.003053,-0.004393,0.011416,-0.014143,-0.495543,-0.036046,0.700748,-262.915267,-1.310633,69.932772
2.1583,0.004314,0.01377,-0.035411,0.003064,-0.004382,0.011414,-0.013259,-0.496052,-0.034744,0.700672,-262.913683,-1.311399,69.93749
2.1781,0.004214,0.013335,-0.035333,0.003067,-0.004378,0.011415,-0.013443,-0.496016,-0.034962,0.700672,-262.913683,-1.311399,69.93749
2.1978,0.004082,0.013562,-0.035749,0.003069,-0.004376,0.011416,-0.01371,-0.49649,-0.034969,0.701767,-262.912079,-1.307228,69.942193
2.2182,0.004045,0.013448,-0.035247,0.00309,-0.004352,0.011412,-0.014102,-0.496154,-0.03566,0.701767,-262.912079,-1.307228,69.942193
2.2382,0.004033,0.012765,-0.034407,0.003108,-0.004332,0.011411,-0.014102,-0.496154,-0.03566,0.701767,-262.912079,-1.307228,69.942193
2.2582,0.003874,0.013394,-0.033337,0.003123,-0.004316,0.01141,-0.013389,-0.49712,-0.033929,0.702164,-262.910469,-1.306662,69.946901
2.2779,0.003992,0.013431,-0.033163,0.003131,-0.004307,0.01141,-0.013266,-0.496813,-0.03363,0.702164,-262.910469,-1.306662,69.946901
2.2978,0.003782,0.013044,-0.033551,0.003138,-0.0043,0.011411,-0.012823,-0.496429,-0.032801,0.704137,-262.908831,-1.300802,69.951581
2.318,0.003938,0.012658,-0.032655,0.00314,-0.004298,0.011413,-0.013278,-0.496655,-0.033469,0.704137,-262.908831,-1.300802,69.951581
2.3382,0.003638,0.013103,-0.0321,0.003142,-0.004296,0.011414,-0.013278,-0.496655,-0.033469,0.704137,-262.908831,-1.300802,69.951581
2.3581,0.003822,0.012743,-0.031548,0.003144,-0.004295,0.011416,-0.012604,-0.496818,-0.031622,0.704933,-262.907183,-1.299248,69.956261
2.3782,0.003937,0.012468,-0.032588,0.003129,-0.004311,0.01142,-0.012451,-0.496915,-0.031537,0.704933,-262.907183,-1.299248,69.956261
2.3981,0.003484,0.012728,-0.032903,0.003117,-0.004324,0.011423,-0.012584,-0.497401,-0.032225,0.705439,-262.905534,-1.298704,69.960933
2.4182,0.00377,0.012216,-0.032337,0.00313,-0.004309,0.01142,-0.013224,-0.49704,-0.032823,0.705439,-262.905534,-1.298704,69.960933
2.4381,0.003627,0.012558,-0.032353,0.003141,-0.004297,0.011418,-0.013224,-0.49704,-0.032823,0.705439,-262.905534,-1.298704,69.960933
2.4578,0.003092,0.012053,-0.033086,0.00315,-0.004286,0.011417,-0.012746,-0.49736,-0.031875,0.705087,-262.903897,-1.30167,69.965622
2.478,0.003365,0.011997,-0.032384,0.003167,-0.004266,0.011414,-0.013154,-0.497507,-0.032315,0.705087,-262.903897,-1.30167,69.965622
2.4981,0.003462,0.012198,-0.031645,0.003182,-0.004248,0.011412,-0.013052,-0.497875,-0.032021,0.70617,-262.902242,-1.29799,69.970297
2.5181,0.003351,0.012177,-0.030461,0.003186,-0.004245,0.011413,-0.012704,-0.497584,-0.031661,0.70617,-262.902242,-1.29799,69.970297
2.5381,0.003438,0.011668,-0.03054,0.003189,-0.004242,0.011414,-0.012704,-0.497584,-0.031661,0.70617,-262.902242,-1.29799,69.970297
2.5578,0.003287,0.012053,-0.029842,0.003191,-0.004239,0.011415,-0.012007,-0.498276,-0.030063,0.707491,-262.900567,-1.294391,69.97496
2.578,0.003056,0.011866,-0.030286,0.003185,-0.004246,0.011417,-0.011961,-0.498069,-0.029917,0.707491,-262.900567,-1.294391,69.97496
2.5976,0.002902,0.011554,-0.03002,0.003181,-0.004251,0.011419,-0.01229,-0.498038,-0.029923,0.708087,-262.898887,-1.293494,69.979623
2.6179,0.002981,0.011691,-0.030524,0.003191,-0.004238,0.011416,-0.012391,-0.498207,-0.029993,0.708087,-262.898887,-1.293494,69.979623
2.6378,0.002772,0.011804,-0.030035,0.003201,-0.004226,0.011415,-0.012391,-0.498207,-0.029993,0.708087,-262.898887,-1.293494,69.979623
2.6579,0.003248,0.011887,-0.028933,0.003208,-0.004217,0.011414,-0.012416,-0.498147,-0.029557,0.708102,-262.897212,-1.294679,69.984289
2.678,0.003278,0.011286,-0.028297,0.003202,-0.004225,0.011417,-0.012028,-0.498067,-0.029247,0.708102,-262.897212,-1.294679,69.984289
2.6977,0.00269,0.011165,-0.030367,0.003196,-0.004232,0.011418,-0.011053,-0.498647,-0.027933,0.709307,-262.895521,-1.29152,69.988944
2.7181,0.002847,0.01117,-0.029339,0.003221,-0.004201,0.011413,-0.012634,-0.498611,-0.030131,0.709307,-262.895521,-1.29152,69.988944
2.7379,0.002814,0.011217,-0.02969,0.003242,-0.004175,0.011409,-0.012634,-0.498611,-0.030131,0.709307,-262.895521,-1.29152,69.988944
2.7579,0.002632,0.011265,-0.02945,0.003261,-0.004153,0.011407,-0.012198,-0.498739,-0.029212,0.709082,-262.893837,-1.292995,69.993605
2.7783,0.002323,0.011141,-0.027131,0.003268,-0.004145,0.011408,-0.012259,-0.498668,-0.029254,0.709082,-262.893837,-1.292995,69.993605
2.7979,0.002355,0.010917,-0.029818,0.003275,-0.004138,0.011408,-0.011412,-0.498806,-0.026768,0.711954,-262.892113,-1.285562,69.998243
2.818,0.002283,0.010836,-0.027789,0.003297,-0.004111,0.011405,-0.012721,-0.498859,-0.029537,0.711954,-262.892113,-1.285562,69.998243
2.8379,0.00242,0.010779,-0.026549,0.003315,-0.004089,0.011404,-0.012721,-0.498859,-0.029537,0.711954,-262.892113,-1.285562,69.998243
2.8581,0.002382,0.01065,-0.027806,0.003331,-0.00407,0.011403,-0.010986,-0.499217,-0.026073,0.712648,-262.890377,-1.284036,70.002888
2.8779,0.002291,0.010768,-0.026344,0.003317,-0.004088,0.011409,-0.011309,-0.499211,-0.026739,0.712648,-262.890377,-1.284036,70.002888
2.898,0.002268,0.010522,-0.027213,0.003304,-0.004103,0.011413,-0.011041,-0.499187,-0.025983,0.715396,-262.88862,-1.27758,70.007476
2.9179,0.002197,0.010694,-0.026258,0.003303,-0.004104,0.011414,-0.011554,-0.499287,-0.027086,0.715396,-262.88862,-1.27758,70.007476
2.938,0.0023,0.010789,-0.027157,0.003302,-0.004106,0.011414,-0.011554,-0.499287,-0.027086,0.715396,-262.88862,-1.27758,70.007476
2.9579,0.002118,0.00991,-0.026539,0.003301,-0.004107,0.011414,-0.011415,-0.499198,-0.026681,0.714772,-262.886871,-1.2808,70.012095
2.9781,0.00241,0.009911,-0.02739,0.003302,-0.004105,0.011414,-0.011399,-0.499509,-0.026568,0.714772,-262.886871,-1.2808,70.012095
2.9978,0.001984,0.010041,-0.02454,0.003303,-0.004103,0.011413,-0.011455,-0.500031,-0.027025,0.714742,-262.885123,-1.281188,70.016719
3.0181,0.00202,0.009745,-0.026233,0.003289,-0.004118,0.011416,-0.010608,-0.499833,-0.024746,0.714742,-262.885123,-1.281188,70.016719
3.0379,0.002071,0.009715,-0.026034,0.003277,-0.00413,0.011417,-0.010608,-0.499833,-0.024746,0.714742,-262.885123,-1.281188,70.016719
3.0581,0.001851,0.009775,-0.025686,0.003267,-0.004141,0.011418,-0.011071,-0.500287,-0.025557,0.714944,-262.883373,-1.280928,70.021341
3.0778,0.001965,0.009894,-0.024791,0.003286,-0.004115,0.011412,-0.011127,-0.500213,-0.025554,0.714944,-262.883373,-1.280928,70.021341
3.098,0.001801,0.009729,-0.024983,0.003302,-0.004094,0.011408,-0.010576,-0.500084,-0.024427,0.714298,-262.881644,-1.284884,70.025973
3.1181,0.001687,0.009426,-0.023817,0.003306,-0.004089,0.011407,-0.0109,-0.500116,-0.024913,0.714298,-262.881644,-1.284884,70.025973
3.138,0.001806,0.009713,-0.024372,0.003309,-0.004085,0.011407,-0.0109,-0.500116,-0.024913,0.714298,-262.881644,-1.284884,70.025973
3.1578,0.001587,0.009385,-0.02508,0.003312,-0.004081,0.011407,-0.010488,-0.500311,-0.023893,0.715975,-262.879894,-1.280686,70.030589
3.1779,0.001838,0.009233,-0.024557,0.003319,-0.004072,0.011405,-0.010761,-0.500389,-0.024318,0.715975,-262.879894,-1.280686,70.030589
3.198,0.00154,0.009514,-0.023844,0.003324,-0.004065,0.011405,-0.010583,-0.500745,-0.024194,0.716631,-262.878134,-1.279502,70.035208
3.2182,0.001618,0.009417,-0.023969,0.003324,-0.004065,0.011405,-0.010611,-0.500383,-0.023856,0.716631,-262.878134,-1.279502,70.035208
3.2382,0.001301,0.009176,-0.023859,0.003324,-0.004064,0.011406,-0.010611,-0.500383,-0.023856,0.716631,-262.878134,-1.279502,70.035208
3.258,0.001581,0.008954,-0.023967,0.003324,-0.004064,0.011406,-0.010731,-0.500852,-0.023381,0.717401,-262.876372,-1.278059,70.03981
3.2779,0.001433,0.009268,-0.02103,0.003342,-0.00404,0.011401,-0.010679,-0.500891,-0.023563,0.717401,-262.876372,-1.278059,70.03981
3.2979,0.001243,0.009023,-0.020553,0.003357,-0.004019,0.011399,-0.009188,-0.500751,-0.020666,0.717721,-262.874604,-1.278109,70.044427
3.3181,0.00059,0.008835,-0.021901,0.003319,-0.004061,0.011408,-0.009229,-0.500865,-0.020545,0.717721,-262.874604,-1.278109,70.044427
3.3385,0.001763,0.008638,-0.022715,0.003286,-0.004096,0.011413,-0.009229,-0.500865,-0.020545,0.717721,-262.874604,-1.278109,70.044427
3.3584,0.000996,0.008433,-0.019082,0.003259,-0.004125,0.011416,-0.009684,-0.501402,-0.022239,0.719636,-262.872819,-1.274092,70.049017
3.3781,0.00132,0.008807,-0.020573,0.00326,-0.00412,0.011412,-0.009285,-0.501451,-0.020908,0.719636,-262.872819,-1.274092,70.049017
3.3981,0.000978,0.008018,-0.023079,0.00326,-0.004116,0.011408,-0.00907,-0.501218,-0.020211,0.718099,-262.871094,-1.285182,70.053628
3.418,0.001343,0.008698,-0.021322,0.003315,-0.004041,0.011394,-0.010632,-0.501797,-0.022803,0.718099,-262.871094,-1.285182,70.053628
3.4382,0.000797,0.0082,-0.021497,0.003362,-0.003978,0.011384,-0.010632,-0.501797,-0.022803,0.718099,-262.871094,-1.285182,70.053628
3.4582,0.000578,0.008211,-0.019474,0.003402,-0.003927,0.011378,-0.010033,-0.501857,-0.02102,0.718627,-262.86936,-1.28471,70.058254
3.4784,0.000727,0.008269,-0.02266,0.003409,-0.003919,0.011381,-0.009738,-0.50181,-0.02033,0.718627,-262.86936,-1.28471,70.058254
3.4978,0.000618,0.007982,-0.019886,0.003416,-0.003913,0.011383,-0.010724,-0.501727,-0.0223,0.726491,-262.86755,-1.267662,70.062787
3.5179,0.000718,0.008413,-0.019727,0.003421,-0.003908,0.011384,-0.009621,-0.501907,-0.020076,0.726491,-262.86755,-1.267662,70.062787
3.5378,0.000741,0.008295,-0.019895,0.003425,-0.003904,0.011385,-0.009621,-0.501907,-0.020076,0.726491,-262.86755,-1.267662,70.062787
3.5584,5.9e-05,0.007966,-0.018728,0.003429,-0.0039,0.011386,-0.009265,-0.501771,-0.01942,0.727074,-262.86572,-1.266219,70.067345
3.5783,0.00049,0.007601,-0.019345,0.003421,-0.003912,0.011388,-0.009341,-0.501861,-0.019083,0.727074,-262.86572,-1.266219,70.067345
3.5977,0.000512,0.007628,-0.018863,0.003414,-0.003922,0.01139,-0.009269,-0.50243,-0.018984,0.727651,-262.863883,-1.264801,70.071899
3.618,0.00057,0.007964,-0.018793,0.003417,-0.003916,0.011387,-0.009116,-0.5023,-0.018856,0.727651,-262.863883,-1.264801,70.071899
3.6379,0.000302,0.007477,-0.017722,0.00342,-0.003912,0.011385,-0.009116,-0.5023,-0.018856,0.727651,-262.863883,-1.264801,70.071899
3.6577,0.00039,0.007341,-0.018104,0.003422,-0.003908,0.011383,-0.008597,-0.502609,-0.017247,0.726624,-262.862059,-1.266671,70.07645
3.678,0.000165,0.007375,-0.017363,0.003422,-0.00391,0.011378,-0.008681,-0.502614,-0.017543,0.726624,-262.862059,-1.266671,70.07645
3.6982,0.000232,0.007655,-0.017101,0.003421,-0.003911,0.011373,-0.008582,-0.502675,-0.017,0.726992,-262.860225,-1.265515,70.08101
3.7182,0.000413,0.007079,-0.017708,0.003401,-0.00394,0.011372,-0.008492,-0.502312,-0.017075,0.726992,-262.860225,-1.265515,70.08101
3.738,0.000503,0.007234,-0.016531,0.003384,-0.003964,0.01137,-0.008492,-0.502312,-0.017075,0.726992,-262.860225,-1.265515,70.08101
3.7582,-0.000278,0.006999,-0.016167,0.00337,-0.003983,0.011368,-0.007786,-0.502863,-0.016053,0.725553,-262.858398,-1.265523,70.085558
3.7781,0.000401,0.007064,-0.017327,0.003365,-0.00399,0.011354,-0.008065,-0.502911,-0.016045,0.725553,-262.858398,-1.265523,70.085558
3.7978,0.00038,0.006915,-0.017099,0.003362,-0.003995,0.011343,-0.00833,-0.502989,-0.016964,0.720747,-262.856604,-1.271645,70.090131
3.8181,3e-06,0.006497,-0.015852,0.003374,-0.003974,0.011336,-0.008334,-0.503015,-0.017068,0.720747,-262.856604,-1.271645,70.090131
3.838,-0.000331,0.006695,-0.015723,0.003385,-0.003957,0.011332,-0.008334,-0.503015,-0.017068,0.720747,-262.856604,-1.271645,70.090131
3.8586,-0.000297,0.006842,-0.015163,0.003393,-0.003943,0.011329,-0.008212,-0.503411,-0.015249,0.717337,-262.854819,-1.272202,70.094704
3.8785,-6.5e-05,0.006273,-0.015491,0.003406,-0.003934,0.011307,-0.008122,-0.503303,-0.015159,0.717337,-262.854819,-1.272202,70.094704
3.8978,-0.000291,0.006339,-0.014913,0.003416,-0.003926,0.01129,-0.007859,-0.503793,-0.01513,0.719924,-262.853017,-1.268007,70.099247
3.9184,-6.5e-05,0.006491,-0.01519,0.003429,-0.003911,0.011269,-0.007888,-0.503628,-0.014914,0.719924,-262.853017,-1.268007,70.099247
3.9383,-0.000273,0.00638,-0.01497,0.003441,-0.003897,0.011253,-0.007888,-0.503628,-0.014914,0.719924,-262.853017,-1.268007,70.099247
3.9586,-0.000706,0.006349,-0.014365,0.00345,-0.003886,0.011241,-0.007767,-0.503729,-0.014497,0.715469,-262.851208,-1.265044,70.103784
3.9781,-0.000248,0.006221,-0.014871,0.00346,-0.003877,0.011219,-0.007859,-0.503695,-0.014389,0.715469,-262.851208,-1.265044,70.103784
3.998,-0.000822,0.005979,-0.013485,0.003468,-0.00387,0.011202,-0.007723,-0.503848,-0.014512,0.712238,-262.849382,-1.260247,70.108305
4.0183,-0.000664,0.005821,-0.012903,0.00348,-0.003857,0.011161,-0.007696,-0.50397,-0.013555,0.712238,-262.849382,-1.260247,70.108305
4.0381,-0.000642,0.006129,-0.014215,0.00349,-0.003847,0.011128,-0.007696,-0.50397,-0.013555,0.712238,-262.849382,-1.260247,70.108305
4.0577,-0.000516,0.005921,-0.013569,0.003498,-0.003838,0.011102,-0.007748,-0.503983,-0.013746,0.708522,-262.847556,-1.257638,70.112807
4.0778,-0.000757,0.005688,-0.014191,0.003504,-0.00383,0.011084,-0.007604,-0.504022,-0.01362,0.708522,-262.847556,-1.257638,70.112807
4.0976,-0.000925,0.005587,-0.01221,0.003509,-0.003823,0.011069,-0.007885,-0.504384,-0.013839,0.699458,-262.84573,-1.252545,70.117272
4.1185,-0.0009,0.006122,-0.013459,0.003509,-0.00382,0.010994,-0.007209,-0.504382,-0.012331,0.699458,-262.84573,-1.252545,70.117272
4.1386,-0.000454,0.005417,-0.012798,0.003511,-0.003817,0.010935,-0.007209,-0.504382,-0.012331,0.699458,-262.84573,-1.252545,70.117272
4.1579,-0.000879,0.005456,-0.012146,0.003512,-0.003813,0.01089,-0.006837,-0.504703,-0.012335,0.697054,-262.8439,-1.250642,70.121731
4.1779,-0.000838,0.005432,-0.013203,0.003511,-0.003804,0.010843,-0.006916,-0.504642,-0.012205,0.697054,-262.8439,-1.250642,70.121731
4.1976,-0.001057,0.005356,-0.011498,0.003511,-0.003796,0.010807,-0.007462,-0.504645,-0.012859,0.679555,-262.842103,-1.246969,70.126123
4.2181,-0.001507,0.005563,-0.013203,0.003511,-0.003794,0.010737,-0.006962,-0.50462,-0.011598,0.679555,-262.842103,-1.246969,70.126123
4.2381,-0.000709,0.004912,-0.011328,0.003511,-0.003792,0.010684,-0.006962,-0.50462,-0.011598,0.679555,-262.842103,-1.246969,70.126123
4.2583,-0.000818,0.005627,-0.01248,0.003512,-0.003788,0.010643,-0.006341,-0.505216,-0.010876,0.674054,-262.8403,-1.245104,70.130527
4.2785,-0.000847,0.005135,-0.010367,0.00351,-0.003779,0.0106,-0.006677,-0.504865,-0.011496,0.674054,-262.8403,-1.245104,70.130527
4.2977,-0.001187,0.004775,-0.011468,0.003509,-0.003771,0.010567,-0.006025,-0.504958,-0.010031,0.657489,-262.838542,-1.241811,70.134833
4.3181,-0.000935,0.004765,-0.010642,0.003537,-0.00372,0.01052,-0.006938,-0.505176,-0.011321,0.657489,-262.838542,-1.241811,70.134833
4.3383,-0.001286,0.004437,-0.009213,0.003562,-0.003679,0.010485,-0.006938,-0.505176,-0.011321,0.657489,-262.838542,-1.241811,70.134833
4.3582,-0.000987,0.004959,-0.01046,0.003582,-0.003644,0.010459,-0.005839,-0.505701,-0.008769,0.652772,-262.836773,-1.240238,70.139164
4.3779,-0.00128,0.004825,-0.01036,0.003547,-0.003664,0.010233,-0.006019,-0.50544,-0.009406,0.652772,-262.836773,-1.240238,70.139164
4.3982,-0.001332,0.004679,-0.010437,0.00352,-0.003675,0.010067,-0.006451,-0.505264,-0.010028,0.653687,-262.834976,-1.227809,70.143405
4.4185,-0.001064,0.00453,-0.009945,0.003537,-0.003649,0.010055,-0.00663,-0.505296,-0.010383,0.653687,-262.834976,-1.227809,70.143405
4.4379,-0.001478,0.00436,-0.010368,0.003551,-0.003626,0.010046,-0.00663,-0.505296,-0.010383,0.653687,-262.834976,-1.227809,70.143405
4.4583,-0.001387,0.004369,-0.006374,0.003563,-0.003608,0.01004,-0.006624,-0.505764,-0.009959,0.612529,-262.833301,-1.226717,70.147467
4.4781,-0.001385,0.004671,-0.009834,0.003528,-0.00362,0.009769,-0.005795,-0.505723,-0.008446,0.612529,-262.833301,-1.226717,70.147467
4.4979,-0.001402,0.004404,-0.008087,0.003502,-0.003624,0.009573,-0.006288,-0.50542,-0.009515,0.616418,-262.831555,-1.220097,70.151614
4.518,-0.001386,0.004128,-0.009459,0.003454,-0.003657,0.009392,-0.005589,-0.505571,-0.008198,0.616418,-262.831555,-1.220097,70.151614
4.538,-0.001259,0.004149,-0.00761,0.003417,-0.003679,0.00926,-0.005589,-0.505571,-0.008198,0.616418,-262.831555,-1.220097,70.151614
4.558,-0.001557,0.004124,-0.008349,0.003388,-0.003693,0.009164,-0.005,-0.505983,-0.007225,0.565644,-262.829964,-1.216644,70.155487
4.5779,-0.001643,0.00384,-0.008481,0.003359,-0.003681,0.008982,-0.005315,-0.505949,-0.007637,0.565644,-262.829964,-1.216644,70.155487
4.5979,-0.0017,0.003268,-0.006296,0.003336,-0.003666,0.008852,-0.005866,-0.506254,-0.008203,0.512001,-262.82848,-1.221066,70.159263
4.6179,-0.001683,0.003762,-0.00884,0.003319,-0.003585,0.008478,-0.004991,-0.506686,-0.006451,0.512001,-262.82848,-1.221066,70.159263
4.638,-0.001685,0.004019,-0.007205,0.003307,-0.003514,0.008218,-0.004991,-0.506686,-0.006451,0.512001,-262.82848,-1.221066,70.159263
4.6577,-0.001615,0.003525,-0.007136,0.0033,-0.00345,0.008037,-0.005223,-0.50612,-0.00684,0.480689,-262.826997,-1.218413,70.163073
4.6783,-0.00168,0.003468,-0.009041,0.0033,-0.003433,0.008019,-0.00522,-0.506277,-0.006919,0.480689,-262.826997,-1.218413,70.163073
4.6978,-0.001591,0.003472,-0.006013,0.0033,-0.003417,0.008006,-0.006195,-0.506614,-0.008804,0.416145,-262.825659,-1.194819,70.166406
4.7178,-0.00136,0.00315,-0.007178,0.003265,-0.003406,0.007839,-0.004785,-0.506532,-0.006241,0.416145,-262.825659,-1.194819,70.166406
4.7378,-0.001648,0.003637,-0.007952,0.003237,-0.003392,0.007721,-0.004785,-0.506532,-0.006241,0.416145,-262.825659,-1.194819,70.166406
4.7579,-0.001872,0.003249,-0.006733,0.003216,-0.003377,0.007637,-0.005567,-0.50649,-0.007618,0.419749,-262.824216,-1.192705,70.169976
4.7781,-0.001765,0.003169,-0.007526,0.003272,-0.003292,0.007771,-0.005444,-0.506609,-0.007217,0.419749,-262.824216,-1.192705,70.169976
4.7978,-0.001429,0.00326,-0.008071,0.003317,-0.003225,0.00787,-0.005503,-0.506923,-0.007287,0.380685,-262.822859,-1.19034,70.17337
4.8179,-0.002026,0.003143,-0.006175,0.003363,-0.003123,0.00801,-0.005394,-0.506898,-0.007649,0.380685,-262.822859,-1.19034,70.17337
4.8385,-0.001734,0.003088,-0.007439,0.003401,-0.003044,0.008114,-0.005394,-0.506898,-0.007649,0.380685,-262.822859,-1.19034,70.17337
4.8584,-0.002207,0.003207,-0.00623,0.003431,-0.002982,0.008189,-0.0054,-0.507024,-0.007133,0.444874,-262.821489,-1.179213,70.176609
4.8788,-0.001916,0.003123,-0.007226,0.003452,-0.002946,0.008058,-0.005379,-0.50694,-0.006728,0.444874,-262.821489,-1.179213,70.176609
4.8978,-0.001763,0.002991,-0.005875,0.00347,-0.002915,0.007963,-0.005504,-0.506949,-0.006996,0.519662,-262.820086,-1.164852,70.179671
4.918,-0.001983,0.002695,-0.005899,0.00343,-0.002926,0.007712,-0.004823,-0.507,-0.005966,0.519662,-262.820086,-1.164852,70.179671
4.9387,-0.002045,0.003285,-0.005519,0.0034,-0.00293,0.007533,-0.004823,-0.507,-0.005966,0.519662,-262.820086,-1.164852,70.179671
4.9581,-0.001923,0.002722,-0.004399,0.003376,-0.002928,0.007407,-0.004715,-0.50683,-0.005185,0.511662,-262.8185,-1.151178,70.183065
4.9784,-0.00194,0.002765,-0.005975,0.003314,-0.002965,0.006994,-0.00448,-0.507021,-0.004834,0.511662,-262.8185,-1.151178,70.183065
4.9979,-0.001991,0.002516,-0.004431,0.003266,-0.002987,0.006709,-0.004888,-0.507313,-0.005756,0.441497,-262.81712,-1.145361,70.186087
5.0183,-0.001969,0.00267,-0.003028,0.003222,-0.002929,0.006409,-0.004303,-0.507468,-0.00454,0.441497,-262.81712,-1.145361,70.186087
5.0379,-0.002084,0.002556,-0.004079,0.003189,-0.002878,0.006202,-0.004303,-0.507468,-0.00454,0.441497,-262.81712,-1.145361,70.186087
5.0578,-0.002123,0.002145,-0.004163,0.003164,-0.002833,0.006061,-0.004054,-0.50754,-0.003847,0.366492,-262.815999,-1.13883,70.188622
5.078,-0.001765,0.002584,-0.00659,0.003125,-0.002774,0.005761,-0.00412,-0.507678,-0.003949,0.366492,-262.815999,-1.13883,70.188622
5.0978,-0.001781,0.002195,-0.004053,0.003096,-0.002721,0.005556,-0.005041,-0.507481,-0.006424,0.291445,-262.814882,-1.119892,70.191094
5.1179,-0.001961,0.002554,-0.002914,0.003053,-0.002657,0.00552,-0.003949,-0.507777,-0.004254,0.291445,-262.814882,-1.119892,70.191094
5.1382,-0.002194,0.002431,-0.004965,0.003019,-0.002603,0.005495,-0.003949,-0.507777,-0.004254,0.291445,-262.814882,-1.119892,70.191094
5.1576,-0.002158,0.001869,-0.003254,0.002993,-0.002559,0.005478,-0.00461,-0.507666,-0.004754,0.216447,-262.813738,-1.102102,70.19357
5.1779,-0.002059,0.002106,-0.004997,0.003022,-0.002492,0.005413,-0.004277,-0.507864,-0.004125,0.216447,-262.813738,-1.102102,70.19357
5.1979,-0.001884,0.0023,-0.001319,0.003045,-0.002438,0.005367,-0.004515,-0.507968,-0.004827,0.256926,-262.812532,-1.101648,70.19615
5.218,-0.001986,0.002203,-0.003596,0.002769,-0.00256,0.004305,-0.002732,-0.507728,-0.001633,0.256926,-262.812532,-1.101648,70.19615
5.2379,-0.001762,0.002098,-0.002351,0.002562,-0.002636,0.003575,-0.002732,-0.507728,-0.001633,0.256926,-262.812532,-1.101648,70.19615
5.2583,-0.002024,0.002079,-0.002015,0.002404,-0.00268,0.003074,-0.002835,-0.508002,-0.002129,0.269302,-262.811279,-1.081325,70.198718
5.2784,-0.001812,0.002322,-0.003776,0.002333,-0.002628,0.00293,-0.002909,-0.50798,-0.002056,0.269302,-262.811279,-1.081325,70.198718
5.2981,-0.001767,0.002207,-0.00432,0.002278,-0.002583,0.002833,-0.003737,-0.507674,-0.003775,0.194247,-262.811277,-1.085425,70.198723
5.3182,-0.001345,0.002109,-0.002755,0.002411,-0.002488,0.003549,-0.003949,-0.507778,-0.004271,0.194247,-262.811277,-1.085425,70.198723
5.3382,-0.001927,0.002332,-0.003673,0.002515,-0.002422,0.004068,-0.003949,-0.507778,-0.004271,0.194247,-262.811277,-1.085425,70.198723
5.3584,-0.001947,0.001504,-0.001713,0.002595,-0.002377,0.004442,-0.0038,-0.507665,-0.003672,0.119297,-262.811271,-1.084938,70.198735
5.378,-0.001944,0.002303,-0.004179,0.002577,-0.00236,0.004218,-0.003401,-0.508003,-0.002874,0.119297,-262.811271,-1.084938,70.198735
5.3979,-0.001842,0.002043,-0.001931,0.002564,-0.002344,0.004063,-0.003994,-0.507768,-0.004038,0.128535,-262.810229,-1.099382,70.20101
5.4179,-0.001972,0.001713,-0.004209,0.002459,-0.002383,0.003633,-0.002927,-0.507943,-0.002112,0.128535,-262.810229,-1.099382,70.20101
5.4379,-0.001938,0.002095,-0.002887,0.00238,-0.002407,0.003335,-0.002927,-0.507943,-0.002112,0.128535,-262.810229,-1.099382,70.20101
5.458,-0.001702,0.001934,-0.001709,0.00232,-0.002421,0.003128,-0.003313,-0.507992,-0.002733,0.05367,-262.809295,-1.082433,70.202998
5.4779,-0.002189,0.001746,-0.003998,0.002293,-0.002401,0.003065,-0.003,-0.508032,-0.002297,0.05367,-262.809295,-1.082433,70.202998
5.4979,-0.001751,0.001871,-0.002844,0.002272,-0.002383,0.003021,-0.004205,-0.508272,-0.003964,-0.021321,-262.809005,-1.079154,70.203599
5.5182,-0.001812,0.00172,-0.00461,0.002316,-0.002316,0.003242,-0.00329,-0.508141,-0.002942,-0.021321,-262.809005,-1.079154,70.203599
5.5382,-0.00175,0.001581,-0.001608,0.002349,-0.002266,0.003397,-0.00329,-0.508141,-0.002942,-0.021321,-262.809005,-1.079154,70.203599
5.5584,-0.001798,0.001857,-0.002715,0.002376,-0.002229,0.003504,-0.002523,-0.508464,-0.001541,-0.096328,-262.80855,-1.077749,70.204534
5.5782,-0.002246,0.001405,-0.002234,0.002303,-0.002197,0.003189,-0.002787,-0.508337,-0.002013,-0.096328,-262.80855,-1.077749,70.204534
5.5979,-0.001812,0.001516,-0.002498,0.002248,-0.002168,0.002969,-0.003314,-0.508661,-0.002129,-0.037488,-262.80765,-1.072774,70.206416
5.6183,-0.00234,0.001453,-0.002507,0.002275,-0.002078,0.003003,-0.003103,-0.508502,-0.00246,-0.037488,-262.80765,-1.072774,70.206416
5.6383,-0.001618,0.001402,-0.002584,0.002298,-0.002009,0.003027,-0.003103,-0.508502,-0.00246,-0.037488,-262.80765,-1.072774,70.206416
5.6581,-0.00209,0.001537,-0.002162,0.002316,-0.001955,0.003044,-0.002861,-0.508667,-0.002483,-0.112487,-262.806928,-1.056843,70.207867
5.678,-0.001862,0.001323,-0.00344,0.002311,-0.001897,0.003007,-0.002988,-0.508591,-0.00234,-0.112487,-262.806928,-1.056843,70.207867
5.6981,-0.00146,0.001261,-0.001882,0.002309,-0.001851,0.002981,-0.00355,-0.508731,-0.003352,-0.041164,-262.806087,-1.025054,70.209485
5.7179,-0.001874,0.00155,-0.001084,0.00221,-0.0018,0.002832,-0.002525,-0.50874,-0.002019,-0.041164,-262.806087,-1.025054,70.209485
5.7381,-0.001742,0.001443,-0.003776,0.002137,-0.001758,0.002727,-0.002525,-0.50874,-0.002019,-0.041164,-262.806087,-1.025054,70.209485
5.7583,-0.001622,0.001231,-0.001807,0.002081,-0.001723,0.002653,-0.003573,-0.50863,-0.003653,-0.013115,-262.805179,-1.009494,70.211192
5.7783,-0.001699,0.001639,-0.003013,0.002166,-0.001664,0.002944,-0.003146,-0.508695,-0.002893,-0.013115,-262.805179,-1.009494,70.211192
5.7979,-0.001448,0.001214,-0.00218,0.002232,-0.001622,0.003149,-0.003171,-0.508412,-0.00293,-0.049397,-262.804363,-1.014012,70.212734
5.818,-0.00199,0.001293,-0.001654,0.002173,-0.001608,0.003042,-0.002612,-0.508753,-0.002244,-0.049397,-262.804363,-1.014012,70.212734
5.8379,-0.001685,0.001011,-0.002845,0.002128,-0.001596,0.002967,-0.002612,-0.508753,-0.002244,-0.049397,-262.804363,-1.014012,70.212734
5.8581,-0.001572,0.001237,-0.000976,0.002095,-0.001585,0.002915,-0.003081,-0.50903,-0.002773,0.025618,-262.803838,-1.008808,70.21371
5.8783,-0.001834,0.001273,-0.001886,0.002081,-0.001528,0.002774,-0.002662,-0.508925,-0.00203,0.025618,-262.803838,-1.008808,70.21371
5.8978,-0.001528,0.000842,-0.002673,0.002072,-0.001482,0.002677,-0.002734,-0.508773,-0.0018,0.093023,-262.803056,-1.013918,70.215182
5.9178,-0.001417,0.001,-0.001655,0.002112,-0.001374,0.002845,-0.002875,-0.509125,-0.002593,0.093023,-262.803056,-1.013918,70.215182
5.938,-0.001697,0.001165,-0.002213,0.002143,-0.001291,0.002964,-0.002875,-0.509125,-0.002593,0.093023,-262.803056,-1.013918,70.215182
5.9579,-0.001504,0.001084,-0.001772,0.002169,-0.001228,0.003049,-0.00274,-0.508894,-0.002103,0.073658,-262.802242,-0.984245,70.21665
5.9784,-0.001759,0.00104,-0.002201,0.002129,-0.001261,0.00284,-0.002595,-0.50891,-0.001955,0.073658,-262.802242,-0.984245,70.21665
5.9978,-0.001308,0.001246,-0.000661,0.002098,-0.001283,0.002693,-0.002848,-0.50898,-0.002158,0.148689,-262.801806,-0.958749,70.217379
6.0179,-0.001463,0.000988,-0.002293,0.001851,-0.001399,0.002023,-0.001752,-0.508775,-0.000795,0.148689,-262.801806,-0.958749,70.217379
6.038,-0.001537,0.000942,-0.001595,0.001666,-0.001477,0.001555,-0.001752,-0.508775,-0.000795,0.148689,-262.801806,-0.958749,70.217379
6.0578,-0.001525,0.000735,-0.000996,0.001526,-0.00153,0.001229,-0.002263,-0.50911,-0.001483,0.170708,-262.800962,-0.949083,70.218806
6.0777,-0.001949,0.001043,-0.001743,0.001533,-0.001417,0.001236,-0.002161,-0.509179,-0.001274,0.170708,-262.800962,-0.949083,70.218806
6.0977,-0.001737,0.001271,-0.002075,0.00154,-0.001329,0.001244,-0.002837,-0.508956,-0.001743,0.095706,-262.800961,-0.981164,70.218807
6.1178,-0.001522,0.000863,-0.001828,0.001683,-0.001346,0.001609,-0.002799,-0.508748,-0.002046,0.095706,-262.800961,-0.981164,70.218807
6.1378,-0.001479,0.001024,-0.002935,0.001793,-0.001362,0.001866,-0.002799,-0.508748,-0.002046,0.095706,-262.800961,-0.981164,70.218807
6.158,-0.001471,0.001042,-0.002223,0.001878,-0.001378,0.002047,-0.002973,-0.508975,-0.002932,0.020619,-262.800939,-0.935624,70.218842
6.178,-0.001929,0.000985,-0.001244,0.001952,-0.001323,0.002417,-0.002823,-0.508968,-0.002643,0.020619,-262.800939,-0.935624,70.218842
6.1981,-0.00153,0.001483,-0.000869,0.00201,-0.001285,0.002679,-0.002511,-0.509053,-0.001186,-0.054339,-262.800278,-0.950464,70.219976
6.2179,-0.001416,0.000638,-0.002412,0.001856,-0.001442,0.002057,-0.002019,-0.508568,-0.000895,-0.054339,-262.800278,-0.950464,70.219976
6.238,-0.00086,0.00069,5e-06,0.00174,-0.001555,0.001624,-0.002019,-0.508568,-0.000895,-0.054339,-262.800278,-0.950464,70.219976
6.2578,-0.001355,0.000819,-0.001007,0.001652,-0.001637,0.001321,-0.000821,-0.509336,4.9e-05,0.020612,-262.799926,-0.968286,70.220589
6.2779,-0.001209,0.000885,-0.002211,0.00136,-0.001537,0.000843,-0.001243,-0.509276,-0.000376,0.020612,-262.799926,-0.968286,70.220589
6.2977,-0.001574,0.000796,-0.001271,0.001145,-0.001455,0.000506,-0.002335,-0.509115,-0.002209,-0.054392,-262.799911,-0.976326,70.220612
6.3177,-0.001532,0.000795,-0.002657,0.001265,-0.00136,0.000762,-0.002232,-0.509195,-0.001355,-0.054392,-262.799911,-0.976326,70.220612
6.3378,-0.001274,0.000885,-0.001785,0.001357,-0.001289,0.000944,-0.002232,-0.509195,-0.001355,-0.054392,-262.799911,-0.976326,70.220612
6.3579,-0.001389,0.001248,-0.000353,0.001427,-0.001234,0.001073,-0.002185,-0.509114,-0.001785,-0.129403,-262.799911,-0.995155,70.220613
6.378,-0.001524,0.000879,-0.001942,0.001419,-0.001272,0.001103,-0.001935,-0.508967,-0.001203,-0.129403,-262.799911,-0.995155,70.220613
6.3985,-0.00125,0.00095,-0.000864,0.001412,-0.001301,0.001123,-0.002499,-0.509131,-0.001929,-0.204386,-262.799714,-0.923915,70.220915
6.4183,-0.001254,0.000746,-0.002794,0.001362,-0.001308,0.001012,-0.001763,-0.509058,-0.000959,-0.204386,-262.799714,-0.923915,70.220915
6.4383,-0.001499,0.000804,-0.001203,0.001324,-0.001311,0.000933,-0.001763,-0.509058,-0.000959,-0.204386,-262.799714,-0.923915,70.220915
6.458,-0.001692,0.00059,-0.002272,0.001295,-0.001313,0.000878,-0.002083,-0.50922,-0.001177,-0.279397,-262.799408,-0.952828,70.221399
6.4779,-0.00162,0.001032,-0.00101,0.0,0.0,0.0,-0.002393,-0.5093,-0.001621,-0.279397,-262.799408,-0.952828,70.221399
