mach0312/omni-docking-bench/src/icros_test_setup/results/MPPI_sample/timeseries/trial_138.csv
t,x,y,yaw,vx,vy,wz,bl_x,bl_y,bl_yaw,front_steering_joint,front_wheel_joint,rear_steering_joint,rear_wheel_joint
0.0,0.000761,-0.021024,0.036061,0.005491,-0.001618,0.00207,0.017007,-0.530488,0.033615,-0.064299,-257.652693,-0.483302,67.012295
0.0003,0.000721,-0.02099,0.035356,0.004958,-0.001461,0.001869,0.017856,-0.530116,0.034891,-0.064299,-257.649808,-0.483302,67.015546
0.0006,0.00012,-0.021386,0.036478,0.004377,-0.001289,0.00165,0.017856,-0.530116,0.034891,-0.064299,-257.647403,-0.483302,67.018257
0.0009,0.00103,-0.02141,0.036036,0.003753,-0.001106,0.001415,0.017856,-0.530116,0.034891,-0.064299,-257.645412,-0.483302,67.0205
0.0012,0.000736,-0.02099,0.033399,0.003083,-0.000908,0.001162,0.017104,-0.530352,0.033673,-0.064299,-257.644182,-0.483302,67.021886
0.0015,0.000903,-0.021278,0.033666,0.002384,-0.000702,0.000898,0.017536,-0.530293,0.034383,-0.064299,-257.644182,-0.483302,67.021886
0.0017,0.00122,-0.020888,0.035949,0.00163,-0.00048,0.000615,0.017536,-0.530293,0.034383,-0.064299,-257.644182,-0.483302,67.021886
0.002,0.001084,-0.021201,0.035909,0.000838,-0.000247,0.000316,0.017357,-0.530786,0.034049,-0.064299,-257.644182,-0.483302,67.021886
0.016,0.001482,-0.021191,0.033761,0.0,0.0,0.0,0.019446,-0.530885,0.035929,-0.064299,-257.643529,-0.483302,67.022623
0.0359,0.001166,-0.021438,0.03553,0.0,0.0,0.0,0.018767,-0.530899,0.033957,-0.064299,-257.643529,-0.483302,67.022623
0.0562,0.000821,-0.020918,0.035444,0.0,0.0,0.0,0.018767,-0.530899,0.033957,-0.064299,-257.643529,-0.483302,67.022623
0.0762,0.001114,-0.021332,0.033754,0.0,0.0,0.0,0.018893,-0.530597,0.035444,-0.064299,-257.643529,-0.483302,67.022623
0.0962,0.001369,-0.021374,0.035866,0.0,0.0,0.0,0.018662,-0.530778,0.034755,-0.064299,-257.643529,-0.483302,67.022623
0.1162,0.000796,-0.021309,0.033438,-0.00244,-0.000615,-0.005311,0.019657,-0.531046,0.035866,-0.064299,-257.643529,-0.483302,67.022623
0.1361,0.001403,-0.021316,0.035315,-0.00262,-0.000648,-0.005625,0.018003,-0.531025,0.033648,-0.064299,-257.643529,-0.483302,67.022623
0.1561,0.001353,-0.021243,0.036546,-0.002768,-0.000675,-0.005859,0.018003,-0.531025,0.033648,-0.064299,-257.643529,-0.483302,67.022623
0.1764,0.000793,-0.021031,0.037155,-0.002888,-0.000695,-0.006029,0.019988,-0.530902,0.036546,0.010795,-257.643529,-0.558396,67.022623
0.196,0.001027,-0.021263,0.037065,-0.003021,-0.00074,-0.006163,0.019885,-0.530811,0.036795,0.010795,-257.643529,-0.558396,67.022623
0.216,0.001088,-0.021235,0.034565,-0.00313,-0.000777,-0.006259,0.019926,-0.530913,0.037065,0.085732,-257.643529,-0.633333,67.022623
0.2361,0.001213,-0.021385,0.034054,-0.003202,-0.00079,-0.006338,0.018819,-0.530929,0.034785,0.085732,-257.643529,-0.633333,67.022623
0.2561,0.000773,-0.021161,0.035529,-0.00326,-0.0008,-0.006392,0.018819,-0.530929,0.034785,0.085732,-257.643529,-0.633333,67.022623
0.2761,0.000993,-0.021345,0.034766,-0.003307,-0.000807,-0.006427,0.018889,-0.530839,0.035529,0.160741,-257.643529,-0.708342,67.022623
0.2962,0.000941,-0.021178,0.034591,-0.003345,-0.000812,-0.00649,0.01882,-0.53092,0.035215,0.160741,-257.643529,-0.708342,67.022623
0.3157,0.00111,-0.021109,0.033766,-0.003376,-0.000816,-0.006535,0.018579,-0.530873,0.034591,0.235781,-257.64353,-0.755903,67.022622
0.3358,0.001249,-0.021163,0.036582,-0.003393,-0.000812,-0.006567,0.01835,-0.530824,0.03384,0.235781,-257.64353,-0.755903,67.022622
0.3559,0.00133,-0.021125,0.034313,-0.003407,-0.000808,-0.006588,0.01835,-0.530824,0.03384,0.235781,-257.64353,-0.755903,67.022622
0.3761,0.000751,-0.021282,0.034506,-0.003417,-0.000805,-0.0066,0.018827,-0.530825,0.034313,0.310699,-257.64353,-0.754874,67.022622
0.396,0.001293,-0.021317,0.034489,-0.003427,-0.000803,-0.006607,0.018631,-0.530888,0.034392,0.310699,-257.64353,-0.754874,67.022622
0.416,0.000985,-0.020836,0.036104,-0.003435,-0.000802,-0.006609,0.018879,-0.531013,0.034489,0.38569,-257.643532,-0.756725,67.02262
0.436,0.000893,-0.021622,0.035741,-0.003457,-0.000816,-0.006608,0.019348,-0.530549,0.035959,0.38569,-257.643532,-0.756725,67.02262
0.4563,0.001369,-0.021568,0.034204,-0.003476,-0.000828,-0.006606,0.019348,-0.530549,0.035959,0.38569,-257.643532,-0.756725,67.02262
0.4762,0.001027,-0.020896,0.035555,-0.003491,-0.000837,-0.006601,0.018808,-0.53127,0.034203,0.460695,-257.643542,-0.755467,67.022612
0.496,0.001053,-0.02091,0.035969,-0.003491,-0.000833,-0.006596,0.01895,-0.530986,0.034754,0.460695,-257.643542,-0.755467,67.022612
0.516,0.001112,-0.021108,0.035971,-0.003489,-0.00083,-0.00659,0.01939,-0.53058,0.035966,0.535692,-257.643587,-0.741017,67.022577
0.5361,0.001031,-0.020896,0.034565,-0.003499,-0.000837,-0.006584,0.019447,-0.53076,0.03597,0.535692,-257.643587,-0.741017,67.022577
0.5561,0.001251,-0.021156,0.036359,-0.003507,-0.000843,-0.006579,0.019447,-0.53076,0.03597,0.535692,-257.643587,-0.741017,67.022577
0.5758,0.001159,-0.021344,0.035465,-0.003514,-0.000849,-0.006573,0.019779,-0.530819,0.036345,0.610692,-257.643734,-0.74145,67.022461
0.5959,0.000974,-0.021409,0.034915,-0.003519,-0.000853,-0.006568,0.019559,-0.530903,0.035984,0.610692,-257.643734,-0.74145,67.022461
0.6158,0.000799,-0.021113,0.03588,-0.003523,-0.000856,-0.006563,0.018756,-0.5311,0.034885,0.685685,-257.644121,-0.733362,67.022155
0.6363,0.001287,-0.021445,0.035358,-0.003518,-0.000852,-0.006559,0.019063,-0.530813,0.035792,0.685685,-257.644121,-0.733362,67.022155
0.6567,0.000777,-0.021307,0.033657,-0.003515,-0.000849,-0.006555,0.019063,-0.530813,0.035792,0.685685,-257.644121,-0.733362,67.022155
0.6761,0.001007,-0.021264,0.035056,-0.003511,-0.000847,-0.006551,0.017883,-0.531027,0.033572,0.760795,-257.644935,-0.730023,67.021515
0.6962,0.00089,-0.021142,0.034126,-0.003491,-0.00083,-0.006548,0.01828,-0.530997,0.034161,0.760795,-257.644935,-0.730023,67.021515
0.7161,0.001036,-0.021508,0.035805,-0.003474,-0.000816,-0.006545,0.018221,-0.53086,0.03401,0.835697,-257.64633,-0.731969,67.020415
0.7361,0.001333,-0.021234,0.03459,-0.003473,-0.000816,-0.006542,0.019192,-0.531152,0.035637,0.835697,-257.64633,-0.731969,67.020415
0.756,0.001337,-0.021502,0.03525,-0.003472,-0.000816,-0.00654,0.019192,-0.531152,0.035637,0.835697,-257.64633,-0.731969,67.020415
0.7761,0.000734,-0.021369,0.033597,-0.00347,-0.000816,-0.006538,0.01919,-0.531215,0.035028,0.910692,-257.648287,-0.741356,67.018862
0.7961,0.001012,-0.021278,0.035524,-0.00346,-0.000807,-0.006577,0.018632,-0.531164,0.034415,0.910692,-257.648287,-0.741356,67.018862
0.8163,0.001313,-0.021593,0.034978,-0.00345,-0.0008,-0.00661,0.019018,-0.530986,0.03532,0.945659,-257.650609,-0.741351,67.017019
0.8363,0.00109,-0.021625,0.034067,-0.003449,-0.000799,-0.006656,0.019131,-0.531256,0.034998,0.945659,-257.650609,-0.741351,67.017019
0.8566,0.001033,-0.021522,0.033937,-0.003447,-0.000799,-0.006695,0.019131,-0.531256,0.034998,0.945659,-257.650609,-0.741351,67.017019
0.8759,0.001475,-0.021454,0.032645,-0.003445,-0.000798,-0.006726,0.018195,-0.531267,0.033661,0.951193,-257.652979,-0.753539,67.015132
0.896,0.000966,-0.021381,0.034136,-0.003427,-0.000783,-0.006771,0.018148,-0.531237,0.033214,0.951193,-257.652979,-0.753539,67.015132
0.9159,0.000902,-0.021554,0.033281,-0.003411,-0.00077,-0.006807,0.018263,-0.531113,0.033921,0.958541,-257.65537,-0.765302,67.013227
0.9359,0.000986,-0.021319,0.034269,-0.003392,-0.000755,-0.006857,0.017902,-0.531259,0.033328,0.958541,-257.65537,-0.765302,67.013227
0.9558,0.000645,-0.021476,0.034044,-0.003376,-0.000742,-0.006898,0.017902,-0.531259,0.033328,0.958541,-257.65537,-0.765302,67.013227
0.976,0.001203,-0.021288,0.032283,-0.003362,-0.000731,-0.006932,0.017863,-0.531218,0.03376,0.965286,-257.657759,-0.781847,67.011311
0.9958,0.000912,-0.021578,0.032816,-0.003349,-0.000721,-0.006979,0.017765,-0.531142,0.033124,0.965286,-257.657759,-0.781847,67.011311
1.0164,0.000936,-0.021402,0.034534,-0.003338,-0.000712,-0.007018,0.017541,-0.53133,0.032598,0.975534,-257.660131,-0.805878,67.00939
1.036,0.000868,-0.021311,0.033781,-0.003341,-0.000715,-0.007068,0.018441,-0.531121,0.034334,0.975534,-257.660131,-0.805878,67.00939
1.0563,0.000937,-0.021635,0.033201,-0.003343,-0.000718,-0.00711,0.018441,-0.531121,0.034334,0.975534,-257.660131,-0.805878,67.00939
1.0757,0.001139,-0.021459,0.03319,-0.003346,-0.00072,-0.007145,0.017728,-0.531389,0.032908,0.982004,-257.662523,-0.819508,67.007444
1.0957,0.001025,-0.021499,0.033357,-0.003334,-0.00071,-0.00719,0.017848,-0.531307,0.032989,0.982004,-257.662523,-0.819508,67.007444
1.1157,0.000729,-0.02153,0.03478,-0.003323,-0.000702,-0.007228,0.017928,-0.531241,0.03313,0.988741,-257.664952,-0.828035,67.005469
1.1358,0.000801,-0.021462,0.031634,-0.003325,-0.000704,-0.007274,0.01841,-0.531225,0.03462,0.988741,-257.664952,-0.828035,67.005469
1.1557,0.001123,-0.021557,0.031621,-0.003327,-0.000705,-0.007312,0.01841,-0.531225,0.03462,0.988741,-257.664952,-0.828035,67.005469
1.1758,0.000799,-0.022025,0.031924,-0.003329,-0.000707,-0.007343,0.017109,-0.531336,0.031319,0.994731,-257.667385,-0.84068,67.003482
1.1957,0.000892,-0.021631,0.03228,-0.003301,-0.000684,-0.007382,0.017081,-0.531514,0.03153,0.994731,-257.667385,-0.84068,67.003482
1.216,0.000937,-0.021415,0.031205,-0.003277,-0.000665,-0.007413,0.017247,-0.531391,0.032046,1.000643,-257.669848,-0.84854,67.001471
1.2359,0.000909,-0.021528,0.031215,-0.003257,-0.00065,-0.007448,0.016879,-0.531188,0.031269,1.000643,-257.669848,-0.84854,67.001471
1.2559,0.00092,-0.021921,0.030686,-0.003241,-0.000637,-0.007478,0.016879,-0.531188,0.031269,1.000643,-257.669848,-0.84854,67.001471
1.2763,0.001453,-0.021213,0.031606,-0.003227,-0.000626,-0.007502,0.016431,-0.531712,0.030377,1.007891,-257.672288,-0.86724,66.999458
1.2961,0.000982,-0.021701,0.030931,-0.003211,-0.000615,-0.007527,0.016877,-0.53141,0.03084,1.007891,-257.672288,-0.86724,66.999458
1.3161,0.000903,-0.021603,0.031609,-0.003198,-0.000605,-0.007548,0.016653,-0.53148,0.030694,1.016109,-257.674722,-0.886472,66.997431
1.3361,0.00095,-0.021721,0.029589,-0.00319,-0.000598,-0.007567,0.016982,-0.531361,0.031514,1.016109,-257.674722,-0.886472,66.997431
1.3558,0.000972,-0.021783,0.031235,-0.003182,-0.000592,-0.007584,0.016982,-0.531361,0.031514,1.016109,-257.674722,-0.886472,66.997431
1.376,0.001247,-0.021982,0.030274,-0.003176,-0.000588,-0.007598,0.016767,-0.531564,0.03092,1.020602,-257.677164,-0.896944,66.995384
1.3957,0.001159,-0.021213,0.031152,-0.003161,-0.000576,-0.007611,0.016718,-0.531643,0.030619,1.020602,-257.677164,-0.896944,66.995384
1.4162,0.001174,-0.021542,0.029655,-0.003148,-0.000567,-0.007622,0.016944,-0.530987,0.030911,1.024849,-257.679607,-0.906052,66.993328
1.4361,0.001419,-0.02157,0.030769,-0.003136,-0.000557,-0.007634,0.016348,-0.53129,0.029754,1.024849,-257.679607,-0.906052,66.993328
1.4562,0.001319,-0.021555,0.028824,-0.003125,-0.00055,-0.007643,0.016348,-0.53129,0.029754,1.024849,-257.679607,-0.906052,66.993328
1.4759,0.001297,-0.021727,0.030255,-0.003116,-0.000543,-0.007651,0.015886,-0.53137,0.028506,1.028236,-257.682045,-0.91458,66.991265
1.4959,0.000962,-0.021797,0.029708,-0.003104,-0.000534,-0.00766,0.016216,-0.531424,0.029188,1.028236,-257.682045,-0.91458,66.991265
1.516,0.001438,-0.021547,0.028944,-0.003093,-0.000526,-0.007667,0.016012,-0.531592,0.029466,1.032251,-257.684478,-0.924406,66.989193
1.5362,0.001363,-0.021727,0.029267,-0.003085,-0.00052,-0.007675,0.016178,-0.531355,0.028974,1.032251,-257.684478,-0.924406,66.989193
1.5563,0.00171,-0.021934,0.029501,-0.003077,-0.000515,-0.007681,0.016178,-0.531355,0.028974,1.032251,-257.684478,-0.924406,66.989193
1.576,0.00125,-0.021827,0.028035,-0.003071,-0.00051,-0.007687,0.016625,-0.531738,0.029182,1.034911,-257.686894,-0.931049,66.987127
1.5959,0.001582,-0.021922,0.028953,-0.00306,-0.000502,-0.007693,0.016164,-0.531695,0.02867,1.034911,-257.686894,-0.931049,66.987127
1.616,0.00129,-0.021899,0.027814,-0.003051,-0.000495,-0.007698,0.016249,-0.531728,0.028709,1.037738,-257.689307,-0.937706,66.985054
1.6365,0.001172,-0.021865,0.027505,-0.003028,-0.00048,-0.007703,0.015536,-0.531705,0.02788,1.037738,-257.689307,-0.937706,66.985054
1.656,0.001339,-0.021999,0.029207,-0.00301,-0.000467,-0.007708,0.015536,-0.531705,0.02788,1.037738,-257.689307,-0.937706,66.985054
1.6758,0.001121,-0.02192,0.028083,-0.002994,-0.000456,-0.007712,0.016106,-0.531806,0.028885,1.039994,-257.691714,-0.943317,66.982979
1.6959,0.00127,-0.021738,0.02842,-0.002985,-0.00045,-0.007716,0.015819,-0.531773,0.02852,1.039994,-257.691714,-0.943317,66.982979
1.7161,0.001359,-0.021611,0.02698,-0.002978,-0.000445,-0.00772,0.015668,-0.53155,0.028175,1.045574,-257.694096,-0.957602,66.980903
1.7362,0.001419,-0.021555,0.027295,-0.002963,-0.000434,-0.007724,0.01516,-0.531437,0.027072,1.045574,-257.694096,-0.957602,66.980903
1.7564,0.001461,-0.021653,0.028417,-0.00295,-0.000426,-0.007728,0.01516,-0.531437,0.027072,1.045574,-257.694096,-0.957602,66.980903
1.7759,0.001485,-0.021947,0.028526,-0.002939,-0.000418,-0.007731,0.015828,-0.531469,0.028094,1.047383,-257.696489,-0.961876,66.978812
1.796,0.001262,-0.021937,0.028712,-0.002944,-0.000422,-0.007734,0.015899,-0.531586,0.028239,1.047383,-257.696489,-0.961876,66.978812
1.8158,0.00127,-0.022176,0.027276,-0.002948,-0.000424,-0.007737,0.01581,-0.531743,0.028467,1.051366,-257.69884,-0.971596,66.976743
1.8357,0.001642,-0.021862,0.028325,-0.00293,-0.000412,-0.007739,0.01523,-0.531965,0.02737,1.051366,-257.69884,-0.971596,66.976743
1.8558,0.001227,-0.021921,0.027657,-0.002915,-0.000402,-0.007742,0.01523,-0.531965,0.02737,1.051366,-257.69884,-0.971596,66.976743
1.8757,0.001976,-0.022013,0.027628,-0.002902,-0.000393,-0.007744,0.015208,-0.531747,0.027334,1.050905,-257.701217,-0.969932,66.974655
1.896,0.001304,-0.022112,0.026502,-0.002901,-0.000393,-0.007746,0.015547,-0.531779,0.027418,1.050905,-257.701217,-0.969932,66.974655
1.9158,0.001762,-0.02208,0.025665,-0.002901,-0.000393,-0.007748,0.014727,-0.531948,0.026256,1.055423,-257.703566,-0.981043,66.972572
1.936,0.001916,-0.022008,0.025878,-0.002883,-0.000381,-0.00775,0.014834,-0.531916,0.025704,1.055423,-257.703566,-0.981043,66.972572
1.956,0.001461,-0.021893,0.02602,-0.002867,-0.00037,-0.007751,0.014834,-0.531916,0.025704,1.055423,-257.703566,-0.981043,66.972572
1.9764,0.002013,-0.021935,0.026291,-0.002854,-0.000362,-0.007753,0.014608,-0.53174,0.025696,1.055704,-257.705923,-0.981503,66.970484
1.9963,0.001657,-0.022021,0.02753,-0.002847,-0.000357,-0.007754,0.014925,-0.53175,0.025901,1.055704,-257.705923,-0.981503,66.970484
2.0161,0.001839,-0.022352,0.023171,-0.002842,-0.000354,-0.007755,0.015605,-0.531841,0.027284,1.060374,-257.708254,-0.992678,66.9684
2.0359,0.002038,-0.022232,0.024251,-0.002803,-0.00033,-0.007756,0.013817,-0.532184,0.023509,1.060374,-257.708254,-0.992678,66.9684
2.0563,0.001683,-0.022214,0.026319,-0.002771,-0.00031,-0.007757,0.013817,-0.532184,0.023509,1.060374,-257.708254,-0.992678,66.9684
2.0761,0.001372,-0.02233,0.027019,-0.002743,-0.000293,-0.007758,0.014986,-0.532055,0.025995,1.061662,-257.71058,-0.99562,66.966315
2.0964,0.001388,-0.021937,0.025446,-0.00275,-0.000297,-0.00776,0.015039,-0.532093,0.026371,1.061662,-257.71058,-0.99562,66.966315
2.1157,0.001919,-0.022144,0.025874,-0.002756,-0.000301,-0.007761,0.014277,-0.531784,0.025201,1.071576,-257.712855,-1.017863,66.964242
2.136,0.001619,-0.022003,0.025818,-0.002764,-0.000305,-0.007762,0.015037,-0.531958,0.025804,1.071576,-257.712855,-1.017863,66.964242
2.1559,0.00176,-0.021964,0.024531,-0.00277,-0.000309,-0.007763,0.015037,-0.531958,0.025804,1.071576,-257.712855,-1.017863,66.964242
2.1762,0.001891,-0.022559,0.02428,-0.002776,-0.000312,-0.007763,0.014155,-0.531826,0.024207,1.070411,-257.715148,-1.01517,66.962156
2.1964,0.002024,-0.022344,0.024111,-0.002759,-0.000302,-0.007764,0.014189,-0.532064,0.024199,1.070411,-257.715148,-1.01517,66.962156
2.2161,0.002108,-0.022175,0.021761,-0.002744,-0.000292,-0.007764,0.014231,-0.532208,0.023863,1.068565,-257.717458,-1.01098,66.960062
2.2359,0.002067,-0.021781,0.022702,-0.00271,-0.000272,-0.007764,0.013288,-0.532068,0.021928,1.068565,-257.717458,-1.01098,66.960062
2.2562,0.001917,-0.021941,0.023997,-0.002681,-0.000254,-0.007765,0.013288,-0.532068,0.021928,1.068565,-257.717458,-1.01098,66.960062
2.276,0.001955,-0.021937,0.022181,-0.002656,-0.000239,-0.007765,0.01404,-0.531809,0.023673,1.071742,-257.719745,-1.018191,66.957976
2.2962,0.002196,-0.021799,0.020416,-0.00265,-0.000235,-0.007766,0.013712,-0.531812,0.023028,1.071742,-257.719745,-1.018191,66.957976
2.3162,0.001749,-0.02227,0.024057,-0.002644,-0.000232,-0.007766,0.012524,-0.531702,0.020171,1.080957,-257.721986,-1.037926,66.955901
2.3362,0.002389,-0.021786,0.022937,-0.002639,-0.000228,-0.007767,0.013877,-0.532084,0.023691,1.080957,-257.721986,-1.037926,66.955901
2.3563,0.002201,-0.022208,0.023128,-0.002635,-0.000226,-0.007768,0.013877,-0.532084,0.023691,1.080957,-257.721986,-1.037926,66.955901
2.3763,0.001987,-0.021803,0.022406,-0.002631,-0.000223,-0.007768,0.013885,-0.532084,0.022803,1.082256,-257.72424,-1.040664,66.95381
2.3961,0.001909,-0.022092,0.022156,-0.002626,-0.00022,-0.007769,0.01368,-0.531919,0.022604,1.082256,-257.72424,-1.040664,66.95381
2.4161,0.002493,-0.022182,0.021405,-0.002622,-0.000218,-0.007769,0.013124,-0.531975,0.021908,1.083757,-257.726488,-1.043787,66.951718
2.4364,0.002381,-0.022109,0.020998,-0.002609,-0.00021,-0.007769,0.013378,-0.532058,0.021438,1.083757,-257.726488,-1.043787,66.951718
2.4561,0.002299,-0.022067,0.022352,-0.002599,-0.000203,-0.007768,0.013378,-0.532058,0.021438,1.083757,-257.726488,-1.043787,66.951718
2.476,0.002337,-0.022433,0.022556,-0.002589,-0.000198,-0.007768,0.013588,-0.531951,0.022027,1.084715,-257.728733,-1.045818,66.949625
2.496,0.002265,-0.021918,0.020916,-0.002588,-0.000197,-0.007769,0.013678,-0.532096,0.022205,1.084715,-257.728733,-1.045818,66.949625
2.5159,0.0024,-0.022126,0.020043,-0.002588,-0.000196,-0.007769,0.012849,-0.531815,0.020668,1.088161,-257.730965,-1.053112,66.947531
2.5362,0.002054,-0.022019,0.021587,-0.002561,-0.000181,-0.007768,0.012637,-0.532006,0.020086,1.088161,-257.730965,-1.053112,66.947531
2.5562,0.002299,-0.022201,0.023418,-0.002539,-0.000167,-0.007766,0.012637,-0.532006,0.020086,1.088161,-257.730965,-1.053112,66.947531
2.5758,0.002354,-0.02165,0.021699,-0.00252,-0.000156,-0.007765,0.014133,-0.532072,0.023092,1.088423,-257.733194,-1.053609,66.94544
2.5963,0.00238,-0.022119,0.021339,-0.002537,-0.000167,-0.007767,0.013831,-0.531853,0.022489,1.088423,-257.733194,-1.053609,66.94544
2.6161,0.002427,-0.022279,0.021199,-0.002552,-0.000175,-0.007769,0.013182,-0.532009,0.021092,1.095671,-257.735391,-1.06837,66.943353
2.6363,0.002526,-0.022342,0.01947,-0.002545,-0.000171,-0.007769,0.01323,-0.532151,0.021178,1.095671,-257.735391,-1.06837,66.943353
2.6559,0.002239,-0.022005,0.020993,-0.002538,-0.000167,-0.007769,0.01323,-0.532151,0.021178,1.095671,-257.735391,-1.06837,66.943353
2.676,0.002482,-0.022557,0.019107,-0.002533,-0.000164,-0.007769,0.012839,-0.531902,0.020669,1.092313,-257.737607,-1.061448,66.941261
2.6965,0.002398,-0.02218,0.020717,-0.002511,-0.000151,-0.007768,0.012573,-0.532135,0.019986,1.092313,-257.737607,-1.061448,66.941261
2.7161,0.002401,-0.022381,0.018318,-0.002493,-0.00014,-0.007767,0.012883,-0.532078,0.02047,1.094394,-257.739821,-1.065718,66.939162
2.7361,0.002707,-0.022262,0.019342,-0.002454,-0.000118,-0.007762,0.011829,-0.532279,0.018477,1.094394,-257.739821,-1.065718,66.939162
2.756,0.002432,-0.022251,0.019243,-0.002421,-9.9e-05,-0.007759,0.011829,-0.532279,0.018477,1.094394,-257.739821,-1.065718,66.939162
2.7763,0.002641,-0.022072,0.020591,-0.002393,-8.3e-05,-0.007756,0.012142,-0.532164,0.018921,1.098824,-257.742004,-1.074508,66.937078
2.7961,0.002862,-0.021988,0.017961,-0.002393,-8.2e-05,-0.007758,0.012541,-0.532083,0.01957,1.098824,-257.742004,-1.074508,66.937078
2.8158,0.002877,-0.021967,0.018985,-0.002392,-8.2e-05,-0.007759,0.011947,-0.53191,0.017717,1.10997,-257.744136,-1.095929,66.935004
2.8361,0.002768,-0.021957,0.017377,-0.002395,-8.2e-05,-0.007758,0.012502,-0.531878,0.018863,1.10997,-257.744136,-1.095929,66.935004
2.8559,0.002934,-0.022254,0.019355,-0.002397,-8.2e-05,-0.007758,0.012502,-0.531878,0.018863,1.10997,-257.744136,-1.095929,66.935004
2.876,0.002866,-0.022001,0.01831,-0.002398,-8.3e-05,-0.007758,0.012704,-0.532164,0.019031,1.110125,-257.746286,-1.096227,66.932913
2.896,0.0031,-0.021992,0.018579,-0.002396,-8.1e-05,-0.007757,0.01249,-0.532064,0.018701,1.110125,-257.746286,-1.096227,66.932913
2.9158,0.003297,-0.02207,0.019981,-0.002395,-7.9e-05,-0.007756,0.012499,-0.531908,0.018331,1.109161,-257.74844,-1.095092,66.930818
2.9359,0.003183,-0.021736,0.017127,-0.00242,-9.4e-05,-0.007758,0.013394,-0.531963,0.01982,1.109161,-257.74844,-1.095092,66.930818
2.9561,0.003023,-0.022239,0.018472,-0.002441,-0.000106,-0.00776,0.013394,-0.531963,0.01982,1.109161,-257.74844,-1.095092,66.930818
2.9758,0.002891,-0.022181,0.018862,-0.002459,-0.000116,-0.007762,0.012343,-0.532157,0.018147,1.109385,-257.750591,-1.095881,66.928723
2.9961,0.003379,-0.021769,0.018002,-0.002444,-0.000107,-0.007759,0.012399,-0.53213,0.0184,1.109385,-257.750591,-1.095881,66.928723
3.0158,0.003351,-0.021759,0.018385,-0.002432,-9.9e-05,-0.007756,0.012482,-0.531691,0.017755,1.102094,-257.75276,-1.082092,66.926636
3.0358,0.003191,-0.022167,0.017448,-0.002438,-0.000101,-0.007754,0.012701,-0.531675,0.018316,1.102094,-257.75276,-1.082092,66.926636
3.0557,0.003122,-0.022094,0.016511,-0.002442,-0.000102,-0.007752,0.012701,-0.531675,0.018316,1.102094,-257.75276,-1.082092,66.926636
3.0761,0.003586,-0.022214,0.018258,-0.002446,-0.000104,-0.007751,0.01144,-0.53203,0.016187,1.104824,-257.754924,-1.087884,66.924543
3.0958,0.003265,-0.02241,0.016694,-0.002424,-8.8e-05,-0.007738,0.01202,-0.532071,0.016991,1.104824,-257.754924,-1.087884,66.924543
3.1158,0.00312,-0.02202,0.016726,-0.002405,-7.6e-05,-0.007728,0.011701,-0.532344,0.016447,1.102616,-257.757092,-1.084768,66.922449
3.1359,0.003441,-0.022035,0.017298,-0.00238,-5.9e-05,-0.007715,0.011651,-0.531984,0.016688,1.102616,-257.757092,-1.084768,66.922449
3.1558,0.003227,-0.022216,0.017257,-0.002359,-4.6e-05,-0.007706,0.011651,-0.531984,0.016688,1.102616,-257.757092,-1.084768,66.922449
3.176,0.003196,-0.021942,0.016632,-0.002341,-3.5e-05,-0.007699,0.011927,-0.532145,0.016934,1.105867,-257.759242,-1.092903,66.920353
3.1961,0.003401,-0.022331,0.0164,-0.002329,-2.8e-05,-0.007695,0.011812,-0.532032,0.016771,1.105867,-257.759242,-1.092903,66.920353
3.2158,0.003646,-0.022024,0.016845,-0.00232,-2.2e-05,-0.007692,0.011691,-0.532265,0.016157,1.11185,-257.761348,-1.105947,66.918271
3.236,0.003392,-0.022333,0.01461,-0.002324,-2.3e-05,-0.00769,0.012188,-0.531977,0.016777,1.11185,-257.761348,-1.105947,66.918271
3.2561,0.003214,-0.022117,0.016281,-0.002327,-2.4e-05,-0.007688,0.012188,-0.531977,0.016777,1.11185,-257.761348,-1.105947,66.918271
3.2762,0.003338,-0.022159,0.015257,-0.00233,-2.4e-05,-0.007687,0.01142,-0.532052,0.01596,1.113907,-257.763444,-1.110264,66.91619
3.2963,0.003752,-0.022086,0.016816,-0.002304,-8e-06,-0.007658,0.011286,-0.532072,0.015637,1.113907,-257.763444,-1.110264,66.91619
3.316,0.003659,-0.021955,0.015022,-0.002282,5e-06,-0.007635,0.012254,-0.532016,0.016571,1.112138,-257.765554,-1.108006,66.914098
3.3359,0.003334,-0.022285,0.01585,-0.00227,1.6e-05,-0.0076,0.011397,-0.531908,0.015145,1.112138,-257.765554,-1.108006,66.914098
3.3562,0.003754,-0.02213,0.014462,-0.002259,2.4e-05,-0.007573,0.011397,-0.531908,0.015145,1.112138,-257.765554,-1.108006,66.914098
3.3759,0.003642,-0.022024,0.014256,-0.00225,3e-05,-0.007553,0.011034,-0.532078,0.014143,1.115184,-257.767622,-1.116098,66.912026
3.3961,0.003524,-0.022285,0.015348,-0.002227,4.7e-05,-0.007487,0.010974,-0.532035,0.014152,1.115184,-257.767622,-1.116098,66.912026
3.4163,0.003584,-0.021963,0.014126,-0.002208,6e-05,-0.007438,0.011279,-0.532225,0.015107,1.114412,-257.769667,-1.11954,66.90996
3.4365,0.003733,-0.022109,0.015801,-0.002189,7.2e-05,-0.007404,0.010827,-0.531939,0.014198,1.114412,-257.769667,-1.11954,66.90996
3.4565,0.00382,-0.022307,0.014872,-0.002173,8.2e-05,-0.007378,0.010827,-0.531939,0.014198,1.114412,-257.769667,-1.11954,66.90996
3.4761,0.00355,-0.022409,0.014413,-0.002159,8.9e-05,-0.007359,0.011312,-0.532249,0.014559,1.113067,-257.771662,-1.123501,66.907921
3.4961,0.003721,-0.022411,0.014712,-0.002151,9.2e-05,-0.007359,0.011137,-0.532292,0.014466,1.113067,-257.771662,-1.123501,66.907921
3.5164,0.003674,-0.02233,0.013409,-0.002145,9.4e-05,-0.007359,0.011155,-0.532354,0.014477,1.115177,-257.773623,-1.130656,66.905897
3.5363,0.003857,-0.022008,0.015174,-0.002123,0.00011,-0.007298,0.010567,-0.53229,0.013493,1.115177,-257.773623,-1.130656,66.905897
3.5564,0.004067,-0.022163,0.01361,-0.002104,0.000122,-0.007252,0.010567,-0.53229,0.013493,1.115177,-257.773623,-1.130656,66.905897
3.5762,0.004287,-0.022064,0.014243,-0.002088,0.000132,-0.007218,0.010918,-0.532113,0.013301,1.117198,-257.77558,-1.133498,66.903871
3.5966,0.003785,-0.022254,0.01206,-0.002097,0.000128,-0.007203,0.011164,-0.532072,0.013648,1.117198,-257.77558,-1.133498,66.903871
3.6161,0.004099,-0.022702,0.012058,-0.002104,0.000125,-0.007193,0.009869,-0.532214,0.011829,1.116511,-257.777483,-1.139659,66.901873
3.6361,0.004547,-0.021776,0.012503,-0.002078,0.000153,-0.007027,0.010212,-0.532625,0.012026,1.116511,-257.777483,-1.139659,66.901873
3.6562,0.004109,-0.021835,0.012037,-0.002054,0.000174,-0.006906,0.010212,-0.532625,0.012026,1.116511,-257.777483,-1.139659,66.901873
3.6763,0.004235,-0.021948,0.014036,-0.002035,0.00019,-0.006818,0.010159,-0.531793,0.011736,1.112727,-257.779385,-1.134973,66.899881
3.6958,0.004303,-0.022131,0.01388,-0.002041,0.000186,-0.006819,0.01065,-0.531835,0.012635,1.112727,-257.779385,-1.134973,66.899881
3.7158,0.004113,-0.022067,0.011911,-0.002046,0.000182,-0.006821,0.011317,-0.532077,0.013663,1.097612,-257.781164,-1.13368,66.897965
3.7364,0.004192,-0.022145,0.012939,-0.002038,0.00019,-0.006761,0.010284,-0.532035,0.012055,1.097612,-257.781164,-1.13368,66.897965
3.7558,0.003993,-0.022038,0.011763,-0.002031,0.000196,-0.006717,0.010284,-0.532035,0.012055,1.097612,-257.781164,-1.13368,66.897965
3.7758,0.004698,-0.021951,0.012509,-0.002025,0.000201,-0.006685,0.009906,-0.531996,0.011477,1.096454,-257.782956,-1.131033,66.896043
3.7964,0.00456,-0.021987,0.012225,-0.002025,0.000204,-0.006639,0.010376,-0.531961,0.011867,1.096454,-257.782956,-1.131033,66.896043
3.8157,0.004494,-0.022084,0.011511,-0.002025,0.000206,-0.006606,0.01073,-0.531944,0.012012,1.09,-257.784705,-1.129222,66.894149
3.8359,0.004416,-0.02188,0.011871,-0.002025,0.00021,-0.00654,0.010395,-0.53204,0.011546,1.09,-257.784705,-1.129222,66.894149
3.8559,0.003876,-0.022013,0.012554,-0.002025,0.000213,-0.006493,0.010395,-0.53204,0.011546,1.09,-257.784705,-1.129222,66.894149
3.8761,0.00445,-0.022364,0.011695,-0.002025,0.000214,-0.006458,0.010193,-0.531966,0.012278,1.084364,-257.786437,-1.125358,66.892271
3.8959,0.00413,-0.021714,0.011104,-0.002018,0.000213,-0.006487,0.010274,-0.532113,0.012008,1.084364,-257.786437,-1.125358,66.892271
3.916,0.004591,-0.022137,0.011567,-0.002012,0.000212,-0.006509,0.009729,-0.531677,0.010898,1.073385,-257.78813,-1.117585,66.890426
3.9362,0.004824,-0.022341,0.011668,-0.002015,0.000214,-0.006462,0.010418,-0.532064,0.011496,1.073385,-257.78813,-1.117585,66.890426
3.9565,0.004371,-0.022172,0.011624,-0.002017,0.000215,-0.006428,0.010418,-0.532064,0.011496,1.073385,-257.78813,-1.117585,66.890426
3.9758,0.004818,-0.021995,0.010245,-0.002019,0.000215,-0.006403,0.010215,-0.53213,0.011352,1.079724,-257.789835,-1.122821,66.88857
3.9958,0.004558,-0.022285,0.009342,-0.002015,0.000225,-0.006297,0.010135,-0.532063,0.01087,1.079724,-257.789835,-1.122821,66.88857
4.0161,0.004488,-0.022467,0.010873,-0.002011,0.000232,-0.006221,0.009258,-0.532256,0.009138,1.07068,-257.791518,-1.115649,66.886734
4.0357,0.005011,-0.021671,0.011343,-0.001997,0.000242,-0.006141,0.009963,-0.532421,0.010712,1.07068,-257.791518,-1.115649,66.886734
4.056,0.004535,-0.021971,0.011358,-0.001985,0.00025,-0.006083,0.009963,-0.532421,0.010712,1.07068,-257.791518,-1.115649,66.886734
4.0758,0.004535,-0.021907,0.009292,-0.001975,0.000256,-0.006043,0.010243,-0.531929,0.011098,1.057554,-257.793148,-1.108108,66.884941
4.0958,0.004511,-0.022677,0.010652,-0.001971,0.000263,-0.005955,0.00984,-0.53191,0.010335,1.057554,-257.793148,-1.108108,66.884941
4.116,0.004885,-0.021975,0.011624,-0.001968,0.000267,-0.005892,0.00988,-0.532641,0.01046,1.048995,-257.79473,-1.106937,66.883178
4.1358,0.004563,-0.021766,0.009713,-0.001986,0.000247,-0.006005,0.010713,-0.532013,0.011491,1.048995,-257.79473,-1.106937,66.883178
4.1558,0.004611,-0.021573,0.009768,-0.002002,0.000232,-0.006089,0.010713,-0.532013,0.011491,1.048995,-257.79473,-1.106937,66.883178
4.1757,0.004892,-0.022064,0.007542,-0.002016,0.00022,-0.006151,0.009511,-0.531538,0.009522,1.037213,-257.796273,-1.099854,66.881448
4.1959,0.004696,-0.021911,0.008748,-0.001996,0.000257,-0.005712,0.009185,-0.531746,0.008684,1.037213,-257.796273,-1.099854,66.881448
4.2165,0.004871,-0.022135,0.007901,-0.001977,0.000283,-0.005407,0.009093,-0.531885,0.008552,1.052777,-257.797895,-1.101659,66.879672
4.2358,0.004673,-0.022057,0.009209,-0.001951,0.000314,-0.005031,0.008918,-0.532092,0.007962,1.052777,-257.797895,-1.101659,66.879672
4.256,0.004475,-0.022064,0.00916,-0.001926,0.000335,-0.004776,0.008918,-0.532092,0.007962,1.052777,-257.797895,-1.101659,66.879672
4.276,0.004758,-0.022123,0.009037,-0.001904,0.000349,-0.004604,0.00907,-0.532032,0.008951,0.99102,-257.799227,-1.066775,66.878161
4.2961,0.004668,-0.021997,0.010182,-0.001888,0.000344,-0.004696,0.009182,-0.53206,0.008962,0.99102,-257.799227,-1.066775,66.878161
4.316,0.004747,-0.022096,0.009984,-0.001875,0.000341,-0.004765,0.009808,-0.531961,0.010052,0.915959,-257.80033,-1.028584,66.876854
4.336,0.004863,-0.021883,0.010058,-0.00188,0.00032,-0.004985,0.009833,-0.532061,0.009984,0.915959,-257.80033,-1.028584,66.876854
4.356,0.004906,-0.02197,0.007671,-0.001886,0.000306,-0.005145,0.009833,-0.532061,0.009984,0.915959,-257.80033,-1.028584,66.876854
4.3761,0.004657,-0.021972,0.007681,-0.001891,0.000296,-0.005262,0.00874,-0.531942,0.007475,0.940556,-257.801583,-1.047761,66.875376
4.3962,0.005083,-0.021757,0.009904,-0.001874,0.000329,-0.004842,0.008664,-0.531946,0.007536,0.940556,-257.801583,-1.047761,66.875376
4.4156,0.005026,-0.021788,0.007386,-0.001857,0.000351,-0.004551,0.010077,-0.531724,0.009746,0.995721,-257.80289,-1.076453,66.873877
4.4357,0.005011,-0.021964,0.007177,-0.001852,0.000361,-0.004363,0.008903,-0.531769,0.007586,0.995721,-257.80289,-1.076453,66.873877
4.4563,0.005031,-0.022258,0.007676,-0.001846,0.000366,-0.004235,0.008903,-0.531769,0.007586,0.995721,-257.80289,-1.076453,66.873877
4.4757,0.004908,-0.021506,0.00772,-0.00184,0.000369,-0.004149,0.008877,-0.53223,0.007507,0.920661,-257.803971,-1.035334,66.872591
4.4958,0.004618,-0.021829,0.008045,-0.001831,0.00037,-0.004086,0.008857,-0.531932,0.007573,0.920661,-257.803971,-1.035334,66.872591
4.5157,0.004807,-0.021845,0.007343,-0.001823,0.000371,-0.004045,0.008665,-0.531802,0.007921,0.866447,-257.805042,-1.005753,66.871295
4.5364,0.005033,-0.021846,0.007708,-0.001808,0.000376,-0.003971,0.008558,-0.531828,0.007386,0.866447,-257.805042,-1.005753,66.871295
4.5561,0.004622,-0.02191,0.007009,-0.001796,0.000379,-0.003921,0.008558,-0.531828,0.007386,0.866447,-257.805042,-1.005753,66.871295
4.5758,0.004922,-0.021838,0.009339,-0.001785,0.000381,-0.003888,0.00812,-0.531883,0.00684,0.855706,-257.806155,-1.000323,66.869944
4.5958,0.005166,-0.022261,0.008562,-0.001779,0.000374,-0.003971,0.008766,-0.531853,0.007865,0.855706,-257.806155,-1.000323,66.869944
4.6161,0.004766,-0.021823,0.007461,-0.001775,0.00037,-0.004029,0.009476,-0.532231,0.00844,0.840547,-257.807218,-0.996157,66.86864
4.6362,0.004986,-0.021645,0.007892,-0.00177,0.000372,-0.003995,0.008646,-0.531844,0.007539,0.840547,-257.807218,-0.996157,66.86864
4.6561,0.005257,-0.021858,0.007663,-0.001765,0.000373,-0.003971,0.008646,-0.531844,0.007539,0.840547,-257.807218,-0.996157,66.86864
4.6759,0.005174,-0.021903,0.007169,-0.001762,0.000374,-0.003954,0.009092,-0.531828,0.007497,0.867078,-257.808298,-1.010782,66.867323
4.6959,0.004862,-0.021795,0.007454,-0.001772,0.000372,-0.003893,0.008975,-0.531852,0.007342,0.867078,-257.808298,-1.010782,66.867323
4.716,0.004766,-0.021734,0.006992,-0.00178,0.00037,-0.003851,0.008608,-0.531769,0.007328,0.85867,-257.809376,-1.007373,66.866004
4.7357,0.005125,-0.021652,0.007615,-0.001768,0.00038,-0.003739,0.008353,-0.531725,0.007014,0.85867,-257.809376,-1.007373,66.866004
4.7561,0.004762,-0.021842,0.007932,-0.001758,0.000386,-0.003661,0.008353,-0.531725,0.007014,0.85867,-257.809376,-1.007373,66.866004
4.7765,0.005055,-0.021432,0.008403,-0.001749,0.00039,-0.003607,0.008734,-0.531811,0.007773,0.839059,-257.810429,-0.991851,66.864719
4.7964,0.005001,-0.021894,0.00683,-0.001757,0.000374,-0.003793,0.008974,-0.531647,0.008012,0.839059,-257.810429,-0.991851,66.864719
4.8156,0.005033,-0.021919,0.00574,-0.001765,0.000362,-0.003924,0.00843,-0.53187,0.006717,0.803464,-257.811413,-0.977516,66.863497
4.8359,0.00501,-0.021901,0.007593,-0.001755,0.000393,-0.003446,0.008,-0.531906,0.005824,0.803464,-257.811413,-0.977516,66.863497
4.8558,0.005243,-0.021751,0.006051,-0.001743,0.000414,-0.003122,0.008,-0.531906,0.005824,0.803464,-257.811413,-0.977516,66.863497
4.8758,0.004932,-0.021864,0.006008,-0.00173,0.000427,-0.002903,0.008259,-0.531728,0.005895,0.856216,-257.812436,-1.001544,66.862253
4.8963,0.004757,-0.021452,0.007743,-0.001722,0.000432,-0.002786,0.008142,-0.531779,0.005924,0.856216,-257.812436,-1.001544,66.862253
4.9163,0.00492,-0.021852,0.005511,-0.001715,0.000434,-0.00271,0.008682,-0.531432,0.007697,0.781061,-257.812844,-0.926389,66.861732
4.9363,0.005259,-0.021862,0.005268,-0.001698,0.000442,-0.002591,0.00781,-0.531809,0.005695,0.781061,-257.812844,-0.926389,66.861732
4.956,0.005035,-0.022176,0.006856,-0.001683,0.000446,-0.002512,0.00781,-0.531809,0.005695,0.781061,-257.812844,-0.926389,66.861732
4.9762,0.005215,-0.022065,0.00753,-0.00167,0.000449,-0.002461,0.008487,-0.532155,0.00678,0.70609,-257.813382,-0.883557,66.861041
4.9964,0.004925,-0.021687,0.005171,-0.001674,0.000424,-0.002784,0.008722,-0.532109,0.007089,0.70609,-257.813382,-0.883557,66.861041
5.0158,0.005184,-0.021699,0.008121,-0.00168,0.000407,-0.003012,0.007526,-0.531672,0.005114,0.630763,-257.813944,-0.863164,66.860311
5.036,0.004958,-0.021843,0.006776,-0.001702,0.00038,-0.003334,0.009163,-0.53168,0.007849,0.630763,-257.813944,-0.863164,66.860311
5.056,0.004896,-0.021694,0.006068,-0.001724,0.000361,-0.003561,0.009163,-0.53168,0.007849,0.630763,-257.813944,-0.863164,66.860311
5.0758,0.004879,-0.021662,0.004539,-0.001743,0.000348,-0.003719,0.007931,-0.53167,0.005961,0.705304,-257.814697,-0.928741,66.859353
5.0962,0.005287,-0.021966,0.005347,-0.00173,0.000387,-0.003157,0.00762,-0.531663,0.005362,0.705304,-257.814697,-0.928741,66.859353
5.1162,0.004913,-0.021635,0.005253,-0.001715,0.000415,-0.002775,0.007972,-0.53195,0.005262,0.780445,-257.815457,-0.983564,66.858433
5.1363,0.005018,-0.021717,0.005889,-0.0017,0.000434,-0.002479,0.00762,-0.531653,0.00525,0.780445,-257.815457,-0.983564,66.858433
5.1564,0.004978,-0.02161,0.006144,-0.001686,0.000447,-0.00228,0.00762,-0.531653,0.00525,0.780445,-257.815457,-0.983564,66.858433
5.1759,0.005269,-0.021675,0.005783,-0.001672,0.000455,-0.002149,0.008068,-0.531591,0.006068,0.705189,-257.815996,-0.908308,66.857747
5.1961,0.005015,-0.021614,0.005636,-0.00167,0.000445,-0.002265,0.008124,-0.53162,0.005944,0.705189,-257.815996,-0.908308,66.857747
5.2161,0.005256,-0.021738,0.00511,-0.001669,0.000438,-0.002349,0.007871,-0.531602,0.005608,0.630582,-257.816271,-0.833701,66.857392
5.2363,0.005246,-0.021577,0.005963,-0.001668,0.000446,-0.002169,0.007862,-0.53172,0.005152,0.630582,-257.816271,-0.833701,66.857392
5.256,0.00506,-0.021492,0.00616,-0.001666,0.00045,-0.002046,0.007862,-0.53172,0.005152,0.630582,-257.816271,-0.833701,66.857392
5.2759,0.005228,-0.021578,0.007003,-0.001664,0.000452,-0.001965,0.008141,-0.531467,0.006073,0.555471,-257.816947,-0.842657,66.856519
5.2961,0.004588,-0.021587,0.00533,-0.001669,0.00043,-0.002267,0.008402,-0.531506,0.006441,0.555471,-257.816947,-0.842657,66.856519
5.3158,0.004596,-0.021096,0.004329,-0.001676,0.000414,-0.00248,0.007269,-0.531571,0.005284,0.480579,-257.817466,-0.781991,66.855853
5.336,0.005172,-0.021754,0.007411,-0.001652,0.000445,-0.001997,0.006842,-0.531132,0.004408,0.480579,-257.817466,-0.781991,66.855853
5.356,0.005283,-0.021287,0.005515,-0.001629,0.000467,-0.001671,0.006842,-0.531132,0.004408,0.480579,-257.817466,-0.781991,66.855853
5.376,0.00498,-0.021434,0.006175,-0.001608,0.000482,-0.001452,0.008041,-0.531265,0.005435,0.555732,-257.818091,-0.855356,66.855056
5.3962,0.005041,-0.021189,0.005187,-0.001616,0.000461,-0.001718,0.00807,-0.531328,0.005727,0.555732,-257.818091,-0.855356,66.855056
5.4161,0.00513,-0.021781,0.006151,-0.001625,0.000447,-0.001905,0.00768,-0.53118,0.005179,0.480776,-257.818189,-0.780401,66.854931
5.4362,0.005388,-0.021985,0.004471,-0.00163,0.000433,-0.002127,0.008216,-0.531721,0.006067,0.480776,-257.818189,-0.780401,66.854931
5.4561,0.004857,-0.02182,0.006957,-0.001636,0.000423,-0.002281,0.008216,-0.531721,0.006067,0.480776,-257.818189,-0.780401,66.854931
5.4762,0.004906,-0.021326,0.0036,-0.001642,0.000417,-0.002387,0.008342,-0.53179,0.006883,0.415433,-257.818852,-0.78095,66.854077
5.4964,0.005115,-0.021856,0.004805,-0.001636,0.000426,-0.002311,0.007684,-0.531598,0.005539,0.415433,-257.818852,-0.78095,66.854077
5.516,0.004997,-0.021303,0.004181,-0.00163,0.000433,-0.002257,0.007531,-0.53184,0.004758,0.490334,-257.819354,-0.851636,66.853433
5.5362,0.005037,-0.021434,0.00526,-0.001625,0.000457,-0.001776,0.007162,-0.531345,0.004228,0.490334,-257.819354,-0.851636,66.853433
5.5562,0.004847,-0.021657,0.004171,-0.001617,0.000474,-0.001451,0.007162,-0.531345,0.004228,0.490334,-257.819354,-0.851636,66.853433
5.576,0.004874,-0.022013,0.005166,-0.001608,0.000485,-0.001234,0.006908,-0.531635,0.004079,0.525981,-257.82009,-0.838188,66.852481
5.5957,0.004811,-0.021709,0.003912,-0.00159,0.00049,-0.001193,0.007147,-0.531786,0.004516,0.525981,-257.82009,-0.838188,66.852481
5.6157,0.005135,-0.021347,0.004416,-0.001574,0.000494,-0.001169,0.006803,-0.531704,0.003908,0.450958,-257.820136,-0.763164,66.852424
5.6363,0.004711,-0.021467,0.006343,-0.001574,0.000494,-0.001105,0.007336,-0.531373,0.004372,0.450958,-257.820136,-0.763164,66.852424
5.6558,0.005123,-0.021791,0.004738,-0.001574,0.000494,-0.001063,0.007336,-0.531373,0.004372,0.450958,-257.820136,-0.763164,66.852424
5.6759,0.004785,-0.021547,0.005516,-0.001574,0.000493,-0.001037,0.007529,-0.531783,0.004727,0.376024,-257.820244,-0.688231,66.852289
5.6962,0.00525,-0.021275,0.005256,-0.001571,0.000482,-0.001241,0.007556,-0.531682,0.005051,0.376024,-257.820244,-0.688231,66.852289
5.7158,0.004642,-0.021494,0.005229,-0.001569,0.000474,-0.001384,0.007919,-0.531266,0.005246,0.30099,-257.820398,-0.621202,66.8521
5.7358,0.00507,-0.021472,0.004313,-0.001562,0.000469,-0.001536,0.007361,-0.531468,0.00523,0.30099,-257.820398,-0.621202,66.8521
5.7563,0.005146,-0.021412,0.005976,-0.001557,0.000466,-0.001641,0.007361,-0.531468,0.00523,0.30099,-257.820398,-0.621202,66.8521
5.7762,0.004787,-0.021548,0.004774,-0.001554,0.000464,-0.001712,0.008139,-0.531386,0.005928,0.232116,-257.820943,-0.696164,66.851408
5.7962,0.004897,-0.021737,0.00451,-0.001564,0.000457,-0.001819,0.007744,-0.531451,0.005433,0.232116,-257.820943,-0.696164,66.851408
5.8157,0.004846,-0.021359,0.005857,-0.001574,0.000452,-0.001892,0.007162,-0.531721,0.004473,0.307437,-257.821412,-0.770982,66.850796
5.8362,0.00465,-0.021949,0.003959,-0.001581,0.000444,-0.002025,0.007772,-0.531382,0.005734,0.307437,-257.821412,-0.770982,66.850796
5.8562,0.005093,-0.021699,0.005427,-0.001588,0.000439,-0.002115,0.007772,-0.531382,0.005734,0.307437,-257.821412,-0.770982,66.850796
5.8758,0.004913,-0.021431,0.00628,-0.001595,0.000436,-0.002175,0.007807,-0.531676,0.005365,0.382104,-257.821968,-0.795835,66.85007
5.8959,0.00467,-0.021276,0.005915,-0.001604,0.000434,-0.002215,0.007928,-0.531569,0.005735,0.382104,-257.821968,-0.795835,66.85007
5.9157,0.00487,-0.021575,0.004969,-0.001612,0.000432,-0.002239,0.007649,-0.531256,0.005865,0.457124,-257.822515,-0.836021,66.849357
5.9363,0.004701,-0.021712,0.003533,-0.00161,0.000445,-0.002047,0.007424,-0.531541,0.005044,0.457124,-257.822515,-0.836021,66.849357
5.9559,0.004389,-0.021536,0.004269,-0.001606,0.000454,-0.001915,0.007424,-0.531541,0.005044,0.457124,-257.822515,-0.836021,66.849357
5.9759,0.004956,-0.021127,0.004985,-0.001602,0.000461,-0.001824,0.006503,-0.531515,0.004182,0.526026,-257.823206,-0.840295,66.848462
5.9957,0.004778,-0.021233,0.005507,-0.001587,0.000477,-0.001581,0.006906,-0.531351,0.004503,0.526026,-257.823206,-0.840295,66.848462
6.0158,0.004967,-0.021366,0.004498,-0.001573,0.000488,-0.001417,0.007552,-0.531216,0.005465,0.450986,-257.823683,-0.776671,66.847843
6.0363,0.00467,-0.021433,0.004274,-0.001574,0.00049,-0.001334,0.007284,-0.531348,0.004578,0.450986,-257.823683,-0.776671,66.847843
6.056,0.004838,-0.021017,0.004782,-0.001574,0.000491,-0.001279,0.007284,-0.531348,0.004578,0.450986,-257.823683,-0.776671,66.847843
6.0759,0.004848,-0.021509,0.004777,-0.001574,0.00049,-0.001244,0.007248,-0.531004,0.004753,0.375996,-257.823967,-0.710384,66.847478
6.096,0.004456,-0.021574,0.007106,-0.001572,0.000487,-0.001282,0.00726,-0.531206,0.004759,0.375996,-257.823967,-0.710384,66.847478
6.1158,0.004489,-0.021713,0.007636,-0.00157,0.000485,-0.001309,0.008056,-0.531555,0.007084,0.301109,-257.824282,-0.671393,66.847083
6.1361,0.004755,-0.021503,0.00333,-0.001576,0.000441,-0.00202,0.008354,-0.531685,0.007588,0.301109,-257.824282,-0.671393,66.847083
6.1562,0.004964,-0.02155,0.003304,-0.001585,0.000411,-0.002534,0.008354,-0.531685,0.007588,0.301109,-257.824282,-0.671393,66.847083
6.1763,0.004771,-0.021354,0.003448,-0.001595,0.000392,-0.0029,0.006594,-0.531532,0.003257,0.225992,-257.82482,-0.685806,66.846401
6.1961,0.004991,-0.021461,0.003327,-0.001585,0.000444,-0.001813,0.006561,-0.531456,0.00333,0.225992,-257.82482,-0.685806,66.846401
6.2161,0.004838,-0.021359,0.005789,-0.001571,0.000479,-0.001086,0.006687,-0.531458,0.003326,0.300988,-257.824826,-0.760802,66.846393
6.2363,0.004892,-0.02123,0.00242,-0.001571,0.000465,-0.001384,0.007694,-0.53136,0.005574,0.300988,-257.824826,-0.760802,66.846393
6.2563,0.004525,-0.021336,0.003999,-0.001572,0.000456,-0.001599,0.007694,-0.53136,0.005574,0.300988,-257.824826,-0.760802,66.846393
6.2763,0.004635,-0.021287,0.005043,-0.001575,0.000451,-0.001752,0.006537,-0.531324,0.003975,0.225989,-257.825103,-0.685803,66.846052
6.2965,0.004605,-0.021441,0.007223,-0.001562,0.000471,-0.001492,0.006814,-0.531305,0.004419,0.225989,-257.825103,-0.685803,66.846052
6.3157,0.004565,-0.021617,0.004609,-0.001548,0.000485,-0.001318,0.008257,-0.531418,0.00719,0.301298,-257.825527,-0.761112,66.845504
6.3361,0.004924,-0.021048,0.006233,-0.001536,0.000488,-0.001346,0.007036,-0.531594,0.004843,0.301298,-257.825527,-0.761112,66.845504
6.3562,0.004647,-0.021485,0.005722,-0.001525,0.000491,-0.001368,0.007036,-0.531594,0.004843,0.301298,-257.825527,-0.761112,66.845504
6.3759,0.004681,-0.021486,0.003263,-0.001516,0.000493,-0.001387,0.007514,-0.531461,0.005677,0.226734,-257.826032,-0.694618,66.84486
6.3963,0.004344,-0.021577,0.003866,-0.001513,0.000496,-0.001353,0.007035,-0.531469,0.004694,0.226734,-257.826032,-0.694618,66.84486
6.4158,0.004468,-0.021239,0.005252,-0.00151,0.000499,-0.001331,0.006267,-0.531558,0.003822,0.229252,-257.826648,-0.723738,66.84406
6.436,0.004365,-0.021576,0.005893,-0.001504,0.000493,-0.001448,0.007069,-0.531259,0.005127,0.229252,-257.826648,-0.723738,66.84406
6.4558,0.004804,-0.021556,0.00505,-0.0015,0.000489,-0.001527,0.007069,-0.531259,0.005127,0.229252,-257.826648,-0.723738,66.84406
6.476,0.004274,-0.020915,0.004351,-0.001498,0.000487,-0.00158,0.007317,-0.53153,0.004995,0.205441,-257.827257,-0.715339,66.84327
6.4956,0.00446,-0.021188,0.004225,-0.001498,0.000493,-0.001489,0.006975,-0.531276,0.004727,0.205441,-257.827257,-0.715339,66.84327
6.5161,0.00461,-0.021329,0.004091,-0.001498,0.000496,-0.001425,0.006576,-0.53117,0.004185,0.280309,-257.827765,-0.770125,66.842597
6.5362,0.004642,-0.021305,0.004141,-0.001493,0.00051,-0.001161,0.006685,-0.531312,0.004096,0.280309,-257.827765,-0.770125,66.842597
6.5566,0.004012,-0.021056,0.003581,-0.001487,0.000519,-0.000981,0.006685,-0.531312,0.004096,0.280309,-257.827765,-0.770125,66.842597
6.5765,0.004451,-0.021292,0.005086,-0.001481,0.000525,-0.00086,0.005777,-0.531033,0.003523,0.245043,-257.828359,-0.739603,66.841815
6.5964,0.003959,-0.021323,0.005457,-0.001458,0.000532,-0.000798,0.006282,-0.531133,0.004147,0.245043,-257.828359,-0.739603,66.841815
6.6159,0.0043,-0.021266,0.002825,-0.001438,0.000537,-0.000757,0.006728,-0.531311,0.005447,0.170256,-257.828537,-0.664815,66.841598
6.6362,0.004103,-0.021465,0.004309,-0.001415,0.000556,-0.000289,0.005817,-0.531267,0.003029,0.170256,-257.828537,-0.664815,66.841598
6.6562,0.004455,-0.021432,0.00484,-0.001392,0.000569,2.5e-05,0.005817,-0.531267,0.003029,0.170256,-257.828537,-0.664815,66.841598
6.6757,0.004366,-0.021055,0.004903,-0.00137,0.000577,0.000233,0.006898,-0.531418,0.004824,0.095002,-257.828782,-0.607398,66.8413
6.696,0.004656,-0.021307,0.005079,-0.001372,0.000548,-0.000274,0.006882,-0.531265,0.004854,0.095002,-257.828782,-0.607398,66.8413
6.7161,0.004162,-0.021365,0.005983,-0.001377,0.000531,-0.000631,0.007246,-0.5313,0.005079,0.020286,-257.828783,-0.532683,66.841299
6.7365,0.00459,-0.021054,0.00305,-0.001384,0.000503,-0.001162,0.007216,-0.531351,0.005902,0.020286,-257.828783,-0.532683,66.841299
6.7562,0.004464,-0.0217,0.005045,-0.001394,0.000486,-0.001538,0.007216,-0.531351,0.005902,0.020286,-257.828783,-0.532683,66.841299
6.7758,0.004737,-0.021337,0.005216,-0.001405,0.000475,-0.001802,0.006994,-0.531678,0.005024,-0.054627,-257.829193,-0.586972,66.840809
6.7958,0.004544,-0.021249,0.003411,-0.00142,0.000481,-0.001758,0.007154,-0.531534,0.0051,-0.054627,-257.829193,-0.586972,66.840809
6.8161,0.004051,-0.021256,0.005105,-0.001433,0.000485,-0.001726,0.006283,-0.531246,0.00341,0.020359,-257.829198,-0.661959,66.840802
6.8362,0.004149,-0.021574,0.005084,-0.001428,0.000495,-0.001659,0.006623,-0.531249,0.004961,0.020359,-257.829198,-0.661959,66.840802
6.8561,0.004059,-0.021501,0.004656,-0.001423,0.000502,-0.001613,0.006623,-0.531249,0.004961,0.020359,-257.829198,-0.661959,66.840802
6.8762,0.004389,-0.021329,0.003892,-0.001419,0.000508,-0.00158,0.006428,-0.531493,0.004652,0.095508,-257.829249,-0.737107,66.840733
6.896,0.004012,-0.021576,0.004215,-0.001413,0.000523,-0.001349,0.006405,-0.531424,0.004341,0.095508,-257.829249,-0.737107,66.840733
6.916,0.004363,-0.020985,0.003863,-0.001406,0.000533,-0.001192,0.006141,-0.531563,0.004195,0.170357,-257.829511,-0.803868,66.840374
6.936,0.004453,-0.020985,0.00335,-0.001405,0.000545,-0.000921,0.006315,-0.531031,0.00389,0.170357,-257.829511,-0.803868,66.840374
6.9563,0.00445,-0.021201,0.004401,-0.001403,0.000553,-0.000739,0.006315,-0.531031,0.00389,0.170357,-257.829511,-0.803868,66.840374
6.9759,0.004282,-0.020932,0.004122,-0.0014,0.000557,-0.000618,0.006641,-0.531176,0.004356,0.137351,-257.830025,-0.731273,66.839689
6.9963,0.004132,-0.021357,0.00473,-0.0014,0.000552,-0.000668,0.006527,-0.531069,0.004252,0.137351,-257.830025,-0.731273,66.839689
7.0158,0.004629,-0.02119,0.004414,-0.0014,0.000549,-0.000705,0.006534,-0.531348,0.004724,0.06208,-257.830155,-0.656002,66.839534
7.0362,0.004225,-0.021092,0.005388,-0.00141,0.000541,-0.000796,0.00685,-0.531198,0.00444,0.06208,-257.830155,-0.656002,66.839534
7.0558,0.004467,-0.020923,0.00449,-0.001418,0.000534,-0.000861,0.00685,-0.531198,0.00444,0.06208,-257.830155,-0.656002,66.839534
7.076,0.004503,-0.021387,0.003417,-0.001426,0.00053,-0.000906,0.006716,-0.530904,0.004467,-0.012659,-257.830541,-0.610335,66.839065
7.0962,0.004187,-0.021068,0.0034,-0.001426,0.000535,-0.000795,0.006518,-0.5311,0.004032,-0.012659,-257.830541,-0.610335,66.839065
7.1159,0.004308,-0.020842,0.003688,-0.001424,0.000539,-0.00072,0.005877,-0.531049,0.003372,0.016425,-257.831088,-0.649708,66.838377
7.1363,0.004201,-0.021564,0.003215,-0.001416,0.000548,-0.000529,0.006159,-0.530857,0.003658,0.016425,-257.831088,-0.649708,66.838377
7.1562,0.004181,-0.02108,0.004491,-0.001407,0.000554,-0.000401,0.006159,-0.530857,0.003658,0.016425,-257.831088,-0.649708,66.838377
7.1757,0.004301,-0.021202,0.003485,-0.001399,0.000558,-0.000316,0.00642,-0.531056,0.004465,-0.0584,-257.831578,-0.601845,66.837785
7.1962,0.004297,-0.020847,0.003342,-0.001388,0.000554,-0.000409,0.006276,-0.531111,0.004065,-0.0584,-257.831578,-0.601845,66.837785
7.2165,0.004275,-0.020988,0.004449,-0.00138,0.000552,-0.000474,0.005981,-0.530837,0.003335,-0.13339,-257.831834,-0.526855,66.837504
7.2365,0.004012,-0.020817,0.004248,-0.00138,0.000545,-0.000618,0.006492,-0.530969,0.004349,-0.13339,-257.831834,-0.526855,66.837504
7.2565,0.003933,-0.0213,0.002543,-0.001382,0.00054,-0.000718,0.006492,-0.530969,0.004349,-0.13339,-257.831834,-0.526855,66.837504
7.2762,0.004398,-0.021592,0.003079,-0.001384,0.000537,-0.000787,0.005175,-0.531277,0.002524,-0.18789,-257.832367,-0.547825,66.836891
7.2962,0.003971,-0.021244,0.005049,-0.00136,0.000562,-0.000201,0.005495,-0.531403,0.00275,-0.18789,-257.832367,-0.547825,66.836891
7.3161,0.003997,-0.021088,0.003572,-0.001337,0.000578,0.000195,0.006518,-0.531226,0.005036,-0.11276,-257.832714,-0.622955,66.83646
7.3358,0.003731,-0.020786,0.003661,-0.00132,0.000575,7.5e-05,0.005877,-0.531096,0.003697,-0.11276,-257.832714,-0.622955,66.83646
7.3559,0.003993,-0.021078,0.001257,-0.001308,0.000574,-1.1e-05,0.005877,-0.531096,0.003697,-0.11276,-257.832714,-0.622955,66.83646
7.3759,0.003992,-0.020986,0.004025,-0.001297,0.000573,-7.3e-05,0.004632,-0.531077,0.001256,-0.187752,-257.832731,-0.547964,66.836444
7.3962,0.003791,-0.021233,0.004475,-0.001279,0.00059,0.00043,0.005212,-0.531038,0.002394,-0.187752,-257.832731,-0.547964,66.836444
7.4161,0.003976,-0.021059,0.003244,-0.00126,0.000601,0.000768,0.006055,-0.531221,0.004471,-0.262727,-257.83298,-0.472988,66.836189
7.4363,0.003967,-0.021165,0.002852,-0.001247,0.000595,0.00059,0.005666,-0.53107,0.00335,-0.262727,-257.83298,-0.472988,66.836189
7.4562,0.003793,-0.020863,0.004582,-0.001237,0.000591,0.000464,0.005666,-0.53107,0.00335,-0.262727,-257.83298,-0.472988,66.836189
7.4761,0.004038,-0.020925,0.003605,-0.00123,0.00059,0.000374,0.00613,-0.530858,0.004582,-0.337733,-257.832983,-0.397983,66.836187
7.4957,0.004286,-0.021105,0.004454,-0.001231,0.000574,1.2e-05,0.006026,-0.530884,0.004181,-0.337733,-257.832983,-0.397983,66.836187
7.5158,0.003865,-0.020943,0.003527,-0.001235,0.000565,-0.00024,0.006545,-0.531095,0.004455,-0.412768,-257.833159,-0.322947,66.836034
7.5361,0.004273,-0.020809,0.004963,-0.001235,0.000571,-0.000209,0.005743,-0.530954,0.003611,-0.412768,-257.833159,-0.322947,66.836034
7.5561,0.004003,-0.021409,0.003019,-0.001234,0.000575,-0.000187,0.005743,-0.530954,0.003611,-0.412768,-257.833159,-0.322947,66.836034
7.5761,0.00415,-0.021128,0.003958,-0.001234,0.000579,-0.000172,0.005518,-0.531397,0.003017,-0.337896,-257.833402,-0.397819,66.835768
7.5959,0.003868,-0.021199,0.002746,-0.001234,0.000584,-7.9e-05,0.005778,-0.531286,0.003398,-0.337896,-257.833402,-0.397819,66.835768
7.6162,0.004121,-0.021304,0.00448,-0.001233,0.000588,-1.5e-05,0.005236,-0.531182,0.002742,-0.366499,-257.833835,-0.472817,66.835306
7.6359,0.003857,-0.021167,0.004713,-0.001241,0.000574,-0.0003,0.006288,-0.531286,0.004307,-0.366499,-257.833835,-0.472817,66.835306
7.6562,0.003686,-0.021125,0.003695,-0.00125,0.000565,-0.000497,0.006288,-0.531286,0.004307,-0.366499,-257.833835,-0.472817,66.835306
7.6764,0.003461,-0.020948,0.002027,-0.001259,0.00056,-0.000631,0.005523,-0.531099,0.003695,-0.438873,-257.834333,-0.451129,66.834805
7.6961,0.003713,-0.021193,0.004192,-0.001238,0.000582,-0.000224,0.005096,-0.531034,0.003011,-0.438873,-257.834333,-0.451129,66.834805
7.7161,0.004079,-0.021067,0.004507,-0.001217,0.000596,5.2e-05,0.005846,-0.531186,0.004191,-0.363727,-257.834397,-0.526275,66.834726
7.7361,0.00373,-0.021044,0.00498,-0.001229,0.000577,-0.000301,0.006329,-0.531073,0.004478,-0.363727,-257.834397,-0.526275,66.834726
7.7563,0.003456,-0.021145,0.004734,-0.001242,0.000565,-0.000547,0.006329,-0.531073,0.004478,-0.363727,-257.834397,-0.526275,66.834726
7.7757,0.003996,-0.021196,0.003802,-0.001255,0.000558,-0.000718,0.005833,-0.531122,0.004734,-0.438585,-257.834787,-0.451417,66.834344
7.7961,0.003777,-0.021242,0.004,-0.00125,0.00056,-0.000793,0.005871,-0.531149,0.004354,-0.438585,-257.834787,-0.451417,66.834344
7.8156,0.003612,-0.020801,0.001898,-0.001245,0.000563,-0.000845,0.005814,-0.531237,0.004,-0.363586,-257.834821,-0.526416,66.834301
7.8358,0.00364,-0.021047,0.003581,-0.001223,0.000595,6.5e-05,0.00469,-0.530839,0.002086,-0.363586,-257.834821,-0.526416,66.834301
7.8558,0.003917,-0.020998,0.002543,-0.001199,0.000615,0.000679,0.00469,-0.530839,0.002086,-0.363586,-257.834821,-0.526416,66.834301
7.8758,0.003805,-0.020909,0.003586,-0.001175,0.000627,0.001091,0.005208,-0.530994,0.002541,-0.288579,-257.834871,-0.601423,66.834234
7.8959,0.00406,-0.020731,0.004597,-0.001167,0.000622,0.000975,0.005381,-0.530957,0.002966,-0.288579,-257.834871,-0.601423,66.834234
7.9158,0.00376,-0.020963,0.005785,-0.001161,0.000618,0.000888,0.006404,-0.530726,0.004597,-0.36358,-257.834871,-0.526422,66.834234
7.9362,0.003786,-0.021035,0.003749,-0.001179,0.000569,-2.8e-05,0.006684,-0.530935,0.005683,-0.36358,-257.834871,-0.526422,66.834234
7.9561,0.00364,-0.020854,0.003074,-0.0012,0.000538,-0.000683,0.006684,-0.530935,0.005683,-0.36358,-257.834871,-0.526422,66.834234
7.9758,0.003745,-0.020717,0.002966,-0.001222,0.000519,-0.001148,0.005207,-0.530851,0.003074,-0.438699,-257.834872,-0.451303,66.834234
7.9959,0.003472,-0.021015,0.003304,-0.001218,0.00055,-0.000558,0.005228,-0.530796,0.00303,-0.438699,-257.834872,-0.451303,66.834234
8.0158,0.004022,-0.020739,0.002952,-0.001211,0.000573,-0.00016,0.005157,-0.531012,0.003304,-0.36382,-257.834872,-0.526182,66.834233
8.0362,0.003742,-0.020838,0.004369,-0.001215,0.000586,0.000126,0.005494,-0.530762,0.002984,-0.36382,-257.834872,-0.526182,66.834233
8.0562,0.003738,-0.021108,0.003519,-0.001215,0.000594,0.000316,0.005494,-0.530762,0.002984,-0.36382,-257.834872,-0.526182,66.834233
8.0761,0.003742,-0.021017,0.00362,-0.001214,0.000598,0.000439,0.005483,-0.531082,0.003513,-0.373846,-257.835388,-0.505274,66.833685
8.0962,0.00388,-0.021152,0.004437,-0.001202,0.000596,0.000291,0.00552,-0.531051,0.003556,-0.373846,-257.835388,-0.505274,66.833685
8.1161,0.004178,-0.020883,0.003265,-0.001193,0.000595,0.000185,0.006137,-0.531144,0.004437,-0.448758,-257.835476,-0.430361,66.83361
8.1363,0.00381,-0.020751,0.003966,-0.001206,0.000593,0.00018,0.005869,-0.530904,0.003372,-0.448758,-257.835476,-0.430361,66.83361
8.1559,0.003754,-0.020762,0.004254,-0.001216,0.000592,0.000175,0.005869,-0.530904,0.003372,-0.448758,-257.835476,-0.430361,66.83361
8.1758,0.003451,-0.020951,0.004284,-0.001224,0.00059,0.000169,0.005881,-0.530736,0.004261,-0.523744,-257.835952,-0.383927,66.833168
8.1961,0.003898,-0.021137,0.003068,-0.001217,0.000578,-0.000159,0.005775,-0.53082,0.004271,-0.523744,-257.835952,-0.383927,66.833168
8.2157,0.003374,-0.02075,0.00294,-0.001213,0.000572,-0.000387,0.005424,-0.531116,0.003073,-0.515505,-257.836514,-0.37863,66.832643
8.2358,0.004057,-0.021039,0.003612,-0.001193,0.000591,-3.8e-05,0.004921,-0.53078,0.002952,-0.515505,-257.836514,-0.37863,66.832643
8.2558,0.003614,-0.021266,0.003507,-0.001173,0.000604,0.000199,0.004921,-0.53078,0.002952,-0.515505,-257.836514,-0.37863,66.832643
8.2762,0.003596,-0.021115,0.003387,-0.001154,0.000613,0.000359,0.005393,-0.531258,0.003507,-0.440624,-257.836607,-0.453511,66.832534
8.296,0.003502,-0.02061,0.00433,-0.001146,0.000611,0.000262,0.005363,-0.531198,0.003457,-0.440624,-257.836607,-0.453511,66.832534
8.3161,0.003602,-0.020761,0.005033,-0.001139,0.000611,0.000193,0.005693,-0.530597,0.004333,-0.515741,-257.836864,-0.378394,66.832314
8.3361,0.003465,-0.020851,0.004917,-0.001152,0.000583,-0.000354,0.006125,-0.53074,0.00497,-0.515741,-257.836864,-0.378394,66.832314
8.3563,0.003326,-0.020646,0.003906,-0.001166,0.000566,-0.000737,0.006125,-0.53074,0.00497,-0.515741,-257.836864,-0.378394,66.832314
8.3764,0.003481,-0.020878,0.004129,-0.001182,0.000556,-0.001004,0.005274,-0.530618,0.003914,-0.569172,-257.837373,-0.408365,66.831847
8.3963,0.003177,-0.020771,0.004035,-0.001179,0.000571,-0.000866,0.005396,-0.530719,0.004002,-0.569172,-257.837373,-0.408365,66.831847
8.416,0.003674,-0.020876,0.00381,-0.001175,0.000581,-0.000771,0.005235,-0.530767,0.004035,-0.494173,-257.837374,-0.483364,66.831846
8.436,0.00336,-0.020699,0.003297,-0.00118,0.00059,-0.00064,0.005584,-0.530863,0.003829,-0.494173,-257.837374,-0.483364,66.831846
8.4564,0.003613,-0.020996,0.00144,-0.001184,0.000596,-0.000551,0.005584,-0.530863,0.003829,-0.494173,-257.837374,-0.483364,66.831846
8.4761,0.003625,-0.020881,0.004562,-0.001186,0.0006,-0.00049,0.004345,-0.530995,0.001439,-0.419054,-257.837386,-0.558482,66.83183
8.4961,0.003649,-0.020761,0.0041,-0.001176,0.000617,1.2e-05,0.004998,-0.530946,0.002709,-0.419054,-257.837386,-0.558482,66.83183
8.5161,0.003847,-0.021086,0.004288,-0.001165,0.000627,0.000351,0.005719,-0.530745,0.004093,-0.344171,-257.837655,-0.633366,66.831503
8.5362,0.003457,-0.020858,0.004626,-0.001173,0.000607,-2.1e-05,0.006005,-0.53105,0.00427,-0.344171,-257.837655,-0.633366,66.831503
8.5559,0.003566,-0.020752,0.003588,-0.001183,0.000593,-0.000281,0.006005,-0.53105,0.00427,-0.344171,-257.837655,-0.633366,66.831503
8.5757,0.003528,-0.020977,0.002936,-0.001193,0.000585,-0.000462,0.005392,-0.530747,0.003588,-0.419155,-257.837695,-0.558381,66.831469
8.5961,0.003518,-0.020786,0.002153,-0.001185,0.000598,-0.000231,0.005238,-0.530842,0.003315,-0.419155,-257.837695,-0.558381,66.831469
8.6161,0.003557,-0.021009,0.003376,-0.001176,0.000606,-7.5e-05,0.004595,-0.530773,0.002146,-0.343846,-257.837979,-0.628647,66.831128
8.636,0.003165,-0.020856,0.003703,-0.001166,0.000613,4.9e-05,0.005218,-0.530985,0.003268,-0.343846,-257.837979,-0.628647,66.831128
8.6561,0.003677,-0.021022,0.002541,-0.001156,0.000617,0.000131,0.005218,-0.530985,0.003268,-0.343846,-257.837979,-0.628647,66.831128
8.6758,0.003551,-0.020386,0.003425,-0.001148,0.00062,0.000185,0.004941,-0.531003,0.002537,-0.418617,-257.838327,-0.553876,66.830769
8.696,0.003344,-0.020696,0.004185,-0.001141,0.000625,0.000372,0.005083,-0.530748,0.002899,-0.418617,-257.838327,-0.553876,66.830769
8.7162,0.003725,-0.020738,0.003942,-0.001135,0.000628,0.000498,0.005459,-0.530682,0.004185,-0.49359,-257.838607,-0.478903,66.830511
8.736,0.003413,-0.020536,0.001315,-0.001141,0.000611,0.000172,0.005707,-0.530728,0.003967,-0.49359,-257.838607,-0.478903,66.830511
8.756,0.003237,-0.020342,0.00439,-0.00115,0.0006,-5.6e-05,0.005707,-0.530728,0.003967,-0.49359,-257.838607,-0.478903,66.830511
8.7757,0.003254,-0.020883,0.004372,-0.001158,0.000594,-0.000213,0.005461,-0.53033,0.004393,-0.568559,-257.838774,-0.403934,66.830376
8.7962,0.003341,-0.020646,0.002253,-0.001153,0.000587,-0.000463,0.005469,-0.530553,0.004385,-0.568559,-257.838774,-0.403934,66.830376
8.8161,0.003011,-0.02067,0.004441,-0.00115,0.000584,-0.000635,0.004475,-0.530637,0.002253,-0.49353,-257.838967,-0.478963,66.830165
8.8358,0.003062,-0.020682,0.005119,-0.001139,0.000588,-0.000705,0.005203,-0.530662,0.004243,-0.49353,-257.838967,-0.478963,66.830165
8.8562,0.003092,-0.021076,0.004319,-0.00113,0.000592,-0.000752,0.005203,-0.530662,0.004243,-0.49353,-257.838967,-0.478963,66.830165
8.8758,0.003014,-0.02093,0.00353,-0.001123,0.000596,-0.000782,0.005291,-0.531069,0.004318,-0.418564,-257.839005,-0.553929,66.830117
8.8958,0.00335,-0.02057,0.004676,-0.001111,0.000605,-0.000715,0.005097,-0.531011,0.003999,-0.418564,-257.839005,-0.553929,66.830117
8.9157,0.003425,-0.020427,0.00487,-0.001102,0.000612,-0.000668,0.005731,-0.530563,0.004675,-0.343569,-257.83905,-0.628925,66.830055
8.936,0.003491,-0.020612,0.002971,-0.001123,0.000597,-0.000918,0.005894,-0.530433,0.004853,-0.343569,-257.83905,-0.628925,66.830055
8.956,0.002892,-0.021032,0.003901,-0.001142,0.000587,-0.00109,0.005894,-0.530433,0.004853,-0.343569,-257.83905,-0.628925,66.830055
8.9758,0.003589,-0.020407,0.003605,-0.00116,0.000581,-0.001208,0.004857,-0.531014,0.003889,-0.268447,-257.839286,-0.704046,66.829738
8.9961,0.003201,-0.020732,0.003215,-0.001151,0.000598,-0.000909,0.005087,-0.530763,0.003771,-0.268447,-257.839286,-0.704046,66.829738
9.0159,0.003646,-0.020742,0.002214,-0.001142,0.000611,-0.000705,0.004839,-0.530729,0.003214,-0.193565,-257.839309,-0.778928,66.829703
9.0361,0.003291,-0.020917,0.005383,-0.001138,0.000632,6.5e-05,0.00478,-0.53074,0.002299,-0.193565,-257.839309,-0.778928,66.829703
9.0559,0.003447,-0.020477,0.005016,-0.001131,0.000644,0.000583,0.00478,-0.53074,0.002299,-0.193565,-257.839309,-0.778928,66.829703
9.076,0.003151,-0.020623,0.005829,-0.00112,0.00065,0.000929,0.005959,-0.530446,0.004988,-0.156317,-257.83975,-0.739618,66.829114
9.096,0.003151,-0.020729,0.004889,-0.001125,0.000606,9.7e-05,0.006021,-0.530512,0.005329,-0.156317,-257.83975,-0.739618,66.829114
9.1165,0.003348,-0.020436,0.004537,-0.001136,0.000579,-0.000498,0.005644,-0.530723,0.004889,-0.231333,-257.83975,-0.664601,66.829114
9.1362,0.003452,-0.020836,0.004702,-0.001143,0.000575,-0.000697,0.00566,-0.530456,0.004568,-0.231333,-257.83975,-0.664601,66.829114
9.1561,0.00349,-0.020926,0.003607,-0.001151,0.000573,-0.000837,0.00566,-0.530456,0.004568,-0.231333,-257.83975,-0.664601,66.829114
9.1764,0.003141,-0.020794,0.004622,-0.001159,0.000573,-0.000935,0.005282,-0.530899,0.003586,-0.237074,-257.840217,-0.66072,66.828539
9.1959,0.003404,-0.021202,0.004086,-0.001157,0.000586,-0.000809,0.005365,-0.530851,0.004009,-0.237074,-257.840217,-0.66072,66.828539
9.216,0.003269,-0.021204,0.004214,-0.001153,0.000595,-0.000723,0.005476,-0.531191,0.004078,-0.162079,-257.840369,-0.735715,66.828325
9.2359,0.00316,-0.020759,0.002919,-0.001146,0.000599,-0.000734,0.005422,-0.531198,0.004202,-0.162079,-257.840369,-0.735715,66.828325
9.2558,0.003218,-0.020634,0.002163,-0.001141,0.000602,-0.000742,0.005422,-0.531198,0.004202,-0.162079,-257.840369,-0.735715,66.828325
9.2761,0.002926,-0.020392,0.003559,-0.001136,0.000605,-0.000749,0.004273,-0.530609,0.002133,-0.131973,-257.840828,-0.732,66.827714
9.2964,0.003126,-0.020992,0.002249,-0.001116,0.000628,-0.000153,0.004457,-0.530517,0.002707,-0.131973,-257.840828,-0.732,66.827714
9.3157,0.003043,-0.020734,0.004454,-0.001096,0.000642,0.000249,0.004236,-0.530971,0.002225,-0.129409,-257.841283,-0.751985,66.827096
9.3358,0.002892,-0.020446,0.001827,-0.001086,0.000628,-8.1e-05,0.005219,-0.530749,0.004259,-0.129409,-257.841283,-0.751985,66.827096
9.356,0.003416,-0.02058,0.004589,-0.00108,0.00062,-0.000313,0.005219,-0.530749,0.004259,-0.129409,-257.841283,-0.751985,66.827096
9.3763,0.003244,-0.020454,0.003823,-0.001077,0.000615,-0.000475,0.005756,-0.530574,0.004589,-0.204442,-257.841285,-0.676952,66.827094
9.3964,0.003103,-0.020563,0.003494,-0.001092,0.00061,-0.000593,0.005523,-0.530523,0.004272,-0.204442,-257.841285,-0.676952,66.827094
9.4162,0.003367,-0.020833,0.004088,-0.001105,0.000606,-0.000675,0.004855,-0.530543,0.00348,-0.279476,-257.841678,-0.699107,66.826602
9.4365,0.003109,-0.020549,0.004515,-0.001111,0.000609,-0.000649,0.005401,-0.530804,0.004036,-0.279476,-257.841678,-0.699107,66.826602
9.4562,0.003148,-0.020795,0.00137,-0.001116,0.000611,-0.000631,0.005401,-0.530804,0.004036,-0.279476,-257.841678,-0.699107,66.826602
9.4765,0.002978,-0.020707,0.003857,-0.00112,0.000612,-0.000619,0.00381,-0.530773,0.001348,-0.204464,-257.842041,-0.744597,66.826116
9.4962,0.002702,-0.020621,0.003235,-0.001095,0.000636,8.4e-05,0.004267,-0.530742,0.002365,-0.204464,-257.842041,-0.744597,66.826116
9.5164,0.003291,-0.020304,0.003326,-0.00107,0.000651,0.000558,0.004317,-0.530599,0.003216,-0.206211,-257.842496,-0.72442,66.825522
9.5363,0.003168,-0.020582,0.002261,-0.001066,0.000646,0.000469,0.004927,-0.530326,0.003315,-0.206211,-257.842496,-0.72442,66.825522
9.5562,0.002866,-0.020342,0.004557,-0.001063,0.000643,0.000403,0.004927,-0.530326,0.003315,-0.206211,-257.842496,-0.72442,66.825522
9.5762,0.002991,-0.020662,0.003242,-0.001061,0.00064,0.000354,0.00519,-0.530337,0.004557,-0.281228,-257.842496,-0.649403,66.825522
9.5963,0.002774,-0.020655,0.004117,-0.00105,0.000629,5.6e-05,0.004968,-0.530468,0.004023,-0.281228,-257.842496,-0.649403,66.825522
9.6161,0.002858,-0.020537,0.002994,-0.001044,0.000623,-0.000151,0.004872,-0.53065,0.004116,-0.356278,-257.842508,-0.574353,66.825511
9.6361,0.002842,-0.020562,0.004701,-0.001027,0.000636,6.2e-05,0.004429,-0.530545,0.003096,-0.356278,-257.842508,-0.574353,66.825511
9.6558,0.003149,-0.020633,0.003548,-0.001012,0.000644,0.000205,0.004429,-0.530545,0.003096,-0.356278,-257.842508,-0.574353,66.825511
9.6758,0.003045,-0.020343,0.003972,-0.000997,0.00065,0.000301,0.004923,-0.53061,0.003542,-0.431119,-257.842885,-0.600905,66.825105
9.6959,0.00301,-0.020789,0.003907,-0.001002,0.000641,0.000123,0.00498,-0.530496,0.003718,-0.431119,-257.842885,-0.600905,66.825105
9.7157,0.002845,-0.0205,0.004046,-0.001007,0.000637,-1e-06,0.004996,-0.530781,0.003907,-0.506214,-257.842992,-0.52581,66.825013
9.7361,0.003163,-0.021199,0.003424,-0.001005,0.00063,-0.000199,0.004916,-0.530522,0.004034,-0.506214,-257.842992,-0.52581,66.825013
9.7561,0.003306,-0.020617,0.002898,-0.001005,0.000627,-0.000336,0.004916,-0.530522,0.004034,-0.506214,-257.842992,-0.52581,66.825013
9.7759,0.003339,-0.020465,0.003495,-0.001006,0.000627,-0.000429,0.004745,-0.53059,0.002898,-0.563417,-257.843434,-0.564038,66.824572
9.7961,0.002677,-0.020018,0.004317,-0.001018,0.000637,-0.000146,0.004893,-0.530535,0.00314,-0.563417,-257.843434,-0.564038,66.824572
9.8159,0.003097,-0.020448,0.003159,-0.001026,0.000642,4.6e-05,0.004868,-0.530007,0.004314,-0.488421,-257.843569,-0.639034,66.824403
9.836,0.003089,-0.02033,0.003245,-0.001023,0.000646,0.000129,0.004721,-0.530409,0.003255,-0.488421,-257.843569,-0.639034,66.824403
9.8564,0.002994,-0.020079,0.002978,-0.00102,0.000648,0.000183,0.004721,-0.530409,0.003255,-0.488421,-257.843569,-0.639034,66.824403
9.8762,0.002786,-0.020537,0.004077,-0.001017,0.000649,0.000219,0.00448,-0.530056,0.002978,-0.563618,-257.843935,-0.563838,66.824046
9.896,0.003094,-0.020333,0.003816,-0.00101,0.000648,0.000177,0.004631,-0.530245,0.00342,-0.563618,-257.843935,-0.563838,66.824046
9.9159,0.002749,-0.020128,0.004404,-0.001004,0.000648,0.000147,0.005015,-0.530314,0.00382,-0.638424,-257.844322,-0.489032,66.823702
9.936,0.003427,-0.019904,0.002661,-0.001005,0.000633,-0.000205,0.004996,-0.530139,0.004352,-0.638424,-257.844322,-0.489032,66.823702
9.9563,0.003252,-0.020101,0.005519,-0.001008,0.000624,-0.000448,0.004996,-0.530139,0.004352,-0.638424,-257.844322,-0.489032,66.823702
9.976,0.002952,-0.020271,0.003632,-0.001013,0.000619,-0.000616,0.006025,-0.530066,0.005525,-0.633855,-257.844817,-0.507232,66.823245
9.9961,0.003198,-0.020642,0.003764,-0.001036,0.000607,-0.000858,0.005523,-0.530145,0.004754,-0.633855,-257.844817,-0.507232,66.823245
10.0158,0.003001,-0.020693,0.002835,-0.001058,0.000599,-0.001024,0.005117,-0.530638,0.003764,-0.558856,-257.844827,-0.582232,66.823232
10.0364,0.002754,-0.02074,0.004248,-0.001051,0.000624,-0.000442,0.004507,-0.530686,0.002918,-0.558856,-257.844827,-0.582232,66.823232
10.056,0.003137,-0.020644,0.00467,-0.001041,0.00064,-4.6e-05,0.004507,-0.530686,0.002918,-0.558856,-257.844827,-0.582232,66.823232
10.0759,0.002797,-0.020426,0.004164,-0.001029,0.00065,0.00022,0.005519,-0.530639,0.00467,-0.483896,-257.844827,-0.657192,66.823231
10.096,0.002992,-0.020427,0.004836,-0.001032,0.000631,-0.000174,0.005273,-0.53055,0.004462,-0.483896,-257.844827,-0.657192,66.823231
10.1156,0.00269,-0.020424,0.003834,-0.001037,0.00062,-0.00045,0.005447,-0.530414,0.004837,-0.559001,-257.845009,-0.582087,66.82307
10.1357,0.002862,-0.020403,0.003669,-0.001027,0.000626,-0.000455,0.004713,-0.53042,0.003919,-0.559001,-257.845009,-0.582087,66.82307
10.1556,0.003148,-0.020494,0.003759,-0.001019,0.00063,-0.000459,0.004713,-0.53042,0.003919,-0.559001,-257.845009,-0.582087,66.82307
10.1759,0.002635,-0.020204,0.00369,-0.001013,0.000634,-0.000463,0.005052,-0.530481,0.003756,-0.483971,-257.845143,-0.657117,66.822901
10.1957,0.002442,-0.020617,0.004462,-0.001015,0.000639,-0.000395,0.004828,-0.530364,0.003728,-0.483971,-257.845143,-0.657117,66.822901
10.2158,0.002904,-0.020545,0.004152,-0.001017,0.000642,-0.000349,0.004698,-0.530599,0.004454,-0.408944,-257.845414,-0.732144,66.822556
10.236,0.002912,-0.020391,0.003466,-0.001018,0.000637,-0.000479,0.004991,-0.530546,0.004179,-0.408944,-257.845414,-0.732144,66.822556
10.2559,0.002937,-0.020399,0.002151,-0.001019,0.000634,-0.00057,0.004991,-0.530546,0.004179,-0.408944,-257.845414,-0.732144,66.822556
10.2757,0.002725,-0.020379,0.003814,-0.001021,0.000633,-0.000632,0.003992,-0.530372,0.002136,-0.399265,-257.845848,-0.698978,66.822035
10.2958,0.002549,-0.02006,0.00453,-0.00101,0.00065,-0.000142,0.004271,-0.53037,0.002838,-0.399265,-257.845848,-0.698978,66.822035
10.3163,0.003114,-0.020133,0.004534,-0.000998,0.000661,0.000189,0.004841,-0.530042,0.004519,-0.324262,-257.846092,-0.773981,66.821699
10.336,0.002799,-0.02005,0.003041,-0.001014,0.000638,-0.000218,0.005375,-0.530119,0.004532,-0.324262,-257.846092,-0.773981,66.821699
10.3562,0.002833,-0.020371,0.002123,-0.001032,0.000623,-0.000503,0.005375,-0.530119,0.004532,-0.324262,-257.846092,-0.773981,66.821699
10.3758,0.002754,-0.019693,0.003185,-0.001048,0.000614,-0.000701,0.003914,-0.530368,0.002123,-0.39911,-257.846116,-0.699133,66.821678
10.3962,0.002684,-0.02026,0.003002,-0.001032,0.000638,-6.1e-05,0.004104,-0.53009,0.002558,-0.39911,-257.846116,-0.699133,66.821678
10.416,0.00253,-0.01986,0.002722,-0.001014,0.000653,0.000371,0.004201,-0.530249,0.002995,-0.32412,-257.846286,-0.774123,66.821442
10.4359,0.002753,-0.020288,0.002561,-0.000987,0.000662,0.000575,0.003946,-0.529897,0.002749,-0.32412,-257.846286,-0.774123,66.821442
10.456,0.002995,-0.020349,0.004526,-0.000963,0.000668,0.000709,0.003946,-0.529897,0.002749,-0.32412,-257.846286,-0.774123,66.821442
10.4761,0.00282,-0.020497,0.004787,-0.000941,0.000671,0.000796,0.005302,-0.530344,0.004526,-0.398996,-257.84629,-0.699247,66.821438
10.4963,0.002675,-0.020438,0.004485,-0.000953,0.000641,0.000174,0.005286,-0.530404,0.004633,-0.398996,-257.84629,-0.699247,66.821438
10.5159,0.002623,-0.020536,0.003386,-0.000968,0.000622,-0.000264,0.004962,-0.530433,0.004485,-0.474097,-257.84629,-0.624146,66.821438
10.5357,0.002952,-0.02027,0.00311,-0.000958,0.000634,-0.000167,0.004402,-0.530524,0.003479,-0.474097,-257.84629,-0.624146,66.821438
10.5562,0.002543,-0.020225,0.003808,-0.000949,0.000642,-0.000102,0.004402,-0.530524,0.003479,-0.474097,-257.84629,-0.624146,66.821438
10.576,0.002549,-0.020373,0.005039,-0.000941,0.000649,-5.8e-05,0.004446,-0.530197,0.003797,-0.444409,-257.846692,-0.680684,66.820972
10.5963,0.002628,-0.020227,0.005813,-0.00094,0.00064,-0.000325,0.004717,-0.530264,0.004304,-0.444409,-257.846692,-0.680684,66.820972
10.6156,0.002643,-0.020234,0.004362,-0.000942,0.000636,-0.00051,0.005571,-0.530204,0.00581,-0.519356,-257.847015,-0.628922,66.820637
10.6357,0.002355,-0.020126,0.004608,-0.000952,0.00063,-0.0007,0.00493,-0.530226,0.004494,-0.519356,-257.847015,-0.628922,66.820637
10.6558,0.002438,-0.020223,0.003783,-0.000963,0.000627,-0.00083,0.00493,-0.530226,0.004494,-0.519356,-257.847015,-0.628922,66.820637
10.676,0.002432,-0.020113,0.004616,-0.000972,0.000626,-0.000918,0.004352,-0.53021,0.003777,-0.444441,-257.847165,-0.703837,66.820435
10.6961,0.002075,-0.020026,0.005581,-0.000968,0.000634,-0.000849,0.004527,-0.530167,0.004118,-0.444441,-257.847165,-0.703837,66.820435
10.7157,0.002639,-0.020567,0.004642,-0.000964,0.00064,-0.0008,0.004919,-0.530017,0.00558,-0.369444,-257.847187,-0.778834,66.8204
10.7361,0.002605,-0.020222,0.00435,-0.00097,0.000634,-0.000968,0.004999,-0.530514,0.004724,-0.369444,-257.847187,-0.778834,66.8204
10.7562,0.002911,-0.020778,0.003813,-0.000976,0.00063,-0.001083,0.004999,-0.530514,0.004724,-0.369444,-257.847187,-0.778834,66.8204
10.776,0.002419,-0.020108,0.003383,-0.000983,0.000629,-0.001161,0.004838,-0.530761,0.003801,-0.294358,-257.847354,-0.85392,66.820147
10.7962,0.002735,-0.020321,0.005362,-0.000983,0.000644,-0.000819,0.00455,-0.530489,0.003627,-0.294358,-257.847354,-0.85392,66.820147
10.816,0.002525,-0.020241,0.003472,-0.00098,0.000655,-0.000587,0.005467,-0.530312,0.00536,-0.219313,-257.847389,-0.928965,66.820088
10.8362,0.002419,-0.020244,0.003384,-0.000972,0.000662,-0.000437,0.004402,-0.530245,0.003644,-0.219313,-257.847389,-0.928965,66.820088
10.8561,0.002482,-0.019987,0.003749,-0.000964,0.000667,-0.000336,0.004402,-0.530245,0.003644,-0.219313,-257.847389,-0.928965,66.820088
10.8762,0.00226,-0.019912,0.004449,-0.000957,0.00067,-0.000269,0.004365,-0.529963,0.003731,-0.293667,-257.847678,-0.854095,66.81969
10.8963,0.002199,-0.020341,0.003494,-0.00095,0.000666,-0.000365,0.004429,-0.529938,0.004023,-0.293667,-257.847678,-0.854095,66.81969
10.9167,0.002332,-0.02014,0.003889,-0.000944,0.000663,-0.000432,0.003968,-0.53033,0.003489,-0.368719,-257.847855,-0.779043,66.819483
10.9362,0.002679,-0.020092,0.004253,-0.000933,0.000666,-0.000418,0.004284,-0.530153,0.003854,-0.368719,-257.847855,-0.779043,66.819483
10.9567,0.002425,-0.020113,0.005254,-0.000924,0.000668,-0.000409,0.004284,-0.530153,0.003854,-0.368719,-257.847855,-0.779043,66.819483
10.9763,0.002394,-0.020006,0.004387,-0.000916,0.000669,-0.000404,0.005066,-0.530079,0.005236,-0.400104,-257.848258,-0.776106,66.818962
10.996,0.00208,-0.020104,0.003076,-0.000924,0.000652,-0.000743,0.004885,-0.530044,0.004889,-0.400104,-257.848258,-0.776106,66.818962
11.0163,0.002571,-0.02021,0.003479,-0.000934,0.000641,-0.000979,0.003619,-0.530081,0.003063,-0.43222,-257.848655,-0.785404,66.818453
11.0363,0.00248,-0.020267,0.004006,-0.000933,0.000657,-0.000626,0.004278,-0.530195,0.003441,-0.43222,-257.848655,-0.785404,66.818453
11.0566,0.002176,-0.020327,0.004779,-0.00093,0.000667,-0.000386,0.004278,-0.530195,0.003441,-0.43222,-257.848655,-0.785404,66.818453
11.0759,0.002184,-0.020301,0.003691,-0.000926,0.000673,-0.000225,0.004611,-0.530319,0.004778,-0.357219,-257.848678,-0.860404,66.818414
11.096,0.002626,-0.019684,0.005619,-0.000914,0.000665,-0.00044,0.004389,-0.53031,0.004334,-0.357219,-257.848678,-0.860404,66.818414
11.1163,0.002533,-0.020297,0.003745,-0.000905,0.000661,-0.000591,0.005478,-0.529667,0.005614,-0.432279,-257.848876,-0.785344,66.818186
11.1361,0.002404,-0.020169,0.004223,-0.000911,0.000663,-0.000546,0.004533,-0.530238,0.003909,-0.432279,-257.848876,-0.785344,66.818186
11.1565,0.002439,-0.020189,0.004124,-0.000917,0.000665,-0.000516,0.004533,-0.530238,0.003909,-0.432279,-257.848876,-0.785344,66.818186
11.1762,0.002274,-0.019898,0.0032,-0.000921,0.000666,-0.000495,0.004514,-0.530163,0.004106,-0.357285,-257.84917,-0.846155,66.817765
11.1959,0.002571,-0.019798,0.00313,-0.000915,0.00067,-0.000417,0.004262,-0.530051,0.003733,-0.357285,-257.84917,-0.846155,66.817765
11.2159,0.002221,-0.020307,0.00212,-0.000911,0.000673,-0.000364,0.004138,-0.529775,0.003114,-0.375686,-257.849556,-0.810566,66.817245
11.2359,0.002606,-0.020109,0.004201,-0.000882,0.000693,0.000324,0.003377,-0.530256,0.002209,-0.375686,-257.849556,-0.810566,66.817245
11.2562,0.002563,-0.019966,0.004047,-0.000854,0.000704,0.000787,0.003377,-0.530256,0.002209,-0.375686,-257.849556,-0.810566,66.817245
11.2758,0.002211,-0.020109,0.003797,-0.000827,0.00071,0.001098,0.004593,-0.529938,0.004034,-0.450537,-257.849912,-0.777008,66.816797
11.2961,0.002248,-0.02001,0.0039,-0.00083,0.000687,0.000609,0.004409,-0.530003,0.003936,-0.450537,-257.849912,-0.777008,66.816797
11.3162,0.002599,-0.020113,0.002226,-0.000835,0.000673,0.000266,0.004237,-0.530006,0.0039,-0.525536,-257.849912,-0.702009,66.816797
11.3364,0.002495,-0.019966,0.003374,-0.000833,0.000684,0.000658,0.00378,-0.530102,0.002379,-0.525536,-257.849912,-0.702009,66.816797
11.3563,0.002402,-0.020012,0.003964,-0.000829,0.00069,0.000921,0.00378,-0.530102,0.002379,-0.525536,-257.849912,-0.702009,66.816797
11.3759,0.002222,-0.020007,0.002787,-0.000822,0.000694,0.001096,0.004416,-0.530002,0.003965,-0.600543,-257.850021,-0.627002,66.816707
11.3958,0.002255,-0.020278,0.003625,-0.000817,0.000681,0.000755,0.004101,-0.530003,0.003487,-0.600543,-257.850021,-0.627002,66.816707
11.4159,0.00218,-0.019963,0.003506,-0.000814,0.000674,0.000517,0.004104,-0.530275,0.003625,-0.675536,-257.850021,-0.552009,66.816707
11.4362,0.002362,-0.019848,0.003939,-0.000808,0.00067,0.000339,0.00398,-0.529987,0.003516,-0.675536,-257.850021,-0.552009,66.816707
11.4562,0.002077,-0.019897,0.001886,-0.000804,0.000669,0.000216,0.00398,-0.529987,0.003516,-0.675536,-257.850021,-0.552009,66.816707
11.4758,0.002331,-0.019985,0.003607,-0.000802,0.00067,0.000131,0.003025,-0.529886,0.001892,-0.750667,-257.85021,-0.476878,66.816575
11.496,0.002128,-0.019902,0.003914,-0.000791,0.000682,0.000457,0.003489,-0.529924,0.002589,-0.750667,-257.85021,-0.476878,66.816575
11.5161,0.002457,-0.020122,0.003222,-0.000779,0.000691,0.000679,0.004106,-0.529885,0.003918,-0.751596,-257.850506,-0.551758,66.816307
11.536,0.002623,-0.019864,0.003436,-0.000785,0.000685,0.000539,0.0041,-0.530098,0.003284,-0.751596,-257.850506,-0.551758,66.816307
11.556,0.00253,-0.019951,0.004376,-0.000791,0.000682,0.000441,0.0041,-0.530098,0.003284,-0.751596,-257.850506,-0.551758,66.816307
11.5761,0.002331,-0.01992,0.003899,-0.000797,0.00068,0.000373,0.004753,-0.529939,0.004381,-0.826809,-257.850639,-0.476546,66.816226
11.5961,0.002317,-0.020023,0.003905,-0.000815,0.000664,1e-06,0.004573,-0.529929,0.004183,-0.826809,-257.850639,-0.476546,66.816226
11.6159,0.002184,-0.019849,0.002395,-0.000832,0.000654,-0.000256,0.004284,-0.529998,0.003916,-0.850444,-257.851106,-0.51636,66.815871
11.6364,0.002084,-0.019957,0.00361,-0.00082,0.000673,0.000226,0.003482,-0.529859,0.00253,-0.850444,-257.851106,-0.51636,66.815871
11.6561,0.002433,-0.019607,0.003314,-0.000807,0.000685,0.000554,0.003482,-0.529859,0.00253,-0.850444,-257.851106,-0.51636,66.815871
11.6764,0.002112,-0.020137,0.004131,-0.000793,0.000692,0.000775,0.00412,-0.529602,0.003314,-0.775493,-257.851134,-0.591312,66.815838
11.6965,0.002301,-0.01973,0.003925,-0.000797,0.00068,0.000472,0.00416,-0.529818,0.003647,-0.775493,-257.851134,-0.591312,66.815838
11.716,0.002222,-0.019602,0.004215,-0.000803,0.000673,0.00026,0.004301,-0.529724,0.003927,-0.850508,-257.851189,-0.516296,66.815806
11.7365,0.002546,-0.01925,0.004055,-0.000814,0.00066,-7.6e-05,0.004365,-0.529608,0.004189,-0.850508,-257.851189,-0.516296,66.815806
11.7561,0.001934,-0.020157,0.003434,-0.000826,0.000652,-0.000308,0.004365,-0.529608,0.004189,-0.850508,-257.851189,-0.516296,66.815806
11.7761,0.002134,-0.020237,0.004748,-0.000838,0.000649,-0.000468,0.003654,-0.530129,0.003444,-0.802958,-257.851617,-0.56916,66.815454
11.7963,0.002389,-0.019935,0.005083,-0.00083,0.000655,-0.000504,0.004021,-0.530168,0.003981,-0.802958,-257.851617,-0.56916,66.815454
11.8159,0.002217,-0.019591,0.003912,-0.000824,0.00066,-0.000527,0.00498,-0.529928,0.005083,-0.727803,-257.851625,-0.644316,66.815442
11.8361,0.002397,-0.019845,0.004301,-0.000837,0.000661,-0.000554,0.004281,-0.529617,0.004017,-0.727803,-257.851625,-0.644316,66.815442
11.8561,0.002333,-0.01982,0.003743,-0.000847,0.000662,-0.000572,0.004281,-0.529617,0.004017,-0.727803,-257.851625,-0.644316,66.815442
11.8761,0.002332,-0.019769,0.004292,-0.000856,0.000663,-0.000582,0.004239,-0.529814,0.003742,-0.652956,-257.851649,-0.719163,66.815407
11.8962,0.001982,-0.019773,0.002173,-0.000866,0.000665,-0.00057,0.004354,-0.529794,0.003966,-0.652956,-257.851649,-0.719163,66.815407
11.9158,0.002339,-0.019586,0.003375,-0.000875,0.000666,-0.000561,0.003087,-0.529769,0.002172,-0.5779,-257.851702,-0.794219,66.815329
11.936,0.002116,-0.019641,0.004308,-0.000874,0.000677,-0.000283,0.003973,-0.529599,0.003267,-0.5779,-257.851702,-0.794219,66.815329
11.9562,0.00228,-0.019968,0.002919,-0.000872,0.000683,-9.4e-05,0.003973,-0.529599,0.003267,-0.5779,-257.851702,-0.794219,66.815329
11.9762,0.002101,-0.02013,0.005393,-0.000868,0.000687,3.4e-05,0.003755,-0.529954,0.002911,-0.502914,-257.851858,-0.856434,66.815106
11.9962,0.002338,-0.019755,0.00323,-0.000863,0.000679,-0.00013,0.004201,-0.530021,0.003924,-0.502914,-257.851858,-0.856434,66.815106
12.0162,0.002031,-0.019551,0.003717,-0.000859,0.000675,-0.000244,0.003976,-0.529746,0.003228,-0.577923,-257.851995,-0.781425,66.814972
12.0361,0.002087,-0.0197,0.002135,-0.000852,0.000678,-0.000229,0.003931,-0.529566,0.00367,-0.577923,-257.851995,-0.781425,66.814972
12.0561,0.002056,-0.019959,0.00317,-0.000846,0.00068,-0.00022,0.003931,-0.529566,0.00367,-0.577923,-257.851995,-0.781425,66.814972
12.0757,0.002271,-0.019957,0.004234,-0.000841,0.000682,-0.000214,0.003637,-0.529929,0.00316,-0.549536,-257.852391,-0.764452,66.814504
12.096,0.002094,-0.019722,0.005023,-0.000835,0.000684,-0.000182,0.003957,-0.529935,0.003598,-0.549536,-257.852391,-0.764452,66.814504
12.1156,0.002056,-0.019568,0.003722,-0.000829,0.000686,-0.000161,0.00463,-0.529694,0.005016,-0.580423,-257.852787,-0.768264,66.814044
12.1357,0.00201,-0.019558,0.003774,-0.000828,0.000683,-0.000237,0.004014,-0.529575,0.003838,-0.580423,-257.852787,-0.768264,66.814044
12.1557,0.001879,-0.019675,0.002932,-0.000828,0.000681,-0.000289,0.004014,-0.529575,0.003838,-0.580423,-257.852787,-0.768264,66.814044
12.1757,0.002291,-0.019875,0.003452,-0.000828,0.000681,-0.000325,0.00334,-0.529645,0.002926,-0.616376,-257.853185,-0.757649,66.813598
12.196,0.002093,-0.019882,0.005272,-0.000817,0.000691,-7.5e-05,0.003627,-0.529735,0.00314,-0.616376,-257.853185,-0.757649,66.813598
12.2158,0.001885,-0.019562,0.003445,-0.000806,0.000697,9.4e-05,0.004759,-0.529857,0.005263,-0.541373,-257.853505,-0.815716,66.813194
12.2358,0.001914,-0.01973,0.004213,-0.000796,0.000695,2.4e-05,0.003741,-0.529585,0.003607,-0.541373,-257.853505,-0.815716,66.813194
12.2561,0.001853,-0.019781,0.00442,-0.000788,0.000693,-2.6e-05,0.003741,-0.529585,0.003607,-0.541373,-257.853505,-0.815716,66.813194
12.276,0.002405,-0.019761,0.003373,-0.000782,0.000693,-6.1e-05,0.004095,-0.529767,0.00442,-0.616369,-257.853658,-0.740719,66.813052
12.296,0.001885,-0.019629,0.003913,-0.000789,0.000685,-0.000226,0.004106,-0.529762,0.003994,-0.616369,-257.853658,-0.740719,66.813052
12.3157,0.001875,-0.019735,0.003664,-0.000795,0.000681,-0.000339,0.003858,-0.529606,0.003912,-0.691368,-257.854025,-0.751055,66.812667
12.3358,0.002059,-0.01968,0.00417,-0.000788,0.000685,-0.000304,0.003753,-0.529719,0.003686,-0.691368,-257.854025,-0.751055,66.812667
12.356,0.001908,-0.01946,0.004965,-0.000783,0.000688,-0.00028,0.003753,-0.529719,0.003686,-0.691368,-257.854025,-0.751055,66.812667
12.376,0.002059,-0.019551,0.00325,-0.000778,0.000691,-0.000263,0.004421,-0.529436,0.004958,-0.616295,-257.854247,-0.826128,66.81238
12.3958,0.002035,-0.019369,0.002832,-0.000787,0.000682,-0.000454,0.004129,-0.52948,0.004256,-0.616295,-257.854247,-0.826128,66.81238
12.4158,0.002153,-0.019821,0.003986,-0.000796,0.000677,-0.000585,0.003454,-0.529345,0.002823,-0.598462,-257.854622,-0.830804,66.811922
12.4365,0.001689,-0.019589,0.003242,-0.000806,0.00068,-0.000543,0.004121,-0.529775,0.003885,-0.598462,-257.854622,-0.830804,66.811922
12.4567,0.001768,-0.019614,0.0043,-0.000814,0.000681,-0.000513,0.004121,-0.529775,0.003885,-0.598462,-257.854622,-0.830804,66.811922
12.4759,0.002105,-0.019352,0.002439,-0.00082,0.000682,-0.000492,0.003948,-0.529596,0.004291,-0.523499,-257.854765,-0.905767,66.811703
12.4961,0.001929,-0.019481,0.002874,-0.000812,0.00069,-0.000342,0.0037,-0.529494,0.003529,-0.523499,-257.854765,-0.905767,66.811703
12.5156,0.001968,-0.019773,0.003416,-0.000805,0.000695,-0.00024,0.003372,-0.52946,0.002861,-0.448425,-257.855082,-0.875395,66.811255
12.5361,0.001986,-0.019626,0.003342,-0.000796,0.0007,-0.000109,0.003683,-0.529745,0.003373,-0.448425,-257.855082,-0.875395,66.811255
12.5563,0.001829,-0.019652,0.003657,-0.000788,0.000703,-2.1e-05,0.003683,-0.529745,0.003373,-0.448425,-257.855082,-0.875395,66.811255
12.5762,0.002167,-0.019084,0.002544,-0.000781,0.000704,3.8e-05,0.003672,-0.52963,0.003649,-0.523683,-257.855333,-0.807899,66.810954
12.596,0.001794,-0.019844,0.000199,-0.000775,0.000706,0.000147,0.003585,-0.529406,0.003199,-0.523683,-257.855333,-0.807899,66.810954
12.6157,0.001859,-0.019358,0.005599,-0.000769,0.000707,0.000219,0.001886,-0.529836,0.000198,-0.598409,-257.855497,-0.733174,66.810796
12.6359,0.001761,-0.019441,0.002135,-0.000781,0.000677,-0.000368,0.004451,-0.529395,0.005097,-0.598409,-257.855497,-0.733174,66.810796
12.6561,0.001918,-0.019453,0.003698,-0.000795,0.000659,-0.000782,0.004451,-0.529395,0.005097,-0.598409,-257.855497,-0.733174,66.810796
12.6761,0.001623,-0.01946,0.002486,-0.00081,0.000648,-0.00107,0.003791,-0.52944,0.003699,-0.673253,-257.855664,-0.658329,66.810655
12.6963,0.001511,-0.019759,0.004143,-0.0008,0.000671,-0.000593,0.003422,-0.529446,0.003205,-0.673253,-257.855664,-0.658329,66.810655
12.7164,0.001829,-0.019364,0.003373,-0.000787,0.000686,-0.000268,0.003624,-0.529755,0.004143,-0.598259,-257.855664,-0.733324,66.810655
12.7362,0.001586,-0.019295,0.001526,-0.000778,0.000693,-0.000146,0.003556,-0.529396,0.003442,-0.598259,-257.855664,-0.733324,66.810655
12.7565,0.001701,-0.019407,0.003956,-0.00077,0.000698,-6.5e-05,0.003556,-0.529396,0.003442,-0.598259,-257.855664,-0.733324,66.810655
12.7759,0.00173,-0.019305,0.003365,-0.000762,0.000701,-1.2e-05,0.003689,-0.529378,0.003947,-0.585613,-257.855994,-0.808321,66.81025
12.7961,0.001806,-0.019608,0.002676,-0.000753,0.0007,-8.1e-05,0.003587,-0.529344,0.00371,-0.585613,-257.855994,-0.808321,66.81025
12.8163,0.001847,-0.019372,0.003057,-0.000747,0.000699,-0.00013,0.003154,-0.529593,0.002674,-0.660609,-257.856262,-0.749302,66.809979
12.8359,0.001685,-0.019112,0.004331,-0.00074,0.000707,0.000109,0.003382,-0.529389,0.003022,-0.660609,-257.856262,-0.749302,66.809979
12.8558,0.001636,-0.019433,0.003822,-0.000733,0.000711,0.00027,0.003382,-0.529389,0.003022,-0.660609,-257.856262,-0.749302,66.809979
12.8761,0.001366,-0.01925,0.003538,-0.000725,0.000713,0.000377,0.003556,-0.529402,0.003817,-0.692231,-257.856625,-0.806094,66.809575
12.896,0.001746,-0.019231,0.003709,-0.00071,0.000706,0.000182,0.003393,-0.529335,0.003701,-0.692231,-257.856625,-0.806094,66.809575
12.9157,0.001848,-0.019179,0.004453,-0.000699,0.000702,4.6e-05,0.003633,-0.529223,0.003711,-0.767367,-257.856723,-0.730958,66.809504
12.9359,0.00147,-0.019419,0.003375,-0.000717,0.000687,-0.000284,0.004075,-0.529178,0.004386,-0.767367,-257.856723,-0.730958,66.809504
12.9563,0.001989,-0.019554,0.004177,-0.000734,0.000677,-0.000513,0.004075,-0.529178,0.004386,-0.767367,-257.856723,-0.730958,66.809504
12.9761,0.00161,-0.019494,0.003785,-0.000751,0.000672,-0.00067,0.004091,-0.529522,0.004179,-0.807611,-257.857109,-0.76759,66.809133
12.996,0.001824,-0.019474,0.003991,-0.000757,0.000676,-0.000651,0.003865,-0.529506,0.00402,-0.807611,-257.857109,-0.76759,66.809133
13.0157,0.001738,-0.0192,0.002615,-0.000763,0.000679,-0.000636,0.003859,-0.529469,0.00399,-0.732613,-257.857113,-0.842588,66.809126
13.036,0.001774,-0.019071,0.002631,-0.000751,0.000698,-0.000107,0.003143,-0.529222,0.002739,-0.732613,-257.857113,-0.842588,66.809126
13.0559,0.001862,-0.018834,0.003578,-0.000737,0.000709,0.000252,0.003143,-0.529222,0.002739,-0.732613,-257.857113,-0.842588,66.809126
13.0761,0.001859,-0.019692,0.003823,-0.000723,0.000715,0.000492,0.003684,-0.528828,0.003577,-0.657618,-257.857143,-0.917582,66.809079
13.096,0.001519,-0.019172,0.003468,-0.000726,0.000705,0.000276,0.003735,-0.529179,0.003677,-0.657618,-257.857143,-0.917582,66.809079
13.1158,0.001687,-0.019902,0.003268,-0.000731,0.000698,0.000123,0.003287,-0.529169,0.003468,-0.732622,-257.857152,-0.842579,66.809073
13.1358,0.001505,-0.019279,0.003685,-0.000716,0.000702,0.000168,0.003348,-0.529834,0.003286,-0.732622,-257.857152,-0.842579,66.809073
13.1558,0.001736,-0.019391,0.004098,-0.000702,0.000706,0.000197,0.003348,-0.529834,0.003286,-0.732622,-257.857152,-0.842579,66.809073
13.1763,0.001155,-0.019215,0.002896,-0.000691,0.000708,0.000215,0.003806,-0.529367,0.0041,-0.807619,-257.857437,-0.767581,66.808816
13.196,0.001344,-0.019615,0.002379,-0.00068,0.000705,0.000104,0.003315,-0.529301,0.003599,-0.807619,-257.857437,-0.767581,66.808816
13.2156,0.001621,-0.019301,0.003966,-0.000672,0.000705,2.7e-05,0.002539,-0.529595,0.002384,-0.88184,-257.857801,-0.695569,66.808514
13.2361,0.001867,-0.019194,0.001758,-0.000674,0.0007,-0.000109,0.003543,-0.529323,0.003824,-0.88184,-257.857801,-0.695569,66.808514
13.2558,0.001534,-0.019623,0.004221,-0.000677,0.000698,-0.000202,0.003543,-0.529323,0.003824,-0.88184,-257.857801,-0.695569,66.808514
13.2759,0.001764,-0.019243,0.00359,-0.00068,0.000697,-0.000266,0.003664,-0.529596,0.004222,-0.820557,-257.858116,-0.770255,66.808207
13.2963,0.001323,-0.019342,0.001513,-0.000685,0.000695,-0.000359,0.003633,-0.529448,0.003965,-0.820557,-257.858116,-0.770255,66.808207
13.3161,0.001578,-0.01918,0.003674,-0.00069,0.000694,-0.000423,0.002083,-0.52933,0.00151,-0.745621,-257.858295,-0.845192,66.807979
13.3358,0.001623,-0.019154,0.001527,-0.000687,0.000702,-0.000282,0.003327,-0.52919,0.003478,-0.745621,-257.858295,-0.845192,66.807979
13.356,0.00153,-0.01922,0.003182,-0.000684,0.000708,-0.000185,0.003327,-0.52919,0.003478,-0.745621,-257.858295,-0.845192,66.807979
13.3763,0.001285,-0.019169,0.003093,-0.000681,0.000711,-0.000119,0.003139,-0.529202,0.003174,-0.670577,-257.858459,-0.920236,66.807743
13.3959,0.001544,-0.01927,0.002787,-0.000667,0.000718,6.1e-05,0.003025,-0.529186,0.003141,-0.670577,-257.858459,-0.920236,66.807743
13.4159,0.001406,-0.019155,0.0029,-0.000654,0.000722,0.000184,0.002947,-0.52925,0.002784,-0.745529,-257.858773,-0.855619,66.807394
13.4361,0.001365,-0.019178,0.003905,-0.000638,0.000727,0.000371,0.00289,-0.529161,0.002889,-0.745529,-257.858773,-0.855619,66.807394
13.4561,0.001593,-0.019161,0.002504,-0.000624,0.00073,0.000496,0.00289,-0.529161,0.002889,-0.745529,-257.858773,-0.855619,66.807394
13.4759,0.001832,-0.018998,0.002883,-0.000611,0.000732,0.00058,0.002854,-0.529143,0.002507,-0.820585,-257.859008,-0.780563,66.807196
13.496,0.001973,-0.019514,0.00263,-0.000611,0.000733,0.000732,0.003039,-0.52908,0.002664,-0.820585,-257.859008,-0.780563,66.807196
13.516,0.001554,-0.019117,0.003244,-0.00061,0.000733,0.000833,0.00331,-0.529508,0.002633,-0.89578,-257.859095,-0.705368,66.807146
13.5357,0.001543,-0.019232,0.002685,-0.000609,0.000726,0.00068,0.003218,-0.529148,0.003192,-0.89578,-257.859095,-0.705368,66.807146
13.5556,0.001543,-0.019353,0.002698,-0.00061,0.000721,0.000572,0.003218,-0.529148,0.003192,-0.89578,-257.859095,-0.705368,66.807146
13.5759,0.001532,-0.01916,0.003671,-0.000611,0.000718,0.000498,0.002917,-0.52935,0.0027,-0.97066,-257.859128,-0.630489,66.80713
13.596,0.001451,-0.019244,0.004775,-0.000608,0.000718,0.000481,0.003119,-0.529269,0.003104,-0.97066,-257.859128,-0.630489,66.80713
13.616,0.00122,-0.019145,0.002559,-0.000605,0.000718,0.000469,0.003868,-0.529217,0.00479,-1.032216,-257.859568,-0.596205,66.806857
13.6357,0.001691,-0.019118,0.003462,-0.000584,0.000724,0.000607,0.002643,-0.529149,0.002757,-1.032216,-257.859568,-0.596205,66.806857
13.6556,0.001639,-0.019253,0.003027,-0.000565,0.000728,0.0007,0.002643,-0.529149,0.002757,-1.032216,-257.859568,-0.596205,66.806857
13.6758,0.000979,-0.019085,0.002966,-0.000549,0.00073,0.000763,0.003158,-0.529221,0.003046,-1.02905,-257.860033,-0.62006,66.806563
13.6958,0.001276,-0.019038,0.004135,-0.000544,0.000728,0.000696,0.00288,-0.52916,0.003015,-1.02905,-257.860033,-0.62006,66.806563
13.7156,0.001217,-0.019213,0.002835,-0.00054,0.000727,0.000649,0.003375,-0.529021,0.004147,-1.103995,-257.860302,-0.545115,66.806438
13.7361,0.0014,-0.019341,0.003574,-0.000529,0.000728,0.000644,0.002724,-0.529194,0.002949,-1.103995,-257.860302,-0.545115,66.806438
13.7558,0.001417,-0.019326,0.002895,-0.000521,0.000729,0.00064,0.002724,-0.529194,0.002949,-1.103995,-257.860302,-0.545115,66.806438
13.7758,0.00108,-0.018768,0.004471,-0.000513,0.00073,0.000637,0.002871,-0.529294,0.002922,-1.123058,-257.860798,-0.550335,66.806187
13.7964,0.001303,-0.018785,0.003131,-0.000518,0.000722,0.000395,0.003069,-0.529073,0.003559,-1.123058,-257.860798,-0.550335,66.806187
13.816,0.001088,-0.019082,0.003391,-0.000524,0.000717,0.000228,0.002884,-0.52876,0.00315,-1.140657,-257.861277,-0.586835,66.805946
13.8358,0.001446,-0.019388,0.004186,-0.00052,0.000719,0.000186,0.002823,-0.52905,0.003371,-1.140657,-257.861277,-0.586835,66.805946
13.8559,0.00158,-0.018942,0.003536,-0.000517,0.000721,0.000158,0.002823,-0.52905,0.003371,-1.140657,-257.861277,-0.586835,66.805946
13.8757,0.001568,-0.018983,0.004163,-0.000515,0.000723,0.00014,0.003377,-0.528931,0.00354,-1.065646,-257.861396,-0.661846,66.805854
13.8958,0.00125,-0.019278,0.003159,-0.000544,0.000714,-2.9e-05,0.003504,-0.528949,0.003794,-1.065646,-257.861396,-0.661846,66.805854
13.916,0.001271,-0.019303,0.002102,-0.00057,0.000709,-0.000145,0.002853,-0.529267,0.003162,-1.003419,-257.861551,-0.736738,66.805722
13.9358,0.001212,-0.019108,0.002728,-0.000553,0.000727,0.000453,0.002385,-0.529298,0.002191,-1.003419,-257.861551,-0.736738,66.805722
13.9559,0.001309,-0.018958,0.003898,-0.000535,0.000737,0.000859,0.002385,-0.529298,0.002191,-1.003419,-257.861551,-0.736738,66.805722
13.9759,0.000941,-0.019122,0.003879,-0.000517,0.000743,0.001134,0.00329,-0.528946,0.003897,-0.928269,-257.861649,-0.811887,66.805607
13.9965,0.00109,-0.019185,0.003935,-0.000517,0.000724,0.000635,0.003138,-0.529015,0.00389,-0.928269,-257.861649,-0.811887,66.805607
14.0161,0.001426,-0.01933,0.00411,-0.000521,0.000713,0.000286,0.003097,-0.529181,0.003935,-1.003123,-257.861649,-0.737033,66.805607
14.0361,0.001225,-0.019079,0.002201,-0.00054,0.000702,-2.7e-05,0.003484,-0.529313,0.004094,-1.003123,-257.861649,-0.737033,66.805607
14.0559,0.001162,-0.018858,0.001718,-0.000557,0.000697,-0.000243,0.003484,-0.529313,0.004094,-1.003123,-257.861649,-0.737033,66.805607
14.0756,0.00119,-0.019213,0.003477,-0.000574,0.000694,-0.000392,0.002018,-0.52883,0.001729,-1.039549,-257.862028,-0.801205,66.805332
14.0958,0.00112,-0.018988,0.003259,-0.000559,0.000715,0.000173,0.002407,-0.528985,0.002455,-1.039549,-257.862028,-0.801205,66.805332
14.1159,0.001229,-0.018874,0.001558,-0.000542,0.000728,0.000556,0.002781,-0.528984,0.003259,-0.964374,-257.862042,-0.87638,66.80531
14.1361,0.001447,-0.019045,0.004424,-0.000517,0.000741,0.001169,0.00209,-0.528883,0.001707,-0.964374,-257.862042,-0.87638,66.80531
14.156,0.001149,-0.018846,0.003804,-0.000493,0.000749,0.001582,0.00209,-0.528883,0.001707,-0.964374,-257.862042,-0.87638,66.80531
14.1759,0.001141,-0.018631,0.004307,-0.00047,0.000753,0.001859,0.003083,-0.528834,0.003809,-1.039297,-257.862166,-0.801457,66.805241
14.1957,0.000954,-0.018928,0.004229,-0.000476,0.000725,0.001109,0.003187,-0.528747,0.004014,-1.039297,-257.862166,-0.801457,66.805241
14.2156,0.000975,-0.019096,0.003482,-0.000486,0.000708,0.000579,0.003111,-0.528923,0.004229,-1.114303,-257.862166,-0.726451,66.805241
14.2358,0.001216,-0.019107,0.004471,-0.000481,0.000707,0.000373,0.002782,-0.529078,0.003547,-1.114303,-257.862166,-0.726451,66.805241
14.2557,0.001429,-0.019202,0.003368,-0.000479,0.000708,0.000229,0.002782,-0.529078,0.003547,-1.114303,-257.862166,-0.726451,66.805241
14.2758,0.001065,-0.018535,0.003917,-0.000478,0.00071,0.000128,0.003129,-0.529173,0.003388,-1.141506,-257.862563,-0.651485,66.805037
14.2961,0.001303,-0.018966,0.002496,-0.000495,0.000711,3.5e-05,0.0031,-0.528903,0.003611,-1.141506,-257.862563,-0.651485,66.805037
14.316,0.001202,-0.018941,0.001883,-0.00051,0.000712,-2.9e-05,0.002572,-0.528959,0.002498,-1.066413,-257.862653,-0.726578,66.80496
14.336,0.001125,-0.019027,0.003148,-0.000497,0.000731,0.000656,0.002197,-0.528941,0.001936,-1.066413,-257.862653,-0.726578,66.80496
14.3561,0.000839,-0.019139,0.001722,-0.000483,0.000742,0.00112,0.002197,-0.528941,0.001936,-1.066413,-257.862653,-0.726578,66.80496
14.3761,0.000865,-0.018836,0.002837,-0.000467,0.000748,0.001433,0.00171,-0.529129,0.001723,-0.991478,-257.862762,-0.801513,66.804847
14.3958,0.001552,-0.018941,0.001478,-0.000435,0.000751,0.001527,0.001956,-0.529007,0.00218,-0.991478,-257.862762,-0.801513,66.804847
14.4156,0.001303,-0.018787,0.005145,-0.000407,0.000753,0.001587,0.002306,-0.528941,0.001478,-1.066484,-257.862762,-0.726507,66.804847
14.4358,0.00093,-0.019022,0.003198,-0.000445,0.000713,0.000675,0.003789,-0.528794,0.004831,-1.066484,-257.862762,-0.726507,66.804847
14.4559,0.001018,-0.018918,0.003969,-0.000483,0.000687,2.5e-05,0.003789,-0.528794,0.004831,-1.066484,-257.862762,-0.726507,66.804847
14.4758,0.001068,-0.018817,0.002983,-0.00052,0.000672,-0.000434,0.003042,-0.528914,0.003969,-1.141484,-257.862762,-0.651507,66.804847
14.4958,0.001215,-0.01883,0.001799,-0.000522,0.000688,-0.000324,0.002858,-0.528874,0.003568,-1.141484,-257.862762,-0.651507,66.804847
14.5158,0.001785,-0.019188,0.00285,-0.000524,0.000699,-0.000248,0.002132,-0.528829,0.001799,-1.066595,-257.862762,-0.726396,66.804847
14.5362,0.000871,-0.018601,0.001024,-0.000548,0.000713,0.000141,0.003139,-0.529154,0.002755,-1.066595,-257.862762,-0.726396,66.804847
14.5558,0.001279,-0.018826,0.003534,-0.000565,0.000721,0.000403,0.003139,-0.529154,0.002755,-1.066595,-257.862762,-0.726396,66.804847
14.5758,0.001348,-0.01905,0.003619,-0.000577,0.000725,0.000579,0.003079,-0.52882,0.003534,-0.991622,-257.862788,-0.801369,66.804813
14.5958,0.001529,-0.018974,0.003673,-0.000576,0.000718,0.000368,0.003126,-0.528912,0.003569,-0.991622,-257.862788,-0.801369,66.804813
14.6157,0.001232,-0.019032,0.001809,-0.000577,0.000714,0.000221,0.003396,-0.528962,0.003679,-1.066677,-257.862973,-0.726314,66.804709
14.636,0.001222,-0.019246,0.005,-0.000554,0.00073,0.000814,0.002255,-0.529025,0.001961,-1.066677,-257.862973,-0.726314,66.804709
14.6558,0.000981,-0.018812,0.002878,-0.000531,0.00074,0.001216,0.002255,-0.529025,0.001961,-1.066677,-257.862973,-0.726314,66.804709
14.676,0.001243,-0.018958,0.004325,-0.000509,0.000745,0.001486,0.002429,-0.528786,0.002885,-0.991462,-257.863309,-0.787542,66.804441
14.696,0.001137,-0.019058,0.003031,-0.000499,0.00073,0.001027,0.002844,-0.528851,0.003475,-0.991462,-257.863309,-0.787542,66.804441
14.7159,0.001312,-0.019128,0.002899,-0.000495,0.000721,0.000706,0.002683,-0.529056,0.003031,-1.066334,-257.863309,-0.712671,66.804441
14.7359,0.000818,-0.019347,0.003219,-0.000495,0.000723,0.000706,0.002781,-0.529119,0.002911,-1.066334,-257.863309,-0.712671,66.804441
14.7563,0.001077,-0.019148,0.002855,-0.000496,0.000725,0.000704,0.002781,-0.529119,0.002911,-1.066334,-257.863309,-0.712671,66.804441
14.7758,0.001039,-0.01854,0.003455,-0.000496,0.000727,0.000701,0.002523,-0.529131,0.002869,-1.141304,-257.863559,-0.637701,66.804327
14.7963,0.000878,-0.018853,0.004905,-0.000488,0.000727,0.000615,0.002636,-0.528885,0.003112,-1.141304,-257.863559,-0.637701,66.804327
14.8157,0.001052,-0.018706,0.004637,-0.000482,0.000728,0.000555,0.003366,-0.528827,0.004923,-1.165029,-257.86399,-0.56269,66.804128
14.8361,0.000914,-0.018655,0.003744,-0.000498,0.000704,-2.3e-05,0.003412,-0.52871,0.004662,-1.165029,-257.86399,-0.56269,66.804128
14.8559,0.001259,-0.018784,0.003936,-0.000517,0.000691,-0.000427,0.003412,-0.52871,0.004662,-1.165029,-257.86399,-0.56269,66.804128
14.8759,0.001385,-0.018951,0.003679,-0.000535,0.000684,-0.000707,0.00325,-0.528756,0.003955,-1.146307,-257.864365,-0.637722,66.80393
14.8957,0.001114,-0.018649,0.004011,-0.000555,0.000694,-0.000618,0.003252,-0.528832,0.003844,-1.146307,-257.864365,-0.637722,66.80393
14.9158,0.001432,-0.018653,0.006031,-0.000571,0.000701,-0.000556,0.00316,-0.528645,0.004011,-1.07132,-257.864365,-0.712708,66.80393
14.9361,0.000811,-0.01871,0.003142,-0.000619,0.000671,-0.001115,0.004394,-0.528644,0.005861,-1.07132,-257.864365,-0.712708,66.80393
14.9558,0.00121,-0.018872,0.0047,-0.000663,0.000652,-0.001509,0.004394,-0.528644,0.005861,-1.07132,-257.864365,-0.712708,66.80393
