mach0312/omni-docking-bench/src/icros_test_setup/results/MPPI_sample/timeseries/trial_103.csv
t,x,y,yaw,vx,vy,wz,bl_x,bl_y,bl_yaw,front_steering_joint,front_wheel_joint,rear_steering_joint,rear_wheel_joint
0.0,0.010454,0.019971,-0.05125,0.0,0.0,0.0,-0.016127,-0.489573,-0.050865,0.196413,-263.422035,-0.620068,68.232728
0.0004,0.01004,0.019777,-0.051117,0.0,0.0,0.0,-0.015121,-0.489803,-0.049651,0.196413,-263.422035,-0.620068,68.232728
0.0007,0.010118,0.020042,-0.050947,0.0,0.0,0.0,-0.015121,-0.489803,-0.049651,0.196413,-263.422035,-0.620068,68.232728
0.0011,0.010296,0.019691,-0.050866,0.0,0.0,0.0,-0.015301,-0.489577,-0.050022,0.196413,-263.422035,-0.620068,68.232728
0.0014,0.009796,0.019903,-0.052984,-0.0001,5e-06,0.0,-0.015301,-0.489577,-0.050022,0.196413,-263.422035,-0.620068,68.232728
0.0017,0.010398,0.019923,-0.050846,-0.0001,5e-06,0.0,-0.015497,-0.489204,-0.050326,0.121453,-263.422035,-0.545107,68.232728
0.0021,0.010102,0.019988,-0.052766,-0.0001,5e-06,0.0,-0.015497,-0.489204,-0.050326,0.121453,-263.422035,-0.545107,68.232728
0.0023,0.01022,0.019824,-0.052719,-0.0001,5e-06,0.0,-0.016049,-0.489384,-0.05168,0.121453,-263.422035,-0.545107,68.232728
0.0026,0.010188,0.019497,-0.051957,-0.0001,5e-06,0.0,-0.016049,-0.489384,-0.05168,0.121453,-263.422035,-0.545107,68.232728
0.0164,0.010476,0.019713,-0.052237,0.0,0.0,0.0,-0.016667,-0.489454,-0.052723,0.121453,-263.422035,-0.545107,68.232728
0.0363,0.010215,0.019978,-0.051471,0.0,0.0,0.0,-0.016152,-0.489592,-0.052237,0.046449,-263.422036,-0.470104,68.232727
0.0564,0.00954,0.019529,-0.050719,0.0,0.0,0.0,-0.016099,-0.489491,-0.051922,0.046449,-263.422036,-0.470104,68.232727
0.0764,0.010043,0.019638,-0.052216,0.0,0.0,0.0,-0.016316,-0.489815,-0.050719,0.046449,-263.422036,-0.470104,68.232727
0.0966,0.010043,0.020002,-0.05052,0.0,0.0,0.0,-0.016554,-0.48968,-0.052091,0.046449,-263.422036,-0.470104,68.232727
0.1168,0.009802,0.01968,-0.051533,0.001313,-0.002159,0.005472,-0.016554,-0.48968,-0.052091,0.046449,-263.422036,-0.470104,68.232727
0.1366,0.010235,0.020016,-0.050507,0.001411,-0.002351,0.005923,-0.016468,-0.489643,-0.051533,0.046449,-263.422036,-0.470104,68.232727
0.1562,0.009607,0.01978,-0.051774,0.001479,-0.002525,0.006291,-0.01608,-0.489517,-0.051116,0.046449,-263.422036,-0.470104,68.232727
0.1765,0.010123,0.020061,-0.051023,0.001537,-0.002674,0.006594,-0.016786,-0.489537,-0.051774,0.1213,-263.422036,-0.544954,68.232727
0.1963,0.009981,0.02022,-0.052354,0.00158,-0.002807,0.006843,-0.015966,-0.489298,-0.051088,0.1213,-263.422036,-0.544954,68.232727
0.2167,0.009962,0.02003,-0.05266,0.001616,-0.00292,0.007048,-0.015966,-0.489298,-0.051088,0.1213,-263.422036,-0.544954,68.232727
0.2367,0.009966,0.019463,-0.051297,0.001646,-0.003017,0.007218,-0.016882,-0.489263,-0.05266,0.196378,-263.422036,-0.620032,68.232727
0.2563,0.010322,0.019868,-0.051121,0.001688,-0.003086,0.007361,-0.0166,-0.489507,-0.052109,0.196378,-263.422036,-0.620032,68.232727
0.2765,0.010502,0.019769,-0.052383,0.001724,-0.003145,0.007479,-0.015739,-0.489465,-0.051121,0.271282,-263.422036,-0.694936,68.232727
0.2966,0.009849,0.019991,-0.050571,0.001747,-0.003203,0.007575,-0.01616,-0.489526,-0.05227,0.271282,-263.422036,-0.694936,68.232727
0.3168,0.010347,0.019627,-0.052117,0.001766,-0.003253,0.007655,-0.01616,-0.489526,-0.05227,0.271282,-263.422036,-0.694936,68.232727
0.3363,0.010115,0.019878,-0.051604,0.001783,-0.003295,0.007721,-0.01622,-0.48968,-0.052117,0.346275,-263.422036,-0.76993,68.232728
0.3567,0.009907,0.019693,-0.05101,0.001799,-0.003331,0.007777,-0.016208,-0.489583,-0.051906,0.346275,-263.422036,-0.76993,68.232728
0.3765,0.009816,0.019775,-0.050908,0.001813,-0.003362,0.007823,-0.016096,-0.489644,-0.05101,0.421438,-263.422035,-0.845093,68.232729
0.3968,0.010357,0.020085,-0.052623,0.001823,-0.003391,0.007861,-0.016133,-0.489571,-0.050916,0.421438,-263.422035,-0.845093,68.232729
0.4164,0.010089,0.019922,-0.052818,0.001831,-0.003416,0.007893,-0.016133,-0.489571,-0.050916,0.421438,-263.422035,-0.845093,68.232729
0.4365,0.009562,0.019708,-0.052049,0.001839,-0.003438,0.00792,-0.016834,-0.489368,-0.052816,0.496409,-263.42203,-0.920063,68.232747
0.4563,0.009841,0.019807,-0.050602,0.001859,-0.003444,0.007945,-0.016891,-0.489464,-0.0525,0.496409,-263.42203,-0.920063,68.232747
0.4764,0.009967,0.019846,-0.052129,0.001877,-0.00345,0.007966,-0.015952,-0.489543,-0.050595,0.571409,-263.422002,-0.995063,68.232853
0.4963,0.009967,0.019952,-0.051243,0.001886,-0.003461,0.007982,-0.016552,-0.489469,-0.052,0.571409,-263.422002,-0.995063,68.232853
0.5167,0.010452,0.01982,-0.052278,0.001893,-0.00347,0.007996,-0.016552,-0.489469,-0.052,0.571409,-263.422002,-0.995063,68.232853
0.5365,0.010241,0.020064,-0.05181,0.0019,-0.003479,0.008007,-0.016184,-0.489499,-0.052242,0.64605,-263.42189,-1.070105,68.233256
0.5565,0.009552,0.019527,-0.052048,0.001897,-0.003493,0.008016,-0.016177,-0.489399,-0.052061,0.64605,-263.42189,-1.070105,68.233256
0.5769,0.009926,0.019675,-0.050546,0.001895,-0.003506,0.008024,-0.016957,-0.489813,-0.051979,0.639042,-263.421619,-1.145051,68.234239
0.5968,0.010108,0.019819,-0.052287,0.001893,-0.003518,0.008031,-0.015947,-0.489688,-0.050679,0.639042,-263.421619,-1.145051,68.234239
0.6167,0.009797,0.020077,-0.052921,0.001891,-0.003528,0.008037,-0.015947,-0.489688,-0.050679,0.639042,-263.421619,-1.145051,68.234239
0.6368,0.010038,0.019566,-0.049605,0.001889,-0.003537,0.008042,-0.017132,-0.489283,-0.052755,0.634296,-263.421137,-1.219947,68.236005
0.6567,0.009901,0.019513,-0.051347,0.001894,-0.00354,0.008047,-0.016352,-0.489507,-0.051439,0.634296,-263.421137,-1.219947,68.236005
0.6766,0.009434,0.019623,-0.050965,0.001898,-0.003542,0.008051,-0.016228,-0.489901,-0.051156,0.628969,-263.420427,-1.295077,68.238636
0.6968,0.010007,0.019747,-0.050959,0.001908,-0.003538,0.008095,-0.016518,-0.489735,-0.050972,0.628969,-263.420427,-1.295077,68.238636
0.7166,0.00984,0.019322,-0.052359,0.001916,-0.003535,0.008132,-0.016518,-0.489735,-0.050972,0.628969,-263.420427,-1.295077,68.238636
0.7365,0.00939,0.019395,-0.050089,0.001923,-0.003532,0.008162,-0.016784,-0.490123,-0.05204,0.627156,-263.419536,-1.350121,68.241932
0.7564,0.009759,0.019178,-0.049724,0.001935,-0.003525,0.008208,-0.016514,-0.490076,-0.051205,0.627156,-263.419536,-1.350121,68.241932
0.7765,0.009706,0.018875,-0.050446,0.001945,-0.003519,0.008246,-0.015535,-0.490307,-0.049466,0.646765,-263.418577,-1.348694,68.245407
0.7968,0.009793,0.018959,-0.049905,0.00195,-0.003516,0.008297,-0.015966,-0.490467,-0.050349,0.646765,-263.418577,-1.348694,68.245407
0.8169,0.009762,0.019176,-0.049574,0.001955,-0.003515,0.008339,-0.015966,-0.490467,-0.050349,0.646765,-263.418577,-1.348694,68.245407
0.8368,0.009427,0.019379,-0.050418,0.001959,-0.003513,0.008374,-0.015437,-0.490348,-0.049231,0.662474,-263.417594,-1.34719,68.248902
0.8569,0.009563,0.019104,-0.049715,0.001954,-0.003519,0.008421,-0.015772,-0.490211,-0.049679,0.662474,-263.417594,-1.34719,68.248902
0.8762,0.009776,0.019051,-0.050283,0.00195,-0.003524,0.00846,-0.015725,-0.490379,-0.049451,0.685395,-263.416591,-1.347548,68.252407
0.8964,0.0095,0.019029,-0.047888,0.001949,-0.003526,0.00851,-0.015843,-0.490317,-0.050194,0.685395,-263.416591,-1.347548,68.252407
0.9162,0.009834,0.019068,-0.049611,0.001948,-0.003528,0.008552,-0.015843,-0.490317,-0.050194,0.685395,-263.416591,-1.347548,68.252407
0.9365,0.008725,0.018672,-0.049383,0.001948,-0.003529,0.008587,-0.015384,-0.490455,-0.049258,0.700108,-263.415575,-1.350099,68.255957
0.9562,0.0092,0.018575,-0.049681,0.001951,-0.003528,0.008634,-0.015808,-0.490575,-0.049268,0.700108,-263.415575,-1.350099,68.255957
0.9766,0.009277,0.018738,-0.047395,0.001953,-0.003526,0.008673,-0.016071,-0.49091,-0.04941,0.721913,-263.414545,-1.352307,68.259525
0.9965,0.009068,0.01835,-0.047547,0.001939,-0.003539,0.008721,-0.014989,-0.490715,-0.047563,0.721913,-263.414545,-1.352307,68.259525
1.0163,0.009,0.018602,-0.049395,0.001928,-0.003549,0.008762,-0.014989,-0.490715,-0.047563,0.721913,-263.414545,-1.352307,68.259525
1.0368,0.009008,0.018382,-0.048015,0.001918,-0.003559,0.008795,-0.016107,-0.490926,-0.049034,0.736452,-263.413494,-1.352951,68.263127
1.0567,0.009106,0.018215,-0.047836,0.001932,-0.003546,0.008845,-0.015839,-0.490986,-0.048577,0.736452,-263.413494,-1.352951,68.263127
1.0764,0.008982,0.018415,-0.047439,0.001945,-0.003535,0.008885,-0.015226,-0.491317,-0.047558,0.757426,-263.412447,-1.359274,68.266752
1.0969,0.008597,0.018396,-0.047019,0.001943,-0.003537,0.00893,-0.015202,-0.491045,-0.047435,0.757426,-263.412447,-1.359274,68.266752
1.1168,0.009458,0.018157,-0.047228,0.001941,-0.003539,0.008968,-0.015202,-0.491045,-0.047435,0.757426,-263.412447,-1.359274,68.266752
1.1368,0.00878,0.018026,-0.046435,0.001939,-0.00354,0.008999,-0.014545,-0.491425,-0.046857,0.771556,-263.411365,-1.357099,68.270409
1.1566,0.008748,0.018021,-0.047543,0.001933,-0.003546,0.009033,-0.014678,-0.491442,-0.046642,0.771556,-263.411365,-1.357099,68.270409
1.1763,0.008523,0.017942,-0.045366,0.001928,-0.00355,0.009062,-0.015434,-0.491517,-0.047258,0.789629,-263.410269,-1.359385,68.274086
1.1968,0.008565,0.018142,-0.047021,0.001925,-0.003553,0.009092,-0.014677,-0.491538,-0.045523,0.789629,-263.410269,-1.359385,68.274086
1.2168,0.00866,0.017811,-0.045772,0.001922,-0.003556,0.009116,-0.014677,-0.491538,-0.045523,0.789629,-263.410269,-1.359385,68.274086
1.2367,0.008333,0.017541,-0.047718,0.001919,-0.003558,0.009136,-0.014602,-0.491807,-0.045393,0.79977,-263.409164,-1.361667,68.277794
1.2565,0.008461,0.017746,-0.047138,0.001934,-0.003545,0.009159,-0.015161,-0.491854,-0.046298,0.79977,-263.409164,-1.361667,68.277794
1.2762,0.008201,0.017412,-0.045936,0.001946,-0.003534,0.009177,-0.015515,-0.491803,-0.046847,0.811388,-263.408052,-1.363786,68.281521
1.2967,0.008341,0.017678,-0.046007,0.001961,-0.00352,0.009194,-0.015242,-0.492034,-0.046003,0.811388,-263.408052,-1.363786,68.281521
1.3168,0.008335,0.017855,-0.04636,0.001974,-0.003508,0.009208,-0.015242,-0.492034,-0.046003,0.811388,-263.408052,-1.363786,68.281521
1.3362,0.008243,0.017266,-0.046154,0.001985,-0.003498,0.00922,-0.015226,-0.491749,-0.045976,0.816337,-263.406916,-1.361002,68.285257
1.3564,0.008495,0.017443,-0.045614,0.001993,-0.003491,0.009231,-0.015242,-0.491946,-0.046004,0.816337,-263.406916,-1.361002,68.285257
1.3765,0.008468,0.017001,-0.044292,0.002,-0.003485,0.009239,-0.014703,-0.492141,-0.045321,0.821213,-263.405751,-1.356675,68.288991
1.3967,0.008223,0.017276,-0.044013,0.001991,-0.003493,0.009247,-0.014166,-0.492472,-0.044373,0.821213,-263.405751,-1.356675,68.288991
1.4171,0.007818,0.017293,-0.045255,0.001983,-0.003499,0.009253,-0.014166,-0.492472,-0.044373,0.821213,-263.405751,-1.356675,68.288991
1.4372,0.007866,0.016832,-0.043072,0.001976,-0.003505,0.009258,-0.015177,-0.492335,-0.044867,0.82351,-263.404574,-1.355105,68.292729
1.4565,0.008229,0.016794,-0.044466,0.001984,-0.003499,0.009266,-0.014738,-0.492495,-0.04411,0.82351,-263.404574,-1.355105,68.292729
1.4765,0.007872,0.01675,-0.042961,0.00199,-0.003493,0.009272,-0.014383,-0.492817,-0.044171,0.82719,-263.403405,-1.358276,68.296479
1.4964,0.007551,0.016727,-0.042931,0.001985,-0.003497,0.009277,-0.014059,-0.492788,-0.043052,0.82719,-263.403405,-1.358276,68.296479
1.5166,0.007843,0.01662,-0.044685,0.001981,-0.003501,0.009282,-0.014059,-0.492788,-0.043052,0.82719,-263.403405,-1.358276,68.296479
1.5364,0.007785,0.016501,-0.044079,0.001977,-0.003504,0.009286,-0.014862,-0.493021,-0.044297,0.82865,-263.402227,-1.356763,68.300229
1.5564,0.007622,0.016368,-0.041513,0.001996,-0.003487,0.009293,-0.014781,-0.493031,-0.044162,0.82865,-263.402227,-1.356763,68.300229
1.5765,0.007265,0.01642,-0.044165,0.002011,-0.003472,0.009299,-0.013485,-0.493307,-0.041218,0.831148,-263.401056,-1.358528,68.303977
1.5974,0.007288,0.01649,-0.043319,0.002032,-0.003452,0.009306,-0.015092,-0.493109,-0.043888,0.831148,-263.401056,-1.358528,68.303977
1.6164,0.007307,0.016598,-0.042386,0.00205,-0.003435,0.009312,-0.015092,-0.493109,-0.043888,0.831148,-263.401056,-1.358528,68.303977
1.6369,0.007306,0.016361,-0.042824,0.002066,-0.00342,0.009316,-0.014225,-0.493093,-0.041997,0.831847,-263.39986,-1.354473,68.307728
1.6567,0.00719,0.016027,-0.041874,0.002062,-0.003423,0.009317,-0.01434,-0.493142,-0.042291,0.831847,-263.39986,-1.354473,68.307728
1.6767,0.007057,0.016515,-0.043295,0.002059,-0.003426,0.009318,-0.014099,-0.493637,-0.041579,0.832422,-263.398633,-1.347821,68.311463
1.697,0.007032,0.016229,-0.041961,0.002069,-0.003417,0.009322,-0.014933,-0.493068,-0.04313,0.832422,-263.398633,-1.347821,68.311463
1.717,0.006956,0.015896,-0.043106,0.002077,-0.003409,0.009325,-0.014933,-0.493068,-0.04313,0.832422,-263.398633,-1.347821,68.311463
1.7369,0.007335,0.015831,-0.042974,0.002084,-0.003402,0.009327,-0.014941,-0.493777,-0.042716,0.833031,-263.397408,-1.34865,68.315202
1.7568,0.006901,0.015999,-0.041536,0.0021,-0.003386,0.009331,-0.014781,-0.493762,-0.042777,0.833031,-263.397408,-1.34865,68.315202
1.7762,0.006863,0.015547,-0.040088,0.002113,-0.003373,0.009334,-0.014215,-0.493672,-0.041239,0.833394,-263.396164,-1.34564,68.31895
1.7964,0.006709,0.015962,-0.039994,0.002102,-0.003383,0.009333,-0.013622,-0.49402,-0.040163,0.833394,-263.396164,-1.34564,68.31895
1.8163,0.006799,0.015887,-0.043273,0.002093,-0.003391,0.009333,-0.013622,-0.49402,-0.040163,0.833394,-263.396164,-1.34564,68.31895
1.837,0.006849,0.015738,-0.040242,0.002085,-0.003399,0.009334,-0.015181,-0.49378,-0.042884,0.833694,-263.394914,-1.341981,68.322655
1.857,0.006705,0.015768,-0.040859,0.002097,-0.003387,0.009337,-0.01456,-0.493824,-0.04177,0.833694,-263.394914,-1.341981,68.322655
1.8765,0.00674,0.015789,-0.040167,0.002107,-0.003378,0.009339,-0.014065,-0.493918,-0.04056,0.834679,-263.393669,-1.345493,68.326395
1.8966,0.006466,0.015185,-0.0399,0.002096,-0.003388,0.009338,-0.013765,-0.493815,-0.040186,0.834679,-263.393669,-1.345493,68.326395
1.9167,0.006394,0.015569,-0.040442,0.002087,-0.003396,0.009338,-0.013765,-0.493815,-0.040186,0.834679,-263.393669,-1.345493,68.326395
1.9365,0.006736,0.015101,-0.040195,0.00208,-0.003404,0.009337,-0.014144,-0.494158,-0.040052,0.834781,-263.392416,-1.342838,68.330117
1.9566,0.006539,0.015574,-0.038704,0.002088,-0.003396,0.00934,-0.013978,-0.494308,-0.040065,0.834781,-263.392416,-1.342838,68.330117
1.9765,0.006315,0.014851,-0.03969,0.002095,-0.003389,0.009342,-0.013134,-0.494155,-0.038407,0.835489,-263.391177,-1.346291,68.333852
1.9968,0.00605,0.015132,-0.037601,0.002106,-0.003378,0.009345,-0.013847,-0.4947,-0.039559,0.835489,-263.391177,-1.346291,68.333852
2.0166,0.006126,0.014856,-0.039439,0.002115,-0.003369,0.009347,-0.013847,-0.4947,-0.039559,0.835489,-263.391177,-1.346291,68.333852
2.0365,0.006042,0.014809,-0.037386,0.002123,-0.003361,0.009349,-0.0139,-0.494892,-0.039047,0.835678,-263.389928,-1.34441,68.337582
2.0565,0.006096,0.015261,-0.040402,0.002125,-0.003358,0.00935,-0.013535,-0.494886,-0.038331,0.835678,-263.389928,-1.34441,68.337582
2.0767,0.00617,0.014939,-0.037051,0.002127,-0.003356,0.00935,-0.01444,-0.494432,-0.040104,0.835883,-263.388661,-1.340936,68.341311
2.0972,0.006075,0.014768,-0.038128,0.002108,-0.003374,0.009347,-0.012871,-0.494692,-0.037307,0.835883,-263.388661,-1.340936,68.341311
2.1165,0.006239,0.014759,-0.038201,0.002092,-0.003389,0.009346,-0.012871,-0.494692,-0.037307,0.835883,-263.388661,-1.340936,68.341311
2.1376,0.005853,0.014622,-0.036772,0.002078,-0.003402,0.009344,-0.013154,-0.495013,-0.037808,0.836018,-263.387392,-1.340324,68.345036
2.1569,0.005957,0.014782,-0.035962,0.002078,-0.003402,0.009346,-0.013043,-0.495038,-0.037354,0.836018,-263.387392,-1.340324,68.345036
2.177,0.006137,0.0147,-0.038014,0.002079,-0.003402,0.009347,-0.012317,-0.494999,-0.035663,0.837029,-263.386151,-1.346474,68.348771
2.1968,0.005551,0.014714,-0.038078,0.00208,-0.003401,0.009348,-0.013159,-0.494943,-0.037787,0.837029,-263.386151,-1.346474,68.348771
2.217,0.005623,0.014437,-0.037471,0.002081,-0.003401,0.009349,-0.013159,-0.494943,-0.037787,0.837029,-263.386151,-1.346474,68.348771
2.2365,0.005708,0.013946,-0.037343,0.002081,-0.0034,0.00935,-0.013401,-0.495351,-0.03708,0.837327,-263.384909,-1.346506,68.352509
2.2566,0.005687,0.014597,-0.037458,0.002099,-0.003383,0.009354,-0.013364,-0.495509,-0.037142,0.837327,-263.384909,-1.346506,68.352509
2.2765,0.005435,0.014203,-0.036447,0.002113,-0.003368,0.009356,-0.01335,-0.495157,-0.037159,0.837525,-263.383666,-1.346206,68.356247
2.2966,0.005093,0.014144,-0.03654,0.002119,-0.003362,0.009357,-0.013164,-0.495437,-0.036497,0.837525,-263.383666,-1.346206,68.356247
2.3172,0.005527,0.013997,-0.03833,0.002124,-0.003357,0.009358,-0.013164,-0.495437,-0.036497,0.837525,-263.383666,-1.346206,68.356247
2.3367,0.005256,0.013925,-0.035086,0.002129,-0.003353,0.009358,-0.013934,-0.495773,-0.037938,0.83757,-263.382403,-1.342167,68.359976
2.3567,0.005043,0.01412,-0.036036,0.002146,-0.003336,0.009361,-0.013397,-0.495785,-0.036736,0.83757,-263.382403,-1.342167,68.359976
2.3766,0.005335,0.014038,-0.034847,0.00216,-0.003321,0.009363,-0.013268,-0.495659,-0.035738,0.837451,-263.381131,-1.34024,68.363702
2.3968,0.005317,0.013927,-0.035708,0.002146,-0.003334,0.00936,-0.012505,-0.495659,-0.034912,0.837451,-263.381131,-1.34024,68.363702
2.4166,0.005363,0.013969,-0.037446,0.002135,-0.003345,0.009358,-0.012505,-0.495659,-0.034912,0.837451,-263.381131,-1.34024,68.363702
2.4369,0.005257,0.014016,-0.034654,0.002125,-0.003354,0.009356,-0.013644,-0.495817,-0.037051,0.837463,-263.37984,-1.336231,68.367418
2.4565,0.005241,0.013402,-0.034631,0.002136,-0.003343,0.009359,-0.013147,-0.495778,-0.036057,0.837463,-263.37984,-1.336231,68.367418
2.4762,0.00527,0.013424,-0.034411,0.002146,-0.003334,0.00936,-0.012353,-0.496401,-0.034333,0.837772,-263.37857,-1.340587,68.371144
2.4966,0.004559,0.013211,-0.034872,0.002143,-0.003336,0.00936,-0.012279,-0.496291,-0.034389,0.837772,-263.37857,-1.340587,68.371144
2.5165,0.005067,0.013434,-0.034381,0.002141,-0.003338,0.00936,-0.012279,-0.496291,-0.034389,0.837772,-263.37857,-1.340587,68.371144
2.5364,0.005007,0.013364,-0.034066,0.002139,-0.00334,0.00936,-0.012379,-0.496407,-0.033989,0.837716,-263.377288,-1.337995,68.374863
2.5564,0.005106,0.013072,-0.03387,0.002141,-0.003337,0.009361,-0.012363,-0.496396,-0.033975,0.837716,-263.377288,-1.337995,68.374863
2.5765,0.004833,0.013252,-0.034647,0.002143,-0.003335,0.009362,-0.0121,-0.496744,-0.033572,0.838104,-263.376007,-1.338925,68.37859
2.5967,0.004548,0.013243,-0.035508,0.002158,-0.00332,0.009365,-0.012763,-0.496475,-0.034534,0.838104,-263.376007,-1.338925,68.37859
2.6164,0.004775,0.013549,-0.034124,0.00217,-0.003308,0.009366,-0.012763,-0.496475,-0.034534,0.838104,-263.376007,-1.338925,68.37859
2.6368,0.00452,0.013019,-0.032357,0.00218,-0.003298,0.009367,-0.01254,-0.496296,-0.033733,0.838271,-263.374727,-1.338309,68.382307
2.6568,0.004819,0.013152,-0.033173,0.002176,-0.003301,0.009366,-0.012303,-0.496482,-0.033129,0.838271,-263.374727,-1.338309,68.382307
2.6766,0.00423,0.012988,-0.032447,0.002173,-0.003304,0.009366,-0.01203,-0.496674,-0.032874,0.838334,-263.373423,-1.333653,68.386016
2.6965,0.004269,0.01274,-0.034322,0.002176,-0.003301,0.009366,-0.012286,-0.496743,-0.03247,0.838334,-263.373423,-1.333653,68.386016
2.7167,0.0039,0.013265,-0.033081,0.002178,-0.003298,0.009367,-0.012286,-0.496743,-0.03247,0.838334,-263.373423,-1.333653,68.386016
2.7367,0.004401,0.012564,-0.032788,0.00218,-0.003296,0.009367,-0.012882,-0.496597,-0.032689,0.838321,-263.372124,-1.334476,68.389729
2.7564,0.004324,0.013035,-0.031788,0.002194,-0.003282,0.009369,-0.012643,-0.496843,-0.032684,0.838321,-263.372124,-1.334476,68.389729
2.7765,0.004104,0.012513,-0.032552,0.002205,-0.00327,0.00937,-0.011819,-0.496814,-0.03149,0.838466,-263.370819,-1.333537,68.39344
2.7967,0.003815,0.01254,-0.031792,0.002217,-0.003257,0.009372,-0.01243,-0.497186,-0.032442,0.838466,-263.370819,-1.333537,68.39344
2.8166,0.004599,0.012769,-0.030877,0.002228,-0.003246,0.009374,-0.01243,-0.497186,-0.032442,0.838466,-263.370819,-1.333537,68.39344
2.8363,0.004123,0.012099,-0.030271,0.002237,-0.003236,0.009374,-0.011057,-0.497128,-0.030484,0.838583,-263.3695,-1.330379,68.397143
2.8567,0.003908,0.012576,-0.032162,0.002213,-0.003259,0.00937,-0.011151,-0.497362,-0.030352,0.838583,-263.3695,-1.330379,68.397143
2.8762,0.003805,0.011951,-0.029499,0.002193,-0.003278,0.009368,-0.012423,-0.497266,-0.031863,0.838866,-263.368162,-1.326193,68.400837
2.8964,0.004203,0.012141,-0.030339,0.002192,-0.003279,0.009369,-0.01134,-0.497782,-0.029697,0.838866,-263.368162,-1.326193,68.400837
2.9163,0.004077,0.012392,-0.031974,0.002191,-0.00328,0.00937,-0.01134,-0.497782,-0.029697,0.838866,-263.368162,-1.326193,68.400837
2.9364,0.003773,0.012153,-0.030555,0.00219,-0.00328,0.009371,-0.01214,-0.497487,-0.031583,0.839335,-263.366849,-1.331814,68.404541
2.9564,0.004081,0.012026,-0.030509,0.002202,-0.003268,0.009373,-0.011994,-0.497553,-0.031116,0.839335,-263.366849,-1.331814,68.404541
2.9766,0.003653,0.012048,-0.029456,0.002212,-0.003258,0.009375,-0.011409,-0.497843,-0.030211,0.839968,-263.365537,-1.332208,68.408246
2.9966,0.003402,0.012046,-0.030684,0.002208,-0.003262,0.009374,-0.011367,-0.497746,-0.029509,0.839968,-263.365537,-1.332208,68.408246
3.0165,0.003295,0.011785,-0.03009,0.002204,-0.003265,0.009374,-0.011367,-0.497746,-0.029509,0.839968,-263.365537,-1.332208,68.408246
3.0367,0.003585,0.011685,-0.027804,0.002201,-0.003269,0.009374,-0.01196,-0.498123,-0.029698,0.840057,-263.36421,-1.329372,68.411951
3.0567,0.003445,0.011725,-0.028204,0.002209,-0.00326,0.009376,-0.011389,-0.498137,-0.028876,0.840057,-263.36421,-1.329372,68.411951
3.0762,0.00296,0.011557,-0.029286,0.002215,-0.003253,0.009377,-0.010871,-0.498178,-0.027906,0.840268,-263.36289,-1.330812,68.415656
3.0965,0.003189,0.011373,-0.028233,0.002236,-0.00323,0.009381,-0.011876,-0.498225,-0.029154,0.840268,-263.36289,-1.330812,68.415656
3.1163,0.002978,0.011441,-0.029239,0.002254,-0.00321,0.009384,-0.011876,-0.498225,-0.029154,0.840268,-263.36289,-1.330812,68.415656
3.1369,0.003308,0.011428,-0.030559,0.002269,-0.003194,0.009385,-0.011843,-0.498479,-0.028848,0.840654,-263.361561,-1.328933,68.419357
3.1566,0.003076,0.011801,-0.027481,0.002291,-0.003169,0.009388,-0.012009,-0.498436,-0.0295,0.840654,-263.361561,-1.328933,68.419357
3.1763,0.002866,0.011611,-0.028167,0.00231,-0.003148,0.00939,-0.010868,-0.49811,-0.027182,0.841286,-263.360203,-1.321822,68.42303
3.1964,0.002925,0.011174,-0.028758,0.002303,-0.003155,0.009387,-0.011437,-0.498185,-0.028063,0.841286,-263.360203,-1.321822,68.42303
3.2163,0.002805,0.011364,-0.028998,0.002298,-0.003161,0.009385,-0.011437,-0.498185,-0.028063,0.841286,-263.360203,-1.321822,68.42303
3.2365,0.003028,0.011065,-0.028345,0.002293,-0.003166,0.009384,-0.011889,-0.498556,-0.028606,0.841848,-263.358814,-1.316399,68.426707
3.2563,0.002846,0.011176,-0.028002,0.002308,-0.003149,0.009386,-0.011687,-0.498644,-0.028452,0.841848,-263.358814,-1.316399,68.426707
3.2763,0.002169,0.010992,-0.027415,0.002321,-0.003134,0.009388,-0.011363,-0.498727,-0.027705,0.841293,-263.35744,-1.318549,68.430375
3.2964,0.002688,0.010942,-0.027683,0.002338,-0.003115,0.00939,-0.011768,-0.498814,-0.027425,0.841293,-263.35744,-1.318549,68.430375
3.3165,0.002587,0.010687,-0.028235,0.002352,-0.003099,0.009392,-0.011768,-0.498814,-0.027425,0.841293,-263.35744,-1.318549,68.430375
3.3369,0.002343,0.011016,-0.02697,0.002365,-0.003084,0.009393,-0.011717,-0.499243,-0.027842,0.841856,-263.356047,-1.314803,68.43404
3.3568,0.00297,0.011129,-0.026138,0.002377,-0.003069,0.009394,-0.011581,-0.499077,-0.027441,0.841856,-263.356047,-1.314803,68.43404
3.3764,0.002362,0.010676,-0.026129,0.002388,-0.003056,0.009395,-0.010287,-0.498797,-0.025839,0.842689,-263.354626,-1.308901,68.437691
3.397,0.002595,0.010546,-0.025757,0.002379,-0.003066,0.009393,-0.010898,-0.499123,-0.026088,0.842689,-263.354626,-1.308901,68.437691
3.4166,0.002489,0.010584,-0.027041,0.002372,-0.003073,0.009392,-0.010898,-0.499123,-0.026088,0.842689,-263.354626,-1.308901,68.437691
3.4363,0.002637,0.010526,-0.025701,0.002365,-0.00308,0.009391,-0.011204,-0.49936,-0.026647,0.843259,-263.353189,-1.305652,68.441339
3.4568,0.002541,0.010314,-0.02441,0.002367,-0.003078,0.009392,-0.010891,-0.499353,-0.026214,0.843259,-263.353189,-1.305652,68.441339
3.4766,0.002068,0.010475,-0.024472,0.002368,-0.003076,0.009392,-0.009834,-0.499634,-0.024111,0.843115,-263.351768,-1.308632,68.444986
3.4972,0.002307,0.010101,-0.023051,0.002353,-0.003092,0.009391,-0.010355,-0.499401,-0.024424,0.843115,-263.351768,-1.308632,68.444986
3.5168,0.002488,0.010072,-0.024883,0.00234,-0.003104,0.009389,-0.010355,-0.499401,-0.024424,0.843115,-263.351768,-1.308632,68.444986
3.5366,0.002243,0.010517,-0.025214,0.00233,-0.003115,0.009389,-0.010105,-0.499901,-0.02449,0.843504,-263.350344,-1.30834,68.448636
3.5568,0.002536,0.010132,-0.02518,0.002328,-0.003117,0.00939,-0.010301,-0.49968,-0.02474,0.843504,-263.350344,-1.30834,68.448636
3.5765,0.001712,0.010172,-0.023106,0.002326,-0.003118,0.009392,-0.010232,-0.499808,-0.02488,0.843735,-263.348939,-1.313376,68.452302
3.5964,0.001925,0.009997,-0.02298,0.002317,-0.003127,0.009392,-0.010081,-0.499707,-0.023242,0.843735,-263.348939,-1.313376,68.452302
3.6167,0.002084,0.009957,-0.024387,0.00231,-0.003134,0.009392,-0.010081,-0.499707,-0.023242,0.843735,-263.348939,-1.313376,68.452302
3.6365,0.002139,0.009933,-0.02292,0.002304,-0.00314,0.009392,-0.010258,-0.500024,-0.023994,0.844328,-263.347539,-1.313904,68.455964
3.6566,0.00205,0.010009,-0.023989,0.002304,-0.003139,0.009394,-0.009955,-0.500002,-0.023506,0.844328,-263.347539,-1.313904,68.455964
3.6762,0.00162,0.00968,-0.02451,0.002304,-0.003138,0.009396,-0.010112,-0.499946,-0.023691,0.844861,-263.346151,-1.316809,68.45963
3.6964,0.001327,0.009732,-0.023549,0.002335,-0.003103,0.009402,-0.010809,-0.500152,-0.024423,0.844861,-263.346151,-1.316809,68.45963
3.7165,0.001631,0.00965,-0.0237,0.00236,-0.003073,0.009406,-0.010809,-0.500152,-0.024423,0.844861,-263.346151,-1.316809,68.45963
3.7364,0.001778,0.010033,-0.023281,0.002382,-0.003048,0.009409,-0.010362,-0.500341,-0.023307,0.845598,-263.344764,-1.316802,68.463293
3.7564,0.001693,0.009123,-0.022866,0.002383,-0.003046,0.009409,-0.010242,-0.500148,-0.023251,0.845598,-263.344764,-1.316802,68.463293
3.7765,0.001644,0.009555,-0.022431,0.002384,-0.003045,0.009408,-0.009894,-0.500842,-0.022566,0.847702,-263.343325,-1.306341,68.466934
3.7964,0.001542,0.009509,-0.022661,0.002378,-0.003051,0.009407,-0.0098,-0.500369,-0.022428,0.847702,-263.343325,-1.306341,68.466934
3.8163,0.001505,0.009468,-0.022203,0.002373,-0.003056,0.009407,-0.0098,-0.500369,-0.022428,0.847702,-263.343325,-1.306341,68.466934
3.8365,0.001557,0.009348,-0.022667,0.002369,-0.003061,0.009407,-0.009721,-0.500536,-0.021809,0.847644,-263.341883,-1.305955,68.47058
3.8572,0.001454,0.009392,-0.022498,0.002371,-0.003057,0.009408,-0.009825,-0.500545,-0.022117,0.847644,-263.341883,-1.305955,68.47058
3.8764,0.001742,0.009008,-0.021508,0.002373,-0.003054,0.009409,-0.009946,-0.500578,-0.022199,0.847775,-263.340451,-1.308043,68.474229
3.8967,0.001655,0.009084,-0.020727,0.002367,-0.003059,0.00941,-0.009284,-0.500854,-0.021553,0.847775,-263.340451,-1.308043,68.474229
3.9165,0.001489,0.009089,-0.01937,0.002362,-0.003064,0.00941,-0.009284,-0.500854,-0.021553,0.847775,-263.340451,-1.308043,68.474229
3.9366,0.001223,0.008828,-0.020441,0.002358,-0.003068,0.009411,-0.008293,-0.500945,-0.018977,0.84824,-263.339015,-1.307379,68.477876
3.9567,0.001381,0.00898,-0.022116,0.002336,-0.00309,0.009408,-0.008655,-0.501009,-0.019532,0.84824,-263.339015,-1.307379,68.477876
3.9765,0.000989,0.008649,-0.020953,0.002318,-0.003109,0.009407,-0.009825,-0.500994,-0.021818,0.849205,-263.337588,-1.309399,68.481523
3.997,0.000998,0.008762,-0.020812,0.002346,-0.003075,0.009414,-0.009704,-0.501222,-0.021014,0.849205,-263.337588,-1.309399,68.481523
4.017,0.001158,0.008957,-0.02106,0.00237,-0.003047,0.009419,-0.009704,-0.501222,-0.021014,0.849205,-263.337588,-1.309399,68.481523
4.0366,0.000838,0.008865,-0.019903,0.00239,-0.003023,0.009423,-0.009488,-0.501062,-0.020667,0.849642,-263.336175,-1.314768,68.485207
4.0566,0.000777,0.008523,-0.02056,0.002392,-0.003021,0.009423,-0.009401,-0.501065,-0.020293,0.849642,-263.336175,-1.314768,68.485207
4.0767,0.000547,0.008487,-0.019992,0.002394,-0.003019,0.009423,-0.009635,-0.501465,-0.020265,0.852064,-263.334735,-1.304927,68.488815
4.0967,0.00111,0.009045,-0.018892,0.002415,-0.002994,0.009426,-0.009644,-0.501421,-0.020001,0.852064,-263.334735,-1.304927,68.488815
4.1171,0.000842,0.00814,-0.019929,0.002433,-0.002973,0.009429,-0.009644,-0.501421,-0.020001,0.852064,-263.334735,-1.304927,68.488815
4.1366,0.000787,0.008658,-0.018658,0.002448,-0.002954,0.00943,-0.009223,-0.501887,-0.019534,0.851876,-263.333277,-1.304446,68.492462
4.1566,0.000852,0.008532,-0.018668,0.002447,-0.002954,0.009429,-0.009007,-0.50164,-0.019126,0.851876,-263.333277,-1.304446,68.492462
4.1769,0.000576,0.008389,-0.018816,0.002446,-0.002954,0.009429,-0.008592,-0.501474,-0.01837,0.853396,-263.331792,-1.296978,68.496073
4.1967,0.000159,0.008492,-0.018318,0.00244,-0.00296,0.009426,-0.008977,-0.501522,-0.01876,0.853396,-263.331792,-1.296978,68.496073
4.2168,0.000649,0.008517,-0.019179,0.002435,-0.002966,0.009424,-0.008977,-0.501522,-0.01876,0.853396,-263.331792,-1.296978,68.496073
4.2366,0.000607,0.008144,-0.017454,0.002431,-0.002971,0.009423,-0.009031,-0.501514,-0.018784,0.853588,-263.330307,-1.297074,68.499685
4.2567,0.000378,0.007983,-0.018878,0.002422,-0.00298,0.00942,-0.008721,-0.501636,-0.018199,0.853588,-263.330307,-1.297074,68.499685
4.277,0.00038,0.007683,-0.019064,0.002415,-0.002988,0.009418,-0.009174,-0.502022,-0.018578,0.853039,-263.328828,-1.299078,68.503309
4.2963,-0.000126,0.007948,-0.019675,0.002449,-0.002943,0.009427,-0.009319,-0.502209,-0.018993,0.853039,-263.328828,-1.299078,68.503309
4.3165,0.000269,0.007883,-0.018907,0.002478,-0.002905,0.009433,-0.009319,-0.502209,-0.018993,0.853039,-263.328828,-1.299078,68.503309
4.3366,-0.000119,0.007618,-0.017945,0.002503,-0.002873,0.009437,-0.009274,-0.502153,-0.018513,0.852779,-263.32736,-1.301264,68.506935
4.3568,0.000237,0.007641,-0.017165,0.002522,-0.002848,0.009439,-0.009261,-0.502227,-0.018235,0.852779,-263.32736,-1.301264,68.506935
4.3766,0.000201,0.007779,-0.016018,0.002539,-0.002827,0.009439,-0.008439,-0.502377,-0.016866,0.857274,-263.325835,-1.288734,68.510521
4.3963,0.000268,0.00801,-0.017806,0.002504,-0.002865,0.009419,-0.008007,-0.502181,-0.016079,0.857274,-263.325835,-1.288734,68.510521
4.4164,6.7e-05,0.007515,-0.016291,0.002475,-0.002898,0.009404,-0.008007,-0.502181,-0.016079,0.857274,-263.325835,-1.288734,68.510521
4.4366,0.000309,0.00741,-0.014765,0.002451,-0.002925,0.009392,-0.008137,-0.502537,-0.015896,0.858243,-263.324281,-1.283511,68.514108
4.4565,-6.6e-05,0.007387,-0.01603,0.002433,-0.002941,0.009376,-0.007751,-0.50255,-0.015389,0.858243,-263.324281,-1.283511,68.514108
4.4766,-0.000177,0.007367,-0.015549,0.002419,-0.002955,0.009364,-0.008165,-0.502641,-0.015732,0.853832,-263.322793,-1.295066,68.517699
4.4964,1.8e-05,0.007541,-0.01511,0.002423,-0.002949,0.009359,-0.008108,-0.502582,-0.015551,0.853832,-263.322793,-1.295066,68.517699
4.5166,7.1e-05,0.007387,-0.016557,0.002426,-0.002944,0.009355,-0.008108,-0.502582,-0.015551,0.853832,-263.322793,-1.295066,68.517699
4.5363,-0.000303,0.007291,-0.014873,0.002429,-0.00294,0.009352,-0.008274,-0.502668,-0.016166,0.85195,-263.321324,-1.298852,68.5213
4.5567,-0.000297,0.007132,-0.015544,0.002435,-0.002932,0.009351,-0.008103,-0.502676,-0.015589,0.85195,-263.321324,-1.298852,68.5213
4.5766,-0.000436,0.006643,-0.01438,0.00244,-0.002925,0.00935,-0.008148,-0.502901,-0.015246,0.851228,-263.31985,-1.297081,68.524895
4.5968,-0.000465,0.007326,-0.0161,0.002454,-0.002899,0.009334,-0.007799,-0.503274,-0.014441,0.851228,-263.31985,-1.297081,68.524895
4.6168,-5.6e-05,0.006785,-0.015479,0.002466,-0.002878,0.00932,-0.007799,-0.503274,-0.014441,0.851228,-263.31985,-1.297081,68.524895
4.6363,-0.000791,0.006917,-0.015599,0.002477,-0.00286,0.009309,-0.00785,-0.503278,-0.015088,0.851412,-263.318368,-1.295409,68.528485
4.6564,-0.00064,0.007146,-0.014163,0.002499,-0.002832,0.009316,-0.008207,-0.503187,-0.015253,0.851412,-263.318368,-1.295409,68.528485
4.6765,-0.000894,0.006947,-0.013746,0.002517,-0.002808,0.00932,-0.007785,-0.502895,-0.013867,0.85104,-263.316866,-1.288714,68.532041
4.6966,-0.000494,0.007287,-0.013885,0.00251,-0.002814,0.009286,-0.00789,-0.503,-0.013742,0.85104,-263.316866,-1.288714,68.532041
4.7169,-0.000602,0.006956,-0.013815,0.002504,-0.00282,0.009259,-0.00789,-0.503,-0.013742,0.85104,-263.316866,-1.288714,68.532041
4.7365,-0.000928,0.00682,-0.013402,0.002499,-0.002824,0.009237,-0.007544,-0.503115,-0.013424,0.853267,-263.315336,-1.282866,68.535585
4.7567,-0.000873,0.006711,-0.013381,0.002488,-0.002833,0.009208,-0.007621,-0.503136,-0.013371,0.853267,-263.315336,-1.282866,68.535585
4.7766,-0.001024,0.006326,-0.01309,0.00248,-0.002841,0.009185,-0.007618,-0.503335,-0.013085,0.845258,-263.313831,-1.28381,68.539113
4.7967,-0.000863,0.006753,-0.012535,0.002495,-0.002815,0.009162,-0.007689,-0.503609,-0.013075,0.845258,-263.313831,-1.28381,68.539113
4.8167,-0.000916,0.006351,-0.013884,0.002507,-0.002794,0.009143,-0.007689,-0.503609,-0.013075,0.845258,-263.313831,-1.28381,68.539113
4.8366,-0.00076,0.006697,-0.011186,0.002518,-0.002776,0.009127,-0.007894,-0.50372,-0.013498,0.840393,-263.312345,-1.285382,68.542634
4.8568,-0.000899,0.006546,-0.013403,0.002507,-0.002784,0.009088,-0.007303,-0.503552,-0.012518,0.840393,-263.312345,-1.285382,68.542634
4.8767,-0.000879,0.006437,-0.013069,0.002499,-0.00279,0.009057,-0.007655,-0.503497,-0.013113,0.838111,-263.31084,-1.27791,68.546121
4.8967,-0.000906,0.006609,-0.012198,0.002502,-0.002786,0.009056,-0.00755,-0.503522,-0.013058,0.838111,-263.31084,-1.27791,68.546121
4.9166,-0.001132,0.006301,-0.012303,0.002505,-0.002782,0.009054,-0.00755,-0.503522,-0.013058,0.838111,-263.31084,-1.27791,68.546121
4.9367,-0.001187,0.006524,-0.011182,0.002507,-0.002779,0.009053,-0.007304,-0.503778,-0.011924,0.831612,-263.309361,-1.279095,68.549586
4.9565,-0.001039,0.006098,-0.012009,0.002493,-0.002788,0.008976,-0.007125,-0.503657,-0.011582,0.831612,-263.309361,-1.279095,68.549586
4.9764,-0.001351,0.005888,-0.01161,0.002481,-0.002796,0.008916,-0.007084,-0.503955,-0.011721,0.831701,-263.307872,-1.277751,68.553058
4.9964,-0.001513,0.006302,-0.011311,0.002496,-0.002768,0.008876,-0.007251,-0.504071,-0.011605,0.831701,-263.307872,-1.277751,68.553058
5.0169,-0.00145,0.005661,-0.01101,0.002508,-0.002746,0.008844,-0.007251,-0.504071,-0.011605,0.831701,-263.307872,-1.277751,68.553058
5.037,-0.00138,0.005964,-0.009538,0.002519,-0.002727,0.008819,-0.006962,-0.504427,-0.010637,0.818112,-263.306424,-1.27836,68.556491
5.0567,-0.001365,0.005676,-0.011236,0.002505,-0.002725,0.008687,-0.006662,-0.504274,-0.010153,0.818112,-263.306424,-1.27836,68.556491
5.0769,-0.001478,0.006049,-0.010956,0.002494,-0.002724,0.008585,-0.007017,-0.504379,-0.010956,0.8125,-263.304961,-1.269787,68.559884
5.0963,-0.001352,0.00572,-0.010243,0.002492,-0.002728,0.008568,-0.007057,-0.503966,-0.010942,0.8125,-263.304961,-1.269787,68.559884
5.1171,-0.001597,0.005759,-0.009359,0.002491,-0.00273,0.008555,-0.007057,-0.503966,-0.010942,0.8125,-263.304961,-1.269787,68.559884
5.1364,-0.00185,0.005665,-0.009808,0.00249,-0.002733,0.008545,-0.006267,-0.504335,-0.008998,0.79032,-263.303554,-1.267425,68.563198
5.1566,-0.00156,0.005147,-0.011021,0.002474,-0.002735,0.008384,-0.006485,-0.504338,-0.009276,0.79032,-263.303554,-1.267425,68.563198
5.1763,-0.001495,0.005709,-0.009137,0.002461,-0.002737,0.008263,-0.007102,-0.50491,-0.010748,0.784577,-263.302147,-1.267315,68.566531
5.1964,-0.001728,0.005798,-0.010456,0.002436,-0.002754,0.008167,-0.006233,-0.50433,-0.009264,0.784577,-263.302147,-1.267315,68.566531
5.2165,-0.001663,0.005414,-0.010601,0.002415,-0.002768,0.008096,-0.006233,-0.50433,-0.009264,0.784577,-263.302147,-1.267315,68.566531
5.2364,-0.00198,0.00544,-0.008921,0.002398,-0.002781,0.008042,-0.006969,-0.504672,-0.010261,0.753552,-263.300819,-1.264525,68.569742
5.2566,-0.001942,0.005547,-0.009088,0.002427,-0.002738,0.00805,-0.00678,-0.504631,-0.009678,0.753552,-263.300819,-1.264525,68.569742
5.2763,-0.001596,0.004987,-0.009339,0.002451,-0.002703,0.008056,-0.006501,-0.50452,-0.008834,0.72652,-263.299549,-1.268601,68.572932
5.2962,-0.001827,0.005041,-0.008981,0.002465,-0.002668,0.008022,-0.006368,-0.504955,-0.009283,0.72652,-263.299549,-1.268601,68.572932
5.3167,-0.002274,0.005297,-0.010009,0.002477,-0.002639,0.007996,-0.006368,-0.504955,-0.009283,0.72652,-263.299549,-1.268601,68.572932
5.3365,-0.001802,0.004865,-0.008418,0.002487,-0.002615,0.007976,-0.007278,-0.504791,-0.009673,0.735305,-263.298231,-1.259727,68.576126
5.3565,-0.002284,0.004978,-0.008603,0.002514,-0.002575,0.007942,-0.006781,-0.504937,-0.00912,0.735305,-263.298231,-1.259727,68.576126
5.3767,-0.002306,0.004632,-0.008866,0.002537,-0.002542,0.007916,-0.006593,-0.505087,-0.008349,0.736765,-263.29689,-1.250108,68.579277
5.3969,-0.002098,0.00511,-0.008236,0.002574,-0.002476,0.007864,-0.006804,-0.505329,-0.008809,0.736765,-263.29689,-1.250108,68.579277
5.4167,-0.002212,0.004931,-0.008745,0.002605,-0.002423,0.007824,-0.006804,-0.505329,-0.008809,0.736765,-263.29689,-1.250108,68.579277
5.4365,-0.002463,0.004907,-0.008024,0.002631,-0.002379,0.007793,-0.006567,-0.505157,-0.008414,0.734956,-263.295524,-1.23954,68.582392
5.4565,-0.002441,0.004469,-0.007895,0.002632,-0.002373,0.007686,-0.00655,-0.505137,-0.008217,0.734956,-263.295524,-1.23954,68.582392
5.4762,-0.002209,0.005179,-0.007193,0.002633,-0.002368,0.007605,-0.006385,-0.505591,-0.007649,0.735399,-263.294118,-1.217651,68.585408
5.497,-0.002197,0.004622,-0.006858,0.002586,-0.00242,0.007376,-0.005918,-0.504882,-0.007221,0.735399,-263.294118,-1.217651,68.585408
5.5167,-0.002075,0.004913,-0.008094,0.002548,-0.002463,0.007208,-0.005918,-0.504882,-0.007221,0.735399,-263.294118,-1.217651,68.585408
5.5369,-0.00229,0.004485,-0.006688,0.002516,-0.002499,0.007087,-0.006095,-0.505169,-0.007779,0.712986,-263.292736,-1.211658,68.588382
5.5569,-0.002775,0.004542,-0.007352,0.002512,-0.002491,0.00702,-0.005921,-0.505318,-0.007295,0.712986,-263.292736,-1.211658,68.588382
5.5768,-0.00209,0.004379,-0.005878,0.002508,-0.002484,0.006972,-0.006454,-0.505516,-0.00715,0.637922,-263.291626,-1.21774,68.590978
5.5968,-0.002474,0.004324,-0.006689,0.002477,-0.002487,0.006675,-0.0052,-0.505608,-0.005976,0.637922,-263.291626,-1.21774,68.590978
5.6165,-0.002596,0.004575,-0.00554,0.002451,-0.002492,0.006463,-0.0052,-0.505608,-0.005976,0.637922,-263.291626,-1.21774,68.590978
5.6366,-0.002491,0.004684,-0.006967,0.002429,-0.002497,0.006313,-0.005318,-0.505521,-0.00525,0.615679,-263.290409,-1.214681,68.593828
5.6565,-0.002405,0.004085,-0.005083,0.002432,-0.002496,0.00619,-0.0056,-0.505445,-0.005911,0.615679,-263.290409,-1.214681,68.593828
5.6765,-0.002619,0.004226,-0.006756,0.002433,-0.002496,0.006103,-0.004933,-0.505974,-0.004914,0.540827,-263.289479,-1.20553,68.5961
5.6972,-0.002771,0.004018,-0.005441,0.002469,-0.002443,0.006181,-0.005963,-0.505784,-0.006587,0.540827,-263.289479,-1.20553,68.5961
5.7167,-0.002539,0.004208,-0.005737,0.002498,-0.002399,0.006239,-0.005963,-0.505784,-0.006587,0.540827,-263.289479,-1.20553,68.5961
5.7364,-0.002185,0.004047,-0.004812,0.002522,-0.002363,0.006281,-0.005372,-0.50588,-0.005503,0.468446,-263.288478,-1.198111,68.598553
5.7565,-0.002463,0.004083,-0.004965,0.002499,-0.002364,0.006001,-0.005063,-0.505918,-0.005195,0.468446,-263.288478,-1.198111,68.598553
5.7765,-0.002454,0.004023,-0.00454,0.002479,-0.002367,0.005802,-0.00492,-0.505982,-0.004777,0.52868,-263.287377,-1.184374,68.601075
5.797,-0.002676,0.00391,-0.006287,0.002449,-0.002376,0.005484,-0.004779,-0.505976,-0.004552,0.52868,-263.287377,-1.184374,68.601075
5.8167,-0.002276,0.00391,-0.003514,0.002424,-0.002386,0.005261,-0.004779,-0.505976,-0.004552,0.52868,-263.287377,-1.184374,68.601075
5.8366,-0.002434,0.004113,-0.007147,0.002404,-0.002396,0.005106,-0.003977,-0.506174,-0.003298,0.453558,-263.286403,-1.173606,68.603351
5.8566,-0.002354,0.003283,-0.005353,0.002392,-0.002394,0.005082,-0.004832,-0.506061,-0.004857,0.453558,-263.286403,-1.173606,68.603351
5.8766,-0.002442,0.003937,-0.003864,0.002381,-0.002393,0.005067,-0.005035,-0.506758,-0.005243,0.378561,-263.285744,-1.159739,68.604929
5.8966,-0.002456,0.003898,-0.00543,0.002352,-0.0024,0.004802,-0.004464,-0.506123,-0.003978,0.378561,-263.285744,-1.159739,68.604929
5.9167,-0.002552,0.003752,-0.005777,0.002328,-0.002408,0.004617,-0.004464,-0.506123,-0.003978,0.378561,-263.285744,-1.159739,68.604929
5.9367,-0.002511,0.00379,-0.003745,0.002309,-0.002417,0.004489,-0.005412,-0.506327,-0.005591,0.30359,-263.284876,-1.161394,68.60702
5.9566,-0.002162,0.00368,-0.005472,0.002337,-0.002378,0.004635,-0.004995,-0.506288,-0.004811,0.30359,-263.284876,-1.161394,68.60702
5.9766,-0.002472,0.003709,-0.004474,0.00236,-0.002346,0.004741,-0.004906,-0.506361,-0.005376,0.228523,-263.284272,-1.149945,68.608486
5.9966,-0.002471,0.003801,-0.004071,0.002364,-0.002331,0.004745,-0.004764,-0.506295,-0.004546,0.228523,-263.284272,-1.149945,68.608486
6.0166,-0.002472,0.003573,-0.004774,0.002367,-0.002319,0.004747,-0.004764,-0.506295,-0.004546,0.228523,-263.284272,-1.149945,68.608486
6.037,-0.002775,0.003626,-0.002119,0.002369,-0.002309,0.004748,-0.004809,-0.50652,-0.004576,0.228813,-263.283299,-1.147682,68.610793
6.0567,-0.002283,0.00347,-0.004262,0.002356,-0.00229,0.004435,-0.004396,-0.50647,-0.003519,0.228813,-263.283299,-1.147682,68.610793
6.0765,-0.002303,0.003613,-0.003696,0.002346,-0.002277,0.004215,-0.004382,-0.506599,-0.004113,0.244239,-263.282332,-1.144018,68.61306
6.0967,-0.002492,0.003124,-0.004245,0.002312,-0.00229,0.004124,-0.004202,-0.506407,-0.003726,0.244239,-263.282332,-1.144018,68.61306
6.1166,-0.002429,0.003525,-0.002836,0.002285,-0.002301,0.004061,-0.004202,-0.506407,-0.003726,0.244239,-263.282332,-1.144018,68.61306
6.1368,-0.002528,0.003501,-0.004613,0.002263,-0.002311,0.004017,-0.003798,-0.506547,-0.002693,0.169673,-263.281581,-1.120389,68.614771
6.157,-0.002523,0.003415,-0.003009,0.002257,-0.002297,0.003905,-0.004231,-0.506534,-0.00346,0.169673,-263.281581,-1.120389,68.614771
6.1765,-0.002547,0.002865,-0.003543,0.002252,-0.002287,0.003825,-0.003998,-0.506643,-0.002901,0.094586,-263.280824,-1.127408,68.616533
6.1967,-0.00252,0.003379,-0.002779,0.002286,-0.002188,0.003795,-0.004323,-0.507095,-0.003487,0.094586,-263.280824,-1.127408,68.616533
6.2169,-0.002644,0.003338,-0.002315,0.002313,-0.002109,0.003774,-0.004323,-0.507095,-0.003487,0.094586,-263.280824,-1.127408,68.616533
6.2368,-0.002273,0.002927,-0.004037,0.002335,-0.002046,0.003757,-0.003739,-0.506748,-0.002169,0.021762,-263.280001,-1.117458,68.618411
6.2571,-0.002432,0.002946,-0.004157,0.002309,-0.002042,0.003531,-0.003969,-0.506888,-0.002908,0.021762,-263.280001,-1.117458,68.618411
6.2767,-0.002696,0.002864,-0.003978,0.002288,-0.002041,0.003372,-0.004488,-0.507107,-0.004054,0.096431,-263.279185,-1.077233,68.620124
6.2964,-0.002229,0.003118,-0.003241,0.002343,-0.001971,0.003616,-0.0047,-0.507132,-0.003979,0.096431,-263.279185,-1.077233,68.620124
6.3169,-0.002421,0.002947,-0.005388,0.002389,-0.001915,0.003791,-0.0047,-0.507132,-0.003979,0.096431,-263.279185,-1.077233,68.620124
6.3363,-0.002486,0.00306,-0.003334,0.002426,-0.001868,0.003916,-0.005084,-0.507121,-0.005262,0.02144,-263.278378,-1.061738,68.621779
6.3567,-0.002254,0.00288,-0.001417,0.002447,-0.001845,0.004128,-0.004708,-0.507055,-0.004461,0.02144,-263.278378,-1.061738,68.621779
6.3764,-0.002611,0.002905,-0.003719,0.002465,-0.001824,0.004282,-0.002933,-0.507155,-0.001352,0.096538,-263.277826,-1.053098,68.62287
6.3968,-0.002376,0.003063,-0.00118,0.002463,-0.001811,0.004119,-0.004379,-0.507098,-0.003525,0.096538,-263.277826,-1.053098,68.62287
6.417,-0.002202,0.002898,-0.002845,0.002462,-0.001801,0.004001,-0.004379,-0.507098,-0.003525,0.096538,-263.277826,-1.053098,68.62287
6.4365,-0.002532,0.002651,-0.002853,0.002461,-0.001794,0.003917,-0.003603,-0.50714,-0.002765,0.171732,-263.277333,-1.063933,68.623837
6.4564,-0.002384,0.002937,-0.002591,0.002402,-0.001794,0.003595,-0.003754,-0.507229,-0.002792,0.171732,-263.277333,-1.063933,68.623837
6.4762,-0.002451,0.00254,-0.003616,0.002355,-0.001795,0.003368,-0.003633,-0.507114,-0.002477,0.238633,-263.2764,-1.039312,68.625627
6.4964,-0.002397,0.002926,-0.001956,0.002376,-0.001745,0.003468,-0.004233,-0.50743,-0.00351,0.238633,-263.2764,-1.039312,68.625627
6.5164,-0.002099,0.002947,-0.004348,0.002392,-0.001705,0.00354,-0.004233,-0.50743,-0.00351,0.238633,-263.2764,-1.039312,68.625627
6.5365,-0.002688,0.002789,-0.002804,0.002405,-0.001672,0.003591,-0.004242,-0.507104,-0.004237,0.16367,-263.275675,-1.022065,68.627008
6.5567,-0.002639,0.00264,-0.003394,0.002396,-0.001697,0.003657,-0.004182,-0.507154,-0.003635,0.16367,-263.275675,-1.022065,68.627008
6.5763,-0.002534,0.002804,-0.004235,0.002388,-0.001716,0.003704,-0.004296,-0.507408,-0.003284,0.213468,-263.274728,-1.014164,68.628758
6.5967,-0.00237,0.003039,-0.002481,0.002422,-0.0017,0.003889,-0.004656,-0.507212,-0.004149,0.213468,-263.274728,-1.014164,68.628758
6.6168,-0.002565,0.002819,-0.001927,0.00245,-0.001686,0.004022,-0.004656,-0.507212,-0.004149,0.213468,-263.274728,-1.014164,68.628758
6.6366,-0.002194,0.002407,-0.001523,0.002473,-0.001675,0.004118,-0.003449,-0.507252,-0.001773,0.224829,-263.273757,-1.030165,68.630599
6.6569,-0.002244,0.002693,-0.002909,0.002338,-0.001686,0.003219,-0.003244,-0.507398,-0.001654,0.224829,-263.273757,-1.030165,68.630599
6.6766,-0.00221,0.002417,-0.001961,0.002237,-0.001699,0.002595,-0.003661,-0.507351,-0.002799,0.299664,-263.272875,-1.037453,68.632241
6.697,-0.002602,0.002709,-0.00126,0.002172,-0.001685,0.002345,-0.003248,-0.507563,-0.002032,0.299664,-263.272875,-1.037453,68.632241
6.7171,-0.002315,0.002346,-0.001208,0.002123,-0.001676,0.002176,-0.003248,-0.507563,-0.002032,0.299664,-263.272875,-1.037453,68.632241
6.7368,-0.002571,0.002394,-0.000986,0.002084,-0.001671,0.002062,-0.002919,-0.507661,-0.001191,0.224669,-263.272762,-0.972767,68.632441
6.7567,-0.002206,0.002278,-0.003045,0.002012,-0.00166,0.001536,-0.002981,-0.507639,-0.001106,0.224669,-263.272762,-0.972767,68.632441
6.7767,-0.002066,0.00271,-0.002069,0.001957,-0.001653,0.001171,-0.003755,-0.507722,-0.00304,0.149673,-263.272716,-0.952689,68.632519
6.7969,-0.001845,0.002748,-0.002295,0.001932,-0.00171,0.001398,-0.003175,-0.507327,-0.002152,0.149673,-263.272716,-0.952689,68.632519
6.8167,-0.002693,0.002433,-0.001692,0.00191,-0.001755,0.001564,-0.003175,-0.507327,-0.002152,0.149673,-263.272716,-0.952689,68.632519
6.8367,-0.002397,0.00287,-0.003345,0.001893,-0.001791,0.001686,-0.003556,-0.507567,-0.001692,0.074552,-263.272714,-0.880078,68.632522
6.8565,-0.002386,0.002586,-0.00196,0.001958,-0.001778,0.001872,-0.003779,-0.507387,-0.002367,0.074552,-263.272714,-0.880078,68.632522
6.8765,-0.002144,0.002164,-0.002623,0.00201,-0.001767,0.002005,-0.003384,-0.507414,-0.001958,-0.000328,-263.272692,-0.954958,68.632558
6.8968,-0.002045,0.002702,-0.002005,0.002031,-0.00171,0.002181,-0.003473,-0.507797,-0.002563,-0.000328,-263.272692,-0.954958,68.632558
6.9168,-0.002273,0.002354,-0.001907,0.002048,-0.001664,0.002306,-0.003473,-0.507797,-0.002563,-0.000328,-263.272692,-0.954958,68.632558
6.9368,-0.00215,0.002619,-0.000703,0.002062,-0.001627,0.002395,-0.003218,-0.507666,-0.001875,-0.075326,-263.272424,-0.979194,68.633023
6.957,-0.002205,0.002141,-0.002473,0.00198,-0.001659,0.00193,-0.002925,-0.507552,-0.001394,-0.075326,-263.272424,-0.979194,68.633023
6.9764,-0.00231,0.002064,-0.002231,0.001918,-0.001687,0.001604,-0.0034,-0.507909,-0.002397,-0.079605,-263.271597,-0.982396,68.634508
6.9964,-0.002216,0.002316,-0.002315,0.001963,-0.00162,0.001771,-0.00344,-0.507935,-0.002242,-0.079605,-263.271597,-0.982396,68.634508
7.0168,-0.00223,0.002341,-0.000267,0.001999,-0.001566,0.001892,-0.00344,-0.507935,-0.002242,-0.079605,-263.271597,-0.982396,68.634508
7.0365,-0.002431,0.002201,-0.001743,0.002028,-0.001523,0.001977,-0.002342,-0.507678,-0.000243,-0.154607,-263.271359,-0.947255,68.63489
7.0565,-0.00228,0.002516,-0.001125,0.001931,-0.001551,0.001357,-0.002739,-0.507729,-0.000853,-0.154607,-263.271359,-0.947255,68.63489
7.0765,-0.002179,0.002031,-0.001169,0.001858,-0.001574,0.000921,-0.002789,-0.507532,-0.001062,-0.154347,-263.270541,-0.932101,68.636246
7.0965,-0.002211,0.002579,-0.002356,0.001821,-0.001556,0.000783,-0.002774,-0.507933,-0.001157,-0.154347,-263.270541,-0.932101,68.636246
7.117,-0.002121,0.002329,-0.002496,0.001792,-0.001542,0.000688,-0.002774,-0.507933,-0.001157,-0.154347,-263.270541,-0.932101,68.636246
7.1368,-0.002017,0.002109,-0.002563,0.00177,-0.001533,0.000622,-0.003384,-0.507677,-0.002489,-0.22941,-263.27043,-0.857039,68.636394
7.1569,-0.002213,0.002793,-0.002124,0.001828,-0.001542,0.001158,-0.003359,-0.507762,-0.002518,-0.22941,-263.27043,-0.857039,68.636394
7.177,-0.002114,0.002345,-0.001941,0.001874,-0.001547,0.001547,-0.003288,-0.507211,-0.00212,-0.304351,-263.270315,-0.824102,68.636537
7.1964,-0.00214,0.002512,-0.001329,0.001876,-0.001583,0.001603,-0.003119,-0.507618,-0.001956,-0.304351,-263.270315,-0.824102,68.636537
7.2166,-0.001854,0.002162,-0.000709,0.001878,-0.001611,0.001643,-0.003119,-0.507618,-0.001956,-0.304351,-263.270315,-0.824102,68.636537
7.2367,-0.001879,0.002327,-0.002534,0.001879,-0.001633,0.001672,-0.002148,-0.507892,-0.000656,-0.310731,-263.269649,-0.899307,68.637591
7.2566,-0.001889,0.002157,-0.00286,0.001799,-0.001637,0.001448,-0.002562,-0.507807,-0.001425,-0.310731,-263.269649,-0.899307,68.637591
7.2767,-0.001812,0.002162,-0.0023,0.001737,-0.001641,0.001291,-0.003291,-0.50789,-0.00281,-0.315026,-263.268897,-0.954768,68.638828
7.2969,-0.001645,0.001935,-0.00222,0.001759,-0.001626,0.001578,-0.003008,-0.507844,-0.002341,-0.315026,-263.268897,-0.954768,68.638828
7.3164,-0.002256,0.002026,-0.001949,0.001776,-0.001613,0.001783,-0.003008,-0.507844,-0.002341,-0.315026,-263.268897,-0.954768,68.638828
7.3368,-0.00145,0.002036,-0.001143,0.00179,-0.001602,0.00193,-0.003196,-0.508021,-0.001907,-0.389985,-263.268336,-0.950237,68.639694
7.3565,-0.002039,0.002247,-0.001375,0.001757,-0.001568,0.001717,-0.002721,-0.508004,-0.001594,-0.389985,-263.268336,-0.950237,68.639694
7.3766,-0.002138,0.001728,-6e-05,0.001731,-0.001543,0.001568,-0.002704,-0.507787,-0.001338,-0.315085,-263.267862,-0.998781,68.640548
7.3965,-0.001826,0.00191,-0.00233,0.001614,-0.001485,0.000689,-0.002214,-0.508231,-0.000171,-0.315085,-263.267862,-0.998781,68.640548
7.4166,-0.001427,0.002027,0.000162,0.00153,-0.001443,6.8e-05,-0.002214,-0.508231,-0.000171,-0.315085,-263.267862,-0.998781,68.640548
7.4366,-0.001909,0.00191,-0.000584,0.001468,-0.001413,-0.000369,-0.001274,-0.508036,0.000227,-0.32601,-263.267145,-0.965123,68.641739
7.4565,-0.002086,0.002109,-0.001672,0.001283,-0.001438,-0.000734,-0.001647,-0.508066,-9.8e-05,-0.32601,-263.267145,-0.965123,68.641739
7.4768,-0.001985,0.001956,-0.00153,0.001142,-0.00146,-0.000985,-0.002939,-0.50789,-0.001672,-0.400933,-263.267143,-0.8902,68.641742
7.4964,-0.002102,0.002154,-0.000639,0.001257,-0.001465,-0.000386,-0.002781,-0.508029,-0.001542,-0.400933,-263.267143,-0.8902,68.641742
7.5164,-0.001798,0.001644,-0.001866,0.001347,-0.001466,4.7e-05,-0.002781,-0.508029,-0.001542,-0.400933,-263.267143,-0.8902,68.641742
7.5364,-0.002284,0.001615,-0.001161,0.001418,-0.001465,0.000359,-0.00275,-0.508355,-0.001866,-0.475979,-263.267142,-0.815154,68.641742
7.5565,-0.002434,0.001767,-0.002539,0.001493,-0.001388,0.000609,-0.002801,-0.508367,-0.001581,-0.475979,-263.267142,-0.815154,68.641742
7.5764,-0.00194,0.001989,-0.001811,0.001553,-0.001326,0.000788,-0.003711,-0.508247,-0.002532,-0.550951,-263.266869,-0.870969,68.642061
7.5963,-0.001945,0.001614,-0.000539,0.001613,-0.001343,0.001037,-0.002938,-0.508032,-0.001875,-0.550951,-263.266869,-0.870969,68.642061
7.6163,-0.001693,0.00199,-0.00219,0.00166,-0.001355,0.001216,-0.002938,-0.508032,-0.001875,-0.550951,-263.266869,-0.870969,68.642061
7.6366,-0.001715,0.0017,-0.001359,0.001697,-0.001363,0.001344,-0.002748,-0.508062,-0.002159,-0.498153,-263.266194,-0.860956,68.642971
7.6563,-0.001707,0.001855,-0.00118,0.0,0.0,0.0,-0.002603,-0.508165,-0.001831,-0.498153,-263.266194,-0.860956,68.642971
