mach0312/omni-docking-bench/src/icros_test_setup/results/MPPI_sample/timeseries/trial_086.csv
t,x,y,yaw,vx,vy,wz,bl_x,bl_y,bl_yaw,front_steering_joint,front_wheel_joint,rear_steering_joint,rear_wheel_joint
0.0,-0.008752,0.020166,0.051904,0.006592,0.000394,0.004005,0.016379,-0.489332,0.050775,0.406812,-260.8927,-0.301744,66.165991
0.0004,-0.008669,0.019866,0.05218,0.006205,0.000371,0.003769,0.017589,-0.489284,0.052057,0.406812,-260.889245,-0.301744,66.169313
0.0007,-0.008476,0.020147,0.053152,0.005773,0.000345,0.003507,0.017589,-0.489284,0.052057,0.406812,-260.886087,-0.301744,66.172351
0.0009,-0.008276,0.020324,0.053284,0.005298,0.000317,0.003219,0.017622,-0.489213,0.052367,0.406812,-260.883216,-0.301744,66.175113
0.0011,-0.008345,0.02026,0.052778,0.004781,0.000286,0.002905,0.017622,-0.489213,0.052367,0.406812,-260.880908,-0.301744,66.177332
0.0015,-0.008336,0.020422,0.052135,0.004227,0.000253,0.002568,0.017971,-0.489198,0.053042,0.406812,-260.879067,-0.301744,66.179103
0.0017,-0.008231,0.019951,0.054981,0.003629,0.000217,0.002205,0.018146,-0.489297,0.053202,0.406812,-260.879067,-0.301744,66.179103
0.0019,-0.008179,0.019921,0.053282,0.002991,0.000179,0.001817,0.018146,-0.489297,0.053202,0.406812,-260.879067,-0.301744,66.179103
0.0021,-0.007942,0.020375,0.053328,0.002307,0.000138,0.001401,0.018146,-0.489297,0.053202,0.406812,-260.879067,-0.301744,66.179103
0.0161,-0.008181,0.020115,0.054381,0.0,0.0,0.0,0.019074,-0.489346,0.053446,0.406812,-260.879067,-0.301744,66.179103
0.036,-0.008136,0.020292,0.05383,0.0,0.0,0.0,0.019635,-0.489121,0.054439,0.406812,-260.878062,-0.301744,66.180069
0.0559,-0.007554,0.019748,0.052108,0.0,0.0,0.0,0.019512,-0.489058,0.054199,0.406812,-260.878062,-0.301744,66.180069
0.076,-0.008332,0.019813,0.052581,0.0,0.0,0.0,0.019009,-0.489559,0.052108,0.406812,-260.878062,-0.301744,66.180069
0.0959,-0.00786,0.020236,0.054499,0.0,0.0,0.0,0.018526,-0.48949,0.052533,0.406812,-260.878062,-0.301744,66.180069
0.1164,-0.007785,0.020245,0.051463,-0.004405,-0.003204,-0.009091,0.018526,-0.48949,0.052533,0.406812,-260.878062,-0.301744,66.180069
0.1361,-0.00771,0.020393,0.053992,-0.004796,-0.003473,-0.00984,0.018449,-0.48908,0.051463,0.406812,-260.878062,-0.301744,66.180069
0.1559,-0.008221,0.020268,0.05243,-0.005127,-0.003697,-0.010476,0.018994,-0.488993,0.052472,0.406812,-260.878062,-0.301744,66.180069
0.1756,-0.008024,0.019948,0.054113,-0.005408,-0.003882,-0.010995,0.018506,-0.489031,0.05243,0.481812,-260.878063,-0.376745,66.180069
0.196,-0.007651,0.02004,0.052458,-0.005655,-0.004021,-0.011444,0.019465,-0.489281,0.05396,0.481812,-260.878063,-0.376745,66.180069
0.2158,-0.008114,0.02007,0.053523,-0.005864,-0.004136,-0.011809,0.019465,-0.489281,0.05396,0.481812,-260.878063,-0.376745,66.180069
0.2362,-0.007976,0.020172,0.052571,-0.006041,-0.00423,-0.012106,0.019169,-0.4892,0.053523,0.55681,-260.878069,-0.451743,66.180066
0.2558,-0.007853,0.020288,0.052087,-0.006181,-0.004317,-0.012376,0.019028,-0.489169,0.053137,0.55681,-260.878069,-0.451743,66.180066
0.2757,-0.007975,0.019913,0.053465,-0.006299,-0.004389,-0.012595,0.018697,-0.489021,0.052084,0.631808,-260.878112,-0.482493,66.180044
0.2962,-0.007971,0.020376,0.05341,-0.006403,-0.004442,-0.012801,0.019227,-0.489328,0.053343,0.631808,-260.878112,-0.482493,66.180044
0.316,-0.007787,0.020259,0.051048,-0.00649,-0.004486,-0.01297,0.019227,-0.489328,0.053343,0.631808,-260.878112,-0.482493,66.180044
0.3359,-0.007847,0.020417,0.053688,-0.006564,-0.004521,-0.013106,0.018226,-0.489081,0.051035,0.706864,-260.878279,-0.483,66.179956
0.3557,-0.007815,0.020334,0.053245,-0.006614,-0.004565,-0.013246,0.018758,-0.488985,0.052127,0.706864,-260.878279,-0.483,66.179956
0.3758,-0.008112,0.020165,0.05467,-0.006656,-0.004601,-0.013359,0.019304,-0.488954,0.053213,0.781911,-260.878799,-0.487914,66.179683
0.3959,-0.007792,0.020387,0.053168,-0.006705,-0.004611,-0.013509,0.019715,-0.489063,0.054539,0.781911,-260.878799,-0.487914,66.179683
0.4159,-0.00785,0.02038,0.052851,-0.006747,-0.00462,-0.013631,0.019715,-0.489063,0.054539,0.781911,-260.878799,-0.487914,66.179683
0.4361,-0.008073,0.020226,0.054164,-0.006782,-0.004626,-0.013731,0.019021,-0.488945,0.052745,0.856808,-260.880031,-0.490961,66.179037
0.4559,-0.008258,0.020283,0.054673,-0.006804,-0.004641,-0.013813,0.019227,-0.488982,0.05332,0.856808,-260.880031,-0.490961,66.179037
0.4757,-0.008074,0.020038,0.053536,-0.006822,-0.004654,-0.01388,0.019512,-0.489013,0.054506,0.93196,-260.882453,-0.506277,66.177757
0.496,-0.007957,0.019711,0.053388,-0.00684,-0.00466,-0.013934,0.019237,-0.489215,0.053612,0.93196,-260.882453,-0.506277,66.177757
0.5161,-0.008195,0.019713,0.051899,-0.006856,-0.004665,-0.013979,0.019237,-0.489215,0.053612,0.93196,-260.882453,-0.506277,66.177757
0.5357,-0.008197,0.020022,0.05324,-0.006869,-0.004668,-0.014015,0.018064,-0.489731,0.051527,1.006907,-260.88638,-0.51082,66.175682
0.5557,-0.008093,0.019897,0.051992,-0.006871,-0.004682,-0.014135,0.018396,-0.489554,0.052175,1.006907,-260.88638,-0.51082,66.175682
0.5756,-0.007678,0.019582,0.052865,-0.006873,-0.004693,-0.014234,0.018221,-0.489556,0.051596,1.081905,-260.891682,-0.515455,66.172873
0.5959,-0.007819,0.019503,0.052136,-0.006887,-0.004687,-0.014368,0.019165,-0.489699,0.052729,1.081905,-260.891682,-0.515455,66.172873
0.6155,-0.007786,0.01967,0.050635,-0.006899,-0.004681,-0.014479,0.019165,-0.489699,0.052729,1.081905,-260.891682,-0.515455,66.172873
0.6358,-0.008142,0.019515,0.050252,-0.00691,-0.004676,-0.01457,0.017751,-0.489886,0.050043,1.096466,-260.897676,-0.5271,66.169706
0.6559,-0.008157,0.019608,0.051135,-0.006899,-0.004696,-0.014702,0.017606,-0.489891,0.05006,1.096466,-260.897676,-0.5271,66.169706
0.6757,-0.008111,0.019332,0.05106,-0.00689,-0.004714,-0.014811,0.017699,-0.489884,0.050674,1.099952,-260.903727,-0.548605,66.166489
0.696,-0.007745,0.018963,0.049257,-0.006888,-0.004721,-0.014952,0.017889,-0.490001,0.051005,1.099952,-260.903727,-0.548605,66.166489
0.716,-0.007838,0.019595,0.050327,-0.006886,-0.004727,-0.015069,0.017889,-0.490001,0.051005,1.099952,-260.903727,-0.548605,66.166489
0.7365,-0.007728,0.018506,0.048915,-0.006885,-0.004732,-0.015166,0.017541,-0.48997,0.04971,1.106579,-260.909849,-0.561297,66.163251
0.7559,-0.00786,0.018751,0.049811,-0.00688,-0.00474,-0.015293,0.017376,-0.490359,0.049322,1.106579,-260.909849,-0.561297,66.163251
0.776,-0.007894,0.018824,0.048739,-0.006877,-0.004747,-0.015399,0.017323,-0.490777,0.049331,1.113588,-260.916049,-0.582054,66.159975
0.7959,-0.008138,0.018708,0.04825,-0.00687,-0.004757,-0.015526,0.016975,-0.490597,0.048766,1.113588,-260.916049,-0.582054,66.159975
0.8165,-0.007974,0.01877,0.04826,-0.006865,-0.004766,-0.015633,0.016975,-0.490597,0.048766,1.113588,-260.916049,-0.582054,66.159975
0.8358,-0.008114,0.018292,0.048192,-0.00686,-0.004773,-0.015722,0.016351,-0.490849,0.047615,1.118503,-260.922314,-0.595338,66.156667
0.856,-0.007684,0.01878,0.049576,-0.006851,-0.004784,-0.01583,0.016361,-0.490979,0.047773,1.118503,-260.922314,-0.595338,66.156667
0.8756,-0.008055,0.018447,0.048003,-0.006844,-0.004794,-0.015922,0.01738,-0.490756,0.049077,1.125519,-260.928647,-0.61341,66.153332
0.896,-0.007657,0.018397,0.046641,-0.006839,-0.0048,-0.016027,0.016494,-0.490955,0.048075,1.125519,-260.928647,-0.61341,66.153332
0.9163,-0.007629,0.018329,0.048462,-0.006836,-0.004805,-0.016116,0.016494,-0.490955,0.048075,1.125519,-260.928647,-0.61341,66.153332
0.9362,-0.007569,0.017705,0.047591,-0.006833,-0.00481,-0.01619,0.016798,-0.491288,0.04779,1.130296,-260.935053,-0.624249,66.149966
0.9556,-0.007356,0.018179,0.045843,-0.006842,-0.004799,-0.016276,0.016726,-0.49148,0.047638,1.130296,-260.935053,-0.624249,66.149966
0.9758,-0.00801,0.017918,0.046173,-0.00685,-0.004791,-0.016349,0.015806,-0.491448,0.045329,1.135631,-260.941512,-0.639185,66.146573
0.9958,-0.007433,0.017596,0.045543,-0.006837,-0.004807,-0.016427,0.015544,-0.491539,0.046074,1.135631,-260.941512,-0.639185,66.146573
1.016,-0.00769,0.017739,0.045722,-0.006826,-0.004821,-0.016494,0.015544,-0.491539,0.046074,1.135631,-260.941512,-0.639185,66.146573
1.0357,-0.007535,0.017349,0.04598,-0.006817,-0.004832,-0.01655,0.015343,-0.49194,0.04504,1.136706,-260.948015,-0.648801,66.14314
1.0559,-0.007396,0.017523,0.043695,-0.006816,-0.004833,-0.016609,0.015542,-0.492035,0.045346,1.136706,-260.948015,-0.648801,66.14314
1.0755,-0.007461,0.017168,0.043579,-0.006815,-0.004834,-0.016659,0.014671,-0.492153,0.04317,1.142744,-260.954571,-0.658668,66.139699
1.0958,-0.007105,0.017067,0.043559,-0.006804,-0.004847,-0.016708,0.014739,-0.492339,0.043516,1.142744,-260.954571,-0.658668,66.139699
1.1162,-0.008186,0.017289,0.044779,-0.006794,-0.004859,-0.016749,0.014739,-0.492339,0.043516,1.142744,-260.954571,-0.658668,66.139699
1.1361,-0.007132,0.017135,0.044233,-0.006786,-0.004868,-0.016784,0.014368,-0.492415,0.044081,1.144537,-260.96116,-0.664623,66.136238
1.1562,-0.007321,0.016948,0.044734,-0.006781,-0.004873,-0.016816,0.014764,-0.49242,0.044063,1.144537,-260.96116,-0.664623,66.136238
1.1756,-0.007093,0.017313,0.042579,-0.006776,-0.004878,-0.016844,0.015278,-0.492706,0.044201,1.148897,-260.967784,-0.670579,66.132776
1.1965,-0.007578,0.016757,0.044367,-0.006768,-0.004887,-0.016871,0.014669,-0.492281,0.042709,1.148897,-260.967784,-0.670579,66.132776
1.2161,-0.006986,0.01691,0.041139,-0.00676,-0.004895,-0.016894,0.014669,-0.492281,0.042709,1.148897,-260.967784,-0.670579,66.132776
1.2359,-0.006872,0.01671,0.042055,-0.006754,-0.004902,-0.016913,0.013712,-0.492875,0.040431,1.15058,-260.974425,-0.673698,66.129309
1.2558,-0.007343,0.016653,0.043938,-0.006745,-0.004911,-0.016933,0.014023,-0.492885,0.040998,1.15058,-260.974425,-0.673698,66.129309
1.2756,-0.007367,0.01613,0.04164,-0.006736,-0.004919,-0.016949,0.014849,-0.493021,0.043398,1.153427,-260.981088,-0.676963,66.125844
1.2959,-0.007417,0.016211,0.040744,-0.006737,-0.004918,-0.016966,0.013945,-0.493398,0.041776,1.153427,-260.981088,-0.676963,66.125844
1.3158,-0.007154,0.016071,0.039404,-0.006738,-0.004916,-0.01698,0.013945,-0.493398,0.041776,1.153427,-260.981088,-0.676963,66.125844
1.3358,-0.006793,0.016086,0.0391,-0.006738,-0.004914,-0.016992,0.012663,-0.49375,0.038694,1.155361,-260.987773,-0.678648,66.122378
1.356,-0.007162,0.016184,0.041606,-0.006718,-0.004936,-0.017005,0.012828,-0.493683,0.038778,1.155361,-260.987773,-0.678648,66.122378
1.3756,-0.006966,0.015679,0.038643,-0.0067,-0.004953,-0.017016,0.013842,-0.49354,0.041065,1.155767,-260.994447,-0.681298,66.118914
1.3957,-0.006595,0.015909,0.03803,-0.006689,-0.004964,-0.017028,0.012826,-0.493913,0.038833,1.155767,-260.994447,-0.681298,66.118914
1.4159,-0.006961,0.015681,0.039456,-0.006679,-0.004973,-0.017037,0.012826,-0.493913,0.038833,1.155767,-260.994447,-0.681298,66.118914
1.4358,-0.006978,0.015578,0.037881,-0.00667,-0.004981,-0.017045,0.012883,-0.49414,0.038742,1.159161,-261.001154,-0.68194,66.115457
1.4557,-0.006608,0.01563,0.039054,-0.006662,-0.004988,-0.017054,0.012629,-0.494131,0.038309,1.159161,-261.001154,-0.68194,66.115457
1.4755,-0.006503,0.015431,0.037564,-0.006655,-0.004994,-0.017061,0.013098,-0.494147,0.038512,1.161852,-261.007861,-0.683246,66.112018
1.4957,-0.006403,0.015169,0.037713,-0.006651,-0.004997,-0.017069,0.012679,-0.494212,0.037619,1.161852,-261.007861,-0.683246,66.112018
1.5163,-0.006641,0.015439,0.035645,-0.006648,-0.004999,-0.017075,0.012679,-0.494212,0.037619,1.161852,-261.007861,-0.683246,66.112018
1.5361,-0.006733,0.015085,0.035531,-0.006645,-0.005001,-0.01708,0.011261,-0.494457,0.034926,1.163235,-261.014568,-0.684042,66.108588
1.556,-0.006293,0.015578,0.035518,-0.006611,-0.005033,-0.017087,0.01128,-0.494536,0.035086,1.163235,-261.014568,-0.684042,66.108588
1.5754,-0.006433,0.014695,0.034419,-0.006582,-0.005059,-0.017093,0.011611,-0.494267,0.034973,1.164232,-261.021289,-0.685186,66.105155
1.596,-0.006309,0.014564,0.036348,-0.006561,-0.005078,-0.017098,0.011151,-0.494945,0.034441,1.164232,-261.021289,-0.685186,66.105155
1.616,-0.006443,0.015018,0.035479,-0.006543,-0.005093,-0.017103,0.011151,-0.494945,0.034441,1.164232,-261.021289,-0.685186,66.105155
1.6355,-0.006082,0.014548,0.036809,-0.006528,-0.005107,-0.017107,0.011379,-0.494883,0.03476,1.169188,-261.028021,-0.685223,66.101757
1.6557,-0.006112,0.014738,0.034552,-0.006535,-0.005097,-0.017111,0.01187,-0.494997,0.035497,1.169188,-261.028021,-0.685223,66.101757
1.6757,-0.006263,0.014291,0.034543,-0.006541,-0.00509,-0.017113,0.011303,-0.495127,0.034005,1.173472,-261.034767,-0.685815,66.098384
1.6961,-0.006075,0.014208,0.033734,-0.00654,-0.005089,-0.017117,0.011336,-0.495388,0.034467,1.173472,-261.034767,-0.685815,66.098384
1.7159,-0.006514,0.014689,0.035279,-0.006539,-0.005089,-0.01712,0.011336,-0.495388,0.034467,1.173472,-261.034767,-0.685815,66.098384
1.7358,-0.005849,0.014098,0.03237,-0.006539,-0.005089,-0.017122,0.011206,-0.495218,0.034557,1.172435,-261.041511,-0.686695,66.095001
1.7558,-0.006068,0.014477,0.033717,-0.006527,-0.005099,-0.017125,0.010959,-0.495407,0.033614,1.172435,-261.041511,-0.686695,66.095001
1.7757,-0.005922,0.013861,0.031971,-0.006518,-0.005107,-0.017127,0.010922,-0.495403,0.033172,1.172663,-261.048258,-0.687433,66.091616
1.7959,-0.005923,0.01371,0.032459,-0.006502,-0.005121,-0.01713,0.010424,-0.495839,0.032064,1.172663,-261.048258,-0.687433,66.091616
1.8156,-0.005952,0.013956,0.033001,-0.006489,-0.005132,-0.017132,0.010424,-0.495839,0.032064,1.172663,-261.048258,-0.687433,66.091616
1.8361,-0.005559,0.013634,0.03069,-0.006477,-0.005142,-0.017134,0.010609,-0.495989,0.032283,1.174288,-261.055008,-0.687586,66.088243
1.856,-0.005599,0.013413,0.031033,-0.00647,-0.005147,-0.017136,0.010369,-0.49607,0.031558,1.174288,-261.055008,-0.687586,66.088243
1.8759,-0.005711,0.013524,0.030872,-0.006464,-0.005151,-0.017138,0.010024,-0.496512,0.030487,1.177398,-261.061766,-0.687889,66.08489
1.8963,-0.005445,0.013472,0.029284,-0.006453,-0.005161,-0.01714,0.01002,-0.496267,0.030809,1.177398,-261.061766,-0.687889,66.08489
1.9159,-0.005874,0.01345,0.030598,-0.006442,-0.005169,-0.017142,0.01002,-0.496267,0.030809,1.177398,-261.061766,-0.687889,66.08489
1.9358,-0.005354,0.013407,0.02954,-0.006433,-0.005176,-0.017143,0.009464,-0.496535,0.02988,1.178358,-261.068527,-0.688221,66.081542
1.9561,-0.005044,0.013355,0.030665,-0.006414,-0.005191,-0.017145,0.009532,-0.496494,0.029659,1.178358,-261.068527,-0.688221,66.081542
1.9755,-0.006079,0.012682,0.028309,-0.006398,-0.005204,-0.017146,0.010393,-0.496577,0.030118,1.180678,-261.075293,-0.688595,66.07821
1.9957,-0.005624,0.012683,0.028991,-0.006361,-0.005234,-0.017149,0.008531,-0.497074,0.028444,1.180678,-261.075293,-0.688595,66.07821
2.0159,-0.005471,0.012814,0.028864,-0.006328,-0.005259,-0.017151,0.008531,-0.497074,0.028444,1.180678,-261.075293,-0.688595,66.07821
2.0357,-0.005141,0.012862,0.026757,-0.006301,-0.00528,-0.017153,0.008986,-0.497199,0.028146,1.183319,-261.082065,-0.688824,66.074895
2.0559,-0.005148,0.013028,0.028731,-0.006286,-0.00529,-0.017154,0.00876,-0.497126,0.027499,1.183319,-261.082065,-0.688824,66.074895
2.0759,-0.005021,0.012501,0.02876,-0.006274,-0.005298,-0.017155,0.009307,-0.496935,0.028184,1.190379,-261.088848,-0.689657,66.071631
2.0961,-0.005231,0.012651,0.027567,-0.006297,-0.005275,-0.017155,0.009604,-0.497265,0.028678,1.190379,-261.088848,-0.689657,66.071631
2.1158,-0.005166,0.012478,0.026469,-0.006317,-0.005255,-0.017154,0.009604,-0.497265,0.028678,1.190379,-261.088848,-0.689657,66.071631
2.1358,-0.00521,0.012118,0.025064,-0.006334,-0.005239,-0.017154,0.008075,-0.497572,0.025751,1.192286,-261.095638,-0.69011,66.068377
2.1557,-0.004993,0.011925,0.026335,-0.006291,-0.005274,-0.017157,0.007841,-0.497659,0.025389,1.192286,-261.095638,-0.69011,66.068377
2.1756,-0.00488,0.012184,0.026043,-0.006253,-0.005303,-0.017159,0.008239,-0.498071,0.025788,1.187653,-261.102425,-0.690931,66.065085
2.1954,-0.004954,0.011714,0.025841,-0.006245,-0.005309,-0.01716,0.008377,-0.497688,0.025995,1.187653,-261.102425,-0.690931,66.065085
2.2158,-0.00454,0.011869,0.024422,-0.006237,-0.005315,-0.01716,0.008377,-0.497688,0.025995,1.187653,-261.102425,-0.690931,66.065085
2.2355,-0.004688,0.012024,0.023152,-0.006231,-0.00532,-0.017161,0.007659,-0.498207,0.023705,1.19356,-261.1092,-0.691463,66.061845
2.2558,-0.004889,0.011644,0.023496,-0.006192,-0.005348,-0.017163,0.007409,-0.498083,0.023397,1.19356,-261.1092,-0.691463,66.061845
2.2755,-0.004232,0.011412,0.022722,-0.00616,-0.005371,-0.017164,0.006898,-0.49839,0.022949,1.195188,-261.116022,-0.691817,66.058595
2.2954,-0.00479,0.011911,0.023681,-0.006137,-0.005386,-0.017166,0.00731,-0.498459,0.022715,1.195188,-261.116022,-0.691817,66.058595
2.3154,-0.004651,0.011297,0.023648,-0.006118,-0.005399,-0.017167,0.00731,-0.498459,0.022715,1.195188,-261.116022,-0.691817,66.058595
2.3356,-0.004449,0.010837,0.023898,-0.006101,-0.005409,-0.017167,0.007158,-0.49879,0.022935,1.20023,-261.122794,-0.692695,66.055408
2.3556,-0.004587,0.011297,0.024765,-0.006104,-0.005404,-0.017168,0.007366,-0.49891,0.023246,1.20023,-261.122794,-0.692695,66.055408
2.376,-0.003887,0.010892,0.023471,-0.006106,-0.0054,-0.017168,0.007852,-0.498723,0.024219,1.204264,-261.129613,-0.693876,66.052229
2.3958,-0.004646,0.010862,0.020874,-0.006139,-0.005369,-0.017167,0.008053,-0.498955,0.023508,1.204264,-261.129613,-0.693876,66.052229
2.4157,-0.004465,0.010878,0.021747,-0.006168,-0.005343,-0.017167,0.008053,-0.498955,0.023508,1.204264,-261.129613,-0.693876,66.052229
2.4358,-0.004055,0.010718,0.020919,-0.006192,-0.005322,-0.017166,0.006374,-0.499233,0.021029,1.203832,-261.136409,-0.694503,66.049056
2.456,-0.00387,0.01065,0.019838,-0.006143,-0.005357,-0.017168,0.006443,-0.499234,0.020901,1.203832,-261.136409,-0.694503,66.049056
2.4759,-0.004324,0.010092,0.021689,-0.006101,-0.005387,-0.017169,0.006054,-0.499423,0.019292,1.197413,-261.143207,-0.694984,66.045827
2.496,-0.003882,0.010539,0.020724,-0.006095,-0.005388,-0.01717,0.00667,-0.499766,0.021459,1.197413,-261.143207,-0.694984,66.045827
2.5161,-0.004191,0.010765,0.021297,-0.00609,-0.005388,-0.017171,0.00667,-0.499766,0.021459,1.197413,-261.143207,-0.694984,66.045827
2.5359,-0.003873,0.009842,0.021116,-0.006086,-0.005389,-0.017171,0.00642,-0.49935,0.020581,1.203853,-261.150001,-0.696217,66.042651
2.5561,-0.003579,0.009943,0.019011,-0.006074,-0.005397,-0.017171,0.006587,-0.499662,0.020718,1.203853,-261.150001,-0.696217,66.042651
2.5757,-0.004102,0.009637,0.018462,-0.006064,-0.005403,-0.017171,0.005926,-0.50014,0.018466,1.204749,-261.156806,-0.697318,66.039473
2.5961,-0.003954,0.009702,0.01871,-0.005999,-0.005441,-0.017168,0.005356,-0.500273,0.018436,1.204749,-261.156806,-0.697318,66.039473
2.6158,-0.003601,0.009979,0.019409,-0.005944,-0.005473,-0.017165,0.005356,-0.500273,0.018436,1.204749,-261.156806,-0.697318,66.039473
2.6357,-0.00343,0.009482,0.017736,-0.005898,-0.005499,-0.017162,0.006047,-0.500156,0.01869,1.206262,-261.163605,-0.697806,66.03631
2.6559,-0.003796,0.009653,0.01776,-0.005891,-0.005501,-0.017157,0.005842,-0.500297,0.018218,1.206262,-261.163605,-0.697806,66.03631
2.676,-0.003503,0.009421,0.017507,-0.005885,-0.005503,-0.017153,0.005077,-0.500444,0.017216,1.217243,-261.170396,-0.701434,66.033232
2.6959,-0.003608,0.009327,0.016013,-0.005858,-0.005518,-0.017145,0.005384,-0.500504,0.017453,1.217243,-261.170396,-0.701434,66.033232
2.7164,-0.003663,0.009422,0.016756,-0.005835,-0.00553,-0.017138,0.005384,-0.500504,0.017453,1.217243,-261.170396,-0.701434,66.033232
2.7362,-0.003181,0.009143,0.01591,-0.005815,-0.005541,-0.017132,0.004639,-0.500741,0.016036,1.217908,-261.177221,-0.701614,66.030144
2.756,-0.003492,0.008751,0.015483,-0.005762,-0.005568,-0.017103,0.004731,-0.500789,0.015902,1.217908,-261.177221,-0.701614,66.030144
2.7761,-0.003147,0.00823,0.014427,-0.005717,-0.005592,-0.01708,0.004222,-0.501367,0.014938,1.22226,-261.184027,-0.70248,66.027098
2.7963,-0.003251,0.008811,0.01623,-0.005669,-0.005604,-0.017015,0.004202,-0.501695,0.014445,1.22226,-261.184027,-0.70248,66.027098
2.8158,-0.002936,0.008631,0.014306,-0.005628,-0.005615,-0.016963,0.004202,-0.501695,0.014445,1.22226,-261.184027,-0.70248,66.027098
2.8355,-0.003041,0.008555,0.015442,-0.005594,-0.005624,-0.016921,0.004124,-0.501554,0.013592,1.228078,-261.190829,-0.702465,66.024104
2.8556,-0.00317,0.008189,0.012958,-0.005576,-0.005631,-0.016879,0.004388,-0.501512,0.014268,1.228078,-261.190829,-0.702465,66.024104
2.8755,-0.002701,0.008159,0.011913,-0.005561,-0.005638,-0.016846,0.003263,-0.50195,0.012419,1.233628,-261.197579,-0.699829,66.021185
2.8957,-0.003135,0.008251,0.014451,-0.00546,-0.005673,-0.016667,0.003355,-0.501827,0.011931,1.233628,-261.197579,-0.699829,66.021185
2.9159,-0.002843,0.008498,0.013535,-0.005377,-0.005703,-0.016529,0.003355,-0.501827,0.011931,1.233628,-261.197579,-0.699829,66.021185
2.9354,-0.002637,0.007778,0.012729,-0.005309,-0.00573,-0.016424,0.003829,-0.501695,0.012828,1.23489,-261.204325,-0.696521,66.018286
2.9555,-0.002851,0.007797,0.012415,-0.005302,-0.005733,-0.016403,0.003813,-0.501919,0.012708,1.23489,-261.204325,-0.696521,66.018286
2.9757,-0.002577,0.007888,0.012242,-0.005296,-0.005735,-0.016386,0.003315,-0.502347,0.011895,1.245927,-261.210949,-0.680929,66.015565
2.9956,-0.002563,0.007662,0.01202,-0.00528,-0.005737,-0.016333,0.003627,-0.502108,0.012185,1.245927,-261.210949,-0.680929,66.015565
3.0157,-0.002493,0.007607,0.01094,-0.005266,-0.00574,-0.016293,0.003627,-0.502108,0.012185,1.245927,-261.210949,-0.680929,66.015565
3.0358,-0.002711,0.007205,0.011626,-0.005255,-0.005742,-0.016262,0.002868,-0.502604,0.010256,1.246264,-261.217583,-0.678782,66.012847
3.0561,-0.00249,0.007446,0.011081,-0.005191,-0.005738,-0.016092,0.002986,-0.502696,0.010738,1.246264,-261.217583,-0.678782,66.012847
3.076,-0.00232,0.006988,0.00972,-0.00514,-0.005736,-0.015964,0.002996,-0.502707,0.010562,1.247314,-261.224198,-0.67308,66.010158
3.0959,-0.002286,0.006753,0.009087,-0.005061,-0.005727,-0.015736,0.00266,-0.502973,0.009767,1.247314,-261.224198,-0.67308,66.010158
3.1158,-0.002158,0.006733,0.009923,-0.004997,-0.005722,-0.015568,0.00266,-0.502973,0.009767,1.247314,-261.224198,-0.67308,66.010158
3.136,-0.002371,0.006592,0.009861,-0.004946,-0.00572,-0.015445,0.002691,-0.503484,0.009256,1.250342,-261.230707,-0.663093,66.007556
3.1559,-0.00193,0.006689,0.010557,-0.004917,-0.005687,-0.015301,0.002653,-0.503471,0.009425,1.250342,-261.230707,-0.663093,66.007556
3.1757,-0.001883,0.006662,0.008009,-0.004894,-0.005662,-0.015196,0.003299,-0.503466,0.010068,1.255301,-261.237043,-0.643968,66.005098
3.196,-0.001782,0.006515,0.008316,-0.004818,-0.005659,-0.014896,0.002293,-0.503344,0.00817,1.255301,-261.237043,-0.643968,66.005098
3.2161,-0.001845,0.0065,0.008403,-0.004757,-0.00566,-0.01468,0.002293,-0.503344,0.00817,1.255301,-261.237043,-0.643968,66.005098
3.2357,-0.001784,0.006124,0.006707,-0.004707,-0.005662,-0.014525,0.002237,-0.503721,0.007766,1.254329,-261.243328,-0.63679,66.002665
3.2558,-0.00183,0.006267,0.005988,-0.004624,-0.00564,-0.014225,0.00197,-0.503807,0.007263,1.254329,-261.243328,-0.63679,66.002665
3.2758,-0.001733,0.00595,0.006527,-0.004558,-0.005625,-0.014013,0.001078,-0.503902,0.005535,1.257595,-261.249295,-0.598511,66.00044
3.2959,-0.001365,0.005698,0.007402,-0.004433,-0.005602,-0.013659,0.001541,-0.504036,0.006413,1.257595,-261.249295,-0.598511,66.00044
3.3158,-0.002043,0.005905,0.006074,-0.004333,-0.005588,-0.013412,0.001541,-0.504036,0.006413,1.257595,-261.249295,-0.598511,66.00044
3.3359,-0.001466,0.005822,0.005055,-0.004253,-0.00558,-0.013239,0.000868,-0.504319,0.005495,1.25986,-261.255187,-0.571933,65.998296
3.3559,-0.001879,0.00583,0.006298,-0.004077,-0.005556,-0.012783,0.000946,-0.504286,0.005248,1.25986,-261.255187,-0.571933,65.998296
3.3758,-0.001363,0.005368,0.006231,-0.003937,-0.005543,-0.012467,0.001202,-0.504334,0.005886,1.269056,-261.260769,-0.532474,65.99637
3.3959,-0.001666,0.005437,0.004844,-0.003984,-0.005493,-0.012505,0.001756,-0.504606,0.006181,1.269056,-261.260769,-0.532474,65.99637
3.4158,-0.001625,0.005289,0.005947,-0.004022,-0.005454,-0.012534,0.001756,-0.504606,0.006181,1.269056,-261.260769,-0.532474,65.99637
3.4359,-0.001395,0.004977,0.004985,-0.004053,-0.005424,-0.012558,0.001251,-0.504926,0.005447,1.280013,-261.266048,-0.484368,65.99466
3.4557,-0.001756,0.005287,0.004951,-0.003967,-0.005364,-0.012313,0.00119,-0.504989,0.005199,1.280013,-261.266048,-0.484368,65.99466
3.4759,-0.001037,0.004879,0.003478,-0.003902,-0.005318,-0.012142,0.000641,-0.504879,0.004554,1.270643,-261.27149,-0.50609,65.992821
3.4958,-0.001146,0.004679,0.004019,-0.003763,-0.005268,-0.011422,0.000722,-0.505105,0.003554,1.270643,-261.27149,-0.50609,65.992821
3.5159,-0.001144,0.004912,0.005508,-0.003653,-0.005235,-0.01092,0.000722,-0.505105,0.003554,1.270643,-261.27149,-0.50609,65.992821
3.5357,-0.001124,0.004531,0.005296,-0.003564,-0.005214,-0.010572,0.001504,-0.505303,0.005002,1.273451,-261.276793,-0.493194,65.991057
3.5557,-0.00153,0.004586,0.00566,-0.003651,-0.005154,-0.010846,0.001515,-0.505393,0.005063,1.273451,-261.276793,-0.493194,65.991057
3.5756,-0.000953,0.004297,0.002962,-0.003722,-0.005107,-0.011046,0.001282,-0.505515,0.005428,1.274437,-261.280069,-0.418353,65.990043
3.596,-0.00108,0.00451,0.003843,-0.003591,-0.005031,-0.010525,0.000619,-0.505689,0.00317,1.274437,-261.280069,-0.418353,65.990043
3.616,-0.001108,0.004189,0.004211,-0.00349,-0.004976,-0.010159,0.000619,-0.505689,0.00317,1.274437,-261.280069,-0.418353,65.990043
3.6362,-0.001088,0.003925,0.003695,-0.003411,-0.004937,-0.009904,0.000885,-0.506021,0.003748,1.266566,-261.285041,-0.414951,65.988416
3.6559,-0.000671,0.003914,0.0026,-0.003388,-0.004849,-0.009936,0.00083,-0.506066,0.003673,1.266566,-261.285041,-0.414951,65.988416
3.676,-0.000953,0.003983,0.003612,-0.003373,-0.004781,-0.00996,0.000564,-0.506217,0.00233,1.269718,-261.288953,-0.339822,65.987196
3.6956,-0.00119,0.003649,0.001349,-0.003375,-0.004735,-0.009904,0.000855,-0.506038,0.003483,1.269718,-261.288953,-0.339822,65.987196
3.7158,-0.001382,0.003991,0.002455,-0.003378,-0.0047,-0.009864,0.000855,-0.506038,0.003483,1.269718,-261.288953,-0.339822,65.987196
3.7354,-0.000964,0.0039,0.001781,-0.003381,-0.004673,-0.009835,-0.000269,-0.506205,0.002044,1.26977,-261.293445,-0.368391,65.985768
3.7555,-0.0008,0.003842,0.000704,-0.003137,-0.004606,-0.009102,-0.000197,-0.506185,0.001889,1.26977,-261.293445,-0.368391,65.985768
3.7756,-0.000909,0.003515,0.001636,-0.002946,-0.004564,-0.008582,-0.000549,-0.506307,0.000391,1.264182,-261.297923,-0.37581,65.984315
3.7959,-0.000966,0.003397,0.00216,-0.00281,-0.004485,-0.008023,-0.000121,-0.506476,0.001512,1.264182,-261.297923,-0.37581,65.984315
3.8156,-0.000862,0.003525,0.002551,-0.002704,-0.00443,-0.007624,-0.000121,-0.506476,0.001512,1.264182,-261.297923,-0.37581,65.984315
3.8355,-0.000859,0.003404,0.000125,-0.002621,-0.004392,-0.007339,0.000355,-0.506603,0.002296,1.278915,-261.300766,-0.300769,65.983476
3.8554,-0.000265,0.003151,0.000181,-0.002554,-0.004342,-0.007077,-0.000124,-0.506615,0.001381,1.278915,-261.300766,-0.300769,65.983476
3.8756,-0.000211,0.00313,0.002171,-0.002501,-0.004307,-0.006887,-0.000199,-0.506891,0.000103,1.283613,-261.301938,-0.225817,65.983143
3.8956,-0.000558,0.003309,0.000689,-0.002693,-0.004245,-0.007053,0.000798,-0.506873,0.001983,1.283613,-261.301938,-0.225817,65.983143
3.9157,-0.000394,0.003318,0.000376,-0.002846,-0.004196,-0.007172,0.000798,-0.506873,0.001983,1.283613,-261.301938,-0.225817,65.983143
3.9356,-0.000426,0.003108,0.001407,-0.002966,-0.004156,-0.007258,-0.000235,-0.506736,0.000279,1.285042,-261.303067,-0.150823,65.982825
3.9555,-0.000865,0.003171,0.000893,-0.002868,-0.004126,-0.00668,-2.4e-05,-0.506806,0.000728,1.285042,-261.303067,-0.150823,65.982825
3.9755,-0.000594,0.002731,9.4e-05,-0.002792,-0.004108,-0.006264,-0.000497,-0.50695,0.000681,1.238244,-261.306398,-0.093054,65.981733
3.9954,-0.000433,0.003034,0.000195,-0.002571,-0.003982,-0.005671,-0.000546,-0.507247,0.000134,1.238244,-261.306398,-0.093054,65.981733
4.0155,-0.000845,0.002937,0.001605,-0.002401,-0.003892,-0.005239,-0.000546,-0.507247,0.000134,1.238244,-261.306398,-0.093054,65.981733
4.0354,-0.000687,0.002796,-2.9e-05,-0.00227,-0.003828,-0.004923,-9e-05,-0.507153,0.001456,1.232459,-261.308237,-0.017942,65.981119
4.0559,-0.000583,0.002854,-0.000327,-0.002218,-0.003814,-0.005082,-0.000351,-0.507184,0.000823,1.232459,-261.308237,-0.017942,65.981119
4.0755,-0.000672,0.002719,-0.000341,-0.002177,-0.003804,-0.005192,-0.000758,-0.507158,-0.000346,1.250153,-261.30856,0.057091,65.981011
4.0955,-0.000571,0.002756,0.000768,-0.002028,-0.003752,-0.004659,-0.000839,-0.507271,-0.000343,1.250153,-261.30856,0.057091,65.981011
4.1158,-0.000333,0.003012,0.000296,-0.00191,-0.003717,-0.00427,-0.000839,-0.507271,-0.000343,1.250153,-261.30856,0.057091,65.981011
4.1359,-0.000201,0.002802,0.001136,-0.001816,-0.003694,-0.003987,-0.000222,-0.507054,0.000196,1.268208,-261.309835,0.132066,65.980615
4.1559,-1e-06,0.002768,0.001394,-0.001978,-0.003751,-0.004256,1.9e-05,-0.507121,0.00057,1.268208,-261.309835,0.132066,65.980615
4.1754,-0.000617,0.002829,0.000712,-0.002103,-0.003793,-0.004448,0.000709,-0.507234,0.001391,1.282785,-261.309895,0.206936,65.980595
4.1957,-0.000516,0.002487,-0.000181,-0.002143,-0.003812,-0.004718,-0.000168,-0.507176,0.000773,1.282785,-261.309895,0.206936,65.980595
4.2156,-0.000747,0.002937,-0.000686,-0.002176,-0.003827,-0.004909,-0.000168,-0.507176,0.000773,1.282785,-261.309895,0.206936,65.980595
4.2359,-0.000454,0.002671,-0.001425,-0.002201,-0.003837,-0.005045,-0.001126,-0.50711,-0.00075,1.258255,-261.310758,0.28194,65.980297
4.2557,-0.000433,0.002872,0.000316,-0.001983,-0.003787,-0.004241,-0.001152,-0.507205,-0.001034,1.258255,-261.310758,0.28194,65.980297
4.2758,-0.000233,0.002261,-0.000488,-0.00181,-0.003756,-0.003652,-0.000339,-0.507245,0.000162,1.262742,-261.313553,0.330779,65.979401
4.2961,-0.000547,0.002758,2.4e-05,-0.001825,-0.003659,-0.003514,-0.000473,-0.507702,-0.00044,1.262742,-261.313553,0.330779,65.979401
4.3161,-0.0008,0.002345,0.001116,-0.001837,-0.003586,-0.003408,-0.000473,-0.507702,-0.00044,1.262742,-261.313553,0.330779,65.979401
4.336,-0.000604,0.002443,0.000465,-0.001849,-0.00353,-0.003328,-0.00024,-0.50767,0.001098,1.277235,-261.313819,0.405771,65.9793
4.3558,-0.000419,0.002514,0.001568,-0.001893,-0.003521,-0.003971,-0.000293,-0.507625,0.000835,1.277235,-261.313819,0.405771,65.9793
4.3761,-0.000411,0.001976,0.001071,-0.001932,-0.003513,-0.004431,0.000363,-0.507516,0.001534,1.24991,-261.314498,0.480771,65.979024
4.3959,-0.000163,0.002008,0.000294,-0.002097,-0.003428,-0.004899,0.000155,-0.507979,0.001112,1.24991,-261.314498,0.480771,65.979024
4.4161,-0.000563,0.002431,0.000589,-0.002231,-0.003359,-0.005235,0.000155,-0.507979,0.001112,1.24991,-261.314498,0.480771,65.979024
4.4355,-0.000534,0.002315,-0.000296,-0.00234,-0.003303,-0.005478,-0.000334,-0.507699,0.000425,1.269683,-261.316806,0.405896,65.978282
4.4555,-0.00049,0.002288,-0.000561,-0.002249,-0.003299,-0.005114,-0.000485,-0.507709,0.000112,1.269683,-261.316806,0.405896,65.978282
4.4757,-0.000611,0.00189,-0.000593,-0.002178,-0.003299,-0.004853,-0.00078,-0.507718,-0.000568,1.23236,-261.316948,0.330811,65.978235
4.4962,-0.00079,0.001964,-0.001271,-0.002002,-0.003192,-0.004318,-0.000902,-0.508075,-0.000591,1.23236,-261.316948,0.330811,65.978235
4.516,-0.000495,0.002142,-0.000355,-0.001867,-0.003114,-0.003928,-0.000902,-0.508075,-0.000591,1.23236,-261.316948,0.330811,65.978235
4.5357,-0.000453,0.002233,-0.000766,-0.001763,-0.003058,-0.003645,-0.000731,-0.507944,-0.000473,1.236102,-261.31854,0.255882,65.977706
4.5555,-8.6e-05,0.002381,-0.000107,-0.001731,-0.003073,-0.003424,-0.000783,-0.507882,-0.000606,1.236102,-261.31854,0.255882,65.977706
4.5759,-0.000874,0.001993,-0.001803,-0.001703,-0.003085,-0.003263,-0.000173,-0.507673,-0.000176,1.248847,-261.319819,0.330897,65.977259
4.5959,-0.000824,0.002154,-0.000785,-0.001446,-0.003015,-0.002674,-0.001651,-0.507979,-0.001661,1.248847,-261.319819,0.330897,65.977259
4.6158,-0.000495,0.00192,0.000236,-0.001243,-0.002967,-0.002246,-0.001651,-0.507979,-0.001661,1.248847,-261.319819,0.330897,65.977259
4.6356,-0.000688,0.001755,-0.000389,-0.001082,-0.002935,-0.001935,-0.000404,-0.508129,0.000178,1.247203,-261.320668,0.405886,65.976938
4.6558,-0.000829,0.001785,0.000331,-0.001216,-0.002924,-0.002489,-0.000603,-0.508182,-5.9e-05,1.247203,-261.320668,0.405886,65.976938
4.6758,-0.000496,0.001895,-0.000561,-0.00132,-0.002913,-0.002881,-0.00066,-0.508215,0.000331,1.313834,-261.320671,0.480863,65.976937
4.6956,-0.000359,0.001592,-0.000177,-0.001363,-0.002911,-0.002934,-0.000771,-0.508115,-0.000479,1.313834,-261.320671,0.480863,65.976937
4.7158,-0.000554,0.002253,-0.00183,-0.001397,-0.002908,-0.002971,-0.000771,-0.508115,-0.000479,1.313834,-261.320671,0.480863,65.976937
4.7356,-8.5e-05,0.001794,-0.001421,-0.001423,-0.002905,-0.002996,-0.001511,-0.507793,-0.001882,1.295389,-261.321448,0.555903,65.976656
4.7556,-0.000605,0.001314,-0.001292,-0.001337,-0.002906,-0.002457,-0.001229,-0.507966,-0.0017,1.295389,-261.321448,0.555903,65.976656
4.7756,-2.5e-05,0.002178,-0.000196,-0.001267,-0.00291,-0.002066,-0.001304,-0.508766,-0.001375,1.278901,-261.32317,0.630894,65.976035
4.7956,-0.000357,0.001629,-0.002344,-0.001492,-0.002984,-0.002426,-0.000231,-0.507909,-0.000305,1.278901,-261.32317,0.630894,65.976035
4.8158,-0.000254,0.001658,-0.001559,-0.001665,-0.003038,-0.002684,-0.000231,-0.507909,-0.000305,1.278901,-261.32317,0.630894,65.976035
4.8359,-0.000642,0.001746,-0.002729,-0.0018,-0.003077,-0.002868,-0.001065,-0.508373,-0.001585,1.27586,-261.32364,0.705889,65.975811
4.8555,-0.000736,0.001655,-0.000511,-0.001535,-0.002924,-0.002236,-0.00146,-0.508327,-0.002052,1.27586,-261.32364,0.705889,65.975811
4.8759,-0.000405,0.001242,-0.0015,-0.001331,-0.002812,-0.001776,-0.001047,-0.50843,-0.00059,1.213974,-261.325427,0.634653,65.975035
4.8959,-0.000564,0.001506,-0.001256,-0.001218,-0.002631,-0.001706,-0.001162,-0.508732,-0.001423,1.213974,-261.325427,0.634653,65.975035
4.9161,-0.000532,0.001673,-0.001164,-0.001136,-0.002494,-0.001653,-0.001162,-0.508732,-0.001423,1.213974,-261.325427,0.634653,65.975035
4.9359,-0.00027,0.00156,-0.001132,-0.001074,-0.00239,-0.001612,-0.001143,-0.508358,-0.001187,1.241655,-261.325886,0.709652,65.974793
4.9557,-0.000442,0.001306,-0.00049,-0.001094,-0.002422,-0.001693,-0.001024,-0.508395,-0.001167,1.241655,-261.325886,0.709652,65.974793
4.9754,-0.000287,0.001345,-0.00041,-0.001107,-0.002446,-0.00175,-0.00071,-0.508731,-0.000517,1.262577,-261.326584,0.784667,65.974444
4.996,-0.000603,0.001729,-0.002193,-0.001247,-0.002413,-0.002159,-0.000516,-0.508663,-0.000421,1.262577,-261.326584,0.784667,65.974444
5.0157,-0.000583,0.001716,-0.002752,-0.001359,-0.002384,-0.002449,-0.000516,-0.508663,-0.000421,1.262577,-261.326584,0.784667,65.974444
5.0356,-0.000174,0.001356,-0.001381,-0.001448,-0.002359,-0.002655,-0.002025,-0.508366,-0.002813,1.265642,-261.327801,0.859691,65.97386
5.0556,-0.000595,0.001568,-0.001925,-0.001242,-0.002321,-0.002006,-0.001566,-0.508487,-0.002242,1.265642,-261.327801,0.859691,65.97386
5.0755,-0.000275,0.001552,-0.00084,-0.00108,-0.002297,-0.001536,-0.00158,-0.508438,-0.001931,1.2219,-261.327939,0.784704,65.973807
5.0957,-0.000452,0.001427,-0.00063,-0.001168,-0.002348,-0.001751,-0.000781,-0.508447,-0.000937,1.2219,-261.327939,0.784704,65.973807
5.1158,-0.00038,0.001086,-0.001965,-0.001236,-0.002385,-0.001902,-0.000781,-0.508447,-0.000937,1.2219,-261.327939,0.784704,65.973807
5.136,-0.000808,0.001471,-0.002671,-0.001288,-0.002412,-0.002009,-0.001419,-0.508989,-0.002018,1.248646,-261.32903,0.85972,65.973252
5.1555,-0.000477,0.001343,-0.001493,-0.001047,-0.002265,-0.001524,-0.00172,-0.508815,-0.002282,1.248646,-261.32903,0.85972,65.973252
5.1755,-0.000755,0.001354,-0.000854,-0.000861,-0.002156,-0.001173,-0.001271,-0.508719,-0.001543,1.230651,-261.330269,0.784736,65.97269
5.196,-0.000602,0.001161,-0.002557,-0.000853,-0.002159,-0.001512,-0.001199,-0.508655,-0.000917,1.230651,-261.330269,0.784736,65.97269
5.2161,-0.000657,0.001382,-0.000732,-0.000847,-0.00216,-0.001749,-0.001199,-0.508655,-0.000917,1.230651,-261.330269,0.784736,65.97269
5.2355,-0.00038,0.000898,0.000332,-0.000844,-0.002159,-0.001915,-0.001045,-0.508648,-0.000752,1.279575,-261.330699,0.859735,65.972449
5.2555,-0.000674,0.000647,-0.001879,-0.000972,-0.00213,-0.002343,-0.000707,-0.508837,-0.000313,1.279575,-261.330699,0.859735,65.972449
5.2754,-0.000462,0.001249,-0.000541,-0.001075,-0.002105,-0.002646,-0.001659,-0.509419,-0.001938,1.322593,-261.332032,0.864816,65.971945
5.2955,-0.000517,0.000892,-0.00287,-0.001129,-0.002082,-0.002676,-0.000821,-0.508814,-0.000668,1.322593,-261.332032,0.864816,65.971945
5.3155,-0.000136,0.001273,-0.001359,-0.001172,-0.002064,-0.002697,-0.000821,-0.508814,-0.000668,1.322593,-261.332032,0.864816,65.971945
5.3355,-0.000603,0.001565,-0.002142,-0.001207,-0.002049,-0.002712,-0.000831,-0.508731,-0.001363,1.289453,-261.332096,0.78981,65.971925
5.3555,-0.000722,0.001334,0.001295,-0.001153,-0.00207,-0.002261,-0.001184,-0.50861,-0.001681,1.289453,-261.332096,0.78981,65.971925
5.3753,-0.000473,0.000929,-0.002342,-0.00111,-0.002089,-0.001935,-6.3e-05,-0.508667,0.001294,1.255976,-261.332132,0.714815,65.971914
5.3955,-0.001067,0.001189,-0.002255,-0.000948,-0.001962,-0.001575,-0.001528,-0.509035,-0.002027,1.255976,-261.332132,0.714815,65.971914
5.416,-0.000821,0.001228,-0.00024,-0.000823,-0.001866,-0.001314,-0.001528,-0.509035,-0.002027,1.255976,-261.332132,0.714815,65.971914
5.4358,-0.000679,0.000957,-0.001076,-0.000726,-0.001795,-0.001125,-0.000989,-0.508858,-0.00032,1.243783,-261.33349,0.685495,65.97135
5.4559,-0.000658,0.000973,-0.001172,-0.000762,-0.001802,-0.001634,-0.001092,-0.508943,-0.000637,1.243783,-261.33349,0.685495,65.97135
5.4757,-0.000938,0.00095,-0.001397,-0.000792,-0.001805,-0.001992,-0.001262,-0.509039,-0.001181,1.2862,-261.33371,0.760427,65.971237
5.4959,-0.00055,0.000922,-0.001339,-0.000671,-0.001743,-0.001882,-0.001616,-0.509049,-0.001378,1.2862,-261.33371,0.760427,65.971237
5.5158,-0.000926,0.000679,-0.001047,-0.000578,-0.001697,-0.001801,-0.001616,-0.509049,-0.001378,1.2862,-261.33371,0.760427,65.971237
5.5356,-0.000661,0.001237,-0.00112,-0.000505,-0.001662,-0.001741,-0.001485,-0.50938,-0.001111,1.314529,-261.334685,0.685431,65.970929
5.5556,-0.000673,0.001095,-0.002539,-0.000502,-0.00162,-0.001817,-0.001385,-0.509135,-0.001122,1.314529,-261.334685,0.685431,65.970929
5.5757,-0.000769,0.001084,-0.000323,-0.000501,-0.001587,-0.00187,-0.001977,-0.508931,-0.00257,1.387497,-261.335276,0.760439,65.970762
5.5958,-0.000643,0.000604,-0.000752,-0.000613,-0.001651,-0.002202,-0.001028,-0.508918,-0.000526,1.387497,-261.335276,0.760439,65.970762
5.616,-0.000578,0.000969,-0.002637,-0.0007,-0.001697,-0.002438,-0.001028,-0.508918,-0.000526,1.387497,-261.335276,0.760439,65.970762
5.6358,-0.000387,0.000842,-0.00135,-0.000768,-0.00173,-0.002606,-0.001944,-0.509095,-0.002714,1.389319,-261.336364,0.726695,65.9705
5.656,-0.000794,0.000973,-0.002328,-0.000663,-0.001644,-0.001989,-0.001599,-0.509128,-0.002178,1.389319,-261.336364,0.726695,65.9705
5.6761,-0.000717,0.000815,-0.001849,-0.000581,-0.001581,-0.001543,-0.001981,-0.509026,-0.002329,1.343738,-261.336372,0.651788,65.970498
5.696,-0.000797,0.000785,-0.001721,0.0,0.0,0.0,-0.001692,-0.509168,-0.001897,1.343738,-261.336372,0.651788,65.970498
