mach0312/omni-docking-bench/src/icros_test_setup/results/MPPI_sample/timeseries/trial_052.csv
t,x,y,yaw,vx,vy,wz,bl_x,bl_y,bl_yaw,front_steering_joint,front_wheel_joint,rear_steering_joint,rear_wheel_joint
0.0,-0.059566,-0.022259,0.068422,0.005115,-0.001299,0.00278,-0.026313,-0.530722,0.067255,0.077769,-261.184729,-0.530058,72.03223
0.0003,-0.05977,-0.022837,0.068118,0.004515,-0.001147,0.002454,-0.025545,-0.530808,0.067551,0.077769,-261.181616,-0.530058,72.035828
0.0007,-0.05979,-0.02285,0.069189,0.003872,-0.000984,0.002105,-0.025545,-0.530808,0.067551,0.077769,-261.178951,-0.530058,72.038908
0.001,-0.059873,-0.022654,0.067881,0.003188,-0.00081,0.001733,-0.025499,-0.53101,0.067899,0.077769,-261.176677,-0.530058,72.041535
0.0013,-0.059218,-0.022486,0.068197,0.002452,-0.000623,0.001332,-0.025499,-0.53101,0.067899,0.077769,-261.175124,-0.530058,72.04333
0.0016,-0.059413,-0.022423,0.067292,0.001682,-0.000427,0.000914,-0.025502,-0.531086,0.068642,0.077769,-261.17414,-0.530058,72.044467
0.0018,-0.059328,-0.022436,0.070162,0.000863,-0.000219,0.000469,-0.025169,-0.530711,0.068219,0.077769,-261.17414,-0.530058,72.044467
0.0021,-0.059178,-0.022472,0.069624,0.0,0.0,0.0,-0.025169,-0.530711,0.068219,0.077769,-261.17414,-0.530058,72.044467
0.0024,-0.059465,-0.022407,0.067196,0.0,0.0,0.0,-0.025169,-0.530711,0.068219,0.077769,-261.17414,-0.530058,72.044467
0.0168,-0.059401,-0.022833,0.069614,0.0,0.0,0.0,-0.023675,-0.531234,0.06968,0.077769,-261.17414,-0.530058,72.044467
0.0368,-0.059204,-0.022499,0.068802,0.0,0.0,0.0,-0.023927,-0.531598,0.069614,0.077769,-261.17414,-0.530058,72.044467
0.0568,-0.059,-0.022456,0.067563,0.0,0.0,0.0,-0.024014,-0.531474,0.069286,0.077769,-261.17414,-0.530058,72.044467
0.0765,-0.059422,-0.02256,0.067487,0.0,0.0,0.0,-0.024569,-0.531292,0.067563,0.077769,-261.17414,-0.530058,72.044467
0.0967,-0.059779,-0.022566,0.068903,0.0,0.0,0.0,-0.024993,-0.531391,0.067493,0.077769,-261.17414,-0.530058,72.044467
0.1166,-0.059284,-0.022522,0.068438,0.004726,0.006266,-0.00695,-0.024993,-0.531391,0.067493,0.077769,-261.17414,-0.530058,72.044467
0.1364,-0.059052,-0.022818,0.067532,0.005198,0.00682,-0.00745,-0.024408,-0.531328,0.068438,0.077769,-261.17414,-0.530058,72.044467
0.157,-0.059308,-0.022296,0.066829,0.005602,0.007297,-0.007873,-0.024501,-0.531461,0.06807,0.077769,-261.17414,-0.530058,72.044467
0.1765,-0.059376,-0.022465,0.069886,0.005951,0.007702,-0.008207,-0.02525,-0.531157,0.066829,0.152265,-261.17414,-0.455561,72.044467
0.1972,-0.05908,-0.022528,0.067424,0.006253,0.008049,-0.008496,-0.023889,-0.531214,0.069626,0.152265,-261.17414,-0.455561,72.044467
0.2168,-0.059176,-0.022682,0.06855,0.006515,0.008343,-0.008725,-0.023889,-0.531214,0.069626,0.152265,-261.17414,-0.455561,72.044467
0.2366,-0.059093,-0.022473,0.069539,0.006742,0.008592,-0.008907,-0.024243,-0.531485,0.06855,0.227396,-261.17414,-0.38043,72.044467
0.2569,-0.059192,-0.022285,0.069171,0.006939,0.008805,-0.009077,-0.024002,-0.531384,0.068956,0.227396,-261.17414,-0.38043,72.044467
0.2767,-0.05951,-0.022496,0.067169,0.007111,0.008987,-0.009212,-0.023943,-0.531066,0.069171,0.302392,-261.17414,-0.305435,72.044467
0.2974,-0.059558,-0.02246,0.068937,0.007272,0.009121,-0.009341,-0.025166,-0.531323,0.067339,0.302392,-261.17414,-0.305435,72.044467
0.317,-0.059694,-0.022744,0.068533,0.007412,0.009235,-0.009444,-0.025166,-0.531323,0.067339,0.302392,-261.17414,-0.305435,72.044467
0.337,-0.059155,-0.022648,0.06959,0.007534,0.009333,-0.009527,-0.024769,-0.531546,0.068533,0.37742,-261.17414,-0.230406,72.044468
0.3569,-0.059282,-0.022615,0.069299,0.00763,0.009432,-0.009648,-0.024326,-0.531492,0.068968,0.37742,-261.17414,-0.230406,72.044468
0.3771,-0.059233,-0.022348,0.068376,0.007713,0.009516,-0.009745,-0.023967,-0.531391,0.069299,0.436422,-261.174139,-0.155434,72.044468
0.3968,-0.059237,-0.02252,0.067424,0.00779,0.009581,-0.009822,-0.024353,-0.531176,0.068455,0.436422,-261.174139,-0.155434,72.044468
0.417,-0.059325,-0.022705,0.069212,0.007857,0.009636,-0.009884,-0.024353,-0.531176,0.068455,0.436422,-261.174139,-0.155434,72.044468
0.4372,-0.059029,-0.022558,0.069152,0.007915,0.009683,-0.009933,-0.024054,-0.531484,0.069213,0.432882,-261.174139,-0.080406,72.044469
0.4567,-0.05897,-0.022722,0.069442,0.007957,0.009735,-0.009974,-0.023947,-0.531425,0.069188,0.432882,-261.174139,-0.080406,72.044469
0.4765,-0.059263,-0.022779,0.068714,0.007995,0.009778,-0.010007,-0.023583,-0.531493,0.069442,0.428617,-261.174139,-0.00554,72.04447
0.4969,-0.059472,-0.022761,0.068421,0.008028,0.009814,-0.010033,-0.02419,-0.531568,0.068776,0.428617,-261.174139,-0.00554,72.04447
0.5166,-0.05949,-0.022402,0.067756,0.008057,0.009845,-0.010053,-0.02419,-0.531568,0.068776,0.428617,-261.174139,-0.00554,72.04447
0.537,-0.059254,-0.022422,0.069118,0.008082,0.009871,-0.01007,-0.024961,-0.531231,0.067756,0.430023,-261.174138,0.069555,72.04447
0.557,-0.059512,-0.022316,0.069249,0.008112,0.009881,-0.010081,-0.024578,-0.53122,0.068318,0.430023,-261.174138,0.069555,72.04447
0.5772,-0.059197,-0.022115,0.068125,0.008138,0.009889,-0.01009,-0.024223,-0.531094,0.069249,0.431522,-261.174138,0.144597,72.044471
0.597,-0.059051,-0.022724,0.069217,0.008162,0.009892,-0.010098,-0.024457,-0.530946,0.068226,0.431522,-261.174138,0.144597,72.044471
0.6166,-0.059439,-0.022459,0.068589,0.008183,0.009896,-0.010104,-0.024457,-0.530946,0.068226,0.431522,-261.174138,0.144597,72.044471
0.6367,-0.059332,-0.022228,0.069155,0.008202,0.009899,-0.010109,-0.024486,-0.53126,0.068589,0.429365,-261.174138,0.219438,72.044472
0.6567,-0.059355,-0.022834,0.067565,0.008214,0.009908,-0.010114,-0.024324,-0.531157,0.068821,0.429365,-261.174138,0.219438,72.044472
0.6767,-0.059022,-0.022426,0.067781,0.008225,0.009916,-0.010118,-0.024923,-0.53167,0.067565,0.426314,-261.174137,0.294621,72.044473
0.697,-0.05977,-0.022319,0.067783,0.008234,0.009923,-0.010122,-0.024518,-0.53129,0.067763,0.426314,-261.174137,0.294621,72.044473
0.7166,-0.059378,-0.022582,0.069304,0.008242,0.009929,-0.010124,-0.024518,-0.53129,0.067763,0.426314,-261.174137,0.294621,72.044473
0.7367,-0.059266,-0.022727,0.068989,0.008249,0.009934,-0.010127,-0.024061,-0.531357,0.069304,0.426388,-261.174137,0.369595,72.044473
0.7567,-0.059196,-0.02274,0.067125,0.008249,0.009947,-0.010129,-0.024081,-0.531422,0.069174,0.426388,-261.174137,0.369595,72.044473
0.7768,-0.059216,-0.023102,0.068174,0.00825,0.009958,-0.010132,-0.024988,-0.531591,0.067125,0.426572,-261.174136,0.444553,72.044475
0.7969,-0.059304,-0.022807,0.069364,0.008249,0.00997,-0.010133,-0.024518,-0.531889,0.068084,0.426572,-261.174136,0.444553,72.044475
0.8167,-0.059376,-0.022517,0.068463,0.008248,0.00998,-0.010135,-0.024518,-0.531889,0.068084,0.426572,-261.174136,0.444553,72.044475
0.8369,-0.059398,-0.021939,0.067527,0.008247,0.009988,-0.010136,-0.024486,-0.531322,0.068463,0.428652,-261.174134,0.519589,72.04448
0.857,-0.059468,-0.022887,0.067655,0.008258,0.009976,-0.010134,-0.02469,-0.531099,0.06808,0.428652,-261.174134,0.519589,72.04448
0.8766,-0.05959,-0.022523,0.067716,0.008267,0.009967,-0.010133,-0.024989,-0.531719,0.067654,0.431528,-261.174121,0.594435,72.044505
0.8965,-0.059254,-0.022228,0.069569,0.008276,0.009959,-0.010132,-0.025073,-0.531385,0.067711,0.431528,-261.174121,0.594435,72.044505
0.9165,-0.05943,-0.02249,0.068488,0.008283,0.009952,-0.010132,-0.025073,-0.531385,0.067711,0.431528,-261.174121,0.594435,72.044505
0.9365,-0.059329,-0.022579,0.066653,0.008289,0.009946,-0.010132,-0.024522,-0.53129,0.068484,0.428656,-261.174068,0.669624,72.04461
0.9566,-0.059436,-0.022455,0.068727,0.008293,0.009945,-0.010132,-0.024868,-0.531354,0.067728,0.428656,-261.174068,0.669624,72.04461
0.9765,-0.059396,-0.022172,0.069183,0.008296,0.009943,-0.010133,-0.024396,-0.531237,0.068716,0.425685,-261.173888,0.744553,72.04497
0.9969,-0.059583,-0.022443,0.068903,0.008297,0.009945,-0.010134,-0.024161,-0.530976,0.069143,0.425685,-261.173888,0.744553,72.04497
1.017,-0.058849,-0.023016,0.068353,0.008298,0.009947,-0.010134,-0.024161,-0.530976,0.069143,0.425685,-261.173888,0.744553,72.04497
1.0367,-0.059006,-0.02236,0.067479,0.008298,0.009949,-0.010135,-0.023962,-0.531774,0.068309,0.425004,-261.173404,0.819579,72.045934
1.0568,-0.058998,-0.022857,0.067934,0.008292,0.009961,-0.010137,-0.024221,-0.531537,0.067969,0.425004,-261.173404,0.819579,72.045934
1.0769,-0.059157,-0.022642,0.068843,0.008286,0.009971,-0.010138,-0.024293,-0.531592,0.067855,0.425318,-261.172345,0.894433,72.048044
1.098,-0.059076,-0.022348,0.067568,0.008281,0.009979,-0.010138,-0.02409,-0.531443,0.068757,0.425318,-261.172345,0.894433,72.048044
1.1169,-0.058521,-0.022108,0.068598,0.008277,0.009986,-0.010139,-0.02409,-0.531443,0.068757,0.425318,-261.172345,0.894433,72.048044
1.137,-0.058333,-0.022315,0.069049,0.008274,0.009992,-0.010139,-0.023378,-0.530693,0.068401,0.427942,-261.170469,0.969614,72.051785
1.1571,-0.058328,-0.022374,0.068204,0.008269,0.009999,-0.010139,-0.023262,-0.530833,0.068641,0.427942,-261.170469,0.969614,72.051785
1.1766,-0.058319,-0.021854,0.067118,0.008266,0.010005,-0.010139,-0.023375,-0.530935,0.067965,0.430483,-261.167671,1.04444,72.05737
1.1968,-0.058458,-0.021575,0.06754,0.008272,0.009995,-0.01022,-0.024037,-0.530713,0.067183,0.430483,-261.167671,1.04444,72.05737
1.2168,-0.05834,-0.021602,0.067841,0.008278,0.009987,-0.010285,-0.024037,-0.530713,0.067183,0.430483,-261.167671,1.04444,72.05737
1.237,-0.057785,-0.021141,0.067007,0.008282,0.00998,-0.010337,-0.023466,-0.530009,0.067437,0.432142,-261.164204,1.098948,72.064297
1.2571,-0.057817,-0.021118,0.06694,0.008291,0.009967,-0.010426,-0.023501,-0.529955,0.067215,0.432142,-261.164204,1.098948,72.064297
1.2766,-0.056669,-0.020743,0.067601,0.008298,0.009957,-0.010497,-0.023462,-0.529642,0.066611,0.416757,-261.160589,1.100507,72.071591
1.2965,-0.056895,-0.020572,0.066182,0.008296,0.009961,-0.010603,-0.02231,-0.529568,0.067503,0.416757,-261.160589,1.100507,72.071591
1.317,-0.057007,-0.020599,0.066765,0.008294,0.009964,-0.010689,-0.02231,-0.529568,0.067503,0.416757,-261.160589,1.100507,72.071591
1.3367,-0.056132,-0.020551,0.065974,0.008293,0.009967,-0.010758,-0.022664,-0.529026,0.066327,0.403835,-261.156991,1.1016,72.078908
1.357,-0.056308,-0.020151,0.067004,0.0083,0.009956,-0.010855,-0.022564,-0.529145,0.066132,0.403835,-261.156991,1.1016,72.078908
1.3767,-0.055766,-0.019239,0.064786,0.008306,0.009946,-0.010935,-0.02192,-0.528674,0.066662,0.388754,-261.153426,1.105988,72.086268
1.3967,-0.055555,-0.01985,0.064967,0.008325,0.009915,-0.011038,-0.022661,-0.528198,0.064938,0.388754,-261.153426,1.105988,72.086268
1.4167,-0.055512,-0.019526,0.06589,0.008341,0.009889,-0.011122,-0.022661,-0.528198,0.064938,0.388754,-261.153426,1.105988,72.086268
1.4369,-0.055153,-0.018949,0.064536,0.008355,0.009868,-0.011192,-0.021613,-0.527981,0.065432,0.374838,-261.149867,1.107466,72.093679
1.4567,-0.055053,-0.019131,0.06554,0.008362,0.009858,-0.011288,-0.021838,-0.527893,0.065019,0.374838,-261.149867,1.107466,72.093679
1.4769,-0.054379,-0.01868,0.065195,0.008368,0.009849,-0.011366,-0.02141,-0.52771,0.065188,0.34813,-261.146346,1.106989,72.101077
1.4965,-0.054154,-0.018769,0.064532,0.00837,0.009848,-0.011466,-0.021163,-0.52759,0.065177,0.34813,-261.146346,1.106989,72.101077
1.5167,-0.054064,-0.018573,0.064101,0.008372,0.009846,-0.011548,-0.021163,-0.52759,0.065177,0.34813,-261.146346,1.106989,72.101077
1.5366,-0.053686,-0.018286,0.064146,0.008374,0.009845,-0.011615,-0.021073,-0.527093,0.063626,0.3344,-261.142814,1.108447,72.108557
1.5567,-0.053705,-0.017572,0.064563,0.00838,0.009836,-0.011702,-0.021004,-0.527102,0.063784,0.3344,-261.142814,1.108447,72.108557
1.5764,-0.052852,-0.017278,0.063182,0.008385,0.009828,-0.011773,-0.020556,-0.526181,0.064195,0.31747,-261.139302,1.111678,72.116086
1.5967,-0.052833,-0.017608,0.064683,0.008399,0.009805,-0.01186,-0.020632,-0.526238,0.063248,0.31747,-261.139302,1.111678,72.116086
1.6167,-0.053123,-0.017292,0.062611,0.00841,0.009787,-0.011932,-0.020632,-0.526238,0.063248,0.31747,-261.139302,1.111678,72.116086
1.6366,-0.05219,-0.016758,0.062765,0.00842,0.009772,-0.011991,-0.020889,-0.525863,0.062121,0.304675,-261.135804,1.112982,72.123637
1.6567,-0.052448,-0.016642,0.063233,0.008434,0.009748,-0.012061,-0.020571,-0.525768,0.062327,0.304675,-261.135804,1.112982,72.123637
1.6763,-0.051754,-0.01613,0.06248,0.008447,0.009727,-0.012118,-0.019975,-0.525298,0.062854,0.282939,-261.132323,1.113159,72.131201
1.6967,-0.051571,-0.016371,0.061585,0.00846,0.009706,-0.012179,-0.019903,-0.525133,0.062494,0.282939,-261.132323,1.113159,72.131201
1.7167,-0.051685,-0.016182,0.063495,0.008471,0.009689,-0.012229,-0.019903,-0.525133,0.062494,0.282939,-261.132323,1.113159,72.131201
1.7366,-0.050935,-0.015617,0.061146,0.00848,0.009674,-0.01227,-0.018998,-0.524727,0.062989,0.268731,-261.128812,1.112657,72.138856
1.7568,-0.051084,-0.016063,0.061797,0.008488,0.009661,-0.012311,-0.019284,-0.524651,0.062157,0.268731,-261.128812,1.112657,72.138856
1.7767,-0.050104,-0.015489,0.062018,0.008495,0.00965,-0.012346,-0.01934,-0.524769,0.061411,0.251616,-261.125338,1.111991,72.146451
1.7966,-0.05022,-0.015265,0.060729,0.008494,0.009655,-0.012381,-0.018556,-0.524515,0.061947,0.251616,-261.125338,1.111991,72.146451
1.817,-0.050292,-0.015484,0.060726,0.008493,0.009658,-0.012411,-0.018556,-0.524515,0.061947,0.251616,-261.125338,1.111991,72.146451
1.8368,-0.049263,-0.014719,0.060161,0.008492,0.00966,-0.012435,-0.019009,-0.524118,0.060208,0.243475,-261.121846,1.111811,72.154101
1.8566,-0.049302,-0.014626,0.059626,0.008504,0.00964,-0.012458,-0.018808,-0.523941,0.060131,0.243475,-261.121846,1.111811,72.154101
1.8771,-0.048521,-0.01404,0.060036,0.008513,0.009623,-0.012477,-0.018659,-0.523396,0.059229,0.23863,-261.118345,1.113435,72.161804
1.8966,-0.048527,-0.014503,0.05976,0.008525,0.009601,-0.012498,-0.017971,-0.523129,0.059948,0.23863,-261.118345,1.113435,72.161804
1.9166,-0.048894,-0.01424,0.058926,0.008535,0.009583,-0.012515,-0.017971,-0.523129,0.059948,0.23863,-261.118345,1.113435,72.161804
1.9366,-0.048161,-0.013869,0.058204,0.008544,0.009569,-0.01253,-0.018528,-0.522933,0.058405,0.231019,-261.114848,1.112176,72.169493
1.9566,-0.048254,-0.013884,0.059602,0.00856,0.009538,-0.012545,-0.018475,-0.522914,0.058262,0.231019,-261.114848,1.112176,72.169493
1.9764,-0.047085,-0.013683,0.058689,0.008574,0.009513,-0.012558,-0.017622,-0.52266,0.059205,0.220611,-261.111356,1.110265,72.177162
1.9967,-0.047163,-0.013223,0.057675,0.008573,0.009519,-0.012577,-0.017197,-0.522776,0.058714,0.220611,-261.111356,1.110265,72.177162
2.0169,-0.047147,-0.013046,0.058483,0.008571,0.009524,-0.012593,-0.017197,-0.522776,0.058714,0.220611,-261.111356,1.110265,72.177162
2.0365,-0.046723,-0.012934,0.058372,0.00857,0.009528,-0.012605,-0.017004,-0.521757,0.057959,0.21177,-261.107852,1.107964,72.184834
2.057,-0.046522,-0.012645,0.057956,0.008583,0.009502,-0.012616,-0.016951,-0.521835,0.058068,0.21177,-261.107852,1.107964,72.184834
2.0769,-0.046247,-0.012499,0.056521,0.008594,0.009481,-0.012626,-0.016726,-0.52147,0.057555,0.210276,-261.104346,1.109151,72.192531
2.0967,-0.04596,-0.012358,0.057814,0.008612,0.009447,-0.012636,-0.017364,-0.521651,0.056589,0.210276,-261.104346,1.109151,72.192531
2.1166,-0.04595,-0.012147,0.059025,0.008626,0.00942,-0.012645,-0.017364,-0.521651,0.056589,0.210276,-261.104346,1.109151,72.192531
2.1365,-0.04509,-0.011471,0.055844,0.008639,0.009397,-0.012653,-0.01553,-0.520843,0.058498,0.203063,-261.100846,1.107241,72.200199
2.1568,-0.044777,-0.011836,0.056219,0.00865,0.009376,-0.012663,-0.015935,-0.520727,0.057362,0.203063,-261.100846,1.107241,72.200199
2.1769,-0.044367,-0.010737,0.055052,0.008659,0.00936,-0.012671,-0.015862,-0.520716,0.055816,0.190847,-261.09733,1.103557,72.207862
2.197,-0.044437,-0.01127,0.05585,0.008683,0.009307,-0.012677,-0.016253,-0.520014,0.055099,0.190847,-261.09733,1.103557,72.207862
2.2166,-0.04436,-0.011326,0.053946,0.008704,0.009265,-0.012683,-0.016253,-0.520014,0.055099,0.190847,-261.09733,1.103557,72.207862
2.2368,-0.043706,-0.010245,0.057298,0.008722,0.009229,-0.012689,-0.01652,-0.520173,0.053416,0.185044,-261.093807,1.102039,72.215527
2.2571,-0.043369,-0.010433,0.056179,0.008734,0.009207,-0.012696,-0.015653,-0.519812,0.054945,0.185044,-261.093807,1.102039,72.215527
2.2774,-0.042862,-0.010035,0.055568,0.008745,0.00919,-0.012703,-0.014473,-0.519322,0.055777,0.168043,-261.090293,1.096232,72.22311
2.297,-0.043399,-0.010122,0.055179,0.00875,0.009179,-0.012711,-0.014518,-0.519239,0.055566,0.168043,-261.090293,1.096232,72.22311
2.3167,-0.042796,-0.010193,0.055572,0.008755,0.00917,-0.012718,-0.014518,-0.519239,0.055566,0.168043,-261.090293,1.096232,72.22311
2.3366,-0.042253,-0.009498,0.055095,0.00876,0.009163,-0.012724,-0.014125,-0.519002,0.05504,0.162214,-261.086745,1.094461,72.230745
2.3566,-0.042511,-0.00947,0.055342,0.008766,0.00915,-0.01273,-0.014103,-0.518841,0.055001,0.162214,-261.086745,1.094461,72.230745
2.3766,-0.041424,-0.00886,0.053691,0.008771,0.009139,-0.012734,-0.014039,-0.518384,0.054938,0.157577,-261.083193,1.093419,72.238381
2.3965,-0.041594,-0.009007,0.052264,0.00879,0.009093,-0.012736,-0.014041,-0.518132,0.053774,0.157577,-261.083193,1.093419,72.238381
2.4168,-0.041556,-0.00907,0.053881,0.008806,0.009056,-0.012739,-0.014041,-0.518132,0.053774,0.157577,-261.083193,1.093419,72.238381
2.4367,-0.040677,-0.008432,0.054811,0.00882,0.009026,-0.012741,-0.013745,-0.51793,0.053349,0.153959,-261.079654,1.092443,72.245977
2.4566,-0.04097,-0.008336,0.05276,0.008829,0.009004,-0.012745,-0.013297,-0.517777,0.05388,0.153959,-261.079654,1.092443,72.245977
2.4767,-0.040133,-0.008353,0.052758,0.008837,0.008986,-0.012748,-0.01381,-0.517326,0.052356,0.140191,-261.076094,1.087555,72.253563
2.4965,-0.039971,-0.008551,0.051798,0.008847,0.008962,-0.012751,-0.013274,-0.517603,0.052705,0.140191,-261.076094,1.087555,72.253563
2.5166,-0.039718,-0.008365,0.051315,0.008856,0.008943,-0.012754,-0.013274,-0.517603,0.052705,0.140191,-261.076094,1.087555,72.253563
2.5367,-0.039285,-0.007165,0.051835,0.008863,0.008928,-0.012757,-0.01321,-0.517301,0.050784,0.134936,-261.072533,1.085852,72.261134
2.5572,-0.039132,-0.007474,0.050341,0.008881,0.008881,-0.012757,-0.013026,-0.516918,0.051155,0.134936,-261.072533,1.085852,72.261134
2.5768,-0.038521,-0.007323,0.050194,0.008896,0.008842,-0.012758,-0.0132,-0.516528,0.049934,0.12755,-261.068962,1.083334,72.268697
2.597,-0.038453,-0.007236,0.052169,0.008913,0.008797,-0.012758,-0.012943,-0.516652,0.050152,0.12755,-261.068962,1.083334,72.268697
2.6169,-0.038304,-0.007542,0.051206,0.008928,0.00876,-0.012759,-0.012943,-0.516652,0.050152,0.12755,-261.068962,1.083334,72.268697
2.6368,-0.037837,-0.006844,0.05045,0.008941,0.008729,-0.01276,-0.011849,-0.516487,0.050674,0.11751,-261.065391,1.079686,72.276217
2.6569,-0.037714,-0.006943,0.050866,0.008945,0.008716,-0.012764,-0.011918,-0.516323,0.050521,0.11751,-261.065391,1.079686,72.276217
2.6772,-0.037108,-0.006237,0.051581,0.00895,0.008704,-0.012767,-0.011514,-0.515992,0.050461,0.104315,-261.061801,1.074815,72.283719
2.697,-0.037316,-0.006141,0.048369,0.008956,0.008674,-0.012769,-0.01086,-0.515581,0.051466,0.104315,-261.061801,1.074815,72.283719
2.717,-0.03706,-0.006024,0.049986,0.008962,0.008649,-0.012772,-0.01086,-0.515581,0.051466,0.104315,-261.061801,1.074815,72.283719
2.7369,-0.036462,-0.005583,0.047381,0.008967,0.008629,-0.012774,-0.011223,-0.515006,0.049453,0.10097,-261.058202,1.073839,72.291229
2.7568,-0.035989,-0.005919,0.048178,0.008994,0.008537,-0.012769,-0.011631,-0.514964,0.048533,0.10097,-261.058202,1.073839,72.291229
2.7767,-0.0356,-0.005139,0.046916,0.009017,0.008462,-0.012767,-0.011157,-0.51504,0.047773,0.092047,-261.054606,1.071222,72.298705
2.7966,-0.035567,-0.005484,0.048365,0.009043,0.008372,-0.012764,-0.011623,-0.514603,0.04697,0.092047,-261.054606,1.071222,72.298705
2.817,-0.035561,-0.005256,0.049325,0.009065,0.0083,-0.012762,-0.011623,-0.514603,0.04697,0.092047,-261.054606,1.071222,72.298705
2.8368,-0.034856,-0.004852,0.048754,0.009084,0.008241,-0.012761,-0.010059,-0.514266,0.048795,0.073583,-261.051013,1.064441,72.306093
2.8568,-0.034955,-0.004992,0.049124,0.00909,0.008209,-0.012764,-0.009994,-0.514215,0.048717,0.073583,-261.051013,1.064441,72.306093
2.8767,-0.034032,-0.004103,0.047578,0.009095,0.008182,-0.012767,-0.009639,-0.514104,0.048722,0.049194,-261.047413,1.055346,72.313386
2.897,-0.034086,-0.004346,0.047577,0.00911,0.0081,-0.012765,-0.009751,-0.513562,0.047657,0.049194,-261.047413,1.055346,72.313386
2.9168,-0.033929,-0.004583,0.045625,0.009122,0.008035,-0.012765,-0.009751,-0.513562,0.047657,0.049194,-261.047413,1.055346,72.313386
2.937,-0.033016,-0.003567,0.046662,0.009133,0.007982,-0.012764,-0.010304,-0.513694,0.045092,0.042312,-261.043773,1.053344,72.320738
2.9571,-0.033208,-0.004082,0.045913,0.009146,0.007919,-0.012763,-0.009822,-0.513373,0.045672,0.042312,-261.043773,1.053344,72.320738
2.9771,-0.032611,-0.00325,0.047322,0.009157,0.007869,-0.012763,-0.009523,-0.513278,0.045508,0.020377,-261.04015,1.046069,72.327968
2.9971,-0.032773,-0.003467,0.047037,0.009161,0.007785,-0.012764,-0.008562,-0.512718,0.047145,0.020377,-261.04015,1.046069,72.327968
3.0169,-0.032275,-0.003069,0.04529,0.009164,0.007719,-0.012765,-0.008562,-0.512718,0.047145,0.020377,-261.04015,1.046069,72.327968
3.037,-0.031957,-0.003134,0.045099,0.009167,0.007666,-0.012766,-0.008819,-0.512201,0.044757,0.008086,-261.036499,1.04177,72.335202
3.0567,-0.031736,-0.002973,0.045331,0.009179,0.007567,-0.012764,-0.008836,-0.51233,0.044835,0.008086,-261.036499,1.04177,72.335202
3.077,-0.03118,-0.003261,0.044173,0.009189,0.007488,-0.012763,-0.008346,-0.512193,0.044926,-0.014298,-261.032868,1.035645,72.342322
3.0969,-0.031173,-0.002413,0.0473,0.009189,0.007484,-0.012766,-0.008616,-0.512699,0.044221,-0.014298,-261.032868,1.035645,72.342322
3.117,-0.031117,-0.002668,0.044766,0.00919,0.007481,-0.012768,-0.008616,-0.512699,0.044221,-0.014298,-261.032868,1.035645,72.342322
3.137,-0.030066,-0.002083,0.044626,0.00919,0.007479,-0.01277,-0.007925,-0.511829,0.044234,-0.033371,-261.029214,1.02944,72.349409
3.1572,-0.030293,-0.002377,0.043439,0.009184,0.007351,-0.01277,-0.007637,-0.511689,0.04433,-0.033371,-261.029214,1.02944,72.349409
3.1763,-0.029524,-0.001897,0.043406,0.00918,0.007252,-0.012771,-0.007862,-0.511644,0.04303,-0.034846,-261.025519,1.029267,72.356573
3.1967,-0.029324,-0.001662,0.04327,0.009173,0.007135,-0.012772,-0.007418,-0.511423,0.043358,-0.034846,-261.025519,1.029267,72.356573
3.2166,-0.029576,-0.001496,0.042773,0.009167,0.007044,-0.012773,-0.007418,-0.511423,0.043358,-0.034846,-261.025519,1.029267,72.356573
3.2366,-0.028874,-0.00173,0.042082,0.009163,0.006973,-0.012775,-0.007404,-0.510716,0.042247,-0.059634,-261.021881,1.023123,72.363548
3.2571,-0.028583,-0.001413,0.042041,0.009157,0.006831,-0.012772,-0.007367,-0.510913,0.042116,-0.059634,-261.021881,1.023123,72.363548
3.2766,-0.027909,-0.001376,0.042384,0.009154,0.00672,-0.012771,-0.006871,-0.510732,0.04164,-0.090281,-261.018255,1.015684,72.3704
3.2966,-0.027775,-0.000989,0.042216,0.009113,0.006641,-0.012782,-0.006335,-0.51089,0.0423,-0.090281,-261.018255,1.015684,72.3704
3.3165,-0.027895,-0.000854,0.041611,0.00908,0.00658,-0.01279,-0.006335,-0.51089,0.0423,-0.090281,-261.018255,1.015684,72.3704
3.3369,-0.027519,-0.000413,0.040853,0.009053,0.006533,-0.012796,-0.006315,-0.510121,0.041086,-0.117391,-261.014633,1.008323,72.377144
3.3572,-0.027116,-0.000712,0.040899,0.00902,0.006325,-0.012792,-0.006425,-0.510033,0.040931,-0.117391,-261.014633,1.008323,72.377144
3.3764,-0.026316,-0.000186,0.040546,0.008995,0.006165,-0.012789,-0.005986,-0.510068,0.040495,-0.140657,-261.011007,1.007953,72.383873
3.3965,-0.026451,-0.0007,0.04074,0.008922,0.005977,-0.0128,-0.00566,-0.509783,0.040521,-0.140657,-261.011007,1.007953,72.383873
3.4167,-0.026071,-0.000398,0.039626,0.008864,0.005835,-0.012807,-0.00566,-0.509783,0.040521,-0.140657,-261.011007,1.007953,72.383873
3.4366,-0.025648,7.5e-05,0.043207,0.008819,0.005727,-0.012811,-0.005511,-0.509733,0.039106,-0.180994,-261.007421,0.998935,72.39039
3.4566,-0.025892,7e-05,0.038819,0.008682,0.005574,-0.012835,-0.004664,-0.509581,0.04079,-0.180994,-261.007421,0.998935,72.39039
3.4767,-0.024539,0.000278,0.040251,0.008574,0.00546,-0.012851,-0.005841,-0.509364,0.038433,-0.233518,-261.00398,0.993842,72.396528
3.4968,-0.024654,0.000439,0.039546,0.008411,0.00529,-0.012869,-0.004168,-0.509305,0.040066,-0.233518,-261.00398,0.993842,72.396528
3.5169,-0.024941,0.000353,0.038213,0.008286,0.005164,-0.01288,-0.004168,-0.509305,0.040066,-0.233518,-261.00398,0.993842,72.396528
3.5365,-0.024202,0.000504,0.038574,0.008188,0.005072,-0.012885,-0.005115,-0.509038,0.037687,-0.271652,-261.000493,0.998475,72.402731
3.557,-0.024393,0.000693,0.039906,0.008179,0.00497,-0.012868,-0.004836,-0.509043,0.037991,-0.271652,-261.000493,0.998475,72.402731
3.5765,-0.023662,0.000797,0.039011,0.008173,0.004893,-0.012855,-0.003806,-0.508738,0.039517,-0.329278,-260.997217,1.006654,72.408528
3.5967,-0.023445,0.000982,0.037679,0.008011,0.004725,-0.012866,-0.003763,-0.508801,0.039035,-0.329278,-260.997217,1.006654,72.408528
3.6172,-0.02335,0.001058,0.038521,0.007887,0.004601,-0.01287,-0.003763,-0.508801,0.039035,-0.329278,-260.997217,1.006654,72.408528
3.637,-0.022824,0.001009,0.036262,0.007791,0.004508,-0.01287,-0.003379,-0.508348,0.037987,-0.347237,-260.993767,1.000556,72.414537
3.6564,-0.022426,0.001024,0.03773,0.007686,0.004355,-0.012866,-0.003729,-0.508448,0.037224,-0.347237,-260.993767,1.000556,72.414537
3.6764,-0.02253,0.001265,0.038011,0.007605,0.00424,-0.012861,-0.002959,-0.508469,0.037343,-0.406346,-260.990557,1.008696,72.42007
3.6968,-0.022132,0.001288,0.037773,0.007428,0.004099,-0.012867,-0.003122,-0.508368,0.037935,-0.406346,-260.990557,1.008696,72.42007
3.7169,-0.022084,0.001222,0.036733,0.007292,0.003995,-0.012867,-0.003122,-0.508368,0.037935,-0.406346,-260.990557,1.008696,72.42007
3.7371,-0.021558,0.001098,0.036102,0.007186,0.003918,-0.012864,-0.003049,-0.508249,0.036205,-0.443659,-260.98727,1.009498,72.425648
3.7573,-0.02146,0.001614,0.035312,0.007093,0.003859,-0.012859,-0.003054,-0.508356,0.036104,-0.443659,-260.98727,1.009498,72.425648
3.7769,-0.021041,0.001741,0.036266,0.00702,0.003816,-0.012853,-0.003242,-0.507942,0.034922,-0.501406,-260.98417,1.022844,72.430865
3.7971,-0.020783,0.001798,0.036615,0.006835,0.003654,-0.01286,-0.002601,-0.507919,0.036125,-0.501406,-260.98417,1.022844,72.430865
3.8167,-0.020826,0.002019,0.035465,0.006693,0.003532,-0.012859,-0.002601,-0.507919,0.036125,-0.501406,-260.98417,1.022844,72.430865
3.8368,-0.020149,0.002195,0.035403,0.006583,0.003441,-0.012854,-0.002457,-0.507491,0.03493,-0.521572,-260.980955,1.029101,72.436273
3.8569,-0.020205,0.001901,0.03528,0.006393,0.003261,-0.012862,-0.002278,-0.507469,0.03506,-0.521572,-260.980955,1.029101,72.436273
3.8764,-0.019407,0.002518,0.034317,0.006246,0.003125,-0.012863,-0.002024,-0.507672,0.034898,-0.590213,-260.978025,1.043007,72.441105
3.8968,-0.019222,0.002086,0.034458,0.006035,0.002957,-0.012873,-0.001909,-0.507221,0.03435,-0.590213,-260.978025,1.043007,72.441105
3.9171,-0.019386,0.002385,0.034984,0.005871,0.002829,-0.012875,-0.001909,-0.507221,0.03435,-0.590213,-260.978025,1.043007,72.441105
3.9367,-0.018904,0.00226,0.034631,0.005743,0.002732,-0.012871,-0.001305,-0.507171,0.034475,-0.648262,-260.975061,1.053585,72.445884
3.9567,-0.01895,0.002575,0.034703,0.005486,0.002641,-0.012893,-0.001253,-0.507263,0.03448,-0.648262,-260.975061,1.053585,72.445884
3.9765,-0.018331,0.00261,0.033379,0.005286,0.002572,-0.012902,-0.001094,-0.507034,0.034336,-0.72324,-260.972305,1.07402,72.450197
3.997,-0.018779,0.002871,0.034555,0.005135,0.002495,-0.012898,-0.001283,-0.507095,0.033447,-0.72324,-260.972305,1.07402,72.450197
4.017,-0.01839,0.002225,0.033527,0.005016,0.002436,-0.01289,-0.001283,-0.507095,0.033447,-0.72324,-260.972305,1.07402,72.450197
4.0368,-0.017851,0.002664,0.032355,0.004921,0.002392,-0.01288,-0.001093,-0.507382,0.033028,-0.787479,-260.969537,1.102583,72.454526
4.0568,-0.018027,0.002907,0.032867,0.004832,0.002386,-0.012872,-0.001175,-0.507243,0.032698,-0.787479,-260.969537,1.102583,72.454526
4.0768,-0.017258,0.002793,0.03317,0.004761,0.002382,-0.012862,-0.00112,-0.50674,0.032473,-0.838569,-260.966732,1.12348,72.45886
4.0971,-0.016859,0.002828,0.031734,0.004499,0.002305,-0.012888,-0.00041,-0.506905,0.033083,-0.838569,-260.966732,1.12348,72.45886
4.1167,-0.016758,0.00279,0.031887,0.004293,0.002246,-0.0129,-0.00041,-0.506905,0.033083,-0.838569,-260.966732,1.12348,72.45886
4.1366,-0.016502,0.003068,0.030971,0.004132,0.002202,-0.012904,-0.000304,-0.506846,0.031352,-0.854836,-260.963849,1.135469,72.463347
4.1569,-0.016672,0.002926,0.031191,0.004017,0.002149,-0.012899,-0.000447,-0.506769,0.031135,-0.854836,-260.963849,1.135469,72.463347
4.1763,-0.015804,0.002775,0.031573,0.003926,0.002108,-0.012892,-0.000656,-0.506762,0.030841,-0.929827,-260.961442,1.181884,72.467082
4.1965,-0.016303,0.002934,0.029682,0.00369,0.002112,-0.012908,0.00022,-0.50695,0.031494,-0.929827,-260.961442,1.181884,72.467082
4.2166,-0.016392,0.003179,0.031023,0.003505,0.002115,-0.012913,0.00022,-0.50695,0.031494,-0.929827,-260.961442,1.181884,72.467082
4.2368,-0.015679,0.003172,0.029616,0.003359,0.002118,-0.012912,-0.000416,-0.506486,0.030501,-0.972957,-260.958746,1.196071,72.471228
4.2565,-0.016137,0.002921,0.032165,0.003414,0.002056,-0.012873,-0.000463,-0.506524,0.030084,-0.972957,-260.958746,1.196071,72.471228
4.2763,-0.015493,0.003289,0.030153,0.003455,0.002008,-0.012845,0.000357,-0.506752,0.0318,-1.043413,-260.956376,1.246809,72.474975
4.2968,-0.015413,0.003165,0.031696,0.003395,0.001964,-0.01284,-7.4e-05,-0.506498,0.030272,-1.043413,-260.956376,1.246809,72.474975
4.3168,-0.015448,0.003764,0.030509,0.003347,0.00193,-0.012835,-7.4e-05,-0.506498,0.030272,-1.043413,-260.956376,1.246809,72.474975
4.3368,-0.014785,0.003305,0.028214,0.003309,0.001904,-0.012829,0.00025,-0.50591,0.029975,-1.036418,-260.953674,1.233588,72.479134
4.357,-0.015485,0.003537,0.029777,0.003262,0.001834,-0.012827,-1e-06,-0.50614,0.029186,-1.036418,-260.953674,1.233588,72.479134
4.3768,-0.014375,0.003496,0.028346,0.003225,0.00178,-0.012824,-0.000199,-0.506174,0.029374,-1.061905,-260.950992,1.243237,72.483195
4.3969,-0.014436,0.003259,0.030067,0.003187,0.001759,-0.012824,5.9e-05,-0.506284,0.028418,-1.061905,-260.950992,1.243237,72.483195
4.4169,-0.014272,0.003519,0.031008,0.003156,0.001744,-0.012824,5.9e-05,-0.506284,0.028418,-1.061905,-260.950992,1.243237,72.483195
4.4366,-0.014215,0.003433,0.02917,0.003132,0.001732,-0.012822,0.001672,-0.506158,0.030475,-1.081211,-260.948266,1.247117,72.487226
4.457,-0.013876,0.003355,0.02858,0.002842,0.001743,-0.012868,0.001274,-0.506227,0.029881,-1.081211,-260.948266,1.247117,72.487226
4.4764,-0.013629,0.003442,0.026341,0.002614,0.001751,-0.012895,0.000795,-0.506379,0.028174,-1.096386,-260.945531,1.254266,72.49124
4.4967,-0.01343,0.003835,0.028518,0.002757,0.001759,-0.012855,-0.000107,-0.506378,0.026477,-1.096386,-260.945531,1.254266,72.49124
4.5168,-0.013331,0.003534,0.0279,0.002867,0.001765,-0.012829,-0.000107,-0.506378,0.026477,-1.096386,-260.945531,1.254266,72.49124
4.5366,-0.012714,0.003861,0.026826,0.002951,0.001769,-0.012812,0.000991,-0.506201,0.027425,-1.167463,-260.94318,1.305669,72.494761
4.5565,-0.012829,0.003871,0.026461,0.002766,0.001742,-0.012847,0.000992,-0.506093,0.027126,-1.167463,-260.94318,1.305669,72.494761
4.5767,-0.01264,0.0033,0.025543,0.00262,0.001721,-0.012869,0.000752,-0.505895,0.026076,-1.117364,-260.940633,1.272382,72.498556
4.5969,-0.012873,0.003832,0.02718,0.002638,0.00175,-0.012857,0.000422,-0.506475,0.02557,-1.117364,-260.940633,1.272382,72.498556
4.6168,-0.012606,0.003935,0.02567,0.00265,0.001773,-0.012848,0.000422,-0.506475,0.02557,-1.117364,-260.940633,1.272382,72.498556
4.6366,-0.01208,0.003803,0.025297,0.002659,0.001791,-0.012842,0.000586,-0.505827,0.02516,-1.167354,-260.938112,1.303817,72.502307
4.6566,-0.012087,0.004195,0.024967,0.002607,0.001727,-0.012847,0.000692,-0.505902,0.025158,-1.167354,-260.938112,1.303817,72.502307
4.6767,-0.011681,0.004026,0.025933,0.002566,0.001678,-0.012849,0.000728,-0.505587,0.024559,-1.156891,-260.93547,1.301529,72.506302
4.6967,-0.011254,0.004104,0.024505,0.002376,0.001646,-0.012883,0.001467,-0.505778,0.025773,-1.156891,-260.93547,1.301529,72.506302
4.7165,-0.011421,0.00433,0.025141,0.002225,0.001621,-0.012904,0.001467,-0.505778,0.025773,-1.156891,-260.93547,1.301529,72.506302
4.7365,-0.010736,0.00428,0.024416,0.002105,0.0016,-0.012916,0.001505,-0.505437,0.024608,-1.176661,-260.932815,1.307672,72.510221
4.7566,-0.011204,0.004238,0.024113,0.001995,0.001554,-0.012926,0.001603,-0.505482,0.024468,-1.176661,-260.932815,1.307672,72.510221
4.7767,-0.010945,0.003957,0.023704,0.001906,0.001518,-0.012931,0.001151,-0.505567,0.023746,-1.247673,-260.930449,1.352439,72.51369
4.7967,-0.011126,0.00446,0.023995,0.00192,0.001521,-0.012916,0.001147,-0.505867,0.023689,-1.247673,-260.930449,1.352439,72.51369
4.8165,-0.010729,0.004215,0.023861,0.00193,0.001524,-0.012906,0.001147,-0.505867,0.023689,-1.247673,-260.930449,1.352439,72.51369
4.8366,-0.010771,0.004178,0.023922,0.001937,0.001526,-0.012898,0.001515,-0.505576,0.023331,-1.280461,-260.927842,1.371053,72.517451
4.8567,-0.010651,0.003895,0.023704,0.001879,0.001507,-0.012903,0.001489,-0.505609,0.023511,-1.280461,-260.927842,1.371053,72.517451
4.8764,-0.010195,0.004324,0.021731,0.001833,0.001492,-0.012906,0.001497,-0.505912,0.023294,-1.274732,-260.925188,1.367637,72.521288
4.8971,-0.010345,0.004526,0.020291,0.00191,0.001464,-0.012886,0.000944,-0.505584,0.021848,-1.274732,-260.925188,1.367637,72.521288
4.917,-0.009783,0.004626,0.02249,0.00197,0.001442,-0.012873,0.000944,-0.505584,0.021848,-1.274732,-260.925188,1.367637,72.521288
4.9366,-0.0097,0.004729,0.020581,0.002017,0.001424,-0.012866,0.001761,-0.505182,0.021953,-1.291455,-260.922549,1.377693,72.525081
4.9565,-0.009432,0.004702,0.02309,0.001976,0.001376,-0.012876,0.001379,-0.505167,0.021337,-1.291455,-260.922549,1.377693,72.525081
4.9764,-0.009326,0.004243,0.020211,0.001944,0.001339,-0.012884,0.002404,-0.505116,0.022687,-1.266989,-260.919896,1.356823,72.528818
4.9965,-0.008811,0.004708,0.021624,0.001966,0.001349,-0.01288,0.001111,-0.505602,0.020412,-1.266989,-260.919896,1.356823,72.528818
5.0165,-0.009085,0.004643,0.020351,0.001983,0.001357,-0.012877,0.001111,-0.505602,0.020412,-1.266989,-260.919896,1.356823,72.528818
5.0368,-0.008719,0.004811,0.0198,0.001996,0.001363,-0.012876,0.001373,-0.505194,0.019814,-1.281457,-260.917181,1.362714,72.532568
5.0566,-0.008774,0.004323,0.018982,0.001962,0.001326,-0.012888,0.001384,-0.505144,0.019747,-1.281457,-260.917181,1.362714,72.532568
5.0769,-0.008201,0.004557,0.018914,0.001935,0.001296,-0.012896,0.000969,-0.50554,0.018573,-1.272883,-260.91446,1.35776,72.536345
5.0967,-0.008251,0.004736,0.020654,0.001906,0.001296,-0.012906,0.001407,-0.505366,0.018865,-1.272883,-260.91446,1.35776,72.536345
5.1171,-0.008436,0.004846,0.01765,0.001884,0.001295,-0.012912,0.001407,-0.505366,0.018865,-1.272883,-260.91446,1.35776,72.536345
5.1366,-0.007755,0.005073,0.019697,0.001866,0.001295,-0.012917,0.000645,-0.505019,0.017113,-1.284767,-260.911725,1.362866,72.540083
5.1568,-0.00814,0.005217,0.01975,0.001876,0.00125,-0.012915,0.00133,-0.504934,0.018113,-1.284767,-260.911725,1.362866,72.540083
5.1769,-0.00729,0.004678,0.018176,0.001884,0.001214,-0.012914,0.00199,-0.504641,0.01934,-1.29507,-260.908991,1.370384,72.543823
5.1969,-0.007512,0.005207,0.019619,0.001765,0.001233,-0.012937,0.001983,-0.505185,0.018256,-1.29507,-260.908991,1.370384,72.543823
5.2169,-0.007513,0.004822,0.017795,0.00167,0.001246,-0.012951,0.001983,-0.505185,0.018256,-1.29507,-260.908991,1.370384,72.543823
5.2366,-0.006868,0.00511,0.016984,0.001595,0.001257,-0.01296,0.00164,-0.505045,0.017255,-1.295612,-260.906223,1.366678,72.547533
5.2567,-0.007392,0.004981,0.017347,0.001592,0.00123,-0.012949,0.001711,-0.504947,0.017083,-1.295612,-260.906223,1.366678,72.547533
5.2768,-0.006225,0.005204,0.017167,0.001589,0.001209,-0.012941,0.001503,-0.504903,0.01695,-1.335635,-260.903593,1.398578,72.551109
5.2971,-0.006944,0.004779,0.017054,0.00147,0.001203,-0.012956,0.002442,-0.504735,0.017128,-1.335635,-260.903593,1.398578,72.551109
5.3169,-0.006711,0.004895,0.016214,0.001374,0.001198,-0.012964,0.002442,-0.504735,0.017128,-1.335635,-260.903593,1.398578,72.551109
5.3365,-0.00659,0.005115,0.015611,0.001297,0.001194,-0.012968,0.001623,-0.504987,0.015672,-1.337712,-260.900844,1.398111,72.554804
5.3569,-0.005872,0.005025,0.01715,0.001387,0.00117,-0.012929,0.001528,-0.504914,0.015585,-1.337712,-260.900844,1.398111,72.554804
5.3769,-0.005788,0.005462,0.016514,0.001456,0.001151,-0.012901,0.002913,-0.504863,0.016754,-1.380261,-260.898224,1.429397,72.558325
5.3964,-0.005643,0.005225,0.016308,0.001337,0.001147,-0.012918,0.002661,-0.504502,0.016516,-1.380261,-260.898224,1.429397,72.558325
5.4165,-0.00609,0.004803,0.015655,0.001241,0.001144,-0.012928,0.002661,-0.504502,0.016516,-1.380261,-260.898224,1.429397,72.558325
5.4369,-0.005538,0.004882,0.015642,0.001164,0.00114,-0.012933,0.001953,-0.505086,0.015123,-1.357651,-260.895507,1.410894,72.561934
5.4569,-0.005617,0.005073,0.015008,0.001161,0.001162,-0.012913,0.002159,-0.505068,0.015274,-1.357651,-260.895507,1.410894,72.561934
5.4767,-0.005035,0.005413,0.015692,0.001157,0.001179,-0.012898,0.002072,-0.504834,0.014615,-1.400205,-260.892881,1.442685,72.565424
5.4965,-0.005474,0.005053,0.015674,0.001058,0.001181,-0.012901,0.002892,-0.504549,0.015579,-1.400205,-260.892881,1.442685,72.565424
5.5164,-0.005064,0.005207,0.015206,0.000979,0.001183,-0.012901,0.002892,-0.504549,0.015579,-1.400205,-260.892881,1.442685,72.565424
5.5368,-0.004751,0.005093,0.013074,0.000914,0.001183,-0.012898,0.002738,-0.504684,0.014668,-1.399743,-260.890166,1.443728,72.56907
5.5569,-0.004652,0.005049,0.013928,0.000926,0.001172,-0.012854,0.002408,-0.504752,0.013953,-1.399743,-260.890166,1.443728,72.56907
5.577,-0.003978,0.00514,0.013994,0.000934,0.001163,-0.012819,0.002478,-0.504865,0.01353,-1.435036,-260.887547,1.470209,72.572601
5.5968,-0.004223,0.005539,0.014237,0.00083,0.001197,-0.012805,0.003098,-0.504813,0.013931,-1.435036,-260.887547,1.470209,72.572601
5.6165,-0.004517,0.005349,0.012992,0.000747,0.001223,-0.012791,0.003098,-0.504813,0.013931,-1.435036,-260.887547,1.470209,72.572601
5.6367,-0.003859,0.00567,0.012248,0.00068,0.001244,-0.012778,0.002147,-0.504559,0.012455,-1.431653,-260.884855,1.467344,72.576216
5.6566,-0.004062,0.005699,0.013035,0.000769,0.001183,-0.012677,0.002249,-0.504444,0.012309,-1.431653,-260.884855,1.467344,72.576216
5.6769,-0.003535,0.005199,0.010217,0.000839,0.001135,-0.012601,0.002606,-0.50422,0.012641,-1.467502,-260.882304,1.495772,72.579726
5.6965,-0.003781,0.005754,0.012043,0.000968,0.001095,-0.012382,0.001762,-0.504721,0.010419,-1.467502,-260.882304,1.495772,72.579726
5.7165,-0.003365,0.00583,0.010767,0.001069,0.001063,-0.012223,0.001762,-0.504721,0.010419,-1.467502,-260.882304,1.495772,72.579726
5.7364,-0.003295,0.005277,0.010554,0.00115,0.001038,-0.012108,0.00216,-0.504093,0.010247,-1.443551,-260.879694,1.476024,72.583225
5.7568,-0.002978,0.005554,0.012062,0.001162,0.000999,-0.012021,0.002134,-0.504335,0.010313,-1.443551,-260.879694,1.476024,72.583225
5.7768,-0.002708,0.005514,0.011106,0.001173,0.000969,-0.011958,0.003207,-0.504378,0.011702,-1.391867,-260.877287,1.435304,72.586397
5.7966,-0.002937,0.005636,0.011777,0.001049,0.000996,-0.011999,0.002981,-0.504445,0.011142,-1.391867,-260.877287,1.435304,72.586397
5.8165,-0.0031,0.005752,0.011332,0.000949,0.001017,-0.012028,0.002981,-0.504445,0.011142,-1.391867,-260.877287,1.435304,72.586397
5.8365,-0.002558,0.005768,0.010021,0.000869,0.001033,-0.012048,0.002728,-0.504175,0.010832,-1.387722,-260.874706,1.429951,72.589745
5.8569,-0.002492,0.005376,0.010471,0.000862,0.001006,-0.011991,0.002661,-0.504183,0.010438,-1.387722,-260.874706,1.429951,72.589745
5.8765,-0.002263,0.005501,0.008985,0.000856,0.000985,-0.011948,0.002874,-0.504565,0.010108,-1.43422,-260.8723,1.467578,72.592923
5.8967,-0.002167,0.005513,0.010324,0.000881,0.00097,-0.011753,0.002373,-0.504485,0.009072,-1.43422,-260.8723,1.467578,72.592923
5.9167,-0.002491,0.005715,0.01043,0.000901,0.000958,-0.01161,0.002373,-0.504485,0.009072,-1.43422,-260.8723,1.467578,72.592923
5.9368,-0.001963,0.005634,0.009651,0.000917,0.00095,-0.011504,0.002863,-0.504215,0.00993,-1.43594,-260.869752,1.467748,72.596253
5.9569,-0.001828,0.005748,0.008486,0.000867,0.000953,-0.011516,0.002906,-0.504262,0.009758,-1.43594,-260.869752,1.467748,72.596253
5.9764,-0.001608,0.006003,0.008298,0.000826,0.000955,-0.011524,0.002529,-0.504204,0.008121,-1.421007,-260.867308,1.456313,72.599447
5.9965,-0.001714,0.005878,0.009672,0.000842,0.000917,-0.011321,0.002617,-0.503998,0.008264,-1.421007,-260.867308,1.456313,72.599447
6.0167,-0.001905,0.005655,0.007879,0.000855,0.000888,-0.011173,0.002617,-0.503998,0.008264,-1.421007,-260.867308,1.456313,72.599447
6.0366,-0.00092,0.006214,0.006326,0.000865,0.000866,-0.011067,0.002147,-0.504289,0.007398,-1.435814,-260.864862,1.467804,72.602648
6.0567,-0.001309,0.005808,0.008489,0.000929,0.000837,-0.010725,0.002216,-0.504075,0.006906,-1.435814,-260.864862,1.467804,72.602648
6.0766,-0.000766,0.005606,0.006915,0.00098,0.000815,-0.010485,0.003047,-0.504146,0.008138,-1.42504,-260.862491,1.457811,72.605702
6.0966,-0.000794,0.005968,0.008455,0.000922,0.000842,-0.010355,0.002788,-0.504359,0.007007,-1.42504,-260.862491,1.457811,72.605702
6.1165,-0.000945,0.006076,0.008789,0.000877,0.000863,-0.010262,0.002788,-0.504359,0.007007,-1.42504,-260.862491,1.457811,72.605702
6.1367,-0.000756,0.006069,0.007243,0.000841,0.00088,-0.010197,0.003577,-0.50387,0.008358,-1.397273,-260.860267,1.435926,72.608558
6.1564,-0.00025,0.00616,0.007309,0.00076,0.000893,-0.010299,0.003323,-0.503885,0.007858,-1.397273,-260.860267,1.435926,72.608558
6.1773,-0.000298,0.006201,0.006166,0.000693,0.000902,-0.010373,0.003504,-0.503798,0.006988,-1.414762,-260.858121,1.452996,72.611395
6.1968,-0.000326,0.005655,0.007331,0.000696,0.00088,-0.010093,0.002905,-0.503789,0.006222,-1.414762,-260.858121,1.452996,72.611395
6.2165,0.000141,0.006174,0.006528,0.000698,0.000863,-0.009894,0.002905,-0.503789,0.006222,-1.414762,-260.858121,1.452996,72.611395
6.2368,-1.7e-05,0.006102,0.005235,0.0007,0.00085,-0.009753,0.003498,-0.503778,0.006104,-1.443895,-260.855978,1.475294,72.614241
6.2567,1.6e-05,0.006151,0.003885,0.000664,0.000853,-0.009532,0.003156,-0.50382,0.0057,-1.443895,-260.855978,1.475294,72.614241
6.2767,0.000471,0.006178,0.006206,0.000636,0.000856,-0.009377,0.00202,-0.503818,0.003574,-1.434657,-260.853917,1.468373,72.616976
6.2968,0.000592,0.005992,0.005841,0.00057,0.000876,-0.009334,0.003499,-0.503811,0.005965,-1.434657,-260.853917,1.468373,72.616976
6.3171,0.000332,0.005979,0.006089,0.000516,0.000892,-0.009302,0.003499,-0.503811,0.005965,-1.434657,-260.853917,1.468373,72.616976
6.3367,0.000745,0.006494,0.004668,0.000472,0.000905,-0.009278,0.003463,-0.503976,0.005697,-1.440857,-260.851958,1.474422,72.619614
6.3568,0.000768,0.00618,0.005123,0.000458,0.000904,-0.009072,0.00333,-0.50378,0.005236,-1.440857,-260.851958,1.474422,72.619614
6.3763,0.000705,0.006389,0.003638,0.000447,0.000905,-0.008927,0.003395,-0.503785,0.004834,-1.471994,-260.850091,1.499097,72.622184
6.3967,0.001113,0.006372,0.005776,0.000536,0.00086,-0.008338,0.002637,-0.503623,0.003732,-1.471994,-260.850091,1.499097,72.622184
6.417,0.000798,0.006175,0.003751,0.000607,0.000828,-0.007936,0.002637,-0.503623,0.003732,-1.471994,-260.850091,1.499097,72.622184
6.4371,0.001337,0.006071,0.003175,0.000664,0.000803,-0.007664,0.002729,-0.503783,0.003377,-1.472759,-260.84826,1.500551,72.624738
6.4567,0.001314,0.006287,0.004872,0.000673,0.000802,-0.00731,0.002825,-0.503838,0.003251,-1.472759,-260.84826,1.500551,72.624738
6.4763,0.001267,0.006133,0.00281,0.00068,0.000804,-0.007069,0.003817,-0.503684,0.004657,-1.401237,-260.846868,1.45033,72.626692
6.4964,0.001442,0.006313,0.004128,0.000689,0.000804,-0.006789,0.002798,-0.503849,0.002959,-1.401237,-260.846868,1.45033,72.626692
6.5164,0.001463,0.006455,0.003694,0.000697,0.000806,-0.006597,0.002798,-0.503849,0.002959,-1.401237,-260.846868,1.45033,72.626692
6.5366,0.0019,0.006364,0.00489,0.000702,0.000808,-0.006466,0.003375,-0.503509,0.003402,-1.37953,-260.84545,1.43871,72.628739
6.5568,0.001527,0.006286,0.003992,0.000597,0.000845,-0.006736,0.003797,-0.503554,0.00398,-1.37953,-260.84545,1.43871,72.628739
6.5771,0.001602,0.006173,0.001997,0.000511,0.000872,-0.006925,0.003584,-0.503685,0.003789,-1.350743,-260.844184,1.424193,72.630631
6.5969,0.001678,0.006434,0.002675,0.000566,0.000849,-0.00633,0.002705,-0.503812,0.002142,-1.350743,-260.844184,1.424193,72.630631
6.6169,0.001653,0.006279,0.002461,0.000611,0.000834,-0.005919,0.002705,-0.503812,0.002142,-1.350743,-260.844184,1.424193,72.630631
6.6369,0.001581,0.006555,0.003164,0.000647,0.000824,-0.005637,0.002927,-0.503686,0.002201,-1.419858,-260.842971,1.471043,72.632462
6.657,0.001887,0.006332,0.001759,0.00064,0.000819,-0.005623,0.003037,-0.503585,0.002557,-1.419858,-260.842971,1.471043,72.632462
6.6767,0.002086,0.006451,0.002817,0.000634,0.000815,-0.005613,0.0028,-0.503645,0.001608,-1.344991,-260.842064,1.420312,72.633914
6.6968,0.00184,0.006356,0.003972,0.000576,0.000831,-0.005669,0.003461,-0.503555,0.002704,-1.344991,-260.842064,1.420312,72.633914
6.7168,0.002081,0.006748,0.001672,0.000529,0.000843,-0.005705,0.003461,-0.503555,0.002704,-1.344991,-260.842064,1.420312,72.633914
6.7365,0.001936,0.006173,0.002264,0.000491,0.000852,-0.005729,0.00296,-0.503217,0.001438,-1.332784,-260.840993,1.422488,72.635623
6.7565,0.002015,0.00644,0.002113,0.00052,0.000829,-0.005311,0.003015,-0.503459,0.001745,-1.332784,-260.840993,1.422488,72.635623
6.7764,0.00225,0.006683,0.002312,0.000543,0.000812,-0.005019,0.003108,-0.503534,0.001943,-1.387322,-260.839986,1.458409,72.637261
6.797,0.002436,0.006611,0.002451,0.000518,0.000812,-0.005056,0.003401,-0.503333,0.002271,-1.387322,-260.839986,1.458409,72.637261
6.8167,0.002201,0.006358,-0.000791,0.000499,0.000811,-0.00508,0.003401,-0.503333,0.002271,-1.387322,-260.839986,1.458409,72.637261
6.8367,0.002371,0.006459,0.002945,0.000482,0.000811,-0.005095,0.001819,-0.50361,-0.000989,-1.334442,-260.839109,1.43172,72.638741
6.8567,0.002712,0.00661,0.001211,0.000559,0.000787,-0.004247,0.002665,-0.503577,0.000603,-1.334442,-260.839109,1.43172,72.638741
6.877,0.002582,0.006176,0.000325,0.000619,0.000769,-0.00366,0.003344,-0.503364,0.001051,-1.364162,-260.838188,1.448467,72.640291
6.8967,0.002047,0.00677,0.000393,0.000641,0.000773,-0.003136,0.002804,-0.50378,0.000384,-1.364162,-260.838188,1.448467,72.640291
6.9168,0.003387,0.00676,0.00101,0.000659,0.000778,-0.002772,0.002804,-0.50378,0.000384,-1.364162,-260.838188,1.448467,72.640291
6.9371,0.002679,0.006407,0.001315,0.000673,0.000784,-0.002518,0.003913,-0.503225,0.000933,-1.289254,-260.837873,1.373559,72.640897
6.9568,0.002302,0.006435,-0.000149,0.000588,0.000808,-0.002728,0.003686,-0.503372,0.001079,-1.289254,-260.837873,1.373559,72.640897
6.9771,0.002563,0.006407,0.001755,0.000519,0.000826,-0.002873,0.002227,-0.503564,-0.000151,-1.214162,-260.83786,1.298467,72.640929
6.9972,0.002474,0.006961,0.002752,0.000496,0.000838,-0.003213,0.003351,-0.50359,0.001588,-1.214162,-260.83786,1.298467,72.640929
7.0169,0.002977,0.006766,0.002148,0.000476,0.000847,-0.00345,0.003351,-0.50359,0.001588,-1.214162,-260.83786,1.298467,72.640929
7.0369,0.002985,0.006692,0.001272,0.000459,0.000853,-0.003616,0.004085,-0.503211,0.002071,-1.139155,-260.837591,1.372215,72.641593
7.057,0.002491,0.006529,0.000984,0.000396,0.000866,-0.0038,0.003899,-0.503249,0.00173,-1.139155,-260.837591,1.372215,72.641593
7.0763,0.002839,0.006759,3e-05,0.000344,0.000874,-0.003926,0.003005,-0.503449,0.000892,-1.214379,-260.83713,1.421912,72.64259
7.0964,0.002518,0.006993,-0.000496,0.000432,0.00083,-0.003133,0.002867,-0.503257,9.5e-05,-1.214379,-260.83713,1.421912,72.64259
7.1168,0.002859,0.006656,0.00029,0.000501,0.000796,-0.002581,0.002867,-0.503257,9.5e-05,-1.214379,-260.83713,1.421912,72.64259
7.1368,0.003062,0.006994,0.000672,0.000558,0.000771,-0.002196,0.003019,-0.503317,0.000172,-1.289322,-260.836678,1.466,72.643544
7.1567,0.002691,0.00649,0.00135,0.000564,0.000762,-0.002084,0.003179,-0.503186,0.000363,-1.289322,-260.836678,1.466,72.643544
7.1768,0.002706,0.006442,0.000469,0.000569,0.000755,-0.002005,0.003379,-0.503509,0.001349,-1.214458,-260.836674,1.391136,72.643554
7.1966,0.002649,0.006127,0.001538,0.000584,0.000762,-0.002052,0.002985,-0.503554,0.000549,-1.214458,-260.836674,1.391136,72.643554
7.2167,0.003116,0.006645,4.8e-05,0.000595,0.000767,-0.002085,0.002985,-0.503554,0.000549,-1.214458,-260.836674,1.391136,72.643554
7.2368,0.002655,0.006746,0.000496,0.000605,0.000771,-0.002106,0.003141,-0.503355,4.7e-05,-1.139591,-260.836671,1.316268,72.643561
7.2574,0.003028,0.006766,0.000898,0.000614,0.000763,-0.001946,0.003046,-0.503314,0.00023,-1.139591,-260.836671,1.316268,72.643561
7.2769,0.002848,0.006896,0.002134,0.000622,0.000756,-0.001832,0.003486,-0.503232,0.000895,-1.064592,-260.836658,1.285061,72.643599
7.2964,0.002881,0.006322,0.001914,0.000542,0.000787,-0.002609,0.003894,-0.503115,0.002016,-1.064592,-260.836658,1.285061,72.643599
7.3166,0.003106,0.006702,0.002508,0.000476,0.00081,-0.00316,0.003894,-0.503115,0.002016,-1.064592,-260.836658,1.285061,72.643599
7.3367,0.003098,0.00634,-0.000514,0.00042,0.000825,-0.003549,0.004385,-0.503296,0.002508,-0.989589,-260.836655,1.250351,72.643605
7.3567,0.002835,0.006716,0.001185,0.000372,0.000844,-0.003481,0.003734,-0.503449,0.001238,-0.989589,-260.836655,1.250351,72.643605
7.3769,0.002899,0.006577,-0.000491,0.000333,0.00086,-0.003432,0.003443,-0.50328,0.001167,-1.064932,-260.836561,1.325693,72.643807
7.3969,0.003147,0.006652,-9.8e-05,0.00044,0.00082,-0.002517,0.00272,-0.50341,-0.000343,-1.064932,-260.836561,1.325693,72.643807
7.4174,0.003081,0.006701,-7.4e-05,0.000525,0.000791,-0.00188,0.00272,-0.50341,-0.000343,-1.064932,-260.836561,1.325693,72.643807
7.4368,0.003124,0.006982,0.000993,0.000593,0.000769,-0.001437,0.003049,-0.503288,-0.000115,-1.13963,-260.836413,1.400391,72.644152
7.4565,0.003002,0.006891,0.001416,0.00058,0.000766,-0.001516,0.003287,-0.503177,0.000332,-1.13963,-260.836413,1.400391,72.644152
7.4772,0.003021,0.00679,0.001447,0.000569,0.000764,-0.00157,0.003724,-0.503108,0.001416,-1.064671,-260.836413,1.325433,72.644152
7.4973,0.002849,0.006325,0.000547,0.000508,0.000788,-0.002154,0.003755,-0.503199,0.001444,-1.064671,-260.836413,1.325433,72.644152
7.5168,0.002958,0.006776,0.003515,0.000457,0.000806,-0.002565,0.003755,-0.503199,0.001444,-1.064671,-260.836413,1.325433,72.644152
7.5366,0.002926,0.006803,0.001181,0.000414,0.000819,-0.002854,0.00475,-0.503221,0.003515,-0.989678,-260.836413,1.251574,72.644152
7.557,0.002969,0.006552,-0.000427,0.00033,0.00086,-0.00349,0.004254,-0.503211,0.002566,-0.989678,-260.836413,1.251574,72.644152
7.5766,0.002996,0.006621,0.001128,0.00026,0.000891,-0.003941,0.00276,-0.503437,-0.000467,-1.064683,-260.836233,1.326579,72.644613
7.5971,0.002969,0.006778,0.000777,0.000274,0.000879,-0.003586,0.003501,-0.503383,0.000986,-1.064683,-260.836233,1.326579,72.644613
7.6171,0.003107,0.006529,0.001795,0.000284,0.00087,-0.00334,0.003501,-0.503383,0.000986,-1.064683,-260.836233,1.326579,72.644613
7.6365,0.002818,0.006718,0.001026,0.000293,0.000864,-0.003171,0.004025,-0.503466,0.001779,-1.139813,-260.83617,1.401709,72.644748
7.6571,0.003127,0.006811,-0.000512,0.00027,0.000874,-0.003288,0.003751,-0.503392,0.001475,-1.139813,-260.83617,1.401709,72.644748
7.6765,0.003236,0.006764,0.001221,0.000251,0.000882,-0.003371,0.002873,-0.503172,-0.000573,-1.214784,-260.835901,1.466654,72.645429
7.6969,0.003086,0.007011,0.001332,0.00024,0.000878,-0.003232,0.003771,-0.503229,0.001057,-1.214784,-260.835901,1.466654,72.645429
7.7167,0.00283,0.006658,0.000388,0.000231,0.000875,-0.003136,0.003771,-0.503229,0.001057,-1.214784,-260.835901,1.466654,72.645429
7.7369,0.003364,0.007173,0.000337,0.000223,0.000873,-0.003069,0.003036,-0.503315,0.000289,-1.289787,-260.835561,1.485506,72.646263
7.7568,0.003101,0.006678,0.001406,0.000287,0.000839,-0.002611,0.00324,-0.503114,0.000297,-1.289787,-260.835561,1.485506,72.646263
7.7769,0.002894,0.007329,0.000389,0.000339,0.000813,-0.002294,0.003825,-0.503295,0.001314,-1.351528,-260.835175,1.489765,72.647301
7.7971,0.003725,0.006821,-0.001622,0.000406,0.000774,-0.002161,0.003159,-0.502726,0.000467,-1.351528,-260.835175,1.489765,72.647301
7.817,0.003094,0.006936,0.000274,0.00046,0.000742,-0.002072,0.003159,-0.502726,0.000467,-1.351528,-260.835175,1.489765,72.647301
7.8366,0.002754,0.006798,0.00022,0.000504,0.000718,-0.002013,0.003236,-0.503058,0.000254,-1.276437,-260.835119,1.418988,72.647487
7.8568,0.003518,0.006951,0.00058,0.000534,0.000711,-0.001852,0.003087,-0.503115,0.000238,-1.276437,-260.835119,1.418988,72.647487
7.8764,0.003263,0.007159,-0.000967,0.000559,0.000706,-0.001742,0.003815,-0.503049,0.000579,-1.201532,-260.835114,1.344083,72.647501
7.8966,0.003137,0.00654,0.000828,0.000623,0.000679,-0.001072,0.002864,-0.50286,-0.000828,-1.201532,-260.835114,1.344083,72.647501
7.9169,0.003005,0.006841,0.00018,0.000674,0.000657,-0.000607,0.002864,-0.50286,-0.000828,-1.201532,-260.835114,1.344083,72.647501
7.9367,0.003545,0.00704,0.002084,0.000715,0.000641,-0.000284,0.003097,-0.503159,0.00018,-1.12651,-260.835113,1.269061,72.647502
7.9567,0.003703,0.006969,0.000782,0.000636,0.000683,-0.001032,0.003729,-0.503076,0.000977,-1.12651,-260.835113,1.269061,72.647502
7.9773,0.003064,0.00627,0.000426,0.000569,0.000714,-0.001559,0.004102,-0.503031,0.000782,-1.051049,-260.835113,1.1936,72.647502
7.9967,0.003045,0.006952,0.002212,0.000531,0.000753,-0.001669,0.003356,-0.503666,0.000458,-1.051049,-260.835113,1.1936,72.647502
8.0169,0.003094,0.007114,0.001092,0.0005,0.000784,-0.001745,0.003356,-0.503666,0.000458,-1.051049,-260.835113,1.1936,72.647502
8.0369,0.003221,0.006397,0.000884,0.000474,0.000808,-0.001797,0.003651,-0.502886,0.001092,-0.976538,-260.835113,1.241612,72.647502
8.0572,0.003058,0.006759,0.000121,0.00044,0.000816,-0.002109,0.003659,-0.503178,0.001007,-0.976538,-260.835113,1.241612,72.647502
8.0768,0.002798,0.006816,0.001822,0.000412,0.000821,-0.002328,0.00312,-0.50324,0.000119,-0.901524,-260.835104,1.316625,72.647536
8.0969,0.003184,0.006921,0.000941,0.00039,0.000828,-0.002777,0.003673,-0.503188,0.001669,-0.901524,-260.835104,1.316625,72.647536
8.117,0.003282,0.006632,3.2e-05,0.00037,0.000833,-0.003093,0.003673,-0.503188,0.001669,-0.901524,-260.835104,1.316625,72.647536
8.1367,0.003287,0.00663,0.001004,0.000353,0.000835,-0.003316,0.003312,-0.503339,-5.1e-05,-0.970033,-260.834855,1.389262,72.648313
8.1567,0.003252,0.006574,0.000856,0.000349,0.000832,-0.002834,0.003513,-0.503348,0.000371,-0.970033,-260.834855,1.389262,72.648313
8.1767,0.003615,0.007168,0.000263,0.000346,0.00083,-0.0025,0.003692,-0.503421,0.000836,-1.045016,-260.834759,1.447938,72.648536
8.1968,0.003434,0.00676,0.001724,0.000337,0.000817,-0.002234,0.003745,-0.502882,0.000312,-1.045016,-260.834759,1.447938,72.648536
8.2168,0.003288,0.006942,0.000653,0.00033,0.000807,-0.002049,0.003745,-0.502882,0.000312,-1.045016,-260.834759,1.447938,72.648536
8.2367,0.00341,0.00708,0.001458,0.000324,0.000799,-0.00192,0.003635,-0.503026,0.000556,-1.109843,-260.834471,1.425133,72.64942
8.2569,0.003329,0.00707,-0.001162,0.000303,0.000806,-0.002146,0.00385,-0.502978,0.000917,-1.109843,-260.834471,1.425133,72.64942
8.2771,0.003966,0.006587,0.000593,0.000285,0.00081,-0.002304,0.00274,-0.502921,-0.001184,-1.034822,-260.834401,1.408103,72.649702
8.2967,0.003499,0.007095,-0.000842,0.000219,0.000847,-0.00218,0.004138,-0.50337,0.000441,-1.034822,-260.834401,1.408103,72.649702
8.3169,0.003275,0.006801,-5.9e-05,0.000166,0.000877,-0.002092,0.004138,-0.50337,0.000441,-1.034822,-260.834401,1.408103,72.649702
8.3368,0.003994,0.006982,-0.000815,0.000122,0.000901,-0.002029,0.003255,-0.50317,-0.000141,-1.109833,-260.834173,1.442923,72.650471
8.3565,0.003404,0.006903,-0.000141,0.000189,0.000868,-0.001484,0.00339,-0.503104,-0.000429,-1.109833,-260.834173,1.442923,72.650471
8.3767,0.003745,0.006818,0.000292,0.000244,0.000842,-0.001104,0.003336,-0.503076,-0.000189,-1.184838,-260.834065,1.513859,72.651115
8.3965,0.003491,0.007105,-0.00101,0.000227,0.00085,-0.001227,0.003851,-0.503173,0.000252,-1.184838,-260.834065,1.513859,72.651115
8.4168,0.003792,0.00678,0.001636,0.000213,0.000856,-0.001313,0.003851,-0.503173,0.000252,-1.184838,-260.834065,1.513859,72.651115
8.4366,0.003657,0.007095,-0.000444,0.000202,0.000861,-0.001373,0.004626,-0.503219,0.001636,-1.109537,-260.834065,1.438559,72.651116
8.4565,0.003303,0.007125,-0.000849,0.000166,0.000877,-0.001697,0.004139,-0.503091,0.000789,-1.109537,-260.834065,1.438559,72.651116
8.4768,0.003244,0.007146,2.7e-05,0.000136,0.000889,-0.001925,0.00287,-0.502874,-0.000849,-1.034948,-260.834065,1.452373,72.651116
8.497,0.003965,0.00682,-0.001009,0.000229,0.000843,-0.001615,0.003224,-0.502856,-4.8e-05,-1.034948,-260.834065,1.452373,72.651116
8.5168,0.003625,0.007124,-0.000534,0.000304,0.000806,-0.001401,0.003224,-0.502856,-4.8e-05,-1.034948,-260.834065,1.452373,72.651116
8.5364,0.003711,0.007075,0.001054,0.000365,0.000777,-0.001253,0.003357,-0.502845,-0.000601,-1.110079,-260.83396,1.504937,72.651804
8.5565,0.003862,0.007389,-0.000753,0.000354,0.000776,-0.001223,0.003721,-0.502874,6.6e-05,-1.110079,-260.83396,1.504937,72.651804
8.5768,0.003796,0.007168,0.000127,0.000345,0.000775,-0.001205,0.003478,-0.50261,-0.000753,-1.03522,-260.83396,1.430079,72.651805
8.5965,0.003454,0.007177,0.000354,0.00033,0.000776,-0.001177,0.00382,-0.502808,3.3e-05,-1.03522,-260.83396,1.430079,72.651805
8.617,0.003709,0.007211,0.00042,0.000318,0.000776,-0.001159,0.00382,-0.502808,3.3e-05,-1.03522,-260.83396,1.430079,72.651805
8.6371,0.00367,0.007194,-8e-06,0.000308,0.000777,-0.001147,0.003923,-0.502789,0.00042,-0.960071,-260.83396,1.354929,72.651805
8.6566,0.003648,0.007164,-0.000156,0.0003,0.000777,-0.001257,0.003818,-0.502796,0.000245,-0.960071,-260.83396,1.354929,72.651805
8.6767,0.003355,0.007091,-0.000262,0.000294,0.000777,-0.001333,0.003569,-0.502836,-0.000156,-0.885107,-260.83396,1.365362,72.651805
8.6969,0.003728,0.007128,-0.00019,0.000352,0.000756,-0.001099,0.003252,-0.502902,-0.000253,-0.885107,-260.83396,1.365362,72.651805
8.7168,0.003585,0.006839,-0.00061,0.000399,0.000739,-0.000936,0.003252,-0.502902,-0.000253,-0.885107,-260.83396,1.365362,72.651805
8.7371,0.003691,0.007331,0.000781,0.000437,0.000727,-0.000822,0.003273,-0.503161,-0.00061,-0.810127,-260.83396,1.388319,72.651805
8.757,0.003567,0.007135,-0.001042,0.000423,0.000735,-0.000865,0.003604,-0.502962,-4.7e-05,-0.810127,-260.83396,1.388319,72.651805
8.7767,0.003762,0.007432,-0.000859,0.000411,0.000742,-0.000894,0.003036,-0.502865,-0.001042,-0.735215,-260.83396,1.313407,72.651805
8.7967,0.003541,0.007278,-0.000218,0.000457,0.000714,-0.000449,0.003299,-0.502593,-0.000874,-0.735215,-260.83396,1.313407,72.651805
8.817,0.003736,0.007195,0.000204,0.000494,0.000692,-0.00014,0.003299,-0.502593,-0.000874,-0.735215,-260.83396,1.313407,72.651805
8.8371,0.003767,0.007058,-0.000519,0.000525,0.000676,7.5e-05,0.00384,-0.502805,0.000204,-0.660094,-260.83396,1.261698,72.651805
8.8572,0.003782,0.007158,-0.001826,0.000488,0.000696,-0.000213,0.003702,-0.502861,-9.2e-05,-0.660094,-260.83396,1.261698,72.651805
8.8771,0.003739,0.007065,0.001079,0.000459,0.000711,-0.000414,0.00285,-0.502841,-0.001826,-0.585101,-260.83396,1.186704,72.651805
8.8973,0.003678,0.007377,0.000742,0.000384,0.000751,-0.001042,0.004165,-0.502926,0.000829,-0.585101,-260.83396,1.186704,72.651805
8.9168,0.003691,0.007069,-0.000701,0.000322,0.000782,-0.001484,0.004165,-0.502926,0.000829,-0.585101,-260.83396,1.186704,72.651805
8.9368,0.003767,0.006845,-0.00017,0.00027,0.000806,-0.001795,0.003333,-0.502931,-0.000701,-0.510088,-260.83396,1.126598,72.651805
8.9567,0.003899,0.007061,0.000689,0.000303,0.000791,-0.001292,0.003475,-0.503022,-0.000484,-0.510088,-260.83396,1.126598,72.651805
8.977,0.003951,0.006875,-0.000399,0.00033,0.00078,-0.000942,0.004251,-0.502938,0.000687,-0.585052,-260.833952,1.201562,72.65184
8.9967,0.003749,0.007378,0.000456,0.000309,0.000792,-0.000807,0.003793,-0.503108,-0.000301,-0.585052,-260.833952,1.201562,72.65184
9.0165,0.003688,0.006875,0.00107,0.000292,0.000802,-0.000712,0.003793,-0.503108,-0.000301,-0.585052,-260.833952,1.201562,72.65184
9.0364,0.00364,0.006896,-0.000346,0.000278,0.00081,-0.000646,0.004234,-0.503124,0.00107,-0.510143,-260.833952,1.276471,72.65184
9.0567,0.003441,0.006866,-0.000735,0.000252,0.000827,-0.001027,0.003916,-0.503116,0.000486,-0.510143,-260.833952,1.276471,72.65184
9.0764,0.003525,0.006943,0.000863,0.00023,0.000839,-0.001295,0.003066,-0.503134,-0.000735,-0.435059,-260.833952,1.343915,72.65184
9.0967,0.003444,0.006635,-0.000414,0.000218,0.000845,-0.001605,0.003888,-0.503063,0.000726,-0.435059,-260.833952,1.343915,72.65184
9.1169,0.003808,0.007113,-0.002201,0.000207,0.00085,-0.001824,0.003888,-0.503063,0.000726,-0.435059,-260.833952,1.343915,72.65184
9.1366,0.003786,0.007384,0.000423,0.000199,0.000853,-0.001979,0.002686,-0.502886,-0.002201,-0.360021,-260.833952,1.418953,72.651841
9.157,0.003711,0.006988,0.000585,0.000291,0.000806,-0.001067,0.003221,-0.502776,-0.001133,-0.360021,-260.833952,1.418953,72.651841
9.1764,0.003581,0.006774,0.000623,0.000364,0.00077,-0.000431,0.004009,-0.503012,0.000585,-0.434902,-260.833952,1.474736,72.651841
9.1969,0.003427,0.007182,-0.001048,0.000319,0.0008,-0.000946,0.003908,-0.503207,0.00062,-0.434902,-260.833952,1.474736,72.651841
9.2169,0.003543,0.007061,0.001716,0.000282,0.000824,-0.00131,0.003908,-0.503207,0.00062,-0.434902,-260.833952,1.474736,72.651841
9.237,0.003425,0.006747,0.001406,0.000251,0.000842,-0.001565,0.004419,-0.502938,0.001716,-0.35978,-260.833952,1.399614,72.651841
9.2566,0.003508,0.00671,-0.000365,0.000195,0.000872,-0.002198,0.004306,-0.503067,0.001589,-0.35978,-260.833952,1.399614,72.651841
9.2778,0.00359,0.007299,-0.000396,0.000147,0.000894,-0.002647,0.003329,-0.503265,-0.00041,-0.428451,-260.833852,1.432221,72.652503
9.297,0.004041,0.007117,0.001761,0.000226,0.000845,-0.001916,0.003382,-0.502761,-0.0004,-0.428451,-260.833852,1.432221,72.652503
9.3168,0.003614,0.006802,-0.000371,0.000288,0.000808,-0.00141,0.003382,-0.502761,-0.0004,-0.428451,-260.833852,1.432221,72.652503
9.3369,0.003814,0.007389,0.000426,0.000339,0.000779,-0.001061,0.003424,-0.503198,-0.000371,-0.503475,-260.833852,1.507244,72.652503
9.3566,0.00412,0.006994,-0.000606,0.000336,0.000779,-0.001025,0.003673,-0.502957,-4.4e-05,-0.503475,-260.833852,1.507244,72.652503
9.3764,0.003621,0.006925,-0.00063,0.000333,0.000779,-0.001001,0.003811,-0.503006,-0.000606,-0.42849,-260.833852,1.43226,72.652503
9.3966,0.0039,0.007145,-0.001314,0.000368,0.000768,-0.000657,0.003346,-0.503069,-0.000628,-0.42849,-260.833852,1.43226,72.652503
9.4166,0.00346,0.006847,0.00093,0.000396,0.000759,-0.000419,0.003346,-0.503069,-0.000628,-0.42849,-260.833852,1.43226,72.652503
9.4367,0.003543,0.006984,-0.001351,0.000419,0.000753,-0.000254,0.003934,-0.503153,0.00093,-0.353616,-260.833852,1.357386,72.652503
9.457,0.003687,0.007281,0.001175,0.000416,0.00076,-0.000483,0.003489,-0.503097,-1e-05,-0.353616,-260.833852,1.357386,72.652503
9.4767,0.003671,0.006975,0.000497,0.000414,0.000764,-0.000644,0.004287,-0.502719,0.001175,-0.278478,-260.833852,1.282248,72.652503
9.4964,0.003749,0.007566,-0.001466,0.000364,0.000786,-0.001064,0.003956,-0.502999,0.000555,-0.278478,-260.833852,1.282248,72.652503
9.5166,0.003319,0.007148,0.000887,0.000323,0.000803,-0.001359,0.003956,-0.502999,0.000555,-0.278478,-260.833852,1.282248,72.652503
9.5364,0.003714,0.006898,0.000919,0.000289,0.000815,-0.001567,0.003771,-0.502852,0.000887,-0.203467,-260.833852,1.227353,72.652503
9.5566,0.003779,0.007376,-0.00129,0.000266,0.000823,-0.001885,0.003939,-0.502954,0.0009,-0.203467,-260.833852,1.227353,72.652503
9.5766,0.003556,0.007276,0.000754,0.000246,0.000829,-0.002109,0.003124,-0.502618,-0.0013,-0.278317,-260.833825,1.302203,72.652653
9.5968,0.003541,0.007043,0.000855,0.000248,0.000816,-0.0021,0.00387,-0.502715,0.000577,-0.278317,-260.833825,1.302203,72.652653
9.6166,0.003861,0.00719,0.000204,0.000249,0.000807,-0.002094,0.00387,-0.502715,0.000577,-0.278317,-260.833825,1.302203,72.652653
9.6369,0.003609,0.0073,-0.001119,0.00025,0.000799,-0.00209,0.003965,-0.50281,0.000204,-0.353472,-260.833825,1.377358,72.652653
9.6569,0.003623,0.006873,-0.000984,0.000283,0.000778,-0.001581,0.003588,-0.502765,-0.000333,-0.353472,-260.833825,1.377358,72.652653
9.6766,0.003883,0.00741,-0.001784,0.000309,0.000763,-0.001227,0.003121,-0.503127,-0.000984,-0.428331,-260.833825,1.450762,72.652653
9.6969,0.00342,0.007336,-0.000974,0.000419,0.00072,-0.000263,0.002986,-0.502635,-0.001716,-0.428331,-260.833825,1.450762,72.652653
9.7171,0.003703,0.006859,0.001309,0.000507,0.000686,0.000412,0.002986,-0.502635,-0.001716,-0.428331,-260.833825,1.450762,72.652653
9.7369,0.004052,0.007202,0.000731,0.000578,0.000661,0.000885,0.00437,-0.50314,0.001307,-0.353201,-260.833822,1.375632,72.652667
9.7569,0.003641,0.007029,0.001156,0.000461,0.000732,-0.000237,0.004392,-0.503002,0.001075,-0.353201,-260.833822,1.375632,72.652667
9.7767,0.003916,0.007361,-0.001804,0.000362,0.000786,-0.001036,0.004231,-0.50297,0.001156,-0.27833,-260.833822,1.30076,72.652667
9.7966,0.003528,0.007155,-0.001157,0.000447,0.000744,-0.000208,0.003103,-0.502667,-0.001549,-0.27833,-260.833822,1.30076,72.652667
9.8168,0.003805,0.006937,-0.001242,0.000515,0.000711,0.000371,0.003103,-0.502667,-0.001549,-0.27833,-260.833822,1.30076,72.652667
9.8369,0.003694,0.007007,9.6e-05,0.000569,0.000686,0.000776,0.003172,-0.503063,-0.001242,-0.203234,-260.833822,1.320646,72.652667
9.8568,0.003753,0.006882,9.7e-05,0.000556,0.000699,0.000612,0.003404,-0.503034,-0.000699,-0.203234,-260.833822,1.320646,72.652667
9.8766,0.003756,0.007051,-0.000102,0.000546,0.000709,0.000499,0.003802,-0.503118,9.7e-05,-0.128343,-260.833822,1.245755,72.652667
9.8967,0.003705,0.007197,-0.000834,0.000502,0.00073,8e-05,0.003713,-0.502964,-8.4e-05,-0.128343,-260.833822,1.245755,72.652667
9.9167,0.003795,0.006794,-0.000345,0.000466,0.000745,-0.000214,0.003713,-0.502964,-8.4e-05,-0.128343,-260.833822,1.245755,72.652667
9.9372,0.003557,0.007616,-1.3e-05,0.000436,0.000756,-0.000419,0.003619,-0.503206,-0.000345,-0.053337,-260.833822,1.170749,72.652667
9.9566,0.00369,0.00719,0.001308,0.00043,0.000754,-0.000489,0.003591,-0.502872,-0.00021,-0.053337,-260.833822,1.170749,72.652667
9.9768,0.003322,0.00726,-0.000252,0.000425,0.000752,-0.000537,0.004357,-0.502809,0.001308,0.021669,-260.833822,1.163887,72.652667
9.9971,0.003786,0.007156,-0.001896,0.000461,0.000734,-0.000614,0.003294,-0.502746,-0.000117,0.021669,-260.833822,1.163887,72.652667
10.0169,0.003281,0.007187,9.4e-05,0.00049,0.000718,-0.000669,0.003294,-0.502746,-0.000117,0.021669,-260.833822,1.163887,72.652667
10.0368,0.003763,0.006911,0.000701,0.000513,0.000706,-0.000708,0.003329,-0.502813,9.4e-05,0.096795,-260.833822,1.195939,72.652667
10.0568,0.003532,0.007166,-0.001274,0.000481,0.00072,-0.000995,0.003654,-0.502926,0.000343,0.096795,-260.833822,1.195939,72.652667
10.0764,0.003715,0.007137,-0.002197,0.000455,0.000731,-0.001197,0.002884,-0.502832,-0.001276,0.171795,-260.833804,1.147373,72.652705
10.0969,0.003684,0.007435,0.001339,0.000581,0.000692,-7.4e-05,0.002619,-0.502859,-0.002118,0.171795,-260.833804,1.147373,72.652705
10.1168,0.003962,0.007365,-0.000649,0.000682,0.000661,0.000718,0.002619,-0.502859,-0.002118,0.171795,-260.833804,1.147373,72.652705
10.1365,0.003587,0.006906,0.00062,0.000764,0.000637,0.001275,0.003642,-0.50262,-0.000672,0.096821,-260.833715,1.222348,72.653006
10.1567,0.00423,0.007343,0.000224,0.000684,0.000669,0.00065,0.003749,-0.50281,-0.00015,0.096821,-260.833715,1.222348,72.653006
10.1768,0.003417,0.007088,-0.002305,0.000619,0.000693,0.000213,0.004344,-0.502657,0.000224,0.171739,-260.833715,1.14743,72.653006
10.1967,0.003793,0.007234,7.7e-05,0.00074,0.000657,0.000915,0.002419,-0.502889,-0.002092,0.171739,-260.833715,1.14743,72.653006
10.2166,0.003179,0.007433,-0.000247,0.000837,0.00063,0.001409,0.002419,-0.502889,-0.002092,0.171739,-260.833715,1.14743,72.653006
10.2365,0.00366,0.006948,-0.000354,0.000915,0.000608,0.001755,0.003053,-0.502567,-0.000247,0.24688,-260.833715,1.072289,72.653006
10.2566,0.003995,0.007058,-0.00075,0.000871,0.000622,0.001071,0.003228,-0.502766,-0.000291,0.24688,-260.833715,1.072289,72.653006
10.2774,0.003795,0.007205,0.000753,0.000834,0.000631,0.000592,0.003612,-0.502942,-0.00075,0.321743,-260.833715,0.997426,72.653006
10.2971,0.00386,0.007048,0.000581,0.000705,0.000683,-0.00024,0.004131,-0.502807,0.000626,0.321743,-260.833715,0.997426,72.653006
10.317,0.003828,0.006956,0.000605,0.000598,0.000721,-0.000826,0.004131,-0.502807,0.000626,0.321743,-260.833715,0.997426,72.653006
10.3366,0.003594,0.007211,-0.00014,0.000508,0.000751,-0.001237,0.004137,-0.503044,0.000605,0.396889,-260.833715,0.92228,72.653006
10.3568,0.003866,0.006856,-0.000628,0.000455,0.000765,-0.001345,0.003873,-0.502934,0.000285,0.396889,-260.833715,0.92228,72.653006
10.3768,0.004189,0.007198,0.000172,0.000412,0.000776,-0.001419,0.003546,-0.503143,-0.000628,0.321358,-260.833712,0.997811,72.653014
10.3966,0.003904,0.007264,6e-05,0.000345,0.000796,-0.001372,0.00421,-0.502832,0.0001,0.321358,-260.833712,0.997811,72.653014
10.4168,0.003285,0.006959,0.00035,0.00029,0.000811,-0.001337,0.00421,-0.502832,0.0001,0.321358,-260.833712,0.997811,72.653014
10.4366,0.003664,0.007169,-0.000618,0.000244,0.000823,-0.001311,0.003464,-0.503041,0.00035,0.247061,-260.833712,1.072108,72.653015
10.4571,0.003466,0.007425,0.000268,0.000291,0.000802,-0.001198,0.003417,-0.502956,-4.5e-05,0.247061,-260.833712,1.072108,72.653015
10.4766,0.00399,0.007447,0.001006,0.000328,0.000786,-0.001119,0.003604,-0.502572,0.000264,0.17193,-260.833703,1.147239,72.653075
10.4968,0.003524,0.007132,-0.000431,0.000269,0.000805,-0.001591,0.004424,-0.502555,0.000941,0.17193,-260.833703,1.147239,72.653075
10.5169,0.003891,0.00695,-0.000762,0.000219,0.000819,-0.001923,0.004424,-0.502555,0.000941,0.17193,-260.833703,1.147239,72.653075
10.5366,0.003848,0.007117,-0.000737,0.000177,0.000829,-0.002157,0.003509,-0.503038,-0.000779,0.24689,-260.83365,1.222198,72.653309
10.5566,0.004043,0.006856,-0.000108,0.000229,0.000806,-0.001388,0.003495,-0.502974,-0.000764,0.24689,-260.83365,1.222198,72.653309
10.5768,0.003759,0.007322,0.00076,0.000271,0.000789,-0.000852,0.003988,-0.503144,-0.000108,0.171992,-260.83365,1.297096,72.653309
10.5965,0.003747,0.007113,-0.001262,0.000241,0.000801,-0.001271,0.004134,-0.502718,0.000686,0.171992,-260.83365,1.297096,72.653309
10.6171,0.003664,0.007522,-0.000534,0.000217,0.000809,-0.001567,0.004134,-0.502718,0.000686,0.171992,-260.83365,1.297096,72.653309
10.6368,0.004074,0.007301,-0.00107,0.000196,0.000815,-0.001775,0.003392,-0.502478,-0.000534,0.247121,-260.833649,1.366862,72.65331
10.6569,0.003861,0.0073,-0.001324,0.000267,0.000776,-0.001122,0.003448,-0.502568,-0.000753,0.247121,-260.833649,1.366862,72.65331
10.6769,0.003652,0.007486,-0.002087,0.000323,0.000746,-0.000667,0.003186,-0.5027,-0.001324,0.172239,-260.833649,1.441744,72.65331
10.6967,0.003697,0.007322,-0.000199,0.000479,0.000693,0.000275,0.002639,-0.502529,-0.002021,0.172239,-260.833649,1.441744,72.65331
10.7168,0.003545,0.007186,0.00046,0.000605,0.000652,0.000935,0.002639,-0.502529,-0.002021,0.172239,-260.833649,1.441744,72.65331
10.7366,0.003492,0.007199,-0.000655,0.000707,0.000619,0.001399,0.00378,-0.502814,0.00046,0.247343,-260.833649,1.366641,72.65331
10.7567,0.003925,0.007398,-0.000868,0.000663,0.000645,0.000663,0.003528,-0.502809,8e-06,0.247343,-260.833649,1.366641,72.65331
10.7769,0.003833,0.007398,-0.000615,0.000626,0.000664,0.000144,0.003482,-0.502602,-0.000868,0.322237,-260.833649,1.291747,72.65331
10.797,0.003523,0.007034,5.8e-05,0.000607,0.000665,0.000136,0.003516,-0.502601,-0.000638,0.322237,-260.833649,1.291747,72.65331
10.8166,0.003209,0.007368,0.00016,0.000592,0.000665,0.000132,0.003516,-0.502601,-0.000638,0.322237,-260.833649,1.291747,72.65331
10.8367,0.004136,0.007139,1.1e-05,0.00058,0.000665,0.000131,0.003291,-0.502632,0.00016,0.397252,-260.833649,1.216731,72.65331
10.8569,0.003618,0.006901,-0.000452,0.000549,0.000679,-0.000275,0.003638,-0.502726,9.9e-05,0.397252,-260.833649,1.216731,72.65331
10.8766,0.003827,0.00727,-0.000741,0.000522,0.000689,-0.000561,0.003388,-0.503099,-0.000452,0.472236,-260.833649,1.141748,72.653311
10.8968,0.003598,0.007142,-9.8e-05,0.000524,0.000685,-0.00031,0.003444,-0.502763,-0.000715,0.472236,-260.833649,1.141748,72.653311
10.9168,0.003503,0.007183,-4.8e-05,0.000526,0.000683,-0.000134,0.003444,-0.502763,-0.000715,0.472236,-260.833649,1.141748,72.653311
10.9368,0.003782,0.007045,-0.000809,0.000528,0.000681,-1.2e-05,0.003496,-0.502794,-6.8e-05,0.547335,-260.83345,1.101924,72.653677
10.9569,0.003705,0.007291,3.3e-05,0.000523,0.000687,-0.000114,0.003446,-0.502857,-0.000372,0.547335,-260.83345,1.101924,72.653677
10.9769,0.003906,0.007363,-0.001955,0.000519,0.000692,-0.000185,0.003724,-0.502708,3.3e-05,0.622334,-260.833426,1.026925,72.653701
10.9971,0.003687,0.00754,-0.00063,0.00059,0.000663,0.000493,0.002984,-0.502642,-0.001772,0.622334,-260.833426,1.026925,72.653701
11.0168,0.003849,0.007066,-0.001167,0.000647,0.000642,0.000968,0.002984,-0.502642,-0.001772,0.622334,-260.833426,1.026925,72.653701
11.037,0.003368,0.00737,-0.001211,0.000693,0.000625,0.001301,0.003264,-0.502921,-0.001172,0.697235,-260.833283,0.997924,72.653877
11.0566,0.003566,0.007106,-0.001077,0.000711,0.000624,0.001244,0.003059,-0.502802,-0.001188,0.697235,-260.833283,0.997924,72.653877
11.0768,0.003836,0.007372,-0.000385,0.000726,0.000623,0.001205,0.003017,-0.502893,-0.001077,0.772232,-260.833283,0.922927,72.653877
11.0971,0.003874,0.007337,2e-05,0.000677,0.000641,0.000771,0.003591,-0.502649,-0.000439,0.772232,-260.833283,0.922927,72.653877
11.1172,0.003466,0.007153,-0.002033,0.000638,0.000654,0.000468,0.003591,-0.502649,-0.000439,0.772232,-260.833283,0.922927,72.653877
11.1371,0.003915,0.007031,-0.000495,0.000606,0.000664,0.000256,0.002429,-0.502845,-0.002033,0.847629,-260.833283,0.84753,72.653877
11.1573,0.003824,0.007135,-0.001735,0.000656,0.00065,0.000631,0.002928,-0.502896,-0.001411,0.847629,-260.833283,0.84753,72.653877
11.1772,0.004152,0.007358,-0.000801,0.000696,0.00064,0.000893,0.002951,-0.502851,-0.001731,0.922236,-260.833032,0.772923,72.654072
11.197,0.003755,0.00701,0.000478,0.000646,0.000655,0.000794,0.00367,-0.502661,-0.000888,0.922236,-260.833032,0.772923,72.654072
11.2171,0.003734,0.007195,-0.001757,0.000605,0.000667,0.000727,0.00367,-0.502661,-0.000888,0.922236,-260.833032,0.772923,72.654072
11.2369,0.003457,0.007043,0.000313,0.000572,0.000676,0.000681,0.002838,-0.502804,-0.001757,0.99725,-260.833032,0.69791,72.654072
11.2572,0.003697,0.007233,-0.000216,0.000598,0.00067,0.000675,0.003152,-0.502866,-0.000921,0.99725,-260.833032,0.69791,72.654072
11.2772,0.003701,0.007497,-0.00051,0.000619,0.000666,0.000671,0.003591,-0.50276,-0.000211,1.072292,-260.8329,0.622868,72.654139
11.2974,0.003665,0.007211,0.001228,0.000611,0.000663,0.00043,0.003455,-0.502525,-0.000483,1.072292,-260.8329,0.622868,72.654139
11.3172,0.003605,0.007295,-0.000351,0.000605,0.00066,0.000261,0.003455,-0.502525,-0.000483,1.072292,-260.8329,0.622868,72.654139
11.3366,0.003655,0.006793,-0.001088,0.0006,0.000657,0.000143,0.003437,-0.502693,-0.00034,1.048934,-260.832692,0.547871,72.654252
11.3569,0.00413,0.007343,-0.000636,0.000599,0.000662,0.000144,0.003302,-0.502898,-0.00064,1.048934,-260.832692,0.547871,72.654252
11.3767,0.003764,0.007271,-0.001337,0.000598,0.000667,0.000145,0.003812,-0.50265,-0.000634,0.97397,-260.832567,0.622835,72.65436
11.3966,0.003378,0.00727,-0.001036,0.000626,0.000654,0.000484,0.003149,-0.502721,-0.001273,0.97397,-260.832567,0.622835,72.65436
11.4168,0.004136,0.007186,0.000487,0.000649,0.000644,0.000719,0.003149,-0.502721,-0.001273,0.97397,-260.832567,0.622835,72.65436
11.4369,0.003605,0.007408,-0.000704,0.000668,0.000637,0.000884,0.004401,-0.502796,0.000492,0.901675,-260.832315,0.697828,72.654577
11.4566,0.003575,0.007445,-0.000286,0.000589,0.000671,0.000299,0.003938,-0.502712,1e-05,0.901675,-260.832315,0.697828,72.654577
11.4768,0.003811,0.007158,-0.000496,0.000524,0.000697,-0.000113,0.00343,-0.502555,-0.000286,0.976669,-260.832313,0.622834,72.654578
11.4973,0.003699,0.00729,-0.000495,0.000511,0.000701,-0.000128,0.003547,-0.502815,-0.000476,0.976669,-260.832313,0.622834,72.654578
11.5171,0.003767,0.007553,-0.000353,0.000501,0.000705,-0.000138,0.003547,-0.502815,-0.000476,0.976669,-260.832313,0.622834,72.654578
11.5366,0.003891,0.007227,0.000137,0.000492,0.000708,-0.000145,0.00359,-0.502444,-0.000353,0.901675,-260.832274,0.697828,72.654622
11.5571,0.004128,0.007208,0.000776,0.000471,0.00071,-0.000331,0.003745,-0.502582,-0.000148,0.901675,-260.832274,0.697828,72.654622
11.577,0.003735,0.007355,-0.001113,0.000453,0.000711,-0.000461,0.004527,-0.502788,0.000776,0.899576,-260.832215,0.773215,72.654693
11.5969,0.004221,0.007435,-0.00021,0.000491,0.000692,-0.00011,0.003291,-0.502657,-0.000942,0.899576,-260.832215,0.773215,72.654693
11.617,0.003952,0.007288,0.000553,0.000523,0.000677,0.000134,0.003291,-0.502657,-0.000942,0.899576,-260.832215,0.773215,72.654693
11.6368,0.003954,0.007206,-0.001178,0.000548,0.000666,0.000304,0.004236,-0.50271,0.000552,0.82496,-260.832195,0.847831,72.654727
11.6573,0.003951,0.007025,-0.001318,0.000494,0.000691,-2e-05,0.003878,-0.502743,-0.00015,0.82496,-260.832195,0.847831,72.654727
11.6769,0.003855,0.007639,-0.001082,0.00045,0.00071,-0.000247,0.003288,-0.502965,-0.001314,0.899965,-260.832003,0.772826,72.654865
11.6971,0.003887,0.00717,-0.000113,0.000498,0.000682,0.000125,0.003302,-0.502408,-0.001101,0.899965,-260.832003,0.772826,72.654865
11.7171,0.004128,0.007197,7.2e-05,0.000537,0.00066,0.000384,0.003302,-0.502408,-0.001101,0.899965,-260.832003,0.772826,72.654865
11.7366,0.003583,0.006942,0.000589,0.000569,0.000643,0.000563,0.004169,-0.502798,7.1e-05,0.892592,-260.831946,0.848144,72.654942
11.7568,0.004008,0.007436,-0.000134,0.000487,0.000691,-7.5e-05,0.004051,-0.502905,0.000286,0.892592,-260.831946,0.848144,72.654942
11.7766,0.003994,0.007492,0.000881,0.000419,0.000727,-0.000524,0.003941,-0.502562,-0.000133,0.967701,-260.831912,0.773034,72.654961
11.7966,0.003762,0.007343,0.001198,0.000349,0.000755,-0.001095,0.004397,-0.502512,0.000788,0.967701,-260.831912,0.773034,72.654961
11.8164,0.003636,0.00685,-0.000601,0.00029,0.000776,-0.001498,0.004397,-0.502512,0.000788,0.967701,-260.831912,0.773034,72.654961
11.8367,0.003541,0.007119,-0.001045,0.000241,0.000792,-0.001781,0.00333,-0.503149,-0.000602,0.893132,-260.831904,0.847603,72.654975
11.8568,0.003558,0.00747,-0.000468,0.000316,0.000767,-0.001111,0.003198,-0.503039,-0.000783,0.893132,-260.831904,0.847603,72.654975
11.8773,0.003731,0.007626,0.000191,0.000375,0.000749,-0.000646,0.00332,-0.50253,-0.000468,0.818123,-260.831904,0.922612,72.654975
11.897,0.00359,0.007232,-0.000166,0.000378,0.000737,-0.00083,0.003784,-0.502388,0.000133,0.818123,-260.831904,0.922612,72.654975
11.9169,0.003404,0.006986,0.000116,0.00038,0.000727,-0.00096,0.003784,-0.502388,0.000133,0.818123,-260.831904,0.922612,72.654975
11.9368,0.004118,0.007744,-0.001177,0.000382,0.000718,-0.001051,0.003467,-0.503009,0.000113,0.757509,-260.831872,0.997691,72.655052
11.9567,0.003932,0.007244,0.000967,0.000406,0.000708,-0.000802,0.003489,-0.502692,-0.000429,0.757509,-260.831872,0.997691,72.655052
11.9764,0.003952,0.007548,0.000626,0.000425,0.0007,-0.000629,0.004426,-0.502756,0.000967,0.682147,-260.831872,1.073053,72.655052
11.9965,0.003921,0.00751,0.000886,0.000364,0.000726,-0.001104,0.004285,-0.502479,0.000657,0.682147,-260.831872,1.073053,72.655052
12.0167,0.003489,0.007262,-0.001134,0.000313,0.000745,-0.001437,0.004285,-0.502479,0.000657,0.682147,-260.831872,1.073053,72.655052
12.0365,0.003771,0.007363,-0.000287,0.000271,0.00076,-0.001672,0.002925,-0.502715,-0.001154,0.639357,-260.831711,1.147616,72.655405
12.0573,0.004097,0.007275,0.000198,0.000352,0.000727,-0.001022,0.00321,-0.502681,-0.000805,0.639357,-260.831711,1.147616,72.655405
12.0766,0.003886,0.007401,-0.001059,0.000417,0.000702,-0.000569,0.004198,-0.502725,0.000198,0.564367,-260.831711,1.222606,72.655405
12.0964,0.004087,0.007598,0.000303,0.000447,0.000687,-0.000185,0.003424,-0.50261,-0.000945,0.564367,-260.831711,1.222606,72.655405
12.1165,0.004087,0.006967,-0.000939,0.000472,0.000676,8.2e-05,0.003424,-0.50261,-0.000945,0.564367,-260.831711,1.222606,72.655405
12.137,0.003769,0.007393,-8e-06,0.000492,0.000668,0.000267,0.003621,-0.503012,-0.000957,0.639368,-260.831554,1.192751,72.65573
12.1568,0.004015,0.007191,-0.001828,0.000467,0.000686,0.000189,0.003681,-0.502844,-0.000572,0.639368,-260.831554,1.192751,72.65573
12.1771,0.004236,0.007247,0.00096,0.000447,0.0007,0.000134,0.003083,-0.502808,-0.001828,0.714417,-260.831552,1.117702,72.655732
12.1967,0.003946,0.006979,-0.000122,0.000343,0.000756,-0.000601,0.004584,-0.502758,0.00072,0.714417,-260.831552,1.117702,72.655732
12.217,0.003784,0.007585,-4.3e-05,0.000256,0.000799,-0.001119,0.004584,-0.502758,0.00072,0.714417,-260.831552,1.117702,72.655732
12.2369,0.003475,0.00718,-0.000903,0.000183,0.000832,-0.001483,0.003764,-0.502413,-4.3e-05,0.789481,-260.831517,1.042637,72.655761
12.2567,0.00402,0.00708,-0.001963,0.000253,0.000794,-0.001117,0.003461,-0.502577,-0.00039,0.789481,-260.831517,1.042637,72.655761
12.2767,0.003804,0.007738,0.000944,0.000308,0.000763,-0.000862,0.003019,-0.502919,-0.001963,0.714596,-260.831517,1.117523,72.655761
12.2966,0.004257,0.007045,-6.4e-05,0.000286,0.000764,-0.00128,0.004178,-0.502318,0.000697,0.714596,-260.831517,1.117523,72.655761
12.3166,0.004279,0.007384,-2.2e-05,0.000267,0.000764,-0.001575,0.004178,-0.502318,0.000697,0.714596,-260.831517,1.117523,72.655761
12.3365,0.003972,0.007356,-0.000108,0.000252,0.000763,-0.001784,0.004275,-0.502603,-3.7e-05,0.654341,-260.831449,1.192679,72.655993
12.3566,0.004255,0.007485,0.000451,0.00023,0.000769,-0.001521,0.004128,-0.502618,-6.8e-05,0.654341,-260.831449,1.192679,72.655993
12.3766,0.004021,0.007294,-0.001161,0.000213,0.000774,-0.001337,0.004486,-0.502515,0.000451,0.579373,-260.831449,1.267647,72.655993
12.3968,0.004013,0.007262,-0.001265,0.000267,0.000751,-0.000681,0.003523,-0.502689,-0.001018,0.579373,-260.831449,1.267647,72.655993
12.4169,0.003922,0.007542,-0.000806,0.000311,0.000733,-0.000224,0.003523,-0.502689,-0.001018,0.579373,-260.831449,1.267647,72.655993
12.4367,0.003789,0.007662,-0.001283,0.000346,0.000721,9.4e-05,0.003511,-0.502458,-0.000806,0.504477,-260.831449,1.342543,72.655993
12.4567,0.004013,0.00747,0.000211,0.000405,0.000694,0.000312,0.003358,-0.502409,-0.000999,0.504477,-260.831449,1.342543,72.655993
12.4766,0.004249,0.007228,0.00024,0.000453,0.000673,0.000464,0.004121,-0.50253,0.000211,0.579489,-260.831449,1.267531,72.655993
12.4968,0.003906,0.007653,0.000486,0.000368,0.000722,-0.000119,0.004349,-0.502751,0.000237,0.579489,-260.831449,1.267531,72.655993
12.517,0.003999,0.007527,-8.1e-05,0.000297,0.000758,-0.000528,0.004349,-0.502751,0.000237,0.579489,-260.831449,1.267531,72.655993
12.5368,0.004088,0.007232,-0.000102,0.000239,0.000787,-0.000815,0.003958,-0.502473,-8.1e-05,0.65445,-260.831449,1.19257,72.655993
12.5569,0.003953,0.007257,-0.000601,0.000236,0.000783,-0.00083,0.00399,-0.502594,-9e-05,0.65445,-260.831449,1.19257,72.655993
12.5768,0.003958,0.007367,-0.002512,0.000233,0.00078,-0.000839,0.003649,-0.502737,-0.000607,0.729443,-260.831413,1.267563,72.656119
12.5967,0.004027,0.007311,0.000495,0.000389,0.000729,0.000272,0.002766,-0.50264,-0.002337,0.729443,-260.831413,1.267563,72.656119
12.617,0.003471,0.007778,0.000908,0.000514,0.000688,0.001058,0.002766,-0.50264,-0.002337,0.729443,-260.831413,1.267563,72.656119
12.6368,0.004025,0.007134,-0.001552,0.000616,0.000656,0.001612,0.003941,-0.502202,0.000887,0.804452,-260.831326,1.342572,72.656438
12.6569,0.003948,0.00746,-0.001249,0.000589,0.000666,0.000872,0.003655,-0.502468,-0.000103,0.804452,-260.831326,1.342572,72.656438
12.677,0.003822,0.007118,0.000203,0.000566,0.000672,0.000353,0.003311,-0.502539,-0.001249,0.879456,-260.831326,1.267567,72.656438
12.6969,0.004046,0.007307,0.000682,0.000505,0.000703,-0.000116,0.003872,-0.502852,7.7e-05,0.879456,-260.831326,1.267567,72.656438
12.7168,0.004364,0.007504,0.000312,0.000455,0.000725,-0.000443,0.003872,-0.502852,7.7e-05,0.879456,-260.831326,1.267567,72.656438
12.7368,0.004009,0.007211,-0.000657,0.000414,0.000742,-0.000672,0.004523,-0.502496,0.000312,0.954538,-260.831325,1.192485,72.656439
12.7567,0.004071,0.007266,0.000942,0.00036,0.000758,-0.000745,0.004178,-0.502615,-8.2e-05,0.954538,-260.831325,1.192485,72.656439
12.777,0.003936,0.007264,-0.000484,0.000315,0.00077,-0.000795,0.004555,-0.502727,0.000937,0.879621,-260.831266,1.225784,72.656575
12.7968,0.003919,0.007235,-0.000832,0.000317,0.000765,-0.000669,0.003766,-0.502735,-0.000359,0.879621,-260.831266,1.225784,72.656575
12.8169,0.003975,0.007103,0.000392,0.000319,0.000761,-0.00058,0.003766,-0.502735,-0.000359,0.879621,-260.831266,1.225784,72.656575
12.837,0.004023,0.007635,-0.000168,0.000321,0.000758,-0.000518,0.004183,-0.502877,0.000372,0.804539,-260.831162,1.300866,72.656892
12.8566,0.004406,0.007651,-0.00087,0.000289,0.00077,-0.00076,0.004086,-0.50267,0.000154,0.804539,-260.831162,1.300866,72.656892
12.877,0.004104,0.007651,0.001145,0.000262,0.000778,-0.000929,0.00397,-0.502331,-0.000883,0.879457,-260.831003,1.280538,72.65722
12.8969,0.003961,0.007675,0.000188,0.000206,0.000799,-0.001462,0.004622,-0.502346,0.000959,0.879457,-260.831003,1.280538,72.65722
12.9168,0.004311,0.007161,0.00013,0.000158,0.000815,-0.001838,0.004622,-0.502346,0.000959,0.879457,-260.831003,1.280538,72.65722
12.9367,0.004315,0.007423,-0.000744,0.000118,0.000826,-0.002102,0.004382,-0.502824,0.000113,0.804453,-260.830942,1.355542,72.657466
12.9568,0.00386,0.007461,0.000377,0.000109,0.000826,-0.001644,0.004199,-0.502721,-0.000241,0.804453,-260.830942,1.355542,72.657466
12.9767,0.004161,0.007385,5.4e-05,0.000102,0.000827,-0.001325,0.004052,-0.502539,0.000377,0.729305,-260.830942,1.43069,72.657466
12.997,0.004124,0.007345,-0.000354,0.000103,0.000824,-0.00128,0.004177,-0.502609,8.2e-05,0.729305,-260.830942,1.43069,72.657466
13.0169,0.00402,0.007009,-0.002609,0.000103,0.000821,-0.001248,0.004177,-0.502609,8.2e-05,0.729305,-260.830942,1.43069,72.657466
13.0366,0.004321,0.007427,-0.002349,0.000103,0.00082,-0.001226,0.002689,-0.502989,-0.002609,0.654336,-260.830942,1.505659,72.657469
13.0569,0.00393,0.007351,0.000343,0.000264,0.000771,5.2e-05,0.002866,-0.502819,-0.002503,0.654336,-260.830942,1.505659,72.657469
13.0764,0.004251,0.007065,-0.001517,0.000395,0.000733,0.000959,0.004108,-0.502624,0.000305,0.603917,-260.830894,1.50538,72.658072
13.0967,0.004138,0.007778,-0.001211,0.000406,0.000733,0.001079,0.003535,-0.502905,-0.001354,0.603917,-260.830894,1.50538,72.658072
13.1168,0.003954,0.007611,-0.001113,0.000415,0.000734,0.001165,0.003535,-0.502905,-0.001354,0.603917,-260.830894,1.50538,72.658072
13.1366,0.003762,0.007286,-0.000365,0.000422,0.000735,0.001227,0.003386,-0.502388,-0.001113,0.678805,-260.830894,1.430492,72.658072
13.1566,0.004037,0.007779,0.000239,0.000451,0.00072,0.000996,0.003463,-0.502521,-0.000808,0.678805,-260.830894,1.430492,72.658072
13.177,0.003903,0.007271,-0.001059,0.000473,0.000707,0.000835,0.004159,-0.502221,0.000239,0.753846,-260.830894,1.355452,72.658072
13.1979,0.004385,0.007781,-0.00011,0.000489,0.0007,0.000794,0.003433,-0.502684,-0.000944,0.753846,-260.830894,1.355452,72.658072
13.2171,0.004095,0.007851,5.9e-05,0.000502,0.000694,0.000765,0.003433,-0.502684,-0.000944,0.753846,-260.830894,1.355452,72.658072
13.2367,0.003855,0.007588,0.001242,0.000513,0.000689,0.000746,0.004125,-0.502149,5.9e-05,0.828846,-260.830894,1.280451,72.658072
13.2569,0.004255,0.007658,0.000249,0.000452,0.00071,-5.9e-05,0.004267,-0.502252,0.000521,0.828846,-260.830894,1.280451,72.658072
13.2765,0.004231,0.007183,0.00022,0.0004,0.000724,-0.000628,0.004382,-0.502342,0.000249,0.903803,-260.830894,1.205494,72.658072
13.2966,0.003965,0.007747,5.2e-05,0.000322,0.000761,-0.00088,0.004347,-0.502773,0.000222,0.903803,-260.830894,1.205494,72.658072
13.3165,0.003991,0.00715,0.000229,0.000259,0.000789,-0.001055,0.004347,-0.502773,0.000222,0.903803,-260.830894,1.205494,72.658072
13.3364,0.004133,0.007628,-0.000147,0.000207,0.000811,-0.001177,0.004116,-0.502833,0.000216,0.828807,-260.830783,1.224527,72.65832
13.3565,0.003957,0.007764,-4.7e-05,0.000196,0.000809,-0.00117,0.004093,-0.502641,6.5e-05,0.828807,-260.830783,1.224527,72.65832
13.3767,0.003986,0.007264,-0.001303,0.000188,0.000807,-0.001164,0.003933,-0.502235,-4.8e-05,0.753706,-260.830781,1.299628,72.658339
13.3966,0.003906,0.007364,-0.001176,0.000266,0.000772,-0.000463,0.003371,-0.502695,-0.001201,0.753706,-260.830781,1.299628,72.658339
13.4165,0.004329,0.007866,-0.000422,0.000329,0.000745,2.6e-05,0.003371,-0.502695,-0.001201,0.753706,-260.830781,1.299628,72.658339
13.4368,0.004027,0.007463,0.000774,0.00038,0.000725,0.000366,0.004115,-0.502127,-0.000431,0.678535,-260.830764,1.374799,72.65846
13.4568,0.004509,0.007847,0.000524,0.000339,0.000737,-8.9e-05,0.004242,-0.502295,6.5e-05,0.678535,-260.830764,1.374799,72.65846
13.4767,0.003998,0.007667,-0.000443,0.000305,0.000745,-0.000408,0.004777,-0.502153,0.000524,0.753395,-260.830764,1.299939,72.65846
13.4972,0.004061,0.007786,-0.000241,0.000317,0.000732,-0.000392,0.00386,-0.502317,-0.000358,0.753395,-260.830764,1.299939,72.65846
13.5167,0.004081,0.007409,-6.7e-05,0.000326,0.000722,-0.000381,0.00386,-0.502317,-0.000358,0.753395,-260.830764,1.299939,72.65846
13.5366,0.003958,0.007209,-0.000474,0.000333,0.000714,-0.000374,0.004052,-0.502582,-7.3e-05,0.82836,-260.83069,1.272596,72.658592
13.5566,0.004374,0.007818,-0.00065,0.000317,0.000725,-0.00044,0.003916,-0.502666,-0.000237,0.82836,-260.83069,1.272596,72.658592
13.5764,0.004291,0.007289,-0.00133,0.000304,0.000734,-0.000486,0.00405,-0.502166,-0.000659,0.903358,-260.830524,1.230768,72.658874
13.5966,0.004309,0.007363,-3.6e-05,0.000329,0.000724,3.8e-05,0.003653,-0.502661,-0.00127,0.903358,-260.830524,1.230768,72.658874
13.6168,0.003961,0.008002,-0.00132,0.000348,0.000717,0.000404,0.003653,-0.502661,-0.00127,0.903358,-260.830524,1.230768,72.658874
13.6368,0.004262,0.007431,0.000577,0.000364,0.000712,0.00066,0.003299,-0.50197,-0.001338,0.962696,-260.830331,1.283616,72.659263
13.6568,0.004652,0.007618,-0.000792,0.000375,0.000703,0.000464,0.003816,-0.502212,-0.000555,0.962696,-260.830331,1.283616,72.659263
13.6767,0.004188,0.007438,-0.001178,0.000384,0.000695,0.000328,0.004248,-0.502382,-0.000792,1.037664,-260.830331,1.208649,72.659263
13.6967,0.004191,0.007371,0.000438,0.000398,0.00069,0.000544,0.003646,-0.502545,-0.001143,1.037664,-260.830331,1.208649,72.659263
13.7168,0.003815,0.007241,-0.000605,0.00041,0.000686,0.000696,0.003646,-0.502545,-0.001143,1.037664,-260.830331,1.208649,72.659263
13.7364,0.00413,0.007521,-0.001933,0.00042,0.000684,0.000801,0.003509,-0.502754,-0.000603,1.112609,-260.83026,1.133703,72.659309
13.7565,0.004136,0.007634,0.000607,0.000456,0.000675,0.000879,0.003362,-0.502641,-0.001142,1.112609,-260.83026,1.133703,72.659309
13.7766,0.004171,0.007607,0.000493,0.000486,0.000668,0.000933,0.004446,-0.502366,0.000607,1.187542,-260.83026,1.058771,72.659309
13.7965,0.004282,0.007941,-0.000747,0.000408,0.000706,8.1e-05,0.004425,-0.50239,0.000503,1.187542,-260.83026,1.058771,72.659309
13.8166,0.004168,0.007914,-0.001184,0.000343,0.000734,-0.000522,0.004425,-0.50239,0.000503,1.187542,-260.83026,1.058771,72.659309
13.8365,0.004255,0.007685,0.000485,0.000287,0.000756,-0.000947,0.003564,-0.502086,-0.001184,1.196415,-260.830259,0.983642,72.659309
13.8565,0.004487,0.007879,-0.000189,0.0003,0.000737,-0.000688,0.003948,-0.502179,-0.000501,1.196415,-260.830259,0.983642,72.659309
13.8766,0.004421,0.007403,0.000977,0.00031,0.000723,-0.000507,0.00439,-0.502121,-0.000189,1.12145,-260.830259,1.058608,72.659309
13.8964,0.003911,0.007505,-0.000404,0.000213,0.000777,-0.001129,0.004874,-0.502557,0.000879,1.12145,-260.830259,1.058608,72.659309
13.9165,0.00425,0.007431,0.00055,0.000132,0.00082,-0.001567,0.004874,-0.502557,0.000879,1.12145,-260.830259,1.058608,72.659309
13.9369,0.004101,0.007578,-0.001064,6.4e-05,0.000853,-0.001875,0.004534,-0.502562,0.000545,1.046348,-260.830208,1.133709,72.659415
13.9573,0.003984,0.007843,-0.00018,8.2e-05,0.000836,-0.001552,0.004137,-0.502504,-0.000111,1.046348,-260.830208,1.133709,72.659415
13.9766,0.003835,0.007617,-8e-05,9.6e-05,0.000823,-0.001328,0.003891,-0.502157,-0.00018,0.971425,-260.830208,1.208632,72.659415
13.9965,0.003824,0.007649,-0.001683,0.000149,0.000794,-0.001176,0.003803,-0.502363,-8.9e-05,0.971425,-260.830208,1.208632,72.659415
14.0166,0.00464,0.008053,0.000312,0.000192,0.00077,-0.001071,0.003803,-0.502363,-8.9e-05,0.971425,-260.830208,1.208632,72.659415
14.0366,0.004541,0.007704,0.000506,0.000226,0.000752,-0.000999,0.004799,-0.501947,0.000312,0.896531,-260.830208,1.283526,72.659415
14.0567,0.004157,0.00738,0.000149,0.000168,0.000773,-0.001223,0.004799,-0.50209,0.000392,0.896531,-260.830208,1.283526,72.659415
14.0772,0.004066,0.007624,3.5e-05,0.00012,0.00079,-0.00138,0.004234,-0.502617,0.000146,0.821453,-260.830195,1.358604,72.659484
14.0971,0.004144,0.007622,-0.001896,0.000135,0.000781,-0.001294,0.004096,-0.502396,4.4e-05,0.821453,-260.830195,1.358604,72.659484
14.1171,0.003833,0.007232,-0.000503,0.000147,0.000774,-0.001234,0.004096,-0.502396,4.4e-05,0.821453,-260.830195,1.358604,72.659484
14.1365,0.004293,0.007016,-0.000869,0.000157,0.000768,-0.001192,0.003577,-0.502768,-0.000503,0.74607,-260.830195,1.433987,72.659484
14.1566,0.004077,0.007527,-0.000268,0.000191,0.000762,-0.000777,0.003687,-0.502855,-0.00065,0.74607,-260.830195,1.433987,72.659484
14.1767,0.00424,0.006949,-6.9e-05,0.00022,0.000759,-0.000488,0.00394,-0.502473,-0.000269,0.671521,-260.830194,1.466564,72.659494
14.1967,0.004248,0.007501,-0.001026,0.000179,0.00079,-0.000609,0.004182,-0.503,-8.6e-05,0.671521,-260.830194,1.466564,72.659494
14.2165,0.003849,0.007591,-0.00103,0.000146,0.000815,-0.000692,0.004182,-0.503,-8.6e-05,0.671521,-260.830194,1.466564,72.659494
14.2365,0.00427,0.007739,0.001308,0.000119,0.000835,-0.00075,0.003325,-0.502408,-0.00103,0.746563,-260.830188,1.391522,72.659506
14.2567,0.004334,0.007637,0.000187,0.000148,0.000812,-0.000782,0.00398,-0.502348,-8e-05,0.746563,-260.830188,1.391522,72.659506
14.2765,0.004117,0.007592,0.000679,0.000172,0.000793,-0.000804,0.004429,-0.502363,0.000187,0.821504,-260.830187,1.466463,72.659511
14.2968,0.004052,0.007625,0.001167,0.000141,0.000805,-0.00121,0.00446,-0.502404,0.000635,0.821504,-260.830187,1.466463,72.659511
14.3168,0.003889,0.007704,-0.000617,0.000115,0.000814,-0.001495,0.00446,-0.502404,0.000635,0.821504,-260.830187,1.466463,72.659511
14.3365,0.004179,0.007794,0.000187,9.3e-05,0.00082,-0.001696,0.003578,-0.502282,-0.000631,0.896502,-260.830129,1.437743,72.659726
14.3564,0.004217,0.007806,-0.000176,0.000145,0.000788,-0.001316,0.003862,-0.50225,-0.0003,0.896502,-260.830129,1.437743,72.659726
14.3763,0.004364,0.007777,-0.000304,0.000187,0.000763,-0.001052,0.004127,-0.502194,-0.000176,0.821504,-260.830129,1.51274,72.659726
14.3967,0.004338,0.007566,-0.001273,0.000187,0.000756,-0.000878,0.004202,-0.502221,-0.000293,0.821504,-260.830129,1.51274,72.659726
14.4167,0.003793,0.007961,-0.000746,0.000187,0.000751,-0.000757,0.004202,-0.502221,-0.000293,0.821504,-260.830129,1.51274,72.659726
14.4367,0.003778,0.007692,-0.000289,0.000187,0.000748,-0.000672,0.003415,-0.502029,-0.000761,0.746309,-260.8301,1.43829,72.659912
14.4569,0.004113,0.007396,-0.000319,0.000266,0.000712,-0.000446,0.003503,-0.502141,-0.000571,0.746309,-260.8301,1.43829,72.659912
14.4763,0.004053,0.007376,-0.001738,0.000331,0.000684,-0.00029,0.003952,-0.5026,-0.000323,0.821115,-260.83007,1.410435,72.660002
14.4965,0.004226,0.007616,-0.002223,0.000403,0.000666,0.000351,0.003234,-0.502621,-0.001617,0.821115,-260.83007,1.410435,72.660002
14.5166,0.004141,0.007793,-0.001623,0.000461,0.000652,0.000799,0.003234,-0.502621,-0.001617,0.821115,-260.83007,1.410435,72.660002
14.5365,0.00415,0.007756,-0.001125,0.000508,0.000642,0.001113,0.003317,-0.502197,-0.001627,0.896241,-260.829995,1.335309,72.660118
14.5571,0.004405,0.007842,0.00034,0.00054,0.000627,0.001238,0.003423,-0.502215,-0.001423,0.896241,-260.829995,1.335309,72.660118
14.5768,0.004601,0.007874,0.000177,0.000566,0.000616,0.001326,0.004578,-0.502158,0.00034,0.971108,-260.829995,1.260441,72.660118
14.5971,0.004284,0.007688,-0.001251,0.000462,0.000665,0.000515,0.004681,-0.502128,0.000191,0.971108,-260.829995,1.260441,72.660118
14.6173,0.004209,0.007793,0.000434,0.000375,0.000703,-5.7e-05,0.004681,-0.502128,0.000191,0.971108,-260.829995,1.260441,72.660118
14.6373,0.004588,0.007381,0.002022,0.000302,0.000731,-0.000459,0.00443,-0.502207,0.000434,1.046122,-260.829995,1.185427,72.660118
14.6573,0.004447,0.00758,-0.000402,0.000214,0.000778,-0.001185,0.004908,-0.502373,0.001073,1.046122,-260.829995,1.185427,72.660118
14.6771,0.004056,0.007471,0.000216,0.00014,0.000813,-0.001698,0.00425,-0.502401,-0.000414,0.980684,-260.829819,1.260424,72.660459
14.6975,0.004461,0.007493,0.00053,0.00014,0.000808,-0.001583,0.004174,-0.502517,0.000161,0.980684,-260.829819,1.260424,72.660459
14.7173,0.004227,0.007683,-0.000655,0.000139,0.000804,-0.001503,0.004174,-0.502517,0.000161,0.980684,-260.829819,1.260424,72.660459
14.7366,0.004398,0.007605,0.001162,0.000138,0.000801,-0.001447,0.003893,-0.502317,-0.000655,0.905569,-260.829819,1.335539,72.660459
14.7573,0.004193,0.007446,0.001144,0.000128,0.000798,-0.001359,0.004333,-0.502348,7.2e-05,0.905569,-260.829819,1.335539,72.660459
14.7771,0.003972,0.007738,-0.000398,0.000121,0.000796,-0.001298,0.004777,-0.502554,0.001144,0.83068,-260.829819,1.410428,72.660459
14.797,0.003984,0.007738,-0.001489,0.000165,0.000771,-0.001071,0.00387,-0.502291,-0.000244,0.83068,-260.829819,1.410428,72.660459
14.8168,0.004118,0.007659,-7e-05,0.000201,0.000752,-0.000914,0.00387,-0.502291,-0.000244,0.83068,-260.829819,1.410428,72.660459
14.8371,0.004455,0.00745,-0.000668,0.00023,0.000736,-0.000804,0.004083,-0.502341,-7e-05,0.755588,-260.829819,1.485521,72.660459
14.8566,0.004559,0.007566,-0.000929,0.000224,0.000739,-0.000682,0.004097,-0.502435,-0.000339,0.755588,-260.829819,1.485521,72.660459
14.8767,0.004599,0.007669,7.9e-05,0.000219,0.000742,-0.000596,0.004091,-0.502416,-0.000949,0.816896,-260.829713,1.409297,72.660853
14.8968,0.004208,0.008105,0.000305,0.00017,0.000765,-0.000721,0.00459,-0.502338,-1.5e-05,0.816896,-260.829713,1.409297,72.660853
14.9171,0.004382,0.007604,8.7e-05,0.000129,0.000783,-0.000808,0.00459,-0.502338,-1.5e-05,0.816896,-260.829713,1.409297,72.660853
14.9367,0.004362,0.008003,-0.000275,9.6e-05,0.000797,-0.000868,0.004431,-0.502383,7.6e-05,0.890576,-260.829639,1.375174,72.661044
14.9568,0.004352,0.00763,0.000452,9.7e-05,0.000792,-0.000877,0.004349,-0.502229,-6.4e-05,0.890576,-260.829639,1.375174,72.661044
14.9763,0.004355,0.007809,-0.001064,9.8e-05,0.000788,-0.000883,0.004583,-0.502367,0.000448,0.965749,-260.829625,1.450347,72.661111
14.9969,0.003853,0.007745,-0.001082,0.000151,0.000759,-0.000405,0.003881,-0.502206,-0.000928,0.965749,-260.829625,1.450347,72.661111
15.0167,0.004721,0.007897,0.000335,0.000194,0.000737,-7.4e-05,0.003881,-0.502206,-0.000928,0.965749,-260.829625,1.450347,72.661111
15.0367,0.004208,0.007916,-0.000983,0.00023,0.00072,0.000157,0.004894,-0.502089,0.000319,1.040573,-260.829581,1.496996,72.661331
15.0568,0.004404,0.007791,-0.001613,0.000208,0.00073,-7.6e-05,0.004406,-0.502085,-0.000218,1.040573,-260.829581,1.496996,72.661331
15.0772,0.004248,0.007982,0.000766,0.000191,0.000737,-0.000238,0.003582,-0.502206,-0.001613,1.11568,-260.829547,1.421889,72.661357
15.0967,0.003966,0.007919,0.001049,0.000166,0.000749,-0.000768,0.004547,-0.502034,0.00056,1.11568,-260.829547,1.421889,72.661357
15.1168,0.003934,0.007822,0.000118,0.000145,0.000758,-0.001141,0.004547,-0.502034,0.00056,1.11568,-260.829547,1.421889,72.661357
15.1365,0.004487,0.008162,-0.000396,0.000127,0.000764,-0.001404,0.004,-0.502158,0.000111,1.190697,-260.82938,1.358103,72.6616
