mach0312/omni-docking-bench/src/icros_test_setup/results/MPPI_sample/timeseries/trial_034.csv
t,x,y,yaw,vx,vy,wz,bl_x,bl_y,bl_yaw,front_steering_joint,front_wheel_joint,rear_steering_joint,rear_wheel_joint
0.0,-0.06033,0.019701,0.068622,0.007909,0.001314,0.004845,-0.026457,-0.489803,0.067021,0.495399,-263.143093,-0.205042,70.479518
0.0005,-0.059846,0.019445,0.068245,0.003573,0.000594,0.002189,-0.026457,-0.489803,0.067021,0.495399,-263.139305,-0.205042,70.482922
0.0008,-0.060034,0.019504,0.071045,0.002758,0.000458,0.00169,-0.025856,-0.489413,0.068054,0.495399,-263.135924,-0.205042,70.48596
0.0012,-0.059668,0.019515,0.068951,0.001892,0.000314,0.001159,-0.025856,-0.489413,0.068054,0.495399,-263.133314,-0.205042,70.488306
0.0015,-0.059585,0.019175,0.070497,0.000975,0.000162,0.000597,-0.025551,-0.489325,0.068592,0.495399,-263.131344,-0.205042,70.490076
0.0018,-0.059955,0.019513,0.069616,0.0,0.0,0.0,-0.025551,-0.489325,0.068592,0.495399,-263.130483,-0.205042,70.490849
0.0021,-0.059792,0.019518,0.070367,0.0,0.0,0.0,-0.025959,-0.489134,0.067683,0.495399,-263.130483,-0.205042,70.490849
0.0024,-0.059942,0.01942,0.069553,0.0,0.0,0.0,-0.024973,-0.489027,0.069734,0.495399,-263.130483,-0.205042,70.490849
0.0026,-0.059605,0.019503,0.068925,0.0,0.0,0.0,-0.024973,-0.489027,0.069734,0.495399,-263.130483,-0.205042,70.490849
0.0029,-0.059762,0.0196,0.070773,0.0,0.0,0.0,-0.024973,-0.489027,0.069734,0.495399,-263.130483,-0.205042,70.490849
0.0171,-0.059998,0.019599,0.069845,0.0,0.0,0.0,-0.024483,-0.489292,0.068981,0.495399,-263.130483,-0.205042,70.490849
0.0369,-0.059824,0.019795,0.070484,0.0,0.0,0.0,-0.024406,-0.489158,0.069845,0.495399,-263.130483,-0.205042,70.490849
0.0571,-0.059751,0.019459,0.070292,0.0,0.0,0.0,-0.024203,-0.489068,0.070106,0.495399,-263.130483,-0.205042,70.490849
0.0771,-0.060096,0.019499,0.07049,0.0,0.0,0.0,-0.023931,-0.489282,0.070292,0.495399,-263.130483,-0.205042,70.490849
0.097,-0.05954,0.019787,0.069118,0.0,0.0,0.0,-0.024155,-0.489239,0.070474,0.495399,-263.130483,-0.205042,70.490849
0.1171,-0.059875,0.019672,0.069707,0.001767,-0.000294,-0.00911,-0.024155,-0.489239,0.070474,0.495399,-263.130483,-0.205042,70.490849
0.1367,-0.060045,0.019598,0.069835,0.001988,-0.000344,-0.009717,-0.024353,-0.48909,0.069707,0.495399,-263.130483,-0.205042,70.490849
0.1568,-0.060171,0.01969,0.069606,0.002191,-0.000392,-0.01022,-0.024396,-0.489118,0.06976,0.495399,-263.130483,-0.205042,70.490849
0.1767,-0.059869,0.019534,0.06982,0.002375,-0.000439,-0.010606,-0.0247,-0.489075,0.069606,0.42053,-263.130483,-0.130173,70.490849
0.1973,-0.059106,0.019648,0.070218,0.002544,-0.000483,-0.010938,-0.024326,-0.489211,0.069801,0.42053,-263.130483,-0.130173,70.490849
0.2172,-0.06003,0.019529,0.069654,0.002698,-0.000526,-0.011191,-0.024326,-0.489211,0.069801,0.42053,-263.130483,-0.130173,70.490849
0.2367,-0.059578,0.019525,0.067461,0.002836,-0.000567,-0.011383,-0.024535,-0.489234,0.069654,0.345528,-263.130483,-0.055171,70.490849
0.2569,-0.059741,0.01971,0.06866,0.002969,-0.000597,-0.011565,-0.024806,-0.489267,0.068761,0.345528,-263.130483,-0.055171,70.490849
0.2772,-0.059911,0.019422,0.069992,0.003089,-0.000627,-0.011704,-0.024752,-0.489089,0.06866,0.270528,-263.130483,0.01983,70.490849
0.2972,-0.059755,0.019458,0.068854,0.003189,-0.000662,-0.011885,-0.02429,-0.489308,0.06987,0.270528,-263.130483,0.01983,70.490849
0.3173,-0.05995,0.019748,0.068505,0.003278,-0.000694,-0.012026,-0.02429,-0.489308,0.06987,0.270528,-263.130483,0.01983,70.490849
0.337,-0.059539,0.019495,0.069598,0.003359,-0.000724,-0.012136,-0.02504,-0.489056,0.068505,0.195586,-263.130483,0.094771,70.490849
0.3568,-0.05956,0.01942,0.069741,0.003435,-0.000748,-0.01222,-0.024647,-0.489143,0.068948,0.195586,-263.130483,0.094771,70.490849
0.377,-0.060036,0.019394,0.069405,0.003503,-0.00077,-0.012285,-0.024021,-0.48934,0.069741,0.120591,-263.130483,0.169767,70.490849
0.3971,-0.060023,0.019659,0.069508,0.003567,-0.000788,-0.012335,-0.024609,-0.489375,0.069436,0.120591,-263.130483,0.169767,70.490849
0.4171,-0.059922,0.019413,0.070859,0.003623,-0.000805,-0.012374,-0.024609,-0.489375,0.069436,0.120591,-263.130483,0.169767,70.490849
0.4368,-0.059673,0.019239,0.070407,0.003673,-0.00082,-0.012402,-0.023814,-0.489307,0.070859,0.045595,-263.130483,0.244762,70.490849
0.4575,-0.059528,0.019673,0.070395,0.003704,-0.000846,-0.012423,-0.023806,-0.489385,0.070675,0.045595,-263.130483,0.244762,70.490849
0.4771,-0.059801,0.019185,0.069829,0.003733,-0.00087,-0.012439,-0.023656,-0.489064,0.070395,-0.029461,-263.130483,0.319819,70.490849
0.497,-0.059999,0.019781,0.068675,0.003767,-0.000882,-0.012452,-0.024166,-0.489525,0.06988,-0.029461,-263.130483,0.319819,70.490849
0.5171,-0.059802,0.01938,0.068796,0.003798,-0.000894,-0.012462,-0.024166,-0.489525,0.06988,-0.029461,-263.130483,0.319819,70.490849
0.537,-0.059996,0.019567,0.06958,0.003824,-0.000904,-0.012469,-0.024743,-0.489414,0.068796,-0.104425,-263.130483,0.394782,70.490849
0.5571,-0.059627,0.019429,0.069918,0.003853,-0.000909,-0.012474,-0.024659,-0.489326,0.069117,-0.104425,-263.130483,0.394782,70.490849
0.577,-0.059951,0.019688,0.069455,0.003878,-0.000914,-0.012478,-0.023997,-0.489324,0.069918,-0.179413,-263.130483,0.469771,70.490849
0.5971,-0.059867,0.019786,0.069365,0.003893,-0.000925,-0.01248,-0.024507,-0.489104,0.069496,-0.179413,-263.130483,0.469771,70.490849
0.6173,-0.059551,0.019289,0.069075,0.003906,-0.000935,-0.012482,-0.024507,-0.489104,0.069496,-0.179413,-263.130483,0.469771,70.490849
0.6374,-0.059862,0.019074,0.069578,0.003919,-0.000943,-0.012483,-0.024351,-0.489495,0.069075,-0.25442,-263.130483,0.544777,70.490849
0.6569,-0.05963,0.01973,0.069801,0.003936,-0.000944,-0.012484,-0.024374,-0.489576,0.069281,-0.25442,-263.130483,0.544777,70.490849
0.6768,-0.059715,0.019085,0.069844,0.003951,-0.000946,-0.012485,-0.024061,-0.489028,0.069801,-0.329421,-263.130483,0.619778,70.490849
0.6972,-0.05987,0.019534,0.070023,0.003961,-0.00095,-0.012485,-0.024118,-0.489613,0.06984,-0.329421,-263.130483,0.619778,70.490849
0.7171,-0.05991,0.019577,0.070222,0.003969,-0.000954,-0.012485,-0.024118,-0.489613,0.06984,-0.329421,-263.130483,0.619778,70.490849
0.7374,-0.059695,0.019903,0.070192,0.003977,-0.000958,-0.012485,-0.024126,-0.489166,0.070222,-0.404416,-263.130483,0.694774,70.490849
0.7572,-0.059943,0.0195,0.067862,0.003972,-0.000972,-0.012484,-0.024044,-0.489033,0.07021,-0.404416,-263.130483,0.694774,70.490849
0.7775,-0.059884,0.01926,0.068701,0.003968,-0.000985,-0.012484,-0.02536,-0.489326,0.067862,-0.479407,-263.130483,0.769765,70.490849
0.7975,-0.059714,0.019399,0.069874,0.003988,-0.000974,-0.012485,-0.024917,-0.489518,0.068627,-0.479407,-263.130483,0.769765,70.490849
0.8171,-0.060144,0.019813,0.070514,0.004005,-0.000964,-0.012486,-0.024917,-0.489518,0.068627,-0.479407,-263.130483,0.769765,70.490849
0.837,-0.059709,0.019146,0.069224,0.004019,-0.000957,-0.012486,-0.024211,-0.48892,0.070514,-0.554512,-263.130483,0.844869,70.49085
0.857,-0.059565,0.01943,0.070024,0.004016,-0.000965,-0.012485,-0.024302,-0.489211,0.069987,-0.554512,-263.130483,0.844869,70.49085
0.8771,-0.059742,0.019373,0.070113,0.004013,-0.000972,-0.012484,-0.023882,-0.48932,0.070023,-0.629421,-263.130475,0.919778,70.490856
0.8975,-0.059658,0.019712,0.069175,0.004009,-0.00098,-0.012484,-0.024003,-0.489369,0.070106,-0.629421,-263.130475,0.919778,70.490856
0.9177,-0.059997,0.019602,0.070053,0.004006,-0.000986,-0.012483,-0.024003,-0.489369,0.070106,-0.629421,-263.130475,0.919778,70.490856
0.9368,-0.059631,0.019906,0.068003,0.004003,-0.000992,-0.012483,-0.024296,-0.489147,0.070048,-0.70453,-263.13043,0.994887,70.490893
0.957,-0.059905,0.0198,0.070541,0.004005,-0.000993,-0.012483,-0.024571,-0.489053,0.06922,-0.70453,-263.13043,0.994887,70.490893
0.9768,-0.059756,0.019538,0.068916,0.004006,-0.000995,-0.012483,-0.023951,-0.488932,0.070525,-0.779729,-263.130258,1.027761,70.491033
0.9969,-0.060144,0.019589,0.068556,0.004011,-0.000993,-0.012484,-0.024574,-0.489223,0.069061,-0.779729,-263.130258,1.027761,70.491033
1.017,-0.059839,0.019825,0.068722,0.004015,-0.000991,-0.012484,-0.024574,-0.489223,0.069061,-0.779729,-263.130258,1.027761,70.491033
1.0373,-0.059626,0.019513,0.069356,0.004018,-0.00099,-0.012484,-0.024791,-0.488971,0.068662,-0.854522,-263.129779,1.027207,70.491424
1.057,-0.059666,0.019646,0.071494,0.004019,-0.000991,-0.012484,-0.024579,-0.48909,0.068941,-0.854522,-263.129779,1.027207,70.491424
1.0774,-0.05964,0.019773,0.068861,0.004019,-0.000992,-0.012484,-0.023192,-0.489052,0.07139,-0.929513,-263.128711,1.02623,70.492295
1.0972,-0.059407,0.019518,0.070169,0.004016,-0.000996,-0.012483,-0.024407,-0.489022,0.069114,-0.929513,-263.128711,1.02623,70.492295
1.1171,-0.059366,0.019681,0.067637,0.004013,-0.001,-0.012483,-0.024407,-0.489022,0.069114,-0.929513,-263.128711,1.02623,70.492295
1.1371,-0.059343,0.019659,0.070187,0.004011,-0.001003,-0.012483,-0.0248,-0.489161,0.067382,-1.004538,-263.12678,1.02596,70.493871
1.1568,-0.059729,0.019542,0.069451,0.00401,-0.001005,-0.012555,-0.024295,-0.489131,0.068485,-1.004538,-263.12678,1.02596,70.493871
1.1772,-0.05867,0.01946,0.069185,0.004009,-0.001007,-0.012612,-0.024234,-0.489243,0.069154,-1.079415,-263.123891,1.026119,70.496221
1.197,-0.058785,0.01986,0.068603,0.003998,-0.001017,-0.012708,-0.023482,-0.489314,0.069167,-1.079415,-263.123891,1.026119,70.496221
1.2169,-0.058815,0.019939,0.068771,0.003989,-0.001026,-0.012786,-0.023482,-0.489314,0.069167,-1.079415,-263.123891,1.026119,70.496221
1.2372,-0.058342,0.019276,0.067829,0.003982,-0.001034,-0.012849,-0.023609,-0.488885,0.068273,-1.13944,-263.120273,1.03135,70.499166
1.2571,-0.058297,0.019884,0.066997,0.003976,-0.001041,-0.012959,-0.023659,-0.489161,0.068034,-1.13944,-263.120273,1.03135,70.499166
1.277,-0.057523,0.019397,0.06463,0.003971,-0.001047,-0.013048,-0.024026,-0.488996,0.06659,-1.149363,-263.116392,1.041923,70.502312
1.297,-0.057605,0.019737,0.067231,0.003989,-0.001033,-0.013178,-0.024528,-0.489491,0.064784,-1.149363,-263.116392,1.041923,70.502312
1.3173,-0.05784,0.019725,0.066709,0.004004,-0.001021,-0.013283,-0.024528,-0.489491,0.064784,-1.149363,-263.116392,1.041923,70.502312
1.3371,-0.057608,0.019591,0.064929,0.004017,-0.00101,-0.013369,-0.023674,-0.489174,0.066162,-1.155952,-263.112462,1.049941,70.505495
1.3571,-0.056945,0.019945,0.067657,0.004013,-0.001015,-0.01349,-0.02399,-0.489241,0.06561,-1.155952,-263.112462,1.049941,70.505495
1.3771,-0.056797,0.019407,0.06694,0.004011,-0.001019,-0.013588,-0.022336,-0.488911,0.067231,-1.158169,-263.108458,1.059239,70.508775
1.397,-0.056856,0.019817,0.064323,0.003988,-0.001041,-0.013716,-0.022645,-0.489403,0.066945,-1.158169,-263.108458,1.059239,70.508775
1.4171,-0.056431,0.019243,0.066009,0.003969,-0.001059,-0.013822,-0.022645,-0.489403,0.066945,-1.158169,-263.108458,1.059239,70.508775
1.4372,-0.056242,0.019383,0.063925,0.003954,-0.001076,-0.013909,-0.02262,-0.489678,0.065441,-1.164316,-263.104407,1.067239,70.512095
1.457,-0.055892,0.01926,0.067757,0.003953,-0.001079,-0.014024,-0.023024,-0.48964,0.06476,-1.164316,-263.104407,1.067239,70.512095
1.4771,-0.05547,0.019508,0.064969,0.003953,-0.001082,-0.014119,-0.021236,-0.489595,0.067318,-1.179032,-263.100291,1.08118,70.515436
1.4969,-0.05564,0.019153,0.064952,0.003935,-0.0011,-0.014233,-0.022254,-0.489433,0.065154,-1.179032,-263.100291,1.08118,70.515436
1.517,-0.055746,0.019458,0.06283,0.00392,-0.001116,-0.014327,-0.022254,-0.489433,0.065154,-1.179032,-263.100291,1.08118,70.515436
1.5372,-0.055048,0.019327,0.063145,0.003908,-0.00113,-0.014405,-0.023556,-0.48957,0.06224,-1.184008,-263.096105,1.088039,70.518838
1.5571,-0.055443,0.019295,0.063473,0.00392,-0.001122,-0.014502,-0.023256,-0.489609,0.06254,-1.184008,-263.096105,1.088039,70.518838
1.577,-0.054783,0.019212,0.062198,0.00393,-0.001116,-0.014583,-0.022968,-0.489706,0.063015,-1.195821,-263.09185,1.099521,70.52227
1.5975,-0.054435,0.019492,0.062944,0.003939,-0.001111,-0.014674,-0.023066,-0.489795,0.062246,-1.195821,-263.09185,1.099521,70.52227
1.6175,-0.05428,0.019275,0.06256,0.003947,-0.001107,-0.014749,-0.023066,-0.489795,0.062246,-1.195821,-263.09185,1.099521,70.52227
1.6373,-0.053865,0.019335,0.063404,0.003953,-0.001103,-0.014812,-0.022228,-0.489763,0.061949,-1.197101,-263.08755,1.103577,70.525755
1.6573,-0.054055,0.019586,0.062623,0.003938,-0.001119,-0.01488,-0.021936,-0.489718,0.062466,-1.197101,-263.08755,1.103577,70.525755
1.6768,-0.053407,0.019236,0.061296,0.003925,-0.001132,-0.014937,-0.02201,-0.489441,0.06215,-1.199392,-263.083192,1.10901,70.529305
1.6972,-0.053653,0.019377,0.062471,0.003921,-0.001139,-0.014996,-0.022145,-0.489776,0.061347,-1.199392,-263.083192,1.10901,70.529305
1.7175,-0.053411,0.019292,0.060239,0.003917,-0.001145,-0.015045,-0.022145,-0.489776,0.061347,-1.199392,-263.083192,1.10901,70.529305
1.7373,-0.052284,0.019654,0.059951,0.003914,-0.00115,-0.015086,-0.022541,-0.48982,0.059613,-1.205229,-263.078808,1.11418,70.532859
1.7577,-0.053163,0.019308,0.060157,0.003912,-0.001154,-0.015126,-0.022195,-0.489668,0.059677,-1.205229,-263.078808,1.11418,70.532859
1.7777,-0.052119,0.019564,0.057924,0.00391,-0.001158,-0.01516,-0.022374,-0.489798,0.059673,-1.209702,-263.074377,1.11894,70.536445
1.7977,-0.052157,0.019237,0.060397,0.003915,-0.001156,-0.015193,-0.022568,-0.489602,0.058056,-1.209702,-263.074377,1.11894,70.536445
1.8169,-0.052209,0.019209,0.059587,0.003919,-0.001154,-0.015221,-0.022568,-0.489602,0.058056,-1.209702,-263.074377,1.11894,70.536445
1.8373,-0.051593,0.019065,0.058074,0.003922,-0.001153,-0.015244,-0.021672,-0.489924,0.058953,-1.211768,-263.06992,1.121148,70.540048
1.8573,-0.051867,0.019564,0.057709,0.003919,-0.001158,-0.015267,-0.021785,-0.489991,0.058516,-1.211768,-263.06992,1.121148,70.540048
1.8772,-0.051214,0.019596,0.056881,0.003916,-0.001162,-0.015286,-0.022326,-0.489616,0.057225,-1.212132,-263.065456,1.122564,70.543664
1.8971,-0.051232,0.019521,0.060074,0.003914,-0.001165,-0.015306,-0.022223,-0.489584,0.056887,-1.212132,-263.065456,1.122564,70.543664
1.9171,-0.050968,0.019527,0.058033,0.003913,-0.001167,-0.015322,-0.022223,-0.489584,0.056887,-1.212132,-263.065456,1.122564,70.543664
1.9371,-0.05044,0.019261,0.057932,0.003913,-0.001169,-0.015336,-0.021221,-0.489654,0.057393,-1.213786,-263.060973,1.124046,70.54729
1.9574,-0.050654,0.019258,0.058227,0.003894,-0.001187,-0.015349,-0.021075,-0.489752,0.057539,-1.213786,-263.060973,1.124046,70.54729
1.9773,-0.049743,0.019174,0.056321,0.003878,-0.001202,-0.015361,-0.020849,-0.489908,0.057738,-1.215212,-263.056475,1.125462,70.550925
1.9974,-0.050025,0.019143,0.057396,0.003869,-0.00121,-0.015374,-0.021012,-0.49001,0.056418,-1.215212,-263.056475,1.125462,70.550925
2.0171,-0.049863,0.019043,0.057425,0.003862,-0.001218,-0.015385,-0.021012,-0.49001,0.056418,-1.215212,-263.056475,1.125462,70.550925
2.0371,-0.049437,0.01965,0.055928,0.003856,-0.001224,-0.015395,-0.020428,-0.490157,0.056784,-1.219597,-263.051972,1.128137,70.554542
2.0577,-0.049488,0.018909,0.056678,0.003842,-0.001237,-0.015404,-0.020615,-0.489914,0.056358,-1.219597,-263.051972,1.128137,70.554542
2.0772,-0.048445,0.018963,0.055718,0.00383,-0.001249,-0.015413,-0.020473,-0.490304,0.056188,-1.222666,-263.047456,1.130182,70.558154
2.0973,-0.049059,0.018641,0.056324,0.003817,-0.001261,-0.015421,-0.020075,-0.490253,0.055735,-1.222666,-263.047456,1.130182,70.558154
2.1176,-0.048571,0.019611,0.056125,0.003805,-0.001272,-0.015429,-0.020075,-0.490253,0.055735,-1.222666,-263.047456,1.130182,70.558154
2.1373,-0.048065,0.019115,0.055433,0.003796,-0.001281,-0.015435,-0.019799,-0.489629,0.055477,-1.225934,-263.042926,1.132161,70.56176
2.1574,-0.0481,0.019277,0.054787,0.003774,-0.001301,-0.015441,-0.019784,-0.489825,0.055386,-1.225934,-263.042926,1.132161,70.56176
2.177,-0.047102,0.019207,0.052275,0.003755,-0.001317,-0.015447,-0.02005,-0.489992,0.054295,-1.230125,-263.038383,1.134727,70.565354
2.1972,-0.047062,0.019016,0.054576,0.003761,-0.001315,-0.015454,-0.020411,-0.490089,0.052432,-1.230125,-263.038383,1.134727,70.565354
2.2171,-0.047646,0.019521,0.053197,0.003765,-0.001312,-0.015461,-0.020411,-0.490089,0.052432,-1.230125,-263.038383,1.134727,70.565354
2.2369,-0.046998,0.019208,0.053525,0.003769,-0.001311,-0.015466,-0.020369,-0.489804,0.05255,-1.234756,-263.033819,1.137465,70.568938
2.2571,-0.047052,0.019056,0.053424,0.003761,-0.001318,-0.01547,-0.02008,-0.489916,0.052877,-1.234756,-263.033819,1.137465,70.568938
2.2769,-0.046578,0.019109,0.052247,0.003755,-0.001324,-0.015474,-0.019697,-0.490251,0.05293,-1.233796,-263.02927,1.136981,70.572516
2.2972,-0.046293,0.018993,0.052944,0.003753,-0.001327,-0.015478,-0.019916,-0.490202,0.052283,-1.233796,-263.02927,1.136981,70.572516
2.3175,-0.046272,0.019294,0.052181,0.003751,-0.001329,-0.015481,-0.019916,-0.490202,0.052283,-1.233796,-263.02927,1.136981,70.572516
2.3371,-0.045694,0.019266,0.051125,0.003749,-0.001331,-0.015484,-0.019512,-0.490059,0.05153,-1.235457,-263.024707,1.137972,70.576096
2.3574,-0.045476,0.019098,0.052199,0.003738,-0.00134,-0.015487,-0.019542,-0.490068,0.051294,-1.235457,-263.024707,1.137972,70.576096
2.3768,-0.045253,0.019004,0.050515,0.003729,-0.001349,-0.015489,-0.018745,-0.490243,0.051704,-1.236316,-263.020117,1.138528,70.579693
2.3969,-0.045275,0.019142,0.049498,0.003725,-0.001352,-0.015492,-0.019437,-0.490339,0.050586,-1.236316,-263.020117,1.138528,70.579693
2.417,-0.045262,0.019004,0.050401,0.003722,-0.001355,-0.015494,-0.019437,-0.490339,0.050586,-1.236316,-263.020117,1.138528,70.579693
2.4369,-0.044799,0.018715,0.048879,0.00372,-0.001358,-0.015496,-0.01941,-0.490397,0.049756,-1.238572,-263.015566,1.139876,70.583247
2.4573,-0.044696,0.018869,0.050269,0.003725,-0.001354,-0.015499,-0.019584,-0.490516,0.049324,-1.238572,-263.015566,1.139876,70.583247
2.4769,-0.044113,0.018742,0.049057,0.00373,-0.00135,-0.015501,-0.018949,-0.490524,0.049774,-1.23973,-263.010989,1.140594,70.586814
2.4974,-0.044444,0.018847,0.04934,0.003726,-0.001353,-0.015502,-0.019084,-0.490636,0.049097,-1.23973,-263.010989,1.140594,70.586814
2.5168,-0.043548,0.018966,0.0492,0.003723,-0.001356,-0.015504,-0.019084,-0.490636,0.049097,-1.23973,-263.010989,1.140594,70.586814
2.537,-0.043612,0.019142,0.047066,0.00372,-0.001359,-0.015505,-0.018307,-0.490466,0.048551,-1.238731,-263.006404,1.140035,70.590393
2.557,-0.043416,0.018969,0.050275,0.003708,-0.001368,-0.015505,-0.018829,-0.4904,0.047863,-1.238731,-263.006404,1.140035,70.590393
2.5772,-0.042622,0.01899,0.048357,0.003698,-0.001377,-0.015506,-0.017666,-0.490423,0.049782,-1.239878,-263.001832,1.140768,70.593956
2.5971,-0.043094,0.018983,0.047924,0.00367,-0.0014,-0.015505,-0.017935,-0.490417,0.048463,-1.239878,-263.001832,1.140768,70.593956
2.617,-0.043079,0.018738,0.047371,0.003646,-0.001419,-0.015505,-0.017935,-0.490417,0.048463,-1.239878,-263.001832,1.140768,70.593956
2.6372,-0.042362,0.018759,0.047098,0.003625,-0.001435,-0.015506,-0.018771,-0.490741,0.04672,-1.242192,-262.997248,1.142166,70.597516
2.6568,-0.042064,0.018775,0.04761,0.003632,-0.001431,-0.015509,-0.018583,-0.49072,0.046799,-1.242192,-262.997248,1.142166,70.597516
2.6768,-0.041577,0.018996,0.045304,0.003637,-0.001428,-0.015511,-0.017675,-0.490687,0.047118,-1.249845,-262.992649,1.146926,70.601043
2.6971,-0.041757,0.01878,0.048605,0.003634,-0.001431,-0.015512,-0.018406,-0.4905,0.045434,-1.249845,-262.992649,1.146926,70.601043
2.7174,-0.041678,0.018567,0.048171,0.003631,-0.001434,-0.015513,-0.018406,-0.4905,0.045434,-1.249845,-262.992649,1.146926,70.601043
2.7373,-0.04122,0.019264,0.045111,0.003629,-0.001437,-0.015514,-0.016966,-0.490894,0.047523,-1.248802,-262.988054,1.146239,70.604573
2.7575,-0.041162,0.018881,0.044961,0.003606,-0.001454,-0.015514,-0.017464,-0.490622,0.046457,-1.248802,-262.988054,1.146239,70.604573
2.7771,-0.040824,0.018272,0.045122,0.003587,-0.001469,-0.015513,-0.018123,-0.490644,0.044467,-1.249766,-262.983461,1.146785,70.608096
2.7974,-0.04043,0.01856,0.04356,0.003594,-0.001464,-0.015516,-0.01784,-0.49116,0.045038,-1.249766,-262.983461,1.146785,70.608096
2.8174,-0.040208,0.018757,0.043997,0.003599,-0.001461,-0.015518,-0.01784,-0.49116,0.045038,-1.249766,-262.983461,1.146785,70.608096
2.8375,-0.039689,0.018399,0.042627,0.003604,-0.001457,-0.015519,-0.017624,-0.490805,0.043347,-1.25403,-262.978849,1.149521,70.611609
2.8574,-0.04001,0.018802,0.044096,0.003602,-0.001459,-0.01552,-0.017743,-0.490948,0.042976,-1.25403,-262.978849,1.149521,70.611609
2.8773,-0.039442,0.018825,0.044096,0.003601,-0.00146,-0.01552,-0.017412,-0.490744,0.043603,-1.252469,-262.97425,1.148529,70.615121
2.8976,-0.038802,0.018655,0.042033,0.003575,-0.00148,-0.015519,-0.016995,-0.490688,0.044027,-1.252469,-262.97425,1.148529,70.615121
2.9174,-0.039268,0.018247,0.042767,0.003553,-0.001497,-0.015518,-0.016995,-0.490688,0.044027,-1.252469,-262.97425,1.148529,70.615121
2.9373,-0.03879,0.017889,0.044106,0.003535,-0.001511,-0.015518,-0.01731,-0.491341,0.042117,-1.252789,-262.969638,1.148726,70.618642
2.9572,-0.038971,0.018656,0.041822,0.003535,-0.001511,-0.015519,-0.01688,-0.49146,0.042857,-1.252789,-262.969638,1.148726,70.618642
2.977,-0.038185,0.018156,0.040164,0.003536,-0.001511,-0.015521,-0.017533,-0.490941,0.041325,-1.259529,-262.965022,1.153139,70.622127
2.997,-0.038393,0.018325,0.039942,0.003556,-0.001496,-0.015524,-0.017686,-0.491393,0.040239,-1.259529,-262.965022,1.153139,70.622127
3.0178,-0.037952,0.018388,0.040746,0.003573,-0.001483,-0.015526,-0.017686,-0.491393,0.040239,-1.259529,-262.965022,1.153139,70.622127
3.0372,-0.037595,0.018384,0.042158,0.003588,-0.001471,-0.015527,-0.017027,-0.491246,0.040096,-1.25956,-262.960414,1.15317,70.625607
3.057,-0.037805,0.018804,0.040224,0.003569,-0.001485,-0.015525,-0.016639,-0.491219,0.040847,-1.25956,-262.960414,1.15317,70.625607
3.0769,-0.037371,0.018544,0.040403,0.003554,-0.001497,-0.015524,-0.01718,-0.490826,0.039728,-1.254301,-262.9558,1.149766,70.62912
3.097,-0.036636,0.018047,0.038593,0.003541,-0.001507,-0.015523,-0.016801,-0.491023,0.040319,-1.254301,-262.9558,1.149766,70.62912
3.1171,-0.037298,0.018591,0.040023,0.003531,-0.001515,-0.015523,-0.016801,-0.491023,0.040319,-1.254301,-262.9558,1.149766,70.62912
3.1369,-0.036566,0.018015,0.038729,0.003522,-0.001522,-0.015523,-0.01674,-0.491057,0.039374,-1.257727,-262.951184,1.152027,70.632616
3.1571,-0.036145,0.018376,0.038276,0.003521,-0.001523,-0.015524,-0.016755,-0.491288,0.039034,-1.257727,-262.951184,1.152027,70.632616
3.1774,-0.036102,0.018199,0.037613,0.00352,-0.001525,-0.015525,-0.016515,-0.491295,0.037783,-1.260979,-262.946564,1.154148,70.636096
3.1973,-0.035769,0.018369,0.037932,0.003527,-0.00152,-0.015526,-0.016884,-0.49143,0.037603,-1.260979,-262.946564,1.154148,70.636096
3.2171,-0.036134,0.018353,0.037243,0.003532,-0.001515,-0.015527,-0.016884,-0.49143,0.037603,-1.260979,-262.946564,1.154148,70.636096
3.2369,-0.035266,0.018147,0.037918,0.003537,-0.001512,-0.015528,-0.016995,-0.491352,0.036595,-1.261277,-262.941942,1.154334,70.639577
3.2569,-0.035178,0.017862,0.037475,0.003532,-0.001516,-0.015527,-0.01654,-0.491414,0.037065,-1.261277,-262.941942,1.154334,70.639577
3.2773,-0.035162,0.018439,0.037294,0.003528,-0.001519,-0.015527,-0.015957,-0.491824,0.036981,-1.259592,-262.937326,1.153218,70.643062
3.2975,-0.034765,0.018485,0.037478,0.00351,-0.001532,-0.015526,-0.016124,-0.491263,0.037243,-1.259592,-262.937326,1.153218,70.643062
3.3175,-0.034544,0.018285,0.035733,0.003495,-0.001543,-0.015526,-0.016124,-0.491263,0.037243,-1.259592,-262.937326,1.153218,70.643062
3.3373,-0.034177,0.018012,0.036113,0.003483,-0.001553,-0.015526,-0.016175,-0.491447,0.035084,-1.26049,-262.932708,1.153828,70.646544
3.3569,-0.034243,0.018035,0.037809,0.003477,-0.001557,-0.015526,-0.01599,-0.491539,0.035429,-1.26049,-262.932708,1.153828,70.646544
3.3775,-0.033323,0.018122,0.036101,0.003472,-0.001561,-0.015527,-0.014852,-0.491646,0.037316,-1.265066,-262.928082,1.15694,70.650006
3.3971,-0.033796,0.018006,0.035578,0.003437,-0.001586,-0.015525,-0.014904,-0.491557,0.036185,-1.265066,-262.928082,1.15694,70.650006
3.4169,-0.0333,0.017955,0.03387,0.003407,-0.001608,-0.015524,-0.014904,-0.491557,0.036185,-1.265066,-262.928082,1.15694,70.650006
3.4373,-0.03324,0.017916,0.033318,0.003383,-0.001626,-0.015524,-0.015882,-0.491813,0.033221,-1.266228,-262.923445,1.157742,70.653471
3.4575,-0.032897,0.017771,0.03515,0.003403,-0.001612,-0.015528,-0.016017,-0.491815,0.033186,-1.266228,-262.923445,1.157742,70.653471
3.477,-0.032357,0.018466,0.03251,0.003419,-0.001601,-0.01553,-0.014865,-0.491961,0.034658,-1.275116,-262.91881,1.164132,70.656885
3.4973,-0.032228,0.017793,0.033642,0.003413,-0.001606,-0.01553,-0.015695,-0.491327,0.032671,-1.275116,-262.91881,1.164132,70.656885
3.5172,-0.03209,0.018065,0.034938,0.003408,-0.00161,-0.01553,-0.015695,-0.491327,0.032671,-1.275116,-262.91881,1.164132,70.656885
3.5373,-0.031919,0.01811,0.032586,0.003404,-0.001613,-0.015531,-0.014129,-0.491686,0.034288,-1.271621,-262.91417,1.161604,70.660322
3.5572,-0.032053,0.017656,0.034391,0.003376,-0.001633,-0.015529,-0.014588,-0.491666,0.033524,-1.271621,-262.91417,1.161604,70.660322
3.5772,-0.031326,0.017799,0.032465,0.003352,-0.00165,-0.015528,-0.014407,-0.49209,0.033897,-1.273176,-262.909526,1.162619,70.663753
3.5971,-0.031561,0.017679,0.034439,0.003345,-0.001656,-0.015529,-0.014735,-0.491948,0.032563,-1.273176,-262.909526,1.162619,70.663753
3.6171,-0.031118,0.017721,0.031844,0.003338,-0.001661,-0.01553,-0.014735,-0.491948,0.032563,-1.273176,-262.909526,1.162619,70.663753
3.6369,-0.030968,0.017721,0.032074,0.003333,-0.001665,-0.015531,-0.014738,-0.492085,0.031195,-1.278329,-262.904885,1.166418,70.667154
3.6576,-0.030088,0.017902,0.032137,0.00333,-0.001668,-0.015532,-0.014671,-0.492065,0.031479,-1.278329,-262.904885,1.166418,70.667154
3.6779,-0.029738,0.017598,0.030691,0.003328,-0.001669,-0.015533,-0.013593,-0.491885,0.031642,-1.280344,-262.900219,1.167897,70.670562
3.6972,-0.030697,0.01771,0.029326,0.003309,-0.001683,-0.015532,-0.014035,-0.492138,0.030754,-1.280344,-262.900219,1.167897,70.670562
3.7172,-0.030248,0.01791,0.030507,0.003294,-0.001694,-0.015532,-0.014035,-0.492138,0.030754,-1.280344,-262.900219,1.167897,70.670562
3.7373,-0.029909,0.017479,0.030571,0.003281,-0.001703,-0.015532,-0.014551,-0.491918,0.029859,-1.280867,-262.895574,1.168282,70.673952
3.7576,-0.02929,0.017518,0.0317,0.003281,-0.001703,-0.015534,-0.014441,-0.492073,0.030072,-1.280867,-262.895574,1.168282,70.673952
3.7771,-0.029168,0.017313,0.030015,0.003282,-0.001703,-0.015535,-0.013018,-0.492278,0.0312,-1.285595,-262.890912,1.171901,70.677329
3.7974,-0.029476,0.017732,0.028924,0.003271,-0.001711,-0.015535,-0.01378,-0.492443,0.030098,-1.285595,-262.890912,1.171901,70.677329
3.817,-0.029063,0.017614,0.028659,0.003261,-0.001717,-0.015535,-0.01378,-0.492443,0.030098,-1.285595,-262.890912,1.171901,70.677329
3.8372,-0.028615,0.017384,0.027299,0.003254,-0.001723,-0.015535,-0.01431,-0.492244,0.028008,-1.285524,-262.886247,1.171814,70.680708
3.8573,-0.028447,0.017541,0.028031,0.003267,-0.001714,-0.015537,-0.01445,-0.492326,0.027645,-1.285524,-262.886247,1.171814,70.680708
3.8773,-0.028024,0.017273,0.029822,0.003279,-0.001706,-0.015539,-0.014047,-0.492311,0.027536,-1.288329,-262.881579,1.174022,70.684075
3.8972,-0.027965,0.017192,0.02689,0.003241,-0.00173,-0.015536,-0.012926,-0.492485,0.029584,-1.288329,-262.881579,1.174022,70.684075
3.9178,-0.027813,0.017177,0.026813,0.00321,-0.001751,-0.015534,-0.012926,-0.492485,0.029584,-1.288329,-262.881579,1.174022,70.684075
3.9369,-0.027354,0.017489,0.026876,0.003184,-0.001769,-0.015534,-0.014001,-0.492708,0.02616,-1.285907,-262.876913,1.172148,70.687454
3.9573,-0.027448,0.017289,0.026414,0.003198,-0.00176,-0.015537,-0.013844,-0.492563,0.026373,-1.285907,-262.876913,1.172148,70.687454
3.977,-0.0268,0.017145,0.025568,0.003209,-0.001753,-0.015539,-0.013876,-0.492586,0.02592,-1.295109,-262.872245,1.17954,70.690786
3.9973,-0.027008,0.016711,0.026305,0.00322,-0.001746,-0.01554,-0.013767,-0.492682,0.025574,-1.295109,-262.872245,1.17954,70.690786
4.0172,-0.026485,0.017696,0.0254,0.003228,-0.00174,-0.015541,-0.013767,-0.492682,0.025574,-1.295109,-262.872245,1.17954,70.690786
4.0371,-0.026084,0.01708,0.026526,0.003236,-0.001735,-0.015542,-0.013396,-0.492209,0.02475,-1.292771,-262.867568,1.177637,70.694136
4.0571,-0.025992,0.017213,0.025637,0.003212,-0.001751,-0.01554,-0.013038,-0.492434,0.025398,-1.292771,-262.867568,1.177637,70.694136
4.0771,-0.025113,0.017191,0.024453,0.003192,-0.001764,-0.015539,-0.012815,-0.492672,0.025142,-1.290214,-262.862888,1.175617,70.697502
4.0972,-0.025608,0.017122,0.026085,0.003169,-0.00178,-0.015538,-0.012653,-0.492661,0.024489,-1.290214,-262.862888,1.175617,70.697502
4.1171,-0.025623,0.017084,0.02392,0.003149,-0.001793,-0.015537,-0.012653,-0.492661,0.024489,-1.290214,-262.862888,1.175617,70.697502
4.1371,-0.025362,0.017057,0.024756,0.003133,-0.001804,-0.015537,-0.01329,-0.492841,0.02327,-1.29444,-262.858212,1.179001,70.700844
4.1573,-0.025327,0.017214,0.024736,0.003138,-0.001801,-0.015539,-0.013049,-0.492827,0.023803,-1.29444,-262.858212,1.179001,70.700844
4.177,-0.024556,0.017272,0.021289,0.003142,-0.001799,-0.015541,-0.012612,-0.492685,0.024243,-1.300158,-262.853534,1.183695,70.704157
4.1971,-0.024525,0.016651,0.021289,0.003161,-0.001787,-0.015543,-0.013597,-0.492622,0.021528,-1.300158,-262.853534,1.183695,70.704157
4.2173,-0.024631,0.016925,0.0223,0.003176,-0.001777,-0.015544,-0.013597,-0.492622,0.021528,-1.300158,-262.853534,1.183695,70.704157
4.2375,-0.024078,0.017148,0.021748,0.003189,-0.001769,-0.015545,-0.013126,-0.493021,0.021649,-1.299332,-262.848839,1.182993,70.707486
4.2572,-0.024109,0.016843,0.022359,0.003189,-0.001768,-0.015545,-0.013054,-0.492911,0.021614,-1.299332,-262.848839,1.182993,70.707486
4.2768,-0.023632,0.01694,0.021609,0.003188,-0.001768,-0.015545,-0.012604,-0.493084,0.021864,-1.294882,-262.844165,1.179333,70.710823
4.2974,-0.023518,0.017101,0.021512,0.003174,-0.001777,-0.015543,-0.012606,-0.492956,0.021606,-1.294882,-262.844165,1.179333,70.710823
4.3174,-0.023486,0.016756,0.019993,0.003162,-0.001785,-0.015543,-0.012606,-0.492956,0.021606,-1.294882,-262.844165,1.179333,70.710823
4.3374,-0.022931,0.016351,0.02151,0.003152,-0.001792,-0.015542,-0.013155,-0.493213,0.019343,-1.294905,-262.839479,1.179381,70.714169
4.357,-0.022901,0.016407,0.020079,0.003157,-0.001789,-0.015543,-0.012651,-0.493351,0.020154,-1.294905,-262.839479,1.179381,70.714169
4.377,-0.022487,0.016401,0.019047,0.00316,-0.001786,-0.015544,-0.012561,-0.493545,0.019585,-1.298402,-262.834794,1.182284,70.717497
4.3972,-0.022267,0.016518,0.020285,0.003172,-0.001779,-0.015544,-0.01275,-0.493512,0.019069,-1.298402,-262.834794,1.182284,70.717497
4.4175,-0.022569,0.016451,0.019941,0.003181,-0.001773,-0.015544,-0.01275,-0.493512,0.019069,-1.298402,-262.834794,1.182284,70.717497
4.4374,-0.021808,0.016564,0.019237,0.003189,-0.001767,-0.015544,-0.012266,-0.49352,0.01929,-1.297618,-262.830114,1.181662,70.720824
4.4575,-0.021569,0.016837,0.020519,0.003173,-0.001778,-0.015542,-0.012142,-0.493456,0.019194,-1.297618,-262.830114,1.181662,70.720824
4.477,-0.021439,0.016421,0.018748,0.003159,-0.001787,-0.01554,-0.011002,-0.49311,0.020021,-1.294799,-262.825427,1.179293,70.724172
4.4979,-0.021537,0.016421,0.016333,0.003135,-0.001803,-0.015538,-0.011796,-0.493458,0.018835,-1.294799,-262.825427,1.179293,70.724172
4.5174,-0.021205,0.016501,0.018615,0.003115,-0.001817,-0.015537,-0.011796,-0.493458,0.018835,-1.294799,-262.825427,1.179293,70.724172
4.5372,-0.020893,0.016605,0.017662,0.003099,-0.001828,-0.015536,-0.011578,-0.493483,0.017966,-1.297725,-262.82075,1.181672,70.727497
4.5573,-0.020482,0.016298,0.017082,0.003082,-0.001842,-0.015533,-0.011688,-0.493423,0.017767,-1.297725,-262.82075,1.181672,70.727497
4.577,-0.020066,0.016697,0.017856,0.003067,-0.001853,-0.015531,-0.011671,-0.493684,0.016587,-1.303537,-262.816061,1.186413,70.730799
4.5974,-0.020358,0.016632,0.01601,0.003026,-0.00188,-0.015526,-0.01102,-0.493267,0.017715,-1.303537,-262.816061,1.186413,70.730799
4.6173,-0.020611,0.016324,0.017289,0.002991,-0.001904,-0.015524,-0.01102,-0.493267,0.017715,-1.303537,-262.816061,1.186413,70.730799
4.6369,-0.019852,0.015925,0.017471,0.002962,-0.001924,-0.015522,-0.011664,-0.493675,0.016638,-1.30659,-262.811364,1.188677,70.734088
4.6573,-0.019983,0.015903,0.015757,0.002967,-0.001924,-0.015521,-0.011356,-0.493814,0.016902,-1.30659,-262.811364,1.188677,70.734088
4.6771,-0.019116,0.016568,0.015896,0.002972,-0.001924,-0.01552,-0.011852,-0.494093,0.015264,-1.316661,-262.806664,1.197212,70.737326
4.6973,-0.018898,0.015807,0.015764,0.002957,-0.001939,-0.01551,-0.011082,-0.493437,0.015812,-1.316661,-262.806664,1.197212,70.737326
4.7169,-0.019333,0.016125,0.015232,0.002944,-0.001952,-0.015502,-0.011082,-0.493437,0.015812,-1.316661,-262.806664,1.197212,70.737326
4.7373,-0.018522,0.016033,0.014944,0.002934,-0.001963,-0.015496,-0.01144,-0.493895,0.014584,-1.315866,-262.801951,1.196018,70.740573
4.7568,-0.01875,0.015952,0.015036,0.002945,-0.001964,-0.015476,-0.011205,-0.49391,0.014656,-1.315866,-262.801951,1.196018,70.740573
4.7767,-0.017937,0.016168,0.013629,0.002954,-0.001965,-0.01546,-0.010988,-0.494051,0.014543,-1.319453,-262.797229,1.197938,70.743797
4.7976,-0.01824,0.015709,0.015051,0.002951,-0.001975,-0.015417,-0.010982,-0.493811,0.013684,-1.319453,-262.797229,1.197938,70.743797
4.817,-0.018059,0.015799,0.012832,0.002948,-0.001984,-0.015383,-0.010982,-0.493811,0.013684,-1.319453,-262.797229,1.197938,70.743797
4.8371,-0.017575,0.016042,0.010061,0.002946,-0.001991,-0.015357,-0.01139,-0.49424,0.012186,-1.317384,-262.792521,1.194536,70.747009
4.8572,-0.01744,0.015991,0.012562,0.002985,-0.001982,-0.015173,-0.011806,-0.494123,0.011244,-1.317384,-262.792521,1.194536,70.747009
4.8772,-0.017176,0.015572,0.013007,0.003016,-0.001972,-0.015036,-0.010939,-0.494032,0.012072,-1.317277,-262.787817,1.191396,70.750195
4.8975,-0.016885,0.015651,0.012026,0.002999,-0.001981,-0.015051,-0.010572,-0.494357,0.012902,-1.317277,-262.787817,1.191396,70.750195
4.9175,-0.017261,0.015863,0.012012,0.002984,-0.001989,-0.015064,-0.010572,-0.494357,0.012902,-1.317277,-262.787817,1.191396,70.750195
4.9372,-0.016081,0.015772,0.010898,0.002972,-0.001995,-0.015074,-0.011009,-0.49418,0.011388,-1.306735,-262.783222,1.174629,70.753302
4.9572,-0.016379,0.015333,0.010376,0.002967,-0.002007,-0.014948,-0.010794,-0.494197,0.011113,-1.306735,-262.783222,1.174629,70.753302
4.977,-0.016019,0.015394,0.00967,0.002963,-0.002016,-0.014854,-0.010993,-0.494702,0.009896,-1.311441,-262.778597,1.179864,70.756415
4.9969,-0.016035,0.01541,0.011396,0.002983,-0.00202,-0.014599,-0.011074,-0.494597,0.009665,-1.311441,-262.778597,1.179864,70.756415
5.0173,-0.015797,0.015878,0.010746,0.002999,-0.002021,-0.014413,-0.011074,-0.494597,0.009665,-1.311441,-262.778597,1.179864,70.756415
5.0368,-0.015149,0.015309,0.00942,0.00301,-0.002019,-0.014276,-0.010192,-0.494176,0.010125,-1.309711,-262.774001,1.17328,70.75948
5.0571,-0.015332,0.015371,0.009627,0.002978,-0.002041,-0.014186,-0.010241,-0.494389,0.009762,-1.309711,-262.774001,1.17328,70.75948
5.0767,-0.014445,0.015174,0.010348,0.00295,-0.002059,-0.01412,-0.010327,-0.494667,0.00918,-1.297498,-262.769597,1.148527,70.76238
5.097,-0.014731,0.015505,0.008657,0.002892,-0.002086,-0.014127,-0.009264,-0.494791,0.010223,-1.297498,-262.769597,1.148527,70.76238
5.1168,-0.014804,0.015513,0.009023,0.002843,-0.00211,-0.014135,-0.009264,-0.494791,0.010223,-1.297498,-262.769597,1.148527,70.76238
5.1372,-0.014621,0.015425,0.008144,0.002803,-0.00213,-0.014142,-0.010078,-0.494551,0.008434,-1.301368,-262.765171,1.148504,70.765255
5.1571,-0.014252,0.015516,0.008046,0.002809,-0.002144,-0.013829,-0.010223,-0.494564,0.008247,-1.301368,-262.765171,1.148504,70.765255
5.1775,-0.014114,0.015498,0.00762,0.002812,-0.002153,-0.013604,-0.010059,-0.494534,0.0076,-1.316109,-262.760753,1.164088,70.768068
5.1974,-0.013868,0.015231,0.007663,0.00281,-0.002165,-0.013297,-0.010208,-0.494495,0.007595,-1.316109,-262.760753,1.164088,70.768068
5.2172,-0.013945,0.015537,0.007937,0.002807,-0.002172,-0.013082,-0.010208,-0.494495,0.007595,-1.316109,-262.760753,1.164088,70.768068
5.2373,-0.013125,0.014813,0.006618,0.002804,-0.002176,-0.012932,-0.00978,-0.494535,0.007372,-1.308211,-262.756457,1.142292,70.770752
5.2572,-0.013278,0.015125,0.005092,0.002787,-0.002188,-0.012682,-0.009754,-0.494807,0.006999,-1.308211,-262.756457,1.142292,70.770752
5.2771,-0.012286,0.014915,0.005564,0.002771,-0.002195,-0.012509,-0.010593,-0.494936,0.004685,-1.299374,-262.752328,1.115269,70.773268
5.2971,-0.012861,0.014661,0.005806,0.002751,-0.002211,-0.011928,-0.009547,-0.495068,0.005463,-1.299374,-262.752328,1.115269,70.773268
5.317,-0.012555,0.014988,0.006008,0.002732,-0.002219,-0.011533,-0.009547,-0.495068,0.005463,-1.299374,-262.752328,1.115269,70.773268
5.3372,-0.012218,0.014962,0.005082,0.002715,-0.002222,-0.011267,-0.009375,-0.495094,0.005487,-1.296128,-262.748257,1.09995,70.775703
5.3569,-0.012868,0.014828,0.005096,0.002696,-0.002225,-0.011022,-0.009464,-0.495079,0.005262,-1.296128,-262.748257,1.09995,70.775703
5.3771,-0.011959,0.01498,0.004321,0.002679,-0.002225,-0.01086,-0.010187,-0.495232,0.004757,-1.280968,-262.744662,1.043193,70.777743
5.3972,-0.012031,0.014996,0.007898,0.002677,-0.002221,-0.010423,-0.00979,-0.495038,0.004343,-1.280968,-262.744662,1.043193,70.777743
5.4173,-0.011846,0.014611,0.005419,0.002673,-0.002215,-0.010128,-0.00979,-0.495038,0.004343,-1.280968,-262.744662,1.043193,70.777743
5.4368,-0.011566,0.015083,0.004669,0.002668,-0.002208,-0.009932,-0.00897,-0.495474,0.004965,-1.277113,-262.740981,1.024777,70.779795
5.4571,-0.011817,0.014572,0.003786,0.002635,-0.002211,-0.009963,-0.009043,-0.495259,0.004795,-1.277113,-262.740981,1.024777,70.779795
5.477,-0.011399,0.014423,0.00346,0.002607,-0.002214,-0.009991,-0.009806,-0.49549,0.003489,-1.258798,-262.737705,0.965723,70.781563
5.497,-0.011233,0.014383,0.002942,0.002622,-0.002206,-0.009488,-0.009645,-0.49557,0.003448,-1.258798,-262.737705,0.965723,70.781563
5.517,-0.010988,0.014484,0.005741,0.002633,-0.002194,-0.009146,-0.009645,-0.49557,0.003448,-1.258798,-262.737705,0.965723,70.781563
5.5368,-0.010978,0.014245,0.003834,0.00264,-0.00218,-0.008914,-0.007951,-0.495599,0.005326,-1.266981,-262.734236,0.980001,70.783426
5.5572,-0.010831,0.014686,0.003558,0.002587,-0.00219,-0.009214,-0.00838,-0.495672,0.004663,-1.266981,-262.734236,0.980001,70.783426
5.577,-0.010388,0.014526,0.004397,0.002543,-0.0022,-0.009429,-0.008944,-0.49537,0.003311,-1.23749,-262.731433,0.905057,70.784885
5.5971,-0.010426,0.0145,0.003675,0.002491,-0.002221,-0.009454,-0.008211,-0.495464,0.004292,-1.23749,-262.731433,0.905057,70.784885
5.6172,-0.010635,0.014739,0.002825,0.002448,-0.002239,-0.009472,-0.008211,-0.495464,0.004292,-1.23749,-262.731433,0.905057,70.784885
5.6373,-0.009986,0.014581,0.004676,0.002412,-0.002255,-0.009485,-0.009092,-0.495347,0.002447,-1.261539,-262.728234,0.950387,70.786559
5.6573,-0.010244,0.014295,0.003076,0.002394,-0.002269,-0.009102,-0.008474,-0.495384,0.00331,-1.261539,-262.728234,0.950387,70.786559
5.677,-0.009693,0.014092,0.002668,0.002378,-0.002279,-0.008837,-0.008599,-0.495773,0.002778,-1.2796,-262.724911,0.972454,70.788253
5.697,-0.009793,0.014011,0.0033,0.002374,-0.002284,-0.008358,-0.008351,-0.495898,0.002663,-1.2796,-262.724911,0.972454,70.788253
5.7171,-0.009972,0.014031,0.004019,0.002369,-0.002285,-0.008027,-0.008351,-0.495898,0.002663,-1.2796,-262.724911,0.972454,70.788253
5.7369,-0.009251,0.013944,0.001806,0.002363,-0.002283,-0.007799,-0.007827,-0.496056,0.003667,-1.270397,-262.721844,0.919378,70.789749
5.7572,-0.009417,0.013907,0.002532,0.002344,-0.002285,-0.00774,-0.008022,-0.496066,0.002863,-1.270397,-262.721844,0.919378,70.789749
5.7775,-0.008904,0.014176,0.001821,0.002329,-0.002285,-0.0077,-0.008065,-0.496149,0.002328,-1.247266,-262.719419,0.844433,70.790867
5.7972,-0.009456,0.013951,0.003287,0.002311,-0.002299,-0.007172,-0.00798,-0.495856,0.001856,-1.247266,-262.719419,0.844433,70.790867
5.8171,-0.009109,0.014357,0.001241,0.002294,-0.002306,-0.006803,-0.00798,-0.495856,0.001856,-1.247266,-262.719419,0.844433,70.790867
5.837,-0.008638,0.013867,0.000783,0.002278,-0.002308,-0.006547,-0.008381,-0.495736,0.000927,-1.24913,-262.716543,0.804169,70.792178
5.8573,-0.008575,0.013573,-0.000229,0.002292,-0.002311,-0.005797,-0.008311,-0.495911,0.000831,-1.24913,-262.716543,0.804169,70.792178
5.8769,-0.008929,0.013686,0.001339,0.002299,-0.002308,-0.005271,-0.008647,-0.496471,-0.000365,-1.224175,-262.714839,0.729003,70.792899
5.8969,-0.008795,0.013588,0.001137,0.002312,-0.002288,-0.005112,-0.00828,-0.49633,0.001178,-1.224175,-262.714839,0.729003,70.792899
5.917,-0.008518,0.013771,0.000234,0.002322,-0.002269,-0.005001,-0.00828,-0.49633,0.001178,-1.224175,-262.714839,0.729003,70.792899
5.9369,-0.008614,0.013739,0.001373,0.00233,-0.002252,-0.004925,-0.008387,-0.49624,0.000204,-1.176543,-262.714532,0.654165,70.793026
5.9569,-0.008884,0.013873,4.4e-05,0.002331,-0.002248,-0.004599,-0.00819,-0.49625,0.000684,-1.176543,-262.714532,0.654165,70.793026
5.977,-0.008478,0.014189,0.000245,0.00233,-0.002242,-0.004368,-0.008851,-0.496137,1.8e-05,-1.153845,-262.714188,0.57899,70.793172
5.997,-0.008789,0.013434,0.001312,0.002331,-0.002243,-0.003951,-0.008395,-0.49584,0.000225,-1.153845,-262.714188,0.57899,70.793172
6.0169,-0.008752,0.013845,0.001661,0.002329,-0.00224,-0.003653,-0.008395,-0.49584,0.000225,-1.153845,-262.714188,0.57899,70.793172
6.0373,-0.008808,0.013919,0.001251,0.002326,-0.002236,-0.003441,-0.007898,-0.49616,0.001646,-1.127662,-262.71403,0.504057,70.793241
6.0572,-0.009002,0.013431,0.00182,0.002308,-0.002222,-0.004016,-0.00801,-0.496128,0.001481,-1.127662,-262.71403,0.504057,70.793241
6.077,-0.008434,0.013602,0.001004,0.002293,-0.002213,-0.004425,-0.008074,-0.496568,0.001819,-1.078606,-262.714021,0.429007,70.793245
6.0971,-0.008904,0.01357,0.001206,0.002286,-0.002208,-0.004504,-0.007936,-0.496414,0.001079,-1.078606,-262.714021,0.429007,70.793245
6.1174,-0.008758,0.013731,0.001995,0.002281,-0.002203,-0.004559,-0.007936,-0.496414,0.001079,-1.078606,-262.714021,0.429007,70.793245
6.1372,-0.008584,0.013798,0.001235,0.002277,-0.0022,-0.004596,-0.007699,-0.496306,0.001909,-1.134389,-262.713067,0.354162,70.793658
6.1574,-0.008518,0.013674,0.003619,0.00226,-0.002199,-0.004927,-0.007798,-0.496268,0.001625,-1.134389,-262.713067,0.354162,70.793658
6.1771,-0.008248,0.013909,0.001747,0.002247,-0.002199,-0.005161,-0.006609,-0.496382,0.003491,-1.144038,-262.711158,0.279163,70.794475
6.1974,-0.008207,0.013805,6.2e-05,0.002203,-0.002216,-0.005468,-0.007284,-0.496121,0.001903,-1.144038,-262.711158,0.279163,70.794475
6.2174,-0.008504,0.013428,0.002805,0.002166,-0.002232,-0.005684,-0.007284,-0.496121,0.001903,-1.144038,-262.711158,0.279163,70.794475
6.2371,-0.008276,0.013398,3.6e-05,0.002137,-0.002247,-0.005835,-0.006999,-0.496643,0.00264,-1.173293,-262.709354,0.354162,70.795234
6.2574,-0.008385,0.013453,-0.001219,0.00214,-0.002248,-0.005772,-0.007503,-0.496635,0.001562,-1.173293,-262.709354,0.354162,70.795234
6.2769,-0.008011,0.013391,0.000141,0.002143,-0.002248,-0.005725,-0.00897,-0.496585,-0.001311,-1.218482,-262.708074,0.429188,70.795753
6.297,-0.007915,0.013296,0.002271,0.002186,-0.002254,-0.004831,-0.008018,-0.496609,2.3e-05,-1.218482,-262.708074,0.429188,70.795753
6.3169,-0.008177,0.013271,0.000495,0.002218,-0.002251,-0.004193,-0.008018,-0.496609,2.3e-05,-1.218482,-262.708074,0.429188,70.795753
6.3372,-0.007953,0.013452,-0.001207,0.00224,-0.002244,-0.00374,-0.007847,-0.49681,0.000292,-1.213798,-262.705984,0.50454,70.796598
6.3571,-0.008089,0.01326,-0.001493,0.002272,-0.002235,-0.003221,-0.008131,-0.496713,-0.000339,-1.213798,-262.705984,0.50454,70.796598
6.3771,-0.007621,0.01322,-0.000858,0.002295,-0.002223,-0.002851,-0.008849,-0.49674,-0.001495,-1.139175,-262.705951,0.429917,70.796613
6.3972,-0.007993,0.013423,-0.000316,0.002322,-0.002217,-0.002292,-0.00813,-0.496776,-0.000915,-1.139175,-262.705951,0.429917,70.796613
6.4178,-0.008124,0.013248,0.000248,0.002342,-0.002207,-0.001891,-0.00813,-0.496776,-0.000915,-1.139175,-262.705951,0.429917,70.796613
6.4369,-0.007776,0.013561,0.000387,0.002356,-0.002195,-0.001605,-0.007997,-0.496753,0.000248,-1.06418,-262.705949,0.354922,70.796614
6.4572,-0.007742,0.013423,0.000468,0.002337,-0.002178,-0.002077,-0.007831,-0.496628,0.000303,-1.06418,-262.705949,0.354922,70.796614
6.4771,-0.007973,0.013362,-0.000654,0.002322,-0.002167,-0.00241,-0.007503,-0.496577,0.000468,-0.989161,-262.705949,0.279903,70.796614
6.497,-0.007444,0.013099,-0.000179,0.002338,-0.00216,-0.002164,-0.008234,-0.496632,-0.000554,-0.989161,-262.705949,0.279903,70.796614
6.5171,-0.007984,0.013276,-0.000932,0.00235,-0.002152,-0.001987,-0.008234,-0.496632,-0.000554,-0.989161,-262.705949,0.279903,70.796614
6.5372,-0.00787,0.013212,3.9e-05,0.002359,-0.002144,-0.001861,-0.00846,-0.496724,-0.000933,-1.002808,-262.705942,0.204886,70.796618
6.5572,-0.007771,0.01338,-2.3e-05,0.002368,-0.002134,-0.001779,-0.008212,-0.49675,-0.000539,-1.002808,-262.705942,0.204886,70.796618
6.5773,-0.007683,0.013516,0.000679,0.002375,-0.002125,-0.001721,-0.007782,-0.49662,-2.3e-05,-0.947393,-262.705939,0.129913,70.79662
6.5973,-0.007948,0.013182,-0.000288,0.002322,-0.002131,-0.002335,-0.007377,-0.496496,0.000616,-0.947393,-262.705939,0.129913,70.79662
6.6174,-0.007732,0.013443,0.000301,0.002279,-0.002141,-0.002771,-0.007377,-0.496496,0.000616,-0.947393,-262.705939,0.129913,70.79662
6.6373,-0.00745,0.013092,0.00128,0.002244,-0.002152,-0.003079,-0.007578,-0.496557,0.000301,-0.928585,-262.70593,0.054915,70.796625
6.6577,-0.007777,0.013673,0.000575,0.002214,-0.002163,-0.003348,-0.007261,-0.496699,0.000698,-0.928585,-262.70593,0.054915,70.796625
6.6772,-0.00791,0.013282,-0.001627,0.00219,-0.002173,-0.003538,-0.007449,-0.496356,0.000529,-1.003585,-262.705087,-0.020085,70.797038
6.697,-0.008022,0.013189,0.001454,0.00227,-0.002173,-0.00255,-0.008628,-0.496688,-0.001445,-1.003585,-262.705087,-0.020085,70.797038
6.7174,-0.007887,0.013165,4.6e-05,0.002331,-0.002165,-0.001837,-0.008628,-0.496688,-0.001445,-1.003585,-262.705087,-0.020085,70.797038
6.7369,-0.007311,0.013064,0.000188,0.002376,-0.002152,-0.001324,-0.007784,-0.496911,-7.8e-05,-1.078726,-262.703434,-0.005425,70.797783
6.7572,-0.007495,0.012957,0.000593,0.002346,-0.002144,-0.001724,-0.00754,-0.49693,1.7e-05,-1.078726,-262.703434,-0.005425,70.797783
6.7771,-0.007331,0.013218,-0.000665,0.002321,-0.00214,-0.002005,-0.007192,-0.497043,0.000592,-1.003706,-262.703423,-0.080444,70.797792
6.797,-0.007676,0.013314,-0.000329,0.002305,-0.002146,-0.001895,-0.007627,-0.496806,-0.000552,-1.003706,-262.703423,-0.080444,70.797792
6.817,-0.007325,0.013162,0.000771,0.002292,-0.002151,-0.001813,-0.007627,-0.496806,-0.000552,-1.003706,-262.703423,-0.080444,70.797792
6.8371,-0.007351,0.01302,-0.001185,0.002281,-0.002154,-0.001752,-0.006907,-0.496857,0.000747,-0.966941,-262.703034,-0.155285,70.798029
6.8572,-0.007503,0.013092,0.000801,0.002254,-0.002156,-0.001998,-0.007329,-0.496909,-3.7e-05,-0.966941,-262.703034,-0.155285,70.798029
6.8767,-0.007557,0.013372,-0.000273,0.002232,-0.00216,-0.00217,-0.007076,-0.496924,0.000783,-0.955176,-262.702625,-0.230283,70.798291
6.8969,-0.007252,0.013013,-0.000981,0.002226,-0.002162,-0.002207,-0.007642,-0.496654,-0.000183,-0.955176,-262.702625,-0.230283,70.798291
6.9172,-0.007402,0.013036,0.00075,0.00222,-0.002164,-0.002232,-0.007642,-0.496654,-0.000183,-0.955176,-262.702625,-0.230283,70.798291
6.9373,-0.007196,0.013142,-0.000464,0.002216,-0.002165,-0.002248,-0.006949,-0.49703,0.000679,-1.001124,-262.701394,-0.305409,70.799
6.9571,-0.00712,0.013,-0.000771,0.00219,-0.002171,-0.002491,-0.007132,-0.496969,0.00022,-1.001124,-262.701394,-0.305409,70.799
6.9772,-0.007167,0.012862,-0.001111,0.00217,-0.002177,-0.002662,-0.007444,-0.497067,-0.000841,-1.01134,-262.699765,-0.343416,70.799918
6.9972,-0.007378,0.012517,-0.001244,0.002205,-0.002183,-0.002071,-0.007704,-0.497135,-0.00109,-1.01134,-262.699765,-0.343416,70.799918
7.0171,-0.007193,0.01333,-0.000894,0.002231,-0.002182,-0.00165,-0.007704,-0.497135,-0.00109,-1.01134,-262.699765,-0.343416,70.799918
7.0373,-0.007252,0.012828,-6.7e-05,0.002251,-0.002178,-0.001349,-0.007572,-0.496748,-0.000987,-1.052372,-262.698285,-0.26842,70.800675
7.0574,-0.007307,0.01294,0.000539,0.00224,-0.002178,-0.001365,-0.007447,-0.49693,-0.000622,-1.052372,-262.698285,-0.26842,70.800675
7.0771,-0.006831,0.01302,0.000203,0.002231,-0.002179,-0.001378,-0.007015,-0.497074,0.000526,-0.977262,-262.697936,-0.34353,70.800918
7.0972,-0.00727,0.013018,0.000774,0.002175,-0.002188,-0.00187,-0.006753,-0.496989,0.000233,-0.977262,-262.697936,-0.34353,70.800918
7.1172,-0.007039,0.012827,-0.000104,0.00213,-0.0022,-0.002219,-0.006753,-0.496989,0.000233,-0.977262,-262.697936,-0.34353,70.800918
7.1374,-0.00688,0.012336,-0.001377,0.002094,-0.002213,-0.002467,-0.007042,-0.497217,-0.000139,-0.93465,-262.697153,-0.418426,70.801461
7.1573,-0.006682,0.01284,-0.000382,0.002117,-0.002214,-0.002151,-0.007256,-0.497404,-0.000647,-0.93465,-262.697153,-0.418426,70.801461
7.1768,-0.006846,0.01287,0.000254,0.002134,-0.002212,-0.001926,-0.006829,-0.497207,-0.000433,-1.009672,-262.695988,-0.343404,70.802064
7.1969,-0.00685,0.012858,0.000172,0.0021,-0.002218,-0.002237,-0.006724,-0.497139,0.000192,-1.009672,-262.695988,-0.343404,70.802064
7.217,-0.007234,0.012769,-0.000819,0.002073,-0.002226,-0.002457,-0.006724,-0.497139,0.000192,-1.009672,-262.695988,-0.343404,70.802064
7.2368,-0.006488,0.012589,-0.001636,0.002051,-0.002234,-0.002613,-0.007577,-0.497306,-0.000888,-1.00867,-262.69466,-0.418496,70.802851
7.2574,-0.00687,0.012554,-0.000386,0.002101,-0.002235,-0.001983,-0.007463,-0.497358,-0.001204,-1.00867,-262.69466,-0.418496,70.802851
7.277,-0.006716,0.012352,-0.001642,0.002139,-0.00223,-0.001533,-0.007018,-0.497499,-0.000445,-1.07918,-262.693365,-0.343469,70.803491
7.2969,-0.006395,0.012094,-0.001096,0.002185,-0.00222,-0.001048,-0.007514,-0.497639,-0.001561,-1.07918,-262.693365,-0.343469,70.803491
7.3169,-0.006464,0.012167,0.000379,0.002221,-0.002207,-0.000701,-0.007514,-0.497639,-0.001561,-1.07918,-262.693365,-0.343469,70.803491
7.3371,-0.006353,0.01281,-0.000796,0.002248,-0.002193,-0.000454,-0.006231,-0.497872,0.000346,-1.003727,-262.692695,-0.418922,70.803929
7.3573,-0.006431,0.012541,-8e-06,0.002188,-0.002195,-0.001024,-0.006442,-0.497599,-0.000123,-1.003727,-262.692695,-0.418922,70.803929
7.377,-0.006508,0.012241,-0.00013,0.00214,-0.002201,-0.001426,-0.006423,-0.49747,-1.3e-05,-0.929275,-262.692476,-0.493374,70.804123
7.3972,-0.006803,0.012392,-0.000644,0.002112,-0.002203,-0.001713,-0.00656,-0.497733,-0.00012,-0.929275,-262.692476,-0.493374,70.804123
7.4173,-0.006487,0.01246,-5.6e-05,0.00209,-0.002207,-0.001915,-0.00656,-0.497733,-0.00012,-0.929275,-262.692476,-0.493374,70.804123
7.4373,-0.006486,0.012198,-0.000938,0.002073,-0.002211,-0.002057,-0.006433,-0.497625,-0.000112,-0.962482,-262.691093,-0.556362,70.805054
7.4571,-0.006233,0.0125,-0.00045,0.002066,-0.002219,-0.001967,-0.006642,-0.497707,-0.000457,-0.962482,-262.691093,-0.556362,70.805054
7.477,-0.006089,0.012414,-0.002325,0.002059,-0.002225,-0.001903,-0.006415,-0.497551,-0.000495,-1.031958,-262.689927,-0.481218,70.805712
7.497,-0.006746,0.012254,-0.001919,0.00211,-0.002238,-0.001074,-0.007198,-0.497584,-0.002169,-1.031958,-262.689927,-0.481218,70.805712
7.5172,-0.006154,0.01232,-0.0001,0.002147,-0.002242,-0.000475,-0.007198,-0.497584,-0.002169,-1.031958,-262.689927,-0.481218,70.805712
7.5372,-0.005753,0.012213,-0.001266,0.002174,-0.002239,-4.4e-05,-0.006119,-0.497773,-0.00018,-1.024521,-262.688346,-0.476469,70.806637
7.5575,-0.005908,0.012334,-0.002337,0.002119,-0.00224,-0.000462,-0.006221,-0.497789,-0.000625,-1.024521,-262.688346,-0.476469,70.806637
7.577,-0.005974,0.012281,-0.000906,0.002075,-0.002244,-0.000756,-0.007094,-0.497671,-0.00234,-0.949632,-262.688233,-0.551358,70.806748
7.5974,-0.00585,0.012232,-0.001339,0.002059,-0.002248,-0.000747,-0.006495,-0.497715,-0.001036,-0.949632,-262.688233,-0.551358,70.806748
7.6173,-0.005913,0.012083,-0.001017,0.002046,-0.002252,-0.000738,-0.006495,-0.497715,-0.001036,-0.949632,-262.688233,-0.551358,70.806748
7.6371,-0.00582,0.012361,-0.002173,0.002035,-0.002255,-0.000731,-0.006373,-0.497976,-0.001042,-0.916584,-262.687338,-0.62637,70.807467
7.6569,-0.00567,0.01199,-0.000801,0.002042,-0.002258,-0.0005,-0.006592,-0.497845,-0.001505,-0.916584,-262.687338,-0.62637,70.807467
7.6777,-0.005498,0.011889,0.000474,0.002047,-0.002258,-0.000336,-0.006023,-0.49807,-0.000822,-0.925127,-262.686185,-0.701361,70.808394
7.697,-0.005669,0.011857,-0.001251,0.001958,-0.002269,-0.001224,-0.005319,-0.49811,0.000363,-0.925127,-262.686185,-0.701361,70.808394
7.7174,-0.005636,0.011767,-0.000322,0.001885,-0.002284,-0.001855,-0.005319,-0.49811,0.000363,-0.925127,-262.686185,-0.701361,70.808394
7.7372,-0.005951,0.012076,-0.001661,0.001825,-0.0023,-0.0023,-0.005727,-0.498314,-0.000334,-0.877462,-262.685088,-0.776502,70.809387
7.7572,-0.005885,0.012152,-0.002028,0.001849,-0.002307,-0.001936,-0.006155,-0.498164,-0.000877,-0.877462,-262.685088,-0.776502,70.809387
7.7767,-0.005923,0.012179,-0.000283,0.001867,-0.002309,-0.001674,-0.006915,-0.497853,-0.002032,-0.952351,-262.68496,-0.701612,70.80945
7.7973,-0.005829,0.011996,-0.000394,0.001862,-0.002309,-0.001742,-0.006124,-0.497823,-0.000402,-0.952351,-262.68496,-0.701612,70.80945
7.8172,-0.005901,0.012043,-0.001804,0.001859,-0.002311,-0.001788,-0.006124,-0.497823,-0.000402,-0.952351,-262.68496,-0.701612,70.80945
7.8377,-0.005334,0.011781,-0.000529,0.001856,-0.002312,-0.001818,-0.006766,-0.498024,-0.001851,-1.027977,-262.683883,-0.625987,70.81009
7.857,-0.005881,0.011644,-0.000587,0.001886,-0.002316,-0.001364,-0.006289,-0.498111,-0.001321,-1.027977,-262.683883,-0.625987,70.81009
7.8768,-0.005563,0.0115,-0.001012,0.001908,-0.002315,-0.00104,-0.006125,-0.498424,-0.00064,-1.073778,-262.68244,-0.574413,70.810909
7.8969,-0.005477,0.011309,-0.001384,0.001919,-0.002306,-0.000978,-0.00608,-0.498496,-0.000981,-1.073778,-262.68244,-0.574413,70.810909
7.9169,-0.005551,0.011596,-0.000654,0.001927,-0.002298,-0.000933,-0.00608,-0.498496,-0.000981,-1.073778,-262.68244,-0.574413,70.810909
7.9371,-0.005706,0.011705,-0.002633,0.001934,-0.002291,-0.000901,-0.005832,-0.498464,-0.000686,-0.998775,-262.681539,-0.649415,70.811561
7.9568,-0.00534,0.011644,-0.000796,0.001959,-0.002285,-0.000635,-0.00632,-0.498402,-0.001479,-0.998775,-262.681539,-0.649415,70.811561
7.9768,-0.005186,0.011815,0.001526,0.001979,-0.002279,-0.000445,-0.005692,-0.49842,-0.000822,-0.973115,-262.680319,-0.724417,70.812484
7.9968,-0.005283,0.011337,-0.001683,0.001838,-0.002297,-0.001796,-0.004513,-0.498207,0.001327,-0.973115,-262.680319,-0.724417,70.812484
8.0171,-0.005191,0.011604,0.000303,0.001725,-0.002323,-0.002773,-0.004513,-0.498207,0.001327,-0.973115,-262.680319,-0.724417,70.812484
8.0371,-0.005477,0.0114,-0.001453,0.001633,-0.002353,-0.003471,-0.004964,-0.498479,0.000287,-0.911031,-262.679187,-0.792408,70.813473
8.0572,-0.005237,0.011346,0.000136,0.001655,-0.002369,-0.002981,-0.005487,-0.49854,-0.000452,-0.911031,-262.679187,-0.792408,70.813473
8.0767,-0.00498,0.011418,-0.001411,0.001671,-0.002378,-0.002631,-0.005168,-0.498654,0.000136,-0.986371,-262.679187,-0.717068,70.813473
8.0969,-0.005139,0.011697,-0.003574,0.001709,-0.002388,-0.001959,-0.005658,-0.498587,-0.00129,-0.986371,-262.679187,-0.717068,70.813473
8.1171,-0.005161,0.011471,-0.003372,0.001736,-0.002392,-0.001479,-0.005658,-0.498587,-0.00129,-0.986371,-262.679187,-0.717068,70.813473
8.137,-0.005094,0.01112,-0.001219,0.001756,-0.00239,-0.001136,-0.00687,-0.498541,-0.003386,-1.061215,-262.678925,-0.642223,70.813585
8.1569,-0.005297,0.01155,-0.000763,0.001847,-0.002374,-0.000403,-0.006391,-0.498683,-0.002491,-1.061215,-262.678925,-0.642223,70.813585
8.1767,-0.005027,0.011329,-0.000162,0.001916,-0.002354,0.000126,-0.005642,-0.498508,-0.000793,-1.0531,-262.677827,-0.717034,70.81434
8.1969,-0.004904,0.011192,-0.000911,0.001855,-0.002347,-0.000582,-0.005155,-0.49866,-0.000221,-1.0531,-262.677827,-0.717034,70.81434
8.217,-0.005222,0.011318,-0.002527,0.001804,-0.002345,-0.001081,-0.005155,-0.49866,-0.000221,-1.0531,-262.677827,-0.717034,70.81434
8.2368,-0.005239,0.011159,-0.000577,0.001763,-0.002348,-0.00143,-0.006484,-0.498713,-0.00253,-0.978247,-262.677427,-0.791887,70.814756
8.2573,-0.004852,0.011702,-0.001891,0.001823,-0.002339,-0.000913,-0.006092,-0.498769,-0.001733,-0.978247,-262.677427,-0.791887,70.814756
8.2773,-0.005349,0.011218,-0.002226,0.001869,-0.002327,-0.000543,-0.005774,-0.498354,-0.001924,-1.053239,-262.676318,-0.716895,70.81545
8.2971,-0.005198,0.011343,0.000267,0.001934,-0.00231,-8.5e-05,-0.006417,-0.498744,-0.0022,-1.053239,-262.676318,-0.716895,70.81545
8.3169,-0.005057,0.011447,-0.000124,0.001985,-0.002292,0.000244,-0.006417,-0.498744,-0.0022,-1.053239,-262.676318,-0.716895,70.81545
8.3369,-0.004972,0.010867,-0.002362,0.002024,-0.002274,0.00048,-0.005063,-0.498624,-0.000143,-0.978228,-262.675364,-0.791906,70.816252
8.357,-0.004943,0.011457,-0.002111,0.001979,-0.002271,0.00012,-0.00551,-0.498839,-0.001049,-0.978228,-262.675364,-0.791906,70.816252
8.377,-0.004962,0.010903,-0.000671,0.001943,-0.002273,-0.000131,-0.005994,-0.498573,-0.002108,-0.903226,-262.674889,-0.866908,70.816801
8.3971,-0.004966,0.011286,0.000128,0.001908,-0.002273,-0.000439,-0.005364,-0.499051,-0.0008,-0.903226,-262.674889,-0.866908,70.816801
8.4174,-0.004815,0.011154,0.000177,0.00188,-0.002275,-0.000654,-0.005364,-0.499051,-0.0008,-0.903226,-262.674889,-0.866908,70.816801
8.437,-0.004933,0.011223,-0.00162,0.001857,-0.002279,-0.000805,-0.004645,-0.49894,0.000172,-0.880538,-262.673685,-0.845717,70.817957
8.4573,-0.004912,0.011136,-0.000604,0.001809,-0.002292,-0.001035,-0.005093,-0.498884,-0.000565,-0.880538,-262.673685,-0.845717,70.817957
8.4773,-0.004369,0.010724,-0.002118,0.00177,-0.002305,-0.001197,-0.005174,-0.498919,-0.000623,-0.955658,-262.672658,-0.770598,70.81875
8.4972,-0.004842,0.010988,-0.002496,0.001797,-0.002318,-0.000632,-0.005423,-0.499246,-0.001985,-0.955658,-262.672658,-0.770598,70.81875
8.5175,-0.004796,0.010738,-0.001697,0.001815,-0.002324,-0.000227,-0.005423,-0.499246,-0.001985,-0.955658,-262.672658,-0.770598,70.81875
8.5376,-0.004753,0.010804,-0.002379,0.001828,-0.002326,6.2e-05,-0.005597,-0.499344,-0.001739,-1.030536,-262.671452,-0.726817,70.819564
8.5578,-0.004669,0.01079,-0.000598,0.001864,-0.002312,0.000274,-0.005739,-0.499293,-0.002003,-1.030536,-262.671452,-0.726817,70.819564
8.5768,-0.004429,0.010665,-0.001798,0.001892,-0.002298,0.000425,-0.004949,-0.499241,-0.000601,-0.955535,-262.670947,-0.801819,70.820079
8.5972,-0.004432,0.010905,-0.002108,0.001877,-0.002297,0.000398,-0.00531,-0.499328,-0.001693,-0.955535,-262.670947,-0.801819,70.820079
8.6168,-0.004711,0.010973,-0.001569,0.001865,-0.002296,0.000379,-0.00531,-0.499328,-0.001693,-0.955535,-262.670947,-0.801819,70.820079
8.6369,-0.004421,0.010751,-6.1e-05,0.001855,-0.002295,0.000367,-0.005466,-0.499081,-0.001563,-0.880417,-262.670314,-0.876936,70.820803
8.6568,-0.004641,0.01046,-0.001482,0.001812,-0.002298,-7e-06,-0.005047,-0.499156,-0.000949,-0.880417,-262.670314,-0.876936,70.820803
8.6772,-0.004245,0.010956,-0.002642,0.001777,-0.002303,-0.000269,-0.005343,-0.499606,-0.001471,-0.840547,-262.669286,-0.936204,70.821959
8.697,-0.004586,0.010352,-0.001101,0.001811,-0.002314,0.000246,-0.005569,-0.499094,-0.002541,-0.840547,-262.669286,-0.936204,70.821959
8.717,-0.00436,0.010386,-0.001524,0.001835,-0.002319,0.000615,-0.005569,-0.499094,-0.002541,-0.840547,-262.669286,-0.936204,70.821959
8.737,-0.004443,0.01062,-0.000628,0.001853,-0.002318,0.000879,-0.005077,-0.499688,-0.001531,-0.915735,-262.668326,-0.877486,70.822837
8.7574,-0.003981,0.01049,-0.001911,0.001816,-0.00231,0.000453,-0.004941,-0.49957,-0.00116,-0.915735,-262.668326,-0.877486,70.822837
8.7774,-0.004378,0.009849,-0.002226,0.001787,-0.002306,0.000155,-0.004923,-0.499551,-0.001898,-0.840821,-262.667753,-0.9524,70.823596
8.7973,-0.004251,0.010026,-0.000216,0.001841,-0.002285,0.000412,-0.005458,-0.500098,-0.002196,-0.840821,-262.667753,-0.9524,70.823596
8.8172,-0.004206,0.0103,-0.00131,0.001884,-0.002265,0.000595,-0.005458,-0.500098,-0.002196,-0.840821,-262.667753,-0.9524,70.823596
8.8376,-0.004355,0.010237,-0.000903,0.001917,-0.002246,0.000726,-0.004803,-0.499792,-0.001304,-0.891341,-262.666669,-0.931078,70.824737
8.8571,-0.004561,0.010408,-0.001205,0.001862,-0.002251,0.000337,-0.0048,-0.499791,-0.001141,-0.891341,-262.666669,-0.931078,70.824737
8.877,-0.004284,0.010245,-0.001491,0.001819,-0.002258,6.5e-05,-0.005132,-0.499646,-0.001191,-0.816339,-262.665894,-0.951658,70.825709
8.8977,-0.004205,0.010225,-0.000384,0.001808,-0.002262,3.2e-05,-0.00505,-0.499747,-0.001463,-0.816339,-262.665894,-0.951658,70.825709
8.9168,-0.003941,0.01017,-0.002112,0.001799,-0.002265,1e-05,-0.00505,-0.499747,-0.001463,-0.816339,-262.665894,-0.951658,70.825709
8.9369,-0.003966,0.010078,-0.001831,0.001791,-0.002268,-4e-06,-0.00495,-0.499913,-0.002109,-0.883878,-262.66487,-0.901016,70.826756
8.9568,-0.00411,0.009875,-0.001328,0.001788,-0.002279,0.000224,-0.004922,-0.499926,-0.001994,-0.883878,-262.66487,-0.901016,70.826756
8.9767,-0.004096,0.010405,-0.001966,0.001783,-0.002286,0.000387,-0.004731,-0.500197,-0.001328,-0.902925,-262.663721,-0.901917,70.827903
8.997,-0.003952,0.009654,-0.00216,0.00178,-0.00229,0.000466,-0.005062,-0.499652,-0.001908,-0.902925,-262.663721,-0.901917,70.827903
9.0169,-0.003932,0.009688,-0.001002,0.001777,-0.002292,0.000521,-0.005062,-0.499652,-0.001908,-0.902925,-262.663721,-0.901917,70.827903
9.0372,-0.00382,0.009931,-0.00114,0.001774,-0.002294,0.000561,-0.004375,-0.5004,-0.000987,-0.854626,-262.66272,-0.955262,70.829041
9.0571,-0.00373,0.009949,-0.001973,0.001723,-0.002295,0.000178,-0.004378,-0.500275,-0.001048,-0.854626,-262.66272,-0.955262,70.829041
9.077,-0.003929,0.009818,-0.001002,0.001683,-0.002298,-9.1e-05,-0.004681,-0.500122,-0.001956,-0.833085,-262.661681,-0.978574,70.830293
9.0973,-0.003772,0.009729,-0.001374,0.001656,-0.002303,-0.000262,-0.004458,-0.50018,-0.001084,-0.833085,-262.661681,-0.978574,70.830293
9.1169,-0.003891,0.009902,-0.000615,0.001633,-0.002308,-0.000381,-0.004458,-0.50018,-0.001084,-0.833085,-262.661681,-0.978574,70.830293
9.1369,-0.003423,0.009927,-0.001024,0.001615,-0.002314,-0.000465,-0.004149,-0.500171,-0.000616,-0.908147,-262.66079,-0.926825,70.831157
9.1569,-0.003778,0.009556,-0.001362,0.001557,-0.00233,-0.000677,-0.004058,-0.500139,-0.000785,-0.908147,-262.66079,-0.926825,70.831157
9.1767,-0.003794,0.009809,-0.000442,0.001511,-0.002345,-0.000827,-0.004429,-0.500503,-0.001373,-0.983211,-262.659783,-0.898555,70.832011
9.1972,-0.003673,0.009545,-0.001563,0.001473,-0.002353,-0.001075,-0.004053,-0.500221,-0.000523,-0.983211,-262.659783,-0.898555,70.832011
9.2172,-0.0035,0.009617,-0.002396,0.001444,-0.002362,-0.001251,-0.004053,-0.500221,-0.000523,-0.983211,-262.659783,-0.898555,70.832011
9.237,-0.003481,0.009504,-0.001323,0.00142,-0.002371,-0.001374,-0.004668,-0.500464,-0.002425,-1.058152,-262.658688,-0.883501,70.832818
9.2571,-0.003543,0.009355,-0.002984,0.00147,-0.002377,-0.000768,-0.00445,-0.500486,-0.001973,-1.058152,-262.658688,-0.883501,70.832818
9.2771,-0.003512,0.009308,-0.000877,0.001507,-0.002377,-0.000335,-0.005028,-0.500703,-0.003019,-1.133187,-262.657534,-0.823227,70.833505
9.2974,-0.003655,0.009338,-0.001173,0.001487,-0.002372,-0.000476,-0.004021,-0.500695,-0.001004,-1.133187,-262.657534,-0.823227,70.833505
9.3171,-0.003142,0.009581,-0.001858,0.001471,-0.002368,-0.000575,-0.004021,-0.500695,-0.001004,-1.133187,-262.657534,-0.823227,70.833505
9.3373,-0.003571,0.009085,-0.002629,0.001458,-0.002366,-0.000645,-0.004049,-0.50048,-0.001869,-1.057397,-262.656782,-0.899017,70.83417
9.3574,-0.003867,0.009131,-0.002509,0.001501,-0.002367,-0.000164,-0.004395,-0.500663,-0.00218,-1.057397,-262.656782,-0.899017,70.83417
9.3767,-0.003503,0.008679,-0.000601,0.001533,-0.002364,0.00018,-0.005102,-0.500941,-0.002529,-1.084964,-262.655573,-0.934434,70.83512
9.3969,-0.003192,0.00935,-0.001146,0.001518,-0.002338,-0.000241,-0.003924,-0.50129,-0.000776,-1.084964,-262.655573,-0.934434,70.83512
9.417,-0.003492,0.009236,-0.001141,0.001506,-0.002321,-0.000537,-0.003924,-0.50129,-0.000776,-1.084964,-262.655573,-0.934434,70.83512
9.4374,-0.003116,0.009406,-0.00206,0.001497,-0.002308,-0.000745,-0.004028,-0.500838,-0.001137,-1.009963,-262.654768,-1.009435,70.83598
9.4573,-0.003254,0.008717,-0.001412,0.001493,-0.00232,-0.000519,-0.004079,-0.500746,-0.001515,-1.009963,-262.654768,-1.009435,70.83598
9.4769,-0.003225,0.009173,-0.00192,0.001489,-0.002328,-0.000358,-0.00394,-0.501338,-0.001429,-1.074205,-262.65383,-0.934262,70.836691
9.4968,-0.003677,0.009174,-0.000106,0.001505,-0.002331,-8.3e-05,-0.004179,-0.500875,-0.001877,-1.074205,-262.65383,-0.934262,70.836691
9.5169,-0.003299,0.00908,1.1e-05,0.001517,-0.002331,0.000113,-0.004179,-0.500875,-0.001877,-1.074205,-262.65383,-0.934262,70.836691
9.5369,-0.003117,0.00896,-0.002081,0.001526,-0.002329,0.000253,-0.003232,-0.501015,-4e-06,-1.041781,-262.652677,-0.956302,70.8377
9.5568,-0.00307,0.008947,-0.001768,0.001467,-0.00233,-0.000137,-0.003616,-0.501036,-0.000863,-1.041781,-262.652677,-0.956302,70.8377
9.5772,-0.002993,0.00878,-0.001138,0.00142,-0.002334,-0.000412,-0.003932,-0.501114,-0.001761,-0.966649,-262.651787,-1.01976,70.838677
9.5971,-0.003114,0.008704,-0.001449,0.001392,-0.002339,-0.000435,-0.003605,-0.501213,-0.001196,-0.966649,-262.651787,-1.01976,70.838677
9.6171,-0.003207,0.00914,-0.002117,0.001368,-0.002343,-0.00045,-0.003605,-0.501213,-0.001196,-0.966649,-262.651787,-1.01976,70.838677
9.6371,-0.003181,0.008894,-0.002112,0.001349,-0.002347,-0.00046,-0.004237,-0.500938,-0.00213,-1.041524,-262.650823,-0.972167,70.839501
9.6574,-0.002821,0.008597,-0.002389,0.001409,-0.002342,-5.6e-05,-0.00424,-0.501015,-0.002124,-1.041524,-262.650823,-0.972167,70.839501
9.6768,-0.003344,0.008269,-0.003071,0.001454,-0.002335,0.000232,-0.003999,-0.501473,-0.002403,-1.096512,-262.649704,-0.992208,70.840435
9.6974,-0.002699,0.009054,-0.001502,0.001597,-0.002281,0.000753,-0.004826,-0.501709,-0.003011,-1.096512,-262.649704,-0.992208,70.840435
9.7171,-0.003062,0.008595,-0.002322,0.001708,-0.002232,0.001127,-0.004826,-0.501709,-0.003011,-1.096512,-262.649704,-0.992208,70.840435
9.7373,-0.002384,0.008622,-0.00258,0.001795,-0.002188,0.001394,-0.0042,-0.501482,-0.002316,-1.021494,-262.648872,-1.039842,70.841343
9.7569,-0.00261,0.008466,-0.00073,0.001751,-0.002193,0.001374,-0.003991,-0.501448,-0.002423,-1.021494,-262.648872,-1.039842,70.841343
9.777,-0.002861,0.008485,-0.001041,0.001717,-0.002198,0.001361,-0.002978,-0.501541,-0.000728,-0.946486,-262.648789,-1.037346,70.841473
9.7975,-0.002911,0.008617,-0.001257,0.001604,-0.002207,0.000702,-0.003354,-0.501518,-0.001012,-0.946486,-262.648789,-1.037346,70.841473
9.8174,-0.00299,0.00846,-0.002,0.001516,-0.00222,0.000241,-0.003354,-0.501518,-0.001012,-0.946486,-262.648789,-1.037346,70.841473
9.8367,-0.002893,0.008509,-0.001207,0.001446,-0.002235,-8.1e-05,-0.003991,-0.501568,-0.001987,-0.871513,-262.648531,-1.055145,70.841883
9.8569,-0.002948,0.008661,-0.002594,0.00145,-0.00224,8e-06,-0.003791,-0.501539,-0.001665,-0.871513,-262.648531,-1.055145,70.841883
9.8769,-0.002738,0.008455,-0.000782,0.001453,-0.002243,7.4e-05,-0.004237,-0.501386,-0.002594,-0.946577,-262.647784,-0.98642,70.842608
9.897,-0.002774,0.008177,-0.00047,0.00138,-0.002258,-0.000226,-0.003236,-0.501533,-0.000948,-0.946577,-262.647784,-0.98642,70.842608
9.917,-0.002951,0.008265,-0.002033,0.001323,-0.002273,-0.000435,-0.003236,-0.501533,-0.000948,-0.946577,-262.647784,-0.98642,70.842608
9.937,-0.002411,0.008372,-0.000736,0.001277,-0.002287,-0.000582,-0.003929,-0.501825,-0.00203,-0.986821,-262.646763,-1.00517,70.843658
9.9571,-0.002748,0.008355,-0.000171,0.001283,-0.002291,-0.000414,-0.003459,-0.501756,-0.001505,-0.986821,-262.646763,-1.00517,70.843658
9.9774,-0.002707,0.008332,-0.001778,0.001287,-0.002292,-0.000293,-0.002803,-0.501698,-0.000183,-1.061823,-262.645887,-0.986691,70.844349
9.9969,-0.002645,0.008266,-0.003418,0.001297,-0.002294,-0.000148,-0.003539,-0.501673,-0.001635,-1.061823,-262.645887,-0.986691,70.844349
10.0175,-0.003099,0.008068,-0.001867,0.001304,-0.002294,-4.4e-05,-0.003539,-0.501673,-0.001635,-1.061823,-262.645887,-0.986691,70.844349
10.0369,-0.002774,0.007738,-0.001426,0.00131,-0.002294,3e-05,-0.003999,-0.502024,-0.001879,-1.090812,-262.644811,-1.023883,70.845304
10.0573,-0.002638,0.008085,-0.002288,0.001367,-0.002262,0.000108,-0.003797,-0.502128,-0.001702,-1.090812,-262.644811,-1.023883,70.845304
10.077,-0.002532,0.008054,-0.000765,0.001411,-0.002236,0.000163,-0.003765,-0.501984,-0.002287,-1.048541,-262.643807,-1.05537,70.84632
10.097,-0.002462,0.007877,-0.000279,0.001328,-0.002245,-0.000184,-0.002995,-0.501953,-0.000901,-1.048541,-262.643807,-1.05537,70.84632
10.1169,-0.002804,0.007777,-0.001607,0.001262,-0.002255,-0.000428,-0.002995,-0.501953,-0.000901,-1.048541,-262.643807,-1.05537,70.84632
10.1376,-0.002602,0.007613,-0.001265,0.00121,-0.002265,-0.0006,-0.003569,-0.502309,-0.0016,-0.986918,-262.642855,-1.027173,70.847335
10.157,-0.002374,0.008029,-0.000321,0.001249,-0.002246,-0.000449,-0.003431,-0.502351,-0.001462,-0.986918,-262.642855,-1.027173,70.847335
10.1767,-0.002427,0.007988,-0.002226,0.001279,-0.002229,-0.000341,-0.002509,-0.502019,-0.000332,-1.061938,-262.642067,-1.003247,70.847948
10.1968,-0.002491,0.007701,-0.002107,0.001307,-0.002234,-3e-06,-0.003466,-0.502014,-0.002056,-1.061938,-262.642067,-1.003247,70.847948
10.2171,-0.002544,0.007644,9.1e-05,0.001327,-0.002236,0.000239,-0.003466,-0.502014,-0.002056,-1.061938,-262.642067,-1.003247,70.847948
10.2375,-0.002458,0.007759,-0.002011,0.001342,-0.002236,0.00041,-0.002445,-0.502449,7.7e-05,-1.087492,-262.640977,-1.006337,70.848894
10.2575,-0.00244,0.007786,-0.001607,0.001267,-0.002228,-8.1e-05,-0.002864,-0.502374,-0.000779,-1.087492,-262.640977,-1.006337,70.848894
10.2772,-0.002015,0.007584,-0.000449,0.001208,-0.002225,-0.000427,-0.003228,-0.502268,-0.001598,-1.012475,-262.640249,-1.075987,70.849752
10.2971,-0.002677,0.007232,-0.001546,0.001081,-0.002237,-0.000787,-0.002332,-0.502405,-0.000553,-1.012475,-262.640249,-1.075987,70.849752
10.3174,-0.002487,0.007998,-0.001245,0.000981,-0.00225,-0.001041,-0.002332,-0.502405,-0.000553,-1.012475,-262.640249,-1.075987,70.849752
10.3378,-0.002323,0.007537,-0.003259,0.000901,-0.002262,-0.00122,-0.003081,-0.502075,-0.001258,-1.087472,-262.639371,-1.019444,70.850485
10.3577,-0.00226,0.007392,-0.000765,0.001008,-0.002257,-0.000637,-0.003442,-0.50224,-0.002069,-1.087472,-262.639371,-1.019444,70.850485
10.3772,-0.002319,0.007237,-0.000895,0.001089,-0.00225,-0.000218,-0.002631,-0.502646,-0.000785,-1.162549,-262.638681,-1.034762,70.850873
10.3973,-0.002055,0.007409,-0.000372,0.001065,-0.002228,-0.000471,-0.002763,-0.502755,-0.000887,-1.162549,-262.638681,-1.034762,70.850873
10.4175,-0.002142,0.007281,-0.001734,0.001045,-0.002212,-0.000649,-0.002763,-0.502755,-0.000887,-1.162549,-262.638681,-1.034762,70.850873
10.4377,-0.002159,0.007221,-0.00141,0.00103,-0.0022,-0.000774,-0.002984,-0.502807,-0.001743,-1.142134,-262.637701,-1.095562,70.851763
10.4572,-0.002271,0.007762,-0.001721,0.001054,-0.002191,-0.000511,-0.002937,-0.502806,-0.00161,-1.142134,-262.637701,-1.095562,70.851763
10.4772,-0.002405,0.007124,-0.0015,0.001072,-0.002181,-0.000322,-0.003119,-0.502299,-0.001743,-1.203087,-262.636686,-1.033234,70.852476
10.4972,-0.002324,0.007258,-0.001523,0.001118,-0.002159,-0.000231,-0.003164,-0.502828,-0.001522,-1.203087,-262.636686,-1.033234,70.852476
10.5176,-0.002343,0.007142,-0.001561,0.001154,-0.00214,-0.000166,-0.003164,-0.502828,-0.001522,-1.203087,-262.636686,-1.033234,70.852476
10.5372,-0.001732,0.006947,-0.002867,0.001182,-0.002124,-0.00012,-0.003098,-0.502942,-0.001574,-1.147324,-262.635721,-1.075501,70.85331
10.5578,-0.001629,0.007252,-0.000916,0.001215,-0.00211,0.000168,-0.003133,-0.502996,-0.002107,-1.147324,-262.635721,-1.075501,70.85331
10.5768,-0.002033,0.007225,-0.001401,0.001239,-0.002096,0.000373,-0.002062,-0.50281,-0.00092,-1.077409,-262.63481,-1.048186,70.854174
10.5968,-0.001976,0.007054,-0.003249,0.001172,-0.002105,0.000188,-0.002685,-0.50278,-0.001358,-1.077409,-262.63481,-1.048186,70.854174
10.617,-0.002085,0.007326,-0.00078,0.00112,-0.002113,5.7e-05,-0.002685,-0.50278,-0.001358,-1.077409,-262.63481,-1.048186,70.854174
10.6371,-0.002057,0.006799,-0.00104,0.001078,-0.002121,-3.4e-05,-0.002439,-0.50275,-0.000767,-1.002463,-262.634041,-1.080799,70.855077
10.6571,-0.001939,0.006837,-0.00313,0.001025,-0.002118,-0.000344,-0.002494,-0.502942,-0.000876,-1.002463,-262.634041,-1.080799,70.855077
10.677,-0.001792,0.007067,-0.001025,0.000984,-0.002117,-0.000563,-0.003505,-0.503217,-0.00313,-1.077454,-262.633232,-1.096504,70.855874
10.6971,-0.001644,0.006947,-0.003616,0.000942,-0.002124,-0.000547,-0.002415,-0.50296,-0.001205,-1.077454,-262.633232,-1.096504,70.855874
10.7172,-0.001803,0.00694,-0.001191,0.000908,-0.002129,-0.000536,-0.002415,-0.50296,-0.001205,-1.077454,-262.633232,-1.096504,70.855874
10.7372,-0.001658,0.006811,-0.002505,0.000881,-0.002133,-0.000528,-0.002377,-0.50313,-0.001209,-1.152569,-262.632382,-1.064119,70.856524
10.7571,-0.001633,0.006927,-0.000169,0.000904,-0.002124,-0.000276,-0.002601,-0.503162,-0.00174,-1.152569,-262.632382,-1.064119,70.856524
10.7767,-0.002051,0.00645,-0.001883,0.00092,-0.002114,-9.7e-05,-0.001695,-0.503132,-0.000184,-1.226172,-262.63147,-1.117843,70.857228
10.7974,-0.001902,0.006341,-0.000937,0.000994,-0.002065,2e-05,-0.00289,-0.503515,-0.00173,-1.226172,-262.63147,-1.117843,70.857228
10.8172,-0.001874,0.00682,-0.002177,0.001051,-0.002024,0.000103,-0.00289,-0.503515,-0.00173,-1.226172,-262.63147,-1.117843,70.857228
10.8376,-0.001921,0.006574,-0.001643,0.001095,-0.001991,0.000161,-0.002949,-0.503262,-0.002181,-1.170277,-262.630587,-1.149831,70.858071
10.8569,-0.001645,0.007043,-0.00112,0.001119,-0.001981,0.000306,-0.002868,-0.503338,-0.001964,-1.170277,-262.630587,-1.149831,70.858071
10.877,-0.001941,0.006772,-0.002051,0.001138,-0.001972,0.000409,-0.002191,-0.503004,-0.001117,-1.095279,-262.629943,-1.088249,70.858765
10.8975,-0.001784,0.006621,-0.002545,0.001154,-0.00197,0.000484,-0.002915,-0.50321,-0.001968,-1.095279,-262.629943,-1.088249,70.858765
10.9176,-0.001357,0.006499,-0.000923,0.001167,-0.001968,0.000536,-0.002915,-0.50321,-0.001968,-1.095279,-262.629943,-1.088249,70.858765
10.9375,-0.002112,0.006437,-0.001333,0.001176,-0.001965,0.000574,-0.001789,-0.50357,-0.00091,-1.020254,-262.629261,-1.097314,70.859591
10.9577,-0.001078,0.006558,-0.00187,0.001068,-0.001954,0.000187,-0.00219,-0.503575,-0.001079,-1.020254,-262.629261,-1.097314,70.859591
10.9773,-0.0015,0.006619,-0.000745,0.000985,-0.001947,-8.5e-05,-0.001998,-0.503498,-0.001854,-0.945274,-262.628538,-1.100803,70.86053
10.9976,-0.001308,0.006597,-0.001253,0.000858,-0.001962,-0.000392,-0.001889,-0.503395,-0.000849,-0.945274,-262.628538,-1.100803,70.86053
11.0173,-0.001465,0.006571,0.000115,0.000758,-0.001976,-0.000608,-0.001889,-0.503395,-0.000849,-0.945274,-262.628538,-1.100803,70.86053
11.0378,-0.001268,0.006451,-0.000764,0.00068,-0.00199,-0.000761,-0.001378,-0.50348,0.000115,-1.020268,-262.627972,-1.091646,70.861072
11.0572,-0.001696,0.00649,-0.001617,0.000544,-0.001993,-0.001201,-0.001487,-0.503513,-0.000238,-1.020268,-262.627972,-1.091646,70.861072
11.0767,-0.001621,0.006622,-0.001123,0.000437,-0.001999,-0.001513,-0.002513,-0.503526,-0.001622,-1.095267,-262.627703,-1.151237,70.861249
11.0971,-0.001557,0.006159,-0.002359,0.000489,-0.002008,-0.001247,-0.002221,-0.503391,-0.001166,-1.095267,-262.627703,-1.151237,70.861249
11.117,-0.001327,0.00643,-0.000266,0.000528,-0.002014,-0.001058,-0.002221,-0.503391,-0.001166,-1.095267,-262.627703,-1.151237,70.861249
11.1369,-0.001537,0.005878,-0.001247,0.000557,-0.002018,-0.000923,-0.001457,-0.503584,-0.000276,-1.170385,-262.6275,-1.185087,70.861329
11.157,-0.00188,0.006619,-0.000572,0.000503,-0.001996,-0.001077,-0.001749,-0.503805,-0.000674,-1.170385,-262.6275,-1.185087,70.861329
11.177,-0.001235,0.006209,-0.00152,0.00046,-0.00198,-0.001186,-0.002159,-0.503416,-0.000587,-1.245261,-262.626905,-1.204989,70.86168
11.1972,-0.001686,0.006323,-0.002767,0.000484,-0.001973,-0.00088,-0.002022,-0.503761,-0.001442,-1.245261,-262.626905,-1.204989,70.86168
11.2174,-0.00153,0.006011,-0.000686,0.000501,-0.001966,-0.000662,-0.002022,-0.503761,-0.001442,-1.245261,-262.626905,-1.204989,70.86168
11.237,-0.001678,0.005723,-0.002015,0.000513,-0.001958,-0.000508,-0.001864,-0.504043,-0.000718,-1.320432,-262.62617,-1.219835,70.862038
11.2571,-0.001485,0.006125,-0.002748,0.000568,-0.001906,-0.000492,-0.002208,-0.504145,-0.001255,-1.320432,-262.62617,-1.219835,70.862038
11.2771,-0.001577,0.006267,-0.001783,0.000611,-0.001864,-0.00048,-0.002872,-0.503933,-0.002764,-1.348459,-262.625287,-1.269136,70.862694
11.2971,-0.001647,0.006106,-0.00014,0.000689,-0.001861,-0.000194,-0.002519,-0.503752,-0.001869,-1.348459,-262.625287,-1.269136,70.862694
11.3172,-0.001884,0.005882,-0.001911,0.00075,-0.001857,1e-05,-0.002519,-0.503752,-0.001869,-1.348459,-262.625287,-1.269136,70.862694
11.3375,-0.001602,0.005864,-0.001828,0.000797,-0.001852,0.000155,-0.002836,-0.504186,-0.001929,-1.294946,-262.624493,-1.200112,70.86329
11.3576,-0.001247,0.006412,-0.001229,0.000887,-0.001799,0.000264,-0.00271,-0.504173,-0.001889,-1.294946,-262.624493,-1.200112,70.86329
11.3772,-0.0013,0.005789,-0.003279,0.000957,-0.001756,0.000341,-0.001857,-0.503629,-0.001226,-1.219958,-262.623958,-1.182474,70.863874
11.3972,-0.001075,0.005873,-0.001088,0.001055,-0.001729,0.000845,-0.00287,-0.504158,-0.003092,-1.219958,-262.623958,-1.182474,70.863874
11.4174,-0.001183,0.006227,-0.000907,0.00113,-0.001703,0.001206,-0.00287,-0.504158,-0.003092,-1.219958,-262.623958,-1.182474,70.863874
11.4371,-0.001404,0.00587,-0.001481,0.001186,-0.001679,0.001464,-0.001629,-0.503809,-0.000902,-1.145067,-262.623607,-1.117607,70.864295
11.457,-0.001422,0.00593,-0.001853,0.001012,-0.001693,0.000829,-0.001842,-0.503944,-0.001137,-1.145067,-262.623607,-1.117607,70.864295
11.4768,-0.001496,0.005637,-0.003048,0.000877,-0.001709,0.000384,-0.002367,-0.504069,-0.001853,-1.070092,-262.623605,-1.139024,70.8643
11.4974,-0.001616,0.005704,-0.001113,0.001021,-0.001662,0.000817,-0.002992,-0.504335,-0.002946,-1.070092,-262.623605,-1.139024,70.8643
11.5175,-0.001427,0.005784,-0.002028,0.00113,-0.00162,0.001128,-0.002992,-0.504335,-0.002946,-1.070092,-262.623605,-1.139024,70.8643
11.5372,-0.001348,0.005769,-0.002009,0.001213,-0.001585,0.001351,-0.002426,-0.504285,-0.002012,-1.034303,-262.622934,-1.146951,70.865134
11.5578,-0.001468,0.005842,-0.003616,0.001155,-0.001579,0.001151,-0.0024,-0.504271,-0.002009,-1.034303,-262.622934,-1.146951,70.865134
11.5769,-0.001544,0.005614,-0.001988,0.001111,-0.001576,0.001013,-0.003311,-0.504156,-0.003615,-0.959433,-262.622921,-1.104485,70.865159
11.5972,-0.00146,0.005888,-0.000996,0.001123,-0.001555,0.000963,-0.002622,-0.504366,-0.002127,-0.959433,-262.622921,-1.104485,70.865159
11.6173,-0.001547,0.0058,-0.002308,0.001133,-0.001539,0.00093,-0.002622,-0.504366,-0.002127,-0.959433,-262.622921,-1.104485,70.865159
11.6372,-0.001439,0.006044,-0.000823,0.001141,-0.001527,0.000907,-0.002709,-0.504224,-0.002295,-0.88424,-262.622704,-1.102182,70.865521
11.6571,-0.001348,0.006168,-0.003583,0.001083,-0.001547,0.000706,-0.002362,-0.504118,-0.001696,-0.88424,-262.622704,-1.102182,70.865521
11.6773,-0.001609,0.005918,-0.003158,0.001039,-0.001566,0.000565,-0.003155,-0.503859,-0.003567,-0.809405,-262.622351,-1.069287,70.866081
11.6972,-0.001531,0.005887,-0.001646,0.001168,-0.001562,0.001034,-0.003213,-0.504061,-0.003193,-0.809405,-262.622351,-1.069287,70.866081
11.7174,-0.001514,0.005777,-0.002457,0.001267,-0.001556,0.00137,-0.003213,-0.504061,-0.003193,-0.809405,-262.622351,-1.069287,70.866081
11.7371,-0.000911,0.005374,-0.001741,0.001343,-0.00155,0.00161,-0.002726,-0.504283,-0.002435,-0.865678,-262.621741,-1.072985,70.866908
11.7572,-0.001124,0.005846,-0.002792,0.001253,-0.001536,0.001397,-0.002343,-0.50443,-0.002149,-0.865678,-262.621741,-1.072985,70.866908
11.7768,-0.001203,0.005681,-0.000877,0.001184,-0.001525,0.001249,-0.002547,-0.504153,-0.002791,-0.790646,-262.621726,-1.083286,70.866939
11.7973,-0.001118,0.005592,-0.001651,0.000995,-0.001542,0.000633,-0.00173,-0.504304,-0.001047,-0.790646,-262.621726,-1.083286,70.866939
11.8174,-0.001675,0.005453,-0.002896,0.000849,-0.001561,0.000202,-0.00173,-0.504304,-0.001047,-0.790646,-262.621726,-1.083286,70.866939
11.8373,-0.001306,0.006039,-0.001552,0.000736,-0.00158,-0.0001,-0.00313,-0.504576,-0.002875,-0.715743,-262.621464,-1.093333,70.867417
11.8574,-0.001458,0.005549,-0.002839,0.000848,-0.001572,0.000254,-0.002708,-0.504329,-0.002335,-0.715743,-262.621464,-1.093333,70.867417
11.8771,-0.001074,0.00591,-0.002227,0.000934,-0.001563,0.000507,-0.002904,-0.504451,-0.002838,-0.790861,-262.621433,-1.119535,70.867447
11.8972,-0.001409,0.005103,-0.002436,0.00091,-0.001595,0.000675,-0.00227,-0.50412,-0.00228,-0.790861,-262.621433,-1.119535,70.867447
11.917,-0.001352,0.005498,-0.001874,0.000891,-0.001619,0.000794,-0.00227,-0.50412,-0.00228,-0.790861,-262.621433,-1.119535,70.867447
11.9372,-0.001374,0.005514,-0.002403,0.000875,-0.001637,0.00088,-0.002278,-0.504548,-0.001857,-0.865825,-262.620974,-1.108193,70.868061
11.9571,-0.001417,0.005733,-0.001462,0.000904,-0.001601,0.000856,-0.002408,-0.504527,-0.002082,-0.865825,-262.620974,-1.108193,70.868061
11.9769,-0.001173,0.005574,-0.001492,0.000925,-0.001572,0.00084,-0.002139,-0.504312,-0.001438,-0.898705,-262.620478,-1.183466,70.868888
11.9971,-0.001216,0.005668,-0.002357,0.000842,-0.001572,0.000568,-0.001951,-0.504418,-0.001486,-0.898705,-262.620478,-1.183466,70.868888
12.0174,-0.001668,0.005528,-0.000492,0.000777,-0.001574,0.000377,-0.001951,-0.504418,-0.001486,-0.898705,-262.620478,-1.183466,70.868888
12.0369,-0.001698,0.005391,-0.002573,0.000727,-0.001577,0.000243,-0.001881,-0.504535,-0.000458,-0.852864,-262.619941,-1.153241,70.869759
12.0574,-0.001224,0.005371,-0.002257,0.00077,-0.001546,6.4e-05,-0.002342,-0.504572,-0.001325,-0.852864,-262.619941,-1.153241,70.869759
12.0771,-0.00117,0.005287,-0.002363,0.000803,-0.001523,-6.1e-05,-0.002365,-0.504645,-0.002252,-0.927969,-262.619703,-1.171795,70.870037
12.0972,-0.001525,0.005301,-0.003629,0.000855,-0.001502,0.0003,-0.002373,-0.504707,-0.002353,-0.927969,-262.619703,-1.171795,70.870037
12.1174,-0.000983,0.00538,-0.002328,0.000893,-0.001482,0.000557,-0.002373,-0.504707,-0.002353,-0.927969,-262.619703,-1.171795,70.870037
12.1375,-0.001006,0.005397,-0.001581,0.000921,-0.001464,0.00074,-0.002151,-0.504653,-0.002328,-1.002928,-262.619318,-1.096836,70.870408
12.1576,-0.001169,0.005191,-0.002358,0.000862,-0.001467,0.000744,-0.002012,-0.504636,-0.002026,-1.002928,-262.619318,-1.096836,70.870408
12.1771,-0.001132,0.00533,-0.000535,0.000816,-0.001469,0.000746,-0.002354,-0.504837,-0.002344,-0.927922,-262.618978,-1.122728,70.870936
12.1971,-0.001075,0.004984,-0.001116,0.000659,-0.001464,9.2e-05,-0.001477,-0.504684,-0.000675,-0.927922,-262.618978,-1.122728,70.870936
12.2172,-0.001234,0.005486,-0.002334,0.000537,-0.001465,-0.000368,-0.001477,-0.504684,-0.000675,-0.927922,-262.618978,-1.122728,70.870936
12.2373,-0.001245,0.004723,0.000456,0.000443,-0.001469,-0.000692,-0.002392,-0.50457,-0.002305,-0.893159,-262.618488,-1.16997,70.871724
12.2572,-0.001169,0.005352,-0.000665,0.000455,-0.00145,-0.00066,-0.00183,-0.504863,-0.001185,-0.893159,-262.618488,-1.16997,70.871724
12.2773,-0.001093,0.005036,-0.00024,0.000463,-0.001434,-0.000636,-0.001507,-0.504649,-0.000665,-0.967798,-262.61846,-1.170301,70.87174
12.2971,-0.001317,0.005472,-0.00162,0.000335,-0.001418,-0.001095,-0.001241,-0.504937,-0.000276,-0.967798,-262.61846,-1.170301,70.87174
12.3174,-0.001101,0.005731,-0.002426,0.000235,-0.001408,-0.001419,-0.001241,-0.504937,-0.000276,-0.967798,-262.61846,-1.170301,70.87174
12.3373,-0.001117,0.004965,-0.002254,0.000157,-0.001402,-0.001648,-0.002334,-0.504275,-0.002428,-1.04292,-262.618364,-1.154117,70.871799
12.3575,-0.001113,0.005022,-0.00195,0.000332,-0.001428,-0.000853,-0.002306,-0.504584,-0.002358,-1.04292,-262.618364,-1.154117,70.871799
12.3768,-0.001051,0.005394,-0.000475,0.000463,-0.001444,-0.000279,-0.002107,-0.504978,-0.001951,-1.117809,-262.618336,-1.192372,70.871804
12.3972,-0.000995,0.004993,-0.002876,0.000355,-0.001458,-0.000665,-0.001368,-0.504641,-0.000612,-1.117809,-262.618336,-1.192372,70.871804
12.417,-0.000935,0.005015,-0.00087,0.000272,-0.001471,-0.000936,-0.001368,-0.504641,-0.000612,-1.117809,-262.618336,-1.192372,70.871804
12.4368,-0.001028,0.004962,-0.001855,0.000207,-0.001484,-0.001126,-0.001365,-0.505021,-0.000876,-1.192791,-262.617928,-1.222131,70.872134
12.4568,-0.001053,0.005156,-0.00078,0.00023,-0.001452,-0.000918,-0.001614,-0.505031,-0.00128,-1.192791,-262.617928,-1.222131,70.872134
12.4767,-0.001551,0.005573,-0.000512,0.000245,-0.001425,-0.000769,-0.001448,-0.504854,-0.000788,-1.267956,-262.617721,-1.297296,70.872211
12.4971,-0.001018,0.005039,-0.000533,0.000262,-0.001451,-0.001055,-0.001779,-0.504466,-0.000537,-1.267956,-262.617721,-1.297296,70.872211
12.5173,-0.000794,0.004879,-0.004149,0.000277,-0.001473,-0.001256,-0.001779,-0.504466,-0.000537,-1.267956,-262.617721,-1.297296,70.872211
12.5371,-0.001036,0.005074,-0.003391,0.000289,-0.001493,-0.001397,-0.002902,-0.505153,-0.004168,-1.342795,-262.617255,-1.320184,70.872452
12.5572,-0.001016,0.005011,-0.001184,0.000586,-0.001424,-0.000229,-0.002844,-0.505061,-0.003846,-1.342795,-262.617255,-1.320184,70.872452
12.5769,-0.000922,0.00507,-0.001433,0.000809,-0.001366,0.000632,-0.001615,-0.505013,-0.001207,-1.418034,-262.61677,-1.244946,70.872596
12.597,-0.001228,0.005193,-0.002151,0.000696,-0.001357,0.000376,-0.001649,-0.504938,-0.001413,-1.418034,-262.61677,-1.244946,70.872596
12.6172,-0.001041,0.004954,-0.002574,0.000609,-0.001353,0.0002,-0.001649,-0.504938,-0.001413,-1.418034,-262.61677,-1.244946,70.872596
12.6367,-0.00106,0.005123,-0.000827,0.000542,-0.00135,7.9e-05,-0.002354,-0.505044,-0.002574,-1.343261,-262.616767,-1.170173,70.872601
12.6572,-0.001386,0.004818,-0.002838,0.000572,-0.001337,0.000194,-0.001998,-0.504976,-0.001861,-1.343261,-262.616767,-1.170173,70.872601
12.677,-0.000845,0.005082,-0.002226,0.000593,-0.001326,0.000278,-0.002824,-0.505208,-0.002837,-1.268272,-262.616412,-1.201044,70.872979
12.6968,-0.00089,0.00507,-0.001307,0.000626,-0.001323,0.000512,-0.002056,-0.504944,-0.002281,-1.268272,-262.616412,-1.201044,70.872979
12.7169,-0.000882,0.005014,-0.001366,0.000651,-0.001319,0.00068,-0.002056,-0.504944,-0.002281,-1.268272,-262.616412,-1.201044,70.872979
12.7368,-0.000848,0.005518,-0.000568,0.000668,-0.001314,0.0008,-0.001564,-0.505021,-0.001359,-1.193269,-262.616088,-1.193028,70.873379
12.7569,-0.00139,0.004845,-0.001856,0.000522,-0.001331,0.000319,-0.001386,-0.504802,-0.001031,-1.193269,-262.616088,-1.193028,70.873379
12.7776,-0.001073,0.004714,-0.001047,0.00041,-0.001349,-1.9e-05,-0.002333,-0.505164,-0.001851,-1.118128,-262.615994,-1.215613,70.873551
12.7971,-0.000995,0.004602,-0.00187,0.000402,-0.001299,-0.000217,-0.00167,-0.505276,-0.001117,-1.118128,-262.615994,-1.215613,70.873551
12.8174,-0.000776,0.005013,-0.002418,0.000395,-0.001261,-0.000355,-0.00167,-0.505276,-0.001117,-1.118128,-262.615994,-1.215613,70.873551
12.8372,-0.000721,0.004599,-0.000278,0.000389,-0.001232,-0.000451,-0.001997,-0.50502,-0.002418,-1.193099,-262.615637,-1.273343,70.873901
12.8571,-0.001056,0.004965,-0.002606,0.000354,-0.001233,-0.000308,-0.001533,-0.50518,-0.001546,-1.193099,-262.615637,-1.273343,70.873901
12.8774,-0.001142,0.004611,-0.001896,0.000325,-0.001233,-0.000206,-0.002376,-0.505061,-0.002616,-1.267985,-262.615211,-1.198457,70.874185
12.8972,-0.001061,0.004436,-0.001331,0.000448,-0.001187,4.1e-05,-0.002133,-0.50536,-0.001961,-1.267985,-262.615211,-1.198457,70.874185
12.9172,-0.00083,0.00468,-0.001767,0.000541,-0.001149,0.000217,-0.002133,-0.50536,-0.001961,-1.267985,-262.615211,-1.198457,70.874185
12.9369,-0.000864,0.004563,-0.001461,0.000611,-0.001118,0.000342,-0.00172,-0.505361,-0.001775,-1.335784,-262.61475,-1.273474,70.874565
12.9576,-0.000941,0.0045,-0.002016,0.00056,-0.001103,0.000302,-0.001673,-0.505397,-0.001648,-1.335784,-262.61475,-1.273474,70.874565
12.9774,-0.000901,0.004971,-0.000924,0.000521,-0.001091,0.000273,-0.001968,-0.505502,-0.002015,-1.260803,-262.61471,-1.198493,70.874619
12.9972,-0.000829,0.004675,-0.002707,0.000418,-0.001124,-5.1e-05,-0.001424,-0.50507,-0.001019,-1.260803,-262.61471,-1.198493,70.874619
13.0174,-0.000544,0.004884,-0.001097,0.000339,-0.001153,-0.000281,-0.001424,-0.50507,-0.001019,-1.260803,-262.61471,-1.198493,70.874619
13.037,-0.001305,0.00456,-0.002688,0.000279,-0.001177,-0.000442,-0.001094,-0.505139,-0.001092,-1.18572,-262.614493,-1.178196,70.874897
13.0572,-0.000927,0.005103,-0.001561,0.000316,-0.001171,-0.000218,-0.001734,-0.505263,-0.001739,-1.18572,-262.614493,-1.178196,70.874897
13.0767,-0.001077,0.004629,-0.000609,0.000344,-0.001166,-5.7e-05,-0.001718,-0.504914,-0.001567,-1.260656,-262.614216,-1.253133,70.875076
13.0972,-0.001256,0.00478,-0.001322,0.000284,-0.001148,-0.000459,-0.001415,-0.505333,-0.000692,-1.260656,-262.614216,-1.253133,70.875076
13.117,-0.000778,0.004963,-0.00234,0.000238,-0.001136,-0.000742,-0.001415,-0.505333,-0.000692,-1.260656,-262.614216,-1.253133,70.875076
13.1371,-0.000691,0.004776,-0.001483,0.000202,-0.001129,-0.000942,-0.001957,-0.505083,-0.002342,-1.292071,-262.613729,-1.275809,70.875536
13.1573,-0.001034,0.004757,-0.002009,0.000259,-0.001154,-0.00047,-0.001747,-0.505146,-0.001991,-1.292071,-262.613729,-1.275809,70.875536
13.1772,-0.000703,0.004751,-0.001781,0.0003,-0.001172,-0.000133,-0.002053,-0.505265,-0.002027,-1.366924,-262.613297,-1.220452,70.875685
13.1974,-0.000627,0.004826,-0.000452,0.000311,-0.001171,3e-05,-0.001649,-0.505251,-0.001803,-1.366924,-262.613297,-1.220452,70.875685
13.2174,-0.001049,0.00461,-0.000964,0.000318,-0.001169,0.000147,-0.001649,-0.505251,-0.001803,-1.366924,-262.613297,-1.220452,70.875685
13.2373,-0.001003,0.004254,-0.000634,0.000323,-0.001167,0.00023,-0.00153,-0.505433,-0.000969,-1.335563,-262.612841,-1.295542,70.876085
13.2572,-0.000823,0.004667,-0.001121,0.000282,-0.001114,-0.000182,-0.001445,-0.505566,-0.000833,-1.335563,-262.612841,-1.295542,70.876085
13.2771,-0.000747,0.004737,-0.002747,0.00025,-0.001075,-0.000473,-0.001385,-0.505367,-0.001115,-1.265832,-262.61245,-1.328603,70.876574
13.2972,-0.000967,0.004487,-0.002049,0.000378,-0.001085,9.1e-05,-0.002079,-0.505273,-0.002599,-1.265832,-262.61245,-1.328603,70.876574
13.3173,-0.000967,0.004707,-0.000806,0.000475,-0.001089,0.000496,-0.002079,-0.505273,-0.002599,-1.265832,-262.61245,-1.328603,70.876574
13.3372,-0.000865,0.004607,-0.000759,0.000548,-0.001088,0.000787,-0.001369,-0.505325,-0.00082,-1.340811,-262.612045,-1.26315,70.876815
13.3572,-0.000862,0.00444,-0.002691,0.000418,-0.00108,0.000183,-0.001321,-0.505356,-0.000797,-1.340811,-262.612045,-1.26315,70.876815
13.377,-0.00129,0.004578,-0.002998,0.000319,-0.001078,-0.00024,-0.002234,-0.505559,-0.002691,-1.265798,-262.61204,-1.234717,70.876825
13.397,-0.00077,0.004185,-0.002313,0.000583,-0.001028,0.000373,-0.00277,-0.505431,-0.002972,-1.265798,-262.61204,-1.234717,70.876825
13.4171,-0.000866,0.004646,-0.000696,0.000786,-0.000985,0.000816,-0.00277,-0.505431,-0.002972,-1.265798,-262.61204,-1.234717,70.876825
13.4368,-0.00126,0.004122,-0.000815,0.000942,-0.000949,0.001135,-0.001208,-0.505397,-0.000706,-1.315992,-262.611555,-1.240687,70.877202
13.4569,-0.001141,0.004272,-0.000897,0.000747,-0.000929,0.000397,-0.001399,-0.505599,-0.000752,-1.315992,-262.611555,-1.240687,70.877202
13.4777,-0.00121,0.004284,-0.001832,0.000598,-0.000918,-0.00012,-0.001599,-0.505727,-0.000897,-1.241063,-262.611555,-1.165758,70.877202
13.497,-0.000865,0.00471,-0.000497,0.000662,-0.000879,-0.0,-0.002095,-0.505717,-0.001748,-1.241063,-262.611555,-1.165758,70.877202
13.5173,-0.000981,0.004293,-0.001965,0.000709,-0.000848,8.8e-05,-0.002095,-0.505717,-0.001748,-1.241063,-262.611555,-1.165758,70.877202
13.5373,-0.000833,0.004406,-0.001485,0.000745,-0.000823,0.000154,-0.001978,-0.505716,-0.001966,-1.166174,-262.611447,-1.090869,70.877299
13.5572,-0.000904,0.004826,-0.002632,0.000706,-0.000824,0.000216,-0.001818,-0.505666,-0.001768,-1.166174,-262.611447,-1.090869,70.877299
13.5772,-0.001033,0.00457,-0.00056,0.000676,-0.000824,0.000262,-0.002246,-0.505174,-0.002631,-1.091049,-262.611429,-1.015744,70.877319
13.5971,-0.000902,0.004615,-0.002729,0.000537,-0.000863,-0.000208,-0.0014,-0.505407,-0.000742,-1.091049,-262.611429,-1.015744,70.877319
13.6169,-0.000971,0.00459,-0.001063,0.00043,-0.000896,-0.000538,-0.0014,-0.505407,-0.000742,-1.091049,-262.611429,-1.015744,70.877319
13.6373,-0.00072,0.004314,-0.002032,0.000348,-0.000925,-0.000771,-0.001509,-0.505417,-0.001062,-1.016072,-262.611355,-0.969426,70.877412
13.6573,-0.000605,0.004588,-0.003053,0.000347,-0.000935,-0.000572,-0.001612,-0.50553,-0.00147,-1.016072,-262.611355,-0.969426,70.877412
13.677,-0.001016,0.00426,-0.00109,0.000344,-0.000942,-0.000429,-0.002159,-0.505415,-0.003057,-1.091448,-262.611241,-0.916633,70.877457
13.6976,-0.000955,0.004246,-0.001539,0.000348,-0.000915,-0.000427,-0.001622,-0.505712,-0.001259,-1.091448,-262.611241,-0.916633,70.877457
13.7178,-0.001001,0.004529,-0.001347,0.000351,-0.000895,-0.000426,-0.001622,-0.505712,-0.001259,-1.091448,-262.611241,-0.916633,70.877457
13.7371,-0.000774,0.004258,-0.000218,0.000351,-0.000879,-0.000424,-0.001682,-0.505482,-0.001353,-1.166119,-262.61109,-0.991303,70.877549
13.7574,-0.000927,0.004378,-0.000229,0.000281,-0.000889,-0.000604,-0.001358,-0.505589,-0.000892,-1.166119,-262.61109,-0.991303,70.877549
13.7772,-0.00109,0.00414,-0.003491,0.000226,-0.000899,-0.000732,-0.001034,-0.505644,-0.000239,-1.241072,-262.610717,-1.055247,70.877772
13.7973,-0.000675,0.00418,-0.002754,0.000527,-0.000829,9.5e-05,-0.002706,-0.505839,-0.003201,-1.241072,-262.610717,-1.055247,70.877772
13.8176,-0.00086,0.004386,-0.001428,0.000756,-0.000771,0.000696,-0.002706,-0.505839,-0.003201,-1.241072,-262.610717,-1.055247,70.877772
13.8375,-0.000559,0.004515,0.001102,0.000929,-0.000722,0.00113,-0.001581,-0.505637,-0.001447,-1.316002,-262.610376,-1.106847,70.877899
13.8577,-0.000455,0.00455,-0.001603,0.000623,-0.000754,0.000221,-0.000939,-0.505578,-0.000417,-1.316002,-262.610376,-1.106847,70.877899
13.8768,-0.000877,0.004416,-0.002363,0.000387,-0.000787,-0.000419,-0.001272,-0.50545,-0.001603,-1.24101,-262.610376,-1.031856,70.877899
13.8969,-0.001092,0.004121,-0.003659,0.000476,-0.000809,9e-06,-0.002008,-0.505571,-0.002294,-1.24101,-262.610376,-1.031856,70.877899
13.9173,-0.000751,0.00435,-0.001987,0.000542,-0.000824,0.000318,-0.002008,-0.505571,-0.002294,-1.24101,-262.610376,-1.031856,70.877899
13.937,-0.000775,0.004574,-0.002511,0.000592,-0.000833,0.000541,-0.001751,-0.505678,-0.002002,-1.215714,-262.60999,-0.956875,70.878127
13.9572,-0.000736,0.004262,-0.001906,0.000598,-0.000843,0.000672,-0.001873,-0.505578,-0.002211,-1.215714,-262.60999,-0.956875,70.878127
13.9771,-0.000573,0.004406,-0.001094,0.000603,-0.00085,0.000766,-0.001708,-0.505738,-0.001906,-1.140697,-262.609987,-1.031892,70.878132
13.9975,-0.000867,0.004499,-0.001196,0.000433,-0.000861,0.000369,-0.001182,-0.505606,-0.001166,-1.140697,-262.609987,-1.031892,70.878132
14.0171,-0.000782,0.004077,-0.00253,0.000303,-0.000874,9e-05,-0.001182,-0.505606,-0.001166,-1.140697,-262.609987,-1.031892,70.878132
14.0369,-0.000755,0.004409,-0.001436,0.000203,-0.000886,-0.000106,-0.002072,-0.505922,-0.00253,-1.065695,-262.609986,-1.106894,70.878133
14.0581,-0.000796,0.004041,-0.001611,0.000301,-0.000856,0.000165,-0.001836,-0.505788,-0.002088,-1.065695,-262.609986,-1.106894,70.878133
14.0771,-0.000594,0.00455,-0.002833,0.000374,-0.000831,0.000359,-0.001617,-0.505961,-0.001611,-1.1407,-262.609943,-1.181899,70.878171
14.0975,-0.000948,0.004386,-0.001638,0.00046,-0.000855,0.000736,-0.002,-0.505495,-0.002722,-1.1407,-262.609943,-1.181899,70.878171
14.1169,-0.000449,0.004195,-0.002129,0.000525,-0.000871,0.001005,-0.002,-0.505495,-0.002722,-1.1407,-262.609943,-1.181899,70.878171
14.1372,-0.001109,0.004169,-0.003825,0.000574,-0.000882,0.001198,-0.001524,-0.505831,-0.002118,-1.065719,-262.609722,-1.228948,70.878515
14.157,-0.000941,0.004479,-0.001056,0.000664,-0.000829,0.001368,-0.00215,-0.505833,-0.002814,-1.065719,-262.609722,-1.228948,70.878515
14.1771,-0.000547,0.004352,-0.002837,0.000731,-0.000787,0.001489,-0.00148,-0.505521,-0.001056,-0.990613,-262.609722,-1.228889,70.878515
14.1973,-0.000734,0.004351,-0.003042,0.000725,-0.000792,0.001528,-0.001949,-0.505635,-0.00268,-0.990613,-262.609722,-1.228889,70.878515
14.2175,-0.000534,0.004183,-0.003589,0.00072,-0.000796,0.001555,-0.001949,-0.505635,-0.00268,-0.990613,-262.609722,-1.228889,70.878515
14.2373,-0.000208,0.003872,5e-05,0.000716,-0.000799,0.001574,-0.002364,-0.505814,-0.003589,-0.915655,-262.609722,-1.163726,70.878515
14.2572,-0.00076,0.004475,-0.000481,0.000611,-0.000764,0.001381,-0.001493,-0.505939,-0.002136,-0.915655,-262.609722,-1.163726,70.878515
14.2768,-0.000756,0.004131,-0.002359,0.00053,-0.000739,0.001245,-0.001005,-0.505525,-0.000481,-0.840727,-262.609722,-1.184331,70.878515
14.297,-0.000718,0.004117,-0.002258,0.000556,-0.00072,0.001165,-0.001875,-0.505837,-0.002193,-0.840727,-262.609722,-1.184331,70.878515
14.317,-0.000619,0.004096,-0.002609,0.000576,-0.000706,0.001109,-0.001875,-0.505837,-0.002193,-0.840727,-262.609722,-1.184331,70.878515
14.337,-0.000881,0.004261,-0.002585,0.000591,-0.000696,0.00107,-0.001949,-0.505902,-0.002609,-0.765671,-262.609722,-1.231042,70.878515
14.357,-0.000824,0.004128,-0.002979,0.000649,-0.000684,0.001201,-0.002051,-0.505836,-0.002599,-0.765671,-262.609722,-1.231042,70.878515
14.3767,-0.00102,0.004187,-0.002094,0.000693,-0.000674,0.001294,-0.002344,-0.50587,-0.002979,-0.69064,-262.609722,-1.157786,70.878515
14.3974,-0.000716,0.004486,-0.003054,0.000733,-0.00066,0.001189,-0.002111,-0.505817,-0.002173,-0.69064,-262.609722,-1.157786,70.878515
14.417,-0.001149,0.004162,-0.00081,0.000764,-0.00065,0.001116,-0.002111,-0.505817,-0.002173,-0.69064,-262.609722,-1.157786,70.878515
14.4368,-0.000666,0.004291,-0.001923,0.000789,-0.000643,0.001065,-0.001562,-0.505838,-0.00081,-0.615724,-262.609722,-1.128771,70.878516
14.4569,-0.000312,0.004148,-0.003105,0.000679,-0.000654,0.000619,-0.001596,-0.505785,-0.001263,-0.615724,-262.609722,-1.128771,70.878516
14.4768,-0.000951,0.004494,-0.00114,0.000596,-0.000667,0.000307,-0.001895,-0.505849,-0.003104,-0.540725,-262.609721,-1.053772,70.878516
14.4974,-0.000738,0.004382,-0.002086,0.000515,-0.000718,0.000103,-0.00156,-0.505532,-0.001291,-0.540725,-262.609721,-1.053772,70.878516
14.517,-0.00103,0.004513,-0.001127,0.000454,-0.000761,-4e-05,-0.00156,-0.505532,-0.001291,-0.540725,-262.609721,-1.053772,70.878516
14.5375,-0.000971,0.004059,-0.002379,0.000407,-0.000796,-0.00014,-0.001588,-0.505504,-0.001118,-0.616112,-262.609523,-0.978385,70.878787
14.5576,-0.000715,0.004548,-0.001977,0.000447,-0.000794,-4.4e-05,-0.001839,-0.50569,-0.00165,-0.616112,-262.609523,-0.978385,70.878787
14.5774,-0.000606,0.004365,-0.000101,0.000477,-0.000793,2.5e-05,-0.001723,-0.505451,-0.001977,-0.691284,-262.609519,-1.050537,70.87879
14.5976,-0.000651,0.004301,-0.000966,0.000226,-0.000813,-0.00062,-0.000754,-0.505619,-0.00027,-0.691284,-262.609519,-1.050537,70.87879
14.617,-0.000654,0.003966,-0.001049,3.2e-05,-0.000835,-0.001078,-0.000754,-0.505619,-0.00027,-0.691284,-262.609519,-1.050537,70.87879
14.6371,-0.000825,0.004315,-0.000734,-0.000117,-0.000856,-0.001402,-0.001185,-0.506039,-0.001048,-0.765726,-262.609457,-1.037736,70.878854
14.6571,-0.000855,0.004013,-0.000814,-0.000111,-0.000833,-0.001287,-0.001191,-0.505892,-0.000917,-0.765726,-262.609457,-1.037736,70.878854
14.6772,-0.000585,0.004348,-0.002054,-0.000109,-0.000815,-0.001204,-0.00127,-0.505987,-0.000814,-0.841028,-262.609457,-0.962433,70.878854
14.6972,-0.000705,0.004333,-0.000128,-2e-06,-0.000833,-0.000675,-0.001603,-0.505679,-0.001952,-0.841028,-262.609457,-0.962433,70.878854
14.7173,-0.000419,0.004447,-0.001492,7.7e-05,-0.000844,-0.000295,-0.001603,-0.505679,-0.001952,-0.841028,-262.609457,-0.962433,70.878854
