mach0312/omni-docking-bench/src/icros_test_setup/results/MPPI_sample/timeseries/trial_126.csv
t,x,y,yaw,vx,vy,wz,bl_x,bl_y,bl_yaw,front_steering_joint,front_wheel_joint,rear_steering_joint,rear_wheel_joint
0.0,-0.068264,-0.022765,0.087807,0.001206,-0.000156,0.000448,-0.025945,-0.530817,0.085216,0.097068,-260.219289,-0.342388,69.677905
0.0004,-0.068659,-0.02323,0.086424,8e-06,-1e-06,3e-06,-0.026882,-0.53082,0.0836,0.097068,-260.216753,-0.342388,69.680585
0.0008,-0.068881,-0.022996,0.085949,0.0,0.0,0.0,-0.026882,-0.53082,0.0836,0.097068,-260.214961,-0.342388,69.682478
0.001,-0.068584,-0.022625,0.084743,0.0,0.0,0.0,-0.024928,-0.530957,0.086518,0.097068,-260.214476,-0.342388,69.682991
0.0013,-0.06871,-0.022446,0.086547,0.0,0.0,0.0,-0.024928,-0.530957,0.086518,0.097068,-260.214476,-0.342388,69.682991
0.0016,-0.068732,-0.022897,0.084863,0.0,0.0,0.0,-0.024928,-0.530957,0.086518,0.097068,-260.214476,-0.342388,69.682991
0.0019,-0.068673,-0.022853,0.084349,0.0,0.0,0.0,-0.02549,-0.530977,0.085218,0.097068,-260.214476,-0.342388,69.682991
0.0021,-0.068708,-0.02307,0.085255,0.0,0.0,0.0,-0.025113,-0.530971,0.086148,0.097068,-260.214476,-0.342388,69.682991
0.0024,-0.068806,-0.022812,0.087028,0.0,0.0,0.0,-0.025113,-0.530971,0.086148,0.097068,-260.214476,-0.342388,69.682991
0.016,-0.068465,-0.022792,0.084651,0.0,0.0,0.0,-0.024478,-0.530882,0.087028,0.097068,-260.214476,-0.342388,69.682991
0.0361,-0.06885,-0.022675,0.086036,0.0,0.0,0.0,-0.0253,-0.530962,0.084773,0.097068,-260.214476,-0.342388,69.682991
0.056,-0.068561,-0.022773,0.08526,0.0,0.0,0.0,-0.0253,-0.530962,0.084773,0.097068,-260.214476,-0.342388,69.682991
0.076,-0.069293,-0.023026,0.085603,0.0,0.0,0.0,-0.025131,-0.53092,0.08526,0.097068,-260.214476,-0.342388,69.682991
0.096,-0.068614,-0.022286,0.085997,0.0,0.0,0.0,-0.02536,-0.531018,0.085401,0.097068,-260.214476,-0.342388,69.682991
0.1158,-0.068508,-0.022984,0.087176,0.000843,-0.000782,-0.006346,-0.024809,-0.530401,0.085997,0.097068,-260.214476,-0.342388,69.682991
0.1362,-0.068434,-0.022504,0.084326,0.000915,-0.000827,-0.006817,-0.024167,-0.53099,0.087071,0.097068,-260.214476,-0.342388,69.682991
0.1559,-0.068402,-0.022578,0.084821,0.000977,-0.000865,-0.007195,-0.024167,-0.53099,0.087071,0.097068,-260.214476,-0.342388,69.682991
0.176,-0.068639,-0.022489,0.085223,0.00103,-0.000897,-0.007497,-0.025195,-0.530745,0.084821,0.022121,-260.214476,-0.267441,69.682991
0.1965,-0.068674,-0.0228,0.088252,0.001095,-0.000948,-0.007792,-0.025209,-0.5307,0.08499,0.022121,-260.214476,-0.267441,69.682991
0.2161,-0.06853,-0.02281,0.085434,0.00115,-0.000992,-0.008027,-0.023723,-0.530815,0.088252,-0.05317,-260.214476,-0.192151,69.682991
0.236,-0.068431,-0.022958,0.085395,0.001191,-0.00102,-0.008214,-0.024909,-0.530939,0.085659,-0.05317,-260.214476,-0.192151,69.682991
0.2561,-0.068798,-0.0224,0.084444,0.001227,-0.001045,-0.008364,-0.024909,-0.530939,0.085659,-0.05317,-260.214476,-0.192151,69.682991
0.2762,-0.068635,-0.02273,0.084974,0.001258,-0.001066,-0.008484,-0.025783,-0.530583,0.084444,-0.128173,-260.214476,-0.117148,69.682991
0.2963,-0.068725,-0.022996,0.086409,0.001298,-0.001101,-0.008584,-0.025607,-0.530707,0.084659,-0.128173,-260.214476,-0.117148,69.682991
0.3161,-0.068966,-0.022871,0.083802,0.001332,-0.001131,-0.008665,-0.024711,-0.531094,0.086409,-0.20284,-260.214476,-0.042481,69.682991
0.3361,-0.068728,-0.022539,0.084628,0.001362,-0.001156,-0.008729,-0.026129,-0.531082,0.084048,-0.20284,-260.214476,-0.042481,69.682991
0.3562,-0.068482,-0.022873,0.085363,0.001387,-0.001178,-0.00878,-0.026129,-0.531082,0.084048,-0.20284,-260.214476,-0.042481,69.682991
0.3766,-0.068484,-0.023102,0.087219,0.001409,-0.001197,-0.008821,-0.024999,-0.531016,0.085363,-0.277844,-260.214476,0.032523,69.682991
0.3964,-0.0688,-0.022757,0.085049,0.001409,-0.001188,-0.008848,-0.024602,-0.531078,0.086147,-0.277844,-260.214476,0.032523,69.682991
0.4159,-0.068432,-0.022661,0.085409,0.001409,-0.001181,-0.00887,-0.025477,-0.530914,0.085049,-0.35327,-260.214476,0.107949,69.682991
0.4361,-0.068507,-0.02271,0.08585,0.001419,-0.001188,-0.008892,-0.024968,-0.530811,0.085382,-0.35327,-260.214476,0.107949,69.682991
0.4561,-0.068224,-0.022985,0.085317,0.001428,-0.001193,-0.008909,-0.024968,-0.530811,0.085382,-0.35327,-260.214476,0.107949,69.682991
0.4771,-0.068488,-0.023332,0.085975,0.001435,-0.001198,-0.008924,-0.024765,-0.53113,0.085317,-0.428228,-260.214476,0.182907,69.682991
0.4959,-0.068481,-0.022758,0.085625,0.001432,-0.001189,-0.008932,-0.024737,-0.531257,0.085579,-0.428228,-260.214476,0.182907,69.682991
0.5159,-0.068233,-0.02286,0.085435,0.00143,-0.001182,-0.00894,-0.024866,-0.53089,0.085625,-0.502835,-260.214476,0.257514,69.682991
0.5358,-0.068654,-0.022676,0.086654,0.001432,-0.001182,-0.008948,-0.024728,-0.53099,0.085452,-0.502835,-260.214476,0.257514,69.682991
0.5557,-0.068472,-0.022856,0.084019,0.001434,-0.001182,-0.008955,-0.024728,-0.53099,0.085452,-0.502835,-260.214476,0.257514,69.682991
0.576,-0.068911,-0.022837,0.085287,0.001437,-0.001182,-0.008961,-0.025673,-0.531057,0.084019,-0.577883,-260.214476,0.332562,69.682991
0.5958,-0.06868,-0.022727,0.085576,0.001449,-0.001196,-0.008969,-0.025586,-0.531026,0.084553,-0.577883,-260.214476,0.332562,69.682991
0.6156,-0.068209,-0.022988,0.085735,0.001459,-0.001207,-0.008976,-0.02509,-0.530861,0.085576,-0.653246,-260.214476,0.407925,69.682991
0.636,-0.069092,-0.022919,0.085313,0.001454,-0.001199,-0.008976,-0.024585,-0.531093,0.085721,-0.653246,-260.214476,0.407925,69.682991
0.6559,-0.068375,-0.022885,0.085704,0.00145,-0.001192,-0.008977,-0.024585,-0.531093,0.085721,-0.653246,-260.214476,0.407925,69.682991
0.6761,-0.06882,-0.022778,0.085594,0.001447,-0.001187,-0.008978,-0.024719,-0.531013,0.085704,-0.727908,-260.214476,0.482588,69.682991
0.6963,-0.068676,-0.022738,0.085187,0.001451,-0.001191,-0.008981,-0.024924,-0.530971,0.085659,-0.727908,-260.214476,0.482588,69.682991
0.7161,-0.068771,-0.022742,0.084738,0.001454,-0.001194,-0.008984,-0.025283,-0.530889,0.085187,-0.802827,-260.214476,0.557506,69.682991
0.7359,-0.068551,-0.023201,0.083986,0.001466,-0.001209,-0.008989,-0.025578,-0.53091,0.084778,-0.802827,-260.214476,0.557506,69.682991
0.7561,-0.068721,-0.022646,0.085891,0.001476,-0.001222,-0.008993,-0.025578,-0.53091,0.084778,-0.802827,-260.214476,0.557506,69.682991
0.7758,-0.068756,-0.02296,0.087039,0.001484,-0.001232,-0.008995,-0.024971,-0.530766,0.085891,-0.87793,-260.214476,0.63261,69.682991
0.7961,-0.068743,-0.02283,0.086175,0.001481,-0.001228,-0.008994,-0.024748,-0.530873,0.086358,-0.87793,-260.214476,0.63261,69.682991
0.816,-0.068465,-0.023094,0.086042,0.001479,-0.001225,-0.008993,-0.024848,-0.530938,0.086175,-0.952871,-260.214476,0.70755,69.682991
0.8363,-0.068642,-0.022577,0.08566,0.001471,-0.001214,-0.00899,-0.024657,-0.531183,0.086054,-0.952871,-260.214476,0.70755,69.682991
0.8562,-0.068712,-0.022291,0.084779,0.001464,-0.001205,-0.008989,-0.024657,-0.531183,0.086054,-0.952871,-260.214476,0.70755,69.682991
0.8761,-0.068474,-0.022793,0.085438,0.001459,-0.001197,-0.008988,-0.025526,-0.530459,0.084779,-1.027837,-260.214474,0.782516,69.682992
0.8961,-0.068671,-0.022759,0.084389,0.001471,-0.001213,-0.008993,-0.025294,-0.530651,0.085046,-1.027837,-260.214474,0.782516,69.682992
0.9157,-0.068447,-0.022895,0.085543,0.001481,-0.001226,-0.008996,-0.025683,-0.530944,0.084388,-1.102834,-260.21446,0.857513,69.683001
0.9358,-0.068468,-0.022933,0.086191,0.001478,-0.001223,-0.008995,-0.024942,-0.531022,0.085444,-1.102834,-260.21446,0.857513,69.683001
0.9559,-0.068196,-0.022939,0.08563,0.001477,-0.00122,-0.008995,-0.024942,-0.531022,0.085444,-1.102834,-260.21446,0.857513,69.683001
0.9758,-0.06839,-0.022557,0.086295,0.001475,-0.001218,-0.008994,-0.024575,-0.531072,0.085618,-1.177973,-260.214366,0.932653,69.683062
0.9959,-0.06854,-0.022582,0.083083,0.00147,-0.001211,-0.008993,-0.024517,-0.530905,0.085892,-1.177973,-260.214366,0.932653,69.683062
1.0159,-0.06863,-0.022713,0.084985,0.001466,-0.001206,-0.008992,-0.026206,-0.530827,0.083047,-1.252844,-260.214003,1.007523,69.683302
1.0357,-0.068608,-0.022822,0.085046,0.001475,-0.001218,-0.008995,-0.025417,-0.530868,0.084809,-1.252844,-260.214003,1.007523,69.683302
1.0558,-0.068528,-0.02308,0.085521,0.001482,-0.001227,-0.008998,-0.025417,-0.530868,0.084809,-1.252844,-260.214003,1.007523,69.683302
1.0762,-0.068368,-0.022805,0.084767,0.001488,-0.001235,-0.008999,-0.024936,-0.531233,0.085393,-1.327843,-260.213042,1.082522,69.683936
1.0965,-0.068819,-0.022687,0.084162,0.001484,-0.001229,-0.008997,-0.025036,-0.531129,0.085122,-1.327843,-260.213042,1.082522,69.683936
1.1161,-0.068095,-0.023138,0.08491,0.001481,-0.001225,-0.008996,-0.025909,-0.530907,0.083968,-1.353192,-260.211162,1.157505,69.685167
1.136,-0.068245,-0.023003,0.084677,0.001475,-0.001216,-0.00904,-0.024937,-0.531266,0.084816,-1.353192,-260.211162,1.157505,69.685167
1.1562,-0.068222,-0.023262,0.083966,0.001469,-0.001209,-0.009077,-0.024937,-0.531266,0.084816,-1.353192,-260.211162,1.157505,69.685167
1.1757,-0.068155,-0.022847,0.086364,0.001465,-0.001204,-0.009106,-0.025389,-0.531507,0.083625,-1.353864,-260.208675,1.232509,69.686801
1.1963,-0.06835,-0.022907,0.08426,0.001461,-0.001198,-0.009161,-0.024886,-0.531284,0.084697,-1.353864,-260.208675,1.232509,69.686801
1.2157,-0.067748,-0.02255,0.084081,0.001457,-0.001193,-0.009206,-0.025378,-0.531132,0.083968,-1.357508,-260.205915,1.246435,69.688634
1.2362,-0.067702,-0.023032,0.08493,0.001462,-0.0012,-0.009277,-0.024958,-0.530786,0.084055,-1.357508,-260.205915,1.246435,69.688634
1.2563,-0.067743,-0.022789,0.082482,0.001467,-0.001206,-0.009334,-0.024958,-0.530786,0.084055,-1.357508,-260.205915,1.246435,69.688634
1.2762,-0.067345,-0.022847,0.083501,0.00147,-0.001211,-0.009381,-0.02566,-0.5311,0.082097,-1.360174,-260.203122,1.253001,69.690503
1.2959,-0.066815,-0.02292,0.08466,0.001472,-0.001213,-0.009447,-0.025303,-0.531093,0.082629,-1.360174,-260.203122,1.253001,69.690503
1.316,-0.067149,-0.023077,0.083361,0.001473,-0.001216,-0.009501,-0.023641,-0.531128,0.084363,-1.362048,-260.200286,1.256233,69.692402
1.336,-0.066904,-0.023276,0.083519,0.001462,-0.001202,-0.00957,-0.024594,-0.531293,0.083431,-1.362048,-260.200286,1.256233,69.692402
1.3563,-0.067212,-0.022963,0.083673,0.001453,-0.00119,-0.009628,-0.024594,-0.531293,0.083431,-1.362048,-260.200286,1.256233,69.692402
1.3761,-0.066814,-0.023214,0.083757,0.001445,-0.001181,-0.009675,-0.024524,-0.531225,0.083275,-1.363891,-260.197425,1.260028,69.694324
1.3964,-0.066412,-0.022987,0.083118,0.001436,-0.001169,-0.009741,-0.024364,-0.531312,0.083425,-1.363891,-260.197425,1.260028,69.694324
1.416,-0.066792,-0.02288,0.081467,0.001428,-0.001159,-0.009796,-0.024022,-0.53126,0.082811,-1.369697,-260.194541,1.274106,69.696295
1.436,-0.066426,-0.022999,0.081708,0.001432,-0.001166,-0.009871,-0.025172,-0.531196,0.081573,-1.369697,-260.194541,1.274106,69.696295
1.4561,-0.066836,-0.023352,0.083516,0.001436,-0.001171,-0.009932,-0.025172,-0.531196,0.081573,-1.369697,-260.194541,1.274106,69.696295
1.4762,-0.065891,-0.023075,0.082842,0.001439,-0.001176,-0.009982,-0.024228,-0.531618,0.083107,-1.373501,-260.191632,1.283015,69.698304
1.496,-0.066117,-0.023082,0.081671,0.001421,-0.001153,-0.01004,-0.024001,-0.531504,0.082952,-1.373501,-260.191632,1.283015,69.698304
1.5158,-0.065879,-0.023496,0.08186,0.001406,-0.001135,-0.01009,-0.024462,-0.531416,0.081353,-1.375435,-260.188668,1.286297,69.700354
1.5359,-0.065679,-0.02293,0.081364,0.001391,-0.001117,-0.010154,-0.0242,-0.531757,0.081798,-1.375435,-260.188668,1.286297,69.700354
1.5562,-0.065573,-0.023248,0.080854,0.001379,-0.001102,-0.010207,-0.0242,-0.531757,0.081798,-1.375435,-260.188668,1.286297,69.700354
1.5765,-0.065502,-0.022826,0.081664,0.001369,-0.00109,-0.010251,-0.02432,-0.531624,0.080434,-1.380466,-260.185703,1.298087,69.702436
1.5962,-0.065325,-0.023015,0.081095,0.001364,-0.001084,-0.010307,-0.024142,-0.531426,0.080886,-1.380466,-260.185703,1.298087,69.702436
1.6164,-0.065095,-0.023133,0.07921,0.00136,-0.00108,-0.010354,-0.023965,-0.53137,0.080769,-1.386716,-260.182723,1.312072,69.704568
1.636,-0.065261,-0.023349,0.080665,0.001362,-0.001083,-0.010404,-0.024667,-0.531521,0.079334,-1.386716,-260.182723,1.312072,69.704568
1.6569,-0.065357,-0.023669,0.079457,0.001364,-0.001085,-0.010445,-0.024667,-0.531521,0.079334,-1.386716,-260.182723,1.312072,69.704568
1.6761,-0.064643,-0.022931,0.080705,0.001365,-0.001087,-0.010479,-0.024817,-0.5321,0.079024,-1.389094,-260.179709,1.31698,69.706738
1.6962,-0.064748,-0.023354,0.079337,0.001357,-0.001077,-0.010509,-0.024277,-0.531762,0.079668,-1.389094,-260.179709,1.31698,69.706738
1.716,-0.0643,-0.023143,0.079765,0.00135,-0.001069,-0.010534,-0.024282,-0.53178,0.079005,-1.390461,-260.17667,1.319316,69.708928
1.7361,-0.06437,-0.023369,0.07998,0.00134,-0.001057,-0.010557,-0.023716,-0.531546,0.07968,-1.390461,-260.17667,1.319316,69.708928
1.756,-0.064476,-0.023346,0.07931,0.001331,-0.001047,-0.010576,-0.023716,-0.531546,0.07968,-1.390461,-260.17667,1.319316,69.708928
1.7761,-0.064024,-0.023389,0.079475,0.001324,-0.001039,-0.010592,-0.02401,-0.531783,0.07887,-1.392763,-260.173622,1.324225,69.711139
1.7961,-0.06445,-0.023423,0.077488,0.001316,-0.001029,-0.010608,-0.023808,-0.531786,0.079068,-1.392763,-260.173622,1.324225,69.711139
1.816,-0.063715,-0.023283,0.078336,0.001309,-0.00102,-0.010622,-0.024927,-0.531922,0.077151,-1.396205,-260.170542,1.331576,69.713397
1.836,-0.063619,-0.023226,0.0787,0.001305,-0.001015,-0.010637,-0.02388,-0.531734,0.078242,-1.396205,-260.170542,1.331576,69.713397
1.8568,-0.063961,-0.022932,0.079009,0.001301,-0.001011,-0.01065,-0.02388,-0.531734,0.078242,-1.396205,-260.170542,1.331576,69.713397
1.8763,-0.063326,-0.023472,0.078176,0.001298,-0.001008,-0.01066,-0.023651,-0.531378,0.078568,-1.398191,-260.167529,1.335793,69.71562
1.8963,-0.063305,-0.02351,0.075835,0.001294,-0.001002,-0.010671,-0.023583,-0.531597,0.078361,-1.398191,-260.167529,1.335793,69.71562
1.9161,-0.06315,-0.02307,0.077373,0.00129,-0.000998,-0.010681,-0.024623,-0.532073,0.075495,-1.399791,-260.164477,1.339101,69.717881
1.9362,-0.063171,-0.023506,0.078997,0.00129,-0.000997,-0.010692,-0.023808,-0.531594,0.077186,-1.399791,-260.164477,1.339101,69.717881
1.9562,-0.062879,-0.023259,0.078054,0.00129,-0.000997,-0.010701,-0.023808,-0.531594,0.077186,-1.399791,-260.164477,1.339101,69.717881
1.9762,-0.062629,-0.02329,0.076656,0.001289,-0.000997,-0.010708,-0.023055,-0.531744,0.077607,-1.400903,-260.161421,1.3414,69.720154
1.9963,-0.062751,-0.023428,0.076906,0.001278,-0.000983,-0.010713,-0.023262,-0.531768,0.077163,-1.400903,-260.161421,1.3414,69.720154
2.0163,-0.06278,-0.023028,0.0751,0.001269,-0.000972,-0.010718,-0.023524,-0.531949,0.076566,-1.401355,-260.158367,1.342247,69.722427
2.0362,-0.062405,-0.023553,0.076819,0.00128,-0.000985,-0.01073,-0.024424,-0.531624,0.075214,-1.401355,-260.158367,1.342247,69.722427
2.0564,-0.062336,-0.023349,0.076216,0.001289,-0.000996,-0.01074,-0.024424,-0.531624,0.075214,-1.401355,-260.158367,1.342247,69.722427
2.0762,-0.062061,-0.023093,0.07608,0.001296,-0.001005,-0.010747,-0.023447,-0.531905,0.075767,-1.403633,-260.155318,1.347003,69.724713
2.0963,-0.061795,-0.023513,0.07491,0.001284,-0.000991,-0.010748,-0.02338,-0.531792,0.075843,-1.403633,-260.155318,1.347003,69.724713
2.1158,-0.061709,-0.02369,0.075499,0.001274,-0.000979,-0.01075,-0.023583,-0.532111,0.074568,-1.401208,-260.152243,1.341739,69.726998
2.1359,-0.0614,-0.023637,0.07401,0.001257,-0.000959,-0.010751,-0.023269,-0.532228,0.075402,-1.401208,-260.152243,1.341739,69.726998
2.156,-0.061556,-0.023383,0.07535,0.001243,-0.000942,-0.010753,-0.023269,-0.532228,0.075402,-1.401208,-260.152243,1.341739,69.726998
2.1758,-0.061247,-0.023357,0.074713,0.001231,-0.000929,-0.010755,-0.023108,-0.531973,0.0749,-1.403514,-260.149189,1.346583,69.729286
2.196,-0.06131,-0.023487,0.074398,0.001224,-0.000919,-0.010759,-0.02313,-0.531962,0.074773,-1.403514,-260.149189,1.346583,69.729286
2.2167,-0.061033,-0.023114,0.072334,0.001217,-0.000912,-0.010762,-0.023361,-0.532103,0.074056,-1.408016,-260.146155,1.355849,69.731591
2.2361,-0.061094,-0.02322,0.074558,0.001228,-0.000924,-0.010771,-0.02408,-0.531819,0.072507,-1.408016,-260.146155,1.355849,69.731591
2.2562,-0.060828,-0.023712,0.073637,0.001236,-0.000933,-0.010778,-0.02408,-0.531819,0.072507,-1.408016,-260.146155,1.355849,69.731591
2.276,-0.06065,-0.023564,0.073471,0.001243,-0.000941,-0.010783,-0.023254,-0.532365,0.073185,-1.409574,-260.143123,1.358999,69.733906
2.2959,-0.060702,-0.023393,0.074464,0.001229,-0.000925,-0.010781,-0.023231,-0.532297,0.073249,-1.409574,-260.143123,1.358999,69.733906
2.3156,-0.060406,-0.023241,0.072411,0.001218,-0.000912,-0.01078,-0.022719,-0.532007,0.074119,-1.407126,-260.140073,1.35403,69.736217
2.3359,-0.060273,-0.023976,0.072491,0.001217,-0.000911,-0.010784,-0.023435,-0.531916,0.072548,-1.407126,-260.140073,1.35403,69.736217
2.3559,-0.060366,-0.023413,0.073449,0.001217,-0.000911,-0.010786,-0.023435,-0.531916,0.072548,-1.407126,-260.140073,1.35403,69.736217
2.3758,-0.059708,-0.023846,0.072006,0.001217,-0.00091,-0.010789,-0.022888,-0.532073,0.072998,-1.409753,-260.137037,1.35933,69.738536
2.396,-0.060188,-0.023578,0.072728,0.001203,-0.000894,-0.010787,-0.022934,-0.532261,0.07254,-1.409753,-260.137037,1.35933,69.738536
2.4161,-0.059809,-0.023771,0.071825,0.001192,-0.000881,-0.010786,-0.023088,-0.532256,0.072384,-1.409931,-260.133998,1.359699,69.74086
2.4361,-0.059494,-0.02345,0.072116,0.001183,-0.000871,-0.010787,-0.023196,-0.53244,0.071858,-1.409931,-260.133998,1.359699,69.74086
2.456,-0.059458,-0.023371,0.070919,0.001176,-0.000863,-0.010788,-0.023196,-0.53244,0.071858,-1.409931,-260.133998,1.359699,69.74086
2.4761,-0.059493,-0.023456,0.071198,0.001171,-0.000857,-0.010789,-0.023267,-0.532122,0.070468,-1.412578,-260.13097,1.364924,69.743193
2.4962,-0.059419,-0.023999,0.071731,0.001171,-0.000856,-0.010792,-0.023239,-0.532143,0.070715,-1.412578,-260.13097,1.364924,69.743193
2.5161,-0.058803,-0.023401,0.069896,0.001171,-0.000856,-0.010794,-0.022828,-0.532712,0.071389,-1.414824,-260.12796,1.369325,69.74553
2.5358,-0.059258,-0.023888,0.071731,0.001168,-0.000853,-0.010796,-0.023147,-0.532213,0.070027,-1.414824,-260.12796,1.369325,69.74553
2.556,-0.058987,-0.023428,0.070087,0.001166,-0.00085,-0.010797,-0.023147,-0.532213,0.070027,-1.414824,-260.12796,1.369325,69.74553
2.576,-0.058915,-0.023644,0.070097,0.001164,-0.000847,-0.010798,-0.02322,-0.532208,0.069635,-1.414858,-260.124943,1.369412,69.747872
2.5961,-0.058747,-0.023698,0.070334,0.001161,-0.000845,-0.010799,-0.023204,-0.532287,0.069773,-1.414858,-260.124943,1.369412,69.747872
2.6158,-0.058536,-0.023405,0.069012,0.00116,-0.000843,-0.0108,-0.022867,-0.532462,0.069991,-1.415707,-260.121925,1.371059,69.750222
2.636,-0.058091,-0.023648,0.070342,0.001161,-0.000844,-0.010802,-0.023324,-0.532215,0.069078,-1.415707,-260.121925,1.371059,69.750222
2.656,-0.0584,-0.023613,0.071917,0.001162,-0.000845,-0.010803,-0.023324,-0.532215,0.069078,-1.415707,-260.121925,1.371059,69.750222
2.6758,-0.05792,-0.02379,0.067754,0.001163,-0.000845,-0.010804,-0.021703,-0.532326,0.071466,-1.416147,-260.118912,1.371912,69.75257
2.6961,-0.058242,-0.023193,0.070996,0.001144,-0.000826,-0.0108,-0.022396,-0.532452,0.069877,-1.416147,-260.118912,1.371912,69.75257
2.7159,-0.057479,-0.0235,0.067406,0.00113,-0.000809,-0.010797,-0.022026,-0.531932,0.070653,-1.415881,-260.115906,1.371416,69.754913
2.736,-0.057683,-0.023842,0.068603,0.001129,-0.000808,-0.010799,-0.023027,-0.532306,0.067681,-1.415881,-260.115906,1.371416,69.754913
2.7559,-0.05768,-0.023848,0.069335,0.001128,-0.000807,-0.010801,-0.023027,-0.532306,0.067681,-1.415881,-260.115906,1.371416,69.754913
2.776,-0.057156,-0.02352,0.068165,0.001128,-0.000806,-0.010803,-0.022298,-0.532653,0.068883,-1.419371,-260.112913,1.377945,69.757268
2.796,-0.057071,-0.023804,0.068252,0.001113,-0.00079,-0.0108,-0.022341,-0.532527,0.068539,-1.419371,-260.112913,1.377945,69.757268
2.8161,-0.056975,-0.023667,0.067412,0.001101,-0.000777,-0.010798,-0.022252,-0.53264,0.067908,-1.419609,-260.109911,1.378425,69.759633
2.836,-0.056597,-0.023847,0.068424,0.001094,-0.000769,-0.010799,-0.022588,-0.532521,0.067438,-1.419609,-260.109911,1.378425,69.759633
2.8568,-0.056866,-0.02371,0.067171,0.001089,-0.000763,-0.010799,-0.022588,-0.532521,0.067438,-1.419609,-260.109911,1.378425,69.759633
2.8759,-0.056572,-0.023526,0.068235,0.001085,-0.000758,-0.0108,-0.022587,-0.532589,0.06672,-1.422546,-260.106932,1.3838,69.762
2.8962,-0.05685,-0.023724,0.067743,0.001076,-0.000748,-0.0108,-0.022258,-0.53249,0.06729,-1.422546,-260.106932,1.3838,69.762
2.9156,-0.056339,-0.023707,0.066391,0.001069,-0.00074,-0.0108,-0.022292,-0.532576,0.0674,-1.424337,-260.103959,1.387066,69.764375
2.9361,-0.05609,-0.023479,0.065854,0.001065,-0.000736,-0.010801,-0.022485,-0.532584,0.06646,-1.424337,-260.103959,1.387066,69.764375
2.9563,-0.056113,-0.024018,0.06745,0.001061,-0.000732,-0.010802,-0.022485,-0.532584,0.06646,-1.424337,-260.103959,1.387066,69.764375
2.976,-0.056071,-0.023213,0.066044,0.001059,-0.000729,-0.010803,-0.021693,-0.532886,0.066999,-1.42611,-260.100992,1.390233,69.766757
2.9962,-0.055876,-0.023919,0.065485,0.001048,-0.000717,-0.010802,-0.021984,-0.532566,0.066554,-1.42611,-260.100992,1.390233,69.766757
3.0158,-0.055551,-0.023696,0.064151,0.001039,-0.000708,-0.010801,-0.022468,-0.532847,0.065142,-1.427283,-260.098034,1.392336,69.76914
3.0365,-0.055541,-0.023422,0.065796,0.001043,-0.000712,-0.010804,-0.022821,-0.532665,0.06422,-1.427283,-260.098034,1.392336,69.76914
3.0561,-0.055871,-0.023886,0.06539,0.001047,-0.000715,-0.010807,-0.022821,-0.532665,0.06422,-1.427283,-260.098034,1.392336,69.76914
3.0764,-0.055477,-0.024169,0.064197,0.001049,-0.000717,-0.010808,-0.022501,-0.532823,0.064938,-1.429445,-260.095084,1.396099,69.771532
3.0963,-0.055299,-0.023887,0.063833,0.001043,-0.000711,-0.010807,-0.022602,-0.532947,0.064583,-1.429445,-260.095084,1.396099,69.771532
3.1162,-0.054365,-0.023786,0.063932,0.001038,-0.000705,-0.010807,-0.022731,-0.532869,0.063486,-1.428403,-260.092125,1.394331,69.773923
3.1363,-0.054891,-0.023996,0.064103,0.001024,-0.00069,-0.010804,-0.021862,-0.532756,0.063877,-1.428403,-260.092125,1.394331,69.773923
3.1559,-0.055118,-0.023827,0.06469,0.001012,-0.000678,-0.010802,-0.021862,-0.532756,0.063877,-1.428403,-260.092125,1.394331,69.773923
3.1759,-0.054683,-0.023635,0.06389,0.001003,-0.000668,-0.010801,-0.022104,-0.532787,0.064239,-1.429605,-260.089175,1.396429,69.776317
3.1963,-0.054632,-0.023627,0.062905,0.001,-0.000665,-0.010803,-0.022106,-0.532711,0.064043,-1.429605,-260.089175,1.396429,69.776317
3.2159,-0.054235,-0.023598,0.064289,0.000998,-0.000662,-0.010804,-0.022539,-0.532637,0.06256,-1.433625,-260.086244,1.403253,69.778719
3.2359,-0.054364,-0.023889,0.061784,0.000989,-0.000653,-0.010803,-0.021562,-0.532553,0.064121,-1.433625,-260.086244,1.403253,69.778719
3.256,-0.054512,-0.023511,0.064193,0.000982,-0.000645,-0.010803,-0.021562,-0.532553,0.064121,-1.433625,-260.086244,1.403253,69.778719
3.2763,-0.053924,-0.02338,0.063384,0.000976,-0.000639,-0.010803,-0.021753,-0.532486,0.063741,-1.434187,-260.083318,1.404216,69.781123
3.2963,-0.054334,-0.023973,0.062553,0.000975,-0.000638,-0.010805,-0.021694,-0.532436,0.063545,-1.434187,-260.083318,1.404216,69.781123
3.3161,-0.053537,-0.024116,0.060712,0.000975,-0.000637,-0.010806,-0.02242,-0.532994,0.06221,-1.436705,-260.080398,1.408396,69.783537
3.336,-0.053452,-0.023861,0.061026,0.000976,-0.000638,-0.010808,-0.022576,-0.533161,0.060829,-1.436705,-260.080398,1.408396,69.783537
3.3564,-0.053423,-0.023514,0.060629,0.000976,-0.000638,-0.010809,-0.022576,-0.533161,0.060829,-1.436705,-260.080398,1.408396,69.783537
3.3765,-0.053263,-0.023741,0.059935,0.000977,-0.000639,-0.01081,-0.022479,-0.532601,0.060176,-1.436914,-260.077465,1.408749,69.785964
3.3962,-0.053126,-0.023969,0.060864,0.000984,-0.000646,-0.010812,-0.022572,-0.532696,0.060024,-1.436914,-260.077465,1.408749,69.785964
3.4158,-0.053277,-0.023745,0.061768,0.00099,-0.000653,-0.010814,-0.022073,-0.533043,0.060521,-1.436692,-260.074547,1.408427,69.788377
3.4361,-0.053158,-0.023751,0.060295,0.000982,-0.000644,-0.010812,-0.021817,-0.532796,0.061646,-1.436692,-260.074547,1.408427,69.788377
3.4559,-0.052982,-0.023562,0.060113,0.000974,-0.000636,-0.01081,-0.021817,-0.532796,0.061646,-1.436692,-260.074547,1.408427,69.788377
3.476,-0.052485,-0.024131,0.06026,0.000969,-0.00063,-0.010809,-0.022301,-0.532666,0.059662,-1.435176,-260.071624,1.405923,69.790785
3.4964,-0.052898,-0.023997,0.060596,0.000966,-0.000627,-0.010809,-0.022081,-0.532887,0.059851,-1.435176,-260.071624,1.405923,69.790785
3.5165,-0.052366,-0.024079,0.061152,0.000963,-0.000624,-0.010809,-0.021981,-0.53308,0.060251,-1.437649,-260.068707,1.409987,69.793203
3.5361,-0.052661,-0.023921,0.060508,0.000943,-0.000604,-0.010805,-0.021267,-0.533122,0.061052,-1.437649,-260.068707,1.409987,69.793203
3.5565,-0.052407,-0.023968,0.059125,0.000927,-0.000588,-0.010802,-0.021267,-0.533122,0.061052,-1.437649,-260.068707,1.409987,69.793203
3.5762,-0.051956,-0.024,0.058675,0.000914,-0.000574,-0.010801,-0.022229,-0.533101,0.058666,-1.438273,-260.065791,1.411014,69.795626
3.5963,-0.051923,-0.023981,0.059793,0.000918,-0.000578,-0.010804,-0.022154,-0.533112,0.05862,-1.438273,-260.065791,1.411014,69.795626
3.6162,-0.051594,-0.023674,0.058951,0.000922,-0.000582,-0.010807,-0.021416,-0.533086,0.059451,-1.444034,-260.062887,1.420196,69.798072
3.6363,-0.051707,-0.0237,0.057733,0.000919,-0.000579,-0.010808,-0.021535,-0.532811,0.058974,-1.444034,-260.062887,1.420196,69.798072
3.6559,-0.051692,-0.023567,0.058891,0.000917,-0.000576,-0.010808,-0.021535,-0.532811,0.058974,-1.444034,-260.062887,1.420196,69.798072
3.6762,-0.051316,-0.02376,0.059609,0.000915,-0.000574,-0.010809,-0.021636,-0.532705,0.058441,-1.443123,-260.060009,1.418788,69.800493
3.6966,-0.051342,-0.024201,0.059785,0.00091,-0.00057,-0.010809,-0.021346,-0.532768,0.058863,-1.443123,-260.060009,1.418788,69.800493
3.716,-0.050934,-0.0237,0.058211,0.000907,-0.000566,-0.010809,-0.020839,-0.533307,0.059435,-1.443991,-260.057116,1.420169,69.802931
3.7365,-0.050958,-0.023893,0.057812,0.000899,-0.000558,-0.010808,-0.021223,-0.532881,0.058306,-1.443991,-260.057116,1.420169,69.802931
3.756,-0.051179,-0.024003,0.057812,0.000893,-0.000552,-0.010807,-0.021223,-0.532881,0.058306,-1.443991,-260.057116,1.420169,69.802931
3.7762,-0.050775,-0.023953,0.057555,0.000888,-0.000547,-0.010807,-0.021672,-0.533172,0.05736,-1.444956,-260.054226,1.421681,69.805372
3.7958,-0.05117,-0.023586,0.056644,0.000885,-0.000544,-0.010808,-0.021572,-0.533149,0.057387,-1.444956,-260.054226,1.421681,69.805372
3.8164,-0.050556,-0.023821,0.056181,0.000882,-0.000541,-0.010808,-0.022268,-0.532784,0.0563,-1.447217,-260.051346,1.42519,69.807819
3.836,-0.050251,-0.023688,0.057571,0.000889,-0.000547,-0.010811,-0.021948,-0.532996,0.056174,-1.447217,-260.051346,1.42519,69.807819
3.856,-0.050673,-0.023902,0.057131,0.000894,-0.000553,-0.010813,-0.021948,-0.532996,0.056174,-1.447217,-260.051346,1.42519,69.807819
3.876,-0.050242,-0.02386,0.056707,0.000899,-0.000557,-0.010815,-0.021514,-0.53309,0.056678,-1.447864,-260.048449,1.426199,69.810284
3.896,-0.050249,-0.02402,0.056737,0.000892,-0.00055,-0.010813,-0.021434,-0.533071,0.056638,-1.447864,-260.048449,1.426199,69.810284
3.916,-0.049916,-0.024166,0.056155,0.000886,-0.000545,-0.010812,-0.0213,-0.533216,0.056396,-1.445984,-260.04558,1.423309,69.812714
3.9363,-0.049991,-0.024111,0.055069,0.000874,-0.000532,-0.010809,-0.021291,-0.53335,0.056159,-1.445984,-260.04558,1.423309,69.812714
3.956,-0.049768,-0.024083,0.055202,0.000864,-0.000522,-0.010808,-0.021291,-0.53335,0.056159,-1.445984,-260.04558,1.423309,69.812714
3.9762,-0.049437,-0.024331,0.055043,0.000856,-0.000514,-0.010807,-0.021591,-0.533327,0.054749,-1.447434,-260.042681,1.425547,69.815179
3.9962,-0.049372,-0.023818,0.055803,0.000851,-0.000509,-0.010807,-0.021497,-0.533427,0.05482,-1.447434,-260.042681,1.425547,69.815179
4.016,-0.049099,-0.024145,0.055611,0.000846,-0.000504,-0.010807,-0.0209,-0.533039,0.055461,-1.451085,-260.039832,1.431103,69.817622
4.0364,-0.049269,-0.023784,0.054387,0.000831,-0.00049,-0.010805,-0.020764,-0.533329,0.05558,-1.451085,-260.039832,1.431103,69.817622
4.0562,-0.049105,-0.023943,0.054948,0.000819,-0.000477,-0.010804,-0.020764,-0.533329,0.05558,-1.451085,-260.039832,1.431103,69.817622
4.0761,-0.048779,-0.023813,0.054705,0.000808,-0.000468,-0.010803,-0.021059,-0.533192,0.054495,-1.45224,-260.036974,1.432851,69.820081
4.0959,-0.04865,-0.023453,0.052616,0.000807,-0.000466,-0.010805,-0.020988,-0.533137,0.054528,-1.45224,-260.036974,1.432851,69.820081
4.1157,-0.048753,-0.024378,0.053276,0.000806,-0.000464,-0.010807,-0.021802,-0.532761,0.052272,-1.456872,-260.034114,1.439682,69.822568
4.1361,-0.048215,-0.02385,0.052528,0.000808,-0.000466,-0.010809,-0.02161,-0.533587,0.053185,-1.456872,-260.034114,1.439682,69.822568
4.1559,-0.048209,-0.024208,0.05377,0.000809,-0.000467,-0.010811,-0.02161,-0.533587,0.053185,-1.456872,-260.034114,1.439682,69.822568
4.1761,-0.047757,-0.024249,0.053289,0.000811,-0.000468,-0.010812,-0.020765,-0.533489,0.05332,-1.457262,-260.031275,1.44026,69.825039
4.1959,-0.048109,-0.023987,0.0529,0.000795,-0.000454,-0.010809,-0.020689,-0.533506,0.053255,-1.457262,-260.031275,1.44026,69.825039
4.2157,-0.048085,-0.024083,0.051719,0.000783,-0.000442,-0.010807,-0.021116,-0.533287,0.052558,-1.456677,-260.028441,1.439435,69.827502
4.2358,-0.047761,-0.024046,0.053509,0.000792,-0.000451,-0.010811,-0.021664,-0.533391,0.051777,-1.456677,-260.028441,1.439435,69.827502
4.256,-0.047451,-0.023998,0.051511,0.0008,-0.000458,-0.010814,-0.021664,-0.533391,0.051777,-1.456677,-260.028441,1.439435,69.827502
4.2757,-0.047635,-0.023716,0.051608,0.000806,-0.000464,-0.010816,-0.021158,-0.533338,0.051058,-1.460055,-260.025608,1.444306,69.829984
4.2958,-0.047753,-0.024077,0.05221,0.000805,-0.000463,-0.010816,-0.021223,-0.533218,0.051229,-1.460055,-260.025608,1.444306,69.829984
4.316,-0.047517,-0.024091,0.052927,0.000805,-0.000463,-0.010816,-0.021111,-0.533395,0.051865,-1.457277,-260.022759,1.440307,69.832465
4.3365,-0.047103,-0.02428,0.05048,0.00079,-0.000449,-0.010812,-0.020585,-0.533379,0.052818,-1.457277,-260.022759,1.440307,69.832465
4.3563,-0.047273,-0.023868,0.050841,0.000779,-0.000438,-0.01081,-0.020585,-0.533379,0.052818,-1.457277,-260.022759,1.440307,69.832465
4.3766,-0.046889,-0.024047,0.050429,0.000769,-0.000429,-0.010809,-0.021321,-0.533226,0.050389,-1.457446,-260.019916,1.440555,69.834941
4.3962,-0.047075,-0.024214,0.050808,0.000774,-0.000433,-0.010811,-0.02126,-0.533299,0.050353,-1.457446,-260.019916,1.440555,69.834941
4.4162,-0.046071,-0.024027,0.050839,0.000777,-0.000436,-0.010813,-0.021149,-0.533568,0.050465,-1.461834,-260.017091,1.446842,69.837425
4.4364,-0.046572,-0.024008,0.050014,0.000759,-0.00042,-0.010809,-0.020242,-0.533386,0.050788,-1.461834,-260.017091,1.446842,69.837425
4.4561,-0.04677,-0.023803,0.052508,0.000745,-0.000406,-0.010807,-0.020242,-0.533386,0.050788,-1.461834,-260.017091,1.446842,69.837425
4.4758,-0.046462,-0.024021,0.050995,0.000733,-0.000394,-0.010806,-0.01997,-0.533117,0.052055,-1.460823,-260.014258,1.445412,69.839912
4.496,-0.046226,-0.02401,0.049843,0.000725,-0.000387,-0.010806,-0.020168,-0.533217,0.051572,-1.460823,-260.014258,1.445412,69.839912
4.5157,-0.045971,-0.024095,0.048874,0.000718,-0.000381,-0.010806,-0.020792,-0.533388,0.049499,-1.466428,-260.011449,1.453277,69.842407
4.5362,-0.046084,-0.023927,0.048958,0.000724,-0.000385,-0.01081,-0.02103,-0.533478,0.048913,-1.466428,-260.011449,1.453277,69.842407
4.5559,-0.046167,-0.024297,0.051159,0.000728,-0.000389,-0.010812,-0.02103,-0.533478,0.048913,-1.466428,-260.011449,1.453277,69.842407
4.5758,-0.045447,-0.024247,0.048063,0.000731,-0.000392,-0.010814,-0.020056,-0.533645,0.050706,-1.46825,-260.008632,1.455795,69.84492
4.5957,-0.045723,-0.023899,0.048836,0.00072,-0.000381,-0.010811,-0.020419,-0.533652,0.049563,-1.46825,-260.008632,1.455795,69.84492
4.6159,-0.045391,-0.0243,0.047261,0.00071,-0.000372,-0.01081,-0.020802,-0.533303,0.048494,-1.46666,-260.005824,1.453623,69.847417
4.6364,-0.045737,-0.024228,0.047697,0.000716,-0.000378,-0.010813,-0.021254,-0.533695,0.047348,-1.46666,-260.005824,1.453623,69.847417
4.6563,-0.045135,-0.024022,0.048164,0.000721,-0.000382,-0.010815,-0.021254,-0.533695,0.047348,-1.46666,-260.005824,1.453623,69.847417
4.6761,-0.045115,-0.024143,0.045509,0.000725,-0.000386,-0.010817,-0.020551,-0.533444,0.047713,-1.46933,-260.003011,1.457295,69.849933
4.6961,-0.04526,-0.024117,0.04727,0.000728,-0.000389,-0.010818,-0.021117,-0.533517,0.046738,-1.46933,-260.003011,1.457295,69.849933
4.7156,-0.04451,-0.023815,0.046257,0.000731,-0.000391,-0.010818,-0.021138,-0.533559,0.046928,-1.467452,-260.000215,1.454736,69.852424
4.7358,-0.044542,-0.023727,0.048077,0.000733,-0.000393,-0.010818,-0.020945,-0.533296,0.046299,-1.467452,-260.000215,1.454736,69.852424
4.7557,-0.044701,-0.024123,0.047517,0.000735,-0.000395,-0.010819,-0.020945,-0.533296,0.046299,-1.467452,-260.000215,1.454736,69.852424
4.7759,-0.044209,-0.023867,0.046867,0.000736,-0.000396,-0.010819,-0.020445,-0.533563,0.047065,-1.466731,-259.9974,1.453743,69.854928
4.7959,-0.044573,-0.024153,0.046751,0.000724,-0.000385,-0.010815,-0.020389,-0.53346,0.046932,-1.466731,-259.9974,1.453743,69.854928
4.8161,-0.044187,-0.023862,0.047195,0.000714,-0.000376,-0.010813,-0.020715,-0.533608,0.046405,-1.466046,-259.994583,1.452791,69.85743
4.8357,-0.044347,-0.024127,0.04546,0.000705,-0.000367,-0.010812,-0.020178,-0.533323,0.047106,-1.466046,-259.994583,1.452791,69.85743
4.8557,-0.04431,-0.024107,0.044194,0.000696,-0.00036,-0.010811,-0.020178,-0.533323,0.047106,-1.466046,-259.994583,1.452791,69.85743
4.8759,-0.043709,-0.02402,0.045757,0.00069,-0.000354,-0.01081,-0.021748,-0.533624,0.043742,-1.468807,-259.991777,1.456587,69.859936
4.8961,-0.043843,-0.024186,0.046432,0.000698,-0.000361,-0.010814,-0.021185,-0.533569,0.044515,-1.468807,-259.991777,1.456587,69.859936
4.916,-0.04336,-0.023773,0.045504,0.000705,-0.000367,-0.010816,-0.020149,-0.533647,0.046088,-1.471938,-259.988982,1.460836,69.86245
4.936,-0.043287,-0.024163,0.042337,0.000696,-0.000359,-0.010814,-0.020158,-0.533287,0.045544,-1.471938,-259.988982,1.460836,69.86245
4.9561,-0.043468,-0.024302,0.044523,0.000688,-0.000352,-0.010813,-0.020158,-0.533287,0.045544,-1.471938,-259.988982,1.460836,69.86245
4.9761,-0.043237,-0.024245,0.044702,0.000682,-0.000346,-0.010812,-0.020738,-0.533811,0.04407,-1.470062,-259.986179,1.458304,69.864961
4.9962,-0.043275,-0.024237,0.044352,0.000677,-0.000341,-0.010812,-0.020617,-0.533782,0.044273,-1.470062,-259.986179,1.458304,69.864961
5.0164,-0.042645,-0.024093,0.043605,0.000672,-0.000337,-0.010812,-0.02064,-0.533745,0.044007,-1.472986,-259.983387,1.462248,69.867478
5.0363,-0.042821,-0.023972,0.044563,0.000667,-0.000332,-0.010812,-0.020434,-0.533622,0.043625,-1.472986,-259.983387,1.462248,69.867478
5.0564,-0.042971,-0.024233,0.043031,0.000663,-0.000328,-0.010812,-0.020434,-0.533622,0.043625,-1.472986,-259.983387,1.462248,69.867478
5.0761,-0.042465,-0.024126,0.044285,0.00066,-0.000325,-0.010813,-0.021003,-0.533774,0.042579,-1.474223,-259.980598,1.463912,69.869999
5.0963,-0.042375,-0.024268,0.042593,0.000657,-0.000323,-0.010813,-0.020544,-0.533715,0.043224,-1.474223,-259.980598,1.463912,69.869999
5.1161,-0.042274,-0.023837,0.043666,0.000655,-0.000321,-0.010814,-0.020638,-0.533815,0.042249,-1.475856,-259.977814,1.466088,69.872524
5.1363,-0.04229,-0.024176,0.042551,0.00065,-0.000316,-0.010813,-0.020067,-0.533392,0.043521,-1.475856,-259.977814,1.466088,69.872524
5.1569,-0.041812,-0.024052,0.042882,0.000645,-0.000312,-0.010813,-0.020067,-0.533392,0.043521,-1.475856,-259.977814,1.466088,69.872524
5.1761,-0.041853,-0.024648,0.042863,0.000641,-0.000308,-0.010813,-0.019921,-0.533596,0.042429,-1.476448,-259.975031,1.466877,69.875051
5.1963,-0.041914,-0.024182,0.04328,0.000628,-0.000296,-0.010811,-0.01995,-0.533837,0.042555,-1.476448,-259.975031,1.466877,69.875051
5.2163,-0.041757,-0.02429,0.041888,0.000616,-0.000286,-0.01081,-0.019827,-0.533713,0.042935,-1.478272,-259.972255,1.469269,69.877582
5.2365,-0.041399,-0.024169,0.041274,0.000615,-0.000284,-0.010811,-0.020347,-0.533832,0.041965,-1.478272,-259.972255,1.469269,69.877582
5.2562,-0.041094,-0.02432,0.041344,0.000613,-0.000283,-0.010813,-0.020347,-0.533832,0.041965,-1.478272,-259.972255,1.469269,69.877582
5.2763,-0.041421,-0.024267,0.041757,0.000612,-0.000282,-0.010814,-0.019989,-0.533895,0.040891,-1.481576,-259.969491,1.473553,69.880119
5.2961,-0.041334,-0.023955,0.041685,0.000604,-0.000274,-0.010813,-0.020043,-0.533867,0.041186,-1.481576,-259.969491,1.473553,69.880119
5.3159,-0.040707,-0.024046,0.039871,0.000597,-0.000268,-0.010812,-0.020061,-0.53352,0.04134,-1.482106,-259.966721,1.474249,69.882664
5.3363,-0.041375,-0.024414,0.042761,0.000601,-0.000271,-0.010815,-0.020349,-0.533631,0.039983,-1.482106,-259.966721,1.474249,69.882664
5.356,-0.041291,-0.024232,0.040265,0.000604,-0.000274,-0.010816,-0.020349,-0.533631,0.039983,-1.482106,-259.966721,1.474249,69.882664
5.3761,-0.040679,-0.023952,0.041897,0.000606,-0.000276,-0.010817,-0.020736,-0.533829,0.039814,-1.484116,-259.963963,1.476822,69.885208
5.3963,-0.040561,-0.024064,0.039634,0.000604,-0.000274,-0.010817,-0.020149,-0.533697,0.04062,-1.484116,-259.963963,1.476822,69.885208
5.416,-0.040598,-0.024031,0.039773,0.000601,-0.000272,-0.010817,-0.020333,-0.533671,0.039289,-1.482931,-259.961189,1.475313,69.887761
5.4363,-0.040063,-0.023967,0.039165,0.000603,-0.000273,-0.010818,-0.020319,-0.533631,0.03972,-1.482931,-259.961189,1.475313,69.887761
5.456,-0.040471,-0.023815,0.038455,0.000605,-0.000275,-0.010819,-0.020319,-0.533631,0.03972,-1.482931,-259.961189,1.475313,69.887761
5.476,-0.039865,-0.024189,0.038981,0.000607,-0.000276,-0.010819,-0.020838,-0.533449,0.038004,-1.483576,-259.958438,1.476139,69.890297
5.4961,-0.040158,-0.024087,0.036612,0.000611,-0.00028,-0.01082,-0.020488,-0.533595,0.038352,-1.483576,-259.958438,1.476139,69.890297
5.516,-0.039441,-0.024075,0.037354,0.000614,-0.000283,-0.010821,-0.02147,-0.533753,0.036268,-1.482914,-259.955667,1.475294,69.892847
5.5363,-0.039809,-0.02393,0.03746,0.000613,-0.000282,-0.010821,-0.020481,-0.533722,0.03725,-1.482914,-259.955667,1.475294,69.892847
5.5563,-0.039719,-0.023973,0.038021,0.000613,-0.000282,-0.01082,-0.020481,-0.533722,0.03725,-1.482914,-259.955667,1.475294,69.892847
5.576,-0.03941,-0.024017,0.037474,0.000613,-0.000281,-0.01082,-0.020307,-0.533616,0.037568,-1.481956,-259.952904,1.474064,69.895386
5.5962,-0.039739,-0.024042,0.036368,0.00061,-0.000279,-0.010819,-0.020302,-0.533634,0.037478,-1.481956,-259.952904,1.474064,69.895386
5.6156,-0.039396,-0.023769,0.035977,0.000608,-0.000278,-0.010819,-0.021176,-0.533713,0.036024,-1.482121,-259.950137,1.474279,69.897928
5.6361,-0.039287,-0.023871,0.036387,0.000624,-0.000292,-0.010823,-0.021061,-0.533463,0.035964,-1.482121,-259.950137,1.474279,69.897928
5.6562,-0.039292,-0.024051,0.036478,0.000636,-0.000303,-0.010825,-0.021061,-0.533463,0.035964,-1.482121,-259.950137,1.474279,69.897928
5.6762,-0.038858,-0.024103,0.03595,0.000647,-0.000312,-0.010827,-0.020667,-0.533722,0.036026,-1.482654,-259.947368,1.474961,69.900476
5.6964,-0.039094,-0.024276,0.036797,0.000641,-0.000308,-0.010824,-0.020606,-0.533745,0.035942,-1.482654,-259.947368,1.474961,69.900476
5.7161,-0.038758,-0.02394,0.036821,0.000637,-0.000304,-0.010822,-0.020311,-0.53394,0.036453,-1.477697,-259.944578,1.468524,69.903016
5.7362,-0.038453,-0.024374,0.035606,0.000624,-0.000292,-0.010818,-0.020007,-0.53362,0.03678,-1.477697,-259.944578,1.468524,69.903016
5.7562,-0.038656,-0.024074,0.037168,0.000613,-0.000283,-0.010816,-0.020007,-0.53362,0.03678,-1.477697,-259.944578,1.468524,69.903016
5.7764,-0.038223,-0.024263,0.035878,0.000604,-0.000275,-0.010815,-0.019678,-0.533734,0.036718,-1.478956,-259.941822,1.470172,69.905532
5.796,-0.038316,-0.024314,0.034418,0.000589,-0.000261,-0.010812,-0.019775,-0.533816,0.036329,-1.478956,-259.941822,1.470172,69.905532
5.8165,-0.037742,-0.024348,0.034548,0.000576,-0.00025,-0.01081,-0.020746,-0.53402,0.034073,-1.48319,-259.939062,1.475629,69.908074
5.8365,-0.037986,-0.024288,0.035473,0.000568,-0.000243,-0.01081,-0.020182,-0.534042,0.034486,-1.48319,-259.939062,1.475629,69.908074
5.856,-0.03819,-0.023995,0.035804,0.000562,-0.000237,-0.010811,-0.020182,-0.534042,0.034486,-1.48319,-259.939062,1.475629,69.908074
5.8762,-0.037817,-0.024284,0.035181,0.000557,-0.000233,-0.010811,-0.019909,-0.533678,0.035352,-1.486976,-259.936313,1.480425,69.910624
5.896,-0.037738,-0.024022,0.034422,0.000552,-0.000228,-0.010812,-0.019894,-0.533797,0.035231,-1.486976,-259.936313,1.480425,69.910624
5.916,-0.036881,-0.024138,0.034177,0.000548,-0.000224,-0.010813,-0.020168,-0.533727,0.034078,-1.489465,-259.93357,1.483552,69.913181
5.9363,-0.03685,-0.024571,0.033722,0.000535,-0.000213,-0.010811,-0.019518,-0.53383,0.03415,-1.489465,-259.93357,1.483552,69.913181
5.9564,-0.03719,-0.024119,0.033531,0.000524,-0.000204,-0.01081,-0.019518,-0.53383,0.03415,-1.489465,-259.93357,1.483552,69.913181
5.9762,-0.037365,-0.024122,0.033301,0.000515,-0.000196,-0.01081,-0.020069,-0.533841,0.033078,-1.490775,-259.930831,1.485181,69.915742
5.9963,-0.036981,-0.02413,0.033244,0.000521,-0.000201,-0.010814,-0.020195,-0.533842,0.033117,-1.490775,-259.930831,1.485181,69.915742
6.0158,-0.036944,-0.024504,0.03312,0.000526,-0.000205,-0.010816,-0.020013,-0.533854,0.032901,-1.49517,-259.928105,1.490561,69.918311
6.0364,-0.036631,-0.024074,0.032735,0.000521,-0.000201,-0.010816,-0.020051,-0.534191,0.033082,-1.49517,-259.928105,1.490561,69.918311
6.0563,-0.036813,-0.02396,0.032789,0.000517,-0.000197,-0.010816,-0.020051,-0.534191,0.033082,-1.49517,-259.928105,1.490561,69.918311
6.0763,-0.036438,-0.024325,0.032765,0.000514,-0.000194,-0.010816,-0.020071,-0.533693,0.032335,-1.493706,-259.925373,1.488786,69.92088
6.0961,-0.036546,-0.024281,0.032654,0.000514,-0.000194,-0.010817,-0.01993,-0.533839,0.032458,-1.493706,-259.925373,1.488786,69.92088
6.1162,-0.036224,-0.0241,0.032048,0.000514,-0.000194,-0.010818,-0.019878,-0.534015,0.03231,-1.495373,-259.922646,1.490824,69.923453
6.1363,-0.035814,-0.023831,0.031009,0.000513,-0.000193,-0.010818,-0.019881,-0.533854,0.032054,-1.495373,-259.922646,1.490824,69.923453
6.1558,-0.036291,-0.023997,0.031831,0.000512,-0.000192,-0.010818,-0.019881,-0.533854,0.032054,-1.495373,-259.922646,1.490824,69.923453
6.1763,-0.036054,-0.024188,0.031254,0.000511,-0.000191,-0.010819,-0.020038,-0.533746,0.031378,-1.49533,-259.919917,1.490773,69.926026
6.1967,-0.035873,-0.02449,0.031728,0.000513,-0.000194,-0.01082,-0.020068,-0.533826,0.031275,-1.49533,-259.919917,1.490773,69.926026
6.2161,-0.035674,-0.023969,0.030626,0.000516,-0.000196,-0.010821,-0.019678,-0.534238,0.031382,-1.495844,-259.91719,1.491396,69.9286
6.2361,-0.035549,-0.024263,0.031252,0.000517,-0.000197,-0.010821,-0.020022,-0.533776,0.030676,-1.495844,-259.91719,1.491396,69.9286
6.2563,-0.035416,-0.024084,0.030671,0.000518,-0.000198,-0.010821,-0.020022,-0.533776,0.030676,-1.495844,-259.91719,1.491396,69.9286
6.2764,-0.035267,-0.023898,0.030134,0.000519,-0.000199,-0.010821,-0.019754,-0.533852,0.030218,-1.495131,-259.914461,1.490533,69.931174
6.2969,-0.035556,-0.024209,0.030919,0.000515,-0.000195,-0.01082,-0.019811,-0.533778,0.030132,-1.495131,-259.914461,1.490533,69.931174
6.3162,-0.034616,-0.024311,0.030633,0.000512,-0.000192,-0.010819,-0.019773,-0.533971,0.030571,-1.494685,-259.91173,1.489991,69.933746
6.3361,-0.034756,-0.023903,0.028738,0.000488,-0.000173,-0.010814,-0.019068,-0.534063,0.030609,-1.494685,-259.91173,1.489991,69.933746
6.3561,-0.035085,-0.024213,0.028742,0.000469,-0.000157,-0.010811,-0.019068,-0.534063,0.030609,-1.494685,-259.91173,1.489991,69.933746
6.3759,-0.034412,-0.024625,0.029764,0.000453,-0.000143,-0.010809,-0.020407,-0.53401,0.028288,-1.495716,-259.909002,1.491239,69.936321
6.3962,-0.034273,-0.024367,0.027979,0.000456,-0.000145,-0.010812,-0.01993,-0.534168,0.028833,-1.495716,-259.909002,1.491239,69.936321
6.4156,-0.034277,-0.024375,0.027722,0.000458,-0.000147,-0.010815,-0.019991,-0.534172,0.027635,-1.5037,-259.906301,1.50073,69.938908
6.4363,-0.033968,-0.024066,0.028565,0.000462,-0.00015,-0.010817,-0.020127,-0.534179,0.027697,-1.5037,-259.906301,1.50073,69.938908
6.4561,-0.034278,-0.024048,0.028446,0.000466,-0.000153,-0.010819,-0.020127,-0.534179,0.027697,-1.5037,-259.906301,1.50073,69.938908
6.4762,-0.034033,-0.024148,0.029712,0.000469,-0.000156,-0.01082,-0.019754,-0.533847,0.027993,-1.503098,-259.903598,1.500034,69.941494
6.4964,-0.034073,-0.024195,0.028367,0.000462,-0.00015,-0.010819,-0.019397,-0.533879,0.02864,-1.503098,-259.903598,1.500034,69.941494
6.5162,-0.033536,-0.024129,0.026799,0.000456,-0.000145,-0.010818,-0.019592,-0.533995,0.028022,-1.501528,-259.90088,1.498194,69.944087
6.5362,-0.033687,-0.02417,0.027448,0.000459,-0.000147,-0.010819,-0.019846,-0.53395,0.026885,-1.501528,-259.90088,1.498194,69.944087
6.5563,-0.033702,-0.024324,0.027152,0.00046,-0.000148,-0.01082,-0.019846,-0.53395,0.026885,-1.501528,-259.90088,1.498194,69.944087
6.576,-0.033619,-0.024095,0.025469,0.000462,-0.000149,-0.010821,-0.019837,-0.534142,0.0267,-1.503305,-259.898179,1.500284,69.946673
6.5959,-0.033479,-0.024102,0.028212,0.000467,-0.000154,-0.010822,-0.020157,-0.534056,0.026149,-1.503305,-259.898179,1.500284,69.946673
6.6159,-0.033334,-0.024005,0.026983,0.000471,-0.000157,-0.010823,-0.019078,-0.533903,0.027866,-1.502572,-259.89547,1.499426,69.949263
6.6361,-0.033479,-0.02422,0.026218,0.000466,-0.000153,-0.010822,-0.019529,-0.533827,0.027045,-1.502572,-259.89547,1.499426,69.949263
6.656,-0.033108,-0.024156,0.026071,0.000462,-0.00015,-0.010821,-0.019529,-0.533827,0.027045,-1.502572,-259.89547,1.499426,69.949263
6.6759,-0.032815,-0.024047,0.025118,0.000459,-0.000147,-0.01082,-0.019793,-0.533988,0.025617,-1.50126,-259.892756,1.49788,69.951851
6.6959,-0.032951,-0.023693,0.026864,0.00046,-0.000148,-0.010821,-0.019877,-0.533948,0.025364,-1.50126,-259.892756,1.49788,69.951851
6.7161,-0.03272,-0.024297,0.026283,0.000461,-0.000149,-0.010821,-0.019237,-0.533513,0.026518,-1.502999,-259.890048,1.499928,69.954442
6.7359,-0.032447,-0.024136,0.024383,0.000448,-0.000138,-0.010818,-0.01931,-0.534067,0.026286,-1.502999,-259.890048,1.499928,69.954442
6.7562,-0.032631,-0.024083,0.025862,0.000438,-0.000129,-0.010817,-0.01931,-0.534067,0.026286,-1.502999,-259.890048,1.499928,69.954442
6.7759,-0.032134,-0.02421,0.023606,0.000429,-0.000122,-0.010816,-0.019424,-0.533918,0.025409,-1.502718,-259.887335,1.499599,69.957036
6.7964,-0.032133,-0.024166,0.023743,0.000431,-0.000123,-0.010817,-0.019696,-0.53398,0.024622,-1.502718,-259.887335,1.499599,69.957036
6.8161,-0.031926,-0.024377,0.023452,0.000432,-0.000124,-0.010819,-0.020012,-0.534026,0.023398,-1.507105,-259.884634,1.504709,69.95964
6.8361,-0.031624,-0.024314,0.024284,0.000433,-0.000126,-0.01082,-0.01997,-0.53422,0.023432,-1.507105,-259.884634,1.504709,69.95964
6.8562,-0.031884,-0.024223,0.023927,0.000435,-0.000127,-0.01082,-0.01997,-0.53422,0.023432,-1.507105,-259.884634,1.504709,69.95964
6.8764,-0.031781,-0.024232,0.025189,0.000436,-0.000127,-0.010821,-0.019664,-0.534082,0.023476,-1.506751,-259.881946,1.504302,69.962229
6.896,-0.03145,-0.023841,0.023369,0.000427,-0.00012,-0.010819,-0.019364,-0.534078,0.024125,-1.506751,-259.881946,1.504302,69.962229
6.9159,-0.031255,-0.023824,0.021959,0.000419,-0.000114,-0.010818,-0.019519,-0.533705,0.023025,-1.506185,-259.879235,1.503651,69.964837
6.936,-0.031473,-0.023964,0.021373,0.000432,-0.000124,-0.010822,-0.020014,-0.533701,0.022028,-1.506185,-259.879235,1.503651,69.964837
6.9561,-0.031406,-0.023786,0.023504,0.000442,-0.000133,-0.010825,-0.020014,-0.533701,0.022028,-1.506185,-259.879235,1.503651,69.964837
6.9763,-0.030908,-0.023947,0.022313,0.000451,-0.00014,-0.010826,-0.019402,-0.53365,0.023052,-1.508488,-259.876532,1.506309,69.967449
6.9961,-0.030831,-0.024207,0.02252,0.000446,-0.000136,-0.010824,-0.019454,-0.533722,0.022687,-1.508488,-259.876532,1.506309,69.967449
7.0164,-0.030826,-0.023903,0.022586,0.000442,-0.000133,-0.010823,-0.019333,-0.534082,0.022179,-1.504173,-259.873843,1.501299,69.970027
7.0363,-0.030674,-0.02427,0.021821,0.000434,-0.000126,-0.010821,-0.019309,-0.5338,0.022535,-1.504173,-259.873843,1.501299,69.970027
7.0564,-0.030496,-0.024048,0.021917,0.000427,-0.000121,-0.01082,-0.019309,-0.5338,0.022535,-1.504173,-259.873843,1.501299,69.970027
7.0765,-0.030559,-0.023797,0.020886,0.000422,-0.000116,-0.010819,-0.0193,-0.533931,0.021464,-1.505395,-259.871145,1.502723,69.972619
7.0964,-0.030443,-0.024266,0.02301,0.000421,-0.000116,-0.01082,-0.019543,-0.533833,0.021179,-1.505395,-259.871145,1.502723,69.972619
7.1159,-0.030334,-0.024488,0.020426,0.00042,-0.000115,-0.01082,-0.018695,-0.534134,0.022666,-1.508129,-259.86845,1.505886,69.975221
7.1362,-0.030144,-0.024025,0.02119,0.000416,-0.000111,-0.01082,-0.019806,-0.534359,0.020611,-1.508129,-259.86845,1.505886,69.975221
7.1561,-0.030541,-0.024335,0.020964,0.000412,-0.000108,-0.010819,-0.019806,-0.534359,0.020611,-1.508129,-259.86845,1.505886,69.975221
7.1761,-0.030012,-0.024171,0.019946,0.000409,-0.000105,-0.010819,-0.019833,-0.534227,0.02051,-1.508385,-259.865738,1.506183,69.97784
7.1965,-0.029874,-0.024239,0.020896,0.00041,-0.000106,-0.01082,-0.019834,-0.534161,0.02022,-1.508385,-259.865738,1.506183,69.97784
7.2157,-0.029727,-0.024079,0.018626,0.000411,-0.000107,-0.010821,-0.019205,-0.534131,0.020554,-1.509965,-259.863066,1.508002,69.98043
7.2362,-0.029549,-0.024138,0.02076,0.00042,-0.000114,-0.010823,-0.020136,-0.534003,0.018782,-1.509965,-259.863066,1.508002,69.98043
7.2562,-0.029912,-0.02402,0.0182,0.000427,-0.00012,-0.010825,-0.020136,-0.534003,0.018782,-1.509965,-259.863066,1.508002,69.98043
7.276,-0.029665,-0.023733,0.019597,0.000432,-0.000125,-0.010825,-0.020613,-0.53394,0.017746,-1.50968,-259.860375,1.507678,69.983035
7.2963,-0.029362,-0.023991,0.018349,0.000442,-0.000133,-0.010827,-0.02023,-0.533817,0.018443,-1.50968,-259.860375,1.507678,69.983035
7.3166,-0.028697,-0.024172,0.02022,0.00045,-0.00014,-0.010827,-0.019991,-0.533909,0.018004,-1.5067,-259.857677,1.504237,69.985634
7.3363,-0.028664,-0.024103,0.018822,0.000416,-0.000113,-0.010819,-0.018532,-0.534053,0.019999,-1.5067,-259.857677,1.504237,69.985634
7.3562,-0.028942,-0.024173,0.019807,0.000389,-9.1e-05,-0.010813,-0.018532,-0.534053,0.019999,-1.5067,-259.857677,1.504237,69.985634
7.3762,-0.028751,-0.024075,0.018144,0.000366,-7.3e-05,-0.01081,-0.018822,-0.534078,0.019353,-1.504276,-259.854969,1.501406,69.98823
7.3971,-0.028601,-0.024429,0.019265,0.00036,-6.7e-05,-0.010811,-0.019095,-0.534043,0.018809,-1.504276,-259.854969,1.501406,69.98823
7.4156,-0.02813,-0.024477,0.018509,0.000355,-6.3e-05,-0.010812,-0.018765,-0.534336,0.018919,-1.515955,-259.852308,1.514735,69.990832
7.4359,-0.028252,-0.024031,0.018061,0.000335,-4.7e-05,-0.010809,-0.018697,-0.534385,0.018528,-1.515955,-259.852308,1.514735,69.990832
7.4562,-0.028306,-0.02408,0.018031,0.000319,-3.5e-05,-0.010807,-0.018697,-0.534385,0.018528,-1.515955,-259.852308,1.514735,69.990832
7.476,-0.028136,-0.024245,0.018305,0.000306,-2.4e-05,-0.010807,-0.019096,-0.534,0.017578,-1.517649,-259.849638,1.516628,69.993452
7.4961,-0.027613,-0.024121,0.019817,0.000306,-2.5e-05,-0.010809,-0.018974,-0.534065,0.017821,-1.517649,-259.849638,1.516628,69.993452
7.5161,-0.027953,-0.024013,0.016163,0.000306,-2.6e-05,-0.010811,-0.017497,-0.534022,0.019474,-1.524634,-259.84699,1.524293,69.996081
7.536,-0.027781,-0.024128,0.017402,0.000319,-3.7e-05,-0.010811,-0.019498,-0.533954,0.016461,-1.524634,-259.84699,1.524293,69.996081
7.5563,-0.027744,-0.024156,0.01665,0.000328,-4.7e-05,-0.010811,-0.019498,-0.533954,0.016461,-1.524634,-259.84699,1.524293,69.996081
7.5763,-0.027648,-0.02417,0.016659,0.000336,-5.5e-05,-0.01081,-0.01924,-0.534086,0.016196,-1.524589,-259.844317,1.524231,69.998734
7.5964,-0.027498,-0.024201,0.01707,0.000334,-5.5e-05,-0.010807,-0.019201,-0.534092,0.016338,-1.524589,-259.844317,1.524231,69.998734
7.6162,-0.027012,-0.024284,0.016981,0.000332,-5.4e-05,-0.010804,-0.018782,-0.534128,0.01673,-1.520301,-259.841672,1.519452,70.001335
7.636,-0.027313,-0.024313,0.014226,0.000311,-3.8e-05,-0.0108,-0.01839,-0.534203,0.016941,-1.520301,-259.841672,1.519452,70.001335
7.6559,-0.027283,-0.02413,0.017403,0.000293,-2.4e-05,-0.010797,-0.01839,-0.534203,0.016941,-1.520301,-259.841672,1.519452,70.001335
7.6758,-0.026909,-0.024515,0.014569,0.000279,-1.3e-05,-0.010796,-0.018394,-0.534054,0.01695,-1.52093,-259.839004,1.520107,70.00396
7.6959,-0.027009,-0.024192,0.014105,0.000276,-1.2e-05,-0.010793,-0.018838,-0.534222,0.01592,-1.52093,-259.839004,1.520107,70.00396
7.716,-0.026662,-0.024272,0.01572,0.000274,-1.1e-05,-0.01079,-0.019807,-0.534142,0.013763,-1.528625,-259.836367,1.528459,70.006586
7.7365,-0.026692,-0.024002,0.014358,0.00027,-1e-05,-0.010784,-0.01875,-0.534203,0.015526,-1.528625,-259.836367,1.528459,70.006586
7.7562,-0.026787,-0.024392,0.014884,0.000266,-8e-06,-0.01078,-0.01875,-0.534203,0.015526,-1.528625,-259.836367,1.528459,70.006586
7.7761,-0.026033,-0.024341,0.013694,0.000264,-7e-06,-0.010776,-0.019185,-0.534336,0.014433,-1.529363,-259.833725,1.52922,70.009219
7.7965,-0.026339,-0.023951,0.012806,0.000267,-1.1e-05,-0.010754,-0.019128,-0.534319,0.014079,-1.529363,-259.833725,1.52922,70.009219
7.8161,-0.025885,-0.023824,0.014322,0.00027,-1.4e-05,-0.010736,-0.019799,-0.533909,0.012463,-1.530776,-259.831087,1.530686,70.011851
7.8363,-0.025951,-0.02446,0.013463,0.000271,-1.7e-05,-0.010723,-0.018689,-0.533784,0.014139,-1.530776,-259.831087,1.530686,70.011851
7.8563,-0.026142,-0.023986,0.01293,0.000273,-1.9e-05,-0.010713,-0.018689,-0.533784,0.014139,-1.530776,-259.831087,1.530686,70.011851
7.876,-0.025632,-0.02418,0.012525,0.000274,-2e-05,-0.010705,-0.019536,-0.533944,0.012481,-1.529774,-259.828457,1.529593,70.01447
7.8963,-0.025471,-0.02401,0.012947,0.000285,-3.1e-05,-0.010643,-0.019416,-0.534024,0.012447,-1.529774,-259.828457,1.529593,70.01447
7.9159,-0.025158,-0.024286,0.010661,0.000295,-4e-05,-0.010595,-0.018859,-0.533968,0.012606,-1.52903,-259.825831,1.528769,70.017079
7.9363,-0.025507,-0.024262,0.012057,0.000304,-5.1e-05,-0.010435,-0.019643,-0.534231,0.010818,-1.52903,-259.825831,1.528769,70.017079
7.9563,-0.025107,-0.024277,0.01211,0.000312,-6e-05,-0.010317,-0.019643,-0.534231,0.010818,-1.52903,-259.825831,1.528769,70.017079
7.9766,-0.025026,-0.024288,0.013296,0.000318,-6.7e-05,-0.010229,-0.018919,-0.534241,0.011667,-1.525509,-259.823215,1.524942,70.019663
7.9965,-0.025623,-0.023804,0.012548,0.000302,-5.3e-05,-0.010264,-0.018635,-0.534242,0.012298,-1.525509,-259.823215,1.524942,70.019663
8.0161,-0.025025,-0.024037,0.011651,0.000289,-4.1e-05,-0.010292,-0.019213,-0.533766,0.012225,-1.520439,-259.820695,1.519345,70.02213
8.0362,-0.025296,-0.024493,0.010935,0.000293,-4.4e-05,-0.010281,-0.019094,-0.533982,0.011685,-1.520439,-259.820695,1.519345,70.02213
8.056,-0.024715,-0.02409,0.01105,0.000295,-4.6e-05,-0.010273,-0.019094,-0.533982,0.011685,-1.520439,-259.820695,1.519345,70.02213
8.0767,-0.024382,-0.023908,0.011855,0.000298,-4.8e-05,-0.010268,-0.019067,-0.534061,0.01062,-1.525076,-259.818152,1.524473,70.024639
8.0964,-0.024616,-0.024412,0.011383,0.000292,-4.4e-05,-0.010217,-0.018759,-0.533982,0.011088,-1.525076,-259.818152,1.524473,70.024639
8.1159,-0.024151,-0.024361,0.010094,0.000287,-4.2e-05,-0.010179,-0.018801,-0.53438,0.011059,-1.523745,-259.815636,1.523024,70.027117
8.1366,-0.02439,-0.023971,0.009653,0.000283,-4e-05,-0.010056,-0.018984,-0.53434,0.010164,-1.523745,-259.815636,1.523024,70.027117
8.1564,-0.024449,-0.02423,0.009599,0.000281,-3.9e-05,-0.009966,-0.018984,-0.53434,0.010164,-1.523745,-259.815636,1.523024,70.027117
8.1763,-0.02423,-0.024061,0.008863,0.000279,-3.7e-05,-0.0099,-0.019542,-0.534208,0.009173,-1.524951,-259.81313,1.524334,70.02959
8.1963,-0.023841,-0.02434,0.01046,0.000298,-5.2e-05,-0.009695,-0.019608,-0.534141,0.008998,-1.524951,-259.81313,1.524334,70.02959
8.2159,-0.023772,-0.024206,0.00983,0.000314,-6.3e-05,-0.009547,-0.018497,-0.534313,0.010144,-1.524985,-259.810685,1.524415,70.032005
8.2361,-0.023788,-0.023995,0.008841,0.000305,-5.6e-05,-0.009549,-0.018738,-0.534192,0.00984,-1.524985,-259.810685,1.524415,70.032005
8.2564,-0.023998,-0.024339,0.009316,0.000298,-5e-05,-0.009553,-0.018738,-0.534192,0.00984,-1.524985,-259.810685,1.524415,70.032005
8.2762,-0.023849,-0.02407,0.007894,0.000292,-4.5e-05,-0.009557,-0.019234,-0.53432,0.008919,-1.51761,-259.808338,1.516445,70.034302
8.2963,-0.023816,-0.024202,0.007202,0.000307,-5.6e-05,-0.009358,-0.019473,-0.534212,0.008455,-1.51761,-259.808338,1.516445,70.034302
8.3162,-0.023339,-0.024365,0.007349,0.00032,-6.5e-05,-0.009216,-0.020134,-0.534191,0.006897,-1.521186,-259.805983,1.520409,70.036621
8.3361,-0.023372,-0.023884,0.00642,0.000337,-7.8e-05,-0.008882,-0.019639,-0.534337,0.007293,-1.521186,-259.805983,1.520409,70.036621
8.3562,-0.023121,-0.024328,0.008083,0.000351,-8.8e-05,-0.00865,-0.019639,-0.534337,0.007293,-1.521186,-259.805983,1.520409,70.036621
8.3761,-0.022993,-0.024298,0.008268,0.000364,-9.5e-05,-0.00849,-0.018985,-0.534314,0.007698,-1.514623,-259.803702,1.513308,70.038849
8.3957,-0.022917,-0.023979,0.006728,0.000356,-8.6e-05,-0.008492,-0.018898,-0.5343,0.007887,-1.514623,-259.803702,1.513308,70.038849
8.4161,-0.022658,-0.024043,0.006478,0.00035,-7.8e-05,-0.008496,-0.019474,-0.53397,0.00646,-1.50202,-259.801599,1.499449,70.040877
8.436,-0.023051,-0.024128,0.007666,0.000365,-8.8e-05,-0.008191,-0.019365,-0.534027,0.006462,-1.50202,-259.801599,1.499449,70.040877
8.456,-0.022781,-0.023914,0.006574,0.000378,-9.7e-05,-0.007981,-0.019365,-0.534027,0.006462,-1.50202,-259.801599,1.499449,70.040877
8.4763,-0.022718,-0.023757,0.005771,0.000388,-0.000104,-0.007838,-0.019414,-0.533906,0.006219,-1.504532,-259.799488,1.502519,70.042925
8.496,-0.022483,-0.024206,0.00786,0.000407,-0.000117,-0.00762,-0.01956,-0.533842,0.005995,-1.504532,-259.799488,1.502519,70.042925
8.5158,-0.02228,-0.024199,0.006271,0.000423,-0.000128,-0.007473,-0.018461,-0.534194,0.007612,-1.491545,-259.797535,1.488034,70.044796
8.5362,-0.022411,-0.02402,0.00632,0.000416,-0.000122,-0.007462,-0.019027,-0.534189,0.006376,-1.491545,-259.797535,1.488034,70.044796
8.5565,-0.022065,-0.024198,0.006179,0.00041,-0.000116,-0.007459,-0.019027,-0.534189,0.006376,-1.491545,-259.797535,1.488034,70.044796
8.5762,-0.02224,-0.024328,0.004884,0.000405,-0.000112,-0.007459,-0.018896,-0.534193,0.005867,-1.480946,-259.795658,1.475797,70.046571
8.5965,-0.022252,-0.024035,0.006531,0.000409,-0.000114,-0.007207,-0.019244,-0.534247,0.005428,-1.480946,-259.795658,1.475797,70.046571
8.6159,-0.022093,-0.024657,0.006678,0.000412,-0.000115,-0.007036,-0.018908,-0.534027,0.006295,-1.4842,-259.793784,1.479862,70.048356
8.6362,-0.022244,-0.024103,0.006482,0.000392,-9.8e-05,-0.007209,-0.018705,-0.534593,0.006634,-1.4842,-259.793784,1.479862,70.048356
8.6563,-0.021814,-0.024324,0.006482,0.000375,-8.4e-05,-0.007335,-0.018705,-0.534593,0.006634,-1.4842,-259.793784,1.479862,70.048356
8.6762,-0.021694,-0.024232,0.00696,0.000361,-7.3e-05,-0.007425,-0.018491,-0.534318,0.006189,-1.477594,-259.792018,1.472481,70.050031
8.6969,-0.021859,-0.024345,0.005196,0.000347,-6.2e-05,-0.007448,-0.018348,-0.534279,0.006469,-1.477594,-259.792018,1.472481,70.050031
8.7158,-0.021774,-0.02408,0.003905,0.000335,-5.3e-05,-0.007463,-0.019198,-0.53434,0.004959,-1.49263,-259.790183,1.490098,70.051809
8.7362,-0.021899,-0.024301,0.005254,0.000369,-7.7e-05,-0.006723,-0.019725,-0.534102,0.003994,-1.49263,-259.790183,1.490098,70.051809
8.7562,-0.02162,-0.024081,0.00663,0.000399,-9.8e-05,-0.006226,-0.019725,-0.534102,0.003994,-1.49263,-259.790183,1.490098,70.051809
8.7761,-0.021252,-0.024105,0.005896,0.000424,-0.000117,-0.005893,-0.018225,-0.534071,0.006318,-1.498255,-259.788338,1.496554,70.053612
8.7968,-0.021101,-0.02435,0.005871,0.000402,-0.0001,-0.006264,-0.018232,-0.534082,0.00611,-1.498255,-259.788338,1.496554,70.053612
8.8157,-0.021073,-0.024014,0.00582,0.000384,-8.5e-05,-0.006534,-0.018095,-0.534345,0.005692,-1.457233,-259.786932,1.449654,70.05493
8.8359,-0.021018,-0.024052,0.005176,0.000367,-7.3e-05,-0.00665,-0.018103,-0.534037,0.005799,-1.457233,-259.786932,1.449654,70.05493
8.8562,-0.021375,-0.024555,0.004937,0.000353,-6.4e-05,-0.006732,-0.018103,-0.534037,0.005799,-1.457233,-259.786932,1.449654,70.05493
8.8759,-0.021214,-0.023841,0.004251,0.000342,-5.6e-05,-0.006789,-0.018841,-0.534552,0.004667,-1.476898,-259.785315,1.472835,70.05648
8.8962,-0.021182,-0.023787,0.003765,0.000354,-6.3e-05,-0.006439,-0.018924,-0.534258,0.004465,-1.476898,-259.785315,1.472835,70.05648
8.9159,-0.020967,-0.023697,0.003715,0.000364,-7e-05,-0.006198,-0.019252,-0.533785,0.00355,-1.489613,-259.783642,1.487419,70.058109
8.9363,-0.020833,-0.024061,0.004487,0.000389,-8.9e-05,-0.005756,-0.019088,-0.533701,0.003689,-1.489613,-259.783642,1.487419,70.058109
8.9562,-0.020532,-0.024005,0.00306,0.00041,-0.000105,-0.005458,-0.019088,-0.533701,0.003689,-1.489613,-259.783642,1.487419,70.058109
8.9762,-0.02065,-0.024275,0.004013,0.000427,-0.000118,-0.005259,-0.018956,-0.534006,0.002803,-1.476785,-259.782102,1.473249,70.059593
8.9964,-0.020944,-0.024359,0.003631,0.00043,-0.00012,-0.004959,-0.01881,-0.534115,0.003268,-1.476785,-259.782102,1.473249,70.059593
9.0162,-0.020668,-0.024142,0.003978,0.000432,-0.000122,-0.004759,-0.019079,-0.534359,0.00347,-1.443161,-259.780815,1.433526,70.060791
9.0359,-0.020678,-0.02425,0.00419,0.000427,-0.000118,-0.004867,-0.018677,-0.534157,0.003926,-1.443161,-259.780815,1.433526,70.060791
9.0561,-0.02077,-0.024525,0.002915,0.000422,-0.000115,-0.004945,-0.018677,-0.534157,0.003926,-1.443161,-259.780815,1.433526,70.060791
9.076,-0.020434,-0.024091,0.004386,0.000418,-0.000113,-0.005001,-0.019266,-0.534528,0.002717,-1.429026,-259.7796,1.416822,70.06191
9.0964,-0.020169,-0.024662,0.001695,0.000418,-0.000112,-0.00484,-0.018827,-0.534348,0.003377,-1.429026,-259.7796,1.416822,70.06191
9.1164,-0.020154,-0.02425,0.004071,0.000417,-0.000111,-0.004731,-0.019291,-0.534665,0.001537,-1.43958,-259.77833,1.429644,70.063091
9.1361,-0.02055,-0.02384,0.003634,0.0004,-9.9e-05,-0.004819,-0.018186,-0.534284,0.003835,-1.43958,-259.77833,1.429644,70.063091
9.1559,-0.020339,-0.0243,0.002255,0.000386,-8.9e-05,-0.00488,-0.018186,-0.534284,0.003835,-1.43958,-259.77833,1.429644,70.063091
9.1761,-0.019828,-0.023994,0.001563,0.000374,-8.1e-05,-0.004924,-0.019172,-0.534304,0.002057,-1.432728,-259.777116,1.421803,70.064216
9.1958,-0.019825,-0.024198,0.002531,0.00039,-8.8e-05,-0.004071,-0.019111,-0.534175,0.001829,-1.432728,-259.777116,1.421803,70.064216
9.2164,-0.020088,-0.024043,0.003247,0.000405,-9.8e-05,-0.003496,-0.018523,-0.534198,0.002377,-1.450126,-259.775891,1.443545,70.065379
9.2364,-0.019864,-0.023948,0.001636,0.000402,-9.7e-05,-0.00371,-0.01844,-0.534055,0.003158,-1.450126,-259.775891,1.443545,70.065379
9.2564,-0.020222,-0.024107,0.003438,0.0004,-9.6e-05,-0.003863,-0.01844,-0.534055,0.003158,-1.450126,-259.775891,1.443545,70.065379
9.2762,-0.019834,-0.02419,0.003433,0.000398,-9.5e-05,-0.003973,-0.018454,-0.534108,0.003309,-1.391459,-259.775095,1.374664,70.066107
9.2961,-0.019468,-0.024239,0.002879,0.000391,-9e-05,-0.004118,-0.018303,-0.53414,0.003344,-1.391459,-259.775095,1.374664,70.066107
9.3161,-0.019875,-0.024572,0.001326,0.000385,-8.6e-05,-0.004218,-0.017988,-0.534239,0.002754,-1.414142,-259.774092,1.401558,70.067036
9.3362,-0.019949,-0.024163,0.003691,0.000391,-8.7e-05,-0.003399,-0.01909,-0.534543,0.001447,-1.414142,-259.774092,1.401558,70.067036
9.3563,-0.019558,-0.02405,0.000473,0.000399,-9.1e-05,-0.002843,-0.01909,-0.534543,0.001447,-1.414142,-259.774092,1.401558,70.067036
9.3763,-0.019566,-0.024506,0.001614,0.000408,-9.6e-05,-0.002471,-0.0193,-0.534053,0.000298,-1.427357,-259.773025,1.417592,70.068036
9.3963,-0.019574,-0.024361,0.001752,0.000418,-0.000101,-0.001859,-0.019072,-0.534237,0.000812,-1.427357,-259.773025,1.417592,70.068036
9.4159,-0.019443,-0.024012,0.001027,0.000427,-0.000108,-0.001447,-0.018673,-0.534362,0.0017,-1.352465,-259.772599,1.3427,70.068414
9.4359,-0.01946,-0.024113,0.002696,0.000436,-0.000115,-0.001331,-0.018897,-0.534043,0.001084,-1.352465,-259.772599,1.3427,70.068414
9.4562,-0.019514,-0.024465,0.002126,0.000444,-0.000122,-0.001257,-0.018897,-0.534043,0.001084,-1.352465,-259.772599,1.3427,70.068414
9.4761,-0.019494,-0.024504,0.000627,0.00045,-0.000127,-0.001212,-0.018428,-0.534464,0.002115,-1.277422,-259.772527,1.267656,70.068473
9.4961,-0.019453,-0.024127,0.001708,0.000444,-0.000124,-0.001415,-0.018729,-0.53448,0.001513,-1.277422,-259.772527,1.267656,70.068473
9.5159,-0.019854,-0.024676,0.001312,0.000439,-0.000121,-0.001558,-0.018581,-0.534126,0.001704,-1.202463,-259.772489,1.192697,70.068502
9.5362,-0.019532,-0.024408,0.001579,0.000441,-0.000123,-0.00157,-0.019135,-0.534629,0.001344,-1.202463,-259.772489,1.192697,70.068502
9.5562,-0.019432,-0.024225,0.001193,0.000442,-0.000124,-0.001578,-0.019135,-0.534629,0.001344,-1.202463,-259.772489,1.192697,70.068502
9.5763,-0.019707,-0.024038,0.001686,0.000443,-0.000125,-0.001583,-0.018809,-0.534229,0.001139,-1.182588,-259.772108,1.117482,70.068811
9.5961,-0.019476,-0.024135,0.002044,0.000445,-0.000127,-0.001593,-0.018823,-0.534151,0.001355,-1.182588,-259.772108,1.117482,70.068811
9.6157,-0.01929,-0.023838,0.002937,0.000447,-0.000128,-0.001599,-0.01842,-0.534137,0.001994,-1.18526,-259.771644,1.086186,70.069186
9.6365,-0.019175,-0.024177,0.001692,0.000424,-0.000112,-0.002258,-0.017848,-0.533863,0.002851,-1.18526,-259.771644,1.086186,70.069186
9.6558,-0.019191,-0.024122,0.001557,0.000405,-9.8e-05,-0.002722,-0.017848,-0.533863,0.002851,-1.18526,-259.771644,1.086186,70.069186
9.6758,-0.019059,-0.024124,0.001592,0.000389,-8.7e-05,-0.003045,-0.018378,-0.534126,0.00149,-1.186478,-259.771167,1.085837,70.069569
9.6963,-0.019224,-0.024065,0.00068,0.000387,-8.4e-05,-0.002666,-0.018322,-0.534126,0.001524,-1.186478,-259.771167,1.085837,70.069569
9.7157,-0.0194,-0.024044,0.001976,0.000386,-8.3e-05,-0.002402,-0.018873,-0.534065,0.000664,-1.26146,-259.771027,1.160819,70.069698
9.7358,-0.019348,-0.024742,0.002797,0.000391,-8.6e-05,-0.002391,-0.018435,-0.534045,0.001857,-1.26146,-259.771027,1.160819,70.069698
9.756,-0.019598,-0.024482,0.001945,0.000394,-8.8e-05,-0.002382,-0.018435,-0.534045,0.001857,-1.26146,-259.771027,1.160819,70.069698
9.7763,-0.01926,-0.024311,0.001587,0.000397,-9e-05,-0.002376,-0.018593,-0.534484,0.001877,-1.32647,-259.770587,1.23583,70.070094
9.7967,-0.018965,-0.024144,0.002566,0.000396,-8.9e-05,-0.002318,-0.018534,-0.534413,0.001751,-1.32647,-259.770587,1.23583,70.070094
9.816,-0.019258,-0.024029,0.001982,0.000395,-8.8e-05,-0.002278,-0.017644,-0.534145,0.002494,-1.318499,-259.769975,1.286717,70.070639
9.8363,-0.018905,-0.024134,0.001375,0.000392,-8.5e-05,-0.002378,-0.018197,-0.534038,0.002021,-1.318499,-259.769975,1.286717,70.070639
9.8561,-0.019231,-0.024426,0.000843,0.00039,-8.3e-05,-0.002447,-0.018197,-0.534038,0.002021,-1.318499,-259.769975,1.286717,70.070639
9.8761,-0.019159,-0.023933,4.2e-05,0.000388,-8.2e-05,-0.002494,-0.018785,-0.534429,0.000749,-1.310035,-259.769365,1.276797,70.071181
9.8966,-0.019166,-0.024078,0.000771,0.000394,-8.3e-05,-0.001668,-0.018929,-0.534225,0.000445,-1.310035,-259.769365,1.276797,70.071181
9.9158,-0.01894,-0.02397,0.001221,0.000402,-8.8e-05,-0.001098,-0.018761,-0.53408,0.000693,-1.333703,-259.768721,1.307973,70.071764
9.9361,-0.019029,-0.024193,0.001214,0.000404,-9e-05,-0.001125,-0.018354,-0.533979,0.001173,-1.333703,-259.768721,1.307973,70.071764
9.9564,-0.018748,-0.024244,0.001321,0.000405,-9.2e-05,-0.001148,-0.018354,-0.533979,0.001173,-1.333703,-259.768721,1.307973,70.071764
9.976,-0.019072,-0.02443,0.000798,0.000407,-9.3e-05,-0.001166,-0.018074,-0.534244,0.001318,-1.258682,-259.768702,1.232952,70.07178
9.9964,-0.018858,-0.024358,0.002068,0.000401,-8.9e-05,-0.001135,-0.018331,-0.534325,0.001091,-1.258682,-259.768702,1.232952,70.07178
10.0161,-0.019163,-0.024247,-0.000488,0.000396,-8.5e-05,-0.001116,-0.0178,-0.534357,0.002058,-1.182909,-259.768609,1.157179,70.071856
10.0361,-0.019405,-0.024587,0.000796,0.000407,-9e-05,-0.000304,-0.019274,-0.534257,-0.000271,-1.182909,-259.768609,1.157179,70.071856
10.0562,-0.0188,-0.024077,0.001288,0.000419,-9.7e-05,0.000256,-0.019274,-0.534257,-0.000271,-1.182909,-259.768609,1.157179,70.071856
10.076,-0.018708,-0.02395,0.000719,0.00043,-0.000104,0.000642,-0.018135,-0.534078,0.001262,-1.108716,-259.768419,1.082986,70.072014
10.0962,-0.018796,-0.02447,0.001545,0.000423,-0.0001,0.000148,-0.01822,-0.534024,0.001031,-1.108716,-259.768419,1.082986,70.072014
10.1159,-0.019277,-0.024351,-0.000236,0.000417,-9.7e-05,-0.000201,-0.018008,-0.53447,0.001545,-1.033504,-259.768419,1.007774,70.072014
10.1365,-0.019148,-0.024299,0.000552,0.000427,-0.000103,0.000226,-0.019307,-0.534359,-0.000119,-1.033504,-259.768419,1.007774,70.072014
10.1564,-0.019275,-0.024146,0.00161,0.000436,-0.000108,0.00052,-0.019307,-0.534359,-0.000119,-1.033504,-259.768419,1.007774,70.072014
10.1763,-0.018619,-0.024496,0.001261,0.000444,-0.000114,0.000723,-0.018454,-0.534145,0.00161,-0.958116,-259.768419,0.932386,70.072014
10.1964,-0.018907,-0.024213,0.002317,0.000428,-0.000104,-2.1e-05,-0.018255,-0.534291,0.001465,-0.958116,-259.768419,0.932386,70.072014
10.2161,-0.018839,-0.02442,0.00137,0.000415,-9.6e-05,-0.000545,-0.017725,-0.534211,0.002317,-0.88361,-259.768419,0.85788,70.072014
10.2359,-0.018898,-0.02428,0.000525,0.000399,-8.6e-05,-0.000909,-0.018104,-0.534401,0.001455,-0.88361,-259.768419,0.85788,70.072014
10.256,-0.018708,-0.024138,0.00189,0.000385,-7.7e-05,-0.001161,-0.018104,-0.534401,0.001455,-0.88361,-259.768419,0.85788,70.072014
10.2761,-0.019193,-0.023924,0.001471,0.000374,-7e-05,-0.001335,-0.017742,-0.534137,0.001886,-0.808827,-259.768386,0.783097,70.07204
10.2961,-0.019176,-0.024639,0.001269,0.000369,-6.7e-05,-0.001583,-0.018027,-0.53405,0.001717,-0.808827,-259.768386,0.783097,70.07204
10.3157,-0.018837,-0.024287,0.001301,0.000364,-6.4e-05,-0.001754,-0.018528,-0.534639,0.001269,-0.883927,-259.768378,0.858197,70.072047
10.336,-0.018626,-0.024402,0.001511,0.00036,-6.1e-05,-0.00166,-0.018204,-0.534317,0.001299,-0.883927,-259.768378,0.858197,70.072047
10.3559,-0.018982,-0.024615,-0.000356,0.000358,-6e-05,-0.001593,-0.018204,-0.534317,0.001299,-0.883927,-259.768378,0.858197,70.072047
10.3759,-0.018943,-0.024152,0.00012,0.000356,-5.8e-05,-0.001546,-0.019164,-0.534615,-0.000357,-0.95896,-259.768373,0.93323,70.072052
10.3967,-0.019138,-0.024215,0.002598,0.000364,-6.1e-05,-0.000666,-0.019048,-0.534425,-0.000161,-0.95896,-259.768373,0.93323,70.072052
10.4163,-0.018965,-0.024334,-0.000441,0.000374,-6.6e-05,-5.4e-05,-0.017811,-0.534213,0.002593,-1.033965,-259.768328,1.008235,70.072092
10.4361,-0.018772,-0.024364,-0.001702,0.000387,-7.4e-05,0.000377,-0.019069,-0.534323,-0.000177,-1.033965,-259.768328,1.008235,70.072092
10.4562,-0.01927,-0.024189,0.001702,0.000398,-8.1e-05,0.000673,-0.019069,-0.534323,-0.000177,-1.033965,-259.768328,1.008235,70.072092
10.476,-0.019242,-0.024227,0.000345,0.000409,-8.8e-05,0.000875,-0.018401,-0.534188,0.001702,-0.958975,-259.768328,0.933245,70.072092
10.4959,-0.019221,-0.024343,-0.001001,0.000412,-9.2e-05,0.000253,-0.018671,-0.534204,0.001151,-0.958975,-259.768328,0.933245,70.072092
10.5156,-0.018847,-0.024431,0.000239,0.000414,-9.5e-05,-0.000186,-0.019732,-0.534343,-0.001001,-0.884102,-259.768328,0.858372,70.072092
10.5361,-0.019284,-0.024341,7.1e-05,0.000413,-9.3e-05,8.9e-05,-0.018811,-0.534424,0.000134,-0.884102,-259.768328,0.858372,70.072092
10.5559,-0.019064,-0.024664,0.00133,0.000413,-9.2e-05,0.000278,-0.018811,-0.534424,0.000134,-0.884102,-259.768328,0.858372,70.072092
10.5763,-0.019393,-0.024167,0.00253,0.000413,-9.1e-05,0.000408,-0.018386,-0.534663,0.00133,-0.808982,-259.768328,0.783252,70.072092
10.5962,-0.018963,-0.024404,0.001203,0.000398,-8.2e-05,-0.000387,-0.018273,-0.534464,0.00181,-0.808982,-259.768328,0.783252,70.072092
10.6162,-0.019107,-0.024327,0.001126,0.000385,-7.4e-05,-0.000951,-0.01835,-0.534404,0.001203,-0.734119,-259.768328,0.708389,70.072092
10.6359,-0.019126,-0.024221,0.000293,0.000385,-7.5e-05,-0.001015,-0.018514,-0.534335,0.001133,-0.734119,-259.768328,0.708389,70.072092
10.6559,-0.018779,-0.024037,0.000587,0.000385,-7.6e-05,-0.001061,-0.018514,-0.534335,0.001133,-0.734119,-259.768328,0.708389,70.072092
10.6758,-0.018785,-0.023647,0.002291,0.000386,-7.6e-05,-0.001092,-0.018477,-0.534037,0.000584,-0.809279,-259.768295,0.783549,70.072119
10.6968,-0.019001,-0.024138,0.001724,0.000384,-7.7e-05,-0.001193,-0.018123,-0.533877,0.001285,-0.809279,-259.768295,0.783549,70.072119
10.716,-0.019029,-0.024373,8.6e-05,0.000383,-7.7e-05,-0.001264,-0.018119,-0.534137,0.00172,-0.884278,-259.76825,0.858548,70.072157
10.7361,-0.019066,-0.02435,0.001539,0.000389,-7.9e-05,-0.000711,-0.018906,-0.534351,0.000235,-0.884278,-259.76825,0.858548,70.072157
10.7562,-0.018998,-0.024644,8.7e-05,0.000395,-8.2e-05,-0.000329,-0.018906,-0.534351,0.000235,-0.884278,-259.76825,0.858548,70.072157
10.776,-0.019192,-0.024273,0.00104,0.000401,-8.6e-05,-6.6e-05,-0.01895,-0.534645,7.9e-05,-0.959126,-259.768189,0.933396,70.072209
10.7965,-0.019475,-0.024202,0.002288,0.000404,-8.7e-05,-2.3e-05,-0.018833,-0.534494,0.000466,-0.959126,-259.768189,0.933396,70.072209
10.8162,-0.018901,-0.024001,0.002535,0.000406,-8.8e-05,5e-06,-0.018308,-0.534201,0.002288,-0.884103,-259.768189,0.858373,70.072209
10.8362,-0.01919,-0.024085,0.000503,0.000383,-7.1e-05,-0.000945,-0.017669,-0.534017,0.002513,-0.884103,-259.768189,0.858373,70.072209
10.8559,-0.018718,-0.024531,0.001166,0.000363,-5.8e-05,-0.001622,-0.017669,-0.534017,0.002513,-0.884103,-259.768189,0.858373,70.072209
10.876,-0.019234,-0.024317,0.000518,0.000347,-4.7e-05,-0.002103,-0.018123,-0.53453,0.001166,-0.808956,-259.768189,0.783226,70.072209
10.8963,-0.018918,-0.024326,0.001291,0.000348,-4.6e-05,-0.001664,-0.018469,-0.534443,0.000901,-0.808956,-259.768189,0.783226,70.072209
10.916,-0.019375,-0.024176,0.002045,0.00035,-4.7e-05,-0.001363,-0.01826,-0.534326,0.001291,-0.883789,-259.768189,0.858059,70.072209
10.9361,-0.018933,-0.024384,0.001246,0.000352,-5.1e-05,-0.001702,-0.018325,-0.534189,0.001977,-0.883789,-259.768189,0.858059,70.072209
10.956,-0.018823,-0.023974,0.000268,0.000355,-5.3e-05,-0.00194,-0.018325,-0.534189,0.001977,-0.883789,-259.768189,0.858059,70.072209
10.9761,-0.019198,-0.024112,-2.8e-05,0.000357,-5.6e-05,-0.002106,-0.018685,-0.533974,0.000266,-0.95879,-259.768169,0.93306,70.072228
10.9962,-0.018828,-0.024182,0.000504,0.000369,-6.1e-05,-0.001217,-0.01891,-0.534033,0.00014,-0.95879,-259.768169,0.93306,70.072228
11.0157,-0.018794,-0.024251,0.000414,0.000382,-6.9e-05,-0.000603,-0.01857,-0.534182,0.000503,-1.034326,-259.768159,1.008596,70.072236
11.0359,-0.018853,-0.024142,0.00033,0.000385,-7.2e-05,-0.00035,-0.018582,-0.534245,0.000422,-1.034326,-259.768159,1.008596,70.072236
11.0562,-0.018858,-0.024477,0.000982,0.000388,-7.4e-05,-0.000179,-0.018582,-0.534245,0.000422,-1.034326,-259.768159,1.008596,70.072236
11.0759,-0.019246,-0.024185,0.002059,0.000392,-7.7e-05,-6.5e-05,-0.018356,-0.534476,0.000979,-0.959865,-259.76814,0.934135,70.072253
11.0962,-0.018855,-0.024251,0.000803,0.000386,-7.4e-05,-0.000532,-0.018291,-0.534358,0.001417,-0.959865,-259.76814,0.934135,70.072253
11.1162,-0.019045,-0.024734,0.002684,0.000381,-7.1e-05,-0.000862,-0.018446,-0.534251,0.000803,-0.884862,-259.76814,0.859132,70.072253
11.1361,-0.019192,-0.024248,0.002073,0.000352,-5.1e-05,-0.001566,-0.017742,-0.534691,0.002523,-0.884862,-259.76814,0.859132,70.072253
11.156,-0.019087,-0.024329,0.000992,0.000328,-3.5e-05,-0.002065,-0.017742,-0.534691,0.002523,-0.884862,-259.76814,0.859132,70.072253
11.1759,-0.01887,-0.024355,0.000714,0.000309,-2.2e-05,-0.002417,-0.018568,-0.534331,0.000963,-0.960047,-259.767915,0.874185,70.072441
11.1963,-0.018766,-0.023931,0.002179,0.00032,-2.7e-05,-0.001851,-0.018541,-0.534341,0.000857,-0.960047,-259.767915,0.874185,70.072441
11.2159,-0.018967,-0.024427,-0.000966,0.00033,-3.4e-05,-0.001463,-0.017654,-0.53393,0.002179,-1.035001,-259.767914,0.949139,70.072442
11.2362,-0.01912,-0.024774,1.6e-05,0.000345,-4e-05,-0.000279,-0.019311,-0.534386,-0.000706,-1.035001,-259.767914,0.949139,70.072442
11.2566,-0.018695,-0.024257,0.001317,0.000362,-4.9e-05,0.000544,-0.019311,-0.534386,-0.000706,-1.035001,-259.767914,0.949139,70.072442
11.2764,-0.018799,-0.024399,0.001681,0.000379,-6e-05,0.001112,-0.01802,-0.534257,0.001306,-1.110079,-259.767839,1.024217,70.072512
11.2963,-0.019042,-0.024281,0.000845,0.000368,-5.5e-05,0.000288,-0.017988,-0.534313,0.001454,-1.110079,-259.767839,1.024217,70.072512
11.3161,-0.018781,-0.024347,0.002679,0.000359,-5e-05,-0.000298,-0.018611,-0.534281,0.000845,-1.035292,-259.767839,0.94943,70.072512
11.3368,-0.018737,-0.023984,-0.000364,0.000335,-3.4e-05,-0.001153,-0.017527,-0.534339,0.002507,-1.035292,-259.767839,0.94943,70.072512
11.356,-0.019043,-0.024092,0.000532,0.000314,-2.1e-05,-0.001763,-0.017527,-0.534339,0.002507,-1.035292,-259.767839,0.94943,70.072512
11.3761,-0.018949,-0.024193,0.000485,0.000297,-1e-05,-0.002195,-0.018771,-0.534092,0.000532,-0.960262,-259.767839,0.8744,70.072512
11.3962,-0.019055,-0.024256,0.001092,0.000316,-2.2e-05,-0.001498,-0.018743,-0.534133,0.000513,-0.960262,-259.767839,0.8744,70.072512
11.4163,-0.019079,-0.024459,0.001928,0.000334,-3.4e-05,-0.00102,-0.018498,-0.534256,0.001091,-1.035217,-259.767838,0.949355,70.072513
11.4363,-0.019047,-0.023893,0.001971,0.000331,-3.4e-05,-0.001399,-0.018132,-0.53444,0.001852,-1.035217,-259.767838,0.949355,70.072513
11.4563,-0.01864,-0.024241,0.000939,0.000328,-3.3e-05,-0.001667,-0.018132,-0.53444,0.001852,-1.035217,-259.767838,0.949355,70.072513
11.4765,-0.018835,-0.023811,0.001351,0.000327,-3.3e-05,-0.001856,-0.01815,-0.534242,0.000905,-1.100209,-259.767607,1.024364,70.072725
11.4967,-0.01885,-0.024026,0.00099,0.000332,-3.6e-05,-0.001598,-0.018147,-0.534066,0.001083,-1.100209,-259.767607,1.024364,70.072725
11.5157,-0.019051,-0.024409,0.001809,0.000337,-4e-05,-0.001421,-0.018342,-0.534026,0.00098,-1.175233,-259.767519,1.099388,70.072809
11.5362,-0.018793,-0.023581,0.000665,0.000336,-4e-05,-0.001637,-0.018145,-0.534378,0.001744,-1.175233,-259.767519,1.099388,70.072809
11.5561,-0.019206,-0.024141,-0.00034,0.000335,-4e-05,-0.001788,-0.018145,-0.534378,0.001744,-1.175233,-259.767519,1.099388,70.072809
11.5761,-0.018965,-0.024058,-0.000551,0.000335,-4e-05,-0.001894,-0.019367,-0.534143,-0.000391,-1.214945,-259.767183,1.17476,70.073118
11.5961,-0.018731,-0.024198,0.001661,0.000355,-4.9e-05,-0.000721,-0.019317,-0.534108,-0.000462,-1.214945,-259.767183,1.17476,70.073118
11.6159,-0.0186,-0.024604,0.001705,0.000375,-6.2e-05,9.5e-05,-0.017876,-0.534198,0.001616,-1.289575,-259.766807,1.24939,70.073471
11.636,-0.018757,-0.024146,0.000478,0.000354,-4.9e-05,-0.000538,-0.017741,-0.534574,0.001697,-1.289575,-259.766807,1.24939,70.073471
11.6561,-0.018429,-0.02394,0.001025,0.000336,-3.8e-05,-0.000989,-0.017741,-0.534574,0.001697,-1.289575,-259.766807,1.24939,70.073471
11.6759,-0.018783,-0.024284,0.002695,0.000322,-2.9e-05,-0.001309,-0.017906,-0.53394,0.001025,-1.214071,-259.766807,1.173886,70.073471
11.6966,-0.018789,-0.024083,-0.000106,0.000318,-2.7e-05,-0.001542,-0.017702,-0.53408,0.001709,-1.214071,-259.766807,1.173886,70.073471
11.7161,-0.018564,-0.024302,-0.000356,0.000315,-2.6e-05,-0.001706,-0.018832,-0.534084,-0.000149,-1.200082,-259.766453,1.174734,70.073804
11.7361,-0.018584,-0.02446,0.000877,0.000324,-2.7e-05,-0.000661,-0.018753,-0.534282,-0.000339,-1.200082,-259.766453,1.174734,70.073804
11.7563,-0.018719,-0.024119,0.000244,0.000335,-3.3e-05,6.3e-05,-0.018753,-0.534282,-0.000339,-1.200082,-259.766453,1.174734,70.073804
11.7761,-0.018592,-0.0242,0.001064,0.000347,-4.1e-05,0.000563,-0.018584,-0.53412,0.000189,-1.275068,-259.766109,1.249721,70.074132
11.7961,-0.018419,-0.023999,0.001038,0.000356,-4.8e-05,0.000379,-0.018365,-0.534152,0.000539,-1.275068,-259.766109,1.249721,70.074132
11.8158,-0.018521,-0.024012,0.000806,0.000363,-5.3e-05,0.000247,-0.01789,-0.533998,0.001038,-1.20008,-259.766109,1.174733,70.074132
11.8361,-0.018307,-0.024024,2.8e-05,0.000365,-5.5e-05,-1.2e-05,-0.018091,-0.534011,0.000826,-1.20008,-259.766109,1.174733,70.074132
11.8559,-0.018626,-0.024029,0.000816,0.000367,-5.6e-05,-0.000194,-0.018091,-0.534011,0.000826,-1.20008,-259.766109,1.174733,70.074132
11.8758,-0.018723,-0.024258,0.002069,0.000368,-5.7e-05,-0.000323,-0.018209,-0.534029,0.000816,-1.125046,-259.766109,1.099698,70.074132
11.896,-0.018553,-0.024104,-0.000589,0.000363,-5.6e-05,-0.00068,-0.017988,-0.534122,0.001327,-1.125046,-259.766109,1.099698,70.074132
11.9159,-0.018541,-0.024414,0.000481,0.000359,-5.4e-05,-0.00093,-0.018853,-0.534104,-0.000589,-1.050099,-259.766109,1.024752,70.074132
11.9362,-0.018588,-0.024288,0.000869,0.000357,-5.2e-05,-0.000576,-0.018345,-0.534387,0.000386,-1.050099,-259.766109,1.024752,70.074132
11.9562,-0.01841,-0.02404,0.001399,0.000357,-5.1e-05,-0.000331,-0.018345,-0.534387,0.000386,-1.050099,-259.766109,1.024752,70.074132
11.9763,-0.018551,-0.024259,0.000493,0.000357,-5.1e-05,-0.000162,-0.017682,-0.534042,0.001363,-1.047311,-259.76584,0.960889,70.074367
11.9959,-0.01859,-0.024082,0.000485,0.000353,-5e-05,-0.000397,-0.017933,-0.534131,0.001002,-1.047311,-259.76584,0.960889,70.074367
12.0158,-0.018492,-0.024476,0.002598,0.00035,-4.8e-05,-0.000561,-0.018342,-0.534081,0.000485,-0.972343,-259.76584,0.88592,70.074367
12.0359,-0.01863,-0.024111,1.6e-05,0.00032,-2.7e-05,-0.001316,-0.01727,-0.53444,0.002412,-0.972343,-259.76584,0.88592,70.074367
12.0559,-0.018596,-0.0245,0.000915,0.000294,-1e-05,-0.001852,-0.01727,-0.53444,0.002412,-0.972343,-259.76584,0.88592,70.074367
12.0759,-0.018698,-0.02454,0.000815,0.000274,3e-06,-0.002229,-0.018123,-0.5345,0.000904,-0.897286,-259.76575,0.810864,70.074446
12.0963,-0.018332,-0.024367,0.001264,0.00028,1e-06,-0.001734,-0.018187,-0.534516,0.000866,-0.897286,-259.76575,0.810864,70.074446
12.1159,-0.018562,-0.024595,0.000588,0.000286,-2e-06,-0.001393,-0.017688,-0.534366,0.001264,-0.972274,-259.76575,0.885852,70.074446
12.1362,-0.018708,-0.024143,0.000137,0.000291,-5e-06,-0.001034,-0.018212,-0.534575,0.000648,-0.972274,-259.76575,0.885852,70.074446
12.1563,-0.018878,-0.024342,-0.000361,0.000296,-8e-06,-0.000787,-0.018212,-0.534575,0.000648,-0.972274,-259.76575,0.885852,70.074446
12.1765,-0.01862,-0.024342,0.000684,0.000301,-1.2e-05,-0.000618,-0.019061,-0.534342,-0.000363,-1.047322,-259.765737,0.9609,70.074459
12.1959,-0.018389,-0.024219,0.001707,0.000319,-2.3e-05,-0.000158,-0.018739,-0.534342,6.3e-05,-1.047322,-259.765737,0.9609,70.074459
12.2157,-0.018781,-0.024495,0.000377,0.000335,-3.4e-05,0.000159,-0.017512,-0.534219,0.001694,-0.972412,-259.765604,0.885989,70.074587
12.2359,-0.018714,-0.024353,-0.000695,0.000343,-3.9e-05,0.000119,-0.018492,-0.534471,0.000495,-0.972412,-259.765604,0.885989,70.074587
12.2559,-0.01865,-0.024008,-0.000423,0.000349,-4.4e-05,8.8e-05,-0.018492,-0.534471,0.000495,-0.972412,-259.765604,0.885989,70.074587
12.2761,-0.018716,-0.024126,0.00041,0.000355,-4.7e-05,6.4e-05,-0.018865,-0.534008,-0.000423,-0.897416,-259.765604,0.810994,70.074587
12.2959,-0.01835,-0.02446,0.00198,0.000369,-5.6e-05,0.000393,-0.018721,-0.534056,-8.6e-05,-0.897416,-259.765604,0.810994,70.074587
12.3164,-0.018355,-0.024256,0.001518,0.000381,-6.4e-05,0.00062,-0.01734,-0.534459,0.00198,-0.822419,-259.765604,0.735997,70.074587
12.3361,-0.018959,-0.023997,-5.8e-05,0.000359,-5.1e-05,-0.000122,-0.01756,-0.534272,0.001557,-0.822419,-259.765604,0.735997,70.074587
12.3559,-0.018284,-0.024211,0.000395,0.000341,-4e-05,-0.000648,-0.01756,-0.534272,0.001557,-0.822419,-259.765604,0.735997,70.074587
12.3761,-0.018506,-0.024218,-0.001924,0.000327,-3.1e-05,-0.001018,-0.018083,-0.534211,0.000395,-0.747201,-259.765604,0.660779,70.074587
12.3964,-0.018676,-0.024499,-0.000672,0.000333,-3.2e-05,-7.4e-05,-0.01866,-0.534214,-0.000557,-0.747201,-259.765604,0.660779,70.074587
12.4158,-0.018723,-0.024423,-0.000454,0.000342,-3.6e-05,0.000583,-0.019019,-0.534499,-0.000672,-0.822137,-259.765601,0.735715,70.07459
12.436,-0.018537,-0.024281,0.000779,0.000355,-4.5e-05,0.000987,-0.01896,-0.53443,-0.000473,-0.822137,-259.765601,0.735715,70.07459
12.4564,-0.018859,-0.02401,0.000238,0.000367,-5.3e-05,0.001266,-0.01896,-0.53443,-0.000473,-0.822137,-259.765601,0.735715,70.07459
12.4764,-0.018808,-0.024583,0.001159,0.000378,-6.1e-05,0.001456,-0.018737,-0.53401,0.000238,-0.747284,-259.765601,0.660862,70.07459
12.4964,-0.01863,-0.024416,-0.000685,0.000383,-6.7e-05,0.000942,-0.018526,-0.534242,0.000612,-0.747284,-259.765601,0.660862,70.07459
12.5163,-0.019083,-0.024142,0.000344,0.000387,-7.2e-05,0.000582,-0.01898,-0.534415,-0.000685,-0.672296,-259.765601,0.585873,70.07459
12.5363,-0.018426,-0.023843,-0.000226,0.0004,-8.1e-05,0.000541,-0.018914,-0.534168,0.000247,-0.672296,-259.765601,0.585873,70.07459
12.5565,-0.018116,-0.024361,-0.000886,0.000409,-8.9e-05,0.000513,-0.018914,-0.534168,0.000247,-0.672296,-259.765601,0.585873,70.07459
12.5759,-0.018421,-0.023855,0.000317,0.000418,-9.5e-05,0.000493,-0.018568,-0.534361,-0.000886,-0.597293,-259.765601,0.510871,70.07459
12.5961,-0.018797,-0.024186,-0.000138,0.00041,-8.8e-05,0.000868,-0.018442,-0.534154,-0.000394,-0.597293,-259.765601,0.510871,70.07459
12.6158,-0.018479,-0.024216,0.000806,0.000404,-8.4e-05,0.001128,-0.018867,-0.534186,-0.000138,-0.522267,-259.765601,0.435845,70.07459
12.6361,-0.018401,-0.024216,0.000747,0.000396,-7.9e-05,0.000653,-0.018144,-0.534213,0.000716,-0.522267,-259.765601,0.435845,70.07459
12.6565,-0.018537,-0.024418,0.001213,0.000389,-7.5e-05,0.000319,-0.018144,-0.534213,0.000716,-0.522267,-259.765601,0.435845,70.07459
12.6763,-0.018602,-0.024233,0.000167,0.000383,-7e-05,8.6e-05,-0.017919,-0.534418,0.001213,-0.44728,-259.765601,0.360858,70.07459
12.6962,-0.018481,-0.024087,2e-06,0.000376,-6.5e-05,-0.000114,-0.018164,-0.534342,0.000784,-0.44728,-259.765601,0.360858,70.07459
12.7163,-0.018573,-0.024096,9.1e-05,0.00037,-6.1e-05,-0.000253,-0.01848,-0.534087,2e-06,-0.372241,-259.765601,0.285819,70.07459
12.7364,-0.018565,-0.024438,-0.000891,0.000375,-6.4e-05,6.2e-05,-0.018523,-0.534095,8.3e-05,-0.372241,-259.765601,0.285819,70.07459
12.7564,-0.018601,-0.02422,0.000456,0.00038,-6.6e-05,0.000282,-0.018523,-0.534095,8.3e-05,-0.372241,-259.765601,0.285819,70.07459
12.7764,-0.018473,-0.023971,-8.6e-05,0.000384,-7e-05,0.000435,-0.018358,-0.534221,0.000449,-0.447194,-259.765487,0.24753,70.074691
12.7963,-0.018631,-0.024029,0.001245,0.000386,-7.1e-05,0.000451,-0.018421,-0.53412,0.000233,-0.447194,-259.765487,0.24753,70.074691
12.8166,-0.018563,-0.024307,-0.000339,0.000388,-7.3e-05,0.000462,-0.017996,-0.534029,0.001245,-0.372201,-259.765487,0.172537,70.074691
12.8364,-0.018722,-0.023958,-3.8e-05,0.00039,-7.3e-05,0.000717,-0.018661,-0.534278,-0.000178,-0.372201,-259.765487,0.172537,70.074691
12.8561,-0.018568,-0.024713,0.001027,0.000392,-7.5e-05,0.000893,-0.018661,-0.534278,-0.000178,-0.372201,-259.765487,0.172537,70.074691
12.8762,-0.018311,-0.024197,0.001177,0.000395,-7.7e-05,0.001015,-0.018044,-0.534713,0.001027,-0.297193,-259.765487,0.097528,70.074691
12.8961,-0.018607,-0.024191,1.3e-05,0.000376,-6.5e-05,0.000377,-0.017908,-0.534501,0.001088,-0.297193,-259.765487,0.097528,70.074691
12.9158,-0.018734,-0.024334,0.000672,0.00036,-5.5e-05,-7.2e-05,-0.0186,-0.534191,1.3e-05,-0.222066,-259.765487,0.022402,70.074691
12.936,-0.018913,-0.024208,-0.000442,0.000363,-5.7e-05,-0.000128,-0.018409,-0.534321,0.000616,-0.222066,-259.765487,0.022402,70.074691
12.9564,-0.018414,-0.024298,-3.8e-05,0.000366,-5.8e-05,-0.000167,-0.018409,-0.534321,0.000616,-0.222066,-259.765487,0.022402,70.074691
12.9765,-0.018575,-0.024203,0.000979,0.000368,-5.9e-05,-0.000193,-0.018419,-0.5343,-4.1e-05,-0.268484,-259.76535,-0.03086,70.074824
12.9968,-0.018454,-0.024005,0.000156,0.000366,-5.7e-05,-6.6e-05,-0.018279,-0.534261,0.000371,-0.268484,-259.76535,-0.03086,70.074824
13.0162,-0.018134,-0.024351,-0.000394,0.000365,-5.6e-05,2.2e-05,-0.01837,-0.534005,0.000155,-0.34335,-259.765295,0.044006,70.074873
13.036,-0.01867,-0.023882,0.003022,0.000361,-5.1e-05,0.000515,-0.018338,-0.53432,-0.000345,-0.34335,-259.765295,0.044006,70.074873
13.0561,-0.018732,-0.023907,-0.000112,0.000358,-4.9e-05,0.000857,-0.018338,-0.53432,-0.000345,-0.34335,-259.765295,0.044006,70.074873
13.076,-0.018302,-0.02442,-0.000763,0.000357,-4.8e-05,0.001094,-0.018787,-0.533908,-0.000113,-0.26819,-259.765269,-0.031154,70.0749
13.0963,-0.018225,-0.023754,0.00143,0.00037,-5.8e-05,0.001275,-0.018747,-0.534119,-0.00038,-0.26819,-259.765269,-0.031154,70.0749
13.116,-0.018529,-0.024207,-0.000521,0.000381,-6.6e-05,0.001399,-0.017496,-0.533754,0.00143,-0.193255,-259.765269,-0.106089,70.0749
13.136,-0.018731,-0.023839,-0.000288,0.000388,-7.1e-05,0.001468,-0.018684,-0.534168,-0.000354,-0.193255,-259.765269,-0.106089,70.0749
13.1562,-0.018302,-0.0243,0.001011,0.000394,-7.6e-05,0.001515,-0.018684,-0.534168,-0.000354,-0.193255,-259.765269,-0.106089,70.0749
13.1758,-0.018684,-0.024169,0.001679,0.000399,-8e-05,0.001545,-0.017787,-0.5343,0.001011,-0.11824,-259.765269,-0.181104,70.0749
13.196,-0.018478,-0.024101,0.000368,0.00038,-6.8e-05,0.000648,-0.017804,-0.534245,0.00129,-0.11824,-259.765269,-0.181104,70.0749
13.2161,-0.018534,-0.024745,0.002065,0.000364,-5.9e-05,1.3e-05,-0.01829,-0.534101,0.000368,-0.0429,-259.765269,-0.256444,70.0749
13.236,-0.018635,-0.024143,-0.00083,0.000335,-3.8e-05,-0.000716,-0.017553,-0.534687,0.001913,-0.0429,-259.765269,-0.256444,70.0749
13.256,-0.01852,-0.02432,0.00097,0.00031,-2.2e-05,-0.001232,-0.017553,-0.534687,0.001913,-0.0429,-259.765269,-0.256444,70.0749
13.276,-0.018979,-0.024667,-0.000536,0.000291,-9e-06,-0.001595,-0.018013,-0.534321,0.00097,-0.117451,-259.765152,-0.181893,70.075018
13.2962,-0.018636,-0.024221,0.001478,0.0003,-1.4e-05,-0.00101,-0.018522,-0.534464,0.00035,-0.117451,-259.765152,-0.181893,70.075018
13.3165,-0.018587,-0.0247,-0.000743,0.00031,-2e-05,-0.000606,-0.017882,-0.53422,0.001478,-0.192532,-259.765152,-0.106812,70.075018
13.3362,-0.018362,-0.024264,0.000246,0.000318,-2.2e-05,0.000204,-0.018866,-0.534655,-0.000539,-0.192532,-259.765152,-0.106812,70.075018
13.356,-0.018526,-0.024218,0.002084,0.000327,-2.6e-05,0.000766,-0.018866,-0.534655,-0.000539,-0.192532,-259.765152,-0.106812,70.075018
13.3759,-0.018412,-0.024559,0.00042,0.000336,-3.2e-05,0.001154,-0.017463,-0.534217,0.002084,-0.267445,-259.765152,-0.031898,70.075018
13.3962,-0.018426,-0.024583,0.001495,0.000325,-2.7e-05,0.00033,-0.017764,-0.534357,0.001402,-0.267445,-259.765152,-0.031898,70.075018
13.4164,-0.018223,-0.024094,0.000788,0.000317,-2.3e-05,-0.000255,-0.017664,-0.534582,0.001495,-0.192343,-259.765152,-0.107,70.075018
13.436,-0.018607,-0.02411,-0.000311,0.000316,-2.3e-05,-0.000379,-0.017807,-0.534139,0.000852,-0.192343,-259.765152,-0.107,70.075018
13.4559,-0.01858,-0.024352,0.00211,0.000316,-2.2e-05,-0.000467,-0.017807,-0.534139,0.000852,-0.192343,-259.765152,-0.107,70.075018
13.4759,-0.01851,-0.024392,0.000976,0.000316,-2.2e-05,-0.000528,-0.017504,-0.53435,0.00211,-0.267248,-259.765152,-0.032096,70.075018
13.496,-0.01874,-0.024167,0.000504,0.000307,-1.8e-05,-0.000976,-0.017715,-0.534367,0.00164,-0.267248,-259.765152,-0.032096,70.075018
13.5159,-0.018489,-0.024303,0.000679,0.0003,-1.4e-05,-0.001291,-0.018483,-0.534167,0.000504,-0.342396,-259.765152,0.043052,70.075018
13.5358,-0.018401,-0.024213,0.00023,0.000306,-1.7e-05,-0.000987,-0.018174,-0.53429,0.000663,-0.342396,-259.765152,0.043052,70.075018
13.5562,-0.018416,-0.024082,0.000994,0.000312,-2.1e-05,-0.000777,-0.018174,-0.53429,0.000663,-0.342396,-259.765152,0.043052,70.075018
13.576,-0.018432,-0.024414,-0.000525,0.000318,-2.5e-05,-0.000632,-0.017909,-0.534082,0.000994,-0.417236,-259.765152,0.117893,70.075018
13.5957,-0.01862,-0.024269,0.000947,0.000324,-2.9e-05,-0.000364,-0.01823,-0.534217,0.000378,-0.417236,-259.765152,0.117893,70.075018
13.6162,-0.018553,-0.024234,0.000383,0.00033,-3.3e-05,-0.000179,-0.018137,-0.534269,0.000947,-0.492243,-259.765152,0.1929,70.075018
13.6362,-0.018419,-0.024318,0.000183,0.000338,-3.8e-05,-8.6e-05,-0.018338,-0.534237,0.000434,-0.492243,-259.765152,0.1929,70.075018
13.6561,-0.018287,-0.024348,0.000753,0.000345,-4.3e-05,-2.2e-05,-0.018338,-0.534237,0.000434,-0.492243,-259.765152,0.1929,70.075018
13.6759,-0.018544,-0.024272,-0.000394,0.000351,-4.6e-05,2.1e-05,-0.017891,-0.534349,0.000746,-0.41723,-259.765026,0.227297,70.075136
13.6959,-0.018773,-0.023875,0.001571,0.000351,-4.6e-05,0.000137,-0.018232,-0.534318,0.000289,-0.41723,-259.765026,0.227297,70.075136
13.7163,-0.018354,-0.024167,9.4e-05,0.000351,-4.6e-05,0.000216,-0.017972,-0.533874,0.001571,-0.342241,-259.765024,0.152307,70.075139
13.7363,-0.018481,-0.024327,0.000615,0.000355,-4.9e-05,0.0003,-0.018273,-0.534139,0.000237,-0.342241,-259.765024,0.152307,70.075139
13.7562,-0.018605,-0.024196,0.001243,0.000359,-5.1e-05,0.000358,-0.018273,-0.534139,0.000237,-0.342241,-259.765024,0.152307,70.075139
13.7761,-0.018538,-0.024077,0.000406,0.000362,-5.3e-05,0.000398,-0.017971,-0.534196,0.001243,-0.267144,-259.765024,0.07721,70.075139
13.7964,-0.018491,-0.024122,0.000454,0.000362,-5.4e-05,4e-05,-0.018116,-0.534148,0.000905,-0.267144,-259.765024,0.07721,70.075139
13.8159,-0.018619,-0.024189,0.000982,0.000362,-5.4e-05,-0.00021,-0.01826,-0.534122,0.000454,-0.192251,-259.765024,0.002318,70.075139
13.8364,-0.018828,-0.02412,-0.000164,0.000361,-5.4e-05,-0.000398,-0.018132,-0.534182,0.000929,-0.192251,-259.765024,0.002318,70.075139
13.8565,-0.018518,-0.024334,0.000777,0.00036,-5.4e-05,-0.000529,-0.018132,-0.534182,0.000929,-0.192251,-259.765024,0.002318,70.075139
13.8761,-0.018604,-0.024113,0.000868,0.00036,-5.4e-05,-0.000619,-0.01812,-0.534335,0.000776,-0.26726,-259.764999,0.077326,70.075161
13.8961,-0.018533,-0.024242,0.002176,0.000358,-5.3e-05,-0.000616,-0.018137,-0.534243,0.000814,-0.26726,-259.764999,0.077326,70.075161
13.9158,-0.018381,-0.024115,0.001166,0.000357,-5.2e-05,-0.000614,-0.017424,-0.534241,0.002176,-0.342353,-259.764999,0.15242,70.075161
13.9358,-0.018368,-0.024237,-0.001174,0.000348,-4.7e-05,-0.000841,-0.01776,-0.534124,0.001239,-0.342353,-259.764999,0.15242,70.075161
13.9558,-0.017913,-0.024533,9.9e-05,0.000341,-4.3e-05,-0.000999,-0.01776,-0.534124,0.001239,-0.342353,-259.764999,0.15242,70.075161
13.9757,-0.018328,-0.02432,0.000238,0.000335,-4e-05,-0.001108,-0.017863,-0.534533,9.9e-05,-0.417781,-259.764999,0.227847,70.075161
13.9959,-0.018875,-0.024262,0.000915,0.000326,-3.2e-05,-0.000558,-0.018003,-0.534446,0.000155,-0.417781,-259.764999,0.227847,70.075161
14.0156,-0.018526,-0.024193,0.000458,0.000321,-2.7e-05,-0.000177,-0.018408,-0.534262,0.000915,-0.492251,-259.764999,0.302317,70.075161
14.0359,-0.018527,-0.024077,-0.000967,0.000331,-3.3e-05,-0.000122,-0.018302,-0.534199,0.000497,-0.492251,-259.764999,0.302317,70.075161
14.0558,-0.018243,-0.024124,0.001429,0.000339,-3.9e-05,-8.4e-05,-0.018302,-0.534199,0.000497,-0.492251,-259.764999,0.302317,70.075161
14.0759,-0.018933,-0.024195,0.0007,0.000346,-4.3e-05,-5.9e-05,-0.017503,-0.534125,0.001423,-0.417124,-259.764884,0.249276,70.075271
14.0958,-0.018801,-0.024234,-0.000571,0.000344,-4.3e-05,-0.000393,-0.017941,-0.534154,0.001127,-0.417124,-259.764884,0.249276,70.075271
14.1159,-0.018819,-0.024534,0.002565,0.000342,-4.3e-05,-0.000627,-0.019091,-0.534234,-0.000572,-0.342138,-259.764859,0.174289,70.075295
14.1359,-0.018661,-0.02414,0.001055,0.000322,-2.9e-05,-0.001323,-0.017647,-0.534507,0.002295,-0.342138,-259.764859,0.174289,70.075295
14.156,-0.018588,-0.024425,0.000963,0.000305,-1.8e-05,-0.001814,-0.017647,-0.534507,0.002295,-0.342138,-259.764859,0.174289,70.075295
14.1758,-0.018366,-0.024245,0.001954,0.000291,-9e-06,-0.002158,-0.018097,-0.534425,0.000963,-0.417165,-259.764859,0.249317,70.075295
14.1959,-0.018383,-0.024189,0.003133,0.00029,-8e-06,-0.001962,-0.017802,-0.534351,0.001365,-0.417165,-259.764859,0.249317,70.075295
14.2157,-0.018696,-0.024211,-0.000815,0.000289,-7e-06,-0.001827,-0.016785,-0.534187,0.003133,-0.492064,-259.764859,0.324215,70.075295
14.2359,-0.018547,-0.024453,-0.001549,0.000306,-1.4e-05,-0.000677,-0.018902,-0.534209,-0.000459,-0.492064,-259.764859,0.324215,70.075295
14.2561,-0.018503,-0.024272,0.000829,0.000324,-2.5e-05,0.000123,-0.018902,-0.534209,-0.000459,-0.492064,-259.764859,0.324215,70.075295
14.276,-0.01836,-0.024082,0.003764,0.000342,-3.6e-05,0.000674,-0.01808,-0.534272,0.000829,-0.567034,-259.764859,0.399185,70.075295
14.2962,-0.018378,-0.023801,9e-06,0.000323,-2.3e-05,-0.000272,-0.017408,-0.534193,0.002031,-0.567034,-259.764859,0.399185,70.075295
14.3169,-0.018682,-0.024738,0.001024,0.000306,-1.4e-05,-0.000948,-0.018373,-0.533801,9e-06,-0.491888,-259.764859,0.32404,70.075295
14.3366,-0.018635,-0.024205,-0.000846,0.000307,-1.5e-05,-0.000891,-0.018178,-0.534657,0.000937,-0.491888,-259.764859,0.32404,70.075295
14.3564,-0.018654,-0.024278,0.000337,0.000308,-1.6e-05,-0.000855,-0.018178,-0.534657,0.000937,-0.491888,-259.764859,0.32404,70.075295
14.376,-0.018544,-0.024563,0.000279,0.000309,-1.7e-05,-0.000832,-0.018482,-0.534278,0.000337,-0.566873,-259.764859,0.399024,70.075295
14.3961,-0.018447,-0.024383,-0.001633,0.000318,-2.3e-05,-0.000456,-0.018449,-0.534396,0.000313,-0.566873,-259.764859,0.399024,70.075295
14.4157,-0.018451,-0.024416,0.000318,0.000327,-2.9e-05,-0.000198,-0.01928,-0.534382,-0.001633,-0.641929,-259.764859,0.474081,70.075295
14.4363,-0.018703,-0.02404,0.000384,0.000332,-3.1e-05,8.2e-05,-0.018379,-0.534413,0.000141,-0.641929,-259.764859,0.474081,70.075295
14.4562,-0.018564,-0.023759,-0.000689,0.000337,-3.4e-05,0.000274,-0.018379,-0.534413,0.000141,-0.641929,-259.764859,0.474081,70.075295
14.4762,-0.018584,-0.024138,0.000304,0.000341,-3.7e-05,0.000405,-0.018913,-0.533759,-0.000692,-0.567117,-259.764823,0.399269,70.07533
14.496,-0.01857,-0.023977,0.000625,0.000359,-4.9e-05,0.00075,-0.018715,-0.533914,-0.000287,-0.567117,-259.764823,0.399269,70.07533
14.516,-0.018885,-0.024025,0.001608,0.000375,-6.1e-05,0.000987,-0.018251,-0.533977,0.000625,-0.492103,-259.764823,0.324254,70.07533
14.5361,-0.018461,-0.024236,0.001479,0.000371,-6e-05,0.000151,-0.018082,-0.53402,0.001519,-0.492103,-259.764823,0.324254,70.07533
14.556,-0.018409,-0.024268,0.000942,0.000368,-6e-05,-0.00044,-0.018082,-0.53402,0.001519,-0.492103,-259.764823,0.324254,70.07533
14.5758,-0.018601,-0.024045,-0.000409,0.000366,-6e-05,-0.000857,-0.017929,-0.534268,0.000942,-0.417135,-259.764823,0.249287,70.07533
14.5957,-0.018536,-0.024318,0.001721,0.000365,-5.8e-05,-0.000528,-0.018289,-0.534177,0.00039,-0.417135,-259.764823,0.249287,70.07533
14.6159,-0.018076,-0.024489,3.3e-05,0.000365,-5.8e-05,-0.000301,-0.017659,-0.534317,0.001721,-0.492126,-259.764823,0.324278,70.07533
14.6358,-0.018529,-0.023991,0.000583,0.000353,-4.8e-05,-1.4e-05,-0.018024,-0.534474,0.000179,-0.492126,-259.764823,0.324278,70.07533
14.6562,-0.018627,-0.024353,-0.000193,0.000343,-4.1e-05,0.000182,-0.018024,-0.534474,0.000179,-0.492126,-259.764823,0.324278,70.07533
14.6761,-0.01843,-0.023895,0.000573,0.000336,-3.6e-05,0.000317,-0.018712,-0.534355,-0.000204,-0.567311,-259.76467,0.332485,70.075464
14.6963,-0.018523,-0.024196,0.000603,0.000347,-4.3e-05,0.000445,-0.018474,-0.534166,0.000114,-0.567311,-259.76467,0.332485,70.075464
14.7157,-0.018307,-0.024455,0.000576,0.000356,-4.9e-05,0.000532,-0.018216,-0.534196,0.000603,-0.492324,-259.76467,0.257498,70.075464
14.7358,-0.018267,-0.024529,0.000826,0.00035,-4.5e-05,0.00032,-0.018031,-0.534431,0.000579,-0.492324,-259.76467,0.257498,70.075464
14.7559,-0.018646,-0.024902,0.002484,0.000345,-4.1e-05,0.00017,-0.018031,-0.534431,0.000579,-0.492324,-259.76467,0.257498,70.075464
14.7764,-0.01843,-0.02408,0.001437,0.000341,-3.8e-05,6.5e-05,-0.017379,-0.5349,0.002484,-0.417462,-259.76467,0.182636,70.075464
14.7963,-0.018473,-0.024526,-0.001472,0.000317,-2.2e-05,-0.000737,-0.017509,-0.534565,0.002057,-0.417462,-259.76467,0.182636,70.075464
14.8161,-0.018291,-0.024527,0.001962,0.000297,-1e-05,-0.001305,-0.019223,-0.534526,-0.001472,-0.342451,-259.76467,0.107625,70.075464
14.8361,-0.018344,-0.02415,-0.000237,0.000283,-1e-06,-0.001523,-0.017464,-0.534526,0.001653,-0.342451,-259.76467,0.107625,70.075464
14.8561,-0.018321,-0.024227,-0.000367,0.000272,7e-06,-0.001675,-0.017464,-0.534526,0.001653,-0.342451,-259.76467,0.107625,70.075464
