mach0312/omni-docking-bench/src/icros_test_setup/results/MPPI_sample/timeseries/trial_106.csv
t,x,y,yaw,vx,vy,wz,bl_x,bl_y,bl_yaw,front_steering_joint,front_wheel_joint,rear_steering_joint,rear_wheel_joint
0.0,-0.060907,0.019342,0.0672,0.0,0.0,0.0,-0.027055,-0.489502,0.067146,0.522604,-263.560748,-0.119717,69.100541
0.0006,-0.061013,0.019438,0.067171,0.0,0.0,0.0,-0.027437,-0.489589,0.066342,0.522604,-263.560074,-0.119717,69.101128
0.0011,-0.060895,0.019257,0.067399,0.0,0.0,0.0,-0.027437,-0.489589,0.066342,0.522604,-263.560074,-0.119717,69.101128
0.0015,-0.060933,0.019204,0.066604,0.0,0.0,0.0,-0.027153,-0.489515,0.066632,0.522604,-263.560074,-0.119717,69.101128
0.0019,-0.060817,0.019189,0.067447,0.0,0.0,0.0,-0.027153,-0.489515,0.066632,0.522604,-263.560074,-0.119717,69.101128
0.0024,-0.060967,0.019124,0.067047,9.9e-05,1.2e-05,0.0,-0.027153,-0.489515,0.066632,0.522604,-263.560074,-0.119717,69.101128
0.0029,-0.061034,0.019494,0.068061,9.9e-05,1.2e-05,0.0,-0.027153,-0.489515,0.066632,0.447569,-263.560073,-0.044682,69.101129
0.0033,-0.061266,0.019414,0.068174,9.9e-05,1.2e-05,0.0,-0.027281,-0.489363,0.06648,0.447569,-263.560073,-0.044682,69.101129
0.0036,-0.060851,0.01879,0.067789,9.9e-05,1.2e-05,0.0,-0.026849,-0.489533,0.067287,0.447569,-263.560073,-0.044682,69.101129
0.0039,-0.061311,0.019234,0.068149,9.9e-05,1.2e-05,0.0,-0.026849,-0.489533,0.067287,0.447569,-263.560073,-0.044682,69.101129
0.0155,-0.061172,0.019152,0.068297,0.0,0.0,0.0,-0.026582,-0.489582,0.06815,0.372398,-263.560069,0.030489,69.101134
0.0357,-0.06119,0.019584,0.066691,0.0,0.0,0.0,-0.026387,-0.489652,0.068283,0.372398,-263.560069,0.030489,69.101134
0.0563,-0.061546,0.01963,0.06857,0.0,0.0,0.0,-0.026387,-0.489652,0.068283,0.372398,-263.560069,0.030489,69.101134
0.0764,-0.061434,0.019241,0.065842,0.0,0.0,0.0,-0.026603,-0.489171,0.06857,0.372398,-263.560069,0.030489,69.101134
0.0956,-0.060977,0.019375,0.065831,0.0,0.0,0.0,-0.027116,-0.489365,0.067473,0.372398,-263.560069,0.030489,69.101134
0.1154,-0.060866,0.01922,0.06736,0.004232,-0.001556,-0.007607,-0.027428,-0.489521,0.065831,0.372398,-263.560069,0.030489,69.101134
0.1357,-0.061299,0.019002,0.066755,0.004617,-0.001663,-0.008173,-0.026618,-0.489614,0.067223,0.372398,-263.560069,0.030489,69.101134
0.156,-0.061389,0.019031,0.066612,0.004944,-0.001746,-0.008621,-0.026618,-0.489614,0.067223,0.372398,-263.560069,0.030489,69.101134
0.1759,-0.061124,0.018887,0.067646,0.005223,-0.001811,-0.008973,-0.027443,-0.489838,0.066612,0.29739,-263.560069,0.105497,69.101134
0.1959,-0.061104,0.019319,0.067231,0.00547,-0.001847,-0.009248,-0.027121,-0.489882,0.067032,0.29739,-263.560069,0.105497,69.101134
0.2155,-0.060793,0.019392,0.066171,0.00568,-0.001873,-0.009465,-0.026842,-0.489528,0.067231,0.22238,-263.560069,0.180507,69.101134
0.236,-0.061002,0.019471,0.068387,0.005854,-0.001901,-0.009637,-0.027051,-0.489495,0.066261,0.22238,-263.560069,0.180507,69.101134
0.2559,-0.060754,0.019025,0.065992,0.006001,-0.00192,-0.009773,-0.027051,-0.489495,0.066261,0.22238,-263.560069,0.180507,69.101134
0.2759,-0.060787,0.019442,0.066243,0.006127,-0.001934,-0.00988,-0.027123,-0.489864,0.065992,0.147257,-263.560069,0.25563,69.101134
0.2958,-0.06118,0.019165,0.067235,0.006237,-0.001939,-0.009963,-0.027084,-0.489691,0.066094,0.147257,-263.560069,0.25563,69.101134
0.3155,-0.060935,0.019263,0.06686,0.006331,-0.001942,-0.010028,-0.026916,-0.489682,0.067235,0.072404,-263.560069,0.330482,69.101134
0.3361,-0.061109,0.018958,0.066783,0.006407,-0.001949,-0.010079,-0.026866,-0.489605,0.066892,0.072404,-263.560069,0.330482,69.101134
0.3557,-0.061256,0.019146,0.067421,0.006471,-0.001954,-0.01012,-0.026866,-0.489605,0.066892,0.072404,-263.560069,0.330482,69.101134
0.3754,-0.061343,0.018894,0.066242,0.006527,-0.001957,-0.010151,-0.026897,-0.489695,0.067421,-0.002725,-263.560068,0.405612,69.101134
0.3955,-0.061131,0.019063,0.068613,0.006581,-0.001949,-0.010174,-0.027181,-0.489816,0.066934,-0.002725,-263.560068,0.405612,69.101134
0.4157,-0.061293,0.019319,0.065771,0.006627,-0.001941,-0.010192,-0.026166,-0.489737,0.068613,-0.077738,-263.560068,0.480625,69.101134
0.4359,-0.061095,0.01908,0.067604,0.006669,-0.001931,-0.010206,-0.027628,-0.489593,0.066029,-0.077738,-263.560068,0.480625,69.101134
0.456,-0.061202,0.019465,0.065673,0.006704,-0.001922,-0.010217,-0.027628,-0.489593,0.066029,-0.077738,-263.560068,0.480625,69.101134
0.4759,-0.061118,0.01948,0.0666,0.006735,-0.001914,-0.010225,-0.027732,-0.489435,0.065673,-0.152589,-263.560068,0.555476,69.101135
0.496,-0.061517,0.018948,0.067842,0.006756,-0.001913,-0.010233,-0.027507,-0.489417,0.066049,-0.152589,-263.560068,0.555476,69.101135
0.5162,-0.061034,0.019275,0.066598,0.006775,-0.001911,-0.010239,-0.026944,-0.489879,0.067841,-0.227598,-263.560067,0.571455,69.101135
0.5364,-0.061274,0.019631,0.068625,0.006789,-0.001912,-0.010244,-0.027081,-0.489619,0.066706,-0.227598,-263.560067,0.571455,69.101135
0.5561,-0.061051,0.019308,0.067167,0.006801,-0.001912,-0.010248,-0.027081,-0.489619,0.066706,-0.227598,-263.560067,0.571455,69.101135
0.5762,-0.061392,0.019197,0.066884,0.006811,-0.001912,-0.01025,-0.026821,-0.489542,0.067167,-0.302694,-263.560064,0.569969,69.101138
0.5963,-0.061199,0.019062,0.067264,0.006818,-0.001913,-0.010253,-0.027019,-0.489591,0.067052,-0.302694,-263.560064,0.569969,69.101138
0.6154,-0.061363,0.019497,0.06659,0.006824,-0.001914,-0.010255,-0.026919,-0.489785,0.067263,-0.377695,-263.560047,0.568221,69.10115
0.6354,-0.061313,0.01924,0.067539,0.006832,-0.001913,-0.010256,-0.027383,-0.489409,0.066649,-0.377695,-263.560047,0.568221,69.10115
0.6557,-0.061028,0.019527,0.066135,0.006838,-0.001911,-0.010256,-0.027383,-0.489409,0.066649,-0.377695,-263.560047,0.568221,69.10115
0.6761,-0.061051,0.019215,0.068093,0.006843,-0.001909,-0.010257,-0.027318,-0.489358,0.06613,-0.452718,-263.559979,0.567348,69.101202
0.696,-0.060872,0.019106,0.06804,0.006842,-0.001914,-0.010258,-0.02692,-0.489459,0.066935,-0.452718,-263.559979,0.567348,69.101202
0.7155,-0.061134,0.019041,0.067882,0.006842,-0.001918,-0.010259,-0.026185,-0.489714,0.068026,-0.527736,-263.55975,0.566773,69.101376
0.7362,-0.061034,0.019223,0.067558,0.006841,-0.001922,-0.010259,-0.026509,-0.489779,0.067894,-0.527736,-263.55975,0.566773,69.101376
0.7562,-0.061019,0.019025,0.067632,0.006841,-0.001925,-0.01026,-0.026509,-0.489779,0.067894,-0.527736,-263.55975,0.566773,69.101376
0.7757,-0.061048,0.01934,0.068795,0.00684,-0.001927,-0.01026,-0.026507,-0.489811,0.067583,-0.602732,-263.559152,0.566051,69.101831
0.796,-0.060615,0.019226,0.066203,0.006835,-0.001935,-0.010261,-0.02629,-0.489665,0.068072,-0.602732,-263.559152,0.566051,69.101831
0.8161,-0.060587,0.019297,0.066754,0.006831,-0.001941,-0.010261,-0.026803,-0.489664,0.066116,-0.677593,-263.557868,0.565316,69.102805
0.8361,-0.06073,0.019468,0.066535,0.006831,-0.001942,-0.010261,-0.026585,-0.489576,0.066694,-0.677593,-263.557868,0.565316,69.102805
0.8557,-0.060637,0.018854,0.066524,0.00683,-0.001943,-0.01026,-0.026585,-0.489576,0.066694,-0.677593,-263.557868,0.565316,69.102805
0.876,-0.060078,0.019427,0.066538,0.00683,-0.001943,-0.01026,-0.026572,-0.49004,0.066314,-0.752727,-263.555616,0.564554,69.10451
0.8959,-0.060061,0.01937,0.066615,0.006831,-0.001942,-0.010259,-0.02639,-0.489802,0.06638,-0.752727,-263.555616,0.564554,69.10451
0.9158,-0.059949,0.018986,0.065651,0.006832,-0.001941,-0.010259,-0.025935,-0.489532,0.066367,-0.827593,-263.552277,0.564265,69.107038
0.9358,-0.059667,0.019226,0.066122,0.006834,-0.001938,-0.010325,-0.026434,-0.489884,0.065701,-0.827593,-263.552277,0.564265,69.107038
0.9556,-0.05987,0.019347,0.065134,0.006836,-0.001935,-0.01038,-0.026434,-0.489884,0.065701,-0.827593,-263.552277,0.564265,69.107038
0.9761,-0.059532,0.019436,0.065538,0.006838,-0.001933,-0.010426,-0.026396,-0.489631,0.064722,-0.876501,-263.548163,0.56432,69.110153
0.9961,-0.059205,0.019228,0.066771,0.006832,-0.00194,-0.010499,-0.026254,-0.489571,0.06501,-0.876501,-263.548163,0.56432,69.110153
1.016,-0.058802,0.019122,0.066209,0.006827,-0.001946,-0.010558,-0.024957,-0.489682,0.066441,-0.881731,-263.543874,0.5754,69.113403
1.0358,-0.058777,0.019099,0.064865,0.006809,-0.001968,-0.010643,-0.025039,-0.489756,0.066213,-0.881731,-263.543874,0.5754,69.113403
1.056,-0.058921,0.019147,0.064661,0.006793,-0.001985,-0.010712,-0.025039,-0.489756,0.066213,-0.881731,-263.543874,0.5754,69.113403
1.0758,-0.058107,0.018972,0.065439,0.006781,-0.002,-0.010768,-0.025677,-0.48985,0.06422,-0.888005,-263.539553,0.583104,69.11667
1.0961,-0.058256,0.019205,0.064688,0.006776,-0.002004,-0.010842,-0.025268,-0.489892,0.064667,-0.888005,-263.539553,0.583104,69.11667
1.116,-0.057469,0.018868,0.062922,0.006771,-0.002007,-0.010904,-0.02507,-0.489778,0.064347,-0.901815,-263.535201,0.593754,69.119926
1.1358,-0.057817,0.019208,0.065638,0.006774,-0.002002,-0.010982,-0.025361,-0.490095,0.063029,-0.901815,-263.535201,0.593754,69.119926
1.156,-0.057678,0.019263,0.064099,0.006775,-0.001998,-0.011047,-0.025361,-0.490095,0.063029,-0.901815,-263.535201,0.593754,69.119926
1.1759,-0.057223,0.01908,0.063555,0.006777,-0.001994,-0.0111,-0.024722,-0.489755,0.063643,-0.907557,-263.530815,0.601973,69.123202
1.1957,-0.057076,0.019101,0.063904,0.006764,-0.002007,-0.011177,-0.024734,-0.489817,0.063555,-0.907557,-263.530815,0.601973,69.123202
1.2157,-0.055908,0.018733,0.062741,0.006754,-0.002018,-0.01124,-0.024288,-0.489908,0.063552,-0.913095,-263.526394,0.614887,69.126511
1.2357,-0.056142,0.018446,0.063591,0.006741,-0.002032,-0.01132,-0.023952,-0.490235,0.062795,-0.913095,-263.526394,0.614887,69.126511
1.2558,-0.056192,0.018593,0.063692,0.006731,-0.002042,-0.011385,-0.023952,-0.490235,0.062795,-0.913095,-263.526394,0.614887,69.126511
1.2756,-0.05572,0.018477,0.062129,0.006722,-0.00205,-0.011439,-0.023444,-0.490439,0.063222,-0.920719,-263.521938,0.622406,69.12983
1.2958,-0.055722,0.018688,0.061393,0.006714,-0.002057,-0.011508,-0.02366,-0.490488,0.062722,-0.920719,-263.521938,0.622406,69.12983
1.3158,-0.055281,0.018629,0.06307,0.006708,-0.002062,-0.011564,-0.024214,-0.490403,0.061029,-0.931259,-263.51745,0.633416,69.133153
1.3361,-0.055186,0.018802,0.061078,0.006693,-0.002077,-0.011632,-0.023222,-0.490364,0.062869,-0.931259,-263.51745,0.633416,69.133153
1.3559,-0.055007,0.019037,0.061471,0.006681,-0.002089,-0.011687,-0.023222,-0.490364,0.062869,-0.931259,-263.51745,0.633416,69.133153
1.376,-0.054438,0.018681,0.063096,0.006671,-0.002098,-0.011733,-0.023391,-0.490069,0.060988,-0.936887,-263.512926,0.640604,69.136495
1.3958,-0.054408,0.0188,0.062001,0.006655,-0.002114,-0.011787,-0.022908,-0.490172,0.061788,-0.936887,-263.512926,0.640604,69.136495
1.4155,-0.053995,0.018701,0.061117,0.006641,-0.002127,-0.011831,-0.022591,-0.490274,0.061627,-0.946712,-263.508367,0.64968,69.139842
1.4359,-0.053866,0.018562,0.061053,0.006632,-0.002136,-0.011875,-0.022812,-0.490343,0.061142,-0.946712,-263.508367,0.64968,69.139842
1.4561,-0.053819,0.01843,0.062158,0.006624,-0.002142,-0.011912,-0.022812,-0.490343,0.061142,-0.946712,-263.508367,0.64968,69.139842
1.4759,-0.053089,0.018659,0.061312,0.006617,-0.002147,-0.011941,-0.021857,-0.490657,0.061664,-0.953354,-263.503784,0.654715,69.143187
1.4959,-0.053294,0.018523,0.059898,0.006599,-0.002165,-0.011973,-0.021817,-0.490554,0.061464,-0.953354,-263.503784,0.654715,69.143187
1.5157,-0.052718,0.018705,0.059709,0.006583,-0.00218,-0.011998,-0.02255,-0.490618,0.059519,-0.95945,-263.499177,0.661009,69.146536
1.5357,-0.052281,0.018403,0.059681,0.006577,-0.002184,-0.01202,-0.022296,-0.490409,0.059674,-0.95945,-263.499177,0.661009,69.146536
1.5558,-0.052334,0.018399,0.061573,0.006572,-0.002188,-0.012038,-0.022296,-0.490409,0.059674,-0.95945,-263.499177,0.661009,69.146536
1.5759,-0.051834,0.018531,0.059351,0.006567,-0.00219,-0.012053,-0.020671,-0.490709,0.061072,-0.965184,-263.494561,0.663623,69.149872
1.5956,-0.051919,0.018079,0.058151,0.006546,-0.002212,-0.012072,-0.021008,-0.490662,0.060316,-0.965184,-263.494561,0.663623,69.149872
1.6156,-0.051492,0.018444,0.058746,0.006528,-0.00223,-0.012087,-0.022065,-0.491117,0.057767,-0.968493,-263.489919,0.667015,69.153219
1.636,-0.051118,0.018316,0.059247,0.006525,-0.00223,-0.0121,-0.021583,-0.490716,0.058644,-0.968493,-263.489919,0.667015,69.153219
1.6558,-0.051595,0.018343,0.061632,0.006522,-0.002231,-0.01211,-0.021583,-0.490716,0.058644,-0.968493,-263.489919,0.667015,69.153219
1.6759,-0.050535,0.018363,0.057205,0.00652,-0.002231,-0.012118,-0.019905,-0.490765,0.061128,-0.974222,-263.485274,0.668206,69.156544
1.6959,-0.050694,0.017921,0.057451,0.0065,-0.002251,-0.012131,-0.020476,-0.49079,0.059459,-0.974222,-263.485274,0.668206,69.156544
1.7155,-0.050007,0.018264,0.057354,0.006483,-0.002268,-0.012142,-0.021199,-0.491297,0.057065,-0.975714,-263.480623,0.670431,69.159871
1.7361,-0.049795,0.018118,0.057216,0.006478,-0.002271,-0.01215,-0.020798,-0.490935,0.05731,-0.975714,-263.480623,0.670431,69.159871
1.7562,-0.04984,0.018373,0.057268,0.006475,-0.002272,-0.012157,-0.020798,-0.490935,0.05731,-0.975714,-263.480623,0.670431,69.159871
1.7762,-0.049597,0.017738,0.054845,0.006472,-0.002274,-0.012162,-0.020371,-0.49087,0.056758,-0.980896,-263.47597,0.671101,69.163176
1.7959,-0.049055,0.017892,0.055313,0.006474,-0.002269,-0.012168,-0.020843,-0.491127,0.055942,-0.980896,-263.47597,0.671101,69.163176
1.816,-0.04836,0.017819,0.055056,0.006477,-0.002264,-0.012173,-0.020651,-0.491389,0.054926,-0.982535,-263.471298,0.672591,69.166491
1.8364,-0.048854,0.01855,0.05505,0.006475,-0.002265,-0.012179,-0.020315,-0.49141,0.055027,-0.982535,-263.471298,0.672591,69.166491
1.8561,-0.04882,0.017758,0.05474,0.006474,-0.002265,-0.012185,-0.020315,-0.49141,0.055027,-0.982535,-263.471298,0.672591,69.166491
1.8757,-0.047789,0.018179,0.05519,0.006473,-0.002264,-0.012189,-0.020642,-0.491558,0.054231,-0.982022,-263.466641,0.67368,69.1698
1.8959,-0.047856,0.017743,0.055337,0.00647,-0.002267,-0.012195,-0.020208,-0.491358,0.054564,-0.982022,-263.466641,0.67368,69.1698
1.9159,-0.047597,0.017364,0.053468,0.006467,-0.00227,-0.0122,-0.019438,-0.491537,0.054948,-0.982779,-263.461968,0.674912,69.17312
1.936,-0.047402,0.017429,0.054709,0.006476,-0.002258,-0.012202,-0.02025,-0.491877,0.05358,-0.982779,-263.461968,0.674912,69.17312
1.9558,-0.047577,0.018194,0.055753,0.006483,-0.002249,-0.012205,-0.02025,-0.491877,0.05358,-0.982779,-263.461968,0.674912,69.17312
1.9758,-0.046937,0.017651,0.054794,0.006489,-0.002241,-0.012207,-0.018883,-0.491094,0.055242,-0.98378,-263.457297,0.675522,69.176436
1.9957,-0.0468,0.017654,0.055865,0.006457,-0.002277,-0.012219,-0.018901,-0.491302,0.055001,-0.98378,-263.457297,0.675522,69.176436
2.0159,-0.046064,0.017416,0.053222,0.006429,-0.002305,-0.012227,-0.018114,-0.49161,0.055477,-0.981007,-263.45263,0.676912,69.179765
2.0355,-0.045883,0.017729,0.054759,0.006417,-0.002317,-0.01223,-0.018854,-0.491843,0.053395,-0.981007,-263.45263,0.676912,69.179765
2.0559,-0.046271,0.017788,0.054623,0.006407,-0.002326,-0.012233,-0.018854,-0.491843,0.053395,-0.981007,-263.45263,0.676912,69.179765
2.0755,-0.045504,0.017314,0.054312,0.006399,-0.002334,-0.012235,-0.018154,-0.491533,0.054113,-0.988911,-263.447962,0.676512,69.183055
2.096,-0.045345,0.017716,0.053042,0.00637,-0.002362,-0.012241,-0.017985,-0.491706,0.054135,-0.988911,-263.447962,0.676512,69.183055
2.1162,-0.044982,0.017473,0.051762,0.006347,-0.002385,-0.012245,-0.018098,-0.49163,0.052652,-0.992622,-263.443271,0.676616,69.186343
2.1359,-0.044928,0.017408,0.054211,0.006343,-0.002387,-0.012244,-0.018543,-0.491828,0.051819,-0.992622,-263.443271,0.676616,69.186343
2.156,-0.044611,0.017447,0.052454,0.006339,-0.002388,-0.012244,-0.018543,-0.491828,0.051819,-0.992622,-263.443271,0.676616,69.186343
2.1758,-0.04442,0.017423,0.051235,0.006336,-0.00239,-0.012243,-0.017602,-0.491937,0.051943,-0.999048,-263.438591,0.676309,69.189591
2.1956,-0.043965,0.017553,0.050809,0.006322,-0.002403,-0.012245,-0.017856,-0.491935,0.051596,-0.999048,-263.438591,0.676309,69.189591
2.2157,-0.043428,0.017238,0.050483,0.00631,-0.002414,-0.012247,-0.017859,-0.491855,0.05042,-0.999938,-263.433879,0.676523,69.192856
2.2359,-0.043648,0.016686,0.050146,0.0063,-0.002422,-0.012248,-0.017696,-0.492096,0.050461,-0.999938,-263.433879,0.676523,69.192856
2.2558,-0.044175,0.017609,0.051532,0.006292,-0.002429,-0.012248,-0.017696,-0.492096,0.050461,-0.999938,-263.433879,0.676523,69.192856
2.2761,-0.042899,0.017374,0.051103,0.006285,-0.002434,-0.012248,-0.017638,-0.491801,0.051023,-1.003093,-263.429184,0.676463,69.196093
2.296,-0.042948,0.017142,0.050272,0.006265,-0.002452,-0.012251,-0.017273,-0.491878,0.050997,-1.003093,-263.429184,0.676463,69.196093
2.316,-0.042434,0.01767,0.051072,0.006249,-0.002468,-0.012253,-0.017118,-0.492281,0.049884,-1.005761,-263.424507,0.676523,69.199305
2.3365,-0.042196,0.017129,0.050088,0.006212,-0.002502,-0.012258,-0.016451,-0.491721,0.05095,-1.005761,-263.424507,0.676523,69.199305
2.3557,-0.04274,0.017075,0.050644,0.006181,-0.002529,-0.012261,-0.016451,-0.491721,0.05095,-1.005761,-263.424507,0.676523,69.199305
2.376,-0.041539,0.016986,0.049384,0.006155,-0.002552,-0.012262,-0.016656,-0.492361,0.050131,-1.010081,-263.419814,0.676376,69.202505
2.3957,-0.041964,0.017384,0.050222,0.00615,-0.002553,-0.012259,-0.016507,-0.492384,0.049769,-1.010081,-263.419814,0.676376,69.202505
2.4158,-0.04121,0.017058,0.04789,0.006146,-0.002555,-0.012256,-0.016162,-0.492044,0.049832,-1.020837,-263.415107,0.676057,69.205659
2.4363,-0.04114,0.017112,0.048246,0.006148,-0.00255,-0.012253,-0.016731,-0.492334,0.048038,-1.020837,-263.415107,0.676057,69.205659
2.4556,-0.040916,0.017119,0.050056,0.00615,-0.002546,-0.01225,-0.016731,-0.492334,0.048038,-1.020837,-263.415107,0.676057,69.205659
2.4758,-0.040424,0.016858,0.047581,0.006151,-0.002543,-0.012248,-0.015136,-0.492337,0.049544,-1.021482,-263.410396,0.676123,69.208812
2.4963,-0.040315,0.017061,0.048655,0.006124,-0.002568,-0.012253,-0.01553,-0.492441,0.048677,-1.021482,-263.410396,0.676123,69.208812
2.516,-0.040018,0.016752,0.047898,0.006102,-0.002587,-0.012255,-0.015311,-0.492407,0.048265,-1.020403,-263.405693,0.676347,69.211966
2.536,-0.039803,0.016726,0.047515,0.006089,-0.002597,-0.012255,-0.015565,-0.492645,0.047911,-1.020403,-263.405693,0.676347,69.211966
2.5559,-0.039419,0.016747,0.048824,0.006079,-0.002605,-0.012255,-0.015565,-0.492645,0.047911,-1.020403,-263.405693,0.676347,69.211966
2.5759,-0.038901,0.016543,0.046268,0.00607,-0.002611,-0.012254,-0.014269,-0.49274,0.048313,-1.026086,-263.400986,0.676367,69.215094
2.5962,-0.039203,0.016743,0.0474,0.006043,-0.002634,-0.012257,-0.01467,-0.492822,0.04741,-1.026086,-263.400986,0.676367,69.215094
2.6155,-0.038557,0.016702,0.047034,0.00602,-0.002652,-0.012258,-0.014841,-0.492758,0.04701,-1.029428,-263.396274,0.676475,69.218208
2.6356,-0.038682,0.01658,0.045592,0.005998,-0.00267,-0.012259,-0.014592,-0.49274,0.047013,-1.029428,-263.396274,0.676475,69.218208
2.6561,-0.038787,0.016296,0.045,0.005979,-0.002684,-0.012259,-0.014592,-0.49274,0.047013,-1.029428,-263.396274,0.676475,69.218208
2.6756,-0.037913,0.016399,0.047024,0.005963,-0.002696,-0.012259,-0.015589,-0.493287,0.044488,-1.034958,-263.391566,0.676626,69.221291
2.6962,-0.037922,0.016652,0.045822,0.00597,-0.002687,-0.012254,-0.014887,-0.493197,0.045463,-1.034958,-263.391566,0.676626,69.221291
2.7157,-0.037373,0.016356,0.044782,0.005976,-0.002679,-0.01225,-0.014367,-0.492889,0.045432,-1.041037,-263.386849,0.676823,69.224348
2.7356,-0.037533,0.016138,0.046498,0.005969,-0.002684,-0.012249,-0.014516,-0.493115,0.044821,-1.041037,-263.386849,0.676823,69.224348
2.7563,-0.036996,0.016505,0.045873,0.005963,-0.002688,-0.012249,-0.014516,-0.493115,0.044821,-1.041037,-263.386849,0.676823,69.224348
2.7759,-0.037045,0.016315,0.044411,0.005958,-0.00269,-0.012248,-0.013355,-0.493059,0.04536,-1.039183,-263.382134,0.676958,69.227415
2.7955,-0.036729,0.01621,0.04304,0.005932,-0.002712,-0.012252,-0.013753,-0.493121,0.044913,-1.039183,-263.382134,0.676958,69.227415
2.8157,-0.036224,0.016509,0.042841,0.00591,-0.00273,-0.012254,-0.014592,-0.493395,0.042651,-1.0409,-263.377412,0.677163,69.230477
2.8355,-0.036117,0.016133,0.042027,0.005911,-0.002727,-0.012251,-0.01439,-0.493058,0.042806,-1.0409,-263.377412,0.677163,69.230477
2.8555,-0.035711,0.016037,0.043438,0.005911,-0.002725,-0.012248,-0.01439,-0.493058,0.042806,-1.0409,-263.377412,0.677163,69.230477
2.8757,-0.036029,0.015941,0.042393,0.005911,-0.002723,-0.012246,-0.013314,-0.493586,0.042926,-1.046234,-263.372694,0.677466,69.233509
2.8956,-0.035453,0.016045,0.042384,0.005906,-0.002726,-0.012246,-0.013737,-0.493604,0.042648,-1.046234,-263.372694,0.677466,69.233509
2.9158,-0.0343,0.015899,0.04163,0.005901,-0.002729,-0.012246,-0.013652,-0.493576,0.041994,-1.045642,-263.367984,0.67755,69.23654
2.936,-0.035079,0.016075,0.044145,0.00588,-0.002746,-0.012249,-0.013117,-0.493656,0.041643,-1.045642,-263.367984,0.67755,69.23654
2.9557,-0.03486,0.015573,0.042534,0.005863,-0.002759,-0.01225,-0.013117,-0.493656,0.041643,-1.045642,-263.367984,0.67755,69.23654
2.9756,-0.034147,0.015613,0.041758,0.005848,-0.00277,-0.012251,-0.012923,-0.49407,0.042021,-1.046644,-263.363262,0.677748,69.239574
2.9959,-0.033942,0.015705,0.043647,0.005837,-0.002777,-0.012251,-0.012866,-0.494029,0.041854,-1.046644,-263.363262,0.677748,69.239574
3.0156,-0.033221,0.015559,0.040801,0.005828,-0.002783,-0.01225,-0.0115,-0.493889,0.043258,-1.052395,-263.358543,0.678252,69.242577
3.0358,-0.033439,0.015706,0.042202,0.005802,-0.002802,-0.012253,-0.012329,-0.494009,0.040996,-1.052395,-263.358543,0.678252,69.242577
3.0555,-0.033205,0.016035,0.040028,0.005781,-0.002818,-0.012254,-0.012329,-0.494009,0.040996,-1.052395,-263.358543,0.678252,69.242577
3.0757,-0.03321,0.015208,0.041166,0.005764,-0.00283,-0.012254,-0.012548,-0.493663,0.039516,-1.054431,-263.353823,0.67854,69.245571
3.0956,-0.033011,0.015428,0.041309,0.005751,-0.002839,-0.012253,-0.012386,-0.49396,0.040132,-1.054431,-263.353823,0.67854,69.245571
3.1158,-0.032242,0.015407,0.040609,0.00574,-0.002846,-0.012252,-0.011763,-0.494219,0.040919,-1.061203,-263.349097,0.679271,69.248534
3.1355,-0.032372,0.015515,0.040153,0.005706,-0.00287,-0.012256,-0.011548,-0.494181,0.040617,-1.061203,-263.349097,0.679271,69.248534
3.1558,-0.032392,0.015383,0.040148,0.005678,-0.00289,-0.012257,-0.011548,-0.494181,0.040617,-1.061203,-263.349097,0.679271,69.248534
3.1755,-0.03162,0.015561,0.040068,0.005655,-0.002906,-0.012257,-0.011679,-0.494315,0.039636,-1.063584,-263.344375,0.679567,69.251483
3.1956,-0.031887,0.015378,0.041008,0.005634,-0.00292,-0.012257,-0.01145,-0.49421,0.039755,-1.063584,-263.344375,0.679567,69.251483
3.2154,-0.031407,0.015371,0.039551,0.005616,-0.002931,-0.012256,-0.010795,-0.494278,0.040618,-1.072412,-263.339647,0.680789,69.254391
3.2363,-0.031298,0.015288,0.038068,0.005593,-0.002946,-0.012256,-0.011193,-0.494238,0.039625,-1.072412,-263.339647,0.680789,69.254391
3.2557,-0.031286,0.015123,0.038647,0.005573,-0.002959,-0.012255,-0.011193,-0.494238,0.039625,-1.072412,-263.339647,0.680789,69.254391
3.2758,-0.030525,0.015056,0.037969,0.005557,-0.002969,-0.012254,-0.011341,-0.49461,0.038136,-1.076312,-263.334921,0.681393,69.257278
3.296,-0.030796,0.014815,0.038139,0.005556,-0.002966,-0.01225,-0.011242,-0.494609,0.038009,-1.076312,-263.334921,0.681393,69.257278
3.316,-0.030237,0.015218,0.038043,0.005555,-0.002964,-0.012246,-0.011169,-0.494902,0.037748,-1.0822,-263.330189,0.682406,69.260141
3.3363,-0.030052,0.015056,0.037127,0.005536,-0.002976,-0.012247,-0.010863,-0.494469,0.037989,-1.0822,-263.330189,0.682406,69.260141
3.356,-0.029699,0.014725,0.037924,0.005521,-0.002986,-0.012247,-0.010863,-0.494469,0.037989,-1.0822,-263.330189,0.682406,69.260141
3.3757,-0.029483,0.014843,0.035882,0.005508,-0.002993,-0.012246,-0.010125,-0.495024,0.03741,-1.081959,-263.325458,0.682557,69.263004
3.3962,-0.02948,0.01463,0.036263,0.005498,-0.002998,-0.012245,-0.010525,-0.494959,0.036737,-1.081959,-263.325458,0.682557,69.263004
3.4157,-0.029383,0.014946,0.037685,0.005489,-0.003002,-0.012244,-0.010811,-0.495124,0.035872,-1.086636,-263.32072,0.683524,69.265848
3.4355,-0.028951,0.014832,0.037441,0.005463,-0.003019,-0.012246,-0.010215,-0.494733,0.037509,-1.086636,-263.32072,0.683524,69.265848
3.4555,-0.028716,0.015157,0.036143,0.005441,-0.003033,-0.012247,-0.010215,-0.494733,0.037509,-1.086636,-263.32072,0.683524,69.265848
3.4755,-0.02784,0.014783,0.035839,0.005423,-0.003044,-0.012247,-0.010053,-0.494627,0.035632,-1.088322,-263.315994,0.68407,69.268677
3.4956,-0.028274,0.014391,0.037823,0.005394,-0.003063,-0.012249,-0.009828,-0.494748,0.035657,-1.088322,-263.315994,0.68407,69.268677
3.5158,-0.027622,0.014528,0.034487,0.005369,-0.003078,-0.012249,-0.008813,-0.495335,0.037432,-1.094991,-263.311262,0.685592,69.271478
3.5357,-0.027873,0.014639,0.03367,0.005365,-0.003077,-0.012246,-0.009916,-0.495189,0.034737,-1.094991,-263.311262,0.685592,69.271478
3.5559,-0.027883,0.014797,0.035163,0.005362,-0.003077,-0.012243,-0.009916,-0.495189,0.034737,-1.094991,-263.311262,0.685592,69.271478
3.5759,-0.026891,0.014496,0.033705,0.005359,-0.003076,-0.01224,-0.009725,-0.495008,0.034651,-1.100353,-263.306526,0.686904,69.274254
3.596,-0.027182,0.014262,0.034185,0.005346,-0.003084,-0.01224,-0.00969,-0.495106,0.034208,-1.100353,-263.306526,0.686904,69.274254
3.6157,-0.02649,0.014519,0.033671,0.005334,-0.00309,-0.01224,-0.009577,-0.495533,0.033795,-1.10086,-263.301792,0.687349,69.277027
3.6362,-0.026223,0.014205,0.03346,0.005313,-0.003103,-0.012241,-0.009336,-0.495229,0.033662,-1.10086,-263.301792,0.687349,69.277027
3.6562,-0.026345,0.013915,0.034414,0.005295,-0.003113,-0.012242,-0.009336,-0.495229,0.033662,-1.10086,-263.301792,0.687349,69.277027
3.676,-0.026145,0.014138,0.03399,0.005281,-0.003121,-0.012241,-0.00857,-0.495905,0.033901,-1.103273,-263.297052,0.688068,69.279793
3.6959,-0.026604,0.013865,0.033463,0.005251,-0.003138,-0.012244,-0.008643,-0.495781,0.033879,-1.103273,-263.297052,0.688068,69.279793
3.716,-0.025272,0.014499,0.032047,0.005226,-0.003152,-0.012245,-0.00937,-0.495944,0.033074,-1.108524,-263.292318,0.689653,69.282529
3.736,-0.025404,0.013655,0.032158,0.00521,-0.003161,-0.012244,-0.008961,-0.495308,0.03212,-1.108524,-263.292318,0.689653,69.282529
3.7557,-0.025336,0.014029,0.033885,0.005196,-0.003168,-0.012243,-0.008961,-0.495308,0.03212,-1.108524,-263.292318,0.689653,69.282529
3.7757,-0.024323,0.014314,0.031638,0.005185,-0.003173,-0.012241,-0.007835,-0.495802,0.033373,-1.113847,-263.287588,0.69149,69.285239
3.7963,-0.024924,0.013959,0.031809,0.005135,-0.003202,-0.012247,-0.007952,-0.495667,0.032614,-1.113847,-263.287588,0.69149,69.285239
3.8162,-0.024519,0.013499,0.032541,0.005094,-0.003225,-0.01225,-0.008536,-0.495879,0.031418,-1.117739,-263.282839,0.692755,69.28794
3.8358,-0.024423,0.013546,0.031736,0.005076,-0.003233,-0.012248,-0.007969,-0.496206,0.032427,-1.117739,-263.282839,0.692755,69.28794
3.8558,-0.024196,0.013354,0.031153,0.00506,-0.003239,-0.012246,-0.007969,-0.496206,0.032427,-1.117739,-263.282839,0.692755,69.28794
3.8756,-0.023925,0.013529,0.031028,0.005047,-0.003244,-0.012244,-0.008094,-0.496526,0.030642,-1.126737,-263.278116,0.696041,69.290584
3.8956,-0.023844,0.013523,0.030252,0.00505,-0.003238,-0.012239,-0.008073,-0.496419,0.03074,-1.126737,-263.278116,0.696041,69.290584
3.9159,-0.023079,0.013771,0.031383,0.005052,-0.003234,-0.012236,-0.008254,-0.496342,0.029862,-1.130806,-263.273352,0.69801,69.293233
3.9358,-0.023294,0.013226,0.031912,0.004993,-0.003268,-0.012244,-0.007159,-0.49601,0.03125,-1.130806,-263.273352,0.69801,69.293233
3.9556,-0.023296,0.013488,0.029392,0.004944,-0.003295,-0.012248,-0.007159,-0.49601,0.03125,-1.130806,-263.273352,0.69801,69.293233
3.976,-0.02257,0.013568,0.029064,0.004903,-0.003316,-0.01225,-0.008094,-0.49642,0.028883,-1.129955,-263.268614,0.698123,69.295872
3.9955,-0.022243,0.013526,0.029771,0.004922,-0.0033,-0.012241,-0.007924,-0.49635,0.0289,-1.129955,-263.268614,0.698123,69.295872
4.0154,-0.02216,0.012864,0.02951,0.004938,-0.003288,-0.012234,-0.006905,-0.496347,0.029385,-1.144543,-263.26389,0.704281,69.298435
4.0357,-0.021484,0.013045,0.027426,0.00492,-0.003296,-0.012235,-0.007089,-0.496876,0.029484,-1.144543,-263.26389,0.704281,69.298435
4.0559,-0.021986,0.01306,0.028319,0.004905,-0.003302,-0.012235,-0.007089,-0.496876,0.029484,-1.144543,-263.26389,0.704281,69.298435
4.0754,-0.021374,0.013133,0.028749,0.004893,-0.003307,-0.012235,-0.007336,-0.496867,0.027809,-1.140576,-263.25916,0.702977,69.301021
4.096,-0.021517,0.013061,0.026815,0.004879,-0.003312,-0.012234,-0.007051,-0.496794,0.028143,-1.140576,-263.25916,0.702977,69.301021
4.1159,-0.021144,0.01287,0.026857,0.004868,-0.003317,-0.012234,-0.007685,-0.496856,0.026428,-1.144694,-263.254442,0.70531,69.303582
4.1361,-0.02078,0.012803,0.028584,0.004888,-0.003302,-0.012228,-0.007461,-0.496944,0.026801,-1.144694,-263.254442,0.70531,69.303582
4.1557,-0.020739,0.012842,0.028745,0.004904,-0.003291,-0.012223,-0.007461,-0.496944,0.026801,-1.144694,-263.254442,0.70531,69.303582
4.1756,-0.01984,0.012885,0.027325,0.004917,-0.003281,-0.01222,-0.005874,-0.49708,0.028234,-1.146916,-263.249669,0.706529,69.306163
4.1957,-0.019922,0.012619,0.027741,0.004834,-0.003326,-0.012235,-0.005863,-0.497028,0.027782,-1.146916,-263.249669,0.706529,69.306163
4.2158,-0.019962,0.012287,0.025678,0.004765,-0.003362,-0.012245,-0.005619,-0.497284,0.027356,-1.141634,-263.244984,0.704862,69.308722
4.236,-0.019749,0.012312,0.026559,0.004781,-0.00335,-0.012237,-0.006752,-0.497528,0.025804,-1.141634,-263.244984,0.704862,69.308722
4.256,-0.019972,0.012576,0.027586,0.004793,-0.00334,-0.012232,-0.006752,-0.497528,0.025804,-1.141634,-263.244984,0.704862,69.308722
4.2756,-0.019326,0.012387,0.025688,0.004803,-0.003332,-0.012228,-0.005703,-0.497365,0.027077,-1.156633,-263.240259,0.712468,69.311235
4.2961,-0.019082,0.012392,0.027602,0.004754,-0.003358,-0.012235,-0.005898,-0.497414,0.026437,-1.156633,-263.240259,0.712468,69.311235
4.3161,-0.018764,0.012193,0.025085,0.004714,-0.003378,-0.012239,-0.004851,-0.497515,0.027214,-1.152322,-263.235545,0.710958,69.313763
4.3356,-0.018715,0.012206,0.025986,0.004686,-0.003391,-0.01224,-0.005867,-0.49764,0.025251,-1.152322,-263.235545,0.710958,69.313763
4.3558,-0.018559,0.012568,0.026607,0.004663,-0.003401,-0.01224,-0.005867,-0.49764,0.025251,-1.152322,-263.235545,0.710958,69.313763
4.3758,-0.018378,0.012157,0.023214,0.004644,-0.003408,-0.01224,-0.00479,-0.497387,0.026097,-1.161068,-263.230824,0.715538,69.316255
4.396,-0.018093,0.012122,0.024745,0.0046,-0.003429,-0.012243,-0.005479,-0.497532,0.024864,-1.161068,-263.230824,0.715538,69.316255
4.416,-0.01715,0.011757,0.025558,0.004563,-0.003446,-0.012244,-0.005324,-0.497826,0.024356,-1.167496,-263.226084,0.719258,69.318727
4.4359,-0.017098,0.012152,0.022631,0.004453,-0.003492,-0.012258,-0.004211,-0.49806,0.025439,-1.167496,-263.226084,0.719258,69.318727
4.456,-0.017549,0.011892,0.023821,0.004363,-0.003528,-0.012265,-0.004211,-0.49806,0.025439,-1.167496,-263.226084,0.719258,69.318727
4.4759,-0.017092,0.011637,0.023508,0.004289,-0.003556,-0.012269,-0.005208,-0.498102,0.023311,-1.175124,-263.221366,0.723751,69.321154
4.4957,-0.016811,0.011807,0.023428,0.004302,-0.003545,-0.012256,-0.005143,-0.498167,0.023332,-1.175124,-263.221366,0.723751,69.321154
4.5154,-0.016796,0.011365,0.023768,0.004314,-0.003536,-0.012245,-0.004727,-0.498161,0.023044,-1.200577,-263.2167,0.742639,69.323446
4.536,-0.016178,0.011382,0.02325,0.004296,-0.00354,-0.012242,-0.004673,-0.498467,0.023683,-1.200577,-263.2167,0.742639,69.323446
4.5558,-0.016274,0.011892,0.022978,0.004282,-0.003543,-0.012238,-0.004673,-0.498467,0.023683,-1.200577,-263.2167,0.742639,69.323446
4.5761,-0.015913,0.011214,0.022883,0.00427,-0.003545,-0.012235,-0.004373,-0.498118,0.022466,-1.197543,-263.211951,0.740522,69.325792
4.5961,-0.015987,0.011471,0.020362,0.004229,-0.003561,-0.012236,-0.004298,-0.498357,0.02258,-1.197543,-263.211951,0.740522,69.325792
4.6156,-0.015649,0.011137,0.022789,0.004195,-0.003573,-0.012236,-0.005466,-0.498533,0.019974,-1.201083,-263.20724,0.743702,69.328105
4.6357,-0.015112,0.01149,0.020799,0.004165,-0.003582,-0.012235,-0.004145,-0.498719,0.022527,-1.201083,-263.20724,0.743702,69.328105
4.6557,-0.01543,0.010922,0.022381,0.00414,-0.003588,-0.012234,-0.004145,-0.498719,0.022527,-1.201083,-263.20724,0.743702,69.328105
4.6756,-0.01496,0.010878,0.02174,0.00412,-0.003593,-0.012232,-0.003839,-0.499096,0.021871,-1.207869,-263.202518,0.749041,69.330394
4.6956,-0.014506,0.011165,0.021033,0.004087,-0.003602,-0.012231,-0.003832,-0.499074,0.021758,-1.207869,-263.202518,0.749041,69.330394
4.7155,-0.014174,0.011137,0.019311,0.00406,-0.003608,-0.01223,-0.003646,-0.498834,0.020644,-1.214359,-263.197801,0.755093,69.332655
4.7362,-0.014316,0.011033,0.022033,0.004067,-0.003602,-0.012216,-0.004261,-0.498779,0.019406,-1.214359,-263.197801,0.755093,69.332655
4.756,-0.014212,0.010973,0.020305,0.004073,-0.003596,-0.012205,-0.004261,-0.498779,0.019406,-1.214359,-263.197801,0.755093,69.332655
4.7758,-0.013345,0.010894,0.020599,0.004078,-0.003592,-0.012196,-0.003685,-0.49907,0.019794,-1.219476,-263.193056,0.760265,69.334908
4.7957,-0.013676,0.010745,0.019848,0.004007,-0.003617,-0.012204,-0.003306,-0.499056,0.020076,-1.219476,-263.193056,0.760265,69.334908
4.8156,-0.013478,0.010923,0.020651,0.003949,-0.003636,-0.012209,-0.003423,-0.499265,0.019465,-1.217007,-263.18838,0.757585,69.337138
4.8361,-0.013401,0.010819,0.019225,0.003871,-0.003662,-0.012217,-0.002982,-0.499,0.020529,-1.217007,-263.18838,0.757585,69.337138
4.8557,-0.013031,0.010384,0.01791,0.003807,-0.003681,-0.012221,-0.002982,-0.499,0.020529,-1.217007,-263.18838,0.757585,69.337138
4.8758,-0.012691,0.010728,0.01937,0.003755,-0.003697,-0.012223,-0.00373,-0.499682,0.017402,-1.228777,-263.183673,0.768855,69.339334
4.8956,-0.01267,0.010247,0.018675,0.003757,-0.003688,-0.012202,-0.003325,-0.499487,0.01817,-1.228777,-263.183673,0.768855,69.339334
4.9161,-0.012241,0.01021,0.017262,0.003758,-0.00368,-0.012185,-0.003026,-0.499777,0.018294,-1.246261,-263.179028,0.787148,69.341433
4.9358,-0.012328,0.01012,0.018933,0.003772,-0.003667,-0.01216,-0.003396,-0.499726,0.017332,-1.246261,-263.179028,0.787148,69.341433
4.9559,-0.012158,0.010205,0.018421,0.003784,-0.003656,-0.012141,-0.003396,-0.499726,0.017332,-1.246261,-263.179028,0.787148,69.341433
4.9756,-0.011688,0.010512,0.016749,0.003793,-0.003647,-0.012125,-0.002604,-0.499859,0.017912,-1.244991,-263.174338,0.785929,69.343557
4.9957,-0.011407,0.010054,0.016685,0.003744,-0.003661,-0.012122,-0.002808,-0.499696,0.017377,-1.244991,-263.174338,0.785929,69.343557
5.0157,-0.011231,0.009757,0.016069,0.003704,-0.003672,-0.012119,-0.002775,-0.499989,0.016299,-1.240187,-263.169622,0.780747,69.345712
5.0354,-0.011157,0.010335,0.017935,0.003704,-0.003664,-0.01209,-0.003014,-0.500169,0.01607,-1.240187,-263.169622,0.780747,69.345712
5.0555,-0.0112,0.01007,0.016742,0.003705,-0.003658,-0.012068,-0.003014,-0.500169,0.01607,-1.240187,-263.169622,0.780747,69.345712
5.0758,-0.010652,0.009574,0.015162,0.003705,-0.003654,-0.01205,-0.002507,-0.500007,0.016242,-1.248024,-263.165005,0.788944,69.34779
5.096,-0.010854,0.009599,0.016782,0.003669,-0.003663,-0.012034,-0.002658,-0.500172,0.015742,-1.248024,-263.165005,0.788944,69.34779
5.1161,-0.010654,0.009414,0.016154,0.00364,-0.00367,-0.01202,-0.002176,-0.500444,0.016397,-1.246278,-263.160351,0.785487,69.349889
5.1357,-0.010442,0.009468,0.015334,0.003596,-0.003679,-0.012021,-0.002389,-0.500519,0.016156,-1.246278,-263.160351,0.785487,69.349889
5.1558,-0.009856,0.009494,0.01497,0.003561,-0.003686,-0.01202,-0.002389,-0.500519,0.016156,-1.246278,-263.160351,0.785487,69.349889
5.1759,-0.009744,0.00913,0.016942,0.003532,-0.003691,-0.012019,-0.002067,-0.5006,0.014468,-1.251557,-263.155717,0.789662,69.351955
5.1956,-0.00986,0.00917,0.014768,0.00343,-0.003714,-0.012012,-0.001656,-0.500697,0.01542,-1.251557,-263.155717,0.789662,69.351955
5.2159,-0.00897,0.009263,0.014517,0.003347,-0.003731,-0.012004,-0.002215,-0.500889,0.014388,-1.260974,-263.151101,0.801804,69.353979
5.2361,-0.009524,0.009067,0.013332,0.003277,-0.003745,-0.011964,-0.001616,-0.500706,0.014487,-1.260974,-263.151101,0.801804,69.353979
5.256,-0.009371,0.009179,0.011941,0.00322,-0.003757,-0.011931,-0.001616,-0.500706,0.014487,-1.260974,-263.151101,0.801804,69.353979
5.276,-0.00921,0.008903,0.015939,0.003173,-0.003767,-0.011904,-0.003141,-0.500937,0.011445,-1.277005,-263.146533,0.821861,69.355921
5.2959,-0.008897,0.009252,0.012708,0.003221,-0.003746,-0.011798,-0.002283,-0.500994,0.013225,-1.277005,-263.146533,0.821861,69.355921
5.3155,-0.008439,0.008981,0.012343,0.00326,-0.003732,-0.01172,-0.002315,-0.500825,0.012331,-1.290815,-263.141966,0.834795,69.357801
5.3359,-0.008341,0.008726,0.013986,0.003279,-0.003721,-0.011586,-0.002154,-0.500972,0.012323,-1.290815,-263.141966,0.834795,69.357801
5.3559,-0.008352,0.00896,0.013929,0.003294,-0.003717,-0.011489,-0.002154,-0.500972,0.012323,-1.290815,-263.141966,0.834795,69.357801
5.3757,-0.008073,0.008368,0.013206,0.003307,-0.003716,-0.011418,-0.001111,-0.501144,0.013443,-1.27993,-263.137471,0.810252,69.359671
5.3956,-0.007907,0.00872,0.012672,0.003203,-0.003743,-0.011457,-0.001187,-0.501341,0.013292,-1.27993,-263.137471,0.810252,69.359671
5.4154,-0.007381,0.008648,0.011998,0.00312,-0.003764,-0.011485,-0.001339,-0.501354,0.012314,-1.270768,-263.13307,0.777918,69.361497
5.4355,-0.007471,0.008172,0.012312,0.003067,-0.003771,-0.011396,-0.001264,-0.501324,0.012007,-1.270768,-263.13307,0.777918,69.361497
5.4555,-0.007523,0.008497,0.014015,0.003024,-0.003779,-0.011329,-0.001264,-0.501324,0.012007,-1.270768,-263.13307,0.777918,69.361497
5.476,-0.006728,0.00833,0.010404,0.00299,-0.003786,-0.011279,-0.000246,-0.501606,0.013543,-1.289031,-263.128661,0.805946,69.363268
5.4957,-0.006919,0.008401,0.011003,0.002892,-0.003801,-0.011271,-0.000711,-0.501638,0.012207,-1.289031,-263.128661,0.805946,69.363268
5.5153,-0.006707,0.008293,0.012607,0.002814,-0.003813,-0.011263,-0.001211,-0.501688,0.010644,-1.297721,-263.124226,0.803941,69.364991
5.5358,-0.006784,0.008034,0.011073,0.002702,-0.003828,-0.01128,-0.00035,-0.501674,0.012429,-1.297721,-263.124226,0.803941,69.364991
5.5555,-0.006579,0.008093,0.01056,0.002611,-0.00384,-0.011291,-0.00035,-0.501674,0.012429,-1.297721,-263.124226,0.803941,69.364991
5.576,-0.006193,0.007973,0.011679,0.002538,-0.003848,-0.011297,-0.001076,-0.502034,0.010097,-1.313449,-263.119871,0.828279,69.366631
5.5964,-0.005971,0.007967,0.010507,0.002542,-0.00382,-0.011087,-0.000719,-0.502035,0.010691,-1.313449,-263.119871,0.828279,69.366631
5.6157,-0.005594,0.00763,0.008612,0.002546,-0.003802,-0.010934,-0.000534,-0.502121,0.010163,-1.338869,-263.11566,0.876996,69.368144
5.6358,-0.00592,0.007941,0.009815,0.002612,-0.003729,-0.010448,-0.00114,-0.502336,0.008731,-1.338869,-263.11566,0.876996,69.368144
5.6559,-0.005597,0.00781,0.008229,0.002668,-0.003684,-0.01011,-0.00114,-0.502336,0.008731,-1.338869,-263.11566,0.876996,69.368144
5.6757,-0.00568,0.007664,0.008472,0.002715,-0.003657,-0.009877,-0.001295,-0.502328,0.00778,-1.332459,-263.111411,0.846096,69.369658
5.6956,-0.005548,0.007749,0.010583,0.002777,-0.00362,-0.009552,-0.001309,-0.502342,0.008015,-1.332459,-263.111411,0.846096,69.369658
5.7155,-0.004764,0.007521,0.010036,0.002829,-0.003601,-0.009334,-8.6e-05,-0.502308,0.010343,-1.297564,-263.108373,0.771046,69.370747
5.7361,-0.005249,0.007501,0.008958,0.002632,-0.003659,-0.009587,0.000319,-0.502445,0.010051,-1.297564,-263.108373,0.771046,69.370747
5.7556,-0.005204,0.007561,0.008773,0.002476,-0.003703,-0.009774,0.000319,-0.502445,0.010051,-1.297564,-263.108373,0.771046,69.370747
5.7755,-0.00514,0.00722,0.01015,0.002351,-0.003736,-0.00991,-0.000643,-0.502529,0.008477,-1.275543,-263.10545,0.696122,69.371806
5.7958,-0.005016,0.007157,0.008012,0.002355,-0.003732,-0.009838,-0.000347,-0.502636,0.009146,-1.275543,-263.10545,0.696122,69.371806
5.8155,-0.00426,0.007292,0.009376,0.002359,-0.003731,-0.009787,-0.000865,-0.502927,0.007746,-1.335079,-263.102047,0.771411,69.372922
5.8357,-0.004368,0.006943,0.008331,0.002246,-0.003737,-0.009774,0.000405,-0.502711,0.009223,-1.335079,-263.102047,0.771411,69.372922
5.8558,-0.004555,0.006888,0.007767,0.002156,-0.003741,-0.009763,0.000405,-0.502711,0.009223,-1.335079,-263.102047,0.771411,69.372922
5.8757,-0.00385,0.006842,0.007901,0.002084,-0.003745,-0.009752,-0.000495,-0.503252,0.007358,-1.332432,-263.098057,0.760924,69.374223
5.8956,-0.004447,0.006908,0.005913,0.00212,-0.003684,-0.009367,-0.000207,-0.503225,0.007533,-1.332432,-263.098057,0.760924,69.374223
5.9155,-0.003544,0.006787,0.006933,0.00215,-0.003644,-0.009102,-0.001368,-0.503195,0.00562,-1.359203,-263.094314,0.815098,69.375369
5.9357,-0.003884,0.006505,0.007355,0.002157,-0.003601,-0.008728,-0.000122,-0.503206,0.006806,-1.359203,-263.094314,0.815098,69.375369
5.9556,-0.004226,0.006879,0.00801,0.002165,-0.003576,-0.008476,-0.000122,-0.503206,0.006806,-1.359203,-263.094314,0.815098,69.375369
5.9755,-0.002963,0.006573,0.005279,0.002174,-0.003564,-0.008308,-6.1e-05,-0.503237,0.007675,-1.341288,-263.090986,0.740122,69.376383
5.9957,-0.003892,0.006579,0.007139,0.002186,-0.00355,-0.008153,-0.000139,-0.503328,0.006647,-1.341288,-263.090986,0.740122,69.376383
6.0158,-0.003103,0.006437,0.004697,0.002197,-0.003545,-0.008051,-0.0002,-0.503491,0.006938,-1.324224,-263.088315,0.665119,69.377177
6.0359,-0.003193,0.00643,0.007253,0.002285,-0.003469,-0.007405,-0.000659,-0.503555,0.004889,-1.324224,-263.088315,0.665119,69.377177
6.0558,-0.003486,0.006396,0.007138,0.002358,-0.003427,-0.006979,-0.000659,-0.503555,0.004889,-1.324224,-263.088315,0.665119,69.377177
6.0759,-0.00283,0.006136,0.005787,0.002421,-0.003406,-0.006703,0.000231,-0.503713,0.006855,-1.316765,-263.085403,0.590113,69.37804
6.0961,-0.003178,0.006097,0.007299,0.002332,-0.003446,-0.006999,0.000195,-0.503785,0.006387,-1.316765,-263.085403,0.590113,69.37804
6.1158,-0.002697,0.006347,0.0047,0.002263,-0.003474,-0.007213,0.000558,-0.503908,0.007255,-1.258616,-263.084799,0.515089,69.378232
6.1355,-0.003072,0.005994,0.007687,0.002276,-0.003453,-0.006898,-0.000225,-0.503671,0.004918,-1.258616,-263.084799,0.515089,69.378232
6.1557,-0.003084,0.006045,0.004752,0.002287,-0.003444,-0.006687,-0.000225,-0.503671,0.004918,-1.258616,-263.084799,0.515089,69.378232
6.1759,-0.003017,0.006033,0.006603,0.002298,-0.003443,-0.006546,-0.000588,-0.504058,0.004518,-1.291063,-263.082289,0.440125,69.378982
6.1962,-0.002488,0.005823,0.006208,0.00231,-0.003445,-0.006592,-0.000197,-0.504029,0.005341,-1.291063,-263.082289,0.440125,69.378982
6.2156,-0.002686,0.006335,0.005351,0.002319,-0.003446,-0.006627,0.000716,-0.504221,0.006097,-1.271267,-263.0807,0.36521,69.379464
6.2366,-0.002331,0.00636,0.006409,0.002272,-0.003469,-0.006677,0.000105,-0.503711,0.005413,-1.271267,-263.0807,0.36521,69.379464
6.2555,-0.002268,0.00615,0.006704,0.002236,-0.003488,-0.006711,0.000105,-0.503711,0.005413,-1.271267,-263.0807,0.36521,69.379464
6.2759,-0.002343,0.006315,0.00628,0.002207,-0.003502,-0.006733,0.001231,-0.503955,0.006474,-1.270641,-263.078117,0.290238,69.380253
6.2959,-0.001837,0.006035,0.006903,0.002015,-0.003525,-0.007033,0.001085,-0.503851,0.006366,-1.270641,-263.078117,0.290238,69.380253
6.3155,-0.001833,0.005785,0.003399,0.001862,-0.003538,-0.007241,0.001753,-0.504062,0.006693,-1.288688,-263.074995,0.269924,69.381155
6.3359,-0.001861,0.006065,0.004729,0.001903,-0.00344,-0.006446,6.5e-05,-0.504204,0.003675,-1.288688,-263.074995,0.269924,69.381155
6.3556,-0.00219,0.005828,0.004674,0.001938,-0.003379,-0.00591,6.5e-05,-0.504204,0.003675,-1.288688,-263.074995,0.269924,69.381155
6.3755,-0.001778,0.005789,0.006109,0.001969,-0.003343,-0.005553,0.000241,-0.504255,0.0045,-1.340967,-263.073066,0.344638,69.381641
6.3956,-0.001857,0.005382,0.004987,0.001887,-0.003372,-0.00585,0.000699,-0.504244,0.005144,-1.340967,-263.073066,0.344638,69.381641
6.4155,-0.001821,0.005377,0.005019,0.001822,-0.00339,-0.006059,0.000697,-0.50463,0.004953,-1.286397,-263.072563,0.269636,69.381783
6.4356,-0.001749,0.00546,0.003912,0.001758,-0.003374,-0.006167,0.000736,-0.504618,0.005011,-1.286397,-263.072563,0.269636,69.381783
6.456,-0.001523,0.005797,0.003319,0.001708,-0.003358,-0.006241,0.000736,-0.504618,0.005011,-1.286397,-263.072563,0.269636,69.381783
6.4759,-0.001506,0.005401,0.003307,0.001669,-0.003344,-0.00629,0.000234,-0.504318,0.003106,-1.319295,-263.07012,0.194638,69.382399
6.4958,-0.001314,0.005553,0.003379,0.001726,-0.003279,-0.005601,0.00022,-0.504444,0.003163,-1.319295,-263.07012,0.194638,69.382399
6.5158,-0.001357,0.005243,0.003814,0.001774,-0.003242,-0.005136,0.000455,-0.504536,0.003208,-1.342611,-263.067584,0.269542,69.382998
6.5356,-0.001565,0.005285,0.004154,0.001746,-0.003226,-0.005081,0.000579,-0.504739,0.003753,-1.342611,-263.067584,0.269542,69.382998
6.5557,-0.001729,0.005182,0.004494,0.001724,-0.003216,-0.005047,0.000579,-0.504739,0.003753,-1.342611,-263.067584,0.269542,69.382998
6.5759,-0.001364,0.005202,0.00389,0.001709,-0.003209,-0.005028,0.000575,-0.504834,0.004456,-1.299487,-263.067141,0.194385,69.383117
6.5958,-0.001445,0.005128,0.003837,0.001698,-0.003216,-0.005189,0.000595,-0.50482,0.00422,-1.299487,-263.067141,0.194385,69.383117
6.6156,-0.000965,0.005487,0.002272,0.00169,-0.00322,-0.005302,0.000528,-0.504897,0.003787,-1.305158,-263.066381,0.119431,69.383317
6.6358,-0.001628,0.005248,0.002502,0.001744,-0.003173,-0.004608,0.000226,-0.50455,0.002413,-1.305158,-263.066381,0.119431,69.383317
6.656,-0.000911,0.005175,0.005116,0.00179,-0.00315,-0.004139,0.000226,-0.50455,0.002413,-1.305158,-263.066381,0.119431,69.383317
6.6756,-0.000809,0.00515,0.003949,0.001828,-0.003143,-0.003824,0.001757,-0.504929,0.004931,-1.314844,-263.064157,0.044533,69.38388
6.6958,-0.001291,0.005026,0.005123,0.001611,-0.003169,-0.004465,0.001529,-0.504907,0.004492,-1.314844,-263.064157,0.044533,69.38388
6.7155,-0.001192,0.005303,0.003139,0.001441,-0.00318,-0.004919,0.001323,-0.50497,0.005119,-1.248704,-263.064093,-0.03103,69.383902
6.7357,-0.001173,0.004999,0.004548,0.001508,-0.003175,-0.004772,0.000492,-0.50472,0.003318,-1.248704,-263.064093,-0.03103,69.383902
6.7558,-0.001122,0.005072,0.003118,0.001561,-0.003174,-0.004671,0.000492,-0.50472,0.003318,-1.248704,-263.064093,-0.03103,69.383902
6.7763,-0.0009,0.005075,0.003877,0.001603,-0.003177,-0.004604,0.000517,-0.505026,0.002961,-1.323122,-263.062156,-0.105449,69.384345
6.796,-0.000954,0.00452,0.002593,0.001592,-0.003159,-0.004567,0.000749,-0.504995,0.003313,-1.323122,-263.062156,-0.105449,69.384345
6.8161,-0.000674,0.004935,0.004028,0.001583,-0.003146,-0.004543,0.00041,-0.505558,0.002475,-1.309219,-263.060175,-0.18046,69.38487
6.8358,-0.000608,0.005003,0.004759,0.001465,-0.003138,-0.004769,0.001303,-0.505105,0.003896,-1.309219,-263.060175,-0.18046,69.38487
6.8559,-0.000867,0.005175,0.003736,0.001372,-0.003126,-0.004925,0.001303,-0.505105,0.003896,-1.309219,-263.060175,-0.18046,69.38487
6.876,-0.00064,0.004661,0.00183,0.001298,-0.003114,-0.005031,0.001102,-0.504947,0.003553,-1.309485,-263.057828,-0.230567,69.385493
6.8957,-0.000886,0.004979,0.002614,0.00134,-0.00307,-0.004654,0.000783,-0.505119,0.002838,-1.309485,-263.057828,-0.230567,69.385493
6.9158,-0.000674,0.004732,0.001307,0.001373,-0.003042,-0.004397,0.000468,-0.505071,0.002535,-1.36397,-263.056547,-0.155812,69.385757
6.9362,-0.000391,0.004897,0.004736,0.001553,-0.002958,-0.003482,3.3e-05,-0.505254,0.001406,-1.36397,-263.056547,-0.155812,69.385757
6.956,-0.00046,0.004569,0.003106,0.001696,-0.00291,-0.002864,3.3e-05,-0.505254,0.001406,-1.36397,-263.056547,-0.155812,69.385757
6.9757,-0.000318,0.004718,0.002776,0.001812,-0.002887,-0.002454,0.001173,-0.505535,0.00295,-1.335491,-263.054561,-0.230983,69.386235
6.9958,-0.000445,0.004707,0.00383,0.001667,-0.002908,-0.002928,0.001148,-0.505444,0.002861,-1.335491,-263.054561,-0.230983,69.386235
7.0157,-0.000419,0.004903,0.003422,0.001554,-0.002918,-0.003263,0.00151,-0.505292,0.003826,-1.260664,-263.054494,-0.305811,69.386267
7.036,-0.000338,0.004504,0.003428,0.001439,-0.00297,-0.003732,0.001343,-0.505113,0.003458,-1.260664,-263.054494,-0.305811,69.386267
7.0558,-0.000572,0.004695,0.002819,0.001348,-0.003003,-0.004058,0.001343,-0.505113,0.003458,-1.260664,-263.054494,-0.305811,69.386267
7.0762,-0.000216,0.004425,0.003728,0.001275,-0.003023,-0.004282,0.000894,-0.505352,0.002758,-1.264396,-263.053625,-0.380812,69.386572
7.0959,-0.00037,0.004131,0.002853,0.001232,-0.002994,-0.004312,0.001219,-0.505447,0.003144,-1.264396,-263.053625,-0.380812,69.386572
7.1157,-2e-06,0.004258,0.000416,0.001198,-0.00297,-0.004331,0.00112,-0.505946,0.002741,-1.339436,-263.051706,-0.309258,69.387017
7.136,-0.000326,0.004134,0.003134,0.001363,-0.002832,-0.002992,0.000273,-0.505759,0.00057,-1.339436,-263.051706,-0.309258,69.387017
7.1562,-0.00046,0.004498,0.002338,0.001495,-0.002745,-0.002072,0.000273,-0.505759,0.00057,-1.339436,-263.051706,-0.309258,69.387017
7.1759,-2.8e-05,0.004129,0.0027,0.001601,-0.002696,-0.001449,0.000781,-0.505619,0.002166,-1.360595,-263.049513,-0.264798,69.387491
7.1963,0.000186,0.004254,0.002103,0.001527,-0.00273,-0.002011,0.001019,-0.505735,0.002365,-1.360595,-263.049513,-0.264798,69.387491
7.2159,7.1e-05,0.004242,0.002906,0.001469,-0.002751,-0.002411,0.001258,-0.505745,0.002103,-1.286161,-263.049511,-0.339232,69.387492
7.2363,-0.000132,0.004315,0.003132,0.001313,-0.002761,-0.002919,0.001529,-0.505755,0.002841,-1.286161,-263.049511,-0.339232,69.387492
7.2559,0.000259,0.004083,0.002524,0.001191,-0.002762,-0.003275,0.001529,-0.505755,0.002841,-1.286161,-263.049511,-0.339232,69.387492
7.276,-7.4e-05,0.003958,0.00165,0.001094,-0.002756,-0.003523,0.001553,-0.505925,0.002513,-1.23594,-263.049344,-0.414413,69.387565
7.296,9.5e-05,0.004296,0.003568,0.001073,-0.002706,-0.003376,0.001235,-0.505973,0.002161,-1.23594,-263.049344,-0.414413,69.387565
7.316,0.000183,0.004124,0.001454,0.001057,-0.002669,-0.003276,0.001941,-0.505763,0.003489,-1.310667,-263.04792,-0.48914,69.387919
7.3364,0.000371,0.00383,0.003684,0.001094,-0.002641,-0.00293,0.001015,-0.505868,0.001629,-1.310667,-263.04792,-0.48914,69.387919
7.3561,7.2e-05,0.003952,-6e-05,0.001124,-0.002626,-0.002693,0.001015,-0.505868,0.001629,-1.310667,-263.04792,-0.48914,69.387919
7.3762,9.3e-05,0.004062,0.002383,0.001149,-0.002618,-0.002533,8.1e-05,-0.506148,-0.000182,-1.348309,-263.04621,-0.564196,69.388365
7.3962,0.000568,0.003699,0.002049,0.001263,-0.002569,-0.001978,0.000585,-0.506074,0.000848,-1.348309,-263.04621,-0.564196,69.388365
7.4153,0.000217,0.004085,0.001073,0.001354,-0.00254,-0.0016,0.001635,-0.506345,0.002003,-1.301704,-263.045254,-0.639142,69.388713
7.4356,0.000314,0.004273,0.003503,0.001368,-0.002549,-0.00153,0.000842,-0.505955,0.001152,-1.301704,-263.045254,-0.639142,69.388713
7.4557,0.000576,0.003918,0.002408,0.00138,-0.002558,-0.001486,0.000842,-0.505955,0.001152,-1.301704,-263.045254,-0.639142,69.388713
7.4758,0.000431,0.003677,0.001374,0.001391,-0.002568,-0.00146,0.001828,-0.506121,0.002378,-1.226648,-263.044654,-0.714198,69.389042
7.4961,-7e-05,0.004033,0.002238,0.001233,-0.002554,-0.0019,0.001547,-0.506208,0.001966,-1.226648,-263.044654,-0.714198,69.389042
7.5154,0.000451,0.003581,0.002908,0.00111,-0.002538,-0.002204,0.001101,-0.506016,0.002206,-1.188534,-263.043708,-0.789137,69.389595
7.5363,0.000341,0.003687,0.002913,0.000942,-0.002511,-0.002814,0.001861,-0.506383,0.002843,-1.188534,-263.043708,-0.789137,69.389595
7.556,0.000198,0.003709,0.001403,0.000809,-0.002479,-0.003239,0.001861,-0.506383,0.002843,-1.188534,-263.043708,-0.789137,69.389595
7.5759,0.000714,0.003775,0.001914,0.000704,-0.002447,-0.003531,0.000954,-0.506378,0.001327,-1.263535,-263.04237,-0.820646,69.390134
7.596,0.000634,0.003973,0.001477,0.000755,-0.002399,-0.003087,0.001257,-0.506325,0.001557,-1.263535,-263.04237,-0.820646,69.390134
7.6159,0.000292,0.003803,0.001078,0.000796,-0.002368,-0.002782,0.001388,-0.506029,0.001474,-1.338539,-263.04231,-0.745643,69.390144
7.6359,0.000739,0.003631,0.002787,0.000916,-0.002362,-0.002317,0.000891,-0.506181,0.001114,-1.338539,-263.04231,-0.745643,69.390144
7.6559,0.000417,0.003636,0.002548,0.001011,-0.002365,-0.001998,0.000891,-0.506181,0.001114,-1.338539,-263.04231,-0.745643,69.390144
7.6758,0.000897,0.003679,0.00231,0.001086,-0.002374,-0.001781,0.001748,-0.506456,0.002438,-1.377596,-263.040748,-0.698762,69.390536
7.6959,0.000734,0.003389,0.003288,0.000913,-0.002365,-0.002311,0.001885,-0.506411,0.002374,-1.377596,-263.040748,-0.698762,69.390536
7.7154,0.000619,0.003546,0.000991,0.000777,-0.002351,-0.002679,0.002429,-0.506646,0.003257,-1.302603,-263.040002,-0.773754,69.390882
7.7359,0.001092,0.00382,0.000269,0.000812,-0.002307,-0.002308,0.001242,-0.506473,0.001193,-1.302603,-263.040002,-0.773754,69.390882
7.7559,0.000822,0.003293,0.00179,0.000839,-0.002278,-0.002054,0.001242,-0.506473,0.001193,-1.302603,-263.040002,-0.773754,69.390882
7.776,0.0006,0.003685,0.00228,0.000862,-0.002259,-0.001881,0.001765,-0.506795,0.001689,-1.377607,-263.038541,-0.743561,69.391261
7.7959,0.001152,0.003683,0.002426,0.000753,-0.002231,-0.002164,0.001768,-0.50661,0.001918,-1.377607,-263.038541,-0.743561,69.391261
7.8156,0.000861,0.003186,0.00244,0.000669,-0.002204,-0.002361,0.002407,-0.506358,0.002388,-1.323014,-263.037685,-0.818566,69.391604
7.8359,0.000808,0.003318,0.000508,0.000514,-0.002154,-0.002754,0.002134,-0.506774,0.002433,-1.323014,-263.037685,-0.818566,69.391604
7.8558,0.000936,0.003297,0.003632,0.000394,-0.002108,-0.003026,0.002134,-0.506774,0.002433,-1.323014,-263.037685,-0.818566,69.391604
7.8761,0.000923,0.003309,0.000806,0.000299,-0.002067,-0.00321,0.002815,-0.506784,0.003541,-1.389451,-263.036324,-0.850655,69.391976
7.8962,0.00087,0.003032,0.000548,0.000207,-0.00203,-0.003326,0.00221,-0.506755,0.002408,-1.389451,-263.036324,-0.850655,69.391976
7.9157,0.001138,0.003308,0.000616,0.000136,-0.001997,-0.003402,0.00115,-0.506969,0.000547,-1.464579,-263.036306,-0.775527,69.391978
7.9362,0.001105,0.002761,0.000598,0.000251,-0.001948,-0.002461,0.001425,-0.506717,0.00061,-1.464579,-263.036306,-0.775527,69.391978
7.956,0.000859,0.003327,0.000416,0.000343,-0.001925,-0.00181,0.001425,-0.506717,0.00061,-1.464579,-263.036306,-0.775527,69.391978
7.976,0.000973,0.0033,0.003426,0.000417,-0.001917,-0.001364,0.001071,-0.506673,0.000416,-1.53752,-263.036306,-0.70065,69.391978
7.9959,0.000858,0.0031,0.001775,0.00041,-0.001948,-0.001646,0.001741,-0.506682,0.001639,-1.53752,-263.036306,-0.70065,69.391978
8.0154,0.000719,0.003508,0.001113,0.000404,-0.00197,-0.001845,0.001763,-0.5069,0.001775,-1.462521,-263.036292,-0.775648,69.391983
8.036,0.00105,0.002814,0.002143,0.000502,-0.002008,-0.001718,0.001328,-0.506528,0.001172,-1.462521,-263.036292,-0.775648,69.391983
8.0558,0.001157,0.003634,0.001878,0.000578,-0.002041,-0.001633,0.001328,-0.506528,0.001172,-1.462521,-263.036292,-0.775648,69.391983
8.0758,0.00098,0.003238,0.002234,0.000637,-0.002069,-0.001578,0.002118,-0.506376,0.001867,-1.441023,-263.036121,-0.850707,69.392034
8.0961,0.000779,0.003436,0.000685,0.000509,-0.002098,-0.002013,0.002119,-0.506535,0.002016,-1.441023,-263.036121,-0.850707,69.392034
8.1156,0.000956,0.003441,0.002529,0.000408,-0.002115,-0.002311,0.001139,-0.506595,0.000659,-1.365978,-263.035519,-0.925752,69.392282
8.1357,0.001267,0.003331,0.002007,0.000321,-0.002121,-0.002668,0.002144,-0.506562,0.002355,-1.365978,-263.035519,-0.925752,69.392282
8.1555,0.001306,0.003152,0.001044,0.000252,-0.002118,-0.002915,0.002144,-0.506562,0.002355,-1.365978,-263.035519,-0.925752,69.392282
8.1754,0.000974,0.00296,0.001388,0.000196,-0.002111,-0.003083,0.001852,-0.506909,0.000976,-1.440876,-263.034525,-1.00065,69.39251
8.1961,0.001093,0.003123,0.00156,0.00021,-0.002019,-0.00257,0.001784,-0.50697,0.001137,-1.440876,-263.034525,-1.00065,69.39251
8.2154,0.001508,0.003075,0.001611,0.000222,-0.001954,-0.002216,0.001893,-0.506921,0.001496,-1.515942,-263.033474,-0.925584,69.392589
8.2358,0.001055,0.003074,0.00034,0.000121,-0.001906,-0.002232,0.00229,-0.506926,0.001597,-1.515942,-263.033474,-0.925584,69.392589
8.2556,0.000621,0.003138,0.001154,4.3e-05,-0.001868,-0.002245,0.00229,-0.506926,0.001597,-1.515942,-263.033474,-0.925584,69.392589
8.2761,0.001018,0.003148,0.000199,-1.8e-05,-0.001838,-0.002254,0.001213,-0.506882,0.00113,-1.503867,-263.033142,-1.000526,69.392653
8.2957,0.001145,0.003283,0.002227,0.000203,-0.001841,-0.001755,0.001176,-0.506872,0.000751,-1.503867,-263.033142,-1.000526,69.392653
8.3155,0.001344,0.002971,0.001117,0.000374,-0.001853,-0.001413,0.002281,-0.506715,0.002227,-1.576291,-263.03314,-1.0755,69.392654
8.3361,0.001165,0.003179,0.000686,0.000314,-0.001832,-0.001474,0.001945,-0.507002,0.001212,-1.576291,-263.03314,-1.0755,69.392654
8.3559,0.001345,0.003075,0.001708,0.000268,-0.001816,-0.001519,0.001945,-0.507002,0.001212,-1.576291,-263.03314,-1.0755,69.392654
8.3759,0.001026,0.002847,0.001092,0.000232,-0.001804,-0.00155,0.002223,-0.506967,0.001675,-1.501116,-263.032546,-1.150676,69.392883
8.3957,0.001197,0.003029,0.002953,0.000201,-0.001793,-0.001692,0.001962,-0.507047,0.001433,-1.501116,-263.032546,-1.150676,69.392883
8.4154,0.001296,0.002793,0.002531,0.000177,-0.001783,-0.001789,0.00271,-0.507007,0.00292,-1.48652,-263.031799,-1.225646,69.393123
8.4358,0.001432,0.003173,0.001329,1.8e-05,-0.001751,-0.002408,0.002597,-0.50719,0.002562,-1.48652,-263.031799,-1.225646,69.393123
8.4559,0.001472,0.002632,0.001369,-0.000108,-0.001717,-0.002839,0.002597,-0.50719,0.002562,-1.48652,-263.031799,-1.225646,69.393123
8.4756,0.001519,0.002887,0.001018,-0.000208,-0.001683,-0.003134,0.002177,-0.507432,0.001305,-1.509303,-263.030807,-1.300665,69.393368
8.4954,0.001301,0.00249,0.001901,-0.000199,-0.001604,-0.002631,0.002121,-0.507308,0.001179,-1.509303,-263.030807,-1.300665,69.393368
8.5159,0.001513,0.002675,0.000634,-0.00019,-0.00155,-0.002285,0.00227,-0.50751,0.001899,-1.584254,-263.030774,-1.225714,69.393365
8.5361,0.001362,0.002771,0.001577,-0.000127,-0.001504,-0.001781,0.00187,-0.50734,0.000732,-1.584254,-263.030774,-1.225714,69.393365
8.5558,0.00127,0.002941,-0.000135,-7.7e-05,-0.001476,-0.001435,0.00187,-0.50734,0.000732,-1.584254,-263.030774,-1.225714,69.393365
8.5755,0.001186,0.002659,0.002379,-3.7e-05,-0.00146,-0.001201,0.001201,-0.507059,-0.000135,-1.635199,-263.030774,-1.150449,69.393365
8.5961,0.001419,0.002531,-0.000245,5e-05,-0.001497,-0.001128,0.00169,-0.507174,0.000891,-1.635199,-263.030774,-1.150449,69.393365
8.6154,0.001556,0.002797,-0.000924,0.000117,-0.001529,-0.001082,0.001294,-0.50747,-0.000246,-1.587586,-263.030752,-1.225069,69.393372
8.6356,0.001473,0.002429,0.003313,0.000305,-0.001507,-2.1e-05,0.001103,-0.507226,-0.000865,-1.587586,-263.030752,-1.225069,69.393372
8.6558,0.001355,0.002614,0.001616,0.000453,-0.001506,0.000723,0.001103,-0.507226,-0.000865,-1.587586,-263.030752,-1.225069,69.393372
8.6758,0.001479,0.002571,0.000435,0.00057,-0.001519,0.001239,0.002182,-0.507414,0.001595,-1.51726,-263.030359,-1.300212,69.393529
8.6957,0.001555,0.002933,0.002317,0.000443,-0.00153,0.000408,0.001989,-0.507423,0.001126,-1.51726,-263.030359,-1.300212,69.393529
8.7156,0.001099,0.002778,0.002337,0.000345,-0.001531,-0.000177,0.002737,-0.507066,0.002317,-1.44239,-263.030358,-1.325537,69.393532
8.736,0.001411,0.002548,0.00113,0.000213,-0.00159,-0.00117,0.002329,-0.507208,0.002335,-1.44239,-263.030358,-1.325537,69.393532
8.7563,0.001319,0.002731,0.000405,0.000108,-0.001621,-0.001871,0.002329,-0.507208,0.002335,-1.44239,-263.030358,-1.325537,69.393532
8.7758,0.00114,0.002583,0.000606,2.3e-05,-0.001634,-0.00236,0.001539,-0.507327,0.000398,-1.36726,-263.029752,-1.332558,69.394062
8.7957,0.001102,0.002854,-0.000826,0.000132,-0.001578,-0.001685,0.001504,-0.50737,0.000482,-1.36726,-263.029752,-1.332558,69.394062
8.8159,0.001095,0.002663,0.001447,0.000218,-0.001544,-0.001219,0.000685,-0.507179,-0.000864,-1.442351,-263.029042,-1.349289,69.394188
8.8363,0.000917,0.002828,0.001658,0.000237,-0.001551,-0.001341,0.001728,-0.507324,0.001234,-1.442351,-263.029042,-1.349289,69.394188
8.8559,0.000853,0.003011,0.001824,0.000252,-0.001555,-0.001428,0.001728,-0.507324,0.001234,-1.442351,-263.029042,-1.349289,69.394188
8.8763,0.001437,0.002467,0.002112,0.000262,-0.001556,-0.001491,0.001792,-0.507049,0.001775,-1.475732,-263.028167,-1.304267,69.394503
8.896,0.001851,0.002397,0.002828,0.000192,-0.001577,-0.001895,0.002085,-0.507252,0.001906,-1.475732,-263.028167,-1.304267,69.394503
8.916,0.001477,0.0026,0.002508,0.000136,-0.001586,-0.002173,0.0033,-0.507641,0.002791,-1.464798,-263.027378,-1.229278,69.394724
8.9357,0.001311,0.002971,0.001693,-6.7e-05,-0.001536,-0.002673,0.002803,-0.507421,0.00253,-1.464798,-263.027378,-1.229278,69.394724
8.9557,0.001126,0.002337,0.001923,-0.000227,-0.001488,-0.003016,0.002803,-0.507421,0.00253,-1.464798,-263.027378,-1.229278,69.394724
8.976,0.001628,0.002307,0.000502,-0.000354,-0.001444,-0.003249,0.00211,-0.507707,0.001861,-1.524014,-263.026589,-1.154149,69.394804
8.9961,0.001896,0.002384,0.000676,-0.000303,-0.001342,-0.002765,0.002019,-0.507707,0.001301,-1.524014,-263.026589,-1.154149,69.394804
9.0157,0.001505,0.002146,0.000375,-0.000263,-0.00127,-0.002433,0.002238,-0.507636,0.000629,-1.598872,-263.025961,-1.079291,69.394686
9.0361,0.001704,0.002264,0.000888,-0.000177,-0.001171,-0.00167,0.001745,-0.507835,0.000395,-1.598872,-263.025961,-1.079291,69.394686
9.0555,0.001263,0.002473,0.001646,-0.000108,-0.001106,-0.001146,0.001745,-0.507835,0.000395,-1.598872,-263.025961,-1.079291,69.394686
9.076,0.001467,0.002443,0.000205,-5.3e-05,-0.001065,-0.00079,0.002102,-0.50753,0.001639,-1.665984,-263.025878,-1.00429,69.394676
9.0963,0.001646,0.002437,0.000495,-2.4e-05,-0.001122,-0.000942,0.001886,-0.507541,0.001055,-1.665984,-263.025878,-1.00429,69.394676
9.1158,0.00127,0.002289,0.001265,-1e-06,-0.001165,-0.001052,0.001899,-0.507563,0.000495,-1.604843,-263.025878,-1.079296,69.394676
9.1361,0.001515,0.00269,0.001163,2e-06,-0.001167,-0.001213,0.001913,-0.507699,0.001206,-1.604843,-263.025878,-1.079296,69.394676
9.1563,0.001812,0.002485,0.001143,5e-06,-0.001167,-0.001328,0.001913,-0.507699,0.001206,-1.604843,-263.025878,-1.079296,69.394676
9.1759,0.001881,0.002929,0.002121,8e-06,-0.001165,-0.001411,0.002396,-0.507515,0.001143,-1.571575,-263.025865,-1.154746,69.394679
9.1961,0.001372,0.002342,0.0008,-0.00013,-0.001212,-0.001682,0.002632,-0.50733,0.00155,-1.571575,-263.025865,-1.154746,69.394679
9.2161,0.001355,0.002462,0.001321,-0.000239,-0.001244,-0.001867,0.00178,-0.507661,0.000797,-1.56707,-263.0258,-1.22971,69.394689
9.2364,0.001469,0.002639,0.000499,-0.000197,-0.001247,-0.001819,0.002006,-0.507549,0.001273,-1.56707,-263.0258,-1.22971,69.394689
9.2558,0.001631,0.002155,0.000887,-0.000164,-0.00125,-0.001786,0.002006,-0.507549,0.001273,-1.56707,-263.0258,-1.22971,69.394689
9.2755,0.001724,0.002246,0.002083,-0.00014,-0.001252,-0.001764,0.002083,-0.507845,0.000887,-1.641658,-263.0258,-1.155122,69.394689
9.2956,0.001361,0.002324,0.000317,-0.000221,-0.001179,-0.001815,0.002368,-0.507808,0.001372,-1.641658,-263.0258,-1.155122,69.394689
9.3159,0.00135,0.002347,0.00064,-0.000284,-0.001122,-0.00185,0.001523,-0.507676,0.000317,-1.630672,-263.0258,-1.080129,69.394689
9.3358,0.001645,0.002477,0.00133,-0.000155,-0.001123,-0.001416,0.001664,-0.507655,0.000613,-1.630672,-263.0258,-1.080129,69.394689
9.3556,0.001328,0.002462,0.000374,-5.5e-05,-0.00113,-0.001119,0.001664,-0.507655,0.000613,-1.630672,-263.0258,-1.080129,69.394689
9.3761,0.001675,0.002408,0.001756,2.2e-05,-0.00114,-0.000916,0.001519,-0.507538,0.000374,-1.696102,-263.0258,-1.004964,69.394689
9.3958,0.00135,0.002062,0.002042,1.8e-05,-0.001171,-0.000982,0.00195,-0.50756,0.00094,-1.696102,-263.0258,-1.004964,69.394689
9.4162,0.001425,0.002654,0.000897,1.4e-05,-0.001194,-0.00103,0.002392,-0.507937,0.002042,-1.62126,-263.025795,-1.079806,69.394691
9.4362,0.001271,0.00247,0.000632,2.6e-05,-0.001248,-0.001094,0.001926,-0.507396,0.000993,-1.62126,-263.025795,-1.079806,69.394691
9.4561,0.001108,0.002532,0.001288,3.5e-05,-0.00129,-0.001139,0.001926,-0.507396,0.000993,-1.62126,-263.025795,-1.079806,69.394691
9.476,0.001723,0.002286,0.001285,4.3e-05,-0.001322,-0.00117,0.001765,-0.507469,0.001287,-1.563024,-263.025776,-1.154956,69.394696
9.4962,0.001664,0.003005,-0.000907,2e-05,-0.001316,-0.001355,0.002013,-0.507568,0.001286,-1.563024,-263.025776,-1.154956,69.394696
9.5164,0.001393,0.002251,0.001969,2e-06,-0.001309,-0.001483,0.001202,-0.507001,-0.000912,-1.549915,-263.025661,-1.229792,69.394731
9.5363,0.001634,0.002339,-0.000203,-7.5e-05,-0.001278,-0.001775,0.002268,-0.507668,0.001657,-1.549915,-263.025661,-1.229792,69.394731
9.556,0.001545,0.002417,0.000584,-0.000136,-0.00125,-0.001976,0.002268,-0.507668,0.001657,-1.549915,-263.025661,-1.229792,69.394731
9.5756,0.001657,0.002003,0.000763,-0.000183,-0.001225,-0.002113,0.001843,-0.507592,0.000574,-1.569688,-263.02552,-1.304827,69.394757
9.5967,0.001174,0.002474,0.000499,-0.000151,-0.001166,-0.001634,0.001925,-0.507757,0.00065,-1.569688,-263.02552,-1.304827,69.394757
9.6155,0.001751,0.002258,0.000968,-0.000125,-0.001127,-0.001303,0.001429,-0.507526,0.000499,-1.643556,-263.02552,-1.229853,69.394757
9.6356,0.002043,0.002321,-0.000619,-0.000159,-0.001106,-0.001247,0.002169,-0.507721,0.000924,-1.643556,-263.02552,-1.229853,69.394757
9.6558,0.001479,0.002673,0.001183,-0.000185,-0.001092,-0.001209,0.002169,-0.507721,0.000924,-1.643556,-263.02552,-1.229853,69.394757
9.6758,0.001556,0.002335,0.001085,-0.000204,-0.001082,-0.001183,0.002083,-0.507327,0.001183,-1.635694,-263.02552,-1.154851,69.394757
9.696,0.001543,0.002489,-0.000444,-0.000185,-0.001141,-0.001286,0.002094,-0.507465,0.001143,-1.635694,-263.02552,-1.154851,69.394757
9.7155,0.001582,0.002369,0.001345,-0.000171,-0.001185,-0.001358,0.001317,-0.507511,-0.000444,-1.683476,-263.02552,-1.079828,69.394757
9.7359,0.001283,0.002269,-0.000455,-0.00019,-0.001182,-0.001434,0.002185,-0.50762,0.001188,-1.683476,-263.02552,-1.079828,69.394757
9.7556,0.001523,0.001867,0.000214,-0.000205,-0.001178,-0.001487,0.002185,-0.50762,0.001188,-1.683476,-263.02552,-1.079828,69.394757
9.7755,0.001782,0.002335,0.00056,-0.000217,-0.001175,-0.001523,0.001632,-0.508133,0.000214,-1.655458,-263.02552,-1.004749,69.394756
9.7957,0.0016,0.002626,0.000672,-0.000157,-0.001086,-0.001043,0.001809,-0.507943,0.000355,-1.655458,-263.02552,-1.004749,69.394756
9.8155,0.001211,0.002692,0.002355,-0.000109,-0.001026,-0.000713,0.001943,-0.507373,0.000672,-1.673595,-263.02552,-0.929838,69.394756
9.8355,0.001235,0.002907,0.001283,-0.000157,-0.001157,-0.001491,0.002372,-0.507312,0.00221,-1.673595,-263.02552,-0.929838,69.394756
9.8558,0.001686,0.002411,0.001835,-0.000198,-0.001246,-0.002036,0.002372,-0.507312,0.00221,-1.673595,-263.02552,-0.929838,69.394756
9.8758,0.001576,0.002383,9.7e-05,-0.000232,-0.001307,-0.002413,0.002622,-0.507588,0.001835,-1.64541,-263.02552,-0.854758,69.394756
9.8955,0.001513,0.002561,0.001922,-0.000249,-0.001259,-0.00211,0.00221,-0.5076,0.001116,-1.64541,-263.02552,-0.854758,69.394756
9.9157,0.001478,0.002389,0.000677,-0.000261,-0.001225,-0.001901,0.002491,-0.507455,0.001889,-1.654034,-263.025051,-0.779656,69.394708
9.9355,0.002268,0.002375,0.001257,-0.000192,-0.001208,-0.001553,0.001883,-0.507598,0.000784,-1.654034,-263.025051,-0.779656,69.394708
9.9555,0.001635,0.002487,0.000834,-0.000138,-0.0012,-0.001316,0.001883,-0.507598,0.000784,-1.654034,-263.025051,-0.779656,69.394708
9.9757,0.001947,0.002316,0.001757,-9.5e-05,-0.001198,-0.001155,0.00206,-0.507513,0.000834,-1.679585,-263.025051,-0.704845,69.394708
9.9956,0.001478,0.002356,-3e-05,-0.000175,-0.00119,-0.001307,0.002379,-0.507582,0.00121,-1.679585,-263.025051,-0.704845,69.394708
10.0157,0.001278,0.002464,0.000677,-0.000238,-0.001183,-0.001414,0.001462,-0.507644,-3e-05,-1.620743,-263.025051,-0.629749,69.394708
