mach0312/omni-docking-bench/src/icros_test_setup/results/MPPI_sample/timeseries/trial_020.csv
t,x,y,yaw,vx,vy,wz,bl_x,bl_y,bl_yaw,front_steering_joint,front_wheel_joint,rear_steering_joint,rear_wheel_joint
0.0,0.021667,0.027202,-0.033429,0.0,0.0,0.0,0.005513,-0.48236,-0.031836,-0.103713,-265.518829,-0.99584,62.856834
0.0003,0.021626,0.027504,-0.032827,-8.9e-05,4.6e-05,0.0,0.005591,-0.482983,-0.031609,-0.103713,-265.518829,-0.99584,62.856834
0.0006,0.021841,0.027078,-0.034089,-8.9e-05,4.6e-05,0.0,0.005591,-0.482983,-0.031609,-0.103713,-265.518829,-0.99584,62.856834
0.0008,0.021516,0.027537,-0.031865,-8.9e-05,4.6e-05,0.0,0.005591,-0.482983,-0.031609,-0.178721,-265.518829,-0.920832,62.856834
0.0011,0.022026,0.027203,-0.031559,-8.9e-05,4.6e-05,0.0,0.004632,-0.482606,-0.033161,-0.254057,-265.51883,-0.845496,62.856834
0.0014,0.02147,0.027022,-0.032995,-8.9e-05,4.6e-05,0.0,0.004632,-0.482606,-0.033161,-0.254057,-265.51883,-0.845496,62.856834
0.0016,0.021812,0.026962,-0.03275,-8.9e-05,4.6e-05,0.0,0.005053,-0.482618,-0.032518,-0.254057,-265.51883,-0.845496,62.856834
0.0018,0.021577,0.026958,-0.031633,-8.9e-05,4.6e-05,0.0,0.005053,-0.482618,-0.032518,-0.254057,-265.51883,-0.845496,62.856834
0.0165,0.021837,0.026732,-0.032279,0.0,0.0,0.0,0.005447,-0.482787,-0.031633,-0.328725,-265.518832,-0.770827,62.856832
0.0367,0.021968,0.026914,-0.032287,0.0,0.0,0.0,0.005384,-0.482983,-0.032221,-0.328725,-265.518832,-0.770827,62.856832
0.0567,0.021724,0.02694,-0.032,0.0,0.0,0.0,0.005384,-0.482983,-0.032221,-0.328725,-265.518832,-0.770827,62.856832
0.0765,0.022001,0.026736,-0.031576,0.0,0.0,0.0,0.005407,-0.482799,-0.032,-0.328725,-265.518832,-0.770827,62.856832
0.0966,0.021658,0.02709,-0.032793,0.0,0.0,0.0,0.005608,-0.482885,-0.031827,-0.328725,-265.518832,-0.770827,62.856832
0.1169,0.021728,0.026958,-0.031735,0.003147,-0.004937,0.007256,0.004936,-0.482636,-0.032793,-0.328725,-265.518832,-0.770827,62.856832
0.1369,0.021592,0.027026,-0.031061,0.003382,-0.005364,0.007807,0.005493,-0.482772,-0.031827,-0.328725,-265.518832,-0.770827,62.856832
0.157,0.021508,0.027158,-0.03313,0.003572,-0.005723,0.008247,0.005493,-0.482772,-0.031827,-0.328725,-265.518832,-0.770827,62.856832
0.1766,0.021778,0.027104,-0.03298,0.003724,-0.006025,0.0086,0.004618,-0.482565,-0.033126,-0.253737,-265.518813,-0.845816,62.856889
0.1967,0.021601,0.026727,-0.033224,0.003872,-0.006282,0.008882,0.004758,-0.482587,-0.033066,-0.253737,-265.518813,-0.845816,62.856889
0.2165,0.021887,0.027232,-0.032117,0.003993,-0.006498,0.009106,0.004671,-0.483003,-0.03321,-0.204523,-265.518716,-0.92073,62.857193
0.2366,0.021581,0.027201,-0.033462,0.004066,-0.006676,0.009284,0.005439,-0.482548,-0.03221,-0.204523,-265.518716,-0.92073,62.857193
0.2569,0.021276,0.027181,-0.032382,0.004125,-0.006826,0.009424,0.005439,-0.482548,-0.03221,-0.204523,-265.518716,-0.92073,62.857193
0.2771,0.021824,0.027092,-0.032218,0.004171,-0.006952,0.009535,0.004801,-0.482594,-0.032326,-0.230378,-265.518442,-0.995848,62.858041
0.297,0.021813,0.027461,-0.032122,0.004221,-0.00706,0.009623,0.005048,-0.482619,-0.032276,-0.230378,-265.518442,-0.995848,62.858041
0.3169,0.021799,0.027168,-0.032564,0.004261,-0.00715,0.009694,0.005487,-0.482346,-0.03203,-0.264117,-265.517872,-1.070823,62.859815
0.337,0.021869,0.026227,-0.033856,0.004287,-0.007225,0.00975,0.005224,-0.482546,-0.032511,-0.264117,-265.517872,-1.070823,62.859815
0.3573,0.021903,0.026786,-0.033602,0.004307,-0.007288,0.009795,0.005224,-0.482546,-0.032511,-0.264117,-265.517872,-1.070823,62.859815
0.3768,0.021831,0.026358,-0.032948,0.004323,-0.007341,0.009831,0.004883,-0.483095,-0.033379,-0.280958,-265.516851,-1.14574,62.86298
0.3968,0.021791,0.026401,-0.032744,0.004341,-0.007386,0.009917,0.004957,-0.483226,-0.033176,-0.280958,-265.516851,-1.14574,62.86298
0.4167,0.021902,0.026567,-0.033964,0.004355,-0.007424,0.009985,0.005207,-0.483517,-0.032493,-0.299813,-265.515378,-1.220893,62.867544
0.437,0.022041,0.026058,-0.031985,0.004378,-0.007457,0.010081,0.004643,-0.483181,-0.033826,-0.299813,-265.515378,-1.220893,62.867544
0.4569,0.021751,0.026558,-0.032103,0.004396,-0.007486,0.010159,0.004643,-0.483181,-0.033826,-0.299813,-265.515378,-1.220893,62.867544
0.4771,0.021562,0.025897,-0.031295,0.004411,-0.00751,0.010221,0.005549,-0.483487,-0.031696,-0.295337,-265.513602,-1.259198,62.873089
0.4971,0.021659,0.025996,-0.030392,0.004379,-0.007524,0.010319,0.005591,-0.483673,-0.031484,-0.295337,-265.513602,-1.259198,62.873089
0.5172,0.021378,0.025407,-0.03031,0.004353,-0.007536,0.010397,0.006294,-0.48401,-0.030068,-0.279841,-265.511772,-1.260446,62.878847
0.5372,0.021872,0.025679,-0.030187,0.004308,-0.007542,0.010503,0.005961,-0.48434,-0.030273,-0.279841,-265.511772,-1.260446,62.878847
0.5571,0.021254,0.025611,-0.030847,0.004271,-0.007547,0.010588,0.005961,-0.48434,-0.030273,-0.279841,-265.511772,-1.260446,62.878847
0.5769,0.021662,0.025381,-0.031581,0.004239,-0.007552,0.010657,0.005696,-0.484465,-0.030415,-0.265945,-265.509977,-1.267038,62.884637
0.5969,0.020953,0.025542,-0.031113,0.004221,-0.007558,0.010752,0.00566,-0.484461,-0.030839,-0.265945,-265.509977,-1.267038,62.884637
0.6163,0.021591,0.024729,-0.028642,0.004205,-0.007563,0.010829,0.005215,-0.484454,-0.030777,-0.241279,-265.508251,-1.278002,62.890443
0.6364,0.021334,0.024845,-0.029247,0.00414,-0.007557,0.010928,0.006833,-0.48502,-0.028817,-0.241279,-265.508251,-1.278002,62.890443
0.6569,0.021187,0.024609,-0.03024,0.004085,-0.007552,0.011009,0.006833,-0.48502,-0.028817,-0.241279,-265.508251,-1.278002,62.890443
0.6768,0.021612,0.024054,-0.028393,0.004039,-0.007548,0.011074,0.005932,-0.485478,-0.02979,-0.222125,-265.506533,-1.282429,62.896336
0.6966,0.021397,0.024539,-0.029092,0.004007,-0.007546,0.011161,0.006449,-0.485624,-0.029158,-0.222125,-265.506533,-1.282429,62.896336
0.717,0.021257,0.023919,-0.028269,0.00398,-0.007545,0.011232,0.006682,-0.485485,-0.028747,-0.191704,-265.50492,-1.295725,62.902166
0.737,0.021164,0.02426,-0.029928,0.003938,-0.00754,0.011319,0.006834,-0.485854,-0.028295,-0.191704,-265.50492,-1.295725,62.902166
0.7577,0.021084,0.024168,-0.028648,0.003902,-0.007535,0.011389,0.006834,-0.485854,-0.028295,-0.191704,-265.50492,-1.295725,62.902166
0.7768,0.021168,0.023599,-0.027828,0.003872,-0.007532,0.011447,0.006634,-0.485944,-0.028177,-0.170487,-265.503317,-1.301241,62.908097
0.797,0.021137,0.023548,-0.027899,0.003844,-0.007529,0.01152,0.006787,-0.486082,-0.027987,-0.170487,-265.503317,-1.301241,62.908097
0.8168,0.020907,0.023016,-0.028028,0.003821,-0.007527,0.01158,0.007026,-0.486495,-0.027538,-0.138753,-265.501781,-1.310265,62.914006
0.8369,0.021211,0.023362,-0.026838,0.003797,-0.007524,0.011651,0.006659,-0.486769,-0.027963,-0.138753,-265.501781,-1.310265,62.914006
0.8565,0.021022,0.023571,-0.027122,0.003777,-0.007521,0.01171,0.006659,-0.486769,-0.027963,-0.138753,-265.501781,-1.310265,62.914006
0.8768,0.02116,0.022901,-0.026253,0.00376,-0.00752,0.011757,0.007342,-0.486558,-0.026641,-0.118276,-265.500251,-1.314826,62.920003
0.8972,0.021214,0.02308,-0.026472,0.003709,-0.007508,0.011814,0.007535,-0.486744,-0.026427,-0.118276,-265.500251,-1.314826,62.920003
0.9166,0.020605,0.022677,-0.025875,0.003667,-0.007499,0.01186,0.007827,-0.486981,-0.026102,-0.08993,-265.498762,-1.320414,62.925989
0.9366,0.021032,0.022711,-0.027382,0.003629,-0.00749,0.011908,0.007454,-0.487149,-0.025877,-0.08993,-265.498762,-1.320414,62.925989
0.9566,0.020531,0.022645,-0.026159,0.003597,-0.007483,0.011947,0.007454,-0.487149,-0.025877,-0.08993,-265.498762,-1.320414,62.925989
0.9764,0.020756,0.022264,-0.026337,0.00357,-0.007477,0.011979,0.007335,-0.487496,-0.025666,-0.06954,-265.497303,-1.326994,62.932021
0.9965,0.020868,0.022522,-0.025001,0.003545,-0.007472,0.01201,0.007348,-0.487558,-0.025882,-0.06954,-265.497303,-1.326994,62.932021
1.0165,0.020601,0.021953,-0.025909,0.003525,-0.007468,0.012036,0.008226,-0.487557,-0.024623,-0.045226,-265.495888,-1.334029,62.938046
1.0367,0.021053,0.022054,-0.024316,0.003499,-0.007461,0.012061,0.00747,-0.48786,-0.025774,-0.045226,-265.495888,-1.334029,62.938046
1.0566,0.020529,0.021902,-0.025211,0.003477,-0.007456,0.012082,0.00747,-0.48786,-0.025774,-0.045226,-265.495888,-1.334029,62.938046
1.0766,0.020168,0.021657,-0.025668,0.003458,-0.007452,0.0121,0.007812,-0.488251,-0.024707,-0.033211,-265.494481,-1.337266,62.944124
1.0965,0.02046,0.021907,-0.024797,0.003434,-0.007445,0.012118,0.007531,-0.488257,-0.025039,-0.033211,-265.494481,-1.337266,62.944124
1.1164,0.020205,0.02139,-0.022734,0.003413,-0.00744,0.012133,0.007919,-0.488176,-0.024413,-0.017956,-265.493103,-1.341882,62.950195
1.1368,0.020527,0.021227,-0.023604,0.00335,-0.007419,0.012151,0.008555,-0.488463,-0.022866,-0.017956,-265.493103,-1.341882,62.950195
1.1565,0.020512,0.021661,-0.023316,0.003298,-0.007401,0.012166,0.008555,-0.488463,-0.022866,-0.017956,-265.493103,-1.341882,62.950195
1.1767,0.020426,0.020654,-0.024862,0.003254,-0.007387,0.012177,0.008758,-0.488514,-0.022809,-0.008637,-265.49174,-1.344881,62.95628
1.1966,0.020311,0.020636,-0.023694,0.00322,-0.007376,0.012189,0.008361,-0.488826,-0.023589,-0.008637,-265.49174,-1.344881,62.95628
1.2168,0.020031,0.020863,-0.023858,0.003192,-0.007366,0.012199,0.008326,-0.489456,-0.02331,0.015355,-265.490452,-1.354701,62.962286
1.237,0.020187,0.020075,-0.022739,0.003183,-0.007364,0.012209,0.007911,-0.489047,-0.023788,0.015355,-265.490452,-1.354701,62.962286
1.257,0.020095,0.021276,-0.021425,0.003175,-0.007362,0.012218,0.007911,-0.489047,-0.023788,0.015355,-265.490452,-1.354701,62.962286
1.2765,0.019516,0.02021,-0.021638,0.003168,-0.007361,0.012225,0.009296,-0.488917,-0.020915,0.026335,-265.489177,-1.35863,62.968336
1.2969,0.019862,0.02006,-0.022131,0.003114,-0.00734,0.012235,0.008978,-0.48926,-0.021152,0.026335,-265.489177,-1.35863,62.968336
1.3164,0.01933,0.020055,-0.020866,0.003069,-0.007323,0.012243,0.008672,-0.490052,-0.021742,0.03347,-265.48791,-1.360291,62.974395
1.3372,0.019827,0.01971,-0.022151,0.003031,-0.007309,0.012251,0.008693,-0.489866,-0.020925,0.03347,-265.48791,-1.360291,62.974395
1.3569,0.019925,0.019798,-0.020958,0.003,-0.007297,0.012257,0.008693,-0.489866,-0.020925,0.03347,-265.48791,-1.360291,62.974395
1.3767,0.019169,0.019286,-0.021232,0.002974,-0.007287,0.012262,0.009359,-0.490397,-0.020448,0.050282,-265.486688,-1.366352,62.980411
1.3965,0.019415,0.019181,-0.020876,0.002929,-0.007268,0.012268,0.008959,-0.490515,-0.020708,0.050282,-265.486688,-1.366352,62.980411
1.4168,0.019487,0.018878,-0.020799,0.002892,-0.007252,0.012272,0.008858,-0.49094,-0.020488,0.067882,-265.485502,-1.372175,62.986408
1.4366,0.019373,0.019427,-0.019356,0.002854,-0.007236,0.012277,0.008883,-0.491017,-0.020752,0.067882,-265.485502,-1.372175,62.986408
1.4566,0.019255,0.018879,-0.020907,0.002822,-0.007222,0.012281,0.008883,-0.491017,-0.020752,0.067882,-265.485502,-1.372175,62.986408
1.4769,0.019152,0.018522,-0.018114,0.002796,-0.007211,0.012284,0.008708,-0.491315,-0.020394,0.083844,-265.484346,-1.377176,62.992391
1.4971,0.019008,0.018633,-0.019055,0.002751,-0.007191,0.012284,0.009207,-0.491382,-0.019417,0.083844,-265.484346,-1.377176,62.992391
1.5165,0.019135,0.018639,-0.01857,0.002715,-0.007173,0.012283,0.009375,-0.491505,-0.018666,0.103834,-265.483229,-1.383016,62.998342
1.5367,0.018856,0.018238,-0.018574,0.002667,-0.00715,0.012278,0.009643,-0.491305,-0.018558,0.103834,-265.483229,-1.383016,62.998342
1.5566,0.019023,0.018482,-0.019183,0.002628,-0.00713,0.012273,0.009643,-0.491305,-0.018558,0.103834,-265.483229,-1.383016,62.998342
1.5767,0.0192,0.01794,-0.018661,0.002595,-0.007114,0.012269,0.009348,-0.491725,-0.018671,0.120487,-265.482141,-1.387894,63.004282
1.5966,0.018836,0.018237,-0.017778,0.002561,-0.007097,0.012266,0.009497,-0.49186,-0.018608,0.120487,-265.482141,-1.387894,63.004282
1.6166,0.018883,0.01764,-0.019929,0.002533,-0.007083,0.012264,0.009848,-0.491908,-0.01739,0.145155,-265.481102,-1.395003,63.010162
1.6365,0.018761,0.017462,-0.017479,0.002532,-0.007083,0.012267,0.008821,-0.49224,-0.019691,0.145155,-265.481102,-1.395003,63.010162
1.6566,0.018644,0.017752,-0.016987,0.00253,-0.007082,0.01227,0.008821,-0.49224,-0.019691,0.145155,-265.481102,-1.395003,63.010162
1.6764,0.018657,0.017229,-0.017982,0.002528,-0.007082,0.012272,0.010082,-0.492471,-0.016476,0.159321,-265.48008,-1.39867,63.01605
1.6968,0.018261,0.017084,-0.017294,0.002472,-0.007049,0.01225,0.00985,-0.492594,-0.017032,0.159321,-265.48008,-1.39867,63.01605
1.7163,0.018167,0.016634,-0.017984,0.002426,-0.007021,0.012231,0.009518,-0.493067,-0.016902,0.161978,-265.479056,-1.399075,63.021967
1.7371,0.018377,0.017026,-0.015126,0.002406,-0.007009,0.012227,0.009046,-0.493276,-0.017866,0.161978,-265.479056,-1.399075,63.021967
1.757,0.018201,0.017246,-0.016128,0.00239,-0.007,0.012223,0.009046,-0.493276,-0.017866,0.161978,-265.479056,-1.399075,63.021967
1.7767,0.018044,0.016668,-0.015092,0.002376,-0.006992,0.01222,0.010072,-0.492981,-0.015621,0.183113,-265.478077,-1.404955,63.027799
1.7965,0.017885,0.016594,-0.015861,0.002315,-0.006952,0.012171,0.010196,-0.493134,-0.015346,0.183113,-265.478077,-1.404955,63.027799
1.8164,0.017817,0.016269,-0.016278,0.002264,-0.006918,0.012131,0.009868,-0.493564,-0.015473,0.195815,-265.47711,-1.407856,63.033643
1.837,0.017969,0.016427,-0.015074,0.002238,-0.006901,0.012117,0.009551,-0.493666,-0.016186,0.195815,-265.47711,-1.407856,63.033643
1.857,0.017691,0.016229,-0.015775,0.002216,-0.006886,0.012106,0.009551,-0.493666,-0.016186,0.195815,-265.47711,-1.407856,63.033643
1.8772,0.017348,0.015847,-0.015626,0.002198,-0.006874,0.012097,0.009736,-0.493997,-0.015271,0.213306,-265.476189,-1.414075,63.039413
1.8969,0.017295,0.015855,-0.01571,0.002169,-0.006853,0.012069,0.009601,-0.494069,-0.015356,0.213306,-265.476189,-1.414075,63.039413
1.9172,0.017667,0.015864,-0.014369,0.002144,-0.006836,0.012047,0.00935,-0.494301,-0.015326,0.229569,-265.475289,-1.417852,63.045166
1.9368,0.017398,0.015943,-0.014803,0.002093,-0.006801,0.012002,0.010256,-0.494113,-0.014433,0.229569,-265.475289,-1.417852,63.045166
1.9568,0.017286,0.015577,-0.014926,0.00205,-0.006772,0.011966,0.010256,-0.494113,-0.014433,0.229569,-265.475289,-1.417852,63.045166
1.9768,0.016974,0.015665,-0.013363,0.002016,-0.006747,0.011936,0.009759,-0.494652,-0.014423,0.238781,-265.474407,-1.42089,63.050905
1.9968,0.017126,0.015155,-0.013559,0.001987,-0.006726,0.011892,0.009934,-0.494536,-0.013928,0.238781,-265.474407,-1.42089,63.050905
2.0165,0.016903,0.01522,-0.011534,0.001964,-0.006708,0.011857,0.010272,-0.495011,-0.013184,0.263033,-265.473581,-1.428171,63.056514
2.0366,0.017062,0.014969,-0.013352,0.001887,-0.006652,0.011683,0.010959,-0.494779,-0.011658,0.263033,-265.473581,-1.428171,63.056514
2.0568,0.017063,0.014862,-0.012471,0.001824,-0.006605,0.011551,0.010959,-0.494779,-0.011658,0.263033,-265.473581,-1.428171,63.056514
2.0769,0.017036,0.014443,-0.011726,0.001774,-0.006567,0.011452,0.010782,-0.49538,-0.011976,0.265296,-265.472766,-1.43095,63.062152
2.0968,0.01665,0.014798,-0.013396,0.001716,-0.006522,0.011391,0.010903,-0.495471,-0.011816,0.265296,-265.472766,-1.43095,63.062152
2.1166,0.016287,0.014369,-0.012452,0.00167,-0.006485,0.011345,0.009871,-0.495362,-0.013038,0.236318,-265.472048,-1.440734,63.06754
2.1365,0.016472,0.014331,-0.011541,0.001671,-0.006483,0.011355,0.009934,-0.495582,-0.012484,0.236318,-265.472048,-1.440734,63.06754
2.1567,0.016829,0.014282,-0.011505,0.001671,-0.00648,0.011363,0.009934,-0.495582,-0.012484,0.236318,-265.472048,-1.440734,63.06754
2.1768,0.016445,0.013694,-0.010316,0.001672,-0.006479,0.011369,0.011027,-0.495953,-0.011036,0.25961,-265.471364,-1.446949,63.072888
2.1966,0.01643,0.014159,-0.010622,0.001601,-0.006423,0.011219,0.011099,-0.496117,-0.010688,0.25961,-265.471364,-1.446949,63.072888
2.2167,0.016301,0.013656,-0.011664,0.001544,-0.006377,0.011107,0.011064,-0.496019,-0.010261,0.271484,-265.470672,-1.446902,63.078286
2.2367,0.016121,0.013411,-0.008217,0.001524,-0.006359,0.0111,0.010419,-0.496294,-0.01152,0.271484,-265.470672,-1.446902,63.078286
2.2568,0.016026,0.013946,-0.009424,0.001507,-0.006343,0.011094,0.010419,-0.496294,-0.01152,0.271484,-265.470672,-1.446902,63.078286
2.2769,0.015725,0.013402,-0.010048,0.001494,-0.006331,0.01109,0.011282,-0.496299,-0.008961,0.257501,-265.470035,-1.453984,63.083566
2.2967,0.016183,0.013375,-0.009837,0.001443,-0.006293,0.01083,0.011014,-0.49644,-0.009346,0.257501,-265.470035,-1.453984,63.083566
2.3166,0.015872,0.013201,-0.010734,0.001403,-0.00626,0.010642,0.011211,-0.4968,-0.009489,0.288014,-265.469422,-1.457277,63.088762
2.3369,0.015652,0.013265,-0.00913,0.00139,-0.006244,0.01066,0.010474,-0.496782,-0.010604,0.288014,-265.469422,-1.457277,63.088762
2.3567,0.015861,0.012803,-0.00869,0.00138,-0.006231,0.010675,0.010474,-0.496782,-0.010604,0.288014,-265.469422,-1.457277,63.088762
2.3771,0.015617,0.012628,-0.00867,0.001372,-0.00622,0.010686,0.011474,-0.497385,-0.008334,0.212995,-265.468968,-1.461285,63.092849
2.3969,0.015916,0.012591,-0.008759,0.001298,-0.006163,0.010381,0.011366,-0.497396,-0.008429,0.212995,-265.468968,-1.461285,63.092849
2.4167,0.015467,0.012404,-0.008665,0.00124,-0.006116,0.010162,0.011491,-0.497588,-0.00842,0.220215,-265.468406,-1.463567,63.097981
2.4367,0.015225,0.012403,-0.009972,0.001201,-0.006078,0.010038,0.011088,-0.497587,-0.008627,0.220215,-265.468406,-1.463567,63.097981
2.4567,0.015322,0.01262,-0.007623,0.00117,-0.006046,0.009949,0.011088,-0.497587,-0.008627,0.220215,-265.468406,-1.463567,63.097981
2.477,0.015382,0.011849,-0.010392,0.001146,-0.006019,0.009886,0.011469,-0.497545,-0.007321,0.145086,-265.468055,-1.470468,63.101475
2.497,0.015262,0.012299,-0.00778,0.001127,-0.005996,0.00982,0.010906,-0.497802,-0.008542,0.145086,-265.468055,-1.470468,63.101475
2.5171,0.015534,0.012015,-0.007065,0.001112,-0.005977,0.009771,0.011321,-0.497831,-0.007538,0.070112,-265.467703,-1.476028,63.105188
2.5369,0.015386,0.012039,-0.00968,0.001048,-0.00593,0.009454,0.01188,-0.497968,-0.007093,0.070112,-265.467703,-1.476028,63.105188
2.557,0.015395,0.012007,-0.009205,0.001,-0.00589,0.009229,0.01188,-0.497968,-0.007093,0.070112,-265.467703,-1.476028,63.105188
2.5769,0.01483,0.011967,-0.007757,0.000962,-0.005855,0.009072,0.010741,-0.498199,-0.008834,-0.004884,-265.4673,-1.477997,63.109536
2.5968,0.01462,0.011751,-0.007928,0.000976,-0.00585,0.009185,0.010799,-0.498151,-0.008353,-0.004884,-265.4673,-1.477997,63.109536
2.6165,0.014372,0.0116,-0.006479,0.000987,-0.005847,0.009268,0.010583,-0.498271,-0.007866,-0.079885,-265.467216,-1.486577,63.110486
2.6366,0.015016,0.011618,-0.008525,0.000964,-0.005836,0.008975,0.011021,-0.49838,-0.006611,-0.079885,-265.467216,-1.486577,63.110486
2.6565,0.014656,0.011813,-0.007296,0.000948,-0.005825,0.008766,0.011021,-0.49838,-0.006611,-0.079885,-265.467216,-1.486577,63.110486
2.6767,0.014679,0.011225,-0.007181,0.000938,-0.005815,0.008619,0.010967,-0.498357,-0.007005,-0.154786,-265.466882,-1.485261,63.113933
2.6965,0.014705,0.011789,-0.005713,0.000933,-0.005799,0.008601,0.010991,-0.498542,-0.007044,-0.154786,-265.466882,-1.485261,63.113933
2.7167,0.014789,0.01112,-0.008345,0.000929,-0.005786,0.008587,0.011795,-0.49822,-0.005685,-0.229774,-265.466839,-1.486318,63.114369
2.7369,0.014671,0.011423,-0.007574,0.000942,-0.005778,0.008746,0.010642,-0.498808,-0.008115,-0.229774,-265.466839,-1.486318,63.114369
2.7568,0.014959,0.011497,-0.007562,0.000951,-0.005772,0.008861,0.010642,-0.498808,-0.008115,-0.229774,-265.466839,-1.486318,63.114369
2.7766,0.014853,0.011196,-0.006557,0.000957,-0.005767,0.008942,0.011112,-0.498544,-0.007475,-0.304921,-265.466737,-1.486805,63.115419
2.7968,0.014768,0.011774,-0.007859,0.000937,-0.00575,0.008802,0.011276,-0.498653,-0.007087,-0.304921,-265.466737,-1.486805,63.115419
2.8167,0.014947,0.011072,-0.006734,0.000921,-0.005735,0.008697,0.010785,-0.498355,-0.007638,-0.309003,-265.466335,-1.485725,63.118968
2.8373,0.014481,0.011302,-0.005231,0.000893,-0.005709,0.008557,0.011453,-0.498877,-0.006799,-0.309003,-265.466335,-1.485725,63.118968
2.8566,0.014311,0.010966,-0.006981,0.000872,-0.005688,0.008453,0.011453,-0.498877,-0.006799,-0.309003,-265.466335,-1.485725,63.118968
2.877,0.014751,0.011209,-0.006088,0.000855,-0.005669,0.008376,0.010781,-0.49921,-0.006693,-0.383992,-265.466015,-1.487576,63.122466
2.8972,0.014447,0.011256,-0.006004,0.000843,-0.005659,0.008234,0.011138,-0.499057,-0.006412,-0.383992,-265.466015,-1.487576,63.122466
2.9166,0.014317,0.010562,-0.0061,0.000835,-0.005649,0.008132,0.011401,-0.498835,-0.005854,-0.458944,-265.465788,-1.491658,63.124883
2.9367,0.014044,0.010492,-0.005765,0.000811,-0.005628,0.007976,0.011223,-0.499382,-0.006072,-0.458944,-265.465788,-1.491658,63.124883
2.9569,0.014341,0.011144,-0.006847,0.000794,-0.005609,0.007864,0.011223,-0.499382,-0.006072,-0.458944,-265.465788,-1.491658,63.124883
2.9769,0.013901,0.010501,-0.005783,0.000781,-0.005592,0.007784,0.010865,-0.498947,-0.006697,-0.533967,-265.465599,-1.492334,63.126749
2.9967,0.014539,0.010409,-0.004567,0.000793,-0.005595,0.00777,0.010903,-0.499186,-0.006297,-0.533967,-265.465599,-1.492334,63.126749
3.0169,0.014298,0.010709,-0.005807,0.000804,-0.005598,0.007759,0.012217,-0.499632,-0.004501,-0.60918,-265.465478,-1.495405,63.127842
3.0371,0.014212,0.01054,-0.006576,0.000784,-0.005581,0.007608,0.011411,-0.499314,-0.005693,-0.60918,-265.465478,-1.495405,63.127842
3.0569,0.014097,0.010278,-0.004679,0.00077,-0.005566,0.0075,0.011411,-0.499314,-0.005693,-0.60918,-265.465478,-1.495405,63.127842
3.0769,0.0143,0.010554,-0.005769,0.000759,-0.005553,0.007423,0.011728,-0.499831,-0.004518,-0.683993,-265.465246,-1.493211,63.129886
3.0968,0.014186,0.010682,-0.006171,0.000726,-0.005525,0.007192,0.011577,-0.499682,-0.005015,-0.683993,-265.465246,-1.493211,63.129886
3.1164,0.013932,0.010556,-0.003455,0.000701,-0.005501,0.00703,0.011049,-0.499373,-0.006081,-0.758975,-265.465057,-1.495691,63.131394
3.137,0.014216,0.010561,-0.005964,0.000663,-0.005485,0.006514,0.012071,-0.499438,-0.003684,-0.758975,-265.465057,-1.495691,63.131394
3.1567,0.014133,0.010364,-0.005483,0.000637,-0.005467,0.006161,0.012071,-0.499438,-0.003684,-0.758975,-265.465057,-1.495691,63.131394
3.1766,0.013994,0.010348,-0.005195,0.000618,-0.00545,0.005921,0.011345,-0.499689,-0.005403,-0.833865,-265.464908,-1.499327,63.132442
3.1964,0.013897,0.010209,-0.005321,0.000638,-0.005438,0.006202,0.011346,-0.499678,-0.005307,-0.833865,-265.464908,-1.499327,63.132442
3.2163,0.013763,0.010776,-0.006596,0.000653,-0.005429,0.006404,0.011185,-0.499794,-0.005309,-0.909129,-265.46486,-1.502706,63.132665
3.2366,0.014084,0.010118,-0.005844,0.000723,-0.005465,0.006784,0.010467,-0.499263,-0.006486,-0.909129,-265.46486,-1.502706,63.132665
3.2567,0.014013,0.01009,-0.005191,0.000776,-0.005495,0.007061,0.010467,-0.499263,-0.006486,-0.909129,-265.46486,-1.502706,63.132665
3.2768,0.013965,0.009941,-0.003503,0.000818,-0.005521,0.007261,0.011376,-0.499981,-0.005096,-0.98398,-265.46463,-1.500994,63.133967
3.2966,0.013999,0.010208,-0.005943,0.000757,-0.005481,0.006914,0.011705,-0.500021,-0.004435,-0.98398,-265.46463,-1.500994,63.133967
3.3164,0.013735,0.009909,-0.00309,0.000711,-0.005446,0.006671,0.010992,-0.49995,-0.005724,-0.92552,-265.464117,-1.488856,63.137741
3.3367,0.013815,0.009662,-0.00475,0.000652,-0.005414,0.00614,0.012055,-0.500084,-0.003317,-0.92552,-265.464117,-1.488856,63.137741
3.3566,0.013883,0.01011,-0.005273,0.000608,-0.005383,0.005778,0.012055,-0.500084,-0.003317,-0.92552,-265.464117,-1.488856,63.137741
3.3768,0.013648,0.009883,-0.004681,0.000575,-0.005355,0.005533,0.011214,-0.500027,-0.005093,-1.000512,-265.463723,-1.496309,63.140172
3.3967,0.013943,0.009852,-0.003149,0.000593,-0.005346,0.005826,0.011235,-0.500078,-0.004905,-1.000512,-265.463723,-1.496309,63.140172
3.4165,0.013842,0.009506,-0.004901,0.000606,-0.005339,0.006037,0.012343,-0.50019,-0.003102,-1.075513,-265.463506,-1.505046,63.141096
3.4367,0.014045,0.009682,-0.005788,0.000594,-0.005313,0.006149,0.01142,-0.500467,-0.00476,-1.075513,-265.463506,-1.505046,63.141096
3.457,0.013652,0.009575,-0.004338,0.000583,-0.005291,0.006227,0.01142,-0.500467,-0.00476,-1.075513,-265.463506,-1.505046,63.141096
3.477,0.013651,0.009346,-0.004715,0.000573,-0.005274,0.006282,0.011459,-0.500579,-0.004157,-1.150978,-265.463004,-1.503734,63.143678
3.4969,0.013458,0.009754,-0.002486,0.000555,-0.005256,0.006212,0.011375,-0.500625,-0.004362,-1.150978,-265.463004,-1.503734,63.143678
3.5167,0.01363,0.009104,-0.005292,0.000542,-0.005242,0.006162,0.012208,-0.500408,-0.002291,-1.191357,-265.462399,-1.507971,63.147244
3.5371,0.013281,0.008928,-0.004748,0.00054,-0.005226,0.006308,0.011039,-0.500856,-0.005032,-1.191357,-265.462399,-1.507971,63.147244
3.5574,0.013534,0.009188,-0.0041,0.000537,-0.005214,0.006411,0.011039,-0.500856,-0.005032,-1.191357,-265.462399,-1.507971,63.147244
3.5769,0.013513,0.00869,-0.004915,0.000533,-0.005204,0.006484,0.011464,-0.501024,-0.003846,-1.219642,-265.461778,-1.510734,63.150803
3.5971,0.013323,0.008719,-0.004421,0.000501,-0.005177,0.006327,0.011279,-0.501164,-0.004255,-1.219642,-265.461778,-1.510734,63.150803
3.6167,0.013344,0.008802,-0.003744,0.000477,-0.005154,0.006217,0.011084,-0.501434,-0.004224,-1.165795,-265.461262,-1.512661,63.154302
3.637,0.013168,0.008723,-0.003877,0.000446,-0.005131,0.005996,0.011404,-0.501224,-0.003777,-1.165795,-265.461262,-1.512661,63.154302
3.6572,0.013446,0.008975,-0.001586,0.000423,-0.005111,0.005846,0.011404,-0.501224,-0.003777,-1.165795,-265.461262,-1.512661,63.154302
3.6765,0.013476,0.00874,-0.004682,0.000405,-0.005093,0.005745,0.012655,-0.501225,-0.001344,-1.23305,-265.460727,-1.517586,63.157635
3.6967,0.013165,0.008341,-0.004727,0.000364,-0.00507,0.005282,0.01202,-0.50126,-0.002674,-1.23305,-265.460727,-1.517586,63.157635
3.7168,0.013012,0.008464,-0.002599,0.000333,-0.005046,0.00497,0.010765,-0.501797,-0.004565,-1.308048,-265.460148,-1.523701,63.160687
3.737,0.013306,0.008258,-0.001039,0.000311,-0.00502,0.004799,0.011607,-0.501564,-0.002762,-1.308048,-265.460148,-1.523701,63.160687
3.7569,0.013,0.008621,-0.003989,0.000294,-0.004997,0.004689,0.011607,-0.501564,-0.002762,-1.308048,-265.460148,-1.523701,63.160687
3.777,0.012936,0.008122,-0.002072,0.000282,-0.004977,0.004619,0.010977,-0.501556,-0.003811,-1.383167,-265.459451,-1.52957,63.163451
3.7966,0.012965,0.00814,-0.001451,0.000277,-0.004957,0.004698,0.011346,-0.501707,-0.003084,-1.383167,-265.459451,-1.52957,63.163451
3.8164,0.012926,0.007693,-0.002841,0.000273,-0.00494,0.004757,0.012234,-0.50201,-0.001311,-1.440694,-265.458627,-1.534635,63.16641
3.8367,0.012362,0.007841,-0.001104,0.00024,-0.004893,0.004657,0.011546,-0.502286,-0.002695,-1.440694,-265.458627,-1.534635,63.16641
3.8574,0.012874,0.007541,-0.002697,0.000214,-0.004853,0.00459,0.011546,-0.502286,-0.002695,-1.440694,-265.458627,-1.534635,63.16641
3.8768,0.012743,0.007462,-0.001817,0.000193,-0.00482,0.004546,0.011509,-0.502664,-0.002498,-1.437202,-265.457805,-1.535952,63.16955
3.8968,0.012879,0.007418,-0.002832,0.000158,-0.004776,0.004309,0.011635,-0.502637,-0.002199,-1.437202,-265.457805,-1.535952,63.16955
3.9166,0.012235,0.007321,-0.001694,0.000132,-0.004738,0.004147,0.01144,-0.50273,-0.002691,-1.476493,-265.457002,-1.545357,63.172523
3.9368,0.012632,0.007306,-0.002247,0.000112,-0.00472,0.003834,0.011377,-0.502689,-0.001767,-1.476493,-265.457002,-1.545357,63.172523
3.9567,0.012614,0.006862,-0.001477,9.9e-05,-0.004701,0.003622,0.011377,-0.502689,-0.001767,-1.476493,-265.457002,-1.545357,63.172523
3.9768,0.012418,0.006793,-0.002084,8.9e-05,-0.004684,0.003479,0.011865,-0.503332,-0.001307,-1.511214,-265.456139,-1.552708,63.175366
3.9972,0.012562,0.006999,-0.002017,5.2e-05,-0.004623,0.003308,0.01166,-0.503303,-0.001602,-1.511214,-265.456139,-1.552708,63.175366
4.0167,0.012813,0.006596,-0.000835,2.3e-05,-0.004571,0.003192,0.011536,-0.503148,-0.001907,-1.536119,-265.455125,-1.55776,63.178062
4.0367,0.012978,0.007015,-0.003175,-2.1e-05,-0.004518,0.002754,0.012313,-0.503388,-0.000924,-1.536119,-265.455125,-1.55776,63.178062
4.0573,0.012339,0.006967,-0.000513,-5.4e-05,-0.00447,0.002452,0.012313,-0.503388,-0.000924,-1.536119,-265.455125,-1.55776,63.178062
4.0771,0.012528,0.006767,-0.001291,-8e-05,-0.004427,0.002244,0.012078,-0.503223,-0.000381,-1.562189,-265.454089,-1.567336,63.180638
4.097,0.012492,0.006315,-0.000557,-8.9e-05,-0.004414,0.001991,0.011994,-0.503248,-0.000732,-1.562189,-265.454089,-1.567336,63.180638
4.1165,0.01252,0.006288,-0.002414,-9.6e-05,-0.0044,0.001817,0.012206,-0.503822,-0.000487,-1.59682,-265.452897,-1.58452,63.182899
4.137,0.012261,0.006116,-0.000896,-9.1e-05,-0.004346,0.002439,0.011371,-0.503728,-0.002237,-1.59682,-265.452897,-1.58452,63.182899
4.157,0.012149,0.006311,-6.1e-05,-9.1e-05,-0.004305,0.002879,0.011371,-0.503728,-0.002237,-1.59682,-265.452897,-1.58452,63.182899
4.177,0.012103,0.00576,-0.001306,-9.3e-05,-0.004274,0.003187,0.012114,-0.503873,1.5e-05,-1.599924,-265.451581,-1.588193,63.185102
4.1967,0.012021,0.006208,-0.000932,-0.000131,-0.004254,0.002522,0.011838,-0.504044,-0.000514,-1.599924,-265.451581,-1.588193,63.185102
4.217,0.012261,0.005763,-0.00149,-0.000158,-0.00423,0.002058,0.011542,-0.503927,-0.000831,-1.610849,-265.450651,-1.58579,63.187586
4.2371,0.012142,0.005679,-0.00112,-0.000169,-0.004182,0.002238,0.011505,-0.504216,-0.001425,-1.610849,-265.450651,-1.58579,63.187586
4.2565,0.012023,0.005546,-0.000567,-0.000179,-0.004143,0.002364,0.011505,-0.504216,-0.001425,-1.610849,-265.450651,-1.58579,63.187586
4.2772,0.01211,0.005638,-0.001044,-0.000188,-0.004113,0.002452,0.011727,-0.50463,-0.000482,-1.623733,-265.449467,-1.599501,63.189769
4.2971,0.011716,0.005641,-0.00051,-0.000215,-0.004078,0.002123,0.011665,-0.504541,-0.0007,-1.623733,-265.449467,-1.599501,63.189769
4.317,0.012339,0.005468,-0.001143,-0.000235,-0.004046,0.001894,0.01145,-0.504489,-0.000432,-1.642491,-265.448422,-1.604266,63.192005
4.3375,0.011908,0.005644,-8.1e-05,-0.000247,-0.004007,0.001945,0.011729,-0.504534,-0.001076,-1.642491,-265.448422,-1.604266,63.192005
4.3572,0.011731,0.005041,-0.000553,-0.000258,-0.003975,0.00198,0.011729,-0.504534,-0.001076,-1.642491,-265.448422,-1.604266,63.192005
4.3766,0.011992,0.005415,-0.00087,-0.000266,-0.003949,0.002004,0.01144,-0.505127,-0.000474,-1.652015,-265.447269,-1.615974,63.194077
4.3969,0.012005,0.005447,-0.000212,-0.000285,-0.003917,0.001771,0.011482,-0.504927,-0.000625,-1.652015,-265.447269,-1.615974,63.194077
4.417,0.011755,0.005159,-0.0005,-0.0003,-0.003889,0.001607,0.011889,-0.504679,-0.000148,-1.668027,-265.446177,-1.622134,63.196142
4.4367,0.011456,0.005195,0.000224,-0.000309,-0.003874,0.0014,0.011533,-0.504833,-0.000466,-1.668027,-265.446177,-1.622134,63.196142
4.4569,0.011816,0.004956,-0.000975,-0.000316,-0.00386,0.001256,0.011533,-0.504833,-0.000466,-1.668027,-265.446177,-1.622134,63.196142
4.4767,0.012044,0.005072,0.001089,-0.00032,-0.003846,0.001155,0.011306,-0.505206,-0.000908,-1.673478,-265.445012,-1.632239,63.198087
4.4967,0.011889,0.004807,-0.000275,-0.00034,-0.003814,0.000866,0.011832,-0.505111,-8.6e-05,-1.673478,-265.445012,-1.632239,63.198087
4.5168,0.011425,0.004648,-0.001048,-0.000355,-0.003784,0.000663,0.011738,-0.505315,-0.000239,-1.672236,-265.443748,-1.640932,63.199913
4.5369,0.012159,0.004816,-0.001104,-0.000351,-0.003742,0.001027,0.010962,-0.505354,-0.000977,-1.672236,-265.443748,-1.640932,63.199913
4.5567,0.011925,0.004662,-0.001442,-0.00035,-0.003711,0.001281,0.010962,-0.505354,-0.000977,-1.672236,-265.443748,-1.640932,63.199913
4.5766,0.011893,0.004461,-0.000492,-0.000349,-0.003687,0.001458,0.011175,-0.505495,-0.001414,-1.675413,-265.442392,-1.655291,63.201591
4.597,0.011927,0.004294,0.001077,-0.000362,-0.003642,0.001612,0.011367,-0.505532,-0.001027,-1.675413,-265.442392,-1.655291,63.201591
4.6165,0.011985,0.004624,0.000539,-0.000372,-0.003606,0.001718,0.012465,-0.505822,0.001123,-1.695087,-265.441275,-1.646989,63.203412
4.6365,0.01203,0.004909,-0.00159,-0.000408,-0.003606,0.000867,0.012277,-0.50542,0.000591,-1.695087,-265.441275,-1.646989,63.203412
4.6568,0.011549,0.004325,0.000381,-0.000432,-0.003596,0.000269,0.012277,-0.50542,0.000591,-1.695087,-265.441275,-1.646989,63.203412
4.6771,0.01154,0.004168,0.001214,-0.000448,-0.003582,-0.000151,0.011728,-0.505825,0.000453,-1.715435,-265.440248,-1.650624,63.205266
4.6969,0.011529,0.004022,0.000594,-0.000469,-0.003548,-0.000545,0.011904,-0.505845,0.000773,-1.715435,-265.440248,-1.650624,63.205266
4.7167,0.011655,0.004014,-0.001448,-0.000483,-0.003516,-0.000821,0.011818,-0.506087,0.00059,-1.692168,-265.438833,-1.698497,63.206612
4.7369,0.011456,0.003931,-0.002126,-0.000463,-0.003451,0.000124,0.010993,-0.506,-0.001274,-1.692168,-265.438833,-1.698497,63.206612
4.7571,0.011809,0.004042,-0.000336,-0.000452,-0.003403,0.000792,0.010993,-0.506,-0.001274,-1.692168,-265.438833,-1.698497,63.206612
4.7771,0.011544,0.003713,7.5e-05,-0.000447,-0.003369,0.001261,0.011618,-0.506102,-0.000369,-1.690448,-265.43724,-1.729668,63.207814
4.7964,0.01171,0.003975,-0.000437,-0.000468,-0.003338,0.001,0.011601,-0.506195,-0.000191,-1.690448,-265.43724,-1.729668,63.207814
4.8172,0.011508,0.003649,-0.000823,-0.000484,-0.003311,0.000816,0.011474,-0.506123,-0.0004,-1.741252,-265.43627,-1.678444,63.209346
4.837,0.011809,0.003878,-0.001719,-0.000488,-0.003271,0.001022,0.011125,-0.506335,-0.00078,-1.741252,-265.43627,-1.678444,63.209346
4.857,0.011404,0.003488,-0.00076,-0.000492,-0.003241,0.001164,0.011125,-0.506335,-0.00078,-1.741252,-265.43627,-1.678444,63.209346
4.8768,0.011769,0.003182,0.000623,-0.000495,-0.003218,0.001262,0.010996,-0.50665,-0.000726,-1.741138,-265.435134,-1.697111,63.210874
4.8966,0.011631,0.003319,0.001291,-0.000519,-0.003171,0.000992,0.011441,-0.506735,-0.000169,-1.741138,-265.435134,-1.697111,63.210874
4.9168,0.011561,0.003807,-0.000238,-0.000536,-0.003131,0.000799,0.01229,-0.506681,0.001291,-1.666117,-265.435135,-1.694326,63.210874
4.9367,0.011567,0.00347,0.000367,-0.000536,-0.003141,0.000621,0.011513,-0.506235,-0.000106,-1.666117,-265.435135,-1.694326,63.210874
4.9571,0.011638,0.003642,-0.000697,-0.000535,-0.003148,0.000495,0.011513,-0.506235,-0.000106,-1.666117,-265.435135,-1.694326,63.210874
4.9768,0.01168,0.00342,-0.001226,-0.000534,-0.003153,0.000406,0.011283,-0.506358,-0.000697,-1.59113,-265.435135,-1.717824,63.210874
4.997,0.011669,0.003456,0.001267,-0.000528,-0.003127,0.000796,0.01119,-0.506449,-0.000913,-1.59113,-265.435135,-1.717824,63.210874
5.0167,0.011656,0.003622,8e-05,-0.000524,-0.003108,0.001068,0.012315,-0.506544,0.001267,-1.516233,-265.435135,-1.726657,63.210874
5.037,0.011269,0.003277,-0.001906,-0.000537,-0.003117,0.000631,0.011753,-0.506393,0.000187,-1.516233,-265.435135,-1.726657,63.210874
5.0572,0.011604,0.003743,0.000686,-0.000546,-0.003119,0.000325,0.011753,-0.506393,0.000187,-1.516233,-265.435135,-1.726657,63.210874
5.0768,0.011322,0.003262,-0.002058,-0.000552,-0.003119,0.000112,0.011954,-0.506257,0.000686,-1.441232,-265.435135,-1.709208,63.210874
5.0971,0.01169,0.003209,0.000137,-0.000544,-0.003109,0.000317,0.011277,-0.50645,-0.00042,-1.441232,-265.435135,-1.709208,63.210874
5.1164,0.011687,0.003653,0.000856,-0.000539,-0.003102,0.000461,0.01176,-0.506791,0.000137,-1.366228,-265.435135,-1.742241,63.210874
5.1367,0.011933,0.003496,-0.000746,-0.000556,-0.003118,-0.000142,0.012093,-0.506383,0.000797,-1.366228,-265.435135,-1.742241,63.210874
5.1566,0.011502,0.003485,0.000105,-0.000567,-0.003125,-0.000565,0.012093,-0.506383,0.000797,-1.366228,-265.435135,-1.742241,63.210874
5.1768,0.011482,0.003183,-0.000967,-0.000573,-0.003127,-0.00086,0.011556,-0.506515,0.000105,-1.291038,-265.435135,-1.728657,63.210875
5.1968,0.01145,0.00356,-6.6e-05,-0.000561,-0.003094,-0.000405,0.011323,-0.506639,-0.000336,-1.291038,-265.435135,-1.728657,63.210875
5.2169,0.011571,0.003594,0.000687,-0.000554,-0.003071,-8.6e-05,0.011416,-0.50644,-6.6e-05,-1.365944,-265.435135,-1.653751,63.210875
5.2368,0.011399,0.003416,-0.001222,-0.000559,-0.003092,-0.000425,0.011878,-0.506409,0.000623,-1.365944,-265.435135,-1.653751,63.210875
5.2571,0.011552,0.003509,-0.000334,-0.000561,-0.003105,-0.000662,0.011878,-0.506409,0.000623,-1.365944,-265.435135,-1.653751,63.210875
5.2768,0.011432,0.003536,-0.000255,-0.000561,-0.003114,-0.000827,0.011381,-0.506491,-0.000334,-1.29092,-265.435135,-1.578728,63.210875
5.2966,0.011299,0.003504,0.000457,-0.000545,-0.003103,-0.000403,0.011349,-0.50648,-0.000302,-1.29092,-265.435135,-1.578728,63.210875
5.3167,0.011319,0.003217,0.000247,-0.000534,-0.003097,-0.000105,0.011533,-0.506496,0.000457,-1.365904,-265.435135,-1.503745,63.210875
5.3369,0.01113,0.00353,-0.00079,-0.000543,-0.003083,-0.000227,0.011452,-0.506757,0.000265,-1.365904,-265.435135,-1.503745,63.210875
5.3566,0.011623,0.003857,0.000104,-0.000549,-0.00307,-0.000312,0.011452,-0.506757,0.000265,-1.365904,-265.435135,-1.503745,63.210875
5.3768,0.011589,0.003743,0.001529,-0.000554,-0.003059,-0.000373,0.011677,-0.506148,0.000104,-1.440793,-265.435084,-1.578634,63.210924
5.3969,0.011893,0.00371,-0.000119,-0.000552,-0.003096,-0.000666,0.011961,-0.506193,0.00069,-1.440793,-265.435084,-1.578634,63.210924
5.4163,0.011753,0.003786,-0.000396,-0.000549,-0.003123,-0.00087,0.011832,-0.50629,-0.000119,-1.515911,-265.435083,-1.503517,63.210924
5.4369,0.011629,0.003413,-0.000302,-0.00053,-0.003124,-0.000393,0.011575,-0.50622,-0.000373,-1.515911,-265.435083,-1.503517,63.210924
5.4572,0.011387,0.003467,5e-05,-0.000516,-0.003129,-5.7e-05,0.011575,-0.50622,-0.000373,-1.515911,-265.435083,-1.503517,63.210924
5.4772,0.011692,0.003257,-0.000223,-0.000507,-0.003135,0.000178,0.011413,-0.506533,5e-05,-1.590934,-265.435083,-1.428493,63.210924
5.4969,0.011382,0.003606,-0.000503,-0.000515,-0.003119,0.000162,0.011479,-0.506618,-6e-05,-1.590934,-265.435083,-1.428493,63.210924
5.517,0.011611,0.003514,-1.3e-05,-0.000522,-0.003106,0.000151,0.011125,-0.506411,-0.000502,-1.665795,-265.434876,-1.503354,63.211145
5.5368,0.01139,0.003497,-0.000775,-0.000524,-0.003106,0.000139,0.011562,-0.50648,-5.7e-05,-1.665795,-265.434876,-1.503354,63.211145
5.5571,0.011309,0.003303,0.000499,-0.000526,-0.003105,0.00013,0.011562,-0.50648,-5.7e-05,-1.665795,-265.434876,-1.503354,63.211145
5.5767,0.011294,0.003431,-0.001269,-0.000527,-0.003105,0.000124,0.011559,-0.506748,0.000502,-1.740816,-265.434399,-1.578375,63.211651
5.5969,0.01177,0.003274,0.00129,-0.000528,-0.003092,0.000213,0.011188,-0.506681,-0.000217,-1.740816,-265.434399,-1.578375,63.211651
5.6166,0.011478,0.003466,-0.000401,-0.000529,-0.003082,0.000275,0.01242,-0.506793,0.001293,-1.743069,-265.43357,-1.653381,63.21252
5.6366,0.011725,0.003332,-0.000281,-0.000528,-0.00308,0.000335,0.011376,-0.50656,-0.000248,-1.743069,-265.43357,-1.653381,63.21252
5.657,0.011555,0.003022,-0.00083,-0.000528,-0.003079,0.000377,0.011376,-0.50656,-0.000248,-1.743069,-265.43357,-1.653381,63.21252
5.6771,0.011475,0.003533,-0.001013,-0.000528,-0.003079,0.000406,0.011131,-0.506978,-0.00083,-1.668067,-265.43357,-1.728382,63.21252
5.6965,0.011537,0.003547,-0.000622,-0.000525,-0.003052,0.00079,0.011061,-0.506769,-0.000905,-1.668067,-265.43357,-1.728382,63.21252
5.7167,0.011672,0.003534,-0.00126,-0.000524,-0.003033,0.001059,0.01122,-0.506453,-0.000622,-1.593075,-265.43357,-1.7282,63.21252
5.7366,0.011487,0.003004,-0.000481,-0.000514,-0.003042,0.001393,0.011046,-0.506465,-0.001203,-1.593075,-265.43357,-1.7282,63.21252
5.7567,0.011452,0.003347,0.000464,-0.000507,-0.003052,0.001628,0.011046,-0.506465,-0.001203,-1.593075,-265.43357,-1.7282,63.21252
5.7767,0.011229,0.003176,-0.000278,-0.000503,-0.003062,0.001791,0.011689,-0.506653,0.000464,-1.51807,-265.43357,-1.712345,63.212521
5.7966,0.011482,0.003223,-0.000807,-0.000526,-0.003074,0.001143,0.011445,-0.506722,0.000163,-1.51807,-265.43357,-1.712345,63.212521
5.8166,0.011368,0.003282,0.000374,-0.000542,-0.003078,0.000689,0.011071,-0.506777,-0.000807,-1.443095,-265.433571,-1.691278,63.212521
5.8365,0.011562,0.003458,0.000737,-0.000554,-0.003077,0.00031,0.011516,-0.506724,0.00027,-1.443095,-265.433571,-1.691278,63.212521
5.8567,0.011154,0.003364,0.000182,-0.000562,-0.003073,4.7e-05,0.011516,-0.506724,0.00027,-1.443095,-265.433571,-1.691278,63.212521
5.8768,0.011734,0.003177,0.000551,-0.000567,-0.003068,-0.000136,0.011247,-0.506636,0.000182,-1.368,-265.433571,-1.72442,63.212521
5.8968,0.01134,0.003602,-0.001175,-0.000571,-0.003063,-0.000299,0.011562,-0.506713,0.000334,-1.368,-265.433571,-1.72442,63.212521
5.9165,0.011335,0.003284,0.000397,-0.000573,-0.003058,-0.000412,0.010741,-0.506398,-0.001175,-1.292953,-265.433571,-1.649372,63.212521
5.9366,0.011198,0.003643,-0.000205,-0.000572,-0.003054,-0.000448,0.011469,-0.506689,0.000262,-1.292953,-265.433571,-1.649372,63.212521
5.9567,0.011355,0.003435,0.002301,-0.00057,-0.003051,-0.000471,0.011469,-0.506689,0.000262,-1.292953,-265.433571,-1.649372,63.212521
5.9769,0.011375,0.003185,-0.001168,-0.000568,-0.003048,-0.000487,0.012528,-0.506563,0.002301,-1.367925,-265.433571,-1.5744,63.212521
5.9969,0.011405,0.003089,0.000559,-0.000578,-0.003057,-0.000878,0.011834,-0.506663,0.000923,-1.367925,-265.433571,-1.5744,63.212521
6.0168,0.011864,0.003424,-0.00027,-0.000584,-0.00306,-0.001151,0.01169,-0.506911,0.000559,-1.442809,-265.433571,-1.499516,63.212521
6.0368,0.011451,0.003485,-0.002152,-0.000571,-0.003039,-0.000687,0.011723,-0.506606,-0.000197,-1.442809,-265.433571,-1.499516,63.212521
6.0566,0.011644,0.003317,0.000185,-0.000562,-0.003026,-0.000362,0.011723,-0.506606,-0.000197,-1.442809,-265.433571,-1.499516,63.212521
6.0769,0.011948,0.003335,0.001569,-0.000557,-0.003017,-0.000134,0.011738,-0.506683,0.000185,-1.5179,-265.433571,-1.424425,63.212521
6.0966,0.011454,0.003179,0.001388,-0.000571,-0.003022,-0.000541,0.01217,-0.506675,0.000776,-1.5179,-265.433571,-1.424425,63.212521
6.1166,0.011568,0.003169,-0.000108,-0.000581,-0.003022,-0.000827,0.012162,-0.50682,0.001388,-1.442395,-265.433571,-1.34892,63.212521
6.1369,0.011723,0.003447,0.000957,-0.000577,-0.003,-0.000584,0.011568,-0.50683,2e-05,-1.442395,-265.433571,-1.34892,63.212521
6.1569,0.011587,0.003333,-0.00078,-0.000574,-0.002983,-0.000416,0.011568,-0.50683,2e-05,-1.442395,-265.433571,-1.34892,63.212521
6.1765,0.011675,0.003451,-0.000881,-0.000573,-0.002972,-0.000298,0.011189,-0.506667,-0.00078,-1.516901,-265.433571,-1.274414,63.212521
6.1967,0.011667,0.00339,-0.000358,-0.000554,-0.00297,0.000252,0.011204,-0.506618,-0.000822,-1.516901,-265.433571,-1.274414,63.212521
6.2165,0.01175,0.003371,0.000457,-0.000542,-0.002973,0.000639,0.011484,-0.50661,-0.000358,-1.441887,-265.433571,-1.199401,63.212521
6.2367,0.011435,0.003429,-0.001526,-0.000556,-0.002991,0.000218,0.01194,-0.506628,0.000386,-1.441887,-265.433571,-1.199401,63.212521
6.2568,0.011623,0.003511,-0.000835,-0.000565,-0.003002,-7.6e-05,0.01194,-0.506628,0.000386,-1.441887,-265.433571,-1.199401,63.212521
6.2765,0.011749,0.003756,-0.000327,-0.00057,-0.003009,-0.000282,0.011197,-0.506488,-0.000835,-1.366909,-265.433571,-1.274379,63.212521
6.2967,0.011607,0.003339,0.000779,-0.00055,-0.003021,0.000156,0.011354,-0.506389,-0.000628,-1.366909,-265.433571,-1.274379,63.212521
6.3169,0.01158,0.003482,-0.000915,-0.000535,-0.003035,0.000464,0.012005,-0.506661,0.000779,-1.292,-265.433571,-1.19947,63.212521
6.3368,0.01153,0.003115,-7e-06,-0.000527,-0.003037,0.000755,0.011192,-0.506531,-0.000765,-1.292,-265.433571,-1.19947,63.212521
6.3573,0.011348,0.002996,0.001376,-0.000521,-0.003041,0.000958,0.011192,-0.506531,-0.000765,-1.292,-265.433571,-1.19947,63.212521
6.3769,0.011252,0.003202,-0.001495,-0.000518,-0.003047,0.0011,0.012049,-0.507003,0.001376,-1.216904,-265.433571,-1.274566,63.212521
6.3969,0.011922,0.002977,0.000478,-0.000539,-0.003038,0.000649,0.011408,-0.506919,0.000195,-1.216904,-265.433571,-1.274566,63.212521
6.4172,0.012017,0.003104,-0.000479,-0.000554,-0.003026,0.000333,0.012166,-0.507023,0.000478,-1.141847,-265.433571,-1.349622,63.212521
6.4371,0.011539,0.00321,0.000814,-0.000562,-0.002991,0.000463,0.011807,-0.506907,-0.000397,-1.141847,-265.433571,-1.349622,63.212521
6.457,0.01181,0.003142,-0.000383,-0.000568,-0.002964,0.000553,0.011807,-0.506907,-0.000397,-1.141847,-265.433571,-1.349622,63.212521
6.4772,0.011967,0.003549,0.000271,-0.000574,-0.002943,0.000616,0.011615,-0.506858,-0.000383,-1.066881,-265.433571,-1.424589,63.212521
6.4969,0.01179,0.003266,-0.000706,-0.000576,-0.002952,0.000494,0.011815,-0.506692,-0.000116,-1.066881,-265.433571,-1.424589,63.212521
6.5169,0.011413,0.003377,-3.5e-05,-0.000578,-0.002958,0.000408,0.01143,-0.506734,-0.000706,-0.991995,-265.433571,-1.499475,63.212521
6.5366,0.011588,0.003344,-0.000909,-0.000572,-0.002978,0.000333,0.011399,-0.506632,-9.4e-05,-0.991995,-265.433571,-1.499475,63.212521
6.5568,0.011732,0.003164,0.000173,-0.000568,-0.002993,0.00028,0.011399,-0.506632,-9.4e-05,-0.991995,-265.433571,-1.499475,63.212521
6.5777,0.011133,0.003534,0.000417,-0.000564,-0.003005,0.000243,0.01182,-0.506836,0.000173,-0.916862,-265.433571,-1.424343,63.212521
6.5966,0.011415,0.00355,-0.000349,-0.000569,-0.003014,3e-06,0.011627,-0.506685,0.000273,-0.916862,-265.433571,-1.424343,63.212521
6.6166,0.011618,0.003495,0.001349,-0.000572,-0.003019,-0.000164,0.011236,-0.50645,-0.000349,-0.841894,-265.433571,-1.349374,63.212521
6.6369,0.011918,0.003619,-0.001995,-0.000586,-0.003049,-0.000799,0.01221,-0.506499,0.001197,-0.841894,-265.433571,-1.349374,63.212521
6.6568,0.011444,0.003449,0.001371,-0.000594,-0.003067,-0.001244,0.01221,-0.506499,0.001197,-0.841894,-265.433571,-1.349374,63.212521
6.6769,0.011111,0.00337,-0.000113,-0.000597,-0.003077,-0.001555,0.012143,-0.50655,0.001371,-0.766998,-265.433571,-1.274479,63.212521
6.697,0.011402,0.00363,0.001081,-0.000591,-0.003076,-0.001531,0.011699,-0.506583,0.000766,-0.766998,-265.433571,-1.274479,63.212521
6.7166,0.011317,0.003453,-0.001366,-0.000585,-0.003075,-0.001512,0.011954,-0.50637,0.001081,-0.842063,-265.433571,-1.199414,63.212521
6.737,0.01134,0.003364,-0.000635,-0.000545,-0.003061,-0.00045,0.010739,-0.50653,-0.001147,-0.842063,-265.433571,-1.199414,63.212521
6.757,0.011504,0.003354,-8.7e-05,-0.00052,-0.003056,0.000304,0.010739,-0.50653,-0.001147,-0.842063,-265.433571,-1.199414,63.212521
6.7768,0.011441,0.003492,0.000328,-0.000504,-0.003057,0.000836,0.01146,-0.506646,-8.7e-05,-0.916999,-265.433571,-1.124478,63.212521
6.7966,0.011385,0.003236,-0.00014,-0.000517,-0.003066,0.000532,0.011521,-0.50659,8.3e-05,-0.916999,-265.433571,-1.124478,63.212521
6.817,0.011267,0.003103,-0.000651,-0.000526,-0.003071,0.000319,0.011314,-0.506764,-0.00014,-0.842,-265.433571,-1.199477,63.212521
6.8375,0.011462,0.003057,0.002501,-0.000527,-0.003042,0.00057,0.010967,-0.506885,-0.000608,-0.842,-265.433571,-1.199477,63.212521
6.857,0.011472,0.003223,-0.001222,-0.000529,-0.003021,0.000744,0.010967,-0.506885,-0.000608,-0.842,-265.433571,-1.199477,63.212521
6.8769,0.011775,0.003632,0.000442,-0.000532,-0.003006,0.000866,0.010849,-0.506776,-0.001222,-0.766865,-265.433571,-1.274612,63.212521
6.8969,0.011393,0.003636,0.000563,-0.000531,-0.003013,0.000909,0.011324,-0.506608,-0.000535,-0.766865,-265.433571,-1.274612,63.212521
6.9166,0.011548,0.003204,-0.000467,-0.000531,-0.003019,0.000939,0.01168,-0.506364,0.000563,-0.691883,-265.433571,-1.349594,63.212521
6.9369,0.011531,0.002954,0.001119,-0.000537,-0.003015,0.00087,0.011342,-0.506758,-0.000377,-0.691883,-265.433571,-1.349594,63.212521
6.9565,0.011631,0.003261,-0.00067,-0.000542,-0.003011,0.000822,0.011342,-0.506758,-0.000377,-0.691883,-265.433571,-1.349594,63.212521
6.9771,0.011399,0.003223,0.000337,-0.000546,-0.003007,0.000788,0.01129,-0.506739,-0.00067,-0.6169,-265.433571,-1.424577,63.212521
6.9969,0.01149,0.003323,0.000508,-0.00055,-0.003006,0.000694,0.011405,-0.506754,-0.000258,-0.6169,-265.433571,-1.424577,63.212521
7.0171,0.011443,0.003066,-0.001184,-0.000553,-0.003005,0.000629,0.011749,-0.506677,0.000508,-0.541957,-265.433571,-1.499521,63.212521
7.0371,0.011594,0.003456,0.0002,-0.000548,-0.002982,0.001008,0.01092,-0.506911,-0.001033,-0.541957,-265.433571,-1.499521,63.212521
7.0569,0.011595,0.003161,-0.000293,-0.000546,-0.002966,0.001273,0.01092,-0.506911,-0.001033,-0.541957,-265.433571,-1.499521,63.212521
7.0768,0.011885,0.003441,-0.002153,-0.000545,-0.002956,0.001458,0.011445,-0.506839,-0.000293,-0.466935,-265.433571,-1.574542,63.212521
7.0969,0.011326,0.003282,-0.000673,-0.000543,-0.00296,0.001597,0.011176,-0.506724,-0.001053,-0.466935,-265.433571,-1.574542,63.212521
7.1171,0.011576,0.003097,-0.000285,-0.000542,-0.002964,0.001693,0.010983,-0.506718,-0.000673,-0.392011,-265.433571,-1.649466,63.212521
7.1369,0.011608,0.003401,0.000812,-0.000555,-0.002968,0.001355,0.011392,-0.506887,-0.000318,-0.392011,-265.433571,-1.649466,63.212521
7.157,0.011511,0.00332,-0.00059,-0.000564,-0.002968,0.001119,0.011392,-0.506887,-0.000318,-0.392011,-265.433571,-1.649466,63.212521
7.177,0.011229,0.003482,-0.000602,-0.00057,-0.002965,0.000955,0.01121,-0.506679,-0.00059,-0.316894,-265.433571,-1.705516,63.212521
7.197,0.01163,0.0033,-2.7e-05,-0.00056,-0.002986,0.000995,0.011093,-0.506614,-0.000595,-0.316894,-265.433571,-1.705516,63.212521
7.2168,0.0114,0.003236,-0.000488,-0.000553,-0.003004,0.001024,0.011616,-0.5067,-2.7e-05,-0.241993,-265.433571,-1.730147,63.212521
7.2368,0.011647,0.00305,-0.0008,-0.000554,-0.003006,0.000964,0.011191,-0.506759,-0.000449,-0.241993,-265.433571,-1.730147,63.212521
7.2568,0.011257,0.003187,-0.000699,-0.000554,-0.003008,0.000922,0.011191,-0.506759,-0.000449,-0.241993,-265.433571,-1.730147,63.212521
7.2769,0.011603,0.003549,0.001191,-0.000554,-0.003009,0.000893,0.010901,-0.506812,-0.000699,-0.166869,-265.433571,-1.721972,63.212522
7.2968,0.011518,0.003601,-0.001122,-0.00056,-0.003025,0.000576,0.011426,-0.506667,6e-05,-0.166869,-265.433571,-1.721972,63.212522
7.3166,0.011429,0.00355,-0.000146,-0.000563,-0.003035,0.000355,0.010946,-0.506398,-0.001122,-0.092006,-265.433571,-1.725502,63.212522
7.3367,0.011447,0.003421,-0.001775,-0.000553,-0.003056,0.000371,0.011319,-0.506446,-0.000231,-0.092006,-265.433571,-1.725502,63.212522
7.3571,0.011125,0.003284,-0.000597,-0.000546,-0.003072,0.000382,0.011319,-0.506446,-0.000231,-0.092006,-265.433571,-1.725502,63.212522
7.3774,0.011619,0.00301,-0.00099,-0.00054,-0.003086,0.000392,0.010821,-0.506716,-0.000597,-0.016902,-265.433571,-1.742164,63.212522
7.3968,0.011318,0.003155,0.00021,-0.000537,-0.00306,0.000696,0.010938,-0.506826,-0.000755,-0.016902,-265.433571,-1.742164,63.212522
7.4168,0.011685,0.00315,0.000971,-0.000535,-0.003041,0.000909,0.011425,-0.506845,0.00021,0.057996,-265.433571,-1.731638,63.212522
7.4367,0.011385,0.003636,-0.002247,-0.000567,-0.003043,0.000115,0.012112,-0.50685,0.000902,0.057996,-265.433571,-1.731638,63.212522
7.4567,0.011211,0.003167,-0.001654,-0.000588,-0.003037,-0.000443,0.012112,-0.50685,0.000902,0.057996,-265.433571,-1.731638,63.212522
7.4769,0.011555,0.003228,0.000848,-0.000601,-0.003027,-0.000834,0.010367,-0.506832,-0.001654,0.133014,-265.433571,-1.718556,63.212522
7.4968,0.011654,0.003675,-0.000758,-0.000581,-0.003004,-0.000222,0.011022,-0.506808,-0.000644,0.133014,-265.433571,-1.718556,63.212522
7.5164,0.011589,0.00327,0.000935,-0.000567,-0.002989,0.000209,0.011267,-0.506324,-0.000758,0.208002,-265.433571,-1.643568,63.212522
7.5367,0.011333,0.003303,-0.001837,-0.000581,-0.003006,-0.000314,0.011997,-0.506695,0.00079,0.208002,-265.433571,-1.643568,63.212522
7.5565,0.011547,0.002978,0.000214,-0.00059,-0.003014,-0.00068,0.011997,-0.506695,0.00079,0.208002,-265.433571,-1.643568,63.212522
7.5766,0.011666,0.003193,0.000902,-0.000595,-0.003017,-0.000936,0.011656,-0.507022,0.000214,0.283138,-265.433571,-1.568432,63.212522
7.5967,0.011414,0.003472,0.000945,-0.000599,-0.002992,-0.000941,0.011847,-0.506935,0.000494,0.283138,-265.433571,-1.568432,63.212522
7.6167,0.011427,0.003308,-0.000913,-0.000602,-0.002971,-0.000943,0.011896,-0.506527,0.000945,0.358003,-265.433571,-1.493568,63.212522
7.637,0.011575,0.003413,-0.001246,-0.000575,-0.002965,-0.000241,0.011043,-0.506678,-0.000751,0.358003,-265.433571,-1.493568,63.212522
7.6568,0.011205,0.003384,-0.000136,-0.000557,-0.002966,0.000254,0.011043,-0.506678,-0.000751,0.358003,-265.433571,-1.493568,63.212522
7.6771,0.011347,0.003321,-0.001268,-0.000545,-0.00297,0.000601,0.011136,-0.506616,-0.000136,0.433105,-265.433571,-1.418466,63.212522
7.697,0.011762,0.003726,0.000968,-0.000536,-0.002985,0.000762,0.010956,-0.506641,-0.000604,0.433105,-265.433571,-1.418466,63.212522
7.7165,0.011067,0.003155,-0.00226,-0.000529,-0.002999,0.000875,0.012255,-0.506273,0.000968,0.508173,-265.433571,-1.493534,63.212522
7.7367,0.011462,0.003249,0.000383,-0.000505,-0.002996,0.001593,0.010124,-0.506793,-0.001971,0.508173,-265.433571,-1.493534,63.212522
7.7565,0.011661,0.003326,-0.000158,-0.000491,-0.002998,0.002101,0.010124,-0.506793,-0.001971,0.508173,-265.433571,-1.493534,63.212522
7.7768,0.011586,0.003204,-0.001055,-0.000484,-0.003003,0.002458,0.011581,-0.506674,-0.000158,0.583004,-265.433572,-1.568364,63.212522
7.7966,0.011484,0.003318,0.000614,-0.000505,-0.003016,0.001998,0.011361,-0.506724,-0.000527,0.583004,-265.433572,-1.568364,63.212522
7.8168,0.011407,0.003668,-0.00099,-0.000521,-0.003022,0.001677,0.011797,-0.506682,0.000614,0.658136,-265.433572,-1.643497,63.212523
7.837,0.011682,0.003352,-0.001439,-0.000513,-0.003058,0.00163,0.01098,-0.506362,-0.000851,0.658136,-265.433572,-1.643497,63.212523
7.8577,0.011652,0.003161,0.001108,-0.000507,-0.003087,0.001599,0.01098,-0.506362,-0.000851,0.658136,-265.433572,-1.643497,63.212523
7.8771,0.011353,0.003364,-0.000704,-0.000502,-0.003111,0.001578,0.012217,-0.506839,0.001108,0.733141,-265.433572,-1.698813,63.212524
7.8969,0.011719,0.003554,-0.000103,-0.000532,-0.003109,0.000852,0.01174,-0.50676,0.000401,0.733141,-265.433572,-1.698813,63.212524
7.9168,0.011592,0.003555,-0.000265,-0.000553,-0.0031,0.000344,0.011666,-0.506446,-0.000103,0.808004,-265.433574,-1.693492,63.212527
7.9369,0.011561,0.003151,0.000389,-0.000547,-0.003105,0.000371,0.011477,-0.506445,-0.000249,0.808004,-265.433574,-1.693492,63.212527
7.9572,0.011659,0.003252,-0.000716,-0.000543,-0.003109,0.000391,0.011477,-0.506445,-0.000249,0.808004,-265.433574,-1.693492,63.212527
7.9769,0.011281,0.003491,-0.001818,-0.00054,-0.003112,0.000407,0.011294,-0.506748,-0.000716,0.883016,-265.433578,-1.736153,63.212532
7.9968,0.010922,0.003337,7.6e-05,-0.000529,-0.00309,0.000912,0.010911,-0.50665,-0.001164,0.883016,-265.433578,-1.736153,63.212532
8.0171,0.011399,0.003554,-0.001017,-0.000522,-0.003075,0.001268,0.01096,-0.506664,7.6e-05,0.958139,-265.433596,-1.730118,63.212552
8.0369,0.011398,0.003438,-0.000345,-0.000514,-0.003089,0.00139,0.010888,-0.506466,-0.000918,0.958139,-265.433596,-1.730118,63.212552
8.057,0.011329,0.0031,-0.000842,-0.000508,-0.003102,0.001475,0.010888,-0.506466,-0.000918,0.958139,-265.433596,-1.730118,63.212552
8.0768,0.011496,0.00308,0.00011,-0.000504,-0.003113,0.001535,0.010896,-0.50691,-0.000837,1.033018,-265.433673,-1.705632,63.21268
8.0969,0.011532,0.00334,-0.000166,-0.000522,-0.003087,0.001323,0.011164,-0.506915,-0.000449,1.033018,-265.433673,-1.705632,63.21268
8.1166,0.011179,0.003217,0.000271,-0.000535,-0.003064,0.001175,0.011442,-0.50668,-0.000155,1.108149,-265.43386,-1.694579,63.21302
8.1368,0.011341,0.003239,-0.00091,-0.00055,-0.00307,0.00067,0.011329,-0.506774,0.000233,1.108149,-265.43386,-1.694579,63.21302
8.1568,0.011609,0.003301,-0.002438,-0.00056,-0.003071,0.000318,0.011329,-0.506774,0.000233,1.108149,-265.43386,-1.694579,63.21302
8.1767,0.011005,0.002931,-0.000784,-0.000566,-0.003067,7.3e-05,0.010353,-0.506748,-0.002417,1.183,-265.434242,-1.711341,63.213627
8.1971,0.011293,0.003214,-0.000279,-0.000542,-0.003033,0.000933,0.010454,-0.506884,-0.001753,1.183,-265.434242,-1.711341,63.213627
8.2164,0.01139,0.003273,0.002325,-0.000528,-0.003011,0.001542,0.011151,-0.506786,-0.000279,1.258025,-265.434242,-1.636315,63.213627
8.237,0.011594,0.003318,-5.6e-05,-0.000586,-0.003054,0.0,0.012463,-0.50673,0.002119,1.258025,-265.434242,-1.636315,63.213627
8.2565,0.011329,0.00354,-0.001322,-0.000623,-0.003076,-0.001109,0.012463,-0.50673,0.002119,1.258025,-265.434242,-1.636315,63.213627
8.2765,0.011606,0.002936,-9.6e-05,-0.000644,-0.003083,-0.001899,0.010635,-0.506569,-0.001266,1.32099,-265.434984,-1.703551,63.215012
8.2965,0.011139,0.003061,0.000335,-0.000608,-0.003042,-0.000886,0.011006,-0.506782,-0.000785,1.32099,-265.434984,-1.703551,63.215012
8.3164,0.011144,0.00309,0.001074,-0.000583,-0.003014,-0.000173,0.01131,-0.506939,0.000335,1.395595,-265.434984,-1.628945,63.215012
8.3367,0.011548,0.003202,-0.001141,-0.000598,-0.003016,-0.000692,0.011657,-0.506912,0.001008,1.395595,-265.434984,-1.628945,63.215012
8.3567,0.011565,0.002749,-0.000564,-0.000606,-0.003012,-0.001058,0.011657,-0.506912,0.001008,1.395595,-265.434984,-1.628945,63.215012
8.3771,0.011538,0.003178,0.000337,-0.000611,-0.003006,-0.001316,0.011277,-0.507251,-0.000564,1.385964,-265.434984,-1.553916,63.215012
8.3968,0.011257,0.003028,0.000835,-0.000601,-0.002957,-0.000788,0.01145,-0.50708,-0.000205,1.385964,-265.434984,-1.553916,63.215012
8.4171,0.011334,0.002997,-0.001317,-0.000595,-0.002921,-0.000421,0.011683,-0.506972,0.000835,1.411796,-265.434984,-1.478947,63.215012
8.4368,0.011251,0.00341,-2.5e-05,-0.000574,-0.002899,0.000317,0.010756,-0.507,-0.001119,1.411796,-265.434984,-1.478947,63.215012
8.4568,0.011451,0.003174,-0.000442,-0.000562,-0.002886,0.000836,0.010756,-0.507,-0.001119,1.411796,-265.434984,-1.478947,63.215012
8.4767,0.01139,0.003058,0.000493,-0.000554,-0.002879,0.001199,0.011226,-0.506826,-0.000442,1.385722,-265.434984,-1.403851,63.215012
8.4968,0.011386,0.003105,-0.000241,-0.000563,-0.0029,0.000868,0.011395,-0.506873,-6.1e-05,1.385722,-265.434984,-1.403851,63.215012
8.5168,0.011299,0.003104,0.000758,-0.000569,-0.002913,0.000635,0.011262,-0.506911,-0.000234,1.318072,-265.435141,-1.478758,63.215271
8.5369,0.011651,0.002818,-0.000862,-0.000585,-0.002934,4.6e-05,0.011649,-0.506898,0.000673,1.318072,-265.435141,-1.478758,63.215271
8.5568,0.011325,0.002913,0.000259,-0.000595,-0.002945,-0.000367,0.011649,-0.506898,0.000673,1.318072,-265.435141,-1.478758,63.215271
8.5764,0.011466,0.003205,0.000252,-0.000601,-0.002951,-0.000655,0.011454,-0.507127,0.000268,1.349165,-265.435474,-1.553846,63.215702
8.5968,0.011039,0.003158,-0.000189,-0.0006,-0.002936,-0.000615,0.011511,-0.506996,0.000262,1.349165,-265.435474,-1.553846,63.215702
8.6165,0.011439,0.002868,-0.000658,-0.000599,-0.002924,-0.000586,0.010942,-0.506842,-0.000189,1.393476,-265.435474,-1.478907,63.215701
8.6369,0.011063,0.003065,-0.000194,-0.000588,-0.002893,-6e-05,0.011089,-0.507106,-0.000616,1.393476,-265.435474,-1.478907,63.215701
8.6569,0.011354,0.002999,0.000935,-0.000582,-0.002871,0.000309,0.011089,-0.507106,-0.000616,1.393476,-265.435474,-1.478907,63.215701
8.6769,0.011647,0.002651,-8.6e-05,-0.000579,-0.002857,0.000567,0.011831,-0.507001,0.000935,1.390165,-265.435474,-1.403944,63.215701
8.6968,0.011423,0.003178,0.000815,-0.000597,-0.00286,8.4e-05,0.011741,-0.507139,0.00053,1.390165,-265.435474,-1.403944,63.215701
8.7166,0.011471,0.003102,-6.3e-05,-0.000609,-0.002858,-0.000254,0.011838,-0.506821,0.000815,1.344251,-265.435475,-1.328937,63.215701
8.7366,0.011499,0.003224,0.000365,-0.000602,-0.002868,-0.000191,0.011475,-0.506891,1.5e-05,1.344251,-265.435475,-1.328937,63.215701
8.757,0.011538,0.002919,0.00039,-0.000597,-0.002877,-0.000146,0.011475,-0.506891,1.5e-05,1.344251,-265.435475,-1.328937,63.215701
8.7769,0.011151,0.002956,-0.000295,-0.000593,-0.002884,-0.000115,0.011737,-0.507081,0.00039,1.371355,-265.435475,-1.25393,63.215701
8.7969,0.011595,0.002888,-0.000118,-0.000596,-0.002878,-0.00015,0.01144,-0.507066,0.000113,1.371355,-265.435475,-1.25393,63.215701
8.817,0.01157,0.003146,0.000619,-0.000597,-0.002872,-0.000174,0.011534,-0.507112,-0.000118,1.372686,-265.435475,-1.178937,63.215701
8.8368,0.011503,0.003498,0.000649,-0.000603,-0.002887,-0.00045,0.011855,-0.506876,0.000555,1.372686,-265.435475,-1.178937,63.215701
8.8571,0.011811,0.00276,-8e-05,-0.000606,-0.002897,-0.000643,0.011855,-0.506876,0.000555,1.372686,-265.435475,-1.178937,63.215701
8.8771,0.011235,0.002584,0.000902,-0.000607,-0.002902,-0.000777,0.01177,-0.50724,-8e-05,1.372882,-265.435475,-1.103834,63.215701
8.897,0.011204,0.003093,-0.000968,-0.000615,-0.002864,-0.000729,0.011739,-0.507312,0.000322,1.372882,-265.435475,-1.103834,63.215701
8.9167,0.011966,0.002893,0.000795,-0.000621,-0.002832,-0.000694,0.01071,-0.506906,-0.000968,1.392861,-265.435475,-1.028899,63.215701
8.9367,0.011508,0.003263,0.000488,-0.000628,-0.002826,-0.000853,0.01222,-0.507089,0.000634,1.392861,-265.435475,-1.028899,63.215701
8.9573,0.011585,0.002876,0.000995,-0.000632,-0.002819,-0.000964,0.01222,-0.507089,0.000634,1.392861,-265.435475,-1.028899,63.215701
8.9768,0.011536,0.003163,-0.000244,-0.000636,-0.002812,-0.00104,0.012092,-0.507123,0.000995,1.382485,-265.435475,-0.95394,63.215701
8.9967,0.011356,0.003198,-0.001108,-0.000631,-0.002817,-0.001014,0.011817,-0.507007,0.000493,1.382485,-265.435475,-0.95394,63.215701
9.0165,0.011659,0.003206,-0.000681,-0.000627,-0.002821,-0.000996,0.010791,-0.506801,-0.001108,1.38848,-265.435475,-0.878937,63.215701
9.0369,0.011286,0.003261,-0.000149,-0.000599,-0.002826,-0.000294,0.011265,-0.506794,-0.000719,1.38848,-265.435475,-0.878937,63.215701
9.057,0.01145,0.002878,-0.000686,-0.000581,-0.002836,0.0002,0.011265,-0.506794,-0.000719,1.38848,-265.435475,-0.878937,63.215701
9.0765,0.011638,0.003214,0.000441,-0.000569,-0.002848,0.000547,0.0111,-0.507122,-0.000686,1.389975,-265.435475,-0.803947,63.2157
9.0965,0.011422,0.002726,-0.000523,-0.000573,-0.002852,0.000513,0.011411,-0.506985,-0.000226,1.389975,-265.435475,-0.803947,63.2157
9.1165,0.011661,0.003309,0.000395,-0.000576,-0.002855,0.000489,0.011155,-0.507274,-0.000523,1.348073,-265.435476,-0.728905,63.2157
9.1366,0.011362,0.002842,0.000571,-0.000582,-0.002885,0.000151,0.011802,-0.506741,0.000316,1.348073,-265.435476,-0.728905,63.2157
9.1565,0.011698,0.002937,0.000727,-0.000585,-0.002906,-8.5e-05,0.011802,-0.506741,0.000316,1.348073,-265.435476,-0.728905,63.2157
9.1768,0.01156,0.003,-0.000521,-0.000587,-0.002921,-0.00025,0.012068,-0.507063,0.000727,1.349261,-265.435476,-0.653839,63.2157
9.1967,0.011751,0.003302,0.001508,-0.000594,-0.002905,-0.000303,0.011752,-0.507038,0.000216,1.349261,-265.435476,-0.653839,63.2157
9.2165,0.01149,0.003,-0.001176,-0.000599,-0.002891,-0.000339,0.012521,-0.506697,0.001508,1.38208,-265.435476,-0.578938,63.2157
9.2367,0.011387,0.002978,-0.000925,-0.000582,-0.002874,0.000282,0.011031,-0.506974,-0.000944,1.38208,-265.435476,-0.578938,63.2157
9.2574,0.011432,0.002933,-0.000799,-0.000572,-0.002865,0.00072,0.011031,-0.506974,-0.000944,1.38208,-265.435476,-0.578938,63.2157
9.2767,0.010946,0.002963,-8.8e-05,-0.000566,-0.00286,0.001027,0.011024,-0.507067,-0.000799,1.379949,-265.435476,-0.503838,63.2157
9.2968,0.011123,0.003129,-0.000919,-0.000568,-0.002863,0.001008,0.010975,-0.507055,-0.000515,1.379949,-265.435476,-0.503838,63.2157
9.3166,0.01124,0.003137,0.000137,-0.000569,-0.002866,0.000994,0.010654,-0.506871,-0.000919,1.322567,-265.435476,-0.578733,63.2157
9.3368,0.011721,0.003094,-0.001062,-0.000574,-0.002894,0.000655,0.011254,-0.506864,4.7e-05,1.322567,-265.435476,-0.578733,63.2157
9.3566,0.011414,0.003347,0.000241,-0.000576,-0.002914,0.000418,0.011254,-0.506864,4.7e-05,1.322567,-265.435476,-0.578733,63.2157
9.3766,0.011516,0.00272,-0.001425,-0.000577,-0.002928,0.000253,0.011537,-0.506653,0.000241,1.324073,-265.435476,-0.653887,63.2157
9.3967,0.011067,0.002815,0.000998,-0.000573,-0.002922,0.000428,0.011227,-0.506912,-0.000448,1.324073,-265.435476,-0.653887,63.2157
9.4169,0.011461,0.003047,0.001343,-0.00057,-0.002918,0.000551,0.011576,-0.507185,0.000998,1.36558,-265.435476,-0.578882,63.2157
9.4368,0.011191,0.002825,-0.00076,-0.000601,-0.002938,-0.000352,0.012097,-0.506972,0.001313,1.36558,-265.435476,-0.578882,63.2157
9.4568,0.011435,0.00328,0.000723,-0.00062,-0.002946,-0.000989,0.012097,-0.506972,0.001313,1.36558,-265.435476,-0.578882,63.2157
9.4771,0.011331,0.003299,-0.001577,-0.000631,-0.002947,-0.001436,0.011804,-0.50672,0.000723,1.353322,-265.435476,-0.653843,63.2157
9.4968,0.011685,0.002995,0.000151,-0.000605,-0.002945,-0.000884,0.011289,-0.506712,-0.000204,1.353322,-265.435476,-0.653843,63.2157
9.5166,0.011386,0.003104,0.000543,-0.000586,-0.002947,-0.000498,0.011762,-0.507005,0.000151,1.407164,-265.435476,-0.578842,63.2157
9.5368,0.011219,0.002989,0.0011,-0.000591,-0.002945,-0.000644,0.011672,-0.506905,0.000509,1.407164,-265.435476,-0.578842,63.2157
9.5568,0.011373,0.002782,0.000139,-0.000593,-0.002941,-0.000747,0.011672,-0.506905,0.000509,1.407164,-265.435476,-0.578842,63.2157
9.5769,0.01155,0.002878,-0.000472,-0.000595,-0.002938,-0.000818,0.011444,-0.507218,0.000139,1.39247,-265.435477,-0.503844,63.2157
9.5968,0.011346,0.002899,0.000295,-0.000593,-0.0029,-0.000502,0.011389,-0.507179,-0.00011,1.39247,-265.435477,-0.503844,63.2157
9.6167,0.011637,0.002919,-0.000337,-0.000592,-0.002872,-0.000281,0.011497,-0.507101,0.000295,1.399362,-265.435477,-0.428959,63.2157
9.6367,0.011302,0.002857,0.0018,-0.000589,-0.002854,-2.7e-05,0.011468,-0.507083,-0.000283,1.399362,-265.435477,-0.428959,63.2157
9.657,0.01113,0.002947,0.000378,-0.000588,-0.002841,0.00015,0.011468,-0.507083,-0.000283,1.399362,-265.435477,-0.428959,63.2157
9.6764,0.010938,0.002856,-0.000561,-0.000588,-0.002832,0.000272,0.011322,-0.507053,0.000378,1.378581,-265.435477,-0.353821,63.2157
9.6965,0.011579,0.003052,-0.000101,-0.000588,-0.002842,0.000189,0.01105,-0.50709,-3e-06,1.378581,-265.435477,-0.353821,63.2157
9.7165,0.011406,0.003077,-0.000677,-0.000588,-0.002849,0.00013,0.011527,-0.506948,-0.000101,1.353568,-265.435477,-0.278968,63.2157
9.7367,0.011379,0.003071,-0.00066,-0.000577,-0.002854,0.000445,0.011101,-0.506925,-0.000627,1.353568,-265.435477,-0.278968,63.2157
9.7572,0.011592,0.002807,-0.000829,-0.00057,-0.002859,0.000666,0.011101,-0.506925,-0.000627,1.353568,-265.435477,-0.278968,63.2157
9.7767,0.011541,0.003034,0.000162,-0.000565,-0.002866,0.00082,0.011169,-0.507193,-0.000829,1.361628,-265.435477,-0.203873,63.2157
9.7969,0.011224,0.002823,-0.000983,-0.000572,-0.002856,0.000814,0.011356,-0.507099,-0.000421,1.361628,-265.435477,-0.203873,63.2157
9.8169,0.011306,0.002789,0.001624,-0.000577,-0.002848,0.000809,0.010723,-0.507177,-0.000983,1.336193,-265.435477,-0.278895,63.2157
9.8371,0.011711,0.002977,0.000259,-0.000613,-0.002867,-0.000211,0.012014,-0.507208,0.001401,1.336193,-265.435477,-0.278895,63.2157
9.8571,0.011389,0.00312,-0.000271,-0.000636,-0.002873,-0.000932,0.012014,-0.507208,0.001401,1.336193,-265.435477,-0.278895,63.2157
9.8765,0.011532,0.003128,-0.000289,-0.000651,-0.00287,-0.00144,0.011251,-0.50688,-0.000271,1.330337,-265.435477,-0.353923,63.2157
9.8968,0.011094,0.003004,-0.00025,-0.000624,-0.002866,-0.000843,0.011305,-0.506877,-0.000278,1.330337,-265.435477,-0.353923,63.2157
9.9165,0.011474,0.002903,-0.000485,-0.000605,-0.002866,-0.000426,0.010967,-0.506996,-0.00025,1.399013,-265.435477,-0.278967,63.2157
9.9367,0.011428,0.003048,0.000833,-0.000595,-0.002849,-2.7e-05,0.011204,-0.507088,-0.000463,1.399013,-265.435477,-0.278967,63.2157
9.9566,0.011487,0.003432,-7.9e-05,-0.000589,-0.002838,0.000252,0.011204,-0.507088,-0.000463,1.399013,-265.435477,-0.278967,63.2157
9.9768,0.011092,0.00289,4.9e-05,-0.000585,-0.002831,0.000446,0.011447,-0.506568,-7.9e-05,1.379597,-265.435478,-0.204061,63.2157
9.9971,0.011253,0.003175,0.000138,-0.000581,-0.002863,0.000323,0.011313,-0.506788,-2.7e-05,1.379597,-265.435478,-0.204061,63.2157
10.0167,0.011058,0.003474,0.000445,-0.000577,-0.002889,0.000237,0.011323,-0.506825,0.000138,1.345967,-265.435478,-0.129061,63.2157
10.0369,0.011605,0.00278,-0.000353,-0.000572,-0.002941,-8.9e-05,0.011289,-0.506554,0.000417,1.345967,-265.435478,-0.129061,63.2157
10.0567,0.011326,0.003236,0.001578,-0.000567,-0.002981,-0.000316,0.011289,-0.506554,0.000417,1.345967,-265.435478,-0.129061,63.2157
10.0771,0.011383,0.003262,0.001394,-0.000561,-0.003012,-0.000474,0.012131,-0.506763,0.001578,1.363402,-265.435478,-0.054065,63.215699
10.0968,0.011513,0.00303,-0.000146,-0.000585,-0.003027,-0.001171,0.012116,-0.506753,0.001503,1.363402,-265.435478,-0.054065,63.215699
10.1166,0.011381,0.002811,-0.000309,-0.000599,-0.003033,-0.00166,0.011439,-0.50697,-0.000146,1.402326,-265.435478,0.020976,63.215699
10.1366,0.011529,0.002753,0.001264,-0.00059,-0.00297,-0.000979,0.011242,-0.50717,-0.000295,1.402326,-265.435478,0.020976,63.215699
10.1566,0.011368,0.002589,0.000307,-0.000584,-0.002924,-0.000503,0.011242,-0.50717,-0.000295,1.402326,-265.435478,0.020976,63.215699
10.1768,0.011149,0.00296,0.000773,-0.000581,-0.00289,-0.000171,0.011524,-0.507411,0.000307,1.423753,-265.435478,0.096081,63.215699
10.1967,0.011291,0.00279,-0.001417,-0.000595,-0.002872,-0.000404,0.011532,-0.50726,0.000498,1.423753,-265.435478,0.096081,63.215699
10.2167,0.01144,0.003397,-0.000266,-0.000605,-0.002855,-0.000569,0.010568,-0.507209,-0.001417,1.379049,-265.435478,0.17094,63.215699
10.2366,0.01144,0.003257,0.000373,-0.000583,-0.002879,-0.000187,0.01124,-0.506655,-0.000366,1.379049,-265.435478,0.17094,63.215699
10.2567,0.011608,0.003223,0.001406,-0.000567,-0.002901,8e-05,0.01124,-0.506655,-0.000366,1.379049,-265.435478,0.17094,63.215699
10.2771,0.011708,0.002935,-0.000982,-0.000556,-0.002922,0.000267,0.012326,-0.506777,0.001406,1.384088,-265.435478,0.246049,63.215699
10.2969,0.011131,0.003145,0.000327,-0.00057,-0.002926,-6.8e-05,0.011871,-0.506894,0.000435,1.384088,-265.435478,0.246049,63.215699
10.3169,0.011683,0.003008,-0.001257,-0.000581,-0.002926,-0.000302,0.011298,-0.506855,0.000327,1.372022,-265.435478,0.320938,63.215699
10.3374,0.011465,0.003068,-0.000178,-0.000567,-0.002898,0.000394,0.011065,-0.506979,-0.001113,1.372022,-265.435478,0.320938,63.215699
10.3571,0.011633,0.002935,-0.00127,-0.000559,-0.00288,0.000885,0.011065,-0.506979,-0.001113,1.372022,-265.435478,0.320938,63.215699
10.3771,0.011318,0.003179,-0.001211,-0.000556,-0.00287,0.001229,0.010985,-0.507064,-0.00127,1.386197,-265.435479,0.395933,63.215699
10.3969,0.011163,0.003037,0.001085,-0.000551,-0.002867,0.001533,0.010869,-0.506965,-0.001246,1.386197,-265.435479,0.395933,63.215699
10.4173,0.011473,0.003165,-0.000835,-0.000549,-0.002868,0.001746,0.011716,-0.506963,0.001085,1.314378,-265.435479,0.470942,63.215699
10.4368,0.011025,0.002979,9.1e-05,-0.000552,-0.00289,0.001589,0.011106,-0.506846,-0.000666,1.314378,-265.435479,0.470942,63.215699
10.4571,0.011498,0.003079,0.000856,-0.000555,-0.002907,0.001479,0.011106,-0.506846,-0.000666,1.314378,-265.435479,0.470942,63.215699
10.4769,0.011524,0.003248,-0.00084,-0.000556,-0.00292,0.001402,0.011935,-0.506921,0.000856,1.275115,-265.435479,0.546064,63.215699
10.4964,0.01143,0.003239,0.00043,-0.000571,-0.002939,0.000865,0.011595,-0.506852,0.00017,1.275115,-265.435479,0.546064,63.215699
10.5163,0.011237,0.002862,-0.000384,-0.000581,-0.00295,0.00049,0.011649,-0.506761,0.00043,1.307621,-265.435479,0.620936,63.215698
10.5365,0.011523,0.002763,0.000682,-0.000583,-0.002931,0.000515,0.011092,-0.507106,-0.000316,1.307621,-265.435479,0.620936,63.215698
10.5567,0.011126,0.003222,-0.001557,-0.000585,-0.002916,0.000533,0.011092,-0.507106,-0.000316,1.307621,-265.435479,0.620936,63.215698
10.5766,0.011192,0.002625,-0.001491,-0.000586,-0.002903,0.000546,0.010332,-0.506778,-0.001557,1.355078,-265.435479,0.69609,63.215698
10.5968,0.01142,0.003147,-0.000589,-0.000566,-0.002894,0.001175,0.010373,-0.507021,-0.00153,1.355078,-265.435479,0.69609,63.215698
10.6165,0.011551,0.003154,0.00062,-0.000553,-0.002891,0.001618,0.01112,-0.506853,-0.000589,1.346498,-265.435479,0.770929,63.215698
10.6366,0.011372,0.003003,-0.000135,-0.000576,-0.002924,0.000819,0.011798,-0.506847,0.000508,1.346498,-265.435479,0.770929,63.215698
10.6565,0.01114,0.002984,0.000387,-0.000591,-0.002943,0.000259,0.011798,-0.506847,0.000508,1.346498,-265.435479,0.770929,63.215698
10.6773,0.011587,0.002839,0.000568,-0.0006,-0.002953,-0.000131,0.011338,-0.507016,0.000387,1.287898,-265.43548,0.845937,63.215697
10.6971,0.011264,0.002982,0.002289,-0.000608,-0.00294,-0.000374,0.01156,-0.507076,0.000461,1.287898,-265.43548,0.845937,63.215697
10.7171,0.011762,0.002945,-0.000296,-0.000613,-0.002928,-0.000541,0.012431,-0.507018,0.002289,1.363019,-265.435492,0.921058,63.215686
10.7371,0.011092,0.003436,-0.000405,-0.00061,-0.002903,-0.000344,0.011684,-0.507052,-6.5e-05,1.363019,-265.435492,0.921058,63.215686
10.7571,0.011247,0.00295,-3.1e-05,-0.000609,-0.002884,-0.000206,0.011684,-0.507052,-6.5e-05,1.363019,-265.435492,0.921058,63.215686
10.7767,0.011353,0.00285,-0.001248,-0.000608,-0.002869,-0.000108,0.011228,-0.507057,-3.3e-05,1.384785,-265.435566,0.995946,63.215626
10.797,0.01169,0.003082,0.000866,-0.000598,-0.002857,0.000224,0.011019,-0.507095,-0.00053,1.384785,-265.435566,0.995946,63.215626
10.8166,0.011612,0.003102,0.000749,-0.000591,-0.00285,0.000457,0.012128,-0.506928,0.000864,1.366417,-265.435707,1.070932,63.215491
10.8371,0.011744,0.002962,0.000632,-0.000606,-0.002875,-0.000125,0.012006,-0.506901,0.000759,1.366417,-265.435707,1.070932,63.215491
10.8571,0.011694,0.003094,-3.4e-05,-0.000615,-0.002891,-0.000533,0.012006,-0.506901,0.000759,1.366417,-265.435707,1.070932,63.215491
10.877,0.011535,0.002505,0.001161,-0.000621,-0.002899,-0.000818,0.011669,-0.506929,-3.2e-05,1.344767,-265.435919,1.14606,63.215235
10.8967,0.011311,0.003231,-0.000398,-0.000625,-0.002875,-0.00084,0.011856,-0.507164,0.000459,1.344767,-265.435919,1.14606,63.215235
10.9169,0.010821,0.003174,-0.000794,-0.000628,-0.002856,-0.000855,0.011094,-0.506824,-0.000415,1.390173,-265.436755,1.221027,63.214635
10.9367,0.01126,0.002667,-0.000216,-0.000592,-0.002873,-0.000178,0.010467,-0.506828,-0.000766,1.390173,-265.436755,1.221027,63.214635
10.9569,0.011516,0.002737,0.000444,-0.000567,-0.002892,0.000299,0.010467,-0.506828,-0.000766,1.390173,-265.436755,1.221027,63.214635
10.9769,0.011339,0.002728,4.3e-05,-0.000549,-0.002911,0.000634,0.011719,-0.507368,0.000412,1.387059,-265.437968,1.29636,63.213782
10.997,0.01119,0.002718,-0.001021,-0.000574,-0.002882,0.000292,0.011568,-0.507341,0.000256,1.387059,-265.437968,1.29636,63.213782
11.0168,0.011265,0.002508,-0.000286,-0.000591,-0.002855,5.3e-05,0.010654,-0.507356,-0.001005,1.356519,-265.438807,1.371077,63.212695
11.0368,0.011241,0.002683,0.000446,-0.000597,-0.002813,0.000239,0.011078,-0.507484,-0.000347,1.356519,-265.438807,1.371077,63.212695
11.057,0.011694,0.00248,-0.000971,-0.000602,-0.00278,0.000368,0.011078,-0.507484,-0.000347,1.356519,-265.438807,1.371077,63.212695
11.0765,0.011452,0.002386,-0.000533,-0.000606,-0.002754,0.000457,0.011174,-0.507639,-0.000969,1.364294,-265.43996,1.368796,63.211517
11.0965,0.011201,0.002458,0.001024,-0.000612,-0.002701,0.000769,0.011174,-0.507642,-0.00079,1.364294,-265.43996,1.368796,63.211517
11.1171,0.011215,0.002028,-6.6e-05,-0.000618,-0.002661,0.000985,0.011705,-0.507628,0.001039,1.330595,-265.440959,1.373555,63.210304
11.1371,0.011398,0.002226,0.001162,-0.000639,-0.00262,0.000667,0.011228,-0.507946,3.4e-05,1.330595,-265.440959,1.373555,63.210304
11.157,0.011297,0.002487,0.000774,-0.000655,-0.002583,0.000444,0.011228,-0.507946,3.4e-05,1.330595,-265.440959,1.373555,63.210304
11.1765,0.011015,0.002198,7e-05,-0.000666,-0.002552,0.000287,0.011667,-0.50762,0.000814,1.279062,-265.441782,1.383495,63.209033
11.1967,0.010969,0.002275,-0.000582,-0.000676,-0.002557,-0.000109,0.011415,-0.507706,0.000517,1.279062,-265.441782,1.383495,63.209033
11.2163,0.010754,0.00209,-0.00023,-0.000682,-0.002557,-0.000386,0.010652,-0.507802,-0.000573,1.297704,-265.442722,1.33138,63.207964
11.2367,0.011048,0.001745,-0.000272,-0.000675,-0.002527,-0.000124,0.010638,-0.507905,-0.00026,1.297704,-265.442722,1.33138,63.207964
11.2572,0.011273,0.001942,0.000912,-0.00067,-0.002505,6e-05,0.010638,-0.507905,-0.00026,1.297704,-265.442722,1.33138,63.207964
11.2769,0.010962,0.001893,0.000519,-0.000667,-0.002488,0.000187,0.011711,-0.50816,0.000897,1.33122,-265.443813,1.284957,63.207046
11.297,0.011088,0.002081,0.000258,-0.000688,-0.002464,-0.000302,0.011513,-0.50815,0.000743,1.33122,-265.443813,1.284957,63.207046
11.3169,0.010976,0.001812,0.000371,-0.000702,-0.002439,-0.000645,0.011199,-0.507995,0.000264,1.297052,-265.444762,1.320072,63.206012
11.3368,0.010924,0.001714,0.000358,-0.000706,-0.002407,-0.000663,0.011167,-0.508174,0.000361,1.297052,-265.444762,1.320072,63.206012
11.3567,0.011066,0.002043,-0.001524,-0.000708,-0.00238,-0.000676,0.011167,-0.508174,0.000361,1.297052,-265.444762,1.320072,63.206012
11.3767,0.011031,0.001714,2.2e-05,-0.00071,-0.002359,-0.000685,0.010262,-0.508048,-0.001548,1.327784,-265.4458,1.245074,63.205243
11.3968,0.011329,0.001638,-0.001036,-0.000693,-0.002321,2.4e-05,0.010576,-0.508155,-0.000914,1.327784,-265.4458,1.245074,63.205243
11.417,0.010612,0.001608,-0.001248,-0.000684,-0.002295,0.000523,0.010778,-0.508437,-0.001057,1.320645,-265.446934,1.220208,63.204425
11.4368,0.011094,0.001208,-0.001628,-0.000677,-0.002252,0.001029,0.010053,-0.508401,-0.001231,1.320645,-265.446934,1.220208,63.204425
11.457,0.011344,0.001815,-0.000841,-0.000674,-0.002221,0.001383,0.010053,-0.508401,-0.001231,1.320645,-265.446934,1.220208,63.204425
11.4767,0.011289,0.001361,-0.000479,-0.000673,-0.002199,0.00163,0.010892,-0.508259,-0.000825,1.245585,-265.447582,1.295268,63.203587
11.4969,0.011035,0.001761,-0.000836,-0.000684,-0.002183,0.001521,0.010951,-0.508423,-0.000682,1.245585,-265.447582,1.295268,63.203587
11.5166,0.011025,0.001487,-0.000506,-0.000693,-0.00217,0.001444,0.010598,-0.508277,-0.000809,1.170643,-265.447879,1.363277,63.202886
11.5366,0.01095,0.001404,5.7e-05,-0.000701,-0.002158,0.001304,0.010752,-0.508493,-0.000532,1.170643,-265.447879,1.363277,63.202886
11.5566,0.010739,0.001854,0.000127,-0.000706,-0.002147,0.001206,0.010752,-0.508493,-0.000532,1.170643,-265.447879,1.363277,63.202886
11.5767,0.010932,0.001306,0.000433,-0.00071,-0.002137,0.001137,0.010779,-0.508225,0.000179,1.095636,-265.448385,1.347502,63.201802
11.5969,0.01133,0.001286,0.000615,-0.000722,-0.002155,0.000608,0.010928,-0.508425,0.000288,1.095636,-265.448385,1.347502,63.201802
11.6167,0.011111,0.001481,0.001213,-0.000729,-0.002165,0.000239,0.011621,-0.508782,0.00065,1.1133,-265.449022,1.324983,63.200646
11.6373,0.010492,0.001631,0.000452,-0.00075,-0.002173,-0.000505,0.01172,-0.508543,0.001169,1.1133,-265.449022,1.324983,63.200646
11.6569,0.010668,0.001116,0.001258,-0.000763,-0.002172,-0.001027,0.01172,-0.508543,0.001169,1.1133,-265.449022,1.324983,63.200646
11.6772,0.010571,0.001264,0.000468,-0.00077,-0.002167,-0.001392,0.011285,-0.508953,0.001267,1.188558,-265.449685,1.265285,63.199897
11.697,0.010915,0.001264,-0.000334,-0.000773,-0.002126,-0.001519,0.011089,-0.508873,0.000943,1.188558,-265.449685,1.265285,63.199897
11.7168,0.010459,0.001207,-0.00018,-0.000774,-0.002092,-0.001606,0.010736,-0.508759,-0.000348,1.263325,-265.450105,1.190519,63.199692
11.7374,0.010403,0.001351,-8.2e-05,-0.000755,-0.00205,-0.001007,0.0104,-0.508791,-0.000196,1.263325,-265.450105,1.190519,63.199692
11.7572,0.010799,0.001322,0.000507,-0.000741,-0.00202,-0.000589,0.0104,-0.508791,-0.000196,1.263325,-265.450105,1.190519,63.199692
11.7773,0.010861,0.001157,0.000968,-0.000732,-0.002,-0.000297,0.011046,-0.508714,0.000481,1.324051,-265.450622,1.115546,63.199471
11.797,0.010813,0.001233,0.000264,-0.000741,-0.002004,-0.000604,0.011173,-0.508772,0.00068,1.324051,-265.450622,1.115546,63.199471
11.8168,0.010758,0.000764,0.000245,-0.000746,-0.002004,-0.00082,0.010928,-0.50882,0.000256,1.248774,-265.451388,1.188007,63.198818
11.837,0.011049,0.001256,0.000335,-0.000748,-0.001949,-0.000711,0.010886,-0.509202,0.000246,1.248774,-265.451388,1.188007,63.198818
11.857,0.01058,0.001082,-0.000916,-0.00075,-0.001905,-0.000636,0.010886,-0.509202,0.000246,1.248774,-265.451388,1.188007,63.198818
11.877,0.010508,0.000956,0.001777,-0.000752,-0.00187,-0.000584,0.010085,-0.508992,-0.000947,1.281291,-265.452321,1.113278,63.198219
11.8972,0.01078,0.001034,-0.000447,-0.000748,-0.001862,-0.000498,0.010619,-0.509022,0.000151,1.281291,-265.452321,1.113278,63.198219
11.9166,0.010559,0.000825,0.000696,-0.000745,-0.001855,-0.000439,0.010529,-0.509024,-0.000465,1.245365,-265.453243,1.109871,63.197556
11.937,0.010837,0.000719,-6.4e-05,-0.000752,-0.001845,-0.000656,0.01088,-0.509165,0.000596,1.245365,-265.453243,1.109871,63.197556
11.957,0.010926,0.000932,-0.000667,-0.000755,-0.001835,-0.000809,0.01088,-0.509165,0.000596,1.245365,-265.453243,1.109871,63.197556
11.9766,0.010486,0.000711,-0.001727,-0.000758,-0.001825,-0.000915,0.010555,-0.509145,-0.000686,1.233313,-265.454133,1.131906,63.196863
11.9965,0.010802,0.000993,-0.000456,-0.000738,-0.001778,-4.6e-05,0.010169,-0.509211,-0.001107,1.233313,-265.454133,1.131906,63.196863
12.0167,0.010572,0.000767,0.000504,-0.000727,-0.001744,0.000568,0.010549,-0.509056,-0.00048,1.263087,-265.454973,1.057026,63.196367
12.0366,0.010911,0.000482,-0.001122,-0.00074,-0.001754,0.000145,0.010803,-0.50922,0.000418,1.263087,-265.454973,1.057026,63.196367
12.0568,0.01075,0.000786,0.00044,-0.000748,-0.001758,-0.000151,0.010803,-0.50922,0.000418,1.263087,-265.454973,1.057026,63.196367
12.077,0.010538,0.000609,-0.000804,-0.000753,-0.001759,-0.000359,0.010962,-0.50924,0.000446,1.187958,-265.455206,1.132154,63.196039
12.0968,0.010852,0.000702,0.001337,-0.000751,-0.001738,-0.000221,0.010623,-0.509304,-5.9e-05,1.187958,-265.455206,1.132154,63.196039
12.1166,0.010756,7.4e-05,-0.000945,-0.000749,-0.001723,-0.000125,0.01151,-0.509353,0.001326,1.206841,-265.456045,1.115695,63.195361
12.1368,0.01023,0.000836,-0.001221,-0.000746,-0.001632,0.000339,0.010382,-0.509878,-0.000745,1.206841,-265.456045,1.115695,63.195361
12.1568,0.010686,0.000428,0.000516,-0.000745,-0.001562,0.000663,0.010382,-0.509878,-0.000745,1.206841,-265.456045,1.115695,63.195361
12.1767,0.010783,0.000987,-0.0001,-0.000746,-0.001509,0.000888,0.010919,-0.509642,0.000511,1.176166,-265.456803,1.143721,63.194657
12.1967,0.010442,0.000627,-1.7e-05,-0.000755,-0.001545,0.000457,0.010839,-0.509394,0.000261,1.176166,-265.456803,1.143721,63.194657
12.2167,0.010511,0.000432,0.001036,-0.000761,-0.001571,0.000155,0.010427,-0.509388,-9e-06,1.101202,-265.456948,1.218685,63.194397
12.2366,0.010908,0.000545,0.000537,-0.000775,-0.00159,-0.000445,0.010987,-0.509553,0.000947,1.101202,-265.456948,1.218685,63.194397
12.2567,0.010807,0.000298,-0.00044,-0.000783,-0.0016,-0.000866,0.010987,-0.509553,0.000947,1.101202,-265.456948,1.218685,63.194397
12.2767,0.010708,0.00016,0.000556,-0.000788,-0.001604,-0.00116,0.010554,-0.509761,-0.000434,1.094694,-265.457552,1.143553,63.193731
12.2968,0.010414,0.000788,-0.000266,-0.000779,-0.001554,-0.000794,0.010731,-0.509801,-2.4e-05,1.094694,-265.457552,1.143553,63.193731
12.3167,0.010544,0.000234,0.000748,-0.000773,-0.001516,-0.000538,0.010275,-0.509221,-0.000271,1.169726,-265.457721,1.068522,63.193649
12.3366,0.010454,0.000276,6.5e-05,-0.000777,-0.001514,-0.000759,0.010864,-0.509715,0.000652,1.169726,-265.457721,1.068522,63.193649
12.3569,0.01088,0.000666,-0.000853,-0.000779,-0.001511,-0.000914,0.010864,-0.509715,0.000652,1.169726,-265.457721,1.068522,63.193649
12.377,0.010666,0.000334,0.000877,-0.00078,-0.001507,-0.001021,0.010416,-0.509392,-0.000874,1.174223,-265.458453,0.993944,63.193131
12.397,0.010651,0.00022,0.000491,-0.000767,-0.001504,-0.000618,0.010694,-0.50951,-0.000168,1.174223,-265.458453,0.993944,63.193131
12.4165,0.010317,0.00018,0.001336,-0.000759,-0.001505,-0.000336,0.010885,-0.509814,0.000469,1.219947,-265.459074,0.918946,63.192808
12.4368,0.010916,0.000238,-0.000868,-0.000775,-0.001512,-0.000945,0.010987,-0.509821,0.001254,1.219947,-265.459074,0.918946,63.192808
12.4568,0.010366,7.3e-05,-0.001202,-0.000785,-0.001512,-0.001374,0.010987,-0.509821,0.001254,1.219947,-265.459074,0.918946,63.192808
12.477,0.010237,0.00057,-0.000488,-0.000791,-0.001508,-0.001673,0.009729,-0.509972,-0.001213,1.153128,-265.45962,0.99395,63.192369
12.4969,0.010497,4.3e-05,-0.001393,-0.000762,-0.001459,-0.000668,0.00983,-0.50976,-0.000924,1.153128,-265.45962,0.99395,63.192369
12.5163,0.010576,0.000291,-0.001236,-0.000745,-0.001426,4.2e-05,0.009786,-0.509958,-0.001394,1.228121,-265.459654,0.918957,63.192357
12.5365,0.010648,5.7e-05,-2.4e-05,-0.000732,-0.001409,0.000698,0.009932,-0.509731,-0.00125,1.228121,-265.459654,0.918957,63.192357
12.5565,0.010864,0.000226,0.000114,-0.000725,-0.001399,0.00116,0.009932,-0.509731,-0.00125,1.228121,-265.459654,0.918957,63.192357
12.5768,0.010226,0.000134,0.000684,-0.000722,-0.001394,0.001482,0.010908,-0.509799,0.000113,1.153123,-265.459925,0.993955,63.192078
12.597,0.010586,0.000135,-0.000945,-0.000742,-0.001422,0.000821,0.010771,-0.509829,0.000346,1.153123,-265.459925,0.993955,63.192078
12.6166,0.010535,8.2e-05,0.000815,-0.000755,-0.001437,0.000357,0.010105,-0.509864,-0.000945,1.078127,-265.459925,1.068951,63.192077
12.6366,0.010642,0.000276,-0.001277,-0.000768,-0.001445,-0.000144,0.010875,-0.509913,0.000656,1.078127,-265.459925,1.068951,63.192077
12.6566,0.010584,-4.4e-05,0.000368,-0.000776,-0.001447,-0.000494,0.010875,-0.509913,0.000656,1.078127,-265.459925,1.068951,63.192077
12.6768,0.010639,0.000378,0.001179,-0.000781,-0.001446,-0.000738,0.010744,-0.510096,0.000381,1.01624,-265.460419,1.142857,63.19145
12.6969,0.010349,0.000536,0.000567,-0.000784,-0.001444,-0.000935,0.010942,-0.50991,0.000705,1.01624,-265.460419,1.142857,63.19145
12.7163,0.010818,-0.00012,-0.000211,-0.000786,-0.00144,-0.001071,0.010632,-0.509476,0.000562,1.091241,-265.460634,1.067856,63.191318
12.7366,0.010604,0.000275,-0.001993,-0.000776,-0.001398,-0.000665,0.010704,-0.510062,-0.000141,1.091241,-265.460634,1.067856,63.191318
12.7566,0.010387,0.000303,-0.001554,-0.00077,-0.001367,-0.000381,0.010704,-0.510062,-0.000141,1.091241,-265.460634,1.067856,63.191318
12.777,0.010368,0.000194,-0.000814,-0.000766,-0.001345,-0.000183,0.009587,-0.50971,-0.001562,1.166251,-265.460828,0.992846,63.191221
12.7967,0.010318,0.00032,-0.000405,-0.000746,-0.00134,0.000537,0.009735,-0.50975,-0.00126,1.166251,-265.460828,0.992846,63.191221
12.8168,0.010427,0.000188,-0.000535,-0.000734,-0.001341,0.001044,0.01009,-0.509718,-0.00041,1.091257,-265.461418,1.015145,63.1907
12.8366,0.010377,-0.000388,-0.0009,-0.000736,-0.001355,0.001018,0.010148,-0.509805,-0.000524,1.091257,-265.461418,1.015145,63.1907
12.8569,0.010544,-4.3e-05,0.000275,-0.000738,-0.001366,0.000999,0.010148,-0.509805,-0.000524,1.091257,-265.461418,1.015145,63.1907
12.8768,0.010457,3.1e-05,0.000254,-0.000739,-0.001374,0.000985,0.010681,-0.510049,0.000278,1.016259,-265.461456,1.090143,63.190623
12.8971,0.010254,0.000384,-0.001011,-0.000753,-0.001379,0.000518,0.010642,-0.510016,0.000269,1.016259,-265.461456,1.090143,63.190623
12.9167,0.010747,-0.000192,0.000694,-0.000762,-0.001378,0.000191,0.00973,-0.509633,-0.001,0.941164,-265.461622,1.165237,63.190295
12.9369,0.010304,0.000102,3.5e-05,-0.000773,-0.001369,-0.000192,0.010977,-0.510143,0.000543,0.941164,-265.461622,1.165237,63.190295
12.957,0.010842,-0.000158,0.000399,-0.00078,-0.001359,-0.00046,0.010977,-0.510143,0.000543,0.941164,-265.461622,1.165237,63.190295
12.9771,0.010786,2.2e-05,-0.000449,-0.000784,-0.001347,-0.000645,0.011019,-0.510206,0.000406,1.01608,-265.462111,1.099289,63.189738
12.9969,0.010141,-2.5e-05,-0.000769,-0.00078,-0.001327,-0.000488,0.010827,-0.510118,5.7e-05,1.01608,-265.462111,1.099289,63.189738
13.0166,0.010558,-0.00011,0.002109,-0.000777,-0.001311,-0.000377,0.00974,-0.51004,-0.000775,1.091168,-265.462382,1.024202,63.189563
13.0369,0.01009,-5.3e-05,-0.000635,-0.000801,-0.001346,-0.001269,0.011469,-0.510104,0.001859,1.091168,-265.462382,1.024202,63.189563
13.0569,0.010632,-6.8e-05,0.00039,-0.000815,-0.001366,-0.001899,0.011469,-0.510104,0.001859,1.091168,-265.462382,1.024202,63.189563
13.0768,0.010161,-5.1e-05,-0.001252,-0.000823,-0.001376,-0.00234,0.010801,-0.510118,0.000375,1.103842,-265.463007,0.949201,63.189081
13.097,0.01045,0.000248,-0.00144,-0.000796,-0.001327,-0.001454,0.010275,-0.510096,-0.000292,1.103842,-265.463007,0.949201,63.189081
13.1165,0.010559,0.000131,-0.000869,-0.000778,-0.001294,-0.000834,0.009715,-0.509751,-0.00144,1.178749,-265.463007,0.874294,63.189081
13.1366,0.010362,-0.000118,-0.000552,-0.000757,-0.001286,-7.3e-05,0.010081,-0.509858,-0.000919,1.178749,-265.463007,0.874294,63.189081
13.1567,0.010571,-0.000442,-0.000221,-0.000745,-0.001285,0.000462,0.010081,-0.509858,-0.000919,1.178749,-265.463007,0.874294,63.189081
13.1766,0.010615,-1.4e-05,-0.001363,-0.000738,-0.001287,0.000836,0.010429,-0.51049,-0.000252,1.163729,-265.463706,0.799243,63.188687
13.1968,0.010468,-0.000212,-0.001795,-0.000739,-0.001247,0.000993,0.010218,-0.510301,-0.000709,1.163729,-265.463706,0.799243,63.188687
13.2166,0.01014,-0.00049,0.000372,-0.00074,-0.001217,0.0011,0.009552,-0.510212,-0.001794,1.08877,-265.463711,0.874203,63.188678
13.2367,0.010512,-0.000546,-0.000189,-0.000752,-0.001198,0.00066,0.010261,-0.510466,0.000181,1.08877,-265.463711,0.874203,63.188678
13.257,0.010456,-0.000372,-0.000544,-0.000759,-0.001179,0.000351,0.010261,-0.510466,0.000181,1.08877,-265.463711,0.874203,63.188678
13.2764,0.010364,-0.000601,2e-06,-0.000763,-0.001161,0.000134,0.010179,-0.510373,-0.000544,1.01373,-265.463714,0.949242,63.188673
13.2966,0.010095,-0.000301,0.000171,-0.000759,-0.001132,0.000278,0.010254,-0.510465,-0.000322,1.01373,-265.463714,0.949242,63.188673
13.3163,0.010796,-0.000373,0.000439,-0.000757,-0.00111,0.000378,0.010162,-0.510333,0.000175,0.95549,-265.464175,1.020179,63.188164
13.3368,0.010495,-0.000279,-0.001015,-0.000767,-0.001126,1.4e-05,0.010945,-0.510371,0.000416,0.95549,-265.464175,1.020179,63.188164
13.3569,0.010456,-0.000429,-0.000269,-0.000773,-0.001135,-0.00024,0.010945,-0.510371,0.000416,0.95549,-265.464175,1.020179,63.188164
13.3766,0.010049,-0.000638,0.000348,-0.000777,-0.001141,-0.000417,0.010292,-0.510469,-0.000256,0.880577,-265.464567,1.056871,63.187644
13.3969,0.009846,-0.000306,0.001061,-0.000771,-0.00111,-0.00029,0.010262,-0.510543,-6e-06,0.880577,-265.464567,1.056871,63.187644
13.4168,0.01009,-0.000458,-0.000434,-0.000767,-0.001087,-0.000202,0.01038,-0.510316,0.001059,0.955568,-265.464756,0.98188,63.187504
13.4374,0.010461,-0.000258,0.000903,-0.000758,-0.00107,3.2e-05,0.009912,-0.510447,-0.000307,0.955568,-265.464756,0.98188,63.187504
13.4567,0.010156,-0.000393,0.000772,-0.000752,-0.001058,0.000195,0.009912,-0.510447,-0.000307,0.955568,-265.464756,0.98188,63.187504
13.477,0.010244,7.6e-05,-0.000922,-0.000748,-0.00105,0.000308,0.010522,-0.510432,0.000765,1.005669,-265.465248,0.906816,63.187081
13.4968,0.010221,-0.000705,-0.000456,-0.000751,-0.00108,0.000162,0.010211,-0.510227,7e-05,1.005669,-265.465248,0.906816,63.187081
13.5166,0.010327,-0.0004,0.000767,-0.000752,-0.001104,6e-05,0.009975,-0.510724,-0.000451,0.930721,-265.4655,0.981763,63.186762
13.5365,0.010129,-1.8e-05,-0.000925,-0.000763,-0.001117,-0.00035,0.010651,-0.51043,0.000658,0.930721,-265.4655,0.981763,63.186762
13.5566,0.010111,-0.000721,0.000552,-0.000769,-0.001123,-0.000636,0.010651,-0.51043,0.000658,0.930721,-265.4655,0.981763,63.186762
13.5767,0.010248,-0.000409,0.000837,-0.000773,-0.001126,-0.000835,0.010361,-0.510767,0.000554,0.956923,-265.466016,0.987835,63.186222
13.5968,0.010237,-0.000702,0.001003,-0.000774,-0.001104,-0.000977,0.010486,-0.510626,0.00067,0.956923,-265.466016,0.987835,63.186222
13.6166,0.010094,-1.4e-05,-0.000473,-0.000775,-0.001085,-0.001076,0.010745,-0.510706,0.001,1.031957,-265.466105,0.912802,63.186173
13.6368,0.010275,-0.000469,0.0006,-0.000758,-0.001103,-0.000566,0.009932,-0.510076,-0.000342,1.031957,-265.466105,0.912802,63.186173
13.6565,0.0102,-0.000346,0.000624,-0.000746,-0.001122,-0.000209,0.009932,-0.510076,-0.000342,1.031957,-265.466105,0.912802,63.186173
13.6766,0.010307,-0.000671,-0.000995,-0.000739,-0.00114,4.2e-05,0.010517,-0.510349,0.000622,1.10696,-265.466144,0.837798,63.186155
13.6967,0.009981,-0.000426,0.000131,-0.000742,-0.001119,5e-05,0.010223,-0.510481,-4e-05,1.10696,-265.466144,0.837798,63.186155
13.7167,0.01003,-0.000794,0.000497,-0.000744,-0.001102,5.5e-05,0.010036,-0.510444,0.000131,1.03197,-265.466412,0.912789,63.185879
13.737,0.010105,-0.000583,-0.000184,-0.000751,-0.001069,-0.000233,0.01026,-0.510763,0.000463,1.03197,-265.466412,0.912789,63.185879
13.7568,0.010106,-0.000567,0.000397,-0.000755,-0.001041,-0.000435,0.01026,-0.510763,0.000463,1.03197,-265.466412,0.912789,63.185879
13.7766,0.009895,-0.000721,-0.000741,-0.000757,-0.001016,-0.000577,0.010283,-0.510606,0.000399,0.962648,-265.46685,0.987786,63.185422
13.7967,0.010476,-0.000478,-0.000481,-0.00075,-0.000991,-0.000363,0.009963,-0.510658,-7.2e-05,0.962648,-265.46685,0.987786,63.185422
13.8165,0.010228,-0.001121,-0.000587,-0.000745,-0.000973,-0.000214,0.010225,-0.510487,-0.000485,1.037788,-265.467014,0.912645,63.185316
13.8367,0.010019,-0.000493,-0.001151,-0.000736,-0.000899,0.000188,0.009955,-0.511064,-0.000578,1.037788,-265.467014,0.912645,63.185316
13.8568,0.010417,-0.000907,0.000173,-0.000731,-0.000843,0.000469,0.009955,-0.511064,-0.000578,1.037788,-265.467014,0.912645,63.185316
13.8767,0.010074,-0.000914,-0.001161,-0.000727,-0.000801,0.000664,0.010478,-0.510943,0.000165,0.976667,-265.467482,0.846098,63.184922
13.8968,0.010074,-0.000687,0.000254,-0.000728,-0.000789,0.000682,0.010068,-0.510935,-0.000377,0.976667,-265.467482,0.846098,63.184922
13.9165,0.009861,-0.000959,-0.001237,-0.000729,-0.000779,0.000693,0.010204,-0.510688,0.000254,0.901647,-265.467486,0.921117,63.184914
13.937,0.010143,-0.000327,0.000561,-0.000718,-0.000747,0.001087,0.009318,-0.510934,-0.001102,0.901647,-265.467486,0.921117,63.184914
13.9575,0.009828,-0.000472,-0.001086,-0.000712,-0.000724,0.001361,0.009318,-0.510934,-0.001102,0.901647,-265.467486,0.921117,63.184914
13.9772,0.010071,-0.000397,-8.1e-05,-0.000707,-0.000708,0.001551,0.009274,-0.510473,-0.001085,0.82667,-265.467496,0.996094,63.184897
13.9971,0.010143,-0.000573,-5e-06,-0.00071,-0.000769,0.001453,0.009574,-0.510443,-0.000686,0.82667,-265.467496,0.996094,63.184897
14.0168,0.00953,-0.001101,-0.000472,-0.000712,-0.000818,0.001383,0.010141,-0.510573,-5e-06,0.751671,-265.467496,1.071094,63.184897
14.0368,0.010124,-0.000428,-0.001599,-0.000714,-0.000786,0.001205,0.009355,-0.51106,-0.000436,0.751671,-265.467496,1.071094,63.184897
14.0568,0.010401,-0.000357,-0.000488,-0.000714,-0.000758,0.00108,0.009355,-0.51106,-0.000436,0.751671,-265.467496,1.071094,63.184897
14.0766,0.010403,-0.000561,6.3e-05,-0.000713,-0.000735,0.000992,0.010153,-0.510357,-0.000488,0.6763,-265.467496,1.146464,63.184897
14.0972,0.01003,-0.000325,0.001304,-0.00072,-0.000802,0.000821,0.010269,-0.510441,-0.000261,0.6763,-265.467496,1.146464,63.184897
14.1163,0.01021,-0.000541,-0.000522,-0.000726,-0.000854,0.000703,0.010695,-0.510325,0.001304,0.601556,-265.4675,1.082213,63.184888
14.1364,0.010373,-0.000843,0.000802,-0.000728,-0.000881,0.000683,0.010008,-0.510522,-0.000366,0.601556,-265.4675,1.082213,63.184888
14.1568,0.010054,-0.000445,-0.000533,-0.00073,-0.000903,0.000671,0.010008,-0.510522,-0.000366,0.601556,-265.4675,1.082213,63.184888
14.1767,0.009958,-0.000663,-0.001496,-0.000732,-0.00092,0.000663,0.009755,-0.510477,-0.000506,0.529057,-265.467805,1.056171,63.184353
14.1968,0.009783,-0.000762,0.000168,-0.000726,-0.000913,0.000954,0.009523,-0.510557,-0.000907,0.529057,-265.467805,1.056171,63.184353
14.2168,0.010198,-0.00065,-0.000611,-0.000722,-0.000911,0.001158,0.009848,-0.510788,0.000187,0.603933,-265.468124,1.066024,63.183813
14.2367,0.009538,-0.000752,0.000124,-0.000726,-0.000909,0.001103,0.009882,-0.510663,-0.000539,0.603933,-265.468124,1.066024,63.183813
14.2566,0.010154,-0.00044,0.001005,-0.000729,-0.000908,0.001066,0.009882,-0.510663,-0.000539,0.603933,-265.468124,1.066024,63.183813
14.2766,0.009944,-0.00093,4.4e-05,-0.000731,-0.000906,0.001039,0.010663,-0.510447,0.001012,0.528922,-265.46817,1.141035,63.183705
14.2968,0.010128,-0.000798,0.000498,-0.000748,-0.000941,0.000353,0.010374,-0.510647,0.000613,0.528922,-265.46817,1.141035,63.183705
14.3167,0.009929,-0.000837,-0.000692,-0.000759,-0.000962,-0.000127,0.010367,-0.510816,0.000517,0.453828,-265.468361,1.127846,63.183287
14.3365,0.009925,-0.000822,0.000557,-0.000748,-0.000916,0.000233,0.009648,-0.510836,-0.00058,0.453828,-265.468361,1.127846,63.183287
14.3567,0.009998,-0.000205,0.001069,-0.00074,-0.000882,0.000485,0.009648,-0.510836,-0.00058,0.453828,-265.468361,1.127846,63.183287
14.3766,0.009964,-0.00061,0.000618,-0.000735,-0.000856,0.000663,0.010543,-0.510205,0.001069,0.528704,-265.468365,1.05297,63.183284
14.3964,0.010156,-0.000952,0.001154,-0.000752,-0.000935,-6.3e-05,0.010434,-0.510372,0.000883,0.528704,-265.468365,1.05297,63.183284
14.4166,0.009829,-0.000541,0.000466,-0.000763,-0.000991,-0.000572,0.010721,-0.510979,0.001174,0.551235,-265.468706,1.043222,63.182706
14.437,0.010143,-0.000957,-0.000543,-0.000763,-0.000997,-0.000722,0.010121,-0.510579,0.000527,0.551235,-265.468706,1.043222,63.182706
14.4566,0.009902,-0.000714,-0.000128,-0.000762,-0.001001,-0.000825,0.010121,-0.510579,0.000527,0.551235,-265.468706,1.043222,63.182706
14.4769,0.009849,-0.000727,-0.000383,-0.000761,-0.001002,-0.000896,0.009836,-0.510714,-0.000128,0.62627,-265.468708,0.968187,63.182705
14.4966,0.010043,-0.000666,1e-06,-0.000749,-0.000964,-0.000497,0.009762,-0.510719,-0.000232,0.62627,-265.468708,0.968187,63.182705
14.5164,0.009586,-0.000676,-0.000185,-0.00074,-0.000937,-0.000217,0.010043,-0.510666,1e-06,0.701137,-265.468708,0.89332,63.182705
14.5369,0.009882,-0.000595,-0.001266,-0.000734,-0.000922,-6.1e-05,0.009539,-0.510675,-0.000169,0.701137,-265.468708,0.89332,63.182705
14.557,0.009512,-0.000764,6.2e-05,-0.000729,-0.000912,4.8e-05,0.009539,-0.510675,-0.000169,0.701137,-265.468708,0.89332,63.182705
14.5768,0.009954,-0.000879,-9.3e-05,-0.000726,-0.000904,0.000123,0.009533,-0.510775,6.1e-05,0.776225,-265.468865,0.826694,63.182573
14.5965,0.009663,-0.000796,-0.001307,-0.000727,-0.000887,8.2e-05,0.00969,-0.51082,-4e-06,0.776225,-265.468865,0.826694,63.182573
14.6166,0.009599,-0.00094,0.000859,-0.000727,-0.000873,5.2e-05,0.008978,-0.510817,-0.001305,0.851528,-265.4692,0.901997,63.182202
14.6366,0.010446,-0.000873,0.000416,-0.000736,-0.000869,-0.000363,0.009946,-0.51093,0.000674,0.851528,-265.4692,0.901997,63.182202
14.6572,0.009536,-0.000728,-0.001171,-0.000741,-0.000862,-0.000654,0.009946,-0.51093,0.000674,0.851528,-265.4692,0.901997,63.182202
14.6768,0.009844,-0.000839,3e-05,-0.000743,-0.000854,-0.000857,0.008908,-0.510764,-0.001169,0.858322,-265.469644,0.894252,63.181739
14.6972,0.00967,-0.000919,0.001056,-0.000725,-0.00082,-0.000225,0.009293,-0.510799,-0.000679,0.858322,-265.469644,0.894252,63.181739
14.7164,0.009493,-0.000935,-0.000475,-0.000713,-0.000798,0.000219,0.010209,-0.510919,0.001055,0.93331,-265.46965,0.819264,63.181736
14.7372,0.009498,-0.001069,0.000209,-0.000709,-0.000776,0.000343,0.009337,-0.510933,-0.000338,0.93331,-265.46965,0.819264,63.181736
14.7573,0.009912,-0.000876,-0.000866,-0.000705,-0.000759,0.000428,0.009337,-0.510933,-0.000338,0.93331,-265.46965,0.819264,63.181736
14.7764,0.010048,-0.000704,-0.000392,-0.000703,-0.000746,0.000486,0.009456,-0.510893,-0.000863,0.858389,-265.469845,0.894185,63.181502
14.7967,0.009782,-0.000929,-0.000904,-0.000701,-0.000746,0.000713,0.009613,-0.510819,-0.000672,0.858389,-265.469845,0.894185,63.181502
14.8173,0.009718,-0.001006,-0.000139,-0.000701,-0.000747,0.000871,0.009316,-0.510935,-0.000901,0.783409,-265.469921,0.969165,63.181386
14.8367,0.009745,-0.001236,-0.000772,-0.000705,-0.00074,0.000725,0.009613,-0.510999,-0.000217,0.783409,-265.469921,0.969165,63.181386
14.8567,0.009832,-0.000823,-0.000677,-0.000708,-0.000732,0.000622,0.009613,-0.510999,-0.000217,0.783409,-265.469921,0.969165,63.181386
14.8771,0.009395,-0.000869,0.000399,-0.00071,-0.000726,0.00055,0.009487,-0.510824,-0.000676,0.708355,-265.469926,1.044219,63.181377
14.8972,0.010017,-0.000852,-0.000878,-0.00071,-0.000737,0.000507,0.009532,-0.510842,-0.000237,0.708355,-265.469926,1.044219,63.181377
14.9171,0.009505,-0.001077,0.000556,-0.000711,-0.000746,0.000477,0.009559,-0.510864,-0.000871,0.633415,-265.47008,0.981567,63.181135
14.937,0.009873,-0.000655,0.000298,-0.000719,-0.000747,7e-05,0.009768,-0.511058,0.000428,0.633415,-265.47008,0.981567,63.181135
14.957,0.009485,-0.001228,0.000435,-0.000725,-0.000745,-0.000214,0.009768,-0.511058,0.000428,0.633415,-265.47008,0.981567,63.181135
14.9771,0.009463,-0.000785,0.000654,-0.000727,-0.00074,-0.000412,0.009679,-0.511257,0.000453,0.569469,-265.470395,0.970332,63.180665
