mach0312/omni-docking-bench/src/icros_test_setup/results/MPPI_sample/timeseries/trial_013.csv
t,x,y,yaw,vx,vy,wz,bl_x,bl_y,bl_yaw,front_steering_joint,front_wheel_joint,rear_steering_joint,rear_wheel_joint
0.0,0.052617,0.018043,-0.046235,0.00545,0.009861,-0.018981,0.02848,-0.492779,-0.043782,-0.3077,-264.077144,1.322036,62.389305
0.0005,0.052654,0.018215,-0.046745,0.002837,0.005133,-0.009881,0.028324,-0.492428,-0.044188,-0.3077,-264.074666,1.322036,62.398897
0.0009,0.052423,0.018451,-0.045568,0.002337,0.004229,-0.008141,0.028324,-0.492428,-0.044188,-0.3077,-264.072495,1.322036,62.407303
0.0012,0.053015,0.018426,-0.048375,0.001802,0.00326,-0.006275,0.028621,-0.492398,-0.044498,-0.3077,-264.070601,1.322036,62.414633
0.0015,0.053393,0.018366,-0.047467,0.001234,0.002233,-0.004298,0.028621,-0.492398,-0.044498,-0.3077,-264.06921,1.322036,62.420018
0.0019,0.053253,0.018357,-0.047984,0.000634,0.001147,-0.002209,0.028621,-0.492398,-0.044498,-0.3077,-264.068229,1.322036,62.423816
0.0022,0.053746,0.018498,-0.047178,2e-06,4e-06,-8e-06,0.028904,-0.491485,-0.045924,-0.3077,-264.067963,1.322036,62.424846
0.0026,0.053597,0.01878,-0.048021,0.0,0.0,0.0,0.028656,-0.491604,-0.04646,-0.3077,-264.067963,1.322036,62.424846
0.0029,0.054132,0.01834,-0.046691,0.0,0.0,0.0,0.028656,-0.491604,-0.04646,-0.3077,-264.067963,1.322036,62.424846
0.0032,0.053281,0.018674,-0.047457,0.0,0.0,0.0,0.028666,-0.491642,-0.046973,-0.3077,-264.067963,1.322036,62.424846
0.0172,0.053843,0.018941,-0.047919,0.0,0.0,0.0,0.029087,-0.490752,-0.047457,-0.3077,-264.067963,1.322036,62.424846
0.0373,0.053972,0.018586,-0.047294,0.0,0.0,0.0,0.029385,-0.490499,-0.047877,-0.3077,-264.067963,1.322036,62.424846
0.0574,0.053999,0.018813,-0.047547,0.0,0.0,0.0,0.029385,-0.490499,-0.047877,-0.3077,-264.067963,1.322036,62.424846
0.0772,0.053528,0.018699,-0.047401,0.0,0.0,0.0,0.029759,-0.490611,-0.047547,-0.3077,-264.067963,1.322036,62.424846
0.0971,0.053454,0.018851,-0.04825,0.0,0.0,0.0,0.029598,-0.490659,-0.047488,-0.3077,-264.067963,1.322036,62.424846
0.1172,0.053534,0.018871,-0.048851,-0.005101,-0.005318,0.01031,0.028856,-0.490556,-0.04825,-0.3077,-264.067963,1.322036,62.424846
0.1374,0.053293,0.018466,-0.048391,-0.005595,-0.005795,0.011311,0.028651,-0.490524,-0.048796,-0.3077,-264.067963,1.322036,62.424846
0.1571,0.053822,0.018908,-0.048701,-0.006026,-0.006199,0.012025,0.028651,-0.490524,-0.048796,-0.3077,-264.067963,1.322036,62.424846
0.1775,0.05329,0.018424,-0.047329,-0.006403,-0.00654,0.012531,0.028893,-0.490593,-0.048477,-0.232642,-264.069036,1.246978,62.422341
0.1974,0.053451,0.018613,-0.047159,-0.00674,-0.006816,0.013338,0.028991,-0.490774,-0.04798,-0.232642,-264.069036,1.246978,62.422341
0.2171,0.053038,0.018369,-0.045616,-0.007035,-0.007048,0.013923,0.029241,-0.490982,-0.046835,-0.172134,-264.07112,1.171868,62.417347
0.237,0.052881,0.018184,-0.049085,-0.007305,-0.007224,0.014783,0.029723,-0.491098,-0.045712,-0.172134,-264.07112,1.171868,62.417347
0.2572,0.053099,0.018217,-0.047274,-0.00754,-0.007374,0.015426,0.029723,-0.491098,-0.045712,-0.172134,-264.07112,1.171868,62.417347
0.2774,0.051923,0.018268,-0.044687,-0.007745,-0.0075,0.015902,0.028698,-0.491487,-0.046707,-0.204041,-264.073917,1.145983,62.410702
0.2973,0.05222,0.018069,-0.046301,-0.007921,-0.007611,0.016724,0.028843,-0.491411,-0.04582,-0.204041,-264.073917,1.145983,62.410702
0.3172,0.051863,0.017442,-0.044794,-0.008074,-0.007705,0.017355,0.028379,-0.491592,-0.045838,-0.278135,-264.076868,1.147967,62.403788
0.3373,0.051609,0.017625,-0.046464,-0.008218,-0.007769,0.018052,0.028955,-0.492016,-0.044865,-0.278135,-264.076868,1.147967,62.403788
0.3572,0.051505,0.017392,-0.043823,-0.008343,-0.007824,0.018593,0.028955,-0.492016,-0.044865,-0.278135,-264.076868,1.147967,62.403788
0.3771,0.050617,0.017317,-0.044395,-0.008452,-0.007871,0.019011,0.028834,-0.492404,-0.043146,-0.34424,-264.080072,1.15537,62.396314
0.397,0.050591,0.017215,-0.044717,-0.008548,-0.00791,0.019575,0.028444,-0.492345,-0.043584,-0.34424,-264.080072,1.15537,62.396314
0.417,0.04978,0.016998,-0.04476,-0.008631,-0.007944,0.020018,0.027536,-0.492494,-0.044162,-0.416524,-264.083461,1.161462,62.388527
0.4369,0.049745,0.017407,-0.044101,-0.00869,-0.007991,0.02055,0.027,-0.492503,-0.044673,-0.416524,-264.083461,1.161462,62.388527
0.457,0.049318,0.017033,-0.044619,-0.008742,-0.008031,0.020973,0.027,-0.492503,-0.044673,-0.416524,-264.083461,1.161462,62.388527
0.4769,0.049016,0.016448,-0.043212,-0.008788,-0.008066,0.021308,0.026205,-0.492766,-0.043806,-0.460616,-264.087196,1.166467,62.380023
0.497,0.048635,0.017395,-0.043429,-0.00883,-0.008092,0.021712,0.02648,-0.492927,-0.043471,-0.460616,-264.087196,1.166467,62.380023
0.5173,0.047826,0.01625,-0.042523,-0.008867,-0.008114,0.022036,0.026215,-0.492359,-0.04278,-0.512839,-264.091052,1.175827,62.37129
0.5373,0.048186,0.016377,-0.042166,-0.008901,-0.008131,0.022398,0.026138,-0.493217,-0.042512,-0.512839,-264.091052,1.175827,62.37129
0.5572,0.047988,0.016321,-0.042097,-0.00893,-0.008146,0.022694,0.026138,-0.493217,-0.042512,-0.512839,-264.091052,1.175827,62.37129
0.5769,0.04689,0.016218,-0.040138,-0.008956,-0.008159,0.022936,0.026146,-0.493547,-0.041187,-0.542397,-264.095134,1.180827,62.362094
0.5969,0.046717,0.016146,-0.039221,-0.008985,-0.00816,0.023216,0.026216,-0.493512,-0.040654,-0.542397,-264.095134,1.180827,62.362094
0.6172,0.04595,0.01582,-0.037448,-0.009011,-0.008162,0.023446,0.026431,-0.493705,-0.038506,-0.578541,-264.099322,1.186833,62.352734
0.637,0.045728,0.015665,-0.039774,-0.009046,-0.008144,0.023706,0.026804,-0.493824,-0.037506,-0.578541,-264.099322,1.186833,62.352734
0.6569,0.04604,0.015836,-0.037808,-0.009075,-0.00813,0.023921,0.026804,-0.493824,-0.037506,-0.578541,-264.099322,1.186833,62.352734
0.6771,0.044999,0.015304,-0.039027,-0.0091,-0.008119,0.024099,0.026376,-0.494125,-0.036834,-0.599442,-264.103656,1.1896,62.343115
0.6976,0.044804,0.015249,-0.038744,-0.009118,-0.008115,0.024291,0.025811,-0.494237,-0.037616,-0.599442,-264.103656,1.1896,62.343115
0.7168,0.043681,0.01501,-0.037062,-0.009133,-0.008112,0.024451,0.024752,-0.494615,-0.037979,-0.627447,-264.108124,1.191595,62.333343
0.7371,0.043665,0.014958,-0.036708,-0.009142,-0.008115,0.024609,0.024768,-0.494648,-0.037099,-0.627447,-264.108124,1.191595,62.333343
0.757,0.043381,0.01486,-0.037559,-0.009149,-0.008118,0.024742,0.024768,-0.494648,-0.037099,-0.627447,-264.108124,1.191595,62.333343
0.777,0.042566,0.014382,-0.035997,-0.009156,-0.00812,0.024853,0.023839,-0.495102,-0.036545,-0.641522,-264.112641,1.193464,62.323521
0.7975,0.042415,0.014767,-0.03587,-0.009163,-0.00812,0.024965,0.023945,-0.495215,-0.036206,-0.641522,-264.112641,1.193464,62.323521
0.8171,0.041903,0.01415,-0.035505,-0.009169,-0.00812,0.02506,0.023825,-0.495153,-0.035077,-0.656787,-264.117248,1.196362,62.313546
0.8373,0.04177,0.014047,-0.035155,-0.009178,-0.008113,0.025155,0.023785,-0.495504,-0.035415,-0.656787,-264.117248,1.196362,62.313546
0.857,0.041666,0.014164,-0.034013,-0.009186,-0.008109,0.025235,0.023785,-0.495504,-0.035415,-0.656787,-264.117248,1.196362,62.313546
0.8773,0.040413,0.014072,-0.033356,-0.009192,-0.008105,0.025303,0.023928,-0.495868,-0.032964,-0.664698,-264.121911,1.197704,62.303478
0.8973,0.04024,0.013536,-0.033006,-0.009204,-0.008092,0.025373,0.023669,-0.495815,-0.033002,-0.664698,-264.121911,1.197704,62.303478
0.9169,0.039328,0.013355,-0.032394,-0.009213,-0.008082,0.025432,0.023111,-0.496434,-0.032204,-0.674425,-264.126648,1.198772,62.293297
0.9376,0.039486,0.013561,-0.032189,-0.009222,-0.00807,0.025492,0.022818,-0.49639,-0.032351,-0.674425,-264.126648,1.198772,62.293297
0.9574,0.039049,0.013527,-0.032764,-0.00923,-0.008061,0.025543,0.022818,-0.49639,-0.032351,-0.674425,-264.126648,1.198772,62.293297
0.9772,0.037965,0.012966,-0.031388,-0.009236,-0.008054,0.025585,0.021951,-0.496521,-0.031714,-0.680025,-264.131339,1.198813,62.283262
0.9972,0.038064,0.013269,-0.031192,-0.009236,-0.008055,0.025628,0.021909,-0.496666,-0.031458,-0.680025,-264.131339,1.198813,62.283262
1.0171,0.037007,0.012863,-0.030541,-0.009236,-0.008056,0.025665,0.021857,-0.49673,-0.030378,-0.686736,-264.13612,1.198891,62.273088
1.0375,0.037132,0.012736,-0.030832,-0.009236,-0.008057,0.025702,0.021455,-0.496897,-0.030488,-0.686736,-264.13612,1.198891,62.273088
1.0571,0.037018,0.012455,-0.029595,-0.009236,-0.008058,0.025733,0.021455,-0.496897,-0.030488,-0.686736,-264.13612,1.198891,62.273088
1.0771,0.035895,0.011913,-0.028854,-0.009235,-0.008059,0.02576,0.021531,-0.497647,-0.028523,-0.689725,-264.140908,1.199613,62.262905
1.0972,0.035999,0.012193,-0.028088,-0.009253,-0.00803,0.025789,0.021341,-0.497778,-0.028535,-0.689725,-264.140908,1.199613,62.262905
1.1171,0.03453,0.01211,-0.028073,-0.009268,-0.008006,0.025813,0.021375,-0.497854,-0.027267,-0.693318,-264.145705,1.200529,62.25271
1.1373,0.034787,0.011407,-0.027403,-0.009266,-0.008009,0.025836,0.020305,-0.497717,-0.027957,-0.693318,-264.145705,1.200529,62.25271
1.157,0.03512,0.011779,-0.028132,-0.009264,-0.008011,0.025855,0.020305,-0.497717,-0.027957,-0.693318,-264.145705,1.200529,62.25271
1.1769,0.033535,0.011822,-0.026244,-0.009262,-0.008013,0.025871,0.020377,-0.498343,-0.027052,-0.697036,-264.15054,1.19903,62.242505
1.197,0.033655,0.011659,-0.026459,-0.009273,-0.007996,0.025889,0.020239,-0.498241,-0.026598,-0.697036,-264.15054,1.19903,62.242505
1.217,0.032407,0.011245,-0.023875,-0.009281,-0.007982,0.025904,0.019861,-0.498411,-0.025633,-0.699114,-264.155385,1.19986,62.232273
1.2371,0.032748,0.011421,-0.024432,-0.009297,-0.007955,0.02592,0.020184,-0.498605,-0.023987,-0.699114,-264.155385,1.19986,62.232273
1.2572,0.032405,0.011092,-0.023874,-0.00931,-0.007932,0.025933,0.020184,-0.498605,-0.023987,-0.699114,-264.155385,1.19986,62.232273
1.2771,0.030865,0.010959,-0.022303,-0.009321,-0.007914,0.025944,0.019835,-0.499087,-0.022791,-0.701382,-264.160237,1.199006,62.222071
1.2974,0.031194,0.010986,-0.021784,-0.009333,-0.007891,0.025955,0.019649,-0.499054,-0.022468,-0.701382,-264.160237,1.199006,62.222071
1.3176,0.030317,0.0104,-0.02107,-0.009344,-0.007873,0.025965,0.019782,-0.49914,-0.020954,-0.705042,-264.16514,1.19696,62.211845
1.3373,0.030437,0.010248,-0.022759,-0.009362,-0.00784,0.025975,0.019576,-0.499469,-0.021021,-0.705042,-264.16514,1.19696,62.211845
1.3573,0.030063,0.010378,-0.020658,-0.009376,-0.007814,0.025983,0.019576,-0.499469,-0.021021,-0.705042,-264.16514,1.19696,62.211845
1.3775,0.029002,0.010081,-0.018455,-0.009388,-0.007793,0.025989,0.019131,-0.499835,-0.019572,-0.707153,-264.170053,1.195689,62.201651
1.3972,0.028852,0.010105,-0.020664,-0.009405,-0.007763,0.025993,0.019273,-0.499871,-0.018991,-0.707153,-264.170053,1.195689,62.201651
1.4175,0.02824,0.009857,-0.017694,-0.009418,-0.007738,0.025996,0.01801,-0.500028,-0.019836,-0.710671,-264.175008,1.193132,62.191467
1.4372,0.027901,0.009365,-0.019696,-0.009432,-0.007713,0.025993,0.019099,-0.500072,-0.017837,-0.710671,-264.175008,1.193132,62.191467
1.4577,0.028106,0.009987,-0.019725,-0.009443,-0.007692,0.02599,0.019099,-0.500072,-0.017837,-0.710671,-264.175008,1.193132,62.191467
1.477,0.026583,0.009413,-0.018108,-0.009452,-0.007675,0.025987,0.017646,-0.50023,-0.018638,-0.712669,-264.179988,1.191319,62.181295
1.4969,0.026588,0.009744,-0.016841,-0.009445,-0.007684,0.025986,0.017478,-0.500379,-0.018296,-0.712669,-264.179988,1.191319,62.181295
1.517,0.025804,0.008626,-0.017261,-0.009439,-0.007692,0.025985,0.017696,-0.500422,-0.016017,-0.71441,-264.184983,1.189077,62.171166
1.5371,0.0258,0.009048,-0.017883,-0.009451,-0.007667,0.025975,0.017048,-0.501232,-0.017107,-0.71441,-264.184983,1.189077,62.171166
1.557,0.025986,0.008488,-0.016964,-0.00946,-0.007646,0.025967,0.017048,-0.501232,-0.017107,-0.71441,-264.184983,1.189077,62.171166
1.577,0.024739,0.008895,-0.015775,-0.009467,-0.007629,0.02596,0.016935,-0.501754,-0.015876,-0.713943,-264.189978,1.189772,62.161013
1.5976,0.024504,0.008527,-0.015872,-0.009477,-0.007605,0.02593,0.016791,-0.501502,-0.015709,-0.713943,-264.189978,1.189772,62.161013
1.6169,0.023467,0.008368,-0.012823,-0.009484,-0.007585,0.025905,0.016104,-0.501647,-0.015043,-0.7154,-264.195001,1.187593,62.150872
1.6373,0.023451,0.007732,-0.014485,-0.009499,-0.007562,0.025736,0.01684,-0.501606,-0.012975,-0.7154,-264.195001,1.187593,62.150872
1.6575,0.023265,0.008382,-0.013676,-0.009509,-0.007542,0.025606,0.01684,-0.501606,-0.012975,-0.7154,-264.195001,1.187593,62.150872
1.6771,0.022116,0.008113,-0.012931,-0.009515,-0.007525,0.025507,0.015889,-0.501882,-0.012591,-0.715132,-264.200026,1.185825,62.140769
1.6973,0.022473,0.008042,-0.012888,-0.009512,-0.007524,0.025394,0.015693,-0.501903,-0.012605,-0.715132,-264.200026,1.185825,62.140769
1.7171,0.021429,0.007351,-0.011421,-0.009508,-0.007523,0.025308,0.015596,-0.502151,-0.012078,-0.702414,-264.205001,1.180126,62.130798
1.7371,0.021279,0.007328,-0.01179,-0.009529,-0.007486,0.025105,0.015589,-0.502588,-0.011437,-0.702414,-264.205001,1.180126,62.130798
1.7571,0.021115,0.007455,-0.01133,-0.009544,-0.007454,0.024954,0.015589,-0.502588,-0.011437,-0.702414,-264.205001,1.180126,62.130798
1.7772,0.019841,0.00722,-0.009297,-0.009554,-0.007428,0.024842,0.014937,-0.502821,-0.010275,-0.695397,-264.209949,1.17849,62.12086
1.797,0.02024,0.007016,-0.009382,-0.009575,-0.007412,0.024467,0.014958,-0.502831,-0.009748,-0.695397,-264.209949,1.17849,62.12086
1.8172,0.01898,0.00703,-0.009751,-0.009588,-0.007398,0.0242,0.015151,-0.503194,-0.008598,-0.681184,-264.214844,1.170845,62.111096
1.8372,0.018833,0.006548,-0.00819,-0.009586,-0.0074,0.023977,0.014089,-0.502979,-0.009614,-0.681184,-264.214844,1.170845,62.111096
1.857,0.019222,0.006648,-0.009596,-0.009582,-0.0074,0.023819,0.014089,-0.502979,-0.009614,-0.681184,-264.214844,1.170845,62.111096
1.8774,0.017624,0.006527,-0.007849,-0.009575,-0.007399,0.023706,0.013929,-0.503631,-0.008596,-0.656173,-264.219625,1.162746,62.101549
1.8971,0.017793,0.006491,-0.007995,-0.009597,-0.007371,0.023292,0.013758,-0.503595,-0.008176,-0.656173,-264.219625,1.162746,62.101549
1.9169,0.016827,0.00596,-0.005844,-0.009608,-0.007346,0.023003,0.01341,-0.503726,-0.007243,-0.636673,-264.224365,1.158231,62.092044
1.9369,0.016595,0.006152,-0.005515,-0.00966,-0.007313,0.022074,0.013795,-0.504017,-0.005926,-0.636673,-264.224365,1.158231,62.092044
1.957,0.016628,0.006052,-0.007878,-0.00969,-0.00728,0.021439,0.013795,-0.504017,-0.005926,-0.636673,-264.224365,1.158231,62.092044
1.9769,0.015497,0.005674,-0.004656,-0.009704,-0.007248,0.021005,0.012212,-0.504232,-0.006931,-0.609139,-264.22898,1.148713,62.082803
1.997,0.015715,0.005999,-0.005581,-0.009699,-0.007235,0.020691,0.012539,-0.504303,-0.005891,-0.609139,-264.22898,1.148713,62.082803
2.0171,0.014761,0.005488,-0.005247,-0.00969,-0.007221,0.020478,0.012598,-0.504192,-0.004993,-0.534286,-264.232906,1.120564,62.074984
2.0373,0.014613,0.005485,-0.003906,-0.009688,-0.007214,0.020066,0.012114,-0.504489,-0.005199,-0.534286,-264.232906,1.120564,62.074984
2.0572,0.014722,0.005647,-0.005372,-0.00968,-0.007205,0.019783,0.012114,-0.504489,-0.005199,-0.534286,-264.232906,1.120564,62.074984
2.077,0.013896,0.005038,-0.004212,-0.009671,-0.007194,0.019588,0.011585,-0.504639,-0.004535,-0.499365,-264.237219,1.114247,62.066394
2.0969,0.013574,0.004871,-0.00362,-0.009675,-0.007185,0.019076,0.011605,-0.504802,-0.004307,-0.499365,-264.237219,1.114247,62.066394
2.1171,0.013,0.004879,-0.002444,-0.009673,-0.007174,0.018722,0.011427,-0.505348,-0.003013,-0.458176,-264.241414,1.103335,62.058046
2.137,0.012873,0.004704,-0.002698,-0.009714,-0.007147,0.017564,0.01171,-0.50515,-0.002463,-0.458176,-264.241414,1.103335,62.058046
2.1569,0.01309,0.004743,-0.003295,-0.009737,-0.00712,0.016747,0.01171,-0.50515,-0.002463,-0.458176,-264.241414,1.103335,62.058046
2.1771,0.011644,0.004171,-0.002303,-0.009747,-0.007093,0.016175,0.011017,-0.505543,-0.002538,-0.414917,-264.245509,1.091417,62.049921
2.1969,0.01156,0.004525,-0.000967,-0.009752,-0.007048,0.015716,0.010746,-0.505694,-0.002353,-0.414917,-264.245509,1.091417,62.049921
2.217,0.011199,0.004117,-0.002084,-0.00975,-0.007008,0.015395,0.010845,-0.505631,-0.000584,-0.33989,-264.248434,1.049508,62.044273
2.2371,0.011492,0.004212,-0.000905,-0.009747,-0.006979,0.014945,0.010184,-0.505868,-0.001942,-0.33989,-264.248434,1.049508,62.044273
2.2572,0.011341,0.004301,-0.001694,-0.009739,-0.006954,0.014625,0.010184,-0.505868,-0.001942,-0.33989,-264.248434,1.049508,62.044273
2.2772,0.010294,0.003967,-0.000255,-0.009729,-0.00693,0.014396,0.010131,-0.505943,-0.00114,-0.264823,-264.251849,1.034691,62.03778
2.2972,0.010834,0.003506,-0.001511,-0.009744,-0.00691,0.013617,0.010104,-0.506008,-0.000714,-0.264823,-264.251849,1.034691,62.03778
2.3169,0.009591,0.00386,0.000123,-0.009749,-0.006889,0.013053,0.009782,-0.506693,-0.001095,-0.189902,-264.255445,1.01667,62.031068
2.3372,0.009811,0.003619,-0.000367,-0.009757,-0.006873,0.012327,0.009651,-0.506196,3.9e-05,-0.189902,-264.255445,1.01667,62.031068
2.3571,0.00987,0.003582,-0.001729,-0.009757,-0.006855,0.011797,0.009651,-0.506196,3.9e-05,-0.189902,-264.255445,1.01667,62.031068
2.377,0.00888,0.002587,0.001388,-0.009752,-0.006837,0.011411,0.008624,-0.506673,-0.001241,-0.114895,-264.258948,0.990201,62.02472
2.3971,0.008867,0.003527,0.000765,-0.009756,-0.006736,0.011193,0.008973,-0.507003,-0.000117,-0.114895,-264.258948,0.990201,62.02472
2.417,0.008234,0.003131,0.00094,-0.009755,-0.006654,0.01103,0.008998,-0.506652,0.001073,-0.040029,-264.2622,0.955813,62.019086
2.4372,0.008811,0.002994,0.000177,-0.009756,-0.00663,0.010497,0.008725,-0.506859,0.000967,-0.040029,-264.2622,0.955813,62.019086
2.457,0.008176,0.003285,0.000291,-0.009751,-0.006609,0.010105,0.008725,-0.506859,0.000967,-0.040029,-264.2622,0.955813,62.019086
2.477,0.007337,0.002625,0.001373,-0.009742,-0.006589,0.009817,0.007924,-0.506988,0.000743,-0.008451,-264.26604,0.941172,62.012564
2.497,0.007572,0.002849,0.000907,-0.009718,-0.006552,0.009563,0.007925,-0.507181,0.001059,-0.008451,-264.26604,0.941172,62.012564
2.5172,0.007327,0.002274,0.002306,-0.009694,-0.006521,0.009374,0.007753,-0.507342,0.001191,0.060767,-264.269596,0.912036,62.006766
2.537,0.007063,0.00238,0.004205,-0.009727,-0.006408,0.00891,0.008425,-0.507702,0.002225,0.060767,-264.269596,0.912036,62.006766
2.5569,0.006986,0.002132,0.001152,-0.009748,-0.006318,0.008569,0.008425,-0.507702,0.002225,0.060767,-264.269596,0.912036,62.006766
2.5769,0.006335,0.002203,0.002301,-0.00976,-0.006246,0.008318,0.007173,-0.508138,0.00154,0.08192,-264.273446,0.901191,62.000584
2.597,0.006396,0.001955,0.00281,-0.009725,-0.006156,0.00821,0.007264,-0.508029,0.001896,0.08192,-264.273446,0.901191,62.000584
2.617,0.005288,0.001609,0.003297,-0.009694,-0.006085,0.008125,0.007534,-0.508233,0.003062,0.118865,-264.277187,0.859517,61.994893
2.6373,0.005655,0.001697,0.004095,-0.009682,-0.005976,0.007707,0.007006,-0.508384,0.003289,0.118865,-264.277187,0.859517,61.994893
2.6571,0.00578,0.001797,0.00335,-0.009666,-0.005891,0.007397,0.007006,-0.508384,0.003289,0.118865,-264.277187,0.859517,61.994893
2.6773,0.004379,0.001346,0.003339,-0.009649,-0.005825,0.007166,0.007084,-0.508456,0.00369,0.115253,-264.281089,0.850529,61.989016
2.6972,0.00517,0.001301,0.002796,-0.009617,-0.005745,0.006916,0.006629,-0.508565,0.003586,0.115253,-264.281089,0.850529,61.989016
2.7175,0.004142,0.001093,0.004782,-0.009587,-0.005682,0.006729,0.006301,-0.508876,0.003015,0.148991,-264.284833,0.813228,61.983628
2.7372,0.004167,0.000777,0.003257,-0.00957,-0.005561,0.006387,0.006541,-0.508908,0.004633,0.148991,-264.284833,0.813228,61.983628
2.7571,0.004387,0.001302,0.004357,-0.009551,-0.005469,0.006131,0.006541,-0.508908,0.004633,0.148991,-264.284833,0.813228,61.983628
2.7771,0.00381,0.000934,0.003443,-0.009532,-0.005397,0.005938,0.006212,-0.508931,0.004637,0.162582,-264.288695,0.795979,61.97818
2.7971,0.003786,0.001063,0.003426,-0.00946,-0.005321,0.005856,0.005901,-0.509012,0.00418,0.162582,-264.288695,0.795979,61.97818
2.8173,0.003107,0.000397,0.004731,-0.0094,-0.005264,0.005793,0.00524,-0.509101,0.003609,0.183624,-264.292452,0.757962,61.973094
2.8375,0.003028,0.000357,0.005199,-0.009318,-0.005083,0.005642,0.00548,-0.509562,0.004639,0.183624,-264.292452,0.757962,61.973094
2.8571,0.003024,0.000539,0.00383,-0.009251,-0.004947,0.005527,0.00548,-0.509562,0.004639,0.183624,-264.292452,0.757962,61.973094
2.8771,0.002325,0.000239,0.002907,-0.009195,-0.004844,0.005439,0.004584,-0.509679,0.004072,0.181565,-264.296273,0.752543,61.967946
2.8971,0.002703,0.000301,0.005233,-0.008952,-0.004698,0.005549,0.004225,-0.509737,0.003629,0.181565,-264.296273,0.752543,61.967946
2.9173,0.001748,0.000421,0.004654,-0.008766,-0.004593,0.00562,0.005084,-0.509845,0.005404,0.164075,-264.299942,0.726178,61.963105
2.9374,0.001433,-0.000323,0.004576,-0.008627,-0.004562,0.005423,0.004194,-0.509606,0.004731,0.164075,-264.299942,0.726178,61.963105
2.9575,0.001964,-2.9e-05,0.005156,-0.008518,-0.004539,0.005273,0.004194,-0.509606,0.004731,0.164075,-264.299942,0.726178,61.963105
2.9775,0.001413,-0.000151,0.006061,-0.008431,-0.004522,0.005161,0.004236,-0.510212,0.005387,0.131595,-264.303407,0.741309,61.958448
2.9973,0.001149,-0.000419,0.006372,-0.00839,-0.004335,0.00492,0.004304,-0.510205,0.005689,0.131595,-264.303407,0.741309,61.958448
3.0171,0.000736,-0.000366,0.006902,-0.008354,-0.004194,0.00474,0.004135,-0.510552,0.006534,0.161108,-264.306791,0.73843,61.953931
3.0369,0.000603,-0.00043,0.006196,-0.008314,-0.004036,0.00443,0.004234,-0.510376,0.00688,0.161108,-264.306791,0.73843,61.953931
3.0572,0.000812,-0.000293,0.005882,-0.008281,-0.003918,0.004194,0.004234,-0.510376,0.00688,0.161108,-264.306791,0.73843,61.953931
3.0769,-0.000351,-0.000691,0.004348,-0.008251,-0.003828,0.004016,0.003471,-0.510458,0.006076,0.154277,-264.310091,0.703673,61.949654
3.0973,0.000122,-0.000753,0.00692,-0.007893,-0.00364,0.004067,0.00278,-0.510571,0.005396,0.154277,-264.310091,0.703673,61.949654
3.1173,-0.000492,-0.000914,0.005746,-0.007623,-0.003504,0.004101,0.003401,-0.51086,0.007043,0.165189,-264.313283,0.650659,61.945697
3.1373,-0.000434,-0.000906,0.005663,-0.007344,-0.003281,0.004029,0.002517,-0.510908,0.005877,0.165189,-264.313283,0.650659,61.945697
3.1575,-0.000532,-0.000832,0.004805,-0.007131,-0.003118,0.003975,0.002517,-0.510908,0.005877,0.165189,-264.313283,0.650659,61.945697
3.1773,-0.00081,-0.000913,0.006621,-0.006969,-0.002997,0.003935,0.001608,-0.510971,0.004973,0.130327,-264.316286,0.66753,61.941906
3.1974,-0.000722,-0.00084,0.00708,-0.006671,-0.002862,0.00392,0.001962,-0.51096,0.005662,0.130327,-264.316286,0.66753,61.941906
3.2171,-0.001231,-0.000901,0.005668,-0.006445,-0.002763,0.003908,0.002675,-0.510921,0.007201,0.085036,-264.31899,0.659254,61.938498
3.2374,-0.001491,-0.001224,0.00627,-0.006203,-0.002704,0.003862,0.00174,-0.5109,0.005812,0.085036,-264.31899,0.659254,61.938498
3.2575,-0.000921,-0.000968,0.00538,-0.006018,-0.002659,0.003829,0.00174,-0.5109,0.005812,0.085036,-264.31899,0.659254,61.938498
3.2773,-0.001671,-0.001272,0.0055,-0.005878,-0.002626,0.003805,0.001558,-0.511076,0.005541,0.05838,-264.321534,0.674126,61.935247
3.2974,-0.001797,-0.00115,0.004597,-0.005635,-0.002499,0.003825,0.001354,-0.511166,0.005543,0.05838,-264.321534,0.674126,61.935247
3.3175,-0.002443,-0.001243,0.007293,-0.00545,-0.002404,0.00384,0.000362,-0.511228,0.004717,0.051442,-264.323864,0.699939,61.932204
3.337,-0.002274,-0.001594,0.006767,-0.005259,-0.002308,0.00361,0.001187,-0.511234,0.007072,0.051442,-264.323864,0.699939,61.932204
3.3578,-0.002173,-0.001507,0.006266,-0.00511,-0.002237,0.003438,0.001187,-0.511234,0.007072,0.051442,-264.323864,0.699939,61.932204
3.3775,-0.002699,-0.001501,0.006999,-0.004995,-0.002183,0.00331,0.000801,-0.511597,0.006423,0.010646,-264.325975,0.716815,61.929405
3.397,-0.002065,-0.00171,0.007668,-0.004777,-0.002038,0.003266,0.000804,-0.511565,0.006671,0.010646,-264.325975,0.716815,61.929405
3.4168,-0.002723,-0.001683,0.006473,-0.004609,-0.00193,0.003236,0.00169,-0.511765,0.007772,0.03233,-264.327949,0.699696,61.926825
3.4372,-0.002656,-0.00165,0.008427,-0.00444,-0.001817,0.003223,0.000671,-0.511684,0.006595,0.03233,-264.327949,0.699696,61.926825
3.4573,-0.003249,-0.00163,0.00616,-0.004308,-0.001732,0.003216,0.000671,-0.511684,0.006595,0.03233,-264.327949,0.699696,61.926825
3.4773,-0.002935,-0.002016,0.005947,-0.004205,-0.001669,0.003213,-0.000295,-0.5117,0.006291,-0.009992,-264.329741,0.703111,61.924477
3.4974,-0.002627,-0.00173,0.007277,-0.003856,-0.001586,0.003276,-0.000158,-0.511833,0.006167,-0.009992,-264.329741,0.703111,61.924477
3.5177,-0.003359,-0.001534,0.006794,-0.003585,-0.001525,0.003321,0.000958,-0.511767,0.007374,-0.069691,-264.331334,0.7122,61.922378
3.5373,-0.003251,-0.001856,0.007841,-0.003481,-0.001559,0.003245,0.000182,-0.511549,0.006856,-0.069691,-264.331334,0.7122,61.922378
3.557,-0.003069,-0.001716,0.007135,-0.003399,-0.001584,0.003188,0.000182,-0.511549,0.006856,-0.069691,-264.331334,0.7122,61.922378
3.5769,-0.003374,-0.001393,0.007215,-0.003334,-0.001602,0.003147,0.000441,-0.511759,0.007254,-0.139682,-264.332575,0.780891,61.920648
3.5969,-0.003543,-0.002176,0.008702,-0.003363,-0.001602,0.003062,0.000371,-0.511609,0.007252,-0.139682,-264.332575,0.780891,61.920648
3.6171,-0.003632,-0.001815,0.007467,-0.003382,-0.001602,0.002999,0.000794,-0.512207,0.008797,-0.095569,-264.33385,0.813085,61.9188
3.6371,-0.003885,-0.001917,0.005825,-0.003361,-0.001539,0.002907,0.000227,-0.51184,0.007592,-0.095569,-264.33385,0.813085,61.9188
3.6571,-0.003638,-0.001848,0.007696,-0.003342,-0.001491,0.002837,0.000227,-0.51184,0.007592,-0.095569,-264.33385,0.813085,61.9188
3.677,-0.004083,-0.001566,0.006807,-0.003326,-0.001456,0.002785,0.000148,-0.511899,0.007819,-0.067824,-264.335183,0.793012,61.916905
3.6973,-0.004073,-0.00217,0.00763,-0.003174,-0.001454,0.002765,-0.00018,-0.511765,0.007417,-0.067824,-264.335183,0.793012,61.916905
3.7172,-0.004354,-0.001966,0.007719,-0.003057,-0.001454,0.00275,-0.000285,-0.512201,0.007716,-0.073486,-264.336494,0.759254,61.915103
3.737,-0.004165,-0.002077,0.00669,-0.002912,-0.001403,0.002698,-0.000411,-0.511974,0.007723,-0.073486,-264.336494,0.759254,61.915103
3.757,-0.004281,-0.002051,0.008094,-0.002798,-0.001366,0.002658,-0.000411,-0.511974,0.007723,-0.073486,-264.336494,0.759254,61.915103
3.777,-0.004129,-0.002158,0.009602,-0.002709,-0.001338,0.002628,-0.000277,-0.512094,0.008206,-0.073786,-264.337689,0.797695,61.913395
3.7973,-0.004283,-0.001978,0.007241,-0.002834,-0.001278,0.002496,0.000138,-0.512118,0.008793,-0.073786,-264.337689,0.797695,61.913395
3.8172,-0.005019,-0.002127,0.009005,-0.002926,-0.001232,0.002394,-0.000674,-0.512007,0.007323,-0.098012,-264.338752,0.826779,61.911833
3.8375,-0.00487,-0.002367,0.008865,-0.002804,-0.001208,0.002302,-0.000454,-0.5121,0.008857,-0.098012,-264.338752,0.826779,61.911833
3.8575,-0.004631,-0.002388,0.00779,-0.002709,-0.00119,0.00223,-0.000454,-0.5121,0.008857,-0.098012,-264.338752,0.826779,61.911833
3.8773,-0.004599,-0.002629,0.007454,-0.002635,-0.001177,0.002175,-0.000767,-0.51242,0.00788,-0.078428,-264.339798,0.75188,61.910416
3.8975,-0.004813,-0.00241,0.009214,-0.002509,-0.001085,0.002269,-0.000791,-0.512504,0.007718,-0.078428,-264.339798,0.75188,61.910416
3.9168,-0.005302,-0.002531,0.009128,-0.002411,-0.001014,0.002339,-0.000197,-0.512426,0.009283,-0.057379,-264.340847,0.760181,61.908971
3.9373,-0.005116,-0.002184,0.007785,-0.00239,-0.000955,0.002233,-0.000611,-0.512505,0.009145,-0.057379,-264.340847,0.760181,61.908971
3.9574,-0.00509,-0.00252,0.009183,-0.002371,-0.00091,0.002151,-0.000611,-0.512505,0.009145,-0.057379,-264.340847,0.760181,61.908971
3.9773,-0.005292,-0.002296,0.0068,-0.002354,-0.000876,0.002088,-0.000488,-0.512535,0.009259,-0.132493,-264.341631,0.791824,61.907871
3.9974,-0.005388,-0.002416,0.007718,-0.002217,-0.000881,0.002129,-0.001037,-0.512438,0.008274,-0.132493,-264.341631,0.791824,61.907871
4.0175,-0.00507,-0.002542,0.008545,-0.002111,-0.000885,0.002161,-0.001522,-0.512427,0.007781,-0.167696,-264.342529,0.740386,61.906672
4.0378,-0.00555,-0.002294,0.00895,-0.002107,-0.000862,0.002159,-0.000789,-0.512517,0.008479,-0.167696,-264.342529,0.740386,61.906672
4.0572,-0.005627,-0.002299,0.008336,-0.002103,-0.000845,0.002159,-0.000789,-0.512517,0.008479,-0.167696,-264.342529,0.740386,61.906672
4.0772,-0.005786,-0.002264,0.006988,-0.002098,-0.000832,0.002158,-0.001456,-0.512316,0.008419,-0.203259,-264.343323,0.807078,61.905548
4.097,-0.005484,-0.00247,0.007421,-0.001821,-0.000919,0.002251,-0.001794,-0.512292,0.007816,-0.203259,-264.343323,0.807078,61.905548
4.1173,-0.005498,-0.002802,0.009182,-0.001607,-0.000984,0.002319,-0.001764,-0.512482,0.007488,-0.227829,-264.344169,0.797581,61.904368
4.1372,-0.005567,-0.002225,0.008082,-0.001709,-0.000893,0.002229,-0.0009,-0.512756,0.009039,-0.227829,-264.344169,0.797581,61.904368
4.1572,-0.005605,-0.002566,0.00955,-0.001784,-0.000824,0.002159,-0.0009,-0.512756,0.009039,-0.227829,-264.344169,0.797581,61.904368
4.1773,-0.005973,-0.002454,0.009071,-0.001839,-0.000771,0.002105,-0.000775,-0.512564,0.009602,-0.262938,-264.344548,0.872015,61.90371
4.1971,-0.005783,-0.002462,0.008749,-0.001834,-0.000787,0.002026,-0.001012,-0.512514,0.009393,-0.262938,-264.344548,0.872015,61.90371
4.2171,-0.006058,-0.002587,0.008846,-0.001829,-0.000799,0.001965,-0.001379,-0.512468,0.008815,-0.272794,-264.3453,0.841095,61.902623
4.2376,-0.005823,-0.002348,0.008143,-0.001689,-0.000831,0.001973,-0.001535,-0.51256,0.008847,-0.272794,-264.3453,0.841095,61.902623
4.2574,-0.005589,-0.002688,0.009025,-0.001581,-0.000855,0.001978,-0.001535,-0.51256,0.008847,-0.272794,-264.3453,0.841095,61.902623
4.2772,-0.006286,-0.002409,0.00795,-0.001498,-0.000873,0.001982,-0.001059,-0.5127,0.009103,-0.215831,-264.346011,0.829816,61.901595
4.2969,-0.005896,-0.002571,0.009348,-0.001434,-0.000883,0.002006,-0.001546,-0.512578,0.008641,-0.215831,-264.346011,0.829816,61.901595
4.3173,-0.005855,-0.00237,0.008892,-0.001385,-0.00089,0.002024,-0.001167,-0.512571,0.009397,-0.221458,-264.346503,0.904885,61.900772
4.337,-0.005702,-0.002712,0.009048,-0.001393,-0.000934,0.002002,-0.001307,-0.512373,0.008945,-0.221458,-264.346503,0.904885,61.900772
4.3574,-0.006507,-0.002752,0.010578,-0.001399,-0.000966,0.001986,-0.001307,-0.512373,0.008945,-0.221458,-264.346503,0.904885,61.900772
4.3771,-0.006141,-0.002952,0.008565,-0.001404,-0.000991,0.001973,-0.001163,-0.512756,0.010651,-0.244577,-264.347,0.98009,61.899889
4.3973,-0.006219,-0.002481,0.009331,-0.001419,-0.000912,0.001892,-0.001411,-0.51283,0.00983,-0.244577,-264.347,0.98009,61.899889
4.4172,-0.006434,-0.002612,0.009993,-0.001429,-0.000853,0.001828,-0.001499,-0.512486,0.009386,-0.169965,-264.34749,1.002068,61.898989
4.4372,-0.006302,-0.003133,0.009113,-0.001431,-0.000858,0.001766,-0.001355,-0.512579,0.009938,-0.169965,-264.34749,1.002068,61.898989
4.4574,-0.00614,-0.002864,0.009627,-0.001432,-0.000862,0.001717,-0.001355,-0.512579,0.009938,-0.169965,-264.34749,1.002068,61.898989
4.4772,-0.006523,-0.002508,0.009317,-0.001432,-0.000865,0.001679,-0.001286,-0.512874,0.009699,-0.182724,-264.348038,0.942993,61.898071
4.4973,-0.006574,-0.002614,0.007812,-0.00141,-0.000842,0.001684,-0.001489,-0.512721,0.009553,-0.182724,-264.348038,0.942993,61.898071
4.5172,-0.006692,-0.002621,0.008977,-0.001392,-0.000824,0.001687,-0.002632,-0.512624,0.007861,-0.11213,-264.348567,0.922451,61.897201
4.5371,-0.006426,-0.002787,0.009881,-0.001216,-0.000872,0.001763,-0.002162,-0.512604,0.00888,-0.11213,-264.348567,0.922451,61.897201
4.5569,-0.00665,-0.002574,0.008613,-0.001081,-0.000908,0.00182,-0.002162,-0.512604,0.00888,-0.11213,-264.348567,0.922451,61.897201
4.5768,-0.006267,-0.003233,0.010471,-0.000976,-0.000934,0.001862,-0.002314,-0.51259,0.008683,-0.147052,-264.349119,0.927016,61.896292
4.5969,-0.006583,-0.002963,0.008753,-0.001008,-0.000882,0.00184,-0.001756,-0.512844,0.009419,-0.147052,-264.349119,0.927016,61.896292
4.6168,-0.006383,-0.002633,0.009584,-0.001031,-0.000842,0.001823,-0.002135,-0.512957,0.00878,-0.205207,-264.349313,1.002004,61.895846
4.6374,-0.006325,-0.003229,0.010797,-0.001081,-0.000845,0.001796,-0.001554,-0.512641,0.009513,-0.205207,-264.349313,1.002004,61.895846
4.6572,-0.006805,-0.003111,0.008954,-0.00112,-0.000848,0.001776,-0.001554,-0.512641,0.009513,-0.205207,-264.349313,1.002004,61.895846
4.6773,-0.006858,-0.002625,0.00947,-0.001148,-0.000849,0.00176,-0.002276,-0.513121,0.009019,-0.257282,-264.349677,1.077003,61.89509
4.6976,-0.006645,-0.003143,0.009757,-0.001052,-0.000828,0.001786,-0.002179,-0.512913,0.00921,-0.257282,-264.349677,1.077003,61.89509
4.7168,-0.006902,-0.003425,0.009011,-0.000977,-0.000811,0.001805,-0.001703,-0.513144,0.009808,-0.194069,-264.350103,1.032816,61.894275
4.7372,-0.006532,-0.002952,0.009953,-0.000946,-0.000721,0.001835,-0.002253,-0.513382,0.009086,-0.194069,-264.350103,1.032816,61.894275
4.7576,-0.006884,-0.002749,0.009004,-0.00092,-0.000651,0.001859,-0.002253,-0.513382,0.009086,-0.194069,-264.350103,1.032816,61.894275
4.7773,-0.006928,-0.00272,0.008643,-0.000898,-0.000597,0.001876,-0.002325,-0.512756,0.009065,-0.269074,-264.350432,1.09853,61.893582
4.7973,-0.00709,-0.002987,0.009269,-0.000792,-0.000684,0.001904,-0.002406,-0.512738,0.008905,-0.269074,-264.350432,1.09853,61.893582
4.8175,-0.007018,-0.002961,0.010161,-0.000712,-0.00075,0.001926,-0.002371,-0.512972,0.009284,-0.344061,-264.35055,1.095082,61.893361
4.8374,-0.006568,-0.003015,0.011413,-0.000793,-0.000726,0.001834,-0.001885,-0.512939,0.010083,-0.344061,-264.35055,1.095082,61.893361
4.8575,-0.006714,-0.002702,0.010988,-0.000854,-0.000708,0.001762,-0.001885,-0.512939,0.010083,-0.344061,-264.35055,1.095082,61.893361
4.8771,-0.006958,-0.00287,0.009982,-0.0009,-0.000695,0.001707,-0.001124,-0.512685,0.01102,-0.419069,-264.350692,1.17009,61.893011
4.897,-0.007005,-0.002877,0.012024,-0.001036,-0.000703,0.001621,-0.001427,-0.512751,0.010604,-0.419069,-264.350692,1.17009,61.893011
4.9171,-0.007142,-0.003267,0.009925,-0.001139,-0.000708,0.001553,-0.000897,-0.51286,0.012071,-0.368307,-264.351028,1.095085,61.892329
4.9373,-0.007093,-0.00286,0.008763,-0.001121,-0.00065,0.001544,-0.001975,-0.513209,0.01012,-0.368307,-264.351028,1.095085,61.892329
4.9573,-0.007169,-0.003034,0.010124,-0.001106,-0.000605,0.001536,-0.001975,-0.513209,0.01012,-0.368307,-264.351028,1.095085,61.892329
4.9776,-0.007063,-0.003118,0.010298,-0.001094,-0.00057,0.001529,-0.002029,-0.513023,0.01016,-0.293309,-264.351267,1.020088,61.891917
4.9972,-0.007063,-0.003569,0.011283,-0.001078,-0.000569,0.001512,-0.001943,-0.513053,0.01022,-0.293309,-264.351267,1.020088,61.891917
5.0172,-0.007402,-0.003095,0.010875,-0.001065,-0.000569,0.001499,-0.00134,-0.513553,0.011327,-0.320835,-264.35168,0.945087,61.891251
5.0378,-0.007424,-0.00324,0.010566,-0.001091,-0.000549,0.00144,-0.001811,-0.51311,0.010918,-0.320835,-264.35168,0.945087,61.891251
5.0572,-0.007142,-0.003094,0.011666,-0.00111,-0.000534,0.001393,-0.001811,-0.51311,0.010918,-0.320835,-264.35168,0.945087,61.891251
5.0772,-0.007334,-0.003207,0.010541,-0.001124,-0.000522,0.001356,-0.001237,-0.513083,0.011729,-0.314913,-264.352127,0.948315,61.890521
5.0973,-0.007184,-0.003001,0.010983,-0.001203,-0.000498,0.001305,-0.001534,-0.513125,0.011255,-0.314913,-264.352127,0.948315,61.890521
5.1171,-0.007222,-0.00323,0.008282,-0.001263,-0.000479,0.001264,-0.001614,-0.512985,0.011021,-0.26549,-264.352541,0.876494,61.889897
5.1373,-0.007619,-0.003264,0.0102,-0.001041,-0.000535,0.001491,-0.002881,-0.513194,0.008518,-0.26549,-264.352541,0.876494,61.889897
5.1574,-0.007569,-0.00299,0.009058,-0.000868,-0.000575,0.001661,-0.002881,-0.513194,0.008518,-0.26549,-264.352541,0.876494,61.889897
5.1774,-0.007264,-0.003126,0.011815,-0.000734,-0.000605,0.001789,-0.002993,-0.512987,0.009104,-0.228226,-264.352979,0.801353,61.889296
5.1973,-0.00722,-0.0032,0.010577,-0.000728,-0.000616,0.001717,-0.002275,-0.513032,0.010226,-0.228226,-264.352979,0.801353,61.889296
5.2172,-0.007405,-0.003467,0.008899,-0.000723,-0.000624,0.00166,-0.001826,-0.513172,0.010578,-0.303365,-264.352984,0.876492,61.889285
5.2373,-0.007373,-0.00313,0.011781,-0.000658,-0.000597,0.001725,-0.002772,-0.513422,0.009052,-0.303365,-264.352984,0.876492,61.889285
5.2572,-0.007202,-0.003341,0.010446,-0.000607,-0.000576,0.001774,-0.002772,-0.513422,0.009052,-0.303365,-264.352984,0.876492,61.889285
5.2776,-0.007309,-0.002628,0.010847,-0.000566,-0.000559,0.001812,-0.00188,-0.513317,0.010456,-0.378201,-264.353036,0.951327,61.889172
5.2974,-0.007479,-0.00333,0.010465,-0.000695,-0.000561,0.001692,-0.001839,-0.513023,0.010617,-0.378201,-264.353036,0.951327,61.889172
5.3171,-0.007779,-0.003087,0.012266,-0.000793,-0.000563,0.001597,-0.002143,-0.513303,0.010466,-0.453192,-264.353042,1.026319,61.889158
5.3372,-0.007277,-0.003277,0.008772,-0.000936,-0.000542,0.001445,-0.001579,-0.513071,0.012103,-0.453192,-264.353042,1.026319,61.889158
5.3578,-0.007584,-0.003078,0.008569,-0.001044,-0.000527,0.001322,-0.001579,-0.513071,0.012103,-0.453192,-264.353042,1.026319,61.889158
5.3769,-0.007539,-0.003092,0.011618,-0.001127,-0.000514,0.001223,-0.003244,-0.513081,0.008631,-0.479841,-264.35337,1.094962,61.888524
5.3972,-0.007805,-0.003269,0.009904,-0.000971,-0.000563,0.001298,-0.002588,-0.513074,0.009847,-0.479841,-264.35337,1.094962,61.888524
5.417,-0.007661,-0.002795,0.009411,-0.000851,-0.000599,0.001354,-0.002758,-0.513245,0.009909,-0.404851,-264.353418,1.019971,61.888454
5.437,-0.007463,-0.00322,0.010124,-0.000687,-0.000694,0.001436,-0.002852,-0.512815,0.009456,-0.404851,-264.353418,1.019971,61.888454
5.457,-0.007623,-0.003431,0.010878,-0.000561,-0.000766,0.001498,-0.002852,-0.512815,0.009456,-0.404851,-264.353418,1.019971,61.888454
5.4772,-0.007612,-0.003312,0.009791,-0.000464,-0.00082,0.001545,-0.0021,-0.513418,0.01092,-0.329842,-264.353671,1.032899,61.887976
5.4972,-0.007724,-0.003327,0.010603,-0.00054,-0.000727,0.001498,-0.002314,-0.513367,0.010467,-0.329842,-264.353671,1.032899,61.887976
5.518,-0.007738,-0.00298,0.011325,-0.000597,-0.000655,0.001461,-0.002322,-0.513305,0.010615,-0.261452,-264.353721,1.107899,61.887787
5.5372,-0.007548,-0.002944,0.011206,-0.000676,-0.000648,0.001375,-0.002005,-0.51299,0.011241,-0.261452,-264.353721,1.107899,61.887787
5.5573,-0.007632,-0.002863,0.01143,-0.000736,-0.000643,0.001307,-0.002005,-0.51299,0.011241,-0.261452,-264.353721,1.107899,61.887787
5.5772,-0.007614,-0.003036,0.010031,-0.000781,-0.000639,0.001253,-0.00182,-0.512849,0.011472,-0.33645,-264.3539,1.182897,61.887326
5.5973,-0.007692,-0.003346,0.010089,-0.000788,-0.000656,0.001232,-0.002097,-0.512916,0.010891,-0.33645,-264.3539,1.182897,61.887326
5.6172,-0.00773,-0.003297,0.010109,-0.000793,-0.000669,0.001216,-0.002558,-0.51333,0.01011,-0.261444,-264.354052,1.107891,61.887017
5.6376,-0.007726,-0.003213,0.010865,-0.000733,-0.000642,0.001269,-0.002574,-0.513277,0.01011,-0.261444,-264.354052,1.107891,61.887017
5.6572,-0.008109,-0.002959,0.010794,-0.000685,-0.000621,0.00131,-0.002574,-0.513277,0.01011,-0.261444,-264.354052,1.107891,61.887017
5.6771,-0.007915,-0.003326,0.009079,-0.000647,-0.000605,0.001341,-0.002624,-0.512946,0.010826,-0.186445,-264.354246,1.05876,61.886621
5.697,-0.007677,-0.003224,0.010325,-0.000545,-0.000646,0.001367,-0.002896,-0.513094,0.010118,-0.186445,-264.354246,1.05876,61.886621
5.7173,-0.007792,-0.003421,0.012079,-0.000464,-0.000677,0.001388,-0.002426,-0.513211,0.010353,-0.261444,-264.354429,1.133758,61.886202
5.7372,-0.007817,-0.003468,0.010539,-0.000674,-0.000584,0.001287,-0.001704,-0.513369,0.011926,-0.261444,-264.354429,1.133758,61.886202
5.757,-0.007996,-0.002968,0.010335,-0.000833,-0.000512,0.001207,-0.001704,-0.513369,0.011926,-0.261444,-264.354429,1.133758,61.886202
5.7773,-0.007752,-0.003266,0.010459,-0.000954,-0.000457,0.001142,-0.002738,-0.512959,0.010371,-0.336445,-264.354555,1.20876,61.885796
5.7972,-0.008238,-0.003602,0.010608,-0.000829,-0.000518,0.001187,-0.002609,-0.513075,0.010411,-0.336445,-264.354555,1.20876,61.885796
5.8171,-0.008046,-0.003035,0.010486,-0.000733,-0.000564,0.001222,-0.002832,-0.513576,0.010614,-0.261455,-264.354615,1.13377,61.885706
5.8373,-0.007893,-0.003148,0.009143,-0.000639,-0.000609,0.001243,-0.00271,-0.513059,0.010498,-0.261455,-264.354615,1.13377,61.885706
5.8573,-0.007813,-0.003707,0.010158,-0.000566,-0.000642,0.001259,-0.00271,-0.513059,0.010498,-0.261455,-264.354615,1.13377,61.885706
5.8772,-0.007894,-0.003458,0.010109,-0.00051,-0.000667,0.001271,-0.002661,-0.513702,0.010204,-0.24308,-264.354891,1.060904,61.885157
5.8975,-0.008029,-0.00333,0.009865,-0.000516,-0.000597,0.001309,-0.002696,-0.513595,0.010171,-0.24308,-264.354891,1.060904,61.885157
5.9173,-0.007921,-0.003462,0.009622,-0.000519,-0.000543,0.001339,-0.003009,-0.513318,0.00989,-0.211413,-264.355019,1.135946,61.884779
5.9375,-0.007891,-0.003208,0.00998,-0.000451,-0.000549,0.001408,-0.003014,-0.513428,0.009647,-0.211413,-264.355019,1.135946,61.884779
5.9573,-0.007968,-0.003551,0.010018,-0.000398,-0.000553,0.001461,-0.003014,-0.513428,0.009647,-0.211413,-264.355019,1.135946,61.884779
5.9775,-0.007663,-0.003286,0.009956,-0.000357,-0.000556,0.001502,-0.002865,-0.513533,0.010032,-0.286371,-264.355083,1.206451,61.88462
5.9973,-0.007956,-0.0037,0.01051,-0.000369,-0.000541,0.001501,-0.002751,-0.513422,0.010002,-0.286371,-264.355083,1.206451,61.88462
6.0172,-0.007844,-0.003715,0.010486,-0.000378,-0.000529,0.0015,-0.002596,-0.513672,0.01051,-0.361364,-264.355086,1.281444,61.884614
6.0377,-0.008077,-0.00349,0.011476,-0.000453,-0.000465,0.001464,-0.002505,-0.513685,0.010488,-0.361364,-264.355086,1.281444,61.884614
6.0574,-0.008241,-0.00325,0.011712,-0.00051,-0.000415,0.001436,-0.002505,-0.513685,0.010488,-0.361364,-264.355086,1.281444,61.884614
6.0775,-0.008233,-0.003072,0.009881,-0.000554,-0.000377,0.001414,-0.002269,-0.513217,0.011714,-0.436365,-264.355095,1.315102,61.884588
6.0976,-0.007916,-0.00345,0.009942,-0.000514,-0.000444,0.00136,-0.002645,-0.513148,0.010968,-0.436365,-264.355095,1.315102,61.884588
6.1169,-0.008154,-0.003543,0.01218,-0.000484,-0.000495,0.001317,-0.002848,-0.513427,0.009949,-0.511366,-264.355146,1.240101,61.884493
6.1373,-0.008126,-0.003262,0.007966,-0.00062,-0.000438,0.001228,-0.002025,-0.513499,0.011977,-0.511366,-264.355146,1.240101,61.884493
6.1578,-0.007688,-0.003396,0.010549,-0.000723,-0.000394,0.001157,-0.002025,-0.513499,0.011977,-0.511366,-264.355146,1.240101,61.884493
6.1774,-0.008084,-0.003527,0.011328,-0.000802,-0.00036,0.0011,-0.002327,-0.513388,0.010601,-0.568074,-264.355362,1.214117,61.883973
6.1976,-0.008276,-0.00355,0.011561,-0.000793,-0.000362,0.001117,-0.002321,-0.513433,0.0109,-0.568074,-264.355362,1.214117,61.883973
6.2172,-0.008036,-0.003898,0.01036,-0.000787,-0.000362,0.001129,-0.002382,-0.513518,0.011566,-0.493106,-264.355403,1.139149,61.88391
6.237,-0.007964,-0.003346,0.010066,-0.000742,-0.000328,0.001176,-0.002719,-0.513838,0.010469,-0.493106,-264.355403,1.139149,61.88391
6.2573,-0.008105,-0.003124,0.009894,-0.000706,-0.000301,0.001212,-0.002719,-0.513838,0.010469,-0.493106,-264.355403,1.139149,61.88391
6.2771,-0.007943,-0.003669,0.011714,-0.000677,-0.00028,0.00124,-0.003071,-0.513106,0.009915,-0.418168,-264.355546,1.06421,61.88369
6.2977,-0.008248,-0.003233,0.011202,-0.000627,-0.000336,0.001243,-0.002623,-0.513322,0.010652,-0.418168,-264.355546,1.06421,61.88369
6.3174,-0.007701,-0.003138,0.011397,-0.000589,-0.000379,0.001246,-0.002547,-0.513206,0.01122,-0.493166,-264.35571,0.992093,61.883444
6.3376,-0.008066,-0.003508,0.010887,-0.000686,-0.00041,0.001193,-0.001947,-0.513114,0.011383,-0.493166,-264.35571,0.992093,61.883444
6.3572,-0.008005,-0.003761,0.011305,-0.00076,-0.000434,0.001152,-0.001947,-0.513114,0.011383,-0.493166,-264.35571,0.992093,61.883444
6.3772,-0.008191,-0.003469,0.011124,-0.000816,-0.000452,0.00112,-0.002258,-0.513741,0.011345,-0.568216,-264.355924,1.067144,61.883054
6.3975,-0.008312,-0.003548,0.01265,-0.000814,-0.000406,0.001112,-0.002366,-0.513618,0.011259,-0.568216,-264.355924,1.067144,61.883054
6.4171,-0.00849,-0.003704,0.013068,-0.000811,-0.000369,0.001105,-0.001866,-0.51351,0.012659,-0.493223,-264.355992,0.992151,61.882942
6.4374,-0.008427,-0.003538,0.011331,-0.000924,-0.000307,0.001024,-0.001829,-0.513647,0.013032,-0.493223,-264.355992,0.992151,61.882942
6.4571,-0.00832,-0.003152,0.009841,-0.00101,-0.000259,0.000957,-0.001829,-0.513647,0.013032,-0.493223,-264.355992,0.992151,61.882942
6.4775,-0.008159,-0.003492,0.009669,-0.001076,-0.000222,0.000903,-0.003324,-0.513137,0.009874,-0.418255,-264.356227,0.917183,61.882584
6.4973,-0.008146,-0.003179,0.010077,-0.00083,-0.00035,0.001062,-0.003288,-0.513273,0.009794,-0.418255,-264.356227,0.917183,61.882584
6.5169,-0.00846,-0.003378,0.012206,-0.000637,-0.000446,0.001183,-0.003012,-0.513155,0.010084,-0.343257,-264.356314,0.842184,61.882481
6.5372,-0.008271,-0.003502,0.010882,-0.000665,-0.000442,0.001117,-0.002304,-0.513323,0.012017,-0.343257,-264.356314,0.842184,61.882481
6.5569,-0.008006,-0.003405,0.011425,-0.000685,-0.000438,0.001064,-0.002304,-0.513323,0.012017,-0.343257,-264.356314,0.842184,61.882481
6.577,-0.008487,-0.003496,0.012795,-0.0007,-0.000435,0.001022,-0.002191,-0.513378,0.011443,-0.40844,-264.356425,0.917177,61.882268
6.5971,-0.007682,-0.003946,0.010162,-0.000762,-0.000407,0.000989,-0.002098,-0.51341,0.012,-0.40844,-264.356425,0.917177,61.882268
6.6172,-0.00811,-0.003341,0.010323,-0.000809,-0.000386,0.000963,-0.002515,-0.513928,0.010184,-0.333357,-264.356617,0.986765,61.881933
6.6374,-0.008615,-0.003119,0.010791,-0.000702,-0.000423,0.001055,-0.002817,-0.513369,0.010312,-0.333357,-264.356617,0.986765,61.881933
6.6571,-0.007954,-0.003517,0.010873,-0.000619,-0.000451,0.001127,-0.002817,-0.513369,0.010312,-0.333357,-264.356617,0.986765,61.881933
6.677,-0.008118,-0.003255,0.010164,-0.000554,-0.000472,0.001183,-0.002433,-0.513499,0.010903,-0.258349,-264.356859,0.911756,61.881564
6.697,-0.008296,-0.003382,0.010332,-0.000538,-0.000472,0.001204,-0.00264,-0.51339,0.010605,-0.258349,-264.356859,0.911756,61.881564
6.7168,-0.00833,-0.003533,0.011875,-0.000525,-0.000473,0.00122,-0.003033,-0.513359,0.010342,-0.333261,-264.356928,0.986668,61.881415
6.737,-0.007925,-0.003528,0.010771,-0.000582,-0.000438,0.001163,-0.002343,-0.513484,0.011737,-0.333261,-264.356928,0.986668,61.881415
6.7571,-0.00857,-0.003558,0.010401,-0.000626,-0.000411,0.001117,-0.002343,-0.513484,0.011737,-0.333261,-264.356928,0.986668,61.881415
6.7771,-0.00822,-0.003884,0.008351,-0.000658,-0.000391,0.00108,-0.003277,-0.513539,0.010421,-0.408262,-264.35703,1.06167,61.881187
6.7972,-0.008298,-0.003686,0.010189,-0.000499,-0.000433,0.00122,-0.003554,-0.513672,0.009588,-0.408262,-264.35703,1.06167,61.881187
6.817,-0.008345,-0.003541,0.010882,-0.000374,-0.000464,0.001327,-0.003122,-0.513672,0.010222,-0.387472,-264.357302,1.011021,61.880714
6.8371,-0.00837,-0.003298,0.009607,-0.000376,-0.000455,0.001304,-0.002826,-0.513526,0.010823,-0.387472,-264.357302,1.011021,61.880714
6.8569,-0.008103,-0.003449,0.012114,-0.000376,-0.000449,0.001286,-0.002826,-0.513526,0.010823,-0.387472,-264.357302,1.011021,61.880714
6.8772,-0.008569,-0.003633,0.010175,-0.000376,-0.000445,0.001271,-0.001925,-0.513413,0.012116,-0.462581,-264.357309,1.08613,61.880695
6.8971,-0.008777,-0.003484,0.012335,-0.00043,-0.000427,0.001226,-0.002521,-0.513492,0.011321,-0.462581,-264.357309,1.08613,61.880695
6.9168,-0.008526,-0.00348,0.011381,-0.000471,-0.000413,0.001191,-0.002489,-0.513448,0.012342,-0.53757,-264.357347,1.16112,61.880597
6.9372,-0.008421,-0.003506,0.011595,-0.000465,-0.000421,0.001156,-0.002702,-0.513447,0.011464,-0.53757,-264.357347,1.16112,61.880597
6.957,-0.008498,-0.003377,0.010871,-0.00046,-0.000428,0.001128,-0.002702,-0.513447,0.011464,-0.53757,-264.357347,1.16112,61.880597
6.9771,-0.008305,-0.003562,0.010458,-0.000456,-0.000432,0.001106,-0.002972,-0.513364,0.010919,-0.5884,-264.357565,1.179138,61.880123
6.9971,-0.008687,-0.003282,0.012058,-0.000404,-0.000457,0.001137,-0.002974,-0.513438,0.010729,-0.5884,-264.357565,1.179138,61.880123
7.0168,-0.008707,-0.003467,0.010916,-0.000363,-0.000475,0.001162,-0.00255,-0.513257,0.012088,-0.51296,-264.357741,1.180039,61.879715
7.0369,-0.008814,-0.00367,0.012229,-0.000312,-0.0005,0.001163,-0.00309,-0.513422,0.011018,-0.51296,-264.357741,1.180039,61.879715
7.0572,-0.008412,-0.00403,0.011954,-0.000272,-0.000518,0.001164,-0.00309,-0.513422,0.011018,-0.51296,-264.357741,1.180039,61.879715
7.077,-0.008574,-0.003593,0.012235,-0.00024,-0.000532,0.001164,-0.002329,-0.51401,0.011994,-0.573238,-264.357882,1.254619,61.879309
7.0972,-0.008224,-0.003734,0.011709,-0.000389,-0.000436,0.001106,-0.002332,-0.513825,0.012097,-0.573238,-264.357882,1.254619,61.879309
7.117,-0.008429,-0.002931,0.012306,-0.000502,-0.000361,0.001059,-0.002259,-0.513711,0.011735,-0.640076,-264.357969,1.329632,61.878942
7.1372,-0.00883,-0.003691,0.01291,-0.000554,-0.000438,0.001003,-0.002163,-0.512964,0.012258,-0.640076,-264.357969,1.329632,61.878942
7.157,-0.008799,-0.003694,0.011219,-0.000595,-0.000496,0.000958,-0.002163,-0.512964,0.012258,-0.640076,-264.357969,1.329632,61.878942
7.1775,-0.008899,-0.00384,0.011345,-0.000627,-0.00054,0.000923,-0.003084,-0.513668,0.011235,-0.565113,-264.358052,1.254669,61.878781
7.1971,-0.008506,-0.003718,0.011105,-0.000546,-0.000507,0.000961,-0.003097,-0.513726,0.011282,-0.565113,-264.358052,1.254669,61.878781
7.2168,-0.008523,-0.003934,0.010652,-0.000482,-0.00048,0.00099,-0.002843,-0.513687,0.011105,-0.490096,-264.358053,1.179652,61.878779
7.2376,-0.008877,-0.003354,0.011077,-0.000448,-0.000435,0.001053,-0.003069,-0.513886,0.010692,-0.490096,-264.358053,1.179652,61.878779
7.2572,-0.008339,-0.003677,0.011611,-0.00042,-0.000399,0.001102,-0.003069,-0.513886,0.010692,-0.490096,-264.358053,1.179652,61.878779
7.2773,-0.008719,-0.003545,0.012349,-0.000397,-0.000371,0.00114,-0.002426,-0.51365,0.011628,-0.415104,-264.358133,1.15262,61.878587
7.2972,-0.009002,-0.003695,0.012408,-0.000471,-0.000348,0.00109,-0.002425,-0.513592,0.011925,-0.415104,-264.358133,1.15262,61.878587
7.3171,-0.008658,-0.003651,0.012176,-0.000528,-0.00033,0.00105,-0.002678,-0.51366,0.012418,-0.490131,-264.358192,1.214509,61.878457
7.3372,-0.008729,-0.003673,0.012311,-0.000565,-0.000315,0.001007,-0.002469,-0.513618,0.012198,-0.490131,-264.358192,1.214509,61.878457
7.3572,-0.008828,-0.003969,0.010979,-0.000594,-0.000303,0.000973,-0.002469,-0.513618,0.012198,-0.490131,-264.358192,1.214509,61.878457
7.3772,-0.009166,-0.003584,0.012053,-0.000616,-0.000294,0.000945,-0.003244,-0.513948,0.011011,-0.533301,-264.358365,1.139639,61.878146
7.3973,-0.009031,-0.00389,0.010176,-0.000529,-0.000309,0.000967,-0.003153,-0.513785,0.011441,-0.533301,-264.358365,1.139639,61.878146
7.4172,-0.008618,-0.003651,0.012165,-0.00046,-0.000319,0.000985,-0.00385,-0.513868,0.010192,-0.458155,-264.358497,1.064492,61.877937
7.4376,-0.008863,-0.003636,0.01148,-0.0005,-0.000307,0.000962,-0.002537,-0.513636,0.011998,-0.458155,-264.358497,1.064492,61.877937
7.457,-0.008782,-0.002889,0.012165,-0.000531,-0.000298,0.000945,-0.002537,-0.513636,0.011998,-0.458155,-264.358497,1.064492,61.877937
7.4769,-0.008493,-0.003482,0.011604,-0.000555,-0.00029,0.000931,-0.002594,-0.512863,0.012199,-0.533158,-264.35868,1.10739,61.877589
7.497,-0.008918,-0.003304,0.011626,-0.000517,-0.00038,0.000918,-0.002588,-0.513102,0.011961,-0.533158,-264.35868,1.10739,61.877589
7.5173,-0.008707,-0.003713,0.011386,-0.000489,-0.000447,0.000907,-0.003002,-0.513277,0.011649,-0.464675,-264.35887,1.032526,61.877276
7.5373,-0.009123,-0.003828,0.011429,-0.000457,-0.00043,0.000936,-0.00291,-0.513644,0.011411,-0.464675,-264.35887,1.032526,61.877276
7.5571,-0.009173,-0.003477,0.011795,-0.000433,-0.000417,0.000959,-0.00291,-0.513644,0.011411,-0.464675,-264.35887,1.032526,61.877276
7.5776,-0.00876,-0.003817,0.011565,-0.000413,-0.000406,0.000977,-0.003164,-0.513447,0.011808,-0.389709,-264.358935,1.107492,61.877131
7.5977,-0.008672,-0.003438,0.011685,-0.000371,-0.000416,0.000975,-0.003042,-0.513584,0.011711,-0.389709,-264.358935,1.107492,61.877131
7.6172,-0.008758,-0.003708,0.01026,-0.000338,-0.000423,0.000973,-0.002724,-0.513414,0.011713,-0.431919,-264.359097,1.17995,61.876743
7.637,-0.009162,-0.003799,0.012444,-0.000254,-0.000448,0.001063,-0.003454,-0.513658,0.010392,-0.431919,-264.359097,1.17995,61.876743
7.6572,-0.008528,-0.003621,0.01016,-0.000188,-0.000467,0.001133,-0.003454,-0.513658,0.010392,-0.431919,-264.359097,1.17995,61.876743
7.6769,-0.008698,-0.003483,0.011115,-0.000136,-0.000481,0.001188,-0.003359,-0.513611,0.010197,-0.470228,-264.359234,1.250109,61.876356
7.6974,-0.009014,-0.003519,0.011382,-0.00012,-0.000493,0.001215,-0.003228,-0.513549,0.010569,-0.470228,-264.359234,1.250109,61.876356
7.7174,-0.008899,-0.003423,0.010908,-0.000108,-0.000501,0.001237,-0.003209,-0.513486,0.011382,-0.545236,-264.359234,1.325117,61.876355
7.7371,-0.008979,-0.003112,0.011277,-7.1e-05,-0.000538,0.001229,-0.003323,-0.513402,0.010955,-0.545236,-264.359234,1.325117,61.876355
7.7569,-0.008761,-0.003742,0.010658,-4.3e-05,-0.000566,0.001222,-0.003323,-0.513402,0.010955,-0.545236,-264.359234,1.325117,61.876355
7.7769,-0.008961,-0.003623,0.011453,-2.1e-05,-0.000588,0.001217,-0.003326,-0.513713,0.010658,-0.620214,-264.359235,1.400095,61.876355
7.797,-0.008791,-0.003691,0.012307,-3.9e-05,-0.000559,0.001211,-0.003241,-0.513662,0.010985,-0.620214,-264.359235,1.400095,61.876355
7.8171,-0.008719,-0.003794,0.012726,-5.3e-05,-0.000537,0.001207,-0.002515,-0.513652,0.012307,-0.695348,-264.359235,1.475229,61.876355
7.8371,-0.00908,-0.003898,0.012326,-0.000252,-0.000447,0.001119,-0.002254,-0.513744,0.012689,-0.695348,-264.359235,1.475229,61.876355
7.8571,-0.008602,-0.003924,0.010826,-0.000405,-0.000377,0.001048,-0.002254,-0.513744,0.012689,-0.695348,-264.359235,1.475229,61.876355
7.8775,-0.008715,-0.003812,0.010386,-0.000522,-0.000323,0.000991,-0.003081,-0.513894,0.010826,-0.770317,-264.359235,1.529419,61.876354
7.8972,-0.008722,-0.003643,0.0115,-0.000448,-0.000329,0.001059,-0.003218,-0.51385,0.010648,-0.770317,-264.359235,1.529419,61.876354
7.917,-0.008754,-0.003478,0.012852,-0.00039,-0.000333,0.001112,-0.002857,-0.51361,0.0115,-0.69543,-264.359236,1.454532,61.876351
7.9369,-0.008774,-0.003658,0.012021,-0.000486,-0.000332,0.001035,-0.002259,-0.513452,0.01273,-0.69543,-264.359236,1.454532,61.876351
7.9569,-0.009056,-0.003531,0.013281,-0.000561,-0.000332,0.000974,-0.002259,-0.513452,0.01273,-0.69543,-264.359236,1.454532,61.876351
7.9769,-0.008584,-0.003582,0.011459,-0.000618,-0.000331,0.000924,-0.002287,-0.513491,0.013298,-0.725982,-264.359311,1.379522,61.876196
7.9969,-0.008728,-0.003636,0.011552,-0.000624,-0.000333,0.000894,-0.00248,-0.513516,0.012518,-0.725982,-264.359311,1.379522,61.876196
8.0174,-0.009199,-0.004073,0.011455,-0.000628,-0.000334,0.000869,-0.002836,-0.513602,0.011552,-0.650447,-264.359313,1.303987,61.876193
8.0371,-0.008758,-0.003509,0.011791,-0.000534,-0.000323,0.000909,-0.003306,-0.513997,0.011464,-0.650447,-264.359313,1.303987,61.876193
8.0572,-0.008765,-0.003507,0.012791,-0.000458,-0.000313,0.00094,-0.003306,-0.513997,0.011464,-0.650447,-264.359313,1.303987,61.876193
8.0771,-0.008775,-0.003843,0.011683,-0.000399,-0.000304,0.000963,-0.002242,-0.513466,0.012792,-0.57559,-264.359317,1.22913,61.876186
8.0969,-0.008675,-0.003599,0.01104,-0.000461,-0.000296,0.00093,-0.002477,-0.513606,0.012339,-0.57559,-264.359317,1.22913,61.876186
8.1171,-0.009153,-0.004016,0.012449,-0.000509,-0.00029,0.000903,-0.003056,-0.513577,0.011067,-0.619645,-264.359489,1.154454,61.875842
8.137,-0.008923,-0.003763,0.01078,-0.00051,-0.00026,0.000888,-0.002827,-0.513941,0.012327,-0.619645,-264.359489,1.154454,61.875842
8.157,-0.009006,-0.00377,0.011379,-0.00051,-0.000236,0.000875,-0.002827,-0.513941,0.012327,-0.619645,-264.359489,1.154454,61.875842
8.1771,-0.009187,-0.003937,0.012314,-0.000509,-0.000218,0.000865,-0.003214,-0.513744,0.011401,-0.544711,-264.359616,1.07952,61.875625
8.1968,-0.008824,-0.003685,0.012262,-0.000453,-0.00024,0.000883,-0.003091,-0.513807,0.011774,-0.544711,-264.359616,1.07952,61.875625
8.2168,-0.009294,-0.003999,0.012562,-0.000409,-0.000256,0.000897,-0.002583,-0.513653,0.012285,-0.547234,-264.359814,1.004518,61.875325
8.2371,-0.008973,-0.003955,0.011992,-0.000424,-0.000236,0.000873,-0.00286,-0.513931,0.012539,-0.547234,-264.359814,1.004518,61.875325
8.257,-0.009448,-0.003841,0.011906,-0.000435,-0.00022,0.000855,-0.00286,-0.513931,0.012539,-0.547234,-264.359814,1.004518,61.875325
8.2772,-0.009016,-0.003968,0.011185,-0.000443,-0.000208,0.000839,-0.00339,-0.513814,0.011936,-0.618397,-264.359974,1.079516,61.875037
8.2971,-0.008805,-0.00406,0.011307,-0.000364,-0.000243,0.000872,-0.00336,-0.513864,0.011634,-0.618397,-264.359974,1.079516,61.875037
8.3173,-0.00923,-0.003854,0.010868,-0.000302,-0.000269,0.000898,-0.003052,-0.514034,0.011332,-0.602042,-264.360176,1.019027,61.87472
8.337,-0.009302,-0.003641,0.0105,-0.000213,-0.000313,0.000966,-0.00363,-0.513844,0.010912,-0.602042,-264.360176,1.019027,61.87472
8.3573,-0.009093,-0.003575,0.011579,-0.000142,-0.000346,0.00102,-0.00363,-0.513844,0.010912,-0.602042,-264.360176,1.019027,61.87472
8.377,-0.008914,-0.003723,0.009203,-8.8e-05,-0.000372,0.001062,-0.003193,-0.513545,0.011592,-0.677045,-264.360238,1.09403,61.874587
8.3973,-0.008897,-0.003991,0.010295,-2.6e-05,-0.000425,0.001115,-0.003611,-0.513609,0.010624,-0.677045,-264.360238,1.09403,61.874587
8.4171,-0.009062,-0.003976,0.012038,2.1e-05,-0.000465,0.001157,-0.003646,-0.513964,0.010295,-0.752044,-264.360238,1.169029,61.874587
8.4373,-0.009168,-0.003726,0.011252,-7e-05,-0.000405,0.00111,-0.002981,-0.513941,0.011897,-0.752044,-264.360238,1.169029,61.874587
8.4573,-0.009342,-0.003887,0.012138,-0.00014,-0.000359,0.001073,-0.002981,-0.513941,0.011897,-0.752044,-264.360238,1.169029,61.874587
8.4773,-0.00926,-0.004119,0.012043,-0.000194,-0.000323,0.001044,-0.003151,-0.51385,0.012138,-0.827319,-264.360238,1.244304,61.874587
8.4973,-0.008964,-0.003665,0.011875,-0.000209,-0.000306,0.001012,-0.003138,-0.513944,0.0121,-0.827319,-264.360238,1.244304,61.874587
8.5171,-0.008992,-0.004145,0.011958,-0.000221,-0.000292,0.000986,-0.002911,-0.513634,0.011889,-0.902043,-264.360301,1.319028,61.87442
8.5375,-0.009278,-0.003732,0.012592,-0.00028,-0.00025,0.000971,-0.002895,-0.514066,0.011952,-0.902043,-264.360301,1.319028,61.87442
8.5576,-0.009243,-0.003974,0.011002,-0.000326,-0.000217,0.00096,-0.002895,-0.514066,0.011952,-0.902043,-264.360301,1.319028,61.87442
8.5769,-0.009272,-0.003599,0.011903,-0.000361,-0.000191,0.00095,-0.003641,-0.513955,0.011041,-0.950549,-264.360448,1.328275,61.874066
8.5975,-0.009139,-0.003682,0.012253,-0.000276,-0.000248,0.000975,-0.003463,-0.513796,0.011397,-0.950549,-264.360448,1.328275,61.874066
8.6168,-0.009527,-0.003491,0.011919,-0.00021,-0.000291,0.000995,-0.002894,-0.513646,0.012266,-0.875546,-264.360536,1.253273,61.873924
8.6372,-0.00916,-0.003842,0.01074,-0.000141,-0.000369,0.000979,-0.003399,-0.513472,0.011951,-0.875546,-264.360536,1.253273,61.873924
8.657,-0.009363,-0.003633,0.013917,-8.8e-05,-0.000429,0.000966,-0.003399,-0.513472,0.011951,-0.875546,-264.360536,1.253273,61.873924
8.6773,-0.009038,-0.004071,0.012312,-4.7e-05,-0.000474,0.000955,-0.002272,-0.513592,0.013947,-0.950539,-264.360648,1.328265,61.873653
8.6971,-0.009484,-0.003886,0.010433,-0.000203,-0.000405,0.000896,-0.002469,-0.513771,0.013292,-0.950539,-264.360648,1.328265,61.873653
8.7168,-0.00923,-0.003926,0.012888,-0.000322,-0.000351,0.000849,-0.004164,-0.513862,0.01044,-1.025539,-264.36066,1.403265,61.873543
8.7374,-0.009015,-0.003918,0.012332,-0.000363,-0.000314,0.000832,-0.002792,-0.513882,0.012669,-1.025539,-264.36066,1.403265,61.873543
8.7569,-0.009058,-0.003985,0.011881,-0.000395,-0.000284,0.000818,-0.002792,-0.513882,0.012669,-1.025539,-264.36066,1.403265,61.873543
8.7783,-0.009401,-0.003563,0.011683,-0.000419,-0.000261,0.000806,-0.002999,-0.513949,0.011881,-0.950499,-264.36066,1.328225,61.873542
8.7976,-0.009161,-0.004002,0.012845,-0.000364,-0.000285,0.000836,-0.00318,-0.513777,0.0118,-0.950499,-264.36066,1.328225,61.873542
8.8168,-0.009214,-0.004215,0.01208,-0.000321,-0.000302,0.00086,-0.00261,-0.51396,0.012845,-0.875528,-264.360663,1.253254,61.873538
8.8375,-0.009164,-0.003822,0.011179,-0.000346,-0.000254,0.000863,-0.003018,-0.51416,0.012143,-0.875528,-264.360663,1.253254,61.873538
8.8571,-0.009268,-0.003748,0.012007,-0.000365,-0.000216,0.000865,-0.003018,-0.51416,0.012143,-0.875528,-264.360663,1.253254,61.873538
8.8774,-0.009482,-0.003836,0.013667,-0.000379,-0.000186,0.000867,-0.003148,-0.513715,0.012018,-0.800147,-264.360709,1.200376,61.873433
8.8974,-0.009302,-0.003847,0.013719,-0.000376,-0.00021,0.000843,-0.002891,-0.513745,0.012688,-0.800147,-264.360709,1.200376,61.873433
8.9172,-0.009224,-0.003768,0.013122,-0.000374,-0.000228,0.000823,-0.002315,-0.513804,0.01374,-0.736204,-264.360863,1.125766,61.873188
8.9373,-0.009147,-0.003936,0.012959,-0.000441,-0.00022,0.000791,-0.002513,-0.513732,0.013178,-0.736204,-264.360863,1.125766,61.873188
8.9573,-0.009456,-0.003977,0.012636,-0.000493,-0.000214,0.000764,-0.002513,-0.513732,0.013178,-0.736204,-264.360863,1.125766,61.873188
8.9779,-0.009517,-0.003683,0.0124,-0.000533,-0.00021,0.000744,-0.003025,-0.513944,0.012665,-0.661201,-264.361018,1.097406,61.872915
8.9975,-0.009612,-0.003797,0.011715,-0.000471,-0.000232,0.000751,-0.003095,-0.513823,0.01256,-0.661201,-264.361018,1.097406,61.872915
9.0168,-0.008828,-0.003578,0.011909,-0.000422,-0.000248,0.000757,-0.00364,-0.513763,0.011721,-0.586197,-264.361069,1.022401,61.872841
9.0372,-0.009226,-0.0038,0.013993,-0.000405,-0.000282,0.000787,-0.002834,-0.513562,0.011893,-0.586197,-264.361069,1.022401,61.872841
9.0571,-0.009473,-0.004329,0.012765,-0.000392,-0.000307,0.000811,-0.002834,-0.513562,0.011893,-0.586197,-264.361069,1.022401,61.872841
9.0776,-0.009128,-0.004019,0.011898,-0.000383,-0.000327,0.00083,-0.002977,-0.514296,0.012791,-0.511195,-264.361221,1.03447,61.872576
9.0976,-0.009169,-0.003703,0.013149,-0.000397,-0.000272,0.000828,-0.003013,-0.514168,0.012428,-0.511195,-264.361221,1.03447,61.872576
9.1171,-0.009255,-0.003609,0.00983,-0.000407,-0.000228,0.000825,-0.002472,-0.513667,0.013169,-0.439071,-264.361351,1.109516,61.872294
9.1373,-0.009186,-0.004026,0.012434,-0.00022,-0.000355,0.000976,-0.004081,-0.513592,0.010135,-0.439071,-264.361351,1.109516,61.872294
9.1572,-0.009428,-0.00425,0.013005,-7.3e-05,-0.000451,0.001092,-0.004081,-0.513592,0.010135,-0.439071,-264.361351,1.109516,61.872294
9.1775,-0.009275,-0.003764,0.012329,4.3e-05,-0.000525,0.001183,-0.002807,-0.514213,0.013027,-0.514009,-264.361479,1.06308,61.872074
9.1972,-0.009272,-0.003665,0.012138,-7.8e-05,-0.000436,0.001101,-0.002881,-0.514017,0.012747,-0.514009,-264.361479,1.06308,61.872074
9.2176,-0.009668,-0.0036,0.011687,-0.000171,-0.000367,0.001034,-0.003082,-0.513627,0.012138,-0.439005,-264.361479,1.138084,61.872074
9.2376,-0.009628,-0.003782,0.011974,-8.5e-05,-0.00043,0.001026,-0.003652,-0.513571,0.011728,-0.439005,-264.361479,1.138084,61.872074
9.2573,-0.009338,-0.003868,0.012282,-1.8e-05,-0.000479,0.001019,-0.003652,-0.513571,0.011728,-0.439005,-264.361479,1.138084,61.872074
9.2771,-0.009569,-0.003673,0.012699,3.4e-05,-0.000516,0.001012,-0.003075,-0.513829,0.012282,-0.51401,-264.36148,1.21309,61.872074
9.2971,-0.009563,-0.004251,0.013661,-2.7e-05,-0.000478,0.000971,-0.003082,-0.513749,0.012452,-0.51401,-264.36148,1.21309,61.872074
9.3174,-0.009399,-0.004101,0.013084,-7.4e-05,-0.000448,0.000938,-0.002596,-0.514204,0.013661,-0.43902,-264.36148,1.288079,61.872074
9.3372,-0.009335,-0.003797,0.012337,-0.0002,-0.000361,0.000892,-0.002714,-0.514071,0.013136,-0.43902,-264.36148,1.288079,61.872074
9.3573,-0.009497,-0.004131,0.012664,-0.000296,-0.000292,0.000854,-0.002714,-0.514071,0.013136,-0.43902,-264.36148,1.288079,61.872074
9.3773,-0.009176,-0.003851,0.012601,-0.00037,-0.000239,0.000823,-0.003038,-0.51409,0.012664,-0.514026,-264.36148,1.363085,61.872073
9.3978,-0.009562,-0.003493,0.012136,-0.000384,-0.000222,0.000813,-0.00292,-0.513976,0.012639,-0.514026,-264.36148,1.363085,61.872073
9.4171,-0.009583,-0.004253,0.01347,-0.000394,-0.000209,0.000804,-0.003376,-0.513458,0.012144,-0.589028,-264.361533,1.288083,61.871976
9.4376,-0.009639,-0.003721,0.011475,-0.000441,-0.000168,0.000776,-0.00277,-0.514143,0.013357,-0.589028,-264.361533,1.288083,61.871976
9.4573,-0.009536,-0.003952,0.012645,-0.000477,-0.000135,0.000753,-0.00277,-0.514143,0.013357,-0.589028,-264.361533,1.288083,61.871976
9.4774,-0.009704,-0.004008,0.013638,-0.000505,-0.00011,0.000734,-0.003093,-0.513916,0.01266,-0.621571,-264.361613,1.21297,61.871843
9.4975,-0.009657,-0.004044,0.012076,-0.000478,-0.000129,0.000726,-0.002954,-0.513934,0.01306,-0.621571,-264.361613,1.21297,61.871843
9.517,-0.009284,-0.003857,0.012651,-0.000457,-0.000143,0.000719,-0.003499,-0.514007,0.012079,-0.590378,-264.361637,1.138077,61.871814
9.5376,-0.009504,-0.003664,0.013446,-0.000443,-0.000164,0.000727,-0.002892,-0.513833,0.012599,-0.590378,-264.361637,1.138077,61.871814
9.5576,-0.00959,-0.003972,0.011654,-0.000433,-0.000179,0.000734,-0.002892,-0.513833,0.012599,-0.590378,-264.361637,1.138077,61.871814
9.5776,-0.009557,-0.003667,0.010624,-0.000425,-0.000191,0.000739,-0.003654,-0.51394,0.011667,-0.574511,-264.361727,1.063079,61.871691
9.5978,-0.009456,-0.003974,0.012615,-0.000278,-0.000273,0.000822,-0.00385,-0.513819,0.011249,-0.574511,-264.361727,1.063079,61.871691
9.6168,-0.009452,-0.003922,0.012968,-0.000163,-0.000335,0.000886,-0.003034,-0.513939,0.012636,-0.549637,-264.361907,0.988083,61.871413
9.6372,-0.00952,-0.00387,0.012184,-0.000227,-0.000302,0.000851,-0.002856,-0.513885,0.012939,-0.549637,-264.361907,0.988083,61.871413
9.657,-0.009621,-0.003881,0.012283,-0.000277,-0.000277,0.000823,-0.002856,-0.513885,0.012939,-0.549637,-264.361907,0.988083,61.871413
9.6775,-0.009393,-0.003908,0.01036,-0.000315,-0.000257,0.000801,-0.003357,-0.513842,0.012283,-0.624645,-264.361908,1.063092,61.87141
9.6973,-0.009419,-0.003811,0.011152,-0.000219,-0.000304,0.000853,-0.003662,-0.513858,0.011504,-0.624645,-264.361908,1.063092,61.87141
9.7172,-0.009478,-0.0043,0.011825,-0.000143,-0.000339,0.000894,-0.003741,-0.513786,0.011173,-0.634075,-264.362037,1.138082,61.871142
9.7373,-0.009507,-0.004034,0.012505,-0.000141,-0.000305,0.000911,-0.003474,-0.514222,0.011769,-0.634075,-264.362037,1.138082,61.871142
9.7572,-0.009498,-0.00368,0.012823,-0.000138,-0.000279,0.000925,-0.003474,-0.514222,0.011769,-0.634075,-264.362037,1.138082,61.871142
9.777,-0.00971,-0.004226,0.012253,-0.000135,-0.000258,0.000936,-0.002959,-0.513639,0.012825,-0.709132,-264.362042,1.21314,61.871124
9.797,-0.00938,-0.003983,0.014034,-0.00015,-0.000266,0.000904,-0.003164,-0.513863,0.012592,-0.709132,-264.362042,1.21314,61.871124
9.8171,-0.009644,-0.003778,0.010643,-0.000162,-0.000272,0.000878,-0.002223,-0.513933,0.014034,-0.784074,-264.362045,1.288081,61.871118
9.8374,-0.009348,-0.004143,0.012237,-4.2e-05,-0.000357,0.000954,-0.00404,-0.513765,0.010942,-0.784074,-264.362045,1.288081,61.871118
9.857,-0.009833,-0.003833,0.013079,5.3e-05,-0.000422,0.001012,-0.00404,-0.513765,0.010942,-0.784074,-264.362045,1.288081,61.871118
9.8769,-0.009324,-0.003504,0.012239,0.000127,-0.000471,0.001059,-0.003166,-0.513793,0.013091,-0.859129,-264.362089,1.363136,61.870998
9.8971,-0.009462,-0.003712,0.011114,6.3e-05,-0.000458,0.000997,-0.003132,-0.51366,0.012745,-0.859129,-264.362089,1.363136,61.870998
9.9175,-0.009711,-0.004109,0.012591,1.4e-05,-0.000448,0.000948,-0.003794,-0.51368,0.011114,-0.784185,-264.362089,1.43808,61.870998
9.9376,-0.009661,-0.004187,0.011634,-2.3e-05,-0.000404,0.000923,-0.003336,-0.514033,0.012456,-0.784185,-264.362089,1.43808,61.870998
9.9571,-0.009462,-0.003658,0.011692,-5.1e-05,-0.00037,0.000903,-0.003336,-0.514033,0.012456,-0.784185,-264.362089,1.43808,61.870998
9.9772,-0.009314,-0.004043,0.011822,-7.3e-05,-0.000344,0.000886,-0.0035,-0.513623,0.011692,-0.859189,-264.362089,1.513085,61.870998
9.9977,-0.009482,-0.003712,0.010449,-5.6e-05,-0.000363,0.000904,-0.003412,-0.513779,0.011745,-0.859189,-264.362089,1.513085,61.870998
10.017,-0.009892,-0.004107,0.0119,-4.3e-05,-0.000378,0.000918,-0.004154,-0.513686,0.010452,-0.934249,-264.3621,1.488507,61.870955
10.0376,-0.009484,-0.003685,0.012234,6e-06,-0.000387,0.000933,-0.003852,-0.514036,0.011772,-0.934249,-264.3621,1.488507,61.870955
10.057,-0.009779,-0.003893,0.010972,4.4e-05,-0.000393,0.000945,-0.003852,-0.514036,0.011772,-0.934249,-264.3621,1.488507,61.870955
10.0774,-0.00965,-0.004075,0.012492,7.5e-05,-0.000397,0.000954,-0.004184,-0.513863,0.010974,-1.009231,-264.362105,1.52533,61.870931
10.0973,-0.00946,-0.003731,0.013228,0.000104,-0.000412,0.00097,-0.003818,-0.513933,0.011589,-1.009231,-264.362105,1.52533,61.870931
10.1169,-0.009572,-0.004243,0.012587,0.000126,-0.000422,0.000983,-0.002714,-0.513686,0.013228,-0.934275,-264.362105,1.600286,61.870931
10.137,-0.009536,-0.004063,0.011799,2.1e-05,-0.000353,0.000943,-0.003114,-0.514156,0.012644,-0.934275,-264.362105,1.600286,61.870931
10.1568,-0.009554,-0.004005,0.012407,-6e-05,-0.000299,0.000911,-0.003114,-0.514156,0.012644,-0.934275,-264.362105,1.600286,61.870931
10.177,-0.0096,-0.003544,0.011436,-0.000122,-0.000258,0.000885,-0.003227,-0.513966,0.012407,-0.859228,-264.362105,1.675333,61.87093
10.1972,-0.009468,-0.00422,0.01204,-8.8e-05,-0.000299,0.00089,-0.003448,-0.51378,0.01201,-0.859228,-264.362105,1.675333,61.87093
10.2167,-0.009313,-0.004057,0.012252,-6.1e-05,-0.000331,0.000894,-0.003328,-0.514184,0.012042,-0.934183,-264.362114,1.600379,61.870906
10.2371,-0.009236,-0.003978,0.012623,-0.000118,-0.000295,0.000885,-0.003088,-0.514033,0.012234,-0.934183,-264.362114,1.600379,61.870906
10.2574,-0.009305,-0.003763,0.013796,-0.000162,-0.000268,0.000878,-0.003088,-0.514033,0.012234,-0.934183,-264.362114,1.600379,61.870906
10.277,-0.009777,-0.003873,0.013528,-0.000197,-0.000247,0.000873,-0.00227,-0.513716,0.013799,-1.009185,-264.362123,1.525376,61.87087
10.2972,-0.009308,-0.004096,0.012174,-0.000302,-0.000233,0.000819,-0.002518,-0.513761,0.013689,-1.009185,-264.362123,1.525376,61.87087
10.3171,-0.009722,-0.003614,0.011622,-0.000384,-0.000222,0.000776,-0.003101,-0.514062,0.012188,-0.968176,-264.362194,1.450353,61.870706
10.3373,-0.009482,-0.004313,0.010726,-0.000243,-0.000319,0.000825,-0.003736,-0.51362,0.011671,-0.968176,-264.362194,1.450353,61.870706
10.3573,-0.009409,-0.003826,0.0137,-0.000133,-0.000392,0.000864,-0.003736,-0.51362,0.011671,-0.968176,-264.362194,1.450353,61.870706
10.377,-0.009615,-0.004147,0.012336,-4.6e-05,-0.000448,0.000893,-0.002423,-0.513779,0.0137,-0.893065,-264.362195,1.375242,61.870704
10.3977,-0.00959,-0.004165,0.011503,-0.000151,-0.000383,0.000852,-0.00279,-0.513913,0.013145,-0.893065,-264.362195,1.375242,61.870704
10.4171,-0.009527,-0.004028,0.010431,-0.000232,-0.000333,0.00082,-0.003725,-0.514135,0.011511,-0.967945,-264.362208,1.450122,61.870589
10.438,-0.009896,-0.004383,0.012936,-0.000105,-0.000382,0.000942,-0.004164,-0.514013,0.010528,-0.967945,-264.362208,1.450122,61.870589
10.4572,-0.009583,-0.00367,0.011991,-4e-06,-0.000419,0.001037,-0.004164,-0.514013,0.010528,-0.967945,-264.362208,1.450122,61.870589
10.4785,-0.009353,-0.004196,0.012248,7.5e-05,-0.000447,0.001111,-0.003469,-0.513635,0.011994,-0.89295,-264.362219,1.375127,61.870554
10.4978,-0.009703,-0.004096,0.012342,3.7e-05,-0.000426,0.001066,-0.003322,-0.513848,0.012098,-0.89295,-264.362219,1.375127,61.870554
10.5174,-0.009166,-0.003856,0.012834,8e-06,-0.00041,0.00103,-0.003409,-0.514057,0.012342,-0.817839,-264.362219,1.450238,61.870554
10.5375,-0.009707,-0.004082,0.01199,-0.00012,-0.000358,0.000973,-0.002694,-0.513837,0.012788,-0.817839,-264.362219,1.450238,61.870554
10.5577,-0.009867,-0.004118,0.01225,-0.000219,-0.000319,0.000927,-0.002694,-0.513837,0.012788,-0.817839,-264.362219,1.450238,61.870554
10.5775,-0.00973,-0.003982,0.013982,-0.000295,-0.000288,0.00089,-0.00362,-0.51408,0.01225,-0.892671,-264.362219,1.525069,61.870554
10.5976,-0.009788,-0.003707,0.012609,-0.000283,-0.000275,0.00086,-0.003206,-0.51402,0.012953,-0.892671,-264.362219,1.525069,61.870554
10.6174,-0.009721,-0.004092,0.01122,-0.000273,-0.000264,0.000834,-0.003358,-0.513667,0.012613,-0.81763,-264.362242,1.450029,61.870503
10.6372,-0.009758,-0.004131,0.01206,-0.000164,-0.000308,0.000894,-0.003943,-0.514026,0.011343,-0.81763,-264.362242,1.450029,61.870503
10.6574,-0.009569,-0.003811,0.012708,-7.7e-05,-0.000342,0.00094,-0.003943,-0.514026,0.011343,-0.81763,-264.362242,1.450029,61.870503
10.6775,-0.009596,-0.003926,0.012515,-9e-06,-0.000367,0.000976,-0.003091,-0.513774,0.012723,-0.742585,-264.362302,1.374984,61.870368
10.697,-0.009687,-0.00361,0.011809,-5.3e-05,-0.000355,0.000935,-0.003142,-0.513821,0.01264,-0.742585,-264.362302,1.374984,61.870368
10.7174,-0.009336,-0.004071,0.01336,-8.7e-05,-0.000346,0.000902,-0.003664,-0.513575,0.011809,-0.81754,-264.362302,1.449939,61.870368
10.7369,-0.009814,-0.004008,0.012599,-0.000217,-0.000285,0.000857,-0.002625,-0.513985,0.013221,-0.81754,-264.362302,1.449939,61.870368
10.7568,-0.009799,-0.004195,0.012095,-0.000317,-0.000238,0.000821,-0.002625,-0.513985,0.013221,-0.81754,-264.362302,1.449939,61.870368
10.7777,-0.009461,-0.003848,0.014089,-0.000394,-0.000201,0.000792,-0.003631,-0.51416,0.012099,-0.892543,-264.362314,1.473774,61.87032
10.7977,-0.009814,-0.004043,0.012868,-0.000378,-0.000198,0.00078,-0.003077,-0.514012,0.012913,-0.892543,-264.362314,1.473774,61.87032
10.8174,-0.009884,-0.00397,0.013914,-0.000366,-0.000196,0.00077,-0.003251,-0.514001,0.012869,-0.817551,-264.362317,1.398782,61.870315
10.8375,-0.009521,-0.004039,0.012918,-0.00039,-0.000189,0.000735,-0.00283,-0.513928,0.01382,-0.817551,-264.362317,1.398782,61.870315
10.8575,-0.009954,-0.004113,0.012262,-0.000409,-0.000183,0.000708,-0.00283,-0.513928,0.01382,-0.817551,-264.362317,1.398782,61.870315
10.8776,-0.00927,-0.003853,0.012493,-0.000424,-0.000179,0.000685,-0.003702,-0.514075,0.012266,-0.742549,-264.362336,1.32378,61.870283
10.8974,-0.009522,-0.003861,0.011975,-0.000352,-0.000207,0.000715,-0.003371,-0.513967,0.01236,-0.742549,-264.362336,1.32378,61.870283
10.9169,-0.009698,-0.004008,0.014473,-0.000297,-0.000227,0.000738,-0.003415,-0.513825,0.011976,-0.667432,-264.362345,1.248663,61.87027
10.9372,-0.009559,-0.004308,0.012105,-0.000415,-0.000186,0.000699,-0.002415,-0.513943,0.01425,-0.667432,-264.362345,1.248663,61.87027
10.9575,-0.009736,-0.003724,0.013871,-0.000505,-0.000154,0.000669,-0.002415,-0.513943,0.01425,-0.667432,-264.362345,1.248663,61.87027
10.977,-0.00969,-0.004011,0.012003,-0.000575,-0.000129,0.000644,-0.002672,-0.513684,0.013898,-0.644791,-264.362474,1.173769,61.870012
10.9973,-0.009777,-0.003948,0.013843,-0.000508,-0.000168,0.000652,-0.003039,-0.513803,0.013127,-0.644791,-264.362474,1.173769,61.870012
11.0171,-0.009788,-0.004071,0.013857,-0.000456,-0.000198,0.000658,-0.002718,-0.513899,0.013843,-0.569744,-264.362479,1.098722,61.870006
11.037,-0.009617,-0.003764,0.011712,-0.000487,-0.000171,0.000644,-0.002721,-0.514011,0.013856,-0.569744,-264.362479,1.098722,61.870006
11.0572,-0.009632,-0.004223,0.012212,-0.00051,-0.000151,0.000632,-0.002721,-0.514011,0.013856,-0.569744,-264.362479,1.098722,61.870006
11.0768,-0.009725,-0.003782,0.012269,-0.000528,-0.000135,0.000623,-0.003412,-0.514189,0.012224,-0.494832,-264.362563,1.023809,61.869879
11.0973,-0.009316,-0.004172,0.011452,-0.000429,-0.000172,0.000671,-0.003436,-0.514005,0.012244,-0.494832,-264.362563,1.023809,61.869879
11.1175,-0.010112,-0.004096,0.01286,-0.000351,-0.000199,0.000709,-0.00348,-0.514141,0.01146,-0.435291,-264.362643,0.948656,61.869779
11.137,-0.010072,-0.004114,0.01419,-0.00028,-0.000221,0.00072,-0.003548,-0.514062,0.012739,-0.435291,-264.362643,0.948656,61.869779
11.1572,-0.00952,-0.00388,0.013076,-0.000223,-0.000237,0.000729,-0.003548,-0.514062,0.012739,-0.435291,-264.362643,0.948656,61.869779
11.177,-0.00979,-0.003943,0.012232,-0.000178,-0.00025,0.000736,-0.00286,-0.513841,0.013092,-0.510307,-264.362737,1.023672,61.869617
11.1971,-0.009789,-0.004199,0.012115,-0.000187,-0.000256,0.000737,-0.003146,-0.513868,0.01274,-0.510307,-264.362737,1.023672,61.869617
11.2174,-0.009719,-0.00376,0.012289,-0.000193,-0.000261,0.000738,-0.00361,-0.514162,0.012116,-0.585255,-264.362741,1.098619,61.869606
11.2372,-0.009607,-0.003717,0.012143,-0.00014,-0.000304,0.000759,-0.003466,-0.513761,0.012274,-0.585255,-264.362741,1.098619,61.869606
11.2572,-0.009712,-0.003982,0.012265,-9.9e-05,-0.000336,0.000776,-0.003466,-0.513761,0.012274,-0.585255,-264.362741,1.098619,61.869606
11.2772,-0.009944,-0.004066,0.013203,-6.7e-05,-0.000362,0.00079,-0.00346,-0.513946,0.012273,-0.660176,-264.362771,1.173541,61.869524
11.2973,-0.009355,-0.004444,0.014042,-7.7e-05,-0.000344,0.000786,-0.003357,-0.513978,0.012657,-0.660176,-264.362771,1.173541,61.869524
11.317,-0.00953,-0.004011,0.011533,-8.5e-05,-0.00033,0.000783,-0.002194,-0.514394,0.014042,-0.735333,-264.362772,1.248698,61.869519
11.3372,-0.009841,-0.003594,0.015356,-6.8e-05,-0.000327,0.000823,-0.003523,-0.514014,0.01175,-0.735333,-264.362772,1.248698,61.869519
11.3573,-0.009605,-0.003831,0.01297,-5.5e-05,-0.000324,0.000855,-0.003523,-0.514014,0.01175,-0.735333,-264.362772,1.248698,61.869519
11.377,-0.009425,-0.004097,0.011824,-4.5e-05,-0.000322,0.00088,-0.002991,-0.513789,0.012973,-0.810288,-264.362778,1.323653,61.869489
11.3974,-0.009812,-0.003902,0.012058,-8.4e-05,-0.000309,0.000863,-0.003157,-0.513902,0.0125,-0.810288,-264.362778,1.323653,61.869489
11.4172,-0.009495,-0.003791,0.012933,-0.000114,-0.0003,0.000849,-0.003662,-0.513865,0.012058,-0.885269,-264.362779,1.398634,61.869488
11.4373,-0.00936,-0.003604,0.013574,-0.000157,-0.0003,0.000824,-0.002965,-0.513758,0.012857,-0.885269,-264.362779,1.398634,61.869488
11.4575,-0.009685,-0.003639,0.012951,-0.000191,-0.0003,0.000804,-0.002965,-0.513758,0.012857,-0.885269,-264.362779,1.398634,61.869488
11.477,-0.009647,-0.004062,0.013615,-0.000217,-0.0003,0.000788,-0.003082,-0.513603,0.012969,-0.960311,-264.362828,1.432653,61.869324
11.4972,-0.009544,-0.004081,0.013466,-0.000247,-0.000295,0.000764,-0.002921,-0.513779,0.013247,-0.960311,-264.362828,1.432653,61.869324
11.5171,-0.009581,-0.003764,0.012761,-0.000271,-0.000291,0.000744,-0.002677,-0.514037,0.013472,-0.884853,-264.362854,1.357194,61.869248
11.5373,-0.010092,-0.003968,0.012709,-0.000267,-0.0003,0.000742,-0.003039,-0.51375,0.012823,-0.884853,-264.362854,1.357194,61.869248
11.557,-0.009641,-0.00395,0.012098,-0.000264,-0.000307,0.000739,-0.003039,-0.51375,0.012823,-0.884853,-264.362854,1.357194,61.869248
11.577,-0.009645,-0.00408,0.01448,-0.000262,-0.000312,0.000737,-0.003472,-0.513914,0.012101,-0.810298,-264.362868,1.282639,61.869213
11.5972,-0.009898,-0.004011,0.013356,-0.000289,-0.000283,0.000729,-0.002976,-0.51396,0.013076,-0.810298,-264.362868,1.282639,61.869213
11.6173,-0.009959,-0.003929,0.013212,-0.000309,-0.00026,0.000723,-0.003088,-0.513967,0.013361,-0.735367,-264.362889,1.239587,61.869157
11.6371,-0.009827,-0.003794,0.012782,-0.000281,-0.000268,0.000714,-0.003211,-0.513891,0.013224,-0.735367,-264.362889,1.239587,61.869157
11.6572,-0.009781,-0.004268,0.012936,-0.000259,-0.000274,0.000707,-0.003211,-0.513891,0.013224,-0.735367,-264.362889,1.239587,61.869157
11.6769,-0.009591,-0.003908,0.011697,-0.000242,-0.000279,0.000701,-0.003189,-0.51423,0.01295,-0.660145,-264.362953,1.164366,61.869019
11.6969,-0.009672,-0.004134,0.01095,-0.00022,-0.000267,0.000724,-0.003369,-0.514084,0.012438,-0.660145,-264.362953,1.164366,61.869019
11.7168,-0.00973,-0.003898,0.012923,-0.000203,-0.000258,0.000743,-0.004093,-0.51411,0.010968,-0.58534,-264.363039,1.23917,61.868792
11.737,-0.00949,-0.003971,0.011947,-0.000194,-0.000268,0.000744,-0.003225,-0.513879,0.012749,-0.58534,-264.363039,1.23917,61.868792
11.7572,-0.00992,-0.00393,0.012354,-0.000187,-0.000275,0.000744,-0.003225,-0.513879,0.012749,-0.58534,-264.363039,1.23917,61.868792
11.7774,-0.009618,-0.004218,0.013707,-0.000182,-0.000281,0.000745,-0.003625,-0.513898,0.012371,-0.660236,-264.363103,1.292915,61.868625
11.7971,-0.010061,-0.003863,0.013258,-0.00019,-0.000267,0.000741,-0.003213,-0.514011,0.012925,-0.660236,-264.363103,1.292915,61.868625
11.8174,-0.010099,-0.004141,0.012479,-0.000197,-0.000257,0.000737,-0.003304,-0.513825,0.013278,-0.735382,-264.363186,1.328788,61.868374
11.8372,-0.009735,-0.003901,0.013259,-0.000138,-0.000274,0.000752,-0.003698,-0.514078,0.012548,-0.735382,-264.363186,1.328788,61.868374
11.857,-0.009562,-0.003591,0.013899,-9.1e-05,-0.000288,0.000763,-0.003698,-0.514078,0.012548,-0.735382,-264.363186,1.328788,61.868374
11.8769,-0.009902,-0.003849,0.012827,-5.4e-05,-0.000298,0.000771,-0.002481,-0.513552,0.013928,-0.776737,-264.363292,1.29903,61.868092
11.8971,-0.010009,-0.004008,0.011802,-0.000123,-0.000304,0.000741,-0.002843,-0.513658,0.01348,-0.776737,-264.363292,1.29903,61.868092
11.9168,-0.009981,-0.004229,0.011653,-0.000176,-0.00031,0.000717,-0.00399,-0.513972,0.011802,-0.851756,-264.363293,1.374049,61.868089
11.9371,-0.009604,-0.004182,0.013179,-8.8e-05,-0.00033,0.000782,-0.004035,-0.514178,0.011664,-0.851756,-264.363293,1.374049,61.868089
11.9573,-0.009508,-0.004712,0.013953,-1.8e-05,-0.000344,0.000834,-0.004035,-0.514178,0.011664,-0.851756,-264.363293,1.374049,61.868089
11.9774,-0.009909,-0.004087,0.01289,3.8e-05,-0.000355,0.000874,-0.002395,-0.514668,0.013966,-0.776399,-264.363331,1.339512,61.867956
11.9972,-0.009516,-0.004012,0.012587,-0.000122,-0.000251,0.000832,-0.002778,-0.514415,0.01353,-0.776399,-264.363331,1.339512,61.867956
12.0168,-0.00972,-0.003759,0.012477,-0.000246,-0.000169,0.000797,-0.003097,-0.513972,0.012587,-0.701821,-264.363331,1.41409,61.867956
12.037,-0.009952,-0.003964,0.010869,-0.000197,-0.000228,0.000798,-0.003333,-0.513742,0.012487,-0.701821,-264.363331,1.41409,61.867956
12.0573,-0.00958,-0.004227,0.01081,-0.00016,-0.000272,0.000798,-0.003333,-0.513742,0.012487,-0.701821,-264.363331,1.41409,61.867956
12.0772,-0.00967,-0.004074,0.013412,-0.000132,-0.000307,0.000799,-0.004069,-0.5142,0.010818,-0.776752,-264.363372,1.339158,61.867885
12.0975,-0.00981,-0.003903,0.012816,-0.000108,-0.000298,0.00083,-0.003565,-0.51413,0.011875,-0.776752,-264.363372,1.339158,61.867885
12.1174,-0.009744,-0.004121,0.013306,-9e-05,-0.000291,0.000855,-0.003277,-0.513867,0.012831,-0.851762,-264.363425,1.406701,61.867693
12.1375,-0.009596,-0.003996,0.012711,-0.000158,-0.000254,0.000819,-0.002988,-0.514056,0.013262,-0.851762,-264.363425,1.406701,61.867693
12.1573,-0.009607,-0.004041,0.01212,-0.000211,-0.000226,0.00079,-0.002988,-0.514056,0.013262,-0.851762,-264.363425,1.406701,61.867693
12.1774,-0.010114,-0.003845,0.012705,-0.000252,-0.000205,0.000767,-0.003427,-0.514006,0.012124,-0.926762,-264.363438,1.460532,61.86765
12.1974,-0.009797,-0.003918,0.012249,-0.000192,-0.000242,0.00078,-0.003514,-0.513921,0.012369,-0.926762,-264.363438,1.460532,61.86765
12.2172,-0.009737,-0.004119,0.010835,-0.000145,-0.000271,0.000791,-0.003552,-0.513881,0.012257,-0.851327,-264.363481,1.385097,61.867565
12.2374,-0.0099,-0.003964,0.013295,-3.9e-05,-0.000322,0.000886,-0.004153,-0.514071,0.010961,-0.851327,-264.363481,1.385097,61.867565
12.257,-0.009708,-0.004116,0.011621,4.5e-05,-0.000361,0.00096,-0.004153,-0.514071,0.010961,-0.851327,-264.363481,1.385097,61.867565
12.277,-0.009868,-0.004093,0.013125,0.000111,-0.000391,0.001018,-0.003786,-0.51409,0.011647,-0.925947,-264.363563,1.380614,61.867321
12.2973,-0.009734,-0.003957,0.013492,8.1e-05,-0.000367,0.000987,-0.003539,-0.514075,0.01225,-0.925947,-264.363563,1.380614,61.867321
12.3168,-0.009882,-0.004114,0.011306,5.9e-05,-0.000348,0.000962,-0.002853,-0.513911,0.013492,-0.851002,-264.363563,1.455559,61.867321
12.337,-0.010096,-0.004124,0.012105,0.000105,-0.000369,0.000984,-0.004003,-0.514066,0.011502,-0.851002,-264.363563,1.455559,61.867321
12.357,-0.010027,-0.003744,0.012121,0.000141,-0.000386,0.001002,-0.004003,-0.514066,0.011502,-0.851002,-264.363563,1.455559,61.867321
12.3769,-0.009685,-0.003881,0.012148,0.000169,-0.000398,0.001015,-0.003845,-0.513706,0.012121,-0.775973,-264.363563,1.530588,61.867321
12.3972,-0.010021,-0.003931,0.012857,0.000177,-0.000426,0.00099,-0.003701,-0.513762,0.012132,-0.775973,-264.363563,1.530588,61.867321
12.4168,-0.009895,-0.003908,0.012606,0.000183,-0.000448,0.000969,-0.003464,-0.513889,0.012857,-0.701009,-264.363563,1.605551,61.867321
12.437,-0.010108,-0.004333,0.013145,0.000145,-0.000433,0.000933,-0.003466,-0.51387,0.012629,-0.701009,-264.363563,1.605551,61.867321
12.457,-0.009539,-0.003951,0.01232,0.000115,-0.000422,0.000903,-0.003466,-0.51387,0.012629,-0.701009,-264.363563,1.605551,61.867321
12.477,-0.009888,-0.003944,0.012348,9.2e-05,-0.000414,0.00088,-0.003256,-0.513912,0.01232,-0.626007,-264.363563,1.530549,61.867321
12.4972,-0.00971,-0.003928,0.013769,5.9e-05,-0.000397,0.000872,-0.003391,-0.513909,0.012332,-0.626007,-264.363563,1.530549,61.867321
12.5175,-0.009924,-0.004029,0.012915,3.4e-05,-0.000384,0.000865,-0.002688,-0.51388,0.013769,-0.551008,-264.363563,1.605548,61.867321
12.5373,-0.009993,-0.004248,0.012853,-7e-06,-0.000357,0.000837,-0.003288,-0.513978,0.012981,-0.551008,-264.363563,1.605548,61.867321
12.5572,-0.010005,-0.004272,0.012797,-3.9e-05,-0.000337,0.000815,-0.003288,-0.513978,0.012981,-0.551008,-264.363563,1.605548,61.867321
12.5771,-0.010224,-0.003903,0.012778,-6.4e-05,-0.000322,0.000796,-0.003479,-0.51423,0.012797,-0.475579,-264.363563,1.608249,61.867321
12.5971,-0.010328,-0.003678,0.011996,-4.9e-05,-0.000316,0.00079,-0.003572,-0.514079,0.012789,-0.475579,-264.363563,1.608249,61.867321
12.6168,-0.009733,-0.003861,0.011933,-3.8e-05,-0.000312,0.000785,-0.00421,-0.513641,0.011996,-0.550194,-264.363563,1.533634,61.867321
12.637,-0.009932,-0.004123,0.014857,1.1e-05,-0.000353,0.000816,-0.003692,-0.51381,0.011938,-0.550194,-264.363563,1.533634,61.867321
12.657,-0.010241,-0.003789,0.01281,4.8e-05,-0.000385,0.00084,-0.003692,-0.51381,0.011938,-0.550194,-264.363563,1.533634,61.867321
12.6775,-0.009538,-0.003829,0.01301,7.8e-05,-0.000409,0.000859,-0.003708,-0.513747,0.01281,-0.625492,-264.363563,1.522639,61.867321
12.697,-0.009975,-0.004035,0.012219,5.8e-05,-0.000412,0.000834,-0.003378,-0.513763,0.012892,-0.625492,-264.363563,1.522639,61.867321
12.7171,-0.009828,-0.004086,0.014011,4.4e-05,-0.000414,0.000814,-0.003743,-0.513997,0.012219,-0.550737,-264.363563,1.597394,61.867321
12.7374,-0.009904,-0.003758,0.011552,-9e-05,-0.000342,0.000773,-0.002779,-0.514032,0.013849,-0.550737,-264.363563,1.597394,61.867321
12.7571,-0.010176,-0.004374,0.013798,-0.000192,-0.000286,0.000739,-0.002779,-0.514032,0.013849,-0.550737,-264.363563,1.597394,61.867321
12.7774,-0.009915,-0.00418,0.013457,-0.000271,-0.000242,0.000712,-0.003139,-0.514325,0.013798,-0.475826,-264.363563,1.618486,61.867321
12.7976,-0.010271,-0.004604,0.012338,-0.000295,-0.000203,0.000697,-0.003104,-0.514248,0.01366,-0.475826,-264.363563,1.618486,61.867321
12.8176,-0.009872,-0.003994,0.014008,-0.000313,-0.000172,0.000684,-0.003979,-0.514565,0.012339,-0.550824,-264.363567,1.543488,61.867311
12.8385,-0.009572,-0.004166,0.013914,-0.000352,-0.000161,0.000666,-0.002833,-0.513996,0.013868,-0.550824,-264.363567,1.543488,61.867311
12.8578,-0.01024,-0.004259,0.014347,-0.000382,-0.000153,0.00065,-0.002833,-0.513996,0.013868,-0.550824,-264.363567,1.543488,61.867311
12.8771,-0.010113,-0.003949,0.013315,-0.000405,-0.000146,0.000638,-0.002924,-0.514207,0.014348,-0.626043,-264.363571,1.468269,61.867304
12.8969,-0.009795,-0.003871,0.012634,-0.000389,-0.000146,0.000629,-0.003084,-0.514085,0.013932,-0.626043,-264.363571,1.468269,61.867304
12.9171,-0.009744,-0.003884,0.012891,-0.000376,-0.000146,0.000621,-0.003352,-0.513831,0.012635,-0.551257,-264.363572,1.393483,61.867303
12.9375,-0.009951,-0.003875,0.011153,-0.00033,-0.000184,0.000641,-0.003184,-0.51384,0.012871,-0.551257,-264.363572,1.393483,61.867303
12.9573,-0.010139,-0.004423,0.01306,-0.000295,-0.000213,0.000657,-0.003184,-0.51384,0.012871,-0.551257,-264.363572,1.393483,61.867303
12.9773,-0.010111,-0.003939,0.011264,-0.000268,-0.000236,0.00067,-0.003479,-0.514379,0.013061,-0.55547,-264.363579,1.318164,61.867293
12.9974,-0.010083,-0.004536,0.01157,-0.000185,-0.000255,0.000709,-0.003838,-0.514188,0.012333,-0.55547,-264.363579,1.318164,61.867293
13.0169,-0.00989,-0.004409,0.012581,-0.000119,-0.00027,0.000739,-0.004188,-0.514507,0.011586,-0.57501,-264.363671,1.243491,61.867091
13.0375,-0.009986,-0.004239,0.013409,-0.000122,-0.000236,0.000755,-0.003541,-0.514382,0.012488,-0.57501,-264.363671,1.243491,61.867091
13.0576,-0.010086,-0.004339,0.013598,-0.000124,-0.000209,0.000768,-0.003541,-0.514382,0.012488,-0.57501,-264.363671,1.243491,61.867091
13.0774,-0.009855,-0.003762,0.012305,-0.000124,-0.000188,0.000778,-0.003152,-0.514292,0.013599,-0.650038,-264.363674,1.318519,61.86708
13.0977,-0.010097,-0.004005,0.011922,-0.000128,-0.000197,0.000763,-0.003331,-0.514054,0.013057,-0.650038,-264.363674,1.318519,61.86708
13.1172,-0.009824,-0.003954,0.012873,-0.000131,-0.000203,0.000751,-0.004017,-0.513968,0.011922,-0.725402,-264.363676,1.385682,61.867077
13.1374,-0.009675,-0.003777,0.012673,-0.000122,-0.000226,0.000749,-0.003327,-0.513917,0.012788,-0.725402,-264.363676,1.385682,61.867077
13.1569,-0.009698,-0.004298,0.013651,-0.000116,-0.000245,0.000748,-0.003327,-0.513917,0.012788,-0.725402,-264.363676,1.385682,61.867077
13.1771,-0.010501,-0.003845,0.013935,-0.000112,-0.000259,0.000747,-0.002737,-0.514252,0.013654,-0.80003,-264.363688,1.375789,61.867049
13.1972,-0.010236,-0.003808,0.012274,-0.000171,-0.000229,0.000719,-0.003007,-0.514064,0.01377,-0.80003,-264.363688,1.375789,61.867049
13.2171,-0.009825,-0.0039,0.01388,-0.000217,-0.000207,0.000696,-0.003978,-0.513772,0.012282,-0.875138,-264.363718,1.415722,61.866952
13.2373,-0.010106,-0.004053,0.014087,-0.00026,-0.000209,0.000676,-0.002857,-0.513844,0.013737,-0.875138,-264.363718,1.415722,61.866952
13.2572,-0.009998,-0.004042,0.012827,-0.000294,-0.000211,0.00066,-0.002857,-0.513844,0.013737,-0.875138,-264.363718,1.415722,61.866952
13.2775,-0.010172,-0.004266,0.013425,-0.000321,-0.000213,0.000647,-0.00346,-0.514005,0.012843,-0.800277,-264.363785,1.340861,61.866808
13.2972,-0.01039,-0.004124,0.013255,-0.000276,-0.000218,0.00066,-0.003406,-0.514093,0.013081,-0.800277,-264.363785,1.340861,61.866808
13.3167,-0.010216,-0.004301,0.012935,-0.00024,-0.000222,0.000669,-0.003631,-0.51408,0.013257,-0.725264,-264.363799,1.265847,61.866782
13.3371,-0.010163,-0.004375,0.013468,-0.000195,-0.000222,0.000683,-0.00362,-0.514243,0.012962,-0.725264,-264.363799,1.265847,61.866782
13.3573,-0.009819,-0.003715,0.013014,-0.000159,-0.000221,0.000694,-0.00362,-0.514243,0.012962,-0.725264,-264.363799,1.265847,61.866782
13.3772,-0.009641,-0.004118,0.014722,-0.00013,-0.000219,0.000702,-0.003191,-0.51368,0.013039,-0.66047,-264.363906,1.206966,61.866542
13.3974,-0.009832,-0.003952,0.013448,-0.000209,-0.000213,0.000679,-0.002761,-0.513837,0.013727,-0.66047,-264.363906,1.206966,61.866542
13.4171,-0.010225,-0.003803,0.013766,-0.000271,-0.000208,0.000662,-0.002975,-0.513907,0.013449,-0.735511,-264.363915,1.282007,61.866521
13.4371,-0.009825,-0.00419,0.011698,-0.000241,-0.000243,0.00065,-0.003185,-0.513768,0.013738,-0.735511,-264.363915,1.282007,61.866521
13.4569,-0.009801,-0.00415,0.013232,-0.000219,-0.00027,0.000641,-0.003185,-0.513768,0.013738,-0.735511,-264.363915,1.282007,61.866521
13.4771,-0.009861,-0.00421,0.012398,-0.000202,-0.000291,0.000634,-0.00306,-0.514112,0.01325,-0.660584,-264.364,1.20708,61.86635
13.4971,-0.009977,-0.003829,0.012874,-0.000209,-0.000262,0.000653,-0.003257,-0.514136,0.012902,-0.660584,-264.364,1.20708,61.86635
13.5168,-0.010188,-0.004009,0.012274,-0.000214,-0.00024,0.000669,-0.003414,-0.513791,0.012883,-0.585569,-264.364038,1.281129,61.866228
13.537,-0.009953,-0.004175,0.012759,-0.000116,-0.000291,0.000707,-0.003884,-0.513955,0.012327,-0.585569,-264.364038,1.281129,61.866228
13.5571,-0.009981,-0.004398,0.013629,-4e-05,-0.000331,0.000738,-0.003884,-0.513955,0.012327,-0.585569,-264.364038,1.281129,61.866228
13.577,-0.01008,-0.004022,0.013676,2.1e-05,-0.00036,0.000762,-0.003038,-0.51436,0.013654,-0.660583,-264.364135,1.25207,61.865987
13.5972,-0.009944,-0.004272,0.013178,-7e-05,-0.000295,0.000735,-0.003067,-0.514203,0.013666,-0.660583,-264.364135,1.25207,61.865987
13.6169,-0.010064,-0.004242,0.014583,-0.000141,-0.000245,0.000713,-0.003223,-0.514227,0.013178,-0.585736,-264.364135,1.326917,61.865987
13.6369,-0.009906,-0.004059,0.013115,-0.000261,-0.000184,0.00068,-0.002677,-0.514191,0.014466,-0.585736,-264.364135,1.326917,61.865987
13.6569,-0.010053,-0.00415,0.01447,-0.000353,-0.000137,0.000653,-0.002677,-0.514191,0.014466,-0.585736,-264.364135,1.326917,61.865987
13.6768,-0.009858,-0.004053,0.012333,-0.000425,-0.0001,0.00063,-0.002675,-0.514098,0.014474,-0.660939,-264.364147,1.366983,61.86595
13.697,-0.010448,-0.003912,0.013643,-0.000408,-0.00011,0.000629,-0.003043,-0.514064,0.013591,-0.660939,-264.364147,1.366983,61.86595
13.7171,-0.010367,-0.004141,0.01245,-0.000395,-0.000117,0.000628,-0.00349,-0.513865,0.013643,-0.589832,-264.364149,1.292043,61.865947
13.737,-0.010075,-0.004014,0.012595,-0.000259,-0.000188,0.000669,-0.003972,-0.514081,0.012551,-0.589832,-264.364149,1.292043,61.865947
13.7573,-0.010121,-0.004515,0.011456,-0.000152,-0.000241,0.000699,-0.003972,-0.514081,0.012551,-0.589832,-264.364149,1.292043,61.865947
13.7771,-0.010265,-0.004207,0.011578,-6.7e-05,-0.000282,0.000723,-0.00428,-0.514482,0.011458,-0.593386,-264.364165,1.217036,61.865926
13.7968,-0.010147,-0.004225,0.014102,1.8e-05,-0.000306,0.000798,-0.004313,-0.514353,0.011509,-0.593386,-264.364165,1.217036,61.865926
13.8169,-0.010286,-0.004041,0.011489,8.6e-05,-0.000324,0.000858,-0.002955,-0.514174,0.014102,-0.668521,-264.364165,1.292172,61.865926
13.837,-0.009923,-0.00445,0.011731,0.000165,-0.000378,0.000892,-0.004304,-0.514021,0.011707,-0.668521,-264.364165,1.292172,61.865926
13.857,-0.010113,-0.004228,0.014411,0.000228,-0.000419,0.000919,-0.004304,-0.514021,0.011707,-0.668521,-264.364165,1.292172,61.865926
13.877,-0.010073,-0.004147,0.013836,0.000277,-0.00045,0.00094,-0.002764,-0.514175,0.014411,-0.593629,-264.364165,1.367064,61.865926
13.8972,-0.010221,-0.003832,0.011562,9.9e-05,-0.000361,0.000871,-0.002868,-0.514143,0.014175,-0.593629,-264.364165,1.367064,61.865926
13.9169,-0.010303,-0.004146,0.013558,-3.8e-05,-0.000292,0.000814,-0.004325,-0.513798,0.011562,-0.518701,-264.364165,1.292137,61.865926
13.9372,-0.010095,-0.004326,0.014252,-4.2e-05,-0.000287,0.000787,-0.003468,-0.514074,0.013389,-0.518701,-264.364165,1.292137,61.865926
13.9573,-0.010261,-0.004004,0.013284,-4.6e-05,-0.000283,0.000764,-0.003468,-0.514074,0.013389,-0.518701,-264.364165,1.292137,61.865926
13.977,-0.009703,-0.004099,0.01455,-4.8e-05,-0.000279,0.000746,-0.003487,-0.513959,0.013284,-0.59375,-264.364165,1.367186,61.865926
13.9973,-0.010084,-0.004478,0.013366,-0.000118,-0.000254,0.000717,-0.00299,-0.513995,0.013806,-0.59375,-264.364165,1.367186,61.865926
14.0168,-0.009712,-0.004607,0.012852,-0.000172,-0.000235,0.000694,-0.003267,-0.514432,0.013366,-0.668755,-264.364165,1.442191,61.865926
14.0369,-0.00972,-0.004088,0.013366,-0.00023,-0.000167,0.000706,-0.003167,-0.514553,0.012895,-0.668755,-264.364165,1.442191,61.865926
14.0569,-0.010061,-0.004085,0.012996,-0.000275,-0.000113,0.000715,-0.003167,-0.514553,0.012895,-0.668755,-264.364165,1.442191,61.865926
14.0769,-0.010337,-0.004138,0.012668,-0.000309,-7.1e-05,0.000722,-0.003437,-0.514047,0.01301,-0.743746,-264.364217,1.3672,61.865789
14.0969,-0.009798,-0.004436,0.013795,-0.000232,-0.000126,0.000727,-0.003618,-0.514068,0.012871,-0.743746,-264.364217,1.3672,61.865789
14.1167,-0.009934,-0.004496,0.012796,-0.000172,-0.000168,0.000731,-0.002764,-0.514388,0.013798,-0.818745,-264.364239,1.292202,61.865762
14.1369,-0.009765,-0.004213,0.011263,-0.000193,-0.000137,0.000734,-0.003353,-0.514448,0.012881,-0.818745,-264.364239,1.292202,61.865762
14.1568,-0.009992,-0.003952,0.012355,-0.000209,-0.000112,0.000736,-0.003353,-0.514448,0.012881,-0.818745,-264.364239,1.292202,61.865762
14.1769,-0.010223,-0.004222,0.012271,-0.000221,-9.2e-05,0.000737,-0.003695,-0.513917,0.012371,-0.893744,-264.364308,1.298543,61.865627
14.197,-0.009836,-0.004538,0.013101,-0.000134,-0.000161,0.00076,-0.003807,-0.514027,0.012332,-0.893744,-264.364308,1.298543,61.865627
14.2168,-0.01027,-0.004284,0.012734,-6.6e-05,-0.000213,0.000778,-0.003159,-0.514497,0.013116,-0.968722,-264.364414,1.223564,61.865479
14.2368,-0.009856,-0.004118,0.015115,-4.4e-05,-0.000218,0.000776,-0.003721,-0.514265,0.012769,-0.968722,-264.364414,1.223564,61.865479
14.2569,-0.009965,-0.004199,0.013676,-2.7e-05,-0.000221,0.000774,-0.003721,-0.514265,0.012769,-0.968722,-264.364414,1.223564,61.865479
14.2768,-0.010381,-0.004238,0.012682,-1.3e-05,-0.000223,0.000773,-0.002991,-0.514151,0.013678,-1.043605,-264.364419,1.298448,61.865467
14.297,-0.010949,-0.004132,0.012629,-4.4e-05,-0.000212,0.000753,-0.003367,-0.51417,0.013272,-1.043605,-264.364419,1.298448,61.865467
14.3171,-0.010129,-0.003699,0.012693,-6.7e-05,-0.000203,0.000738,-0.004509,-0.514091,0.012629,-1.118608,-264.36442,1.37345,61.865464
14.337,-0.010396,-0.004096,0.011839,4e-06,-0.000287,0.000745,-0.003727,-0.513694,0.012688,-1.118608,-264.36442,1.37345,61.865464
14.3572,-0.010022,-0.00429,0.012574,5.9e-05,-0.000352,0.00075,-0.003727,-0.513694,0.012688,-1.118608,-264.36442,1.37345,61.865464
14.3772,-0.009782,-0.004035,0.015004,0.000102,-0.000402,0.000754,-0.003611,-0.514254,0.012589,-1.193777,-264.364471,1.448619,61.865334
14.3977,-0.010238,-0.004099,0.013158,-1.3e-05,-0.000331,0.00073,-0.003001,-0.51414,0.013586,-1.193777,-264.364471,1.448619,61.865334
14.4173,-0.01007,-0.004324,0.013288,-0.000101,-0.000276,0.000711,-0.003528,-0.514055,0.013158,-1.118818,-264.364471,1.523577,61.865334
14.4374,-0.009672,-0.004372,0.012346,-0.000129,-0.000241,0.000706,-0.003315,-0.514259,0.013276,-1.118818,-264.364471,1.523577,61.865334
14.4572,-0.010067,-0.004374,0.013842,-0.000151,-0.000213,0.000701,-0.003315,-0.514259,0.013276,-1.118818,-264.364471,1.523577,61.865334
14.4769,-0.010394,-0.004109,0.012066,-0.000167,-0.000191,0.000697,-0.00301,-0.514333,0.013863,-1.043953,-264.364523,1.448712,61.865135
14.4969,-0.009892,-0.004163,0.013767,-0.000149,-0.000192,0.000699,-0.003512,-0.514228,0.013132,-1.043953,-264.364523,1.448712,61.865135
14.5167,-0.009992,-0.004224,0.013089,-0.000134,-0.000192,0.0007,-0.002874,-0.514118,0.013781,-0.968951,-264.364595,1.373711,61.864974
14.537,-0.010111,-0.004305,0.012641,-0.000152,-0.000181,0.000698,-0.003279,-0.514175,0.013149,-0.968951,-264.364595,1.373711,61.864974
14.5571,-0.009593,-0.004281,0.014025,-0.000166,-0.000173,0.000697,-0.003279,-0.514175,0.013149,-0.968951,-264.364595,1.373711,61.864974
14.5771,-0.009943,-0.004403,0.013816,-0.000177,-0.000167,0.000696,-0.002446,-0.514238,0.014051,-1.044081,-264.364691,1.357962,61.86475
14.5972,-0.010042,-0.004216,0.013049,-0.000303,-0.000108,0.000674,-0.002632,-0.514287,0.013957,-1.044081,-264.364691,1.357962,61.86475
14.6167,-0.010397,-0.004313,0.013348,-0.0004,-6.3e-05,0.000656,-0.003392,-0.514177,0.013067,-0.969182,-264.364795,1.282983,61.864546
14.6368,-0.009884,-0.004483,0.013808,-0.000325,-9.3e-05,0.000662,-0.003574,-0.51426,0.013325,-0.969182,-264.364795,1.282983,61.864546
14.6571,-0.010264,-0.004198,0.013057,-0.000267,-0.000116,0.000666,-0.003574,-0.51426,0.013325,-0.969182,-264.364795,1.282983,61.864546
14.6768,-0.010243,-0.003915,0.013254,-0.00022,-0.000133,0.000669,-0.003605,-0.514155,0.013058,-0.894152,-264.364798,1.207953,61.864542
14.697,-0.009952,-0.004514,0.012383,-0.000168,-0.000173,0.000674,-0.003555,-0.514039,0.013138,-0.894152,-264.364798,1.207953,61.864542
14.7172,-0.009987,-0.00438,0.012187,-0.000128,-0.000203,0.000678,-0.003643,-0.514479,0.012404,-0.895081,-264.364939,1.184161,61.864309
14.7371,-0.01006,-0.004004,0.014066,-9.4e-05,-0.000202,0.000719,-0.003762,-0.514353,0.012205,-0.895081,-264.364939,1.184161,61.864309
14.7571,-0.010041,-0.004247,0.010133,-6.7e-05,-0.000202,0.000752,-0.003762,-0.514353,0.012205,-0.895081,-264.364939,1.184161,61.864309
14.7771,-0.009953,-0.004279,0.012496,-4.6e-05,-0.000201,0.000778,-0.004876,-0.514225,0.010145,-0.970407,-264.364982,1.259487,61.864198
14.7973,-0.010059,-0.004295,0.014444,5.1e-05,-0.00026,0.000866,-0.004344,-0.514231,0.011113,-0.970407,-264.364982,1.259487,61.864198
14.8171,-0.01041,-0.004362,0.012435,0.000128,-0.000305,0.000936,-0.002693,-0.514242,0.014445,-1.045184,-264.364984,1.334264,61.864193
