mach0312/omni-docking-bench/src/icros_test_setup/results/MPPI_sample/timeseries/trial_018.csv
t,x,y,yaw,vx,vy,wz,bl_x,bl_y,bl_yaw,front_steering_joint,front_wheel_joint,rear_steering_joint,rear_wheel_joint
0.0,-0.027534,0.019668,0.086168,0.0,0.0,0.0,0.016725,-0.488597,0.086799,0.155614,-265.012262,-0.467156,62.7766
0.0005,-0.027294,0.01912,0.086798,0.0,0.0,0.0,0.015794,-0.48871,0.085131,0.155614,-265.012262,-0.467156,62.7766
0.0008,-0.027578,0.019183,0.085374,0.0001,-5e-06,0.0,0.01594,-0.48875,0.085097,0.155614,-265.012262,-0.467156,62.7766
0.0011,-0.027816,0.019384,0.084921,0.0001,-5e-06,0.0,0.01594,-0.48875,0.085097,0.155614,-265.012262,-0.467156,62.7766
0.0015,-0.027723,0.01918,0.085794,0.0001,-5e-06,0.0,0.01594,-0.48875,0.085097,0.155614,-265.012262,-0.467156,62.7766
0.0019,-0.027226,0.019856,0.087521,0.0001,-5e-06,0.0,0.016093,-0.488744,0.085495,0.080574,-265.012261,-0.392117,62.776601
0.0022,-0.02779,0.019566,0.085461,0.0001,-5e-06,0.0,0.016093,-0.488744,0.085495,0.080574,-265.012261,-0.392117,62.776601
0.0025,-0.027385,0.019103,0.085388,0.0001,-5e-06,0.0,0.015986,-0.488635,0.085262,0.080574,-265.012261,-0.392117,62.776601
0.0027,-0.027709,0.019444,0.086499,0.0001,-5e-06,0.0,0.015986,-0.488635,0.085262,0.080574,-265.012261,-0.392117,62.776601
0.0149,-0.027637,0.019607,0.085413,0.0,0.0,0.0,0.01635,-0.488649,0.086499,0.005312,-265.012257,-0.316854,62.776606
0.0351,-0.027477,0.019422,0.085238,0.0,0.0,0.0,0.015911,-0.488543,0.085504,0.005312,-265.012257,-0.316854,62.776606
0.0554,-0.027483,0.019802,0.083495,0.0,0.0,0.0,0.015911,-0.488543,0.085504,0.005312,-265.012257,-0.316854,62.776606
0.0756,-0.02755,0.019268,0.085728,0.0,0.0,0.0,0.01505,-0.488422,0.083495,0.005312,-265.012257,-0.316854,62.776606
0.0952,-0.027486,0.019492,0.084969,0.0,0.0,0.0,0.015482,-0.488599,0.084398,0.005312,-265.012257,-0.316854,62.776606
0.1152,-0.027362,0.019165,0.085976,-0.002956,-0.006927,-0.007954,0.015796,-0.488668,0.084969,0.005312,-265.012257,-0.316854,62.776606
0.1352,-0.027632,0.019795,0.085948,-0.003254,-0.007538,-0.008583,0.016377,-0.488927,0.08589,0.005312,-265.012257,-0.316854,62.776606
0.1554,-0.027273,0.019499,0.085415,-0.003512,-0.008061,-0.009095,0.016377,-0.488927,0.08589,0.005312,-265.012257,-0.316854,62.776606
0.175,-0.027509,0.019378,0.08541,-0.003735,-0.00851,-0.009509,0.016236,-0.488642,0.085415,0.080462,-265.012257,-0.241704,62.776606
0.1953,-0.027279,0.019733,0.08539,-0.00392,-0.008906,-0.009845,0.016138,-0.488691,0.085413,0.080462,-265.012257,-0.241704,62.776606
0.2152,-0.02781,0.01979,0.085227,-0.004081,-0.009245,-0.010118,0.016217,-0.488409,0.08539,0.155474,-265.012257,-0.166692,62.776606
0.2355,-0.027443,0.019561,0.084392,-0.004207,-0.009553,-0.010338,0.015658,-0.488364,0.085241,0.155474,-265.012257,-0.166692,62.776606
0.2556,-0.027926,0.0193,0.085516,-0.004316,-0.009817,-0.010518,0.015658,-0.488364,0.085241,0.155474,-265.012257,-0.166692,62.776606
0.2752,-0.02749,0.019336,0.085219,-0.00441,-0.010042,-0.010665,0.015634,-0.488837,0.085516,0.230419,-265.012257,-0.091747,62.776606
0.2951,-0.027738,0.019579,0.084768,-0.004499,-0.010223,-0.010786,0.015751,-0.488827,0.085394,0.230419,-265.012257,-0.091747,62.776606
0.3152,-0.027486,0.019545,0.085004,-0.004577,-0.01038,-0.010884,0.015442,-0.48859,0.084768,0.305429,-265.012257,-0.016737,62.776606
0.3352,-0.027796,0.019344,0.085699,-0.004642,-0.010518,-0.010964,0.015783,-0.488612,0.084984,0.305429,-265.012257,-0.016737,62.776606
0.3553,-0.027704,0.019469,0.08499,-0.004698,-0.010637,-0.01103,0.015783,-0.488612,0.084984,0.305429,-265.012257,-0.016737,62.776606
0.3753,-0.027004,0.019639,0.084355,-0.004746,-0.010739,-0.011084,0.015589,-0.48869,0.08499,0.380436,-265.012257,0.058271,62.776606
0.3952,-0.027826,0.019649,0.085132,-0.004788,-0.010828,-0.011129,0.015744,-0.488631,0.084729,0.380436,-265.012257,0.058271,62.776606
0.4154,-0.027785,0.019496,0.086422,-0.004824,-0.010904,-0.011166,0.015539,-0.488504,0.085132,0.455453,-265.012257,0.133287,62.776606
0.4353,-0.027522,0.01955,0.086134,-0.004863,-0.010959,-0.011198,0.016172,-0.488592,0.086306,0.455453,-265.012257,0.133287,62.776606
0.455,-0.027505,0.019744,0.086019,-0.004898,-0.011007,-0.011224,0.016172,-0.488592,0.086306,0.455453,-265.012257,0.133287,62.776606
0.475,-0.027394,0.019956,0.085135,-0.004928,-0.011049,-0.011246,0.016311,-0.48837,0.086019,0.530311,-265.012257,0.208145,62.776606
0.495,-0.027477,0.019428,0.085612,-0.004949,-0.011092,-0.011264,0.016173,-0.488299,0.085658,0.530311,-265.012257,0.208145,62.776606
0.5152,-0.027599,0.0197,0.084453,-0.004968,-0.011129,-0.011279,0.016132,-0.488704,0.085612,0.605322,-265.012257,0.283157,62.776606
0.5351,-0.027241,0.019455,0.085017,-0.004974,-0.011175,-0.011291,0.015485,-0.488502,0.084557,0.605322,-265.012257,0.283157,62.776606
0.5552,-0.027624,0.019666,0.085441,-0.004979,-0.011214,-0.011301,0.015485,-0.488502,0.084557,0.605322,-265.012257,0.283157,62.776606
0.5753,-0.027178,0.019427,0.085832,-0.004983,-0.011247,-0.01131,0.015899,-0.488474,0.085441,0.680307,-265.012257,0.358141,62.776606
0.5955,-0.027216,0.019485,0.085,-0.005,-0.011257,-0.011319,0.016159,-0.488563,0.085599,0.680307,-265.012257,0.358141,62.776606
0.615,-0.027724,0.019434,0.086757,-0.005016,-0.011266,-0.011326,0.016082,-0.488674,0.085,0.755306,-265.012258,0.43314,62.776605
0.6351,-0.027696,0.019158,0.085386,-0.005036,-0.011265,-0.011332,0.016435,-0.48865,0.086612,0.755306,-265.012258,0.43314,62.776605
0.655,-0.027703,0.019559,0.084818,-0.005053,-0.011265,-0.011337,0.016435,-0.48865,0.086612,0.755306,-265.012258,0.43314,62.776605
0.6751,-0.027615,0.019689,0.084882,-0.005068,-0.011266,-0.011342,0.015502,-0.488609,0.084818,0.83053,-265.012272,0.508365,62.776601
0.6953,-0.027515,0.019283,0.085469,-0.005063,-0.011293,-0.011344,0.015551,-0.488554,0.084844,0.83053,-265.012272,0.508365,62.776601
0.715,-0.027466,0.019754,0.084374,-0.005059,-0.011315,-0.011346,0.016018,-0.48886,0.085465,0.905308,-265.012376,0.583142,62.776564
0.7353,-0.027494,0.019547,0.084323,-0.005053,-0.011335,-0.011348,0.015557,-0.488469,0.084467,0.905308,-265.012376,0.583142,62.776564
0.7555,-0.027436,0.019419,0.085263,-0.005049,-0.011352,-0.011349,0.015557,-0.488469,0.084467,0.905308,-265.012376,0.583142,62.776564
0.7751,-0.027661,0.019914,0.085188,-0.005045,-0.011366,-0.011351,0.015978,-0.488754,0.08524,0.980424,-265.012818,0.658259,62.776408
0.7952,-0.027713,0.019217,0.085548,-0.005049,-0.011367,-0.011353,0.015876,-0.488545,0.085216,0.980424,-265.012818,0.658259,62.776408
0.8149,-0.027531,0.019197,0.08556,-0.005052,-0.011369,-0.011355,0.015828,-0.488979,0.085493,1.055408,-265.014144,0.720951,62.775938
0.8353,-0.027633,0.019187,0.084458,-0.005064,-0.011359,-0.011357,0.016031,-0.488944,0.085552,1.055408,-265.014144,0.720951,62.775938
0.8553,-0.027531,0.01891,0.084044,-0.005074,-0.011351,-0.011358,0.016031,-0.488944,0.085552,1.055408,-265.014144,0.720951,62.775938
0.8751,-0.027184,0.019285,0.085691,-0.005082,-0.011345,-0.011359,0.015193,-0.489467,0.083881,1.130402,-265.016996,0.720353,62.774929
0.8955,-0.027281,0.01932,0.085539,-0.005088,-0.011343,-0.01136,0.015707,-0.489231,0.084608,1.130402,-265.016996,0.720353,62.774929
0.9151,-0.02728,0.018511,0.084293,-0.005092,-0.011342,-0.011361,0.016191,-0.489047,0.08532,1.205395,-265.021786,0.714343,62.773231
0.9351,-0.027595,0.018991,0.08431,-0.005103,-0.011333,-0.011436,0.015698,-0.489636,0.084369,1.205395,-265.021786,0.714343,62.773231
0.9556,-0.027341,0.018727,0.084226,-0.005112,-0.011325,-0.011497,0.015698,-0.489636,0.084369,1.205395,-265.021786,0.714343,62.773231
0.9751,-0.027455,0.018078,0.08367,-0.00512,-0.011319,-0.011545,0.015408,-0.48989,0.083817,1.280463,-265.028366,0.713022,62.770896
0.9952,-0.027547,0.018014,0.085505,-0.005124,-0.011318,-0.011634,0.015292,-0.49004,0.08371,1.280463,-265.028366,0.713022,62.770896
1.0152,-0.027424,0.017608,0.083323,-0.005128,-0.011317,-0.011706,0.015878,-0.490492,0.085142,1.298987,-265.035913,0.69492,62.768259
1.0354,-0.027139,0.017597,0.083617,-0.005137,-0.011309,-0.01182,0.015092,-0.490629,0.083467,1.298987,-265.035913,0.69492,62.768259
1.0552,-0.027579,0.017703,0.085568,-0.005144,-0.011302,-0.011912,0.015092,-0.490629,0.083467,1.298987,-265.035913,0.69492,62.768259
1.0752,-0.027326,0.017153,0.083165,-0.00515,-0.011297,-0.011986,0.015835,-0.490921,0.085078,1.299923,-265.04356,0.682432,62.765622
1.0951,-0.027475,0.017479,0.084145,-0.00517,-0.011272,-0.012098,0.015492,-0.491043,0.084247,1.299923,-265.04356,0.682432,62.765622
1.1151,-0.027257,0.016824,0.081812,-0.005187,-0.011251,-0.012188,0.015256,-0.491087,0.083766,1.300928,-265.051212,0.657557,62.763044
1.1353,-0.027247,0.016601,0.082621,-0.005188,-0.011255,-0.012307,0.01449,-0.491454,0.08197,1.300928,-265.051212,0.657557,62.763044
1.1551,-0.026881,0.016626,0.080296,-0.005189,-0.011258,-0.012404,0.01449,-0.491454,0.08197,1.300928,-265.051212,0.657557,62.763044
1.175,-0.027249,0.015828,0.082704,-0.00519,-0.01126,-0.012483,0.013849,-0.492214,0.07979,1.30015,-265.058898,0.633199,62.760495
1.1951,-0.02689,0.015893,0.080836,-0.0052,-0.011248,-0.012594,0.014248,-0.492356,0.080915,1.30015,-265.058898,0.633199,62.760495
1.2153,-0.027068,0.015855,0.08312,-0.005208,-0.011238,-0.012684,0.014156,-0.49281,0.08044,1.302609,-265.06667,0.611189,62.757981
1.2353,-0.02688,0.015564,0.081199,-0.005236,-0.011199,-0.012804,0.015146,-0.492453,0.082809,1.302609,-265.06667,0.611189,62.757981
1.2551,-0.027082,0.015648,0.081882,-0.00526,-0.011167,-0.012902,0.015146,-0.492453,0.082809,1.302609,-265.06667,0.611189,62.757981
1.275,-0.02727,0.014879,0.080719,-0.005281,-0.011142,-0.012981,0.014454,-0.493127,0.081354,1.303043,-265.074491,0.590512,62.75549
1.2954,-0.026759,0.014996,0.081167,-0.005295,-0.011128,-0.013086,0.014188,-0.493318,0.081035,1.303043,-265.074491,0.590512,62.75549
1.3152,-0.026885,0.01457,0.079667,-0.005307,-0.011117,-0.013171,0.014456,-0.493682,0.080766,1.300655,-265.082166,0.546726,62.753092
1.3355,-0.026845,0.014277,0.080545,-0.005317,-0.011107,-0.013276,0.013763,-0.493819,0.079745,1.300655,-265.082166,0.546726,62.753092
1.3554,-0.026665,0.014164,0.079395,-0.005326,-0.0111,-0.013361,0.013763,-0.493819,0.079745,1.300655,-265.082166,0.546726,62.753092
1.3756,-0.026709,0.014163,0.079559,-0.005333,-0.011094,-0.013431,0.013601,-0.494707,0.078847,1.300617,-265.090053,0.52484,62.750659
1.3954,-0.026716,0.014221,0.077115,-0.005351,-0.01107,-0.01352,0.01367,-0.494566,0.079073,1.300617,-265.090053,0.52484,62.750659
1.4151,-0.026242,0.013221,0.078125,-0.005367,-0.01105,-0.013592,0.012432,-0.494625,0.076691,1.301165,-265.097965,0.496698,62.748262
1.4352,-0.026987,0.013344,0.079292,-0.005387,-0.011023,-0.013673,0.01345,-0.495187,0.077972,1.301165,-265.097965,0.496698,62.748262
1.4556,-0.026717,0.013344,0.078846,-0.005405,-0.011001,-0.013738,0.01345,-0.495187,0.077972,1.301165,-265.097965,0.496698,62.748262
1.4755,-0.026242,0.013146,0.076176,-0.00542,-0.010983,-0.013792,0.013266,-0.495547,0.078281,1.300266,-265.105928,0.47337,62.745871
1.4953,-0.025988,0.012879,0.077556,-0.005429,-0.010975,-0.013847,0.012963,-0.495532,0.077364,1.300266,-265.105928,0.47337,62.745871
1.5149,-0.026227,0.012305,0.077769,-0.005437,-0.010968,-0.013892,0.013382,-0.495945,0.077123,1.298454,-265.113851,0.441268,62.743514
1.5352,-0.026025,0.012162,0.076904,-0.005465,-0.010926,-0.013939,0.013386,-0.496153,0.077687,1.298454,-265.113851,0.441268,62.743514
1.5555,-0.026073,0.01208,0.07751,-0.005489,-0.010892,-0.013976,0.013386,-0.496153,0.077687,1.298454,-265.113851,0.441268,62.743514
1.5757,-0.026253,0.011799,0.075201,-0.00551,-0.010865,-0.014007,0.013225,-0.496866,0.076926,1.298255,-265.121916,0.428568,62.741128
1.5961,-0.026146,0.011656,0.077183,-0.005529,-0.010841,-0.014039,0.012742,-0.496878,0.076175,1.298255,-265.121916,0.428568,62.741128
1.6153,-0.026017,0.011251,0.073603,-0.005545,-0.010821,-0.014065,0.013032,-0.497179,0.076742,1.29435,-265.12986,0.397104,62.738776
1.6355,-0.025735,0.011325,0.074527,-0.005543,-0.010832,-0.014089,0.011619,-0.497369,0.073865,1.29435,-265.12986,0.397104,62.738776
1.6562,-0.025934,0.01123,0.075557,-0.005542,-0.01084,-0.01411,0.011619,-0.497369,0.073865,1.29435,-265.12986,0.397104,62.738776
1.6756,-0.025943,0.010867,0.075529,-0.005541,-0.010847,-0.014127,0.012365,-0.497787,0.074964,1.292548,-265.137908,0.382575,62.736393
1.6954,-0.025266,0.010772,0.076016,-0.005567,-0.010802,-0.014152,0.012411,-0.497797,0.075119,1.292548,-265.137908,0.382575,62.736393
1.7152,-0.025822,0.009894,0.073192,-0.00559,-0.010766,-0.014171,0.013314,-0.498114,0.075564,1.29362,-265.146007,0.380886,62.734006
1.7358,-0.025986,0.010142,0.074532,-0.005613,-0.01073,-0.014193,0.011628,-0.498703,0.07338,1.29362,-265.146007,0.380886,62.734006
1.7555,-0.026099,0.009786,0.074241,-0.005633,-0.010701,-0.01421,0.011628,-0.498703,0.07338,1.29362,-265.146007,0.380886,62.734006
1.7758,-0.025341,0.010097,0.074201,-0.005651,-0.010678,-0.014224,0.011531,-0.499273,0.073651,1.290534,-265.154038,0.361105,62.731631
1.7957,-0.025722,0.009803,0.073976,-0.005678,-0.010633,-0.014242,0.011884,-0.499016,0.073804,1.290534,-265.154038,0.361105,62.731631
1.8154,-0.02563,0.009044,0.072691,-0.005702,-0.010597,-0.014256,0.011817,-0.499153,0.073525,1.286883,-265.162052,0.338659,62.729251
1.8358,-0.025769,0.009287,0.074441,-0.005727,-0.01056,-0.014272,0.011437,-0.499587,0.072741,1.286883,-265.162052,0.338659,62.729251
1.8554,-0.025658,0.009408,0.072309,-0.005748,-0.010529,-0.014285,0.011437,-0.499587,0.072741,1.286883,-265.162052,0.338659,62.729251
1.8757,-0.02565,0.008069,0.071441,-0.005767,-0.010505,-0.014295,0.010983,-0.499716,0.071716,1.283564,-265.170057,0.320137,62.726862
1.8958,-0.025698,0.008016,0.07291,-0.005783,-0.010482,-0.014307,0.010865,-0.500141,0.071535,1.283564,-265.170057,0.320137,62.726862
1.9152,-0.025288,0.00801,0.070937,-0.005798,-0.010464,-0.014317,0.011296,-0.500973,0.072459,1.279532,-265.178017,0.298449,62.724471
1.9358,-0.025131,0.007633,0.070384,-0.005826,-0.010413,-0.014331,0.010891,-0.500749,0.071051,1.279532,-265.178017,0.298449,62.724471
1.9558,-0.025438,0.008176,0.072415,-0.00585,-0.010373,-0.014341,0.010891,-0.500749,0.071051,1.279532,-265.178017,0.298449,62.724471
1.9759,-0.025389,0.007371,0.071048,-0.005871,-0.01034,-0.014349,0.011249,-0.500947,0.071808,1.277649,-265.186029,0.288377,62.722056
1.9957,-0.025258,0.007143,0.072095,-0.005903,-0.010282,-0.014361,0.011057,-0.501151,0.071447,1.277649,-265.186029,0.288377,62.722056
2.0158,-0.024962,0.006993,0.071461,-0.00593,-0.010235,-0.014369,0.011318,-0.501871,0.071643,1.272626,-265.193944,0.26232,62.719648
2.0353,-0.024788,0.007247,0.070392,-0.005975,-0.010143,-0.014384,0.011433,-0.501736,0.071455,1.272626,-265.193944,0.26232,62.719648
2.0552,-0.024828,0.006808,0.070994,-0.006013,-0.010069,-0.014393,0.011433,-0.501736,0.071455,1.272626,-265.193944,0.26232,62.719648
2.0751,-0.024988,0.006357,0.070509,-0.006047,-0.01001,-0.0144,0.011132,-0.50235,0.070395,1.268411,-265.201851,0.241152,62.717224
2.0955,-0.024778,0.006541,0.068328,-0.006084,-0.009935,-0.014409,0.01103,-0.502411,0.070373,1.268411,-265.201851,0.241152,62.717224
2.1152,-0.025129,0.005817,0.070906,-0.006117,-0.009874,-0.014414,0.009876,-0.50259,0.067883,1.25969,-265.209507,0.198419,62.714833
2.1355,-0.024779,0.006052,0.069348,-0.006155,-0.009795,-0.014422,0.010894,-0.50289,0.070616,1.25969,-265.209507,0.198419,62.714833
2.1553,-0.02488,0.005772,0.069639,-0.006187,-0.009732,-0.014427,0.010894,-0.50289,0.070616,1.25969,-265.209507,0.198419,62.714833
2.1759,-0.024766,0.005558,0.068079,-0.006215,-0.009681,-0.014429,0.010383,-0.503417,0.069043,1.254283,-265.217283,0.1732,62.712376
2.1959,-0.024762,0.005802,0.06949,-0.00624,-0.009634,-0.014431,0.010173,-0.503403,0.068584,1.254283,-265.217283,0.1732,62.712376
2.2152,-0.024679,0.004917,0.068338,-0.006261,-0.009596,-0.014432,0.010477,-0.503282,0.069039,1.246575,-265.224936,0.138893,62.709914
2.2357,-0.024407,0.004986,0.067032,-0.006289,-0.009528,-0.014437,0.010166,-0.503854,0.068377,1.246575,-265.224936,0.138893,62.709914
2.2552,-0.024621,0.005275,0.067821,-0.006313,-0.009473,-0.01444,0.010166,-0.503854,0.068377,1.246575,-265.224936,0.138893,62.709914
2.2754,-0.024764,0.004169,0.068398,-0.006335,-0.009429,-0.01444,0.009707,-0.50397,0.067218,1.243003,-265.232684,0.124172,62.7074
2.2954,-0.024678,0.00455,0.068063,-0.006358,-0.009371,-0.014444,0.009836,-0.504288,0.067625,1.243003,-265.232684,0.124172,62.7074
2.3151,-0.024283,0.004261,0.065247,-0.006378,-0.009324,-0.014445,0.009829,-0.504579,0.067609,1.236665,-265.240308,0.095945,62.704888
2.3355,-0.024357,0.004086,0.067093,-0.00639,-0.00929,-0.014444,0.009037,-0.504663,0.065435,1.236665,-265.240308,0.095945,62.704888
2.3556,-0.024734,0.003984,0.066274,-0.0064,-0.009262,-0.014443,0.009037,-0.504663,0.065435,1.236665,-265.240308,0.095945,62.704888
2.3756,-0.02455,0.003481,0.06541,-0.006409,-0.00924,-0.014441,0.008801,-0.505302,0.065672,1.232812,-265.247972,0.078465,62.702339
2.3955,-0.024495,0.003439,0.065214,-0.006428,-0.009155,-0.014448,0.008767,-0.5054,0.065495,1.232812,-265.247972,0.078465,62.702339
2.4153,-0.02469,0.003017,0.065265,-0.006445,-0.009088,-0.014452,0.008556,-0.505783,0.064755,1.229795,-265.255608,0.065572,62.69978
2.4353,-0.024366,0.003244,0.065185,-0.006466,-0.008984,-0.01446,0.008561,-0.505902,0.065194,1.229795,-265.255608,0.065572,62.69978
2.4556,-0.024216,0.00301,0.066259,-0.006484,-0.008901,-0.014464,0.008561,-0.505902,0.065194,1.229795,-265.255608,0.065572,62.69978
2.4756,-0.024243,0.002661,0.063558,-0.0065,-0.008836,-0.014465,0.009311,-0.506264,0.065661,1.225438,-265.263138,0.040537,62.697229
2.4956,-0.024403,0.002858,0.065832,-0.006524,-0.008721,-0.014473,0.00881,-0.506327,0.064736,1.225438,-265.263138,0.040537,62.697229
2.5158,-0.023978,0.002389,0.062947,-0.006546,-0.008631,-0.014476,0.008964,-0.506323,0.065384,1.218276,-265.27047,0.000198,62.694697
2.5352,-0.024423,0.002357,0.061743,-0.006559,-0.008551,-0.014477,0.008172,-0.506591,0.063146,1.218276,-265.27047,0.000198,62.694697
2.5558,-0.024086,0.002602,0.063494,-0.00657,-0.008488,-0.014474,0.008172,-0.506591,0.063146,1.218276,-265.27047,0.000198,62.694697
2.575,-0.023969,0.001844,0.062847,-0.00658,-0.008437,-0.014471,0.008028,-0.506742,0.062898,1.212336,-265.277809,-0.032164,62.692121
2.5951,-0.024381,0.002073,0.061357,-0.00659,-0.008354,-0.014473,0.008013,-0.506951,0.062809,1.212336,-265.277809,-0.032164,62.692121
2.6152,-0.023995,0.001491,0.061517,-0.006599,-0.008287,-0.014473,0.006701,-0.507245,0.060903,1.206865,-265.285103,-0.060848,62.68952
2.6352,-0.024285,0.001629,0.06228,-0.006597,-0.008172,-0.014483,0.00729,-0.507532,0.061439,1.206865,-265.285103,-0.060848,62.68952
2.6551,-0.024105,0.001625,0.062307,-0.006596,-0.00808,-0.014487,0.00729,-0.507532,0.061439,1.206865,-265.285103,-0.060848,62.68952
2.6755,-0.023817,0.000902,0.061068,-0.006596,-0.008007,-0.014487,0.007399,-0.507745,0.061706,1.20299,-265.292378,-0.083511,62.686895
2.6953,-0.024244,0.000901,0.062781,-0.006598,-0.00788,-0.014498,0.007333,-0.50795,0.061377,1.20299,-265.292378,-0.083511,62.686895
2.7154,-0.024213,0.000601,0.060394,-0.0066,-0.007779,-0.014502,0.007564,-0.508355,0.062332,1.197776,-265.299415,-0.126731,62.68431
2.7355,-0.023531,0.000855,0.059771,-0.006581,-0.007623,-0.014518,0.006646,-0.508473,0.06054,1.197776,-265.299415,-0.126731,62.68431
2.7555,-0.024032,0.000835,0.06083,-0.006567,-0.0075,-0.014525,0.006646,-0.508473,0.06054,1.197776,-265.299415,-0.126731,62.68431
2.7755,-0.024075,0.000224,0.058626,-0.006556,-0.007402,-0.014525,0.006722,-0.508557,0.060236,1.193105,-265.306422,-0.161934,62.681691
2.7957,-0.024262,0.000338,0.059491,-0.006533,-0.007282,-0.014531,0.006322,-0.508734,0.059514,1.193105,-265.306422,-0.161934,62.681691
2.8156,-0.023532,0.000313,0.058582,-0.006514,-0.007187,-0.014531,0.005876,-0.508994,0.059053,1.187802,-265.313063,-0.220439,62.679148
2.8355,-0.023604,-9.4e-05,0.060098,-0.006497,-0.007095,-0.014529,0.006278,-0.50884,0.058602,1.187802,-265.313063,-0.220439,62.679148
2.8557,-0.024008,0.000447,0.060631,-0.006483,-0.007021,-0.014523,0.006278,-0.50884,0.058602,1.187802,-265.313063,-0.220439,62.679148
2.8755,-0.023633,6.8e-05,0.057392,-0.006472,-0.006962,-0.014516,0.006644,-0.508929,0.06003,1.185478,-265.319875,-0.253448,62.676504
2.8957,-0.023964,-0.000545,0.057249,-0.006457,-0.00688,-0.014515,0.006207,-0.50903,0.058911,1.185478,-265.319875,-0.253448,62.676504
2.9152,-0.023462,-0.000708,0.055431,-0.006445,-0.006814,-0.014511,0.005026,-0.509939,0.056794,1.182641,-265.326598,-0.286095,62.673851
2.9355,-0.023658,-0.000419,0.057823,-0.006316,-0.006577,-0.014569,0.004805,-0.509938,0.055531,1.182641,-265.326598,-0.286095,62.673851
2.955,-0.023727,-0.000683,0.057068,-0.006214,-0.006389,-0.014599,0.004805,-0.509938,0.055531,1.182641,-265.326598,-0.286095,62.673851
2.9751,-0.023664,-0.000776,0.057123,-0.006132,-0.006239,-0.01461,0.005111,-0.510151,0.056465,1.180737,-265.333327,-0.307707,62.671166
2.9953,-0.023601,-0.001281,0.055998,-0.006093,-0.006088,-0.014613,0.005221,-0.510101,0.056664,1.180737,-265.333327,-0.307707,62.671166
3.0151,-0.023488,-0.000948,0.056662,-0.006062,-0.005968,-0.014607,0.004788,-0.510659,0.055612,1.186485,-265.338808,-0.382705,62.668923
3.0354,-0.023854,-0.001323,0.056058,-0.006044,-0.00586,-0.014592,0.005332,-0.510186,0.056548,1.186485,-265.338808,-0.382705,62.668923
3.0552,-0.023289,-0.001186,0.056393,-0.00603,-0.005774,-0.014576,0.005332,-0.510186,0.056548,1.186485,-265.338808,-0.382705,62.668923
3.0754,-0.023562,-0.001757,0.056332,-0.006019,-0.005705,-0.014559,0.005235,-0.510619,0.055829,1.184131,-265.344745,-0.453219,62.666433
3.0951,-0.023697,-0.001514,0.054999,-0.005972,-0.005532,-0.014579,0.005176,-0.510782,0.05597,1.184131,-265.344745,-0.453219,62.666433
3.1154,-0.023655,-0.002131,0.055257,-0.005937,-0.005394,-0.014585,0.00416,-0.510931,0.054543,1.179672,-265.350958,-0.486876,62.663753
3.1354,-0.023572,-0.002045,0.055634,-0.005813,-0.005166,-0.014636,0.004474,-0.511326,0.055175,1.179672,-265.350958,-0.486876,62.663753
3.1552,-0.023324,-0.002216,0.05387,-0.005716,-0.004982,-0.014661,0.004474,-0.511326,0.055175,1.179672,-265.350958,-0.486876,62.663753
3.1753,-0.023522,-0.002172,0.053811,-0.00564,-0.004835,-0.01467,0.003909,-0.511706,0.053284,1.177349,-265.356929,-0.534419,62.661093
3.1952,-0.023386,-0.002192,0.053272,-0.00549,-0.004649,-0.014703,0.003883,-0.51162,0.053434,1.177349,-265.356929,-0.534419,62.661093
3.2154,-0.023407,-0.002591,0.054126,-0.005371,-0.004498,-0.014716,0.003622,-0.511611,0.052874,1.182697,-265.362053,-0.609409,62.658691
3.2352,-0.023215,-0.002504,0.054211,-0.005295,-0.004349,-0.014714,0.004129,-0.511831,0.054,1.182697,-265.362053,-0.609409,62.658691
3.2551,-0.023379,-0.002469,0.053292,-0.005235,-0.004228,-0.014704,0.004129,-0.511831,0.054,1.182697,-265.362053,-0.609409,62.658691
3.2754,-0.023111,-0.002476,0.052388,-0.005188,-0.00413,-0.014688,0.003597,-0.511922,0.05275,1.19175,-265.367186,-0.684396,62.656215
3.2953,-0.023092,-0.002402,0.053133,-0.005077,-0.004029,-0.014687,0.003574,-0.511883,0.05254,1.19175,-265.367186,-0.684396,62.656215
3.3151,-0.022917,-0.002736,0.050532,-0.004988,-0.003945,-0.014678,0.003846,-0.511813,0.052697,1.193725,-265.372444,-0.750774,62.653568
3.3352,-0.023228,-0.003083,0.051833,-0.004802,-0.003832,-0.014696,0.002922,-0.512068,0.050696,1.193725,-265.372444,-0.750774,62.653568
3.3554,-0.022998,-0.002873,0.052427,-0.004653,-0.003737,-0.014701,0.002922,-0.512068,0.050696,1.193725,-265.372444,-0.750774,62.653568
3.3757,-0.02273,-0.002966,0.050526,-0.004535,-0.003655,-0.014696,0.003533,-0.512343,0.051829,1.202056,-265.377857,-0.788551,62.6508
3.3951,-0.022948,-0.002561,0.052233,-0.004481,-0.003551,-0.014688,0.0033,-0.512351,0.051217,1.202056,-265.377857,-0.788551,62.6508
3.4152,-0.022921,-0.003271,0.051383,-0.004439,-0.003466,-0.014677,0.003555,-0.511977,0.051812,1.22611,-265.382719,-0.863681,62.648267
3.4355,-0.022664,-0.002966,0.050728,-0.004391,-0.003368,-0.014671,0.003288,-0.512557,0.051396,1.22611,-265.382719,-0.863681,62.648267
3.4557,-0.022555,-0.002895,0.048971,-0.004353,-0.003289,-0.014662,0.003288,-0.512557,0.051396,1.22611,-265.382719,-0.863681,62.648267
3.4753,-0.022455,-0.002805,0.04991,-0.004324,-0.003225,-0.01465,0.002236,-0.512434,0.048369,1.2278,-265.387907,-0.891566,62.645489
3.4957,-0.023103,-0.003163,0.049287,-0.004192,-0.003197,-0.014648,0.002526,-0.512343,0.048935,1.2278,-265.387907,-0.891566,62.645489
3.5155,-0.022465,-0.003355,0.047874,-0.004086,-0.003169,-0.014643,0.001893,-0.512651,0.048828,1.229466,-265.392988,-0.923677,62.642668
3.5356,-0.02241,-0.003331,0.048607,-0.003855,-0.003076,-0.01468,0.001931,-0.512765,0.047933,1.229466,-265.392988,-0.923677,62.642668
3.5554,-0.02235,-0.003506,0.049173,-0.003671,-0.002995,-0.0147,0.001931,-0.512765,0.047933,1.229466,-265.392988,-0.923677,62.642668
3.5754,-0.022631,-0.003442,0.049022,-0.003524,-0.002924,-0.014708,0.002557,-0.513027,0.048573,1.245405,-265.398002,-0.954965,62.639894
3.5956,-0.022176,-0.003765,0.048121,-0.003495,-0.002841,-0.014704,0.002457,-0.512961,0.048689,1.245405,-265.398002,-0.954965,62.639894
3.6152,-0.021999,-0.00393,0.048142,-0.003473,-0.002774,-0.014698,0.002262,-0.51326,0.04772,1.283063,-265.402277,-1.029987,62.637481
3.6355,-0.022002,-0.003425,0.047827,-0.003441,-0.002676,-0.014699,0.002515,-0.513336,0.048086,1.283063,-265.402277,-1.029987,62.637481
3.6553,-0.022284,-0.003598,0.047056,-0.003418,-0.002597,-0.014694,0.002515,-0.513336,0.048086,1.283063,-265.402277,-1.029987,62.637481
3.6755,-0.022051,-0.003575,0.047153,-0.0034,-0.002534,-0.014687,0.001568,-0.513154,0.046451,1.283446,-265.407106,-1.060458,62.634678
3.6954,-0.022001,-0.00374,0.047883,-0.003255,-0.00251,-0.01469,0.001724,-0.513109,0.046668,1.283446,-265.407106,-1.060458,62.634678
3.7154,-0.021735,-0.00395,0.047215,-0.003139,-0.002485,-0.014688,0.002307,-0.51324,0.04742,1.283434,-265.41186,-1.084824,62.631794
3.7352,-0.02168,-0.003928,0.046726,-0.003146,-0.002431,-0.014684,0.002328,-0.513374,0.04721,1.283434,-265.41186,-1.084824,62.631794
3.7554,-0.02159,-0.004033,0.046011,-0.003152,-0.002388,-0.014679,0.002328,-0.513374,0.04721,1.283434,-265.41186,-1.084824,62.631794
3.7753,-0.021477,-0.004112,0.046138,-0.003156,-0.002354,-0.014674,0.001744,-0.5136,0.045413,1.303316,-265.416481,-1.120029,62.62899
3.7952,-0.021449,-0.003833,0.045581,-0.003061,-0.002298,-0.014693,0.001853,-0.5136,0.045641,1.303316,-265.416481,-1.120029,62.62899
3.8154,-0.021443,-0.004192,0.046002,-0.002986,-0.002251,-0.014704,0.001692,-0.513382,0.045114,1.298764,-265.421185,-1.125189,62.626058
3.8354,-0.021502,-0.003875,0.045779,-0.002948,-0.002209,-0.014709,0.001978,-0.513633,0.045903,1.298764,-265.421185,-1.125189,62.626058
3.8554,-0.021434,-0.004425,0.044542,-0.002919,-0.002173,-0.014711,0.001978,-0.513633,0.045903,1.298764,-265.421185,-1.125189,62.626058
3.8757,-0.020818,-0.004098,0.045441,-0.002895,-0.002144,-0.01471,0.001156,-0.514017,0.043936,1.310972,-265.425757,-1.153203,62.623162
3.8955,-0.02094,-0.004088,0.044768,-0.002801,-0.002099,-0.014723,0.001624,-0.513848,0.044475,1.310972,-265.425757,-1.153203,62.623162
3.9157,-0.020865,-0.003991,0.044021,-0.002725,-0.002059,-0.014729,0.001796,-0.513649,0.044302,1.316264,-265.430341,-1.170376,62.620201
3.9354,-0.020749,-0.004081,0.043084,-0.002679,-0.002063,-0.014723,0.001592,-0.513514,0.044022,1.316264,-265.430341,-1.170376,62.620201
3.9555,-0.020513,-0.004299,0.04521,-0.002641,-0.002064,-0.014718,0.001592,-0.513514,0.044022,1.316264,-265.430341,-1.170376,62.620201
3.9755,-0.020669,-0.00414,0.042576,-0.002611,-0.002063,-0.014714,0.002428,-0.513868,0.044604,1.329129,-265.434836,-1.196519,62.617258
3.9952,-0.02037,-0.004409,0.043678,-0.002618,-0.00203,-0.014715,0.001839,-0.5138,0.043692,1.329129,-265.434836,-1.196519,62.617258
4.0154,-0.020559,-0.004686,0.040823,-0.002624,-0.002004,-0.014715,0.001819,-0.513991,0.043214,1.338781,-265.439352,-1.210194,62.614315
4.0353,-0.020004,-0.004189,0.041719,-0.002333,-0.001979,-0.014754,0.000385,-0.514242,0.041006,1.338781,-265.439352,-1.210194,62.614315
4.0553,-0.020363,-0.004497,0.04121,-0.0021,-0.001945,-0.014776,0.000385,-0.514242,0.041006,1.338781,-265.439352,-1.210194,62.614315
4.0755,-0.020081,-0.0045,0.04089,-0.001911,-0.001908,-0.014785,0.000542,-0.514152,0.040596,1.336459,-265.443867,-1.211405,62.611335
4.095,-0.020248,-0.004271,0.041087,-0.00181,-0.00187,-0.014781,0.000622,-0.51413,0.040645,1.336459,-265.443867,-1.211405,62.611335
4.1155,-0.019485,-0.004641,0.040477,-0.001728,-0.001836,-0.014774,0.000652,-0.513892,0.040708,1.397846,-265.447459,-1.286333,62.608949
4.1353,-0.019594,-0.004586,0.039261,-0.001754,-0.001789,-0.014755,0.001105,-0.514196,0.040478,1.397846,-265.447459,-1.286333,62.608949
4.1552,-0.020029,-0.00505,0.039268,-0.001776,-0.001752,-0.01474,0.001105,-0.514196,0.040478,1.397846,-265.447459,-1.286333,62.608949
4.1753,-0.019752,-0.004453,0.039265,-0.001793,-0.001723,-0.014728,-7.3e-05,-0.514734,0.038675,1.413023,-265.451687,-1.334884,62.606107
4.1954,-0.019739,-0.004379,0.038577,-0.001601,-0.001715,-0.014742,6e-05,-0.514463,0.038851,1.413023,-265.451687,-1.334884,62.606107
4.215,-0.019173,-0.004726,0.03869,-0.001446,-0.001701,-0.014747,-0.000124,-0.514057,0.03811,1.405079,-265.456026,-1.329133,62.603116
4.2351,-0.019339,-0.004928,0.038303,-0.001409,-0.001674,-0.014735,0.000493,-0.514322,0.038617,1.405079,-265.456026,-1.329133,62.603116
4.2551,-0.019356,-0.00443,0.039708,-0.001378,-0.001651,-0.014725,0.000493,-0.514322,0.038617,1.405079,-265.456026,-1.329133,62.603116
4.2751,-0.018749,-0.005128,0.037452,-0.001353,-0.001632,-0.014716,0.000835,-0.514098,0.039122,1.436564,-265.460129,-1.375409,62.600287
4.2954,-0.019317,-0.004673,0.037007,-0.00136,-0.001606,-0.014706,0.00063,-0.514379,0.038376,1.436564,-265.460129,-1.375409,62.600287
4.3153,-0.01863,-0.005252,0.036211,-0.001365,-0.001586,-0.014698,-0.000489,-0.514378,0.03654,1.444058,-265.464396,-1.388863,62.597307
4.3352,-0.018643,-0.004979,0.037196,-0.001209,-0.001569,-0.014711,-0.000199,-0.51487,0.036217,1.444058,-265.464396,-1.388863,62.597307
4.3555,-0.018851,-0.004732,0.038696,-0.001083,-0.001548,-0.014716,-0.000199,-0.51487,0.036217,1.444058,-265.464396,-1.388863,62.597307
4.376,-0.018041,-0.00514,0.037639,-0.00098,-0.001525,-0.014715,0.000824,-0.514419,0.03808,1.442325,-265.468655,-1.388226,62.594301
4.3956,-0.018346,-0.00494,0.035211,-0.001115,-0.001488,-0.014687,0.000947,-0.51457,0.037833,1.442325,-265.468655,-1.388226,62.594301
4.415,-0.017845,-0.005218,0.037268,-0.001223,-0.001462,-0.014669,-0.00042,-0.51467,0.034771,1.477819,-265.472619,-1.44018,62.591475
4.4351,-0.017839,-0.004527,0.036553,-0.001313,-0.001423,-0.014657,0.001016,-0.514849,0.037024,1.477819,-265.472619,-1.44018,62.591475
4.4558,-0.018385,-0.004869,0.037019,-0.001387,-0.001395,-0.01465,0.001016,-0.514849,0.037024,1.477819,-265.472619,-1.44018,62.591475
4.4757,-0.017938,-0.005008,0.037222,-0.001447,-0.001374,-0.014645,0.000442,-0.514581,0.03642,1.45401,-265.476715,-1.409132,62.588511
4.4955,-0.018036,-0.00501,0.034672,-0.001446,-0.001381,-0.014643,0.000681,-0.514618,0.036679,1.45401,-265.476715,-1.409132,62.588511
4.5151,-0.017105,-0.004881,0.035165,-0.001446,-0.001387,-0.014642,-0.000401,-0.514748,0.034215,1.431476,-265.4808,-1.381961,62.585488
4.5352,-0.017225,-0.005247,0.035736,-0.001455,-0.001394,-0.014639,0.000712,-0.514585,0.035055,1.431476,-265.4808,-1.381961,62.585488
4.5551,-0.017406,-0.005271,0.035609,-0.001463,-0.001399,-0.014638,0.000712,-0.514585,0.035055,1.431476,-265.4808,-1.381961,62.585488
4.5754,-0.017052,-0.005315,0.033264,-0.001469,-0.001403,-0.014636,0.000693,-0.515008,0.034997,1.431762,-265.484972,-1.381753,62.582411
4.5953,-0.016997,-0.005155,0.036128,-0.001401,-0.001386,-0.014648,0.000366,-0.515025,0.034218,1.431762,-265.484972,-1.381753,62.582411
4.615,-0.016752,-0.005274,0.033299,-0.001347,-0.001369,-0.014653,0.001379,-0.514868,0.035662,1.429708,-265.489149,-1.378297,62.579341
4.6352,-0.01699,-0.005299,0.033963,-0.001298,-0.001357,-0.014664,0.000329,-0.514983,0.033487,1.429708,-265.489149,-1.378297,62.579341
4.6551,-0.016807,-0.005466,0.033344,-0.001259,-0.001346,-0.01467,0.000329,-0.514983,0.033487,1.429708,-265.489149,-1.378297,62.579341
4.6753,-0.016707,-0.005634,0.032534,-0.001227,-0.001335,-0.014674,0.000142,-0.515241,0.032735,1.440987,-265.493291,-1.394947,62.576276
4.6953,-0.016944,-0.005152,0.032158,-0.001145,-0.001318,-0.014684,2.8e-05,-0.515299,0.032581,1.440987,-265.493291,-1.394947,62.576276
4.7153,-0.016384,-0.005348,0.031044,-0.001079,-0.0013,-0.014689,-0.000584,-0.514932,0.031695,1.452215,-265.497408,-1.411308,62.57321
4.7357,-0.016268,-0.005204,0.031124,-0.000927,-0.001329,-0.014697,-0.000559,-0.515089,0.031078,1.452215,-265.497408,-1.411308,62.57321
4.7555,-0.015935,-0.00526,0.032254,-0.000803,-0.001344,-0.014699,-0.000559,-0.515089,0.031078,1.452215,-265.497408,-1.411308,62.57321
4.7754,-0.015796,-0.005128,0.031769,-0.000701,-0.001351,-0.014698,0.000469,-0.51505,0.031645,1.466149,-265.5015,-1.431071,62.570141
4.7958,-0.015892,-0.005423,0.032302,-0.000797,-0.001316,-0.01468,0.000437,-0.514983,0.031626,1.466149,-265.5015,-1.431071,62.570141
4.8152,-0.015722,-0.005684,0.03017,-0.000873,-0.001292,-0.014667,0.000559,-0.515198,0.03186,1.50298,-265.505405,-1.479072,62.567252
4.8358,-0.015769,-0.00508,0.030652,-0.00081,-0.001274,-0.014673,-0.000259,-0.515432,0.030299,1.50298,-265.505405,-1.479072,62.567252
4.8555,-0.015711,-0.005662,0.03067,-0.000758,-0.001257,-0.014674,-0.000259,-0.515432,0.030299,1.50298,-265.505405,-1.479072,62.567252
4.8751,-0.014921,-0.005636,0.030267,-0.000717,-0.001241,-0.014673,-0.000106,-0.515477,0.030064,1.48582,-265.509475,-1.4574,62.564199
4.8957,-0.01514,-0.005754,0.029764,-0.00075,-0.001208,-0.014664,0.000145,-0.515452,0.030078,1.48582,-265.509475,-1.4574,62.564199
4.9154,-0.014697,-0.005463,0.028814,-0.000778,-0.001183,-0.014657,1.6e-05,-0.515568,0.029302,1.500667,-265.513517,-1.478245,62.561134
4.9356,-0.014931,-0.005762,0.03044,-0.000779,-0.001179,-0.014654,-3e-06,-0.515282,0.028835,1.500667,-265.513517,-1.478245,62.561134
4.9555,-0.015315,-0.005824,0.028355,-0.00078,-0.001175,-0.014653,-3e-06,-0.515282,0.028835,1.500667,-265.513517,-1.478245,62.561134
4.9751,-0.01424,-0.006066,0.029142,-0.000781,-0.001172,-0.014651,-0.000888,-0.51567,0.027741,1.494186,-265.517582,-1.470996,62.558012
4.9958,-0.014569,-0.005669,0.028255,-0.000734,-0.001156,-0.014658,-0.000278,-0.515748,0.028241,1.494186,-265.517582,-1.470996,62.558012
5.0154,-0.014225,-0.005908,0.027542,-0.000695,-0.001141,-0.014661,-0.000184,-0.515504,0.027789,1.493801,-265.521643,-1.470721,62.554886
5.0357,-0.013874,-0.005974,0.027072,-0.000681,-0.001125,-0.01466,-0.000182,-0.515698,0.027541,1.493801,-265.521643,-1.470721,62.554886
5.0557,-0.014056,-0.005336,0.027739,-0.000669,-0.001111,-0.014659,-0.000182,-0.515698,0.027541,1.493801,-265.521643,-1.470721,62.554886
5.0758,-0.013597,-0.00606,0.026453,-0.00066,-0.001099,-0.014658,6.2e-05,-0.515188,0.027127,1.502011,-265.525673,-1.482014,62.551761
5.0956,-0.013852,-0.00574,0.025819,-0.000692,-0.001093,-0.014651,-1e-05,-0.515474,0.026784,1.502011,-265.525673,-1.482014,62.551761
5.1153,-0.01347,-0.005679,0.026487,-0.000718,-0.001088,-0.014646,-0.000706,-0.515606,0.025352,1.505243,-265.529705,-1.486965,62.548607
5.1351,-0.013722,-0.005502,0.024878,-0.000735,-0.001084,-0.014644,-3e-05,-0.515511,0.026364,1.505243,-265.529705,-1.486965,62.548607
5.156,-0.013547,-0.005861,0.025382,-0.00075,-0.001082,-0.014643,-3e-05,-0.515511,0.026364,1.505243,-265.529705,-1.486965,62.548607
5.1754,-0.013232,-0.005608,0.026096,-0.000762,-0.00108,-0.014643,-0.000632,-0.515743,0.024769,1.499383,-265.533717,-1.4797,62.54546
5.1952,-0.013346,-0.005862,0.025873,-0.000719,-0.001087,-0.014648,-0.000349,-0.515623,0.025236,1.499383,-265.533717,-1.4797,62.54546
5.2152,-0.013014,-0.006119,0.024781,-0.000684,-0.00109,-0.014651,-0.000175,-0.515727,0.025406,1.494953,-265.537741,-1.474231,62.542297
5.2355,-0.01303,-0.005899,0.025034,-0.000654,-0.001075,-0.014654,-0.000361,-0.515944,0.024812,1.494953,-265.537741,-1.474231,62.542297
5.2555,-0.012782,-0.005956,0.023812,-0.000629,-0.001062,-0.014655,-0.000361,-0.515944,0.024812,1.494953,-265.537741,-1.474231,62.542297
5.2755,-0.012728,-0.005498,0.024739,-0.000609,-0.001051,-0.014654,-0.000667,-0.515858,0.023201,1.502758,-265.541755,-1.483967,62.539151
5.2954,-0.013031,-0.005669,0.026244,-0.000581,-0.001059,-0.014652,-0.000443,-0.515652,0.023761,1.502758,-265.541755,-1.483967,62.539151
5.3149,-0.011974,-0.00544,0.021433,-0.000558,-0.001064,-0.014651,0.000334,-0.515527,0.02578,1.509972,-265.545758,-1.49385,62.535985
5.3351,-0.012226,-0.005449,0.023204,-0.000459,-0.001113,-0.014656,-0.000932,-0.515341,0.021768,1.509972,-265.545758,-1.49385,62.535985
5.3551,-0.012467,-0.005849,0.024309,-0.000378,-0.001148,-0.014659,-0.000932,-0.515341,0.021768,1.509972,-265.545758,-1.49385,62.535985
5.375,-0.011775,-0.005838,0.022021,-0.000312,-0.001173,-0.01466,-9.3e-05,-0.515744,0.023698,1.51514,-265.549759,-1.500167,62.532832
5.3954,-0.01217,-0.00585,0.023664,-0.000364,-0.001134,-0.014654,-0.000281,-0.515737,0.02294,1.51514,-265.549759,-1.500167,62.532832
5.4153,-0.011208,-0.006219,0.022562,-0.000406,-0.001104,-0.01465,-0.000111,-0.515744,0.023209,1.540012,-265.553713,-1.530741,62.529792
5.4355,-0.011346,-0.005819,0.021684,-0.000521,-0.001052,-0.014639,0.000262,-0.516062,0.022595,1.540012,-265.553713,-1.530741,62.529792
5.4554,-0.011759,-0.006164,0.023286,-0.000616,-0.001013,-0.014632,0.000262,-0.516062,0.022595,1.540012,-265.553713,-1.530741,62.529792
5.4755,-0.011189,-0.005904,0.023211,-0.000694,-0.000985,-0.014628,0.0001,-0.516072,0.022676,1.530454,-265.557725,-1.519109,62.526661
5.4955,-0.01118,-0.006067,0.020817,-0.000769,-0.000968,-0.014625,0.000324,-0.515952,0.022826,1.530454,-265.557725,-1.519109,62.526661
5.5152,-0.010492,-0.006652,0.020791,-0.000831,-0.000957,-0.014624,-0.000585,-0.515988,0.020368,1.50094,-265.561562,-1.4837,62.523582
5.5359,-0.010565,-0.006301,0.019004,-0.000837,-0.000936,-0.014629,4.8e-05,-0.516493,0.02073,1.50094,-265.561562,-1.4837,62.523582
5.5555,-0.0105,-0.006125,0.022075,-0.000843,-0.000919,-0.014631,4.8e-05,-0.516493,0.02073,1.50094,-265.561562,-1.4837,62.523582
5.5757,-0.010727,-0.005909,0.020559,-0.000847,-0.000905,-0.014632,0.000723,-0.516042,0.021467,1.486917,-265.565506,-1.466925,62.520395
5.5958,-0.010522,-0.006383,0.019473,-0.000899,-0.000906,-0.014625,0.000325,-0.515948,0.021026,1.486917,-265.565506,-1.466925,62.520395
5.6153,-0.010292,-0.006089,0.019411,-0.000942,-0.00091,-0.014622,-0.000618,-0.516315,0.019008,1.484896,-265.569456,-1.465671,62.517165
5.6357,-0.010112,-0.006362,0.017757,-0.000863,-0.000936,-0.01463,-0.000414,-0.516022,0.019354,1.484896,-265.569456,-1.465671,62.517165
5.6562,-0.01011,-0.006105,0.018976,-0.000798,-0.000954,-0.014635,-0.000414,-0.516022,0.019354,1.484896,-265.569456,-1.465671,62.517165
5.6757,-0.010083,-0.006619,0.018431,-0.000746,-0.000965,-0.014637,-0.000472,-0.516052,0.018356,1.475393,-265.573395,-1.453934,62.513947
5.6951,-0.010133,-0.006873,0.018289,-0.000683,-0.000968,-0.014637,-0.000557,-0.516241,0.018318,1.475393,-265.573395,-1.453934,62.513947
5.7153,-0.009408,-0.006408,0.016945,-0.000632,-0.000968,-0.014634,-0.000829,-0.516818,0.017831,1.495631,-265.577312,-1.477525,62.510789
5.7357,-0.009994,-0.006138,0.01678,-0.00056,-0.000969,-0.014626,-0.000773,-0.516376,0.016997,1.495631,-265.577312,-1.477525,62.510789
5.7559,-0.009337,-0.006524,0.016881,-0.000502,-0.000967,-0.014617,-0.000773,-0.516376,0.016997,1.495631,-265.577312,-1.477525,62.510789
5.7752,-0.00885,-0.006218,0.017219,-0.000453,-0.000962,-0.014607,-0.000754,-0.516492,0.016268,1.507104,-265.581252,-1.491691,62.507615
5.7951,-0.009153,-0.006234,0.015829,-0.000455,-0.000946,-0.014591,-0.000486,-0.516359,0.016575,1.507104,-265.581252,-1.491691,62.507615
5.8154,-0.009145,-0.006286,0.016096,-0.000457,-0.000932,-0.014577,-0.001095,-0.516201,0.015369,1.524965,-265.585158,-1.513904,62.504468
5.8352,-0.008865,-0.006402,0.017186,-0.000388,-0.00095,-0.014566,-0.000951,-0.51622,0.016006,1.524965,-265.585158,-1.513904,62.504468
5.8557,-0.008689,-0.006096,0.015187,-0.000332,-0.000961,-0.014556,-0.000951,-0.51622,0.016006,1.524965,-265.585158,-1.513904,62.504468
5.8756,-0.008613,-0.006556,0.013489,-0.000286,-0.000968,-0.014546,-0.000963,-0.516076,0.014576,1.524416,-265.589102,-1.513587,62.50127
5.8955,-0.008217,-0.006374,0.014821,-0.000201,-0.000987,-0.014511,-0.001281,-0.516259,0.01406,1.524416,-265.589102,-1.513587,62.50127
5.9153,-0.008193,-0.006722,0.013911,-0.000132,-0.000999,-0.014481,-0.000667,-0.516348,0.014363,1.5418,-265.593,-1.534715,62.498137
5.9357,-0.008155,-0.006808,0.013703,-0.000111,-0.000977,-0.01445,-0.001062,-0.516647,0.013927,1.5418,-265.593,-1.534715,62.498137
5.9552,-0.008418,-0.006342,0.014883,-9.4e-05,-0.000958,-0.014424,-0.001062,-0.516647,0.013927,1.5418,-265.593,-1.534715,62.498137
5.9751,-0.007813,-0.006652,0.013711,-8e-05,-0.000942,-0.014402,-0.000833,-0.516327,0.014284,1.557389,-265.596897,-1.553976,62.49503
5.9954,-0.007697,-0.006655,0.015033,-9.9e-05,-0.000925,-0.01438,-0.000828,-0.516445,0.013981,1.557389,-265.596897,-1.553976,62.49503
6.015,-0.007146,-0.006517,0.012151,-0.000115,-0.000912,-0.014362,-3.2e-05,-0.516628,0.014575,1.562599,-265.600786,-1.560633,62.491894
6.0356,-0.00744,-0.006582,0.012773,-0.000121,-0.000904,-0.014301,-0.000869,-0.516494,0.012341,1.562599,-265.600786,-1.560633,62.491894
6.0557,-0.00739,-0.006514,0.01364,-0.000127,-0.000898,-0.014252,-0.000869,-0.516494,0.012341,1.562599,-265.600786,-1.560633,62.491894
6.0753,-0.00709,-0.006806,0.012406,-0.000132,-0.000894,-0.014212,-0.000438,-0.516505,0.013038,1.558924,-265.604659,-1.556169,62.48875
6.0953,-0.006606,-0.006457,0.014826,-0.000179,-0.000873,-0.014189,-0.00057,-0.516616,0.012713,1.558924,-265.604659,-1.556169,62.48875
6.1152,-0.006827,-0.007077,0.012227,-0.000218,-0.000858,-0.014171,0.000951,-0.51643,0.014374,1.55706,-265.608494,-1.553906,62.485632
6.1355,-0.006784,-0.006092,0.011969,-0.000265,-0.000832,-0.014144,-0.000465,-0.51699,0.012382,1.55706,-265.608494,-1.553906,62.485632
6.1559,-0.006724,-0.00628,0.012677,-0.000305,-0.000813,-0.014122,-0.000465,-0.51699,0.012382,1.55706,-265.608494,-1.553906,62.485632
6.1753,-0.006446,-0.006672,0.011915,-0.000338,-0.000799,-0.014105,-0.000267,-0.516275,0.012087,1.547873,-265.612278,-1.542833,62.48253
6.1955,-0.006499,-0.006554,0.01109,-0.000387,-0.000802,-0.014069,-0.00031,-0.516425,0.011949,1.547873,-265.612278,-1.542833,62.48253
6.2151,-0.006213,-0.006621,0.010677,-0.000428,-0.000807,-0.014042,-0.000854,-0.516548,0.010643,1.534939,-265.616029,-1.527614,62.479415
6.2355,-0.006097,-0.007037,0.009742,-0.000394,-0.000827,-0.013962,-0.000776,-0.516589,0.010652,1.534939,-265.616029,-1.527614,62.479415
6.2558,-0.006088,-0.006812,0.009567,-0.000367,-0.000842,-0.013898,-0.000776,-0.516589,0.010652,1.534939,-265.616029,-1.527614,62.479415
6.2757,-0.005501,-0.00676,0.009922,-0.000345,-0.000853,-0.013847,-0.001226,-0.516822,0.008981,1.525212,-265.619782,-1.515763,62.476305
6.2955,-0.005631,-0.006928,0.010341,-0.000308,-0.00086,-0.013702,-0.000904,-0.51679,0.009302,1.525212,-265.619782,-1.515763,62.476305
6.3154,-0.005779,-0.006735,0.008244,-0.000277,-0.000863,-0.013589,-0.000368,-0.516927,0.009904,1.533718,-265.623481,-1.525407,62.473283
6.3357,-0.005047,-0.006998,0.008158,-0.000173,-0.000897,-0.013407,-0.001465,-0.516738,0.008372,1.533718,-265.623481,-1.525407,62.473283
6.3557,-0.004842,-0.006891,0.007914,-8.8e-05,-0.00092,-0.013269,-0.001465,-0.516738,0.008372,1.533718,-265.623481,-1.525407,62.473283
6.3752,-0.00487,-0.006966,0.007367,-1.8e-05,-0.000936,-0.013163,-0.000817,-0.516912,0.007345,1.540539,-265.627147,-1.533518,62.470307
6.3951,-0.004898,-0.006648,0.008692,-3e-05,-0.000908,-0.012923,-0.000939,-0.516932,0.007289,1.540539,-265.627147,-1.533518,62.470307
6.4158,-0.004962,-0.00689,0.007854,-4.1e-05,-0.000888,-0.012748,-0.000465,-0.516658,0.008287,1.568827,-265.630618,-1.568308,62.467561
6.436,-0.004532,-0.006559,0.007653,-5.5e-05,-0.000876,-0.012694,-0.000912,-0.516857,0.007872,1.568827,-265.630618,-1.568308,62.467561
6.4554,-0.004822,-0.006767,0.006983,-6.7e-05,-0.000868,-0.012654,-0.000912,-0.516857,0.007872,1.568827,-265.630618,-1.568308,62.467561
6.4752,-0.004335,-0.006875,0.006541,-7.7e-05,-0.000863,-0.012622,-0.001262,-0.516792,0.006449,1.566101,-265.634087,-1.564893,62.464802
6.4953,-0.004687,-0.006696,0.006334,-4.8e-05,-0.000863,-0.012373,-0.001155,-0.516826,0.006426,1.566101,-265.634087,-1.564893,62.464802
6.5153,-0.003974,-0.006698,0.007164,-2.5e-05,-0.000865,-0.012191,-0.001459,-0.516713,0.005932,1.561786,-265.63752,-1.559515,62.46206
6.5353,-0.00405,-0.00665,0.006778,-0.000111,-0.000843,-0.012145,-0.000417,-0.516689,0.00704,1.561786,-265.63752,-1.559515,62.46206
6.5552,-0.003962,-0.006767,0.005581,-0.000181,-0.00083,-0.012112,-0.000417,-0.516689,0.00704,1.561786,-265.63752,-1.559515,62.46206
6.5754,-0.003725,-0.00695,0.005787,-0.00024,-0.000821,-0.012088,-0.001117,-0.516795,0.005072,1.567773,-265.640837,-1.566978,62.459433
6.5953,-0.003671,-0.006924,0.004487,-0.000203,-0.000822,-0.011739,-0.000977,-0.516859,0.005306,1.567773,-265.640837,-1.566978,62.459433
6.6152,-0.003452,-0.006957,0.005583,-0.000174,-0.000823,-0.01149,-0.00139,-0.516944,0.004114,1.541551,-265.644029,-1.534234,62.45688
6.6353,-0.003471,-0.007118,0.005283,-0.000195,-0.000809,-0.011333,-0.000675,-0.51695,0.005433,1.541551,-265.644029,-1.534234,62.45688
6.6553,-0.003143,-0.00712,0.005001,-0.000213,-0.0008,-0.01122,-0.000675,-0.51695,0.005433,1.541551,-265.644029,-1.534234,62.45688
6.6756,-0.003188,-0.007144,0.005869,-0.000229,-0.000795,-0.011137,-0.0006,-0.517148,0.004522,1.54859,-265.647159,-1.542694,62.454406
6.6954,-0.002867,-0.006838,0.004656,-0.000272,-0.000773,-0.010975,-0.000436,-0.517147,0.005013,1.54859,-265.647159,-1.542694,62.454406
6.7152,-0.00277,-0.007066,0.004692,-0.000309,-0.000759,-0.010858,-0.0005,-0.516858,0.004302,1.540646,-265.650188,-1.532675,62.45201
6.7354,-0.002924,-0.007197,0.00354,-0.000344,-0.000747,-0.010676,-0.000389,-0.517043,0.004638,1.540646,-265.650188,-1.532675,62.45201
6.7554,-0.003087,-0.006989,0.003589,-0.000374,-0.000739,-0.010545,-0.000389,-0.517043,0.004638,1.540646,-265.650188,-1.532675,62.45201
6.7752,-0.002811,-0.00694,0.004668,-0.0004,-0.000734,-0.01045,-0.00127,-0.517017,0.003137,1.529001,-265.653135,-1.518217,62.449667
6.7953,-0.0026,-0.007478,0.002438,-0.000341,-0.000747,-0.010116,-0.000926,-0.516987,0.003713,1.529001,-265.653135,-1.518217,62.449667
6.8153,-0.002166,-0.006768,0.002679,-0.000295,-0.000756,-0.009878,-0.001369,-0.5175,0.002109,1.514699,-265.655958,-1.500154,62.447425
6.8355,-0.002486,-0.00721,0.004141,-0.000254,-0.000759,-0.009288,-0.000853,-0.516835,0.002609,1.514699,-265.655958,-1.500154,62.447425
6.8556,-0.002093,-0.007078,0.003254,-0.000222,-0.00076,-0.008876,-0.000853,-0.516835,0.002609,1.514699,-265.655958,-1.500154,62.447425
6.8753,-0.002117,-0.007336,0.002558,-0.000199,-0.000762,-0.008585,-0.000446,-0.517106,0.002843,1.527375,-265.658662,-1.51496,62.445321
6.8952,-0.001918,-0.00735,0.002082,-0.00022,-0.000743,-0.008404,-0.000597,-0.517203,0.002679,1.527375,-265.658662,-1.51496,62.445321
6.9153,-0.00204,-0.007321,0.001838,-0.000238,-0.000729,-0.008274,-0.000862,-0.517373,0.00181,1.537635,-265.661053,-1.526373,62.443536
6.9354,-0.001557,-0.007658,0.001893,-0.000182,-0.000734,-0.007802,-0.001081,-0.517326,0.001821,1.537635,-265.661053,-1.526373,62.443536
6.9557,-0.001991,-0.007288,0.002544,-0.000139,-0.000737,-0.007468,-0.001081,-0.517326,0.001821,1.537635,-265.661053,-1.526373,62.443536
6.9753,-0.002047,-0.007192,0.001725,-0.000105,-0.000738,-0.00723,-0.000703,-0.517317,0.002198,1.529624,-265.663362,-1.515772,62.441809
6.9953,-0.001527,-0.007196,-9.2e-05,-0.000104,-0.000731,-0.007126,-0.000893,-0.517269,0.001966,1.529624,-265.663362,-1.515772,62.441809
7.0157,-0.001424,-0.00756,0.001446,-0.000103,-0.000726,-0.00705,-0.001577,-0.517219,-0.000318,1.55049,-265.6654,-1.542345,62.440353
7.0356,-0.001939,-0.007282,0.002637,-0.000116,-0.000709,-0.006668,-0.000751,-0.517536,0.001309,1.55049,-265.6654,-1.542345,62.440353
7.0555,-0.001872,-0.007122,0.001045,-0.000128,-0.000696,-0.006394,-0.000751,-0.517536,0.001309,1.55049,-265.6654,-1.542345,62.440353
7.0755,-0.001362,-0.007254,0.000336,-0.00014,-0.000687,-0.006198,-0.001343,-0.517152,0.000752,1.550233,-265.667402,-1.541902,62.438929
7.0952,-0.001521,-0.007319,0.002391,-7.2e-05,-0.000714,-0.005653,-0.001281,-0.517197,0.000548,1.550233,-265.667402,-1.541902,62.438929
7.1154,-0.001396,-0.007409,0.000315,-1.9e-05,-0.000732,-0.005264,-0.000306,-0.51734,0.002195,1.539565,-265.669179,-1.525736,62.437697
7.1354,-0.001421,-0.007303,0.000332,4e-06,-0.000733,-0.004947,-0.001148,-0.517404,0.000481,1.539565,-265.669179,-1.525736,62.437697
7.1552,-0.001416,-0.007407,0.00204,2.2e-05,-0.000733,-0.004718,-0.001148,-0.517404,0.000481,1.539565,-265.669179,-1.525736,62.437697
7.1751,-0.000469,-0.007267,0.000267,3.5e-05,-0.000731,-0.004552,-0.000376,-0.517436,0.001826,1.565971,-265.67071,-1.563124,62.436734
7.1951,-0.001176,-0.007629,-0.002112,-6.4e-05,-0.000702,-0.004781,-0.000359,-0.51737,0.001165,1.565971,-265.67071,-1.563124,62.436734
7.215,-0.000811,-0.00767,-0.000108,-0.000145,-0.000681,-0.004945,-0.002251,-0.517651,-0.002254,1.580819,-265.672101,-1.587975,62.435922
7.2352,-0.001088,-0.007375,-0.000608,-0.000121,-0.000684,-0.004308,-0.000968,-0.51767,-0.000272,1.580819,-265.672101,-1.587975,62.435922
7.2552,-0.000794,-0.007301,0.001575,-0.000104,-0.000686,-0.003851,-0.000968,-0.51767,-0.000272,1.580819,-265.672101,-1.587975,62.435922
7.2756,-0.000853,-0.007611,0.001395,-9.2e-05,-0.000687,-0.003523,4e-06,-0.517325,0.001397,1.53171,-265.673386,-1.512707,62.435109
7.2958,-0.000484,-0.007429,-2.1e-05,-0.000217,-0.000667,-0.004118,-5.7e-05,-0.517446,0.001375,1.53171,-265.673386,-1.512707,62.435109
7.3153,-0.000695,-0.007555,-0.001446,-0.000317,-0.000651,-0.004551,-0.000497,-0.517451,-0.000133,1.538465,-265.674518,-1.508169,62.434525
7.3352,-0.00069,-0.007919,0.000832,-0.000214,-0.000691,-0.003523,-0.001348,-0.517546,-0.001333,1.538465,-265.674518,-1.508169,62.434525
7.3551,-0.000649,-0.007947,0.000313,-0.000131,-0.000718,-0.002782,-0.001348,-0.517546,-0.001333,1.538465,-265.674518,-1.508169,62.434525
7.3758,-0.000545,-0.008059,0.000179,-6.3e-05,-0.000736,-0.002248,-0.0005,-0.51797,0.000153,1.478583,-265.675676,-1.433404,62.433802
7.3951,-0.000852,-0.007764,-0.000564,-0.000132,-0.000705,-0.002588,-0.000483,-0.518008,0.000145,1.478583,-265.675676,-1.433404,62.433802
7.415,-0.001041,-0.007305,-0.001,-0.000188,-0.000681,-0.002825,-0.001141,-0.517785,-0.00063,1.540743,-265.676452,-1.471504,62.433567
7.4352,-0.000731,-0.007257,-0.000561,-9e-05,-0.000721,-0.002432,-0.001515,-0.517347,-0.000971,1.540743,-265.676452,-1.471504,62.433567
7.455,-0.000507,-0.007582,5.1e-05,-1e-05,-0.00075,-0.002147,-0.001515,-0.517347,-0.000971,1.540743,-265.676452,-1.471504,62.433567
7.4751,-0.00046,-0.007483,0.000211,5.6e-05,-0.00077,-0.001941,-0.000488,-0.517607,-5.2e-05,1.492968,-265.677295,-1.396435,62.433195
7.4953,-0.000491,-0.007434,-0.000151,-4.1e-05,-0.000735,-0.002297,-0.000433,-0.517559,4.4e-05,1.492968,-265.677295,-1.396435,62.433195
7.5149,-0.000357,-0.007604,-9.2e-05,-0.000118,-0.000708,-0.00255,-0.000568,-0.517438,-0.000162,1.568012,-265.677436,-1.471479,62.433165
7.5352,-0.000408,-0.007374,0.000271,-0.000182,-0.000687,-0.002657,-0.000418,-0.517589,-9.8e-05,1.568012,-265.677436,-1.471479,62.433165
7.5554,-0.000442,-0.007245,-0.002082,-0.000234,-0.000672,-0.002731,-0.000418,-0.517589,-9.8e-05,1.568012,-265.677436,-1.471479,62.433165
7.575,-0.000854,-0.007792,-0.000319,-0.000277,-0.000662,-0.002783,-0.001509,-0.517272,-0.002182,1.518584,-265.678286,-1.432256,62.432844
7.5955,-0.000365,-0.007398,-0.001452,-0.000189,-0.000695,-0.002165,-0.001309,-0.517487,-0.001435,1.518584,-265.678286,-1.432256,62.432844
7.615,-0.00053,-0.007875,-0.000661,-0.000117,-0.000719,-0.001722,-0.001112,-0.517412,-0.001517,1.454099,-265.678988,-1.357348,62.432527
7.6351,-0.000565,-0.007875,-0.000915,-0.000121,-0.000709,-0.001736,-0.000888,-0.517837,-0.000736,1.454099,-265.678988,-1.357348,62.432527
7.6553,-0.000732,-0.007595,0.001273,-0.000125,-0.000701,-0.001742,-0.000888,-0.517837,-0.000736,1.454099,-265.678988,-1.357348,62.432527
7.6751,-0.000632,-0.007749,-0.001624,-0.000127,-0.000694,-0.001743,-8.6e-05,-0.517617,0.00122,1.504561,-265.679515,-1.282203,62.432422
7.695,-0.000395,-0.007436,-0.000543,-0.000168,-0.000683,-0.002152,-0.000647,-0.517673,5.3e-05,1.504561,-265.679515,-1.282203,62.432422
7.7149,-0.000276,-0.007728,-0.001283,-0.0002,-0.000673,-0.002443,-0.000676,-0.517458,-0.000597,1.498614,-265.680201,-1.2405,62.43227
7.7352,-0.000536,-0.007813,-0.002915,-0.00018,-0.000677,-0.001996,-0.000908,-0.517705,-0.001226,1.498614,-265.680201,-1.2405,62.43227
7.7552,-4.3e-05,-0.007667,-0.001538,-0.000164,-0.00068,-0.001679,-0.000908,-0.517705,-0.001226,1.498614,-265.680201,-1.2405,62.43227
7.775,-0.000493,-0.007417,-0.003239,-0.000153,-0.000682,-0.001452,-0.000835,-0.517691,-0.001627,1.47856,-265.680959,-1.315595,62.431976
7.7954,-0.000412,-0.007566,-0.001209,-8.1e-05,-0.00071,-0.000835,-0.00137,-0.517581,-0.002294,1.47856,-265.680959,-1.315595,62.431976
7.815,-6.1e-05,-0.007738,-4.5e-05,-2.4e-05,-0.000731,-0.000394,-0.001028,-0.517567,-0.001213,1.473734,-265.681013,-1.240684,62.431967
7.8351,-0.000331,-0.00766,-0.000255,-0.000148,-0.0007,-0.001074,-0.000166,-0.517723,-0.000147,1.473734,-265.681013,-1.240684,62.431967
7.8556,-6.2e-05,-0.007648,-0.00225,-0.000247,-0.000676,-0.00156,-0.000166,-0.517723,-0.000147,1.473734,-265.681013,-1.240684,62.431967
7.875,-0.000201,-0.007786,-0.002661,-0.000327,-0.000658,-0.001906,-0.001209,-0.517649,-0.002252,1.546373,-265.681047,-1.315762,62.431985
7.8954,-0.000236,-0.007674,-0.000935,-0.00023,-0.000694,-0.001111,-0.001351,-0.517704,-0.002418,1.546373,-265.681047,-1.315762,62.431985
7.915,-0.00032,-0.007829,-0.001291,-0.000151,-0.00072,-0.000541,-0.000714,-0.517676,-0.000943,1.471457,-265.681145,-1.240846,62.431953
7.9351,-0.000501,-0.007831,-0.000676,-0.000143,-0.000715,-0.000628,-0.000956,-0.517816,-0.001262,1.471457,-265.681145,-1.240846,62.431953
7.9552,-0.000341,-0.007993,-0.001085,-0.000136,-0.000711,-0.000685,-0.000956,-0.517816,-0.001262,1.471457,-265.681145,-1.240846,62.431953
7.9753,-0.000408,-0.00805,-0.001473,-0.00013,-0.000708,-0.000721,-0.000894,-0.517993,-0.001085,1.428118,-265.681145,-1.165701,62.431953
7.9951,-0.000708,-0.007695,-0.002241,-0.000121,-0.000702,-0.000753,-0.001002,-0.518016,-0.001242,1.428118,-265.681145,-1.165701,62.431953
8.0153,-0.000698,-0.007682,-0.001525,-0.000114,-0.000698,-0.000773,-0.001851,-0.517694,-0.002241,1.458007,-265.681145,-1.09084,62.431953
8.0354,-0.00017,-0.007162,-0.00155,-4.1e-05,-0.000724,-0.000625,-0.00151,-0.517682,-0.001589,1.458007,-265.681145,-1.09084,62.431953
8.0553,-0.000378,-0.007526,-0.001101,1.9e-05,-0.000741,-0.000516,-0.00151,-0.517682,-0.001589,1.458007,-265.681145,-1.09084,62.431953
8.0751,-0.000473,-0.007569,-0.0015,6.9e-05,-0.000754,-0.000436,-0.000939,-0.517526,-0.001101,1.473772,-265.681145,-1.015832,62.431953
8.095,-0.000218,-0.007591,0.000217,5.4e-05,-0.000744,-0.000525,-0.00106,-0.517543,-0.001263,1.473772,-265.681145,-1.015832,62.431953
8.1149,-0.000188,-0.007889,-0.000791,4.3e-05,-0.000736,-0.000586,-0.000108,-0.517592,0.000216,1.548735,-265.68116,-1.090795,62.43196
8.1351,-0.000164,-0.007812,-0.001741,-3.8e-05,-0.000706,-0.000902,-0.00055,-0.517864,-0.000705,1.548735,-265.68116,-1.090795,62.43196
8.1554,-0.000733,-0.007396,-0.001524,-0.000103,-0.000684,-0.001126,-0.00055,-0.517864,-0.000705,1.548735,-265.68116,-1.090795,62.43196
8.1751,-0.000571,-0.007739,-0.001182,-0.000155,-0.000667,-0.001285,-0.00151,-0.517398,-0.001527,1.609865,-265.681206,-1.165952,62.431976
8.1954,-7.4e-05,-0.00762,0.000313,-8.8e-05,-0.000696,-0.001068,-0.001373,-0.517537,-0.001387,1.609865,-265.681206,-1.165952,62.431976
8.2152,-0.000533,-0.007544,-0.000878,-3.3e-05,-0.000717,-0.000913,8.5e-05,-0.51762,0.000313,1.534996,-265.68121,-1.091083,62.431975
8.2352,-0.000303,-0.007496,-0.000229,-5.5e-05,-0.000709,-0.001101,-0.000888,-0.517551,-0.000775,1.534996,-265.68121,-1.091083,62.431975
8.2554,-0.000325,-0.007612,-0.000744,-7.2e-05,-0.000704,-0.001235,-0.000888,-0.517551,-0.000775,1.534996,-265.68121,-1.091083,62.431975
8.2754,-0.000238,-0.007527,-0.000455,-8.5e-05,-0.000699,-0.001329,-0.000704,-0.517611,-0.000744,1.544989,-265.68121,-1.015938,62.431975
8.2951,-0.000167,-0.007817,-0.001208,-0.000132,-0.000685,-0.001469,-0.000609,-0.517577,-0.000627,1.544989,-265.68121,-1.015938,62.431975
8.3152,-0.00046,-0.007856,-0.001258,-0.000171,-0.000675,-0.001569,-0.000786,-0.517835,-0.001245,1.514534,-265.681729,-0.940963,62.431927
8.3354,-0.000344,-0.007962,0.000833,-0.000141,-0.000681,-0.001327,-0.001072,-0.517855,-0.001259,1.514534,-265.681729,-0.940963,62.431927
8.3552,-0.000206,-0.007386,-0.00133,-0.000117,-0.000685,-0.001155,-0.001072,-0.517855,-0.001259,1.514534,-265.681729,-0.940963,62.431927
8.3753,-0.000509,-0.007797,-0.00181,-9.8e-05,-0.000687,-0.001033,-0.00089,-0.51741,-0.001386,1.466568,-265.68229,-1.01584,62.431814
8.3955,-0.000439,-0.007881,-0.002854,-7.2e-05,-0.000697,-0.000801,-0.001112,-0.51757,-0.001565,1.466568,-265.68229,-1.01584,62.431814
8.4151,-0.000612,-0.00773,-0.001363,-5.2e-05,-0.000705,-0.000637,-0.001894,-0.517879,-0.002854,1.496503,-265.68229,-0.940704,62.431814
8.4353,-0.000112,-0.007778,-0.001124,-9e-06,-0.000717,-0.000557,-0.001359,-0.517742,-0.001494,1.496503,-265.68229,-0.940704,62.431814
8.4558,-0.000603,-0.007706,-0.000964,2.7e-05,-0.000726,-0.000499,-0.001359,-0.517742,-0.001494,1.496503,-265.68229,-0.940704,62.431814
8.4753,-5.8e-05,-0.007482,-0.002181,5.6e-05,-0.000732,-0.000456,-0.001095,-0.517705,-0.000964,1.523489,-265.68229,-1.015683,62.431814
8.4953,-0.000195,-0.007977,-0.002997,5.3e-05,-0.000727,-0.000447,-0.001124,-0.517617,-0.001443,1.523489,-265.68229,-1.015683,62.431814
8.5151,-0.000317,-0.007547,-0.000235,5e-05,-0.000724,-0.00044,-0.001723,-0.517976,-0.002998,1.598551,-265.682306,-1.090744,62.431821
8.5353,-0.00019,-0.007789,-0.00022,-3.6e-05,-0.000702,-0.000914,-0.000548,-0.517584,-0.000473,1.598551,-265.682306,-1.090744,62.431821
8.5553,-0.000497,-0.007568,5.9e-05,-0.000104,-0.000685,-0.001252,-0.000548,-0.517584,-0.000473,1.598551,-265.682306,-1.090744,62.431821
8.5754,-0.00041,-0.007901,-0.000996,-0.000159,-0.000673,-0.001494,-0.000467,-0.517571,5.7e-05,1.621339,-265.682347,-1.165691,62.43184
8.5953,-0.000361,-0.007651,-0.001432,-0.000192,-0.000665,-0.001723,-0.000649,-0.517705,-0.000368,1.621339,-265.682347,-1.165691,62.43184
8.615,-0.000574,-0.007999,-0.001482,-0.000218,-0.000658,-0.001887,-0.001093,-0.517659,-0.001452,1.546457,-265.682611,-1.09081,62.431793
8.6352,-0.000544,-0.007564,-0.002496,-0.000151,-0.000677,-0.001449,-0.001309,-0.517968,-0.001481,1.546457,-265.682611,-1.09081,62.431793
8.6554,-0.000246,-0.007654,-0.000752,-9.7e-05,-0.00069,-0.00114,-0.001309,-0.517968,-0.001481,1.546457,-265.682611,-1.09081,62.431793
8.6752,-0.000211,-0.008024,0.000369,-5.4e-05,-0.000698,-0.00092,-0.000637,-0.517676,-0.000817,1.471439,-265.683202,-1.154544,62.431618
8.6955,-0.000632,-0.007888,-0.000155,-0.00014,-0.000674,-0.001323,-0.000391,-0.517819,-0.000347,1.471439,-265.683202,-1.154544,62.431618
8.7156,-0.000348,-0.007922,-0.00091,-0.000209,-0.000655,-0.001611,-0.000711,-0.517888,-0.000155,1.528363,-265.683202,-1.079454,62.431618
8.7354,-0.000325,-0.007797,-0.00083,-0.00021,-0.000653,-0.00156,-0.000804,-0.517919,-0.000846,1.528363,-265.683202,-1.079454,62.431618
8.7553,-0.000538,-0.007864,-0.002132,-0.00021,-0.000651,-0.001523,-0.000804,-0.517919,-0.000846,1.528363,-265.683202,-1.079454,62.431618
8.7752,-0.00022,-0.008534,-0.001391,-0.000211,-0.00065,-0.001498,-0.001632,-0.517885,-0.002187,1.453323,-265.683738,-1.004414,62.431491
8.7955,-9e-05,-0.007763,-0.000978,-0.000142,-0.000669,-0.000999,-0.001347,-0.518152,-0.001869,1.453323,-265.683738,-1.004414,62.431491
8.8152,-3.2e-05,-0.007952,-0.001517,-8.7e-05,-0.000682,-0.000646,-0.000595,-0.51778,-0.001018,1.437051,-265.684264,-0.929561,62.431378
8.8355,-0.000113,-0.008225,-0.00238,-0.000108,-0.000672,-0.000567,-0.000788,-0.517937,-0.001476,1.437051,-265.684264,-0.929561,62.431378
8.8553,-0.000179,-0.007995,-0.001749,-0.000126,-0.000665,-0.00051,-0.000788,-0.517937,-0.001476,1.437051,-265.684264,-0.929561,62.431378
8.8754,-0.000237,-0.007584,0.0004,-0.000141,-0.00066,-0.00047,-0.001071,-0.517994,-0.001749,1.490261,-265.684265,-0.854441,62.431378
8.8956,-0.000286,-0.00787,-0.001152,-0.000178,-0.000654,-0.00074,-0.000643,-0.517825,-0.000864,1.490261,-265.684265,-0.854441,62.431378
8.9152,-0.00016,-0.008182,-0.001868,-0.000208,-0.000649,-0.000931,-0.000874,-0.517869,-0.001152,1.422902,-265.684265,-0.779474,62.431378
8.9356,-0.000294,-0.007658,-0.000747,-0.000171,-0.000658,-0.00062,-0.001092,-0.518155,-0.001807,1.422902,-265.684265,-0.779474,62.431378
8.9555,-0.000131,-0.00786,-0.001525,-0.000142,-0.000664,-0.0004,-0.001092,-0.518155,-0.001807,1.422902,-265.684265,-0.779474,62.431378
8.975,-0.000325,-0.007776,-0.002223,-0.000119,-0.000668,-0.000244,-0.000908,-0.51786,-0.001525,1.401973,-265.684265,-0.70441,62.431378
8.9955,-0.000131,-0.007975,-0.001348,-9.1e-05,-0.000679,-0.000132,-0.001134,-0.517825,-0.001811,1.401973,-265.684265,-0.70441,62.431378
9.0152,-4.1e-05,-0.007735,-0.001662,-7e-05,-0.000687,-5.2e-05,-0.000819,-0.517975,-0.001348,1.4268,-265.684265,-0.629494,62.431378
9.0354,-0.000176,-0.007986,-0.000916,-8.3e-05,-0.000683,-7.2e-05,-0.000883,-0.517755,-0.001635,1.4268,-265.684265,-0.629494,62.431378
9.0553,-0.000249,-0.00802,-0.000571,-9.3e-05,-0.000681,-8.6e-05,-0.000883,-0.517755,-0.001635,1.4268,-265.684265,-0.629494,62.431378
9.0753,-0.000555,-0.008055,-0.001961,-0.000102,-0.00068,-9.6e-05,-0.000541,-0.51802,-0.000571,1.474354,-265.684265,-0.704553,62.431378
9.0954,5e-05,-0.008067,-0.001628,-0.000109,-0.000676,-0.000339,-0.000956,-0.518034,-0.00114,1.474354,-265.684265,-0.704553,62.431378
9.1152,-0.000487,-0.007548,-0.000819,-0.000113,-0.000673,-0.00051,-0.000781,-0.518067,-0.001628,1.433097,-265.684265,-0.779529,62.431378
9.1354,-0.000259,-0.007914,0.000197,-0.000123,-0.000676,-0.000757,-0.000894,-0.517593,-0.000888,1.433097,-265.684265,-0.779529,62.431378
9.1558,2.6e-05,-0.007887,-0.000935,-0.000129,-0.000679,-0.000931,-0.000894,-0.517593,-0.000888,1.433097,-265.684265,-0.779529,62.431378
9.1755,-0.000261,-0.007917,-0.000134,-0.000133,-0.00068,-0.001054,-0.000451,-0.517887,-0.000935,1.456604,-265.684265,-0.704498,62.431378
9.1955,-0.00018,-0.007391,-0.001022,-0.000201,-0.00066,-0.001282,-0.0004,-0.517899,-0.000604,1.456604,-265.684265,-0.704498,62.431378
9.215,-0.000268,-0.007789,-0.00231,-0.000256,-0.000644,-0.001445,-0.000701,-0.517391,-0.001022,1.470648,-265.684265,-0.629492,62.431378
9.2354,-0.000206,-0.007948,-0.000786,-0.000169,-0.000678,-0.000825,-0.001381,-0.517753,-0.002199,1.470648,-265.684265,-0.629492,62.431378
9.2559,-0.000284,-0.008011,-0.0026,-9.9e-05,-0.000702,-0.000385,-0.001381,-0.517753,-0.002199,1.470648,-265.684265,-0.629492,62.431378
9.2754,-0.00027,-0.007984,5.5e-05,-4.2e-05,-0.000718,-7.3e-05,-0.001618,-0.518029,-0.002645,1.404959,-265.684723,-0.704448,62.431275
9.2959,-0.000192,-0.008235,-0.001795,-4.3e-05,-0.00071,-0.000138,-0.001053,-0.518013,-0.001539,1.404959,-265.684723,-0.704448,62.431275
9.3157,0.000191,-0.007529,-0.002513,-4.3e-05,-0.000702,-0.000182,-0.001108,-0.518234,-0.001795,1.479963,-265.684723,-0.779452,62.431275
9.3353,-0.000269,-0.008069,-0.003719,-2.8e-05,-0.000709,0.00018,-0.001092,-0.517589,-0.00245,1.479963,-265.684723,-0.779452,62.431275
9.3555,0.000229,-0.008088,-0.00153,-1.7e-05,-0.000713,0.000435,-0.001092,-0.517589,-0.00245,1.479963,-265.684723,-0.779452,62.431275
9.3756,-1.7e-05,-0.008143,-0.001817,-8e-06,-0.000717,0.000615,-0.000551,-0.518087,-0.00153,1.518232,-265.684723,-0.854487,62.431275
9.3952,-0.000344,-0.007891,-0.001876,-5.7e-05,-0.000696,0.000401,-0.000713,-0.51811,-0.001648,1.518232,-265.684723,-0.854487,62.431275
9.415,-0.000213,-0.007764,0.001349,-9.7e-05,-0.00068,0.000252,-0.0013,-0.51789,-0.001876,1.547435,-265.684723,-0.929498,62.431275
9.4353,-0.000534,-0.007713,-0.001934,-0.000283,-0.000662,-0.001122,0.000318,-0.517775,0.001063,1.547435,-265.684723,-0.929498,62.431275
9.4555,-1.8e-05,-0.007917,-0.001859,-0.000432,-0.000647,-0.002139,0.000318,-0.517775,0.001063,1.547435,-265.684723,-0.929498,62.431275
9.4765,-0.00022,-0.008014,-0.00101,-0.000552,-0.000633,-0.002883,-0.000966,-0.517916,-0.001859,1.472481,-265.684723,-1.004453,62.431275
9.4955,-7.3e-05,-0.007721,0.000317,-0.000477,-0.000653,-0.002141,-0.000875,-0.517955,-0.001524,1.472481,-265.684723,-1.004453,62.431275
9.5154,-0.000474,-0.007914,-0.003173,-0.000417,-0.000665,-0.001615,7.8e-05,-0.517734,0.000259,1.397581,-265.685343,-1.079353,62.430959
9.5355,-0.000551,-0.00818,0.000434,-0.000248,-0.000727,-0.000719,-0.001893,-0.517896,-0.002861,1.397581,-265.685343,-1.079353,62.430959
9.5563,7.1e-05,-0.007975,-0.002081,-0.00011,-0.000771,-7.5e-05,-0.001893,-0.517896,-0.002861,1.397581,-265.685343,-1.079353,62.430959
9.5759,6.2e-05,-0.008178,-0.001555,5e-06,-0.0008,0.000387,-0.000991,-0.517975,-0.002085,1.323632,-265.685376,-1.004357,62.430948
9.5955,5.5e-05,-0.00767,-0.001818,-2.3e-05,-0.00077,0.000331,-0.000891,-0.518053,-0.001881,1.323632,-265.685376,-1.004357,62.430948
9.6154,-0.000321,-0.00812,-0.001941,-4.5e-05,-0.000746,0.000295,-0.000872,-0.517669,-0.001818,1.398629,-265.685376,-1.079354,62.430949
9.6354,-0.000219,-0.008178,-0.001051,-1.9e-05,-0.000742,0.00029,-0.001271,-0.518079,-0.00193,1.398629,-265.685376,-1.079354,62.430949
9.6553,5.2e-05,-0.008212,-0.00055,2e-06,-0.000737,0.00029,-0.001271,-0.518079,-0.00193,1.398629,-265.685376,-1.079354,62.430949
9.6752,-0.00023,-0.00811,-0.001183,2e-05,-0.000733,0.000292,-0.000228,-0.518212,-0.00055,1.473632,-265.685378,-1.154357,62.430952
9.6953,-3e-06,-0.008148,-0.001522,-7.1e-05,-0.0007,-0.000229,-0.000475,-0.51817,-0.000808,1.473632,-265.685378,-1.154357,62.430952
9.7149,-0.000225,-0.008119,-0.002502,-0.000143,-0.000675,-0.000598,-0.000778,-0.518148,-0.001522,1.548654,-265.68539,-1.22938,62.430973
9.7354,-0.000315,-0.008142,-0.000225,-7.7e-05,-0.000694,-0.000135,-0.001436,-0.51812,-0.002415,1.548654,-265.68539,-1.22938,62.430973
9.7553,-0.000413,-0.008298,-0.002633,-2.3e-05,-0.000707,0.000194,-0.001436,-0.51812,-0.002415,1.548654,-265.68539,-1.22938,62.430973
9.7755,9.9e-05,-0.007811,0.000618,2e-05,-0.000716,0.000427,-0.001756,-0.518296,-0.002633,1.473655,-265.685391,-1.154381,62.430973
9.7953,-0.000237,-0.007991,-0.00036,-1.9e-05,-0.000698,0.000107,-0.00087,-0.518098,-0.001306,1.473655,-265.685391,-1.154381,62.430973
9.815,8.2e-05,-0.008106,-0.002032,-4.9e-05,-0.000684,-0.000116,-0.000421,-0.517993,-0.000359,1.54865,-265.685401,-1.229375,62.430994
9.8353,-0.000316,-0.007697,-0.001484,-6.3e-05,-0.000676,-7e-06,-0.000907,-0.518095,-0.001883,1.54865,-265.685401,-1.229375,62.430994
9.8554,-0.000128,-0.008082,-0.002579,-7.5e-05,-0.00067,7.1e-05,-0.000907,-0.518095,-0.001883,1.54865,-265.685401,-1.229375,62.430994
9.8754,-0.000318,-0.008148,-0.000266,-8.5e-05,-0.000666,0.000125,-0.001443,-0.518082,-0.00258,1.50565,-265.685416,-1.304386,62.431007
9.8958,-0.000202,-0.00772,-0.001334,-8.1e-05,-0.000667,5.3e-05,-0.001041,-0.518109,-0.001639,1.50565,-265.685416,-1.304386,62.431007
9.9154,-0.000438,-0.007979,-0.001107,-7.7e-05,-0.000667,3e-06,-0.000882,-0.517721,-0.001334,1.430644,-265.685436,-1.379392,62.431032
9.9351,-0.00014,-0.007518,-0.002637,-8.4e-05,-0.000668,-0.000276,-0.000991,-0.517955,-0.001127,1.430644,-265.685436,-1.379392,62.431032
9.9559,-0.000375,-0.007743,-0.000649,-8.8e-05,-0.000668,-0.000471,-0.000991,-0.517955,-0.001127,1.430644,-265.685436,-1.379392,62.431032
9.9751,0.000139,-0.008496,-0.001178,-9e-05,-0.000668,-0.000609,-0.000706,-0.517749,-0.000649,1.455461,-265.685494,-1.454384,62.43109
9.9956,8.9e-05,-0.008201,-0.001986,-0.000141,-0.000652,-0.000834,-0.000607,-0.518052,-0.000863,1.455461,-265.685494,-1.454384,62.43109
10.0154,-0.000234,-0.008302,-0.000468,-0.000181,-0.000641,-0.000993,-0.000924,-0.5182,-0.001986,1.48403,-265.685494,-1.379408,62.43109
10.0359,-0.000477,-0.007738,-0.001136,-0.000228,-0.000627,-0.001238,-0.000514,-0.518293,-0.000607,1.48403,-265.685494,-1.379408,62.43109
10.0554,-0.000391,-0.008188,-0.001786,-0.000266,-0.000616,-0.001413,-0.000514,-0.518293,-0.000607,1.48403,-265.685494,-1.379408,62.43109
10.0752,-0.000271,-0.007752,-0.003418,-0.000296,-0.000607,-0.001537,-0.001302,-0.518187,-0.001786,1.426992,-265.685494,-1.304383,62.43109
10.0956,-0.000376,-0.007931,-0.001579,-0.000183,-0.000653,-0.000794,-0.001592,-0.518009,-0.002451,1.426992,-265.685494,-1.304383,62.43109
10.1158,7.8e-05,-0.007454,-0.001074,-9e-05,-0.000687,-0.000265,-0.001182,-0.517931,-0.001581,1.381545,-265.685512,-1.229376,62.431085
10.1358,-0.000115,-0.007845,-0.001124,-0.000146,-0.000676,-0.00047,-0.000534,-0.517497,-0.00112,1.381545,-265.685512,-1.229376,62.431085
10.1558,3e-06,-0.007921,-0.002416,-0.000192,-0.000669,-0.000613,-0.000534,-0.517497,-0.00112,1.381545,-265.685512,-1.229376,62.431085
10.1753,-0.000349,-0.007905,0.000325,-0.000229,-0.000665,-0.000714,-0.001229,-0.51792,-0.002416,1.456523,-265.685516,-1.304355,62.431088
10.1968,1e-06,-0.008192,-0.002177,-0.000223,-0.000665,-0.000683,-0.000818,-0.517914,-0.001339,1.456523,-265.685516,-1.304355,62.431088
10.215,-0.000474,-0.008074,-0.001556,-0.000219,-0.000665,-0.000659,-0.001109,-0.51819,-0.002177,1.38878,-265.685516,-1.229343,62.431088
10.2351,-8.2e-05,-0.007761,-0.000619,-0.000164,-0.000679,-0.000519,-0.001254,-0.518084,-0.001611,1.38878,-265.685516,-1.229343,62.431088
10.2554,-8.7e-05,-0.007808,-0.000507,-0.000119,-0.000689,-0.000418,-0.001254,-0.518084,-0.001611,1.38878,-265.685516,-1.229343,62.431088
10.2756,-0.000181,-0.008221,-0.000426,-8.2e-05,-0.000695,-0.000346,-0.000346,-0.517808,-0.000507,1.368405,-265.685516,-1.154301,62.431088
10.2956,-0.000142,-0.008092,-0.001249,-0.000169,-0.000671,-0.000846,-0.000367,-0.517976,-0.000474,1.368405,-265.685516,-1.154301,62.431088
10.3153,-0.000222,-0.007854,-0.002789,-0.000238,-0.000652,-0.001204,-0.000779,-0.518091,-0.001249,1.44334,-265.685517,-1.229237,62.431088
10.3358,-0.000535,-0.007846,-0.000437,-0.000136,-0.000691,-0.000482,-0.001566,-0.517873,-0.002651,1.44334,-265.685517,-1.229237,62.431088
10.3556,-0.000148,-0.00821,-0.001829,-5.2e-05,-0.000719,3.3e-05,-0.001566,-0.517873,-0.002651,1.44334,-265.685517,-1.229237,62.431088
10.3755,-0.000365,-0.008128,-0.001686,1.6e-05,-0.000738,0.000399,-0.00108,-0.518209,-0.001829,1.400774,-265.685517,-1.154239,62.431088
10.3951,0.000206,-0.008024,-0.001777,1.4e-05,-0.000725,0.000297,-0.001139,-0.518176,-0.001771,1.400774,-265.685517,-1.154239,62.431088
10.4151,-0.000303,-0.007709,-0.001856,1.2e-05,-0.000714,0.000228,-0.0007,-0.518024,-0.001777,1.475777,-265.685524,-1.229242,62.431103
10.4354,-0.000204,-0.007434,-0.002495,2.4e-05,-0.000717,0.000215,-0.001202,-0.517736,-0.001849,1.475777,-265.685524,-1.229242,62.431103
10.4557,-0.000251,-0.007764,-0.002705,3.5e-05,-0.000718,0.000207,-0.001202,-0.517736,-0.001849,1.475777,-265.685524,-1.229242,62.431103
10.475,-0.000315,-0.007959,-0.001986,4.3e-05,-0.000719,0.000203,-0.00163,-0.517766,-0.002703,1.550878,-265.685556,-1.304343,62.431151
10.4956,-5.8e-05,-0.00806,-0.001016,8.8e-05,-0.000732,0.000434,-0.001506,-0.517845,-0.002409,1.550878,-265.685556,-1.304343,62.431151
10.5156,-0.000213,-0.0082,-0.001997,0.000125,-0.000741,0.000598,-0.000574,-0.518069,-0.001013,1.625828,-265.685655,-1.379293,62.43129
10.5352,4.1e-05,-0.008167,-0.002633,0.000108,-0.000725,0.000505,-0.001172,-0.518188,-0.001908,1.625828,-265.685655,-1.379293,62.43129
10.5559,0.000143,-0.008172,-0.001601,9.5e-05,-0.000713,0.000441,-0.001172,-0.518188,-0.001908,1.625828,-265.685655,-1.379293,62.43129
10.5759,-0.000222,-0.008253,-0.002596,8.5e-05,-0.000703,0.000396,-0.000674,-0.518171,-0.001601,1.550884,-265.685655,-1.454237,62.43129
10.5955,-0.000177,-0.007743,-0.001179,6.1e-05,-0.000691,0.00041,-0.001029,-0.518204,-0.002006,1.550884,-265.685655,-1.454237,62.43129
10.6153,-0.00031,-0.008314,-0.002076,4.1e-05,-0.000681,0.000419,-0.000779,-0.517743,-0.001179,1.475883,-265.685655,-1.481448,62.43129
10.6352,-0.00032,-0.00778,-0.002396,5.5e-05,-0.000684,0.00042,-0.001318,-0.518264,-0.001999,1.475883,-265.685655,-1.481448,62.43129
10.6564,-0.000505,-0.008113,-0.003568,6.8e-05,-0.000686,0.00042,-0.001318,-0.518264,-0.001999,1.475883,-265.685655,-1.481448,62.43129
10.6754,-0.000324,-0.008118,-0.00054,7.8e-05,-0.000687,0.000421,-0.002325,-0.518126,-0.003559,1.551008,-265.685747,-1.52759,62.431493
10.6953,-0.000648,-0.007571,-0.002712,0.000128,-0.000705,0.000579,-0.001651,-0.518124,-0.002378,1.551008,-265.685747,-1.52759,62.431493
10.7154,-5.7e-05,-0.007979,-0.002492,0.000169,-0.000718,0.00069,-0.002031,-0.517569,-0.002712,1.475981,-265.685747,-1.488088,62.431493
10.7355,-0.00028,-0.008136,-0.001281,0.000177,-0.000719,0.000825,-0.001389,-0.517942,-0.002511,1.475981,-265.685747,-1.488088,62.431493
10.7555,-0.000181,-0.008408,-0.002417,0.000183,-0.00072,0.00092,-0.001389,-0.517942,-0.002511,1.475981,-265.685747,-1.488088,62.431493
10.7753,0.000136,-0.007852,-0.00249,0.000187,-0.000721,0.000986,-0.001414,-0.518407,-0.002417,1.401027,-265.685747,-1.423137,62.431493
10.7952,0.000162,-0.008079,-0.001842,0.000178,-0.000713,0.001008,-0.001299,-0.518177,-0.002447,1.401027,-265.685747,-1.423137,62.431493
10.8154,0.000173,-0.008052,-0.001657,0.000169,-0.000707,0.001023,-0.000777,-0.518078,-0.001842,1.325988,-265.685747,-1.43002,62.431493
10.8352,-0.000182,-0.008339,-0.00023,8.5e-05,-0.000682,0.000707,-0.000681,-0.518054,-0.001673,1.325988,-265.685747,-1.43002,62.431493
10.8552,-0.000354,-0.007945,-0.002152,1.7e-05,-0.000664,0.000485,-0.000681,-0.518054,-0.001673,1.325988,-265.685747,-1.43002,62.431493
10.8755,-0.000271,-0.008223,-0.00129,-3.9e-05,-0.000651,0.000328,-0.001451,-0.517944,-0.002152,1.251125,-265.685747,-1.444451,62.431494
10.8953,-0.000181,-0.007838,-0.00162,-1.9e-05,-0.000663,0.000267,-0.001237,-0.518059,-0.001797,1.251125,-265.685747,-1.444451,62.431494
10.9155,-5.3e-05,-0.008157,-0.000988,-2e-06,-0.000672,0.000224,-0.001007,-0.517843,-0.001617,1.326191,-265.685794,-1.519518,62.431581
10.9352,-0.000466,-0.008089,-0.000486,-7.1e-05,-0.000653,-0.000156,-0.000595,-0.51813,-0.001042,1.326191,-265.685794,-1.519518,62.431581
10.9555,-0.000315,-0.007791,-0.000915,-0.000126,-0.00064,-0.000424,-0.000595,-0.51813,-0.001042,1.326191,-265.685794,-1.519518,62.431581
10.9753,-0.000618,-0.007906,-0.002342,-0.000171,-0.00063,-0.000614,-0.000782,-0.517801,-0.000911,1.401239,-265.685873,-1.572738,62.431702
10.9952,-3.1e-05,-0.007935,-0.001757,-0.000128,-0.000652,-0.000534,-0.001205,-0.517845,-0.001498,1.401239,-265.685873,-1.572738,62.431702
11.0152,7.3e-05,-0.007839,3e-06,-9.2e-05,-0.000668,-0.000477,-0.000927,-0.517934,-0.001757,1.402649,-265.685873,-1.49771,62.431702
11.0352,-0.000131,-0.008566,-0.000971,-0.000223,-0.000643,-0.001099,-1.4e-05,-0.517848,-0.000152,1.402649,-265.685873,-1.49771,62.431702
11.0554,6e-06,-0.0083,-0.001281,-0.000328,-0.000625,-0.001546,-1.4e-05,-0.517848,-0.000152,1.402649,-265.685873,-1.49771,62.431702
11.075,-0.000145,-0.008098,-0.00048,-0.000413,-0.000611,-0.001868,-0.000648,-0.518299,-0.001281,1.475127,-265.685873,-1.422761,62.431702
11.0953,-0.000484,-0.007585,-0.002811,-0.000409,-0.000611,-0.001686,-0.000542,-0.518217,-0.000953,1.475127,-265.685873,-1.422761,62.431702
11.115,-0.000509,-0.008004,-0.002387,-0.000406,-0.000611,-0.001558,-0.001917,-0.517583,-0.002811,1.400217,-265.68588,-1.34785,62.431699
11.1353,-0.000494,-0.008057,-0.002096,-0.000257,-0.00067,-0.000826,-0.001743,-0.517966,-0.002423,1.400217,-265.68588,-1.34785,62.431699
11.1551,-0.00031,-0.008231,-0.001394,-0.000134,-0.000713,-0.000304,-0.001743,-0.517966,-0.002423,1.400217,-265.68588,-1.34785,62.431699
11.1757,-0.000229,-0.007966,-0.000748,-3.3e-05,-0.000742,6.8e-05,-0.001021,-0.51823,-0.001394,1.32511,-265.68588,-1.272743,62.431699
11.1955,-0.000278,-0.008106,-0.002092,-6.6e-05,-0.000719,-0.000237,-0.000853,-0.518122,-0.001129,1.32511,-265.68588,-1.272743,62.431699
11.2151,-1e-06,-0.007979,-0.001466,-9.1e-05,-0.000701,-0.000449,-0.001345,-0.518107,-0.002092,1.400121,-265.685903,-1.347754,62.431724
11.2351,3.5e-05,-0.007924,-0.00234,-0.000111,-0.000688,-0.000408,-0.0008,-0.517989,-0.00152,1.400121,-265.685903,-1.347754,62.431724
11.2554,-0.000259,-0.007958,-0.000535,-0.000128,-0.000678,-0.000377,-0.0008,-0.517989,-0.00152,1.400121,-265.685903,-1.347754,62.431724
11.2756,-0.000503,-0.007892,-0.000502,-0.000142,-0.000671,-0.000355,-0.000532,-0.517958,-0.000535,1.475093,-265.685903,-1.272782,62.431724
11.2952,-0.000291,-0.007918,-0.00194,-0.000187,-0.000661,-0.000834,-0.000625,-0.51793,-0.000521,1.475093,-265.685903,-1.272782,62.431724
11.315,-0.000488,-0.008066,-0.002154,-0.000222,-0.000653,-0.001175,-0.00128,-0.517917,-0.00194,1.412195,-265.685903,-1.197779,62.431724
11.336,0.000398,-0.008241,-0.001484,-0.000127,-0.000684,-0.000659,-0.00156,-0.518053,-0.002136,1.412195,-265.685903,-1.197779,62.431724
11.356,-0.000291,-0.008106,-0.001012,-4.9e-05,-0.000707,-0.000293,-0.00156,-0.518053,-0.002136,1.412195,-265.685903,-1.197779,62.431724
11.3754,-0.000488,-0.0079,0.000182,1.4e-05,-0.000722,-3.3e-05,-0.000808,-0.518106,-0.001012,1.410017,-265.685903,-1.122772,62.431724
11.3953,0.000428,-0.007707,-0.000422,-5.8e-05,-0.000697,-0.000598,-0.000644,-0.518024,-0.000538,1.410017,-265.685903,-1.122772,62.431724
11.4152,-0.000118,-0.008152,-0.000364,-0.000114,-0.000677,-0.000998,0.000213,-0.517707,-0.000422,1.484913,-265.685911,-1.197668,62.431732
11.4353,-0.000416,-0.008017,-0.000795,-0.000206,-0.00065,-0.001365,-0.000258,-0.518111,-0.00037,1.484913,-265.685911,-1.197668,62.431732
11.4554,-0.000225,-0.007908,-0.003626,-0.00028,-0.00063,-0.001627,-0.000258,-0.518111,-0.00037,1.484913,-265.685911,-1.197668,62.431732
11.4753,0.000121,-0.007925,-0.001733,-0.000339,-0.000614,-0.001814,-0.002074,-0.517905,-0.003626,1.482438,-265.685911,-1.122675,62.431732
11.4954,-0.00035,-0.008001,-0.002997,-0.000223,-0.000662,-0.000854,-0.001539,-0.517913,-0.002853,1.482438,-265.685911,-1.122675,62.431732
11.5154,-0.000249,-0.007735,-0.00189,-0.000128,-0.000697,-0.000167,-0.001884,-0.51801,-0.00303,1.407339,-265.686311,-1.047576,62.431596
11.5354,-9.7e-05,-0.008336,-0.002174,-8.2e-05,-0.00071,-1.4e-05,-0.001271,-0.517759,-0.001991,1.407339,-265.686311,-1.047576,62.431596
11.5554,-0.000425,-0.008122,-0.003374,-4.4e-05,-0.000719,9.7e-05,-0.001271,-0.517759,-0.001991,1.407339,-265.686311,-1.047576,62.431596
11.5753,-0.000471,-0.00815,5.6e-05,-1.3e-05,-0.000725,0.000178,-0.002146,-0.518119,-0.003374,1.411798,-265.686311,-0.972587,62.431596
11.5954,9e-05,-0.008045,-0.001424,2.9e-05,-0.00073,0.000234,-0.001457,-0.518132,-0.001987,1.411798,-265.686311,-0.972587,62.431596
11.6157,-0.000319,-0.00763,-0.002268,6.4e-05,-0.000732,0.000276,-0.000636,-0.518044,-0.001424,1.486796,-265.686311,-1.047584,62.431596
11.6356,-7.6e-05,-0.007917,-0.001547,9.4e-05,-0.00074,0.000397,-0.001403,-0.517665,-0.002195,1.486796,-265.686311,-1.047584,62.431596
11.6559,-0.000301,-0.008374,-0.002695,0.00012,-0.000746,0.000482,-0.001403,-0.517665,-0.002195,1.486796,-265.686311,-1.047584,62.431596
11.6752,-0.000196,-0.00826,-0.002057,0.00014,-0.00075,0.000543,-0.001676,-0.518372,-0.002695,1.561819,-265.686315,-1.122608,62.431603
11.6955,-0.000353,-0.008163,-0.003008,0.00016,-0.000744,0.000685,-0.001499,-0.518326,-0.002434,1.561819,-265.686315,-1.122608,62.431603
11.7149,2.1e-05,-0.007984,-0.003668,0.000176,-0.000738,0.000786,-0.001887,-0.518161,-0.003008,1.4868,-265.686315,-1.197627,62.431603
11.7354,1.7e-05,-0.008031,-0.001092,0.000233,-0.00076,0.00128,-0.001853,-0.517996,-0.003611,1.4868,-265.686315,-1.197627,62.431603
11.7553,-0.000284,-0.007948,-0.000823,0.00028,-0.000777,0.001632,-0.001853,-0.517996,-0.003611,1.4868,-265.686315,-1.197627,62.431603
11.775,-4.1e-05,-0.008535,-0.002029,0.000319,-0.000788,0.001882,-0.000703,-0.517948,-0.000823,1.411829,-265.686315,-1.272598,62.431603
11.7954,-0.000323,-0.008042,-0.003658,0.000218,-0.000751,0.001137,-0.000857,-0.51819,-0.00132,1.411829,-265.686315,-1.272598,62.431603
11.8151,-0.000165,-0.008065,-0.002303,0.000139,-0.00072,0.000612,-0.002189,-0.518038,-0.003658,1.336764,-265.686315,-1.347663,62.431606
11.8355,-0.000207,-0.008147,-0.002907,0.000153,-0.000721,0.000726,-0.001413,-0.518062,-0.00242,1.336764,-265.686315,-1.347663,62.431606
11.8557,-0.000105,-0.008284,-0.002517,0.000164,-0.000722,0.000807,-0.001413,-0.518062,-0.00242,1.336764,-265.686315,-1.347663,62.431606
11.8754,-0.000384,-0.008289,-0.00266,0.000172,-0.000722,0.000865,-0.001389,-0.518283,-0.002517,1.261831,-265.686315,-1.422596,62.431606
11.8954,-0.00044,-0.007982,-0.00126,0.00019,-0.000722,0.000969,-0.001531,-0.518285,-0.002575,1.261831,-265.686315,-1.422596,62.431606
11.9156,-0.000279,-0.007926,-0.000885,0.000205,-0.000722,0.001043,-0.001083,-0.517982,-0.00126,1.186828,-265.686315,-1.433706,62.431606
11.9352,-0.000273,-0.008138,-0.000456,0.000113,-0.0007,0.000356,-0.000761,-0.51793,-0.000917,1.186828,-265.686315,-1.433706,62.431606
11.955,-0.000273,-0.007911,-0.001882,4.1e-05,-0.000682,-0.000131,-0.000761,-0.51793,-0.000917,1.186828,-265.686315,-1.433706,62.431606
11.9753,0.000163,-0.00811,-0.00253,-1.5e-05,-0.000668,-0.000474,-0.001233,-0.51791,-0.001882,1.111793,-265.686315,-1.421218,62.431606
11.9954,4e-06,-0.008115,1.2e-05,2e-06,-0.000675,-0.000149,-0.00119,-0.517991,-0.002147,1.111793,-265.686315,-1.421218,62.431606
12.0149,-0.000112,-0.007983,-0.002089,1.6e-05,-0.000679,8e-05,1e-05,-0.518116,1.2e-05,1.186663,-265.686323,-1.496087,62.431609
12.0351,-0.000274,-0.008263,-0.001525,1e-05,-0.000678,0.000137,-0.00107,-0.517994,-0.0019,1.186663,-265.686323,-1.496087,62.431609
12.0556,0.000157,-0.007754,-0.000659,5e-06,-0.000677,0.000178,-0.00107,-0.517994,-0.0019,1.186663,-265.686323,-1.496087,62.431609
12.075,-0.00013,-0.008356,-0.000905,1e-06,-0.000677,0.000207,-0.000179,-0.517755,-0.000659,1.261669,-265.686338,-1.549451,62.431627
12.0953,-0.000497,-0.007804,-0.000779,-0.000102,-0.000653,-0.000309,-0.000347,-0.517999,-0.000759,1.261669,-265.686338,-1.549451,62.431627
12.1154,-0.000154,-0.007889,-0.001649,-0.000184,-0.000636,-0.000675,-0.000895,-0.517808,-0.000777,1.336746,-265.686383,-1.56909,62.431693
12.1352,-0.000214,-0.008228,-0.003381,-0.000164,-0.000648,-0.000544,-0.000986,-0.517881,-0.001571,1.336746,-265.686383,-1.56909,62.431693
12.1553,-0.000264,-0.008243,-0.002153,-0.000148,-0.000656,-0.000451,-0.000986,-0.517881,-0.001571,1.336746,-265.686383,-1.56909,62.431693
12.1757,0.000181,-0.007837,-0.002282,-0.000135,-0.000663,-0.000385,-0.001362,-0.518242,-0.002153,1.397121,-265.686383,-1.494133,62.431693
12.1955,-0.000103,-0.008145,-0.001751,-9.7e-05,-0.000674,-6.3e-05,-0.001208,-0.518076,-0.002205,1.397121,-265.686383,-1.494133,62.431693
12.2154,-0.000297,-0.008271,-0.002024,-6.6e-05,-0.000682,0.000165,-0.000996,-0.518144,-0.001751,1.421135,-265.686383,-1.419175,62.431693
12.2355,0.000292,-0.007989,-0.000215,-3.4e-05,-0.000687,0.000237,-0.001299,-0.518258,-0.001999,1.421135,-265.686383,-1.419175,62.431693
12.2556,0.000111,-0.007788,-0.000984,-8e-06,-0.000691,0.000288,-0.001299,-0.518258,-0.001999,1.421135,-265.686383,-1.419175,62.431693
12.2755,-0.000101,-0.007964,-0.001216,1.3e-05,-0.000693,0.000326,-0.000391,-0.517799,-0.000982,1.45785,-265.686477,-1.494176,62.431818
12.2954,3.3e-05,-0.007707,-0.001866,-6.7e-05,-0.000672,-6.7e-05,-0.000526,-0.517868,-0.001077,1.45785,-265.686477,-1.494176,62.431818
12.3157,-6.7e-05,-0.008065,-1.1e-05,-0.000131,-0.000657,-0.000345,-0.000919,-0.517721,-0.001858,1.532848,-265.686613,-1.556002,62.432063
12.3354,-3.6e-05,-0.008172,-0.000373,-0.000239,-0.000636,-0.000998,-0.000147,-0.518036,-0.000173,1.532848,-265.686613,-1.556002,62.432063
12.3554,-1.1e-05,-0.008078,-0.002258,-0.000326,-0.00062,-0.001467,-0.000147,-0.518036,-0.000173,1.532848,-265.686613,-1.556002,62.432063
12.3763,-0.000445,-0.008122,-0.000481,-0.000395,-0.000608,-0.001802,-0.001162,-0.518076,-0.002258,1.457749,-265.686613,-1.480903,62.432063
12.3952,-0.000507,-0.007978,-0.001702,-0.000339,-0.000625,-0.001365,-0.00097,-0.518095,-0.001532,1.457749,-265.686613,-1.480903,62.432063
12.4153,-8.8e-05,-0.008269,-0.000689,-0.000295,-0.000638,-0.001055,-0.001375,-0.517977,-0.001702,1.382688,-265.686614,-1.405842,62.432063
12.4356,-0.000188,-0.007956,-0.001031,-0.00032,-0.000629,-0.001203,-0.00052,-0.518244,-0.000776,1.382688,-265.686614,-1.405842,62.432063
12.4556,-6.9e-05,-0.0081,-0.002062,-0.00034,-0.000622,-0.001306,-0.00052,-0.518244,-0.000776,1.382688,-265.686614,-1.405842,62.432063
12.4756,-0.00031,-0.008372,-0.001681,-0.000355,-0.000616,-0.001379,-0.001121,-0.518099,-0.002062,1.344917,-265.686615,-1.330875,62.432063
12.4951,0.000199,-0.008134,-0.003049,-0.000288,-0.000636,-0.000898,-0.00114,-0.51821,-0.001907,1.344917,-265.686615,-1.330875,62.432063
12.5152,-0.00016,-0.008168,0.000635,-0.000233,-0.000651,-0.000558,-0.001356,-0.518132,-0.003049,1.331704,-265.686615,-1.255904,62.432063
12.5352,-6.4e-05,-0.008159,-0.001273,-0.000349,-0.00063,-0.001398,3.2e-05,-0.518164,0.000316,1.331704,-265.686615,-1.255904,62.432063
12.5552,-0.000234,-0.007959,-0.003477,-0.000442,-0.000612,-0.002005,3.2e-05,-0.518164,0.000316,1.331704,-265.686615,-1.255904,62.432063
12.5754,-0.000107,-0.008333,-0.002129,-0.000515,-0.000598,-0.002442,-0.002007,-0.517956,-0.003477,1.340272,-265.686615,-1.180909,62.432063
12.5955,-2.6e-05,-0.008579,-0.002637,-0.000358,-0.000656,-0.001292,-0.001676,-0.518109,-0.002929,1.340272,-265.686615,-1.180909,62.432063
12.6153,-0.00011,-0.00829,-0.000994,-0.000229,-0.000699,-0.000464,-0.001382,-0.518591,-0.002696,1.328938,-265.687261,-1.105995,62.431753
12.6355,9.6e-05,-0.007968,-0.003048,-0.000246,-0.000681,-0.000616,-0.000683,-0.518317,-0.001143,1.328938,-265.687261,-1.105995,62.431753
12.6554,-5e-05,-0.007962,-0.000902,-0.000259,-0.000667,-0.000718,-0.000683,-0.518317,-0.001143,1.328938,-265.687261,-1.105995,62.431753
12.6752,-0.00041,-0.008022,0.000539,-0.00027,-0.000656,-0.000786,-0.00051,-0.517962,-0.000902,1.342289,-265.687261,-1.030896,62.431753
12.6951,-7.7e-05,-0.008234,-0.001871,-0.000326,-0.000643,-0.001251,-0.000358,-0.517986,-0.000317,1.342289,-265.687261,-1.030896,62.431753
12.7152,-1.6e-05,-0.008078,-0.001353,-0.00037,-0.000632,-0.001581,-0.001031,-0.518233,-0.001871,1.337769,-265.687261,-0.955995,62.431753
12.7354,-0.000363,-0.008141,-0.002685,-0.000348,-0.000635,-0.001271,-0.000734,-0.518091,-0.001397,1.337769,-265.687261,-0.955995,62.431753
12.7558,-0.00046,-0.008057,-0.002954,-0.000331,-0.000637,-0.001051,-0.000734,-0.518091,-0.001397,1.337769,-265.687261,-0.955995,62.431753
12.7756,0.000107,-0.008248,-0.000666,-0.000318,-0.000639,-0.000895,-0.001973,-0.518067,-0.002985,1.343168,-265.687556,-0.880864,62.431663
12.7957,-0.000249,-0.00835,-0.001842,-0.000241,-0.000662,-0.000492,-0.001277,-0.51814,-0.002061,1.343168,-265.687556,-0.880864,62.431663
12.8152,-9.7e-05,-0.008184,-0.001163,-0.000179,-0.000678,-0.000206,-0.001188,-0.518349,-0.001842,1.308572,-265.687556,-0.805997,62.431663
12.8352,0.000211,-0.008313,-0.002404,-0.000198,-0.000666,-0.000379,-0.000734,-0.518198,-0.001224,1.308572,-265.687556,-0.805997,62.431663
12.8554,-0.000171,-0.00809,-0.000627,-0.000213,-0.000657,-0.000499,-0.000734,-0.518198,-0.001224,1.308572,-265.687556,-0.805997,62.431663
12.8752,-0.000171,-0.008073,-0.000756,-0.000224,-0.000649,-0.000583,-0.000491,-0.51809,-0.000627,1.351845,-265.687556,-0.730996,62.431663
12.8953,-0.000172,-0.008358,-0.001544,-0.000266,-0.000639,-0.000913,-0.000518,-0.518083,-0.00068,1.351845,-265.687556,-0.730996,62.431663
12.9151,-0.000135,-0.008733,-0.0015,-0.000298,-0.00063,-0.001147,-0.000959,-0.518357,-0.001544,1.351112,-265.687556,-0.656002,62.431663
12.9352,-0.000475,-0.007913,-0.000374,-0.000274,-0.000629,-0.000909,-0.000905,-0.5187,-0.001504,1.351112,-265.687556,-0.656002,62.431663
12.9553,0.000105,-0.008016,-0.002248,-0.000255,-0.000628,-0.00074,-0.000905,-0.5187,-0.001504,1.351112,-265.687556,-0.656002,62.431663
12.9755,-0.000228,-0.008082,-0.001632,-0.00024,-0.000626,-0.00062,-0.001042,-0.518016,-0.00225,1.350439,-265.687583,-0.580905,62.431657
12.9952,0.000263,-0.008132,-0.002483,-0.000202,-0.000641,-0.000314,-0.00105,-0.518042,-0.002,1.350439,-265.687583,-0.580905,62.431657
13.0154,0.000115,-0.008453,-0.001214,-0.000172,-0.000651,-9.8e-05,-0.001003,-0.51813,-0.002483,1.339167,-265.687583,-0.505996,62.431657
13.0351,-0.000187,-0.008022,-0.002747,-0.000213,-0.000635,-0.000245,-0.00055,-0.518423,-0.001331,1.339167,-265.687583,-0.505996,62.431657
13.0552,-1.6e-05,-0.008034,1.9e-05,-0.000246,-0.000624,-0.000347,-0.00055,-0.518423,-0.001331,1.339167,-265.687583,-0.505996,62.431657
13.0753,0.00017,-0.00808,-0.00041,-0.000274,-0.000615,-0.000419,-7e-06,-0.518034,1.9e-05,1.333751,-265.687583,-0.431006,62.431657
13.0952,0.000256,-0.008311,-0.000529,-0.000373,-0.000602,-0.001058,-2e-05,-0.518053,-0.000157,1.333751,-265.687583,-0.431006,62.431657
13.1151,-0.000323,-0.008095,-0.002132,-0.000452,-0.000593,-0.001517,-1.4e-05,-0.518311,-0.000529,1.26642,-265.687583,-0.356005,62.431657
13.1354,-4.6e-05,-0.008173,-0.001774,-0.00035,-0.00063,-0.000964,-0.001288,-0.518113,-0.001992,1.26642,-265.687583,-0.356005,62.431657
13.1552,-0.000267,-0.008477,-0.001727,-0.000267,-0.000656,-0.000571,-0.001288,-0.518113,-0.001992,1.26642,-265.687583,-0.356005,62.431657
13.1755,-0.000162,-0.008467,-0.001533,-0.000199,-0.000675,-0.000291,-0.001153,-0.518484,-0.001744,1.281543,-265.68776,-0.431067,62.431595
13.1957,-0.000171,-0.008157,0.000516,-0.000174,-0.000672,-0.000237,-0.001068,-0.518478,-0.00166,1.281543,-265.68776,-0.431067,62.431595
13.2154,-0.000274,-0.008392,-0.000372,-0.000154,-0.000669,-0.000197,9.2e-05,-0.518157,0.000516,1.341999,-265.68776,-0.35612,62.431595
13.2352,3.7e-05,-0.008074,-0.002197,-0.000227,-0.000648,-0.000838,-0.000412,-0.518371,-0.000291,1.341999,-265.68776,-0.35612,62.431595
13.2555,0.000284,-0.00824,-0.001443,-0.000285,-0.00063,-0.001295,-0.000412,-0.518371,-0.000291,1.341999,-265.68776,-0.35612,62.431595
13.2753,0.00011,-0.008246,-0.000843,-0.00033,-0.000616,-0.001622,-0.000452,-0.518239,-0.001443,1.378168,-265.68776,-0.281124,62.431595
13.2955,-6.9e-05,-0.008339,-0.002455,-0.000355,-0.000607,-0.001386,-0.000398,-0.518242,-0.0012,1.378168,-265.68776,-0.281124,62.431595
13.3155,5.7e-05,-0.008163,-0.002137,-0.000378,-0.000602,-0.00122,-0.001325,-0.518346,-0.002471,1.373222,-265.688001,-0.356127,62.43154
13.3357,-0.000141,-0.008018,-0.002812,-0.000315,-0.000624,-0.000676,-0.00106,-0.518179,-0.002168,1.373222,-265.688001,-0.356127,62.43154
13.3558,0.000149,-0.008267,-0.000668,-0.000264,-0.00064,-0.00029,-0.00106,-0.518179,-0.002168,1.373222,-265.688001,-0.356127,62.43154
13.3757,-0.000351,-0.008217,-0.002729,-0.000223,-0.000651,-1.6e-05,-0.000207,-0.51829,-0.000715,1.298228,-265.688511,-0.362247,62.431393
13.3955,1.8e-05,-0.008551,-0.00259,-0.000221,-0.000649,-9.7e-05,-0.000833,-0.518262,-0.001539,1.298228,-265.688511,-0.362247,62.431393
13.4152,-2e-06,-0.008093,-0.001063,-0.00022,-0.000646,-0.000152,-0.001303,-0.51855,-0.00259,1.245548,-265.688511,-0.287235,62.431393
13.4359,-0.000236,-0.008428,-0.001379,-0.000246,-0.000639,-0.000348,-0.000613,-0.518134,-0.001202,1.245548,-265.688511,-0.287235,62.431393
13.4554,-0.000219,-0.008234,-0.001645,-0.000267,-0.000633,-0.000485,-0.000613,-0.518134,-0.001202,1.245548,-265.688511,-0.287235,62.431393
13.4755,-0.000258,-0.008004,-0.002028,-0.000284,-0.000629,-0.000582,-0.001058,-0.518234,-0.001645,1.281671,-265.688511,-0.212239,62.431393
13.4953,0.000142,-0.007935,-0.002188,-0.00023,-0.000647,-0.000376,-0.001153,-0.51814,-0.001801,1.281671,-265.688511,-0.212239,62.431393
13.5154,-5.8e-05,-0.008193,-0.001874,-0.000185,-0.00066,-0.00023,-0.000974,-0.517934,-0.002188,1.289892,-265.688511,-0.137227,62.431393
13.5355,0.000456,-0.008278,-0.001389,-0.000165,-0.000663,-8e-05,-0.00101,-0.518169,-0.001902,1.289892,-265.688511,-0.137227,62.431393
13.5555,-0.000494,-0.008165,-0.000609,-0.000148,-0.000665,2.6e-05,-0.00101,-0.518169,-0.001902,1.289892,-265.688511,-0.137227,62.431393
13.5755,0.000114,-0.008492,-0.001143,-0.000135,-0.000666,0.000101,-0.000805,-0.518165,-0.000609,1.343288,-265.688511,-0.062244,62.431393
13.5956,-0.000214,-0.008352,-0.001347,-0.000177,-0.000652,-0.000355,-0.000668,-0.518298,-0.000827,1.343288,-265.688511,-0.062244,62.431393
13.6152,-0.000303,-0.008187,-0.002089,-0.000209,-0.000641,-0.000677,-0.0009,-0.518352,-0.001347,1.350787,-265.688511,0.012753,62.431393
13.6356,0.000116,-0.008049,-0.002443,-0.000147,-0.00066,-0.000348,-0.001326,-0.518201,-0.002022,1.350787,-265.688511,0.012753,62.431393
13.6556,-0.000506,-0.008151,-0.002803,-9.6e-05,-0.000674,-0.000115,-0.001326,-0.518201,-0.002022,1.350787,-265.688511,0.012753,62.431393
13.6754,-3.4e-05,-0.008444,-0.002418,-5.5e-05,-0.000683,5e-05,-0.001936,-0.518149,-0.002803,1.374861,-265.688511,0.087812,62.431393
13.6954,0.000117,-0.008105,-0.003168,1.8e-05,-0.000705,0.000418,-0.001665,-0.518268,-0.002647,1.374861,-265.688511,0.087812,62.431393
13.715,0.000149,-0.008422,-0.002949,7.7e-05,-0.00072,0.000678,-0.001499,-0.518103,-0.003168,1.449805,-265.688511,0.162756,62.431393
13.7357,5.1e-05,-0.00802,-0.002064,9.2e-05,-0.000716,0.000986,-0.001368,-0.518391,-0.002969,1.449805,-265.688511,0.162756,62.431393
13.7556,-0.000111,-0.00848,-0.000455,0.000104,-0.000713,0.001204,-0.001368,-0.518391,-0.002969,1.449805,-265.688511,0.162756,62.431393
13.7755,-0.000356,-0.008667,-0.000772,0.000113,-0.00071,0.001359,-0.000344,-0.51848,-0.000455,1.374797,-265.688511,0.237764,62.431393
13.7956,-0.000205,-0.00825,-0.001759,-0.0,-0.000679,0.000413,-0.000507,-0.518555,-0.000583,1.374797,-265.688511,0.237764,62.431393
13.8151,-0.000278,-0.008289,-0.002311,-9e-05,-0.000654,-0.00026,-0.001102,-0.518249,-0.001759,1.299803,-265.688511,0.312757,62.431393
13.8352,-0.000164,-0.008034,-0.003356,-3.8e-05,-0.00067,4.3e-05,-0.001426,-0.518285,-0.002264,1.299803,-265.688511,0.312757,62.431393
13.8555,-0.00078,-0.00843,-0.002884,4e-06,-0.000681,0.000259,-0.001426,-0.518285,-0.002264,1.299803,-265.688511,0.312757,62.431393
13.8755,-8e-06,-0.008077,-0.002559,3.9e-05,-0.000689,0.000412,-0.002251,-0.518428,-0.002884,1.374972,-265.688511,0.387925,62.431393
13.8954,0.000172,-0.008148,-0.002383,0.000116,-0.000716,0.000711,-0.001866,-0.518283,-0.002751,1.374972,-265.688511,0.387925,62.431393
13.9152,-0.000261,-0.008184,-0.003111,0.00018,-0.000735,0.000923,-0.001043,-0.518146,-0.002383,1.449954,-265.688511,0.462908,62.431393
13.9352,-7.2e-05,-0.008335,-0.003555,0.000226,-0.000747,0.001185,-0.001776,-0.518179,-0.003046,1.449954,-265.688511,0.462908,62.431393
13.9556,0.000304,-0.008187,-0.002096,0.000263,-0.000756,0.001371,-0.001776,-0.518179,-0.003046,1.449954,-265.688511,0.462908,62.431393
13.9759,-0.000132,-0.008041,-0.002241,0.000293,-0.000761,0.001503,-0.000765,-0.518185,-0.002096,1.375056,-265.688511,0.537806,62.431393
13.9953,-5.2e-05,-0.008333,-0.001519,0.000224,-0.000731,0.001251,-0.000971,-0.518126,-0.002155,1.375056,-265.688511,0.537806,62.431393
14.0154,1.4e-05,-0.007861,-0.001845,0.000167,-0.000708,0.001074,-0.000826,-0.518332,-0.001519,1.300004,-265.688511,0.612858,62.431393
14.0357,-0.000254,-0.008096,-0.002646,0.000113,-0.000694,0.000802,-0.000917,-0.517903,-0.001815,1.300004,-265.688511,0.612858,62.431393
14.0554,-0.000125,-0.008227,-0.003115,6.9e-05,-0.000683,0.000612,-0.000917,-0.517903,-0.001815,1.300004,-265.688511,0.612858,62.431393
14.0754,-1.4e-05,-0.008124,-0.00158,3.4e-05,-0.000675,0.000478,-0.001713,-0.518225,-0.003115,1.224973,-265.688511,0.68789,62.431393
14.0955,6.5e-05,-0.008163,-0.00259,5.7e-05,-0.000683,0.000662,-0.001346,-0.518183,-0.002484,1.224973,-265.688511,0.68789,62.431393
14.1154,4.3e-05,-0.00808,-0.002146,7.5e-05,-0.000689,0.000792,-0.001256,-0.518162,-0.00259,1.299958,-265.688511,0.762875,62.431393
14.1354,-0.000199,-0.008106,-0.00157,5.8e-05,-0.000683,0.000764,-0.00107,-0.518086,-0.002186,1.299958,-265.688511,0.762875,62.431393
14.1554,-0.000112,-0.00818,-0.002425,4.3e-05,-0.00068,0.000743,-0.00107,-0.518086,-0.002186,1.299958,-265.688511,0.762875,62.431393
14.1753,-0.000149,-0.008089,-0.001654,3.1e-05,-0.000677,0.000729,-0.001348,-0.518178,-0.002425,1.225077,-265.688511,0.837756,62.431393
14.1957,-0.000213,-0.008491,-0.001108,3.5e-05,-0.000679,0.000684,-0.001202,-0.518142,-0.002108,1.225077,-265.688511,0.837756,62.431393
14.2157,-9.7e-05,-0.008042,-0.002561,3.9e-05,-0.000681,0.000653,-0.000778,-0.518491,-0.001108,1.300184,-265.688511,0.912862,62.431393
14.2354,0.000153,-0.008364,-0.002268,6.2e-05,-0.000689,0.000768,-0.00135,-0.518078,-0.002438,1.300184,-265.688511,0.912862,62.431393
14.2558,6.5e-05,-0.008287,-0.001596,8e-05,-0.000696,0.000848,-0.00135,-0.518078,-0.002438,1.300184,-265.688511,0.912862,62.431393
14.2751,-0.00027,-0.008009,-0.001719,9.5e-05,-0.0007,0.000905,-0.00075,-0.518287,-0.001596,1.37522,-265.688511,0.987899,62.431393
14.2954,-9.4e-05,-0.007876,-0.002161,5e-05,-0.000684,0.000608,-0.000912,-0.518172,-0.001646,1.37522,-265.688511,0.987899,62.431393
14.3157,-9.3e-05,-0.007742,-0.000432,1.3e-05,-0.000672,0.000399,-0.001196,-0.517875,-0.002161,1.300219,-265.688511,1.062899,62.431393
14.3358,-0.00047,-0.00822,-0.003177,-9.1e-05,-0.000655,-0.000262,-0.000389,-0.517753,-0.000581,1.300219,-265.688511,1.062899,62.431393
14.3551,-0.000196,-0.007864,-0.001627,-0.000173,-0.000643,-0.000733,-0.000389,-0.517753,-0.000581,1.300219,-265.688511,1.062899,62.431393
14.3753,-0.000249,-0.008578,-0.002807,-0.000239,-0.000634,-0.001069,-0.001026,-0.517863,-0.001627,1.37518,-265.688512,1.13786,62.431392
14.3956,-0.000218,-0.008064,-0.003018,-0.000173,-0.000656,-0.000595,-0.00129,-0.51815,-0.002102,1.37518,-265.688512,1.13786,62.431392
14.4153,-0.000159,-0.007935,-0.002286,-0.00012,-0.000672,-0.00026,-0.001758,-0.518062,-0.003018,1.387277,-265.688512,1.062938,62.431392
14.4358,0.000174,-0.008272,-0.002257,-6.5e-05,-0.00069,8e-05,-0.001363,-0.517945,-0.00235,1.387277,-265.688512,1.062938,62.431392
14.4553,5.3e-05,-0.008153,-0.001504,-2e-05,-0.000703,0.00032,-0.001363,-0.517945,-0.00235,1.387277,-265.688512,1.062938,62.431392
14.4752,0.00014,-0.007944,-0.001544,1.7e-05,-0.000712,0.000491,-0.000716,-0.51816,-0.001507,1.427469,-265.688605,1.138037,62.431334
14.4953,0.000354,-0.008574,-0.0018,-4e-05,-0.00069,0.000258,-0.000688,-0.518072,-0.001522,1.427469,-265.688605,1.138037,62.431334
14.5155,0.00013,-0.007971,-0.002068,-8.6e-05,-0.000673,9.5e-05,-0.000564,-0.518574,-0.001799,1.502431,-265.688608,1.212999,62.431325
14.5355,2.5e-05,-0.008622,-0.001565,-9.5e-05,-0.000669,0.000209,-0.000885,-0.518036,-0.002039,1.502431,-265.688608,1.212999,62.431325
14.5552,3.3e-05,-0.008081,-0.002009,-0.000104,-0.000666,0.000289,-0.000885,-0.518036,-0.002039,1.502431,-265.688608,1.212999,62.431325
14.5754,-7e-06,-0.008474,-0.001138,-0.000111,-0.000665,0.000346,-0.000994,-0.51809,-0.002008,1.431957,-265.688698,1.288015,62.431219
14.5951,-0.000184,-0.008491,-0.002675,-0.000129,-0.000657,0.000214,-0.000827,-0.518249,-0.00165,1.431957,-265.688698,1.288015,62.431219
14.6152,7.7e-05,-0.008443,-0.001927,-0.000143,-0.000652,0.000122,-0.001551,-0.518501,-0.002669,1.35696,-265.688805,1.363011,62.431017
14.635,-1.9e-05,-0.008569,-0.003042,-0.000138,-0.00065,0.000208,-0.000962,-0.518448,-0.001991,1.35696,-265.688805,1.363011,62.431017
14.6557,7.4e-05,-0.008206,-0.001623,-0.000134,-0.000648,0.000269,-0.000962,-0.518448,-0.001991,1.35696,-265.688805,1.363011,62.431017
14.6756,-2.3e-05,-0.00792,-0.001631,-0.000131,-0.000647,0.000312,-0.00076,-0.518232,-0.001618,1.327626,-265.689039,1.3763,62.430725
14.6952,-5.5e-05,-0.008339,-0.001516,-0.000148,-0.000644,0.00018,-0.000799,-0.51811,-0.001623,1.327626,-265.689039,1.3763,62.430725
14.7158,-3.7e-05,-0.00862,-0.002094,-0.000162,-0.000642,8.7e-05,-0.000832,-0.518358,-0.001506,1.291328,-265.68922,1.415681,62.430402
14.7356,0.000291,-0.008058,-0.000985,-0.000141,-0.000645,0.000206,-0.001082,-0.518598,-0.002045,1.291328,-265.68922,1.415681,62.430402
