mach0312/omni-docking-bench/src/icros_test_setup/results/MPPI_sample/timeseries/trial_062.csv
t,x,y,yaw,vx,vy,wz,bl_x,bl_y,bl_yaw,front_steering_joint,front_wheel_joint,rear_steering_joint,rear_wheel_joint
0.0,0.047981,-0.03159,-0.086516,0.0,0.0,0.0,0.004775,-0.539759,-0.086176,0.271129,-257.590692,-0.139126,72.079167
0.0003,0.04846,-0.031736,-0.086705,0.0,0.0,0.0,0.004423,-0.539862,-0.086922,0.271129,-257.59213,-0.139126,72.077767
0.0005,0.048003,-0.031393,-0.086225,0.0,0.0,0.0,0.004423,-0.539862,-0.086922,0.271129,-257.592643,-0.139126,72.077269
0.0008,0.048579,-0.031595,-0.086363,0.0,0.0,0.0,0.004423,-0.539862,-0.086922,0.271129,-257.592643,-0.139126,72.077269
0.0011,0.047919,-0.031837,-0.087016,0.0,0.0,0.0,0.004423,-0.539862,-0.086922,0.271129,-257.592643,-0.139126,72.077269
0.0013,0.048114,-0.031579,-0.08528,0.0,0.0,0.0,0.003779,-0.539809,-0.086467,0.271129,-257.592643,-0.139126,72.077269
0.0015,0.04831,-0.031552,-0.086344,0.0,0.0,0.0,0.004184,-0.539868,-0.085978,0.271129,-257.592643,-0.139126,72.077269
0.0018,0.048115,-0.031838,-0.086774,0.0,0.0,0.0,0.004184,-0.539868,-0.085978,0.271129,-257.592643,-0.139126,72.077269
0.002,0.04834,-0.03167,-0.087101,0.0,0.0,0.0,0.004184,-0.539868,-0.085978,0.271129,-257.592643,-0.139126,72.077269
0.0162,0.048643,-0.031537,-0.086248,0.0,0.0,0.0,0.003974,-0.539737,-0.087101,0.271129,-257.592643,-0.139126,72.077269
0.0358,0.048423,-0.031575,-0.086495,0.0,0.0,0.0,0.004645,-0.53965,-0.086325,0.271129,-257.592643,-0.139126,72.077269
0.0556,0.048046,-0.031585,-0.087397,0.0,0.0,0.0,0.004645,-0.53965,-0.086325,0.271129,-257.592643,-0.139126,72.077269
0.076,0.048182,-0.031332,-0.086363,0.0,0.0,0.0,0.003531,-0.539639,-0.087397,0.271129,-257.592643,-0.139126,72.077269
0.0959,0.047944,-0.031608,-0.085115,0.0,0.0,0.0,0.003798,-0.539555,-0.086979,0.271129,-257.592643,-0.139126,72.077269
0.1158,0.048085,-0.031594,-0.08501,0.001423,0.002101,0.011239,0.004588,-0.539762,-0.085115,0.271129,-257.592643,-0.139126,72.077269
0.136,0.04803,-0.031406,-0.085091,0.001579,0.002269,0.012013,0.004769,-0.539753,-0.085017,0.271129,-257.592643,-0.139126,72.077269
0.1561,0.048252,-0.031803,-0.086881,0.00172,0.002409,0.012612,0.004769,-0.539753,-0.085017,0.271129,-257.592643,-0.139126,72.077269
0.1757,0.048218,-0.031473,-0.085582,0.001848,0.002525,0.013073,0.003999,-0.53988,-0.086881,0.346678,-257.592643,-0.214675,72.077269
0.1961,0.048378,-0.031374,-0.088378,0.001978,0.002624,0.013426,0.004252,-0.539769,-0.086356,0.346678,-257.592643,-0.214675,72.077269
0.2161,0.048088,-0.031356,-0.085912,0.002094,0.002707,0.013697,0.003364,-0.539383,-0.088378,0.421119,-257.592643,-0.289116,72.077269
0.236,0.047951,-0.031612,-0.084925,0.002194,0.002775,0.013905,0.00424,-0.539467,-0.086134,0.421119,-257.592643,-0.289116,72.077269
0.2562,0.04798,-0.03161,-0.086699,0.002284,0.002832,0.014065,0.00424,-0.539467,-0.086134,0.421119,-257.592643,-0.289116,72.077269
0.2756,0.048141,-0.03173,-0.086933,0.002364,0.00288,0.014188,0.003819,-0.539695,-0.086699,0.496126,-257.592643,-0.364123,72.077269
0.2959,0.048494,-0.031555,-0.085636,0.002449,0.002923,0.014283,0.003836,-0.53974,-0.086796,0.496126,-257.592643,-0.364123,72.077269
0.3158,0.048195,-0.031648,-0.086624,0.002524,0.002959,0.014354,0.004873,-0.539686,-0.085636,0.571413,-257.592643,-0.43941,72.077269
0.3358,0.048376,-0.031867,-0.087114,0.00258,0.002986,0.014406,0.004137,-0.539732,-0.086544,0.571413,-257.592643,-0.43941,72.077269
0.3558,0.047961,-0.031265,-0.085685,0.00263,0.003008,0.014445,0.004137,-0.539732,-0.086544,0.571413,-257.592643,-0.43941,72.077269
0.3755,0.048189,-0.031683,-0.086577,0.002673,0.003025,0.014474,0.004315,-0.539394,-0.085685,0.646395,-257.592643,-0.514391,72.077269
0.3958,0.047998,-0.031596,-0.084831,0.002709,0.003039,0.014496,0.004218,-0.539557,-0.086068,0.646395,-257.592643,-0.514391,72.077269
0.416,0.048171,-0.031632,-0.08734,0.00274,0.003051,0.014512,0.004786,-0.539762,-0.084831,0.721885,-257.592643,-0.589882,72.077269
0.4358,0.04826,-0.031707,-0.086077,0.002782,0.003063,0.014526,0.003784,-0.539695,-0.087113,0.721885,-257.592643,-0.589882,72.077269
0.4557,0.048211,-0.031581,-0.08765,0.002818,0.003073,0.014536,0.003784,-0.539695,-0.087113,0.721885,-257.592643,-0.589882,72.077269
0.4755,0.048381,-0.031159,-0.087134,0.00285,0.003082,0.014543,0.003566,-0.539623,-0.08765,0.796128,-257.592643,-0.664125,72.077269
0.4957,0.048115,-0.031537,-0.086909,0.002877,0.003089,0.014548,0.00374,-0.539462,-0.087443,0.796128,-257.592643,-0.664125,72.077269
0.5158,0.048174,-0.031612,-0.086272,0.002901,0.003094,0.014552,0.003847,-0.539612,-0.086909,0.871121,-257.592641,-0.739117,72.07727
0.5359,0.048273,-0.031548,-0.087691,0.002909,0.003096,0.014554,0.004202,-0.539708,-0.086319,0.871121,-257.592641,-0.739117,72.07727
0.556,0.048286,-0.031684,-0.086925,0.002916,0.003097,0.014555,0.004202,-0.539708,-0.086319,0.871121,-257.592641,-0.739117,72.07727
0.5759,0.048353,-0.031682,-0.087153,0.002922,0.003098,0.014556,0.004011,-0.539758,-0.086923,0.946576,-257.592626,-0.814573,72.077278
0.5957,0.048018,-0.031602,-0.084851,0.002934,0.0031,0.014558,0.003991,-0.539753,-0.087016,0.946576,-257.592626,-0.814573,72.077278
0.6153,0.048206,-0.031679,-0.08806,0.002945,0.003102,0.014559,0.0048,-0.539766,-0.084842,1.021193,-257.592514,-0.88919,72.077336
0.6358,0.048095,-0.031852,-0.08744,0.00297,0.003107,0.014561,0.003484,-0.539709,-0.087768,1.021193,-257.592514,-0.88919,72.077336
0.6562,0.048037,-0.031429,-0.086293,0.002992,0.003111,0.014563,0.003484,-0.539709,-0.087768,1.021193,-257.592514,-0.88919,72.077336
0.6764,0.048302,-0.031873,-0.08632,0.00301,0.003114,0.014564,0.004104,-0.539521,-0.086235,1.096126,-257.592004,-0.964123,72.077605
0.6958,0.048517,-0.031769,-0.085996,0.003003,0.003112,0.014562,0.004199,-0.539702,-0.086263,1.096126,-257.592004,-0.964123,72.077605
0.7153,0.047943,-0.0316,-0.086365,0.002998,0.00311,0.014561,0.004759,-0.539858,-0.085849,1.171136,-257.590355,-1.039133,72.078473
0.7357,0.048473,-0.031523,-0.085432,0.002999,0.00311,0.014561,0.004017,-0.53971,-0.086319,1.171136,-257.590355,-1.039133,72.078473
0.7557,0.048048,-0.031936,-0.0865,0.003001,0.003109,0.014561,0.004017,-0.53971,-0.086319,1.171136,-257.590355,-1.039133,72.078473
0.7757,0.048069,-0.031443,-0.085005,0.003002,0.003109,0.014561,0.004089,-0.539957,-0.086111,1.246532,-257.587158,-1.092593,72.080156
0.7956,0.048407,-0.031454,-0.084214,0.002993,0.003106,0.014677,0.004374,-0.539805,-0.08562,1.246532,-257.587158,-1.092593,72.080156
0.8153,0.047549,-0.031168,-0.084435,0.002986,0.003104,0.014768,0.005604,-0.539565,-0.083794,1.321125,-257.582653,-1.092017,72.082529
0.8359,0.047926,-0.031646,-0.085371,0.002971,0.0031,0.01493,0.004621,-0.539364,-0.08437,1.321125,-257.582653,-1.092017,72.082529
0.8557,0.04792,-0.03111,-0.085463,0.002958,0.003096,0.015058,0.004621,-0.539364,-0.08437,1.321125,-257.582653,-1.092017,72.082529
0.8754,0.0477,-0.031097,-0.084729,0.002948,0.003093,0.015159,0.004521,-0.539131,-0.084851,1.329316,-257.577675,-1.103348,72.085171
0.8954,0.047687,-0.031193,-0.084178,0.002941,0.003091,0.015333,0.004545,-0.539174,-0.084728,1.329316,-257.577675,-1.103348,72.085171
0.9156,0.046977,-0.030926,-0.08218,0.002936,0.003089,0.015471,0.004908,-0.539299,-0.083702,1.336479,-257.572654,-1.12472,72.087873
0.9356,0.047235,-0.030937,-0.08307,0.002913,0.003082,0.015665,0.0051,-0.539208,-0.082289,1.336479,-257.572654,-1.12472,72.087873
0.9555,0.047664,-0.031302,-0.084056,0.002895,0.003076,0.015821,0.0051,-0.539208,-0.082289,1.336479,-257.572654,-1.12472,72.087873
0.9759,0.047045,-0.030498,-0.082604,0.002879,0.003071,0.015945,0.004979,-0.539384,-0.083412,1.340789,-257.567534,-1.138355,72.090658
0.9959,0.047186,-0.030813,-0.083101,0.002869,0.003068,0.016128,0.004988,-0.539118,-0.083011,1.340789,-257.567534,-1.138355,72.090658
1.0161,0.04669,-0.030664,-0.082271,0.00286,0.003064,0.016274,0.004952,-0.538964,-0.082598,1.349679,-257.5623,-1.163077,72.093553
1.036,0.046894,-0.030869,-0.083376,0.002859,0.003063,0.016472,0.004795,-0.538937,-0.082273,1.349679,-257.5623,-1.163077,72.093553
1.056,0.046892,-0.030754,-0.082585,0.002858,0.003061,0.01663,0.004795,-0.538937,-0.082273,1.349679,-257.5623,-1.163077,72.093553
1.0757,0.046499,-0.030428,-0.079968,0.002858,0.003059,0.016757,0.00495,-0.538899,-0.081911,1.354274,-257.557033,-1.176532,72.0965
1.0956,0.046607,-0.030423,-0.08038,0.002841,0.003053,0.016933,0.005292,-0.538845,-0.081046,1.354274,-257.557033,-1.176532,72.0965
1.1158,0.046064,-0.030385,-0.080581,0.002828,0.003048,0.017075,0.005756,-0.538687,-0.079848,1.359046,-257.551571,-1.19175,72.099601
1.1359,0.046184,-0.030247,-0.08002,0.002824,0.003046,0.017263,0.005069,-0.538723,-0.080507,1.359046,-257.551571,-1.19175,72.099601
1.1558,0.046309,-0.030199,-0.080456,0.00282,0.003043,0.017414,0.005069,-0.538723,-0.080507,1.359046,-257.551571,-1.19175,72.099601
1.1755,0.046391,-0.029863,-0.079973,0.002818,0.003041,0.017535,0.005447,-0.538433,-0.079751,1.363962,-257.546077,-1.204884,72.102755
1.1955,0.045921,-0.030089,-0.078766,0.002798,0.003034,0.017698,0.005549,-0.538333,-0.079763,1.363962,-257.546077,-1.204884,72.102755
1.2159,0.045869,-0.030035,-0.080326,0.002782,0.003028,0.01783,0.005887,-0.53842,-0.078217,1.368663,-257.54053,-1.218643,72.105983
1.2359,0.046226,-0.030086,-0.07823,0.002785,0.003027,0.017989,0.005037,-0.538389,-0.080107,1.368663,-257.54053,-1.218643,72.105983
1.256,0.045589,-0.029454,-0.078314,0.002789,0.003027,0.018117,0.005037,-0.538389,-0.080107,1.368663,-257.54053,-1.218643,72.105983
1.2754,0.045372,-0.029753,-0.077446,0.002791,0.003026,0.018221,0.005816,-0.537774,-0.077569,1.373517,-257.534833,-1.230708,72.109331
1.2956,0.045659,-0.029637,-0.079171,0.002766,0.003017,0.018335,0.005872,-0.537951,-0.077431,1.373517,-257.534833,-1.230708,72.109331
1.3155,0.045168,-0.030049,-0.077659,0.002744,0.00301,0.018427,0.005419,-0.537952,-0.078597,1.376085,-257.529106,-1.238994,72.112732
1.3356,0.044986,-0.029492,-0.075367,0.002739,0.003007,0.018522,0.00559,-0.538456,-0.077714,1.376085,-257.529106,-1.238994,72.112732
1.3557,0.045163,-0.029541,-0.076584,0.002735,0.003005,0.018598,0.00559,-0.538456,-0.077714,1.376085,-257.529106,-1.238994,72.112732
1.3754,0.045075,-0.029412,-0.074776,0.002732,0.003002,0.018661,0.006268,-0.53793,-0.075812,1.38074,-257.523273,-1.249506,72.116222
1.3955,0.045045,-0.029676,-0.075532,0.002695,0.00299,0.018721,0.006581,-0.537941,-0.075285,1.38074,-257.523273,-1.249506,72.116222
1.4155,0.044287,-0.02896,-0.075098,0.002664,0.002979,0.018771,0.006653,-0.538134,-0.074945,1.383324,-257.51745,-1.256206,72.11973
1.4356,0.044316,-0.029447,-0.072637,0.002652,0.002974,0.018826,0.006084,-0.537573,-0.075054,1.383324,-257.51745,-1.256206,72.11973
1.4555,0.044463,-0.028933,-0.076828,0.002642,0.00297,0.01887,0.006084,-0.537573,-0.075054,1.383324,-257.51745,-1.256206,72.11973
1.4757,0.044407,-0.028868,-0.075124,0.002634,0.002967,0.018906,0.005439,-0.537313,-0.076044,1.388398,-257.511526,-1.2666,72.123317
1.4957,0.044245,-0.029178,-0.075029,0.002637,0.002967,0.018947,0.005754,-0.53735,-0.075552,1.388398,-257.511526,-1.2666,72.123317
1.5158,0.04381,-0.028829,-0.072978,0.002639,0.002967,0.01898,0.006105,-0.537657,-0.074438,1.391245,-257.505693,-1.272896,72.126866
1.5357,0.04423,-0.028864,-0.073807,0.002616,0.002958,0.019016,0.006582,-0.537484,-0.073079,1.391245,-257.505693,-1.272896,72.126866
1.5557,0.044082,-0.028961,-0.073173,0.002597,0.002952,0.019046,0.006582,-0.537484,-0.073079,1.391245,-257.505693,-1.272896,72.126866
1.5756,0.043153,-0.028786,-0.073022,0.002581,0.002946,0.01907,0.006916,-0.537481,-0.072379,1.391508,-257.499775,-1.273932,72.130474
1.5956,0.043777,-0.028527,-0.071632,0.00257,0.002941,0.0191,0.006534,-0.537445,-0.072549,1.391508,-257.499775,-1.273932,72.130474
1.6155,0.043283,-0.028645,-0.069331,0.002561,0.002938,0.019124,0.007364,-0.537132,-0.071026,1.395725,-257.493856,-1.282418,72.134099
1.6358,0.043398,-0.028731,-0.071373,0.002511,0.002919,0.019149,0.007904,-0.537389,-0.069452,1.395725,-257.493856,-1.282418,72.134099
1.6557,0.042919,-0.028319,-0.072455,0.002469,0.002904,0.019171,0.007904,-0.537389,-0.069452,1.395725,-257.493856,-1.282418,72.134099
1.676,0.042798,-0.028441,-0.070252,0.002434,0.002891,0.019188,0.006115,-0.536866,-0.071653,1.397389,-257.487921,-1.285869,72.137742
1.6959,0.042858,-0.028712,-0.071062,0.002446,0.002895,0.019213,0.006488,-0.536982,-0.070991,1.397389,-257.487921,-1.285869,72.137742
1.7158,0.042248,-0.028118,-0.069259,0.002456,0.002898,0.019233,0.00673,-0.537338,-0.070454,1.405736,-257.482027,-1.301824,72.141386
1.7358,0.042612,-0.028067,-0.068922,0.002451,0.002896,0.019254,0.006938,-0.536931,-0.069337,1.405736,-257.482027,-1.301824,72.141386
1.7559,0.042771,-0.027802,-0.068923,0.002446,0.002895,0.01927,0.006938,-0.536931,-0.069337,1.405736,-257.482027,-1.301824,72.141386
1.7757,0.042078,-0.028102,-0.068134,0.002442,0.002893,0.019284,0.007758,-0.536477,-0.068119,1.404629,-257.476087,-1.300029,72.145059
1.7958,0.042172,-0.027848,-0.067667,0.002416,0.002883,0.019298,0.007607,-0.536645,-0.068032,1.404629,-257.476087,-1.300029,72.145059
1.8159,0.041583,-0.027847,-0.067597,0.002393,0.002874,0.01931,0.007772,-0.536594,-0.067052,1.405825,-257.47014,-1.302512,72.148744
1.8356,0.042079,-0.027973,-0.067642,0.002389,0.002873,0.019325,0.007197,-0.536669,-0.067517,1.405825,-257.47014,-1.302512,72.148744
1.856,0.041851,-0.027901,-0.06728,0.002385,0.002871,0.019338,0.007197,-0.536669,-0.067517,1.405825,-257.47014,-1.302512,72.148744
1.8758,0.041412,-0.027446,-0.067169,0.002382,0.00287,0.019347,0.007672,-0.536634,-0.06647,1.409072,-257.464198,-1.308664,72.152436
1.8959,0.041496,-0.027333,-0.065291,0.002369,0.002865,0.019358,0.007485,-0.536484,-0.066661,1.409072,-257.464198,-1.308664,72.152436
1.9156,0.041298,-0.027072,-0.066252,0.002358,0.002861,0.019367,0.008303,-0.53616,-0.064676,1.409991,-257.458248,-1.310545,72.156138
1.9359,0.041061,-0.027123,-0.065308,0.00234,0.002854,0.019376,0.007608,-0.535967,-0.066078,1.409991,-257.458248,-1.310545,72.156138
1.956,0.041114,-0.027945,-0.065984,0.002325,0.002848,0.019383,0.007608,-0.535967,-0.066078,1.409991,-257.458248,-1.310545,72.156138
1.9753,0.041077,-0.027426,-0.063928,0.002313,0.002843,0.01939,0.007593,-0.536722,-0.065171,1.411615,-257.452298,-1.313634,72.159846
1.9956,0.041051,-0.027113,-0.063912,0.002298,0.002838,0.019397,0.00797,-0.536572,-0.064575,1.411615,-257.452298,-1.313634,72.159846
2.0159,0.040538,-0.027389,-0.064306,0.002286,0.002833,0.019404,0.008557,-0.535986,-0.063295,1.414598,-257.446355,-1.319239,72.163561
2.0356,0.040435,-0.027202,-0.063828,0.002277,0.00283,0.019411,0.00784,-0.5363,-0.064184,1.414598,-257.446355,-1.319239,72.163561
2.0557,0.04033,-0.027035,-0.064459,0.00227,0.002827,0.019416,0.00784,-0.5363,-0.064184,1.414598,-257.446355,-1.319239,72.163561
2.0755,0.040227,-0.027232,-0.063532,0.002264,0.002825,0.019421,0.007581,-0.535863,-0.063646,1.416378,-257.440413,-1.322565,72.167281
2.0955,0.039823,-0.027002,-0.063209,0.002261,0.002824,0.019427,0.007701,-0.535988,-0.063507,1.416378,-257.440413,-1.322565,72.167281
2.1152,0.039256,-0.026944,-0.061988,0.002259,0.002823,0.019431,0.007686,-0.535898,-0.06259,1.417829,-257.434461,-1.325297,72.171012
2.1354,0.039214,-0.026828,-0.061768,0.002259,0.002823,0.019436,0.007668,-0.535954,-0.06201,1.417829,-257.434461,-1.325297,72.171012
2.1555,0.039796,-0.026774,-0.061129,0.002259,0.002823,0.01944,0.007668,-0.535954,-0.06201,1.417829,-257.434461,-1.325297,72.171012
2.1758,0.039089,-0.026402,-0.060678,0.002259,0.002823,0.019444,0.008741,-0.53571,-0.060317,1.418222,-257.428525,-1.326062,72.174736
2.1961,0.039333,-0.026514,-0.060411,0.002229,0.00281,0.019445,0.008517,-0.535596,-0.06037,1.418222,-257.428525,-1.326062,72.174736
2.2154,0.038708,-0.026675,-0.059488,0.002203,0.002799,0.019447,0.00862,-0.535498,-0.05979,1.418271,-257.422547,-1.326209,72.178486
2.2356,0.038889,-0.026342,-0.059188,0.002188,0.002793,0.019451,0.008409,-0.535748,-0.059484,1.418271,-257.422547,-1.326209,72.178486
2.2556,0.03911,-0.026666,-0.059443,0.002175,0.002788,0.019454,0.008409,-0.535748,-0.059484,1.418271,-257.422547,-1.326209,72.178486
2.2756,0.038582,-0.026088,-0.058355,0.002164,0.002784,0.019457,0.008909,-0.535654,-0.058635,1.421803,-257.416645,-1.332716,72.182201
2.2957,0.038789,-0.026467,-0.057856,0.002137,0.002772,0.019459,0.008892,-0.535464,-0.058427,1.421803,-257.416645,-1.332716,72.182201
2.3157,0.038028,-0.026203,-0.057938,0.002115,0.002763,0.019461,0.009372,-0.535529,-0.057235,1.424287,-257.410684,-1.337274,72.185962
2.3356,0.038433,-0.025955,-0.058236,0.002105,0.002759,0.019464,0.008572,-0.535358,-0.057851,1.424287,-257.410684,-1.337274,72.185962
2.3557,0.038281,-0.025999,-0.057327,0.002098,0.002756,0.019466,0.008572,-0.535358,-0.057851,1.424287,-257.410684,-1.337274,72.185962
2.3755,0.037488,-0.02556,-0.056763,0.002091,0.002754,0.019469,0.009155,-0.535052,-0.056517,1.427435,-257.404801,-1.343034,72.189684
2.3955,0.037898,-0.026095,-0.056188,0.00207,0.002744,0.01947,0.008922,-0.534912,-0.056523,1.427435,-257.404801,-1.343034,72.189684
2.4155,0.037279,-0.026283,-0.055253,0.002052,0.002737,0.019471,0.009328,-0.535206,-0.055568,1.428947,-257.398885,-1.345785,72.193433
2.4355,0.037209,-0.025665,-0.05511,0.002039,0.002731,0.019473,0.009137,-0.535474,-0.05525,1.428947,-257.398885,-1.345785,72.193433
2.4557,0.037056,-0.026073,-0.057575,0.002027,0.002726,0.019475,0.009137,-0.535474,-0.05525,1.428947,-257.398885,-1.345785,72.193433
2.4757,0.037114,-0.025773,-0.053931,0.002017,0.002722,0.019476,0.007801,-0.535119,-0.056761,1.431411,-257.392977,-1.350271,72.197185
2.4954,0.036549,-0.025876,-0.055251,0.002024,0.002725,0.019479,0.008554,-0.535071,-0.055513,1.431411,-257.392977,-1.350271,72.197185
2.5153,0.036545,-0.025524,-0.054935,0.002029,0.002727,0.01948,0.008454,-0.535015,-0.054631,1.433644,-257.387075,-1.354309,72.200942
2.5357,0.036373,-0.025882,-0.052808,0.00203,0.002728,0.019482,0.008538,-0.534774,-0.054876,1.433644,-257.387075,-1.354309,72.200942
2.5559,0.036576,-0.026001,-0.052551,0.002032,0.002729,0.019483,0.008538,-0.534774,-0.054876,1.433644,-257.387075,-1.354309,72.200942
2.5754,0.035956,-0.025237,-0.053906,0.002033,0.00273,0.019484,0.009878,-0.535187,-0.051737,1.432971,-257.381106,-1.35309,72.204739
2.5954,0.036347,-0.025278,-0.053011,0.002013,0.002721,0.019484,0.009276,-0.534872,-0.052588,1.432971,-257.381106,-1.35309,72.204739
2.6154,0.035673,-0.025032,-0.05067,0.001996,0.002713,0.019484,0.009276,-0.534872,-0.052588,1.432971,-257.381106,-1.35309,72.204739
2.636,0.035554,-0.025293,-0.050554,0.001959,0.002696,0.019483,0.00982,-0.534381,-0.050745,1.432707,-257.375182,-1.352615,72.208506
2.6557,0.035664,-0.025206,-0.051279,0.001929,0.002681,0.019483,0.00982,-0.534381,-0.050745,1.432707,-257.375182,-1.352615,72.208506
2.6761,0.035049,-0.02498,-0.05141,0.001903,0.00267,0.019483,0.009611,-0.534428,-0.050478,1.435043,-257.369358,-1.35685,72.212218
2.6957,0.035424,-0.024938,-0.050673,0.001899,0.002668,0.019485,0.009305,-0.534366,-0.050766,1.435043,-257.369358,-1.35685,72.212218
2.7154,0.034827,-0.025224,-0.049628,0.001895,0.002666,0.019486,0.009657,-0.534202,-0.050055,1.440898,-257.363503,-1.367444,72.215974
2.7355,0.035146,-0.025264,-0.0509,0.001887,0.002663,0.019487,0.009542,-0.534556,-0.049635,1.440898,-257.363503,-1.367444,72.215974
2.7559,0.035057,-0.024677,-0.049386,0.001881,0.002661,0.019488,0.009542,-0.534556,-0.049635,1.440898,-257.363503,-1.367444,72.215974
2.7759,0.034666,-0.025196,-0.048252,0.001875,0.002658,0.019489,0.009965,-0.533948,-0.04857,1.441472,-257.357628,-1.368451,72.219744
2.796,0.034565,-0.024687,-0.049603,0.001852,0.002647,0.019488,0.010016,-0.534201,-0.048347,1.441472,-257.357628,-1.368451,72.219744
2.8153,0.034443,-0.02483,-0.049294,0.001832,0.002638,0.019488,0.009342,-0.533978,-0.048981,1.442711,-257.351761,-1.370646,72.223513
2.8357,0.034346,-0.02446,-0.047984,0.001838,0.002641,0.01949,0.009319,-0.534184,-0.049233,1.442711,-257.351761,-1.370646,72.223513
2.8558,0.03431,-0.024621,-0.047802,0.001842,0.002643,0.019491,0.009319,-0.534184,-0.049233,1.442711,-257.351761,-1.370646,72.223513
2.8757,0.033566,-0.024568,-0.04578,0.001846,0.002645,0.019492,0.010022,-0.533931,-0.046985,1.445447,-257.345879,-1.375551,72.227303
2.8959,0.034198,-0.02435,-0.046037,0.001823,0.002634,0.019491,0.010115,-0.533961,-0.046395,1.445447,-257.345879,-1.375551,72.227303
2.9157,0.033371,-0.024038,-0.046458,0.001803,0.002624,0.019491,0.01079,-0.533729,-0.045417,1.444596,-257.34003,-1.374006,72.231069
2.9356,0.033399,-0.024306,-0.045704,0.001791,0.002618,0.019491,0.009795,-0.533507,-0.046325,1.444596,-257.34003,-1.374006,72.231069
2.9556,0.033957,-0.024541,-0.045037,0.00178,0.002614,0.019491,0.009795,-0.533507,-0.046325,1.444596,-257.34003,-1.374006,72.231069
2.9758,0.032896,-0.024272,-0.046201,0.001772,0.002609,0.019492,0.011076,-0.533918,-0.044222,1.447329,-257.334173,-1.378899,72.234851
2.9956,0.033117,-0.024581,-0.044552,0.001751,0.002599,0.019492,0.010383,-0.533828,-0.04493,1.447329,-257.334173,-1.378899,72.234851
3.0154,0.032719,-0.024295,-0.043183,0.001734,0.002591,0.019492,0.010463,-0.533994,-0.043931,1.44933,-257.32833,-1.382451,72.238632
3.0356,0.032652,-0.023299,-0.0451,0.001712,0.00258,0.019492,0.010684,-0.533831,-0.043219,1.44933,-257.32833,-1.382451,72.238632
3.0558,0.032679,-0.024016,-0.043641,0.001693,0.00257,0.019492,0.010684,-0.533831,-0.043219,1.44933,-257.32833,-1.382451,72.238632
3.0757,0.031856,-0.024162,-0.042515,0.001678,0.002563,0.019492,0.010506,-0.533425,-0.042826,1.451727,-257.322493,-1.386708,72.24242
3.0958,0.032033,-0.02372,-0.042382,0.00167,0.002559,0.019493,0.010382,-0.533526,-0.042605,1.451727,-257.322493,-1.386708,72.24242
3.1158,0.03187,-0.023885,-0.041768,0.001664,0.002556,0.019494,0.010482,-0.533183,-0.041761,1.455348,-257.316672,-1.39311,72.246214
3.1358,0.031953,-0.023513,-0.041691,0.001652,0.00255,0.019494,0.010569,-0.533413,-0.041736,1.455348,-257.316672,-1.39311,72.246214
3.1557,0.031465,-0.024065,-0.041906,0.001642,0.002545,0.019494,0.010569,-0.533413,-0.041736,1.455348,-257.316672,-1.39311,72.246214
3.176,0.031588,-0.023737,-0.040563,0.001634,0.002541,0.019494,0.010174,-0.533513,-0.041088,1.456224,-257.310849,-1.394636,72.250012
3.1958,0.031516,-0.023447,-0.041489,0.001631,0.00254,0.019495,0.01048,-0.533422,-0.040781,1.456224,-257.310849,-1.394636,72.250012
3.2154,0.030648,-0.023282,-0.039435,0.001628,0.002539,0.019495,0.010418,-0.532929,-0.040866,1.458197,-257.305022,-1.398093,72.253822
3.2355,0.031093,-0.023663,-0.038348,0.001617,0.002533,0.019495,0.010533,-0.532885,-0.039527,1.458197,-257.305022,-1.398093,72.253822
3.256,0.030877,-0.023718,-0.041198,0.001608,0.002528,0.019496,0.010533,-0.532885,-0.039527,1.458197,-257.305022,-1.398093,72.253822
3.2758,0.030685,-0.023289,-0.040179,0.0016,0.002524,0.019496,0.009945,-0.533181,-0.040377,1.458581,-257.29922,-1.398753,72.257617
3.2961,0.030543,-0.023141,-0.039905,0.001611,0.00253,0.019497,0.010054,-0.533049,-0.040207,1.458581,-257.29922,-1.398753,72.257617
3.3157,0.029922,-0.023017,-0.038464,0.001621,0.002535,0.019498,0.010251,-0.532656,-0.039283,1.460379,-257.293414,-1.401906,72.261424
3.3355,0.030134,-0.0234,-0.037355,0.001615,0.002533,0.019497,0.010308,-0.532637,-0.038506,1.460379,-257.293414,-1.401906,72.261424
3.356,0.030105,-0.023066,-0.039837,0.001611,0.00253,0.019497,0.010308,-0.532637,-0.038506,1.460379,-257.293414,-1.401906,72.261424
3.3759,0.0297,-0.023123,-0.037446,0.001607,0.002528,0.019497,0.009866,-0.532558,-0.039021,1.459058,-257.287601,-1.399581,72.265228
3.3955,0.029435,-0.023317,-0.036982,0.001609,0.002529,0.019497,0.010176,-0.532631,-0.038286,1.459058,-257.287601,-1.399581,72.265228
3.4161,0.02947,-0.022868,-0.036621,0.00161,0.00253,0.019498,0.010632,-0.53289,-0.036362,1.459926,-257.281791,-1.401102,72.269035
3.436,0.029068,-0.023162,-0.035958,0.001591,0.00252,0.019497,0.010785,-0.532556,-0.036565,1.459926,-257.281791,-1.401102,72.269035
3.456,0.029197,-0.023011,-0.035819,0.001576,0.002511,0.019496,0.010785,-0.532556,-0.036565,1.459926,-257.281791,-1.401102,72.269035
3.4756,0.029022,-0.022826,-0.035986,0.001563,0.002504,0.019496,0.011004,-0.53258,-0.035,1.459762,-257.27598,-1.400812,72.272841
3.4956,0.028804,-0.022929,-0.034881,0.001549,0.002497,0.019496,0.010879,-0.532535,-0.035305,1.459762,-257.27598,-1.400812,72.272841
3.5159,0.028754,-0.022787,-0.033839,0.001538,0.002491,0.019496,0.011071,-0.532541,-0.034261,1.462797,-257.270185,-1.406136,72.276651
3.536,0.028498,-0.022481,-0.032844,0.001512,0.002476,0.019496,0.011464,-0.532495,-0.033845,1.462797,-257.270185,-1.406136,72.276651
3.5558,0.028268,-0.022738,-0.032957,0.001489,0.002463,0.019496,0.011464,-0.532495,-0.033845,1.462797,-257.270185,-1.406136,72.276651
3.5759,0.02783,-0.022238,-0.030104,0.00147,0.002453,0.019496,0.01153,-0.532359,-0.032141,1.46435,-257.264394,-1.408843,72.280467
3.5956,0.027652,-0.022712,-0.033571,0.001438,0.002434,0.019496,0.011925,-0.532204,-0.031218,1.46435,-257.264394,-1.408843,72.280467
3.6156,0.027443,-0.022333,-0.031401,0.00141,0.002418,0.019496,0.010583,-0.532348,-0.032952,1.468778,-257.258613,-1.416545,72.284299
3.6356,0.027724,-0.021987,-0.032747,0.001403,0.002414,0.019497,0.011363,-0.5321,-0.031501,1.468778,-257.258613,-1.416545,72.284299
3.6555,0.027634,-0.022127,-0.033214,0.001397,0.002411,0.019498,0.011363,-0.5321,-0.031501,1.468778,-257.258613,-1.416545,72.284299
3.6759,0.027527,-0.022083,-0.030707,0.001392,0.002409,0.019498,0.01076,-0.531747,-0.032401,1.472659,-257.252838,-1.423254,72.288148
3.6958,0.026904,-0.022154,-0.030262,0.001386,0.002405,0.019499,0.011239,-0.531776,-0.031586,1.472659,-257.252838,-1.423254,72.288148
3.7157,0.026568,-0.021761,-0.0313,0.001381,0.002403,0.019499,0.011519,-0.531846,-0.029647,1.473896,-257.247122,-1.425338,72.291964
3.7357,0.026646,-0.021805,-0.0305,0.001391,0.002409,0.0195,0.010692,-0.531538,-0.031119,1.473896,-257.247122,-1.425338,72.291964
3.7555,0.02678,-0.022013,-0.030983,0.001399,0.002414,0.019501,0.010692,-0.531538,-0.031119,1.473896,-257.247122,-1.425338,72.291964
3.7756,0.026513,-0.022119,-0.031151,0.001406,0.002418,0.019501,0.011042,-0.53167,-0.030167,1.474619,-257.241371,-1.426559,72.295806
3.7963,0.026191,-0.021668,-0.02829,0.00141,0.002421,0.019501,0.01088,-0.531741,-0.030474,1.474619,-257.241371,-1.426559,72.295806
3.8158,0.026121,-0.021716,-0.029741,0.001413,0.002423,0.019501,0.011812,-0.531388,-0.027669,1.47297,-257.235612,-1.423718,72.299644
3.8355,0.025743,-0.021786,-0.027456,0.001407,0.002419,0.019501,0.011035,-0.531477,-0.029523,1.47297,-257.235612,-1.423718,72.299644
3.8556,0.025762,-0.021569,-0.028123,0.001402,0.002416,0.0195,0.011035,-0.531477,-0.029523,1.47297,-257.235612,-1.423718,72.299644
3.876,0.026003,-0.021169,-0.027949,0.001397,0.002413,0.0195,0.011483,-0.531267,-0.027306,1.472535,-257.229835,-1.422963,72.303492
3.8961,0.025952,-0.021582,-0.026486,0.001371,0.002398,0.019499,0.011601,-0.531133,-0.027477,1.472535,-257.229835,-1.422963,72.303492
3.916,0.025165,-0.021538,-0.026831,0.001349,0.002384,0.019498,0.012492,-0.531328,-0.025866,1.47355,-257.224079,-1.424704,72.30733
3.936,0.025201,-0.021854,-0.025646,0.001337,0.002377,0.019499,0.011569,-0.531349,-0.026722,1.47355,-257.224079,-1.424704,72.30733
3.9563,0.024772,-0.021658,-0.025129,0.001326,0.002371,0.019499,0.011569,-0.531349,-0.026722,1.47355,-257.224079,-1.424704,72.30733
3.976,0.024495,-0.02126,-0.024934,0.001317,0.002366,0.019499,0.012017,-0.531399,-0.024315,1.476666,-257.218356,-1.430055,72.311165
3.9956,0.024882,-0.021071,-0.024801,0.001299,0.002355,0.019499,0.011927,-0.531267,-0.024473,1.476666,-257.218356,-1.430055,72.311165
4.0158,0.024276,-0.021213,-0.024674,0.001284,0.002346,0.019499,0.012279,-0.53084,-0.024179,1.478766,-257.212623,-1.433614,72.315018
4.0357,0.02424,-0.021533,-0.024043,0.001273,0.002339,0.0195,0.01175,-0.531034,-0.024596,1.478766,-257.212623,-1.433614,72.315018
4.0555,0.024565,-0.021443,-0.024513,0.001263,0.002333,0.0195,0.01175,-0.531034,-0.024596,1.478766,-257.212623,-1.433614,72.315018
4.0758,0.023888,-0.021468,-0.025179,0.001255,0.002329,0.0195,0.012121,-0.531192,-0.023696,1.480956,-257.206899,-1.43732,72.318877
4.0957,0.02359,-0.020793,-0.023133,0.001254,0.002329,0.019501,0.011693,-0.531227,-0.024202,1.480956,-257.206899,-1.43732,72.318877
4.1157,0.023248,-0.021316,-0.02371,0.001253,0.002328,0.019502,0.011835,-0.530583,-0.022512,1.482873,-257.201184,-1.440535,72.32274
4.1356,0.023396,-0.020855,-0.023008,0.001266,0.002337,0.019503,0.01122,-0.531115,-0.02357,1.482873,-257.201184,-1.440535,72.32274
4.1557,0.023801,-0.020929,-0.022631,0.001277,0.002344,0.019503,0.01122,-0.531115,-0.02357,1.482873,-257.201184,-1.440535,72.32274
4.1759,0.022933,-0.020824,-0.021148,0.001286,0.002349,0.019504,0.012315,-0.530702,-0.021813,1.483013,-257.195466,-1.440754,72.326606
4.1962,0.023159,-0.020968,-0.02124,0.001254,0.002329,0.019501,0.012253,-0.530694,-0.021451,1.483013,-257.195466,-1.440754,72.326606
4.2158,0.022436,-0.020588,-0.021884,0.001228,0.002313,0.0195,0.01237,-0.530779,-0.020618,1.480877,-257.189715,-1.43713,72.330481
4.2359,0.022445,-0.020792,-0.018853,0.001231,0.002315,0.0195,0.011362,-0.530487,-0.021759,1.480877,-257.189715,-1.43713,72.330481
4.2559,0.022779,-0.020691,-0.021639,0.001232,0.002317,0.019501,0.011362,-0.530487,-0.021759,1.480877,-257.189715,-1.43713,72.330481
4.2755,0.021878,-0.020815,-0.019768,0.001234,0.002318,0.019501,0.011797,-0.530476,-0.020827,1.484649,-257.184035,-1.443502,72.334331
4.2959,0.022437,-0.02074,-0.019964,0.001224,0.002311,0.019498,0.011803,-0.530562,-0.020303,1.484649,-257.184035,-1.443502,72.334331
4.3159,0.021919,-0.020642,-0.018652,0.001215,0.002305,0.019496,0.012297,-0.530565,-0.01934,1.484286,-257.178279,-1.442857,72.338228
4.3362,0.021552,-0.020805,-0.019143,0.001192,0.002284,0.019471,0.01246,-0.530444,-0.017767,1.484286,-257.178279,-1.442857,72.338228
4.356,0.021406,-0.020414,-0.018715,0.001172,0.002266,0.019451,0.01246,-0.530444,-0.017767,1.484286,-257.178279,-1.442857,72.338228
4.3755,0.021246,-0.020583,-0.018116,0.001155,0.002251,0.019436,0.011915,-0.530229,-0.017904,1.485489,-257.17256,-1.444893,72.342109
4.3959,0.021296,-0.020409,-0.017846,0.001154,0.002248,0.019426,0.01196,-0.530334,-0.017899,1.485489,-257.17256,-1.444893,72.342109
4.4157,0.020903,-0.020464,-0.015306,0.001154,0.002246,0.019419,0.012233,-0.530258,-0.017237,1.489176,-257.166917,-1.451276,72.345968
4.4357,0.020749,-0.020225,-0.017195,0.001128,0.002221,0.01934,0.013035,-0.530391,-0.015423,1.489176,-257.166917,-1.451276,72.345968
4.4558,0.020824,-0.020273,-0.017101,0.001106,0.002201,0.01928,0.013035,-0.530391,-0.015423,1.489176,-257.166917,-1.451276,72.345968
4.4759,0.020336,-0.02004,-0.01551,0.001088,0.002184,0.019233,0.012153,-0.530106,-0.016294,1.489186,-257.161293,-1.451363,72.349815
4.4957,0.020477,-0.020128,-0.015979,0.001088,0.002182,0.019216,0.012269,-0.530044,-0.015883,1.489186,-257.161293,-1.451363,72.349815
4.5157,0.020056,-0.020285,-0.014769,0.001088,0.00218,0.019203,0.012364,-0.529994,-0.015366,1.492875,-257.155678,-1.457534,72.353683
4.5357,0.020091,-0.020395,-0.014,0.001087,0.002175,0.019141,0.012514,-0.530208,-0.014787,1.492875,-257.155678,-1.457534,72.353683
4.5555,0.019816,-0.020108,-0.015386,0.001087,0.002171,0.019093,0.012514,-0.530208,-0.014787,1.492875,-257.155678,-1.457534,72.353683
4.5754,0.019603,-0.019847,-0.015236,0.001086,0.002168,0.019056,0.012015,-0.529958,-0.014589,1.492756,-257.150128,-1.457374,72.357506
4.5955,0.019339,-0.019725,-0.014053,0.001097,0.002173,0.019026,0.011946,-0.529878,-0.014761,1.492756,-257.150128,-1.457374,72.357506
4.6157,0.019137,-0.019543,-0.011635,0.001106,0.002178,0.019003,0.012208,-0.529606,-0.013446,1.492289,-257.144589,-1.456601,72.361319
4.6357,0.019075,-0.020142,-0.01325,0.001097,0.002138,0.018692,0.013115,-0.529514,-0.011768,1.492289,-257.144589,-1.456601,72.361319
4.6558,0.018923,-0.019808,-0.013111,0.001088,0.002105,0.018468,0.013115,-0.529514,-0.011768,1.492289,-257.144589,-1.456601,72.361319
4.6764,0.018904,-0.019504,-0.012251,0.00108,0.002079,0.018308,0.012284,-0.529674,-0.012315,1.490717,-257.139058,-1.454007,72.365115
4.6958,0.018579,-0.019888,-0.01064,0.001088,0.002077,0.018247,0.012437,-0.52958,-0.012197,1.490717,-257.139058,-1.454007,72.365115
4.7157,0.018148,-0.019296,-0.011732,0.001095,0.002076,0.018204,0.013188,-0.529794,-0.010055,1.489557,-257.133737,-1.452735,72.368781
4.7358,0.018167,-0.019266,-0.011002,0.001108,0.002072,0.018089,0.012259,-0.529306,-0.01155,1.489557,-257.133737,-1.452735,72.368781
4.7558,0.018185,-0.019317,-0.0103,0.001118,0.002069,0.018008,0.012259,-0.529306,-0.01155,1.489557,-257.133737,-1.452735,72.368781
4.7758,0.017648,-0.019738,-0.011124,0.001126,0.002067,0.01795,0.012979,-0.529203,-0.009537,1.487982,-257.128384,-1.450265,72.372464
4.7957,0.017803,-0.019085,-0.009415,0.001143,0.002054,0.017679,0.012549,-0.529411,-0.010136,1.487982,-257.128384,-1.450265,72.372464
4.8154,0.017651,-0.019452,-0.008098,0.001155,0.002044,0.017489,0.013038,-0.528998,-0.008852,1.484618,-257.123202,-1.444919,72.376016
4.836,0.017288,-0.01938,-0.009217,0.001153,0.001994,0.016893,0.013481,-0.529394,-0.008135,1.484618,-257.123202,-1.444919,72.376016
4.8557,0.017536,-0.019385,-0.010167,0.001152,0.001958,0.016494,0.013481,-0.529394,-0.008135,1.484618,-257.123202,-1.444919,72.376016
4.8758,0.017354,-0.019526,-0.008028,0.00115,0.001932,0.016227,0.0124,-0.529274,-0.009438,1.48028,-257.118107,-1.437859,72.379491
4.8959,0.016995,-0.019353,-0.007359,0.001161,0.001936,0.016198,0.012755,-0.52936,-0.008781,1.48028,-257.118107,-1.437859,72.379491
4.9158,0.01668,-0.018945,-0.007486,0.001169,0.00194,0.016183,0.013279,-0.529278,-0.006844,1.473968,-257.113336,-1.427606,72.382723
4.9357,0.016581,-0.019431,-0.008194,0.001177,0.001919,0.015826,0.012896,-0.528955,-0.007414,1.473968,-257.113336,-1.427606,72.382723
4.9558,0.01643,-0.01889,-0.007979,0.001183,0.001906,0.015588,0.012896,-0.528955,-0.007414,1.473968,-257.113336,-1.427606,72.382723
4.9756,0.016251,-0.019106,-0.006495,0.001187,0.001898,0.01543,0.012411,-0.528793,-0.007304,1.472235,-257.108607,-1.424678,72.385919
4.9955,0.016628,-0.018833,-0.006092,0.0012,0.001891,0.015172,0.012631,-0.528907,-0.006897,1.472235,-257.108607,-1.424678,72.385919
5.0156,0.015863,-0.019123,-0.007247,0.001211,0.001889,0.015,0.013559,-0.528763,-0.005601,1.466353,-257.104064,-1.414393,72.38896
5.0354,0.015928,-0.018894,-0.005961,0.001232,0.001902,0.014929,0.012294,-0.529075,-0.007074,1.466353,-257.104064,-1.414393,72.38896
5.0558,0.015764,-0.019161,-0.006719,0.001249,0.001915,0.014884,0.012294,-0.529075,-0.007074,1.466353,-257.104064,-1.414393,72.38896
5.0758,0.015774,-0.018924,-0.00579,0.001264,0.001926,0.014855,0.012388,-0.529071,-0.006093,1.461643,-257.099624,-1.405796,72.391905
5.0958,0.015509,-0.018873,-0.004418,0.00127,0.001908,0.014458,0.012571,-0.528998,-0.005897,1.461643,-257.099624,-1.405796,72.391905
5.1153,0.015444,-0.018558,-0.003718,0.001277,0.001896,0.014189,0.013296,-0.528807,-0.003944,1.45642,-257.095184,-1.395802,72.394816
5.1361,0.015126,-0.01871,-0.002792,0.00124,0.001812,0.013122,0.01353,-0.528571,-0.003715,1.45642,-257.095184,-1.395802,72.394816
5.1559,0.015483,-0.018572,-0.005328,0.001212,0.001751,0.012409,0.01353,-0.528571,-0.003715,1.45642,-257.095184,-1.395802,72.394816
5.1755,0.015116,-0.018539,-0.002875,0.00119,0.001708,0.011939,0.012819,-0.528486,-0.004739,1.450476,-257.09096,-1.384363,72.397551
5.1959,0.015189,-0.018628,-0.004224,0.001183,0.001691,0.011714,0.013162,-0.528498,-0.003914,1.450476,-257.09096,-1.384363,72.397551
5.2156,0.014689,-0.018609,-0.00213,0.001178,0.001681,0.011569,0.013073,-0.528569,-0.003847,1.439281,-257.087344,-1.360758,72.399825
5.2361,0.014501,-0.018565,-0.003321,0.001159,0.001632,0.010663,0.013565,-0.528602,-0.002241,1.439281,-257.087344,-1.360758,72.399825
5.2559,0.014898,-0.018433,-0.001995,0.001145,0.001595,0.010048,0.013565,-0.528602,-0.002241,1.439281,-257.087344,-1.360758,72.399825
5.2757,0.014447,-0.018521,-0.001787,0.001134,0.001571,0.009634,0.013929,-0.528362,-0.001514,1.436919,-257.083819,-1.355413,72.402026
5.2957,0.014497,-0.018615,-0.002376,0.001113,0.001535,0.008992,0.01377,-0.52842,-0.001572,1.436919,-257.083819,-1.355413,72.402026
5.3155,0.01458,-0.01801,-0.002006,0.001097,0.001511,0.008553,0.01332,-0.528566,-0.002081,1.419823,-257.080901,-1.313697,72.403752
5.3356,0.014385,-0.018332,-0.002955,0.001084,0.001504,0.008478,0.013541,-0.52805,-0.001998,1.419823,-257.080901,-1.313697,72.403752
5.3557,0.014318,-0.018244,-0.000471,0.001074,0.001499,0.008432,0.013541,-0.52805,-0.001998,1.419823,-257.080901,-1.313697,72.403752
5.3758,0.014332,-0.018347,-0.001257,0.001065,0.001497,0.008406,0.014123,-0.528182,-0.000121,1.40935,-257.078224,-1.283545,72.405271
5.3956,0.014054,-0.018385,-0.001757,0.001042,0.001471,0.007606,0.01395,-0.528243,-0.000549,1.40935,-257.078224,-1.283545,72.405271
5.4155,0.014249,-0.018157,-0.000493,0.001023,0.001451,0.007043,0.013192,-0.528337,-0.001489,1.411528,-257.07554,-1.285856,72.406785
5.4356,0.013993,-0.018574,-0.001081,0.001007,0.001438,0.006649,0.013929,-0.52817,-0.000567,1.411528,-257.07554,-1.285856,72.406785
5.4555,0.014017,-0.018155,-4.5e-05,0.000994,0.001428,0.006372,0.013929,-0.52817,-0.000567,1.411528,-257.07554,-1.285856,72.406785
5.4758,0.013985,-0.018307,-0.000146,0.000983,0.001423,0.006179,0.014034,-0.528098,0.000231,1.39475,-257.073346,-1.22606,72.407922
5.4958,0.013608,-0.01837,-0.002747,0.000968,0.001413,0.005699,0.013988,-0.528177,0.000109,1.39475,-257.073346,-1.22606,72.407922
5.5162,0.014034,-0.018058,-0.001512,0.000955,0.001407,0.005358,0.012237,-0.528324,-0.002558,1.383895,-257.071321,-1.174857,72.408898
5.536,0.013979,-0.018408,-0.001698,0.000976,0.001456,0.006019,0.013172,-0.52808,-0.001597,1.383895,-257.071321,-1.174857,72.408898
5.5559,0.013772,-0.018424,-0.000741,0.000993,0.00149,0.006481,0.013172,-0.52808,-0.001597,1.383895,-257.071321,-1.174857,72.408898
5.576,0.013614,-0.017924,-0.001133,0.001007,0.001515,0.006803,0.013431,-0.528371,-0.000537,1.369403,-257.069591,-1.099858,72.409657
5.5961,0.013722,-0.017915,0.001463,0.001013,0.001515,0.006553,0.013275,-0.528183,-0.000755,1.369403,-257.069591,-1.099858,72.409657
5.6161,0.013541,-0.018018,-0.001886,0.001018,0.001515,0.006374,0.014495,-0.527874,0.001641,1.395058,-257.067689,-1.174858,72.41059
5.6357,0.013911,-0.017924,-0.000534,0.001039,0.001548,0.006693,0.012745,-0.528003,-0.001575,1.395058,-257.067689,-1.174858,72.41059
5.6559,0.013593,-0.018468,-0.000265,0.001056,0.001571,0.006913,0.012745,-0.528003,-0.001575,1.395058,-257.067689,-1.174858,72.41059
5.6757,0.013728,-0.017997,-0.001517,0.001071,0.001589,0.007063,0.0135,-0.528405,0.0,1.384712,-257.065487,-1.166135,72.411625
5.6958,0.013721,-0.017827,-0.000375,0.001065,0.001574,0.006625,0.013276,-0.528226,-0.000604,1.384712,-257.065487,-1.166135,72.411625
5.7155,0.013432,-0.01775,-0.001173,0.001062,0.001563,0.006311,0.013563,-0.527778,-0.000155,1.391391,-257.063108,-1.196464,72.412786
5.7357,0.013423,-0.017609,-0.000222,0.001064,0.001568,0.006364,0.012882,-0.52775,-0.0011,1.391391,-257.063108,-1.196464,72.412786
5.7558,0.013608,-0.017781,0.000574,0.001065,0.001572,0.006398,0.012882,-0.52775,-0.0011,1.391391,-257.063108,-1.196464,72.412786
5.7758,0.013094,-0.017255,0.000523,0.001066,0.001575,0.006421,0.013942,-0.52772,0.000819,1.377262,-257.061038,-1.13682,72.413733
5.7959,0.013488,-0.017714,-0.00095,0.001029,0.001536,0.005499,0.013699,-0.527515,0.000722,1.377262,-257.061038,-1.13682,72.413733
5.8156,0.013227,-0.017711,0.00185,0.000998,0.001504,0.004836,0.013037,-0.527664,-0.000748,1.379143,-257.058806,-1.144279,72.41476
5.8354,0.013291,-0.017873,0.002078,0.000963,0.001476,0.004008,0.014083,-0.527705,0.001655,1.379143,-257.058806,-1.144279,72.41476
5.8555,0.013389,-0.017823,0.002274,0.000934,0.001452,0.00341,0.014083,-0.527705,0.001655,1.379143,-257.058806,-1.144279,72.41476
5.8756,0.013097,-0.017592,0.001658,0.000911,0.001433,0.002981,0.014572,-0.527785,0.002396,1.350552,-257.057719,-1.069454,72.415179
5.8957,0.013198,-0.017317,0.002484,0.000883,0.001413,0.002518,0.014318,-0.527702,0.002109,1.350552,-257.057719,-1.069454,72.415179
5.9159,0.013217,-0.017815,0.000954,0.00086,0.001398,0.002187,0.014465,-0.527315,0.002484,1.297856,-257.057718,-0.994811,72.415179
5.9358,0.012927,-0.017718,0.001199,0.000862,0.001409,0.002323,0.013772,-0.52777,0.001091,1.297856,-257.057718,-0.994811,72.415179
5.9555,0.013643,-0.017654,0.001369,0.000862,0.001417,0.002417,0.013772,-0.52777,0.001091,1.297856,-257.057718,-0.994811,72.415179
5.976,0.0132,-0.01744,0.00095,0.000861,0.001423,0.00248,0.014341,-0.527654,0.001369,1.265891,-257.057718,-0.919814,72.415179
5.9962,0.013301,-0.017364,0.00233,0.000848,0.001416,0.002469,0.014074,-0.527567,0.001199,1.265891,-257.057718,-0.919814,72.415179
6.0156,0.012927,-0.017516,0.001244,0.000836,0.001411,0.002458,0.014489,-0.527363,0.00233,1.285542,-257.057718,-0.84481,72.41518
6.0359,0.01322,-0.017528,0.00064,0.000837,0.001416,0.002383,0.013645,-0.527502,0.001341,1.285542,-257.057718,-0.84481,72.41518
6.0557,0.013176,-0.017861,0.002732,0.000838,0.00142,0.002326,0.013645,-0.527502,0.001341,1.285542,-257.057718,-0.84481,72.41518
6.076,0.013386,-0.017748,0.001443,0.000838,0.001424,0.002284,0.014569,-0.527859,0.002732,1.291334,-257.057717,-0.769804,72.41518
6.096,0.013437,-0.017709,0.001437,0.000822,0.001412,0.001925,0.014387,-0.527814,0.002208,1.291334,-257.057717,-0.769804,72.41518
6.1157,0.01307,-0.017718,0.002003,0.000809,0.001403,0.001667,0.01417,-0.527708,0.001437,1.281832,-257.057717,-0.694805,72.41518
6.1357,0.01329,-0.017557,-0.000245,0.000804,0.001403,0.001565,0.014099,-0.527717,0.001952,1.281832,-257.057717,-0.694805,72.41518
6.1557,0.013305,-0.01765,0.002525,0.0008,0.001403,0.00149,0.014099,-0.527717,0.001952,1.281832,-257.057717,-0.694805,72.41518
6.1756,0.013041,-0.0177,0.001678,0.000797,0.001404,0.001437,0.014593,-0.527649,0.002525,1.2484,-257.057717,-0.619794,72.41518
6.1957,0.0132,-0.017503,0.001892,0.000787,0.001399,0.001308,0.014308,-0.527669,0.002179,1.2484,-257.057717,-0.619794,72.41518
6.2154,0.013186,-0.017667,0.002452,0.000778,0.001394,0.001216,0.014165,-0.527503,0.001892,1.234683,-257.057717,-0.544811,72.41518
6.2359,0.013224,-0.017566,0.000533,0.000767,0.001388,0.001063,0.014414,-0.527651,0.002405,1.234683,-257.057717,-0.544811,72.41518
6.256,0.01357,-0.017881,0.001177,0.000758,0.001383,0.000951,0.014414,-0.527651,0.002405,1.234683,-257.057717,-0.544811,72.41518
6.2755,0.013189,-0.017454,0.000409,0.00075,0.001379,0.000871,0.01417,-0.527881,0.001177,1.22151,-257.057717,-0.469622,72.41518
6.2955,0.013248,-0.017636,-3e-06,0.000768,0.001413,0.001458,0.013856,-0.527708,0.000865,1.22151,-257.057717,-0.469622,72.41518
6.3156,0.013484,-0.017858,0.000219,0.000782,0.001434,0.001862,0.013247,-0.527636,-3e-06,1.196748,-257.057717,-0.394781,72.41518
6.3356,0.013313,-0.017375,0.002785,0.000808,0.001471,0.002493,0.013564,-0.527838,0.000199,1.196748,-257.057717,-0.394781,72.41518
6.3555,0.013137,-0.017737,0.001586,0.000829,0.001496,0.002928,0.013564,-0.527838,0.000199,1.196748,-257.057717,-0.394781,72.41518
6.3758,0.012765,-0.017704,0.000344,0.000846,0.001511,0.003226,0.013946,-0.527736,0.001586,1.271721,-257.057717,-0.319809,72.41518
6.3961,0.013262,-0.017376,0.002631,0.000851,0.001505,0.002978,0.013534,-0.527723,0.001078,1.271721,-257.057717,-0.319809,72.41518
6.4156,0.013313,-0.017514,0.001194,0.000855,0.001502,0.002797,0.014619,-0.527346,0.002688,1.332327,-257.056903,-0.394835,72.415399
6.436,0.013272,-0.01758,0.002362,0.000841,0.001482,0.00255,0.013986,-0.527498,0.001332,1.332327,-257.056903,-0.394835,72.415399
6.4561,0.013479,-0.017695,0.001119,0.000829,0.001467,0.002372,0.013986,-0.527498,0.001332,1.332327,-257.056903,-0.394835,72.415399
6.4763,0.013311,-0.017743,0.001699,0.000819,0.001455,0.002244,0.014073,-0.527654,0.001199,1.31036,-257.05602,-0.319865,72.415633
6.4956,0.013082,-0.017196,-0.00051,0.000811,0.001446,0.00212,0.014117,-0.527685,0.001407,1.31036,-257.05602,-0.319865,72.415633
6.5157,0.013043,-0.017437,0.001437,0.000805,0.001438,0.002031,0.012823,-0.527194,-0.000506,1.288767,-257.055958,-0.244864,72.41565
6.5355,0.013531,-0.017442,0.000976,0.000806,0.001439,0.002032,0.013692,-0.527415,0.001265,1.288767,-257.055958,-0.244864,72.41565
6.5555,0.013121,-0.017397,0.001074,0.000806,0.00144,0.002032,0.013692,-0.527415,0.001265,1.288767,-257.055958,-0.244864,72.41565
6.5755,0.013108,-0.017456,0.002421,0.000807,0.00144,0.002032,0.013669,-0.527396,0.001076,1.279037,-257.055936,-0.169821,72.415656
6.5955,0.012886,-0.017179,0.000375,0.000799,0.001431,0.001877,0.013943,-0.527419,0.001623,1.279037,-257.055936,-0.169821,72.415656
6.6158,0.012829,-0.017441,6.3e-05,0.000793,0.001425,0.001767,0.013079,-0.527177,0.00038,1.278481,-257.055867,-0.094871,72.415677
6.6355,0.013245,-0.017578,0.001767,0.000829,0.001472,0.002453,0.01288,-0.527418,9.1e-05,1.278481,-257.055867,-0.094871,72.415677
6.6558,0.012815,-0.017554,0.002421,0.000858,0.001504,0.002934,0.01288,-0.527418,9.1e-05,1.278481,-257.055867,-0.094871,72.415677
6.6756,0.013116,-0.01721,0.000803,0.000882,0.001526,0.003269,0.014051,-0.527552,0.002423,1.26419,-257.055852,-0.01978,72.415682
6.6956,0.013337,-0.017525,0.002625,0.000863,0.0015,0.00271,0.013833,-0.52741,0.001751,1.26419,-257.055852,-0.01978,72.415682
6.7158,0.013023,-0.017341,-6.6e-05,0.000849,0.00148,0.002308,0.014676,-0.527521,0.002627,1.325489,-257.055818,-0.095004,72.415691
6.7357,0.013172,-0.017675,0.001542,0.000866,0.001502,0.002782,0.01314,-0.527357,0.000175,1.325489,-257.055818,-0.095004,72.415691
6.7561,0.013103,-0.017505,0.002214,0.000879,0.001516,0.003113,0.01314,-0.527357,0.000175,1.325489,-257.055818,-0.095004,72.415691
6.7757,0.012894,-0.017743,0.001267,0.000889,0.001524,0.003343,0.014253,-0.527469,0.002273,1.285081,-257.05511,-0.020301,72.415891
6.796,0.012948,-0.017659,0.000938,0.000869,0.001498,0.002716,0.013964,-0.527577,0.001869,1.285081,-257.05511,-0.020301,72.415891
6.8155,0.013534,-0.017968,0.002684,0.000854,0.001478,0.002266,0.013427,-0.527658,0.000939,1.32645,-257.055091,-0.095297,72.415897
6.8357,0.013419,-0.017867,0.000567,0.000826,0.00145,0.001719,0.014767,-0.527938,0.002523,1.32645,-257.055091,-0.095297,72.415897
6.856,0.013201,-0.017624,0.001077,0.000803,0.001428,0.001326,0.014767,-0.527938,0.002523,1.32645,-257.055091,-0.095297,72.415897
6.8759,0.012624,-0.017428,0.001204,0.000784,0.001411,0.001043,0.013768,-0.527595,0.001125,1.280835,-257.054503,-0.020311,72.416066
6.8959,0.013413,-0.017703,0.001195,0.000798,0.001431,0.001392,0.013555,-0.527523,0.001163,1.280835,-257.054503,-0.020311,72.416066
6.9154,0.013026,-0.017563,0.001094,0.000808,0.001445,0.001637,0.014022,-0.527703,0.001195,1.205831,-257.054503,0.054692,72.416066
6.9363,0.013176,-0.017271,0.002991,0.000816,0.001455,0.001838,0.013624,-0.527576,0.001103,1.205831,-257.054503,0.054692,72.416066
6.9559,0.013057,-0.017266,0.002553,0.000822,0.001462,0.001978,0.013624,-0.527576,0.001103,1.205831,-257.054503,0.054692,72.416066
6.9758,0.012914,-0.01765,-4.5e-05,0.000826,0.001466,0.002076,0.01436,-0.527263,0.002556,1.251559,-257.054467,0.129697,72.416079
6.996,0.013481,-0.017307,0.002414,0.000822,0.00146,0.001991,0.013729,-0.527429,0.001439,1.251559,-257.054467,0.129697,72.416079
7.0162,0.013384,-0.017435,0.001098,0.000818,0.001455,0.001929,0.014733,-0.527268,0.002469,1.277405,-257.053532,0.205353,72.416357
7.0357,0.01317,-0.017647,0.002734,0.000808,0.001447,0.001981,0.014016,-0.527417,0.001225,1.277405,-257.053532,0.205353,72.416357
7.0557,0.013182,-0.017314,0.001419,0.000799,0.00144,0.002017,0.014016,-0.527417,0.001225,1.277405,-257.053532,0.205353,72.416357
7.0758,0.013167,-0.017119,0.00068,0.000792,0.001434,0.002042,0.013933,-0.527266,0.001484,1.269558,-257.05266,0.279701,72.41663
7.096,0.013125,-0.01723,0.002002,0.000788,0.001431,0.002089,0.013764,-0.5272,0.001162,1.269558,-257.05266,0.279701,72.41663
7.1157,0.012916,-0.017477,0.00276,0.000785,0.001428,0.002121,0.014171,-0.527185,0.002065,1.283541,-257.051581,0.230998,72.416944
7.1357,0.012923,-0.017134,0.003459,0.000767,0.001411,0.00156,0.014314,-0.527453,0.002714,1.283541,-257.051581,0.230998,72.416944
7.1557,0.013305,-0.017277,0.003001,0.000753,0.001398,0.001155,0.014314,-0.527453,0.002714,1.283541,-257.051581,0.230998,72.416944
7.1755,0.013142,-0.017447,0.001206,0.000743,0.001387,0.000864,0.014865,-0.527219,0.003083,1.290163,-257.050528,0.166896,72.41724
7.1961,0.012917,-0.016801,0.00317,0.000729,0.001376,0.000784,0.014419,-0.527305,0.002331,1.290163,-257.050528,0.166896,72.41724
7.2156,0.013312,-0.017053,0.000607,0.000718,0.001367,0.000728,0.014533,-0.526799,0.00317,1.21574,-257.050527,0.241318,72.41724
7.2357,0.01306,-0.017409,0.001603,0.00073,0.001393,0.00135,0.013698,-0.527031,0.000822,1.21574,-257.050527,0.241318,72.41724
7.2556,0.01343,-0.017038,0.001445,0.000739,0.001408,0.001785,0.013698,-0.527031,0.000822,1.21574,-257.050527,0.241318,72.41724
7.2757,0.013201,-0.017016,0.001783,0.000745,0.001417,0.002089,0.014167,-0.527038,0.001445,1.193538,-257.050527,0.316488,72.41724
7.296,0.013488,-0.017126,0.00319,0.000733,0.001401,0.001947,0.014144,-0.527029,0.001583,1.193538,-257.050527,0.316488,72.41724
7.3158,0.012934,-0.017241,0.001879,0.000722,0.001389,0.001844,0.015131,-0.527094,0.003231,1.268363,-257.049814,0.241662,72.417434
7.336,0.012833,-0.016916,0.002128,0.000722,0.001383,0.001606,0.013997,-0.527227,0.001994,1.268363,-257.049814,0.241662,72.417434
7.3559,0.013103,-0.017013,0.002161,0.000721,0.00138,0.001436,0.013997,-0.527227,0.001994,1.268363,-257.049814,0.241662,72.417434
7.3757,0.013617,-0.01699,0.000736,0.000721,0.001378,0.001314,0.01423,-0.526964,0.002225,1.291053,-257.04895,0.316828,72.417688
7.3955,0.013127,-0.017126,0.000922,0.000712,0.001371,0.001386,0.014135,-0.526969,0.00162,1.291053,-257.04895,0.316828,72.417688
7.4158,0.013328,-0.016753,0.0027,0.000705,0.001365,0.00144,0.013601,-0.527121,0.000928,1.251545,-257.048838,0.391822,72.417732
7.4358,0.013176,-0.01697,0.001072,0.000679,0.001339,0.001143,0.014607,-0.526784,0.002542,1.251545,-257.048838,0.391822,72.417732
7.4559,0.013369,-0.017241,0.001764,0.000658,0.001319,0.000933,0.014607,-0.526784,0.002542,1.251545,-257.048838,0.391822,72.417732
7.4755,0.012908,-0.016997,0.001927,0.000641,0.001303,0.000785,0.014284,-0.527214,0.001795,1.266408,-257.048379,0.466691,72.4179
7.4956,0.012731,-0.017073,0.003104,0.000649,0.001314,0.000932,0.014118,-0.527118,0.001855,1.266408,-257.048379,0.466691,72.4179
7.5157,0.012949,-0.017176,0.002804,0.000656,0.001323,0.001037,0.014315,-0.527069,0.003105,1.225756,-257.04835,0.542211,72.417915
7.5355,0.013402,-0.016994,0.001837,0.000653,0.001319,0.000759,0.014374,-0.527164,0.002832,1.225756,-257.04835,0.542211,72.417915
7.5557,0.012795,-0.017065,0.001986,0.00065,0.001317,0.000559,0.014374,-0.527164,0.002832,1.225756,-257.04835,0.542211,72.417915
7.5758,0.012694,-0.0173,0.003472,0.000648,0.001316,0.000415,0.013817,-0.527048,0.002001,1.247052,-257.048093,0.61667,72.418034
7.5956,0.013151,-0.017023,0.002545,0.000655,0.001323,0.00039,0.014078,-0.527146,0.002593,1.247052,-257.048093,0.61667,72.418034
7.6156,0.012771,-0.017152,0.002777,0.000661,0.00133,0.000372,0.01445,-0.527019,0.002546,1.179095,-257.048051,0.691652,72.418064
7.6357,0.013303,-0.016658,0.001191,0.000662,0.001331,0.000306,0.014212,-0.527138,0.002757,1.179095,-257.048051,0.691652,72.418064
7.6558,0.013384,-0.017282,0.002417,0.000662,0.001333,0.000259,0.014212,-0.527138,0.002757,1.179095,-257.048051,0.691652,72.418064
7.676,0.013094,-0.01691,0.003677,0.000662,0.001334,0.000227,0.014622,-0.527273,0.002421,1.169343,-257.047948,0.766663,72.418143
7.6958,0.012912,-0.016454,0.002303,0.000647,0.001321,0.00015,0.014762,-0.527125,0.002926,1.169343,-257.047948,0.766663,72.418143
7.7153,0.013079,-0.017021,0.00171,0.000635,0.001311,9.6e-05,0.014093,-0.526444,0.002306,1.148162,-257.047795,0.841657,72.418272
7.736,0.013116,-0.017063,0.001506,0.000647,0.00133,0.000494,0.01396,-0.526986,0.001746,1.148162,-257.047795,0.841657,72.418272
7.7556,0.013197,-0.017431,0.002396,0.000656,0.001343,0.000771,0.01396,-0.526986,0.001746,1.148162,-257.047795,0.841657,72.418272
7.7761,0.013011,-0.016745,0.002581,0.000663,0.001352,0.000963,0.014429,-0.527413,0.002399,1.136977,-257.047595,0.917607,72.418459
7.796,0.012798,-0.01699,0.000497,0.000658,0.001345,0.000821,0.014388,-0.527129,0.002476,1.136977,-257.047595,0.917607,72.418459
7.8158,0.013382,-0.016855,0.002332,0.000654,0.001339,0.000718,0.013068,-0.526957,0.000521,1.211417,-257.046951,0.855594,72.418776
7.8359,0.013187,-0.016893,0.003221,0.000644,0.001331,0.000754,0.014435,-0.526861,0.002167,1.211417,-257.046951,0.855594,72.418776
7.8561,0.013294,-0.016544,0.002143,0.000636,0.001323,0.000779,0.014435,-0.526861,0.002167,1.211417,-257.046951,0.855594,72.418776
7.8755,0.013084,-0.016468,0.002219,0.000629,0.001317,0.000795,0.014411,-0.526493,0.00217,1.218302,-257.046281,0.930203,72.41917
7.8958,0.013005,-0.016737,0.001609,0.000617,0.001306,0.000797,0.014334,-0.526477,0.002193,1.218302,-257.046281,0.930203,72.41917
7.9158,0.012836,-0.016867,0.001757,0.000607,0.001296,0.000798,0.013845,-0.526694,0.001634,1.234968,-257.045521,0.922842,72.419585
7.9355,0.012947,-0.016976,0.003542,0.000625,0.001315,0.000974,0.013743,-0.526849,0.001747,1.234968,-257.045521,0.922842,72.419585
7.956,0.013191,-0.016702,0.001229,0.00064,0.001328,0.001098,0.013743,-0.526849,0.001747,1.234968,-257.045521,0.922842,72.419585
7.9754,0.01348,-0.016667,0.002171,0.000652,0.001339,0.001184,0.013844,-0.526648,0.001262,1.242712,-257.044768,0.927053,72.419989
7.9958,0.013305,-0.01674,0.002271,0.000646,0.001334,0.00129,0.014148,-0.526649,0.001634,1.242712,-257.044768,0.927053,72.419989
8.0157,0.013481,-0.016717,0.003434,0.000641,0.00133,0.001363,0.014475,-0.526711,0.002293,1.264588,-257.044226,0.852058,72.420214
8.0355,0.013313,-0.016658,0.003255,0.000604,0.001298,0.000846,0.015172,-0.526713,0.003344,1.264588,-257.044226,0.852058,72.420214
8.0556,0.01314,-0.017049,0.002042,0.000575,0.001272,0.00047,0.015172,-0.526713,0.003344,1.264588,-257.044226,0.852058,72.420214
8.0755,0.013125,-0.016795,0.002988,0.000551,0.00125,0.000199,0.014195,-0.527017,0.002071,1.282441,-257.043734,0.776724,72.420391
8.0955,0.013086,-0.016212,0.002272,0.000562,0.001259,0.000286,0.014382,-0.526922,0.002448,1.282441,-257.043734,0.776724,72.420391
8.1156,0.013306,-0.016735,0.002353,0.00057,0.001267,0.000347,0.014248,-0.526206,0.002274,1.20772,-257.043656,0.851445,72.420457
8.1355,0.013245,-0.016804,0.001987,0.000569,0.001266,0.000427,0.014482,-0.526685,0.002346,1.20772,-257.043656,0.851445,72.420457
8.1556,0.013218,-0.016713,0.004417,0.000568,0.001265,0.000484,0.014482,-0.526685,0.002346,1.20772,-257.043656,0.851445,72.420457
8.1759,0.013147,-0.01712,0.001987,0.000567,0.001264,0.000524,0.015482,-0.526686,0.004425,1.20296,-257.043374,0.926393,72.420671
8.1962,0.013059,-0.016505,0.002729,0.000552,0.001253,0.000217,0.014946,-0.526859,0.003435,1.20296,-257.043374,0.926393,72.420671
8.2158,0.013124,-0.016566,0.002315,0.000541,0.001243,-3e-06,0.014466,-0.526469,0.002743,1.227403,-257.042812,1.001391,72.421039
8.2365,0.013254,-0.016309,0.002906,0.000546,0.001249,0.000182,0.014319,-0.526555,0.002352,1.227403,-257.042812,1.001391,72.421039
8.2558,0.013186,-0.016655,0.003287,0.000551,0.001254,0.000314,0.014319,-0.526555,0.002352,1.227403,-257.042812,1.001391,72.421039
8.276,0.012995,-0.016779,0.001728,0.000554,0.001257,0.000406,0.014878,-0.526621,0.003288,1.159736,-257.042479,1.076596,72.421373
8.2958,0.013339,-0.016302,0.002017,0.000554,0.001256,0.000364,0.014478,-0.52668,0.002663,1.159736,-257.042479,1.076596,72.421373
8.3154,0.013088,-0.01619,0.003471,0.000554,0.001255,0.000334,0.014385,-0.526263,0.00203,1.218277,-257.041872,1.069094,72.421808
8.3357,0.013217,-0.016416,0.002618,0.000531,0.001233,0.000107,0.014817,-0.526192,0.003342,1.218277,-257.041872,1.069094,72.421808
8.3559,0.013384,-0.016315,0.002786,0.000512,0.001215,-5.5e-05,0.014817,-0.526192,0.003342,1.218277,-257.041872,1.069094,72.421808
8.3757,0.013119,-0.016509,0.001166,0.000497,0.0012,-0.00017,0.014828,-0.52626,0.0028,1.207857,-257.04125,1.085664,72.422281
8.3956,0.013307,-0.016451,0.001301,0.000504,0.001212,0.000152,0.014378,-0.526355,0.002138,1.207857,-257.04125,1.085664,72.422281
8.4159,0.013449,-0.016337,0.00372,0.00051,0.00122,0.000378,0.013983,-0.526423,0.001298,1.145561,-257.040894,1.160764,72.422695
8.4359,0.013339,-0.016602,0.002475,0.000486,0.001198,0.0001,0.015224,-0.52634,0.003502,1.145561,-257.040894,1.160764,72.422695
8.4561,0.013464,-0.016634,0.002162,0.000467,0.001179,-9.9e-05,0.015224,-0.52634,0.003502,1.145561,-257.040894,1.160764,72.422695
8.4759,0.013237,-0.016271,0.000992,0.000451,0.001164,-0.000242,0.014584,-0.526591,0.002174,1.220471,-257.040381,1.094451,72.423066
8.4965,0.013262,-0.016523,0.003399,0.000475,0.001196,0.000302,0.014225,-0.526449,0.001668,1.220471,-257.040381,1.094451,72.423066
8.5154,0.013061,-0.016486,0.002334,0.000494,0.001218,0.00068,0.015006,-0.526496,0.003394,1.15317,-257.040089,1.170175,72.42343
8.5361,0.013427,-0.016382,0.002299,0.000503,0.001224,0.000645,0.01432,-0.526484,0.002429,1.15317,-257.040089,1.170175,72.42343
8.5562,0.013294,-0.016457,0.002905,0.000512,0.001229,0.000618,0.01432,-0.526484,0.002429,1.15317,-257.040089,1.170175,72.42343
8.5758,0.013385,-0.01662,0.001778,0.000519,0.001233,0.000596,0.014786,-0.526427,0.002919,1.227428,-257.039719,1.095917,72.423634
8.5962,0.013474,-0.015741,0.003307,0.000518,0.00123,0.000569,0.014587,-0.526501,0.002458,1.227428,-257.039719,1.095917,72.423634
8.6158,0.013237,-0.016248,0.001287,0.000517,0.001228,0.000549,0.015175,-0.525702,0.003324,1.256839,-257.039098,1.032597,72.424009
8.6358,0.013397,-0.016353,0.002158,0.000529,0.001244,0.000925,0.014014,-0.526194,0.001478,1.256839,-257.039098,1.032597,72.424009
8.6558,0.01296,-0.01619,0.001875,0.000537,0.001254,0.001187,0.014014,-0.526194,0.001478,1.256839,-257.039098,1.032597,72.424009
8.6757,0.013483,-0.015954,0.005348,0.000543,0.00126,0.001368,0.013938,-0.526138,0.001898,1.251295,-257.038441,1.045679,72.42442
8.6955,0.012965,-0.015868,0.002622,0.000515,0.001233,0.000864,0.014868,-0.526054,0.003309,1.251295,-257.038441,1.045679,72.42442
8.7159,0.013161,-0.015955,0.001786,0.000492,0.00121,0.000498,0.014303,-0.525863,0.002625,1.317047,-257.038368,0.970681,72.424443
8.736,0.013132,-0.016214,0.001094,0.000499,0.001216,0.000733,0.014086,-0.525948,0.001835,1.317047,-257.038368,0.970681,72.424443
8.7558,0.013272,-0.016303,0.001995,0.000504,0.001219,0.000897,0.014086,-0.525948,0.001835,1.317047,-257.038368,0.970681,72.424443
8.7758,0.013207,-0.016371,0.001666,0.000507,0.001221,0.001011,0.014305,-0.526262,0.002012,1.256409,-257.037867,1.046609,72.424768
8.7956,0.013194,-0.016261,0.001463,0.000515,0.001226,0.001075,0.014207,-0.526301,0.001874,1.256409,-257.037867,1.046609,72.424768
8.816,0.013256,-0.016039,0.001824,0.000522,0.00123,0.001118,0.013949,-0.526237,0.001481,1.301535,-257.03741,0.97255,72.424957
8.8356,0.013533,-0.01606,0.003763,0.000522,0.001229,0.001175,0.014173,-0.526049,0.001805,1.301535,-257.03741,0.97255,72.424957
8.8557,0.013244,-0.016187,0.004904,0.000522,0.001227,0.001214,0.014173,-0.526049,0.001805,1.301535,-257.03741,0.97255,72.424957
8.876,0.013226,-0.01579,0.002634,0.000523,0.001226,0.00124,0.015758,-0.526148,0.004933,1.304557,-257.036895,0.896604,72.425153
8.8958,0.013073,-0.01603,0.003578,0.000482,0.001199,0.000614,0.015255,-0.525991,0.00396,1.304557,-257.036895,0.896604,72.425153
8.9159,0.013129,-0.015961,0.003453,0.000449,0.001175,0.000154,0.014908,-0.526002,0.003602,1.313105,-257.036373,0.821943,72.425332
8.9362,0.013306,-0.015808,0.001998,0.000436,0.001159,-5.8e-05,0.014892,-0.52596,0.003467,1.313105,-257.036373,0.821943,72.425332
8.9557,0.013706,-0.015992,0.001598,0.000425,0.001146,-0.000209,0.014892,-0.52596,0.003467,1.313105,-257.036373,0.821943,72.425332
8.976,0.013002,-0.015886,0.003207,0.000416,0.001135,-0.000315,0.014524,-0.525986,0.001599,1.238713,-257.036311,0.896335,72.425385
8.9959,0.013416,-0.015673,0.001033,0.000423,0.001143,8e-06,0.01457,-0.525944,0.002248,1.238713,-257.036311,0.896335,72.425385
9.016,0.013481,-0.016254,0.003351,0.000427,0.001148,0.000235,0.013945,-0.52567,0.001033,1.163705,-257.036273,0.971343,72.425438
9.036,0.013378,-0.016085,0.001903,0.00042,0.001138,9.7e-05,0.015079,-0.526199,0.003144,1.163705,-257.036273,0.971343,72.425438
9.0562,0.012921,-0.01627,0.002475,0.000414,0.001131,-0.0,0.015079,-0.526199,0.003144,1.163705,-257.036273,0.971343,72.425438
9.076,0.013442,-0.01595,0.003337,0.00041,0.001125,-7e-05,0.014193,-0.526246,0.00248,1.2387,-257.036016,1.046338,72.425644
9.0958,0.013514,-0.015972,0.003043,0.000418,0.001132,-2.1e-05,0.014582,-0.526121,0.00283,1.2387,-257.036016,1.046338,72.425644
9.1157,0.013573,-0.015488,0.002456,0.000425,0.001138,1.4e-05,0.015074,-0.52595,0.003042,1.208863,-257.035756,1.121372,72.425922
9.1356,0.013412,-0.016176,0.001781,0.00041,0.001125,0.000145,0.014847,-0.525526,0.002507,1.208863,-257.035756,1.121372,72.425922
9.1558,0.013384,-0.015841,0.002869,0.000398,0.001113,0.000237,0.014847,-0.525526,0.002507,1.208863,-257.035756,1.121372,72.425922
9.1758,0.013397,-0.015851,0.003587,0.000387,0.001103,0.000302,0.014863,-0.525797,0.002869,1.216081,-257.035326,1.196447,72.426347
9.196,0.012922,-0.015661,0.002174,0.000379,0.001094,0.000138,0.015016,-0.525814,0.003168,1.216081,-257.035326,1.196447,72.426347
9.2157,0.012971,-0.015612,0.003367,0.000372,0.001086,2.1e-05,0.014042,-0.525628,0.002183,1.278438,-257.034827,1.171787,72.426716
9.2359,0.012962,-0.016017,0.002233,0.000371,0.001085,-8.9e-05,0.01463,-0.525609,0.003259,1.278438,-257.034827,1.171787,72.426716
9.2557,0.013497,-0.015746,0.003306,0.00037,0.001083,-0.000166,0.01463,-0.525609,0.003259,1.278438,-257.034827,1.171787,72.426716
9.276,0.013326,-0.015541,0.004691,0.000369,0.001083,-0.000221,0.015198,-0.525701,0.003307,1.244451,-257.034402,1.237341,72.427133
9.2959,0.013004,-0.015515,0.001074,0.000346,0.001063,-0.000423,0.015411,-0.525629,0.00387,1.244451,-257.034402,1.237341,72.427133
9.3157,0.013568,-0.015627,0.002796,0.000327,0.001047,-0.000567,0.013563,-0.525482,0.001067,1.199044,-257.034018,1.276194,72.427614
9.3358,0.013546,-0.01581,0.003137,0.000331,0.001053,-0.000303,0.014865,-0.52561,0.00264,1.199044,-257.034018,1.276194,72.427614
9.3555,0.013468,-0.015589,0.001076,0.000334,0.001057,-0.000116,0.014865,-0.52561,0.00264,1.199044,-257.034018,1.276194,72.427614
9.3758,0.013255,-0.015736,0.001895,0.000335,0.001059,1.5e-05,0.014028,-0.52555,0.001056,1.1344,-257.033747,1.340352,72.428115
9.3958,0.013408,-0.015591,0.002136,0.000362,0.001096,0.000609,0.014108,-0.525621,0.001394,1.1344,-257.033747,1.340352,72.428115
9.4158,0.013173,-0.0158,0.002171,0.000383,0.001121,0.001021,0.014505,-0.525567,0.002136,1.20939,-257.03344,1.265362,72.428417
9.436,0.013492,-0.015657,0.002839,0.000395,0.001129,0.000983,0.014301,-0.525777,0.002168,1.20939,-257.03344,1.265362,72.428417
9.4562,0.013493,-0.015788,0.003081,0.000405,0.001134,0.000952,0.014301,-0.525777,0.002168,1.20939,-257.03344,1.265362,72.428417
9.4758,0.013776,-0.015384,0.001597,0.000413,0.001139,0.000927,0.015066,-0.525781,0.003085,1.284405,-257.033372,1.190347,72.428441
9.4955,0.013098,-0.015559,0.001472,0.000401,0.001123,0.000795,0.014874,-0.52562,0.002482,1.284405,-257.033372,1.190347,72.428441
9.5156,0.013424,-0.015767,0.002821,0.000391,0.001109,0.0007,0.013852,-0.525544,0.001482,1.333163,-257.033114,1.115364,72.428545
9.5355,0.013521,-0.015826,0.001787,0.000387,0.001103,0.000558,0.014776,-0.525746,0.002707,1.333163,-257.033114,1.115364,72.428545
9.5555,0.013564,-0.015532,0.0031,0.000385,0.001098,0.000456,0.014776,-0.525746,0.002707,1.333163,-257.033114,1.115364,72.428545
9.5755,0.013565,-0.015478,0.002978,0.000383,0.001095,0.000383,0.01516,-0.525487,0.003128,1.321726,-257.032524,1.050241,72.428837
9.5955,0.013199,-0.015623,0.003683,0.000365,0.001075,0.000218,0.015131,-0.525477,0.00307,1.321726,-257.032524,1.050241,72.428837
9.6153,0.01367,-0.01533,0.002735,0.00035,0.001059,0.000102,0.015088,-0.52559,0.003694,1.290183,-257.032063,1.125095,72.429151
9.6356,0.013773,-0.01545,0.003435,0.000337,0.001046,9.7e-05,0.015067,-0.52535,0.002822,1.290183,-257.032063,1.125095,72.429151
9.6558,0.013513,-0.015582,0.00218,0.000327,0.001035,9.5e-05,0.015067,-0.52535,0.002822,1.290183,-257.032063,1.125095,72.429151
9.6756,0.013405,-0.015363,0.001973,0.000318,0.001026,9.4e-05,0.014637,-0.525545,0.002184,1.268391,-257.031676,1.200075,72.429499
9.6961,0.013405,-0.015333,0.002339,0.000329,0.001041,0.00035,0.014547,-0.525466,0.002098,1.268391,-257.031676,1.200075,72.429499
9.7157,0.013545,-0.015362,0.00305,0.000337,0.001052,0.000529,0.014608,-0.525301,0.002342,1.285417,-257.031245,1.253869,72.429888
9.736,0.013873,-0.01577,0.003086,0.000325,0.001038,0.00035,0.015061,-0.525353,0.002994,1.285417,-257.031245,1.253869,72.429888
9.7557,0.013485,-0.015574,0.004165,0.000316,0.001028,0.000222,0.015061,-0.525353,0.002994,1.285417,-257.031245,1.253869,72.429888
9.7754,0.013441,-0.015538,0.002314,0.000308,0.001019,0.00013,0.015619,-0.525536,0.004182,1.330277,-257.030806,1.178568,72.430137
9.7958,0.013591,-0.015459,0.003374,0.000299,0.001012,-5.8e-05,0.015214,-0.525532,0.003423,1.330277,-257.030806,1.178568,72.430137
9.8154,0.013397,-0.015494,0.003536,0.000293,0.001006,-0.000192,0.015321,-0.525427,0.003377,1.297669,-257.030397,1.253274,72.430492
9.8356,0.01346,-0.015624,0.003361,0.000286,0.001,-0.000314,0.015212,-0.525483,0.003522,1.297669,-257.030397,1.253274,72.430492
9.8559,0.013403,-0.01515,0.00247,0.000281,0.000996,-0.0004,0.015212,-0.525483,0.003522,1.297669,-257.030397,1.253274,72.430492
9.8755,0.013447,-0.015385,0.002253,0.000276,0.000992,-0.00046,0.014674,-0.52511,0.002463,1.252591,-257.030056,1.315842,72.430914
9.8955,0.0137,-0.015028,0.001413,0.000285,0.001005,-0.000135,0.014644,-0.525217,0.002377,1.252591,-257.030056,1.315842,72.430914
9.916,0.013561,-0.01483,0.002525,0.000292,0.001014,9.4e-05,0.014429,-0.524998,0.001399,1.200146,-257.029772,1.357125,72.431399
9.9356,0.013542,-0.015078,0.002532,0.000284,0.001006,0.000236,0.014811,-0.524842,0.002422,1.200146,-257.029772,1.357125,72.431399
9.9563,0.013359,-0.015224,0.001997,0.000277,0.000999,0.000335,0.014811,-0.524842,0.002422,1.200146,-257.029772,1.357125,72.431399
9.9756,0.013338,-0.015186,0.001935,0.00027,0.000992,0.000404,0.014387,-0.525191,0.002,1.275023,-257.029438,1.282247,72.431701
9.9955,0.013265,-0.015333,0.00403,0.000287,0.00101,0.000621,0.014363,-0.525185,0.001974,1.275023,-257.029438,1.282247,72.431701
10.0159,0.013765,-0.015072,0.00294,0.0003,0.001024,0.000771,0.015328,-0.525302,0.004041,1.350144,-257.029007,1.222685,72.43197
10.036,0.01357,-0.014877,0.002577,0.000282,0.001003,0.000512,0.01527,-0.525089,0.003035,1.350144,-257.029007,1.222685,72.43197
10.056,0.013238,-0.015274,0.002383,0.000267,0.000986,0.000326,0.01527,-0.525089,0.003035,1.350144,-257.029007,1.222685,72.43197
10.0756,0.013455,-0.015061,0.002052,0.000256,0.000972,0.000193,0.014462,-0.525242,0.002405,1.372899,-257.028582,1.147761,72.432145
10.0954,0.013696,-0.015153,0.003624,0.00027,0.000988,0.000356,0.014479,-0.525165,0.002264,1.372899,-257.028582,1.147761,72.432145
10.1154,0.01326,-0.014613,0.00255,0.000282,0.001001,0.000471,0.015551,-0.525127,0.003629,1.3403,-257.028249,1.222727,72.432411
10.1355,0.013674,-0.015162,0.002334,0.000274,0.00099,0.000419,0.014644,-0.524653,0.002641,1.3403,-257.028249,1.222727,72.432411
10.1554,0.013454,-0.015282,0.00279,0.000267,0.000982,0.000382,0.014644,-0.524653,0.002641,1.3403,-257.028249,1.222727,72.432411
10.1753,0.013502,-0.014944,0.002267,0.000261,0.000975,0.000355,0.014889,-0.525239,0.002809,1.355222,-257.027731,1.194247,72.432712
10.1961,0.013371,-0.015193,0.001821,0.000264,0.000977,0.000354,0.014796,-0.525113,0.002589,1.355222,-257.027731,1.194247,72.432712
10.2155,0.013308,-0.014993,0.003388,0.000266,0.00098,0.000352,0.014308,-0.525162,0.001832,1.355156,-257.027259,1.238941,72.433022
10.2356,0.01401,-0.015088,0.002256,0.000258,0.000972,0.000148,0.01497,-0.525004,0.003247,1.355156,-257.027259,1.238941,72.433022
10.2559,0.013408,-0.014953,0.003211,0.000252,0.000966,2e-06,0.01497,-0.525004,0.003247,1.355156,-257.027259,1.238941,72.433022
10.2755,0.013416,-0.015284,0.004746,0.000248,0.000961,-0.000101,0.015056,-0.52491,0.003225,1.351438,-257.026768,1.235579,72.433347
10.2959,0.013449,-0.014919,0.002711,0.000231,0.000949,-0.000334,0.015378,-0.525057,0.003853,1.351438,-257.026768,1.235579,72.433347
10.3154,0.013746,-0.015207,0.002601,0.000218,0.000938,-0.000501,0.014838,-0.524892,0.002708,1.301823,-257.02646,1.310694,72.433694
10.3353,0.013547,-0.014897,0.001849,0.000225,0.000946,-0.000249,0.015053,-0.525177,0.002611,1.301823,-257.02646,1.310694,72.433694
10.3555,0.013854,-0.015074,0.002,0.00023,0.000952,-7.1e-05,0.015053,-0.525177,0.002611,1.301823,-257.02646,1.310694,72.433694
10.3754,0.013482,-0.01476,0.003123,0.000234,0.000957,5.4e-05,0.014882,-0.52504,0.001982,1.238805,-257.026238,1.385727,72.434114
10.3956,0.013899,-0.014689,0.002049,0.000233,0.000957,0.000198,0.014962,-0.52492,0.002449,1.238805,-257.026238,1.385727,72.434114
10.4154,0.013849,-0.01473,0.003014,0.000232,0.000956,0.000298,0.01495,-0.524663,0.00205,1.313781,-257.025912,1.322928,72.434419
10.4358,0.013221,-0.014866,0.001428,0.000216,0.000936,0.000209,0.015349,-0.524721,0.002932,1.313781,-257.025912,1.322928,72.434419
10.4557,0.013368,-0.014788,0.002861,0.000203,0.00092,0.000145,0.015349,-0.524721,0.002932,1.313781,-257.025912,1.322928,72.434419
10.4757,0.013329,-0.014515,0.002519,0.000192,0.000907,9.9e-05,0.014836,-0.524749,0.002873,1.369232,-257.025484,1.278979,72.434717
10.4959,0.013552,-0.014887,0.00312,0.000196,0.000911,0.000132,0.014745,-0.524647,0.002728,1.369232,-257.025484,1.278979,72.434717
10.5153,0.013521,-0.014413,0.002001,0.000199,0.000914,0.000155,0.015149,-0.524858,0.003123,1.374957,-257.025119,1.347746,72.435038
10.5358,0.01358,-0.01511,0.001776,0.000203,0.00092,0.000396,0.014596,-0.524451,0.002102,1.374957,-257.025119,1.347746,72.435038
10.5556,0.013411,-0.014554,0.002997,0.000206,0.000924,0.000563,0.014596,-0.524451,0.002102,1.374957,-257.025119,1.347746,72.435038
10.5759,0.013545,-0.014508,0.001855,0.000207,0.000926,0.000679,0.014947,-0.524514,0.003003,1.375896,-257.024709,1.332275,72.435374
10.5957,0.01371,-0.014841,0.002696,0.000205,0.000921,0.000603,0.014762,-0.524506,0.002537,1.375896,-257.024709,1.332275,72.435374
10.6154,0.013782,-0.014977,0.003054,0.000203,0.000917,0.000547,0.015088,-0.524819,0.00271,1.417283,-257.024334,1.257276,72.435527
10.6357,0.013412,-0.014336,0.003788,0.000197,0.00091,0.000352,0.015319,-0.524961,0.003026,1.417283,-257.024334,1.257276,72.435527
10.6555,0.013321,-0.014864,0.001264,0.000193,0.000905,0.000213,0.015319,-0.524961,0.003026,1.417283,-257.024334,1.257276,72.435527
10.6759,0.013466,-0.014849,0.002146,0.000189,0.0009,0.000114,0.013974,-0.524825,0.001286,1.410318,-257.023833,1.236348,72.435771
10.6959,0.013527,-0.014927,0.003196,0.000216,0.000936,0.000555,0.014213,-0.52483,0.001639,1.410318,-257.023833,1.236348,72.435771
10.7161,0.013853,-0.014399,0.003552,0.000237,0.000961,0.000863,0.015162,-0.524901,0.003199,1.378114,-257.023512,1.311116,72.436048
10.7359,0.013539,-0.014402,0.002484,0.000202,0.000925,0.000446,0.015624,-0.524435,0.003523,1.378114,-257.023512,1.311116,72.436048
10.7563,0.013699,-0.01475,0.003439,0.000174,0.000895,0.000144,0.015624,-0.524435,0.003523,1.378114,-257.023512,1.311116,72.436048
10.7758,0.013105,-0.014721,0.002596,0.000151,0.000869,-7.4e-05,0.015456,-0.524731,0.003453,1.412597,-257.02328,1.235817,72.436124
10.7955,0.013765,-0.015308,0.002482,0.000156,0.000872,-0.000109,0.015033,-0.524725,0.003101,1.412597,-257.02328,1.235817,72.436124
10.8158,0.013241,-0.014216,0.004333,0.00016,0.000875,-0.000133,0.015034,-0.525289,0.002481,1.389932,-257.023074,1.310731,72.436352
10.8356,0.013754,-0.014186,0.003491,0.000136,0.000858,-0.000426,0.015413,-0.524309,0.004164,1.389932,-257.023074,1.310731,72.436352
10.8554,0.013676,-0.014673,0.00357,0.000117,0.000844,-0.000638,0.015413,-0.524309,0.004164,1.389932,-257.023074,1.310731,72.436352
10.8756,0.013748,-0.014582,0.003814,0.000102,0.000831,-0.00079,0.015503,-0.524638,0.003565,1.37196,-257.022794,1.385523,72.436687
10.8956,0.013724,-0.014302,0.002004,9.8e-05,0.000824,-0.000774,0.015582,-0.52461,0.003667,1.37196,-257.022794,1.385523,72.436687
10.9154,0.013617,-0.0144,0.001955,9.4e-05,0.000818,-0.00076,0.014749,-0.524282,0.001985,1.296818,-257.022687,1.460665,72.437075
10.9354,0.013795,-0.014342,0.003706,0.000116,0.000849,-0.000167,0.014625,-0.524388,0.001956,1.296818,-257.022687,1.460665,72.437075
10.9558,0.014067,-0.014673,0.002956,0.000133,0.000869,0.000246,0.014625,-0.524388,0.001956,1.296818,-257.022687,1.460665,72.437075
10.9757,0.013691,-0.014425,0.002081,0.000145,0.000883,0.00053,0.015578,-0.524638,0.002925,1.311167,-257.022544,1.49767,72.437577
10.9956,0.013621,-0.014897,0.002046,0.000143,0.000875,0.000498,0.015236,-0.524545,0.002572,1.311167,-257.022544,1.49767,72.437577
11.016,0.013706,-0.014198,0.003178,0.00014,0.000869,0.000473,0.014667,-0.524884,0.002053,1.38631,-257.022335,1.422527,72.437676
11.0356,0.013328,-0.01435,0.004159,0.000128,0.000852,0.00029,0.015272,-0.524252,0.003084,1.38631,-257.022335,1.422527,72.437676
11.056,0.013599,-0.014451,0.002231,0.000119,0.000839,0.000159,0.015272,-0.524252,0.003084,1.38631,-257.022335,1.422527,72.437676
11.0759,0.01354,-0.014267,0.003266,0.000111,0.000827,6.4e-05,0.014741,-0.524419,0.002247,1.450315,-257.02195,1.347603,72.437873
11.0957,0.01342,-0.014304,0.002673,0.000117,0.000833,0.000131,0.014929,-0.524353,0.00266,1.450315,-257.02195,1.347603,72.437873
11.1153,0.01363,-0.014328,0.00273,0.000122,0.000837,0.000178,0.014786,-0.524279,0.002675,1.443271,-257.021638,1.422582,72.438158
11.1357,0.013667,-0.014418,0.003412,0.000123,0.000837,0.000189,0.015003,-0.524321,0.002726,1.443271,-257.021638,1.422582,72.438158
11.1554,0.01352,-0.014558,0.004123,0.000124,0.000837,0.000197,0.015003,-0.524321,0.002726,1.443271,-257.021638,1.422582,72.438158
11.1759,0.014041,-0.014046,0.002868,0.000124,0.000837,0.000201,0.015628,-0.524519,0.00413,1.443033,-257.021258,1.405398,72.438452
11.1961,0.013516,-0.014376,0.002051,0.000107,0.00082,-5.3e-05,0.015577,-0.524318,0.003606,1.443033,-257.021258,1.405398,72.438452
11.2159,0.013642,-0.014415,0.00407,9.3e-05,0.000806,-0.000235,0.014566,-0.524348,0.002057,1.442022,-257.020871,1.398431,72.438742
11.2361,0.014024,-0.0141,0.002261,8e-05,0.000796,-0.000438,0.015619,-0.524404,0.003896,1.442022,-257.020871,1.398431,72.438742
11.2559,0.013878,-0.014281,0.002359,7e-05,0.000788,-0.000583,0.015619,-0.524404,0.003896,1.442022,-257.020871,1.398431,72.438742
11.2758,0.013689,-0.014371,0.001917,6.3e-05,0.000781,-0.000687,0.015085,-0.524249,0.00235,1.431972,-257.020626,1.473323,72.439091
11.2959,0.013175,-0.013912,0.004153,7.9e-05,0.000804,-0.000206,0.014908,-0.524296,0.002166,1.431972,-257.020626,1.473323,72.439091
11.3157,0.013582,-0.014336,0.00244,9.2e-05,0.000819,0.00013,0.015295,-0.523884,0.004132,1.399635,-257.020487,1.518764,72.439546
11.3357,0.013825,-0.014579,0.003912,0.000101,0.000827,0.00021,0.014867,-0.524295,0.002585,1.399635,-257.020487,1.518764,72.439546
11.3559,0.013802,-0.014037,0.002255,0.000108,0.000833,0.000265,0.014867,-0.524295,0.002585,1.399635,-257.020487,1.518764,72.439546
11.3759,0.013409,-0.014438,0.003991,0.000114,0.000837,0.000301,0.014955,-0.524007,0.002259,1.468846,-257.02018,1.44723,72.4398
11.3964,0.013791,-0.013658,0.003482,0.000108,0.000827,0.000206,0.015152,-0.524175,0.002956,1.468846,-257.02018,1.44723,72.4398
11.4154,0.013458,-0.01392,0.001973,0.000103,0.00082,0.000137,0.01557,-0.52363,0.003491,1.459786,-257.019785,1.398237,72.440055
11.4357,0.013818,-0.01415,0.003263,0.000109,0.000827,0.000382,0.014564,-0.523891,0.00211,1.459786,-257.019785,1.398237,72.440055
11.4555,0.013767,-0.01419,0.003798,0.000114,0.000832,0.000552,0.014564,-0.523891,0.00211,1.459786,-257.019785,1.398237,72.440055
11.4761,0.013592,-0.014248,0.004098,0.000117,0.000835,0.000669,0.015708,-0.524152,0.003803,1.457138,-257.019427,1.431549,72.440347
11.4959,0.013608,-0.014061,0.004873,9.1e-05,0.000815,0.000212,0.015698,-0.524185,0.003924,1.457138,-257.019427,1.431549,72.440347
11.5157,0.013868,-0.014047,0.004955,7e-05,0.000797,-0.000121,0.016096,-0.524035,0.004889,1.476863,-257.019046,1.356555,72.440482
11.5355,0.013479,-0.013762,0.003004,3e-05,0.00077,-0.000573,0.01637,-0.524039,0.004951,1.476863,-257.019046,1.356555,72.440482
11.5556,0.013448,-0.013865,0.004177,-3e-06,0.000746,-0.000906,0.01637,-0.524039,0.004951,1.476863,-257.019046,1.356555,72.440482
11.5757,0.013505,-0.014314,0.002837,-3e-05,0.000724,-0.001149,0.015581,-0.523836,0.004174,1.474169,-257.018829,1.431801,72.440743
11.5955,0.013595,-0.014199,0.002493,-2e-05,0.000727,-0.001016,0.015326,-0.524026,0.003631,1.474169,-257.018829,1.431801,72.440743
11.6153,0.013331,-0.014356,0.003872,-1.2e-05,0.000729,-0.000919,0.014866,-0.524197,0.002493,1.399414,-257.018829,1.506556,72.440743
11.6354,0.013872,-0.014391,0.003384,2e-06,0.00074,-0.000882,0.015268,-0.524339,0.003754,1.399414,-257.018829,1.506556,72.440743
11.6555,0.013788,-0.014014,0.004199,1.4e-05,0.000749,-0.000854,0.015268,-0.524339,0.003754,1.399414,-257.018829,1.506556,72.440743
11.6756,0.013195,-0.013956,0.001972,2.3e-05,0.000757,-0.000834,0.01593,-0.523999,0.004186,1.474541,-257.018806,1.580448,72.440922
11.6959,0.013567,-0.014149,0.00218,2.6e-05,0.000757,-0.000684,0.015227,-0.52398,0.003284,1.474541,-257.018806,1.580448,72.440922
11.7156,0.013807,-0.014078,0.003846,2.9e-05,0.000756,-0.000579,0.014679,-0.524124,0.002154,1.477422,-257.018707,1.55246,72.441421
11.7361,0.013854,-0.013997,0.001944,2e-05,0.000744,-0.000619,0.015669,-0.524077,0.003691,1.477422,-257.018707,1.55246,72.441421
11.7562,0.013506,-0.014038,0.003615,1.3e-05,0.000735,-0.000648,0.015669,-0.524077,0.003691,1.477422,-257.018707,1.55246,72.441421
11.7757,0.013503,-0.013948,0.002146,8e-06,0.000727,-0.000669,0.01535,-0.524003,0.003591,1.500085,-257.018547,1.545099,72.441861
11.796,0.013768,-0.013846,0.002958,1.8e-05,0.000738,-0.000483,0.015048,-0.523977,0.003007,1.500085,-257.018547,1.545099,72.441861
11.8159,0.013627,-0.013971,0.000898,2.6e-05,0.000746,-0.000351,0.015277,-0.523822,0.002937,1.547062,-257.018425,1.564145,72.442298
11.8357,0.013854,-0.013793,0.00202,6.2e-05,0.000802,0.000524,0.014189,-0.523956,0.001075,1.547062,-257.018425,1.564145,72.442298
11.8559,0.013627,-0.014002,0.003643,9.1e-05,0.000841,0.001128,0.014189,-0.523956,0.001075,1.547062,-257.018425,1.564145,72.442298
11.8757,0.014083,-0.013448,0.002386,0.000113,0.000866,0.001542,0.015486,-0.523968,0.003628,1.521691,-257.018215,1.543619,72.442677
11.8957,0.013438,-0.013442,0.004726,8.7e-05,0.00083,0.001064,0.015407,-0.523745,0.003104,1.521691,-257.018215,1.543619,72.442677
11.9159,0.013653,-0.013802,0.004248,6.7e-05,0.0008,0.000714,0.015848,-0.523437,0.004726,1.508354,-257.018215,1.468293,72.442677
11.936,0.013639,-0.014022,0.001983,3.4e-05,0.000774,0.000174,0.015821,-0.523771,0.004283,1.508354,-257.018215,1.468293,72.442677
11.9557,0.013645,-0.013907,0.002988,8e-06,0.00075,-0.000223,0.015821,-0.523771,0.004283,1.508354,-257.018215,1.468293,72.442677
11.9756,0.013503,-0.013988,0.001942,-1.3e-05,0.000729,-0.000513,0.015171,-0.523875,0.003014,1.516416,-257.017772,1.39319,72.44281
11.9958,0.013738,-0.013917,0.003376,5e-06,0.000744,-0.000241,0.014897,-0.523917,0.002582,1.516416,-257.017772,1.39319,72.44281
12.0153,0.013532,-0.014118,0.002314,1.9e-05,0.000754,-5.1e-05,0.015461,-0.523902,0.003368,1.590902,-257.017689,1.467677,72.443016
12.036,0.013867,-0.013851,0.003128,3.8e-05,0.000772,0.000143,0.01478,-0.524097,0.002409,1.590902,-257.017689,1.467677,72.443016
12.0556,0.013802,-0.013552,0.003691,5.4e-05,0.000785,0.000278,0.01478,-0.524097,0.002409,1.590902,-257.017689,1.467677,72.443016
12.0758,0.013634,-0.013546,0.002023,6.6e-05,0.000796,0.000371,0.015686,-0.52352,0.003689,1.544788,-257.017436,1.542652,72.443291
12.0961,0.013693,-0.0138,0.00314,4.9e-05,0.00077,0.000241,0.015266,-0.523527,0.003003,1.544788,-257.017436,1.542652,72.443291
12.1156,0.013597,-0.01352,0.002692,3.5e-05,0.00075,0.000147,0.015296,-0.523775,0.003151,1.505999,-257.017083,1.467511,72.443489
12.1359,0.013984,-0.013462,0.002502,3.1e-05,0.000742,0.000165,0.014999,-0.523541,0.002735,1.505999,-257.017083,1.467511,72.443489
12.1559,0.014334,-0.013813,0.003008,2.7e-05,0.000735,0.000177,0.014999,-0.523541,0.002735,1.505999,-257.017083,1.467511,72.443489
12.1758,0.013842,-0.013635,0.00168,2.4e-05,0.00073,0.000185,0.01587,-0.523781,0.003014,1.528889,-257.016763,1.517493,72.44374
12.1963,0.013915,-0.013704,0.002707,1.8e-05,0.000722,0.000276,0.0154,-0.523719,0.002479,1.528889,-257.016763,1.517493,72.44374
12.2159,0.013726,-0.013726,0.002118,1.3e-05,0.000715,0.00034,0.015297,-0.523679,0.002713,1.541813,-257.016427,1.531181,72.443986
12.236,0.013571,-0.01373,0.002855,2.2e-05,0.000726,0.000496,0.014851,-0.523719,0.002173,1.541813,-257.016427,1.531181,72.443986
12.2556,0.013486,-0.013515,0.004992,2.9e-05,0.000734,0.000604,0.014851,-0.523719,0.002173,1.541813,-257.016427,1.531181,72.443986
12.2759,0.013567,-0.013619,0.002132,3.5e-05,0.000741,0.000679,0.016033,-0.523479,0.005007,1.556897,-257.016061,1.545554,72.444188
12.2962,0.013235,-0.013315,0.001336,1.2e-05,0.000722,0.000235,0.015476,-0.523532,0.003848,1.556897,-257.016061,1.545554,72.444188
12.3157,0.013912,-0.01337,0.00371,-7e-06,0.000706,-8.9e-05,0.013918,-0.523294,0.001355,1.540393,-257.015647,1.470556,72.444305
12.3359,0.013937,-0.013546,0.002145,-2.6e-05,0.00068,-0.000234,0.015635,-0.523359,0.0035,1.540393,-257.015647,1.470556,72.444305
12.3557,0.013539,-0.013807,0.003298,-4.2e-05,0.00066,-0.000337,0.015635,-0.523359,0.0035,1.540393,-257.015647,1.470556,72.444305
12.3761,0.013714,-0.013708,0.004409,-5.4e-05,0.000643,-0.000409,0.015221,-0.523781,0.003295,1.58161,-257.015438,1.545612,72.444549
12.3965,0.013671,-0.01353,0.002418,-5.5e-05,0.000644,-0.000524,0.015522,-0.523747,0.003746,1.58161,-257.015438,1.545612,72.444549
12.4158,0.013441,-0.013479,0.002089,-5.5e-05,0.000645,-0.000606,0.014903,-0.523515,0.002409,1.656552,-257.015329,1.620554,72.444795
12.4355,0.01371,-0.013402,0.002335,-3.1e-05,0.000677,-0.000131,0.01454,-0.52348,0.002116,1.656552,-257.015329,1.620554,72.444795
12.4561,0.013343,-0.013604,0.002885,-1.2e-05,0.0007,0.000201,0.01454,-0.52348,0.002116,1.656552,-257.015329,1.620554,72.444795
12.4758,0.013592,-0.013652,0.00291,3e-06,0.000717,0.000431,0.014815,-0.523601,0.002885,1.581413,-257.015329,1.624911,72.444795
12.4958,0.013777,-0.013267,0.002325,6e-06,0.000717,0.00032,0.014921,-0.523621,0.002895,1.581413,-257.015329,1.624911,72.444795
12.5159,0.013951,-0.013444,0.002694,1e-05,0.000718,0.000239,0.014963,-0.523244,0.002338,1.568078,-257.014957,1.564925,72.444968
12.5357,0.013727,-0.013287,0.003768,0.0,0.000704,0.000253,0.0153,-0.523428,0.00267,1.568078,-257.014957,1.564925,72.444968
12.5559,0.013928,-0.0134,0.002719,-8e-06,0.000693,0.000261,0.0153,-0.523428,0.00267,1.568078,-257.014957,1.564925,72.444968
12.5757,0.013748,-0.013195,0.002955,-1.5e-05,0.000683,0.000266,0.015315,-0.523369,0.002729,1.559604,-257.014615,1.553895,72.445194
12.5959,0.013903,-0.013091,0.001793,-2.4e-05,0.000671,0.00022,0.015291,-0.523293,0.002823,1.559604,-257.014615,1.553895,72.445194
12.6156,0.013736,-0.012889,0.002505,-3.2e-05,0.00066,0.000186,0.014817,-0.523069,0.001801,1.588204,-257.01429,1.599071,72.445394
12.6359,0.013888,-0.013392,0.004241,-4e-05,0.000649,0.000285,0.014999,-0.5229,0.002453,1.588204,-257.01429,1.599071,72.445394
12.6558,0.013587,-0.013153,0.002889,-4.8e-05,0.00064,0.000355,0.014999,-0.5229,0.002453,1.588204,-257.01429,1.599071,72.445394
12.6758,0.013587,-0.013656,0.003817,-5.4e-05,0.000632,0.000403,0.015059,-0.523124,0.002897,1.611629,-257.013988,1.628598,72.445608
12.6956,0.0136,-0.013569,0.003797,-5.8e-05,0.000629,0.00018,0.015253,-0.523337,0.003274,1.611629,-257.013988,1.628598,72.445608
12.7163,0.013943,-0.013668,0.002026,-6e-05,0.000627,2.1e-05,0.015535,-0.523547,0.003808,1.632709,-257.013675,1.703334,72.445746
12.7361,0.01355,-0.013287,0.004697,-4.5e-05,0.000647,0.000253,0.015038,-0.523652,0.002225,1.632709,-257.013675,1.703334,72.445746
12.7561,0.013999,-0.012928,0.002159,-3.2e-05,0.000663,0.000415,0.015038,-0.523652,0.002225,1.632709,-257.013675,1.703334,72.445746
12.7764,0.013475,-0.013296,0.003182,-2.2e-05,0.000675,0.000529,0.015098,-0.522901,0.00216,1.664997,-257.013427,1.668826,72.445985
12.7959,0.013471,-0.013321,0.003444,-3.1e-05,0.000661,0.000483,0.015098,-0.523058,0.002578,1.664997,-257.013427,1.668826,72.445985
12.8158,0.013546,-0.013232,0.001338,-3.9e-05,0.00065,0.000449,0.015227,-0.523299,0.003459,1.592974,-257.013068,1.633618,72.446112
12.8358,0.013659,-0.013223,0.003031,-1.9e-05,0.000679,0.000833,0.014321,-0.523237,0.001535,1.592974,-257.013068,1.633618,72.446112
12.8559,0.013629,-0.013244,0.002538,-3e-06,0.000699,0.0011,0.014321,-0.523237,0.001535,1.592974,-257.013068,1.633618,72.446112
12.8758,0.013784,-0.013047,0.002449,9e-06,0.000714,0.001285,0.014921,-0.523216,0.002556,1.613182,-257.012708,1.674754,72.446258
12.896,0.01352,-0.013202,0.003348,-1e-06,0.000697,0.001039,0.014967,-0.523143,0.002514,1.613182,-257.012708,1.674754,72.446258
12.9153,0.014022,-0.012876,0.00594,-9e-06,0.000683,0.000861,0.015228,-0.523178,0.003386,1.564521,-257.01214,1.702453,72.446231
12.9354,0.013924,-0.013485,0.001258,-7.6e-05,0.000643,5.1e-05,0.016888,-0.522894,0.005714,1.564521,-257.01214,1.702453,72.446231
12.9554,0.013746,-0.013475,0.003593,-0.000132,0.000604,-0.000561,0.016888,-0.522894,0.005714,1.564521,-257.01214,1.702453,72.446231
12.9754,0.013651,-0.012924,0.003754,-0.000178,0.000569,-0.00102,0.015578,-0.523446,0.003626,1.578399,-257.011698,1.629163,72.446289
12.9955,0.013567,-0.013189,0.00258,-0.000169,0.000566,-0.000943,0.015573,-0.523229,0.003682,1.578399,-257.011698,1.629163,72.446289
13.0158,0.013641,-0.013024,0.00426,-0.000162,0.000564,-0.000885,0.014883,-0.523187,0.00258,1.503357,-257.011698,1.704204,72.446289
13.0355,0.013675,-0.01378,0.002298,-0.000169,0.000551,-0.000953,0.015734,-0.523034,0.004117,1.503357,-257.011698,1.704204,72.446289
13.0556,0.013221,-0.012858,0.002545,-0.000174,0.000541,-0.001,0.015734,-0.523034,0.004117,1.503357,-257.011698,1.704204,72.446289
13.0754,0.01383,-0.013398,0.002664,-0.000178,0.000533,-0.001033,0.014519,-0.522856,0.002545,1.428236,-257.011698,1.716712,72.446289
13.0955,0.013546,-0.013266,0.002127,-0.000152,0.000563,-0.000599,0.014797,-0.523081,0.002594,1.428236,-257.011698,1.716712,72.446289
13.1157,0.013611,-0.013473,0.0037,-0.00013,0.000585,-0.000295,0.014631,-0.523265,0.002127,1.353162,-257.011698,1.722836,72.446289
13.1355,0.013327,-0.013051,0.004,-0.000123,0.00059,-0.000383,0.015426,-0.523452,0.003569,1.353162,-257.011698,1.722836,72.446289
13.1554,0.013691,-0.013632,0.004,-0.000116,0.000594,-0.000448,0.015426,-0.523452,0.003569,1.353162,-257.011698,1.722836,72.446289
13.1758,0.0136,-0.013303,0.004245,-0.00011,0.000598,-0.000495,0.015731,-0.523628,0.004,1.2782,-257.011698,1.739752,72.446289
13.1958,0.013335,-0.01334,0.00181,-0.000116,0.000595,-0.000663,0.015745,-0.523494,0.0041,1.2782,-257.011698,1.739752,72.446289
13.2155,0.013673,-0.013048,0.004769,-0.00012,0.000592,-0.000785,0.014258,-0.523339,0.00181,1.203394,-257.011698,1.692925,72.446289
13.2355,0.014011,-0.013227,0.003383,-0.00014,0.000574,-0.000962,0.015938,-0.523069,0.004502,1.203394,-257.011698,1.692925,72.446289
13.2558,0.013972,-0.013242,0.00259,-0.000157,0.000558,-0.00109,0.015938,-0.523069,0.004502,1.203394,-257.011698,1.692925,72.446289
13.2759,0.013554,-0.013416,0.002564,-0.000171,0.000545,-0.001182,0.015293,-0.52324,0.00259,1.128388,-257.011698,1.682259,72.446289
13.2955,0.013479,-0.013183,0.002776,-0.000146,0.000574,-0.000692,0.015119,-0.52331,0.002579,1.128388,-257.011698,1.682259,72.446289
13.3156,0.013433,-0.013341,0.00344,-0.000127,0.000594,-0.00035,0.014894,-0.523178,0.00277,1.053368,-257.011715,1.704682,72.44638
13.3358,0.013642,-0.013232,0.002138,-0.000116,0.000601,-0.000366,0.01516,-0.523324,0.003379,1.053368,-257.011715,1.704682,72.44638
13.3559,0.013526,-0.013231,0.003689,-0.000107,0.000607,-0.000379,0.01516,-0.523324,0.003379,1.053368,-257.011715,1.704682,72.44638
13.3756,0.013096,-0.012977,0.003228,-9.9e-05,0.000612,-0.00039,0.015407,-0.523227,0.003689,0.978391,-257.011715,1.727228,72.44638
13.3959,0.013555,-0.012923,0.003316,-9.8e-05,0.00061,-0.000434,0.015137,-0.523124,0.003502,0.978391,-257.011715,1.727228,72.44638
13.4153,0.013785,-0.012694,0.003829,-9.7e-05,0.000608,-0.000466,0.015246,-0.52292,0.003316,0.903391,-257.011715,1.686618,72.44638
13.4354,0.013605,-0.01286,0.002721,-0.00012,0.000578,-0.000564,0.015694,-0.522711,0.003783,0.903391,-257.011715,1.686618,72.44638
13.4555,0.013762,-0.01301,0.002768,-0.000139,0.000554,-0.000635,0.015694,-0.522711,0.003783,0.903391,-257.011715,1.686618,72.44638
13.4754,0.013514,-0.013044,0.003135,-0.000155,0.000533,-0.000686,0.015174,-0.523008,0.002768,0.828394,-257.011715,1.67868,72.44638
13.4957,0.013678,-0.013095,0.002274,-0.000144,0.000546,-0.000467,0.015149,-0.523021,0.002918,0.828394,-257.011715,1.67868,72.44638
13.5153,0.013263,-0.013429,0.003163,-0.000135,0.000556,-0.000313,0.014838,-0.523094,0.002274,0.753394,-257.011715,1.731957,72.44638
13.5355,0.013845,-0.013142,0.003852,-0.000113,0.000581,-0.000258,0.014873,-0.523397,0.003083,0.753394,-257.011715,1.731957,72.44638
13.5557,0.013843,-0.013357,0.003674,-9.4e-05,0.000601,-0.000219,0.014873,-0.523397,0.003083,0.753394,-257.011715,1.731957,72.44638
13.5758,0.013888,-0.013574,0.003114,-7.9e-05,0.000618,-0.000194,0.015717,-0.523353,0.003674,0.678382,-257.011715,1.656945,72.44638
13.5956,0.013349,-0.012987,0.003211,-8.3e-05,0.000612,-0.000282,0.015618,-0.523443,0.003444,0.678382,-257.011715,1.656945,72.44638
13.6154,0.013709,-0.013566,0.003343,-8.7e-05,0.000607,-0.000346,0.014987,-0.522985,0.003211,0.753391,-257.011715,1.677678,72.44638
13.6354,0.013665,-0.013516,0.001851,-8.2e-05,0.000612,-0.00036,0.015375,-0.523511,0.003331,0.753391,-257.011715,1.677678,72.44638
13.6558,0.013756,-0.013005,0.003238,-7.8e-05,0.000616,-0.000369,0.015375,-0.523511,0.003331,0.753391,-257.011715,1.677678,72.44638
13.6754,0.013598,-0.013211,0.002536,-7.4e-05,0.000619,-0.000377,0.015408,-0.523002,0.003238,0.67841,-257.011715,1.676709,72.44638
13.6957,0.01346,-0.0136,0.003461,-7.7e-05,0.000615,-0.000266,0.015198,-0.523086,0.002953,0.67841,-257.011715,1.676709,72.44638
13.7158,0.013695,-0.013167,0.002549,-7.9e-05,0.000612,-0.000189,0.015226,-0.523597,0.003461,0.603411,-257.011715,1.658251,72.44638
13.7354,0.013387,-0.013629,0.002686,-7.3e-05,0.00062,-3e-05,0.015016,-0.523204,0.002632,0.603411,-257.011715,1.658251,72.44638
13.7556,0.01336,-0.013109,0.002828,-6.8e-05,0.000626,8.2e-05,0.015016,-0.523204,0.002632,0.603411,-257.011715,1.658251,72.44638
13.7755,0.013448,-0.013169,0.003522,-6.4e-05,0.00063,0.000159,0.014802,-0.523107,0.002828,0.678414,-257.011715,1.678801,72.44638
13.7955,0.013755,-0.012677,0.004374,-6.4e-05,0.000629,5.7e-05,0.014989,-0.523132,0.00312,0.678414,-257.011715,1.678801,72.44638
13.8156,0.014034,-0.012626,0.001946,-6.4e-05,0.000628,-1.6e-05,0.015986,-0.522672,0.004374,0.753884,-257.011715,1.690246,72.44638
13.8355,0.01349,-0.013438,0.002448,-7.5e-05,0.000615,0.000255,0.015115,-0.52263,0.00217,0.753884,-257.011715,1.690246,72.44638
13.8555,0.013727,-0.013376,0.002711,-8.5e-05,0.000602,0.000443,0.015115,-0.52263,0.00217,0.753884,-257.011715,1.690246,72.44638
13.8756,0.013809,-0.013088,0.001712,-9.4e-05,0.000591,0.000574,0.015109,-0.523374,0.002711,0.828768,-257.011715,1.670335,72.44638
13.8955,0.013532,-0.013227,0.003965,-8.2e-05,0.000605,0.000616,0.014932,-0.523255,0.002297,0.828768,-257.011715,1.670335,72.44638
13.9154,0.01359,-0.013425,0.002841,-7.2e-05,0.000616,0.000645,0.015554,-0.523223,0.003965,0.903536,-257.011715,1.595566,72.44638
13.9355,0.013658,-0.013458,0.002895,-6.6e-05,0.000622,0.000451,0.015084,-0.523405,0.002939,0.903536,-257.011715,1.595566,72.44638
13.9555,0.013541,-0.013068,0.004328,-6e-05,0.000628,0.000312,0.015084,-0.523405,0.002939,0.903536,-257.011715,1.595566,72.44638
13.9757,0.01355,-0.013394,0.003375,-5.5e-05,0.000632,0.000213,0.015748,-0.523063,0.004328,0.978504,-257.011715,1.520599,72.44638
13.9955,0.013688,-0.012514,0.003244,-7.4e-05,0.00062,-0.000125,0.015551,-0.523199,0.003934,0.978504,-257.011715,1.520599,72.44638
14.0154,0.013601,-0.012889,0.001356,-8.8e-05,0.000608,-0.000369,0.015343,-0.522512,0.003244,1.053604,-257.011715,1.595699,72.44638
14.0357,0.013375,-0.01309,0.002234,-6.9e-05,0.000638,0.000278,0.014387,-0.522855,0.001526,1.053604,-257.011715,1.595699,72.44638
14.0555,0.013642,-0.013353,0.003756,-5.5e-05,0.000657,0.000728,0.014387,-0.522855,0.001526,1.053604,-257.011715,1.595699,72.44638
14.0755,0.014233,-0.013309,0.003941,-4.4e-05,0.000669,0.00104,0.015557,-0.52335,0.003756,0.978792,-257.011715,1.67051,72.44638
14.0956,0.013748,-0.013532,0.004027,-6.8e-05,0.000648,0.000508,0.015836,-0.523331,0.003831,0.978792,-257.011715,1.67051,72.44638
14.1155,0.013621,-0.013232,0.000655,-8.6e-05,0.000629,0.000119,0.015802,-0.523528,0.004027,1.053778,-257.011715,1.595525,72.44638
14.1355,0.014052,-0.013498,0.003635,-4.7e-05,0.000683,0.000895,0.014114,-0.523257,0.000944,1.053778,-257.011715,1.595525,72.44638
14.156,0.013844,-0.013295,0.004135,-1.7e-05,0.000719,0.001434,0.014114,-0.523257,0.000944,1.053778,-257.011715,1.595525,72.44638
14.1757,0.013711,-0.012885,0.00321,7e-06,0.000745,0.001805,0.015953,-0.52329,0.004135,1.128895,-257.011715,1.670642,72.44638
14.1959,0.013813,-0.013182,0.002408,-2.8e-05,0.000708,0.00109,0.015704,-0.523123,0.003755,1.128895,-257.011715,1.670642,72.44638
14.2155,0.013528,-0.013186,0.003356,-5.6e-05,0.000675,0.000562,0.015041,-0.523179,0.00241,1.203904,-257.011687,1.595633,72.446375
14.2358,0.01336,-0.013218,0.002605,-6.2e-05,0.00066,0.000299,0.015221,-0.523182,0.003269,1.203904,-257.011687,1.595633,72.446375
14.2558,0.013666,-0.012996,0.003562,-6.7e-05,0.000647,0.000109,0.015221,-0.523182,0.003269,1.203904,-257.011687,1.595633,72.446375
14.2753,0.0135,-0.0131,0.002369,-7e-05,0.000637,-2.7e-05,0.015483,-0.522992,0.003563,1.278793,-257.011671,1.670522,72.44638
14.2957,0.013651,-0.013347,0.003593,-7.4e-05,0.000626,-6.7e-05,0.015167,-0.523035,0.003077,1.278793,-257.011671,1.670522,72.44638
14.3157,0.01359,-0.013324,0.002267,-7.8e-05,0.000617,-9.5e-05,0.015484,-0.523343,0.003593,1.353793,-257.011655,1.678051,72.446398
14.3356,0.01373,-0.012925,0.001506,-6.3e-05,0.000634,0.000113,0.014813,-0.523324,0.002388,1.353793,-257.011655,1.678051,72.446398
14.3556,0.013586,-0.012608,0.003514,-5.1e-05,0.000647,0.000259,0.014813,-0.523324,0.002388,1.353793,-257.011655,1.678051,72.446398
14.3755,0.013385,-0.013536,0.002693,-4.1e-05,0.000657,0.000361,0.015378,-0.522602,0.003514,1.428789,-257.011626,1.685293,72.446432
14.3956,0.01358,-0.013206,0.004757,-5.2e-05,0.000642,0.000179,0.015124,-0.522982,0.003178,1.428789,-257.011626,1.685293,72.446432
14.4161,0.013509,-0.01313,0.002852,-6.1e-05,0.000629,4.8e-05,0.016006,-0.523189,0.004763,1.503787,-257.011429,1.664777,72.446531
14.4358,0.013221,-0.012979,0.003232,-6.2e-05,0.000626,1e-06,0.015057,-0.523133,0.003025,1.503787,-257.011429,1.664777,72.446531
14.4557,0.013752,-0.013338,0.00522,-6.3e-05,0.000624,-3.1e-05,0.015057,-0.523133,0.003025,1.503787,-257.011429,1.664777,72.446531
14.4758,0.01368,-0.012823,0.004114,-6.3e-05,0.000622,-5.4e-05,0.016413,-0.523313,0.005221,1.578781,-257.011254,1.672281,72.446691
14.4958,0.013686,-0.013198,0.002514,-9.9e-05,0.0006,-0.000493,0.016158,-0.523112,0.004776,1.578781,-257.011254,1.672281,72.446691
14.5157,0.013691,-0.013376,0.002914,-0.000129,0.00058,-0.000814,0.014967,-0.52318,0.002513,1.653834,-257.011051,1.667007,72.446916
14.5358,0.013814,-0.013316,0.002517,-0.000113,0.000595,-0.000554,0.015158,-0.523355,0.002878,1.653834,-257.011051,1.667007,72.446916
14.556,0.013465,-0.01311,0.003294,-0.0001,0.000607,-0.000369,0.015158,-0.523355,0.002878,1.653834,-257.011051,1.667007,72.446916
14.576,0.013518,-0.013188,0.002574,-9e-05,0.000615,-0.000238,0.015145,-0.523107,0.003294,1.578877,-257.011051,1.689548,72.446916
14.5961,0.013401,-0.013334,0.002088,-8.5e-05,0.000618,-0.000186,0.015019,-0.523139,0.003004,1.578877,-257.011051,1.689548,72.446916
14.6156,0.01339,-0.012988,0.002517,-8.1e-05,0.00062,-0.000149,0.014466,-0.523333,0.002088,1.503879,-257.011051,1.689136,72.446916
14.6356,0.013719,-0.013392,0.003325,-7e-05,0.000631,5e-05,0.014655,-0.523017,0.002478,1.503879,-257.011051,1.689136,72.446916
14.656,0.013558,-0.013198,0.003007,-6.2e-05,0.00064,0.000188,0.014655,-0.523017,0.002478,1.503879,-257.011051,1.689136,72.446916
14.676,0.013652,-0.013246,0.003066,-5.6e-05,0.000646,0.000285,0.015091,-0.523184,0.003005,1.578877,-257.010952,1.683985,72.447048
14.6958,0.013434,-0.012931,0.003399,-5.8e-05,0.00064,0.000172,0.015142,-0.523207,0.00303,1.578877,-257.010952,1.683985,72.447048
14.7161,0.013677,-0.012807,0.002448,-6e-05,0.000635,9.2e-05,0.015166,-0.522908,0.003408,1.638419,-257.010642,1.687819,72.447228
14.7356,0.013386,-0.013125,0.003607,-6.6e-05,0.000628,0.000195,0.014946,-0.522813,0.002531,1.638419,-257.010642,1.687819,72.447228
14.7561,0.013887,-0.013197,0.003898,-7.1e-05,0.000621,0.000267,0.014946,-0.522813,0.002531,1.638419,-257.010642,1.687819,72.447228
14.7758,0.013829,-0.012871,0.004139,-7.5e-05,0.000615,0.000317,0.015873,-0.523167,0.003902,1.657615,-257.010367,1.674272,72.447459
14.796,0.013639,-0.012914,0.003044,-0.000101,0.000592,-6.1e-05,0.0159,-0.523041,0.003999,1.657615,-257.010367,1.674272,72.447459
14.8159,0.013182,-0.013053,0.000942,-0.000123,0.000572,-0.000336,0.015191,-0.522912,0.003044,1.662975,-257.010367,1.599298,72.447459
14.8359,0.013418,-0.012961,0.002535,-7.6e-05,0.000638,0.00049,0.013803,-0.52304,0.001135,1.662975,-257.010367,1.599298,72.447459
14.8557,0.01361,-0.012983,0.001759,-3.9e-05,0.000686,0.001062,0.013803,-0.52304,0.001135,1.662975,-257.010367,1.599298,72.447459
14.8759,0.013492,-0.012728,0.00435,-1e-05,0.000719,0.001457,0.014507,-0.522982,0.001759,1.588056,-257.010367,1.674217,72.447459
14.8959,0.013487,-0.013003,0.002209,-2.7e-05,0.000691,0.001075,0.015002,-0.522876,0.002824,1.588056,-257.010367,1.674217,72.447459
14.9157,0.013517,-0.012731,0.003617,-4e-05,0.000668,0.000798,0.014613,-0.522987,0.002239,1.577182,-257.00995,1.599083,72.447414
14.936,0.013735,-0.013205,0.002398,-6.4e-05,0.000639,0.000409,0.015294,-0.52275,0.003494,1.577182,-257.00995,1.599083,72.447414
14.9554,0.013872,-0.012749,0.003991,-8.3e-05,0.000614,0.000126,0.015294,-0.52275,0.003494,1.577182,-257.00995,1.599083,72.447414
14.9755,0.013471,-0.012974,0.004226,-9.8e-05,0.000594,-7.7e-05,0.015908,-0.522745,0.003991,1.605004,-257.00995,1.524119,72.447414
14.9957,0.013641,-0.013048,0.003367,-0.000123,0.000569,-0.000368,0.015793,-0.522837,0.004087,1.605004,-257.00995,1.524119,72.447414
15.0153,0.013507,-0.012658,0.003566,-0.000143,0.000549,-0.000578,0.015358,-0.523045,0.003367,1.5301,-257.00995,1.599023,72.447414
15.0357,0.013746,-0.012863,0.003481,-0.000149,0.000537,-0.000593,0.015328,-0.522684,0.003551,1.5301,-257.00995,1.599023,72.447414
15.0555,0.01338,-0.012738,0.004,-0.000154,0.000528,-0.000602,0.015328,-0.522684,0.003551,1.5301,-257.00995,1.599023,72.447414
15.0758,0.013309,-0.01326,0.003525,-0.000159,0.000521,-0.000607,0.01542,-0.522734,0.004,1.454656,-257.00995,1.674467,72.447414
15.0957,0.013518,-0.012798,0.002725,-0.000157,0.000524,-0.000677,0.015291,-0.522949,0.003805,1.454656,-257.00995,1.674467,72.447414
15.1156,0.013847,-0.013055,0.002558,-0.000155,0.000527,-0.000726,0.014908,-0.522797,0.002725,1.379996,-257.00995,1.599808,72.447414
15.136,0.013596,-0.012796,0.003885,-0.000142,0.000545,-0.000381,0.015137,-0.523039,0.002568,1.379996,-257.00995,1.599808,72.447414
15.1557,0.013567,-0.0133,0.003702,-0.000131,0.000558,-0.000139,0.015137,-0.523039,0.002568,1.379996,-257.00995,1.599808,72.447414
15.1756,0.013585,-0.013341,0.003456,-0.000123,0.000567,2.9e-05,0.015455,-0.523296,0.003702,1.30417,-257.00995,1.675634,72.447414
15.1959,0.013687,-0.01269,0.003169,-0.000121,0.000571,-0.000165,0.015411,-0.523313,0.0036,1.30417,-257.00995,1.675634,72.447414
