mach0312/omni-docking-bench/src/icros_test_setup/results/MPPI_sample/timeseries/trial_080.csv
t,x,y,yaw,vx,vy,wz,bl_x,bl_y,bl_yaw,front_steering_joint,front_wheel_joint,rear_steering_joint,rear_wheel_joint
0.0,0.078579,-0.002849,-0.065324,0.013267,0.001238,-0.057757,0.04443,-0.511878,-0.057509,-1.199146,-260.4128,1.222285,66.639014
0.0005,0.07874,-0.002615,-0.065958,0.011639,0.001086,-0.050672,0.04443,-0.511878,-0.057509,-1.199146,-260.398186,1.222285,66.654554
0.0008,0.080542,-0.003297,-0.06962,0.011144,0.001039,-0.048515,0.043917,-0.511873,-0.060031,-1.199146,-260.383713,1.222285,66.669944
0.0011,0.080682,-0.002639,-0.067943,0.010579,0.000987,-0.046058,0.043917,-0.511873,-0.060031,-1.199146,-260.370044,1.222285,66.68448
0.0014,0.082351,-0.00319,-0.070748,0.009949,0.000928,-0.043316,0.043917,-0.511873,-0.060031,-1.199146,-260.357205,1.222285,66.698133
0.0017,0.082678,-0.002371,-0.072759,0.009253,0.000863,-0.040285,0.044462,-0.511692,-0.062329,-1.199146,-260.34625,1.222285,66.709783
0.0021,0.082447,-0.002834,-0.070801,0.008487,0.000792,-0.036947,0.044462,-0.511692,-0.062329,-1.199146,-260.336913,1.222285,66.719712
0.0023,0.084388,-0.002993,-0.07382,0.00766,0.000715,-0.03335,0.04496,-0.511543,-0.061867,-1.199146,-260.336913,1.222285,66.719712
0.0026,0.083822,-0.002726,-0.073007,0.006754,0.00063,-0.029404,0.04496,-0.511543,-0.061867,-1.199146,-260.336913,1.222285,66.719712
0.0028,0.08536,-0.003006,-0.07551,0.0058,0.000541,-0.025249,0.044885,-0.511654,-0.064761,-1.199146,-260.336913,1.222285,66.719712
0.0187,0.085738,-0.002663,-0.074506,0.0,0.0,0.0,0.046901,-0.511535,-0.075451,-1.199146,-260.336913,1.222285,66.719712
0.0387,0.08554,-0.002875,-0.075208,0.0,0.0,0.0,0.046901,-0.511535,-0.075451,-1.199146,-260.336913,1.222285,66.719712
0.0587,0.086495,-0.002628,-0.076503,0.0,0.0,0.0,0.047464,-0.511429,-0.076266,-1.199146,-260.330497,1.222285,66.726535
0.0789,0.086431,-0.002866,-0.075484,0.0,0.0,0.0,0.047514,-0.511307,-0.076487,-1.199146,-260.330497,1.222285,66.726535
0.0986,0.086494,-0.002998,-0.075653,0.0,0.0,0.0,0.04797,-0.511414,-0.075484,-1.199146,-260.330497,1.222285,66.726535
0.1186,0.086471,-0.00333,-0.07615,-0.004288,0.000915,-0.015992,0.04795,-0.511528,-0.075638,-1.199146,-260.330497,1.222285,66.726535
0.1387,0.086375,-0.003034,-0.075846,-0.004702,0.001061,-0.015523,0.04795,-0.511528,-0.075638,-1.199146,-260.330497,1.222285,66.726535
0.1588,0.086435,-0.002939,-0.075396,-0.00506,0.001199,-0.01524,0.04773,-0.511568,-0.075846,-1.199146,-260.330497,1.222285,66.726535
0.179,0.086681,-0.00304,-0.076509,-0.005372,0.001327,-0.01398,0.047857,-0.511534,-0.075649,-1.199146,-260.330497,1.222285,66.726535
0.1988,0.086701,-0.002949,-0.076501,-0.005643,0.001444,-0.013145,0.0477,-0.511548,-0.076509,-1.123175,-260.330497,1.146314,66.726535
0.219,0.086765,-0.003313,-0.075231,-0.005882,0.00155,-0.011577,0.047721,-0.511465,-0.076502,-1.123175,-260.330497,1.146314,66.726535
0.2389,0.08636,-0.003175,-0.077381,-0.006088,0.001646,-0.010461,0.047721,-0.511465,-0.076502,-1.123175,-260.330497,1.146314,66.726535
0.2587,0.085979,-0.003004,-0.074892,-0.006267,0.001734,-0.009682,0.046935,-0.511649,-0.077381,-1.049146,-260.330497,1.072284,66.726535
0.2791,0.08662,-0.003329,-0.076517,-0.006428,0.001817,-0.008282,0.047293,-0.511619,-0.076373,-1.049146,-260.330497,1.072284,66.726535
0.2989,0.086418,-0.00298,-0.075596,-0.006568,0.001892,-0.00725,0.047635,-0.511837,-0.076517,-0.974147,-260.330497,0.997286,66.726535
0.3189,0.086563,-0.003123,-0.075852,-0.006693,0.001957,-0.005837,0.047878,-0.51155,-0.075674,-0.974147,-260.330497,0.997286,66.726535
0.3389,0.086268,-0.00301,-0.074379,-0.006803,0.002015,-0.004766,0.047878,-0.51155,-0.075674,-0.974147,-260.330497,0.997286,66.726535
0.3587,0.086488,-0.003221,-0.076343,-0.006898,0.002068,-0.003959,0.04837,-0.5116,-0.074379,-0.898988,-260.330497,0.922127,66.726535
0.379,0.086652,-0.002835,-0.075718,-0.006982,0.002116,-0.002837,0.048053,-0.511655,-0.075178,-0.898988,-260.330497,0.922127,66.726535
0.3987,0.086553,-0.002802,-0.0754,-0.007056,0.002159,-0.001969,0.048073,-0.511374,-0.075718,-0.824148,-260.330497,0.847286,66.726535
0.4191,0.086567,-0.003636,-0.074821,-0.007123,0.002191,-0.000929,0.04813,-0.511355,-0.075429,-0.824148,-260.330497,0.847286,66.726535
0.4388,0.086662,-0.002746,-0.077114,-0.007181,0.00222,-0.000107,0.04813,-0.511355,-0.075429,-0.824148,-260.330497,0.847286,66.726535
0.4586,0.08617,-0.002954,-0.075973,-0.007231,0.002246,0.000541,0.047373,-0.51123,-0.077114,-0.749128,-260.330497,0.772267,66.726535
0.4789,0.086241,-0.003332,-0.075102,-0.007275,0.002268,0.001301,0.047409,-0.511332,-0.076652,-0.749128,-260.330497,0.772267,66.726535
0.4986,0.086088,-0.003253,-0.075676,-0.007314,0.002288,0.00191,0.047975,-0.511895,-0.075102,-0.674131,-260.330497,0.697269,66.726535
0.5185,0.086739,-0.002873,-0.075516,-0.007347,0.002315,0.002564,0.047562,-0.511801,-0.075635,-0.674131,-260.330497,0.697269,66.726535
0.5387,0.086616,-0.003254,-0.075901,-0.007377,0.002339,0.003092,0.047562,-0.511801,-0.075635,-0.674131,-260.330497,0.697269,66.726535
0.5586,0.08677,-0.003121,-0.074877,-0.007402,0.00236,0.003518,0.047944,-0.511785,-0.075901,-0.598664,-260.330497,0.621803,66.726535
0.5788,0.086504,-0.002812,-0.075805,-0.007425,0.002376,0.003961,0.048219,-0.511747,-0.075484,-0.598664,-260.330497,0.621803,66.726535
0.5993,0.086543,-0.00282,-0.076708,-0.007446,0.002391,0.004319,0.04788,-0.511347,-0.075805,-0.547015,-260.3305,0.547186,66.726533
0.6191,0.08669,-0.003451,-0.076251,-0.007464,0.002394,0.004606,0.047492,-0.511322,-0.07664,-0.547015,-260.3305,0.547186,66.726533
0.639,0.086326,-0.002883,-0.076032,-0.007481,0.002397,0.004838,0.047492,-0.511322,-0.07664,-0.547015,-260.3305,0.547186,66.726533
0.6589,0.086499,-0.002796,-0.075066,-0.007495,0.0024,0.005026,0.047584,-0.511409,-0.076029,-0.593984,-260.330541,0.47185,66.726498
0.6792,0.08604,-0.003035,-0.076308,-0.007507,0.002405,0.005177,0.047855,-0.511389,-0.075636,-0.593984,-260.330541,0.47185,66.726498
0.6987,0.086373,-0.002839,-0.076509,-0.007518,0.002409,0.005299,0.047141,-0.511546,-0.076288,-0.630395,-260.330872,0.39728,66.72623
0.7188,0.086612,-0.002809,-0.075975,-0.007527,0.002412,0.005397,0.047372,-0.511361,-0.076493,-0.630395,-260.330872,0.39728,66.72623
0.739,0.086527,-0.002852,-0.076303,-0.007535,0.002414,0.005475,0.047372,-0.511361,-0.076493,-0.630395,-260.330872,0.39728,66.72623
0.7586,0.08644,-0.002898,-0.075258,-0.007542,0.002416,0.005539,0.047572,-0.511344,-0.076231,-0.644084,-260.331844,0.321771,66.725448
0.7787,0.086104,-0.002892,-0.076409,-0.007548,0.002419,0.00559,0.047775,-0.511386,-0.075829,-0.644084,-260.331844,0.321771,66.725448
0.7993,0.085808,-0.002881,-0.07493,-0.007553,0.002422,0.005632,0.047048,-0.51136,-0.0763,-0.655505,-260.333924,0.247286,66.723786
0.8191,0.08593,-0.002661,-0.07578,-0.007557,0.002426,0.005665,0.047582,-0.511441,-0.075026,-0.655505,-260.333924,0.247286,66.723786
0.839,0.085879,-0.003093,-0.075859,-0.007561,0.00243,0.005692,0.047582,-0.511441,-0.075026,-0.655505,-260.333924,0.247286,66.723786
0.8592,0.085572,-0.002744,-0.075499,-0.007565,0.002433,0.005714,0.04698,-0.51153,-0.075661,-0.659936,-260.337019,0.171785,66.721318
0.8793,0.085707,-0.002957,-0.073661,-0.007568,0.002435,0.005774,0.047002,-0.511421,-0.075572,-0.659936,-260.337019,0.171785,66.721318
0.8991,0.085163,-0.002267,-0.073502,-0.00757,0.002437,0.005823,0.047943,-0.511481,-0.073482,-0.664273,-260.340795,0.138825,66.718316
0.9191,0.084969,-0.002834,-0.075372,-0.007573,0.00243,0.005883,0.047719,-0.510936,-0.073492,-0.664273,-260.340795,0.138825,66.718316
0.9387,0.084984,-0.002464,-0.077275,-0.007576,0.002424,0.005932,0.047719,-0.510936,-0.073492,-0.664273,-260.340795,0.138825,66.718316
0.9587,0.084769,-0.002742,-0.07587,-0.007578,0.00242,0.005971,0.045306,-0.510816,-0.077032,-0.669672,-260.344651,0.146835,66.715261
0.9789,0.084288,-0.002478,-0.07582,-0.007579,0.002415,0.006026,0.045602,-0.51099,-0.076527,-0.669672,-260.344651,0.146835,66.715261
0.9991,0.083761,-0.002638,-0.076882,-0.00758,0.002411,0.00607,0.045423,-0.510919,-0.075632,-0.67508,-260.348521,0.16055,66.7122
1.019,0.083995,-0.002191,-0.074802,-0.007581,0.00241,0.006128,0.044651,-0.511108,-0.076761,-0.67508,-260.348521,0.16055,66.7122
1.0389,0.084015,-0.002474,-0.074645,-0.007582,0.002408,0.006175,0.044651,-0.511108,-0.076761,-0.67508,-260.348521,0.16055,66.7122
1.0586,0.083411,-0.001907,-0.073307,-0.007583,0.002407,0.006214,0.045673,-0.51093,-0.074392,-0.679057,-260.352411,0.169332,66.709129
1.0786,0.083553,-0.002251,-0.075711,-0.007584,0.002401,0.006265,0.045796,-0.510754,-0.073916,-0.679057,-260.352411,0.169332,66.709129
1.0984,0.082811,-0.001977,-0.075205,-0.007584,0.002395,0.006307,0.044743,-0.510695,-0.075514,-0.685623,-260.35632,0.181019,66.706053
1.1185,0.082607,-0.001789,-0.075187,-0.007585,0.002385,0.00636,0.044502,-0.510544,-0.075222,-0.685623,-260.35632,0.181019,66.706053
1.1384,0.082866,-0.001835,-0.073835,-0.007586,0.002376,0.006403,0.044502,-0.510544,-0.075222,-0.685623,-260.35632,0.181019,66.706053
1.1587,0.08283,-0.001776,-0.07306,-0.007586,0.002369,0.006439,0.044937,-0.510322,-0.073572,-0.688981,-260.360246,0.189745,66.702967
1.1792,0.082151,-0.00154,-0.072397,-0.007587,0.00236,0.006487,0.045176,-0.510346,-0.07333,-0.688981,-260.360246,0.189745,66.702967
1.1984,0.082256,-0.001777,-0.074465,-0.007587,0.002352,0.006526,0.045022,-0.51011,-0.07219,-0.693108,-260.364171,0.203269,66.699885
1.2185,0.082297,-0.001888,-0.074198,-0.007587,0.002344,0.006576,0.044367,-0.510336,-0.074246,-0.693108,-260.364171,0.203269,66.699885
1.2389,0.082163,-0.001989,-0.072829,-0.007587,0.002338,0.006618,0.044367,-0.510336,-0.074246,-0.693108,-260.364171,0.203269,66.699885
1.2589,0.081616,-0.001533,-0.07316,-0.007587,0.002332,0.006651,0.044744,-0.510516,-0.072556,-0.695919,-260.368125,0.212121,66.69678
1.2795,0.081518,-0.00139,-0.072166,-0.007587,0.00233,0.006693,0.044541,-0.510359,-0.072774,-0.695919,-260.368125,0.212121,66.69678
1.2986,0.080621,-0.001336,-0.07346,-0.007586,0.002327,0.006728,0.044507,-0.50997,-0.071952,-0.70033,-260.372082,0.224177,66.693677
1.3187,0.080718,-0.001308,-0.072873,-0.007587,0.002315,0.006763,0.043295,-0.509957,-0.073317,-0.70033,-260.372082,0.224177,66.693677
1.3389,0.080836,-0.001435,-0.073515,-0.007586,0.002306,0.006793,0.043295,-0.509957,-0.073317,-0.70033,-260.372082,0.224177,66.693677
1.3588,0.08059,-0.001167,-0.07148,-0.007586,0.002297,0.006817,0.043069,-0.509937,-0.073234,-0.703554,-260.376054,0.230695,66.690566
1.379,0.080305,-0.001089,-0.07298,-0.007586,0.00229,0.006842,0.04348,-0.509894,-0.072487,-0.703554,-260.376054,0.230695,66.690566
1.3987,0.07977,-0.000826,-0.073628,-0.007585,0.002283,0.006863,0.042883,-0.509641,-0.072763,-0.705454,-260.380033,0.241184,66.687446
1.4187,0.079751,-0.001287,-0.072487,-0.007585,0.002267,0.006881,0.042298,-0.509457,-0.07354,-0.705454,-260.380033,0.241184,66.687446
1.439,0.079596,-0.001131,-0.073583,-0.007585,0.002252,0.006896,0.042298,-0.509457,-0.07354,-0.705454,-260.380033,0.241184,66.687446
1.459,0.079135,-0.000815,-0.072512,-0.007585,0.002241,0.006909,0.041792,-0.509632,-0.073296,-0.706555,-260.38402,0.246414,66.68432
1.4787,0.079026,-0.000979,-0.071312,-0.007584,0.002233,0.006923,0.041917,-0.509555,-0.072944,-0.706555,-260.38402,0.246414,66.68432
1.4984,0.078954,-0.000633,-0.070247,-0.007583,0.002227,0.006935,0.042451,-0.509595,-0.071091,-0.705538,-260.388009,0.255266,66.681181
1.5188,0.078605,-0.000541,-0.069901,-0.007582,0.002221,0.006947,0.043086,-0.50939,-0.070308,-0.705538,-260.388009,0.255266,66.681181
1.5388,0.079015,-0.00062,-0.069916,-0.007581,0.002216,0.006956,0.043086,-0.50939,-0.070308,-0.705538,-260.388009,0.255266,66.681181
1.5588,0.077822,-0.000555,-0.07095,-0.007581,0.002212,0.006965,0.043078,-0.509259,-0.069627,-0.705824,-260.391991,0.258865,66.678046
1.5786,0.077717,-0.000658,-0.07269,-0.00758,0.002205,0.006973,0.042462,-0.509251,-0.070137,-0.705824,-260.391991,0.258865,66.678046
1.5986,0.077457,-0.000273,-0.069369,-0.00758,0.002199,0.00698,0.040443,-0.509224,-0.072469,-0.706154,-260.395974,0.263101,66.674907
1.6186,0.077391,-0.000548,-0.071727,-0.007579,0.00219,0.006987,0.041952,-0.509057,-0.069625,-0.706154,-260.395974,0.263101,66.674907
1.639,0.077797,-0.000442,-0.070116,-0.007578,0.002182,0.006993,0.041952,-0.509057,-0.069625,-0.706154,-260.395974,0.263101,66.674907
1.6586,0.077068,-0.00044,-0.070258,-0.007578,0.002175,0.006999,0.041757,-0.509074,-0.069824,-0.705981,-260.399957,0.265882,66.671766
1.6787,0.077322,-0.000216,-0.070427,-0.007577,0.00217,0.007005,0.041521,-0.509105,-0.069968,-0.705981,-260.399957,0.265882,66.671766
1.6989,0.076364,0.000212,-0.070565,-0.007576,0.002166,0.00701,0.041198,-0.508866,-0.070205,-0.705162,-260.40395,0.270216,66.66861
1.7189,0.076675,-4e-05,-0.071117,-0.007576,0.002148,0.007013,0.040456,-0.508542,-0.070527,-0.705162,-260.40395,0.270216,66.66861
1.7389,0.076892,0.00013,-0.071854,-0.007575,0.002132,0.007017,0.040456,-0.508542,-0.070527,-0.705162,-260.40395,0.270216,66.66861
1.7586,0.076126,1e-05,-0.071254,-0.007574,0.002119,0.00702,0.03997,-0.508441,-0.071563,-0.705092,-260.407917,0.272219,66.665474
1.7786,0.075835,0.000203,-0.069151,-0.007573,0.002107,0.007023,0.039871,-0.508533,-0.071402,-0.705092,-260.407917,0.272219,66.665474
1.799,0.075359,0.00021,-0.068059,-0.007572,0.002096,0.007027,0.04036,-0.508494,-0.068927,-0.702077,-260.411876,0.278771,66.66233
1.8193,0.075505,4.3e-05,-0.068877,-0.007571,0.002093,0.007032,0.040636,-0.508594,-0.068125,-0.702077,-260.411876,0.278771,66.66233
1.8389,0.075655,9.3e-05,-0.069692,-0.00757,0.00209,0.007035,0.040636,-0.508594,-0.068125,-0.702077,-260.411876,0.278771,66.66233
1.8589,0.075154,0.000569,-0.067751,-0.007569,0.002087,0.007039,0.039832,-0.508559,-0.069398,-0.70076,-260.415843,0.282193,66.659173
1.8786,0.074724,0.000269,-0.069339,-0.007568,0.00208,0.007041,0.040125,-0.508423,-0.068683,-0.70076,-260.415843,0.282193,66.659173
1.8986,0.074497,0.0006,-0.067431,-0.007568,0.002074,0.007044,0.039154,-0.508423,-0.069116,-0.700825,-260.419802,0.284295,66.65602
1.9188,0.074397,0.000852,-0.067613,-0.007567,0.002065,0.007046,0.040038,-0.508253,-0.067564,-0.700825,-260.419802,0.284295,66.65602
1.9388,0.074253,0.000381,-0.068615,-0.007566,0.002058,0.007048,0.040038,-0.508253,-0.067564,-0.700825,-260.419802,0.284295,66.65602
1.9587,0.073809,0.000867,-0.066935,-0.007565,0.002052,0.00705,0.038978,-0.508311,-0.068321,-0.700121,-260.423756,0.286389,66.652869
1.9787,0.073509,0.000496,-0.067995,-0.007564,0.002044,0.007052,0.039236,-0.508168,-0.067721,-0.700121,-260.423756,0.286389,66.652869
1.9986,0.073488,0.000331,-0.067335,-0.007564,0.002037,0.007053,0.038622,-0.508243,-0.067771,-0.698889,-260.427711,0.289542,66.649709
2.0189,0.073114,0.00058,-0.06648,-0.007563,0.002039,0.007056,0.039113,-0.508486,-0.067362,-0.698889,-260.427711,0.289542,66.649709
2.0387,0.073103,0.000522,-0.066551,-0.007562,0.002041,0.007058,0.039113,-0.508486,-0.067362,-0.698889,-260.427711,0.289542,66.649709
2.0586,0.07238,0.000607,-0.067231,-0.007561,0.002043,0.00706,0.038877,-0.508243,-0.066256,-0.697973,-260.431657,0.291662,66.646553
2.0788,0.073139,0.000926,-0.067573,-0.007561,0.002038,0.007061,0.038531,-0.50823,-0.06662,-0.697973,-260.431657,0.291662,66.646553
2.0985,0.072178,0.000856,-0.066384,-0.00756,0.002034,0.007062,0.038467,-0.507829,-0.067348,-0.698958,-260.435615,0.291517,66.643389
2.1187,0.071791,0.001233,-0.064718,-0.00756,0.002024,0.007062,0.038345,-0.508001,-0.066454,-0.698958,-260.435615,0.291517,66.643389
2.1386,0.07212,0.00094,-0.065861,-0.007559,0.002016,0.007062,0.038345,-0.508001,-0.066454,-0.698958,-260.435615,0.291517,66.643389
2.1589,0.071395,0.001222,-0.067482,-0.007558,0.00201,0.007063,0.038246,-0.507849,-0.065566,-0.698387,-260.439562,0.292795,66.640232
2.1786,0.071614,0.001242,-0.065842,-0.007558,0.001996,0.007062,0.0377,-0.507741,-0.066319,-0.698387,-260.439562,0.292795,66.640232
2.1989,0.071219,0.0015,-0.066755,-0.007557,0.001985,0.007062,0.037823,-0.507573,-0.065618,-0.69665,-260.443501,0.295863,66.637073
2.2189,0.070596,0.0012,-0.066917,-0.007556,0.001965,0.007061,0.037242,-0.507378,-0.066646,-0.69665,-260.443501,0.295863,66.637073
2.2389,0.07108,0.001189,-0.066112,-0.007555,0.001948,0.00706,0.037242,-0.507378,-0.066646,-0.69665,-260.443501,0.295863,66.637073
2.2588,0.070581,0.001526,-0.065312,-0.007553,0.001934,0.00706,0.037077,-0.507594,-0.065817,-0.694828,-260.447438,0.298829,66.633909
2.2789,0.070054,0.001093,-0.065622,-0.007552,0.001926,0.007061,0.037131,-0.507497,-0.065576,-0.694828,-260.447438,0.298829,66.633909
2.2986,0.069921,0.001756,-0.067831,-0.007551,0.00192,0.007062,0.036375,-0.507732,-0.065397,-0.690959,-260.451353,0.304987,66.630746
2.3187,0.070189,0.001552,-0.066847,-0.007549,0.001899,0.007061,0.03543,-0.507125,-0.06761,-0.690959,-260.451353,0.304987,66.630746
2.3387,0.070128,0.001575,-0.064778,-0.007547,0.001881,0.00706,0.03543,-0.507125,-0.06761,-0.690959,-260.451353,0.304987,66.630746
2.3587,0.069058,0.001477,-0.066299,-0.007546,0.001866,0.00706,0.036805,-0.507255,-0.064484,-0.690072,-260.455269,0.306969,66.627578
2.3791,0.069208,0.001874,-0.065053,-0.007544,0.001862,0.007062,0.036137,-0.507304,-0.065197,-0.690072,-260.455269,0.306969,66.627578
2.3989,0.068476,0.001948,-0.065266,-0.007543,0.001859,0.007063,0.035818,-0.506972,-0.064827,-0.686053,-260.459161,0.313496,66.624412
2.419,0.068924,0.001809,-0.065976,-0.007541,0.001845,0.007063,0.035256,-0.506963,-0.065215,-0.686053,-260.459161,0.313496,66.624412
2.4388,0.068661,0.001619,-0.06569,-0.007539,0.001833,0.007063,0.035256,-0.506963,-0.065215,-0.686053,-260.459161,0.313496,66.624412
2.4586,0.068447,0.002059,-0.063994,-0.007538,0.001823,0.007063,0.034874,-0.507183,-0.065395,-0.685841,-260.46306,0.314665,66.621239
2.4786,0.068383,0.001947,-0.066254,-0.007536,0.001817,0.007064,0.03523,-0.507055,-0.064789,-0.685841,-260.46306,0.314665,66.621239
2.4988,0.067626,0.002269,-0.064681,-0.007535,0.001813,0.007065,0.034383,-0.50686,-0.06603,-0.683273,-260.466953,0.319148,66.618059
2.5189,0.067811,0.002181,-0.063506,-0.007533,0.001797,0.007064,0.034626,-0.506678,-0.064784,-0.683273,-260.466953,0.319148,66.618059
2.5386,0.067865,0.001983,-0.063545,-0.007532,0.001783,0.007063,0.034626,-0.506678,-0.064784,-0.683273,-260.466953,0.319148,66.618059
2.5592,0.06732,0.002339,-0.064109,-0.00753,0.001772,0.007063,0.03517,-0.506892,-0.06325,-0.682734,-260.470837,0.320595,66.614884
2.579,0.06705,0.002211,-0.063641,-0.007529,0.001767,0.007064,0.034921,-0.506768,-0.063565,-0.682734,-260.470837,0.320595,66.614884
2.5989,0.066695,0.002462,-0.063394,-0.007527,0.001762,0.007065,0.03438,-0.506685,-0.063416,-0.679705,-260.474701,0.325586,66.611712
2.619,0.066272,0.002312,-0.064708,-0.007526,0.001751,0.007065,0.034373,-0.506525,-0.063384,-0.679705,-260.474701,0.325586,66.611712
2.6391,0.06687,0.002175,-0.063977,-0.007524,0.001741,0.007064,0.034373,-0.506525,-0.063384,-0.679705,-260.474701,0.325586,66.611712
2.6586,0.065844,0.002363,-0.063146,-0.007523,0.001732,0.007065,0.033954,-0.506687,-0.063681,-0.679226,-260.47857,0.326928,66.608533
2.6791,0.065925,0.002376,-0.062231,-0.007521,0.001727,0.007065,0.033799,-0.50665,-0.06343,-0.679226,-260.47857,0.326928,66.608533
2.6991,0.065781,0.00235,-0.061056,-0.00752,0.001723,0.007066,0.033972,-0.506567,-0.062006,-0.677083,-260.48243,0.330666,66.605353
2.7186,0.065702,0.002605,-0.062564,-0.007519,0.001725,0.007067,0.034588,-0.506684,-0.06113,-0.677083,-260.48243,0.330666,66.605353
2.7389,0.065552,0.002388,-0.062231,-0.007518,0.001726,0.007068,0.034588,-0.506684,-0.06113,-0.677083,-260.48243,0.330666,66.605353
2.759,0.064625,0.002461,-0.062995,-0.007518,0.001728,0.007069,0.033526,-0.506534,-0.061935,-0.676565,-260.486288,0.33197,66.602171
2.779,0.06469,0.002597,-0.061969,-0.007517,0.001718,0.007068,0.033079,-0.50652,-0.062334,-0.676565,-260.486288,0.33197,66.602171
2.7989,0.064199,0.002732,-0.064068,-0.007515,0.001711,0.007068,0.03287,-0.506355,-0.061744,-0.677244,-260.490146,0.331757,66.598991
2.8191,0.064461,0.00278,-0.062261,-0.007513,0.001689,0.007065,0.031653,-0.50623,-0.063848,-0.677244,-260.490146,0.331757,66.598991
2.8391,0.064674,0.002587,-0.061497,-0.007511,0.001671,0.007064,0.031653,-0.50623,-0.063848,-0.677244,-260.490146,0.331757,66.598991
2.859,0.063721,0.002979,-0.061683,-0.007509,0.001656,0.007063,0.033021,-0.506358,-0.061201,-0.675946,-260.493999,0.333769,66.595809
2.8788,0.063966,0.003041,-0.062557,-0.007507,0.001649,0.007063,0.032683,-0.506222,-0.061364,-0.675946,-260.493999,0.333769,66.595809
2.8993,0.063597,0.002914,-0.062312,-0.007506,0.001643,0.007064,0.031848,-0.505894,-0.062333,-0.671661,-260.497833,0.340204,66.592626
2.9192,0.063699,0.003318,-0.061387,-0.007504,0.00163,0.007063,0.031827,-0.506073,-0.062302,-0.671661,-260.497833,0.340204,66.592626
2.9387,0.062797,0.002834,-0.061825,-0.007502,0.001618,0.007063,0.031827,-0.506073,-0.062302,-0.671661,-260.497833,0.340204,66.592626
2.9589,0.062753,0.003235,-0.061374,-0.0075,0.001609,0.007063,0.030977,-0.506104,-0.06153,-0.670878,-260.501666,0.341926,66.589439
2.9786,0.062376,0.003131,-0.061838,-0.007498,0.001596,0.007063,0.031142,-0.505972,-0.061432,-0.670878,-260.501666,0.341926,66.589439
2.9985,0.061874,0.003411,-0.059955,-0.007496,0.001585,0.007063,0.030624,-0.505828,-0.061614,-0.668409,-260.505487,0.346156,66.586251
3.0188,0.061862,0.003097,-0.061726,-0.007493,0.001569,0.007062,0.031242,-0.505684,-0.060091,-0.668409,-260.505487,0.346156,66.586251
3.0387,0.062205,0.003214,-0.061596,-0.007491,0.001555,0.007061,0.031242,-0.505684,-0.060091,-0.668409,-260.505487,0.346156,66.586251
3.0586,0.06191,0.00366,-0.059473,-0.007489,0.001543,0.007061,0.030502,-0.505734,-0.061301,-0.666706,-260.509302,0.349088,66.583061
3.079,0.061801,0.003156,-0.059903,-0.007486,0.001529,0.007061,0.030913,-0.505603,-0.060521,-0.666706,-260.509302,0.349088,66.583061
3.0987,0.060986,0.003279,-0.060565,-0.007484,0.001517,0.007061,0.031033,-0.505866,-0.059678,-0.663645,-260.513102,0.35422,66.579869
3.1187,0.061288,0.003236,-0.06288,-0.007482,0.00151,0.007062,0.030186,-0.50579,-0.060475,-0.663645,-260.513102,0.35422,66.579869
3.1388,0.061065,0.003483,-0.059467,-0.00748,0.001504,0.007062,0.030186,-0.50579,-0.060475,-0.663645,-260.513102,0.35422,66.579869
3.1588,0.060748,0.00357,-0.059544,-0.007478,0.001499,0.007063,0.030445,-0.505533,-0.059171,-0.661789,-260.516896,0.357451,66.576674
3.1791,0.060427,0.003518,-0.05952,-0.007476,0.001488,0.007063,0.030391,-0.505521,-0.059288,-0.661789,-260.516896,0.357451,66.576674
3.1988,0.059985,0.003691,-0.060383,-0.007474,0.001479,0.007062,0.029854,-0.505517,-0.059295,-0.660761,-260.520684,0.359988,66.573479
3.2189,0.059927,0.003919,-0.05958,-0.007471,0.001461,0.007061,0.029255,-0.505389,-0.060274,-0.660761,-260.520684,0.359988,66.573479
3.2391,0.059778,0.003932,-0.060432,-0.007468,0.001445,0.00706,0.029255,-0.505389,-0.060274,-0.660761,-260.520684,0.359988,66.573479
3.2586,0.059554,0.004283,-0.059296,-0.007465,0.001432,0.00706,0.028669,-0.505056,-0.060137,-0.659338,-260.524465,0.362488,66.570282
3.2793,0.059397,0.003582,-0.058206,-0.007461,0.001405,0.007058,0.028903,-0.50495,-0.059759,-0.659338,-260.524465,0.362488,66.570282
3.2987,0.058993,0.003999,-0.059117,-0.007457,0.001382,0.007056,0.029491,-0.505494,-0.057978,-0.655827,-260.52823,0.368195,66.567084
3.3186,0.058733,0.00389,-0.059605,-0.007454,0.001371,0.007057,0.028907,-0.505142,-0.059001,-0.655827,-260.52823,0.368195,66.567084
3.3388,0.058946,0.004047,-0.058826,-0.007451,0.001361,0.007057,0.028907,-0.505142,-0.059001,-0.655827,-260.52823,0.368195,66.567084
3.359,0.058205,0.003969,-0.056502,-0.007448,0.001352,0.007058,0.028655,-0.504994,-0.058531,-0.651996,-260.531979,0.374087,66.563882
3.3789,0.05843,0.003972,-0.058115,-0.007446,0.001345,0.007059,0.028926,-0.505077,-0.057667,-0.651996,-260.531979,0.374087,66.563882
3.3985,0.058126,0.004026,-0.056901,-0.007443,0.001338,0.007059,0.028573,-0.50511,-0.057889,-0.650103,-260.535721,0.378083,66.560678
3.4193,0.057962,0.004048,-0.057368,-0.007442,0.001336,0.007061,0.029061,-0.505143,-0.056978,-0.650103,-260.535721,0.378083,66.560678
3.439,0.057594,0.004013,-0.057998,-0.00744,0.001335,0.007062,0.029061,-0.505143,-0.056978,-0.650103,-260.535721,0.378083,66.560678
3.4588,0.057373,0.004349,-0.05806,-0.007439,0.001333,0.007063,0.027723,-0.505055,-0.057703,-0.649258,-260.539459,0.380049,66.557472
3.4786,0.056794,0.004356,-0.058227,-0.007436,0.001317,0.007061,0.027711,-0.50494,-0.057814,-0.649258,-260.539459,0.380049,66.557472
3.4985,0.056985,0.004232,-0.056368,-0.007433,0.001302,0.00706,0.026881,-0.504723,-0.058002,-0.649292,-260.543194,0.38104,66.554266
3.5187,0.057207,0.004291,-0.057096,-0.007431,0.001294,0.00706,0.028118,-0.504934,-0.056503,-0.649292,-260.543194,0.38104,66.554266
3.5388,0.056777,0.004315,-0.056672,-0.007429,0.001287,0.007061,0.028118,-0.504934,-0.056503,-0.649292,-260.543194,0.38104,66.554266
3.559,0.056271,0.004626,-0.057024,-0.007427,0.001282,0.007061,0.027582,-0.504794,-0.056377,-0.646915,-260.54692,0.384718,66.551059
3.5787,0.05617,0.004501,-0.057001,-0.007423,0.001263,0.00706,0.027392,-0.504684,-0.056607,-0.646915,-260.54692,0.384718,66.551059
3.5992,0.05559,0.00426,-0.057025,-0.00742,0.001248,0.007059,0.026882,-0.504616,-0.056776,-0.645573,-260.550638,0.387463,66.547851
3.6189,0.055316,0.004487,-0.054569,-0.007417,0.001236,0.007058,0.026543,-0.504881,-0.056991,-0.645573,-260.550638,0.387463,66.547851
3.6394,0.055333,0.00444,-0.057522,-0.007414,0.001226,0.007058,0.026543,-0.504881,-0.056991,-0.645573,-260.550638,0.387463,66.547851
3.6589,0.05495,0.004506,-0.057273,-0.007411,0.001218,0.007059,0.025706,-0.504647,-0.057227,-0.642994,-260.554346,0.39148,66.544641
3.6787,0.055336,0.004552,-0.057165,-0.007407,0.001196,0.007057,0.025691,-0.504643,-0.057212,-0.642994,-260.554346,0.39148,66.544641
3.6987,0.054722,0.004687,-0.056754,-0.007402,0.001177,0.007056,0.025965,-0.504563,-0.05694,-0.640956,-260.558043,0.395384,66.54143
3.7185,0.054107,0.004598,-0.056507,-0.007398,0.001157,0.007055,0.025796,-0.504495,-0.056759,-0.640956,-260.558043,0.395384,66.54143
3.7389,0.054504,0.004464,-0.056661,-0.007394,0.001141,0.007055,0.025796,-0.504495,-0.056759,-0.640956,-260.558043,0.395384,66.54143
3.7586,0.053871,0.004889,-0.056368,-0.00739,0.001127,0.007055,0.025316,-0.504651,-0.056366,-0.637849,-260.561733,0.4003,66.538211
3.7788,0.053655,0.004831,-0.054289,-0.007385,0.001111,0.007055,0.025207,-0.504499,-0.056333,-0.637849,-260.561733,0.4003,66.538211
3.7991,0.053525,0.00473,-0.055707,-0.007381,0.001098,0.007055,0.025748,-0.504369,-0.054065,-0.634219,-260.5654,0.406581,66.534995
3.8188,0.053201,0.004565,-0.055175,-0.007378,0.001086,0.007055,0.025171,-0.504467,-0.055554,-0.634219,-260.5654,0.406581,66.534995
3.8389,0.05376,0.004844,-0.054457,-0.007374,0.001076,0.007056,0.025171,-0.504467,-0.055554,-0.634219,-260.5654,0.406581,66.534995
3.859,0.052787,0.005053,-0.054735,-0.007371,0.001068,0.007057,0.025695,-0.504338,-0.054163,-0.632218,-260.569059,0.410287,66.531776
3.879,0.053205,0.004883,-0.055078,-0.007368,0.001056,0.007057,0.025326,-0.504267,-0.054365,-0.632218,-260.569059,0.410287,66.531776
3.8987,0.052514,0.005093,-0.054953,-0.007365,0.001046,0.007057,0.024898,-0.504296,-0.054853,-0.630316,-260.5727,0.414322,66.528563
3.919,0.052383,0.005051,-0.053787,-0.00736,0.001026,0.007056,0.024527,-0.504149,-0.054932,-0.630316,-260.5727,0.414322,66.528563
3.9389,0.0524,0.005296,-0.056153,-0.007355,0.001009,0.007055,0.024527,-0.504149,-0.054932,-0.630316,-260.5727,0.414322,66.528563
3.9588,0.051411,0.005548,-0.053509,-0.007351,0.000994,0.007055,0.023471,-0.50384,-0.055858,-0.6288,-260.576343,0.417195,66.525341
3.9791,0.051717,0.005021,-0.05156,-0.007343,0.000961,0.007053,0.023706,-0.503785,-0.054867,-0.6288,-260.576343,0.417195,66.525341
3.9989,0.050878,0.004769,-0.053725,-0.007336,0.000932,0.007051,0.025201,-0.504257,-0.051336,-0.624992,-260.579985,0.423624,66.5221
4.0191,0.051117,0.00496,-0.05542,-0.007333,0.000937,0.007054,0.023631,-0.504472,-0.053502,-0.624992,-260.579985,0.423624,66.5221
4.0386,0.050773,0.004963,-0.053699,-0.007332,0.00094,0.007057,0.023631,-0.504472,-0.053502,-0.624992,-260.579985,0.423624,66.5221
4.0589,0.050857,0.005293,-0.053861,-0.00733,0.000943,0.007059,0.023098,-0.504247,-0.053406,-0.620166,-260.583566,0.43111,66.518892
4.0789,0.050994,0.005517,-0.055846,-0.007326,0.000927,0.007058,0.023187,-0.504126,-0.053557,-0.620166,-260.583566,0.43111,66.518892
4.0988,0.049932,0.005256,-0.052884,-0.007322,0.000913,0.007058,0.022296,-0.503645,-0.055621,-0.621891,-260.587173,0.43076,66.515666
4.1191,0.050111,0.005387,-0.05258,-0.007317,0.000895,0.007056,0.022901,-0.503994,-0.053117,-0.621891,-260.587173,0.43076,66.515666
4.1387,0.050184,0.00531,-0.052407,-0.007312,0.000879,0.007056,0.022901,-0.503994,-0.053117,-0.621891,-260.587173,0.43076,66.515666
4.1587,0.049348,0.005562,-0.052351,-0.007308,0.000865,0.007056,0.023165,-0.503936,-0.052111,-0.619707,-260.59077,0.434385,66.512438
4.1795,0.04969,0.005662,-0.052625,-0.007303,0.00085,0.007056,0.022924,-0.503849,-0.052175,-0.619707,-260.59077,0.434385,66.512438
4.1985,0.04922,0.00562,-0.053228,-0.007299,0.000836,0.007056,0.022632,-0.503592,-0.052399,-0.616163,-260.594349,0.440401,66.509209
4.219,0.048788,0.005495,-0.051605,-0.007291,0.000807,0.007053,0.022125,-0.50365,-0.05314,-0.616163,-260.594349,0.440401,66.509209
4.2391,0.049374,0.005697,-0.053122,-0.007284,0.000783,0.007052,0.022125,-0.50365,-0.05314,-0.616163,-260.594349,0.440401,66.509209
4.2588,0.048674,0.005557,-0.050972,-0.007277,0.000763,0.007052,0.021991,-0.503533,-0.052827,-0.61408,-260.59792,0.444097,66.505977
4.2785,0.048269,0.005576,-0.055284,-0.007272,0.000749,0.007053,0.02224,-0.503628,-0.052039,-0.61408,-260.59792,0.444097,66.505977
4.2984,0.047953,0.006012,-0.052456,-0.007268,0.000738,0.007053,0.019858,-0.503608,-0.05506,-0.608468,-260.601461,0.453185,66.502745
4.3189,0.048135,0.005779,-0.050967,-0.007257,0.0007,0.00705,0.021079,-0.503313,-0.052679,-0.608468,-260.601461,0.453185,66.502745
4.3393,0.047992,0.005685,-0.050837,-0.007247,0.000669,0.007049,0.021079,-0.503313,-0.052679,-0.608468,-260.601461,0.453185,66.502745
4.359,0.047528,0.005642,-0.051365,-0.007238,0.000643,0.007048,0.021774,-0.50361,-0.050542,-0.606874,-260.605,0.45655,66.499506
4.3791,0.047801,0.005864,-0.051973,-0.007236,0.000642,0.007051,0.021563,-0.503635,-0.050843,-0.606874,-260.605,0.45655,66.499506
4.3985,0.046757,0.00549,-0.050846,-0.007233,0.000642,0.007054,0.021078,-0.503415,-0.051749,-0.599538,-260.608496,0.468336,66.496272
4.4188,0.047121,0.005581,-0.050961,-0.00723,0.00064,0.007055,0.020847,-0.50381,-0.050916,-0.599538,-260.608496,0.468336,66.496272
4.4386,0.04706,0.005718,-0.050453,-0.007228,0.000638,0.007057,0.020847,-0.50381,-0.050916,-0.599538,-260.608496,0.468336,66.496272
4.459,0.046389,0.005853,-0.051461,-0.007225,0.000637,0.007058,0.021039,-0.503591,-0.050157,-0.600131,-260.612001,0.469122,66.493029
4.4791,0.046425,0.005949,-0.050462,-0.00722,0.000621,0.007057,0.020647,-0.503538,-0.050651,-0.600131,-260.612001,0.469122,66.493029
4.4989,0.046129,0.005786,-0.049236,-0.007216,0.000608,0.007057,0.020471,-0.50337,-0.050236,-0.600397,-260.615504,0.470426,66.489786
4.5189,0.045806,0.005957,-0.04892,-0.007213,0.000604,0.007058,0.020966,-0.503574,-0.049315,-0.600397,-260.615504,0.470426,66.489786
4.5389,0.046083,0.005829,-0.048998,-0.007211,0.000601,0.007059,0.020966,-0.503574,-0.049315,-0.600397,-260.615504,0.470426,66.489786
4.5588,0.045376,0.005791,-0.051393,-0.007209,0.000598,0.00706,0.020803,-0.503518,-0.048702,-0.598247,-260.618996,0.474018,66.486543
4.5788,0.045267,0.006049,-0.050395,-0.007204,0.000582,0.007058,0.020115,-0.503521,-0.04975,-0.598247,-260.618996,0.474018,66.486543
4.5985,0.045217,0.005931,-0.048668,-0.007199,0.000568,0.007057,0.019348,-0.503273,-0.05017,-0.597884,-260.622485,0.475631,66.4833
4.6187,0.044698,0.005713,-0.047753,-0.007195,0.000556,0.007057,0.020299,-0.503446,-0.048792,-0.597884,-260.622485,0.475631,66.4833
4.639,0.044847,0.006315,-0.050101,-0.007191,0.000547,0.007057,0.020299,-0.503446,-0.048792,-0.597884,-260.622485,0.475631,66.4833
4.6586,0.044185,0.006065,-0.049489,-0.007188,0.000539,0.007058,0.019006,-0.503006,-0.049804,-0.595534,-260.625962,0.479404,66.480055
4.6789,0.044237,0.006099,-0.049071,-0.007175,0.000497,0.007053,0.018951,-0.503125,-0.049643,-0.595534,-260.625962,0.479404,66.480055
4.6987,0.043974,0.0061,-0.048803,-0.007163,0.000461,0.00705,0.018993,-0.503258,-0.048846,-0.593511,-260.62943,0.483208,66.476809
4.7189,0.043449,0.005927,-0.048649,-0.007155,0.000442,0.00705,0.019074,-0.503288,-0.048796,-0.593511,-260.62943,0.483208,66.476809
4.7387,0.043564,0.005966,-0.049549,-0.007149,0.000426,0.00705,0.019074,-0.503288,-0.048796,-0.593511,-260.62943,0.483208,66.476809
4.7587,0.043236,0.006167,-0.047315,-0.007143,0.000413,0.007051,0.018007,-0.503374,-0.049254,-0.587185,-260.632864,0.492556,66.473564
4.7786,0.043126,0.005971,-0.049375,-0.007135,0.000393,0.00705,0.018421,-0.503325,-0.048434,-0.587185,-260.632864,0.492556,66.473564
4.799,0.04281,0.006017,-0.048853,-0.007127,0.000376,0.00705,0.017728,-0.503383,-0.049151,-0.583817,-260.636286,0.499057,66.470313
4.8189,0.042248,0.006313,-0.047498,-0.007118,0.000355,0.007049,0.017878,-0.503374,-0.048868,-0.583817,-260.636286,0.499057,66.470313
4.8388,0.042891,0.006473,-0.047683,-0.00711,0.000337,0.007049,0.017878,-0.503374,-0.048868,-0.583817,-260.636286,0.499057,66.470313
4.8587,0.041925,0.006313,-0.046531,-0.007103,0.000322,0.007049,0.018284,-0.502918,-0.047388,-0.58121,-260.639695,0.50386,66.467059
4.8788,0.042044,0.006149,-0.046522,-0.007095,0.0003,0.007048,0.018217,-0.503002,-0.047007,-0.58121,-260.639695,0.50386,66.467059
4.8985,0.041479,0.00622,-0.048253,-0.007087,0.000281,0.007048,0.018101,-0.503278,-0.046297,-0.577389,-260.643083,0.511052,66.463804
4.9186,0.041596,0.006114,-0.046435,-0.007074,0.00025,0.007046,0.016975,-0.503193,-0.04807,-0.577389,-260.643083,0.511052,66.463804
4.939,0.04177,0.006834,-0.048846,-0.007063,0.000225,0.007045,0.016975,-0.503193,-0.04807,-0.577389,-260.643083,0.511052,66.463804
4.9591,0.040816,0.006055,-0.048114,-0.007054,0.000204,0.007045,0.016573,-0.502532,-0.048552,-0.574303,-260.646457,0.516369,66.460547
4.9791,0.04104,0.006483,-0.04752,-0.007035,0.000158,0.007041,0.016422,-0.502864,-0.04834,-0.574303,-260.646457,0.516369,66.460547
4.9989,0.040611,0.006269,-0.046025,-0.007019,0.00012,0.007039,0.01659,-0.502924,-0.047295,-0.568496,-260.649799,0.526431,66.45729
5.0189,0.04063,0.00646,-0.046153,-0.007016,0.000119,0.007042,0.017087,-0.503167,-0.046126,-0.568496,-260.649799,0.526431,66.45729
5.0391,0.040954,0.005915,-0.047721,-0.007013,0.000117,0.007045,0.017087,-0.503167,-0.046126,-0.568496,-260.649799,0.526431,66.45729
5.0593,0.039933,0.005863,-0.046398,-0.00701,0.000116,0.007047,0.016334,-0.503486,-0.047427,-0.561838,-260.653107,0.53703,66.454031
5.079,0.039903,0.006248,-0.045662,-0.007007,0.000117,0.007049,0.016278,-0.503525,-0.046975,-0.561838,-260.653107,0.53703,66.454031
5.0986,0.039023,0.006793,-0.044757,-0.007004,0.000117,0.00705,0.016401,-0.503206,-0.045438,-0.562615,-260.656427,0.538496,66.450761
5.1188,0.039601,0.006407,-0.046315,-0.006989,7.8e-05,0.007046,0.01621,-0.502739,-0.044805,-0.562615,-260.656427,0.538496,66.450761
5.1389,0.039653,0.006498,-0.047773,-0.006976,4.5e-05,0.007043,0.01621,-0.502739,-0.044805,-0.562615,-260.656427,0.538496,66.450761
5.159,0.039228,0.006405,-0.045633,-0.006965,1.8e-05,0.007042,0.015006,-0.502901,-0.047478,-0.563245,-260.659736,0.538983,66.447501
5.1788,0.03875,0.006614,-0.046075,-0.00695,-1.4e-05,0.007039,0.01536,-0.502965,-0.046698,-0.563245,-260.659736,0.538983,66.447501
5.1991,0.038555,0.006226,-0.045944,-0.006937,-4.1e-05,0.007038,0.01504,-0.502834,-0.045852,-0.555051,-260.663002,0.551325,66.444242
5.2192,0.038107,0.006526,-0.045034,-0.006928,-5.7e-05,0.007038,0.015111,-0.503198,-0.045924,-0.555051,-260.663002,0.551325,66.444242
5.2391,0.038308,0.006417,-0.044906,-0.00692,-7e-05,0.007038,0.015111,-0.503198,-0.045924,-0.555051,-260.663002,0.551325,66.444242
5.2586,0.037952,0.006801,-0.044832,-0.006913,-8e-05,0.007039,0.015125,-0.503058,-0.044612,-0.550406,-260.666254,0.559038,66.440973
5.2786,0.038152,0.006312,-0.044159,-0.006901,-0.000105,0.007038,0.015079,-0.502905,-0.044668,-0.550406,-260.666254,0.559038,66.440973
5.2992,0.037428,0.006766,-0.045396,-0.006891,-0.000125,0.007037,0.015419,-0.503184,-0.043935,-0.54795,-260.669491,0.564723,66.437702
5.3188,0.037351,0.006349,-0.046134,-0.006871,-0.000168,0.007033,0.014374,-0.502751,-0.045254,-0.54795,-260.669491,0.564723,66.437702
5.339,0.037374,0.006386,-0.045008,-0.006853,-0.000204,0.00703,0.014374,-0.502751,-0.045254,-0.54795,-260.669491,0.564723,66.437702
5.3589,0.036871,0.006447,-0.044367,-0.006838,-0.000234,0.007029,0.01414,-0.50309,-0.044714,-0.544516,-260.672715,0.570563,66.434425
5.3786,0.036917,0.006624,-0.044512,-0.006829,-0.000247,0.00703,0.014152,-0.503073,-0.044537,-0.544516,-260.672715,0.570563,66.434425
5.3986,0.036039,0.006475,-0.043755,-0.006821,-0.000257,0.007031,0.014006,-0.502869,-0.044289,-0.53568,-260.675878,0.584758,66.431163
5.4187,0.036535,0.006636,-0.044545,-0.006808,-0.000279,0.00703,0.013745,-0.503021,-0.043792,-0.53568,-260.675878,0.584758,66.431163
5.4389,0.036384,0.006664,-0.045097,-0.006797,-0.000298,0.007029,0.013745,-0.503021,-0.043792,-0.53568,-260.675878,0.584758,66.431163
5.4587,0.035738,0.006561,-0.043079,-0.006788,-0.000313,0.007029,0.013107,-0.502816,-0.044802,-0.534351,-260.679047,0.588385,66.427884
5.4787,0.035941,0.006611,-0.041972,-0.00677,-0.000346,0.007027,0.013346,-0.502876,-0.044067,-0.534351,-260.679047,0.588385,66.427884
5.4986,0.035451,0.006373,-0.043455,-0.006756,-0.000373,0.007025,0.014325,-0.50294,-0.041748,-0.530284,-260.682194,0.596241,66.424603
5.5186,0.035484,0.006689,-0.043395,-0.006749,-0.00038,0.007026,0.013375,-0.503128,-0.043296,-0.530284,-260.682194,0.596241,66.424603
5.5392,0.03532,0.006492,-0.044227,-0.006744,-0.000385,0.007028,0.013375,-0.503128,-0.043296,-0.530284,-260.682194,0.596241,66.424603
5.5586,0.034647,0.006402,-0.043294,-0.006739,-0.00039,0.007029,0.012487,-0.503012,-0.043931,-0.525518,-260.68531,0.604195,66.421328
5.5787,0.034821,0.006292,-0.043001,-0.006719,-0.000426,0.007025,0.012489,-0.503055,-0.043647,-0.525518,-260.68531,0.604195,66.421328
5.5989,0.034165,0.006678,-0.041952,-0.006702,-0.000455,0.007023,0.012682,-0.50324,-0.042777,-0.524946,-260.68843,0.607326,66.41804
5.6195,0.034138,0.006432,-0.042338,-0.006689,-0.000478,0.007022,0.012757,-0.502905,-0.042012,-0.524946,-260.68843,0.607326,66.41804
5.6387,0.034349,0.006719,-0.041822,-0.006677,-0.000497,0.007021,0.012757,-0.502905,-0.042012,-0.524946,-260.68843,0.607326,66.41804
5.6587,0.033733,0.006595,-0.041507,-0.006667,-0.000513,0.007021,0.012746,-0.502843,-0.041529,-0.519668,-260.69151,0.615973,66.414764
5.6788,0.033578,0.006377,-0.041043,-0.006657,-0.00053,0.007021,0.012642,-0.502894,-0.041486,-0.519668,-260.69151,0.615973,66.414764
5.6987,0.033307,0.006891,-0.041225,-0.006648,-0.000544,0.007021,0.01244,-0.503201,-0.04082,-0.515238,-260.694569,0.624069,66.411485
5.7185,0.033289,0.006748,-0.042147,-0.00663,-0.000576,0.007018,0.012291,-0.502723,-0.041177,-0.515238,-260.694569,0.624069,66.411485
5.7386,0.033104,0.006684,-0.041474,-0.006614,-0.000603,0.007017,0.012291,-0.502723,-0.041177,-0.515238,-260.694569,0.624069,66.411485
5.759,0.032685,0.006256,-0.041561,-0.0066,-0.000626,0.007016,0.01168,-0.502889,-0.04118,-0.512927,-260.69762,0.628517,66.408198
5.7789,0.032566,0.006595,-0.041862,-0.006584,-0.000649,0.007014,0.011572,-0.50306,-0.041302,-0.512927,-260.69762,0.628517,66.408198
5.7989,0.032663,0.006589,-0.042835,-0.00657,-0.000669,0.007014,0.011012,-0.50297,-0.041639,-0.506226,-260.70063,0.639657,66.404917
5.8189,0.031955,0.006635,-0.041808,-0.006536,-0.00072,0.007008,0.01083,-0.502946,-0.042717,-0.506226,-260.70063,0.639657,66.404917
5.8387,0.032331,0.006165,-0.042243,-0.006508,-0.000763,0.007004,0.01083,-0.502946,-0.042717,-0.506226,-260.70063,0.639657,66.404917
5.8587,0.03163,0.006547,-0.040051,-0.006484,-0.000798,0.007003,0.010517,-0.503397,-0.041949,-0.503043,-260.703627,0.645949,66.401629
5.8788,0.031693,0.006306,-0.041742,-0.006472,-0.000809,0.007004,0.010764,-0.503257,-0.041152,-0.503043,-260.703627,0.645949,66.401629
5.8986,0.030961,0.006562,-0.040541,-0.006462,-0.000819,0.007005,0.010205,-0.503266,-0.041521,-0.4924,-260.706549,0.66409,66.398359
5.9185,0.031105,0.006762,-0.040538,-0.006435,-0.000859,0.007002,0.010272,-0.503042,-0.040619,-0.4924,-260.706549,0.66409,66.398359
5.9386,0.03107,0.006762,-0.040351,-0.006411,-0.000892,0.007,0.010272,-0.503042,-0.040619,-0.4924,-260.706549,0.66409,66.398359
5.9585,0.030733,0.005981,-0.038604,-0.006391,-0.00092,0.006999,0.010225,-0.502846,-0.040058,-0.491542,-260.709481,0.667863,66.395067
5.9787,0.030535,0.006501,-0.040228,-0.006385,-0.000923,0.007002,0.01053,-0.503172,-0.039431,-0.491542,-260.709481,0.667863,66.395067
5.9985,0.030225,0.006277,-0.039987,-0.00638,-0.000926,0.007004,0.00982,-0.503107,-0.040006,-0.483431,-260.712355,0.6825,66.391788
6.0191,0.029875,0.006751,-0.03998,-0.00636,-0.00095,0.007002,0.009825,-0.503298,-0.039977,-0.483431,-260.712355,0.6825,66.391788
6.0388,0.030228,0.006468,-0.038703,-0.006344,-0.000969,0.007001,0.009825,-0.503298,-0.039977,-0.483431,-260.712355,0.6825,66.391788
6.0587,0.029585,0.006558,-0.040675,-0.00633,-0.000986,0.007001,0.010226,-0.503178,-0.03841,-0.483723,-260.715237,0.684196,66.388495
6.0786,0.029882,0.006278,-0.038881,-0.006306,-0.001018,0.006998,0.009636,-0.503117,-0.039294,-0.483723,-260.715237,0.684196,66.388495
6.0989,0.029353,0.006345,-0.037844,-0.006286,-0.001045,0.006997,0.009856,-0.50336,-0.038658,-0.479338,-260.718087,0.693495,66.385207
6.1188,0.029038,0.006432,-0.040749,-0.006287,-0.001038,0.007,0.010029,-0.503297,-0.037905,-0.479338,-260.718087,0.693495,66.385207
6.1388,0.029522,0.006411,-0.038601,-0.006288,-0.001032,0.007003,0.010029,-0.503297,-0.037905,-0.479338,-260.718087,0.693495,66.385207
6.1591,0.028721,0.006342,-0.038301,-0.006289,-0.001027,0.007005,0.009576,-0.503243,-0.038308,-0.474442,-260.720908,0.702196,66.38192
6.1786,0.028608,0.006029,-0.038548,-0.006269,-0.001053,0.007002,0.00939,-0.503263,-0.038272,-0.474442,-260.720908,0.702196,66.38192
6.1994,0.028265,0.006309,-0.038391,-0.006252,-0.001075,0.007,0.008752,-0.503617,-0.038325,-0.477153,-260.723744,0.700801,66.378623
6.2189,0.027969,0.006264,-0.037351,-0.006216,-0.00112,0.006994,0.008686,-0.503342,-0.038375,-0.477153,-260.723744,0.700801,66.378623
6.239,0.028298,0.006377,-0.037978,-0.006185,-0.001157,0.00699,0.008686,-0.503342,-0.038375,-0.477153,-260.723744,0.700801,66.378623
6.2592,0.027747,0.006253,-0.037769,-0.006159,-0.001187,0.006988,0.008672,-0.50329,-0.037687,-0.473108,-260.726547,0.707799,66.37534
6.2793,0.027673,0.005741,-0.036775,-0.006133,-0.001218,0.006986,0.008567,-0.503333,-0.037686,-0.473108,-260.726547,0.707799,66.37534
6.2987,0.02734,0.006231,-0.037642,-0.00611,-0.001243,0.006985,0.008727,-0.503945,-0.036554,-0.463794,-260.729284,0.724859,66.37207
6.3187,0.027337,0.006277,-0.037305,-0.006081,-0.001274,0.006983,0.008189,-0.503457,-0.037534,-0.463794,-260.729284,0.724859,66.37207
6.339,0.027161,0.006164,-0.038871,-0.006056,-0.001299,0.006982,0.008189,-0.503457,-0.037534,-0.463794,-260.729284,0.724859,66.37207
6.3587,0.026877,0.006157,-0.03693,-0.006035,-0.00132,0.006981,0.007084,-0.503493,-0.038578,-0.459414,-260.732007,0.733731,66.368784
6.3787,0.027022,0.006211,-0.036265,-0.005986,-0.00137,0.006976,0.007444,-0.503499,-0.037879,-0.459414,-260.732007,0.733731,66.368784
6.3989,0.026176,0.006237,-0.036656,-0.005944,-0.00141,0.006972,0.008338,-0.503488,-0.036043,-0.45377,-260.734684,0.746615,66.365505
6.4192,0.026179,0.006061,-0.038868,-0.005913,-0.001442,0.006971,0.007552,-0.503428,-0.036589,-0.45377,-260.734684,0.746615,66.365505
6.4388,0.026347,0.006339,-0.036914,-0.005886,-0.001467,0.006971,0.007552,-0.503428,-0.036589,-0.45377,-260.734684,0.746615,66.365505
6.4588,0.025886,0.006269,-0.037209,-0.005864,-0.001488,0.006972,0.007275,-0.503364,-0.036623,-0.446806,-260.737309,0.761712,66.362234
6.4789,0.025521,0.006175,-0.036642,-0.005819,-0.001533,0.006968,0.0071,-0.503375,-0.036828,-0.446806,-260.737309,0.761712,66.362234
6.4989,0.02536,0.006067,-0.034803,-0.00578,-0.00157,0.006966,0.00665,-0.503523,-0.036421,-0.441243,-260.739899,0.77524,66.358955
6.5187,0.025406,0.00601,-0.03591,-0.005783,-0.001559,0.006972,0.007522,-0.503617,-0.034931,-0.441243,-260.739899,0.77524,66.358955
6.5389,0.025761,0.006221,-0.036122,-0.005785,-0.00155,0.006976,0.007522,-0.503617,-0.034931,-0.441243,-260.739899,0.77524,66.358955
6.5588,0.024798,0.006032,-0.036924,-0.005787,-0.001543,0.006979,0.0071,-0.503503,-0.035832,-0.434822,-260.742434,0.789171,66.355691
6.5788,0.024744,0.006204,-0.034765,-0.005733,-0.001592,0.006972,0.006613,-0.503557,-0.036242,-0.434822,-260.742434,0.789171,66.355691
6.5984,0.02414,0.006189,-0.035395,-0.005688,-0.001631,0.006968,0.006831,-0.503531,-0.034542,-0.439293,-260.744991,0.786965,66.352414
6.6186,0.024419,0.006033,-0.035218,-0.005616,-0.001692,0.00696,0.00615,-0.503497,-0.035307,-0.439293,-260.744991,0.786965,66.352414
6.6387,0.024335,0.006023,-0.035054,-0.005557,-0.001742,0.006956,0.00615,-0.503497,-0.035307,-0.439293,-260.744991,0.786965,66.352414
6.6585,0.02387,0.006004,-0.035014,-0.005508,-0.001783,0.006953,0.006222,-0.503723,-0.034763,-0.43227,-260.747502,0.802568,66.349133
6.679,0.023606,0.00575,-0.035805,-0.005476,-0.001803,0.006954,0.006107,-0.503714,-0.034836,-0.43227,-260.747502,0.802568,66.349133
6.6986,0.023356,0.005719,-0.034571,-0.005449,-0.001819,0.006954,0.005177,-0.503972,-0.035589,-0.420633,-260.749864,0.830511,66.345936
6.7193,0.023402,0.006273,-0.03349,-0.005406,-0.001838,0.006951,0.00567,-0.503978,-0.034652,-0.420633,-260.749864,0.830511,66.345936
6.7393,0.023471,0.005729,-0.035752,-0.00537,-0.001853,0.006949,0.00567,-0.503978,-0.034652,-0.420633,-260.749864,0.830511,66.345936
6.7592,0.023277,0.005671,-0.033954,-0.005341,-0.001865,0.006947,0.00501,-0.504013,-0.03546,-0.419202,-260.752248,0.838984,66.342678
6.7789,0.022782,0.005966,-0.034672,-0.005293,-0.001888,0.006942,0.005367,-0.504029,-0.034822,-0.419202,-260.752248,0.838984,66.342678
6.7992,0.022618,0.005589,-0.033797,-0.005254,-0.001907,0.006939,0.004931,-0.503781,-0.034452,-0.418941,-260.754579,0.852307,66.339441
6.819,0.022888,0.005824,-0.034459,-0.005223,-0.001918,0.006937,0.005336,-0.504092,-0.033844,-0.418941,-260.754579,0.852307,66.339441
6.8397,0.022859,0.005803,-0.035364,-0.005198,-0.001926,0.006936,0.005336,-0.504092,-0.033844,-0.418941,-260.754579,0.852307,66.339441
6.8588,0.022305,0.005894,-0.033787,-0.005177,-0.001934,0.006935,0.004603,-0.50395,-0.035073,-0.417625,-260.756874,0.863392,66.336214
6.879,0.022247,0.005544,-0.033024,-0.005094,-0.001985,0.006925,0.004768,-0.503904,-0.034525,-0.417625,-260.756874,0.863392,66.336214
6.899,0.021634,0.005437,-0.032612,-0.005027,-0.002027,0.006919,0.005241,-0.504234,-0.032803,-0.418365,-260.759137,0.872652,66.332997
6.9191,0.021555,0.005365,-0.034435,-0.005019,-0.002015,0.006921,0.005017,-0.50429,-0.032618,-0.418365,-260.759137,0.872652,66.332997
6.939,0.021518,0.005681,-0.032365,-0.005012,-0.002006,0.006922,0.005017,-0.50429,-0.032618,-0.418365,-260.759137,0.872652,66.332997
6.959,0.021,0.006016,-0.033461,-0.005006,-0.001998,0.006923,0.004804,-0.50413,-0.032077,-0.412322,-260.761315,0.8937,66.329812
6.9788,0.021247,0.005706,-0.03359,-0.004922,-0.00205,0.006913,0.004426,-0.503963,-0.032609,-0.412322,-260.761315,0.8937,66.329812
6.9989,0.020621,0.005407,-0.032635,-0.004854,-0.002092,0.006907,0.003958,-0.504064,-0.03337,-0.419083,-260.763506,0.893622,66.326619
7.0191,0.020823,0.005106,-0.033435,-0.004759,-0.002123,0.006898,0.00397,-0.504302,-0.032689,-0.419083,-260.763506,0.893622,66.326619
7.0391,0.020661,0.005094,-0.030703,-0.004683,-0.002148,0.006892,0.00397,-0.504302,-0.032689,-0.419083,-260.763506,0.893622,66.326619
7.0589,0.020642,0.005031,-0.031897,-0.004622,-0.002168,0.006888,0.004802,-0.504746,-0.030416,-0.412979,-260.765608,0.915076,66.32346
7.0791,0.020229,0.005362,-0.032017,-0.004671,-0.002107,0.006899,0.004604,-0.504741,-0.030989,-0.412979,-260.765608,0.915076,66.32346
7.0993,0.019974,0.005274,-0.031573,-0.004711,-0.002059,0.006905,0.003756,-0.50444,-0.031801,-0.415488,-260.767603,0.943494,66.320351
7.1191,0.019779,0.005303,-0.032128,-0.004637,-0.002087,0.006895,0.003856,-0.504473,-0.031583,-0.415488,-260.767603,0.943494,66.320351
7.1393,0.01953,0.005403,-0.030929,-0.004579,-0.00211,0.006887,0.003856,-0.504473,-0.031583,-0.415488,-260.767603,0.943494,66.320351
7.1588,0.019282,0.005322,-0.031891,-0.004532,-0.002128,0.006882,0.00356,-0.504433,-0.030642,-0.429573,-260.76966,0.92695,66.317236
7.1791,0.019911,0.004857,-0.03198,-0.004415,-0.00217,0.006874,0.003319,-0.504436,-0.031115,-0.429573,-260.76966,0.92695,66.317236
7.1988,0.018956,0.005014,-0.0325,-0.004323,-0.002203,0.006868,0.003458,-0.504945,-0.031762,-0.429438,-260.771637,0.949504,66.314147
7.2193,0.019252,0.005177,-0.032011,-0.004112,-0.002235,0.006862,0.002473,-0.50474,-0.032422,-0.429438,-260.771637,0.949504,66.314147
7.2391,0.01926,0.004836,-0.031414,-0.003947,-0.002261,0.006858,0.002473,-0.50474,-0.032422,-0.429438,-260.771637,0.949504,66.314147
7.2588,0.019036,0.00492,-0.030551,-0.003817,-0.002283,0.006855,0.003059,-0.504998,-0.03113,-0.4316,-260.773519,0.976596,66.311095
7.2794,0.018886,0.004854,-0.032534,-0.003851,-0.002251,0.006859,0.003199,-0.504945,-0.030863,-0.4316,-260.773519,0.976596,66.311095
7.2985,0.018467,0.00485,-0.0304,-0.003876,-0.002226,0.00686,0.00218,-0.504941,-0.032329,-0.462577,-260.775101,1.037795,66.308308
7.3188,0.018457,0.00488,-0.031131,-0.003845,-0.002223,0.006856,0.002888,-0.50492,-0.030566,-0.462577,-260.775101,1.037795,66.308308
7.3386,0.018622,0.004544,-0.031846,-0.00382,-0.002221,0.006853,0.002888,-0.50492,-0.030566,-0.462577,-260.775101,1.037795,66.308308
7.3588,0.017814,0.004769,-0.032643,-0.003799,-0.002219,0.00685,0.002219,-0.505285,-0.03156,-0.468841,-260.776835,1.027334,66.305316
7.3788,0.018195,0.004658,-0.030024,-0.003568,-0.002224,0.00685,0.001772,-0.505163,-0.031968,-0.468841,-260.776835,1.027334,66.305316
7.3985,0.017455,0.004503,-0.031733,-0.00339,-0.00223,0.006849,0.002762,-0.505179,-0.029806,-0.477198,-260.778542,1.035238,66.302345
7.4187,0.017762,0.004624,-0.029533,-0.003171,-0.002231,0.006851,0.001402,-0.505238,-0.031548,-0.477198,-260.778542,1.035238,66.302345
7.4386,0.01773,0.004694,-0.029365,-0.003001,-0.002234,0.006851,0.001402,-0.505238,-0.031548,-0.477198,-260.778542,1.035238,66.302345
7.4589,0.017313,0.004432,-0.028407,-0.002869,-0.002238,0.00685,0.002622,-0.505169,-0.029098,-0.522717,-260.779998,1.084493,66.299645
7.4787,0.017417,0.004547,-0.030167,-0.003031,-0.002201,0.006851,0.00269,-0.505257,-0.028786,-0.522717,-260.779998,1.084493,66.299645
7.4985,0.017058,0.004439,-0.030603,-0.003157,-0.002172,0.00685,0.001954,-0.50528,-0.02998,-0.595809,-260.781185,1.150604,66.297237
7.5187,0.017149,0.004479,-0.028519,-0.003015,-0.002178,0.006844,0.001494,-0.505321,-0.030537,-0.595809,-260.781185,1.150604,66.297237
7.5388,0.017117,0.004528,-0.028499,-0.002905,-0.002184,0.006839,0.001494,-0.505321,-0.030537,-0.595809,-260.781185,1.150604,66.297237
7.5588,0.016815,0.004273,-0.028603,-0.00282,-0.00219,0.006834,0.002455,-0.505348,-0.028224,-0.567215,-260.782625,1.109771,66.294508
7.5787,0.016726,0.004308,-0.029748,-0.002938,-0.002157,0.006833,0.002348,-0.505427,-0.028347,-0.567215,-260.782625,1.109771,66.294508
7.5987,0.016459,0.004476,-0.02927,-0.003031,-0.002132,0.00683,0.00147,-0.505529,-0.029545,-0.61317,-260.783917,1.153675,66.291899
7.6185,0.016289,0.004126,-0.028803,-0.002928,-0.002146,0.006824,0.001524,-0.505329,-0.029284,-0.61317,-260.783917,1.153675,66.291899
7.6386,0.016081,0.004315,-0.028733,-0.002849,-0.002158,0.006819,0.001524,-0.505329,-0.029284,-0.61317,-260.783917,1.153675,66.291899
7.6586,0.016152,0.003856,-0.028387,-0.002788,-0.002168,0.006815,0.001303,-0.505558,-0.028453,-0.592363,-260.785346,1.122601,66.289163
7.6789,0.016321,0.004139,-0.028395,-0.002729,-0.002127,0.006817,0.001441,-0.505723,-0.028394,-0.592363,-260.785346,1.122601,66.289163
7.6987,0.016228,0.004054,-0.029,-0.002684,-0.002096,0.006817,0.001754,-0.50572,-0.028184,-0.62096,-260.786676,1.155975,66.28648
7.7187,0.015216,0.00404,-0.029021,-0.002656,-0.00207,0.006816,0.001463,-0.505734,-0.028917,-0.62096,-260.786676,1.155975,66.28648
7.7388,0.016159,0.00385,-0.027052,-0.002635,-0.00205,0.006813,0.001463,-0.505734,-0.028917,-0.62096,-260.786676,1.155975,66.28648
7.7586,0.015461,0.003844,-0.028263,-0.002619,-0.002035,0.006811,0.002252,-0.506046,-0.026773,-0.65641,-260.788001,1.165735,66.283815
7.7788,0.015361,0.003986,-0.028529,-0.002681,-0.001974,0.006814,0.001748,-0.506017,-0.027349,-0.65641,-260.788001,1.165735,66.283815
7.7985,0.015259,0.004143,-0.02863,-0.00273,-0.001927,0.006815,0.000728,-0.505868,-0.028315,-0.681628,-260.789336,1.170857,66.281153
7.8187,0.015479,0.003606,-0.026349,-0.002501,-0.001946,0.006814,0.000662,-0.505671,-0.028592,-0.681628,-260.789336,1.170857,66.281153
7.8388,0.014989,0.00369,-0.028163,-0.002325,-0.001965,0.006812,0.000662,-0.505671,-0.028592,-0.681628,-260.789336,1.170857,66.281153
7.8588,0.015301,0.003585,-0.024723,-0.00219,-0.001982,0.00681,0.000512,-0.506184,-0.02788,-0.686194,-260.790739,1.149351,66.2785
7.8793,0.014864,0.003471,-0.027702,-0.002275,-0.001908,0.006815,0.001396,-0.506224,-0.026549,-0.686194,-260.790739,1.149351,66.2785
7.8989,0.014524,0.003774,-0.02739,-0.00234,-0.001852,0.006817,0.000681,-0.506382,-0.027533,-0.76126,-260.791708,1.224417,66.276455
7.9189,0.014776,0.00348,-0.026341,-0.002178,-0.001839,0.006813,0.000563,-0.506062,-0.027393,-0.76126,-260.791708,1.224417,66.276455
7.9387,0.014562,0.003568,-0.026463,-0.002054,-0.00183,0.006808,0.000563,-0.506062,-0.027393,-0.76126,-260.791708,1.224417,66.276455
7.9586,0.014518,0.003631,-0.026187,-0.001959,-0.001825,0.006803,0.00097,-0.506327,-0.026185,-0.779135,-260.792994,1.199786,66.273929
7.9787,0.014161,0.004174,-0.027571,-0.002012,-0.001787,0.0068,0.001038,-0.506281,-0.026153,-0.779135,-260.792994,1.199786,66.273929
7.9987,0.014234,0.003616,-0.024151,-0.002053,-0.001757,0.006797,4.8e-05,-0.50568,-0.027392,-0.853585,-260.794015,1.254232,66.27182
8.0192,0.013883,0.00354,-0.025829,-0.002264,-0.001728,0.006793,0.001786,-0.506199,-0.02437,-0.853585,-260.794015,1.254232,66.27182
8.039,0.014364,0.003434,-0.025085,-0.002428,-0.001705,0.006789,0.001786,-0.506199,-0.02437,-0.853585,-260.794015,1.254232,66.27182
8.059,0.01392,0.003603,-0.025645,-0.002556,-0.001687,0.006785,0.001485,-0.506476,-0.024805,-0.86198,-260.795259,1.236427,66.269353
8.0795,0.013657,0.00365,-0.025466,-0.002521,-0.001657,0.006785,0.001216,-0.506384,-0.025112,-0.86198,-260.795259,1.236427,66.269353
8.0985,0.014012,0.00361,-0.025286,-0.002496,-0.001633,0.006784,0.000607,-0.506225,-0.025296,-0.787566,-260.796369,1.162013,66.267358
8.1191,0.013497,0.003426,-0.024409,-0.002441,-0.001643,0.006776,0.001073,-0.506229,-0.025279,-0.787566,-260.796369,1.162013,66.267358
8.1389,0.013632,0.003479,-0.024383,-0.002399,-0.00165,0.00677,0.001073,-0.506229,-0.025279,-0.787566,-260.796369,1.162013,66.267358
8.1589,0.013643,0.003139,-0.026739,-0.002367,-0.001657,0.006764,0.001092,-0.506435,-0.0241,-0.788219,-260.79778,1.162946,66.26485
8.1792,0.013042,0.003058,-0.026202,-0.002227,-0.00161,0.00677,0.00064,-0.506542,-0.025137,-0.788219,-260.79778,1.162946,66.26485
8.1987,0.012767,0.003411,-0.024979,-0.002121,-0.001575,0.006773,-0.000395,-0.506817,-0.025989,-0.807603,-260.79914,1.182562,66.262366
8.2192,0.013496,0.003041,-0.025179,-0.001863,-0.00155,0.006777,-7e-06,-0.506462,-0.025048,-0.807603,-260.79914,1.182562,66.262366
8.2389,0.012844,0.003129,-0.026123,-0.001666,-0.001535,0.006779,-7e-06,-0.506462,-0.025048,-0.807603,-260.79914,1.182562,66.262366
8.259,0.012896,0.003027,-0.023826,-0.001515,-0.001527,0.006778,-0.000559,-0.506754,-0.025867,-0.879069,-260.800345,1.21517,66.26016
8.2793,0.013049,0.003367,-0.022949,-0.001384,-0.001462,0.006785,-3.1e-05,-0.506791,-0.024997,-0.879069,-260.800345,1.21517,66.26016
8.2987,0.012835,0.003118,-0.024084,-0.001284,-0.001415,0.006787,0.001315,-0.506526,-0.022831,-0.95402,-260.801013,1.290121,66.258861
8.3191,0.012495,0.003299,-0.024794,-0.0014,-0.001403,0.006771,0.00062,-0.506717,-0.023967,-0.95402,-260.801013,1.290121,66.258861
8.3388,0.012723,0.003013,-0.025634,-0.001486,-0.001394,0.006758,0.00062,-0.506717,-0.023967,-0.95402,-260.801013,1.290121,66.258861
8.3589,0.012501,0.002786,-0.02384,-0.001552,-0.001387,0.006747,-0.000384,-0.506855,-0.025473,-1.028741,-260.801709,1.343776,66.257544
8.3791,0.012369,0.002814,-0.024373,-0.001394,-0.001326,0.006743,-9e-05,-0.506947,-0.024786,-1.028741,-260.801709,1.343776,66.257544
8.3989,0.01214,0.003237,-0.024414,-0.001276,-0.001281,0.006737,-0.000108,-0.507075,-0.024168,-1.054438,-260.802909,1.296081,66.255361
8.419,0.012754,0.002705,-0.0243,-0.001138,-0.001297,0.006727,-0.000294,-0.506655,-0.024381,-1.054438,-260.802909,1.296081,66.255361
8.4387,0.01238,0.002868,-0.023744,-0.001033,-0.001311,0.006718,-0.000294,-0.506655,-0.024381,-1.054438,-260.802909,1.296081,66.255361
8.4592,0.012469,0.002999,-0.023529,-0.000951,-0.001323,0.006711,0.000224,-0.507033,-0.023507,-1.129443,-260.803959,1.338668,66.253487
8.4789,0.011976,0.003102,-0.0221,-0.001061,-0.001286,0.006706,0.000319,-0.506968,-0.023488,-1.129443,-260.803959,1.338668,66.253487
8.4989,0.01192,0.003317,-0.022017,-0.001144,-0.001259,0.006701,0.00068,-0.506806,-0.021935,-1.204446,-260.804873,1.397122,66.251773
8.5191,0.011917,0.002929,-0.023782,-0.001314,-0.001309,0.006681,0.00069,-0.506581,-0.022002,-1.204446,-260.804873,1.397122,66.251773
8.5391,0.011966,0.003376,-0.022895,-0.001445,-0.001348,0.006666,0.00069,-0.506581,-0.022002,-1.204446,-260.804873,1.397122,66.251773
8.5587,0.012056,0.00243,-0.0242,-0.001544,-0.001377,0.006656,0.000243,-0.50654,-0.022623,-1.187141,-260.80606,1.360214,66.249648
8.5789,0.012004,0.002887,-0.022997,-0.001426,-0.001332,0.006663,2.3e-05,-0.506904,-0.023232,-1.187141,-260.80606,1.360214,66.249648
8.5986,0.011343,0.00286,-0.023163,-0.001339,-0.0013,0.006667,0.000243,-0.507007,-0.02285,-1.112355,-260.806915,1.294363,66.248087
8.6191,0.011624,0.002721,-0.023138,-0.001143,-0.001241,0.006674,-0.00041,-0.507005,-0.023129,-1.112355,-260.806915,1.294363,66.248087
8.6387,0.011513,0.002397,-0.023899,-0.000995,-0.001199,0.006677,-0.00041,-0.507005,-0.023129,-1.112355,-260.806915,1.294363,66.248087
8.659,0.011291,0.002812,-0.021815,-0.000884,-0.001168,0.006677,-0.00073,-0.50751,-0.023626,-1.120904,-260.808126,1.326588,66.24591
8.6793,0.011031,0.002569,-0.021573,-0.000801,-0.001078,0.006687,-0.000364,-0.507331,-0.022841,-1.120904,-260.808126,1.326588,66.24591
8.6989,0.011311,0.002661,-0.020459,-0.00074,-0.00101,0.006691,1e-05,-0.507336,-0.021443,-1.195996,-260.808875,1.40168,66.244599
8.719,0.01127,0.003152,-0.022084,-0.001047,-0.00099,0.006673,0.000794,-0.507243,-0.020545,-1.195996,-260.808875,1.40168,66.244599
8.7389,0.011031,0.002813,-0.021791,-0.001283,-0.000974,0.006658,0.000794,-0.507243,-0.020545,-1.195996,-260.808875,1.40168,66.244599
8.7586,0.011193,0.002483,-0.021501,-0.001463,-0.000962,0.006645,-0.000108,-0.507096,-0.021589,-1.270775,-260.809794,1.426688,66.243103
8.7786,0.010931,0.002626,-0.021421,-0.001389,-0.000954,0.006634,2.6e-05,-0.507223,-0.02153,-1.270775,-260.809794,1.426688,66.243103
8.7987,0.010522,0.002745,-0.024352,-0.001334,-0.000948,0.006624,-1.4e-05,-0.507273,-0.021307,-1.19578,-260.810521,1.351693,66.241994
8.8189,0.010773,0.002745,-0.021819,-0.000818,-0.000872,0.006643,-0.001729,-0.50712,-0.024073,-1.19578,-260.810521,1.351693,66.241994
8.8388,0.010256,0.002635,-0.021009,-0.00042,-0.000824,0.006652,-0.001729,-0.50712,-0.024073,-1.19578,-260.810521,1.351693,66.241994
8.8589,0.010665,0.002778,-0.021863,-0.000112,-0.000795,0.006655,-0.000512,-0.50729,-0.020743,-1.164312,-260.811814,1.309834,66.240012
8.8791,0.01078,0.002728,-0.021015,-0.000207,-0.000829,0.006644,-0.000507,-0.507216,-0.021174,-1.164312,-260.811814,1.309834,66.240012
8.8987,0.010383,0.002383,-0.022046,-0.000277,-0.000855,0.006636,6.2e-05,-0.50716,-0.021006,-1.239451,-260.811868,1.384974,66.239931
8.9192,0.010607,0.002482,-0.021072,-0.000229,-0.000806,0.006625,-0.000791,-0.507468,-0.021969,-1.239451,-260.811868,1.384974,66.239931
8.9392,0.01054,0.00262,-0.021461,-0.000193,-0.000771,0.006614,-0.000791,-0.507468,-0.021969,-1.239451,-260.811868,1.384974,66.239931
8.9591,0.010543,0.002852,-0.022429,-0.000165,-0.000744,0.006603,-0.000413,-0.507273,-0.021382,-1.314821,-260.812238,1.460344,66.239365
8.9788,0.0107,0.002699,-0.023201,-0.000211,-0.000797,0.006568,-0.000612,-0.50717,-0.021804,-1.314821,-260.812238,1.460344,66.239365
8.9988,0.010685,0.002461,-0.02209,-0.000245,-0.000837,0.006542,-0.001137,-0.507175,-0.023105,-1.389489,-260.812843,1.535012,66.238486
9.0188,0.010633,0.002527,-0.020531,-0.000253,-0.000819,0.006523,-0.000632,-0.507393,-0.022178,-1.389489,-260.812843,1.535012,66.238486
9.0387,0.010254,0.002586,-0.022083,-0.000259,-0.000805,0.006507,-0.000632,-0.507393,-0.022178,-1.389489,-260.812843,1.535012,66.238486
9.0587,0.010513,0.002334,-0.020994,-0.000263,-0.000795,0.006493,-0.001019,-0.507319,-0.021854,-1.464313,-260.813905,1.52023,66.236865
9.0788,0.010238,0.002635,-0.020819,-0.00025,-0.000779,0.006479,-0.000684,-0.507418,-0.021477,-1.464313,-260.813905,1.52023,66.236865
9.0988,0.010215,0.002282,-0.021238,-0.00024,-0.000768,0.006468,-0.000388,-0.50728,-0.020613,-1.488046,-260.815166,1.515613,66.234975
9.1187,0.01047,0.002548,-0.02109,-0.000253,-0.000727,0.006469,-0.000595,-0.507574,-0.021169,-1.488046,-260.815166,1.515613,66.234975
9.1389,0.010142,0.002307,-0.021154,-0.000264,-0.000696,0.006469,-0.000595,-0.507574,-0.021169,-1.488046,-260.815166,1.515613,66.234975
9.1589,0.00993,0.002576,-0.020546,-0.000272,-0.000672,0.006467,-0.000657,-0.507611,-0.020883,-1.495446,-260.816442,1.519921,66.233086
9.1787,0.00965,0.002739,-0.020503,-0.000277,-0.000672,0.006461,-0.000613,-0.507494,-0.020714,-1.495446,-260.816442,1.519921,66.233086
9.1985,0.009434,0.002139,-0.020419,-0.000281,-0.000672,0.006456,-0.000815,-0.507175,-0.020297,-1.488023,-260.817756,1.512039,66.231235
9.2186,0.00985,0.002225,-0.019816,-0.000166,-0.000604,0.006474,-0.000965,-0.507707,-0.020399,-1.488023,-260.817756,1.512039,66.231235
9.2386,0.009664,0.002326,-0.020407,-7.9e-05,-0.000553,0.006486,-0.000965,-0.507707,-0.020399,-1.488023,-260.817756,1.512039,66.231235
9.2587,0.009336,0.00278,-0.021187,-1.5e-05,-0.000515,0.006493,-0.000756,-0.507595,-0.020138,-1.485036,-260.819067,1.509946,66.22939
9.2795,0.009489,0.0023,-0.019348,4e-05,-0.000553,0.00649,-0.001046,-0.5074,-0.020532,-1.485036,-260.819067,1.509946,66.22939
9.2988,0.009441,0.001965,-0.018601,8.2e-05,-0.000582,0.006489,-0.000379,-0.507619,-0.01917,-1.559865,-260.820245,1.567529,66.22786
9.3188,0.009028,0.002586,-0.019845,-0.000171,-0.000515,0.006508,-7.4e-05,-0.507918,-0.018642,-1.559865,-260.820245,1.567529,66.22786
9.3386,0.009523,0.002435,-0.019484,-0.000364,-0.000464,0.006521,-7.4e-05,-0.507918,-0.018642,-1.559865,-260.820245,1.567529,66.22786
9.3586,0.009663,0.00254,-0.018903,-0.00051,-0.000426,0.006529,-0.00041,-0.507492,-0.01922,-1.595079,-260.82156,1.588859,66.226092
9.3788,0.009267,0.002452,-0.01914,-0.000584,-0.000505,0.006515,-0.000232,-0.507444,-0.01906,-1.595079,-260.82156,1.588859,66.226092
9.3987,0.009406,0.002126,-0.018895,-0.00064,-0.000565,0.006507,-0.000498,-0.507461,-0.019039,-1.520171,-260.822254,1.513951,66.225235
9.4189,0.009409,0.002304,-0.017421,-0.000667,-0.000537,0.006525,-0.000252,-0.507756,-0.018902,-1.520171,-260.822254,1.513951,66.225235
9.439,0.009307,0.00242,-0.018547,-0.000688,-0.000515,0.006539,-0.000252,-0.507756,-0.018902,-1.520171,-260.822254,1.513951,66.225235
9.4587,0.009264,0.002494,-0.015601,-0.000706,-0.0005,0.006549,-0.000167,-0.507508,-0.018364,-1.445005,-260.82318,1.438785,66.224012
9.4786,0.009504,0.002558,-0.018482,-0.000942,-0.000558,0.006544,0.000433,-0.507484,-0.017217,-1.445005,-260.82318,1.438785,66.224012
9.4986,0.00911,0.002667,-0.017298,-0.001122,-0.000603,0.006542,5.8e-05,-0.507369,-0.018292,-1.371879,-260.824481,1.41524,66.222352
9.5187,0.008963,0.002254,-0.019285,-0.001211,-0.000682,0.006544,0.000268,-0.507267,-0.017373,-1.371879,-260.824481,1.41524,66.222352
9.5386,0.009288,0.002344,-0.018882,-0.00128,-0.000742,0.006549,0.000268,-0.507267,-0.017373,-1.371879,-260.824481,1.41524,66.222352
9.5585,0.008715,0.002225,-0.017499,-0.001333,-0.000788,0.006555,-0.000372,-0.507581,-0.018687,-1.296762,-260.825496,1.340123,66.221008
9.5785,0.008748,0.002104,-0.016539,-0.001184,-0.000728,0.006582,-0.000307,-0.507632,-0.018167,-1.296762,-260.825496,1.340123,66.221008
9.5985,0.008711,0.002048,-0.017336,-0.001073,-0.000685,0.006601,0.000282,-0.507845,-0.016377,-1.221619,-260.826578,1.299385,66.219463
9.619,0.008386,0.002335,-0.017355,-0.001051,-0.0006,0.006619,-0.0001,-0.507873,-0.017256,-1.221619,-260.826578,1.299385,66.219463
9.6387,0.008365,0.002207,-0.017189,-0.001036,-0.000536,0.006631,-0.0001,-0.507873,-0.017256,-1.221619,-260.826578,1.299385,66.219463
9.6588,0.00847,0.002486,-0.018242,-0.001026,-0.000489,0.006637,-0.000443,-0.507744,-0.016931,-1.260521,-260.827897,1.347083,66.217648
9.6786,0.008701,0.002281,-0.017167,-0.000867,-0.000497,0.006634,-0.000609,-0.507617,-0.017442,-1.260521,-260.827897,1.347083,66.217648
9.6987,0.008237,0.001853,-0.016502,-0.000746,-0.000505,0.006631,-8.6e-05,-0.507659,-0.016959,-1.290472,-260.82936,1.348608,66.21581
9.7186,0.008436,0.00205,-0.01724,-0.00078,-0.00042,0.006642,-0.000173,-0.508044,-0.01653,-1.290472,-260.82936,1.348608,66.21581
9.7384,0.008299,0.002004,-0.018876,-0.000806,-0.000356,0.006648,-0.000173,-0.508044,-0.01653,-1.290472,-260.82936,1.348608,66.21581
9.7586,0.008296,0.002484,-0.017302,-0.000827,-0.000308,0.00665,-0.001355,-0.507923,-0.018637,-1.363316,-260.830616,1.40842,66.21421
9.7785,0.007913,0.002122,-0.01679,-0.000589,-0.000312,0.00665,-0.001016,-0.507725,-0.018057,-1.363316,-260.830616,1.40842,66.21421
9.7985,0.007619,0.00204,-0.016965,-0.000408,-0.000319,0.006648,-0.000675,-0.507815,-0.016581,-1.353956,-260.832134,1.38374,66.212454
9.8189,0.007736,0.001992,-0.016878,-0.000265,-0.000288,0.006652,-0.001002,-0.507881,-0.01692,-1.353956,-260.832134,1.38374,66.212454
9.839,0.007373,0.001881,-0.017133,-0.000156,-0.000266,0.006653,-0.001002,-0.507881,-0.01692,-1.353956,-260.832134,1.38374,66.212454
9.8588,0.007688,0.002138,-0.017061,-7.2e-05,-0.00025,0.006653,-0.00138,-0.508054,-0.016934,-1.428824,-260.833216,1.458608,66.211189
9.8786,0.007498,0.002297,-0.016565,6.5e-05,-0.000208,0.006656,-0.001232,-0.507946,-0.016963,-1.428824,-260.833216,1.458608,66.211189
9.8986,0.007489,0.002333,-0.015433,0.000171,-0.000177,0.006656,-0.000954,-0.507638,-0.016421,-1.50383,-260.834252,1.533614,66.210018
9.9186,0.007704,0.001893,-0.016335,-1.5e-05,-0.000273,0.00662,-0.000433,-0.50761,-0.015514,-1.50383,-260.834252,1.533614,66.210018
9.9385,0.007594,0.002065,-0.015337,-0.000154,-0.000345,0.006594,-0.000433,-0.50761,-0.015514,-1.50383,-260.834252,1.533614,66.210018
9.9586,0.007016,0.002053,-0.016466,-0.000258,-0.000399,0.006577,-0.000225,-0.50788,-0.01513,-1.578938,-260.835413,1.608721,66.208752
9.9786,0.007588,0.001901,-0.01621,-0.000237,-0.000364,0.006585,-0.000703,-0.50788,-0.015658,-1.578938,-260.835413,1.608721,66.208752
9.9984,0.007358,0.001545,-0.016619,-0.000223,-0.000337,0.00659,-0.000684,-0.508042,-0.016047,-1.503948,-260.836544,1.533732,66.207372
10.0191,0.007212,0.002347,-0.01661,-6e-05,-0.000167,0.006634,-0.001081,-0.508356,-0.016563,-1.503948,-260.836544,1.533732,66.207372
10.0389,0.007579,0.001978,-0.016726,6e-05,-4e-05,0.006661,-0.001081,-0.508356,-0.016563,-1.503948,-260.836544,1.533732,66.207372
10.0587,0.00686,0.002288,-0.015742,0.00015,5.4e-05,0.006677,-0.000961,-0.507964,-0.016451,-1.510514,-260.838017,1.519824,66.20563
10.0786,0.006984,0.00231,-0.015077,0.000171,-1.8e-05,0.006658,-0.001047,-0.507836,-0.016128,-1.510514,-260.838017,1.519824,66.20563
10.0985,0.006744,0.001986,-0.01433,0.000188,-7.2e-05,0.006646,-0.000703,-0.507631,-0.014915,-1.585551,-260.839273,1.594861,66.204407
10.1186,0.007135,0.002057,-0.01319,5.6e-05,-0.000106,0.006607,-0.000575,-0.507933,-0.014372,-1.585551,-260.839273,1.594861,66.204407
10.1386,0.006948,0.002144,-0.01463,-4.4e-05,-0.000131,0.006578,-0.000575,-0.507933,-0.014372,-1.585551,-260.839273,1.594861,66.204407
10.159,0.006879,0.002373,-0.014704,-0.000119,-0.00015,0.006557,-0.000505,-0.507805,-0.014359,-1.618003,-260.840832,1.616368,66.202792
10.179,0.006687,0.00195,-0.013768,-0.000194,-0.000221,0.006533,-0.000552,-0.507709,-0.01447,-1.618003,-260.840832,1.616368,66.202792
10.1989,0.006704,0.001994,-0.015629,-0.00025,-0.000274,0.006517,-0.000337,-0.508006,-0.013595,-1.542957,-260.842112,1.542098,66.201412
10.2187,0.006606,0.00251,-0.013621,-8.1e-05,-0.000224,0.006545,-0.001187,-0.507949,-0.015447,-1.542957,-260.842112,1.542098,66.201412
10.2389,0.00658,0.002174,-0.014517,4.7e-05,-0.000188,0.006564,-0.001187,-0.507949,-0.015447,-1.542957,-260.842112,1.542098,66.201412
10.2589,0.006456,0.002233,-0.015224,0.000144,-0.000162,0.006578,-0.000834,-0.507783,-0.014255,-1.503431,-260.843539,1.51208,66.199776
10.279,0.006321,0.002613,-0.013753,0.000155,-0.0002,0.006561,-0.001026,-0.507754,-0.014615,-1.503431,-260.843539,1.51208,66.199776
10.299,0.006272,0.001852,-0.013739,0.000164,-0.000229,0.006549,-0.000692,-0.507343,-0.013598,-1.578316,-260.844666,1.586965,66.198554
10.3189,0.006091,0.00262,-0.014051,9.3e-05,-0.00019,0.006522,-0.00073,-0.508032,-0.013718,-1.578316,-260.844666,1.586965,66.198554
10.3389,0.006597,0.001907,-0.012521,3.8e-05,-0.00016,0.0065,-0.00073,-0.508032,-0.013718,-1.578316,-260.844666,1.586965,66.198554
10.3589,0.006062,0.002155,-0.012965,-3e-06,-0.000138,0.006483,0.000218,-0.508063,-0.012255,-1.614274,-260.846135,1.609571,66.196907
10.379,0.006251,0.002373,-0.01397,-0.000252,-0.000153,0.006412,-9.7e-05,-0.507956,-0.012516,-1.614274,-260.846135,1.609571,66.196907
10.3986,0.005929,0.002212,-0.014784,-0.000442,-0.000164,0.00636,-0.000874,-0.507582,-0.013775,-1.569907,-260.847579,1.569967,66.195358
10.4189,0.006279,0.002497,-0.012967,-0.000153,-0.00017,0.006412,-0.001545,-0.507719,-0.014684,-1.569907,-260.847579,1.569967,66.195358
10.4389,0.005824,0.002007,-0.014647,6.9e-05,-0.000178,0.006451,-0.001545,-0.507719,-0.014684,-1.569907,-260.847579,1.569967,66.195358
10.4588,0.006044,0.002558,-0.014312,0.000239,-0.000188,0.006481,-0.001654,-0.507942,-0.014469,-1.494902,-260.848576,1.494962,66.194274
10.4789,0.005942,0.002216,-0.012764,0.000355,-0.000201,0.006494,-0.00149,-0.507714,-0.014384,-1.494902,-260.848576,1.494962,66.194274
10.4988,0.006195,0.002156,-0.012844,0.000445,-0.000213,0.006505,-0.000568,-0.507745,-0.01265,-1.569954,-260.849408,1.570014,66.19336
10.5187,0.005577,0.001879,-0.012541,0.000173,-0.000245,0.006444,-0.000373,-0.507798,-0.012823,-1.569954,-260.849408,1.570014,66.19336
10.5388,0.005908,0.00198,-0.01321,-3.2e-05,-0.00027,0.006399,-0.000373,-0.507798,-0.012823,-1.569954,-260.849408,1.570014,66.19336
10.5585,0.005732,0.002065,-0.011594,-0.000187,-0.000289,0.006365,-0.00082,-0.507982,-0.013029,-1.644976,-260.850413,1.645036,66.192243
10.5785,0.006053,0.002268,-0.0124,-0.00024,-0.000256,0.006325,-0.000556,-0.507949,-0.012417,-1.644976,-260.850413,1.645036,66.192243
10.5986,0.005528,0.002036,-0.012576,-0.000281,-0.000232,0.006293,-0.000272,-0.507699,-0.012275,-1.570069,-260.851303,1.570129,66.19121
10.6186,0.005451,0.00204,-0.013745,-0.000228,-0.000215,0.006273,-0.000831,-0.507904,-0.012543,-1.570069,-260.851303,1.570129,66.19121
10.6385,0.005801,0.00219,-0.011416,-0.000188,-0.000202,0.006258,-0.000831,-0.507904,-0.012543,-1.570069,-260.851303,1.570129,66.19121
10.6586,0.005603,0.002147,-0.012969,-0.000159,-0.000194,0.006246,-3.1e-05,-0.507785,-0.011195,-1.495093,-260.852525,1.501848,66.189832
10.6795,0.005494,0.002282,-0.013725,-0.000273,-0.000226,0.006187,-0.000434,-0.507796,-0.011897,-1.495093,-260.852525,1.501848,66.189832
10.699,0.00544,0.002243,-0.011884,-0.000359,-0.00025,0.006145,-0.00151,-0.507676,-0.013529,-1.526972,-260.853934,1.5312,66.188272
10.7187,0.005571,0.00207,-0.013347,-0.000344,-0.000278,0.006122,-0.000698,-0.507718,-0.012018,-1.526972,-260.853934,1.5312,66.188272
10.7386,0.005476,0.002214,-0.011937,-0.000333,-0.0003,0.006106,-0.000698,-0.507718,-0.012018,-1.526972,-260.853934,1.5312,66.188272
10.7586,0.004957,0.002023,-0.01289,-0.000325,-0.000318,0.006095,-0.000626,-0.507759,-0.011704,-1.468595,-260.855216,1.481282,66.186809
10.7788,0.005455,0.002045,-0.01217,-0.000206,-0.000287,0.006106,-0.001039,-0.507833,-0.01217,-1.468595,-260.855216,1.481282,66.186809
10.7987,0.005306,0.002241,-0.012406,-0.000117,-0.000264,0.006114,-0.000762,-0.507927,-0.011977,-1.475605,-260.856587,1.490506,66.185185
10.8186,0.005,0.002214,-0.010824,-6.5e-05,-0.000276,0.006127,-0.001002,-0.507736,-0.012366,-1.475605,-260.856587,1.490506,66.185185
10.8386,0.004783,0.002204,-0.010769,-2.5e-05,-0.000286,0.006138,-0.001002,-0.507736,-0.012366,-1.475605,-260.856587,1.490506,66.185185
10.8589,0.005011,0.002155,-0.010484,5e-06,-0.000293,0.006146,-0.000714,-0.507776,-0.01054,-1.537152,-260.857836,1.5416,66.183745
10.8787,0.004915,0.001912,-0.011861,-0.000117,-0.000285,0.006005,-0.000557,-0.507794,-0.01049,-1.537152,-260.857836,1.5416,66.183745
10.8989,0.004836,0.001612,-0.011514,-0.00021,-0.000281,0.005902,-0.001134,-0.508061,-0.011673,-1.57237,-260.859171,1.572142,66.182184
10.9186,0.004972,0.002197,-0.011004,-8.7e-05,-0.000121,0.005953,-0.001044,-0.508329,-0.011518,-1.57237,-260.859171,1.572142,66.182184
10.939,0.004795,0.001648,-0.011471,3e-06,-2e-06,0.005987,-0.001044,-0.508329,-0.011518,-1.57237,-260.859171,1.572142,66.182184
10.9587,0.004345,0.00189,-0.009619,6.9e-05,8.7e-05,0.00601,-0.001063,-0.508329,-0.011251,-1.507706,-260.860358,1.516803,66.180798
10.9787,0.004432,0.002266,-0.011225,4.6e-05,0.000125,0.005936,-0.000856,-0.50823,-0.010549,-1.507706,-260.860358,1.516803,66.180798
10.999,0.004137,0.001847,-0.009887,2.7e-05,0.000153,0.00588,-0.001291,-0.507699,-0.011068,-1.582711,-260.861598,1.590141,66.179615
11.0192,0.004153,0.001936,-0.010514,2.7e-05,0.000149,0.005773,-0.000937,-0.508093,-0.009978,-1.582711,-260.861598,1.590141,66.179615
11.0391,0.004572,0.002115,-0.009183,2.6e-05,0.000145,0.005696,-0.000937,-0.508093,-0.009978,-1.582711,-260.861598,1.590141,66.179615
11.0585,0.004248,0.002179,-0.010192,2.5e-05,0.000141,0.005642,-0.00011,-0.507857,-0.008938,-1.57793,-260.863091,1.578566,66.178244
11.0786,0.004482,0.002159,-0.009847,-0.000145,6e-05,0.005518,-0.000457,-0.507831,-0.009429,-1.57793,-260.863091,1.578566,66.178244
11.0984,0.004667,0.002283,-0.00986,-0.000274,-2e-06,0.005433,-0.000539,-0.507812,-0.009667,-1.577851,-260.864526,1.578452,66.176922
11.1187,0.004203,0.002142,-0.008667,-0.000401,-9e-05,0.005423,-0.000377,-0.507702,-0.009835,-1.577851,-260.864526,1.578452,66.176922
11.139,0.004415,0.002134,-0.010997,-0.000497,-0.000156,0.00542,-0.000377,-0.507702,-0.009835,-1.577851,-260.864526,1.578452,66.176922
11.1586,0.003976,0.002522,-0.009553,-0.00057,-0.000207,0.005422,-0.001201,-0.507835,-0.010822,-1.502848,-260.865554,1.503449,66.175892
11.1786,0.00417,0.001922,-0.009121,-0.00041,-0.000225,0.005481,-0.001075,-0.507678,-0.010276,-1.502848,-260.865554,1.503449,66.175892
11.1987,0.003765,0.00196,-0.01022,-0.000289,-0.000242,0.005526,-0.000493,-0.508061,-0.008999,-1.427814,-260.866446,1.428414,66.174885
11.2185,0.004077,0.001815,-0.008939,-8.8e-05,-0.000151,0.005564,-0.001366,-0.508018,-0.01011,-1.427814,-260.866446,1.428414,66.174885
11.2387,0.003706,0.002132,-0.007333,6.3e-05,-8.4e-05,0.00559,-0.001366,-0.508018,-0.01011,-1.427814,-260.866446,1.428414,66.174885
11.2591,0.003491,0.002338,-0.007963,0.000178,-3.5e-05,0.005607,-4.4e-05,-0.507864,-0.007125,-1.478909,-260.867577,1.49114,66.173581
11.2797,0.003699,0.002083,-0.007848,-0.000101,-6e-05,0.005138,-0.000259,-0.507776,-0.007441,-1.478909,-260.867577,1.49114,66.173581
11.2989,0.003899,0.002244,-0.006622,-0.000313,-8.4e-05,0.004819,-0.000304,-0.507902,-0.007751,-1.553771,-260.868315,1.566002,66.172827
11.3188,0.003738,0.002125,-0.008781,-0.000697,-9.7e-05,0.004413,0.000451,-0.507759,-0.006714,-1.553771,-260.868315,1.566002,66.172827
11.3388,0.003531,0.001968,-0.009244,-0.000993,-0.000113,0.004143,0.000451,-0.507759,-0.006714,-1.553771,-260.868315,1.566002,66.172827
11.3587,0.003505,0.00199,-0.008063,-0.001221,-0.000131,0.003967,-0.001192,-0.508013,-0.009093,-1.478642,-260.869176,1.490873,66.171916
11.3789,0.003714,0.002057,-0.010271,-0.000932,-8.3e-05,0.004245,-0.000953,-0.508005,-0.008653,-1.478642,-260.869176,1.490873,66.171916
11.3988,0.003494,0.002324,-0.009194,-0.000715,-5e-05,0.00445,-0.001524,-0.507917,-0.01027,-1.403636,-260.869185,1.415867,66.171907
11.4188,0.003783,0.001986,-0.009708,-0.000492,-0.0001,0.00466,-0.001225,-0.507678,-0.009291,-1.403636,-260.869185,1.415867,66.171907
11.4388,0.003802,0.001941,-0.008649,-0.00032,-0.000141,0.004815,-0.001225,-0.507678,-0.009291,-1.403636,-260.869185,1.415867,66.171907
11.459,0.003632,0.002163,-0.009327,-0.000188,-0.000172,0.004928,-0.000629,-0.508042,-0.008509,-1.32877,-260.870008,1.341001,66.171055
11.4791,0.002979,0.001942,-0.007797,-0.000187,-0.000143,0.004953,-0.000837,-0.507948,-0.008832,-1.32877,-260.870008,1.341001,66.171055
11.4985,0.003657,0.001868,-0.008518,-0.000185,-0.000121,0.004969,-0.001004,-0.508045,-0.007738,-1.403969,-260.870441,1.4162,66.17057
11.5188,0.003296,0.001973,-0.009403,-0.000215,-6.1e-05,0.004923,-0.000714,-0.508108,-0.008448,-1.403969,-260.870441,1.4162,66.17057
11.5391,0.003156,0.002084,-0.009236,-0.000239,-1.6e-05,0.004886,-0.000714,-0.508108,-0.008448,-1.403969,-260.870441,1.4162,66.17057
11.559,0.003287,0.001997,-0.008869,-0.000257,1.7e-05,0.004856,-0.001562,-0.507898,-0.009085,-1.478907,-260.87129,1.491138,66.169651
11.579,0.003446,0.001806,-0.009381,-6.4e-05,2.6e-05,0.004907,-0.001429,-0.507933,-0.008979,-1.478907,-260.87129,1.491138,66.169651
11.5985,0.00324,0.002182,-0.008106,8.4e-05,3.2e-05,0.004942,-0.001347,-0.508171,-0.009228,-1.484962,-260.872486,1.484005,66.168468
11.6192,0.003435,0.002273,-0.00673,4e-05,-5e-06,0.004828,-0.000933,-0.507833,-0.008194,-1.484962,-260.872486,1.484005,66.168468
11.6392,0.003,0.002207,-0.008647,8e-06,-3.3e-05,0.004747,-0.000933,-0.507833,-0.008194,-1.484962,-260.872486,1.484005,66.168468
11.6591,0.003449,0.002044,-0.008365,-1.5e-05,-5.5e-05,0.004689,-0.001411,-0.507773,-0.00851,-1.559977,-260.87329,1.55902,66.167681
11.6793,0.003132,0.002217,-0.007469,4e-05,-6.2e-05,0.004689,-0.001168,-0.50784,-0.008435,-1.559977,-260.87329,1.55902,66.167681
11.6988,0.003229,0.002062,-0.008907,8.3e-05,-6.8e-05,0.004688,-0.000678,-0.50777,-0.00732,-1.565331,-260.874415,1.565537,66.166512
11.7189,0.003172,0.002075,-0.009189,0.00015,-5.7e-05,0.004744,-0.001262,-0.507906,-0.008772,-1.565331,-260.874415,1.565537,66.166512
11.739,0.002963,0.002011,-0.008346,0.000202,-4.8e-05,0.004783,-0.001262,-0.507906,-0.008772,-1.565331,-260.874415,1.565537,66.166512
11.7587,0.002728,0.002247,-0.007321,0.000241,-4.1e-05,0.004811,-0.00129,-0.507974,-0.008158,-1.600628,-260.87549,1.599242,66.165384
11.7787,0.002971,0.001921,-0.008774,0.00024,-3.2e-05,0.004662,-0.001173,-0.507878,-0.007792,-1.600628,-260.87549,1.599242,66.165384
11.7986,0.002962,0.002062,-0.008171,0.000238,-2.7e-05,0.004558,-0.001497,-0.508061,-0.008634,-1.653872,-260.876552,1.651569,66.164291
11.8187,0.002701,0.001909,-0.007769,0.00026,-1.4e-05,0.004565,-0.001229,-0.507933,-0.008204,-1.653872,-260.876552,1.651569,66.164291
11.8387,0.002613,0.001899,-0.006587,0.000276,-5e-06,0.00457,-0.001229,-0.507933,-0.008204,-1.653872,-260.876552,1.651569,66.164291
11.8587,0.002436,0.001697,-0.006282,0.000289,2e-06,0.004575,-0.000736,-0.508092,-0.006397,-1.657049,-260.877659,1.655404,66.163164
11.8788,0.002827,0.001525,-0.008152,0.00016,8.6e-05,0.004168,-0.000748,-0.508175,-0.006327,-1.657049,-260.877659,1.655404,66.163164
11.8987,0.002664,0.002068,-0.005315,6.1e-05,0.000144,0.003893,-0.001321,-0.508458,-0.008008,-1.673788,-260.878776,1.673921,66.162048
11.9189,0.002665,0.002124,-0.006839,-0.000221,0.000128,0.003459,-0.000152,-0.507969,-0.00553,-1.673788,-260.878776,1.673921,66.162048
11.9388,0.002799,0.002227,-0.007156,-0.000438,0.000112,0.003178,-0.000152,-0.507969,-0.00553,-1.673788,-260.878776,1.673921,66.162048
11.9588,0.002575,0.002379,-0.00649,-0.000604,9.6e-05,0.002999,-0.000848,-0.507755,-0.007022,-1.598543,-260.879607,1.598676,66.161312
11.9792,0.002563,0.002055,-0.007298,-0.000535,1e-05,0.003205,-0.000801,-0.507695,-0.006788,-1.598543,-260.879607,1.598676,66.161312
11.9989,0.002352,0.002439,-0.005744,-0.000483,-5.6e-05,0.003359,-0.001159,-0.507931,-0.007296,-1.523757,-260.879622,1.52389,66.161298
12.0187,0.002576,0.001751,-0.008186,-0.000503,-0.00012,0.003238,-0.000627,-0.507585,-0.005877,-1.523757,-260.879622,1.52389,66.161298
12.0387,0.002717,0.001948,-0.007035,-0.000518,-0.000172,0.003162,-0.000627,-0.507585,-0.005877,-1.523757,-260.879622,1.52389,66.161298
12.0588,0.002175,0.00173,-0.006651,-0.000529,-0.000213,0.003117,-0.000875,-0.50804,-0.006987,-1.448779,-260.879897,1.448912,66.161009
12.0791,0.002532,0.002064,-0.007081,-0.000382,-0.000109,0.003353,-0.001019,-0.508132,-0.00684,-1.448779,-260.879897,1.448912,66.161009
12.0988,0.002546,0.001763,-0.007099,-0.000272,-3e-05,0.00352,-0.001086,-0.507926,-0.007035,-1.373553,-260.880224,1.373686,66.160606
12.119,0.002305,0.002186,-0.007051,-0.000167,4.6e-05,0.00369,-0.001076,-0.508199,-0.007091,-1.373553,-260.880224,1.373686,66.160606
12.1391,0.002857,0.002226,-0.005824,-8.9e-05,0.000103,0.003807,-0.001076,-0.508199,-0.007091,-1.373553,-260.880224,1.373686,66.160606
12.1588,0.002265,0.002198,-0.007146,-3e-05,0.000147,0.003887,-0.000123,-0.507767,-0.005699,-1.443176,-260.880948,1.446679,66.159862
12.1786,0.002105,0.002212,-0.007682,-0.000151,6.8e-05,0.003723,-0.000635,-0.507776,-0.006273,-1.443176,-260.880948,1.446679,66.159862
12.1989,0.002036,0.001832,-0.005543,-0.000241,7e-06,0.003609,-0.001815,-0.50777,-0.0076,-1.51795,-260.881617,1.521452,66.159271
12.2188,0.002238,0.00209,-0.005623,-0.000208,7.2e-05,0.003402,-0.000888,-0.508123,-0.005732,-1.51795,-260.881617,1.521452,66.159271
12.239,0.002229,0.001949,-0.005769,-0.000185,0.000117,0.00326,-0.000888,-0.508123,-0.005732,-1.51795,-260.881617,1.521452,66.159271
12.2588,0.002272,0.001989,-0.005355,-0.000168,0.00015,0.003163,-0.000722,-0.508042,-0.005633,-1.462185,-260.882416,1.46151,66.158477
12.2788,0.002025,0.002067,-0.006049,-0.000249,0.000139,0.003023,-0.000617,-0.508026,-0.005504,-1.462185,-260.882416,1.46151,66.158477
12.2989,0.002181,0.002032,-0.006194,-0.000311,0.000129,0.002929,-0.001066,-0.507919,-0.00595,-1.490438,-260.883242,1.477022,66.157768
12.3189,0.002356,0.001913,-0.004895,-0.000245,0.000106,0.003046,-0.000985,-0.507955,-0.006172,-1.490438,-260.883242,1.477022,66.157768
12.3389,0.002378,0.002023,-0.005802,-0.000195,8.8e-05,0.003129,-0.000985,-0.507955,-0.006172,-1.490438,-260.883242,1.477022,66.157768
12.3589,0.001744,0.001845,-0.006117,-0.000156,7.5e-05,0.003187,-0.000591,-0.507964,-0.005706,-1.41498,-260.883852,1.401563,66.157238
12.3794,0.002151,0.001993,-0.00351,-0.000145,8.9e-05,0.00315,-0.000912,-0.508038,-0.005862,-1.41498,-260.883852,1.401563,66.157238
12.3987,0.001784,0.002351,-0.005832,-0.000136,9.9e-05,0.003124,0.000357,-0.508002,-0.003428,-1.489499,-260.884505,1.476082,66.156634
12.4189,0.00195,0.002035,-0.005873,-0.000109,2.7e-05,0.00302,-0.001052,-0.507672,-0.005613,-1.489499,-260.884505,1.476082,66.156634
12.4389,0.002334,0.002011,-0.007104,-8.8e-05,-2.9e-05,0.002949,-0.001052,-0.507672,-0.005613,-1.489499,-260.884505,1.476082,66.156634
12.4587,0.00148,0.00202,-0.005159,-7e-05,-7.3e-05,0.002901,-0.001294,-0.507972,-0.006974,-1.503288,-260.885302,1.495918,66.155915
12.4788,0.001935,0.002149,-0.006219,2e-05,-3.5e-05,0.003045,-0.001237,-0.507972,-0.006221,-1.503288,-260.885302,1.495918,66.155915
12.4988,0.001396,0.00222,-0.005513,8.7e-05,-5e-06,0.003146,-0.001239,-0.507844,-0.006129,-1.529583,-260.885962,1.53283,66.155199
12.519,0.001491,0.001777,-0.006297,0.000172,-9e-06,0.003036,-0.001401,-0.507778,-0.005561,-1.529583,-260.885962,1.53283,66.155199
12.5391,0.001854,0.002038,-0.006023,0.000238,-1.4e-05,0.002961,-0.001401,-0.507778,-0.005561,-1.529583,-260.885962,1.53283,66.155199
12.5586,0.002036,0.002115,-0.004434,0.000288,-1.9e-05,0.00291,-0.001216,-0.507953,-0.005919,-1.604763,-260.88657,1.60801,66.154587
12.5788,0.001648,0.001878,-0.005017,0.000157,-1.2e-05,0.002799,-0.000808,-0.507923,-0.005295,-1.604763,-260.88657,1.60801,66.154587
12.5991,0.001736,0.002049,-0.006008,5.8e-05,-9e-06,0.002725,-0.000907,-0.508116,-0.004961,-1.679698,-260.887001,1.682945,66.154147
12.619,0.001556,0.002199,-0.005555,0.000135,1.4e-05,0.002859,-0.001294,-0.507956,-0.005921,-1.679698,-260.887001,1.682945,66.154147
12.6386,0.001441,0.002186,-0.005223,0.000193,3.2e-05,0.002954,-0.001294,-0.507956,-0.005921,-1.679698,-260.887001,1.682945,66.154147
12.6587,0.001641,0.00207,-0.005391,0.000237,4.5e-05,0.00302,-0.001221,-0.507807,-0.005128,-1.606011,-260.887552,1.607788,66.153591
12.6791,0.00126,0.002253,-0.004285,0.000229,3.7e-05,0.00286,-0.001175,-0.507854,-0.005225,-1.606011,-260.887552,1.607788,66.153591
12.6987,0.001536,0.001957,-0.005272,0.000222,2.9e-05,0.002751,-0.00092,-0.507741,-0.00421,-1.680743,-260.888136,1.68252,66.153034
12.7192,0.001457,0.002323,-0.006077,0.000217,6.1e-05,0.002674,-0.001135,-0.508013,-0.005187,-1.680743,-260.888136,1.68252,66.153034
12.7394,0.001597,0.002429,-0.004617,0.000212,8.4e-05,0.002623,-0.001135,-0.508013,-0.005187,-1.680743,-260.888136,1.68252,66.153034
12.7585,0.001512,0.002168,-0.004365,0.000208,0.0001,0.002589,-0.000748,-0.507565,-0.004504,-1.700224,-260.888813,1.704664,66.15238
12.7789,0.001509,0.00227,-0.003631,6.2e-05,1.9e-05,0.002298,-0.000734,-0.507672,-0.004434,-1.700224,-260.888813,1.704664,66.15238
12.7992,0.001579,0.002309,-0.005096,-4.8e-05,-4.4e-05,0.002106,-0.000336,-0.507724,-0.003549,-1.693881,-260.889489,1.71031,66.151782
12.8193,0.001278,0.002159,-0.004371,-6.1e-05,-8.9e-05,0.002155,-0.000961,-0.507687,-0.00496,-1.693881,-260.889489,1.71031,66.151782
12.8392,0.001494,0.001886,-0.005684,-7.1e-05,-0.000123,0.002194,-0.000961,-0.507687,-0.00496,-1.693881,-260.889489,1.71031,66.151782
12.8586,0.001267,0.002125,-0.005019,-7.8e-05,-0.000149,0.002224,-0.001403,-0.508107,-0.005649,-1.618848,-260.889688,1.635278,66.15157
12.8787,0.001383,0.002198,-0.004071,5.7e-05,-7.4e-05,0.002395,-0.001358,-0.50801,-0.005389,-1.618848,-260.889688,1.635278,66.15157
12.899,0.001539,0.001809,-0.003326,0.000158,-1.8e-05,0.002514,-0.000694,-0.507801,-0.004025,-1.543981,-260.890006,1.560411,66.151173
12.9194,0.001408,0.002368,-0.004569,-0.000125,4.6e-05,0.001878,-0.000205,-0.508153,-0.003386,-1.543981,-260.890006,1.560411,66.151173
12.9393,0.001361,0.002009,-0.005248,-0.000342,8.7e-05,0.001457,-0.000205,-0.508153,-0.003386,-1.543981,-260.890006,1.560411,66.151173
12.9585,0.001391,0.002227,-0.005161,-0.000508,0.000114,0.001183,-0.001313,-0.507985,-0.005182,-1.618979,-260.890387,1.635409,66.150784
12.979,0.001415,0.002096,-0.004408,-0.000308,8.4e-05,0.001601,-0.001284,-0.507896,-0.005166,-1.618979,-260.890387,1.635409,66.150784
12.9985,0.00124,0.002148,-0.005132,-0.000157,6.4e-05,0.001897,-0.000834,-0.507899,-0.004408,-1.543986,-260.890387,1.560415,66.150784
13.0187,0.001552,0.00201,-0.003557,-3.3e-05,4.2e-05,0.002071,-0.001326,-0.50785,-0.005063,-1.543986,-260.890387,1.560415,66.150784
13.0385,0.001277,0.002328,-0.004258,6.2e-05,2.7e-05,0.002191,-0.001326,-0.50785,-0.005063,-1.543986,-260.890387,1.560415,66.150784
13.0588,0.001136,0.002326,-0.003891,0.000135,1.6e-05,0.002273,-0.000898,-0.507666,-0.004207,-1.468983,-260.890703,1.485413,66.1505
13.0787,0.001345,0.002427,-0.004756,4.7e-05,-4.6e-05,0.001982,-0.000878,-0.507667,-0.004072,-1.468983,-260.890703,1.485413,66.1505
13.0987,0.001215,0.00186,-0.0042,-1.8e-05,-9.5e-05,0.001786,-0.001081,-0.507567,-0.004734,-1.543985,-260.890878,1.560415,66.150328
13.1189,0.001495,0.002125,-0.003811,-2.2e-05,-2.5e-05,0.001739,-0.000941,-0.508086,-0.004245,-1.543985,-260.890878,1.560415,66.150328
13.139,0.001211,0.002044,-0.004602,-2.6e-05,2.6e-05,0.001707,-0.000941,-0.508086,-0.004245,-1.543985,-260.890878,1.560415,66.150328
13.1589,0.001434,0.001901,-0.003206,-3e-05,6.3e-05,0.001687,-0.001137,-0.507954,-0.004527,-1.553048,-260.891276,1.55588,66.149855
13.1788,0.001334,0.002138,-0.004261,-9.7e-05,6.6e-05,0.001572,-0.000755,-0.508013,-0.003979,-1.553048,-260.891276,1.55588,66.149855
13.1986,0.001188,0.002021,-0.003661,-0.000148,6.7e-05,0.001496,-0.00084,-0.507855,-0.004208,-1.543442,-260.89171,1.539888,66.149471
13.2187,0.000952,0.002371,-0.003944,-0.000209,5.5e-05,0.001341,-0.000693,-0.507964,-0.003707,-1.543442,-260.89171,1.539888,66.149471
13.2388,0.001261,0.001767,-0.003301,-0.000255,4.5e-05,0.001239,-0.000693,-0.507964,-0.003707,-1.543442,-260.89171,1.539888,66.149471
13.2593,0.001161,0.002111,-0.00521,-0.000291,3.6e-05,0.001173,-0.000425,-0.508229,-0.003265,-1.468518,-260.891937,1.464964,66.149274
13.2795,0.000929,0.001912,-0.004067,-0.000257,6.4e-05,0.001266,-0.000865,-0.508086,-0.00406,-1.468518,-260.891937,1.464964,66.149274
13.2992,0.001221,0.002299,-0.005278,-0.000232,8.4e-05,0.001331,-0.001145,-0.508084,-0.004064,-1.393371,-260.891961,1.389817,66.149253
13.3187,0.001103,0.002051,-0.004131,-6.9e-05,2.4e-05,0.001702,-0.00144,-0.507731,-0.005163,-1.393371,-260.891961,1.389817,66.149253
13.3388,0.0013,0.002156,-0.005896,5.7e-05,-2e-05,0.00196,-0.00144,-0.507731,-0.005163,-1.393371,-260.891961,1.389817,66.149253
13.359,0.000884,0.002138,-0.004325,0.000155,-5.1e-05,0.002138,-0.001713,-0.507833,-0.005857,-1.318508,-260.892221,1.314954,66.149038
13.3789,0.001269,0.001984,-0.003038,0.00027,-4e-05,0.002284,-0.001554,-0.507842,-0.005227,-1.318508,-260.892221,1.314954,66.149038
13.3986,0.001092,0.001792,-0.005377,0.00036,-3.1e-05,0.00238,-0.000281,-0.508013,-0.003037,-1.393497,-260.892226,1.389943,66.149032
13.4188,0.001324,0.00213,-0.004595,0.0,0.0,0.0,-0.001531,-0.508184,-0.005174,-1.393497,-260.892226,1.389943,66.149032
