mach0312/omni-docking-bench/src/icros_test_setup/results/MPPI_sample/timeseries/trial_072.csv
t,x,y,yaw,vx,vy,wz,bl_x,bl_y,bl_yaw,front_steering_joint,front_wheel_joint,rear_steering_joint,rear_wheel_joint
0.0,-0.026019,-0.022976,0.086594,0.006093,-0.000638,0.000829,0.01628,-0.530896,0.085134,-0.021599,-260.311598,-0.185564,67.701164
0.0003,-0.025403,-0.022754,0.086333,0.005385,-0.000564,0.000732,0.01628,-0.530896,0.085134,-0.021599,-260.308054,-0.185564,67.70477
0.0006,-0.025746,-0.023277,0.086448,0.00462,-0.000484,0.000628,0.01628,-0.530896,0.085134,-0.021599,-260.305108,-0.185564,67.707767
0.0009,-0.025537,-0.023231,0.085823,0.003794,-0.000397,0.000516,0.016806,-0.531139,0.084686,-0.021599,-260.30267,-0.185564,67.710247
0.0013,-0.025282,-0.02326,0.086695,0.002922,-0.000306,0.000397,0.016806,-0.531139,0.084686,-0.021599,-260.301152,-0.185564,67.711791
0.0016,-0.025639,-0.023294,0.086219,0.001988,-0.000208,0.00027,0.017489,-0.531276,0.085909,-0.021599,-260.300357,-0.185564,67.7126
0.0018,-0.025042,-0.023228,0.087608,0.001032,-0.000108,0.00014,0.017489,-0.531276,0.085909,-0.021599,-260.300357,-0.185564,67.7126
0.0029,-0.025243,-0.022902,0.085179,0.0,0.0,0.0,0.01827,-0.530707,0.087209,-0.021599,-260.300357,-0.185564,67.7126
0.0031,-0.024997,-0.023331,0.086972,0.0,0.0,0.0,0.017655,-0.530891,0.085607,-0.021599,-260.300357,-0.185564,67.7126
0.0179,-0.02483,-0.023085,0.085843,0.0,0.0,0.0,0.019207,-0.531372,0.08681,-0.021599,-260.300357,-0.185564,67.7126
0.0378,-0.025208,-0.022742,0.086409,0.0,0.0,0.0,0.019207,-0.531372,0.08681,-0.021599,-260.300357,-0.185564,67.7126
0.0576,-0.025227,-0.023295,0.086379,0.0,0.0,0.0,0.018806,-0.530839,0.086409,-0.021599,-260.300357,-0.185564,67.7126
0.0778,-0.025076,-0.022985,0.085338,0.0,0.0,0.0,0.018792,-0.531064,0.086397,-0.021599,-260.300357,-0.185564,67.7126
0.0976,-0.025166,-0.023072,0.085328,0.0,0.0,0.0,0.018393,-0.531129,0.085338,-0.021599,-260.300357,-0.185564,67.7126
0.1179,-0.024978,-0.023067,0.085597,0.000575,0.004779,-0.015315,0.018307,-0.531209,0.085329,-0.021599,-260.300357,-0.185564,67.7126
0.138,-0.02551,-0.023196,0.086797,0.000632,0.005222,-0.016358,0.018307,-0.531209,0.085329,-0.021599,-260.300357,-0.185564,67.7126
0.1578,-0.024928,-0.022772,0.087698,0.000679,0.005598,-0.017153,0.018701,-0.531276,0.086797,-0.021599,-260.300357,-0.185564,67.7126
0.1776,-0.02514,-0.023336,0.08576,0.000702,0.005907,-0.017757,0.019122,-0.531088,0.087162,-0.021599,-260.300357,-0.185564,67.7126
0.1978,-0.02506,-0.02337,0.08653,0.000721,0.00617,-0.01821,0.018544,-0.531461,0.08576,-0.096594,-260.300357,-0.260559,67.7126
0.2177,-0.024758,-0.022871,0.088554,0.000746,0.006399,-0.018546,0.018973,-0.531462,0.086461,-0.096594,-260.300357,-0.260559,67.7126
0.2381,-0.025246,-0.022955,0.085778,0.000768,0.006594,-0.018797,0.018973,-0.531462,0.086461,-0.096594,-260.300357,-0.260559,67.7126
0.2576,-0.025131,-0.023142,0.086809,0.000786,0.00676,-0.018982,0.018447,-0.53108,0.085778,-0.171653,-260.300357,-0.335618,67.7126
0.2777,-0.02488,-0.02321,0.0875,0.000803,0.006901,-0.019119,0.018709,-0.531138,0.0862,-0.171653,-260.300357,-0.335618,67.7126
0.2981,-0.025261,-0.022915,0.08669,0.000817,0.007022,-0.01922,0.019688,-0.531259,0.0875,-0.24665,-260.300357,-0.410615,67.7126
0.318,-0.025166,-0.02288,0.087171,0.000823,0.00712,-0.019295,0.018967,-0.531023,0.086763,-0.24665,-260.300357,-0.410615,67.7126
0.3387,-0.025041,-0.022992,0.088372,0.000829,0.007204,-0.01935,0.018967,-0.531023,0.086763,-0.24665,-260.300357,-0.410615,67.7126
0.3577,-0.025219,-0.023467,0.085522,0.000834,0.007276,-0.01939,0.01997,-0.531002,0.088372,-0.321598,-260.300357,-0.485563,67.7126
0.3777,-0.024923,-0.022832,0.085774,0.000837,0.007336,-0.019419,0.019319,-0.531243,0.08723,-0.321598,-260.300357,-0.485563,67.7126
0.3978,-0.024877,-0.022702,0.086323,0.000839,0.007387,-0.01944,0.018768,-0.530957,0.085774,-0.3966,-260.300357,-0.560565,67.7126
0.4179,-0.024976,-0.022765,0.086068,0.00084,0.007429,-0.019455,0.019064,-0.530817,0.086274,-0.3966,-260.300357,-0.560565,67.7126
0.4379,-0.025161,-0.023482,0.086183,0.00084,0.007465,-0.019466,0.019064,-0.530817,0.086274,-0.3966,-260.300357,-0.560565,67.7126
0.4579,-0.025185,-0.022812,0.086099,0.000841,0.007496,-0.019473,0.018738,-0.531589,0.086183,-0.47165,-260.300357,-0.635615,67.7126
0.4779,-0.025352,-0.023155,0.08773,0.000857,0.007532,-0.019477,0.018711,-0.53132,0.086149,-0.47165,-260.300357,-0.635615,67.7126
0.498,-0.02493,-0.023019,0.0864,0.000871,0.007564,-0.019479,0.019333,-0.531194,0.08773,-0.546598,-260.300357,-0.710563,67.7126
0.5178,-0.025065,-0.023311,0.086255,0.000872,0.007584,-0.019482,0.019101,-0.531123,0.086514,-0.546598,-260.300357,-0.710563,67.7126
0.5377,-0.02525,-0.022884,0.086221,0.000873,0.007601,-0.019483,0.019101,-0.531123,0.086514,-0.546598,-260.300357,-0.710563,67.7126
0.5577,-0.025033,-0.022906,0.08595,0.000874,0.007616,-0.019484,0.018668,-0.53099,0.086221,-0.621749,-260.300357,-0.785714,67.7126
0.5777,-0.0249,-0.023035,0.085367,0.000881,0.007632,-0.019483,0.018701,-0.531003,0.08611,-0.621749,-260.300357,-0.785714,67.7126
0.5976,-0.025264,-0.022622,0.087416,0.000887,0.007646,-0.019483,0.018585,-0.531178,0.085367,-0.696597,-260.300357,-0.860562,67.7126
0.6178,-0.025325,-0.022892,0.085973,0.000878,0.00765,-0.019483,0.019203,-0.530718,0.08724,-0.696597,-260.300357,-0.860562,67.7126
0.6378,-0.025037,-0.022915,0.086632,0.00087,0.007653,-0.019483,0.019203,-0.530718,0.08724,-0.696597,-260.300357,-0.860562,67.7126
0.658,-0.025016,-0.022956,0.086273,0.000864,0.007655,-0.019483,0.01909,-0.531003,0.086632,-0.771703,-260.300357,-0.935668,67.7126
0.6782,-0.025112,-0.023061,0.086773,0.000867,0.007662,-0.019482,0.019024,-0.531026,0.086486,-0.771703,-260.300357,-0.935668,67.7126
0.6984,-0.025081,-0.023153,0.087835,0.000869,0.007669,-0.019481,0.019087,-0.531142,0.086773,-0.846597,-260.300357,-1.010562,67.7126
0.7183,-0.025067,-0.022696,0.085617,0.000864,0.007669,-0.01948,0.019606,-0.531183,0.087739,-0.846597,-260.300357,-1.010562,67.7126
0.7385,-0.025338,-0.02286,0.08642,0.00086,0.00767,-0.01948,0.019606,-0.531183,0.087739,-0.846597,-260.300357,-1.010562,67.7126
0.7584,-0.025036,-0.023302,0.086762,0.000856,0.00767,-0.019479,0.018681,-0.530957,0.08642,-0.9216,-260.300357,-1.085565,67.712599
0.7784,-0.025153,-0.023139,0.087699,0.000866,0.007679,-0.019478,0.018873,-0.531129,0.086558,-0.9216,-260.300357,-1.085565,67.712599
0.7979,-0.025006,-0.022979,0.0868,0.000874,0.007686,-0.019477,0.019516,-0.531179,0.087699,-0.996594,-260.300356,-1.160558,67.712597
0.8178,-0.025015,-0.023288,0.085173,0.000873,0.007687,-0.019477,0.019235,-0.53107,0.086883,-0.996594,-260.300356,-1.160558,67.712597
0.8376,-0.024861,-0.02316,0.085874,0.000872,0.007688,-0.019476,0.019235,-0.53107,0.086883,-0.996594,-260.300356,-1.160558,67.712597
0.8577,-0.025155,-0.023048,0.087304,0.000871,0.007689,-0.019476,0.01888,-0.531279,0.085871,-1.071591,-260.30035,-1.235556,67.71257
0.8779,-0.02531,-0.022934,0.084947,0.000876,0.007694,-0.019475,0.019058,-0.531208,0.086458,-1.071591,-260.30035,-1.235556,67.71257
0.898,-0.025513,-0.023008,0.085729,0.000881,0.007697,-0.019475,0.017959,-0.53109,0.084933,-1.146631,-260.300311,-1.310596,67.71239
0.918,-0.025009,-0.023182,0.08721,0.000901,0.007711,-0.019473,0.018138,-0.531131,0.085657,-1.146631,-260.300311,-1.310596,67.71239
0.9382,-0.025198,-0.023018,0.085058,0.000918,0.007722,-0.019472,0.018138,-0.531131,0.085657,-1.146631,-260.300311,-1.310596,67.71239
0.958,-0.025137,-0.022823,0.085714,0.000933,0.007733,-0.019472,0.018122,-0.531142,0.084975,-1.221594,-260.300135,-1.385559,67.711585
0.9778,-0.025024,-0.022835,0.087177,0.00094,0.007739,-0.019472,0.018284,-0.531061,0.085266,-1.221594,-260.300135,-1.385559,67.711585
0.998,-0.025187,-0.022376,0.085279,0.000947,0.007744,-0.019472,0.019368,-0.530821,0.08698,-1.296593,-260.299589,-1.460558,67.709069
1.0177,-0.025063,-0.022837,0.085675,0.000942,0.007743,-0.019473,0.01835,-0.530545,0.085419,-1.296593,-260.299589,-1.460558,67.709069
1.0379,-0.024878,-0.022659,0.084728,0.000938,0.007742,-0.019473,0.01835,-0.530545,0.085419,-1.296593,-260.299589,-1.460558,67.709069
1.0578,-0.024827,-0.023043,0.085741,0.000934,0.00774,-0.019474,0.018268,-0.530623,0.084208,-1.346391,-260.298496,-1.535637,67.704053
1.0779,-0.024491,-0.022737,0.085191,0.000933,0.00774,-0.019723,0.018505,-0.530825,0.08478,-1.346391,-260.298496,-1.535637,67.704053
1.098,-0.02398,-0.022085,0.083925,0.000932,0.007739,-0.019912,0.01891,-0.530666,0.084637,-1.349581,-260.296972,-1.610663,67.697018
1.1179,-0.023735,-0.022395,0.083986,0.000915,0.007728,-0.020233,0.018785,-0.530313,0.083962,-1.349581,-260.296972,-1.610663,67.697018
1.1382,-0.024211,-0.021826,0.084733,0.000901,0.007718,-0.02048,0.018785,-0.530313,0.083962,-1.349581,-260.296972,-1.610663,67.697018
1.158,-0.023573,-0.022185,0.084094,0.000889,0.007708,-0.02067,0.018963,-0.529671,0.083901,-1.363041,-260.295172,-1.617598,67.689078
1.178,-0.023757,-0.021727,0.082088,0.000865,0.00769,-0.020996,0.019087,-0.529923,0.083884,-1.363041,-260.295172,-1.617598,67.689078
1.1979,-0.022969,-0.021316,0.084317,0.000846,0.007674,-0.02125,0.018069,-0.529765,0.081435,-1.391947,-260.2932,-1.614479,67.681046
1.218,-0.02341,-0.021091,0.082117,0.000808,0.007643,-0.021609,0.019809,-0.529515,0.084023,-1.391947,-260.2932,-1.614479,67.681046
1.2379,-0.022988,-0.021234,0.082743,0.000776,0.007616,-0.021891,0.019809,-0.529515,0.084023,-1.391947,-260.2932,-1.614479,67.681046
1.2583,-0.022666,-0.020874,0.080985,0.00075,0.007592,-0.022112,0.019172,-0.529168,0.081858,-1.412719,-260.291066,-1.611719,67.672837
1.2782,-0.022759,-0.020832,0.082832,0.000734,0.007575,-0.022432,0.018938,-0.529145,0.081404,-1.412719,-260.291066,-1.611719,67.672837
1.2975,-0.022034,-0.020615,0.08142,0.000721,0.007559,-0.022686,0.019441,-0.528845,0.08214,-1.444696,-260.288718,-1.606312,67.664518
1.3176,-0.022269,-0.02028,0.078814,0.000696,0.007534,-0.023018,0.019444,-0.528907,0.081448,-1.444696,-260.288718,-1.606312,67.664518
1.3376,-0.022077,-0.020499,0.08093,0.000675,0.007511,-0.023283,0.019444,-0.528907,0.081448,-1.444696,-260.288718,-1.606312,67.664518
1.3576,-0.021309,-0.020208,0.079319,0.000657,0.007491,-0.023495,0.019157,-0.528514,0.079986,-1.45673,-260.286194,-1.604467,67.655984
1.3777,-0.021288,-0.019989,0.080033,0.000638,0.007469,-0.023787,0.019135,-0.528515,0.079604,-1.45673,-260.286194,-1.604467,67.655984
1.3977,-0.021232,-0.019517,0.078333,0.000623,0.00745,-0.024022,0.019487,-0.528119,0.079289,-1.475293,-260.283454,-1.600869,67.647294
1.4176,-0.020985,-0.019479,0.078285,0.000604,0.007428,-0.024321,0.018749,-0.527956,0.07838,-1.475293,-260.283454,-1.600869,67.647294
1.4377,-0.020915,-0.0195,0.077795,0.000589,0.007408,-0.024563,0.018749,-0.527956,0.07838,-1.475293,-260.283454,-1.600869,67.647294
1.4578,-0.020045,-0.019509,0.075853,0.000576,0.00739,-0.024759,0.018723,-0.527645,0.076792,-1.484787,-260.280558,-1.598937,67.638455
1.4778,-0.020036,-0.019368,0.076846,0.000561,0.007371,-0.025004,0.018674,-0.527772,0.076291,-1.484787,-260.280558,-1.598937,67.638455
1.498,-0.019404,-0.018902,0.076178,0.000548,0.007354,-0.025204,0.019117,-0.527627,0.07606,-1.49643,-260.277465,-1.596377,67.629468
1.5178,-0.019585,-0.018685,0.073422,0.000517,0.007322,-0.025432,0.019383,-0.527429,0.076127,-1.49643,-260.277465,-1.596377,67.629468
1.5379,-0.019426,-0.01924,0.075199,0.00049,0.007293,-0.025618,0.019383,-0.527429,0.076127,-1.49643,-260.277465,-1.596377,67.629468
1.5577,-0.019058,-0.018328,0.075074,0.000468,0.007268,-0.02577,0.018889,-0.527489,0.074143,-1.502765,-260.274229,-1.594875,67.620332
1.5781,-0.018965,-0.018058,0.074623,0.00045,0.007245,-0.025933,0.019017,-0.527204,0.07441,-1.502765,-260.274229,-1.594875,67.620332
1.5979,-0.01807,-0.017736,0.073537,0.000435,0.007225,-0.026067,0.019055,-0.52641,0.073811,-1.515555,-260.270852,-1.591155,67.611173
1.6179,-0.018409,-0.01804,0.072537,0.000398,0.007187,-0.026203,0.019369,-0.52635,0.073519,-1.515555,-260.270852,-1.591155,67.611173
1.6379,-0.018069,-0.018065,0.072207,0.000367,0.007153,-0.026314,0.019369,-0.52635,0.073519,-1.515555,-260.270852,-1.591155,67.611173
1.6582,-0.017915,-0.017405,0.073617,0.000341,0.007123,-0.026405,0.018721,-0.526435,0.07112,-1.520778,-260.267375,-1.5896,67.601927
1.6779,-0.01793,-0.017737,0.071727,0.000321,0.007098,-0.026497,0.019079,-0.526231,0.072016,-1.520778,-260.267375,-1.5896,67.601927
1.6979,-0.01711,-0.016771,0.070226,0.000303,0.007076,-0.026573,0.018614,-0.526199,0.07089,-1.532911,-260.263779,-1.585473,67.592646
1.7179,-0.017166,-0.017129,0.069652,0.000281,0.007049,-0.026653,0.01867,-0.525564,0.070243,-1.532911,-260.263779,-1.585473,67.592646
1.7379,-0.0171,-0.0173,0.071596,0.000262,0.007026,-0.026719,0.01867,-0.525564,0.070243,-1.532911,-260.263779,-1.585473,67.592646
1.7576,-0.01593,-0.01699,0.068992,0.000245,0.007005,-0.026772,0.019375,-0.525698,0.070486,-1.53767,-260.260118,-1.583811,67.58333
1.7775,-0.01634,-0.0168,0.068909,0.000223,0.006979,-0.026833,0.019313,-0.525696,0.069743,-1.53767,-260.260118,-1.583811,67.58333
1.798,-0.015643,-0.01661,0.067954,0.000204,0.006956,-0.026883,0.018768,-0.525367,0.06806,-1.544557,-260.256386,-1.581299,67.574008
1.8181,-0.015917,-0.016459,0.068886,0.000187,0.006934,-0.026938,0.018967,-0.525416,0.06792,-1.544557,-260.256386,-1.581299,67.574008
1.8379,-0.015598,-0.016568,0.068622,0.000173,0.006916,-0.026983,0.018967,-0.525416,0.06792,-1.544557,-260.256386,-1.581299,67.574008
1.8576,-0.014824,-0.016183,0.066153,0.00016,0.006899,-0.027019,0.019361,-0.525077,0.067498,-1.54922,-260.252602,-1.579533,67.564662
1.8777,-0.015381,-0.015708,0.067838,0.000138,0.006873,-0.027062,0.019167,-0.52504,0.066819,-1.54922,-260.252602,-1.579533,67.564662
1.898,-0.014738,-0.015396,0.064999,0.000119,0.006851,-0.027097,0.019181,-0.524316,0.066977,-1.554099,-260.248755,-1.577649,67.555289
1.918,-0.014199,-0.015448,0.065886,9.9e-05,0.006826,-0.027136,0.018456,-0.524308,0.065127,-1.554099,-260.248755,-1.577649,67.555289
1.9377,-0.014447,-0.015583,0.064431,8.2e-05,0.006805,-0.027167,0.018456,-0.524308,0.065127,-1.554099,-260.248755,-1.577649,67.555289
1.9578,-0.013817,-0.014945,0.06301,6.7e-05,0.006786,-0.027193,0.018377,-0.524239,0.063301,-1.558486,-260.244879,-1.575899,67.545937
1.978,-0.013508,-0.01519,0.064979,5e-05,0.006765,-0.027223,0.018342,-0.524079,0.06305,-1.558486,-260.244879,-1.575899,67.545937
1.9977,-0.012867,-0.01465,0.061492,3.6e-05,0.006747,-0.027247,0.019596,-0.523898,0.064114,-1.56399,-260.240952,-1.573654,67.536584
2.0177,-0.012945,-0.014881,0.062521,1.1e-05,0.006718,-0.027274,0.01857,-0.523694,0.061675,-1.56399,-260.240952,-1.573654,67.536584
2.038,-0.013376,-0.014821,0.061803,-9e-06,0.006693,-0.027296,0.01857,-0.523694,0.061675,-1.56399,-260.240952,-1.573654,67.536584
2.0578,-0.012367,-0.014398,0.062249,-2.7e-05,0.006671,-0.027314,0.018108,-0.523565,0.060662,-1.567146,-260.236995,-1.572341,67.52723
2.0788,-0.012074,-0.014734,0.061108,-4.7e-05,0.006646,-0.027335,0.018615,-0.52347,0.061176,-1.567146,-260.236995,-1.572341,67.52723
2.0984,-0.01196,-0.014148,0.059319,-6.5e-05,0.006624,-0.027351,0.019058,-0.523571,0.060241,-1.573475,-260.232993,-1.569648,67.517896
2.1181,-0.011154,-0.013844,0.06061,-8e-05,0.006603,-0.027369,0.018343,-0.523268,0.059356,-1.573475,-260.232993,-1.569648,67.517896
2.138,-0.011875,-0.014232,0.061116,-9.3e-05,0.006585,-0.027383,0.018343,-0.523268,0.059356,-1.573475,-260.232993,-1.569648,67.517896
2.158,-0.010633,-0.01389,0.058008,-0.000104,0.00657,-0.027395,0.019255,-0.523003,0.059974,-1.577195,-260.228962,-1.568031,67.508566
2.1777,-0.010956,-0.013246,0.058847,-0.000132,0.006536,-0.027409,0.019121,-0.522983,0.059032,-1.577195,-260.228962,-1.568031,67.508566
2.1977,-0.009926,-0.013236,0.058482,-0.000155,0.006507,-0.02742,0.019023,-0.522155,0.057978,-1.581074,-260.224884,-1.566314,67.499216
2.2181,-0.010323,-0.013312,0.056289,-0.000197,0.006455,-0.027434,0.019812,-0.522337,0.0584,-1.581074,-260.224884,-1.566314,67.499216
2.2381,-0.010312,-0.013625,0.056144,-0.000232,0.00641,-0.027445,0.019812,-0.522337,0.0584,-1.581074,-260.224884,-1.566314,67.499216
2.2581,-0.009421,-0.012762,0.055811,-0.000261,0.006371,-0.027453,0.018284,-0.522551,0.055004,-1.585905,-260.220802,-1.564143,67.489948
2.2778,-0.009721,-0.012671,0.05622,-0.000273,0.006353,-0.02746,0.018587,-0.52228,0.055202,-1.585905,-260.220802,-1.564143,67.489948
2.2977,-0.009029,-0.012888,0.054253,-0.000282,0.006337,-0.027466,0.018917,-0.521664,0.05535,-1.595941,-260.216658,-1.559496,67.480726
2.318,-0.008852,-0.01236,0.053176,-0.000296,0.006317,-0.027473,0.018651,-0.522084,0.054307,-1.595941,-260.216658,-1.559496,67.480726
2.3386,-0.008832,-0.012394,0.054819,-0.000307,0.006299,-0.027479,0.018651,-0.522084,0.054307,-1.595941,-260.216658,-1.559496,67.480726
2.3578,-0.008294,-0.011896,0.053604,-0.000317,0.006284,-0.027483,0.019085,-0.521362,0.053661,-1.597809,-260.21247,-1.558594,67.471457
2.3785,-0.008198,-0.012325,0.053336,-0.000348,0.006241,-0.027491,0.01906,-0.521252,0.053507,-1.597809,-260.21247,-1.558594,67.471457
2.3975,-0.007664,-0.011666,0.049881,-0.000375,0.006204,-0.027496,0.01897,-0.521399,0.052454,-1.600959,-260.208252,-1.557062,67.462193
2.4176,-0.007593,-0.012032,0.053473,-0.000387,0.006184,-0.027501,0.017853,-0.52105,0.050035,-1.600959,-260.208252,-1.557062,67.462193
2.4379,-0.00766,-0.012072,0.052201,-0.000397,0.006167,-0.027504,0.017853,-0.52105,0.050035,-1.600959,-260.208252,-1.557062,67.462193
2.4576,-0.006779,-0.011421,0.049671,-0.000406,0.006152,-0.027507,0.018922,-0.521121,0.051058,-1.606168,-260.204044,-1.554504,67.453059
2.4778,-0.006806,-0.011878,0.048473,-0.000427,0.006122,-0.027512,0.018764,-0.520957,0.050362,-1.606168,-260.204044,-1.554504,67.453059
2.498,-0.006675,-0.011188,0.049012,-0.000445,0.006095,-0.027515,0.017883,-0.521083,0.047594,-1.608882,-260.199756,-1.553121,67.443821
2.5179,-0.006465,-0.011435,0.048689,-0.000461,0.006069,-0.027518,0.018276,-0.520607,0.048859,-1.608882,-260.199756,-1.553121,67.443821
2.5378,-0.006327,-0.011338,0.04819,-0.000475,0.006047,-0.027521,0.018276,-0.520607,0.048859,-1.608882,-260.199756,-1.553121,67.443821
2.5577,-0.005336,-0.011097,0.045849,-0.000487,0.006027,-0.027523,0.01821,-0.520493,0.047046,-1.612286,-260.195471,-1.551384,67.434664
2.5776,-0.005541,-0.010582,0.047464,-0.000499,0.006008,-0.027525,0.018134,-0.520492,0.046408,-1.612286,-260.195471,-1.551384,67.434664
2.5978,-0.00505,-0.010278,0.047115,-0.000509,0.005991,-0.027526,0.018633,-0.519819,0.046597,-1.615952,-260.191175,-1.549465,67.425573
2.6177,-0.004978,-0.010669,0.046448,-0.000542,0.00594,-0.027531,0.018938,-0.519712,0.047022,-1.615952,-260.191175,-1.549465,67.425573
2.6378,-0.005179,-0.010596,0.045692,-0.00057,0.005895,-0.027533,0.018938,-0.519712,0.047022,-1.615952,-260.191175,-1.549465,67.425573
2.6581,-0.004228,-0.010212,0.044739,-0.000594,0.005857,-0.027535,0.018083,-0.519815,0.044543,-1.617788,-260.186842,-1.548484,67.41645
2.678,-0.00396,-0.009912,0.045252,-0.000606,0.005834,-0.027536,0.018284,-0.519739,0.04449,-1.617788,-260.186842,-1.548484,67.41645
2.6977,-0.003269,-0.00958,0.043395,-0.000617,0.005814,-0.027536,0.019084,-0.519205,0.044378,-1.624912,-260.182453,-1.54462,67.407381
2.7179,-0.003584,-0.009676,0.042619,-0.000646,0.005766,-0.027539,0.018873,-0.5191,0.043436,-1.624912,-260.182453,-1.54462,67.407381
2.7379,-0.003915,-0.009885,0.043713,-0.00067,0.005725,-0.02754,0.018873,-0.5191,0.043436,-1.624912,-260.182453,-1.54462,67.407381
2.7576,-0.003116,-0.009656,0.042301,-0.00069,0.005689,-0.027541,0.018335,-0.519156,0.042562,-1.626815,-260.178054,-1.543539,67.398343
2.7783,-0.002758,-0.009763,0.044258,-0.000701,0.005667,-0.027541,0.018378,-0.519146,0.042324,-1.626815,-260.178054,-1.543539,67.398343
2.7978,-0.002139,-0.009324,0.041718,-0.00071,0.005647,-0.027541,0.019776,-0.519082,0.043375,-1.632685,-260.173589,-1.54016,67.389327
2.8178,-0.002564,-0.009128,0.039613,-0.000732,0.005609,-0.027542,0.019185,-0.518889,0.041818,-1.632685,-260.173589,-1.54016,67.389327
2.8378,-0.002444,-0.00915,0.040549,-0.000749,0.005576,-0.027542,0.019185,-0.518889,0.041818,-1.632685,-260.173589,-1.54016,67.389327
2.8583,-0.001691,-0.008797,0.038182,-0.000764,0.005548,-0.027543,0.018192,-0.518496,0.039399,-1.634285,-260.169107,-1.539192,67.380328
2.8782,-0.001575,-0.00905,0.038934,-0.000775,0.005525,-0.027543,0.018015,-0.51844,0.038761,-1.634285,-260.169107,-1.539192,67.380328
2.8978,-0.00111,-0.008452,0.039634,-0.000785,0.005505,-0.027543,0.018245,-0.518489,0.03806,-1.638471,-260.164591,-1.536652,67.371382
2.9179,-0.001029,-0.008482,0.03818,-0.000809,0.00546,-0.027545,0.019023,-0.518081,0.039456,-1.638471,-260.164591,-1.536652,67.371382
2.9383,-0.001191,-0.00857,0.03858,-0.000829,0.005421,-0.027545,0.019023,-0.518081,0.039456,-1.638471,-260.164591,-1.536652,67.371382
2.9581,-0.000225,-0.008172,0.038162,-0.000845,0.005387,-0.027546,0.018439,-0.517962,0.03743,-1.64003,-260.160062,-1.53566,67.362465
2.9779,-0.000461,-0.007964,0.035335,-0.000862,0.005354,-0.027546,0.018758,-0.51787,0.037596,-1.64003,-260.160062,-1.53566,67.362465
2.9977,0.00021,-0.008005,0.034273,-0.000875,0.005325,-0.027546,0.017523,-0.517475,0.034459,-1.644582,-260.155471,-1.532755,67.353565
3.018,1.9e-05,-0.008059,0.03509,-0.000882,0.005308,-0.027546,0.01767,-0.517677,0.034246,-1.644582,-260.155471,-1.532755,67.353565
3.0381,0.000488,-0.007585,0.036088,-0.000888,0.005293,-0.027546,0.01767,-0.517677,0.034246,-1.644582,-260.155471,-1.532755,67.353565
3.0578,0.000486,-0.007906,0.034225,-0.000893,0.00528,-0.027545,0.018845,-0.517032,0.034937,-1.646785,-260.150858,-1.531291,67.344698
3.0778,0.000648,-0.007893,0.034317,-0.000912,0.00524,-0.027547,0.018467,-0.517243,0.034511,-1.646785,-260.150858,-1.531291,67.344698
3.0979,0.0016,-0.007403,0.03412,-0.000928,0.005206,-0.027547,0.018112,-0.517426,0.033443,-1.648012,-260.146234,-1.530411,67.335864
3.118,0.001609,-0.007564,0.032143,-0.000947,0.005166,-0.027548,0.018917,-0.517126,0.034015,-1.648012,-260.146234,-1.530411,67.335864
3.138,0.001777,-0.00756,0.031806,-0.000963,0.005132,-0.027548,0.018917,-0.517126,0.034015,-1.648012,-260.146234,-1.530411,67.335864
3.1578,0.002042,-0.00748,0.031685,-0.000977,0.005102,-0.027547,0.017949,-0.517086,0.030653,-1.65054,-260.141565,-1.528679,67.327032
3.1779,0.002277,-0.00712,0.031575,-0.000982,0.005087,-0.027546,0.018047,-0.517117,0.030943,-1.65054,-260.141565,-1.528679,67.327032
3.1983,0.003008,-0.007014,0.028559,-0.000987,0.005074,-0.027546,0.018342,-0.516705,0.030698,-1.65392,-260.136858,-1.526285,67.318247
3.2181,0.00253,-0.007308,0.030023,-0.000995,0.005054,-0.027546,0.017634,-0.51679,0.028698,-1.65392,-260.136858,-1.526285,67.318247
3.2384,0.002517,-0.006934,0.029083,-0.001002,0.005037,-0.027546,0.017634,-0.51679,0.028698,-1.65392,-260.136858,-1.526285,67.318247
3.2581,0.003526,-0.006702,0.027313,-0.001007,0.005023,-0.027546,0.0173,-0.516507,0.027932,-1.654625,-260.132153,-1.52574,67.309501
3.2786,0.0032,-0.006722,0.027912,-0.001016,0.005002,-0.027546,0.017357,-0.516485,0.027549,-1.654625,-260.132153,-1.52574,67.309501
3.2979,0.004342,-0.0067,0.026448,-0.001023,0.004983,-0.027546,0.017396,-0.516364,0.027034,-1.655939,-260.127416,-1.524727,67.300754
3.3179,0.004121,-0.006487,0.026274,-0.001032,0.004961,-0.027546,0.017788,-0.516499,0.026456,-1.655939,-260.127416,-1.524727,67.300754
3.3381,0.003854,-0.006714,0.02665,-0.00104,0.004942,-0.027546,0.017788,-0.516499,0.026456,-1.655939,-260.127416,-1.524727,67.300754
3.358,0.004738,-0.006443,0.025373,-0.001047,0.004926,-0.027546,0.017396,-0.516326,0.025498,-1.656973,-260.122653,-1.523925,67.292004
3.3783,0.004873,-0.006467,0.025498,-0.001054,0.004906,-0.027546,0.017507,-0.516282,0.025313,-1.656973,-260.122653,-1.523925,67.292004
3.3976,0.005436,-0.006001,0.023693,-0.001061,0.004889,-0.027546,0.017838,-0.516146,0.024623,-1.658545,-260.117885,-1.522706,67.283312
3.4179,0.005516,-0.00563,0.023923,-0.001074,0.004856,-0.027547,0.017546,-0.515876,0.023733,-1.658545,-260.117885,-1.522706,67.283312
3.4382,0.005736,-0.005825,0.023689,-0.001086,0.004828,-0.027547,0.017546,-0.515876,0.023733,-1.658545,-260.117885,-1.522706,67.283312
3.4581,0.006081,-0.005514,0.023468,-0.001095,0.004804,-0.027546,0.017767,-0.515478,0.022535,-1.659463,-260.113092,-1.521972,67.274616
3.478,0.006242,-0.005627,0.02146,-0.001113,0.004758,-0.027547,0.017876,-0.515412,0.022781,-1.659463,-260.113092,-1.521972,67.274616
3.4983,0.00689,-0.005328,0.022005,-0.001128,0.004719,-0.027547,0.017147,-0.515357,0.02058,-1.661638,-260.108259,-1.520212,67.265945
3.5184,0.006384,-0.005516,0.020931,-0.001145,0.004674,-0.027546,0.018025,-0.51521,0.021836,-1.661638,-260.108259,-1.520212,67.265945
3.5384,0.006785,-0.005228,0.02007,-0.001158,0.004636,-0.027545,0.018025,-0.51521,0.021836,-1.661638,-260.108259,-1.520212,67.265945
3.5583,0.007712,-0.005376,0.019096,-0.00117,0.004603,-0.027544,0.016969,-0.514929,0.018917,-1.663691,-260.103402,-1.518495,67.257327
3.5778,0.007213,-0.005193,0.021088,-0.001179,0.004579,-0.027526,0.017154,-0.515047,0.018854,-1.663691,-260.103402,-1.518495,67.257327
3.5979,0.007929,-0.00501,0.018401,-0.001186,0.004559,-0.027511,0.017927,-0.514934,0.020209,-1.666262,-260.098476,-1.516239,67.248716
3.6177,0.007839,-0.005009,0.019963,-0.001195,0.004533,-0.027494,0.017361,-0.514918,0.018506,-1.666262,-260.098476,-1.516239,67.248716
3.6379,0.007981,-0.005098,0.018398,-0.001203,0.004511,-0.027479,0.017361,-0.514918,0.018506,-1.666262,-260.098476,-1.516239,67.248716
3.6579,0.008537,-0.004888,0.017068,-0.001209,0.004493,-0.027466,0.017311,-0.514823,0.017251,-1.667345,-260.093572,-1.51534,67.240188
3.6783,0.008701,-0.004766,0.016072,-0.001215,0.004473,-0.027417,0.017276,-0.514797,0.017044,-1.667345,-260.093572,-1.51534,67.240188
3.6978,0.009398,-0.004509,0.016877,-0.00122,0.004457,-0.027376,0.016857,-0.514558,0.015196,-1.668911,-260.08863,-1.514013,67.231657
3.7185,0.009092,-0.004098,0.01521,-0.001232,0.004419,-0.02733,0.017903,-0.51444,0.016688,-1.668911,-260.08863,-1.514013,67.231657
3.7382,0.00923,-0.004685,0.01495,-0.001242,0.004388,-0.027292,0.017903,-0.51444,0.016688,-1.668911,-260.08863,-1.514013,67.231657
3.758,0.009968,-0.004103,0.013818,-0.00125,0.004363,-0.027261,0.0168,-0.514442,0.013804,-1.669933,-260.083698,-1.51326,67.223168
3.7786,0.009874,-0.004364,0.013746,-0.001257,0.00433,-0.027032,0.016882,-0.514262,0.013678,-1.669933,-260.083698,-1.51326,67.223168
3.798,0.010399,-0.0036,0.012914,-0.001261,0.004308,-0.026855,0.016842,-0.514176,0.012867,-1.672167,-260.078761,-1.511386,67.214754
3.8183,0.010785,-0.003916,0.011536,-0.001278,0.004253,-0.026627,0.01697,-0.513606,0.012867,-1.672167,-260.078761,-1.511386,67.214754
3.8381,0.010735,-0.003954,0.01375,-0.00129,0.004212,-0.026454,0.01697,-0.513606,0.012867,-1.672167,-260.078761,-1.511386,67.214754
3.8578,0.011116,-0.003921,0.011713,-0.001299,0.00418,-0.026324,0.017692,-0.513726,0.012627,-1.674649,-260.073897,-1.510004,67.206455
3.8778,0.011643,-0.003627,0.012639,-0.001311,0.004152,-0.026123,0.017439,-0.513771,0.012123,-1.674649,-260.073897,-1.510004,67.206455
3.8981,0.011697,-0.003784,0.011298,-0.00132,0.004133,-0.025973,0.018045,-0.513454,0.0118,-1.679526,-260.069112,-1.506773,67.198339
3.9178,0.011901,-0.003628,0.010662,-0.001336,0.004107,-0.025729,0.017509,-0.513718,0.0113,-1.679526,-260.069112,-1.506773,67.198339
3.9381,0.012156,-0.00345,0.010178,-0.001347,0.004091,-0.02555,0.017509,-0.513718,0.0113,-1.679526,-260.069112,-1.506773,67.198339
3.9582,0.012539,-0.002611,0.009042,-0.001355,0.004081,-0.025418,0.01729,-0.513251,0.009094,-1.682861,-260.064392,-1.504879,67.190325
3.9781,0.012701,-0.003305,0.009621,-0.001395,0.003998,-0.024829,0.017225,-0.512958,0.008947,-1.682861,-260.064392,-1.504879,67.190325
3.9979,0.012949,-0.002933,0.006534,-0.001422,0.003942,-0.024409,0.017564,-0.513153,0.008816,-1.688643,-260.059786,-1.501805,67.182469
4.0182,0.01306,-0.003546,0.008227,-0.00146,0.003853,-0.023472,0.016388,-0.512936,0.006688,-1.688643,-260.059786,-1.501805,67.182469
4.0383,0.01283,-0.003316,0.006881,-0.001485,0.003805,-0.022822,0.016388,-0.512936,0.006688,-1.688643,-260.059786,-1.501805,67.182469
4.0582,0.013369,-0.002818,0.006206,-0.0015,0.003784,-0.022373,0.016279,-0.513139,0.005861,-1.699786,-260.055381,-1.495482,67.174939
4.0782,0.013653,-0.002839,0.004059,-0.001517,0.00376,-0.021791,0.016374,-0.512987,0.005883,-1.699786,-260.055381,-1.495482,67.174939
4.0975,0.014026,-0.002734,0.00439,-0.001527,0.003755,-0.02139,0.015675,-0.512715,0.003352,-1.721424,-260.05142,-1.485066,67.167998
4.1178,0.014089,-0.002571,0.00514,-0.001549,0.003701,-0.020463,0.016209,-0.512722,0.004261,-1.721424,-260.05142,-1.485066,67.167998
4.1379,0.014133,-0.002696,0.005428,-0.001564,0.003678,-0.019827,0.016209,-0.512722,0.004261,-1.721424,-260.05142,-1.485066,67.167998
4.1577,0.014383,-0.002461,0.004647,-0.001573,0.003676,-0.019392,0.016837,-0.512532,0.004535,-1.733378,-260.047657,-1.480261,67.16126
4.1783,0.01476,-0.00225,0.002495,-0.00158,0.003675,-0.019181,0.016795,-0.512483,0.004478,-1.733378,-260.047657,-1.480261,67.16126
4.1978,0.014142,-0.002682,0.004222,-0.001585,0.003681,-0.019039,0.016032,-0.512248,0.002495,-1.658365,-260.047657,-1.469761,67.16126
4.2179,0.014185,-0.002671,0.003834,-0.001586,0.003695,-0.018737,0.016272,-0.512638,0.004066,-1.658365,-260.047657,-1.469761,67.16126
4.2381,0.014735,-0.002853,0.004091,-0.001587,0.003713,-0.018521,0.016272,-0.512638,0.004066,-1.658365,-260.047657,-1.469761,67.16126
4.2581,0.014814,-0.002563,0.004244,-0.001586,0.003732,-0.018365,0.016821,-0.512849,0.004091,-1.583365,-260.047658,-1.467648,67.161259
4.278,0.014614,-0.002606,0.004112,-0.001583,0.003758,-0.018283,0.016884,-0.512731,0.004153,-1.583365,-260.047658,-1.467648,67.161259
4.2977,0.014458,-0.002198,0.004075,-0.001581,0.00378,-0.018216,0.016711,-0.512601,0.004112,-1.508356,-260.047658,-1.465117,67.161259
4.3181,0.013797,-0.002592,0.004155,-0.001584,0.003779,-0.018132,0.016552,-0.512231,0.004079,-1.508356,-260.047658,-1.465117,67.161259
4.338,0.014679,-0.002623,0.00658,-0.001586,0.003778,-0.018063,0.016552,-0.512231,0.004079,-1.508356,-260.047658,-1.465117,67.161259
4.358,0.014398,-0.002095,0.004668,-0.001587,0.003778,-0.018005,0.018034,-0.512612,0.00658,-1.433378,-260.047658,-1.465108,67.161258
4.3782,0.014037,-0.002679,0.004043,-0.001566,0.003825,-0.018527,0.017531,-0.512403,0.005814,-1.433378,-260.047658,-1.465108,67.161258
4.398,0.014171,-0.002442,0.005573,-0.001554,0.003854,-0.018893,0.016098,-0.512675,0.004043,-1.358377,-260.047659,-1.463766,67.161257
4.4181,0.014386,-0.002632,0.004691,-0.001548,0.003872,-0.018998,0.01693,-0.512456,0.005434,-1.358377,-260.047659,-1.463766,67.161257
4.4381,0.014428,-0.002361,0.002212,-0.001544,0.003882,-0.019059,0.01693,-0.512456,0.005434,-1.358377,-260.047659,-1.463766,67.161257
4.4578,0.014287,-0.002153,0.002695,-0.001543,0.003887,-0.019091,0.015556,-0.51236,0.002212,-1.283385,-260.047659,-1.470202,67.161257
4.4777,0.014406,-0.002435,0.003255,-0.001567,0.003801,-0.017851,0.015598,-0.512276,0.002407,-1.283385,-260.047659,-1.470202,67.161257
4.4979,0.014437,-0.002485,0.004954,-0.001583,0.003753,-0.01698,0.016066,-0.512433,0.003255,-1.208386,-260.047659,-1.471884,67.161256
4.518,0.014656,-0.002393,0.004665,-0.001567,0.003805,-0.017252,0.016883,-0.512475,0.004801,-1.208386,-260.047659,-1.471884,67.161256
4.5382,0.01447,-0.002493,0.003533,-0.001558,0.003841,-0.017427,0.016883,-0.512475,0.004801,-1.208386,-260.047659,-1.471884,67.161256
4.558,0.014468,-0.002534,0.005151,-0.001552,0.003866,-0.017536,0.016272,-0.51249,0.003533,-1.133394,-260.04766,-1.459162,67.161256
4.5783,0.01429,-0.002519,0.006387,-0.001554,0.003879,-0.017314,0.016607,-0.512505,0.004191,-1.133394,-260.04766,-1.459162,67.161256
4.598,0.014298,-0.002518,0.003739,-0.001555,0.00389,-0.017142,0.017548,-0.512509,0.006387,-1.058393,-260.04766,-1.464707,67.161255
4.6181,0.014242,-0.002581,0.006082,-0.001556,0.003901,-0.016829,0.016323,-0.512514,0.003972,-1.058393,-260.04766,-1.464707,67.161255
4.6377,0.01457,-0.002463,0.003798,-0.001557,0.003912,-0.016592,0.016323,-0.512514,0.003972,-1.058393,-260.04766,-1.464707,67.161255
4.6578,0.014441,-0.002062,0.0045,-0.001557,0.003923,-0.016412,0.016507,-0.512459,0.003798,-0.983347,-260.04766,-1.462944,67.161254
4.678,0.014437,-0.002903,0.004066,-0.001559,0.003925,-0.016182,0.016602,-0.512292,0.004089,-0.983347,-260.04766,-1.462944,67.161254
4.6984,0.014644,-0.002337,0.004337,-0.00156,0.003926,-0.016002,0.016511,-0.512899,0.004066,-0.908238,-260.04766,-1.459612,67.161254
4.718,0.014027,-0.002486,0.00359,-0.001558,0.003935,-0.015927,0.016825,-0.512383,0.004312,-0.908238,-260.04766,-1.459612,67.161254
4.738,0.014555,-0.0025,0.0042,-0.001557,0.003941,-0.01586,0.016825,-0.512383,0.004312,-0.908238,-260.04766,-1.459612,67.161254
4.7577,0.014322,-0.002318,0.003158,-0.001557,0.003945,-0.015803,0.016697,-0.512496,0.0042,-0.833393,-260.047661,-1.457402,67.161253
4.7778,0.014752,-0.002627,0.004944,-0.001562,0.003939,-0.015589,0.016384,-0.512422,0.003774,-0.833393,-260.047661,-1.457402,67.161253
4.7976,0.014581,-0.002469,0.004922,-0.001565,0.003939,-0.015441,0.017274,-0.51262,0.004944,-0.758395,-260.047661,-1.456773,67.161253
4.8178,0.014605,-0.002268,0.006129,-0.001553,0.003964,-0.015663,0.017107,-0.512476,0.004924,-0.758395,-260.047661,-1.456773,67.161253
4.8377,0.014257,-0.002234,0.003499,-0.001546,0.00398,-0.015809,0.017107,-0.512476,0.004924,-0.758395,-260.047661,-1.456773,67.161253
4.8577,0.014456,-0.002206,0.004174,-0.001543,0.003989,-0.015902,0.016041,-0.512231,0.003499,-0.683253,-260.047661,-1.454278,67.161252
4.8779,0.01417,-0.002515,0.005994,-0.001555,0.003959,-0.015628,0.016266,-0.512219,0.003779,-0.683253,-260.047661,-1.454278,67.161252
4.8976,0.014363,-0.002433,0.005216,-0.001563,0.00394,-0.015445,0.017227,-0.512506,0.005994,-0.6082,-260.047661,-1.45867,67.161252
4.9178,0.014659,-0.002333,0.003417,-0.001549,0.003967,-0.015735,0.017042,-0.512434,0.005286,-0.6082,-260.047661,-1.45867,67.161252
4.9377,0.014194,-0.00211,0.00402,-0.00154,0.003984,-0.01593,0.017042,-0.512434,0.005286,-0.6082,-260.047661,-1.45867,67.161252
4.9579,0.014527,-0.002676,0.004379,-0.001535,0.003993,-0.016059,0.016244,-0.512105,0.00402,-0.533387,-260.047662,-1.454457,67.161251
4.978,0.014455,-0.002534,0.004765,-0.001546,0.00397,-0.015839,0.016454,-0.512336,0.004166,-0.533387,-260.047662,-1.454457,67.161251
4.9979,0.014443,-0.002546,0.006589,-0.001553,0.003956,-0.015693,0.016885,-0.512529,0.004765,-0.458368,-260.047662,-1.460006,67.161251
5.018,0.014311,-0.002477,0.003586,-0.001531,0.003993,-0.016126,0.017724,-0.512534,0.006431,-0.458368,-260.047662,-1.460006,67.161251
5.038,0.014971,-0.002443,0.005569,-0.001516,0.004015,-0.016422,0.017724,-0.512534,0.006431,-0.458368,-260.047662,-1.460006,67.161251
5.0579,0.014569,-0.002336,0.005045,-0.001507,0.004027,-0.016621,0.017811,-0.512435,0.005569,-0.383297,-260.047662,-1.456635,67.16125
5.0777,0.014458,-0.001964,0.005464,-0.001517,0.004003,-0.016517,0.017533,-0.512391,0.005351,-0.383297,-260.047662,-1.456635,67.16125
5.0975,0.014452,-0.002482,0.003996,-0.001524,0.003985,-0.016445,0.017245,-0.511956,0.005464,-0.30811,-260.047662,-1.464873,67.161249
5.1177,0.014761,-0.002307,0.006056,-0.00154,0.003951,-0.016056,0.016556,-0.512433,0.004124,-0.30811,-260.047662,-1.464873,67.161249
5.138,0.01447,-0.002477,0.004074,-0.00155,0.003932,-0.015801,0.016556,-0.512433,0.004124,-0.30811,-260.047662,-1.464873,67.161249
5.1576,0.014045,-0.002788,0.00536,-0.001557,0.003923,-0.015637,0.016548,-0.512473,0.004074,-0.23329,-260.047663,-1.462575,67.161249
5.1779,0.014292,-0.002358,0.005272,-0.001553,0.00394,-0.015671,0.016642,-0.512599,0.004601,-0.23329,-260.047663,-1.462575,67.161249
5.1975,0.014435,-0.00272,0.004323,-0.00155,0.003954,-0.015697,0.01698,-0.512351,0.005272,-0.158274,-260.047663,-1.45575,67.161248
5.2182,0.014458,-0.002181,0.003246,-0.00155,0.003966,-0.015661,0.016669,-0.512683,0.004407,-0.158274,-260.047663,-1.45575,67.161248
5.2381,0.014696,-0.002789,0.004383,-0.001549,0.003977,-0.015639,0.016669,-0.512683,0.004407,-0.158274,-260.047663,-1.45575,67.161248
5.2582,0.014038,-0.002365,0.005587,-0.001547,0.003988,-0.015627,0.016932,-0.512784,0.004383,-0.083366,-260.047663,-1.4568,67.161248
5.2782,0.014026,-0.002322,0.003193,-0.001542,0.004002,-0.015748,0.016914,-0.512609,0.004878,-0.083366,-260.047663,-1.4568,67.161248
5.2984,0.014414,-0.002632,0.00502,-0.001539,0.004012,-0.015829,0.015654,-0.512319,0.003193,-0.00829,-260.047663,-1.456937,67.161247
5.3182,0.014623,-0.002584,0.003711,-0.001537,0.004017,-0.015868,0.016829,-0.512592,0.00482,-0.00829,-260.047663,-1.456937,67.161247
5.338,0.01475,-0.002403,0.003871,-0.001537,0.004021,-0.015893,0.016829,-0.512592,0.00482,-0.00829,-260.047663,-1.456937,67.161247
5.3582,0.014175,-0.00257,0.002333,-0.001536,0.004023,-0.01591,0.016725,-0.512399,0.003871,0.066612,-260.047663,-1.458787,67.161247
5.3781,0.014559,-0.002852,0.003676,-0.001554,0.003982,-0.015432,0.016174,-0.512468,0.003248,0.066612,-260.047663,-1.458787,67.161247
5.3976,0.014531,-0.002542,0.006147,-0.001564,0.003959,-0.015119,0.016433,-0.512849,0.003676,0.141635,-260.047664,-1.459455,67.161246
5.418,0.014457,-0.002425,0.005716,-0.00154,0.004001,-0.015636,0.017561,-0.512559,0.005937,0.141635,-260.047664,-1.459455,67.161246
5.438,0.014604,-0.002455,0.002183,-0.001525,0.004026,-0.015993,0.017561,-0.512559,0.005937,0.141635,-260.047664,-1.459455,67.161246
5.4578,0.014566,-0.002434,0.002779,-0.001516,0.00404,-0.016236,0.015717,-0.512454,0.002183,0.216733,-260.047664,-1.452782,67.161246
5.478,0.014403,-0.002613,0.004698,-0.001546,0.003962,-0.015316,0.015825,-0.512445,0.002424,0.216733,-260.047664,-1.452782,67.161246
5.4979,0.014748,-0.002674,0.003452,-0.001565,0.003919,-0.014715,0.016799,-0.512607,0.004698,0.291602,-260.047664,-1.462575,67.161245
5.5178,0.014515,-0.002771,0.005226,-0.001564,0.003938,-0.014745,0.016533,-0.512666,0.00356,0.291602,-260.047664,-1.462575,67.161245
5.5379,0.014429,-0.002248,0.003574,-0.001562,0.003955,-0.014774,0.016533,-0.512666,0.00356,0.291602,-260.047664,-1.462575,67.161245
5.5576,0.014983,-0.002364,0.004787,-0.001561,0.003971,-0.014799,0.016252,-0.512245,0.003574,0.366718,-260.047664,-1.45016,67.161245
5.5778,0.014633,-0.002512,0.003562,-0.001558,0.003977,-0.01498,0.016727,-0.512291,0.004066,0.366718,-260.047664,-1.45016,67.161245
5.5978,0.014539,-0.002223,0.004819,-0.001557,0.003978,-0.015105,0.016449,-0.512509,0.003562,0.44161,-260.047665,-1.451379,67.161244
5.6181,0.014463,-0.002384,0.005806,-0.00155,0.003987,-0.015369,0.016949,-0.512242,0.004711,0.44161,-260.047665,-1.451379,67.161244
5.6378,0.014413,-0.002864,0.004449,-0.001546,0.003989,-0.015547,0.016949,-0.512242,0.004711,0.44161,-260.047665,-1.451379,67.161244
5.6579,0.014755,-0.002202,0.003662,-0.001544,0.003987,-0.015666,0.016682,-0.512859,0.004449,0.516694,-260.047665,-1.453397,67.161243
5.6779,0.014306,-0.002494,0.004622,-0.001547,0.003988,-0.015579,0.016658,-0.512591,0.00413,0.516694,-260.047665,-1.453397,67.161243
5.6976,0.014071,-0.002261,0.005352,-0.001549,0.003991,-0.01552,0.016663,-0.512488,0.004621,0.59162,-260.047665,-1.457343,67.161243
5.7177,0.014574,-0.00222,0.003657,-0.001538,0.004003,-0.015786,0.016788,-0.512274,0.005288,0.59162,-260.047665,-1.457343,67.161243
5.7381,0.014462,-0.002606,0.003595,-0.001533,0.004008,-0.015963,0.016788,-0.512274,0.005288,0.59162,-260.047665,-1.457343,67.161243
5.758,0.014479,-0.002452,0.003626,-0.00153,0.004007,-0.01608,0.016295,-0.512603,0.003595,0.666696,-260.047666,-1.456339,67.161241
5.7788,0.014355,-0.002709,0.005785,-0.001545,0.003978,-0.015673,0.016308,-0.512541,0.003607,0.666696,-260.047666,-1.456339,67.161241
5.798,0.014273,-0.002145,0.004211,-0.001553,0.003964,-0.015406,0.017305,-0.512701,0.005784,0.741609,-260.047668,-1.460604,67.161237
5.8178,0.014322,-0.002504,0.005214,-0.001554,0.003958,-0.015461,0.016498,-0.512189,0.004349,0.741609,-260.047668,-1.460604,67.161237
5.8377,0.014173,-0.002496,0.004577,-0.001555,0.003952,-0.015499,0.016498,-0.512189,0.004349,0.741609,-260.047668,-1.460604,67.161237
5.8579,0.014276,-0.002604,0.004366,-0.001556,0.003946,-0.015526,0.016507,-0.512489,0.004573,0.816731,-260.047681,-1.455153,67.161205
5.8779,0.014574,-0.002847,0.004423,-0.001551,0.003962,-0.015584,0.016505,-0.512534,0.004488,0.816731,-260.047681,-1.455153,67.161205
5.8979,0.014468,-0.002444,0.003796,-0.001548,0.003975,-0.015622,0.016828,-0.512839,0.004413,0.891693,-260.047731,-1.455414,67.161088
5.9184,0.0141,-0.002444,0.00402,-0.001554,0.003966,-0.015457,0.016441,-0.512476,0.003851,0.891693,-260.047731,-1.455414,67.161088
5.9385,0.0145,-0.002629,0.003923,-0.001557,0.003963,-0.015348,0.016441,-0.512476,0.003851,0.891693,-260.047731,-1.455414,67.161088
5.9578,0.014246,-0.002656,0.002396,-0.001559,0.003963,-0.015277,0.016494,-0.512613,0.003883,0.966638,-260.04788,-1.456754,67.160736
5.978,0.014188,-0.002884,0.004002,-0.001564,0.003961,-0.015038,0.016075,-0.512629,0.003272,0.966638,-260.04788,-1.456754,67.160736
5.998,0.014345,-0.002791,0.004542,-0.001565,0.003966,-0.014882,0.016216,-0.512855,0.003914,1.041731,-260.048296,-1.454019,67.159742
6.018,0.01472,-0.002298,0.004362,-0.00155,0.004008,-0.015155,0.016621,-0.512791,0.004481,1.041731,-260.048296,-1.454019,67.159742
6.038,0.014357,-0.002669,0.003426,-0.00154,0.004038,-0.015341,0.016621,-0.512791,0.004481,1.041731,-260.048296,-1.454019,67.159742
6.0577,0.014608,-0.002541,0.00402,-0.001534,0.004059,-0.015467,0.01607,-0.512594,0.00317,1.116603,-260.04919,-1.451453,67.157546
6.0776,0.014631,-0.002209,0.004747,-0.001544,0.004038,-0.0153,0.016304,-0.512563,0.003485,1.116603,-260.04919,-1.451453,67.157546
6.0976,0.014827,-0.002107,0.00259,-0.00155,0.004026,-0.015197,0.017017,-0.512123,0.004452,1.191587,-260.050544,-1.45769,67.15426
6.118,0.015037,-0.00224,0.002297,-0.001567,0.003973,-0.0149,0.016224,-0.512102,0.002743,1.191587,-260.050544,-1.45769,67.15426
6.1379,0.014913,-0.002058,0.001998,-0.001577,0.003938,-0.014714,0.016224,-0.512102,0.002743,1.191587,-260.050544,-1.45769,67.15426
6.1578,0.015168,-0.001971,0.003457,-0.001584,0.003915,-0.014602,0.015873,-0.511909,0.001444,1.266601,-260.052459,-1.454826,67.14958
6.178,0.01516,-0.001498,0.002768,-0.001595,0.00387,-0.01434,0.016302,-0.511916,0.002209,1.266601,-260.052459,-1.454826,67.14958
6.198,0.01539,-0.0019,0.003655,-0.001603,0.003841,-0.014178,0.016521,-0.511372,0.002304,1.264259,-260.054555,-1.448018,67.144415
6.2181,0.015008,-0.001981,0.001825,-0.001598,0.003844,-0.014657,0.017188,-0.511845,0.003515,1.264259,-260.054555,-1.448018,67.144415
6.2382,0.015427,-0.002025,0.001206,-0.001596,0.003841,-0.015003,0.017188,-0.511845,0.003515,1.264259,-260.054555,-1.448018,67.144415
6.2579,0.015503,-0.001578,0.000472,-0.001595,0.003834,-0.015254,0.015975,-0.511864,0.000616,1.249691,-260.056579,-1.443273,67.139392
6.2782,0.015973,-0.002049,0.00161,-0.001613,0.003718,-0.014064,0.015872,-0.511728,0.000488,1.249691,-260.056579,-1.443273,67.139392
6.2978,0.015885,-0.001897,0.000589,-0.001628,0.003644,-0.01323,0.016745,-0.51193,0.001137,1.287722,-260.058809,-1.450114,67.134219
6.3179,0.016035,-0.001432,0.001351,-0.001639,0.003608,-0.012711,0.016232,-0.511894,0.000614,1.287722,-260.058809,-1.450114,67.134219
6.3379,0.016075,-0.001646,0.000619,-0.001646,0.003591,-0.012353,0.016232,-0.511894,0.000614,1.287722,-260.058809,-1.450114,67.134219
6.3581,0.015881,-0.001301,-0.001458,-0.001651,0.003586,-0.012107,0.016328,-0.511505,0.000108,1.218972,-260.060553,-1.432776,67.129848
6.3784,0.016144,-0.001158,-0.001148,-0.001658,0.003518,-0.011421,0.015832,-0.511405,-0.000593,1.218972,-260.060553,-1.432776,67.129848
6.3975,0.016163,-0.001308,-0.001579,-0.001663,0.003476,-0.010927,0.015509,-0.51105,-0.001512,1.161863,-260.062126,-1.421601,67.125643
6.4178,0.016156,-0.000992,-0.00025,-0.001663,0.003412,-0.010259,0.015368,-0.51128,-0.001591,1.161863,-260.062126,-1.421601,67.125643
6.4378,0.016719,-0.001173,-0.001312,-0.001662,0.003373,-0.00977,0.015368,-0.51128,-0.001591,1.161863,-260.062126,-1.421601,67.125643
6.4578,0.016535,-0.000935,-0.000747,-0.001661,0.00335,-0.009415,0.015987,-0.511039,-0.001732,1.091289,-260.063459,-1.408395,67.121839
6.4776,0.016866,-0.00087,-0.001418,-0.001662,0.003322,-0.009232,0.01605,-0.510979,-0.001364,1.091289,-260.063459,-1.408395,67.121839
6.4975,0.017004,-0.00083,-0.001251,-0.001663,0.003303,-0.009102,0.016104,-0.510789,-0.001649,1.015967,-260.064357,-1.390297,67.118993
6.5176,0.016695,-0.000716,-0.002014,-0.001665,0.003281,-0.009035,0.016342,-0.510823,-0.001296,1.015967,-260.064357,-1.390297,67.118993
6.5376,0.016945,-0.000641,-0.003177,-0.001666,0.003264,-0.008989,0.016342,-0.510823,-0.001296,1.015967,-260.064357,-1.390297,67.118993
6.5577,0.0169,-0.000778,-0.001971,-0.001666,0.003252,-0.008958,0.015263,-0.510514,-0.003519,0.941267,-260.06537,-1.385307,67.115734
6.5778,0.016645,-0.000598,-0.00307,-0.001661,0.00319,-0.008518,0.015521,-0.51061,-0.002908,0.941267,-260.06537,-1.385307,67.115734
6.598,0.016656,-0.000631,-0.002918,-0.001657,0.003147,-0.008194,0.015027,-0.510493,-0.003353,0.926765,-260.066473,-1.38207,67.112203
6.6179,0.01679,-0.000571,-0.004122,-0.001652,0.003117,-0.007944,0.015153,-0.510612,-0.002969,0.926765,-260.066473,-1.38207,67.112203
6.6381,0.017182,-0.000527,-0.00132,-0.001647,0.003097,-0.007762,0.015153,-0.510612,-0.002969,0.926765,-260.066473,-1.38207,67.112203
6.658,0.016853,-0.000553,-0.002297,-0.001643,0.003086,-0.007631,0.016448,-0.51041,-0.001625,0.851972,-260.067359,-1.370241,67.109242
6.6778,0.017313,-0.000184,-0.002122,-0.001644,0.003096,-0.007797,0.016125,-0.510455,-0.001937,0.851972,-260.067359,-1.370241,67.109242
6.6976,0.017249,-0.000379,-0.003288,-0.001645,0.0031,-0.007914,0.016186,-0.510096,-0.002336,0.777001,-260.068163,-1.361806,67.106447
6.7186,0.017026,6.4e-05,-0.003812,-0.001642,0.003064,-0.007667,0.015624,-0.510347,-0.003214,0.777001,-260.068163,-1.361806,67.106447
6.7384,0.017148,-0.000128,-0.00326,-0.00164,0.003038,-0.007484,0.015624,-0.510347,-0.003214,0.777001,-260.068163,-1.361806,67.106447
6.7579,0.016953,-0.000248,-0.002508,-0.001638,0.00302,-0.007348,0.015418,-0.509997,-0.003585,0.811601,-260.069102,-1.366374,67.103263
6.7783,0.017256,0.0002,-0.00345,-0.001637,0.002994,-0.007249,0.015515,-0.510085,-0.00318,0.811601,-260.069102,-1.366374,67.103263
6.7977,0.017388,3.4e-05,-0.004732,-0.001635,0.002974,-0.007174,0.01545,-0.509711,-0.00366,0.736454,-260.069892,-1.356044,67.1005
6.8178,0.017338,-0.00015,-0.002712,-0.001629,0.002922,-0.006825,0.015013,-0.509935,-0.004651,0.736454,-260.069892,-1.356044,67.1005
6.8377,0.017346,0.000404,-0.003521,-0.001623,0.002884,-0.006561,0.015013,-0.509935,-0.004651,0.736454,-260.069892,-1.356044,67.1005
6.8577,0.017355,-0.000242,-0.004426,-0.001617,0.002856,-0.006362,0.015483,-0.509469,-0.003817,0.710616,-260.070745,-1.352057,67.097523
6.878,0.017998,0.00022,-0.005171,-0.001615,0.002837,-0.006304,0.015317,-0.509769,-0.004101,0.710616,-260.070745,-1.352057,67.097523
6.8976,0.017324,0.000112,-0.004184,-0.001613,0.002823,-0.00626,0.015325,-0.509709,-0.005318,0.635744,-260.071294,-1.335347,67.095538
6.9179,0.017733,-4e-06,-0.003723,-0.001611,0.002814,-0.006179,0.0152,-0.509865,-0.004287,0.635744,-260.071294,-1.335347,67.095538
6.9383,0.017352,-0.000159,-0.004228,-0.001608,0.002808,-0.006116,0.0152,-0.509865,-0.004287,0.635744,-260.071294,-1.335347,67.095538
6.9576,0.017958,0.000446,-0.005977,-0.001606,0.002804,-0.006069,0.015135,-0.510048,-0.004464,0.560606,-260.071978,-1.332663,67.093074
6.9779,0.017596,0.000488,-0.00484,-0.001602,0.002785,-0.005882,0.015035,-0.509828,-0.005116,0.560606,-260.071978,-1.332663,67.093074
6.9977,0.017653,0.000539,-0.004715,-0.001598,0.002772,-0.00574,0.015079,-0.50942,-0.005026,0.512038,-260.072687,-1.32893,67.090491
7.018,0.017731,0.000365,-0.003611,-0.001596,0.002746,-0.005691,0.015232,-0.509448,-0.00475,0.512038,-260.072687,-1.32893,67.090491
7.038,0.017655,0.000522,-0.005035,-0.001595,0.002726,-0.005653,0.015232,-0.509448,-0.00475,0.512038,-260.072687,-1.32893,67.090491
7.058,0.017503,0.00088,-0.006722,-0.001594,0.002709,-0.005625,0.015028,-0.509367,-0.00525,0.437036,-260.07332,-1.321567,67.088162
7.078,0.017971,0.000197,-0.00549,-0.001589,0.002666,-0.005425,0.014628,-0.509248,-0.005882,0.437036,-260.07332,-1.321567,67.088162
7.0975,0.018182,0.000552,-0.006118,-0.001585,0.002634,-0.005273,0.015122,-0.509709,-0.005668,0.427321,-260.074021,-1.317014,67.085619
7.1182,0.017509,0.000691,-0.006157,-0.001581,0.00262,-0.005124,0.015064,-0.509455,-0.006092,0.427321,-260.074021,-1.317014,67.085619
7.1378,0.018096,0.000329,-0.005856,-0.001578,0.002611,-0.00501,0.015064,-0.509455,-0.006092,0.427321,-260.074021,-1.317014,67.085619
7.1579,0.017791,0.000435,-0.005362,-0.001574,0.002605,-0.004923,0.01505,-0.509561,-0.006057,0.354768,-260.074639,-1.306389,67.083402
7.178,0.018168,0.000518,-0.005727,-0.001571,0.002612,-0.004893,0.015046,-0.509548,-0.005794,0.354768,-260.074639,-1.306389,67.083402
7.1978,0.017663,0.001185,-0.006549,-0.001569,0.002619,-0.00487,0.015206,-0.509404,-0.005859,0.280058,-260.075182,-1.297296,67.081454
7.2179,0.017884,0.001121,-0.006677,-0.001565,0.002571,-0.004756,0.014399,-0.508854,-0.006495,0.280058,-260.075182,-1.297296,67.081454
7.2379,0.018336,0.001207,-0.006311,-0.001561,0.002532,-0.004668,0.014399,-0.508854,-0.006495,0.280058,-260.075182,-1.297296,67.081454
7.2577,0.017893,0.001337,-0.006459,-0.001557,0.002502,-0.0046,0.015056,-0.508678,-0.006505,0.223111,-260.075793,-1.297385,67.079247
7.2784,0.017917,0.000693,-0.005372,-0.001554,0.002466,-0.004541,0.014862,-0.508655,-0.006508,0.223111,-260.075793,-1.297385,67.079247
7.2975,0.017968,0.001545,-0.005954,-0.001551,0.002437,-0.004494,0.015128,-0.50922,-0.005519,0.195333,-260.076422,-1.285632,67.077055
7.3178,0.018051,0.00118,-0.007911,-0.001548,0.002412,-0.004534,0.014945,-0.508503,-0.005926,0.195333,-260.076422,-1.285632,67.077055
7.3376,0.017624,0.00118,-0.007283,-0.001545,0.002389,-0.004562,0.014945,-0.508503,-0.005926,0.195333,-260.076422,-1.285632,67.077055
7.3579,0.017815,0.001471,-0.006454,-0.001543,0.00237,-0.004583,0.013846,-0.508705,-0.007469,0.196049,-260.07705,-1.280017,67.074904
7.3784,0.018102,0.001511,-0.007037,-0.00154,0.002343,-0.004454,0.014115,-0.508617,-0.007077,0.196049,-260.07705,-1.280017,67.074904
7.398,0.018344,0.001483,-0.006692,-0.001536,0.002322,-0.004354,0.014468,-0.508407,-0.00717,0.270664,-260.077635,-1.280722,67.072933
7.4179,0.017687,0.001583,-0.008592,-0.001534,0.002305,-0.004311,0.014887,-0.508493,-0.006742,0.270664,-260.077635,-1.280722,67.072933
7.4381,0.018404,0.001182,-0.007467,-0.001532,0.002292,-0.004278,0.014887,-0.508493,-0.006742,0.270664,-260.077635,-1.280722,67.072933
7.4579,0.01779,0.001474,-0.006043,-0.00153,0.002281,-0.004253,0.014535,-0.50871,-0.007641,0.215884,-260.078235,-1.271605,67.070946
7.478,0.018189,0.001459,-0.006806,-0.001528,0.002276,-0.004201,0.014599,-0.50862,-0.007005,0.215884,-260.078235,-1.271605,67.070946
7.4975,0.018147,0.001585,-0.009129,-0.001526,0.002272,-0.004161,0.01467,-0.508457,-0.006941,0.204137,-260.078859,-1.2669,67.068906
7.5177,0.017832,0.001781,-0.007128,-0.001522,0.002232,-0.003969,0.013589,-0.508395,-0.008948,0.204137,-260.078859,-1.2669,67.068906
7.5377,0.018335,0.001294,-0.007961,-0.001517,0.002201,-0.003816,0.013589,-0.508395,-0.008948,0.204137,-260.078859,-1.2669,67.068906
7.5579,0.018212,0.001814,-0.007395,-0.001512,0.002177,-0.003696,0.014212,-0.508596,-0.008133,0.174579,-260.079469,-1.263853,67.066918
7.5779,0.018263,0.00175,-0.007023,-0.001509,0.002174,-0.003681,0.014298,-0.508413,-0.007854,0.174579,-260.079469,-1.263853,67.066918
7.5978,0.018456,0.001684,-0.006029,-0.001506,0.002171,-0.00367,0.014644,-0.508184,-0.007117,0.099697,-260.079942,-1.242114,67.065453
7.6177,0.017951,0.001903,-0.006645,-0.001505,0.002189,-0.003863,0.015313,-0.508293,-0.006133,0.099697,-260.079942,-1.242114,67.065453
7.6384,0.01808,0.002213,-0.007634,-0.001505,0.002199,-0.004006,0.015313,-0.508293,-0.006133,0.099697,-260.079942,-1.242114,67.065453
7.6582,0.01793,0.002073,-0.009115,-0.001505,0.002205,-0.004113,0.014127,-0.507684,-0.007781,0.046543,-260.080519,-1.241876,67.06367
7.678,0.018274,0.00194,-0.006994,-0.001501,0.002141,-0.003959,0.013779,-0.507764,-0.008337,0.046543,-260.080519,-1.241876,67.06367
7.6978,0.018242,0.002334,-0.007665,-0.001495,0.002088,-0.003837,0.014675,-0.507998,-0.007081,0.121561,-260.080935,-1.261898,67.062328
7.7177,0.01856,0.002023,-0.00698,-0.001491,0.002053,-0.003799,0.014362,-0.50768,-0.007617,0.121561,-260.080935,-1.261898,67.062328
7.7382,0.018217,0.002073,-0.0088,-0.001487,0.002023,-0.00377,0.014362,-0.50768,-0.007617,0.121561,-260.080935,-1.261898,67.062328
7.7579,0.018628,0.001808,-0.008382,-0.001484,0.001999,-0.003747,0.013669,-0.507823,-0.008955,0.168888,-260.081518,-1.245372,67.060531
7.7777,0.018531,0.002117,-0.007858,-0.001482,0.001983,-0.003636,0.013942,-0.507956,-0.008739,0.168888,-260.081518,-1.245372,67.060531
7.7977,0.018605,0.002482,-0.008096,-0.00148,0.001972,-0.003549,0.014477,-0.507804,-0.007976,0.192835,-260.082119,-1.237555,67.058727
7.818,0.018153,0.001598,-0.008793,-0.001476,0.001945,-0.003529,0.014474,-0.507522,-0.008092,0.192835,-260.082119,-1.237555,67.058727
7.838,0.01819,0.002548,-0.008521,-0.001472,0.001923,-0.003513,0.014474,-0.507522,-0.008092,0.192835,-260.082119,-1.237555,67.058727
7.8578,0.018341,0.002614,-0.009579,-0.001469,0.001904,-0.0035,0.013787,-0.507356,-0.00866,0.131683,-260.082678,-1.227489,67.057081
7.878,0.018399,0.002743,-0.009566,-0.001462,0.001862,-0.003416,0.013647,-0.50735,-0.009047,0.131683,-260.082678,-1.227489,67.057081
7.8975,0.018561,0.002709,-0.008634,-0.001456,0.001828,-0.003349,0.013475,-0.507173,-0.009677,0.157523,-260.083266,-1.22223,67.05538
7.9179,0.018268,0.00241,-0.010188,-0.001452,0.001801,-0.003317,0.014095,-0.50726,-0.008733,0.157523,-260.083266,-1.22223,67.05538
7.938,0.018554,0.002299,-0.008911,-0.001447,0.00178,-0.003292,0.014095,-0.50726,-0.008733,0.157523,-260.083266,-1.22223,67.05538
7.9579,0.017929,0.002734,-0.008258,-0.001444,0.001762,-0.003272,0.013949,-0.507604,-0.009051,0.14841,-260.083853,-1.211177,67.05373
7.9778,0.017797,0.002594,-0.008607,-0.001441,0.001757,-0.003254,0.013849,-0.507452,-0.008748,0.14841,-260.083853,-1.211177,67.05373
7.998,0.018462,0.002464,-0.009617,-0.001438,0.001753,-0.00324,0.013362,-0.507331,-0.008711,0.162646,-260.084437,-1.204242,67.052123
8.018,0.018757,0.002566,-0.009639,-0.001436,0.001743,-0.003174,0.013538,-0.507494,-0.009543,0.162646,-260.084437,-1.204242,67.052123
8.0383,0.018199,0.002459,-0.009968,-0.001434,0.001736,-0.003122,0.013538,-0.507494,-0.009543,0.162646,-260.084437,-1.204242,67.052123
8.0578,0.018297,0.003316,-0.009026,-0.001431,0.001731,-0.00308,0.013056,-0.507442,-0.010104,0.155796,-260.085019,-1.202884,67.050525
8.0781,0.018348,0.002788,-0.008755,-0.001425,0.001698,-0.003037,0.013308,-0.507117,-0.009681,0.155796,-260.085019,-1.202884,67.050525
8.0977,0.018265,0.003241,-0.011292,-0.001419,0.00167,-0.003002,0.01384,-0.50714,-0.008849,0.104794,-260.08557,-1.193511,67.049038
8.118,0.018665,0.002732,-0.010039,-0.001404,0.001604,-0.002917,0.012625,-0.506761,-0.011075,0.104794,-260.08557,-1.193511,67.049038
8.1379,0.018123,0.002762,-0.009309,-0.001391,0.001549,-0.002848,0.012625,-0.506761,-0.011075,0.104794,-260.08557,-1.193511,67.049038
8.158,0.018481,0.003456,-0.008921,-0.00138,0.001503,-0.002792,0.013317,-0.507145,-0.009435,0.114312,-260.086139,-1.186035,67.04753
8.1778,0.0185,0.002833,-0.009457,-0.001377,0.001502,-0.002833,0.013559,-0.506885,-0.009241,0.114312,-260.086139,-1.186035,67.04753
8.198,0.018438,0.002906,-0.010477,-0.001375,0.0015,-0.002867,0.013634,-0.507097,-0.009544,0.145338,-260.086685,-1.164707,67.046164
8.2181,0.018483,0.0033,-0.009809,-0.001374,0.001496,-0.00283,0.013141,-0.507066,-0.010398,0.145338,-260.086685,-1.164707,67.046164
8.2383,0.018453,0.003154,-0.010132,-0.001373,0.001493,-0.0028,0.013141,-0.507066,-0.010398,0.145338,-260.086685,-1.164707,67.046164
8.2582,0.018675,0.003224,-0.010635,-0.001372,0.00149,-0.002777,0.01323,-0.506757,-0.01025,0.180231,-260.087233,-1.170526,67.04478
8.2779,0.01836,0.003174,-0.00977,-0.001368,0.001468,-0.002754,0.013232,-0.506746,-0.010419,0.180231,-260.087233,-1.170526,67.04478
8.2979,0.018465,0.003255,-0.009114,-0.001364,0.001449,-0.002736,0.013335,-0.506754,-0.009857,0.148817,-260.087779,-1.1641,67.043415
8.318,0.018348,0.00342,-0.009627,-0.001363,0.00145,-0.002789,0.013772,-0.506724,-0.009185,0.148817,-260.087779,-1.1641,67.043415
8.338,0.018009,0.003309,-0.010418,-0.001362,0.001449,-0.002832,0.013772,-0.506724,-0.009185,0.148817,-260.087779,-1.1641,67.043415
8.358,0.018359,0.002921,-0.007881,-0.001361,0.001449,-0.002865,0.012639,-0.506602,-0.010532,0.161165,-260.08833,-1.158626,67.042057
8.378,0.018731,0.003127,-0.009202,-0.00136,0.001443,-0.002871,0.013322,-0.506782,-0.009471,0.161165,-260.08833,-1.158626,67.042057
8.3978,0.018758,0.003495,-0.010064,-0.001358,0.001439,-0.002876,0.013997,-0.506807,-0.00929,0.217772,-260.088859,-1.168398,67.040738
8.4179,0.018643,0.003284,-0.009244,-0.001356,0.001417,-0.002847,0.013658,-0.506507,-0.009998,0.217772,-260.088859,-1.168398,67.040738
8.4378,0.018614,0.003574,-0.009251,-0.001353,0.001399,-0.002825,0.013658,-0.506507,-0.009998,0.217772,-260.088859,-1.168398,67.040738
8.458,0.018391,0.002934,-0.011908,-0.001351,0.001384,-0.002806,0.01384,-0.506344,-0.009371,0.229763,-260.089416,-1.168879,67.039353
8.4779,0.018243,0.003316,-0.010721,-0.001348,0.001369,-0.002771,0.013212,-0.506617,-0.01042,0.229763,-260.089416,-1.168879,67.039353
8.498,0.018281,0.003637,-0.009616,-0.001346,0.001357,-0.002743,0.012733,-0.50661,-0.01081,0.23973,-260.08997,-1.159454,67.038005
8.5183,0.01848,0.003507,-0.011001,-0.001341,0.001338,-0.002754,0.013318,-0.506362,-0.009727,0.23973,-260.08997,-1.159454,67.038005
8.5383,0.018389,0.003262,-0.011791,-0.001336,0.001321,-0.002762,0.013318,-0.506362,-0.009727,0.23973,-260.08997,-1.159454,67.038005
8.5581,0.018145,0.003442,-0.01096,-0.001332,0.001307,-0.002769,0.01232,-0.506645,-0.011906,0.232092,-260.090523,-1.153106,67.03668
8.5783,0.018317,0.003723,-0.010621,-0.001324,0.001284,-0.002704,0.012409,-0.506591,-0.011536,0.232092,-260.090523,-1.153106,67.03668
8.598,0.018502,0.003962,-0.010514,-0.001317,0.001265,-0.002652,0.012861,-0.506208,-0.010706,0.280427,-260.091057,-1.152757,67.035416
8.6179,0.018378,0.003404,-0.011498,-0.00131,0.001229,-0.002638,0.013113,-0.506025,-0.010535,0.280427,-260.091057,-1.152757,67.035416
8.6382,0.018555,0.003268,-0.00912,-0.001303,0.0012,-0.002627,0.013113,-0.506025,-0.010535,0.280427,-260.091057,-1.152757,67.035416
8.6582,0.018029,0.00355,-0.011583,-0.001297,0.001175,-0.002618,0.01385,-0.506658,-0.009231,0.263197,-260.091599,-1.142405,67.034155
8.6781,0.018294,0.003817,-0.010265,-0.0013,0.001193,-0.002627,0.013144,-0.506554,-0.010196,0.263197,-260.091599,-1.142405,67.034155
8.698,0.018276,0.003658,-0.010388,-0.001303,0.001208,-0.002634,0.01302,-0.50612,-0.010345,0.315843,-260.09212,-1.133416,67.032985
8.718,0.018308,0.003733,-0.011539,-0.0013,0.001199,-0.00263,0.01298,-0.506295,-0.010388,0.315843,-260.09212,-1.133416,67.032985
8.7379,0.018399,0.003998,-0.010252,-0.001298,0.001191,-0.002627,0.01298,-0.506295,-0.010388,0.315843,-260.09212,-1.133416,67.032985
8.7583,0.018339,0.003872,-0.012086,-0.001297,0.001185,-0.002624,0.013117,-0.505924,-0.010362,0.298594,-260.092663,-1.137648,67.03175
8.7778,0.018217,0.003451,-0.012783,-0.001287,0.001149,-0.002595,0.012727,-0.505986,-0.011077,0.298594,-260.092663,-1.137648,67.03175
8.7981,0.018381,0.00369,-0.011205,-0.001279,0.00112,-0.002571,0.011657,-0.50647,-0.012867,0.311696,-260.093206,-1.135442,67.030524
8.8183,0.018387,0.003637,-0.011439,-0.001275,0.001112,-0.002544,0.012573,-0.506294,-0.011359,0.311696,-260.093206,-1.135442,67.030524
8.8382,0.018388,0.003901,-0.010597,-0.001272,0.001106,-0.002523,0.012573,-0.506294,-0.011359,0.311696,-260.093206,-1.135442,67.030524
8.858,0.018545,0.003877,-0.010877,-0.001269,0.0011,-0.002505,0.012931,-0.506023,-0.010704,0.338627,-260.093743,-1.126959,67.029346
8.8782,0.018667,0.004011,-0.010501,-0.001266,0.00109,-0.002508,0.012952,-0.506047,-0.010787,0.338627,-260.093743,-1.126959,67.029346
8.8978,0.018098,0.003904,-0.013631,-0.001264,0.001082,-0.00251,0.013271,-0.505926,-0.01058,0.326268,-260.094276,-1.121323,67.028182
8.9177,0.018676,0.003659,-0.011361,-0.001243,0.001029,-0.002466,0.01136,-0.506034,-0.013325,0.326268,-260.094276,-1.121323,67.028182
8.9376,0.018522,0.003923,-0.011352,-0.001225,0.000986,-0.002429,0.01136,-0.506034,-0.013325,0.326268,-260.094276,-1.121323,67.028182
8.9579,0.018763,0.00407,-0.012879,-0.00121,0.00095,-0.002398,0.012681,-0.505998,-0.011456,0.342985,-260.094811,-1.120419,67.027026
8.9776,0.018391,0.004153,-0.012751,-0.001207,0.000943,-0.002385,0.012477,-0.505948,-0.012046,0.342985,-260.094811,-1.120419,67.027026
8.9977,0.018113,0.0042,-0.011453,-0.001205,0.000936,-0.002375,0.011852,-0.505776,-0.012823,0.401996,-260.095306,-1.106363,67.026007
9.0177,0.01841,0.003883,-0.011302,-0.001199,0.000917,-0.002375,0.012231,-0.505766,-0.011583,0.401996,-260.095306,-1.106363,67.026007
9.0378,0.018802,0.003602,-0.011694,-0.001194,0.0009,-0.002375,0.012231,-0.505766,-0.011583,0.401996,-260.095306,-1.106363,67.026007
9.0575,0.018484,0.004005,-0.012361,-0.001189,0.000886,-0.002375,0.012789,-0.506324,-0.011794,0.403474,-260.09583,-1.103239,67.024938
9.0778,0.018521,0.003991,-0.011335,-0.001194,0.000906,-0.002366,0.012536,-0.50617,-0.012035,0.403474,-260.09583,-1.103239,67.024938
9.0975,0.018353,0.003974,-0.011927,-0.001198,0.000922,-0.002358,0.012703,-0.505948,-0.011409,0.443135,-260.096344,-1.100044,67.023915
9.1176,0.018645,0.004259,-0.013302,-0.001197,0.000919,-0.002354,0.012308,-0.505984,-0.011884,0.443135,-260.096344,-1.100044,67.023915
9.1376,0.018658,0.003961,-0.012285,-0.001195,0.000917,-0.00235,0.012308,-0.505984,-0.011884,0.443135,-260.096344,-1.100044,67.023915
9.1576,0.018491,0.004486,-0.012449,-0.001195,0.000916,-0.002347,0.012344,-0.505962,-0.012382,0.408517,-260.096856,-1.101501,67.022876
9.1776,0.018388,0.003858,-0.011853,-0.001188,0.000895,-0.002334,0.012256,-0.50576,-0.01242,0.408517,-260.096856,-1.101501,67.022876
9.1976,0.018684,0.003937,-0.011794,-0.001183,0.000878,-0.002323,0.012305,-0.506077,-0.011927,0.408972,-260.097377,-1.100295,67.021822
9.2176,0.01846,0.004067,-0.01195,-0.001187,0.000892,-0.002326,0.012634,-0.50603,-0.01181,0.408972,-260.097377,-1.100295,67.021822
9.2377,0.018814,0.004463,-0.011774,-0.001191,0.000905,-0.002327,0.012634,-0.50603,-0.01181,0.408972,-260.097377,-1.100295,67.021822
9.2582,0.01872,0.004188,-0.013886,-0.001194,0.000915,-0.002329,0.012761,-0.505465,-0.01187,0.429119,-260.097893,-1.095188,67.020796
9.278,0.018473,0.004211,-0.012024,-0.001185,0.000885,-0.002315,0.012299,-0.505582,-0.012701,0.429119,-260.097893,-1.095188,67.020796
9.2978,0.018229,0.004001,-0.011854,-0.001177,0.000861,-0.002303,0.012304,-0.505723,-0.012098,0.401988,-260.098406,-1.098499,67.019759
9.318,0.018758,0.004465,-0.011987,-0.001178,0.000867,-0.002306,0.012192,-0.50594,-0.01188,0.401988,-260.098406,-1.098499,67.019759
9.3379,0.018467,0.004337,-0.010695,-0.001179,0.000873,-0.002308,0.012192,-0.50594,-0.01188,0.401988,-260.098406,-1.098499,67.019759
9.3578,0.018547,0.003931,-0.012137,-0.00118,0.000877,-0.00231,0.012964,-0.505598,-0.01079,0.433916,-260.098917,-1.091751,67.018754
9.3782,0.018641,0.00419,-0.011485,-0.001183,0.000882,-0.002324,0.012713,-0.505769,-0.011346,0.433916,-260.098917,-1.091751,67.018754
9.3983,0.018392,0.004242,-0.011287,-0.001185,0.000886,-0.002335,0.012746,-0.505748,-0.011559,0.424909,-260.099434,-1.094797,67.017725
9.4179,0.018729,0.004305,-0.011641,-0.001186,0.000886,-0.002344,0.012644,-0.505726,-0.011315,0.424909,-260.099434,-1.094797,67.017725
9.4381,0.018592,0.004477,-0.011677,-0.001187,0.000885,-0.002352,0.012644,-0.505726,-0.011315,0.424909,-260.099434,-1.094797,67.017725
9.4581,0.018237,0.004305,-0.011286,-0.001188,0.000884,-0.002358,0.012587,-0.50545,-0.011774,0.427416,-260.099955,-1.097207,67.016687
9.4777,0.018325,0.004508,-0.014083,-0.001184,0.000867,-0.002356,0.012538,-0.505532,-0.011586,0.427416,-260.099955,-1.097207,67.016687
9.4978,0.018173,0.004429,-0.011552,-0.00118,0.000852,-0.002353,0.011105,-0.505413,-0.014158,0.437967,-260.100479,-1.098385,67.015643
9.518,0.019105,0.004539,-0.012432,-0.001173,0.000831,-0.002347,0.012178,-0.505524,-0.011781,0.437967,-260.100479,-1.098385,67.015643
9.538,0.018583,0.004639,-0.013273,-0.001167,0.000813,-0.002342,0.012178,-0.505524,-0.011781,0.437967,-260.100479,-1.098385,67.015643
9.558,0.018583,0.004572,-0.012189,-0.001162,0.000798,-0.002338,0.011765,-0.50528,-0.013371,0.460474,-260.101001,-1.094873,67.014623
9.578,0.018294,0.00427,-0.012128,-0.001149,0.000762,-0.002318,0.012004,-0.505321,-0.012901,0.460474,-260.101001,-1.094873,67.014623
9.5978,0.018628,0.004414,-0.012148,-0.001138,0.000733,-0.002301,0.012073,-0.505667,-0.012202,0.496915,-260.101518,-1.089747,67.01364
9.6179,0.018697,0.004362,-0.011413,-0.001139,0.000736,-0.002297,0.012396,-0.505558,-0.012157,0.496915,-260.101518,-1.089747,67.01364
9.638,0.018733,0.004673,-0.01272,-0.00114,0.000738,-0.002294,0.012396,-0.505558,-0.012157,0.496915,-260.101518,-1.089747,67.01364
9.6576,0.018551,0.00412,-0.012356,-0.00114,0.000741,-0.002292,0.0122,-0.505255,-0.012814,0.533768,-260.102035,-1.081522,67.012693
9.6776,0.018343,0.00449,-0.01404,-0.001136,0.000732,-0.002283,0.012215,-0.505491,-0.012638,0.533768,-260.102035,-1.081522,67.012693
9.6978,0.018627,0.004724,-0.012736,-0.001133,0.000724,-0.002275,0.011147,-0.505436,-0.014113,0.524194,-260.102561,-1.081356,67.011725
9.7176,0.018279,0.004947,-0.013575,-0.001124,0.000697,-0.002266,0.01204,-0.505252,-0.012865,0.524194,-260.102561,-1.081356,67.011725
9.738,0.018223,0.004469,-0.013594,-0.001115,0.000674,-0.002259,0.01204,-0.505252,-0.012865,0.524194,-260.102561,-1.081356,67.011725
9.7577,0.018163,0.004953,-0.012902,-0.001108,0.000656,-0.002252,0.011243,-0.505453,-0.013689,0.530884,-260.103086,-1.078659,67.010766
9.7776,0.018469,0.004485,-0.014666,-0.001094,0.000623,-0.002243,0.011377,-0.505266,-0.013378,0.530884,-260.103086,-1.078659,67.010766
9.7977,0.01841,0.00488,-0.013376,-0.001082,0.000596,-0.002235,0.010956,-0.50544,-0.014735,0.576193,-260.103598,-1.071374,67.00987
9.8177,0.018691,0.004544,-0.012131,-0.001069,0.000566,-0.002227,0.011533,-0.505105,-0.013496,0.576193,-260.103598,-1.071374,67.00987
9.8378,0.018774,0.004376,-0.012747,-0.001058,0.000541,-0.002221,0.011533,-0.505105,-0.013496,0.576193,-260.103598,-1.071374,67.00987
9.8584,0.018468,0.004522,-0.014038,-0.001049,0.00052,-0.002216,0.012229,-0.505558,-0.012838,0.61788,-260.104114,-1.066916,67.008999
9.8783,0.018673,0.004439,-0.013793,-0.001054,0.000538,-0.002213,0.011847,-0.505502,-0.01334,0.61788,-260.104114,-1.066916,67.008999
9.8981,0.018503,0.004683,-0.012007,-0.001058,0.000553,-0.002212,0.011607,-0.505496,-0.01386,0.671206,-260.104625,-1.060225,67.00818
9.9182,0.018183,0.004964,-0.012207,-0.001064,0.000566,-0.002222,0.012308,-0.505299,-0.012179,0.671206,-260.104625,-1.060225,67.00818
9.9382,0.018577,0.004883,-0.013581,-0.001069,0.000577,-0.002231,0.012308,-0.505299,-0.012179,0.671206,-260.104625,-1.060225,67.00818
9.9581,0.01853,0.004474,-0.015078,-0.001073,0.000586,-0.002239,0.011608,-0.505046,-0.013673,0.646574,-260.105151,-1.063649,67.007316
9.9779,0.018566,0.004997,-0.01331,-0.00106,0.000556,-0.002227,0.011288,-0.505216,-0.014259,0.646574,-260.105151,-1.063649,67.007316
9.9985,0.018299,0.004683,-0.0136,-0.001049,0.000532,-0.002217,0.011745,-0.504939,-0.01338,0.629349,-260.105679,-1.068328,67.006429
10.0182,0.018385,0.00507,-0.012861,-0.001043,0.000518,-0.002211,0.011394,-0.505241,-0.013585,0.629349,-260.105679,-1.068328,67.006429
10.038,0.018583,0.004685,-0.012365,-0.001037,0.000506,-0.002206,0.011394,-0.505241,-0.013585,0.629349,-260.105679,-1.068328,67.006429
10.0582,0.018246,0.00481,-0.015471,-0.001032,0.000497,-0.002202,0.012234,-0.505254,-0.012456,0.664414,-260.106201,-1.063037,67.005583
10.0784,0.018792,0.005046,-0.013415,-0.001028,0.000487,-0.002198,0.011453,-0.5052,-0.013711,0.664414,-260.106201,-1.063037,67.005583
10.0977,0.018478,0.004826,-0.014793,-0.001024,0.000478,-0.002194,0.011918,-0.504892,-0.013485,0.688074,-260.106731,-1.059965,67.004746
10.118,0.018414,0.004932,-0.015023,-0.001011,0.000451,-0.002187,0.011016,-0.505098,-0.014686,0.688074,-260.106731,-1.059965,67.004746
10.1382,0.018319,0.004896,-0.014474,-0.001,0.000427,-0.002181,0.011016,-0.505098,-0.014686,0.688074,-260.106731,-1.059965,67.004746
10.158,0.018729,0.005164,-0.014175,-0.000991,0.000408,-0.002176,0.010895,-0.50503,-0.014566,0.699818,-260.107264,-1.058129,67.003915
10.178,0.018576,0.005039,-0.013902,-0.000981,0.000384,-0.002172,0.011136,-0.504928,-0.014417,0.699818,-260.107264,-1.058129,67.003915
10.198,0.01846,0.005149,-0.013882,-0.000972,0.000364,-0.002169,0.011456,-0.504899,-0.013969,0.748844,-260.107785,-1.052483,67.003144
10.2178,0.01872,0.004547,-0.014211,-0.000966,0.000347,-0.002168,0.011385,-0.504809,-0.013892,0.748844,-260.107785,-1.052483,67.003144
10.2377,0.018614,0.004851,-0.013741,-0.00096,0.000332,-0.002167,0.011385,-0.504809,-0.013892,0.748844,-260.107785,-1.052483,67.003144
10.2582,0.018218,0.004837,-0.014308,-0.000956,0.00032,-0.002166,0.011567,-0.505085,-0.01383,0.779828,-260.108323,-1.048516,67.002378
10.2778,0.018298,0.004751,-0.014467,-0.000958,0.000327,-0.002165,0.0113,-0.505094,-0.014034,0.779828,-260.108323,-1.048516,67.002378
10.2976,0.018706,0.004929,-0.014979,-0.000959,0.000333,-0.002165,0.01089,-0.505185,-0.014535,0.809396,-260.108871,-1.043837,67.001626
10.3179,0.018463,0.004921,-0.013278,-0.000954,0.000324,-0.002161,0.011052,-0.505027,-0.014947,0.809396,-260.108871,-1.043837,67.001626
10.3378,0.018572,0.004893,-0.014695,-0.00095,0.000317,-0.002159,0.011052,-0.505027,-0.014947,0.809396,-260.108871,-1.043837,67.001626
10.3581,0.018673,0.004913,-0.014035,-0.000947,0.000311,-0.002157,0.011038,-0.505038,-0.014785,0.800966,-260.10942,-1.045577,67.000864
10.3782,0.018639,0.004844,-0.013843,-0.000948,0.000313,-0.002156,0.011229,-0.505036,-0.014488,0.800966,-260.10942,-1.045577,67.000864
10.3983,0.018598,0.004634,-0.015591,-0.000948,0.000316,-0.002156,0.01155,-0.505096,-0.013911,0.815693,-260.109971,-1.043903,67.000113
10.4179,0.018431,0.00511,-0.014373,-0.000948,0.00032,-0.002154,0.010722,-0.505285,-0.015452,0.815693,-260.109971,-1.043903,67.000113
10.4382,0.018591,0.004938,-0.013402,-0.000947,0.000324,-0.002152,0.010722,-0.505285,-0.015452,0.815693,-260.109971,-1.043903,67.000113
10.458,0.018735,0.004978,-0.014923,-0.000946,0.000327,-0.002151,0.011716,-0.505002,-0.013493,0.812365,-260.110523,-1.044394,66.999358
10.4783,0.018498,0.005142,-0.015719,-0.000949,0.000331,-0.002153,0.01148,-0.504986,-0.014065,0.812365,-260.110523,-1.044394,66.999358
10.498,0.018908,0.005203,-0.016211,-0.000952,0.000334,-0.002154,0.010452,-0.504785,-0.015787,0.806151,-260.111069,-1.047772,66.998601
10.5177,0.018382,0.004764,-0.014085,-0.000934,0.000292,-0.00215,0.010623,-0.504735,-0.016177,0.806151,-260.111069,-1.047772,66.998601
10.5381,0.018531,0.004708,-0.01414,-0.000919,0.000257,-0.002146,0.010623,-0.504735,-0.016177,0.806151,-260.111069,-1.047772,66.998601
10.558,0.018526,0.004805,-0.015019,-0.000906,0.000227,-0.002142,0.01128,-0.505226,-0.01423,0.800666,-260.111616,-1.047476,66.997839
10.5777,0.018288,0.005032,-0.014782,-0.000915,0.000252,-0.002144,0.011106,-0.505188,-0.014563,0.800666,-260.111616,-1.047476,66.997839
10.5976,0.018583,0.005163,-0.017263,-0.000923,0.000272,-0.002146,0.010723,-0.504905,-0.014845,0.873074,-260.112134,-1.037615,66.997185
10.6176,0.018726,0.004754,-0.014794,-0.000896,0.000218,-0.002141,0.009865,-0.504774,-0.017043,0.873074,-260.112134,-1.037615,66.997185
10.6378,0.018743,0.005207,-0.014224,-0.000874,0.000174,-0.002137,0.009865,-0.504774,-0.017043,0.873074,-260.112134,-1.037615,66.997185
10.6581,0.018572,0.004953,-0.015653,-0.000855,0.000138,-0.002134,0.011452,-0.504729,-0.014312,0.844634,-260.112684,-1.042872,66.996459
10.6779,0.018478,0.005217,-0.014808,-0.000863,0.000151,-0.002135,0.011084,-0.504835,-0.014887,0.844634,-260.112684,-1.042872,66.996459
10.6979,0.018556,0.004898,-0.014729,-0.000869,0.000161,-0.002136,0.010902,-0.504723,-0.014866,0.919902,-260.113185,-1.035109,66.995879
10.7179,0.018711,0.004978,-0.014701,-0.000878,0.000182,-0.002137,0.011031,-0.505019,-0.014743,0.919902,-260.113185,-1.035109,66.995879
10.7384,0.018597,0.004979,-0.01597,-0.000885,0.000198,-0.002138,0.011031,-0.505019,-0.014743,0.919902,-260.113185,-1.035109,66.995879
10.7577,0.018492,0.004901,-0.016799,-0.000892,0.000212,-0.002139,0.010416,-0.504949,-0.01606,0.921135,-260.113761,-1.035746,66.995195
10.7784,0.018316,0.004995,-0.015246,-0.000883,0.000196,-0.002137,0.010207,-0.504981,-0.016378,0.921135,-260.113761,-1.035746,66.995195
10.7975,0.018706,0.005092,-0.014504,-0.000876,0.000181,-0.002135,0.010513,-0.504939,-0.015312,0.886871,-260.114312,-1.039886,66.994507
10.8178,0.01839,0.004719,-0.015026,-0.000883,0.000193,-0.002137,0.011236,-0.504862,-0.01458,0.886871,-260.114312,-1.039886,66.994507
10.8376,0.018568,0.005372,-0.016819,-0.000888,0.000203,-0.002138,0.011236,-0.504862,-0.01458,0.886871,-260.114312,-1.039886,66.994507
10.8579,0.018809,0.004862,-0.014534,-0.000893,0.00021,-0.002139,0.009955,-0.504548,-0.016907,0.90838,-260.114878,-1.038202,66.993822
10.8784,0.018903,0.004849,-0.015302,-0.000884,0.000188,-0.002136,0.010541,-0.504767,-0.015946,0.90838,-260.114878,-1.038202,66.993822
10.8977,0.018618,0.005128,-0.016546,-0.000876,0.00017,-0.002134,0.011071,-0.505085,-0.015369,0.886784,-260.115439,-1.038478,66.993123
10.9182,0.018376,0.005177,-0.015562,-0.000866,0.000151,-0.002132,0.010258,-0.504827,-0.016445,0.886784,-260.115439,-1.038478,66.993123
10.9382,0.018765,0.005008,-0.015038,-0.000858,0.000134,-0.00213,0.010258,-0.504827,-0.016445,0.886784,-260.115439,-1.038478,66.993123
10.958,0.018621,0.004984,-0.014678,-0.000851,0.000121,-0.002128,0.01106,-0.504926,-0.015127,0.912558,-260.116007,-1.034351,66.992444
10.978,0.0185,0.005116,-0.015027,-0.000861,0.000143,-0.00213,0.011087,-0.50494,-0.014953,0.912558,-260.116007,-1.034351,66.992444
10.9979,0.01866,0.004932,-0.014067,-0.00087,0.000162,-0.002131,0.01081,-0.504822,-0.015093,0.945749,-260.116578,-1.031084,66.991793
11.0179,0.018491,0.005034,-0.016286,-0.000884,0.000192,-0.002135,0.011427,-0.505,-0.014158,0.945749,-260.116578,-1.031084,66.991793
11.0379,0.018823,0.005133,-0.015485,-0.000896,0.000217,-0.002138,0.011427,-0.505,-0.014158,0.945749,-260.116578,-1.031084,66.991793
11.0578,0.018734,0.004907,-0.015502,-0.000906,0.000238,-0.002141,0.01089,-0.504799,-0.015574,0.918921,-260.117145,-1.034378,66.991121
11.0779,0.018993,0.005183,-0.016106,-0.000903,0.00023,-0.002139,0.010861,-0.504893,-0.015554,0.918921,-260.117145,-1.034378,66.991121
11.0981,0.018907,0.004822,-0.01751,-0.000901,0.000223,-0.002137,0.010752,-0.504743,-0.016171,0.868065,-260.117682,-1.040447,66.990434
11.1182,0.018411,0.005128,-0.016197,-0.00089,0.000205,-0.002134,0.010044,-0.505069,-0.017397,0.868065,-260.117682,-1.040447,66.990434
11.1383,0.018628,0.004807,-0.015779,-0.00088,0.00019,-0.002132,0.010044,-0.505069,-0.017397,0.868065,-260.117682,-1.040447,66.990434
11.1584,0.018599,0.005282,-0.015872,-0.000873,0.000178,-0.002131,0.010543,-0.505119,-0.015868,0.876553,-260.118245,-1.03807,66.989725
11.1779,0.01857,0.005225,-0.016166,-0.000871,0.000173,-0.00213,0.010524,-0.50493,-0.01588,0.876553,-260.118245,-1.03807,66.989725
11.1977,0.018447,0.004772,-0.01616,-0.000869,0.000169,-0.002129,0.010298,-0.504702,-0.016232,0.910578,-260.118803,-1.03775,66.989052
11.2185,0.018677,0.005354,-0.016478,-0.000868,0.00017,-0.002129,0.010213,-0.50512,-0.016169,0.910578,-260.118803,-1.03775,66.989052
11.238,0.018938,0.005183,-0.016236,-0.000867,0.000172,-0.00213,0.010213,-0.50512,-0.016169,0.910578,-260.118803,-1.03775,66.989052
11.2581,0.019123,0.005083,-0.018447,-0.000866,0.000173,-0.00213,0.010621,-0.504742,-0.016325,0.91582,-260.119374,-1.036624,66.988368
11.278,0.018649,0.004924,-0.017197,-0.000855,0.000148,-0.002129,0.010245,-0.504777,-0.017207,0.91582,-260.119374,-1.036624,66.988368
11.298,0.018502,0.004797,-0.016561,-0.000846,0.000127,-0.002127,0.009852,-0.504994,-0.017265,0.916257,-260.119942,-1.039565,66.987686
11.3184,0.018668,0.005329,-0.01565,-0.000845,0.00013,-0.002128,0.010036,-0.50512,-0.016628,0.916257,-260.119942,-1.039565,66.987686
11.3383,0.018508,0.005461,-0.01807,-0.000845,0.000133,-0.002128,0.010036,-0.50512,-0.016628,0.916257,-260.119942,-1.039565,66.987686
11.3584,0.018432,0.005373,-0.015218,-0.000844,0.000135,-0.002129,0.009257,-0.50445,-0.018158,0.945465,-260.120512,-1.035402,66.987032
11.3782,0.01875,0.004826,-0.017182,-0.00082,8.3e-05,-0.002126,0.009825,-0.504497,-0.016979,0.945465,-260.120512,-1.035402,66.987032
11.3975,0.019147,0.005131,-0.017966,-0.0008,3.9e-05,-0.002124,0.00996,-0.505094,-0.01725,0.944055,-260.121089,-1.039097,66.986365
11.4178,0.018771,0.005214,-0.017072,-0.000795,3.1e-05,-0.002123,0.009981,-0.504812,-0.017909,0.944055,-260.121089,-1.039097,66.986365
11.438,0.018703,0.005206,-0.017759,-0.000792,2.4e-05,-0.002123,0.009981,-0.504812,-0.017909,0.944055,-260.121089,-1.039097,66.986365
11.4579,0.018747,0.005151,-0.016523,-0.000789,1.8e-05,-0.002123,0.009615,-0.504711,-0.017842,1.004369,-260.12165,-1.031552,66.985778
11.4777,0.01831,0.005034,-0.016602,-0.000782,6e-06,-0.002123,0.0099,-0.504739,-0.017313,1.004369,-260.12165,-1.031552,66.985778
11.4977,0.018871,0.005379,-0.015687,-0.000777,-5e-06,-0.002122,0.009818,-0.504895,-0.016669,1.018164,-260.122249,-1.030669,66.985167
11.5182,0.018941,0.005412,-0.015812,-0.000784,4e-06,-0.002123,0.010776,-0.504588,-0.015778,1.018164,-260.122249,-1.030669,66.985167
11.5379,0.018536,0.005282,-0.016708,-0.00079,1.1e-05,-0.002124,0.010776,-0.504588,-0.015778,1.018164,-260.122249,-1.030669,66.985167
11.5576,0.018731,0.005251,-0.014612,-0.000796,1.6e-05,-0.002124,0.009982,-0.504646,-0.016796,1.032345,-260.122853,-1.029163,66.984566
11.5778,0.018849,0.004861,-0.016375,-0.000798,1.9e-05,-0.002125,0.010508,-0.504666,-0.015916,1.032345,-260.122853,-1.029163,66.984566
11.5975,0.018711,0.005296,-0.016048,-0.0008,2e-05,-0.002125,0.010472,-0.50507,-0.016443,1.01502,-260.123454,-1.026312,66.983954
11.6178,0.018661,0.005106,-0.018128,-0.000802,2.2e-05,-0.002126,0.010521,-0.504676,-0.016086,1.01502,-260.123454,-1.026312,66.983954
11.638,0.01869,0.00543,-0.017923,-0.000803,2.4e-05,-0.002126,0.010521,-0.504676,-0.016086,1.01502,-260.123454,-1.026312,66.983954
11.6581,0.018959,0.005026,-0.018023,-0.000805,2.6e-05,-0.002127,0.009516,-0.504487,-0.018011,1.011668,-260.124056,-1.025604,66.983338
11.6778,0.018818,0.005126,-0.016082,-0.000787,-5e-06,-0.002125,0.009614,-0.50465,-0.018026,1.011668,-260.124056,-1.025604,66.983338
11.6984,0.0185,0.004838,-0.018224,-0.000772,-3.1e-05,-0.002124,0.010592,-0.504807,-0.016149,1.007148,-260.124658,-1.024886,66.982718
11.7185,0.018868,0.004984,-0.018113,-0.000766,-3.1e-05,-0.002125,0.009329,-0.505053,-0.018041,1.007148,-260.124658,-1.024886,66.982718
11.7384,0.018982,0.00497,-0.017234,-0.000762,-3e-05,-0.002125,0.009329,-0.505053,-0.018041,1.007148,-260.124658,-1.024886,66.982718
11.7581,0.01837,0.005142,-0.017261,-0.000758,-3e-05,-0.002126,0.010162,-0.504955,-0.017321,1.044412,-260.125261,-1.023314,66.982137
11.778,0.018698,0.004794,-0.017369,-0.000761,-2.3e-05,-0.002126,0.009913,-0.504883,-0.017306,1.044412,-260.125261,-1.023314,66.982137
11.7976,0.018621,0.005169,-0.016585,-0.000763,-1.8e-05,-0.002127,0.009817,-0.505129,-0.017436,1.05235,-260.125869,-1.03243,66.981548
11.8179,0.018744,0.004806,-0.017131,-0.000767,-1.3e-05,-0.002127,0.01013,-0.504794,-0.016666,1.05235,-260.125869,-1.03243,66.981548
11.8378,0.018958,0.004982,-0.017247,-0.00077,-9e-06,-0.002128,0.01013,-0.504794,-0.016666,1.05235,-260.125869,-1.03243,66.981548
11.8576,0.018768,0.005272,-0.018154,-0.000773,-5e-06,-0.002128,0.010131,-0.504942,-0.017336,1.045414,-260.126479,-1.033411,66.980952
11.8777,0.019215,0.004808,-0.018674,-0.000771,-1e-05,-0.002128,0.009873,-0.50482,-0.017681,1.045414,-260.126479,-1.033411,66.980952
11.8975,0.018686,0.005376,-0.017989,-0.000769,-1.3e-05,-0.002128,0.009668,-0.505102,-0.018741,1.035915,-260.127084,-1.032286,66.98035
11.9178,0.018787,0.005192,-0.016551,-0.000753,-4.5e-05,-0.002126,0.009525,-0.50459,-0.018057,1.035915,-260.127084,-1.032286,66.98035
11.9379,0.018669,0.005039,-0.017222,-0.000739,-7.1e-05,-0.002125,0.009525,-0.50459,-0.018057,1.035915,-260.127084,-1.032286,66.98035
11.9582,0.018801,0.004939,-0.018021,-0.000727,-9.3e-05,-0.002123,0.009854,-0.504885,-0.017311,1.040777,-260.127692,-1.031999,66.97975
11.9778,0.018882,0.00528,-0.018104,-0.000733,-7.8e-05,-0.002125,0.009751,-0.504923,-0.017612,1.040777,-260.127692,-1.031999,66.97975
11.998,0.01916,0.005203,-0.019885,-0.000738,-6.6e-05,-0.002126,0.009626,-0.504639,-0.018169,1.088725,-260.128297,-1.027168,66.979208
12.0179,0.01902,0.004887,-0.017056,-0.000719,-9.9e-05,-0.002125,0.00907,-0.504692,-0.019741,1.088725,-260.128297,-1.027168,66.979208
12.038,0.019016,0.005216,-0.015634,-0.000702,-0.000126,-0.002124,0.00907,-0.504692,-0.019741,1.088725,-260.128297,-1.027168,66.979208
12.0583,0.01882,0.005328,-0.017328,-0.000689,-0.000148,-0.002123,0.011012,-0.504724,-0.015723,1.074783,-260.128915,-1.031133,66.978636
12.0787,0.019096,0.005312,-0.01809,-0.000709,-0.000116,-0.002124,0.010591,-0.504672,-0.016384,1.074783,-260.128915,-1.031133,66.978636
12.0978,0.018691,0.005126,-0.018716,-0.000725,-8.9e-05,-0.002126,0.009849,-0.504609,-0.018155,1.125848,-260.129529,-1.03064,66.978122
12.118,0.019335,0.004941,-0.018483,-0.000714,-0.000106,-0.002125,0.009209,-0.504769,-0.018669,1.125848,-260.129529,-1.03064,66.978122
12.1378,0.019095,0.004701,-0.01826,-0.000705,-0.00012,-0.002125,0.009209,-0.504769,-0.018669,1.125848,-260.129529,-1.03064,66.978122
12.1579,0.01899,0.005084,-0.01855,-0.000697,-0.000132,-0.002125,0.009753,-0.505218,-0.018347,1.089143,-260.130142,-1.030522,66.97757
12.1779,0.018894,0.005018,-0.017767,-0.00071,-0.000103,-0.002126,0.009658,-0.505058,-0.01844,1.089143,-260.130142,-1.030522,66.97757
12.1984,0.018931,0.005051,-0.018097,-0.00072,-8e-05,-0.002128,0.009811,-0.504906,-0.017834,1.116973,-260.130771,-1.031842,66.977033
12.2182,0.019088,0.005104,-0.018232,-0.000724,-7.4e-05,-0.002128,0.00971,-0.504869,-0.018078,1.116973,-260.130771,-1.031842,66.977033
12.2381,0.019192,0.004892,-0.01759,-0.000727,-6.8e-05,-0.002128,0.00971,-0.504869,-0.018078,1.116973,-260.130771,-1.031842,66.977033
12.258,0.018837,0.004927,-0.019103,-0.00073,-6.4e-05,-0.002129,0.010192,-0.505032,-0.017678,1.089871,-260.131385,-1.037516,66.976474
12.2783,0.018903,0.005015,-0.018576,-0.000737,-4.8e-05,-0.002129,0.009746,-0.505011,-0.018264,1.089871,-260.131385,-1.037516,66.976474
12.2978,0.018739,0.00499,-0.019316,-0.000743,-3.5e-05,-0.00213,0.009407,-0.504899,-0.018645,1.079352,-260.132003,-1.03751,66.9759
12.3181,0.01909,0.005087,-0.019146,-0.000727,-6e-05,-0.002129,0.008933,-0.504913,-0.01926,1.079352,-260.132003,-1.03751,66.9759
12.338,0.019029,0.005081,-0.01889,-0.000714,-8.1e-05,-0.002128,0.008933,-0.504913,-0.01926,1.079352,-260.132003,-1.03751,66.9759
12.3579,0.018879,0.005189,-0.018175,-0.000703,-9.8e-05,-0.002127,0.009364,-0.504829,-0.018978,1.062958,-260.132611,-1.03983,66.975316
12.378,0.019032,0.005343,-0.019585,-0.000701,-0.000103,-0.002127,0.009461,-0.504788,-0.018662,1.062958,-260.132611,-1.03983,66.975316
12.3978,0.01913,0.005134,-0.019101,-0.0007,-0.000107,-0.002126,0.009023,-0.504562,-0.019651,1.104627,-260.13322,-1.041466,66.974774
12.4181,0.018892,0.005099,-0.018204,-0.000696,-0.000117,-0.002126,0.009351,-0.504752,-0.01916,1.104627,-260.13322,-1.041466,66.974774
12.4377,0.019234,0.005622,-0.020767,-0.000692,-0.000126,-0.002125,0.009351,-0.504752,-0.01916,1.104627,-260.13322,-1.041466,66.974774
12.4582,0.018988,0.004855,-0.018642,-0.000688,-0.000133,-0.002125,0.008615,-0.504271,-0.020856,1.108528,-260.133847,-1.039539,66.974222
12.4777,0.018806,0.005064,-0.017375,-0.00067,-0.000166,-0.002123,0.00896,-0.504588,-0.019974,1.108528,-260.133847,-1.039539,66.974222
12.498,0.019061,0.005272,-0.019912,-0.000655,-0.000194,-0.002122,0.009923,-0.504863,-0.017443,1.122446,-260.134484,-1.037052,66.97368
12.5179,0.0196,0.005335,-0.020082,-0.000645,-0.000211,-0.002121,0.008984,-0.504645,-0.019725,1.122446,-260.134484,-1.037052,66.97368
12.5382,0.019191,0.004974,-0.017967,-0.000636,-0.000225,-0.002121,0.008984,-0.504645,-0.019725,1.122446,-260.134484,-1.037052,66.97368
12.5578,0.018909,0.005023,-0.019242,-0.000629,-0.000237,-0.002121,0.010002,-0.504951,-0.018053,1.156784,-260.135119,-1.034687,66.97318
12.5779,0.019318,0.005079,-0.018155,-0.000647,-0.000202,-0.002123,0.009632,-0.504924,-0.018545,1.156784,-260.135119,-1.034687,66.97318
12.598,0.019592,0.004867,-0.021246,-0.000663,-0.000173,-0.002125,0.01004,-0.504844,-0.018222,1.181259,-260.135776,-1.034265,66.972691
12.6181,0.019512,0.004881,-0.018528,-0.00066,-0.000171,-0.002126,0.008866,-0.505003,-0.020992,1.181259,-260.135776,-1.034265,66.972691
12.6381,0.019034,0.004937,-0.019949,-0.000658,-0.00017,-0.002127,0.008866,-0.505003,-0.020992,1.181259,-260.135776,-1.034265,66.972691
12.6578,0.019457,0.005419,-0.019269,-0.000656,-0.000168,-0.002128,0.008834,-0.504968,-0.020036,1.147619,-260.136409,-1.038297,66.97218
12.6778,0.019231,0.004886,-0.018822,-0.000654,-0.000174,-0.002128,0.009154,-0.504774,-0.019735,1.147619,-260.136409,-1.038297,66.97218
12.6977,0.019186,0.00505,-0.018881,-0.000653,-0.000179,-0.002128,0.009611,-0.505028,-0.01889,1.150255,-260.137053,-1.045045,66.971656
12.7178,0.018994,0.004864,-0.020233,-0.000664,-0.000161,-0.002129,0.009561,-0.504874,-0.018885,1.150255,-260.137053,-1.045045,66.971656
12.7378,0.019168,0.004899,-0.020451,-0.000673,-0.000146,-0.002129,0.009561,-0.504874,-0.018885,1.150255,-260.137053,-1.045045,66.971656
12.7579,0.019287,0.00518,-0.02068,-0.000681,-0.000133,-0.00213,0.008712,-0.505001,-0.02054,1.155147,-260.137699,-1.043452,66.971137
12.779,0.019207,0.005238,-0.018255,-0.000667,-0.000153,-0.00213,0.00872,-0.504882,-0.020608,1.155147,-260.137699,-1.043452,66.971137
12.7982,0.019029,0.0047,-0.019552,-0.000656,-0.000169,-0.002129,0.009875,-0.504681,-0.018323,1.127623,-260.138326,-1.043106,66.970603
12.8178,0.019239,0.004975,-0.018979,-0.000667,-0.000145,-0.00213,0.00913,-0.505156,-0.019446,1.127623,-260.138326,-1.043106,66.970603
12.8379,0.019149,0.004822,-0.021368,-0.000675,-0.000124,-0.002132,0.00913,-0.505156,-0.019446,1.127623,-260.138326,-1.043106,66.970603
12.8578,0.019182,0.004919,-0.019681,-0.000682,-0.000108,-0.002133,0.008225,-0.505068,-0.021456,1.150787,-260.138963,-1.04498,66.970086
12.8782,0.019099,0.004977,-0.020804,-0.000671,-0.000124,-0.002132,0.008596,-0.505034,-0.020744,1.150787,-260.138963,-1.04498,66.970086
12.8976,0.019201,0.004958,-0.019954,-0.000661,-0.000137,-0.002132,0.008468,-0.504916,-0.020871,1.120034,-260.139581,-1.051882,66.969543
12.9181,0.019421,0.005209,-0.020812,-0.00066,-0.000142,-0.002131,0.008976,-0.504939,-0.020036,1.120034,-260.139581,-1.051882,66.969543
12.9381,0.019375,0.005257,-0.020955,-0.000658,-0.000145,-0.002131,0.008976,-0.504939,-0.020036,1.120034,-260.139581,-1.051882,66.969543
12.9577,0.019342,0.004965,-0.019083,-0.000657,-0.000148,-0.002131,0.008661,-0.504636,-0.021044,1.140109,-260.140209,-1.054388,66.969012
12.978,0.019287,0.004868,-0.020083,-0.000651,-0.000163,-0.00213,0.009039,-0.504759,-0.020267,1.140109,-260.140209,-1.054388,66.969012
12.9978,0.019245,0.00481,-0.020596,-0.000646,-0.000175,-0.002129,0.009024,-0.505034,-0.020151,1.14531,-260.140847,-1.05303,66.96848
13.0179,0.019231,0.004881,-0.021328,-0.000647,-0.000169,-0.00213,0.008765,-0.505078,-0.020561,1.14531,-260.140847,-1.05303,66.96848
13.0378,0.019007,0.0049,-0.018957,-0.000647,-0.000165,-0.00213,0.008765,-0.505078,-0.020561,1.14531,-260.140847,-1.05303,66.96848
13.0577,0.019195,0.005289,-0.021619,-0.000647,-0.000161,-0.002131,0.009312,-0.505015,-0.019046,1.157984,-260.141489,-1.049537,66.967963
13.0777,0.019597,0.005531,-0.019219,-0.000641,-0.000174,-0.00213,0.008836,-0.50484,-0.020123,1.157984,-260.141489,-1.049537,66.967963
13.0983,0.019147,0.005102,-0.020448,-0.000635,-0.000185,-0.00213,0.009775,-0.504379,-0.019286,1.154248,-260.142127,-1.05482,66.967439
13.1179,0.019424,0.005063,-0.020876,-0.000627,-0.000202,-0.002129,0.008813,-0.504754,-0.020347,1.154248,-260.142127,-1.05482,66.967439
13.138,0.019447,0.005003,-0.020213,-0.00062,-0.000216,-0.002129,0.008813,-0.504754,-0.020347,1.154248,-260.142127,-1.05482,66.967439
13.1578,0.018923,0.005469,-0.020114,-0.000614,-0.000228,-0.002128,0.009112,-0.5049,-0.020302,1.166902,-260.142772,-1.05323,66.966927
13.178,0.019537,0.004973,-0.020562,-0.000611,-0.000237,-0.002128,0.008927,-0.504708,-0.020235,1.166902,-260.142772,-1.05323,66.966927
13.1981,0.019619,0.005229,-0.023152,-0.000608,-0.000245,-0.002128,0.009032,-0.504926,-0.020629,1.188523,-260.143427,-1.050375,66.966436
13.218,0.019051,0.004989,-0.022417,-0.000572,-0.000297,-0.002125,0.007919,-0.504661,-0.022933,1.188523,-260.143427,-1.050375,66.966436
13.2381,0.01964,0.005166,-0.021634,-0.000542,-0.00034,-0.002123,0.007919,-0.504661,-0.022933,1.188523,-260.143427,-1.050375,66.966436
13.2577,0.019497,0.004993,-0.022346,-0.000517,-0.000375,-0.002122,0.008582,-0.504724,-0.021723,1.1958,-260.144089,-1.048115,66.96595
13.278,0.019786,0.005011,-0.018863,-0.000517,-0.000374,-0.002123,0.008383,-0.504789,-0.021987,1.1958,-260.144089,-1.048115,66.96595
13.2977,0.019378,0.004797,-0.019467,-0.000517,-0.000373,-0.002124,0.010151,-0.504909,-0.018925,1.270601,-260.144728,-1.058789,66.965565
13.318,0.019524,0.004631,-0.020017,-0.000554,-0.000306,-0.002128,0.009514,-0.505089,-0.019421,1.270601,-260.144728,-1.058789,66.965565
13.3381,0.019883,0.00474,-0.020748,-0.000586,-0.000251,-0.002131,0.009514,-0.505089,-0.019421,1.270601,-260.144728,-1.058789,66.965565
13.3577,0.019579,0.004726,-0.019719,-0.000612,-0.000205,-0.002134,0.00928,-0.505166,-0.020837,1.270874,-260.145427,-1.061179,66.965141
13.378,0.019279,0.005139,-0.022213,-0.000634,-0.000167,-0.002136,0.009376,-0.505171,-0.020396,1.270874,-260.145427,-1.061179,66.965141
13.3977,0.019483,0.00485,-0.019762,-0.000653,-0.000134,-0.002138,0.007934,-0.504741,-0.022274,1.195849,-260.146006,-1.06201,66.964694
13.4177,0.019386,0.004975,-0.019232,-0.000661,-0.000123,-0.002138,0.009271,-0.505023,-0.019991,1.195849,-260.146006,-1.06201,66.964694
13.4377,0.019419,0.004629,-0.021594,-0.000669,-0.000113,-0.002138,0.009271,-0.505023,-0.019991,1.195849,-260.146006,-1.06201,66.964694
13.4579,0.019269,0.004969,-0.021088,-0.000675,-0.000105,-0.002137,0.00838,-0.505257,-0.02168,1.145381,-260.146614,-1.062521,66.964178
13.4782,0.019743,0.004981,-0.020595,-0.000663,-0.000122,-0.002136,0.008433,-0.505117,-0.021446,1.145381,-260.146614,-1.062521,66.964178
13.4982,0.019914,0.004753,-0.020966,-0.000652,-0.000136,-0.002134,0.009219,-0.504914,-0.020662,1.124603,-260.147234,-1.058456,66.963632
13.5181,0.019225,0.00476,-0.021801,-0.000663,-0.000118,-0.002134,0.00922,-0.505115,-0.020942,1.124603,-260.147234,-1.058456,66.963632
13.5381,0.019561,0.004597,-0.021809,-0.000672,-0.000104,-0.002134,0.00922,-0.505115,-0.020942,1.124603,-260.147234,-1.058456,66.963632
13.5581,0.019504,0.004956,-0.020967,-0.000679,-9.3e-05,-0.002134,0.008412,-0.505287,-0.021898,1.145268,-260.147863,-1.061418,66.9631
13.5779,0.019546,0.004897,-0.020051,-0.000671,-0.000104,-0.002133,0.008572,-0.505143,-0.021529,1.145268,-260.147863,-1.061418,66.9631
13.598,0.019779,0.004816,-0.022945,-0.000664,-0.000113,-0.002132,0.009299,-0.505003,-0.020118,1.11798,-260.148475,-1.05963,66.962552
13.6181,0.019309,0.004903,-0.021854,-0.000643,-0.000144,-0.00213,0.008188,-0.505046,-0.022691,1.11798,-260.148475,-1.05963,66.962552
13.6378,0.01991,0.004971,-0.0208,-0.000626,-0.00017,-0.002128,0.008188,-0.505046,-0.022691,1.11798,-260.148475,-1.05963,66.962552
13.6584,0.019461,0.004562,-0.021143,-0.000611,-0.000191,-0.002127,0.009275,-0.504923,-0.02089,1.13213,-260.149099,-1.061657,66.96201
13.678,0.019266,0.004645,-0.021282,-0.000623,-0.000173,-0.002127,0.009029,-0.505086,-0.021003,1.13213,-260.149099,-1.061657,66.96201
13.6978,0.019606,0.005056,-0.021459,-0.000633,-0.000157,-0.002128,0.008394,-0.505245,-0.021347,1.181606,-260.149718,-1.066628,66.961523
13.718,0.019909,0.004819,-0.020712,-0.000624,-0.000178,-0.002127,0.008637,-0.504865,-0.021452,1.181606,-260.149718,-1.066628,66.961523
13.738,0.019605,0.004493,-0.020272,-0.000616,-0.000194,-0.002126,0.008637,-0.504865,-0.021452,1.181606,-260.149718,-1.066628,66.961523
13.7579,0.020075,0.00483,-0.023212,-0.000609,-0.000208,-0.002125,0.00924,-0.505408,-0.02036,1.160912,-260.150349,-1.064771,66.961004
13.7779,0.020071,0.004893,-0.020695,-0.000623,-0.00018,-0.002126,0.008829,-0.505256,-0.021533,1.160912,-260.150349,-1.064771,66.961004
13.7976,0.0198,0.004544,-0.022053,-0.000634,-0.000157,-0.002128,0.009498,-0.505004,-0.020762,1.186232,-260.150992,-1.060906,66.96051
13.8177,0.019374,0.004739,-0.022486,-0.00064,-0.000141,-0.00213,0.008639,-0.505302,-0.021939,1.186232,-260.150992,-1.060906,66.96051
13.8378,0.019559,0.00487,-0.022276,-0.000645,-0.000128,-0.002131,0.008639,-0.505302,-0.021939,1.186232,-260.150992,-1.060906,66.96051
13.8577,0.019687,0.004468,-0.02159,-0.000649,-0.000117,-0.002132,0.008173,-0.505009,-0.022364,1.160428,-260.151621,-1.064585,66.959992
13.8779,0.019646,0.004759,-0.021013,-0.000641,-0.000128,-0.002132,0.008377,-0.505176,-0.022056,1.160428,-260.151621,-1.064585,66.959992
13.8978,0.019687,0.004493,-0.021651,-0.000634,-0.000138,-0.002131,0.00891,-0.505132,-0.02108,1.141853,-260.152241,-1.069923,66.959455
13.9177,0.019786,0.004739,-0.022829,-0.000643,-0.000118,-0.002133,0.008668,-0.505365,-0.021603,1.141853,-260.152241,-1.069923,66.959455
13.9378,0.019686,0.00508,-0.022651,-0.000651,-0.000102,-0.002134,0.008668,-0.505365,-0.021603,1.141853,-260.152241,-1.069923,66.959455
13.9578,0.019993,0.00513,-0.021215,-0.000657,-8.9e-05,-0.002136,0.008108,-0.504794,-0.02274,1.155779,-260.152868,-1.071771,66.958927
13.9779,0.019559,0.004857,-0.022443,-0.000637,-0.000132,-0.002133,0.00854,-0.504779,-0.022128,1.155779,-260.152868,-1.071771,66.958927
13.998,0.019713,0.005135,-0.023257,-0.00062,-0.000168,-0.002131,0.008093,-0.505017,-0.022511,1.13024,-260.153477,-1.075539,66.95838
14.0178,0.019736,0.004518,-0.021998,-0.000584,-0.000228,-0.002128,0.007874,-0.504753,-0.023192,1.13024,-260.153477,-1.075539,66.95838
14.0377,0.019701,0.00485,-0.021737,-0.000554,-0.000276,-0.002125,0.007874,-0.504753,-0.023192,1.13024,-260.153477,-1.075539,66.95838
14.0577,0.01989,0.004724,-0.023823,-0.000529,-0.000317,-0.002123,0.00859,-0.505036,-0.021824,1.171358,-260.154099,-1.070182,66.957877
14.078,0.019869,0.004799,-0.021196,-0.000533,-0.000307,-0.002125,0.00824,-0.505076,-0.022653,1.171358,-260.154099,-1.070182,66.957877
14.098,0.019867,0.005058,-0.022999,-0.000536,-0.000299,-0.002126,0.009045,-0.505095,-0.021256,1.246455,-260.154707,-1.076035,66.957478
14.1176,0.019794,0.00488,-0.024186,-0.000528,-0.000314,-0.002125,0.008216,-0.504832,-0.022852,1.246455,-260.154707,-1.076035,66.957478
14.1378,0.019604,0.004657,-0.022712,-0.000522,-0.000327,-0.002125,0.008216,-0.504832,-0.022852,1.246455,-260.154707,-1.076035,66.957478
14.1578,0.020054,0.005258,-0.023172,-0.000516,-0.000338,-0.002125,0.007999,-0.505224,-0.022801,1.246935,-260.155381,-1.078651,66.957024
14.178,0.019901,0.004796,-0.023055,-0.000514,-0.00034,-0.002125,0.008095,-0.504969,-0.022965,1.246935,-260.155381,-1.078651,66.957024
14.1978,0.019684,0.004596,-0.022847,-0.000511,-0.000342,-0.002126,0.008128,-0.505078,-0.023122,1.264929,-260.156063,-1.077363,66.95659
14.2178,0.019812,0.004897,-0.02192,-0.000518,-0.00032,-0.002128,0.008041,-0.505255,-0.022874,1.264929,-260.156063,-1.077363,66.95659
14.238,0.020026,0.004596,-0.024033,-0.000525,-0.000303,-0.00213,0.008041,-0.505255,-0.022874,1.264929,-260.156063,-1.077363,66.95659
14.2579,0.020007,0.004667,-0.02282,-0.00053,-0.000288,-0.002132,0.007748,-0.505271,-0.024123,1.268765,-260.156749,-1.080262,66.956157
14.2779,0.020022,0.004936,-0.022828,-0.000531,-0.00028,-0.002133,0.007991,-0.505245,-0.023619,1.268765,-260.156749,-1.080262,66.956157
14.2977,0.020122,0.004605,-0.023023,-0.000533,-0.000273,-0.002134,0.008364,-0.50494,-0.022896,1.249355,-260.157416,-1.089525,66.955702
14.3176,0.02005,0.004864,-0.023702,-0.000545,-0.000253,-0.002136,0.008379,-0.505233,-0.023016,1.249355,-260.157416,-1.089525,66.955702
14.3377,0.01995,0.004716,-0.021501,-0.000555,-0.000237,-0.002137,0.008379,-0.505233,-0.023016,1.249355,-260.157416,-1.089525,66.955702
14.3577,0.019898,0.004568,-0.024084,-0.000563,-0.000223,-0.002138,0.008963,-0.505177,-0.02159,1.244848,-260.158082,-1.093582,66.955238
14.3778,0.020126,0.004527,-0.022506,-0.000571,-0.000212,-0.002138,0.0084,-0.505223,-0.022638,1.244848,-260.158082,-1.093582,66.955238
14.3981,0.019996,0.004449,-0.023124,-0.000577,-0.000202,-0.002139,0.008631,-0.505351,-0.022573,1.217732,-260.158724,-1.090921,66.954757
14.4177,0.019946,0.004553,-0.022047,-0.000585,-0.000184,-0.00214,0.008241,-0.50541,-0.023078,1.217732,-260.158724,-1.090921,66.954757
14.4381,0.019932,0.004794,-0.023914,-0.000591,-0.00017,-0.00214,0.008241,-0.50541,-0.023078,1.217732,-260.158724,-1.090921,66.954757
14.4579,0.019935,0.00473,-0.023361,-0.000596,-0.000157,-0.002141,0.007712,-0.505068,-0.024003,1.205533,-260.159369,-1.089144,66.95426
14.4783,0.020179,0.005075,-0.022921,-0.000576,-0.000192,-0.002138,0.007835,-0.505094,-0.023753,1.205533,-260.159369,-1.089144,66.95426
14.4979,0.020054,0.004533,-0.023843,-0.000559,-0.00022,-0.002136,0.008471,-0.504795,-0.022989,1.184229,-260.159998,-1.09262,66.953744
14.5179,0.020152,0.004503,-0.024008,-0.000555,-0.000222,-0.002136,0.007943,-0.505278,-0.023774,1.184229,-260.159998,-1.09262,66.953744
14.5382,0.019992,0.004304,-0.023916,-0.000553,-0.000224,-0.002136,0.007943,-0.505278,-0.023774,1.184229,-260.159998,-1.09262,66.953744
14.5579,0.02025,0.004462,-0.023419,-0.00055,-0.000225,-0.002136,0.007773,-0.505559,-0.024003,1.219689,-260.160633,-1.095279,66.953267
14.5777,0.020151,0.004841,-0.023302,-0.000558,-0.000205,-0.002137,0.007989,-0.505494,-0.023774,1.219689,-260.160633,-1.095279,66.953267
14.598,0.020185,0.004903,-0.023773,-0.000564,-0.000188,-0.002139,0.00825,-0.505027,-0.02337,1.225548,-260.161283,-1.099246,66.952783
14.6183,0.020071,0.004744,-0.023703,-0.000551,-0.000219,-0.002137,0.008078,-0.50496,-0.023741,1.225548,-260.161283,-1.099246,66.952783
14.638,0.020092,0.004775,-0.023414,-0.000541,-0.000243,-0.002136,0.008078,-0.50496,-0.023741,1.225548,-260.161283,-1.099246,66.952783
14.6577,0.020349,0.004363,-0.023579,-0.000532,-0.000264,-0.002135,0.008128,-0.505093,-0.023503,1.209644,-260.161919,-1.103314,66.952284
14.6776,0.019676,0.00458,-0.023197,-0.00054,-0.00025,-0.002136,0.008205,-0.505256,-0.023544,1.209644,-260.161919,-1.103314,66.952284
14.698,0.019924,0.004714,-0.023723,-0.000547,-0.000238,-0.002138,0.00783,-0.50529,-0.023263,1.243862,-260.162569,-1.098198,66.951826
14.7177,0.019942,0.004519,-0.024536,-0.000537,-0.000253,-0.002137,0.007826,-0.505157,-0.023685,1.243862,-260.162569,-1.098198,66.951826
14.7377,0.019928,0.004573,-0.025468,-0.000528,-0.000265,-0.002137,0.007826,-0.505157,-0.023685,1.243862,-260.162569,-1.098198,66.951826
14.7577,0.019772,0.004584,-0.025842,-0.000521,-0.000275,-0.002137,0.006918,-0.505271,-0.025558,1.230489,-260.163222,-1.097474,66.951347
14.778,0.020026,0.004761,-0.023647,-0.000478,-0.00032,-0.002134,0.006783,-0.505262,-0.025684,1.230489,-260.163222,-1.097474,66.951347
14.7975,0.019962,0.004545,-0.023642,-0.000442,-0.000357,-0.002133,0.007951,-0.505105,-0.023714,1.251977,-260.163882,-1.102341,66.950889
14.8178,0.020173,0.004649,-0.023153,-0.000457,-0.000334,-0.002135,0.007908,-0.505294,-0.023652,1.251977,-260.163882,-1.102341,66.950889
14.8378,0.020121,0.004239,-0.024317,-0.00047,-0.000315,-0.002137,0.007908,-0.505294,-0.023652,1.251977,-260.163882,-1.102341,66.950889
14.8576,0.020426,0.004362,-0.024932,-0.00048,-0.000299,-0.002139,0.007703,-0.505624,-0.0244,1.310456,-260.164523,-1.133202,66.9505
14.8778,0.020395,0.004864,-0.023456,-0.000493,-0.00027,-0.002141,0.007705,-0.505567,-0.024626,1.310456,-260.164523,-1.133202,66.9505
