mach0312/omni-docking-bench/src/icros_test_setup/results/MPPI_sample/timeseries/trial_113.csv
t,x,y,yaw,vx,vy,wz,bl_x,bl_y,bl_yaw,front_steering_joint,front_wheel_joint,rear_steering_joint,rear_wheel_joint
0.0,-0.059356,-0.000496,0.046143,-0.010993,-0.000644,0.021788,-0.034535,-0.510432,0.040789,-0.855863,-262.749713,0.903401,69.856312
0.0004,-0.059336,-0.000636,0.047214,-0.010224,-0.000599,0.020263,-0.034799,-0.509963,0.042586,-0.855863,-262.758088,0.903401,69.847441
0.0008,-0.060763,-0.000855,0.048312,-0.009379,-0.000549,0.018589,-0.035615,-0.510306,0.042474,-0.855863,-262.765969,0.903401,69.839094
0.0011,-0.060938,-0.00099,0.047008,-0.008468,-0.000496,0.016782,-0.035615,-0.510306,0.042474,-0.855863,-262.772664,0.903401,69.832002
0.0015,-0.061881,-0.000913,0.047924,-0.007476,-0.000438,0.014816,-0.035615,-0.510306,0.042474,-0.855863,-262.778387,0.903401,69.825941
0.0018,-0.061399,-0.001075,0.047422,-0.006416,-0.000376,0.012716,-0.036083,-0.510188,0.043466,-0.855863,-262.782302,0.903401,69.821795
0.0021,-0.061663,-0.001061,0.048126,-0.005281,-0.000309,0.010467,-0.035832,-0.510303,0.044288,-0.855863,-262.782302,0.903401,69.821795
0.0024,-0.062557,-0.001108,0.048057,-0.004067,-0.000238,0.00806,-0.035832,-0.510303,0.044288,-0.855863,-262.782302,0.903401,69.821795
0.0027,-0.061973,-0.001213,0.046762,-0.002791,-0.000163,0.005532,-0.036342,-0.510474,0.044695,-0.855863,-262.782302,0.903401,69.821795
0.0161,-0.062776,-0.001021,0.049256,0.0,0.0,0.0,-0.038263,-0.51067,0.04702,-0.855863,-262.784779,0.903401,69.819171
0.0364,-0.062699,-0.00151,0.046828,0.0,0.0,0.0,-0.037725,-0.510427,0.049069,-0.855863,-262.784779,0.903401,69.819171
0.0567,-0.062465,-0.001246,0.048745,0.0,0.0,0.0,-0.037725,-0.510427,0.049069,-0.855863,-262.784779,0.903401,69.819171
0.076,-0.063034,-0.001511,0.048463,0.0,0.0,0.0,-0.037615,-0.51064,0.048745,-0.855863,-262.784779,0.903401,69.819171
0.0969,-0.062803,-0.001145,0.047938,0.0,0.0,0.0,-0.037904,-0.510751,0.04863,-0.855863,-262.784779,0.903401,69.819171
0.116,-0.062539,-0.001249,0.049485,0.000428,-0.000464,0.001166,-0.038364,-0.510559,0.047938,-0.855863,-262.784779,0.903401,69.819171
0.1361,-0.062182,-0.000845,0.047616,0.000448,-0.000538,0.000671,-0.037408,-0.510618,0.049345,-0.855863,-262.784779,0.903401,69.819171
0.1562,-0.062424,-0.001223,0.049236,0.000462,-0.000605,0.000294,-0.037408,-0.510618,0.049345,-0.855863,-262.784779,0.903401,69.819171
0.176,-0.062495,-0.001084,0.0469,0.000469,-0.000666,8e-06,-0.037324,-0.510605,0.049236,-0.780846,-262.784779,0.828384,69.819171
0.196,-0.063124,-0.001245,0.04741,0.000472,-0.000719,-0.000492,-0.037836,-0.510572,0.048287,-0.780846,-262.784779,0.828384,69.819171
0.2159,-0.062921,-0.001259,0.048807,0.00047,-0.000768,-0.000879,-0.038954,-0.510672,0.04741,-0.855784,-262.784779,0.753446,69.819171
0.2359,-0.062969,-0.001084,0.048336,0.000466,-0.000808,-0.001412,-0.038122,-0.510654,0.048681,-0.855784,-262.784779,0.753446,69.819171
0.2561,-0.062369,-0.000956,0.048512,0.00046,-0.000844,-0.001835,-0.038122,-0.510654,0.048681,-0.855784,-262.784779,0.753446,69.819171
0.276,-0.062711,-0.001133,0.048341,0.000452,-0.000875,-0.002168,-0.037637,-0.510356,0.048512,-0.930785,-262.784779,0.678445,69.819171
0.2959,-0.062694,-0.001106,0.049066,0.000443,-0.000908,-0.002606,-0.037812,-0.51043,0.048442,-0.930785,-262.784779,0.678445,69.819171
0.3156,-0.062745,-0.001208,0.049013,0.000433,-0.000937,-0.00296,-0.03768,-0.510493,0.049064,-1.005819,-262.784747,0.753478,69.81918
0.336,-0.062496,-0.001605,0.05016,0.000423,-0.000957,-0.00338,-0.037751,-0.510586,0.049018,-1.005819,-262.784747,0.753478,69.81918
0.356,-0.062643,-0.001132,0.049784,0.000413,-0.000976,-0.003721,-0.037751,-0.510586,0.049018,-1.005819,-262.784747,0.753478,69.81918
0.3758,-0.062489,-0.000765,0.048986,0.000403,-0.000992,-0.003996,-0.037264,-0.510501,0.049783,-1.080762,-262.784738,0.828421,69.819183
0.396,-0.062716,-0.001261,0.048379,0.000393,-0.001012,-0.004323,-0.037367,-0.510359,0.049457,-1.080762,-262.784738,0.828421,69.819183
0.4158,-0.063105,-0.001303,0.046414,0.000383,-0.001029,-0.00459,-0.038052,-0.510664,0.048379,-1.15578,-262.784734,0.90344,69.819185
0.4359,-0.062819,-0.00118,0.04834,0.000373,-0.001031,-0.004879,-0.039317,-0.510745,0.046591,-1.15578,-262.784734,0.90344,69.819185
0.4558,-0.062541,-0.001602,0.049232,0.000364,-0.001034,-0.005117,-0.039317,-0.510745,0.046591,-1.15578,-262.784734,0.90344,69.819185
0.4759,-0.062686,-0.001204,0.04766,0.000355,-0.001037,-0.005313,-0.037443,-0.510984,0.049231,-1.230798,-262.784724,0.978458,69.819189
0.4961,-0.062729,-0.001519,0.049689,0.000347,-0.001038,-0.005539,-0.037824,-0.510839,0.048596,-1.230798,-262.784724,0.978458,69.819189
0.5161,-0.062882,-0.001134,0.047634,0.00034,-0.001039,-0.005725,-0.037397,-0.51089,0.049687,-1.305794,-262.784698,1.053454,69.819203
0.5362,-0.062974,-0.001349,0.047928,0.000332,-0.001046,-0.00588,-0.038489,-0.510586,0.047821,-1.305794,-262.784698,1.053454,69.819203
0.5562,-0.062716,-0.001197,0.047126,0.000326,-0.001053,-0.006008,-0.038489,-0.510586,0.047821,-1.305794,-262.784698,1.053454,69.819203
0.5761,-0.062685,-0.000964,0.049867,0.000319,-0.001058,-0.006114,-0.038688,-0.510633,0.047114,-1.380781,-262.784603,1.128441,69.819255
0.5962,-0.062872,-0.00139,0.047905,0.000314,-0.001065,-0.006202,-0.03811,-0.51051,0.04823,-1.380781,-262.784603,1.128441,69.819255
0.6158,-0.062763,-0.001168,0.047733,0.000308,-0.001071,-0.006275,-0.038445,-0.51081,0.047878,-1.455775,-262.784329,1.203434,69.819409
0.636,-0.06271,-0.001212,0.049166,0.000304,-0.001074,-0.006335,-0.03843,-0.510607,0.047745,-1.455775,-262.784329,1.203434,69.819409
0.6561,-0.062747,-0.001517,0.049842,0.0003,-0.001076,-0.006385,-0.03843,-0.510607,0.047745,-1.455775,-262.784329,1.203434,69.819409
0.6762,-0.06251,-0.00106,0.048076,0.000296,-0.001078,-0.006427,-0.037329,-0.510899,0.049756,-1.507973,-262.783678,1.278493,69.819777
0.696,-0.062577,-0.001531,0.048171,0.000292,-0.001077,-0.006462,-0.0376,-0.510727,0.049067,-1.507973,-262.783678,1.278493,69.819777
0.7159,-0.062344,-0.001152,0.046445,0.000289,-0.001076,-0.006491,-0.03801,-0.510959,0.048057,-1.511749,-262.782549,1.353439,69.820421
0.7363,-0.062732,-0.001185,0.047401,0.000287,-0.001077,-0.006516,-0.038606,-0.510635,0.046585,-1.511749,-262.782549,1.353439,69.820421
0.756,-0.062408,-0.001537,0.046824,0.000284,-0.001077,-0.006536,-0.038606,-0.510635,0.046585,-1.511749,-262.782549,1.353439,69.820421
0.7763,-0.062337,-0.001273,0.048015,0.000282,-0.001077,-0.006553,-0.038523,-0.511014,0.046607,-1.513472,-262.780931,1.428441,69.821352
0.796,-0.062343,-0.001187,0.048081,0.00028,-0.001071,-0.006604,-0.038253,-0.510885,0.047151,-1.513472,-262.780931,1.428441,69.821352
0.8158,-0.061981,-0.001591,0.046554,0.000278,-0.001065,-0.006646,-0.037821,-0.51063,0.047879,-1.515368,-262.778962,1.474762,69.822489
0.836,-0.062137,-0.001542,0.046579,0.000277,-0.001057,-0.006698,-0.038208,-0.511004,0.046661,-1.515368,-262.778962,1.474762,69.822489
0.856,-0.062261,-0.001111,0.047401,0.000275,-0.001051,-0.006741,-0.038208,-0.511004,0.046661,-1.515368,-262.778962,1.474762,69.822489
0.8761,-0.062149,-0.00128,0.047693,0.000274,-0.001045,-0.006777,-0.038082,-0.510582,0.047123,-1.516586,-262.77691,1.478174,69.823691
0.896,-0.062215,-0.001271,0.048308,0.000272,-0.00105,-0.006825,-0.03798,-0.510635,0.047323,-1.516586,-262.77691,1.478174,69.823691
0.9156,-0.061746,-0.001209,0.046855,0.000271,-0.001055,-0.006865,-0.037577,-0.510709,0.048092,-1.518044,-262.774833,1.482559,69.824934
0.9361,-0.061309,-0.001038,0.047659,0.000269,-0.001057,-0.006916,-0.037834,-0.510656,0.046951,-1.518044,-262.774833,1.482559,69.824934
0.9564,-0.061451,-0.001148,0.046797,0.000268,-0.001059,-0.006957,-0.037834,-0.510656,0.046951,-1.518044,-262.774833,1.482559,69.824934
0.9761,-0.061481,-0.002009,0.04786,0.000267,-0.001061,-0.006991,-0.03758,-0.510634,0.046509,-1.519286,-262.772735,1.4848,69.826192
0.9961,-0.061779,-0.001358,0.047427,0.000266,-0.001054,-0.007035,-0.037377,-0.51096,0.047024,-1.519286,-262.772735,1.4848,69.826192
1.016,-0.061674,-0.001189,0.047318,0.000265,-0.001048,-0.007072,-0.03759,-0.510818,0.047204,-1.520811,-262.770601,1.487872,69.827479
1.0359,-0.061596,-0.001891,0.045826,0.000264,-0.001052,-0.007119,-0.037554,-0.510638,0.047296,-1.520811,-262.770601,1.487872,69.827479
1.0557,-0.061348,-0.001768,0.047435,0.000263,-0.001056,-0.007157,-0.037554,-0.510638,0.047296,-1.520811,-262.770601,1.487872,69.827479
1.076,-0.061269,-0.001799,0.046398,0.000262,-0.001059,-0.007189,-0.037152,-0.511238,0.04714,-1.521452,-262.768451,1.489927,69.828792
1.0961,-0.0612,-0.001605,0.04465,0.000262,-0.001044,-0.007229,-0.037339,-0.511248,0.046803,-1.521452,-262.768451,1.489927,69.828792
1.1157,-0.060985,-0.001643,0.047534,0.000261,-0.001032,-0.007263,-0.038426,-0.51113,0.044421,-1.522745,-262.766269,1.492317,69.830129
1.1359,-0.060839,-0.001794,0.04654,0.000261,-0.001026,-0.007304,-0.036903,-0.511075,0.047239,-1.522745,-262.766269,1.492317,69.830129
1.156,-0.06115,-0.00151,0.045489,0.00026,-0.001021,-0.007338,-0.036903,-0.511075,0.047239,-1.522745,-262.766269,1.492317,69.830129
1.1758,-0.060694,-0.001526,0.045619,0.00026,-0.001017,-0.007367,-0.037946,-0.511025,0.045184,-1.523037,-262.76408,1.494184,69.831494
1.1958,-0.061173,-0.001168,0.045877,0.000259,-0.001014,-0.0074,-0.037738,-0.511018,0.045325,-1.523037,-262.76408,1.494184,69.831494
1.2159,-0.060603,-0.001675,0.046086,0.000259,-0.001011,-0.007428,-0.037774,-0.510664,0.045642,-1.523761,-262.761869,1.496377,69.832892
1.236,-0.060499,-0.001797,0.044149,0.000258,-0.001005,-0.007458,-0.037166,-0.511093,0.046035,-1.523761,-262.761869,1.496377,69.832892
1.2558,-0.060563,-0.001596,0.04414,0.000258,-0.001001,-0.007483,-0.037166,-0.511093,0.046035,-1.523761,-262.761869,1.496377,69.832892
1.2758,-0.060276,-0.001878,0.043252,0.000257,-0.000997,-0.007504,-0.038047,-0.511141,0.04383,-1.524221,-262.759646,1.497592,69.834307
1.2961,-0.060434,-0.001511,0.043377,0.000257,-0.000988,-0.007525,-0.038118,-0.511253,0.043555,-1.524221,-262.759646,1.497592,69.834307
1.316,-0.060472,-0.001725,0.044144,0.000257,-0.00098,-0.007542,-0.038309,-0.511062,0.043139,-1.524734,-262.757412,1.4992,69.835745
1.3358,-0.060089,-0.001897,0.045141,0.000256,-0.000975,-0.007559,-0.037995,-0.511215,0.044045,-1.524734,-262.757412,1.4992,69.835745
1.3563,-0.060018,-0.001721,0.045526,0.000256,-0.00097,-0.007573,-0.037995,-0.511215,0.044045,-1.524734,-262.757412,1.4992,69.835745
1.3758,-0.059933,-0.001238,0.042898,0.000256,-0.000967,-0.007585,-0.036795,-0.511233,0.045209,-1.524893,-262.755175,1.500157,69.8372
1.3958,-0.060185,-0.001822,0.044719,0.000255,-0.000967,-0.007596,-0.037303,-0.511051,0.044244,-1.524893,-262.755175,1.500157,69.8372
1.4166,-0.059878,-0.001892,0.044305,0.000255,-0.000968,-0.007606,-0.037376,-0.511343,0.044479,-1.525182,-262.752934,1.501191,69.838669
1.436,-0.059781,-0.001432,0.043501,0.000254,-0.00096,-0.007615,-0.037297,-0.511389,0.044308,-1.525182,-262.752934,1.501191,69.838669
1.4561,-0.059739,-0.001815,0.044681,0.000254,-0.000953,-0.007623,-0.037297,-0.511389,0.044308,-1.525182,-262.752934,1.501191,69.838669
1.476,-0.059457,-0.002163,0.042984,0.000254,-0.000947,-0.007629,-0.036947,-0.511346,0.044364,-1.525455,-262.750686,1.501645,69.840144
1.4961,-0.059665,-0.001635,0.042582,0.000254,-0.000938,-0.007636,-0.03719,-0.511493,0.043758,-1.525455,-262.750686,1.501645,69.840144
1.516,-0.05906,-0.00199,0.041695,0.000254,-0.000931,-0.007641,-0.037945,-0.511202,0.042339,-1.525509,-262.748441,1.502479,69.841633
1.5361,-0.059231,-0.002281,0.04301,0.000254,-0.000923,-0.007647,-0.037814,-0.511517,0.04174,-1.525509,-262.748441,1.502479,69.841633
1.5558,-0.059173,-0.001723,0.042734,0.000253,-0.000916,-0.007652,-0.037814,-0.511517,0.04174,-1.525509,-262.748441,1.502479,69.841633
1.5764,-0.059395,-0.001762,0.041804,0.000253,-0.000911,-0.007656,-0.037372,-0.511296,0.042415,-1.525503,-262.746203,1.502988,69.843128
1.5959,-0.059119,-0.001962,0.041979,0.000253,-0.000913,-0.007661,-0.037659,-0.511309,0.04213,-1.525503,-262.746203,1.502988,69.843128
1.6162,-0.059082,-0.001617,0.041127,0.000253,-0.000915,-0.007665,-0.037706,-0.511542,0.041735,-1.525487,-262.743966,1.503619,69.844637
1.6358,-0.05889,-0.001527,0.040762,0.000253,-0.000919,-0.007669,-0.038076,-0.51122,0.041169,-1.525487,-262.743966,1.503619,69.844637
1.6564,-0.058997,-0.002023,0.042146,0.000252,-0.000921,-0.007673,-0.038076,-0.51122,0.041169,-1.525487,-262.743966,1.503619,69.844637
1.6758,-0.058857,-0.001926,0.041997,0.000252,-0.000924,-0.007676,-0.037497,-0.511608,0.041824,-1.525652,-262.741725,1.503769,69.846147
1.6961,-0.059045,-0.001933,0.041406,0.000252,-0.000917,-0.007679,-0.037474,-0.511559,0.041857,-1.525652,-262.741725,1.503769,69.846147
1.7156,-0.058663,-0.001948,0.042507,0.000252,-0.000911,-0.007681,-0.037925,-0.511525,0.041161,-1.52589,-262.739474,1.503906,69.847659
1.7359,-0.058274,-0.002218,0.041547,0.000252,-0.000908,-0.007684,-0.03707,-0.511492,0.042381,-1.52589,-262.739474,1.503906,69.847659
1.7561,-0.058456,-0.002393,0.039646,0.000252,-0.000905,-0.007686,-0.03707,-0.511492,0.042381,-1.52589,-262.739474,1.503906,69.847659
1.7761,-0.058347,-0.001742,0.039547,0.000252,-0.000903,-0.007688,-0.03823,-0.51203,0.039325,-1.525835,-262.737235,1.50422,69.849172
1.7961,-0.058232,-0.001661,0.040372,0.000252,-0.000893,-0.007689,-0.038209,-0.511755,0.039378,-1.525835,-262.737235,1.50422,69.849172
1.8164,-0.057947,-0.001945,0.039084,0.000252,-0.000884,-0.007691,-0.037639,-0.511274,0.040127,-1.52586,-262.734989,1.504509,69.850695
1.8367,-0.058175,-0.00184,0.040705,0.000252,-0.000882,-0.007693,-0.037987,-0.511533,0.039159,-1.52586,-262.734989,1.504509,69.850695
1.8562,-0.057956,-0.001895,0.04055,0.000252,-0.00088,-0.007694,-0.037987,-0.511533,0.039159,-1.52586,-262.734989,1.504509,69.850695
1.876,-0.057807,-0.002314,0.040077,0.000252,-0.000879,-0.007695,-0.037269,-0.511512,0.040229,-1.52572,-262.732756,1.504869,69.852223
1.8963,-0.058146,-0.002217,0.039402,0.000251,-0.000874,-0.007697,-0.037311,-0.511678,0.040129,-1.52572,-262.732756,1.504869,69.852223
1.9161,-0.05777,-0.001835,0.040551,0.000251,-0.00087,-0.007698,-0.038047,-0.511849,0.039157,-1.525734,-262.730521,1.505054,69.853755
1.9363,-0.057545,-0.002517,0.038752,0.000251,-0.000873,-0.007699,-0.037177,-0.511455,0.040418,-1.525734,-262.730521,1.505054,69.853755
1.9562,-0.057373,-0.002232,0.039024,0.000251,-0.000875,-0.0077,-0.037177,-0.511455,0.040418,-1.525734,-262.730521,1.505054,69.853755
1.9761,-0.057485,-0.002324,0.037956,0.000251,-0.000877,-0.007702,-0.037464,-0.51188,0.038702,-1.525697,-262.728294,1.505268,69.855288
1.9959,-0.057822,-0.002246,0.040789,0.000251,-0.000865,-0.007702,-0.037735,-0.511915,0.038361,-1.525697,-262.728294,1.505268,69.855288
2.0157,-0.05697,-0.002182,0.036189,0.000251,-0.000854,-0.007702,-0.037017,-0.511849,0.040543,-1.525831,-262.72606,1.505283,69.856823
2.0362,-0.057363,-0.002662,0.037734,0.000251,-0.000847,-0.007702,-0.038381,-0.51185,0.036574,-1.525831,-262.72606,1.505283,69.856823
2.056,-0.057293,-0.00259,0.038555,0.000251,-0.00084,-0.007703,-0.038381,-0.51185,0.036574,-1.525831,-262.72606,1.505283,69.856823
2.0761,-0.057063,-0.002269,0.039732,0.000251,-0.000835,-0.007703,-0.037623,-0.512246,0.038233,-1.525662,-262.723831,1.505673,69.858368
2.0961,-0.056777,-0.002265,0.038548,0.000251,-0.000825,-0.007703,-0.037285,-0.512094,0.038813,-1.525662,-262.723831,1.505673,69.858368
2.1159,-0.056902,-0.002364,0.036172,0.000251,-0.000816,-0.007704,-0.037113,-0.511912,0.038302,-1.525516,-262.721613,1.506022,69.859919
2.1357,-0.056935,-0.002694,0.037718,0.000251,-0.00081,-0.007704,-0.03834,-0.512021,0.036346,-1.525516,-262.721613,1.506022,69.859919
2.1558,-0.057052,-0.002243,0.037919,0.000251,-0.000805,-0.007704,-0.03834,-0.512021,0.036346,-1.525516,-262.721613,1.506022,69.859919
2.1758,-0.05665,-0.002229,0.03871,0.000251,-0.0008,-0.007705,-0.037707,-0.51191,0.037597,-1.5254,-262.719401,1.506395,69.861479
2.1959,-0.056489,-0.002319,0.037751,0.000251,-0.0008,-0.007706,-0.037377,-0.511888,0.03802,-1.5254,-262.719401,1.506395,69.861479
2.2163,-0.056202,-0.002589,0.037645,0.00025,-0.0008,-0.007706,-0.037231,-0.511981,0.037507,-1.525307,-262.717197,1.506713,69.863043
2.2361,-0.056374,-0.002265,0.036475,0.00025,-0.000791,-0.007706,-0.037026,-0.512208,0.037622,-1.525307,-262.717197,1.506713,69.863043
2.2558,-0.056719,-0.002278,0.036041,0.00025,-0.000783,-0.007706,-0.037026,-0.512208,0.037622,-1.525307,-262.717197,1.506713,69.863043
2.2761,-0.056164,-0.002152,0.037748,0.00025,-0.000776,-0.007707,-0.03833,-0.51198,0.03572,-1.525346,-262.714996,1.506768,69.864607
2.2959,-0.056011,-0.002273,0.036381,0.00025,-0.000779,-0.007707,-0.037751,-0.511906,0.036512,-1.525346,-262.714996,1.506768,69.864607
2.3163,-0.055947,-0.002866,0.035188,0.00025,-0.000781,-0.007708,-0.037452,-0.51196,0.036136,-1.525231,-262.712796,1.507278,69.866185
2.3364,-0.055935,-0.002277,0.036286,0.00025,-0.000766,-0.007707,-0.037958,-0.512501,0.035256,-1.525231,-262.712796,1.507278,69.866185
2.3559,-0.05608,-0.0025,0.035914,0.000249,-0.000753,-0.007707,-0.037958,-0.512501,0.035256,-1.525231,-262.712796,1.507278,69.866185
2.3761,-0.055845,-0.002318,0.035526,0.000249,-0.000743,-0.007707,-0.037756,-0.512203,0.035592,-1.525287,-262.710599,1.507236,69.867759
2.3961,-0.05561,-0.002467,0.036247,0.000249,-0.000744,-0.007708,-0.037745,-0.512122,0.035527,-1.525287,-262.710599,1.507236,69.867759
2.4158,-0.055448,-0.002581,0.036163,0.000249,-0.000745,-0.007708,-0.037119,-0.512155,0.036003,-1.525086,-262.708416,1.507992,69.869348
2.436,-0.055889,-0.002301,0.033741,0.000249,-0.000742,-0.007708,-0.037018,-0.512241,0.036137,-1.525086,-262.708416,1.507992,69.869348
2.4558,-0.055757,-0.002584,0.03458,0.000249,-0.000739,-0.007709,-0.037018,-0.512241,0.036137,-1.525086,-262.708416,1.507992,69.869348
2.4757,-0.055307,-0.002497,0.036321,0.000249,-0.000737,-0.007709,-0.038113,-0.51231,0.034258,-1.525117,-262.706234,1.507986,69.870936
2.4961,-0.055493,-0.002706,0.034439,0.000249,-0.000735,-0.007709,-0.037571,-0.512253,0.035062,-1.525117,-262.706234,1.507986,69.870936
2.5161,-0.05491,-0.003113,0.034608,0.000249,-0.000733,-0.007709,-0.037924,-0.512427,0.034193,-1.525118,-262.704054,1.508199,69.872527
2.5358,-0.05472,-0.002628,0.034916,0.000248,-0.000717,-0.007709,-0.03732,-0.512776,0.03456,-1.525118,-262.704054,1.508199,69.872527
2.5558,-0.054885,-0.002599,0.03455,0.000248,-0.000703,-0.007708,-0.03732,-0.512776,0.03456,-1.525118,-262.704054,1.508199,69.872527
2.5761,-0.055064,-0.002554,0.03447,0.000248,-0.000691,-0.007708,-0.037257,-0.512325,0.034227,-1.525112,-262.701871,1.508306,69.874123
2.5961,-0.054821,-0.002653,0.034327,0.000248,-0.000694,-0.007709,-0.03735,-0.512298,0.03429,-1.525112,-262.701871,1.508306,69.874123
2.6158,-0.054644,-0.002645,0.035993,0.000248,-0.000696,-0.007709,-0.037309,-0.512375,0.034082,-1.524953,-262.699688,1.509209,69.875749
2.6356,-0.054407,-0.002312,0.033468,0.000248,-0.000697,-0.00771,-0.03635,-0.512319,0.035874,-1.524953,-262.699688,1.509209,69.875749
2.6558,-0.055015,-0.002757,0.033128,0.000248,-0.000698,-0.00771,-0.03635,-0.512319,0.035874,-1.524953,-262.699688,1.509209,69.875749
2.6756,-0.054257,-0.002392,0.033343,0.000248,-0.000699,-0.007711,-0.038112,-0.512505,0.032811,-1.524996,-262.697552,1.509136,69.877336
2.6958,-0.054416,-0.00275,0.032702,0.000247,-0.000699,-0.007711,-0.037761,-0.512347,0.032991,-1.524996,-262.697552,1.509136,69.877336
2.7158,-0.054407,-0.002648,0.033188,0.000247,-0.000698,-0.007711,-0.037732,-0.5125,0.032456,-1.525064,-262.695382,1.509153,69.878946
2.7357,-0.054449,-0.002864,0.032891,0.000247,-0.000697,-0.007711,-0.037508,-0.512381,0.033105,-1.525064,-262.695382,1.509153,69.878946
2.7559,-0.054281,-0.002597,0.033896,0.000247,-0.000695,-0.007711,-0.037508,-0.512381,0.033105,-1.525064,-262.695382,1.509153,69.878946
2.7756,-0.054148,-0.00273,0.031821,0.000247,-0.000694,-0.007711,-0.036986,-0.512333,0.033574,-1.525066,-262.693217,1.509181,69.880553
2.7959,-0.053802,-0.003089,0.033202,0.000247,-0.000692,-0.007711,-0.037371,-0.512394,0.032813,-1.525066,-262.693217,1.509181,69.880553
2.816,-0.054192,-0.002713,0.033521,0.000247,-0.000691,-0.007711,-0.036863,-0.512829,0.032957,-1.525059,-262.691057,1.509279,69.882159
2.836,-0.053813,-0.002829,0.032919,0.000247,-0.000688,-0.007711,-0.037077,-0.512464,0.033457,-1.525059,-262.691057,1.509279,69.882159
2.8559,-0.053809,-0.002686,0.032421,0.000247,-0.000685,-0.007711,-0.037077,-0.512464,0.033457,-1.525059,-262.691057,1.509279,69.882159
2.8757,-0.053726,-0.00247,0.032599,0.000247,-0.000683,-0.007711,-0.037266,-0.512447,0.032099,-1.525052,-262.688892,1.509359,69.883772
2.8956,-0.053657,-0.002757,0.032211,0.000247,-0.000683,-0.007711,-0.037198,-0.512348,0.032268,-1.525052,-262.688892,1.509359,69.883772
2.9162,-0.053659,-0.00253,0.032258,0.000247,-0.000684,-0.007711,-0.037224,-0.512514,0.031967,-1.525036,-262.686732,1.509544,69.885386
2.936,-0.053445,-0.002833,0.031665,0.000247,-0.000685,-0.007712,-0.037211,-0.512288,0.032219,-1.525036,-262.686732,1.509544,69.885386
2.9559,-0.053529,-0.002669,0.030509,0.000247,-0.000687,-0.007712,-0.037211,-0.512288,0.032219,-1.525036,-262.686732,1.509544,69.885386
2.9765,-0.053564,-0.00267,0.030891,0.000247,-0.000688,-0.007712,-0.037961,-0.51246,0.030186,-1.525049,-262.684573,1.509547,69.886999
2.9964,-0.053092,-0.002909,0.031051,0.000247,-0.000684,-0.007712,-0.037899,-0.512449,0.030437,-1.525049,-262.684573,1.509547,69.886999
3.0165,-0.053115,-0.002688,0.030073,0.000247,-0.000681,-0.007712,-0.037251,-0.512685,0.030805,-1.525086,-262.682414,1.509477,69.888609
3.0363,-0.053124,-0.00303,0.030451,0.000247,-0.000677,-0.007711,-0.037732,-0.512479,0.030127,-1.525086,-262.682414,1.509477,69.888609
3.0567,-0.053338,-0.00281,0.029868,0.000247,-0.000674,-0.007711,-0.037732,-0.512479,0.030127,-1.525086,-262.682414,1.509477,69.888609
3.076,-0.052741,-0.00271,0.03031,0.000247,-0.000671,-0.007711,-0.038096,-0.512611,0.029543,-1.525051,-262.680252,1.509614,69.890226
3.0964,-0.053035,-0.002992,0.030802,0.000246,-0.000666,-0.007711,-0.037768,-0.512559,0.029816,-1.525051,-262.680252,1.509614,69.890226
3.1162,-0.052702,-0.003023,0.027802,0.000246,-0.000662,-0.007711,-0.037321,-0.512771,0.030557,-1.525007,-262.678098,1.509826,69.891844
3.136,-0.052514,-0.002515,0.031443,0.000246,-0.000652,-0.007711,-0.038419,-0.512822,0.02803,-1.525007,-262.678098,1.509826,69.891844
3.1561,-0.05257,-0.002929,0.030215,0.000246,-0.000643,-0.00771,-0.038419,-0.512822,0.02803,-1.525007,-262.678098,1.509826,69.891844
3.1758,-0.052284,-0.002879,0.028411,0.000246,-0.000635,-0.00771,-0.037151,-0.512723,0.029893,-1.524974,-262.675947,1.510012,69.893466
3.1961,-0.052398,-0.002795,0.029573,0.000245,-0.000631,-0.00771,-0.037416,-0.512706,0.029244,-1.524974,-262.675947,1.510012,69.893466
3.2158,-0.052118,-0.002738,0.02867,0.000245,-0.000627,-0.00771,-0.03731,-0.512592,0.029327,-1.524884,-262.673808,1.510602,69.895098
3.2359,-0.051946,-0.003388,0.030047,0.000245,-0.000629,-0.007711,-0.037482,-0.512535,0.028715,-1.524884,-262.673808,1.510602,69.895098
3.256,-0.051884,-0.002933,0.026701,0.000245,-0.00063,-0.007711,-0.037482,-0.512535,0.028715,-1.524884,-262.673808,1.510602,69.895098
3.2768,-0.052132,-0.002968,0.029191,0.000245,-0.00063,-0.007711,-0.038257,-0.512777,0.026378,-1.524875,-262.671673,1.510787,69.896732
3.296,-0.051918,-0.003047,0.03009,0.000245,-0.000624,-0.007711,-0.037845,-0.51277,0.027484,-1.524875,-262.671673,1.510787,69.896732
3.3156,-0.052041,-0.003102,0.028652,0.000245,-0.000619,-0.007711,-0.036566,-0.512836,0.029844,-1.524912,-262.669535,1.510759,69.898366
3.3361,-0.05162,-0.003268,0.028457,0.000245,-0.000612,-0.007711,-0.037352,-0.512889,0.028747,-1.524912,-262.669535,1.510759,69.898366
3.3561,-0.051621,-0.002712,0.027784,0.000244,-0.000606,-0.007711,-0.037352,-0.512889,0.028747,-1.524912,-262.669535,1.510759,69.898366
3.3759,-0.051721,-0.003016,0.027299,0.000244,-0.000601,-0.007711,-0.037442,-0.512541,0.027461,-1.524893,-262.667398,1.511018,69.900008
3.3959,-0.051854,-0.002951,0.027763,0.000244,-0.000602,-0.007711,-0.037587,-0.512661,0.027357,-1.524893,-262.667398,1.511018,69.900008
3.416,-0.051623,-0.002652,0.027318,0.000244,-0.000603,-0.007711,-0.037689,-0.512773,0.027518,-1.524873,-262.665272,1.511458,69.901654
3.4359,-0.051422,-0.003031,0.028698,0.000244,-0.000608,-0.007712,-0.037692,-0.51249,0.027323,-1.524873,-262.665272,1.511458,69.901654
3.4558,-0.051396,-0.002933,0.028337,0.000244,-0.000613,-0.007712,-0.037692,-0.51249,0.027323,-1.524873,-262.665272,1.511458,69.901654
3.4763,-0.051192,-0.003244,0.028242,0.000244,-0.000616,-0.007713,-0.036936,-0.512753,0.028015,-1.524888,-262.663138,1.511438,69.903304
3.4963,-0.051142,-0.002871,0.027491,0.000244,-0.000608,-0.007712,-0.036874,-0.512876,0.028071,-1.524888,-262.663138,1.511438,69.903304
3.5156,-0.050849,-0.002968,0.026503,0.000244,-0.000601,-0.007712,-0.037115,-0.512698,0.027247,-1.524947,-262.661014,1.511175,69.904938
3.5359,-0.05069,-0.002999,0.026103,0.000244,-0.000598,-0.007712,-0.037314,-0.512781,0.026557,-1.524947,-262.661014,1.511175,69.904938
3.5563,-0.050599,-0.003211,0.027073,0.000244,-0.000595,-0.007712,-0.037314,-0.512781,0.026557,-1.524947,-262.661014,1.511175,69.904938
3.5763,-0.050421,-0.00312,0.025578,0.000243,-0.000592,-0.007712,-0.036782,-0.513049,0.026751,-1.524935,-262.658885,1.511535,69.906586
3.5965,-0.050724,-0.00281,0.024702,0.000243,-0.000583,-0.007711,-0.037026,-0.513012,0.02623,-1.524935,-262.658885,1.511535,69.906586
3.616,-0.050327,-0.003582,0.026494,0.000243,-0.000575,-0.007711,-0.038119,-0.512674,0.024456,-1.524922,-262.656756,1.51176,69.908241
3.636,-0.050616,-0.003309,0.025959,0.000242,-0.000559,-0.007711,-0.036921,-0.513346,0.02632,-1.524922,-262.656756,1.51176,69.908241
3.6558,-0.05049,-0.003295,0.02753,0.000241,-0.000546,-0.00771,-0.036921,-0.513346,0.02632,-1.524922,-262.656756,1.51176,69.908241
3.6758,-0.050468,-0.003332,0.025993,0.000241,-0.000535,-0.00771,-0.03644,-0.513126,0.027209,-1.524912,-262.654649,1.512177,69.909891
3.6961,-0.05027,-0.003663,0.026009,0.000241,-0.000531,-0.00771,-0.03675,-0.513142,0.026682,-1.524912,-262.654649,1.512177,69.909891
3.7161,-0.049789,-0.002956,0.024089,0.00024,-0.000528,-0.007711,-0.036999,-0.513508,0.025763,-1.524926,-262.652546,1.513184,69.911565
3.7362,-0.049937,-0.003068,0.02474,0.00024,-0.000532,-0.007711,-0.037461,-0.512868,0.02422,-1.524926,-262.652546,1.513184,69.911565
3.7564,-0.050415,-0.003379,0.025722,0.000241,-0.000535,-0.007712,-0.037461,-0.512868,0.02422,-1.524926,-262.652546,1.513184,69.911565
3.7758,-0.049817,-0.003262,0.025841,0.000241,-0.000537,-0.007712,-0.037287,-0.513233,0.0254,-1.524938,-262.650452,1.513376,69.913238
3.7962,-0.049999,-0.003261,0.024102,0.00024,-0.000532,-0.007712,-0.037023,-0.513178,0.025542,-1.524938,-262.650452,1.513376,69.913238
3.816,-0.049388,-0.00281,0.025913,0.00024,-0.000527,-0.007712,-0.0377,-0.51313,0.023854,-1.524961,-262.648348,1.51318,69.914912
3.8362,-0.049638,-0.003201,0.023989,0.00024,-0.000535,-0.007713,-0.036306,-0.512682,0.025722,-1.524961,-262.648348,1.51318,69.914912
3.856,-0.04972,-0.002935,0.024332,0.000241,-0.000541,-0.007713,-0.036306,-0.512682,0.025722,-1.524961,-262.648348,1.51318,69.914912
3.8762,-0.049689,-0.003222,0.025835,0.000241,-0.000547,-0.007714,-0.037302,-0.512805,0.02401,-1.524982,-262.64625,1.513465,69.916589
3.8958,-0.049692,-0.003278,0.022543,0.000241,-0.000546,-0.007713,-0.036977,-0.512909,0.024723,-1.524982,-262.64625,1.513465,69.916589
3.9156,-0.049635,-0.003484,0.023381,0.000241,-0.000545,-0.007713,-0.038188,-0.513166,0.022299,-1.52504,-262.644144,1.513048,69.918258
3.9363,-0.049122,-0.003534,0.024503,0.00024,-0.000533,-0.007713,-0.037751,-0.51333,0.023277,-1.52504,-262.644144,1.513048,69.918258
3.956,-0.049286,-0.003104,0.023622,0.00024,-0.000524,-0.007712,-0.037751,-0.51333,0.023277,-1.52504,-262.644144,1.513048,69.918258
3.9758,-0.04915,-0.003248,0.022676,0.000239,-0.000516,-0.007712,-0.037229,-0.512984,0.0233,-1.525044,-262.642044,1.5131,69.919924
3.996,-0.049015,-0.003332,0.024088,0.000239,-0.000515,-0.007712,-0.037372,-0.51304,0.02301,-1.525044,-262.642044,1.5131,69.919924
4.0161,-0.048839,-0.003232,0.021982,0.000239,-0.000515,-0.007712,-0.036723,-0.5132,0.023841,-1.525039,-262.639948,1.513811,69.921607
4.0359,-0.048835,-0.003326,0.023034,0.000239,-0.000512,-0.007712,-0.03755,-0.513118,0.022133,-1.525039,-262.639948,1.513811,69.921607
4.0559,-0.048906,-0.003433,0.023038,0.000239,-0.00051,-0.007712,-0.03755,-0.513118,0.022133,-1.525039,-262.639948,1.513811,69.921607
4.0761,-0.04877,-0.003481,0.020872,0.000239,-0.000508,-0.007712,-0.037147,-0.513319,0.022715,-1.525033,-262.637859,1.51382,69.923285
4.0963,-0.048411,-0.003452,0.022443,0.000239,-0.0005,-0.007712,-0.03754,-0.513342,0.021935,-1.525033,-262.637859,1.51382,69.923285
4.1163,-0.048468,-0.003773,0.023544,0.000238,-0.000494,-0.007712,-0.036959,-0.51334,0.022197,-1.525036,-262.635762,1.513998,69.924975
4.1363,-0.048242,-0.003423,0.022186,0.000237,-0.00048,-0.007711,-0.036502,-0.513609,0.023423,-1.525036,-262.635762,1.513998,69.924975
4.1562,-0.048251,-0.003469,0.023577,0.000237,-0.000468,-0.007711,-0.036502,-0.513609,0.023423,-1.525036,-262.635762,1.513998,69.924975
4.1758,-0.048299,-0.003522,0.022883,0.000236,-0.000459,-0.007711,-0.036217,-0.513348,0.023255,-1.525056,-262.633686,1.514367,69.926658
4.1959,-0.047821,-0.003533,0.022049,0.000236,-0.000456,-0.007711,-0.036383,-0.513367,0.023067,-1.525056,-262.633686,1.514367,69.926658
4.2163,-0.047724,-0.003142,0.021487,0.000236,-0.000454,-0.007712,-0.036569,-0.513423,0.021804,-1.525157,-262.631614,1.515327,69.928363
4.2361,-0.048223,-0.003035,0.02094,0.000236,-0.00046,-0.007712,-0.036749,-0.513059,0.021502,-1.525157,-262.631614,1.515327,69.928363
4.256,-0.047916,-0.003396,0.021714,0.000236,-0.000465,-0.007713,-0.036749,-0.513059,0.021502,-1.525157,-262.631614,1.515327,69.928363
4.2764,-0.047861,-0.003446,0.020476,0.000236,-0.000469,-0.007713,-0.036833,-0.513295,0.021392,-1.525178,-262.629544,1.515455,69.93007
4.2959,-0.047712,-0.003251,0.021198,0.000236,-0.000466,-0.007713,-0.037074,-0.513315,0.020975,-1.525178,-262.629544,1.515455,69.93007
4.3161,-0.047529,-0.003444,0.020522,0.000236,-0.000464,-0.007713,-0.036893,-0.513151,0.020954,-1.525179,-262.627475,1.515101,69.931765
4.3359,-0.047785,-0.003885,0.020933,0.000236,-0.000461,-0.007713,-0.037048,-0.513321,0.020548,-1.525179,-262.627475,1.515101,69.931765
4.356,-0.047368,-0.003667,0.021225,0.000236,-0.000459,-0.007713,-0.037048,-0.513321,0.020548,-1.525179,-262.627475,1.515101,69.931765
4.376,-0.046817,-0.003513,0.021131,0.000236,-0.000457,-0.007713,-0.036534,-0.513571,0.020902,-1.525183,-262.625398,1.515241,69.93347
4.3959,-0.047399,-0.003463,0.021262,0.000235,-0.000449,-0.007712,-0.036329,-0.513502,0.02096,-1.525183,-262.625398,1.515241,69.93347
4.4156,-0.047174,-0.003638,0.019259,0.000235,-0.000442,-0.007712,-0.036549,-0.513362,0.021016,-1.525165,-262.623329,1.515387,69.935174
4.4361,-0.047301,-0.003599,0.022686,0.000235,-0.000437,-0.007712,-0.037284,-0.513529,0.019396,-1.525165,-262.623329,1.515387,69.935174
4.4557,-0.047136,-0.003329,0.020077,0.000235,-0.000432,-0.007711,-0.037284,-0.513529,0.019396,-1.525165,-262.623329,1.515387,69.935174
4.4759,-0.046895,-0.003194,0.020435,0.000235,-0.000428,-0.007711,-0.036887,-0.513245,0.019755,-1.525222,-262.621268,1.515801,69.936883
4.4959,-0.047251,-0.003552,0.018625,0.000235,-0.000434,-0.007712,-0.036716,-0.513182,0.019998,-1.525222,-262.621268,1.515801,69.936883
4.516,-0.046667,-0.003716,0.019836,0.000236,-0.000438,-0.007712,-0.037745,-0.513477,0.01838,-1.525081,-262.619213,1.515948,69.938596
4.5363,-0.046727,-0.003449,0.018559,0.000235,-0.00043,-0.007712,-0.036657,-0.513604,0.019694,-1.525081,-262.619213,1.515948,69.938596
4.5559,-0.04667,-0.003507,0.019393,0.000235,-0.000423,-0.007711,-0.036657,-0.513604,0.019694,-1.525081,-262.619213,1.515948,69.938596
4.5761,-0.046856,-0.003398,0.019313,0.000234,-0.000417,-0.007711,-0.036771,-0.513429,0.01907,-1.52507,-262.617149,1.515712,69.940309
4.5963,-0.046701,-0.003928,0.019662,0.000235,-0.000419,-0.007711,-0.036867,-0.513379,0.019133,-1.52507,-262.617149,1.515712,69.940309
4.6159,-0.04616,-0.003613,0.01605,0.000235,-0.00042,-0.007711,-0.036666,-0.513842,0.019417,-1.525113,-262.615099,1.516244,69.942026
4.6362,-0.046449,-0.00359,0.019855,0.000237,-0.000415,-0.007702,-0.037855,-0.513575,0.016345,-1.525113,-262.615099,1.516244,69.942026
4.6562,-0.04627,-0.00345,0.017596,0.000238,-0.000412,-0.007696,-0.037855,-0.513575,0.016345,-1.525113,-262.615099,1.516244,69.942026
4.6764,-0.046294,-0.003213,0.01778,0.000239,-0.000409,-0.00769,-0.037286,-0.513388,0.017274,-1.525004,-262.613041,1.516063,69.943748
4.6959,-0.045932,-0.003718,0.017513,0.00024,-0.000413,-0.007692,-0.03726,-0.513285,0.017445,-1.525004,-262.613041,1.516063,69.943748
4.7159,-0.045857,-0.00378,0.018831,0.00024,-0.000417,-0.007693,-0.036993,-0.513653,0.017268,-1.523925,-262.610997,1.515001,69.945465
4.7361,-0.045936,-0.003696,0.018792,0.000239,-0.000408,-0.007696,-0.036317,-0.513687,0.018684,-1.523925,-262.610997,1.515001,69.945465
4.7561,-0.045712,-0.003251,0.019202,0.000238,-0.000401,-0.007698,-0.036317,-0.513687,0.018684,-1.523925,-262.610997,1.515001,69.945465
4.7765,-0.046052,-0.003723,0.017276,0.000237,-0.000395,-0.0077,-0.035909,-0.513175,0.018878,-1.523823,-262.608952,1.514688,69.947178
4.7963,-0.0456,-0.003548,0.017709,0.000237,-0.000398,-0.007701,-0.036439,-0.513365,0.018204,-1.523823,-262.608952,1.514688,69.947178
4.8165,-0.045497,-0.003919,0.018024,0.000237,-0.000401,-0.007702,-0.036561,-0.513481,0.017464,-1.524299,-262.606908,1.515792,69.948906
4.8362,-0.045448,-0.003437,0.018204,0.000237,-0.000391,-0.007702,-0.036329,-0.513804,0.017958,-1.524299,-262.606908,1.515792,69.948906
4.8562,-0.045209,-0.003599,0.018258,0.000236,-0.000382,-0.007701,-0.036329,-0.513804,0.017958,-1.524299,-262.606908,1.515792,69.948906
4.8762,-0.045274,-0.003967,0.017552,0.000236,-0.000375,-0.007701,-0.035888,-0.51353,0.017936,-1.524322,-262.604864,1.515683,69.95063
4.8964,-0.045347,-0.003506,0.018557,0.000236,-0.000372,-0.007701,-0.036065,-0.513679,0.017742,-1.524322,-262.604864,1.515683,69.95063
4.9161,-0.044782,-0.003939,0.017322,0.000236,-0.000369,-0.007701,-0.035876,-0.51343,0.018312,-1.524402,-262.602829,1.516374,69.952365
4.9361,-0.045368,-0.00361,0.015471,0.000236,-0.000361,-0.007699,-0.035942,-0.513826,0.017394,-1.524402,-262.602829,1.516374,69.952365
4.9562,-0.045044,-0.00349,0.016965,0.000235,-0.000355,-0.007698,-0.035942,-0.513826,0.017394,-1.524402,-262.602829,1.516374,69.952365
4.976,-0.04481,-0.003622,0.018972,0.000235,-0.00035,-0.007698,-0.036383,-0.513432,0.016643,-1.524362,-262.600802,1.51648,69.954098
4.9965,-0.045221,-0.003378,0.015525,0.000236,-0.000355,-0.007698,-0.035879,-0.513473,0.017545,-1.524362,-262.600802,1.51648,69.954098
5.0165,-0.044685,-0.003661,0.015345,0.000236,-0.00036,-0.007698,-0.037296,-0.513328,0.015279,-1.524257,-262.59878,1.516779,69.955841
5.0362,-0.044923,-0.003681,0.014132,0.000239,-0.000363,-0.00768,-0.036899,-0.513576,0.015326,-1.524257,-262.59878,1.516779,69.955841
5.0557,-0.044781,-0.003571,0.015467,0.00024,-0.000365,-0.007666,-0.036899,-0.513576,0.015326,-1.524257,-262.59878,1.516779,69.955841
5.0761,-0.044629,-0.003629,0.014427,0.000242,-0.000368,-0.007655,-0.036883,-0.513525,0.015145,-1.52419,-262.596753,1.516478,69.95758
5.0964,-0.044495,-0.003532,0.015034,0.000244,-0.000371,-0.007636,-0.03704,-0.513547,0.014816,-1.52419,-262.596753,1.516478,69.95758
5.1158,-0.044517,-0.003681,0.016181,0.000246,-0.000374,-0.007621,-0.03682,-0.513486,0.01479,-1.522836,-262.59473,1.514666,69.959308
5.1362,-0.044223,-0.003722,0.014261,0.000245,-0.000373,-0.007628,-0.036313,-0.513604,0.016046,-1.522836,-262.59473,1.514666,69.959308
5.1561,-0.044327,-0.003682,0.013654,0.000245,-0.000371,-0.007634,-0.036313,-0.513604,0.016046,-1.522836,-262.59473,1.514666,69.959308
5.1766,-0.04403,-0.003468,0.014964,0.000244,-0.00037,-0.007639,-0.037353,-0.51365,0.013336,-1.521909,-262.592716,1.513374,69.961024
5.196,-0.043882,-0.003563,0.015673,0.000248,-0.000375,-0.0076,-0.03696,-0.513554,0.013967,-1.521909,-262.592716,1.513374,69.961024
5.2159,-0.044152,-0.003644,0.012672,0.00025,-0.000378,-0.007569,-0.035881,-0.513512,0.01543,-1.522306,-262.5907,1.513968,69.962744
5.236,-0.043872,-0.003315,0.015899,0.000255,-0.000383,-0.007498,-0.037534,-0.513596,0.012896,-1.522306,-262.5907,1.513968,69.962744
5.2563,-0.044054,-0.003771,0.013583,0.000259,-0.000388,-0.007442,-0.037534,-0.513596,0.012896,-1.522306,-262.5907,1.513968,69.962744
5.2759,-0.043726,-0.003715,0.01471,0.000262,-0.000392,-0.007399,-0.037116,-0.513739,0.013267,-1.520756,-262.588696,1.511853,69.964446
5.2959,-0.043595,-0.004063,0.013882,0.000261,-0.000388,-0.007405,-0.036745,-0.513708,0.013828,-1.520756,-262.588696,1.511853,69.964446
5.3159,-0.04366,-0.004032,0.01338,0.000261,-0.000386,-0.007409,-0.036507,-0.514026,0.013647,-1.517538,-262.586731,1.507455,69.966098
5.3362,-0.043234,-0.003976,0.012855,0.000261,-0.000377,-0.007396,-0.036807,-0.51399,0.013391,-1.517538,-262.586731,1.507455,69.966098
5.3563,-0.043122,-0.003672,0.011971,0.000261,-0.00037,-0.007385,-0.036807,-0.51399,0.013391,-1.517538,-262.586731,1.507455,69.966098
5.3761,-0.042798,-0.003987,0.013655,0.000261,-0.000364,-0.007377,-0.037005,-0.513652,0.011661,-1.517678,-262.584765,1.5078,69.967756
5.396,-0.043355,-0.003659,0.013666,0.000264,-0.000365,-0.007322,-0.036525,-0.513772,0.012442,-1.517678,-262.584765,1.5078,69.967756
5.4156,-0.04273,-0.003598,0.013596,0.000266,-0.000366,-0.007279,-0.036378,-0.513623,0.013431,-1.517208,-262.582813,1.507813,69.969417
5.4363,-0.043171,-0.00354,0.013069,0.000265,-0.000369,-0.0073,-0.035845,-0.513558,0.013571,-1.517208,-262.582813,1.507813,69.969417
5.4561,-0.043361,-0.003616,0.012327,0.000264,-0.000372,-0.007317,-0.035845,-0.513558,0.013571,-1.517208,-262.582813,1.507813,69.969417
5.476,-0.042751,-0.004006,0.012519,0.000264,-0.000375,-0.00733,-0.037063,-0.513593,0.012023,-1.515618,-262.580887,1.505741,69.971051
5.4959,-0.042637,-0.003939,0.011442,0.000266,-0.000376,-0.007269,-0.036775,-0.513748,0.012192,-1.515618,-262.580887,1.505741,69.971051
5.5156,-0.042719,-0.003893,0.011855,0.000268,-0.000377,-0.007221,-0.036793,-0.513917,0.01121,-1.516511,-262.578935,1.506625,69.972703
5.5361,-0.042388,-0.003917,0.011081,0.00027,-0.000376,-0.007156,-0.036682,-0.513862,0.011797,-1.516511,-262.578935,1.506625,69.972703
5.5561,-0.042923,-0.00346,0.01125,0.000272,-0.000375,-0.007105,-0.036682,-0.513862,0.011797,-1.516511,-262.578935,1.506625,69.972703
5.576,-0.04263,-0.003983,0.011992,0.000273,-0.000374,-0.007066,-0.037174,-0.513444,0.01095,-1.514821,-262.577026,1.50438,69.974312
5.5958,-0.042094,-0.003983,0.012041,0.000275,-0.000381,-0.007001,-0.036903,-0.513651,0.011341,-1.514821,-262.577026,1.50438,69.974312
5.6157,-0.042199,-0.004049,0.011196,0.000277,-0.000386,-0.006951,-0.035945,-0.513958,0.011816,-1.51264,-262.57514,1.501644,69.975899
5.6363,-0.042088,-0.00407,0.012329,0.000277,-0.000381,-0.006903,-0.036447,-0.514013,0.011234,-1.51264,-262.57514,1.501644,69.975899
5.6559,-0.042285,-0.003904,0.010646,0.000277,-0.000376,-0.006866,-0.036447,-0.514013,0.011234,-1.51264,-262.57514,1.501644,69.975899
5.6762,-0.041774,-0.00389,0.011206,0.000277,-0.000372,-0.006837,-0.036844,-0.513891,0.010358,-1.511133,-262.573293,1.499225,69.977438
5.6963,-0.042047,-0.003734,0.008636,0.000278,-0.000375,-0.006765,-0.036523,-0.51388,0.010669,-1.511133,-262.573293,1.499225,69.977438
5.7162,-0.041923,-0.003692,0.009979,0.000279,-0.000378,-0.00671,-0.037634,-0.513727,0.008418,-1.50986,-262.571468,1.497972,69.978966
5.7361,-0.041824,-0.003836,0.009116,0.00028,-0.00039,-0.006578,-0.036902,-0.513672,0.009835,-1.50986,-262.571468,1.497972,69.978966
5.7559,-0.041935,-0.003914,0.00968,0.00028,-0.000401,-0.006479,-0.036902,-0.513672,0.009835,-1.50986,-262.571468,1.497972,69.978966
5.7757,-0.041417,-0.003638,0.008471,0.00028,-0.00041,-0.006405,-0.036986,-0.513906,0.0094,-1.508512,-262.569674,1.495905,69.980459
5.7957,-0.041315,-0.004066,0.011741,0.000277,-0.000419,-0.006231,-0.037031,-0.513789,0.008983,-1.508512,-262.569674,1.495905,69.980459
5.8161,-0.041541,-0.003831,0.010799,0.000275,-0.000427,-0.006103,-0.035318,-0.514044,0.011537,-1.506077,-262.567942,1.49097,69.981863
5.8359,-0.041777,-0.003985,0.009938,0.000275,-0.000422,-0.006214,-0.035972,-0.513822,0.010852,-1.506077,-262.567942,1.49097,69.981863
5.8559,-0.041388,-0.004014,0.010258,0.000275,-0.000417,-0.006301,-0.035972,-0.513822,0.010852,-1.506077,-262.567942,1.49097,69.981863
5.8757,-0.041181,-0.003665,0.008192,0.000275,-0.000414,-0.006368,-0.036145,-0.514005,0.010003,-1.504743,-262.56628,1.487728,69.983185
5.8959,-0.041055,-0.004001,0.010704,0.000273,-0.000419,-0.006243,-0.03649,-0.513863,0.009242,-1.504743,-262.56628,1.487728,69.983185
5.9159,-0.041216,-0.003823,0.008655,0.000272,-0.000423,-0.006149,-0.035587,-0.513985,0.010501,-1.50707,-262.56453,1.491947,69.9846
5.936,-0.041325,-0.003782,0.008128,0.000269,-0.000431,-0.006004,-0.036739,-0.513813,0.008745,-1.50707,-262.56453,1.491947,69.9846
5.9559,-0.041414,-0.003818,0.007593,0.000267,-0.000438,-0.005897,-0.036739,-0.513813,0.008745,-1.50707,-262.56453,1.491947,69.9846
5.976,-0.041345,-0.004124,0.008865,0.000265,-0.000444,-0.005817,-0.037531,-0.513821,0.007341,-1.505834,-262.562878,1.489405,69.985919
5.9961,-0.041382,-0.004014,0.009608,0.000258,-0.000451,-0.005619,-0.03724,-0.513939,0.007936,-1.505834,-262.562878,1.489405,69.985919
6.016,-0.041043,-0.004085,0.008751,0.000252,-0.000458,-0.005474,-0.036473,-0.514004,0.009423,-1.50461,-262.561272,1.485775,69.98717
6.0359,-0.040789,-0.003876,0.008519,0.000253,-0.000455,-0.00551,-0.036571,-0.514061,0.008796,-1.50461,-262.561272,1.485775,69.98717
6.0561,-0.040866,-0.00355,0.009387,0.000253,-0.000453,-0.005537,-0.036571,-0.514061,0.008796,-1.50461,-262.561272,1.485775,69.98717
6.0758,-0.040558,-0.00421,0.008604,0.000253,-0.000452,-0.005558,-0.036068,-0.513546,0.009159,-1.504524,-262.559754,1.483593,69.988324
6.0962,-0.040744,-0.004195,0.008674,0.000254,-0.000455,-0.005588,-0.036108,-0.513812,0.008906,-1.504524,-262.559754,1.483593,69.988324
6.1157,-0.04061,-0.004218,0.007344,0.000255,-0.000458,-0.005611,-0.036312,-0.51419,0.008497,-1.505103,-262.558189,1.485027,69.989524
6.1358,-0.040487,-0.003879,0.006833,0.000244,-0.000458,-0.005362,-0.036832,-0.514204,0.007404,-1.505103,-262.558189,1.485027,69.989524
6.1561,-0.04038,-0.004197,0.005775,0.000236,-0.000458,-0.005182,-0.036832,-0.514204,0.007404,-1.505103,-262.558189,1.485027,69.989524
6.1759,-0.040379,-0.004061,0.006932,0.00023,-0.00046,-0.005052,-0.037424,-0.514207,0.005544,-1.505372,-262.556632,1.485256,69.990715
6.1959,-0.04048,-0.004265,0.007895,0.000211,-0.000463,-0.004659,-0.037165,-0.514139,0.006134,-1.505372,-262.556632,1.485256,69.990715
6.2163,-0.040466,-0.004213,0.00751,0.000197,-0.000468,-0.00438,-0.036447,-0.514263,0.007738,-1.506024,-262.555231,1.483437,69.991755
6.236,-0.040051,-0.004087,0.005112,0.000202,-0.00047,-0.004489,-0.03662,-0.514205,0.007522,-1.506024,-262.555231,1.483437,69.991755
6.2559,-0.040469,-0.004182,0.008508,0.000205,-0.000471,-0.004572,-0.03662,-0.514205,0.007522,-1.506024,-262.555231,1.483437,69.991755
6.2761,-0.040105,-0.004025,0.008628,0.000207,-0.000473,-0.004633,-0.036121,-0.514183,0.008324,-1.508208,-262.553973,1.481756,69.99264
6.2964,-0.039828,-0.004367,0.006993,0.000214,-0.00047,-0.004824,-0.035953,-0.514114,0.008425,-1.508208,-262.553973,1.481756,69.99264
6.3161,-0.039777,-0.004198,0.006994,0.00022,-0.000467,-0.004968,-0.036254,-0.514369,0.006845,-1.508082,-262.552649,1.483039,69.993586
6.3363,-0.04017,-0.004134,0.007251,0.000213,-0.000468,-0.004808,-0.036214,-0.514204,0.006971,-1.508082,-262.552649,1.483039,69.993586
6.3567,-0.039781,-0.004025,0.006075,0.000208,-0.00047,-0.004691,-0.036214,-0.514204,0.006971,-1.508082,-262.552649,1.483039,69.993586
6.3762,-0.039962,-0.004288,0.00624,0.000204,-0.000472,-0.004606,-0.036673,-0.514035,0.005867,-1.508095,-262.551246,1.485365,69.994617
6.3959,-0.039647,-0.004053,0.008185,0.00019,-0.000476,-0.004309,-0.036715,-0.514136,0.005994,-1.508095,-262.551246,1.485365,69.994617
6.4161,-0.039802,-0.004277,0.006981,0.00018,-0.000482,-0.004098,-0.035466,-0.51405,0.008039,-1.508737,-262.549929,1.483824,69.995557
6.4359,-0.039503,-0.004098,0.005569,0.000185,-0.000483,-0.004193,-0.036171,-0.514246,0.007069,-1.508737,-262.549929,1.483824,69.995557
6.4562,-0.039534,-0.004203,0.006554,0.000188,-0.000483,-0.004263,-0.036171,-0.514246,0.007069,-1.508737,-262.549929,1.483824,69.995557
6.4762,-0.039731,-0.003873,0.007396,0.00019,-0.000484,-0.004315,-0.036184,-0.514213,0.006383,-1.510474,-262.548732,1.481825,69.996369
6.4959,-0.039465,-0.004308,0.006557,0.00019,-0.000489,-0.004291,-0.03609,-0.514069,0.00678,-1.510474,-262.548732,1.481825,69.996369
6.5162,-0.039512,-0.004181,0.007306,0.00019,-0.000494,-0.004274,-0.036115,-0.514312,0.00642,-1.50985,-262.54748,1.482563,69.997234
6.5359,-0.039381,-0.004318,0.004616,0.000193,-0.000493,-0.004351,-0.035813,-0.51418,0.007225,-1.50985,-262.54748,1.482563,69.997234
6.5561,-0.039282,-0.004294,0.005317,0.000196,-0.000492,-0.004407,-0.035813,-0.51418,0.007225,-1.50985,-262.54748,1.482563,69.997234
6.576,-0.039508,-0.00399,0.006556,0.000198,-0.000491,-0.004448,-0.036563,-0.514308,0.005138,-1.509787,-262.546237,1.481419,69.998083
6.5962,-0.039566,-0.004339,0.006432,0.000182,-0.000492,-0.004117,-0.036399,-0.514176,0.005697,-1.509787,-262.546237,1.481419,69.998083
6.6161,-0.039417,-0.004296,0.004999,0.000171,-0.000494,-0.003881,-0.03628,-0.514344,0.00629,-1.509206,-262.544951,1.482127,69.998977
6.6361,-0.03932,-0.004142,0.00488,0.000154,-0.000493,-0.003545,-0.036818,-0.514295,0.005101,-1.509206,-262.544951,1.482127,69.998977
6.6564,-0.039025,-0.004272,0.005933,0.000141,-0.000495,-0.003311,-0.036818,-0.514295,0.005101,-1.509206,-262.544951,1.482127,69.998977
6.6761,-0.038896,-0.004325,0.005946,0.000133,-0.000498,-0.003148,-0.035991,-0.514284,0.005771,-1.511325,-262.543801,1.480135,69.999732
6.6964,-0.039247,-0.004385,0.004782,0.000136,-0.0005,-0.003229,-0.035937,-0.514299,0.005825,-1.511325,-262.543801,1.480135,69.999732
6.7158,-0.039329,-0.004282,0.004905,0.000139,-0.000503,-0.003288,-0.036804,-0.514395,0.004682,-1.516021,-262.542836,1.477905,70.000302
6.7359,-0.038843,-0.004724,0.006621,0.000128,-0.000505,-0.003071,-0.036825,-0.514288,0.00488,-1.516021,-262.542836,1.477905,70.000302
6.7558,-0.039275,-0.004199,0.007493,0.00012,-0.000509,-0.00292,-0.036825,-0.514288,0.00488,-1.516021,-262.542836,1.477905,70.000302
6.7757,-0.03925,-0.004449,0.0045,0.000115,-0.000513,-0.002815,-0.035447,-0.514206,0.007355,-1.515588,-262.54183,1.478892,70.000907
6.7957,-0.039218,-0.004517,0.005194,0.000127,-0.000516,-0.003074,-0.036063,-0.514306,0.006174,-1.515588,-262.54183,1.478892,70.000907
6.8159,-0.039091,-0.004317,0.003009,0.000136,-0.000517,-0.003263,-0.036565,-0.514526,0.005105,-1.519378,-262.540936,1.475833,70.001391
6.8362,-0.038776,-0.004408,0.005289,0.000104,-0.000499,-0.002464,-0.037467,-0.514335,0.003192,-1.519378,-262.540936,1.475833,70.001391
6.8561,-0.038724,-0.004368,0.004606,8.1e-05,-0.000492,-0.001917,-0.037467,-0.514335,0.003192,-1.519378,-262.540936,1.475833,70.001391
6.8758,-0.038687,-0.004266,0.004343,6.4e-05,-0.000493,-0.001543,-0.036369,-0.514384,0.004469,-1.516529,-262.539931,1.478656,70.001984
6.8959,-0.038797,-0.00456,0.005126,7e-05,-0.000504,-0.001701,-0.03641,-0.514337,0.004403,-1.516529,-262.539931,1.478656,70.001984
6.9159,-0.0388,-0.004453,0.00436,7.4e-05,-0.000513,-0.001817,-0.036181,-0.514569,0.005079,-1.526347,-262.539379,1.429423,70.002158
6.9362,-0.038685,-0.004443,0.005034,7.7e-05,-0.000518,-0.001907,-0.036541,-0.51446,0.004423,-1.526347,-262.539379,1.429423,70.002158
6.9564,-0.038963,-0.004785,0.003888,7.9e-05,-0.000521,-0.001971,-0.036541,-0.51446,0.004423,-1.526347,-262.539379,1.429423,70.002158
6.9757,-0.038554,-0.004629,0.004261,8e-05,-0.000524,-0.002018,-0.036977,-0.514802,0.003812,-1.525369,-262.538733,1.44777,70.002397
6.9958,-0.038535,-0.004368,0.004891,7.3e-05,-0.000518,-0.001911,-0.036738,-0.514733,0.003983,-1.525369,-262.538733,1.44777,70.002397
7.0161,-0.038496,-0.004617,0.005653,6.8e-05,-0.000514,-0.001836,-0.036038,-0.514378,0.004826,-1.525454,-262.53803,1.45868,70.002681
7.0366,-0.038734,-0.003955,0.006305,8.5e-05,-0.000513,-0.002228,-0.035653,-0.514588,0.005571,-1.525454,-262.53803,1.45868,70.002681
7.056,-0.038667,-0.004418,0.005046,9.9e-05,-0.000512,-0.002512,-0.035653,-0.514588,0.005571,-1.525454,-262.53803,1.45868,70.002681
7.0758,-0.038316,-0.004543,0.005156,0.000109,-0.00051,-0.002716,-0.03609,-0.514433,0.004969,-1.529524,-262.537376,1.460026,70.002926
7.0962,-0.038878,-0.004358,0.00482,0.00011,-0.000512,-0.002721,-0.035925,-0.514477,0.005037,-1.529524,-262.537376,1.460026,70.002926
7.116,-0.038501,-0.004598,0.006615,0.00011,-0.000513,-0.002722,-0.036417,-0.514368,0.004734,-1.520767,-262.536512,1.476522,70.003385
7.1361,-0.038566,-0.004377,0.005927,0.000126,-0.000507,-0.003048,-0.035258,-0.514565,0.006419,-1.520767,-262.536512,1.476522,70.003385
7.1562,-0.038498,-0.004361,0.005252,0.000138,-0.000502,-0.003285,-0.035258,-0.514565,0.006419,-1.520767,-262.536512,1.476522,70.003385
7.1759,-0.038434,-0.004684,0.005559,0.000146,-0.000496,-0.003456,-0.035815,-0.514375,0.005138,-1.520082,-262.535631,1.475048,70.003852
7.1961,-0.038318,-0.004773,0.003412,0.00014,-0.000494,-0.003308,-0.03572,-0.514509,0.005308,-1.520082,-262.535631,1.475048,70.003852
7.2161,-0.038279,-0.004731,0.005485,0.000136,-0.000493,-0.0032,-0.036573,-0.514786,0.003303,-1.514703,-262.534599,1.480371,70.004492
7.236,-0.038231,-0.004211,0.004814,0.000132,-0.000486,-0.003114,-0.03558,-0.51473,0.005282,-1.514703,-262.534599,1.480371,70.004492
7.2562,-0.038051,-0.004652,0.002179,0.000128,-0.00048,-0.003052,-0.03558,-0.51473,0.005282,-1.514703,-262.534599,1.480371,70.004492
7.2763,-0.038303,-0.004825,0.005551,0.000126,-0.000475,-0.003007,-0.036934,-0.514671,0.002045,-1.515354,-262.533619,1.478134,70.005079
7.2958,-0.038222,-0.004615,0.002812,9.9e-05,-0.000459,-0.002381,-0.036343,-0.514732,0.003444,-1.515354,-262.533619,1.478134,70.005079
7.3161,-0.03819,-0.004678,0.002904,7.9e-05,-0.000451,-0.00195,-0.036784,-0.514629,0.002716,-1.516222,-262.532693,1.478316,70.005626
7.3362,-0.037896,-0.004684,0.0052,5.8e-05,-0.000443,-0.001436,-0.036716,-0.514672,0.002882,-1.516222,-262.532693,1.478316,70.005626
7.3561,-0.038032,-0.004496,0.003809,4.2e-05,-0.000443,-0.001084,-0.036716,-0.514672,0.002882,-1.516222,-262.532693,1.478316,70.005626
7.3758,-0.038022,-0.004825,0.002901,3.1e-05,-0.000446,-0.000846,-0.036086,-0.514511,0.003728,-1.522747,-262.532038,1.464434,70.005923
7.3959,-0.038418,-0.00484,0.003965,3e-05,-0.000456,-0.000873,-0.03627,-0.514639,0.003384,-1.522747,-262.532038,1.464434,70.005923
7.4165,-0.038148,-0.0047,0.003836,2.9e-05,-0.000465,-0.000895,-0.036396,-0.514839,0.003959,-1.538644,-262.531954,1.389434,70.005929
7.4366,-0.038147,-0.004896,0.003946,3.6e-05,-0.000473,-0.001071,-0.03621,-0.514709,0.003847,-1.538644,-262.531954,1.389434,70.005929
7.456,-0.037937,-0.00455,0.003444,4.1e-05,-0.000479,-0.001197,-0.03621,-0.514709,0.003847,-1.538644,-262.531954,1.389434,70.005929
7.476,-0.037958,-0.00459,0.003355,4.4e-05,-0.000484,-0.001286,-0.03618,-0.514559,0.003419,-1.541913,-262.531688,1.314438,70.005952
7.4957,-0.038059,-0.004666,0.002961,3.9e-05,-0.000489,-0.001193,-0.036207,-0.514572,0.00339,-1.541913,-262.531688,1.314438,70.005952
7.516,-0.038013,-0.004722,0.003834,3.5e-05,-0.000494,-0.001128,-0.036547,-0.514677,0.002927,-1.536182,-262.531272,1.38944,70.006052
7.536,-0.038053,-0.004729,0.003922,3.8e-05,-0.000497,-0.001209,-0.036101,-0.514715,0.003752,-1.536182,-262.531272,1.38944,70.006052
7.5561,-0.037809,-0.00454,0.004066,4e-05,-0.000498,-0.001266,-0.036101,-0.514715,0.003752,-1.536182,-262.531272,1.38944,70.006052
7.5761,-0.038229,-0.004697,0.002996,4.2e-05,-0.0005,-0.001305,-0.035734,-0.514556,0.004019,-1.541042,-262.530799,1.392286,70.006131
7.5959,-0.037928,-0.004667,0.002995,4e-05,-0.000503,-0.001282,-0.036125,-0.514615,0.0036,-1.541042,-262.530799,1.392286,70.006131
7.6161,-0.038357,-0.004434,0.001119,3.9e-05,-0.000506,-0.001265,-0.036399,-0.51468,0.002954,-1.538638,-262.530292,1.431368,70.006249
7.636,-0.037901,-0.004514,0.004283,1e-05,-0.000475,-0.000261,-0.037664,-0.514457,0.001279,-1.538638,-262.530292,1.431368,70.006249
7.6563,-0.03806,-0.004668,0.00246,-1e-05,-0.000463,0.000428,-0.037664,-0.514457,0.001279,-1.538638,-262.530292,1.431368,70.006249
7.6763,-0.037852,-0.004894,0.002954,-2.4e-05,-0.000461,0.000899,-0.036804,-0.514687,0.002407,-1.540026,-262.529781,1.424231,70.006356
7.6965,-0.038207,-0.004672,0.00338,-1.5e-05,-0.000473,0.000624,-0.036619,-0.514772,0.002621,-1.540026,-262.529781,1.424231,70.006356
7.7159,-0.038118,-0.005116,0.001992,-9e-06,-0.000483,0.000427,-0.036483,-0.514673,0.003389,-1.465097,-262.529793,1.49916,70.006226
7.7361,-0.037933,-0.004619,0.004688,-1.3e-05,-0.000478,0.000489,-0.037047,-0.515076,0.002118,-1.465097,-262.529793,1.49916,70.006226
7.7562,-0.038171,-0.004563,0.002152,-1.5e-05,-0.000475,0.00053,-0.037047,-0.515076,0.002118,-1.465097,-262.529793,1.49916,70.006226
7.7764,-0.038024,-0.00477,0.003338,-1.8e-05,-0.000473,0.000557,-0.037074,-0.514575,0.002164,-1.540105,-262.529732,1.55918,70.006023
7.7961,-0.037864,-0.005078,0.003435,-9e-06,-0.000489,0.000344,-0.03675,-0.514659,0.00267,-1.540105,-262.529732,1.55918,70.006023
7.8161,-0.037855,-0.004791,0.002188,-2e-06,-0.000501,0.000197,-0.036112,-0.515085,0.003447,-1.615812,-262.529697,1.549251,70.005811
7.836,-0.038065,-0.004523,0.002521,-4e-06,-0.000502,0.000246,-0.03669,-0.514813,0.002288,-1.615812,-262.529697,1.549251,70.005811
7.8559,-0.037759,-0.00517,0.002764,-6e-06,-0.000503,0.000281,-0.03669,-0.514813,0.002288,-1.615812,-262.529697,1.549251,70.005811
7.8759,-0.037878,-0.00452,0.003532,-6e-06,-0.000504,0.000306,-0.036349,-0.515188,0.002772,-1.577166,-262.52955,1.56689,70.005571
7.8961,-0.038281,-0.004821,0.00351,5e-06,-0.000508,2.3e-05,-0.036238,-0.514917,0.003083,-1.577166,-262.52955,1.56689,70.005571
7.9163,-0.037963,-0.004752,0.004423,1.2e-05,-0.000509,-0.000175,-0.036491,-0.514834,0.003519,-1.591176,-262.529424,1.561428,70.005295
7.936,-0.038102,-0.004744,0.003888,3.6e-05,-0.000515,-0.000703,-0.035778,-0.514756,0.004342,-1.591176,-262.529424,1.561428,70.005295
7.9564,-0.03824,-0.004957,0.004023,5.2e-05,-0.000518,-0.00108,-0.035778,-0.514756,0.004342,-1.591176,-262.529424,1.561428,70.005295
7.976,-0.037875,-0.005287,0.002738,6.4e-05,-0.000519,-0.001346,-0.036188,-0.514973,0.004016,-1.55062,-262.52919,1.601688,70.005142
7.996,-0.037994,-0.005065,0.003618,5.8e-05,-0.000509,-0.001268,-0.036306,-0.515102,0.003497,-1.55062,-262.52919,1.601688,70.005142
8.0163,-0.038146,-0.004897,0.002763,5.3e-05,-0.0005,-0.001211,-0.036148,-0.515068,0.003601,-1.523176,-262.528978,1.526691,70.005191
8.0362,-0.037959,-0.004749,0.003645,4.1e-05,-0.000492,-0.000929,-0.036684,-0.514911,0.002838,-1.523176,-262.528978,1.526691,70.005191
8.0564,-0.038018,-0.004889,0.00173,3.2e-05,-0.000488,-0.000733,-0.036684,-0.514911,0.002838,-1.523176,-262.528978,1.526691,70.005191
8.076,-0.037926,-0.00471,0.003128,2.5e-05,-0.000486,-0.000596,-0.037134,-0.514902,0.001698,-1.527992,-262.528674,1.451688,70.005251
8.0962,-0.038098,-0.004435,0.004528,1.3e-05,-0.00048,-0.000272,-0.036814,-0.514826,0.002265,-1.527992,-262.528674,1.451688,70.005251
8.116,-0.037625,-0.004766,0.002849,4e-06,-0.000478,-5e-05,-0.035789,-0.514429,0.004528,-1.541207,-262.528673,1.376689,70.005251
8.1359,-0.038201,-0.004839,0.000701,1e-05,-0.000486,-0.000183,-0.036138,-0.514733,0.003001,-1.541207,-262.528673,1.376689,70.005251
8.1559,-0.038141,-0.004893,0.002303,1.3e-05,-0.000493,-0.000277,-0.036138,-0.514733,0.003001,-1.541207,-262.528673,1.376689,70.005251
8.1761,-0.037908,-0.004746,0.003335,1.5e-05,-0.000498,-0.000343,-0.036967,-0.514902,0.002301,-1.56233,-262.52857,1.451693,70.00516
8.1958,-0.037681,-0.004878,0.002743,1.2e-05,-0.000498,-0.000286,-0.036657,-0.514838,0.002723,-1.56233,-262.52857,1.451693,70.00516
8.2157,-0.037457,-0.005097,0.003324,1e-05,-0.0005,-0.000247,-0.036282,-0.514886,0.002736,-1.549203,-262.528395,1.526696,70.005089
8.2357,-0.037926,-0.005232,0.003638,1.7e-05,-0.000495,-0.000419,-0.035808,-0.515076,0.003271,-1.549203,-262.528395,1.526696,70.005089
8.256,-0.037844,-0.005179,0.003172,2e-05,-0.00049,-0.000541,-0.035808,-0.515076,0.003271,-1.549203,-262.528395,1.526696,70.005089
8.2764,-0.037943,-0.005029,0.004481,2.3e-05,-0.000486,-0.000625,-0.036226,-0.515195,0.003162,-1.554876,-262.528156,1.600494,70.004961
8.2965,-0.037688,-0.005148,0.003513,3.1e-05,-0.000483,-0.000828,-0.035992,-0.515127,0.003703,-1.554876,-262.528156,1.600494,70.004961
8.3158,-0.037537,-0.005328,0.00366,3.7e-05,-0.000479,-0.000971,-0.035896,-0.515145,0.003513,-1.544594,-262.528156,1.525252,70.004961
8.3359,-0.038058,-0.00466,0.003164,3.9e-05,-0.000469,-0.001053,-0.035688,-0.51531,0.003648,-1.544594,-262.528156,1.525252,70.004961
8.356,-0.03799,-0.004733,0.004068,4e-05,-0.00046,-0.001109,-0.035688,-0.51531,0.003648,-1.544594,-262.528156,1.525252,70.004961
8.3759,-0.038035,-0.005167,0.002947,4e-05,-0.000452,-0.001148,-0.035915,-0.514735,0.004055,-1.53629,-262.528022,1.450223,70.004976
8.3958,-0.038222,-0.004908,0.004406,4.1e-05,-0.000457,-0.001159,-0.036168,-0.514912,0.003599,-1.53629,-262.528022,1.450223,70.004976
8.4159,-0.03787,-0.004755,0.001813,4.2e-05,-0.000461,-0.001165,-0.035974,-0.514917,0.004371,-1.535819,-262.527573,1.410328,70.005074
8.4358,-0.038016,-0.004794,0.002633,2e-05,-0.00045,-0.00056,-0.03686,-0.51477,0.002037,-1.535819,-262.527573,1.410328,70.005074
8.4561,-0.037885,-0.005143,0.002668,5e-06,-0.000447,-0.000144,-0.03686,-0.51477,0.002037,-1.535819,-262.527573,1.410328,70.005074
8.4757,-0.037947,-0.004965,0.003231,-5e-06,-0.000449,0.000141,-0.036522,-0.51516,0.00262,-1.535377,-262.527103,1.406327,70.005176
8.4957,-0.037918,-0.005078,0.002069,-0.0,-0.000453,3e-06,-0.03643,-0.515081,0.002867,-1.535377,-262.527103,1.406327,70.005176
8.5159,-0.038312,-0.00494,0.003237,3e-06,-0.000457,-9.6e-05,-0.036863,-0.515086,0.002072,-1.58482,-262.527008,1.481425,70.005036
8.536,-0.037877,-0.004931,0.005802,1e-05,-0.000465,-0.000263,-0.036679,-0.514951,0.003134,-1.58482,-262.527008,1.481425,70.005036
8.5562,-0.03771,-0.005193,0.003254,1.5e-05,-0.000471,-0.000382,-0.036679,-0.514951,0.003134,-1.58482,-262.527008,1.481425,70.005036
8.576,-0.037865,-0.004857,0.004679,1.7e-05,-0.000476,-0.000465,-0.036051,-0.515207,0.00325,-1.56494,-262.526832,1.556308,70.0049
8.5966,-0.037671,-0.005325,0.003791,3e-05,-0.000477,-0.000754,-0.035817,-0.515063,0.003833,-1.56494,-262.526832,1.556308,70.0049
8.6161,-0.03805,-0.005258,0.002434,3.9e-05,-0.000476,-0.000959,-0.035737,-0.515334,0.003778,-1.547889,-262.526579,1.631273,70.004835
8.6364,-0.037828,-0.005022,0.004368,2.4e-05,-0.000461,-0.000643,-0.036713,-0.515264,0.002553,-1.547889,-262.526579,1.631273,70.004835
8.6562,-0.037995,-0.005146,0.002912,1.5e-05,-0.000451,-0.000425,-0.036713,-0.515264,0.002553,-1.547889,-262.526579,1.631273,70.004835
8.6761,-0.037633,-0.004992,0.002035,8e-06,-0.000445,-0.000274,-0.036509,-0.515146,0.002909,-1.534434,-262.526547,1.55624,70.004839
8.6961,-0.037726,-0.005365,0.003842,3e-06,-0.000445,-0.00017,-0.036545,-0.515083,0.002553,-1.534434,-262.526547,1.55624,70.004839
8.7162,-0.037591,-0.005156,0.004788,0.0,-0.000446,-0.0001,-0.035766,-0.515375,0.003834,-1.558461,-262.526311,1.597984,70.004732
8.7364,-0.037793,-0.005126,0.004272,2.8e-05,-0.000446,-0.000731,-0.035205,-0.515171,0.004702,-1.558461,-262.526311,1.597984,70.004732
8.7562,-0.037815,-0.005177,0.003974,4.8e-05,-0.000445,-0.001188,-0.035205,-0.515171,0.004702,-1.558461,-262.526311,1.597984,70.004732
8.7758,-0.038038,-0.005135,0.00311,6.2e-05,-0.000443,-0.001516,-0.035788,-0.515191,0.00397,-1.570259,-262.526111,1.571503,70.00458
8.7961,-0.037663,-0.005191,0.001754,5.6e-05,-0.000441,-0.001421,-0.036059,-0.515169,0.003618,-1.570259,-262.526111,1.571503,70.00458
8.8162,-0.037801,-0.005255,0.001303,5.2e-05,-0.000439,-0.001353,-0.036768,-0.5152,0.001718,-1.525396,-262.525705,1.496503,70.004724
8.8362,-0.037973,-0.005071,0.002419,1.9e-05,-0.000398,-0.00035,-0.037103,-0.515251,0.001339,-1.525396,-262.525705,1.496503,70.004724
8.8562,-0.037544,-0.005234,0.003379,-4e-06,-0.000377,0.000337,-0.037103,-0.515251,0.001339,-1.525396,-262.525705,1.496503,70.004724
8.8762,-0.037936,-0.005219,0.001622,-2e-05,-0.000368,0.000805,-0.035819,-0.515248,0.003326,-1.529817,-262.525226,1.437859,70.004872
8.8958,-0.037662,-0.004943,0.003565,-1.2e-05,-0.000382,0.000565,-0.036343,-0.515238,0.002627,-1.529817,-262.525226,1.437859,70.004872
8.9157,-0.037776,-0.005062,0.003011,-7e-06,-0.000394,0.000392,-0.035844,-0.514947,0.003582,-1.454768,-262.525258,1.512908,70.004647
8.9357,-0.03804,-0.005171,0.003415,4e-06,-0.000409,0.000107,-0.036204,-0.51505,0.003064,-1.454768,-262.525258,1.512908,70.004647
8.9558,-0.037946,-0.005318,0.001912,1.1e-05,-0.000421,-9.5e-05,-0.036204,-0.51505,0.003064,-1.454768,-262.525258,1.512908,70.004647
8.9761,-0.037929,-0.005479,0.001787,1.5e-05,-0.000431,-0.000238,-0.036971,-0.515327,0.001923,-1.52973,-262.525219,1.559572,70.004487
8.9958,-0.037973,-0.005344,0.003967,-1e-06,-0.000417,0.000143,-0.03699,-0.51539,0.001869,-1.52973,-262.525219,1.559572,70.004487
9.0157,-0.03799,-0.004971,0.003456,-1.2e-05,-0.000409,0.000405,-0.035949,-0.515352,0.00396,-1.544212,-262.525004,1.62449,70.00438
9.0358,-0.037296,-0.00519,0.003488,7e-06,-0.000426,-3.3e-05,-0.036203,-0.515002,0.0035,-1.544212,-262.525004,1.62449,70.00438
9.0558,-0.03761,-0.005183,0.002996,2e-05,-0.000438,-0.000345,-0.036203,-0.515002,0.0035,-1.544212,-262.525004,1.62449,70.00438
9.0758,-0.037903,-0.005329,0.004283,2.9e-05,-0.000448,-0.000566,-0.036082,-0.515194,0.00301,-1.619334,-262.524953,1.552647,70.004175
9.0961,-0.037862,-0.005435,0.000161,3.4e-05,-0.000447,-0.000731,-0.035934,-0.515249,0.00353,-1.619334,-262.524953,1.552647,70.004175
9.1159,-0.037949,-0.005312,0.003644,3.7e-05,-0.000445,-0.000847,-0.03778,-0.515435,0.000161,-1.544444,-262.524953,1.477758,70.004175
9.1359,-0.038183,-0.005271,0.004416,3.5e-05,-0.000442,-0.00086,-0.036242,-0.51532,0.003332,-1.544444,-262.524953,1.477758,70.004175
9.1562,-0.037772,-0.005223,0.004611,3.3e-05,-0.000438,-0.000868,-0.036242,-0.51532,0.003332,-1.544444,-262.524953,1.477758,70.004175
9.1758,-0.037912,-0.005125,0.002291,3.1e-05,-0.000435,-0.000873,-0.03542,-0.51522,0.004608,-1.532414,-262.524918,1.402757,70.004178
9.1956,-0.037855,-0.005083,0.00128,3.5e-05,-0.000437,-0.000979,-0.035976,-0.515179,0.003635,-1.532414,-262.524918,1.402757,70.004178
9.2157,-0.037653,-0.005328,0.001749,3.8e-05,-0.000438,-0.001053,-0.037201,-0.515093,0.00126,-1.538481,-262.524638,1.327421,70.004207
9.2357,-0.037979,-0.004837,0.002023,1.2e-05,-0.00041,-0.000331,-0.036801,-0.515306,0.001703,-1.538481,-262.524638,1.327421,70.004207
9.256,-0.037702,-0.004981,0.00492,-7e-06,-0.000395,0.000164,-0.036801,-0.515306,0.001703,-1.538481,-262.524638,1.327421,70.004207
9.2758,-0.037782,-0.005349,0.003024,-2e-05,-0.000388,0.000502,-0.035191,-0.514992,0.004878,-1.535641,-262.52423,1.387606,70.004286
9.2959,-0.037936,-0.005162,0.002309,9e-06,-0.000402,-0.000142,-0.035617,-0.515138,0.00412,-1.535641,-262.52423,1.387606,70.004286
9.3161,-0.037685,-0.00514,0.00331,2.8e-05,-0.000413,-0.000605,-0.036759,-0.515161,0.002309,-1.460634,-262.52423,1.462613,70.004286
9.3359,-0.037661,-0.005173,0.003598,2.8e-05,-0.000419,-0.000647,-0.036066,-0.515139,0.003218,-1.460634,-262.52423,1.462613,70.004286
9.3561,-0.037594,-0.005526,0.002826,2.7e-05,-0.000423,-0.000676,-0.036066,-0.515139,0.003218,-1.460634,-262.52423,1.462613,70.004286
9.3761,-0.037519,-0.005264,0.002205,2.6e-05,-0.000427,-0.000697,-0.036153,-0.515524,0.002826,-1.534613,-262.52423,1.387614,70.004286
9.3962,-0.037529,-0.00491,0.003103,1.5e-05,-0.000416,-0.000468,-0.036252,-0.515416,0.00257,-1.534613,-262.52423,1.387614,70.004286
9.4156,-0.037892,-0.005067,0.00268,7e-06,-0.00041,-0.000309,-0.035946,-0.514908,0.003103,-1.539799,-262.52423,1.312435,70.004286
9.4362,-0.037624,-0.005038,0.002619,5e-06,-0.000418,-0.000258,-0.036473,-0.515052,0.002718,-1.539799,-262.52423,1.312435,70.004286
9.4561,-0.037648,-0.005295,0.003696,4e-06,-0.000425,-0.000224,-0.036473,-0.515052,0.002718,-1.539799,-262.52423,1.312435,70.004286
9.4759,-0.037788,-0.005226,0.002659,3e-06,-0.000431,-0.000201,-0.035764,-0.515296,0.003692,-1.558368,-262.52417,1.38726,70.004264
9.4958,-0.037611,-0.005389,0.002536,1e-05,-0.000433,-0.000382,-0.036044,-0.515266,0.003258,-1.558368,-262.52417,1.38726,70.004264
9.5163,-0.037785,-0.004829,0.002793,1.4e-05,-0.000434,-0.000509,-0.036318,-0.515395,0.002533,-1.566248,-262.524048,1.462642,70.004196
9.536,-0.038041,-0.005232,0.001692,1.1e-05,-0.000442,-0.000421,-0.036357,-0.514876,0.00277,-1.566248,-262.524048,1.462642,70.004196
9.5562,-0.038244,-0.004921,0.002201,8e-06,-0.000449,-0.000359,-0.036357,-0.514876,0.00277,-1.566248,-262.524048,1.462642,70.004196
9.5761,-0.037687,-0.004999,0.002874,7e-06,-0.000456,-0.000316,-0.037121,-0.514928,0.002191,-1.55195,-262.523914,1.53739,70.004174
9.5961,-0.037675,-0.004773,0.002191,2e-06,-0.000457,-0.00017,-0.03675,-0.514957,0.002472,-1.55195,-262.523914,1.53739,70.004174
9.6163,-0.037912,-0.005288,0.003584,-2e-06,-0.00046,-6.9e-05,-0.036558,-0.514786,0.002182,-1.56031,-262.523669,1.596641,70.004074
9.6361,-0.037437,-0.005063,0.002228,1.1e-05,-0.00046,-0.000357,-0.036127,-0.51524,0.003456,-1.56031,-262.523669,1.596641,70.004074
9.6564,-0.037679,-0.005326,0.001818,1.9e-05,-0.000459,-0.00056,-0.036127,-0.51524,0.003456,-1.56031,-262.523669,1.596641,70.004074
9.6762,-0.037618,-0.0053,0.002649,2.4e-05,-0.000457,-0.000703,-0.036752,-0.515344,0.001815,-1.574102,-262.523472,1.566826,70.00391
9.6958,-0.037735,-0.0054,0.00421,7e-06,-0.00044,-0.000303,-0.036555,-0.515328,0.002153,-1.574102,-262.523472,1.566826,70.00391
9.7158,-0.037544,-0.005597,0.004194,-4e-06,-0.000429,-2.6e-05,-0.036555,-0.515328,0.002153,-1.574102,-262.523472,1.566826,70.00391
9.736,-0.037707,-0.005297,0.003211,1.8e-05,-0.000423,-0.000547,-0.035421,-0.515577,0.004194,-1.547517,-262.523264,1.641837,70.003879
9.7561,-0.037842,-0.005742,0.001941,3.2e-05,-0.000417,-0.000919,-0.035421,-0.515577,0.004194,-1.547517,-262.523264,1.641837,70.003879
9.776,-0.037722,-0.005297,0.004287,4.3e-05,-0.00041,-0.001183,-0.036852,-0.515757,0.00194,-1.579613,-262.523106,1.566716,70.003733
9.7958,-0.037671,-0.005186,0.004102,3e-05,-0.000399,-0.000937,-0.036307,-0.515567,0.002911,-1.579613,-262.523106,1.566716,70.003733
9.8158,-0.037667,-0.005418,0.003375,2.1e-05,-0.000392,-0.000765,-0.035578,-0.515191,0.004075,-1.533164,-262.522775,1.491695,70.003825
9.8357,-0.038058,-0.005123,0.002662,2.3e-05,-0.000394,-0.000834,-0.035914,-0.515397,0.003434,-1.533164,-262.522775,1.491695,70.003825
9.8557,-0.03777,-0.005818,0.004411,2.4e-05,-0.000395,-0.000882,-0.035914,-0.515397,0.003434,-1.533164,-262.522775,1.491695,70.003825
9.8757,-0.03778,-0.005383,0.002343,2.5e-05,-0.000395,-0.000915,-0.035519,-0.515821,0.004394,-1.546103,-262.52259,1.416743,70.003842
9.896,-0.037625,-0.005473,0.002166,2.6e-05,-0.00039,-0.000976,-0.03596,-0.51564,0.003544,-1.546103,-262.52259,1.416743,70.003842
9.9157,-0.037418,-0.005397,0.002926,2.6e-05,-0.000385,-0.001018,-0.036519,-0.515484,0.002137,-1.544746,-262.522208,1.420003,70.003908
9.9359,-0.037757,-0.005517,0.001219,1.7e-05,-0.000381,-0.000799,-0.035979,-0.515403,0.002854,-1.544746,-262.522208,1.420003,70.003908
9.9559,-0.037744,-0.005622,0.003294,1e-05,-0.00038,-0.000647,-0.035979,-0.515403,0.002854,-1.544746,-262.522208,1.420003,70.003908
9.9758,-0.037451,-0.005522,0.0041,5e-06,-0.00038,-0.000542,-0.036063,-0.515635,0.003252,-1.544503,-262.521809,1.459419,70.004002
9.9958,-0.037593,-0.005593,0.003933,1.4e-05,-0.000379,-0.00074,-0.035748,-0.515584,0.003628,-1.544503,-262.521809,1.459419,70.004002
10.0161,-0.037653,-0.005669,0.003161,1.9e-05,-0.000378,-0.000881,-0.035588,-0.515595,0.003925,-1.563397,-262.52168,1.535611,70.003994
10.0361,-0.03769,-0.00533,0.002402,1.6e-05,-0.000374,-0.000842,-0.036002,-0.515661,0.003226,-1.563397,-262.52168,1.535611,70.003994
10.0562,-0.037169,-0.005482,0.004397,1.3e-05,-0.00037,-0.000815,-0.036002,-0.515661,0.003226,-1.563397,-262.52168,1.535611,70.003994
10.0762,-0.037668,-0.00545,0.001743,1.1e-05,-0.000367,-0.000796,-0.034926,-0.515491,0.004364,-1.549671,-262.521356,1.461622,70.004051
10.0958,-0.037297,-0.00544,0.003168,1.2e-05,-0.000368,-0.000805,-0.035683,-0.515476,0.003289,-1.549671,-262.521356,1.461622,70.004051
10.1164,-0.037935,-0.005272,0.003583,1.1e-05,-0.00037,-0.000812,-0.035681,-0.515449,0.003142,-1.55732,-262.521016,1.47459,70.004098
10.1364,-0.037836,-0.005559,0.001214,1.7e-05,-0.000378,-0.000903,-0.03607,-0.515285,0.003542,-1.55732,-262.521016,1.47459,70.004098
10.1563,-0.037816,-0.005462,0.001542,2e-05,-0.000385,-0.000968,-0.03607,-0.515285,0.003542,-1.55732,-262.521016,1.47459,70.004098
10.176,-0.037576,-0.005583,0.00156,2.3e-05,-0.000391,-0.001013,-0.037029,-0.515477,0.001508,-1.557538,-262.520669,1.480098,70.004149
10.1962,-0.037859,-0.005246,0.003698,-4e-06,-0.000361,-0.000216,-0.036927,-0.515522,0.001525,-1.557538,-262.520669,1.480098,70.004149
10.2159,-0.037518,-0.005681,0.00202,-2.2e-05,-0.000346,0.00033,-0.035973,-0.515255,0.003666,-1.54808,-262.520263,1.47029,70.004241
10.2359,-0.037723,-0.005162,0.00254,-2.7e-05,-0.000344,0.000434,-0.036456,-0.515654,0.002119,-1.54808,-262.520263,1.47029,70.004241
10.2558,-0.037241,-0.005423,0.003064,-2.9e-05,-0.000344,0.000502,-0.036456,-0.515654,0.002119,-1.54808,-262.520263,1.47029,70.004241
10.2758,-0.037472,-0.005493,0.001795,-3.1e-05,-0.000345,0.000547,-0.035679,-0.515429,0.003071,-1.623797,-262.52023,1.529796,70.004117
10.2961,-0.037486,-0.005278,0.001546,-2.6e-05,-0.000355,0.000405,-0.036048,-0.515457,0.002535,-1.623797,-262.52023,1.529796,70.004117
10.316,-0.037697,-0.005674,0.00162,-2.2e-05,-0.000363,0.000305,-0.036698,-0.515277,0.001546,-1.549276,-262.52023,1.525052,70.004117
10.336,-0.037276,-0.005698,0.001179,-3.4e-05,-0.000354,0.000629,-0.036855,-0.515638,0.001613,-1.549276,-262.52023,1.525052,70.004117
10.3561,-0.037398,-0.005003,0.002734,-4.2e-05,-0.00035,0.000851,-0.036855,-0.515638,0.001613,-1.549276,-262.52023,1.525052,70.004117
10.3757,-0.037614,-0.005666,0.004129,-4.7e-05,-0.000348,0.001004,-0.036004,-0.515012,0.002743,-1.623886,-262.520179,1.530635,70.00396
10.3961,-0.037187,-0.005814,0.001834,-2.3e-05,-0.000368,0.000443,-0.035795,-0.515286,0.003326,-1.623886,-262.520179,1.530635,70.00396
10.4159,-0.037603,-0.005705,0.001186,-5e-06,-0.000382,4.5e-05,-0.036252,-0.515817,0.001848,-1.548567,-262.520224,1.521734,70.003797
10.4358,-0.037918,-0.005667,0.002455,-2.6e-05,-0.000358,0.000628,-0.036931,-0.515715,0.001246,-1.548567,-262.520224,1.521734,70.003797
10.4562,-0.037709,-0.005843,0.002659,-4e-05,-0.000344,0.001029,-0.036931,-0.515715,0.001246,-1.548567,-262.520224,1.521734,70.003797
10.4759,-0.037622,-0.005491,0.003383,-5.1e-05,-0.000337,0.001305,-0.036353,-0.515857,0.002661,-1.586086,-262.520088,1.557544,70.003639
10.4962,-0.037342,-0.005516,0.003419,-3.1e-05,-0.000349,0.000783,-0.036165,-0.515707,0.002958,-1.586086,-262.520088,1.557544,70.003639
10.516,-0.037325,-0.005847,0.001723,-1.7e-05,-0.000357,0.000411,-0.035599,-0.515521,0.003451,-1.510929,-262.52023,1.526226,70.003292
10.5361,-0.037313,-0.005628,0.000838,-2.5e-05,-0.000349,0.000577,-0.036369,-0.515817,0.001883,-1.510929,-262.52023,1.526226,70.003292
10.556,-0.037728,-0.005412,0.001688,-3.1e-05,-0.000344,0.000691,-0.036369,-0.515817,0.001883,-1.510929,-262.52023,1.526226,70.003292
10.5764,-0.037947,-0.005434,0.002918,-3.5e-05,-0.000341,0.000768,-0.036867,-0.515419,0.001696,-1.585756,-262.52021,1.543046,70.003179
10.5963,-0.037947,-0.00557,0.003631,-3.2e-05,-0.000355,0.00069,-0.036703,-0.515425,0.002188,-1.585756,-262.52021,1.543046,70.003179
10.6165,-0.03744,-0.005908,0.003686,-2.9e-05,-0.000366,0.000635,-0.036095,-0.515569,0.003638,-1.510746,-262.520225,1.527607,70.00309
10.6362,-0.037447,-0.005211,0.002368,-7e-06,-0.000366,6.7e-05,-0.035608,-0.515874,0.003682,-1.510746,-262.520225,1.527607,70.00309
10.656,-0.037263,-0.005817,0.002181,9e-06,-0.000364,-0.000337,-0.035608,-0.515874,0.003682,-1.510746,-262.520225,1.527607,70.00309
10.6764,-0.037379,-0.005488,0.003001,1.9e-05,-0.000362,-0.000623,-0.036151,-0.515816,0.002181,-1.435734,-262.520225,1.532025,70.00309
10.6963,-0.037462,-0.005747,0.002793,9e-06,-0.000356,-0.000407,-0.036025,-0.515679,0.002522,-1.435734,-262.520225,1.532025,70.00309
10.7157,-0.037582,-0.005391,0.001181,1e-06,-0.000353,-0.000257,-0.036038,-0.515745,0.002793,-1.510993,-262.520225,1.456766,70.00309
10.7358,-0.037604,-0.005533,0.002765,-2e-05,-0.000338,0.000387,-0.036898,-0.515421,0.00132,-1.510993,-262.520225,1.456766,70.00309
10.7557,-0.037792,-0.005834,0.003889,-3.4e-05,-0.000334,0.00083,-0.036898,-0.515421,0.00132,-1.510993,-262.520225,1.456766,70.00309
10.7763,-0.037636,-0.005379,0.001649,-4.4e-05,-0.000335,0.001133,-0.035809,-0.515841,0.003881,-1.568744,-262.520071,1.531609,70.003031
10.7962,-0.037385,-0.005769,0.002399,-2.6e-05,-0.000348,0.000658,-0.036211,-0.515654,0.00297,-1.568744,-262.520071,1.531609,70.003031
10.8156,-0.037692,-0.005464,0.003066,-1.3e-05,-0.000357,0.00032,-0.036162,-0.515776,0.002427,-1.493823,-262.520185,1.527641,70.002706
10.8358,-0.037483,-0.005559,0.000652,-4e-06,-0.000368,6.6e-05,-0.036132,-0.515489,0.003012,-1.493823,-262.520185,1.527641,70.002706
10.8558,-0.037322,-0.005528,0.00384,2e-06,-0.000375,-0.000113,-0.036132,-0.515489,0.003012,-1.493823,-262.520185,1.527641,70.002706
10.8759,-0.037807,-0.005582,0.002101,5e-06,-0.000381,-0.000239,-0.035364,-0.515534,0.003849,-1.568922,-262.520142,1.546393,70.002561
10.896,-0.037243,-0.005715,0.000475,9e-06,-0.000383,-0.000369,-0.035927,-0.515554,0.003132,-1.568922,-262.520142,1.546393,70.002561
10.916,-0.037509,-0.005672,0.003095,1.1e-05,-0.000384,-0.00046,-0.037,-0.515727,0.000468,-1.5608,-262.519938,1.593186,70.00247
10.936,-0.037596,-0.005581,0.004249,7e-06,-0.000379,-0.000421,-0.036024,-0.515692,0.002855,-1.5608,-262.519938,1.593186,70.00247
10.9563,-0.038016,-0.005638,0.001631,3e-06,-0.000375,-0.000393,-0.036024,-0.515692,0.002855,-1.5608,-262.519938,1.593186,70.00247
10.9756,-0.037183,-0.005599,0.001888,1e-06,-0.000372,-0.000374,-0.037184,-0.515652,0.001614,-1.55465,-262.519699,1.668616,70.002432
10.9958,-0.037535,-0.005457,0.002795,-1.7e-05,-0.000357,0.000112,-0.036774,-0.515631,0.001728,-1.55465,-262.519699,1.668616,70.002432
11.016,-0.037656,-0.005556,0.003063,-2.9e-05,-0.000349,0.000446,-0.036109,-0.515465,0.002784,-1.569205,-262.51949,1.593688,70.002382
11.0361,-0.037359,-0.005764,0.001963,-1.6e-05,-0.000359,0.000147,-0.036095,-0.515547,0.00304,-1.569205,-262.51949,1.593688,70.002382
11.0561,-0.037731,-0.005695,0.001575,-8e-06,-0.000367,-6.4e-05,-0.036095,-0.515547,0.00304,-1.569205,-262.51949,1.593688,70.002382
11.0759,-0.037202,-0.005438,0.002231,-2e-06,-0.000372,-0.000213,-0.036928,-0.515694,0.001575,-1.494457,-262.51949,1.524091,70.002382
11.0962,-0.03783,-0.005707,0.003377,-1.7e-05,-0.000361,0.000168,-0.036576,-0.515589,0.001842,-1.494457,-262.51949,1.524091,70.002382
11.1156,-0.037756,-0.005452,0.002949,-2.7e-05,-0.000356,0.00043,-0.036107,-0.515714,0.003371,-1.569239,-262.519314,1.560715,70.002297
11.1362,-0.037805,-0.005783,0.002766,-1.5e-05,-0.000367,0.000153,-0.036239,-0.515474,0.002987,-1.569239,-262.519314,1.560715,70.002297
11.1562,-0.037625,-0.005758,0.003028,-7e-06,-0.000376,-4.3e-05,-0.036239,-0.515474,0.002987,-1.569239,-262.519314,1.560715,70.002297
11.1758,-0.037605,-0.005607,0.002038,-2e-06,-0.000382,-0.00018,-0.03608,-0.515756,0.003028,-1.494272,-262.519314,1.527555,70.002297
11.1961,-0.0375,-0.005175,0.003635,-6e-06,-0.000378,-0.000137,-0.036281,-0.515694,0.002617,-1.494272,-262.519314,1.527555,70.002297
11.2161,-0.037521,-0.00536,0.000984,-8e-06,-0.000375,-0.000107,-0.035646,-0.515182,0.00363,-1.569504,-262.51914,1.562098,70.002201
11.2359,-0.037876,-0.005568,0.00209,-2.8e-05,-0.000359,0.000536,-0.036894,-0.515345,0.001225,-1.569504,-262.51914,1.562098,70.002201
11.2558,-0.037548,-0.005891,0.002179,-4.1e-05,-0.000352,0.000979,-0.036894,-0.515345,0.001225,-1.569504,-262.51914,1.562098,70.002201
11.2759,-0.037815,-0.005737,0.002275,-5.1e-05,-0.000352,0.001284,-0.036437,-0.515905,0.002174,-1.589405,-262.518966,1.544307,70.002079
11.296,-0.037303,-0.005668,0.001702,-4.3e-05,-0.000355,0.001047,-0.036527,-0.515837,0.002215,-1.589405,-262.518966,1.544307,70.002079
11.3156,-0.037505,-0.005621,0.003521,-3.9e-05,-0.000357,0.000878,-0.036436,-0.515676,0.001732,-1.514284,-262.519095,1.526102,70.001741
11.3364,-0.037441,-0.005535,0.002503,-1.6e-05,-0.000366,0.000335,-0.035764,-0.515623,0.003387,-1.514284,-262.519095,1.526102,70.001741
11.356,-0.037593,-0.005295,0.001894,-1e-06,-0.000372,-5.2e-05,-0.035764,-0.515623,0.003387,-1.514284,-262.519095,1.526102,70.001741
11.3764,-0.037853,-0.005378,0.001942,9e-06,-0.000375,-0.000326,-0.036628,-0.515304,0.001919,-1.438959,-262.519145,1.527538,70.0015
11.3961,-0.037952,-0.005497,0.004394,-5e-06,-0.000372,4.8e-05,-0.036722,-0.515334,0.001931,-1.438959,-262.519145,1.527538,70.0015
11.4156,-0.037522,-0.006007,0.004004,-1.5e-05,-0.000373,0.000307,-0.03571,-0.5155,0.004386,-1.513517,-262.518985,1.602096,70.00145
11.4358,-0.037782,-0.006111,0.001975,7e-06,-0.000368,-0.000267,-0.0355,-0.515958,0.004038,-1.513517,-262.518985,1.602096,70.00145
11.4561,-0.037521,-0.005753,0.002167,2.3e-05,-0.000363,-0.000677,-0.0355,-0.515958,0.004038,-1.513517,-262.518985,1.602096,70.00145
11.4757,-0.037822,-0.005375,0.002667,3.3e-05,-0.000356,-0.000968,-0.036416,-0.515762,0.002176,-1.588514,-262.518932,1.54414,70.001293
11.4964,-0.037572,-0.005772,0.003932,1.6e-05,-0.000348,-0.00058,-0.036435,-0.515605,0.002377,-1.588514,-262.518932,1.54414,70.001293
11.5162,-0.037618,-0.006084,0.002314,5e-06,-0.000345,-0.000312,-0.035566,-0.515777,0.003908,-1.536087,-262.518636,1.469131,70.001368
11.5361,-0.03751,-0.005595,0.002942,-4e-06,-0.000334,-0.00016,-0.036358,-0.516055,0.002459,-1.536087,-262.518636,1.469131,70.001368
11.5561,-0.037473,-0.005875,0.002761,-1.1e-05,-0.000326,-5.5e-05,-0.036358,-0.516055,0.002459,-1.536087,-262.518636,1.469131,70.001368
11.5763,-0.037376,-0.005715,0.004001,-1.5e-05,-0.00032,1.7e-05,-0.036065,-0.515883,0.002751,-1.562269,-262.518474,1.544125,70.001321
11.596,-0.037747,-0.005733,0.002529,-5e-06,-0.000325,-0.000237,-0.035757,-0.515812,0.003277,-1.562269,-262.518474,1.544125,70.001321
11.6157,-0.037285,-0.005919,0.002438,1e-06,-0.000329,-0.000416,-0.036457,-0.515741,0.00253,-1.62003,-262.518358,1.524578,70.001197
11.636,-0.037756,-0.00597,0.003075,-8e-06,-0.000322,-0.00023,-0.036079,-0.515902,0.002446,-1.62003,-262.518358,1.524578,70.001197
11.6558,-0.0375,-0.005772,0.002314,-1.4e-05,-0.000318,-0.000101,-0.036079,-0.515902,0.002446,-1.62003,-262.518358,1.524578,70.001197
11.6764,-0.037656,-0.005878,0.001961,-1.8e-05,-0.000316,-1.2e-05,-0.03632,-0.515783,0.002298,-1.568814,-262.518148,1.58631,70.00117
11.6961,-0.03757,-0.005894,0.001468,-2.5e-05,-0.000314,0.000165,-0.036453,-0.515822,0.002163,-1.568814,-262.518148,1.58631,70.00117
11.7161,-0.037753,-0.005826,0.002658,-3e-05,-0.000314,0.000288,-0.036821,-0.515902,0.001468,-1.627347,-262.518035,1.511542,70.001063
11.7362,-0.037592,-0.005694,0.001618,-2.7e-05,-0.000321,0.000206,-0.036428,-0.51583,0.002571,-1.627347,-262.518035,1.511542,70.001063
11.7559,-0.037743,-0.00592,0.002334,-2.5e-05,-0.000325,0.000149,-0.036428,-0.51583,0.002571,-1.627347,-262.518035,1.511542,70.001063
11.7762,-0.037564,-0.00601,0.002424,-2.4e-05,-0.000329,0.000108,-0.036553,-0.515918,0.002334,-1.551831,-262.518035,1.510567,70.001063
11.7961,-0.037834,-0.005714,0.001799,-2.6e-05,-0.000327,0.000159,-0.036459,-0.515956,0.002372,-1.551831,-262.518035,1.510567,70.001063
11.816,-0.037888,-0.005985,0.003035,-2.8e-05,-0.000325,0.000193,-0.036917,-0.515722,0.001802,-1.626659,-262.517948,1.511385,70.000932
11.8361,-0.037593,-0.005916,0.004442,-2.1e-05,-0.000328,5e-06,-0.036392,-0.515959,0.002924,-1.626659,-262.517948,1.511385,70.000932
11.8561,-0.037824,-0.005873,0.001444,-1.6e-05,-0.00033,-0.000126,-0.036392,-0.515959,0.002924,-1.626659,-262.517948,1.511385,70.000932
11.8758,-0.037712,-0.005686,0.00284,-1.3e-05,-0.000331,-0.000218,-0.037088,-0.515885,0.001452,-1.701318,-262.517872,1.508454,70.000771
11.8959,-0.037722,-0.00557,0.002818,-2.4e-05,-0.000325,8.5e-05,-0.036756,-0.515805,0.002013,-1.701318,-262.517872,1.508454,70.000771
11.9161,-0.037677,-0.005836,0.003174,-3.1e-05,-0.000323,0.000294,-0.036286,-0.515577,0.002812,-1.626324,-262.517715,1.503913,70.000703
11.9361,-0.037764,-0.006143,0.002213,-1.9e-05,-0.000331,1e-06,-0.036079,-0.51581,0.003141,-1.626324,-262.517715,1.503913,70.000703
11.9559,-0.037613,-0.005924,0.002538,-1e-05,-0.000336,-0.000206,-0.036079,-0.51581,0.003141,-1.626324,-262.517715,1.503913,70.000703
11.9758,-0.037726,-0.005947,0.00369,-5e-06,-0.000339,-0.00035,-0.036318,-0.515923,0.002538,-1.551315,-262.517715,1.508391,70.000703
11.9959,-0.037643,-0.005752,0.000879,-4e-06,-0.000337,-0.000403,-0.036124,-0.515931,0.003009,-1.551315,-262.517715,1.508391,70.000703
12.0161,-0.038038,-0.006207,0.001641,-4e-06,-0.000335,-0.00044,-0.037195,-0.515763,0.000868,-1.579794,-262.517499,1.531017,70.000654
12.036,-0.037849,-0.006244,0.002693,-2.6e-05,-0.00031,0.00014,-0.0372,-0.516167,0.001571,-1.579794,-262.517499,1.531017,70.000654
12.0566,-0.03758,-0.006149,0.001368,-4e-05,-0.000295,0.000539,-0.0372,-0.516167,0.001571,-1.579794,-262.517499,1.531017,70.000654
12.076,-0.037899,-0.006134,0.002967,-5e-05,-0.000286,0.000812,-0.036882,-0.516162,0.00135,-1.57806,-262.517259,1.505363,70.000628
12.0962,-0.037705,-0.006064,0.003751,-5e-05,-0.000286,0.000804,-0.03668,-0.516151,0.002006,-1.57806,-262.517259,1.505363,70.000628
12.1156,-0.037712,-0.005819,0.003035,-5e-05,-0.000287,0.000796,-0.035792,-0.516064,0.003761,-1.503083,-262.517293,1.506609,70.000506
12.1357,-0.037685,-0.006146,0.003058,-3.2e-05,-0.000302,0.000374,-0.036136,-0.515835,0.003089,-1.503083,-262.517293,1.506609,70.000506
12.1561,-0.037715,-0.00597,0.001669,-1.9e-05,-0.000313,7.4e-05,-0.036136,-0.515835,0.003089,-1.503083,-262.517293,1.506609,70.000506
12.1763,-0.037973,-0.005986,0.001667,-1.1e-05,-0.00032,-0.000137,-0.036865,-0.515977,0.001689,-1.427577,-262.517342,1.505996,70.000321
12.1967,-0.0376,-0.005764,0.0046,-2.8e-05,-0.000308,0.00029,-0.036973,-0.515981,0.001682,-1.427577,-262.517342,1.505996,70.000321
12.2161,-0.037606,-0.005709,0.003077,-3.9e-05,-0.000301,0.000585,-0.035254,-0.515765,0.004597,-1.502379,-262.517242,1.523611,70.000262
12.236,-0.037779,-0.005875,0.002176,-2.1e-05,-0.000316,0.000188,-0.035974,-0.515712,0.003197,-1.502379,-262.517242,1.523611,70.000262
12.2559,-0.037657,-0.006327,0.002203,-1e-05,-0.000327,-9.3e-05,-0.035974,-0.515712,0.003197,-1.502379,-262.517242,1.523611,70.000262
12.2761,-0.0375,-0.00629,0.002172,-2e-06,-0.000334,-0.000291,-0.036533,-0.516326,0.002203,-1.427318,-262.517242,1.512313,70.000259
12.2964,-0.037594,-0.005883,0.002897,-1.5e-05,-0.000316,-4e-05,-0.036476,-0.516311,0.00219,-1.427318,-262.517242,1.512313,70.000259
12.316,-0.037707,-0.006008,0.003887,-2.3e-05,-0.000303,0.000133,-0.036116,-0.515888,0.002891,-1.501942,-262.517102,1.558679,70.000216
12.3359,-0.037955,-0.006075,0.003739,-4e-06,-0.000309,-0.000324,-0.035757,-0.515995,0.003802,-1.501942,-262.517102,1.558679,70.000216
12.3561,-0.037603,-0.005849,0.003168,9e-06,-0.000312,-0.000648,-0.035757,-0.515995,0.003802,-1.501942,-262.517102,1.558679,70.000216
12.3759,-0.037661,-0.006034,0.001983,1.9e-05,-0.000313,-0.000878,-0.035987,-0.515854,0.003171,-1.57712,-262.517049,1.509824,70.000126
12.396,-0.037495,-0.005841,0.003219,8e-06,-0.000308,-0.000645,-0.036258,-0.515928,0.002686,-1.57712,-262.517049,1.509824,70.000126
12.416,-0.037587,-0.006165,0.002886,-0.0,-0.000306,-0.000482,-0.035852,-0.515848,0.003191,-1.54896,-262.516716,1.487835,70.000213
12.4358,-0.037654,-0.005991,0.00349,-4e-06,-0.000302,-0.000453,-0.036092,-0.516136,0.002911,-1.54896,-262.516716,1.487835,70.000213
12.4561,-0.037682,-0.005891,0.002426,-7e-06,-0.000299,-0.000434,-0.036092,-0.516136,0.002911,-1.54896,-262.516716,1.487835,70.000213
12.476,-0.037259,-0.005856,0.001882,-9e-06,-0.000296,-0.00042,-0.036445,-0.515902,0.002407,-1.57135,-262.51649,1.543278,70.000209
12.4958,-0.037481,-0.006101,0.001794,-2e-05,-0.000292,-0.000125,-0.036386,-0.515884,0.002192,-1.57135,-262.51649,1.543278,70.000209
12.5157,-0.037749,-0.005877,0.001415,-2.8e-05,-0.000291,7.8e-05,-0.036566,-0.516105,0.001787,-1.587495,-262.516377,1.468396,70.0002
12.536,-0.037837,-0.006196,0.002776,-4.3e-05,-0.000281,0.000556,-0.036986,-0.515897,0.001447,-1.587495,-262.516377,1.468396,70.0002
12.5561,-0.037672,-0.005964,0.002171,-5.4e-05,-0.000278,0.000883,-0.036986,-0.515897,0.001447,-1.587495,-262.516377,1.468396,70.0002
12.5758,-0.037805,-0.005811,0.001444,-6.1e-05,-0.000278,0.001108,-0.036566,-0.515973,0.002174,-1.662486,-262.516293,1.489736,70.000084
12.596,-0.037543,-0.006232,0.002182,-5.9e-05,-0.000287,0.001065,-0.036771,-0.515908,0.001876,-1.662486,-262.516293,1.489736,70.000084
12.6163,-0.037461,-0.006261,0.001624,-5.7e-05,-0.000294,0.001034,-0.036431,-0.516234,0.002196,-1.587488,-262.516355,1.507257,69.999937
12.6364,-0.037602,-0.006173,0.002534,-6e-05,-0.000288,0.001098,-0.036615,-0.516258,0.001677,-1.587488,-262.516355,1.507257,69.999937
12.656,-0.03754,-0.005581,0.003272,-6.3e-05,-0.000283,0.001142,-0.036615,-0.516258,0.001677,-1.587488,-262.516355,1.507257,69.999937
12.6761,-0.037268,-0.006083,0.004162,-6.4e-05,-0.00028,0.001171,-0.035872,-0.515585,0.003297,-1.512486,-262.516434,1.509433,69.999722
12.6961,-0.037517,-0.006116,0.00188,-3.4e-05,-0.000297,0.00046,-0.035576,-0.515787,0.003652,-1.512486,-262.516434,1.509433,69.999722
12.7158,-0.037604,-0.006233,0.002509,-1.2e-05,-0.00031,-4.8e-05,-0.03656,-0.516123,0.001913,-1.437492,-262.516589,1.506401,69.99937
12.7361,-0.037636,-0.005828,0.004488,-1.7e-05,-0.000304,1.4e-05,-0.036345,-0.516222,0.002457,-1.437492,-262.516589,1.506401,69.99937
12.7561,-0.037151,-0.005757,0.002081,-2e-05,-0.000299,5.8e-05,-0.036345,-0.516222,0.002457,-1.437492,-262.516589,1.506401,69.99937
12.7762,-0.037587,-0.006088,0.002973,-2.3e-05,-0.000295,8.8e-05,-0.03609,-0.515764,0.00208,-1.512501,-262.516503,1.529397,69.999299
12.7961,-0.037518,-0.005847,0.00252,-2.5e-05,-0.000299,0.000114,-0.036082,-0.515896,0.002443,-1.512501,-262.516503,1.529397,69.999299
12.8159,-0.037812,-0.00613,0.00267,-2.6e-05,-0.000303,0.000133,-0.036234,-0.515852,0.002522,-1.587498,-262.516438,1.504198,69.999205
12.8363,-0.037809,-0.005961,0.002086,-2.4e-05,-0.000305,6.2e-05,-0.036431,-0.516103,0.002657,-1.587498,-262.516438,1.504198,69.999205
12.8561,-0.037793,-0.005794,0.002133,-2.3e-05,-0.000306,1.3e-05,-0.036431,-0.516103,0.002657,-1.587498,-262.516438,1.504198,69.999205
12.8766,-0.037404,-0.006023,0.001025,-2.2e-05,-0.000306,-2.1e-05,-0.036706,-0.515803,0.002137,-1.662507,-262.516361,1.504411,69.999072
12.8962,-0.037585,-0.00594,0.003677,-3.6e-05,-0.000298,0.000368,-0.036778,-0.515894,0.001683,-1.662507,-262.516361,1.504411,69.999072
12.9156,-0.037531,-0.005887,0.00182,-4.5e-05,-0.000295,0.000637,-0.03571,-0.515947,0.003676,-1.64092,-262.516234,1.494459,69.998955
12.936,-0.037929,-0.005864,0.002518,-4.6e-05,-0.000299,0.000699,-0.036537,-0.515891,0.001957,-1.64092,-262.516234,1.494459,69.998955
12.956,-0.037851,-0.005953,0.003859,-4.7e-05,-0.000303,0.000741,-0.036537,-0.515891,0.001957,-1.64092,-262.516234,1.494459,69.998955
12.9759,-0.037588,-0.00632,0.003253,-4.8e-05,-0.000306,0.000769,-0.035883,-0.515949,0.003859,-1.565586,-262.516234,1.505294,69.998952
12.9962,-0.037625,-0.006319,0.002004,-2.4e-05,-0.000311,0.000185,-0.035902,-0.5161,0.003612,-1.565586,-262.516234,1.505294,69.998952
13.0159,-0.037586,-0.006068,0.002153,-7e-06,-0.000314,-0.000232,-0.036603,-0.516321,0.002011,-1.49093,-262.516254,1.509081,69.998865
13.0361,-0.037357,-0.005987,0.001987,-1.8e-05,-0.000305,1.9e-05,-0.036498,-0.51609,0.002141,-1.49093,-262.516254,1.509081,69.998865
13.0558,-0.037842,-0.005804,0.002463,-2.5e-05,-0.000299,0.000193,-0.036498,-0.51609,0.002141,-1.49093,-262.516254,1.509081,69.998865
13.0761,-0.038089,-0.005955,0.002224,-3.1e-05,-0.000296,0.000313,-0.036586,-0.515813,0.002455,-1.565782,-262.516097,1.532761,69.998806
13.0961,-0.037576,-0.006489,0.002425,-3e-05,-0.000304,0.000304,-0.036736,-0.515872,0.00236,-1.565782,-262.516097,1.532761,69.998806
13.116,-0.037933,-0.005774,0.002175,-3e-05,-0.00031,0.000298,-0.036339,-0.516488,0.002425,-1.490771,-262.516097,1.5078,69.998806
13.1362,-0.037703,-0.006303,0.001389,-3.2e-05,-0.000314,0.000359,-0.036774,-0.515847,0.002201,-1.490771,-262.516097,1.5078,69.998806
13.1558,-0.037593,-0.006087,0.001961,-3.3e-05,-0.000318,0.0004,-0.036774,-0.515847,0.002201,-1.490771,-262.516097,1.5078,69.998806
13.1758,-0.037807,-0.00589,0.002632,-3.4e-05,-0.000322,0.000429,-0.036592,-0.516086,0.001961,-1.415718,-262.516097,1.510653,69.998806
13.1958,-0.037623,-0.0062,0.002492,-3.4e-05,-0.000321,0.000435,-0.03654,-0.516006,0.002234,-1.415718,-262.516097,1.510653,69.998806
13.216,-0.037494,-0.00625,0.001144,-3.5e-05,-0.00032,0.000439,-0.036352,-0.516199,0.002492,-1.340772,-262.516097,1.513421,69.998806
13.236,-0.037687,-0.006043,0.001801,-5.1e-05,-0.000297,0.000883,-0.03686,-0.516245,0.001267,-1.340772,-262.516097,1.513421,69.998806
13.2561,-0.037668,-0.006165,0.003635,-6.2e-05,-0.000283,0.001189,-0.03686,-0.516245,0.001267,-1.340772,-262.516097,1.513421,69.998806
13.2761,-0.037764,-0.006097,0.002524,-7e-05,-0.000275,0.0014,-0.035814,-0.516162,0.003635,-1.265788,-262.516097,1.511435,69.998806
13.2964,-0.037771,-0.005869,0.002173,-4.5e-05,-0.000286,0.000773,-0.036085,-0.516135,0.00318,-1.265788,-262.516097,1.511435,69.998806
13.316,-0.037781,-0.006278,0.003503,-2.7e-05,-0.000294,0.000326,-0.036664,-0.515873,0.002199,-1.34092,-262.516232,1.508852,69.998545
13.3362,-0.037805,-0.006339,0.003389,-1.2e-05,-0.000296,-6e-05,-0.036055,-0.516239,0.003388,-1.34092,-262.516232,1.508852,69.998545
13.3562,-0.037758,-0.006166,0.002585,-2e-06,-0.000297,-0.000333,-0.036055,-0.516239,0.003388,-1.34092,-262.516232,1.508852,69.998545
13.376,-0.037597,-0.006423,0.00265,3e-06,-0.000296,-0.000524,-0.03644,-0.516165,0.002585,-1.266044,-262.516232,1.516107,69.998545
13.3961,-0.037838,-0.0059,0.001583,-5e-06,-0.000289,-0.000374,-0.03636,-0.516269,0.002612,-1.266044,-262.516232,1.516107,69.998545
13.4161,-0.037758,-0.006249,0.002896,-1.1e-05,-0.000284,-0.00027,-0.03703,-0.515901,0.001579,-1.341039,-262.516181,1.441113,69.998547
13.4359,-0.037517,-0.006107,0.002833,-1.3e-05,-0.000283,-0.00026,-0.036348,-0.516216,0.002778,-1.341039,-262.516181,1.441113,69.998547
13.4562,-0.037787,-0.006248,0.002101,-1.5e-05,-0.000283,-0.000253,-0.036348,-0.516216,0.002778,-1.341039,-262.516181,1.441113,69.998547
13.476,-0.03738,-0.006352,0.002613,-1.7e-05,-0.000283,-0.000248,-0.036715,-0.516251,0.002097,-1.416042,-262.51612,1.476285,69.99853
13.4959,-0.037384,-0.005997,0.002995,-2.5e-05,-0.000275,-5.9e-05,-0.036443,-0.516292,0.002307,-1.416042,-262.51612,1.476285,69.99853
13.5157,-0.037625,-0.005926,0.001064,-3.1e-05,-0.000269,7.2e-05,-0.035856,-0.515999,0.002991,-1.491044,-262.516026,1.442447,69.998502
13.5361,-0.037654,-0.006004,0.002765,-4.8e-05,-0.000258,0.000652,-0.03697,-0.515932,0.001239,-1.491044,-262.516026,1.442447,69.998502
13.5559,-0.037815,-0.006297,0.002019,-6e-05,-0.000254,0.00105,-0.03697,-0.515932,0.001239,-1.491044,-262.516026,1.442447,69.998502
13.5759,-0.037654,-0.005963,0.002144,-6.8e-05,-0.000255,0.001324,-0.036786,-0.516301,0.00202,-1.566036,-262.515984,1.473508,69.998443
13.5961,-0.037539,-0.005534,0.002378,-6.1e-05,-0.000265,0.001133,-0.036694,-0.516164,0.002071,-1.566036,-262.515984,1.473508,69.998443
13.6158,-0.038097,-0.00612,0.003861,-5.7e-05,-0.000272,0.000997,-0.036328,-0.515539,0.002411,-1.491033,-262.516159,1.50689,69.998108
13.636,-0.037881,-0.005956,0.003034,-2.8e-05,-0.000285,0.000316,-0.036147,-0.516064,0.00373,-1.491033,-262.516159,1.50689,69.998108
13.6559,-0.037699,-0.005721,0.00278,-7e-06,-0.000294,-0.000172,-0.036147,-0.516064,0.00373,-1.491033,-262.516159,1.50689,69.998108
13.6758,-0.03764,-0.006365,0.003334,7e-06,-0.0003,-0.000519,-0.036283,-0.515729,0.002817,-1.416033,-262.51628,1.506579,69.997795
13.6962,-0.037486,-0.006128,0.0025,5e-06,-0.000303,-0.000529,-0.036143,-0.515989,0.003033,-1.416033,-262.51628,1.506579,69.997795
13.7157,-0.037652,-0.00637,0.004262,3e-06,-0.000304,-0.000535,-0.036212,-0.516128,0.002497,-1.491038,-262.516244,1.431574,69.997796
13.7357,-0.037643,-0.00646,0.003941,1.6e-05,-0.000298,-0.000885,-0.035546,-0.516344,0.004099,-1.491038,-262.516244,1.431574,69.997796
13.7568,-0.037379,-0.006287,0.003485,2.5e-05,-0.000291,-0.001134,-0.035546,-0.516344,0.004099,-1.491038,-262.516244,1.431574,69.997796
13.7759,-0.037581,-0.005758,0.003722,3.1e-05,-0.000284,-0.001308,-0.035601,-0.516295,0.003465,-1.566048,-262.516015,1.449949,69.997804
13.7962,-0.037638,-0.006162,0.002433,2.7e-05,-0.000282,-0.001261,-0.035635,-0.516076,0.003567,-1.566048,-262.516015,1.449949,69.997804
13.8164,-0.03733,-0.006192,0.001943,2.4e-05,-0.00028,-0.001227,-0.036396,-0.516169,0.002394,-1.542281,-262.51561,1.510926,69.997997
13.8361,-0.037392,-0.006085,0.002309,-1e-06,-0.000257,-0.00058,-0.036345,-0.516189,0.001988,-1.542281,-262.51561,1.510926,69.997997
13.8561,-0.037771,-0.005891,0.000762,-1.9e-05,-0.000245,-0.000136,-0.036345,-0.516189,0.001988,-1.542281,-262.51561,1.510926,69.997997
13.8758,-0.037585,-0.006001,0.002148,-3.1e-05,-0.000239,0.000168,-0.037382,-0.515902,0.00071,-1.547532,-262.515199,1.519754,69.998184
13.8958,-0.037814,-0.006153,0.001972,-4.7e-05,-0.000232,0.000704,-0.037019,-0.515943,0.001288,-1.547532,-262.515199,1.519754,69.998184
13.9164,-0.037634,-0.006574,0.002889,-5.9e-05,-0.000232,0.00107,-0.036808,-0.516152,0.001972,-1.472536,-262.515199,1.479951,69.998184
13.936,-0.037507,-0.00618,0.002568,-4.5e-05,-0.000236,0.000675,-0.036217,-0.516535,0.00281,-1.472536,-262.515199,1.479951,69.998184
13.956,-0.037576,-0.006328,0.002217,-3.7e-05,-0.000238,0.000394,-0.036217,-0.516535,0.00281,-1.472536,-262.515199,1.479951,69.998184
13.9762,-0.037612,-0.006533,0.003942,-3.1e-05,-0.000239,0.000194,-0.036448,-0.516336,0.00226,-1.432396,-262.515364,1.504609,69.99784
13.9965,-0.037713,-0.006237,0.00319,-2.5e-05,-0.000242,-7e-06,-0.036093,-0.516418,0.002972,-1.432396,-262.515364,1.504609,69.99784
14.0162,-0.037494,-0.005668,0.001179,-2.1e-05,-0.000244,-0.000148,-0.036086,-0.516235,0.00319,-1.357154,-262.515364,1.483839,69.99784
14.0363,-0.037364,-0.00609,0.003646,-3.9e-05,-0.00024,0.000457,-0.036832,-0.51571,0.001329,-1.357154,-262.515364,1.483839,69.99784
14.0564,-0.037477,-0.006575,0.004073,-5.2e-05,-0.000244,0.000873,-0.036832,-0.51571,0.001329,-1.357154,-262.515364,1.483839,69.99784
14.0763,-0.03758,-0.006227,0.004063,-6e-05,-0.000252,0.001158,-0.035399,-0.516574,0.004071,-1.432306,-262.515327,1.434171,69.997823
14.0959,-0.037885,-0.006234,0.00223,-2.8e-05,-0.000254,0.000343,-0.035443,-0.516431,0.004068,-1.432306,-262.515327,1.434171,69.997823
14.1156,-0.037195,-0.00638,0.003256,-5e-06,-0.000255,-0.000246,-0.036749,-0.516239,0.002255,-1.393972,-262.515433,1.504546,69.997542
14.136,-0.037315,-0.006565,0.003426,-3e-06,-0.000254,-0.000382,-0.035644,-0.516366,0.003167,-1.393972,-262.515433,1.504546,69.997542
14.156,-0.037762,-0.006396,0.002909,-2e-06,-0.000252,-0.000478,-0.035644,-0.516366,0.003167,-1.393972,-262.515433,1.504546,69.997542
14.1762,-0.037564,-0.006275,0.003201,-3e-06,-0.00025,-0.000545,-0.036278,-0.5164,0.002903,-1.468975,-262.515342,1.521864,69.997519
14.1961,-0.037369,-0.006116,0.001827,-5e-06,-0.00025,-0.00054,-0.036137,-0.516349,0.003024,-1.468975,-262.515342,1.521864,69.997519
14.2161,-0.037528,-0.006406,0.001891,-8e-06,-0.00025,-0.000537,-0.036437,-0.516121,0.001814,-1.54397,-262.515166,1.596858,69.997544
14.2358,-0.03777,-0.006224,0.002485,-2.6e-05,-0.000235,-6.8e-05,-0.036551,-0.516378,0.001883,-1.54397,-262.515166,1.596858,69.997544
14.2557,-0.037819,-0.006397,0.003424,-3.9e-05,-0.000227,0.000254,-0.036551,-0.516378,0.001883,-1.54397,-262.515166,1.596858,69.997544
14.2762,-0.037612,-0.005981,-0.000333,-4.7e-05,-0.000223,0.000475,-0.036073,-0.516404,0.003403,-1.583857,-262.514959,1.667701,69.997572
14.2961,-0.037759,-0.00603,0.002862,-5.2e-05,-0.000227,0.000628,-0.036771,-0.516232,0.001875,-1.583857,-262.514959,1.667701,69.997572
14.3164,-0.037657,-0.006553,0.002061,-5.5e-05,-0.000231,0.000733,-0.0363,-0.516028,0.002862,-1.508851,-262.514959,1.592695,69.997572
14.3357,-0.037621,-0.006065,0.001956,-5.4e-05,-0.000232,0.000689,-0.036574,-0.516498,0.002143,-1.508851,-262.514959,1.592695,69.997572
14.3558,-0.037716,-0.006301,0.000949,-5.4e-05,-0.000232,0.000656,-0.036574,-0.516498,0.002143,-1.508851,-262.514959,1.592695,69.997572
14.3759,-0.03745,-0.006569,0.002251,-5.3e-05,-0.000233,0.000632,-0.037233,-0.516306,0.000964,-1.433851,-262.515002,1.517695,69.99744
14.3962,-0.03767,-0.006176,0.003053,-6.3e-05,-0.000226,0.000906,-0.036853,-0.516413,0.001491,-1.433851,-262.515002,1.517695,69.99744
14.4161,-0.037788,-0.006384,0.003862,-7e-05,-0.000224,0.001095,-0.036113,-0.516177,0.003064,-1.358853,-262.515035,1.484662,69.997311
14.4361,-0.03781,-0.00628,0.00301,-3.9e-05,-0.000235,0.000367,-0.035845,-0.516362,0.003789,-1.358853,-262.515035,1.484662,69.997311
14.4559,-0.037909,-0.006457,0.002705,-1.7e-05,-0.000243,-0.000154,-0.035845,-0.516362,0.003789,-1.358853,-262.515035,1.484662,69.997311
14.4761,-0.03754,-0.006312,0.003201,-2e-06,-0.000249,-0.000525,-0.036532,-0.516464,0.002749,-1.41527,-262.515207,1.492759,69.996971
14.4958,-0.037472,-0.006019,0.004766,-6e-06,-0.000248,-0.000498,-0.036281,-0.516402,0.002936,-1.41527,-262.515207,1.492759,69.996971
14.5156,-0.038184,-0.006021,0.005263,-9e-06,-0.000248,-0.000479,-0.035041,-0.516017,0.004757,-1.49027,-262.515082,1.56776,69.996987
14.5356,-0.037831,-0.006264,0.002623,2.1e-05,-0.000256,-0.001128,-0.035459,-0.516015,0.005217,-1.49027,-262.515082,1.56776,69.996987
14.5558,-0.037393,-0.006761,0.00293,4.3e-05,-0.000262,-0.001601,-0.035459,-0.516015,0.005217,-1.49027,-262.515082,1.56776,69.996987
14.5764,-0.03747,-0.006133,0.002507,5.8e-05,-0.000266,-0.001942,-0.035898,-0.516759,0.00293,-1.565258,-262.515082,1.492771,69.996987
14.5966,-0.037667,-0.006507,0.003204,3.3e-05,-0.000242,-0.001396,-0.036018,-0.516502,0.002757,-1.565258,-262.515082,1.492771,69.996987
14.6159,-0.037811,-0.006425,0.004295,1.5e-05,-0.000227,-0.001018,-0.036031,-0.516512,0.003143,-1.530557,-262.514513,1.507371,69.997348
14.6357,-0.037371,-0.00594,0.002998,2.4e-05,-0.000227,-0.001247,-0.035655,-0.516429,0.004194,-1.530557,-262.514513,1.507371,69.997348
14.6561,-0.03734,-0.006222,0.00242,3e-05,-0.000227,-0.001408,-0.035655,-0.516429,0.004194,-1.530557,-262.514513,1.507371,69.997348
14.6761,-0.037959,-0.00635,0.000343,3.4e-05,-0.000226,-0.001523,-0.036106,-0.516229,0.002378,-1.553348,-262.514179,1.533325,69.997504
14.6961,-0.037535,-0.006234,0.001172,1e-06,-0.000193,-0.000552,-0.036808,-0.516281,0.001521,-1.553348,-262.514179,1.533325,69.997504
14.7156,-0.037531,-0.006131,0.00279,-2.3e-05,-0.000178,0.000112,-0.036936,-0.516241,0.001124,-1.541552,-262.51372,1.522834,69.997783
14.7359,-0.037142,-0.006763,0.002699,-2.3e-05,-0.000193,7.9e-05,-0.03618,-0.516139,0.002642,-1.541552,-262.51372,1.522834,69.997783
14.7561,-0.037088,-0.006604,0.002362,-2.3e-05,-0.000206,5.1e-05,-0.03618,-0.516139,0.002642,-1.541552,-262.51372,1.522834,69.997783
14.7757,-0.037258,-0.006335,0.003627,-2.3e-05,-0.000217,2.8e-05,-0.035883,-0.516603,0.002362,-1.466836,-262.51372,1.478934,69.997783
14.7958,-0.037283,-0.006394,0.002914,-2.2e-05,-0.000217,-7.9e-05,-0.035689,-0.516492,0.00288,-1.466836,-262.51372,1.478934,69.997783
14.816,-0.037367,-0.006718,0.002355,-2.2e-05,-0.000217,-0.000157,-0.035797,-0.516395,0.002914,-1.54177,-262.513683,1.472246,69.99774
14.836,-0.037162,-0.006498,0.002299,-3e-05,-0.000208,-2.9e-05,-0.036133,-0.516688,0.002406,-1.54177,-262.513683,1.472246,69.99774
14.856,-0.037295,-0.006384,0.000989,-3.5e-05,-0.000202,5.8e-05,-0.036133,-0.516688,0.002406,-1.54177,-262.513683,1.472246,69.99774
