mach0312/omni-docking-bench/src/icros_test_setup/results/MPPI_sample/timeseries/trial_064.csv
t,x,y,yaw,vx,vy,wz,bl_x,bl_y,bl_yaw,front_steering_joint,front_wheel_joint,rear_steering_joint,rear_wheel_joint
0.0,0.019615,-0.020396,-0.001469,0.011986,-0.004507,-0.000724,0.018166,-0.530005,-9.4e-05,-0.391532,-257.224525,-0.326935,71.64759
0.0005,0.019747,-0.020724,-0.001843,0.006234,-0.002344,-0.000376,0.018166,-0.530005,-9.4e-05,-0.391532,-257.219105,-0.326935,71.652881
0.0008,0.01988,-0.020698,-0.001729,0.00513,-0.001929,-0.00031,0.018166,-0.530005,-9.4e-05,-0.391532,-257.21419,-0.326935,71.657678
0.0012,0.020339,-0.020451,-0.000962,0.003958,-0.001488,-0.000239,0.018995,-0.530439,0.000226,-0.391532,-257.210232,-0.326935,71.661541
0.0016,0.020274,-0.02069,3.7e-05,0.002697,-0.001014,-0.000163,0.018995,-0.530439,0.000226,-0.391532,-257.20709,-0.326935,71.664607
0.0019,0.020397,-0.020365,-0.00107,0.001387,-0.000522,-8.4e-05,0.018908,-0.53032,-0.000178,-0.391532,-257.205378,-0.326935,71.666279
0.0023,0.020422,-0.020806,-0.001106,0.0,0.0,0.0,0.018908,-0.53032,-0.000178,-0.391532,-257.204777,-0.326935,71.666865
0.0025,0.020702,-0.020469,-0.000966,0.0,0.0,0.0,0.019061,-0.530218,-0.001089,-0.391532,-257.204777,-0.326935,71.666865
0.0028,0.020724,-0.020515,-0.000708,0.0,0.0,0.0,0.018824,-0.530301,-0.001448,-0.391532,-257.204777,-0.326935,71.666865
0.003,0.020885,-0.020354,-0.001858,0.0,0.0,0.0,0.018824,-0.530301,-0.001448,-0.391532,-257.204777,-0.326935,71.666865
0.0157,0.020425,-0.020435,-0.001066,0.0,0.0,0.0,0.020355,-0.530513,-0.000732,-0.391532,-257.204777,-0.326935,71.666865
0.0355,0.020808,-0.021078,-0.00041,0.0,0.0,0.0,0.019882,-0.530434,-0.001066,-0.391532,-257.204777,-0.326935,71.666865
0.0556,0.020994,-0.020293,-0.001082,0.0,0.0,0.0,0.020169,-0.530692,-0.000803,-0.391532,-257.204777,-0.326935,71.666865
0.0752,0.020634,-0.021108,-0.002408,0.0,0.0,0.0,0.020442,-0.530293,-0.001082,-0.391532,-257.204777,-0.326935,71.666865
0.0953,0.020945,-0.021228,-0.001054,0.0,0.0,0.0,0.019502,-0.531031,-0.002285,-0.391532,-257.204777,-0.326935,71.666865
0.1154,0.020617,-0.020896,-0.001036,-0.005154,-1.7e-05,0.012185,0.019502,-0.531031,-0.002285,-0.391532,-257.204777,-0.326935,71.666865
0.1353,0.020791,-0.0209,-0.000276,-0.005624,4e-06,0.013269,0.020089,-0.530896,-0.001036,-0.391532,-257.204777,-0.326935,71.666865
0.1554,0.020973,-0.020996,-0.000159,-0.006067,3.6e-05,0.013273,0.020316,-0.530898,-0.000729,-0.391532,-257.204777,-0.326935,71.666865
0.1751,0.020379,-0.020784,-0.001878,-0.006443,6.4e-05,0.013323,0.020892,-0.530996,-0.000159,-0.466518,-257.204777,-0.251949,71.666865
0.1958,0.020628,-0.020871,7.4e-05,-0.006739,8.5e-05,0.013935,0.019548,-0.530801,-0.00173,-0.466518,-257.204777,-0.251949,71.666865
0.2154,0.020427,-0.021038,3e-05,-0.006994,0.000108,0.014383,0.019548,-0.530801,-0.00173,-0.466518,-257.204777,-0.251949,71.666865
0.2356,0.020738,-0.020755,-0.000832,-0.007215,0.000131,0.014712,0.020442,-0.531038,3e-05,-0.541649,-257.204777,-0.176818,71.666865
0.2555,0.020596,-0.02056,-0.000159,-0.007434,0.000161,0.014191,0.020388,-0.530919,-0.000333,-0.541649,-257.204777,-0.176818,71.666865
0.2755,0.020439,-0.020366,-0.000415,-0.007619,0.000185,0.013846,0.020515,-0.53056,-0.000159,-0.616991,-257.204777,-0.101477,71.666865
0.2956,0.020521,-0.020354,-0.00053,-0.007781,0.000196,0.013654,0.020252,-0.530383,-0.000393,-0.616991,-257.204777,-0.101477,71.666865
0.3159,0.020608,-0.020801,-0.001063,-0.007918,0.000204,0.013533,0.020252,-0.530383,-0.000393,-0.616991,-257.204777,-0.101477,71.666865
0.3356,0.020632,-0.020926,-0.000183,-0.008035,0.000211,0.01346,0.020066,-0.530801,-0.001063,-0.691566,-257.204778,-0.026901,71.666865
0.3556,0.020564,-0.021063,-0.000501,-0.008122,0.000222,0.013596,0.020257,-0.530851,-0.000708,-0.691566,-257.204778,-0.026901,71.666865
0.3755,0.020814,-0.020268,-0.001602,-0.008198,0.000232,0.013696,0.020308,-0.531063,-0.000501,-0.766525,-257.204778,0.048058,71.666864
0.3958,0.020747,-0.020516,3e-05,-0.008254,0.000226,0.014208,0.020024,-0.530337,-0.001506,-0.766525,-257.204778,0.048058,71.666864
0.4155,0.020633,-0.020988,-0.000644,-0.008306,0.000226,0.014562,0.020024,-0.530337,-0.001506,-0.766525,-257.204778,0.048058,71.666864
0.4354,0.020513,-0.02061,-6.9e-05,-0.008353,0.000229,0.014805,0.020304,-0.530988,-0.000644,-0.809092,-257.204779,0.12317,71.666863
0.4554,0.02068,-0.02104,-0.000278,-0.008409,0.00025,0.014369,0.020374,-0.530835,-0.000411,-0.809092,-257.204779,0.12317,71.666863
0.4751,0.020837,-0.020896,-0.001513,-0.008455,0.000265,0.01407,0.020538,-0.53104,-0.000278,-0.837429,-257.20478,0.198054,71.666862
0.4958,0.021087,-0.020976,-0.000448,-0.008472,0.00027,0.014422,0.020103,-0.530907,-0.001416,-0.837429,-257.20478,0.198054,71.666862
0.5155,0.020568,-0.020693,-0.000976,-0.00849,0.000276,0.014665,0.020103,-0.530907,-0.001416,-0.837429,-257.20478,0.198054,71.666862
0.5353,0.020438,-0.020948,0.000294,-0.008506,0.000282,0.014832,0.020068,-0.530693,-0.000975,-0.808714,-257.204797,0.273416,71.666846
0.5557,0.020617,-0.02039,-0.000475,-0.00854,0.000298,0.014417,0.020278,-0.530796,-0.000463,-0.808714,-257.204797,0.273416,71.666846
0.5755,0.020562,-0.020656,-0.000384,-0.008567,0.000308,0.014133,0.020372,-0.530389,-0.000472,-0.832136,-257.204844,0.348056,71.6668
0.5957,0.020687,-0.020886,-0.000434,-0.008593,0.000313,0.0139,0.020367,-0.530632,-0.000392,-0.832136,-257.204844,0.348056,71.6668
0.6156,0.020563,-0.020772,-0.001252,-0.008614,0.000315,0.013741,0.020367,-0.530632,-0.000392,-0.832136,-257.204844,0.348056,71.6668
0.6355,0.02046,-0.020828,-0.001242,-0.008631,0.000316,0.013635,0.019903,-0.530767,-0.001227,-0.806723,-257.2051,0.423061,71.666553
0.6555,0.02047,-0.020894,-0.000896,-0.008623,0.000315,0.014032,0.019869,-0.530791,-0.001231,-0.806723,-257.2051,0.423061,71.666553
0.6756,0.020373,-0.020658,-0.000538,-0.008618,0.000318,0.014307,0.019959,-0.530885,-0.00083,-0.786077,-257.205968,0.498051,71.665716
0.6954,0.020518,-0.02053,-0.000457,-0.008631,0.000325,0.014121,0.020084,-0.530677,-0.00056,-0.786077,-257.205968,0.498051,71.665716
0.7155,0.020308,-0.020711,-0.000102,-0.008641,0.00033,0.013993,0.020084,-0.530677,-0.00056,-0.786077,-257.205968,0.498051,71.665716
0.7353,0.020076,-0.020805,0.000969,-0.008648,0.000333,0.013905,0.020143,-0.530696,5.2e-05,-0.81014,-257.207411,0.573143,71.664326
0.7554,0.020249,-0.020969,0.001282,-0.008669,0.000347,0.013327,0.020303,-0.530738,0.000442,-0.81014,-257.207411,0.573143,71.664326
0.776,0.020371,-0.020611,0.00102,-0.008684,0.000355,0.012926,0.020735,-0.530954,0.001524,-0.79556,-257.210287,0.648057,71.661559
0.7957,0.020232,-0.020357,0.002131,-0.00871,0.000357,0.012408,0.020864,-0.530646,0.001088,-0.79556,-257.210287,0.648057,71.661559
0.8158,0.020161,-0.02072,-9.3e-05,-0.008729,0.000355,0.012052,0.020864,-0.530646,0.001088,-0.79556,-257.210287,0.648057,71.661559
0.8353,0.019624,-0.020788,0.000559,-0.008744,0.000351,0.011809,0.019783,-0.530706,0.000399,-0.759722,-257.214647,0.714992,71.657372
0.8552,0.019359,-0.020524,6.4e-05,-0.008734,0.000358,0.011916,0.019796,-0.530738,0.000521,-0.759722,-257.214647,0.714992,71.657372
0.8752,0.018266,-0.020969,0.002361,-0.008725,0.000365,0.012001,0.019132,-0.530514,0.000414,-0.713093,-257.218948,0.66533,71.653237
0.8961,0.01828,-0.02074,0.0009,-0.008719,0.000399,0.011448,0.019429,-0.530929,0.002212,-0.713093,-257.218948,0.66533,71.653237
0.9159,0.018653,-0.020696,0.000849,-0.008712,0.000423,0.011058,0.019429,-0.530929,0.002212,-0.713093,-257.218948,0.66533,71.653237
0.9357,0.017645,-0.020438,0.000438,-0.008703,0.000439,0.010787,0.018721,-0.530681,0.001351,-0.722723,-257.223587,0.67365,71.648786
0.9554,0.017642,-0.020931,0.001608,-0.008673,0.000452,0.011051,0.018332,-0.530581,0.001037,-0.722723,-257.223587,0.67365,71.648786
0.9755,0.016977,-0.020669,0.001276,-0.008648,0.000464,0.011246,0.018209,-0.530918,0.001923,-0.679265,-257.227697,0.61509,71.64487
0.9957,0.016771,-0.02081,0.001411,-0.008615,0.000493,0.011271,0.017665,-0.530689,0.001347,-0.679265,-257.227697,0.61509,71.64487
1.0154,0.017188,-0.020878,0.002745,-0.008586,0.000518,0.011297,0.017665,-0.530689,0.001347,-0.679265,-257.227697,0.61509,71.64487
1.0353,0.016627,-0.02094,0.002679,-0.008561,0.000538,0.011322,0.018233,-0.530858,0.003206,-0.703233,-257.232154,0.637459,71.64064
1.0554,0.01638,-0.020463,0.002448,-0.008551,0.00057,0.010842,0.018093,-0.530889,0.003043,-0.703233,-257.232154,0.637459,71.64064
1.0755,0.01569,-0.020541,0.004023,-0.00854,0.000593,0.010494,0.017357,-0.530445,0.002807,-0.716373,-257.236683,0.640234,71.63638
1.096,0.015633,-0.020448,0.002263,-0.008529,0.000617,0.010069,0.017696,-0.530528,0.003937,-0.716373,-257.236683,0.640234,71.63638
1.1157,0.0152,-0.020343,0.003872,-0.008518,0.000634,0.009756,0.017696,-0.530528,0.003937,-0.716373,-257.236683,0.640234,71.63638
1.1356,0.015208,-0.020752,0.003444,-0.008506,0.000646,0.009528,0.016832,-0.530317,0.004291,-0.686768,-257.240908,0.597862,71.632427
1.1557,0.014956,-0.020248,0.004299,-0.008479,0.00067,0.009362,0.016847,-0.530491,0.003994,-0.686768,-257.240908,0.597862,71.632427
1.1755,0.014204,-0.020677,0.00353,-0.008454,0.000688,0.009246,0.016895,-0.530225,0.004584,-0.649939,-257.244922,0.546382,71.628687
1.1958,0.014539,-0.020455,0.004135,-0.008412,0.000716,0.009249,0.016069,-0.530634,0.003635,-0.649939,-257.244922,0.546382,71.628687
1.2156,0.014157,-0.020266,0.003722,-0.008376,0.000738,0.009258,0.016069,-0.530634,0.003635,-0.649939,-257.244922,0.546382,71.628687
1.2357,0.014325,-0.020308,0.006119,-0.008344,0.000758,0.00927,0.015704,-0.530235,0.004107,-0.643066,-257.249127,0.530464,71.624786
1.2557,0.013602,-0.020545,0.004231,-0.008331,0.000771,0.00904,0.016379,-0.530258,0.004978,-0.643066,-257.249127,0.530464,71.624786
1.2754,0.01283,-0.020264,0.006986,-0.008319,0.00078,0.008869,0.015496,-0.530517,0.004525,-0.655778,-257.253344,0.531352,71.620909
1.2954,0.013427,-0.020559,0.00622,-0.008306,0.000787,0.008545,0.016314,-0.530271,0.006813,-0.655778,-257.253344,0.531352,71.620909
1.3158,0.012908,-0.020355,0.005111,-0.008294,0.000791,0.008292,0.016314,-0.530271,0.006813,-0.655778,-257.253344,0.531352,71.620909
1.3357,0.012044,-0.020617,0.005679,-0.008283,0.000792,0.008096,0.015171,-0.530318,0.005477,-0.640293,-257.257421,0.508475,71.617166
1.3553,0.011976,-0.020673,0.007589,-0.008241,0.000816,0.008083,0.015039,-0.530431,0.005599,-0.640293,-257.257421,0.508475,71.617166
1.3753,0.011994,-0.020885,0.005763,-0.008204,0.000835,0.008075,0.015595,-0.530636,0.007835,-0.605733,-257.261256,0.464746,71.61364
1.3955,0.011824,-0.020511,0.005215,-0.008164,0.000858,0.008019,0.01498,-0.530854,0.005962,-0.605733,-257.261256,0.464746,71.61364
1.4153,0.011726,-0.020215,0.005542,-0.008129,0.000878,0.007979,0.01498,-0.530854,0.005962,-0.605733,-257.261256,0.464746,71.61364
1.4354,0.011151,-0.020205,0.005587,-0.008099,0.000894,0.007949,0.014209,-0.530174,0.00588,-0.612683,-257.265264,0.46308,71.609975
1.4554,0.011121,-0.020585,0.006992,-0.008061,0.000914,0.007944,0.014085,-0.530179,0.0058,-0.612683,-257.265264,0.46308,71.609975
1.4754,0.010493,-0.020261,0.006697,-0.008029,0.000932,0.00794,0.014429,-0.530546,0.007245,-0.617293,-257.269239,0.4549,71.606366
1.4965,0.010559,-0.020441,0.006255,-0.007996,0.00095,0.007821,0.013939,-0.530274,0.006755,-0.617293,-257.269239,0.4549,71.606366
1.5156,0.010787,-0.020225,0.005333,-0.007967,0.000965,0.00773,0.013939,-0.530274,0.006755,-0.617293,-257.269239,0.4549,71.606366
1.5353,0.009859,-0.020515,0.006414,-0.007942,0.000978,0.00766,0.013172,-0.530181,0.005664,-0.624017,-257.273192,0.453943,71.602797
1.5556,0.00993,-0.020367,0.008519,-0.007897,0.001002,0.007694,0.013116,-0.530309,0.006011,-0.624017,-257.273192,0.453943,71.602797
1.5753,0.009294,-0.020063,0.009186,-0.007859,0.001023,0.007719,0.014023,-0.53032,0.008762,-0.61887,-257.277069,0.436103,71.599312
1.5953,0.009518,-0.020286,0.007412,-0.007856,0.001019,0.007486,0.013971,-0.530064,0.009161,-0.61887,-257.277069,0.436103,71.599312
1.6156,0.009661,-0.020045,0.007274,-0.007853,0.001016,0.0073,0.013971,-0.530064,0.009161,-0.61887,-257.277069,0.436103,71.599312
1.6354,0.008328,-0.020425,0.006446,-0.007849,0.001011,0.007151,0.013043,-0.529991,0.007596,-0.630599,-257.280947,0.439163,71.595852
1.6555,0.008931,-0.020272,0.007336,-0.007799,0.001037,0.007165,0.012426,-0.530158,0.007167,-0.630599,-257.280947,0.439163,71.595852
1.6756,0.008318,-0.02043,0.007314,-0.007757,0.001059,0.007175,0.01243,-0.530229,0.007557,-0.600776,-257.284652,0.404084,71.592528
1.6956,0.008159,-0.019951,0.010473,-0.007705,0.001086,0.007163,0.012066,-0.530402,0.007341,-0.600776,-257.284652,0.404084,71.592528
1.7157,0.00819,-0.02039,0.008414,-0.007662,0.001109,0.007153,0.012066,-0.530402,0.007341,-0.600776,-257.284652,0.404084,71.592528
1.7353,0.007496,-0.02007,0.008897,-0.007624,0.001129,0.007145,0.01216,-0.530331,0.008711,-0.611719,-257.288409,0.404784,71.589182
1.7553,0.007704,-0.020185,0.007728,-0.007597,0.001142,0.007031,0.012071,-0.530211,0.008822,-0.611719,-257.288409,0.404784,71.589182
1.7753,0.006943,-0.019706,0.008361,-0.007573,0.001152,0.006941,0.011403,-0.530136,0.007954,-0.624345,-257.292161,0.401295,71.585875
1.7961,0.007017,-0.020163,0.009184,-0.007535,0.00117,0.006893,0.011212,-0.529726,0.008337,-0.624345,-257.292161,0.401295,71.585875
1.8154,0.007138,-0.019997,0.008921,-0.007502,0.001185,0.006856,0.011212,-0.529726,0.008337,-0.624345,-257.292161,0.401295,71.585875
1.8355,0.006673,-0.020076,0.00962,-0.007473,0.001198,0.006826,0.011372,-0.529932,0.00921,-0.618634,-257.295861,0.387126,71.582619
1.8554,0.006904,-0.020085,0.009576,-0.007452,0.001206,0.006742,0.01142,-0.529976,0.009411,-0.618634,-257.295861,0.387126,71.582619
1.876,0.006066,-0.019807,0.008663,-0.007434,0.001212,0.006675,0.01155,-0.530026,0.009793,-0.622821,-257.299541,0.378332,71.579403
1.8961,0.006039,-0.02024,0.009535,-0.007395,0.00123,0.006651,0.010587,-0.529812,0.008802,-0.622821,-257.299541,0.378332,71.579403
1.9154,0.006184,-0.020239,0.008893,-0.007362,0.001245,0.006631,0.010587,-0.529812,0.008802,-0.622821,-257.299541,0.378332,71.579403
1.9353,0.005426,-0.019979,0.009903,-0.007333,0.001258,0.006616,0.010408,-0.530171,0.009173,-0.618361,-257.303185,0.367727,71.576222
1.9556,0.005546,-0.019966,0.009203,-0.007299,0.001272,0.006566,0.0104,-0.530077,0.009503,-0.618361,-257.303185,0.367727,71.576222
1.9753,0.00484,-0.019983,0.01041,-0.00727,0.001285,0.006526,0.010006,-0.529906,0.009413,-0.625682,-257.306797,0.362688,71.57309
1.9956,0.004669,-0.019721,0.009554,-0.007239,0.001297,0.006463,0.010125,-0.529949,0.010332,-0.625682,-257.306797,0.362688,71.57309
2.0157,0.004819,-0.019946,0.008808,-0.007213,0.001306,0.006412,0.010125,-0.529949,0.010332,-0.625682,-257.306797,0.362688,71.57309
2.0353,0.004554,-0.019465,0.009845,-0.007191,0.001314,0.006371,0.009008,-0.529876,0.00908,-0.627297,-257.310381,0.355732,71.569995
2.0553,0.004244,-0.019683,0.010058,-0.007143,0.001335,0.006371,0.009203,-0.529693,0.009423,-0.627297,-257.310381,0.355732,71.569995
2.0757,0.003912,-0.019694,0.0106,-0.007101,0.001352,0.00637,0.009144,-0.529618,0.010261,-0.626561,-257.313924,0.344104,71.566945
2.0955,0.003987,-0.01996,0.010294,-0.007072,0.001363,0.006325,0.009291,-0.529659,0.01058,-0.626561,-257.313924,0.344104,71.566945
2.1164,0.003775,-0.019493,0.009565,-0.007047,0.001373,0.006289,0.009291,-0.529659,0.01058,-0.626561,-257.313924,0.344104,71.566945
2.1358,0.003441,-0.019783,0.012689,-0.007026,0.001381,0.006259,0.008353,-0.529416,0.009833,-0.635925,-257.31745,0.343268,71.563933
2.1556,0.003111,-0.019876,0.010149,-0.006998,0.001391,0.006223,0.00894,-0.52954,0.011,-0.635925,-257.31745,0.343268,71.563933
2.1756,0.002729,-0.019783,0.009858,-0.006974,0.001399,0.006194,0.008062,-0.529808,0.010349,-0.63745,-257.320943,0.334547,71.560962
2.1955,0.00279,-0.019617,0.011979,-0.006903,0.001426,0.006202,0.007772,-0.52976,0.009912,-0.63745,-257.320943,0.334547,71.560962
2.2155,0.002597,-0.019739,0.011955,-0.006843,0.00145,0.006208,0.007772,-0.52976,0.009912,-0.63745,-257.320943,0.334547,71.560962
2.2358,0.002391,-0.019779,0.013038,-0.006792,0.00147,0.006213,0.008401,-0.529647,0.012214,-0.639049,-257.324417,0.329349,71.558014
2.2554,0.002227,-0.019829,0.012497,-0.006789,0.001472,0.00616,0.008627,-0.529677,0.012579,-0.639049,-257.324417,0.329349,71.558014
2.2753,0.001816,-0.019842,0.01242,-0.006787,0.001473,0.006117,0.008384,-0.529745,0.012695,-0.659368,-257.327831,0.329784,71.555162
2.2958,0.001968,-0.019413,0.012429,-0.006765,0.001481,0.006081,0.00816,-0.529795,0.012455,-0.659368,-257.327831,0.329784,71.555162
2.3161,0.001709,-0.01947,0.012781,-0.006746,0.001488,0.006053,0.00816,-0.529795,0.012455,-0.659368,-257.327831,0.329784,71.555162
2.3355,0.00115,-0.019131,0.012401,-0.00673,0.001494,0.00603,0.007942,-0.52937,0.013037,-0.654594,-257.331249,0.321771,71.552304
2.3553,0.001535,-0.019723,0.012245,-0.006709,0.001501,0.006006,0.007721,-0.529251,0.01281,-0.654594,-257.331249,0.321771,71.552304
2.3754,0.000734,-0.019048,0.013861,-0.00669,0.001507,0.005987,0.007565,-0.529639,0.012437,-0.65561,-257.334648,0.314485,71.549471
2.3956,0.000985,-0.019483,0.011898,-0.006681,0.001511,0.005964,0.007772,-0.529051,0.013749,-0.65561,-257.334648,0.314485,71.549471
2.4153,0.000543,-0.019374,0.012792,-0.006673,0.001514,0.005945,0.007772,-0.529051,0.013749,-0.65561,-257.334648,0.314485,71.549471
2.4355,0.000408,-0.019288,0.011513,-0.006667,0.001516,0.00593,0.006786,-0.529273,0.013042,-0.65733,-257.338026,0.310844,71.546663
2.4556,0.000398,-0.019602,0.012942,-0.006604,0.001534,0.005926,0.006546,-0.529258,0.012446,-0.65733,-257.338026,0.310844,71.546663
2.4752,-0.000388,-0.019687,0.015032,-0.006552,0.00155,0.005923,0.006786,-0.529514,0.01313,-0.65654,-257.341396,0.305957,71.543863
2.4961,-5.8e-05,-0.019315,0.012485,-0.006534,0.001558,0.005907,0.007227,-0.529617,0.014883,-0.65654,-257.341396,0.305957,71.543863
2.5153,-0.000154,-0.019391,0.012014,-0.006518,0.001565,0.005895,0.007227,-0.529617,0.014883,-0.65654,-257.341396,0.305957,71.543863
2.5355,-0.000643,-0.019146,0.013542,-0.006505,0.001571,0.005885,0.0057,-0.529293,0.012261,-0.667831,-257.344722,0.30563,71.541125
2.5552,-0.000935,-0.018879,0.013817,-0.006441,0.001588,0.005884,0.005899,-0.529207,0.012814,-0.667831,-257.344722,0.30563,71.541125
2.5755,-0.001019,-0.018904,0.016108,-0.006386,0.001603,0.005883,0.005904,-0.528783,0.014003,-0.671039,-257.348053,0.301537,71.538393
2.5953,-0.001159,-0.018919,0.013219,-0.006399,0.001602,0.005872,0.007082,-0.528831,0.015947,-0.671039,-257.348053,0.301537,71.538393
2.6152,-0.001179,-0.018903,0.014029,-0.00641,0.001601,0.005863,0.007082,-0.528831,0.015947,-0.671039,-257.348053,0.301537,71.538393
2.6358,-0.001511,-0.019086,0.013556,-0.006419,0.0016,0.005855,0.005709,-0.528789,0.014274,-0.683064,-257.35133,0.302085,71.53573
2.6555,-0.001191,-0.019124,0.015294,-0.006358,0.001616,0.005851,0.005552,-0.528885,0.014008,-0.683064,-257.35133,0.302085,71.53573
2.6751,-0.001927,-0.018882,0.013595,-0.006306,0.00163,0.005848,0.006404,-0.529016,0.01548,-0.678639,-257.354629,0.298667,71.533044
2.6956,-0.002112,-0.01868,0.014498,-0.006243,0.001646,0.005845,0.005114,-0.528847,0.013762,-0.678639,-257.354629,0.298667,71.533044
2.7156,-0.002319,-0.019096,0.015671,-0.006189,0.00166,0.005843,0.005114,-0.528847,0.013762,-0.678639,-257.354629,0.298667,71.533044
2.7354,-0.002302,-0.019119,0.013229,-0.006143,0.001672,0.005842,0.005409,-0.52897,0.015914,-0.689678,-257.357889,0.29866,71.530412
2.7554,-0.002235,-0.018575,0.014989,-0.006098,0.001685,0.005837,0.004982,-0.529005,0.014839,-0.689678,-257.357889,0.29866,71.530412
2.7754,-0.003419,-0.018801,0.015472,-0.006059,0.001696,0.005834,0.005214,-0.528467,0.015174,-0.706175,-257.361107,0.299379,71.52785
2.7955,-0.002784,-0.018798,0.015211,-0.006007,0.001709,0.005829,0.004525,-0.528714,0.015456,-0.706175,-257.361107,0.299379,71.52785
2.8155,-0.002814,-0.01857,0.014974,-0.005964,0.00172,0.005825,0.004525,-0.528714,0.015456,-0.706175,-257.361107,0.299379,71.52785
2.8353,-0.003252,-0.018797,0.016199,-0.005927,0.00173,0.005823,0.004569,-0.528446,0.015218,-0.714801,-257.36431,0.29895,71.525318
2.8552,-0.003703,-0.018854,0.0151,-0.005908,0.001736,0.005819,0.004721,-0.528555,0.015649,-0.714801,-257.36431,0.29895,71.525318
2.875,-0.003685,-0.018332,0.015477,-0.005891,0.001742,0.005817,0.003809,-0.528743,0.015285,-0.728286,-257.367477,0.298853,71.522845
2.8961,-0.00406,-0.018455,0.016412,-0.005852,0.001751,0.005814,0.004164,-0.528309,0.015469,-0.728286,-257.367477,0.298853,71.522845
2.9151,-0.003674,-0.018222,0.015009,-0.005819,0.001758,0.005811,0.004164,-0.528309,0.015469,-0.728286,-257.367477,0.298853,71.522845
2.9351,-0.004049,-0.018741,0.016267,-0.005792,0.001765,0.005809,0.003733,-0.528095,0.015252,-0.732128,-257.370641,0.298194,71.520383
2.9552,-0.004731,-0.018523,0.015469,-0.005755,0.001773,0.005807,0.003914,-0.528323,0.015694,-0.732128,-257.370641,0.298194,71.520383
2.9751,-0.004539,-0.018452,0.01701,-0.005725,0.00178,0.005806,0.002972,-0.528409,0.015654,-0.742343,-257.373779,0.298646,71.517963
2.9952,-0.005058,-0.018538,0.015262,-0.005703,0.001786,0.005804,0.004023,-0.528378,0.016898,-0.742343,-257.373779,0.298646,71.517963
3.0153,-0.004727,-0.018575,0.01717,-0.005685,0.00179,0.005802,0.004023,-0.528378,0.016898,-0.742343,-257.373779,0.298646,71.517963
3.0355,-0.005527,-0.018102,0.016957,-0.00567,0.001795,0.005801,0.003789,-0.52843,0.017413,-0.749283,-257.376905,0.299216,71.515569
3.0556,-0.00514,-0.018553,0.015547,-0.00563,0.001802,0.0058,0.003489,-0.528258,0.017255,-0.749283,-257.376905,0.299216,71.515569
3.0756,-0.005653,-0.018256,0.017985,-0.005597,0.001808,0.005799,0.002607,-0.528437,0.015731,-0.755272,-257.380018,0.299142,71.513197
3.0957,-0.006027,-0.018397,0.01628,-0.005566,0.001814,0.005798,0.003429,-0.528194,0.017794,-0.755272,-257.380018,0.299142,71.513197
3.1155,-0.005755,-0.018084,0.016332,-0.00554,0.001819,0.005797,0.003429,-0.528194,0.017794,-0.755272,-257.380018,0.299142,71.513197
3.1356,-0.006102,-0.01826,0.017866,-0.005518,0.001824,0.005796,0.002339,-0.527944,0.016574,-0.762836,-257.383112,0.300322,71.510855
3.1558,-0.005956,-0.017847,0.017721,-0.005457,0.001831,0.005795,0.002584,-0.528031,0.017127,-0.762836,-257.383112,0.300322,71.510855
3.1753,-0.006158,-0.018332,0.017701,-0.005405,0.001838,0.005794,0.002905,-0.527712,0.017906,-0.77119,-257.386186,0.301542,71.508547
3.1955,-0.006597,-0.018423,0.016991,-0.005375,0.001844,0.005794,0.002863,-0.5282,0.017729,-0.77119,-257.386186,0.301542,71.508547
3.2153,-0.00624,-0.018253,0.01913,-0.00535,0.001848,0.005793,0.002863,-0.5282,0.017729,-0.77119,-257.386186,0.301542,71.508547
3.2358,-0.006804,-0.018356,0.017874,-0.005329,0.001852,0.005793,0.003289,-0.528087,0.019372,-0.782804,-257.38923,0.304807,71.506285
3.2561,-0.006759,-0.018134,0.01768,-0.00531,0.001856,0.005792,0.002862,-0.528155,0.018786,-0.782804,-257.38923,0.304807,71.506285
3.2751,-0.007518,-0.017837,0.019292,-0.005294,0.001859,0.005792,0.002087,-0.527998,0.017864,-0.791131,-257.392258,0.306441,71.504052
3.2952,-0.007602,-0.018459,0.018049,-0.005253,0.001863,0.005791,0.002291,-0.527762,0.019176,-0.791131,-257.392258,0.306441,71.504052
3.316,-0.00703,-0.017819,0.017064,-0.005218,0.001867,0.00579,0.002291,-0.527762,0.019176,-0.791131,-257.392258,0.306441,71.504052
3.3357,-0.007606,-0.0177,0.018362,-0.005188,0.001871,0.005789,0.001448,-0.52767,0.017309,-0.794915,-257.39528,0.307048,71.501831
3.3556,-0.007857,-0.017985,0.016547,-0.005124,0.001876,0.005788,0.001546,-0.52764,0.017753,-0.794915,-257.39528,0.307048,71.501831
3.3751,-0.008057,-0.01807,0.017153,-0.005069,0.00188,0.005788,0.000415,-0.527859,0.016731,-0.806052,-257.398282,0.310493,71.499649
3.3958,-0.007896,-0.017644,0.019954,-0.004974,0.001884,0.005788,0.000661,-0.527982,0.017128,-0.806052,-257.398282,0.310493,71.499649
3.4156,-0.008208,-0.017533,0.019324,-0.004894,0.001887,0.005788,0.000661,-0.527982,0.017128,-0.806052,-257.398282,0.310493,71.499649
3.4356,-0.008567,-0.017556,0.018108,-0.004827,0.001891,0.005789,0.001435,-0.527364,0.019565,-0.818356,-257.40123,0.315523,71.497529
3.4556,-0.008303,-0.017806,0.017947,-0.004795,0.001895,0.005788,0.001098,-0.527399,0.019001,-0.818356,-257.40123,0.315523,71.497529
3.4752,-0.008845,-0.017797,0.019029,-0.004768,0.001898,0.005787,0.000697,-0.527667,0.018129,-0.843831,-257.404102,0.328382,71.495513
3.4952,-0.008799,-0.017469,0.020882,-0.004729,0.001901,0.005786,0.000838,-0.527698,0.01896,-0.843831,-257.404102,0.328382,71.495513
3.5153,-0.008706,-0.017558,0.01925,-0.004697,0.001904,0.005786,0.000838,-0.527698,0.01896,-0.843831,-257.404102,0.328382,71.495513
3.5352,-0.009114,-0.017049,0.019907,-0.00467,0.001907,0.005785,0.000911,-0.527388,0.019491,-0.850484,-257.406987,0.330644,71.493501
3.5554,-0.009266,-0.017734,0.020114,-0.004653,0.001909,0.005784,0.000939,-0.5272,0.019689,-0.850484,-257.406987,0.330644,71.493501
3.5754,-0.009832,-0.017426,0.019879,-0.004639,0.001911,0.005783,0.000842,-0.527573,0.020298,-0.861461,-257.409852,0.335218,71.491525
3.5955,-0.009641,-0.017429,0.020534,-0.004592,0.001912,0.005782,0.000345,-0.527343,0.019924,-0.861461,-257.409852,0.335218,71.491525
3.6157,-0.009639,-0.017574,0.019981,-0.004553,0.001913,0.005781,0.000345,-0.527343,0.019924,-0.861461,-257.409852,0.335218,71.491525
3.6351,-0.010233,-0.017312,0.021383,-0.00452,0.001915,0.005781,0.000355,-0.527396,0.020223,-0.864964,-257.412711,0.336111,71.48956
3.6551,-0.010166,-0.017248,0.019943,-0.004498,0.001916,0.00578,0.000462,-0.527305,0.020725,-0.864964,-257.412711,0.336111,71.48956
3.6755,-0.010524,-0.017662,0.019969,-0.00448,0.001918,0.00578,-0.00014,-0.527089,0.020126,-0.878015,-257.415529,0.343407,71.487649
3.6953,-0.010178,-0.017806,0.019486,-0.004419,0.001916,0.00578,-0.00033,-0.527515,0.019993,-0.878015,-257.415529,0.343407,71.487649
3.7154,-0.009989,-0.017521,0.021754,-0.004369,0.001915,0.00578,-0.00033,-0.527515,0.019993,-0.878015,-257.415529,0.343407,71.487649
3.7359,-0.01062,-0.017266,0.021254,-0.004326,0.001915,0.00578,0.000915,-0.527325,0.021996,-0.882572,-257.418349,0.34549,71.485745
3.7559,-0.010931,-0.017185,0.020218,-0.004344,0.001918,0.00578,0.00061,-0.527245,0.021722,-0.882572,-257.418349,0.34549,71.485745
3.7754,-0.010935,-0.017365,0.021786,-0.004359,0.00192,0.005779,-0.000759,-0.527023,0.020401,-0.899399,-257.421116,0.357264,71.483908
3.7954,-0.011263,-0.017185,0.020919,-0.00434,0.001921,0.005779,8.7e-05,-0.527222,0.021674,-0.899399,-257.421116,0.357264,71.483908
3.8154,-0.010883,-0.016761,0.022344,-0.004325,0.001922,0.005778,8.7e-05,-0.527222,0.021674,-0.899399,-257.421116,0.357264,71.483908
3.8353,-0.011894,-0.016894,0.019032,-0.004312,0.001923,0.005778,0.000328,-0.526557,0.022586,-0.896218,-257.423906,0.353692,71.482051
3.8558,-0.011355,-0.017115,0.020287,-0.004252,0.001919,0.005776,-0.000724,-0.526649,0.021158,-0.896218,-257.423906,0.353692,71.482051
3.8752,-0.011731,-0.016975,0.02153,-0.004201,0.001916,0.005775,-0.001148,-0.526952,0.020471,-0.901614,-257.426685,0.356553,71.480211
3.8953,-0.011745,-0.016793,0.02114,-0.004156,0.001913,0.005775,-0.000795,-0.526863,0.021444,-0.901614,-257.426685,0.356553,71.480211
3.9154,-0.012139,-0.016743,0.021649,-0.004118,0.001912,0.005775,-0.000795,-0.526863,0.021444,-0.901614,-257.426685,0.356553,71.480211
3.9354,-0.01245,-0.01666,0.021542,-0.004086,0.00191,0.005775,-0.001275,-0.526548,0.02189,-0.913433,-257.429424,0.36625,71.478418
3.9562,-0.012643,-0.016693,0.0213,-0.004023,0.001904,0.005774,-0.001373,-0.526536,0.021775,-0.913433,-257.429424,0.36625,71.478418
3.9751,-0.012602,-0.016239,0.021747,-0.003969,0.0019,0.005774,-0.001912,-0.526519,0.021484,-0.926352,-257.432137,0.376777,71.476666
3.9951,-0.012719,-0.01651,0.02134,-0.003912,0.001894,0.005774,-0.001552,-0.526149,0.021733,-0.926352,-257.432137,0.376777,71.476666
4.0154,-0.012609,-0.016892,0.02371,-0.003864,0.001889,0.005773,-0.001552,-0.526149,0.021733,-0.926352,-257.432137,0.376777,71.476666
4.0356,-0.012719,-0.016414,0.02194,-0.003823,0.001886,0.005773,-0.000685,-0.526674,0.02395,-0.939236,-257.434805,0.388959,71.474963
4.056,-0.013152,-0.016998,0.022004,-0.003822,0.001888,0.005774,-0.001048,-0.52651,0.023161,-0.939236,-257.434805,0.388959,71.474963
4.0759,-0.013264,-0.01654,0.022801,-0.00382,0.00189,0.005774,-0.002053,-0.526817,0.022186,-0.955732,-257.437437,0.405194,71.473311
4.0957,-0.013105,-0.016625,0.023104,-0.00378,0.001886,0.005773,-0.001681,-0.526442,0.022755,-0.955732,-257.437437,0.405194,71.473311
4.1158,-0.012996,-0.016838,0.022744,-0.003746,0.001883,0.005773,-0.001681,-0.526442,0.022755,-0.955732,-257.437437,0.405194,71.473311
4.1357,-0.013238,-0.016543,0.023328,-0.003718,0.001881,0.005773,-0.001559,-0.526631,0.022986,-0.956534,-257.440088,0.404609,71.471648
4.1558,-0.013815,-0.016552,0.023891,-0.003707,0.001881,0.005773,-0.001489,-0.526529,0.023154,-0.956534,-257.440088,0.404609,71.471648
4.1756,-0.014042,-0.016307,0.023124,-0.003697,0.001881,0.005773,-0.001751,-0.52635,0.024074,-0.968405,-257.442701,0.416571,71.470029
4.1959,-0.014221,-0.016192,0.023675,-0.003642,0.001873,0.005773,-0.002212,-0.526183,0.023216,-0.968405,-257.442701,0.416571,71.470029
4.2153,-0.013934,-0.016546,0.023056,-0.003595,0.001867,0.005772,-0.002212,-0.526183,0.023216,-0.968405,-257.442701,0.416571,71.470029
4.2354,-0.014338,-0.01636,0.022842,-0.003557,0.001861,0.005772,-0.002333,-0.526335,0.023297,-0.971129,-257.445319,0.418583,71.468412
4.2556,-0.01444,-0.016207,0.021806,-0.003509,0.001854,0.005772,-0.002497,-0.526282,0.023139,-0.971129,-257.445319,0.418583,71.468412
4.2755,-0.014485,-0.015869,0.023246,-0.003468,0.001848,0.005773,-0.003433,-0.52603,0.021989,-0.987183,-257.447876,0.437576,71.466857
4.2956,-0.014601,-0.016356,0.024235,-0.003416,0.001838,0.005772,-0.002711,-0.525755,0.02314,-0.987183,-257.447876,0.437576,71.466857
4.3159,-0.014823,-0.016138,0.023552,-0.003372,0.001831,0.005772,-0.002711,-0.525755,0.02314,-0.987183,-257.447876,0.437576,71.466857
4.3356,-0.014891,-0.015693,0.022112,-0.003335,0.001825,0.005772,-0.002959,-0.525923,0.023793,-0.997656,-257.450424,0.450588,71.465322
4.3556,-0.01525,-0.016242,0.024266,-0.003272,0.001812,0.005772,-0.003244,-0.525769,0.023134,-0.997656,-257.450424,0.450588,71.465322
4.3754,-0.01489,-0.015824,0.024283,-0.003219,0.001802,0.005773,-0.002982,-0.526037,0.024448,-1.01334,-257.452921,0.471428,71.463839
4.3956,-0.015257,-0.016271,0.024938,-0.003217,0.001803,0.005774,-0.002553,-0.525702,0.024306,-1.01334,-257.452921,0.471428,71.463839
4.4156,-0.015213,-0.016221,0.0243,-0.003214,0.001805,0.005774,-0.002553,-0.525702,0.024306,-1.01334,-257.452921,0.471428,71.463839
4.4357,-0.015758,-0.016292,0.024887,-0.003212,0.001806,0.005774,-0.002956,-0.525999,0.024539,-1.027217,-257.455381,0.491735,71.462396
4.4558,-0.015444,-0.015838,0.024542,-0.003185,0.001802,0.005774,-0.003017,-0.526046,0.024708,-1.027217,-257.455381,0.491735,71.462396
4.4755,-0.016005,-0.015832,0.026212,-0.003162,0.001798,0.005775,-0.003033,-0.52563,0.024726,-1.028637,-257.457881,0.491643,71.460932
4.4956,-0.015519,-0.015565,0.026405,-0.003159,0.001799,0.005775,-0.002674,-0.525652,0.026106,-1.028637,-257.457881,0.491643,71.460932
4.5156,-0.01608,-0.016043,0.02263,-0.003156,0.0018,0.005775,-0.002674,-0.525652,0.026106,-1.028637,-257.457881,0.491643,71.460932
4.5352,-0.016499,-0.015955,0.025369,-0.003153,0.0018,0.005774,-0.004672,-0.52584,0.022871,-1.034942,-257.460347,0.500281,71.459497
4.5554,-0.016276,-0.016055,0.026237,-0.00306,0.001775,0.005774,-0.004235,-0.525812,0.023919,-1.034942,-257.460347,0.500281,71.459497
4.5751,-0.016777,-0.015623,0.026503,-0.002983,0.001755,0.005775,-0.002999,-0.525825,0.026421,-1.036296,-257.462825,0.500908,71.458058
4.5957,-0.016265,-0.015642,0.025046,-0.002971,0.001754,0.005776,-0.003244,-0.525474,0.026505,-1.036296,-257.462825,0.500908,71.458058
4.6156,-0.016261,-0.015833,0.025558,-0.002961,0.001753,0.005777,-0.003244,-0.525474,0.026505,-1.036296,-257.462825,0.500908,71.458058
4.6353,-0.01682,-0.01587,0.02482,-0.002953,0.001753,0.005777,-0.003351,-0.525598,0.025793,-1.056771,-257.465183,0.536253,71.45671
4.6553,-0.016791,-0.01571,0.0269,-0.002922,0.001746,0.005778,-0.003694,-0.525637,0.025426,-1.056771,-257.465183,0.536253,71.45671
4.6752,-0.017508,-0.015363,0.026737,-0.002895,0.00174,0.005778,-0.00317,-0.525472,0.027084,-1.060949,-257.467605,0.541419,71.45533
4.6956,-0.017292,-0.01576,0.025328,-0.002858,0.00173,0.005778,-0.003819,-0.525203,0.026775,-1.060949,-257.467605,0.541419,71.45533
4.7155,-0.017203,-0.015491,0.025213,-0.002827,0.001722,0.005778,-0.003819,-0.525203,0.026775,-1.060949,-257.467605,0.541419,71.45533
4.7356,-0.017127,-0.015599,0.025181,-0.002801,0.001716,0.005778,-0.004468,-0.525259,0.025454,-1.068316,-257.470002,0.553441,71.453974
4.7553,-0.01753,-0.015317,0.027495,-0.002747,0.0017,0.005779,-0.004408,-0.525324,0.02537,-1.068316,-257.470002,0.553441,71.453974
4.7753,-0.017693,-0.015467,0.027038,-0.002702,0.001688,0.00578,-0.003599,-0.525072,0.027676,-1.080304,-257.472358,0.57443,71.452651
4.7953,-0.017616,-0.015639,0.025164,-0.002694,0.001687,0.005781,-0.003884,-0.52526,0.027101,-1.080304,-257.472358,0.57443,71.452651
4.8155,-0.017677,-0.015453,0.02569,-0.002687,0.001686,0.005782,-0.003884,-0.52526,0.027101,-1.080304,-257.472358,0.57443,71.452651
4.8351,-0.017597,-0.015186,0.027592,-0.002681,0.001686,0.005782,-0.00469,-0.525218,0.025928,-1.09298,-257.474681,0.598502,71.451358
4.8552,-0.017685,-0.014967,0.026089,-0.002654,0.001678,0.005782,-0.004223,-0.525117,0.026643,-1.09298,-257.474681,0.598502,71.451358
4.8755,-0.018383,-0.014977,0.025991,-0.002631,0.001672,0.005783,-0.004468,-0.524742,0.026272,-1.096059,-257.477027,0.602842,71.450057
4.8957,-0.017919,-0.015103,0.026122,-0.002554,0.001645,0.005783,-0.005077,-0.524797,0.026024,-1.096059,-257.477027,0.602842,71.450057
4.9155,-0.018435,-0.015337,0.026632,-0.002491,0.001623,0.005783,-0.005077,-0.524797,0.026024,-1.096059,-257.477027,0.602842,71.450057
4.9354,-0.018495,-0.015196,0.029306,-0.002439,0.001606,0.005785,-0.004966,-0.525089,0.026873,-1.102694,-257.479351,0.615383,71.448772
4.9563,-0.018482,-0.015405,0.028009,-0.00244,0.001608,0.005786,-0.004396,-0.525035,0.027903,-1.102694,-257.479351,0.615383,71.448772
4.9753,-0.018523,-0.015201,0.028339,-0.00244,0.00161,0.005788,-0.004274,-0.525159,0.028183,-1.127669,-257.481504,0.668786,71.447596
4.9961,-0.018841,-0.01512,0.028161,-0.002458,0.001618,0.005788,-0.004092,-0.525007,0.028334,-1.127669,-257.481504,0.668786,71.447596
5.0154,-0.018606,-0.015453,0.028695,-0.002473,0.001624,0.005788,-0.004092,-0.525007,0.028334,-1.127669,-257.481504,0.668786,71.447596
5.0352,-0.018887,-0.015114,0.028965,-0.002486,0.00163,0.005788,-0.004077,-0.525178,0.028937,-1.127941,-257.483781,0.667955,71.446353
5.0552,-0.019097,-0.015207,0.02805,-0.002495,0.001634,0.005787,-0.004106,-0.525057,0.028976,-1.127941,-257.483781,0.667955,71.446353
5.0751,-0.018975,-0.015018,0.027633,-0.002503,0.001638,0.005787,-0.004873,-0.524957,0.028234,-1.122209,-257.486066,0.653963,71.445104
5.0959,-0.01908,-0.014966,0.028832,-0.002459,0.001622,0.005786,-0.004886,-0.524832,0.027693,-1.122209,-257.486066,0.653963,71.445104
5.1154,-0.019299,-0.015177,0.02809,-0.002422,0.00161,0.005786,-0.004886,-0.524832,0.027693,-1.122209,-257.486066,0.653963,71.445104
5.1352,-0.019646,-0.015025,0.029995,-0.002392,0.0016,0.005786,-0.005081,-0.52491,0.028332,-1.120034,-257.488362,0.648411,71.443849
5.1553,-0.019275,-0.01499,0.029543,-0.002372,0.001593,0.005786,-0.004794,-0.524856,0.029042,-1.120034,-257.488362,0.648411,71.443849
5.1757,-0.019676,-0.014906,0.027525,-0.002355,0.001588,0.005787,-0.004287,-0.524719,0.029724,-1.134694,-257.490583,0.679894,71.442643
5.1955,-0.019614,-0.014931,0.031328,-0.002296,0.001565,0.005787,-0.005525,-0.524711,0.027728,-1.134694,-257.490583,0.679894,71.442643
5.2155,-0.019953,-0.014882,0.028932,-0.002247,0.001546,0.005788,-0.005525,-0.524711,0.027728,-1.134694,-257.490583,0.679894,71.442643
5.2357,-0.019904,-0.014587,0.028108,-0.002207,0.001531,0.005789,-0.0053,-0.524605,0.029173,-1.139816,-257.492834,0.69069,71.441423
5.2556,-0.020046,-0.01419,0.029719,-0.002174,0.001519,0.005789,-0.005423,-0.524508,0.028765,-1.139816,-257.492834,0.69069,71.441423
5.2754,-0.020462,-0.014688,0.029817,-0.002147,0.001509,0.00579,-0.00496,-0.52392,0.029896,-1.160038,-257.494954,0.737368,71.440279
5.2955,-0.020372,-0.014974,0.028946,-0.002132,0.001504,0.00579,-0.005235,-0.524413,0.029833,-1.160038,-257.494954,0.737368,71.440279
5.3162,-0.02037,-0.01487,0.029594,-0.00212,0.0015,0.00579,-0.005235,-0.524413,0.029833,-1.160038,-257.494954,0.737368,71.440279
5.3355,-0.020518,-0.014638,0.028724,-0.00211,0.001497,0.005791,-0.00537,-0.524587,0.029834,-1.168531,-257.497129,0.756907,71.439108
5.3557,-0.020503,-0.014735,0.032397,-0.002084,0.001487,0.005791,-0.005585,-0.524515,0.02941,-1.168531,-257.497129,0.756907,71.439108
5.3755,-0.020818,-0.014293,0.030237,-0.002062,0.001479,0.005791,-0.004052,-0.524422,0.032581,-1.173824,-257.49931,0.768359,71.437935
5.3957,-0.020544,-0.01427,0.02991,-0.002051,0.001475,0.005791,-0.005287,-0.524088,0.030447,-1.173824,-257.49931,0.768359,71.437935
5.4158,-0.020733,-0.014818,0.028979,-0.002042,0.001471,0.00579,-0.005287,-0.524088,0.030447,-1.173824,-257.49931,0.768359,71.437935
5.4355,-0.020972,-0.014393,0.030395,-0.002035,0.001469,0.00579,-0.006044,-0.524545,0.02922,-1.180797,-257.501467,0.784569,71.436777
5.4556,-0.021114,-0.014775,0.031111,-0.002004,0.001456,0.00579,-0.005819,-0.524379,0.029731,-1.180797,-257.501467,0.784569,71.436777
5.4753,-0.021472,-0.01438,0.029753,-0.001978,0.001446,0.005791,-0.005315,-0.524484,0.031295,-1.18472,-257.503626,0.793429,71.435618
5.4957,-0.02097,-0.013958,0.031401,-0.001929,0.001424,0.005791,-0.006218,-0.524181,0.029895,-1.18472,-257.503626,0.793429,71.435618
5.5153,-0.021576,-0.014647,0.030908,-0.001889,0.001406,0.005792,-0.006218,-0.524181,0.029895,-1.18472,-257.503626,0.793429,71.435618
5.5355,-0.021624,-0.014239,0.032047,-0.001855,0.001391,0.005793,-0.0059,-0.524346,0.031148,-1.192841,-257.505755,0.812975,71.434475
5.5554,-0.021639,-0.014176,0.02977,-0.001859,0.001394,0.005794,-0.005655,-0.524187,0.031546,-1.192841,-257.505755,0.812975,71.434475
5.5752,-0.02204,-0.014213,0.03153,-0.001862,0.001397,0.005795,-0.006516,-0.523909,0.029947,-1.210841,-257.507784,0.858103,71.433382
5.5957,-0.02174,-0.014323,0.033086,-0.001838,0.001386,0.005794,-0.006013,-0.523953,0.031402,-1.210841,-257.507784,0.858103,71.433382
5.6156,-0.021681,-0.014375,0.031426,-0.001818,0.001377,0.005794,-0.006013,-0.523953,0.031402,-1.210841,-257.507784,0.858103,71.433382
5.6354,-0.02188,-0.014236,0.032095,-0.001802,0.00137,0.005794,-0.005736,-0.524068,0.031668,-1.209988,-257.509894,0.855271,71.432246
5.6554,-0.022524,-0.014075,0.030582,-0.001811,0.001375,0.005794,-0.005654,-0.524022,0.031872,-1.209988,-257.509894,0.855271,71.432246
5.6756,-0.022601,-0.01398,0.032493,-0.001818,0.001379,0.005794,-0.006988,-0.523795,0.030765,-1.218996,-257.511966,0.877526,71.431129
5.6956,-0.022448,-0.014194,0.032259,-0.001789,0.001365,0.005793,-0.006123,-0.523716,0.032345,-1.218996,-257.511966,0.877526,71.431129
5.7155,-0.022379,-0.014139,0.03191,-0.001764,0.001353,0.005793,-0.006123,-0.523716,0.032345,-1.218996,-257.511966,0.877526,71.431129
5.7354,-0.022746,-0.014248,0.031547,-0.001744,0.001344,0.005793,-0.006186,-0.523824,0.032153,-1.216618,-257.514071,0.871004,71.429995
5.7552,-0.022438,-0.014118,0.032654,-0.001716,0.001331,0.005793,-0.006393,-0.523889,0.031927,-1.216618,-257.514071,0.871004,71.429995
5.7751,-0.022939,-0.014363,0.032426,-0.001693,0.00132,0.005794,-0.005842,-0.523806,0.032834,-1.227761,-257.516105,0.899295,71.428895
5.7956,-0.022826,-0.014335,0.032629,-0.00168,0.001315,0.005795,-0.006359,-0.524069,0.032469,-1.227761,-257.516105,0.899295,71.428895
5.8154,-0.023107,-0.01392,0.031951,-0.00167,0.001311,0.005796,-0.006359,-0.524069,0.032469,-1.227761,-257.516105,0.899295,71.428895
5.8359,-0.022693,-0.014182,0.034027,-0.001661,0.001307,0.005796,-0.006887,-0.523607,0.032191,-1.235475,-257.518146,0.91878,71.427789
5.8557,-0.023219,-0.013882,0.033062,-0.00165,0.001302,0.005797,-0.006268,-0.523715,0.032964,-1.235475,-257.518146,0.91878,71.427789
5.8753,-0.023548,-0.014024,0.034836,-0.00164,0.001297,0.005797,-0.006414,-0.523563,0.033246,-1.240654,-257.520189,0.931279,71.426679
5.8954,-0.023015,-0.013934,0.032978,-0.001656,0.001305,0.005797,-0.005845,-0.523699,0.034702,-1.240654,-257.520189,0.931279,71.426679
5.9157,-0.023388,-0.014034,0.034713,-0.001668,0.001311,0.005797,-0.005845,-0.523699,0.034702,-1.240654,-257.520189,0.931279,71.426679
5.9357,-0.023437,-0.013834,0.032842,-0.001679,0.001316,0.005797,-0.005758,-0.523675,0.034955,-1.243903,-257.52223,0.939457,71.425569
5.9557,-0.023235,-0.014005,0.034121,-0.001668,0.001311,0.005796,-0.006146,-0.523622,0.034122,-1.243903,-257.52223,0.939457,71.425569
5.9756,-0.023705,-0.013956,0.034287,-0.001659,0.001307,0.005796,-0.005891,-0.523668,0.034304,-1.238026,-257.524282,0.92422,71.424456
5.9956,-0.023819,-0.014,0.032369,-0.001649,0.001302,0.005796,-0.006197,-0.523655,0.034297,-1.238026,-257.524282,0.92422,71.424456
6.0159,-0.023462,-0.014113,0.032038,-0.001641,0.001299,0.005795,-0.006197,-0.523655,0.034297,-1.238026,-257.524282,0.92422,71.424456
6.0354,-0.024119,-0.013757,0.033084,-0.001635,0.001296,0.005795,-0.007197,-0.523799,0.032279,-1.241058,-257.526333,0.931846,71.423342
6.0557,-0.023991,-0.013796,0.034483,-0.001573,0.001263,0.005795,-0.007227,-0.523658,0.032646,-1.241058,-257.526333,0.931846,71.423342
6.0751,-0.02425,-0.013431,0.034724,-0.001522,0.001236,0.005796,-0.006461,-0.523454,0.034666,-1.244795,-257.528364,0.941206,71.422238
6.0956,-0.024074,-0.013794,0.035646,-0.001502,0.001225,0.005796,-0.00654,-0.52315,0.034728,-1.244795,-257.528364,0.941206,71.422238
6.1154,-0.024248,-0.013945,0.035205,-0.001486,0.001217,0.005797,-0.00654,-0.52315,0.034728,-1.244795,-257.528364,0.941206,71.422238
6.1353,-0.02453,-0.013901,0.03388,-0.001472,0.001209,0.005797,-0.00636,-0.523581,0.035437,-1.262327,-257.530291,0.987135,71.421176
6.1555,-0.024288,-0.013678,0.034752,-0.001462,0.001205,0.005798,-0.006732,-0.523587,0.034829,-1.262327,-257.530291,0.987135,71.421176
6.1756,-0.024757,-0.013291,0.033862,-0.001454,0.001201,0.005799,-0.006616,-0.523333,0.034936,-1.270217,-257.532268,1.007449,71.42008
6.1957,-0.024463,-0.013257,0.034219,-0.001394,0.001167,0.005798,-0.007417,-0.523026,0.033966,-1.270217,-257.532268,1.007449,71.42008
6.2158,-0.024681,-0.013538,0.034887,-0.001344,0.001138,0.005798,-0.007417,-0.523026,0.033966,-1.270217,-257.532268,1.007449,71.42008
6.2358,-0.024972,-0.013455,0.035518,-0.001303,0.001115,0.005799,-0.006954,-0.52318,0.035129,-1.273356,-257.534247,1.014961,71.418981
6.2558,-0.024475,-0.013728,0.035013,-0.001299,0.001113,0.0058,-0.006924,-0.523155,0.035316,-1.273356,-257.534247,1.014961,71.418981
6.2756,-0.024799,-0.013417,0.036008,-0.001296,0.001112,0.005801,-0.006661,-0.523384,0.035185,-1.297946,-257.536047,1.07806,71.417955
6.2955,-0.02499,-0.01322,0.03589,-0.001318,0.001125,0.005801,-0.00646,-0.52311,0.035946,-1.297946,-257.536047,1.07806,71.417955
6.3167,-0.024959,-0.013837,0.03424,-0.001337,0.001136,0.0058,-0.00646,-0.52311,0.035946,-1.297946,-257.536047,1.07806,71.417955
6.3352,-0.025206,-0.013724,0.037727,-0.001352,0.001145,0.0058,-0.007556,-0.523493,0.034485,-1.299267,-257.537976,1.080939,71.416856
6.3556,-0.025131,-0.013037,0.035706,-0.001346,0.001142,0.0058,-0.006937,-0.523436,0.03579,-1.299267,-257.537976,1.080939,71.416856
6.3752,-0.025519,-0.013766,0.036376,-0.001341,0.001141,0.0058,-0.006969,-0.522677,0.03589,-1.289996,-257.539907,1.057428,71.415766
6.3956,-0.025703,-0.013299,0.034032,-0.001332,0.001137,0.005799,-0.006974,-0.523358,0.036341,-1.289996,-257.539907,1.057428,71.415766
6.4155,-0.025158,-0.013673,0.035305,-0.001325,0.001133,0.005799,-0.006974,-0.523358,0.036341,-1.289996,-257.539907,1.057428,71.415766
6.4353,-0.02558,-0.013549,0.03646,-0.001319,0.00113,0.005799,-0.007214,-0.523309,0.035548,-1.291912,-257.541855,1.061546,71.414666
6.4554,-0.02581,-0.013468,0.036005,-0.001303,0.001122,0.005799,-0.007129,-0.523264,0.035948,-1.291912,-257.541855,1.061546,71.414666
6.4753,-0.025762,-0.013475,0.038181,-0.00129,0.001115,0.005799,-0.007495,-0.523103,0.03619,-1.295656,-257.543794,1.070287,71.413568
6.4955,-0.026183,-0.01315,0.036333,-0.001315,0.001128,0.005799,-0.006405,-0.523102,0.038011,-1.295656,-257.543794,1.070287,71.413568
6.5156,-0.025955,-0.013,0.036986,-0.001335,0.001139,0.005799,-0.006405,-0.523102,0.038011,-1.295656,-257.543794,1.070287,71.413568
6.5354,-0.025819,-0.012947,0.037731,-0.001351,0.001148,0.005798,-0.007152,-0.522606,0.037228,-1.300525,-257.545722,1.082238,71.412472
6.5557,-0.026125,-0.013432,0.039037,-0.00132,0.00113,0.005796,-0.006927,-0.522592,0.03746,-1.300525,-257.545722,1.082238,71.412472
6.5754,-0.026274,-0.013162,0.037694,-0.001294,0.001115,0.005795,-0.006265,-0.523009,0.039219,-1.290256,-257.547651,1.056736,71.411386
6.5953,-0.026478,-0.013355,0.037764,-0.001276,0.001104,0.005795,-0.006984,-0.522817,0.037844,-1.290256,-257.547651,1.056736,71.411386
6.6154,-0.026602,-0.013145,0.035142,-0.001261,0.001096,0.005795,-0.006984,-0.522817,0.037844,-1.290256,-257.547651,1.056736,71.411386
6.6356,-0.026169,-0.01314,0.038205,-0.001249,0.001089,0.005795,-0.008739,-0.522786,0.035382,-1.299567,-257.549563,1.080548,71.410298
6.6556,-0.026198,-0.012948,0.037531,-0.001189,0.001051,0.005795,-0.007912,-0.522773,0.036557,-1.299567,-257.549563,1.080548,71.410298
6.6753,-0.02657,-0.012765,0.038641,-0.001139,0.001021,0.005795,-0.007102,-0.522556,0.037715,-1.307134,-257.551468,1.099304,71.409205
6.6955,-0.026885,-0.012841,0.037961,-0.00114,0.001021,0.005796,-0.006892,-0.522399,0.038566,-1.307134,-257.551468,1.099304,71.409205
6.7154,-0.026833,-0.013218,0.037247,-0.001142,0.001022,0.005796,-0.006892,-0.522399,0.038566,-1.307134,-257.551468,1.099304,71.409205
6.7357,-0.027294,-0.013323,0.037297,-0.001143,0.001022,0.005796,-0.007888,-0.522825,0.03748,-1.326134,-257.553272,1.146302,71.408144
6.7551,-0.026811,-0.012744,0.036863,-0.001096,0.000994,0.005797,-0.008051,-0.522879,0.037433,-1.326134,-257.553272,1.146302,71.408144
6.7755,-0.02722,-0.012781,0.037742,-0.001057,0.00097,0.005797,-0.008053,-0.522367,0.037047,-1.325385,-257.555153,1.144749,71.407038
6.7955,-0.027257,-0.012965,0.037475,-0.001014,0.000942,0.005798,-0.007985,-0.522411,0.037686,-1.325385,-257.555153,1.144749,71.407038
6.8155,-0.027246,-0.013633,0.0383,-0.000979,0.000919,0.005799,-0.007985,-0.522411,0.037686,-1.325385,-257.555153,1.144749,71.407038
6.8352,-0.027483,-0.012841,0.038406,-0.000949,0.0009,0.0058,-0.007763,-0.523221,0.038536,-1.340525,-257.556965,1.180497,71.405951
6.8555,-0.027359,-0.013423,0.038147,-0.000948,0.0009,0.005802,-0.007825,-0.522906,0.03851,-1.340525,-257.556965,1.180497,71.405951
6.8756,-0.027667,-0.012773,0.040288,-0.000947,0.000901,0.005803,-0.007939,-0.523026,0.038324,-1.360307,-257.558709,1.225972,71.404873
6.896,-0.027344,-0.013091,0.040203,-0.000964,0.000911,0.005803,-0.007204,-0.52242,0.040113,-1.360307,-257.558709,1.225972,71.404873
6.9155,-0.027486,-0.01297,0.039162,-0.000978,0.00092,0.005803,-0.007204,-0.52242,0.040113,-1.360307,-257.558709,1.225972,71.404873
6.9357,-0.027874,-0.013278,0.038714,-0.000989,0.000927,0.005803,-0.00756,-0.522542,0.039405,-1.360845,-257.56053,1.226772,71.403747
6.9557,-0.027613,-0.013101,0.038417,-0.000974,0.000919,0.005803,-0.0078,-0.522683,0.03915,-1.360845,-257.56053,1.226772,71.403747
6.9754,-0.028121,-0.01273,0.0386,-0.000963,0.000912,0.005803,-0.008058,-0.522697,0.0386,-1.353115,-257.562348,1.209508,71.402637
6.9956,-0.027854,-0.012666,0.038382,-0.000912,0.000878,0.005802,-0.008408,-0.52238,0.038609,-1.353115,-257.562348,1.209508,71.402637
7.0155,-0.02789,-0.012746,0.041832,-0.000871,0.00085,0.005802,-0.008408,-0.52238,0.038609,-1.353115,-257.562348,1.209508,71.402637
7.0352,-0.028242,-0.012858,0.039663,-0.000837,0.000827,0.005802,-0.006604,-0.522263,0.042074,-1.358025,-257.564174,1.220221,71.401514
7.0552,-0.028374,-0.012947,0.040387,-0.000872,0.00085,0.005803,-0.007202,-0.522341,0.041091,-1.358025,-257.564174,1.220221,71.401514
7.0758,-0.028407,-0.012541,0.04018,-0.000901,0.000868,0.005803,-0.007809,-0.522507,0.040561,-1.381518,-257.565859,1.271793,71.400438
7.0956,-0.028457,-0.01277,0.040008,-0.00088,0.000855,0.005802,-0.007911,-0.522162,0.040223,-1.381518,-257.565859,1.271793,71.400438
7.1156,-0.028437,-0.012706,0.039644,-0.000863,0.000844,0.005801,-0.007911,-0.522162,0.040223,-1.381518,-257.565859,1.271793,71.400438
7.1352,-0.02882,-0.012903,0.040728,-0.00085,0.000835,0.005801,-0.008263,-0.522271,0.039884,-1.369404,-257.567637,1.246111,71.399323
7.1557,-0.028193,-0.013019,0.039603,-0.000833,0.000824,0.005801,-0.008182,-0.522352,0.040257,-1.369404,-257.567637,1.246111,71.399323
7.1757,-0.028836,-0.012557,0.039508,-0.000819,0.000815,0.005801,-0.008028,-0.522594,0.039786,-1.379111,-257.569406,1.266843,71.398197
7.1957,-0.02876,-0.012616,0.038454,-0.00078,0.000788,0.005801,-0.008633,-0.522197,0.039543,-1.379111,-257.569406,1.266843,71.398197
7.2156,-0.028729,-0.012862,0.040683,-0.000749,0.000766,0.005801,-0.008633,-0.522197,0.039543,-1.379111,-257.569406,1.266843,71.398197
7.2353,-0.028857,-0.012743,0.039772,-0.000723,0.000748,0.005802,-0.008022,-0.522407,0.040926,-1.385053,-257.571174,1.27918,71.397061
7.2555,-0.029088,-0.012641,0.040979,-0.000725,0.00075,0.005804,-0.008251,-0.522376,0.040487,-1.385053,-257.571174,1.27918,71.397061
7.2756,-0.02919,-0.01259,0.043538,-0.000727,0.000752,0.005805,-0.008219,-0.522191,0.041159,-1.403979,-257.572864,1.317866,71.39594
7.2958,-0.029163,-0.012753,0.040107,-0.000781,0.000787,0.005805,-0.007104,-0.522113,0.043333,-1.403979,-257.572864,1.317866,71.39594
7.3156,-0.028761,-0.012473,0.040321,-0.000825,0.000815,0.005805,-0.007104,-0.522113,0.043333,-1.403979,-257.572864,1.317866,71.39594
7.3353,-0.029502,-0.012942,0.041246,-0.000861,0.000839,0.005804,-0.008235,-0.522028,0.040564,-1.403109,-257.574607,1.316016,71.394785
7.3556,-0.02953,-0.012407,0.041427,-0.000829,0.000818,0.005803,-0.008335,-0.52222,0.04087,-1.403109,-257.574607,1.316016,71.394785
7.3755,-0.029515,-0.012546,0.04199,-0.000803,0.000801,0.005803,-0.008435,-0.521945,0.041602,-1.376841,-257.576296,1.26271,71.393712
7.3958,-0.02898,-0.012846,0.042953,-0.000786,0.00079,0.005802,-0.008137,-0.522081,0.041964,-1.376841,-257.576296,1.26271,71.393712
7.4158,-0.029909,-0.012517,0.040652,-0.000772,0.000781,0.005802,-0.008137,-0.522081,0.041964,-1.376841,-257.576296,1.26271,71.393712
7.4353,-0.02908,-0.012368,0.042339,-0.000761,0.000773,0.005802,-0.009217,-0.522064,0.040892,-1.388099,-257.578045,1.286056,71.392581
7.4558,-0.029553,-0.012387,0.043856,-0.000729,0.000751,0.005802,-0.008517,-0.521998,0.041511,-1.388099,-257.578045,1.286056,71.392581
7.4758,-0.029825,-0.0126,0.041136,-0.000704,0.000733,0.005802,-0.007219,-0.521873,0.044039,-1.396393,-257.579788,1.302834,71.391438
7.496,-0.029917,-0.012474,0.042737,-0.000679,0.000716,0.005802,-0.008704,-0.52214,0.041411,-1.396393,-257.579788,1.302834,71.391438
7.5155,-0.030059,-0.012696,0.043194,-0.000658,0.000701,0.005803,-0.008704,-0.52214,0.041411,-1.396393,-257.579788,1.302834,71.391438
7.5354,-0.029869,-0.012578,0.041751,-0.00064,0.000689,0.005804,-0.008068,-0.522192,0.043434,-1.407666,-257.581505,1.325334,71.390291
7.5552,-0.029739,-0.012326,0.041359,-0.000647,0.000694,0.005805,-0.008281,-0.522165,0.042775,-1.407666,-257.581505,1.325334,71.390291
7.5753,-0.030373,-0.012606,0.042973,-0.000652,0.000698,0.005806,-0.008673,-0.521869,0.041542,-1.420675,-257.583196,1.350226,71.389135
7.5955,-0.030223,-0.012537,0.043446,-0.000644,0.000692,0.005806,-0.008483,-0.52211,0.042852,-1.420675,-257.583196,1.350226,71.389135
7.6153,-0.029977,-0.012142,0.043251,-0.000638,0.000688,0.005807,-0.008483,-0.52211,0.042852,-1.420675,-257.583196,1.350226,71.389135
7.6357,-0.030309,-0.012317,0.042033,-0.000633,0.000684,0.005808,-0.007954,-0.521637,0.043494,-1.418285,-257.584913,1.345666,71.387967
7.6554,-0.030357,-0.012431,0.042536,-0.000623,0.000676,0.005807,-0.008336,-0.521728,0.042924,-1.418285,-257.584913,1.345666,71.387967
7.6753,-0.030827,-0.012661,0.042462,-0.000615,0.00067,0.005807,-0.008692,-0.521949,0.04272,-1.422398,-257.586622,1.353328,71.386796
7.6957,-0.030525,-0.012263,0.043838,-0.000584,0.000648,0.005808,-0.009136,-0.522178,0.042494,-1.422398,-257.586622,1.353328,71.386796
7.7155,-0.030791,-0.012213,0.044377,-0.00056,0.00063,0.005809,-0.009136,-0.522178,0.042494,-1.422398,-257.586622,1.353328,71.386796
7.7356,-0.030778,-0.012258,0.044464,-0.000539,0.000615,0.00581,-0.008193,-0.521684,0.04462,-1.42608,-257.588325,1.360335,71.38562
7.7555,-0.03056,-0.012338,0.043528,-0.000553,0.000624,0.005811,-0.008162,-0.52171,0.044584,-1.42608,-257.588325,1.360335,71.38562
7.7756,-0.031018,-0.012428,0.043867,-0.000564,0.000632,0.005811,-0.008385,-0.521836,0.04371,-1.442039,-257.589975,1.389042,71.384447
7.7955,-0.030906,-0.012558,0.043943,-0.000557,0.000627,0.005812,-0.008628,-0.521927,0.043862,-1.442039,-257.589975,1.389042,71.384447
7.8155,-0.03085,-0.012292,0.043307,-0.000552,0.000623,0.005812,-0.008628,-0.521927,0.043862,-1.442039,-257.589975,1.389042,71.384447
7.8355,-0.03119,-0.012628,0.044233,-0.000547,0.00062,0.005813,-0.008795,-0.521788,0.04355,-1.436696,-257.59166,1.379786,71.383261
7.8555,-0.031129,-0.012384,0.044202,-0.000538,0.000614,0.005813,-0.008734,-0.521923,0.043855,-1.436696,-257.59166,1.379786,71.383261
7.8751,-0.031237,-0.012547,0.04376,-0.000531,0.000608,0.005813,-0.008612,-0.521867,0.044388,-1.44027,-257.593343,1.386071,71.382068
7.8957,-0.031576,-0.012633,0.04314,-0.000521,0.000601,0.005814,-0.0089,-0.522041,0.043823,-1.44027,-257.593343,1.386071,71.382068
7.9162,-0.031765,-0.012272,0.043301,-0.000512,0.000595,0.005816,-0.0089,-0.522041,0.043823,-1.44027,-257.593343,1.386071,71.382068
7.9355,-0.031023,-0.012575,0.043848,-0.000505,0.00059,0.005817,-0.009712,-0.521769,0.043546,-1.443821,-257.595017,1.392278,71.380875
7.9554,-0.031921,-0.012325,0.045628,-0.000476,0.000567,0.005817,-0.009298,-0.521892,0.043694,-1.443821,-257.595017,1.392278,71.380875
7.976,-0.0317,-0.012217,0.044467,-0.000452,0.000549,0.005818,-0.008675,-0.521776,0.045813,-1.4494,-257.596683,1.401843,71.379675
7.9956,-0.031729,-0.012249,0.045695,-0.00044,0.000539,0.005819,-0.008992,-0.521718,0.044621,-1.4494,-257.596683,1.401843,71.379675
8.0154,-0.031403,-0.012251,0.045265,-0.00043,0.00053,0.005819,-0.008992,-0.521718,0.044621,-1.4494,-257.596683,1.401843,71.379675
8.0357,-0.031764,-0.01231,0.043872,-0.000422,0.000524,0.00582,-0.008345,-0.521707,0.045507,-1.461009,-257.59832,1.421431,71.37847
8.0559,-0.031673,-0.012258,0.043482,-0.000426,0.000527,0.005821,-0.008774,-0.52175,0.044871,-1.461009,-257.59832,1.421431,71.37847
8.0754,-0.031637,-0.012195,0.047013,-0.00043,0.000529,0.005821,-0.009519,-0.52176,0.043667,-1.467788,-257.599955,1.432586,71.377249
8.0957,-0.031897,-0.012693,0.045238,-0.000476,0.000563,0.005822,-0.007836,-0.521642,0.046722,-1.467788,-257.599955,1.432586,71.377249
8.1154,-0.031695,-0.01207,0.045724,-0.000514,0.00059,0.005822,-0.007836,-0.521642,0.046722,-1.467788,-257.599955,1.432586,71.377249
8.1355,-0.032592,-0.0122,0.04612,-0.000545,0.000613,0.005822,-0.008403,-0.521516,0.045967,-1.465977,-257.601598,1.429719,71.376027
8.1564,-0.032468,-0.01224,0.044676,-0.000525,0.000598,0.00582,-0.00868,-0.521571,0.046058,-1.465977,-257.601598,1.429719,71.376027
8.1758,-0.032392,-0.012633,0.047654,-0.000508,0.000586,0.005819,-0.009709,-0.521713,0.044855,-1.440774,-257.603219,1.387683,71.374873
8.1953,-0.032305,-0.012291,0.046109,-0.000531,0.000603,0.00582,-0.00824,-0.522023,0.047418,-1.440774,-257.603219,1.387683,71.374873
8.2157,-0.032626,-0.012034,0.046925,-0.000549,0.000618,0.00582,-0.00824,-0.522023,0.047418,-1.440774,-257.603219,1.387683,71.374873
8.2354,-0.032702,-0.012082,0.047142,-0.000565,0.00063,0.00582,-0.008726,-0.52145,0.047167,-1.448691,-257.604879,1.401315,71.373673
8.2555,-0.032929,-0.012005,0.048019,-0.000535,0.000608,0.005818,-0.008705,-0.521474,0.047185,-1.448691,-257.604879,1.401315,71.373673
8.2754,-0.032645,-0.011987,0.044964,-0.000511,0.000589,0.005817,-0.008468,-0.521398,0.048202,-1.436623,-257.606553,1.380016,71.372493
8.2958,-0.032817,-0.012341,0.047947,-0.000451,0.000541,0.005816,-0.009613,-0.521464,0.045256,-1.436623,-257.606553,1.380016,71.372493
8.3155,-0.032445,-0.011996,0.048706,-0.000402,0.000501,0.005816,-0.009613,-0.521464,0.045256,-1.436623,-257.606553,1.380016,71.372493
8.3359,-0.032658,-0.012109,0.044884,-0.000361,0.000468,0.005817,-0.007637,-0.521368,0.048947,-1.447954,-257.608205,1.399929,71.371302
8.3559,-0.032672,-0.012167,0.04615,-0.000378,0.000481,0.005818,-0.008502,-0.521457,0.047336,-1.447954,-257.608205,1.399929,71.371302
8.3755,-0.032985,-0.012103,0.045877,-0.000392,0.000492,0.005819,-0.009155,-0.521611,0.046324,-1.481285,-257.609718,1.454329,71.370138
8.3956,-0.033124,-0.011897,0.048378,-0.000358,0.000465,0.005818,-0.009557,-0.52157,0.045926,-1.481285,-257.609718,1.454329,71.370138
8.4154,-0.033019,-0.012681,0.044573,-0.000331,0.000443,0.005818,-0.009557,-0.52157,0.045926,-1.481285,-257.609718,1.454329,71.370138
8.4354,-0.033167,-0.011829,0.047316,-0.000308,0.000425,0.005819,-0.010311,-0.522155,0.044816,-1.474304,-257.61134,1.443613,71.368907
8.4552,-0.033145,-0.012323,0.04765,-0.000286,0.000408,0.005819,-0.009801,-0.521789,0.045857,-1.474304,-257.61134,1.443613,71.368907
8.4753,-0.033045,-0.011895,0.047288,-0.000268,0.000394,0.00582,-0.008863,-0.521731,0.047832,-1.493583,-257.612908,1.472707,71.367672
8.4953,-0.033384,-0.012237,0.047764,-0.000277,0.000401,0.005821,-0.008931,-0.52136,0.047344,-1.493583,-257.612908,1.472707,71.367672
8.5155,-0.033287,-0.012016,0.046302,-0.000284,0.000406,0.005821,-0.008931,-0.52136,0.047344,-1.493583,-257.612908,1.472707,71.367672
8.5355,-0.03355,-0.011919,0.047695,-0.00029,0.00041,0.00582,-0.009694,-0.521453,0.046544,-1.502976,-257.614482,1.486125,71.36641
8.5554,-0.033334,-0.011828,0.047982,-0.000269,0.000394,0.00582,-0.009509,-0.521405,0.047039,-1.502976,-257.614482,1.486125,71.36641
8.5757,-0.033855,-0.012252,0.046481,-0.000253,0.00038,0.00582,-0.008883,-0.521228,0.048167,-1.497892,-257.61607,1.478958,71.365149
8.5961,-0.033672,-0.012628,0.048699,-0.000225,0.000358,0.00582,-0.010044,-0.521658,0.046643,-1.497892,-257.61607,1.478958,71.365149
8.6156,-0.03365,-0.012461,0.04882,-0.000202,0.000339,0.005821,-0.010044,-0.521658,0.046643,-1.497892,-257.61607,1.478958,71.365149
8.6357,-0.033856,-0.011963,0.050018,-0.000184,0.000324,0.005821,-0.008774,-0.521838,0.049063,-1.506651,-257.617646,1.491343,71.363876
8.656,-0.033679,-0.011994,0.048326,-0.000231,0.000361,0.005823,-0.008604,-0.521626,0.049483,-1.506651,-257.617646,1.491343,71.363876
8.6755,-0.033846,-0.011815,0.048768,-0.000269,0.000392,0.005824,-0.009048,-0.521389,0.04851,-1.523451,-257.619178,1.51399,71.362599
8.6956,-0.034431,-0.012102,0.050727,-0.000269,0.000391,0.005823,-0.008991,-0.521224,0.048755,-1.523451,-257.619178,1.51399,71.362599
8.7155,-0.033895,-0.012458,0.050211,-0.000268,0.00039,0.005822,-0.008991,-0.521224,0.048755,-1.523451,-257.619178,1.51399,71.362599
8.7354,-0.034111,-0.011745,0.049681,-0.000267,0.00039,0.005821,-0.00831,-0.5218,0.050449,-1.502659,-257.62073,1.485869,71.361353
8.7555,-0.033756,-0.012099,0.049235,-0.0003,0.000416,0.005822,-0.008506,-0.521517,0.050161,-1.502659,-257.62073,1.485869,71.361353
8.7755,-0.033963,-0.011845,0.050567,-0.000326,0.000437,0.005822,-0.008666,-0.521469,0.04942,-1.503156,-257.622312,1.48656,71.360083
8.7952,-0.034424,-0.012411,0.05034,-0.000351,0.000457,0.005821,-0.008233,-0.52122,0.050463,-1.503156,-257.622312,1.48656,71.360083
8.8153,-0.034387,-0.01214,0.048274,-0.000372,0.000473,0.005819,-0.008233,-0.52122,0.050463,-1.503156,-257.622312,1.48656,71.360083
8.8353,-0.034225,-0.01184,0.051154,-0.000389,0.000486,0.005818,-0.009791,-0.521528,0.048515,-1.489274,-257.623899,1.466554,71.35884
8.8555,-0.03436,-0.01226,0.04848,-0.000365,0.000468,0.005817,-0.009125,-0.521382,0.049616,-1.489274,-257.623899,1.466554,71.35884
8.8753,-0.034747,-0.011658,0.050064,-0.000345,0.000453,0.005817,-0.009658,-0.521646,0.048663,-1.474863,-257.625505,1.444734,71.357617
8.8952,-0.034439,-0.011737,0.049774,-0.000312,0.000426,0.005816,-0.009262,-0.521072,0.049953,-1.474863,-257.625505,1.444734,71.357617
8.9154,-0.034536,-0.011968,0.051093,-0.000284,0.000403,0.005816,-0.009262,-0.521072,0.049953,-1.474863,-257.625505,1.444734,71.357617
8.9352,-0.034917,-0.012008,0.051671,-0.000262,0.000384,0.005817,-0.008505,-0.521285,0.051335,-1.484779,-257.627105,1.459793,71.356376
8.9553,-0.034543,-0.012326,0.049885,-0.000285,0.000403,0.005818,-0.008536,-0.5213,0.051502,-1.484779,-257.627105,1.459793,71.356376
8.9754,-0.035072,-0.011859,0.051383,-0.000304,0.000418,0.005819,-0.009121,-0.52168,0.050067,-1.504359,-257.628652,1.488316,71.355129
8.9956,-0.035081,-0.01206,0.050181,-0.0003,0.000415,0.005819,-0.0089,-0.521228,0.051278,-1.504359,-257.628652,1.488316,71.355129
9.0153,-0.034845,-0.012215,0.050426,-0.000296,0.000412,0.005819,-0.0089,-0.521228,0.051278,-1.504359,-257.628652,1.488316,71.355129
9.0353,-0.034715,-0.011953,0.050619,-0.000293,0.000409,0.005819,-0.009152,-0.52155,0.050668,-1.494326,-257.630236,1.474051,71.353876
9.0552,-0.03499,-0.011677,0.051628,-0.000291,0.000409,0.00582,-0.009055,-0.521445,0.050676,-1.494326,-257.630236,1.474051,71.353876
9.0753,-0.035172,-0.012064,0.051469,-0.000289,0.000408,0.00582,-0.008681,-0.520985,0.051813,-1.497115,-257.631828,1.478028,71.352612
9.0958,-0.035335,-0.011947,0.050692,-0.000291,0.00041,0.005821,-0.008913,-0.521353,0.051509,-1.497115,-257.631828,1.478028,71.352612
9.1153,-0.035375,-0.011891,0.052347,-0.000292,0.000411,0.005821,-0.008913,-0.521353,0.051509,-1.497115,-257.631828,1.478028,71.352612
9.1352,-0.035279,-0.012144,0.051894,-0.000293,0.000412,0.005821,-0.008703,-0.521176,0.052591,-1.497935,-257.633415,1.479131,71.35135
9.1552,-0.03555,-0.01155,0.052456,-0.000299,0.000416,0.005821,-0.008754,-0.521288,0.052336,-1.497935,-257.633415,1.479131,71.35135
9.1756,-0.035583,-0.011934,0.051842,-0.000303,0.00042,0.005821,-0.00882,-0.520836,0.052641,-1.497056,-257.635008,1.477829,71.350085
9.1955,-0.035478,-0.011863,0.052719,-0.000287,0.000406,0.005821,-0.009127,-0.521212,0.05192,-1.497056,-257.635008,1.477829,71.350085
9.2156,-0.035768,-0.012374,0.050546,-0.000273,0.000395,0.005821,-0.009127,-0.521212,0.05192,-1.497056,-257.635008,1.477829,71.350085
9.2353,-0.035615,-0.011814,0.052373,-0.000262,0.000386,0.005821,-0.010014,-0.521706,0.05079,-1.494702,-257.636602,1.474431,71.348826
9.2556,-0.035504,-0.012044,0.052326,-0.000242,0.00037,0.005822,-0.009567,-0.521462,0.051466,-1.494702,-257.636602,1.474431,71.348826
9.2755,-0.036175,-0.011931,0.054122,-0.000226,0.000357,0.005822,-0.008839,-0.521334,0.05251,-1.504377,-257.638173,1.488251,71.347561
9.2957,-0.036239,-0.012324,0.051949,-0.000246,0.000373,0.005823,-0.00861,-0.521198,0.053985,-1.504377,-257.638173,1.488251,71.347561
9.3154,-0.035826,-0.011913,0.053043,-0.000263,0.000386,0.005823,-0.00861,-0.521198,0.053985,-1.504377,-257.638173,1.488251,71.347561
9.3353,-0.0361,-0.011867,0.052779,-0.000276,0.000396,0.005823,-0.008796,-0.521182,0.053287,-1.513077,-257.639735,1.500227,71.346283
9.3552,-0.036169,-0.01192,0.054304,-0.00027,0.000391,0.005823,-0.008959,-0.52117,0.053109,-1.513077,-257.639735,1.500227,71.346283
9.3754,-0.036266,-0.011662,0.052767,-0.000265,0.000387,0.005823,-0.008497,-0.521156,0.054489,-1.50102,-257.641312,1.483597,71.345021
9.3956,-0.035986,-0.011649,0.052904,-0.000238,0.000364,0.005822,-0.009291,-0.52097,0.052927,-1.50102,-257.641312,1.483597,71.345021
9.4154,-0.036527,-0.011802,0.054008,-0.000216,0.000346,0.005822,-0.009291,-0.52097,0.052927,-1.50102,-257.641312,1.483597,71.345021
9.4353,-0.036064,-0.011462,0.051206,-0.000199,0.00033,0.005822,-0.009008,-0.521043,0.054251,-1.503718,-257.642892,1.487398,71.343749
9.4553,-0.036201,-0.011929,0.052771,-0.000178,0.000312,0.005822,-0.009399,-0.520939,0.053034,-1.503718,-257.642892,1.487398,71.343749
9.4757,-0.03697,-0.011998,0.055012,-0.000161,0.000297,0.005823,-0.009307,-0.521209,0.052954,-1.519752,-257.64443,1.509332,71.342472
9.4956,-0.036286,-0.012211,0.05319,-0.000176,0.00031,0.005824,-0.008963,-0.521224,0.054835,-1.519752,-257.64443,1.509332,71.342472
9.5157,-0.036763,-0.012373,0.052986,-0.000188,0.00032,0.005825,-0.008963,-0.521224,0.054835,-1.519752,-257.64443,1.509332,71.342472
9.5354,-0.03652,-0.01211,0.05227,-0.000198,0.000328,0.005826,-0.00976,-0.521646,0.053228,-1.52907,-257.645967,1.521478,71.341171
9.5554,-0.036594,-0.012104,0.054748,-0.000181,0.000315,0.005826,-0.009808,-0.521549,0.052861,-1.52907,-257.645967,1.521478,71.341171
9.5756,-0.03701,-0.012048,0.054594,-0.000167,0.000304,0.005827,-0.008693,-0.52133,0.054933,-1.51986,-257.647518,1.509524,71.339882
9.5957,-0.037042,-0.012164,0.055367,-0.000175,0.000311,0.005828,-0.00914,-0.521291,0.054631,-1.51986,-257.647518,1.509524,71.339882
9.6153,-0.036894,-0.011917,0.055266,-0.000181,0.000317,0.005828,-0.00914,-0.521291,0.054631,-1.51986,-257.647518,1.509524,71.339882
9.6354,-0.037001,-0.012061,0.053674,-0.000187,0.000321,0.005828,-0.008731,-0.521126,0.055508,-1.527605,-257.64906,1.51954,71.338582
9.6554,-0.037014,-0.011731,0.054994,-0.000189,0.000323,0.005828,-0.009106,-0.521207,0.054781,-1.527605,-257.64906,1.51954,71.338582
9.6755,-0.037228,-0.012141,0.054986,-0.000192,0.000325,0.005828,-0.008987,-0.52095,0.05518,-1.522743,-257.650613,1.51323,71.337285
9.6956,-0.037363,-0.011606,0.05488,-0.000194,0.000328,0.005828,-0.009182,-0.521333,0.055012,-1.522743,-257.650613,1.51323,71.337285
9.7157,-0.037087,-0.012297,0.054192,-0.000196,0.00033,0.005828,-0.009182,-0.521333,0.055012,-1.522743,-257.650613,1.51323,71.337285
9.7355,-0.037255,-0.011758,0.056647,-0.000198,0.000332,0.005828,-0.009471,-0.521535,0.054435,-1.521505,-257.652169,1.511608,71.335989
9.7555,-0.037348,-0.011746,0.054962,-0.000205,0.000337,0.005828,-0.009023,-0.521288,0.055374,-1.521505,-257.652169,1.511608,71.335989
9.7756,-0.037577,-0.012086,0.056139,-0.000211,0.000342,0.005828,-0.009338,-0.520965,0.055148,-1.519956,-257.653727,1.509533,71.334697
9.7951,-0.037713,-0.011823,0.055473,-0.000215,0.000346,0.005828,-0.008995,-0.521254,0.05606,-1.519956,-257.653727,1.509533,71.334697
9.8155,-0.037303,-0.011881,0.054623,-0.000218,0.000349,0.005828,-0.008995,-0.521254,0.05606,-1.519956,-257.653727,1.509533,71.334697
9.8355,-0.037748,-0.011599,0.055392,-0.000221,0.000351,0.005828,-0.009469,-0.521107,0.054867,-1.516873,-257.655288,1.505428,71.333409
9.8551,-0.037627,-0.012069,0.057878,-0.000192,0.000326,0.005827,-0.009488,-0.520987,0.05511,-1.516873,-257.655288,1.505428,71.333409
9.8753,-0.03788,-0.011614,0.055471,-0.000168,0.000305,0.005826,-0.008133,-0.521205,0.058064,-1.514347,-257.656858,1.502028,71.332119
9.8953,-0.037646,-0.011759,0.05645,-0.000145,0.000284,0.005826,-0.009474,-0.520862,0.055711,-1.514347,-257.656858,1.502028,71.332119
9.9154,-0.037834,-0.011638,0.055289,-0.000125,0.000266,0.005826,-0.009474,-0.520862,0.055711,-1.514347,-257.656858,1.502028,71.332119
9.9357,-0.038245,-0.011375,0.056824,-0.000109,0.000252,0.005826,-0.009658,-0.520846,0.055531,-1.527256,-257.658393,1.5191,71.330826
9.9558,-0.038325,-0.011623,0.056775,-9e-05,0.000233,0.005826,-0.009503,-0.520723,0.056094,-1.527256,-257.658393,1.5191,71.330826
9.9756,-0.037991,-0.011717,0.056347,-7.4e-05,0.000218,0.005826,-0.009389,-0.520793,0.056958,-1.542113,-257.659906,1.537748,71.329513
9.9955,-0.038002,-0.012125,0.057868,-7.7e-05,0.000221,0.005827,-0.009278,-0.520898,0.056405,-1.542113,-257.659906,1.537748,71.329513
10.0154,-0.038031,-0.011691,0.056468,-7.9e-05,0.000222,0.005827,-0.009278,-0.520898,0.056405,-1.542113,-257.659906,1.537748,71.329513
10.0354,-0.037978,-0.011461,0.056493,-8.1e-05,0.000224,0.005827,-0.009251,-0.520869,0.05671,-1.551298,-257.661406,1.548749,71.328186
10.0561,-0.03827,-0.011561,0.057631,-8.1e-05,0.000223,0.005827,-0.009223,-0.520777,0.056649,-1.551298,-257.661406,1.548749,71.328186
10.0756,-0.038428,-0.012017,0.058386,-8e-05,0.000222,0.005827,-0.008897,-0.520707,0.057819,-1.549335,-257.662926,1.546455,71.326846
10.0954,-0.038322,-0.011884,0.058699,-0.000116,0.000252,0.005829,-0.008687,-0.521112,0.058349,-1.549335,-257.662926,1.546455,71.326846
10.1153,-0.038479,-0.011507,0.058381,-0.000146,0.000277,0.005829,-0.008687,-0.521112,0.058349,-1.549335,-257.662926,1.546455,71.326846
10.1354,-0.038207,-0.011729,0.057403,-0.00017,0.000298,0.005829,-0.008726,-0.520629,0.058624,-1.549561,-257.664442,1.546736,71.325508
10.1554,-0.038421,-0.011757,0.056381,-0.000169,0.000298,0.005828,-0.00882,-0.520738,0.058136,-1.549561,-257.664442,1.546736,71.325508
10.1756,-0.038698,-0.011828,0.056701,-0.000169,0.000297,0.005827,-0.009688,-0.520938,0.056562,-1.526885,-257.665946,1.518877,71.324236
10.1957,-0.038857,-0.012224,0.058095,-0.000135,0.000269,0.005826,-0.009786,-0.521001,0.056698,-1.526885,-257.665946,1.518877,71.324236
10.2157,-0.038851,-0.012067,0.056775,-0.000108,0.000246,0.005826,-0.009786,-0.521001,0.056698,-1.526885,-257.665946,1.518877,71.324236
10.2352,-0.038766,-0.011762,0.056496,-8.6e-05,0.000227,0.005826,-0.009919,-0.521233,0.057019,-1.527066,-257.667495,1.519107,71.322926
10.2558,-0.038956,-0.012042,0.058362,-6.5e-05,0.000209,0.005827,-0.009941,-0.521114,0.056831,-1.527066,-257.667495,1.519107,71.322926
10.2754,-0.039283,-0.011954,0.059547,-4.8e-05,0.000195,0.005827,-0.009211,-0.521167,0.058544,-1.548085,-257.66898,1.544991,71.321619
10.2955,-0.038764,-0.012063,0.058144,-7.4e-05,0.000217,0.005828,-0.008957,-0.52106,0.059469,-1.548085,-257.66898,1.544991,71.321619
10.316,-0.039141,-0.011843,0.058281,-9.5e-05,0.000235,0.005829,-0.008957,-0.52106,0.059469,-1.548085,-257.66898,1.544991,71.321619
10.3353,-0.03889,-0.011761,0.058804,-0.000113,0.00025,0.005829,-0.009437,-0.520969,0.058526,-1.557962,-257.670474,1.556478,71.32028
10.3556,-0.038771,-0.011876,0.05965,-0.00011,0.000248,0.005828,-0.009233,-0.520933,0.058663,-1.557962,-257.670474,1.556478,71.32028
10.3754,-0.039433,-0.011911,0.058321,-0.000107,0.000246,0.005827,-0.008371,-0.520962,0.059835,-1.541263,-257.671984,1.53681,71.318967
10.3957,-0.038961,-0.012031,0.058336,-9.3e-05,0.000234,0.005827,-0.009591,-0.521036,0.058461,-1.541263,-257.671984,1.53681,71.318967
10.4156,-0.038948,-0.011896,0.058896,-8.2e-05,0.000224,0.005827,-0.009591,-0.521036,0.058461,-1.541263,-257.671984,1.53681,71.318967
10.4356,-0.039602,-0.011797,0.05849,-7.3e-05,0.000216,0.005827,-0.008933,-0.521002,0.05914,-1.542559,-257.673507,1.538372,71.317641
10.4558,-0.039531,-0.012122,0.059403,-7.6e-05,0.000219,0.005827,-0.009281,-0.520969,0.058905,-1.542559,-257.673507,1.538372,71.317641
10.4753,-0.03959,-0.012117,0.060157,-7.9e-05,0.000222,0.005827,-0.009256,-0.521216,0.059588,-1.551575,-257.675013,1.549086,71.316308
10.4953,-0.040389,-0.012067,0.060277,-0.000103,0.000243,0.005828,-0.008957,-0.521196,0.060117,-1.551575,-257.675013,1.549086,71.316308
10.5153,-0.039779,-0.01134,0.059516,-0.000123,0.00026,0.005828,-0.008957,-0.521196,0.060117,-1.551575,-257.675013,1.549086,71.316308
10.5353,-0.039627,-0.011816,0.060203,-0.000139,0.000275,0.005828,-0.009448,-0.520428,0.059759,-1.549954,-257.676523,1.547185,71.314975
10.5553,-0.039521,-0.011921,0.058784,-0.000119,0.000256,0.005826,-0.009242,-0.520617,0.059969,-1.549954,-257.676523,1.547185,71.314975
10.5755,-0.040174,-0.01187,0.058483,-0.000102,0.00024,0.005825,-0.009563,-0.521031,0.058968,-1.534465,-257.678043,1.528399,71.313672
10.5959,-0.040271,-0.012092,0.059568,-5.8e-05,0.000202,0.005825,-0.010294,-0.521,0.058535,-1.534465,-257.678043,1.528399,71.313672
10.6156,-0.040022,-0.011799,0.061094,-2.3e-05,0.00017,0.005825,-0.010294,-0.521,0.058535,-1.534465,-257.678043,1.528399,71.313672
10.6354,-0.04026,-0.011861,0.060764,6e-06,0.000143,0.005825,-0.008889,-0.520837,0.061337,-1.544065,-257.679557,1.540195,71.312349
10.6556,-0.040024,-0.011634,0.06003,-1.7e-05,0.000163,0.005826,-0.009052,-0.52087,0.061132,-1.544065,-257.679557,1.540195,71.312349
10.6754,-0.039973,-0.011647,0.060942,-3.6e-05,0.000179,0.005827,-0.009427,-0.520711,0.060211,-1.572511,-257.680994,1.572655,71.311024
10.6957,-0.040161,-0.011913,0.062237,-5e-05,0.000191,0.005827,-0.008959,-0.520701,0.060885,-1.572511,-257.680994,1.572655,71.311024
10.7157,-0.040228,-0.011845,0.060334,-6.1e-05,0.0002,0.005826,-0.008959,-0.520701,0.060885,-1.572511,-257.680994,1.572655,71.311024
10.7354,-0.040129,-0.011441,0.060818,-7e-05,0.000208,0.005826,-0.009478,-0.52091,0.060578,-1.561199,-257.682484,1.560181,71.309676
10.7553,-0.040821,-0.011979,0.06054,-6.2e-05,0.000201,0.005825,-0.009337,-0.520741,0.060703,-1.561199,-257.682484,1.560181,71.309676
10.7755,-0.040455,-0.011753,0.061471,-5.5e-05,0.000195,0.005824,-0.009967,-0.521038,0.060725,-1.552178,-257.683988,1.549865,71.308339
10.7956,-0.040551,-0.011868,0.062776,-5.8e-05,0.000198,0.005825,-0.009196,-0.52081,0.061417,-1.552178,-257.683988,1.549865,71.308339
10.8155,-0.040504,-0.01183,0.063192,-6e-05,0.0002,0.005825,-0.009196,-0.52081,0.061417,-1.552178,-257.683988,1.549865,71.308339
10.8357,-0.040826,-0.011535,0.061373,-6.2e-05,0.000202,0.005825,-0.008301,-0.520804,0.063435,-1.556191,-257.685488,1.554496,71.306995
10.8555,-0.040769,-0.01214,0.060103,-7.6e-05,0.000214,0.005825,-0.008816,-0.520709,0.062611,-1.556191,-257.685488,1.554496,71.306995
10.8755,-0.040776,-0.012041,0.062244,-8.8e-05,0.000224,0.005824,-0.010138,-0.521213,0.060287,-1.55443,-257.686991,1.552464,71.305653
10.8956,-0.040536,-0.011996,0.060274,-9.6e-05,0.000232,0.005825,-0.009145,-0.521067,0.062086,-1.55443,-257.686991,1.552464,71.305653
10.9156,-0.040711,-0.011693,0.062038,-0.000102,0.000238,0.005825,-0.009145,-0.521067,0.062086,-1.55443,-257.686991,1.552464,71.305653
10.9359,-0.040763,-0.011815,0.06082,-0.000107,0.000243,0.005826,-0.009096,-0.520703,0.062281,-1.547454,-257.688501,1.544313,71.304322
10.9557,-0.04121,-0.011697,0.06285,-9.1e-05,0.000229,0.005825,-0.00937,-0.520771,0.061711,-1.547454,-257.688501,1.544313,71.304322
10.9753,-0.04128,-0.01173,0.062426,-7.7e-05,0.000217,0.005824,-0.009181,-0.520682,0.063036,-1.542641,-257.69002,1.538508,71.302997
10.9954,-0.041246,-0.01178,0.063432,-6.1e-05,0.000203,0.005824,-0.009439,-0.520731,0.062489,-1.542641,-257.69002,1.538508,71.302997
11.0153,-0.041384,-0.011401,0.061485,-4.8e-05,0.000191,0.005824,-0.009439,-0.520731,0.062489,-1.542641,-257.69002,1.538508,71.302997
11.0355,-0.04147,-0.012034,0.063334,-3.7e-05,0.000181,0.005824,-0.01005,-0.520428,0.061728,-1.550364,-257.691535,1.547706,71.301657
11.0555,-0.041154,-0.011684,0.061903,-1.6e-05,0.000161,0.005824,-0.009688,-0.520674,0.062435,-1.550364,-257.691535,1.547706,71.301657
11.0753,-0.041536,-0.012193,0.062714,2e-06,0.000145,0.005824,-0.009605,-0.520701,0.062087,-1.560847,-257.693017,1.55978,71.300318
11.0955,-0.041874,-0.011607,0.063062,-5e-06,0.000152,0.005826,-0.009576,-0.521148,0.062669,-1.560847,-257.693017,1.55978,71.300318
11.1155,-0.04146,-0.011956,0.063231,-1.1e-05,0.000158,0.005827,-0.009576,-0.521148,0.062669,-1.560847,-257.693017,1.55978,71.300318
11.1358,-0.041535,-0.011681,0.063287,-1.6e-05,0.000162,0.005828,-0.009234,-0.520931,0.063474,-1.571346,-257.694491,1.571393,71.298959
11.1556,-0.041245,-0.012077,0.064542,-2.2e-05,0.000167,0.005828,-0.009253,-0.520819,0.063425,-1.571346,-257.694491,1.571393,71.298959
11.1755,-0.041581,-0.01167,0.062587,-2.6e-05,0.000171,0.005828,-0.008352,-0.52101,0.064727,-1.566596,-257.69598,1.566194,71.297601
11.1954,-0.041521,-0.011854,0.063573,-1.2e-05,0.000158,0.005827,-0.009569,-0.5207,0.062778,-1.566596,-257.69598,1.566194,71.297601
11.2154,-0.042014,-0.011963,0.063869,-1e-06,0.000148,0.005827,-0.009569,-0.5207,0.062778,-1.566596,-257.69598,1.566194,71.297601
11.2357,-0.042098,-0.011895,0.062589,8e-06,0.000139,0.005827,-0.009464,-0.520916,0.064112,-1.563727,-257.69747,1.563012,71.296248
11.2559,-0.042158,-0.012215,0.06458,1.7e-05,0.000131,0.005828,-0.009764,-0.520907,0.063519,-1.563727,-257.69747,1.563012,71.296248
11.2756,-0.041736,-0.011844,0.066285,2.5e-05,0.000124,0.005828,-0.009245,-0.521147,0.064765,-1.57304,-257.698946,1.573223,71.294883
11.2955,-0.042387,-0.012024,0.065088,-4.3e-05,0.00018,0.00583,-0.008067,-0.52076,0.066163,-1.57304,-257.698946,1.573223,71.294883
11.316,-0.042443,-0.011615,0.066049,-9.9e-05,0.000226,0.00583,-0.008067,-0.52076,0.066163,-1.57304,-257.698946,1.573223,71.294883
11.3354,-0.041945,-0.011745,0.064868,-0.000144,0.000264,0.005829,-0.008781,-0.520498,0.066293,-1.577542,-257.700416,1.57803,71.293512
11.3555,-0.042372,-0.01132,0.065021,-0.000135,0.000258,0.005828,-0.008824,-0.520568,0.06574,-1.577542,-257.700416,1.57803,71.293512
11.3754,-0.042669,-0.011938,0.06423,-0.000128,0.000253,0.005826,-0.009239,-0.520234,0.065194,-1.533239,-257.701843,1.527227,71.292282
11.3954,-0.042479,-0.011695,0.064553,-8.6e-05,0.000217,0.005825,-0.009876,-0.520831,0.06432,-1.533239,-257.701843,1.527227,71.292282
11.4156,-0.04236,-0.011838,0.065109,-5.2e-05,0.000187,0.005824,-0.009876,-0.520831,0.06432,-1.533239,-257.701843,1.527227,71.292282
11.4352,-0.042231,-0.011473,0.064972,-2.4e-05,0.000163,0.005823,-0.009184,-0.520747,0.065352,-1.537202,-257.703366,1.53207,71.29096
11.4555,-0.042246,-0.011853,0.064166,-2.4e-05,0.000163,0.005823,-0.009157,-0.520602,0.065224,-1.537202,-257.703366,1.53207,71.29096
11.4752,-0.042666,-0.01142,0.064553,-2.3e-05,0.000162,0.005823,-0.009545,-0.520798,0.064346,-1.564359,-257.704813,1.56374,71.28964
11.4956,-0.042609,-0.011878,0.065461,1e-05,0.000131,0.005822,-0.009748,-0.520395,0.064544,-1.564359,-257.704813,1.56374,71.28964
11.5154,-0.042097,-0.012158,0.065234,3.7e-05,0.000105,0.005821,-0.009748,-0.520395,0.064544,-1.564359,-257.704813,1.56374,71.28964
11.5355,-0.042808,-0.012022,0.06604,6e-05,8.4e-05,0.00582,-0.008853,-0.521066,0.065477,-1.564549,-257.706298,1.563952,71.288285
11.5553,-0.043034,-0.011758,0.065662,2.2e-05,0.000118,0.005822,-0.008974,-0.521002,0.065734,-1.564549,-257.706298,1.563952,71.288285
11.5758,-0.043182,-0.011931,0.06527,-9e-06,0.000146,0.005824,-0.009569,-0.520656,0.065845,-1.587158,-257.707731,1.587952,71.286918
11.5954,-0.042632,-0.011824,0.066184,1.3e-05,0.000128,0.005823,-0.009888,-0.520829,0.065328,-1.587158,-257.707731,1.587952,71.286918
11.6155,-0.043183,-0.011474,0.066393,3e-05,0.000112,0.005823,-0.009888,-0.520829,0.065328,-1.587158,-257.707731,1.587952,71.286918
11.6359,-0.043285,-0.012242,0.06546,4.5e-05,0.0001,0.005823,-0.009348,-0.520344,0.066633,-1.5684,-257.709194,1.568195,71.28557
11.6558,-0.043012,-0.011777,0.066015,5e-05,9.5e-05,0.005823,-0.009584,-0.520673,0.06618,-1.5684,-257.709194,1.568195,71.28557
11.6757,-0.042996,-0.011828,0.066282,5.4e-05,9.1e-05,0.005823,-0.009368,-0.520663,0.066199,-1.583062,-257.710646,1.583771,71.284198
11.6955,-0.043729,-0.011818,0.067361,4.1e-05,0.000103,0.005823,-0.00923,-0.520704,0.066284,-1.583062,-257.710646,1.583771,71.284198
11.716,-0.043057,-0.01191,0.065458,3e-05,0.000113,0.005823,-0.00923,-0.520704,0.066284,-1.583062,-257.710646,1.583771,71.284198
11.7356,-0.043946,-0.011748,0.066775,2.1e-05,0.000121,0.005822,-0.009695,-0.520814,0.065701,-1.585649,-257.712105,1.586431,71.282812
11.7558,-0.043431,-0.012003,0.066297,3.7e-05,0.000107,0.005822,-0.009785,-0.520731,0.066168,-1.585649,-257.712105,1.586431,71.282812
11.7752,-0.043598,-0.01214,0.068127,5e-05,9.5e-05,0.005822,-0.009644,-0.520879,0.066481,-1.576545,-257.713572,1.57695,71.281441
11.7957,-0.043538,-0.012008,0.068171,1.7e-05,0.000125,0.005823,-0.008946,-0.52095,0.067992,-1.576545,-257.713572,1.57695,71.281441
11.8154,-0.04306,-0.011597,0.067263,-1e-05,0.000149,0.005823,-0.008946,-0.52095,0.067992,-1.576545,-257.713572,1.57695,71.281441
11.8357,-0.043478,-0.011708,0.06618,-3.2e-05,0.00017,0.005823,-0.00878,-0.520439,0.067506,-1.584603,-257.715027,1.585362,71.280062
11.8554,-0.043604,-0.011874,0.066886,-2.4e-05,0.000162,0.005822,-0.009172,-0.5205,0.066998,-1.584603,-257.715027,1.585362,71.280062
11.8757,-0.04351,-0.011537,0.068006,-1.7e-05,0.000156,0.00582,-0.009519,-0.520728,0.067069,-1.562183,-257.716492,1.561321,71.27873
11.8956,-0.04363,-0.011687,0.067546,-1.9e-05,0.000157,0.00582,-0.008913,-0.520391,0.067932,-1.562183,-257.716492,1.561321,71.27873
11.9154,-0.043828,-0.011689,0.067571,-2.1e-05,0.000158,0.00582,-0.008913,-0.520391,0.067932,-1.562183,-257.716492,1.561321,71.27873
11.9357,-0.043768,-0.011971,0.067989,-2.2e-05,0.000159,0.005819,-0.009394,-0.520519,0.067815,-1.566122,-257.717976,1.565691,71.277372
11.9558,-0.044226,-0.011754,0.065896,-1.5e-05,0.000153,0.005819,-0.009283,-0.520629,0.067913,-1.566122,-257.717976,1.565691,71.277372
11.9755,-0.044246,-0.011887,0.068111,-9e-06,0.000148,0.00582,-0.010644,-0.520642,0.066082,-1.564859,-257.719461,1.564302,71.276014
11.9956,-0.043744,-0.012107,0.068194,9e-06,0.000133,0.00582,-0.009636,-0.520699,0.067938,-1.564859,-257.719461,1.564302,71.276014
12.0158,-0.043595,-0.011792,0.069442,2.4e-05,0.00012,0.005821,-0.009636,-0.520699,0.067938,-1.564859,-257.719461,1.564302,71.276014
12.0357,-0.044532,-0.011728,0.068898,3.5e-05,0.000109,0.005821,-0.008209,-0.520556,0.069685,-1.568399,-257.720951,1.56819,71.274644
12.0555,-0.044312,-0.011803,0.068134,1e-05,0.000131,0.005822,-0.008718,-0.52054,0.069384,-1.568399,-257.720951,1.56819,71.274644
12.0755,-0.044441,-0.011985,0.068322,-1.1e-05,0.000149,0.005822,-0.00959,-0.520616,0.068317,-1.580451,-257.7224,1.581062,71.27328
12.096,-0.044273,-0.012002,0.070437,4e-06,0.000136,0.005823,-0.009621,-0.520779,0.068331,-1.580451,-257.7224,1.581062,71.27328
12.1157,-0.044382,-0.012111,0.069253,1.6e-05,0.000126,0.005823,-0.009621,-0.520779,0.068331,-1.580451,-257.7224,1.581062,71.27328
12.1355,-0.04473,-0.011954,0.068191,2.6e-05,0.000117,0.005824,-0.009092,-0.520882,0.069496,-1.567836,-257.723874,1.567578,71.271925
12.1558,-0.044922,-0.011545,0.068584,2.5e-05,0.000119,0.005824,-0.009448,-0.520836,0.069001,-1.567836,-257.723874,1.567578,71.271925
12.1752,-0.044695,-0.011833,0.06878,2.5e-05,0.00012,0.005825,-0.009972,-0.520342,0.06877,-1.577957,-257.725341,1.578446,71.270552
12.1957,-0.044692,-0.011555,0.070631,4.2e-05,0.000103,0.005825,-0.009674,-0.520602,0.068788,-1.577957,-257.725341,1.578446,71.270552
12.2155,-0.04502,-0.011979,0.070173,5.6e-05,9e-05,0.005825,-0.009674,-0.520602,0.068788,-1.577957,-257.725341,1.578446,71.270552
12.2354,-0.044957,-0.012037,0.068396,6.8e-05,7.9e-05,0.005825,-0.00926,-0.520719,0.070417,-1.577522,-257.726811,1.57799,71.269177
12.2555,-0.044626,-0.01183,0.070605,6.9e-05,7.8e-05,0.005826,-0.009605,-0.520769,0.069618,-1.577522,-257.726811,1.57799,71.269177
12.2752,-0.045233,-0.011968,0.069653,7e-05,7.7e-05,0.005826,-0.008645,-0.520556,0.070789,-1.589524,-257.728257,1.590372,71.267794
12.2956,-0.045143,-0.011585,0.069898,7.5e-05,7.3e-05,0.005827,-0.009638,-0.520715,0.069767,-1.589524,-257.728257,1.590372,71.267794
12.3153,-0.045238,-0.011646,0.069811,7.8e-05,7e-05,0.005827,-0.009638,-0.520715,0.069767,-1.589524,-257.728257,1.590372,71.267794
12.3354,-0.04535,-0.01194,0.0702,8.1e-05,6.7e-05,0.005827,-0.009661,-0.520401,0.070055,-1.590119,-257.729714,1.590973,71.266399
12.3555,-0.044962,-0.012009,0.071728,9e-05,5.7e-05,0.005827,-0.009627,-0.520515,0.070142,-1.590119,-257.729714,1.590973,71.266399
12.3752,-0.045357,-0.012125,0.072066,9.8e-05,5e-05,0.005827,-0.008409,-0.520695,0.071914,-1.593134,-257.731165,1.593987,71.265001
12.3955,-0.045512,-0.012143,0.070618,4.9e-05,9.2e-05,0.005829,-0.008616,-0.520792,0.072062,-1.593134,-257.731165,1.593987,71.265001
12.4154,-0.045432,-0.012014,0.069696,9e-06,0.000128,0.005829,-0.008616,-0.520792,0.072062,-1.593134,-257.731165,1.593987,71.265001
12.4355,-0.045848,-0.011565,0.07104,-2.4e-05,0.000157,0.005829,-0.009912,-0.520774,0.06994,-1.597973,-257.732605,1.59874,71.2636
12.4555,-0.045458,-0.011815,0.071254,1.1e-05,0.000126,0.005828,-0.009805,-0.520573,0.070412,-1.597973,-257.732605,1.59874,71.2636
12.4755,-0.045335,-0.01204,0.071361,3.9e-05,0.000101,0.005827,-0.00915,-0.520516,0.071433,-1.564431,-257.734037,1.563844,71.262289
12.4953,-0.045626,-0.011866,0.071574,2e-05,0.000118,0.005827,-0.008988,-0.520722,0.071376,-1.564431,-257.734037,1.563844,71.262289
12.5159,-0.045524,-0.011949,0.071925,6e-06,0.000132,0.005827,-0.008988,-0.520722,0.071376,-1.564431,-257.734037,1.563844,71.262289
12.5358,-0.046142,-0.011454,0.071956,-6e-06,0.000143,0.005827,-0.008872,-0.520626,0.072167,-1.581327,-257.735487,1.581944,71.26092
12.5554,-0.045794,-0.012205,0.070381,1e-06,0.000136,0.005826,-0.009118,-0.520426,0.072109,-1.581327,-257.735487,1.581944,71.26092
12.5752,-0.045517,-0.011743,0.070095,8e-06,0.00013,0.005825,-0.00993,-0.520938,0.070566,-1.569092,-257.736962,1.568949,71.259559
12.5959,-0.045835,-0.011838,0.070377,3.8e-05,0.000103,0.005824,-0.009809,-0.52053,0.070145,-1.569092,-257.736962,1.568949,71.259559
12.6154,-0.045816,-0.012033,0.070864,6.2e-05,8e-05,0.005823,-0.009809,-0.52053,0.070145,-1.569092,-257.736962,1.568949,71.259559
12.6353,-0.046206,-0.011873,0.072024,8.2e-05,6.2e-05,0.005823,-0.009706,-0.520748,0.071108,-1.572901,-257.738436,1.573061,71.258189
12.6563,-0.046162,-0.011973,0.070912,8.7e-05,5.8e-05,0.005824,-0.009624,-0.520666,0.071511,-1.572901,-257.738436,1.573061,71.258189
12.6752,-0.046236,-0.011914,0.071913,9e-05,5.4e-05,0.005825,-0.010025,-0.520689,0.071095,-1.593483,-257.739862,1.594285,71.256811
12.6953,-0.04656,-0.012012,0.073143,9.6e-05,4.9e-05,0.005825,-0.009632,-0.520604,0.071846,-1.593483,-257.739862,1.594285,71.256811
12.7153,-0.045905,-0.012118,0.07225,0.000101,4.4e-05,0.005825,-0.009632,-0.520604,0.071846,-1.593483,-257.739862,1.594285,71.256811
12.7356,-0.046299,-0.011888,0.071736,0.000105,4e-05,0.005825,-0.009086,-0.520785,0.072494,-1.595819,-257.741307,1.596596,71.25541
12.7562,-0.046369,-0.011982,0.07379,9.3e-05,5.2e-05,0.005826,-0.009353,-0.5207,0.072214,-1.595819,-257.741307,1.596596,71.25541
12.7762,-0.046573,-0.011524,0.072329,8.3e-05,6.1e-05,0.005826,-0.008767,-0.520593,0.073976,-1.600024,-257.742746,1.600694,71.254003
12.7952,-0.046489,-0.012151,0.072465,0.000104,4e-05,0.005825,-0.009608,-0.520236,0.072529,-1.600024,-257.742746,1.600694,71.254003
12.8153,-0.046316,-0.012017,0.072151,0.00012,2.4e-05,0.005824,-0.009608,-0.520236,0.072529,-1.600024,-257.742746,1.600694,71.254003
12.8352,-0.04673,-0.011576,0.072996,0.000134,1e-05,0.005824,-0.009547,-0.520687,0.072394,-1.593788,-257.744195,1.594587,71.252603
12.8557,-0.046708,-0.011761,0.071375,0.000133,1.1e-05,0.005824,-0.009542,-0.520494,0.07267,-1.593788,-257.744195,1.594587,71.252603
12.876,-0.04652,-0.012079,0.072988,0.000132,1.2e-05,0.005825,-0.010333,-0.520462,0.071559,-1.608285,-257.745616,1.608496,71.25119
12.8956,-0.046698,-0.01168,0.072448,0.000118,2.5e-05,0.005825,-0.00942,-0.520698,0.072868,-1.608285,-257.745616,1.608496,71.25119
12.916,-0.046485,-0.011587,0.074482,0.000107,3.5e-05,0.005826,-0.00942,-0.520698,0.072868,-1.608285,-257.745616,1.608496,71.25119
12.9355,-0.046625,-0.012214,0.073108,9.8e-05,4.4e-05,0.005826,-0.008529,-0.520172,0.074725,-1.60763,-257.747042,1.607875,71.249773
12.9556,-0.04656,-0.012089,0.075095,7.6e-05,6.4e-05,0.005826,-0.008877,-0.520453,0.074086,-1.60763,-257.747042,1.607875,71.249773
12.9756,-0.046916,-0.011837,0.074608,5.8e-05,8e-05,0.005826,-0.008294,-0.52065,0.07528,-1.598116,-257.748477,1.598799,71.248373
12.9956,-0.047481,-0.012014,0.073661,4.3e-05,9.4e-05,0.005825,-0.008846,-0.520439,0.074678,-1.598116,-257.748477,1.598799,71.248373
13.0152,-0.046761,-0.011899,0.072571,3e-05,0.000105,0.005825,-0.008846,-0.520439,0.074678,-1.598116,-257.748477,1.598799,71.248373
13.0354,-0.04672,-0.011992,0.075636,2e-05,0.000115,0.005825,-0.00978,-0.520553,0.072814,-1.586754,-257.749927,1.587489,71.246988
13.0554,-0.047789,-0.01204,0.074755,2.1e-05,0.000115,0.005825,-0.009128,-0.520545,0.073994,-1.586754,-257.749927,1.587489,71.246988
13.0755,-0.047382,-0.011878,0.073333,2.1e-05,0.000115,0.005824,-0.009699,-0.520612,0.07494,-1.57635,-257.75139,1.576719,71.245615
13.0957,-0.047405,-0.011672,0.075693,5.9e-05,8e-05,0.005824,-0.009987,-0.520516,0.073487,-1.57635,-257.75139,1.576719,71.245615
13.1156,-0.047216,-0.011926,0.075033,9e-05,5.1e-05,0.005824,-0.009987,-0.520516,0.073487,-1.57635,-257.75139,1.576719,71.245615
13.1351,-0.047256,-0.01209,0.07339,0.000116,2.8e-05,0.005824,-0.008984,-0.520486,0.075277,-1.576604,-257.752861,1.576993,71.244236
13.1554,-0.047611,-0.011967,0.07406,0.000107,3.5e-05,0.005825,-0.009345,-0.520581,0.074529,-1.576604,-257.752861,1.576993,71.244236
13.1751,-0.047475,-0.012079,0.074732,0.0001,4.2e-05,0.005826,-0.009871,-0.520568,0.074241,-1.603008,-257.754262,1.603512,71.242857
13.1955,-0.047621,-0.012127,0.077677,9.7e-05,4.5e-05,0.005826,-0.00944,-0.520647,0.074697,-1.603008,-257.754262,1.603512,71.242857
13.2155,-0.047527,-0.011653,0.075985,9.4e-05,4.8e-05,0.005827,-0.00944,-0.520647,0.074697,-1.603008,-257.754262,1.603512,71.242857
13.2356,-0.047671,-0.011563,0.075709,9.2e-05,5.1e-05,0.005827,-0.008807,-0.520179,0.076229,-1.5987,-257.755704,1.599361,71.241449
13.2556,-0.047671,-0.012064,0.075701,8.6e-05,5.5e-05,0.005826,-0.008926,-0.520147,0.076043,-1.5987,-257.755704,1.599361,71.241449
13.2756,-0.047838,-0.012129,0.077347,8.2e-05,5.8e-05,0.005825,-0.009097,-0.520601,0.075886,-1.596226,-257.757148,1.596962,71.240046
13.2958,-0.04802,-0.012138,0.074753,4e-05,9.4e-05,0.005826,-0.008488,-0.520604,0.07723,-1.596226,-257.757148,1.596962,71.240046
13.3159,-0.047679,-0.012033,0.075215,7e-06,0.000124,0.005826,-0.008488,-0.520604,0.07723,-1.596226,-257.757148,1.596962,71.240046
13.3358,-0.047921,-0.012303,0.074754,-2.1e-05,0.000149,0.005826,-0.009352,-0.520588,0.075459,-1.593346,-257.758592,1.594089,71.238647
13.3557,-0.048223,-0.012138,0.076844,1e-06,0.000131,0.005825,-0.009547,-0.520706,0.0752,-1.593346,-257.758592,1.594089,71.238647
13.3752,-0.047824,-0.012212,0.076635,1.9e-05,0.000117,0.005825,-0.009073,-0.520628,0.077024,-1.565201,-257.760036,1.564711,71.23732
13.3952,-0.048094,-0.011964,0.077052,1e-06,0.000134,0.005825,-0.008805,-0.520707,0.076679,-1.565201,-257.760036,1.564711,71.23732
13.4154,-0.048126,-0.012125,0.076943,-1.4e-05,0.000148,0.005825,-0.008805,-0.520707,0.076679,-1.565201,-257.760036,1.564711,71.23732
13.4353,-0.048584,-0.011985,0.075837,-2.6e-05,0.000159,0.005825,-0.008923,-0.520611,0.077186,-1.575949,-257.7615,1.576298,71.235949
13.4554,-0.04838,-0.012164,0.076269,-7e-06,0.000142,0.005824,-0.009337,-0.520573,0.076667,-1.575949,-257.7615,1.576298,71.235949
13.4756,-0.048773,-0.012199,0.076901,9e-06,0.000128,0.005823,-0.009522,-0.520677,0.076453,-1.563722,-257.762981,1.563058,71.234594
13.4956,-0.048792,-0.012104,0.075498,2.9e-05,0.000111,0.005823,-0.009585,-0.52069,0.076869,-1.563722,-257.762981,1.563058,71.234594
13.5154,-0.048853,-0.012385,0.076829,4.5e-05,9.7e-05,0.005823,-0.009585,-0.52069,0.076869,-1.563722,-257.762981,1.563058,71.234594
13.5355,-0.048789,-0.012216,0.076974,5.8e-05,8.5e-05,0.005823,-0.009709,-0.520875,0.077071,-1.573339,-257.764454,1.573529,71.233225
13.5552,-0.048278,-0.011909,0.076377,6.8e-05,7.6e-05,0.005824,-0.009651,-0.520804,0.077059,-1.573339,-257.764454,1.573529,71.233225
13.575,-0.048816,-0.011782,0.077492,7.6e-05,6.9e-05,0.005824,-0.009362,-0.520419,0.076561,-1.586847,-257.765896,1.58763,71.23185
13.5951,-0.048887,-0.011826,0.078095,8.9e-05,5.6e-05,0.005823,-0.009337,-0.520266,0.077418,-1.586847,-257.765896,1.58763,71.23185
13.6151,-0.04904,-0.012093,0.078912,9.9e-05,4.5e-05,0.005823,-0.009337,-0.520266,0.077418,-1.586847,-257.765896,1.58763,71.23185
13.6352,-0.04883,-0.011891,0.078016,0.000107,3.6e-05,0.005823,-0.008834,-0.520503,0.079155,-1.591746,-257.767346,1.592578,71.230455
13.6554,-0.04867,-0.011818,0.078043,9e-05,5.1e-05,0.005823,-0.008935,-0.520436,0.078717,-1.591746,-257.767346,1.592578,71.230455
13.675,-0.048994,-0.012444,0.076327,7.7e-05,6.3e-05,0.005823,-0.008906,-0.520265,0.078228,-1.600654,-257.768782,1.601267,71.229048
13.6951,-0.049416,-0.012035,0.07869,9.4e-05,4.8e-05,0.005824,-0.010002,-0.5209,0.076499,-1.600654,-257.768782,1.601267,71.229048
13.7154,-0.049004,-0.01206,0.078266,0.000108,3.6e-05,0.005825,-0.010002,-0.5209,0.076499,-1.600654,-257.768782,1.601267,71.229048
13.7352,-0.04922,-0.012106,0.076992,0.000119,2.6e-05,0.005826,-0.009126,-0.520496,0.078509,-1.592006,-257.770227,1.592768,71.227653
13.7553,-0.049239,-0.011978,0.080132,0.000121,2.4e-05,0.005826,-0.009484,-0.520537,0.077911,-1.592006,-257.770227,1.592768,71.227653
13.7754,-0.049204,-0.011818,0.078619,0.000122,2.3e-05,0.005826,-0.008412,-0.520341,0.080316,-1.604088,-257.771652,1.604585,71.226249
13.7955,-0.049832,-0.011593,0.079343,0.000116,2.7e-05,0.005826,-0.009071,-0.520253,0.07881,-1.604088,-257.771652,1.604585,71.226249
13.8157,-0.049361,-0.01184,0.078068,0.000111,3.1e-05,0.005825,-0.009071,-0.520253,0.07881,-1.604088,-257.771652,1.604585,71.226249
13.8353,-0.049384,-0.012065,0.07808,0.000107,3.4e-05,0.005825,-0.009582,-0.520285,0.078312,-1.604915,-257.773086,1.605354,71.224834
13.8551,-0.049261,-0.012339,0.077863,0.000121,2e-05,0.005824,-0.00959,-0.520377,0.078246,-1.604915,-257.773086,1.605354,71.224834
13.8751,-0.049497,-0.01193,0.078104,0.000133,8e-06,0.005824,-0.009587,-0.520792,0.078048,-1.600508,-257.774522,1.601077,71.223424
13.8961,-0.04926,-0.011937,0.078798,0.000146,-4e-06,0.005824,-0.009694,-0.520413,0.078108,-1.600508,-257.774522,1.601077,71.223424
13.9156,-0.049738,-0.012038,0.079509,0.000156,-1.4e-05,0.005825,-0.009694,-0.520413,0.078108,-1.600508,-257.774522,1.601077,71.223424
13.9357,-0.049849,-0.012055,0.080315,0.000165,-2.2e-05,0.005825,-0.009226,-0.520426,0.079753,-1.608163,-257.775946,1.608338,71.222006
13.9557,-0.049754,-0.011865,0.079219,0.000147,-6e-06,0.005826,-0.009105,-0.52042,0.08001,-1.608163,-257.775946,1.608338,71.222006
13.9758,-0.049969,-0.0122,0.079428,0.000132,7e-06,0.005826,-0.009389,-0.520266,0.079404,-1.617345,-257.777358,1.616768,71.220577
13.9959,-0.049996,-0.011964,0.078328,0.000132,8e-06,0.005827,-0.009492,-0.520562,0.079436,-1.617345,-257.777358,1.616768,71.220577
14.016,-0.049889,-0.011899,0.079897,0.000132,8e-06,0.005827,-0.009492,-0.520562,0.079436,-1.617345,-257.777358,1.616768,71.220577
14.0354,-0.049936,-0.012248,0.07936,0.000132,9e-06,0.005827,-0.009179,-0.520271,0.08014,-1.607885,-257.778782,1.608035,71.219159
14.0553,-0.050008,-0.012358,0.078564,0.00013,1.1e-05,0.005827,-0.009311,-0.520422,0.079851,-1.607885,-257.778782,1.608035,71.219159
14.0757,-0.050313,-0.012212,0.08026,0.000127,1.3e-05,0.005827,-0.009977,-0.520784,0.07875,-1.607806,-257.780212,1.607991,71.217736
14.0956,-0.049849,-0.012075,0.081516,0.000127,1.4e-05,0.005828,-0.009475,-0.52059,0.08013,-1.607806,-257.780212,1.607991,71.217736
14.1158,-0.050178,-0.011971,0.080976,0.000127,1.5e-05,0.005828,-0.009475,-0.52059,0.08013,-1.607806,-257.780212,1.607991,71.217736
14.1352,-0.050441,-0.012215,0.08175,0.000127,1.5e-05,0.005828,-0.00892,-0.520299,0.081219,-1.606454,-257.78164,1.606717,71.216319
14.1553,-0.050245,-0.012587,0.080162,0.000107,3.2e-05,0.005828,-0.008868,-0.520386,0.081464,-1.606454,-257.78164,1.606717,71.216319
14.1755,-0.050636,-0.012282,0.081444,9.2e-05,4.6e-05,0.005828,-0.009402,-0.520949,0.080347,-1.606203,-257.783074,1.606506,71.214896
14.1952,-0.050423,-0.012472,0.082544,8.4e-05,5.4e-05,0.005828,-0.009167,-0.520622,0.081361,-1.606203,-257.783074,1.606506,71.214896
14.2155,-0.050812,-0.011898,0.080727,7.8e-05,6.1e-05,0.005828,-0.009167,-0.520622,0.081361,-1.606203,-257.783074,1.606506,71.214896
14.2353,-0.050873,-0.012346,0.081682,7.3e-05,6.6e-05,0.005828,-0.009682,-0.520235,0.080969,-1.596189,-257.784512,1.59686,71.213495
14.2554,-0.05018,-0.012263,0.080553,9.2e-05,4.8e-05,0.005827,-0.009508,-0.520404,0.081292,-1.596189,-257.784512,1.59686,71.213495
14.2751,-0.050786,-0.012075,0.080999,0.000107,3.4e-05,0.005827,-0.00914,-0.520607,0.080739,-1.590849,-257.785961,1.591607,71.2121
14.2953,-0.051112,-0.012431,0.082033,0.000118,2.4e-05,0.005827,-0.009489,-0.520421,0.080986,-1.590849,-257.785961,1.591607,71.2121
14.3154,-0.050828,-0.012118,0.080459,0.000127,1.5e-05,0.005827,-0.009489,-0.520421,0.080986,-1.590849,-257.785961,1.591607,71.2121
14.3356,-0.051079,-0.012169,0.081686,0.000134,8e-06,0.005827,-0.009833,-0.520467,0.080702,-1.600558,-257.787391,1.60113,71.210696
14.3553,-0.050907,-0.012205,0.081949,0.000146,-4e-06,0.005827,-0.009683,-0.520467,0.08113,-1.600558,-257.787391,1.60113,71.210696
14.3755,-0.051347,-0.011899,0.083123,0.000157,-1.4e-05,0.005827,-0.009155,-0.520493,0.082135,-1.608277,-257.788819,1.608447,71.209275
14.3953,-0.051191,-0.01212,0.081496,0.000148,-7e-06,0.005827,-0.009016,-0.520169,0.083046,-1.608277,-257.788819,1.608447,71.209275
14.4158,-0.051112,-0.012306,0.082439,0.000141,-2e-06,0.005827,-0.009016,-0.520169,0.083046,-1.608277,-257.788819,1.608447,71.209275
14.4354,-0.051173,-0.01245,0.082526,0.000135,3e-06,0.005826,-0.009109,-0.520574,0.082682,-1.614931,-257.790238,1.614588,71.207844
14.4555,-0.051103,-0.012195,0.084131,0.000118,1.9e-05,0.005827,-0.009118,-0.520632,0.082645,-1.614931,-257.790238,1.614588,71.207844
14.4756,-0.051793,-0.012407,0.083211,0.000104,3.3e-05,0.005828,-0.008242,-0.520391,0.084315,-1.608759,-257.79166,1.608816,71.206424
14.4956,-0.051291,-0.012266,0.083386,0.000102,3.6e-05,0.005828,-0.009303,-0.520621,0.083316,-1.608759,-257.79166,1.608816,71.206424
14.5154,-0.051517,-0.012301,0.08274,0.0001,3.9e-05,0.005828,-0.009303,-0.520621,0.083316,-1.608759,-257.79166,1.608816,71.206424
14.5356,-0.05096,-0.012275,0.083085,9.8e-05,4.1e-05,0.005828,-0.009364,-0.520555,0.082983,-1.59966,-257.793092,1.600207,71.205019
14.5555,-0.051661,-0.012054,0.081891,8.9e-05,4.9e-05,0.005828,-0.009066,-0.520539,0.083053,-1.59966,-257.793092,1.600207,71.205019
14.5757,-0.051684,-0.011986,0.084799,8.2e-05,5.7e-05,0.005828,-0.00994,-0.520344,0.082077,-1.598139,-257.794532,1.598772,71.203611
14.596,-0.051674,-0.012121,0.083938,7e-05,6.7e-05,0.005827,-0.008621,-0.520171,0.08456,-1.598139,-257.794532,1.598772,71.203611
14.6154,-0.051409,-0.012161,0.082159,5.9e-05,7.5e-05,0.005826,-0.008621,-0.520171,0.08456,-1.598139,-257.794532,1.598772,71.203611
14.6356,-0.051717,-0.012031,0.082645,5.1e-05,8.2e-05,0.005825,-0.009552,-0.520438,0.082402,-1.593434,-257.795978,1.594165,71.202211
14.6555,-0.051526,-0.012142,0.08475,7.9e-05,5.7e-05,0.005825,-0.009578,-0.520378,0.082529,-1.593434,-257.795978,1.594165,71.202211
14.6754,-0.051871,-0.012166,0.084601,0.000102,3.6e-05,0.005824,-0.008354,-0.520309,0.084936,-1.58489,-257.797431,1.585554,71.200824
14.6956,-0.051662,-0.012287,0.083438,8.5e-05,5.1e-05,0.005825,-0.008737,-0.520339,0.084641,-1.58489,-257.797431,1.585554,71.200824
14.7153,-0.052138,-0.012132,0.084715,7.1e-05,6.3e-05,0.005825,-0.008737,-0.520339,0.084641,-1.58489,-257.797431,1.585554,71.200824
14.7353,-0.052049,-0.012729,0.082294,6e-05,7.3e-05,0.005825,-0.008981,-0.520301,0.084958,-1.599046,-257.79886,1.59962,71.199423
14.7551,-0.051992,-0.012188,0.084652,7.4e-05,6.2e-05,0.005825,-0.009442,-0.520583,0.083913,-1.599046,-257.79886,1.59962,71.199423
14.776,-0.052429,-0.012311,0.085487,8.5e-05,5.2e-05,0.005825,-0.008869,-0.520359,0.084837,-1.587352,-257.800306,1.588047,71.198036
14.7955,-0.052086,-0.012534,0.083253,7.5e-05,6.1e-05,0.005825,-0.008882,-0.520438,0.085426,-1.587352,-257.800306,1.588047,71.198036
14.8154,-0.051888,-0.012564,0.084791,6.7e-05,6.8e-05,0.005825,-0.008882,-0.520438,0.085426,-1.587352,-257.800306,1.588047,71.198036
14.8352,-0.052457,-0.011962,0.084693,6.1e-05,7.5e-05,0.005825,-0.008693,-0.520729,0.085035,-1.594379,-257.801749,1.59508,71.196634
14.8556,-0.052654,-0.012221,0.084817,5.7e-05,7.9e-05,0.005825,-0.008947,-0.520485,0.084923,-1.594379,-257.801749,1.59508,71.196634
14.8753,-0.052549,-0.012003,0.085262,5.3e-05,8.2e-05,0.005825,-0.009447,-0.520385,0.085002,-1.587589,-257.803201,1.588307,71.195242
14.8954,-0.052771,-0.012484,0.084964,7.1e-05,6.5e-05,0.005824,-0.009146,-0.52017,0.085249,-1.587589,-257.803201,1.588307,71.195242
14.9155,-0.05258,-0.012669,0.085094,8.6e-05,5e-05,0.005823,-0.009146,-0.52017,0.085249,-1.587589,-257.803201,1.588307,71.195242
14.9352,-0.05257,-0.012335,0.086364,9.8e-05,3.8e-05,0.005823,-0.009232,-0.52082,0.085337,-1.585394,-257.804656,1.586087,71.193852
14.9556,-0.052708,-0.011999,0.08408,8.2e-05,5.4e-05,0.005824,-0.008964,-0.520661,0.085787,-1.585394,-257.804656,1.586087,71.193852
