mach0312/omni-docking-bench/src/icros_test_setup/results/MPPI_sample/timeseries/trial_014.csv
t,x,y,yaw,vx,vy,wz,bl_x,bl_y,bl_yaw,front_steering_joint,front_wheel_joint,rear_steering_joint,rear_wheel_joint
0.0,-0.008565,0.019731,0.050461,0.006997,0.002166,0.000369,0.016438,-0.489833,0.050902,0.329335,-263.968135,0.270556,62.024527
0.0005,-0.008594,0.020118,0.05131,0.006704,0.002075,0.000354,0.016438,-0.489833,0.050902,0.329335,-263.964839,0.270556,62.027764
0.0008,-0.008117,0.019868,0.049301,0.006365,0.00197,0.000336,0.016438,-0.489833,0.050902,0.329335,-263.961672,0.270556,62.030874
0.0011,-0.00806,0.019874,0.050399,0.005986,0.001853,0.000316,0.016787,-0.489449,0.050917,0.329335,-263.958838,0.270556,62.033657
0.0015,-0.007746,0.020028,0.048562,0.005567,0.001723,0.000294,0.016847,-0.489912,0.050735,0.329335,-263.956295,0.270556,62.036154
0.0017,-0.007878,0.01969,0.051014,0.005107,0.001581,0.000269,0.016847,-0.489912,0.050735,0.329335,-263.954358,0.270556,62.038056
0.002,-0.007516,0.020218,0.050947,0.004609,0.001427,0.000243,0.016847,-0.489912,0.050735,0.329335,-263.954358,0.270556,62.038056
0.0022,-0.007715,0.020338,0.050577,0.004068,0.001259,0.000215,0.017241,-0.489766,0.050584,0.329335,-263.954358,0.270556,62.038056
0.0025,-0.007936,0.020302,0.050203,0.00349,0.00108,0.000184,0.017027,-0.489685,0.04978,0.329335,-263.954358,0.270556,62.038056
0.0069,-0.007134,0.020148,0.050046,0.0,0.0,0.0,0.017845,-0.488986,0.050213,0.329335,-263.954358,0.270556,62.038056
0.0268,-0.007411,0.020322,0.05213,0.0,0.0,0.0,0.018088,-0.489073,0.050145,0.329335,-263.954358,0.270556,62.038056
0.0468,-0.0074,0.020022,0.04989,0.0,0.0,0.0,0.019272,-0.488945,0.052136,0.329335,-263.952883,0.270556,62.039505
0.0668,-0.007227,0.019838,0.050716,0.0,0.0,0.0,0.018143,-0.489307,0.05008,0.329335,-263.952883,0.270556,62.039505
0.087,-0.006872,0.019862,0.048457,0.0,0.0,0.0,0.018143,-0.489307,0.05008,0.329335,-263.952883,0.270556,62.039505
0.107,-0.006874,0.020098,0.051577,0.0,0.0,0.0,0.017832,-0.489539,0.048457,0.329335,-263.952883,0.270556,62.039505
0.1271,-0.007475,0.019972,0.049025,-0.003209,-0.005554,-0.011014,0.018483,-0.48941,0.049737,0.329335,-263.952883,0.270556,62.039505
0.147,-0.007352,0.020092,0.050899,-0.003418,-0.005941,-0.011619,0.017518,-0.489415,0.049025,0.329335,-263.952883,0.270556,62.039505
0.1675,-0.007352,0.019993,0.050063,-0.003589,-0.006274,-0.0121,0.018503,-0.489262,0.050739,0.329335,-263.952883,0.270556,62.039505
0.1871,-0.007136,0.020223,0.049909,-0.003729,-0.00656,-0.01248,0.018503,-0.489262,0.050739,0.329335,-263.952883,0.270556,62.039505
0.2071,-0.007239,0.020348,0.051369,-0.003729,-0.00656,-0.01248,0.018307,-0.489142,0.049909,0.404321,-263.952883,0.195571,62.039505
0.227,-0.007227,0.020546,0.050203,-0.003934,-0.007021,-0.013012,0.01857,-0.489075,0.050507,0.404321,-263.952883,0.195571,62.039505
0.2466,-0.007472,0.020478,0.051062,-0.00401,-0.007204,-0.013194,0.018366,-0.488812,0.050203,0.479314,-263.952883,0.120577,62.039505
0.2668,-0.007333,0.020211,0.050848,-0.004067,-0.007367,-0.013335,0.018541,-0.488853,0.050983,0.479314,-263.952883,0.120577,62.039505
0.287,-0.007098,0.019936,0.050376,-0.004113,-0.007508,-0.013446,0.018541,-0.488853,0.050983,0.479314,-263.952883,0.120577,62.039505
0.3075,-0.007188,0.020368,0.050587,-0.004113,-0.007508,-0.013446,0.018583,-0.489417,0.050376,0.554185,-263.952883,0.045707,62.039505
0.3276,-0.006849,0.02058,0.051542,-0.004192,-0.007719,-0.0136,0.01859,-0.489236,0.050463,0.554185,-263.952883,0.045707,62.039505
0.3473,-0.00751,0.020225,0.049747,-0.004221,-0.007804,-0.013651,0.019426,-0.488742,0.051542,0.629582,-263.952883,-0.029691,62.039505
0.3675,-0.007518,0.019939,0.051016,-0.004229,-0.007895,-0.013688,0.017993,-0.489108,0.049909,0.629582,-263.952883,-0.029691,62.039505
0.3869,-0.007172,0.02034,0.052168,-0.004236,-0.007973,-0.013716,0.017993,-0.489108,0.049909,0.629582,-263.952883,-0.029691,62.039505
0.407,-0.00684,0.020557,0.051181,-0.004236,-0.007973,-0.013716,0.019421,-0.488967,0.052168,0.704186,-263.952885,-0.104295,62.039504
0.4269,-0.007442,0.020273,0.050273,-0.004282,-0.00805,-0.013758,0.019352,-0.488889,0.051767,0.704186,-263.952885,-0.104295,62.039504
0.4467,-0.006821,0.020351,0.048743,-0.004298,-0.008082,-0.013771,0.018186,-0.489083,0.050273,0.779186,-263.952897,-0.095073,62.039501
0.467,-0.007164,0.020049,0.051657,-0.004288,-0.00814,-0.013776,0.018042,-0.489046,0.048879,0.779186,-263.952897,-0.095073,62.039501
0.4872,-0.007104,0.020352,0.051509,-0.004278,-0.00819,-0.01378,0.018042,-0.489046,0.048879,0.779186,-263.952897,-0.095073,62.039501
0.5076,-0.00695,0.020203,0.05103,-0.004278,-0.00819,-0.01378,0.019151,-0.488973,0.051505,0.854229,-263.95295,-0.07632,62.039488
0.5267,-0.007687,0.020165,0.051109,-0.0043,-0.00822,-0.01379,0.019116,-0.489038,0.051312,0.854229,-263.95295,-0.07632,62.039488
0.547,-0.007195,0.020204,0.05032,-0.004308,-0.008234,-0.013793,0.018361,-0.489175,0.051099,0.929229,-263.95314,-0.052923,62.039441
0.5671,-0.007379,0.02013,0.049231,-0.004303,-0.008259,-0.013792,0.018449,-0.489153,0.050391,0.929229,-263.95314,-0.052923,62.039441
0.5867,-0.007046,0.020183,0.050296,-0.004299,-0.00828,-0.013791,0.018449,-0.489153,0.050391,0.929229,-263.95314,-0.052923,62.039441
0.6066,-0.006998,0.020153,0.050158,-0.004299,-0.00828,-0.013791,0.018571,-0.489199,0.050254,1.004166,-263.953717,-0.04413,62.039296
0.6269,-0.007522,0.020042,0.050185,-0.004297,-0.008308,-0.01379,0.018569,-0.489204,0.050209,1.004166,-263.953717,-0.04413,62.039296
0.6466,-0.006677,0.020101,0.049848,-0.004296,-0.008319,-0.01379,0.018024,-0.489366,0.050105,1.079271,-263.95509,-0.033206,62.038954
0.6669,-0.007169,0.02023,0.049367,-0.004297,-0.008325,-0.013789,0.01867,-0.489277,0.049866,1.079271,-263.95509,-0.033206,62.038954
0.6867,-0.00731,0.019983,0.049962,-0.004298,-0.00833,-0.013788,0.01867,-0.489277,0.049866,1.079271,-263.95509,-0.033206,62.038954
0.707,-0.007436,0.020004,0.050196,-0.004298,-0.00833,-0.013788,0.018074,-0.489514,0.049748,1.154268,-263.957807,-0.02404,62.038278
0.7268,-0.006972,0.020155,0.051385,-0.004286,-0.008356,-0.013785,0.018097,-0.489463,0.049908,1.154268,-263.957807,-0.02404,62.038278
0.747,-0.007051,0.019686,0.051033,-0.004281,-0.008366,-0.013783,0.019128,-0.489343,0.05111,1.229323,-263.962254,-0.021197,62.037172
0.7674,-0.006883,0.019577,0.050181,-0.004297,-0.008349,-0.013892,0.018975,-0.489631,0.051025,1.229323,-263.962254,-0.021197,62.037172
0.7871,-0.006687,0.019481,0.050517,-0.004311,-0.008335,-0.013979,0.018975,-0.489631,0.051025,1.229323,-263.962254,-0.021197,62.037172
0.807,-0.00674,0.019303,0.047813,-0.004311,-0.008335,-0.013979,0.018919,-0.49018,0.050016,1.304172,-263.968301,-0.012292,62.035678
0.8273,-0.006626,0.019116,0.048018,-0.004327,-0.008323,-0.014209,0.01838,-0.490189,0.04906,1.304172,-263.968301,-0.012292,62.035678
0.847,-0.006707,0.019079,0.048166,-0.004333,-0.00832,-0.014293,0.017732,-0.490562,0.047582,1.320674,-263.975104,-0.046941,62.033992
0.8671,-0.006853,0.019225,0.048424,-0.004332,-0.008327,-0.014419,0.017831,-0.490364,0.048091,1.320674,-263.975104,-0.046941,62.033992
0.8867,-0.006725,0.018679,0.048842,-0.004331,-0.008333,-0.014523,0.017831,-0.490364,0.048091,1.320674,-263.975104,-0.046941,62.033992
0.9068,-0.006859,0.018626,0.047004,-0.004331,-0.008333,-0.014523,0.018016,-0.491056,0.048265,1.321891,-263.981893,-0.094228,62.032312
0.9268,-0.006373,0.018501,0.046959,-0.004343,-0.008327,-0.014781,0.017624,-0.490996,0.047682,1.321891,-263.981893,-0.094228,62.032312
0.9473,-0.00626,0.017936,0.045361,-0.004349,-0.008325,-0.014876,0.017443,-0.491205,0.046502,1.324174,-263.988893,-0.123269,62.03059
0.9672,-0.006381,0.018422,0.047526,-0.004348,-0.008331,-0.015005,0.016912,-0.491523,0.04544,1.324174,-263.988893,-0.123269,62.03059
0.9868,-0.006482,0.018262,0.04623,-0.004348,-0.008337,-0.015111,0.016912,-0.491523,0.04544,1.324174,-263.988893,-0.123269,62.03059
1.0071,-0.006245,0.017884,0.04671,-0.004348,-0.008337,-0.015111,0.016928,-0.491536,0.045633,1.326037,-263.995793,-0.172985,62.028893
1.0271,-0.006188,0.01766,0.047013,-0.004362,-0.00833,-0.015355,0.017172,-0.491585,0.046005,1.326037,-263.995793,-0.172985,62.028893
1.0468,-0.00602,0.017461,0.046148,-0.004368,-0.008329,-0.015445,0.017655,-0.492045,0.046538,1.328151,-264.002943,-0.202396,62.027139
1.0669,-0.005876,0.01766,0.044746,-0.004388,-0.008308,-0.015565,0.017514,-0.492013,0.046158,1.328151,-264.002943,-0.202396,62.027139
1.0866,-0.005867,0.017156,0.045427,-0.004406,-0.008292,-0.015663,0.017514,-0.492013,0.046158,1.328151,-264.002943,-0.202396,62.027139
1.1068,-0.006252,0.017581,0.04404,-0.004406,-0.008292,-0.015663,0.017131,-0.492662,0.044802,1.329667,-264.010021,-0.247644,62.025396
1.1268,-0.005732,0.017077,0.046377,-0.004418,-0.008289,-0.015874,0.016732,-0.4924,0.044418,1.329667,-264.010021,-0.247644,62.025396
1.1468,-0.005835,0.016628,0.045518,-0.004423,-0.008289,-0.015952,0.017786,-0.49264,0.045888,1.328927,-264.017249,-0.281675,62.023593
1.1667,-0.005801,0.016421,0.045126,-0.00445,-0.008259,-0.016052,0.0174,-0.492839,0.045526,1.328927,-264.017249,-0.281675,62.023593
1.1868,-0.005783,0.016843,0.045433,-0.004473,-0.008234,-0.016134,0.0174,-0.492839,0.045526,1.328927,-264.017249,-0.281675,62.023593
1.2068,-0.00555,0.015726,0.043829,-0.004473,-0.008234,-0.016134,0.017215,-0.492977,0.04478,1.330233,-264.02454,-0.317567,62.021765
1.227,-0.005403,0.016642,0.044639,-0.004514,-0.008193,-0.016302,0.017022,-0.493352,0.04431,1.330233,-264.02454,-0.317567,62.021765
1.247,-0.005304,0.015865,0.042823,-0.004531,-0.008179,-0.016365,0.017227,-0.493113,0.044135,1.328359,-264.031855,-0.3474,62.019897
1.267,-0.00541,0.016079,0.042196,-0.004541,-0.008172,-0.016432,0.016585,-0.493631,0.042915,1.328359,-264.031855,-0.3474,62.019897
1.2872,-0.005278,0.015947,0.042278,-0.00455,-0.008167,-0.016487,0.016585,-0.493631,0.042915,1.328359,-264.031855,-0.3474,62.019897
1.3068,-0.005101,0.015683,0.041705,-0.00455,-0.008167,-0.016487,0.016106,-0.493941,0.041606,1.326474,-264.039226,-0.381288,62.017976
1.3271,-0.005561,0.015689,0.040939,-0.004559,-0.00817,-0.016585,0.016109,-0.493953,0.041569,1.326474,-264.039226,-0.381288,62.017976
1.347,-0.005136,0.014782,0.040302,-0.004562,-0.008171,-0.016622,0.015178,-0.494149,0.040416,1.326263,-264.046703,-0.395964,62.016014
1.3671,-0.005538,0.014897,0.039922,-0.004566,-0.00817,-0.016659,0.015384,-0.494758,0.040286,1.326263,-264.046703,-0.395964,62.016014
1.387,-0.005132,0.014953,0.040306,-0.00457,-0.008169,-0.01669,0.015384,-0.494758,0.040286,1.326263,-264.046703,-0.395964,62.016014
1.4069,-0.004854,0.015001,0.039856,-0.00457,-0.008169,-0.01669,0.015242,-0.494981,0.039612,1.326783,-264.054241,-0.409708,62.014029
1.4269,-0.004651,0.014832,0.039484,-0.004577,-0.008167,-0.016748,0.015313,-0.494863,0.039631,1.326783,-264.054241,-0.409708,62.014029
1.4467,-0.004731,0.014441,0.038976,-0.00458,-0.008167,-0.01677,0.015345,-0.495037,0.038952,1.32687,-264.061809,-0.41704,62.012029
1.4669,-0.004539,0.014427,0.038771,-0.004585,-0.008163,-0.016793,0.015153,-0.495173,0.038948,1.32687,-264.061809,-0.41704,62.012029
1.487,-0.004138,0.013664,0.039582,-0.00459,-0.008159,-0.016812,0.015153,-0.495173,0.038948,1.32687,-264.061809,-0.41704,62.012029
1.5068,-0.004542,0.013618,0.038713,-0.00459,-0.008159,-0.016812,0.015865,-0.496285,0.038881,1.326967,-264.069389,-0.425399,62.01002
1.5271,-0.004117,0.013757,0.03804,-0.004655,-0.008066,-0.016861,0.015571,-0.496208,0.038732,1.326967,-264.069389,-0.425399,62.01002
1.5474,-0.003931,0.013574,0.036835,-0.00468,-0.008033,-0.016878,0.015142,-0.496138,0.037505,1.326679,-264.076969,-0.43074,62.008004
1.5674,-0.004006,0.01378,0.03826,-0.004684,-0.008033,-0.016891,0.014869,-0.496099,0.036867,1.326679,-264.076969,-0.43074,62.008004
1.5872,-0.003793,0.013614,0.035071,-0.004687,-0.008034,-0.016902,0.014869,-0.496099,0.036867,1.326679,-264.076969,-0.43074,62.008004
1.607,-0.004069,0.013278,0.036914,-0.004687,-0.008034,-0.016902,0.013907,-0.496412,0.03437,1.320942,-264.084489,-0.452439,62.005937
1.6271,-0.00397,0.012622,0.036842,-0.00468,-0.008052,-0.016924,0.014232,-0.496436,0.035331,1.320942,-264.084489,-0.452439,62.005937
1.6467,-0.003833,0.012565,0.035031,-0.004677,-0.008059,-0.016932,0.014676,-0.497293,0.036304,1.320791,-264.092057,-0.454299,62.003853
1.6673,-0.003626,0.012661,0.036763,-0.004689,-0.008043,-0.016945,0.01408,-0.497151,0.035118,1.320791,-264.092057,-0.454299,62.003853
1.6867,-0.00356,0.012806,0.035585,-0.004699,-0.00803,-0.016956,0.01408,-0.497151,0.035118,1.320791,-264.092057,-0.454299,62.003853
1.7068,-0.003145,0.011959,0.035151,-0.004699,-0.00803,-0.016956,0.014401,-0.497215,0.034876,1.321882,-264.099666,-0.453949,62.001767
1.7267,-0.00327,0.012329,0.035435,-0.004746,-0.007961,-0.016982,0.014535,-0.497466,0.034908,1.321882,-264.099666,-0.453949,62.001767
1.747,-0.003228,0.011685,0.033415,-0.004764,-0.007936,-0.016991,0.014658,-0.497611,0.034897,1.320572,-264.10725,-0.459686,61.999672
1.7668,-0.003637,0.011548,0.03388,-0.004779,-0.007916,-0.016999,0.013875,-0.498007,0.033515,1.320572,-264.10725,-0.459686,61.999672
1.7872,-0.003818,0.011621,0.034628,-0.004791,-0.007901,-0.017006,0.013875,-0.498007,0.033515,1.320572,-264.10725,-0.459686,61.999672
1.8075,-0.003405,0.011195,0.032658,-0.004791,-0.007901,-0.017006,0.013652,-0.49841,0.03392,1.316277,-264.114781,-0.473521,61.997541
1.8277,-0.003405,0.011693,0.034211,-0.004817,-0.007865,-0.01702,0.013469,-0.498499,0.033334,1.316277,-264.114781,-0.473521,61.997541
1.847,-0.002898,0.011012,0.033382,-0.004827,-0.007852,-0.017025,0.013895,-0.498264,0.03367,1.314578,-264.12234,-0.478611,61.995383
1.8667,-0.00298,0.011128,0.031578,-0.004853,-0.007811,-0.017034,0.014096,-0.498678,0.03338,1.314578,-264.12234,-0.478611,61.995383
1.8867,-0.002818,0.011016,0.031816,-0.004876,-0.007778,-0.01704,0.014096,-0.498678,0.03338,1.314578,-264.12234,-0.478611,61.995383
1.9069,-0.002759,0.010124,0.030698,-0.004876,-0.007778,-0.01704,0.013213,-0.499061,0.031103,1.312204,-264.129898,-0.485426,61.993198
1.927,-0.002599,0.010481,0.029776,-0.0049,-0.007744,-0.017048,0.013061,-0.499335,0.030855,1.312204,-264.129898,-0.485426,61.993198
1.9466,-0.002374,0.010214,0.030535,-0.00491,-0.007732,-0.017051,0.012437,-0.499545,0.029234,1.308857,-264.137423,-0.494524,61.990984
1.9672,-0.002297,0.01009,0.029725,-0.004925,-0.007709,-0.017055,0.013125,-0.49956,0.030398,1.308857,-264.137423,-0.494524,61.990984
1.9868,-0.002636,0.010088,0.031458,-0.004938,-0.007691,-0.017058,0.013125,-0.49956,0.030398,1.308857,-264.137423,-0.494524,61.990984
2.0072,-0.002542,0.009924,0.029496,-0.004938,-0.007691,-0.017058,0.013211,-0.499989,0.030747,1.306561,-264.144931,-0.499895,61.98875
2.0274,-0.00218,0.010032,0.03077,-0.00497,-0.00764,-0.017065,0.012898,-0.499972,0.030154,1.306561,-264.144931,-0.499895,61.98875
2.0466,-0.001883,0.009546,0.029397,-0.004982,-0.007622,-0.017067,0.01336,-0.499975,0.030228,1.304589,-264.152439,-0.504644,61.986493
2.0671,-0.00221,0.009418,0.029466,-0.005004,-0.007587,-0.017072,0.013121,-0.500224,0.029441,1.304589,-264.152439,-0.504644,61.986493
2.0872,-0.00197,0.009279,0.028436,-0.005022,-0.007558,-0.017075,0.013121,-0.500224,0.029441,1.304589,-264.152439,-0.504644,61.986493
2.107,-0.002003,0.009024,0.029214,-0.005022,-0.007558,-0.017075,0.012332,-0.500839,0.027724,1.301418,-264.159924,-0.512225,61.984208
2.1271,-0.001765,0.008843,0.027215,-0.00506,-0.007494,-0.017081,0.012541,-0.500843,0.028257,1.301418,-264.159924,-0.512225,61.984208
2.1466,-0.001979,0.008545,0.028399,-0.005074,-0.007471,-0.017083,0.011961,-0.501212,0.026674,1.29852,-264.167367,-0.519263,61.981903
2.1675,-0.001759,0.008859,0.027763,-0.005096,-0.00743,-0.017086,0.012446,-0.501259,0.028216,1.29852,-264.167367,-0.519263,61.981903
2.1872,-0.001567,0.008624,0.027996,-0.005115,-0.007398,-0.017089,0.012446,-0.501259,0.028216,1.29852,-264.167367,-0.519263,61.981903
2.2073,-0.001777,0.008319,0.02719,-0.005115,-0.007398,-0.017089,0.012505,-0.501494,0.027282,1.294624,-264.17481,-0.528476,61.979552
2.2272,-0.001385,0.008477,0.027834,-0.005153,-0.007331,-0.017093,0.012312,-0.501531,0.027161,1.294624,-264.17481,-0.528476,61.979552
2.2466,-0.001127,0.00815,0.025673,-0.005168,-0.007307,-0.017093,0.012652,-0.501564,0.027291,1.291485,-264.182213,-0.536053,61.977179
2.267,-0.001407,0.007923,0.02637,-0.005178,-0.007292,-0.017093,0.01202,-0.501683,0.025792,1.291485,-264.182213,-0.536053,61.977179
2.2874,-0.001216,0.00798,0.025536,-0.005187,-0.007279,-0.017092,0.01202,-0.501683,0.025792,1.291485,-264.182213,-0.536053,61.977179
2.3067,-0.000781,0.007522,0.023802,-0.005187,-0.007279,-0.017092,0.011597,-0.502164,0.024821,1.287438,-264.189607,-0.544874,61.974761
2.3269,-0.000972,0.007556,0.022664,-0.005212,-0.00723,-0.017094,0.011474,-0.50227,0.024319,1.287438,-264.189607,-0.544874,61.974761
2.3471,-0.000884,0.007284,0.022809,-0.005222,-0.007213,-0.017093,0.010426,-0.502548,0.02212,1.285978,-264.19699,-0.547181,61.972332
2.3672,-0.001118,0.007372,0.02583,-0.005223,-0.00721,-0.01709,0.010712,-0.502592,0.022723,1.285978,-264.19699,-0.547181,61.972332
2.387,-0.000877,0.007149,0.023938,-0.005224,-0.007207,-0.017088,0.010712,-0.502592,0.022723,1.285978,-264.19699,-0.547181,61.972332
2.4071,-0.000839,0.006507,0.022524,-0.005224,-0.007207,-0.017088,0.011119,-0.503011,0.023224,1.283195,-264.204336,-0.553575,61.969883
2.4272,-0.00046,0.006841,0.022773,-0.005268,-0.007102,-0.017096,0.010904,-0.503189,0.022859,1.283195,-264.204336,-0.553575,61.969883
2.4473,-0.000666,0.006749,0.021934,-0.005286,-0.007064,-0.017097,0.010991,-0.503261,0.022225,1.282954,-264.211696,-0.553751,61.967426
2.4675,-0.0005,0.006093,0.022369,-0.005292,-0.007053,-0.017094,0.01056,-0.503157,0.021932,1.282954,-264.211696,-0.553751,61.967426
2.487,-0.000932,0.00674,0.022444,-0.005297,-0.007044,-0.01709,0.01056,-0.503157,0.021932,1.282954,-264.211696,-0.553751,61.967426
2.5071,8.5e-05,0.006534,0.020903,-0.005297,-0.007044,-0.01709,0.010299,-0.503431,0.021731,1.277566,-264.21899,-0.568624,61.964924
2.5272,-0.000496,0.006439,0.021478,-0.005318,-0.006997,-0.017086,0.010457,-0.503434,0.021309,1.277566,-264.21899,-0.568624,61.964924
2.5472,0.000116,0.006057,0.021554,-0.005326,-0.00698,-0.017083,0.010293,-0.503671,0.020934,1.276577,-264.226302,-0.569863,61.962406
2.5668,-0.000635,0.00597,0.020082,-0.005355,-0.006909,-0.017088,0.01103,-0.503823,0.021475,1.276577,-264.226302,-0.569863,61.962406
2.587,-0.000185,0.005968,0.021874,-0.00538,-0.006852,-0.017091,0.01103,-0.503823,0.021475,1.276577,-264.226302,-0.569863,61.962406
2.6069,0.000274,0.005465,0.018084,-0.00538,-0.006852,-0.017091,0.010754,-0.504206,0.021161,1.274003,-264.233581,-0.575259,61.959868
2.6269,-0.000138,0.005744,0.020367,-0.005421,-0.006744,-0.017083,0.010214,-0.504341,0.019819,1.274003,-264.233581,-0.575259,61.959868
2.6471,0.000271,0.005127,0.019307,-0.005437,-0.006706,-0.017079,0.010082,-0.504371,0.019825,1.269136,-264.24079,-0.587976,61.957294
2.6672,0.000429,0.005112,0.019496,-0.005461,-0.006639,-0.017075,0.010105,-0.504752,0.019326,1.269136,-264.24079,-0.587976,61.957294
2.6867,0.0004,0.0054,0.018297,-0.005481,-0.006585,-0.017071,0.010105,-0.504752,0.019326,1.269136,-264.24079,-0.587976,61.957294
2.7072,0.000168,0.004741,0.018085,-0.005481,-0.006585,-0.017071,0.009509,-0.504798,0.017584,1.263581,-264.247976,-0.60068,61.95466
2.7268,0.000542,0.004505,0.018144,-0.005503,-0.006513,-0.017032,0.009435,-0.504986,0.017706,1.263581,-264.247976,-0.60068,61.95466
2.7469,0.00038,0.004343,0.016959,-0.005512,-0.006487,-0.017017,0.009625,-0.505622,0.017603,1.259084,-264.255104,-0.611304,61.951991
2.767,0.000175,0.00477,0.016065,-0.005531,-0.00641,-0.016998,0.009071,-0.505598,0.016987,1.259084,-264.255104,-0.611304,61.951991
2.7869,8e-06,0.004467,0.016099,-0.005548,-0.006349,-0.016981,0.009071,-0.505598,0.016987,1.259084,-264.255104,-0.611304,61.951991
2.8071,0.000654,0.003722,0.015569,-0.005548,-0.006349,-0.016981,0.007992,-0.505741,0.015389,1.255157,-264.262203,-0.616422,61.94929
2.827,0.000593,0.004112,0.015579,-0.005559,-0.006236,-0.016867,0.008213,-0.505969,0.01538,1.255157,-264.262203,-0.616422,61.94929
2.8469,0.001168,0.003735,0.016369,-0.005565,-0.006196,-0.016824,0.008364,-0.506031,0.015038,1.250403,-264.269235,-0.627261,61.946555
2.8667,0.001021,0.003962,0.01553,-0.005599,-0.006087,-0.016826,0.00941,-0.506193,0.01623,1.250403,-264.269235,-0.627261,61.946555
2.887,0.000408,0.004097,0.013511,-0.005629,-0.006001,-0.016825,0.00941,-0.506193,0.01623,1.250403,-264.269235,-0.627261,61.946555
2.9067,0.001109,0.003542,0.01497,-0.005629,-0.006001,-0.016825,0.007069,-0.506118,0.012807,1.244982,-264.276182,-0.632629,61.943797
2.9268,0.000789,0.003835,0.013412,-0.005611,-0.005976,-0.01659,0.007727,-0.506264,0.013611,1.244982,-264.276182,-0.632629,61.943797
2.9471,0.000851,0.003009,0.012877,-0.005606,-0.005964,-0.016509,0.007453,-0.506311,0.01288,1.237869,-264.283024,-0.649509,61.94099
2.9668,0.001186,0.003378,0.013798,-0.005608,-0.005863,-0.016397,0.007412,-0.506901,0.01285,1.237869,-264.283024,-0.649509,61.94099
2.9869,0.001173,0.003585,0.013952,-0.005611,-0.005782,-0.016307,0.007412,-0.506901,0.01285,1.237869,-264.283024,-0.649509,61.94099
3.007,0.00144,0.002966,0.012152,-0.005611,-0.005782,-0.016307,0.008059,-0.506617,0.013265,1.234711,-264.289802,-0.633646,61.938216
3.0269,0.001108,0.003404,0.012167,-0.005642,-0.005665,-0.016162,0.007858,-0.506803,0.012727,1.234711,-264.289802,-0.633646,61.938216
3.047,0.001496,0.00315,0.011524,-0.005655,-0.005623,-0.01611,0.007138,-0.506744,0.01165,1.228416,-264.296469,-0.64004,61.935425
3.0666,0.00147,0.002871,0.012301,-0.005648,-0.005611,-0.015949,0.007342,-0.506819,0.011508,1.228416,-264.296469,-0.64004,61.935425
3.087,0.001605,0.002441,0.010945,-0.005643,-0.005598,-0.015825,0.007342,-0.506819,0.011508,1.228416,-264.296469,-0.64004,61.935425
3.1068,0.001523,0.002269,0.010881,-0.005643,-0.005598,-0.015825,0.006953,-0.507766,0.010271,1.220172,-264.303063,-0.640579,61.9326
3.1267,0.001676,0.002343,0.010689,-0.005633,-0.005294,-0.015459,0.006975,-0.507767,0.010446,1.220172,-264.303063,-0.640579,61.9326
3.1469,0.001589,0.001925,0.010085,-0.005634,-0.005187,-0.015337,0.006951,-0.507807,0.010189,1.216647,-264.30955,-0.624452,61.929827
3.1667,0.001771,0.002185,0.011577,-0.005625,-0.005055,-0.015195,0.006741,-0.508038,0.01007,1.216647,-264.30955,-0.624452,61.929827
3.1868,0.001829,0.002189,0.010773,-0.005621,-0.00495,-0.015087,0.006741,-0.508038,0.01007,1.216647,-264.30955,-0.624452,61.929827
3.207,0.002055,0.001868,0.010278,-0.005621,-0.00495,-0.015087,0.007093,-0.507999,0.010138,1.201439,-264.315743,-0.63836,61.927043
3.2271,0.001888,0.001773,0.007539,-0.005659,-0.00478,-0.014954,0.00715,-0.508068,0.010122,1.201439,-264.315743,-0.63836,61.927043
3.2469,0.001814,0.001781,0.009658,-0.005676,-0.00472,-0.014909,0.005557,-0.50837,0.007062,1.193028,-264.321808,-0.649002,61.924235
3.2672,0.001855,0.001581,0.010014,-0.005662,-0.004658,-0.014766,0.006625,-0.508219,0.009402,1.193028,-264.321808,-0.649002,61.924235
3.2866,0.001982,0.001655,0.010016,-0.005653,-0.004608,-0.01466,0.006625,-0.508219,0.009402,1.193028,-264.321808,-0.649002,61.924235
3.3072,0.002286,0.001278,0.008042,-0.005653,-0.004608,-0.01466,0.006856,-0.508518,0.009395,1.181252,-264.327776,-0.657881,61.921371
3.3273,0.002038,0.001603,0.008597,-0.005637,-0.004394,-0.014348,0.006636,-0.508618,0.008765,1.181252,-264.327776,-0.657881,61.921371
3.3466,0.002002,0.001315,0.007349,-0.005636,-0.004319,-0.014248,0.006244,-0.508526,0.008131,1.175817,-264.333639,-0.655349,61.918525
3.3669,0.001881,0.000992,0.007429,-0.005566,-0.004267,-0.01389,0.005786,-0.508666,0.007396,1.175817,-264.333639,-0.655349,61.918525
3.3869,0.002441,0.001182,0.008644,-0.005514,-0.004222,-0.013633,0.005786,-0.508666,0.007396,1.175817,-264.333639,-0.655349,61.918525
3.4072,0.002128,0.000779,0.008263,-0.005514,-0.004222,-0.013633,0.006616,-0.508981,0.008049,1.162272,-264.339307,-0.660932,61.915673
3.4269,0.002497,0.001284,0.005977,-0.005534,-0.003972,-0.013576,0.006476,-0.509094,0.008069,1.162272,-264.339307,-0.660932,61.915673
3.4466,0.002127,0.000775,0.006774,-0.005546,-0.003886,-0.013555,0.005373,-0.508841,0.005548,1.156801,-264.344748,-0.639903,61.912945
3.4671,0.002301,0.000479,0.007256,-0.005471,-0.003807,-0.013221,0.005555,-0.509188,0.006649,1.156801,-264.344748,-0.639903,61.912945
3.4868,0.002189,0.000704,0.006523,-0.005416,-0.003741,-0.012981,0.005555,-0.509188,0.006649,1.156801,-264.344748,-0.639903,61.912945
3.507,0.002363,0.000746,0.004836,-0.005416,-0.003741,-0.012981,0.005289,-0.509446,0.005967,1.143057,-264.350001,-0.669837,61.910165
3.5269,0.002197,0.0007,0.005086,-0.005221,-0.003571,-0.012119,0.005073,-0.509383,0.005436,1.143057,-264.350001,-0.669837,61.910165
3.5471,0.002568,0.000431,0.003485,-0.005161,-0.003505,-0.011863,0.004619,-0.509413,0.004674,1.136248,-264.355124,-0.658084,61.907439
3.5671,0.002682,0.000474,0.005198,-0.004988,-0.003435,-0.011018,0.004362,-0.509558,0.003572,1.136248,-264.355124,-0.658084,61.907439
3.5874,0.002348,0.000427,0.004164,-0.004861,-0.003366,-0.01043,0.004362,-0.509558,0.003572,1.136248,-264.355124,-0.658084,61.907439
3.6072,0.002071,0.000155,0.004892,-0.004861,-0.003366,-0.01043,0.00426,-0.509714,0.003676,1.123252,-264.359841,-0.62711,61.904918
3.6271,0.002536,7.6e-05,0.004481,-0.004701,-0.003121,-0.010127,0.004365,-0.509784,0.004135,1.123252,-264.359841,-0.62711,61.904918
3.6469,0.002649,8.4e-05,0.004994,-0.004653,-0.003035,-0.010036,0.004681,-0.510016,0.00418,1.107758,-264.363799,-0.55352,61.90284
3.6675,0.00245,7.5e-05,0.002868,-0.004723,-0.002938,-0.010221,0.005146,-0.509923,0.004911,1.107758,-264.363799,-0.55352,61.90284
3.6869,0.002549,0.000105,0.003513,-0.00478,-0.002865,-0.010351,0.005146,-0.509923,0.004911,1.107758,-264.363799,-0.55352,61.90284
3.707,0.001976,-0.000187,0.004895,-0.00478,-0.002865,-0.010351,0.004151,-0.510017,0.003103,1.100946,-264.367834,-0.586904,61.900646
3.727,0.002401,-0.000246,0.003062,-0.004619,-0.002674,-0.009889,0.004262,-0.510099,0.003799,1.100946,-264.367834,-0.586904,61.900646
3.7474,0.002514,-0.000223,0.000238,-0.004571,-0.002605,-0.009749,0.003816,-0.510332,0.002743,1.091069,-264.37186,-0.626173,61.898352
3.7672,0.002333,-0.000241,0.002583,-0.004173,-0.002596,-0.008095,0.002732,-0.510237,0.000443,1.091069,-264.37186,-0.626173,61.898352
3.7871,0.00233,-0.000705,0.00206,-0.003881,-0.002562,-0.006893,0.002732,-0.510237,0.000443,1.091069,-264.37186,-0.626173,61.898352
3.8071,0.00269,-0.000222,0.001864,-0.003881,-0.002562,-0.006893,0.00319,-0.510814,0.001653,1.080314,-264.375737,-0.632377,61.896088
3.8267,0.00247,-0.000359,0.001393,-0.003747,-0.002231,-0.006555,0.003353,-0.510583,0.001692,1.080314,-264.375737,-0.632377,61.896088
3.8469,0.002537,-0.000253,0.00305,-0.003708,-0.002113,-0.006454,0.003132,-0.510389,0.001295,1.050355,-264.377038,-0.55725,61.895385
3.8672,0.002708,-0.00052,0.00246,-0.003841,-0.002111,-0.006908,0.004009,-0.510264,0.002896,1.050355,-264.377038,-0.55725,61.895385
3.8871,0.002324,-0.000489,0.002312,-0.003942,-0.00211,-0.007234,0.004009,-0.510264,0.002896,1.050355,-264.377038,-0.55725,61.895385
3.9071,0.002516,-0.000766,0.000834,-0.003942,-0.00211,-0.007234,0.003373,-0.510561,0.002082,1.021289,-264.379427,-0.482256,61.893994
3.9279,0.00233,-0.000514,0.001386,-0.00374,-0.001926,-0.006618,0.003182,-0.510653,0.001547,1.021289,-264.379427,-0.482256,61.893994
3.9467,0.002843,-0.000514,0.000426,-0.003678,-0.001857,-0.006431,0.002916,-0.510579,0.001164,1.027498,-264.382373,-0.529721,61.89223
3.9667,0.002674,-0.000827,0.001933,-0.003607,-0.001872,-0.00572,0.003042,-0.510523,0.000479,1.027498,-264.382373,-0.529721,61.89223
3.9869,0.002513,-0.000387,0.001501,-0.003555,-0.001872,-0.005205,0.003042,-0.510523,0.000479,1.027498,-264.382373,-0.529721,61.89223
4.0068,0.002589,-0.000717,0.001267,-0.003555,-0.001872,-0.005205,0.003127,-0.510463,0.001236,1.004493,-264.385081,-0.512937,61.890562
4.0268,0.00304,-0.000737,0.001101,-0.003541,-0.001796,-0.005267,0.003154,-0.510577,0.001218,1.004493,-264.385081,-0.512937,61.890562
4.0467,0.002222,-0.000726,0.0013,-0.003537,-0.001768,-0.005282,0.003531,-0.510771,0.00099,0.957475,-264.386655,-0.437849,61.889597
4.0669,0.002902,-0.000611,-0.000311,-0.003479,-0.001696,-0.005343,0.002936,-0.510732,0.001268,0.957475,-264.386655,-0.437849,61.889597
4.0871,0.002613,-0.001227,0.000839,-0.003437,-0.001641,-0.005383,0.002936,-0.510732,0.001268,0.957475,-264.386655,-0.437849,61.889597
4.1073,0.002575,-0.001032,0.001321,-0.003437,-0.001641,-0.005383,0.002898,-0.511299,0.000626,0.954514,-264.389019,-0.390897,61.888119
4.1274,0.002062,-0.001033,9.5e-05,-0.003351,-0.001363,-0.005114,0.003025,-0.511198,0.000885,0.954514,-264.389019,-0.390897,61.888119
4.1466,0.002822,-0.000848,-0.001512,-0.003328,-0.001268,-0.005024,0.002007,-0.511082,-6.9e-05,0.961837,-264.391298,-0.446767,61.886673
4.167,0.002535,-0.000525,0.000674,-0.003064,-0.00134,-0.003904,0.002041,-0.510871,-0.00139,0.961837,-264.391298,-0.446767,61.886673
4.187,0.002227,-0.000734,0.000359,-0.002869,-0.001375,-0.003074,0.002041,-0.510871,-0.00139,0.961837,-264.391298,-0.446767,61.886673
4.2068,0.002475,-0.000761,0.000199,-0.002869,-0.001375,-0.003074,0.00228,-0.510784,0.000163,0.91626,-264.393337,-0.496078,61.885262
4.2269,0.002291,-0.000795,-0.001171,-0.00283,-0.001374,-0.003221,0.002387,-0.51078,0.000155,0.91626,-264.393337,-0.496078,61.885262
4.2467,0.001927,-0.001282,-0.000518,-0.002817,-0.001371,-0.003258,0.001679,-0.510801,-0.001191,0.848078,-264.393631,-0.420893,61.885065
4.267,0.002224,-0.001065,-0.00045,-0.00256,-0.001242,-0.00296,0.001664,-0.511239,-0.000579,0.848078,-264.393631,-0.420893,61.885065
4.2872,0.002533,-0.000859,-8.5e-05,-0.00237,-0.001137,-0.002737,0.001664,-0.511239,-0.000579,0.848078,-264.393631,-0.420893,61.885065
4.3069,0.002343,-0.000976,0.000559,-0.00237,-0.001137,-0.002737,0.002431,-0.510884,-0.00016,0.873191,-264.394516,-0.346082,61.884482
4.327,0.002346,-0.00116,0.000151,-0.0026,-0.001148,-0.003003,0.002504,-0.510924,0.000123,0.873191,-264.394516,-0.346082,61.884482
4.3468,0.002763,-0.001171,-0.000438,-0.002674,-0.001151,-0.003079,0.002365,-0.511187,8.1e-05,0.869841,-264.395665,-0.271052,61.883723
4.367,0.002194,-0.001018,-0.000559,-0.002706,-0.001098,-0.002875,0.002521,-0.511174,-0.000396,0.869841,-264.395665,-0.271052,61.883723
4.3867,0.002565,-0.001006,-0.000378,-0.002733,-0.001055,-0.002725,0.002521,-0.511174,-0.000396,0.869841,-264.395665,-0.271052,61.883723
4.4069,0.002315,-0.00134,0.001145,-0.002733,-0.001055,-0.002725,0.002261,-0.511054,-0.000506,0.848129,-264.39727,-0.266439,61.882623
4.4268,0.002489,-0.000928,-0.000291,-0.002777,-0.000967,-0.003042,0.002512,-0.511177,0.000161,0.848129,-264.39727,-0.266439,61.882623
4.4468,0.00212,-0.001207,0.000533,-0.002792,-0.000939,-0.003134,0.002262,-0.510958,-0.000369,0.782947,-264.398662,-0.219313,61.881612
4.467,0.001915,-0.001131,-0.001256,-0.002773,-0.000906,-0.003368,0.002377,-0.511188,0.000455,0.782947,-264.398662,-0.219313,61.881612
4.4868,0.002426,-0.001213,-0.000156,-0.002759,-0.000883,-0.003533,0.002377,-0.511188,0.000455,0.782947,-264.398662,-0.219313,61.881612
4.5071,0.002098,-0.001315,-0.001093,-0.002759,-0.000883,-0.003533,0.002253,-0.511246,-0.000258,0.796285,-264.399942,-0.294406,61.880663
4.5268,0.002168,-0.001695,0.000128,-0.002508,-0.000842,-0.0028,0.001946,-0.511279,-0.000616,0.796285,-264.399942,-0.294406,61.880663
4.547,0.002035,-0.001113,-0.000728,-0.002429,-0.000821,-0.002575,0.00217,-0.511717,5.1e-05,0.834017,-264.40112,-0.369376,61.879792
4.5668,0.002098,-0.0012,-0.00209,-0.002309,-0.000846,-0.002383,0.001703,-0.511165,-0.000666,0.834017,-264.40112,-0.369376,61.879792
4.5872,0.001971,-0.000872,-0.000863,-0.002219,-0.00086,-0.002244,0.001703,-0.511165,-0.000666,0.834017,-264.40112,-0.369376,61.879792
4.607,0.001919,-0.001176,-0.002109,-0.002219,-0.00086,-0.002244,0.001441,-0.510902,-0.000957,0.778068,-264.402322,-0.300302,61.878895
4.627,0.001977,-0.001441,-0.000603,-0.001807,-0.000983,-0.001476,0.001184,-0.511018,-0.001445,0.778068,-264.402322,-0.300302,61.878895
4.6469,0.002,-0.001352,-0.000976,-0.001675,-0.001009,-0.001243,0.001605,-0.511466,-0.000668,0.787985,-264.403469,-0.226073,61.878065
4.6671,0.001971,-0.001205,-0.000182,-0.001664,-0.000906,-0.001309,0.001508,-0.511363,-0.000951,0.787985,-264.403469,-0.226073,61.878065
4.687,0.001921,-0.001568,0.000146,-0.001656,-0.000826,-0.001352,0.001508,-0.511363,-0.000951,0.787985,-264.403469,-0.226073,61.878065
4.7072,0.001972,-0.001243,-0.001848,-0.001656,-0.000826,-0.001352,0.001989,-0.511571,0.000139,0.812588,-264.403567,-0.151254,61.877997
4.7267,0.001955,-0.001438,-0.001467,-0.001694,-0.000673,-0.001624,0.001592,-0.511435,-0.000682,0.812588,-264.403567,-0.151254,61.877997
4.7466,0.001953,-0.001487,-3.7e-05,-0.001707,-0.000623,-0.001699,0.001171,-0.511454,-0.001499,0.784087,-264.404203,-0.076087,61.877546
4.7671,0.001788,-0.001364,-0.002236,-0.001795,-0.000565,-0.002012,0.001864,-0.511485,-0.000168,0.784087,-264.404203,-0.076087,61.877546
4.787,0.001922,-0.001216,-0.000323,-0.001862,-0.000524,-0.002234,0.001864,-0.511485,-0.000168,0.784087,-264.404203,-0.076087,61.877546
4.8067,0.001817,-0.001284,-0.001183,-0.001862,-0.000524,-0.002234,0.00171,-0.511235,-0.000366,0.771946,-264.404827,-0.150952,61.877086
4.8267,0.001649,-0.001263,-0.001034,-0.001782,-0.000599,-0.002022,0.0015,-0.511257,-0.000708,0.771946,-264.404827,-0.150952,61.877086
4.8469,0.001518,-0.001485,-0.00147,-0.001756,-0.00062,-0.001958,0.001103,-0.51127,-0.001052,0.792288,-264.405142,-0.226091,61.876844
4.867,0.00192,-0.001229,-0.000642,-0.001482,-0.000598,-0.001607,0.000796,-0.511467,-0.001435,0.792288,-264.405142,-0.226091,61.876844
4.887,0.001331,-0.001333,0.000117,-0.001277,-0.000574,-0.001352,0.000796,-0.511467,-0.001435,0.792288,-264.405142,-0.226091,61.876844
4.907,0.001678,-0.00135,-0.000562,-0.001277,-0.000574,-0.001352,0.001326,-0.511357,4.7e-05,0.802183,-264.406025,-0.30108,61.876197
4.9271,0.002123,-0.001626,-0.00088,-0.001365,-0.000525,-0.002026,0.001345,-0.511356,-0.00021,0.802183,-264.406025,-0.30108,61.876197
4.947,0.002216,-0.001664,0.000731,-0.001391,-0.000512,-0.002226,0.00164,-0.51164,-0.000916,0.831107,-264.40665,-0.226093,61.875769
4.967,0.001981,-0.001647,-0.000923,-0.001703,-0.000444,-0.002782,0.002506,-0.511662,0.000589,0.831107,-264.40665,-0.226093,61.875769
4.987,0.001851,-0.001358,-0.002964,-0.001944,-0.000396,-0.003183,0.002506,-0.511662,0.000589,0.831107,-264.40665,-0.226093,61.875769
5.0068,0.001713,-0.001434,-0.000265,-0.001944,-0.000396,-0.003183,0.000329,-0.51136,-0.002977,0.906122,-264.406797,-0.301108,61.875665
5.027,0.002027,-0.001447,-0.001125,-0.001412,-0.000529,-0.00171,0.000837,-0.511391,-0.001873,0.906122,-264.406797,-0.301108,61.875665
5.0466,0.001578,-0.001536,-0.001309,-0.001244,-0.000555,-0.001255,0.001446,-0.511449,-0.001134,0.877659,-264.406922,-0.376077,61.875563
5.0666,0.001502,-0.001433,-0.00081,-0.00116,-0.000507,-0.001166,0.000955,-0.511529,-0.001295,0.877659,-264.406922,-0.376077,61.875563
5.087,0.0019,-0.001406,-0.001489,-0.001097,-0.000468,-0.001097,0.000955,-0.511529,-0.001295,0.877659,-264.406922,-0.376077,61.875563
5.1074,0.001666,-0.001734,-0.001128,-0.001097,-0.000468,-0.001097,0.001117,-0.511414,-0.001516,0.815493,-264.407263,-0.301058,61.875326
5.1274,0.001579,-0.001498,-0.000808,0.0,0.0,0.0,0.001104,-0.511546,-0.001361,0.815493,-264.407263,-0.301058,61.875326
