mach0312/omni-docking-bench/src/icros_test_setup/results/MPPI_sample/timeseries/trial_122.csv
t,x,y,yaw,vx,vy,wz,bl_x,bl_y,bl_yaw,front_steering_joint,front_wheel_joint,rear_steering_joint,rear_wheel_joint
0.0,-0.050874,-0.021801,0.053062,0.005541,-0.001733,0.002287,-0.024875,-0.530505,0.052611,-0.060666,-261.484414,-0.514212,69.250094
0.0003,-0.050749,-0.021906,0.051354,0.005085,-0.001591,0.002099,-0.024967,-0.530591,0.052281,-0.060666,-261.482193,-0.514212,69.25264
0.0006,-0.050545,-0.021698,0.052163,0.004579,-0.001433,0.00189,-0.024967,-0.530591,0.052281,-0.060666,-261.48057,-0.514212,69.254501
0.0008,-0.050487,-0.021989,0.050692,0.00405,-0.001267,0.001672,-0.024967,-0.530591,0.052281,-0.060666,-261.48057,-0.514212,69.254501
0.001,-0.050199,-0.022072,0.051811,0.003475,-0.001087,0.001434,-0.025103,-0.530986,0.051615,-0.060666,-261.48057,-0.514212,69.254501
0.0013,-0.050451,-0.022046,0.051288,0.002859,-0.000894,0.00118,-0.025103,-0.530986,0.051615,-0.060666,-261.48057,-0.514212,69.254501
0.0062,-0.050429,-0.021549,0.05194,0.0,0.0,0.0,-0.024134,-0.53142,0.051358,-0.060666,-261.48057,-0.514212,69.254501
0.0262,-0.050236,-0.022058,0.050451,0.0,0.0,0.0,-0.02404,-0.531197,0.051604,-0.060666,-261.48057,-0.514212,69.254501
0.0459,-0.050216,-0.021428,0.053584,0.0,0.0,0.0,-0.024424,-0.531433,0.050488,-0.060666,-261.479425,-0.514212,69.255814
0.0659,-0.050083,-0.022145,0.051298,0.0,0.0,0.0,-0.023036,-0.530765,0.053301,-0.060666,-261.479425,-0.514212,69.255814
0.0861,-0.050337,-0.021679,0.052159,0.0,0.0,0.0,-0.023036,-0.530765,0.053301,-0.060666,-261.479425,-0.514212,69.255814
0.1056,-0.050175,-0.022081,0.052692,0.0,0.0,0.0,-0.023748,-0.530985,0.052159,-0.060666,-261.479425,-0.514212,69.255814
0.126,-0.049998,-0.021905,0.05054,0.002942,0.005883,-0.004909,-0.023572,-0.531143,0.052376,-0.060666,-261.479425,-0.514212,69.255814
0.1456,-0.050051,-0.021776,0.052626,0.003185,0.006297,-0.005205,-0.024234,-0.531254,0.05054,-0.060666,-261.479425,-0.514212,69.255814
0.1655,-0.050234,-0.022211,0.053901,0.003399,0.006652,-0.005461,-0.023315,-0.531086,0.05244,-0.060666,-261.479425,-0.514212,69.255814
0.1856,-0.050235,-0.021997,0.051536,0.003588,0.006955,-0.005674,-0.023315,-0.531086,0.05244,-0.060666,-261.479425,-0.514212,69.255814
0.2056,-0.050089,-0.021853,0.052531,0.003588,0.006955,-0.005674,-0.023963,-0.53132,0.051536,0.014335,-261.479425,-0.43921,69.255814
0.2259,-0.050375,-0.021913,0.050893,0.003911,0.007427,-0.006018,-0.023695,-0.53125,0.051944,0.014335,-261.479425,-0.43921,69.255814
0.2454,-0.049965,-0.02181,0.052121,0.004045,0.007612,-0.006147,-0.02443,-0.531252,0.050893,0.089454,-261.479425,-0.364091,69.255814
0.2657,-0.050413,-0.022039,0.051507,0.004164,0.007771,-0.006268,-0.023489,-0.531129,0.05201,0.089454,-261.479425,-0.364091,69.255814
0.286,-0.050022,-0.021955,0.052257,0.00427,0.007907,-0.006368,-0.023489,-0.531129,0.05201,0.089454,-261.479425,-0.364091,69.255814
0.3059,-0.050281,-0.021814,0.05208,0.00427,0.007907,-0.006368,-0.023383,-0.531259,0.052257,0.164322,-261.479425,-0.289224,69.255814
0.3263,-0.050281,-0.021859,0.051753,0.004448,0.008121,-0.006546,-0.023526,-0.531203,0.052185,0.164322,-261.479425,-0.289224,69.255814
0.3454,-0.050182,-0.022262,0.051472,0.004522,0.008206,-0.006614,-0.023899,-0.531176,0.051753,0.239327,-261.479425,-0.214219,69.255814
0.3661,-0.049817,-0.022267,0.051741,0.004587,0.008278,-0.006713,-0.023939,-0.53155,0.051497,0.239327,-261.479425,-0.214219,69.255814
0.3858,-0.050181,-0.021743,0.051091,0.004645,0.00834,-0.006796,-0.023939,-0.53155,0.051497,0.239327,-261.479425,-0.214219,69.255814
0.4057,-0.050059,-0.021932,0.053089,0.004645,0.00834,-0.006796,-0.024136,-0.531078,0.051091,0.314356,-261.479425,-0.13919,69.255814
0.4262,-0.050194,-0.022518,0.053169,0.004747,0.008432,-0.006923,-0.023672,-0.531133,0.051905,0.314356,-261.479425,-0.13919,69.255814
0.4458,-0.050238,-0.021567,0.052865,0.004789,0.008469,-0.006972,-0.023091,-0.531797,0.053169,0.389325,-261.479425,-0.064221,69.255814
0.4658,-0.050641,-0.021826,0.052309,0.004825,0.008501,-0.007013,-0.023272,-0.530935,0.052891,0.389325,-261.479425,-0.064221,69.255814
0.4861,-0.050354,-0.021889,0.051196,0.004856,0.00853,-0.007048,-0.023272,-0.530935,0.052891,0.389325,-261.479425,-0.064221,69.255814
0.506,-0.05048,-0.022134,0.051151,0.004856,0.00853,-0.007048,-0.024255,-0.53122,0.051196,0.464444,-261.479425,0.010898,69.255814
0.526,-0.049934,-0.021805,0.052547,0.00492,0.00856,-0.007102,-0.024316,-0.531321,0.051178,0.464444,-261.479425,0.010898,69.255814
0.5461,-0.049969,-0.022252,0.053878,0.004946,0.008572,-0.007123,-0.023147,-0.531101,0.052547,0.539457,-261.479425,0.085911,69.255814
0.5659,-0.050354,-0.022172,0.051463,0.004943,0.008614,-0.007143,-0.022559,-0.531477,0.053765,0.539457,-261.479425,0.085911,69.255814
0.5859,-0.050415,-0.021847,0.051234,0.004942,0.008649,-0.007159,-0.022559,-0.531477,0.053765,0.539457,-261.479425,0.085911,69.255814
0.606,-0.049947,-0.021949,0.053589,0.004942,0.008649,-0.007159,-0.024297,-0.531178,0.051234,0.614463,-261.479424,0.160918,69.255815
0.626,-0.050025,-0.021816,0.051428,0.004976,0.008663,-0.007183,-0.02361,-0.531194,0.052204,0.614463,-261.479424,0.160918,69.255815
0.6455,-0.049727,-0.02193,0.053309,0.00499,0.008669,-0.007192,-0.023809,-0.531141,0.051428,0.689456,-261.479424,0.23591,69.255815
0.6657,-0.050278,-0.021927,0.052048,0.004989,0.00869,-0.007201,-0.022666,-0.5312,0.053139,0.689456,-261.479424,0.23591,69.255815
0.6863,-0.049844,-0.021919,0.051861,0.004989,0.008708,-0.007209,-0.022666,-0.5312,0.053139,0.689456,-261.479424,0.23591,69.255815
0.7059,-0.050187,-0.021994,0.051854,0.004989,0.008708,-0.007209,-0.023407,-0.531233,0.051861,0.708614,-261.479424,0.310781,69.255816
0.7259,-0.050216,-0.022073,0.052455,0.005009,0.008712,-0.007219,-0.023549,-0.531264,0.051858,0.708614,-261.479424,0.310781,69.255816
0.746,-0.049804,-0.021617,0.054422,0.005017,0.008714,-0.007224,-0.023477,-0.531371,0.052455,0.71197,-261.479424,0.385807,69.255816
0.7657,-0.049938,-0.021873,0.050589,0.005012,0.00873,-0.007229,-0.022188,-0.530907,0.054247,0.71197,-261.479424,0.385807,69.255816
0.7857,-0.050285,-0.022135,0.051658,0.005008,0.008744,-0.007233,-0.022188,-0.530907,0.054247,0.71197,-261.479424,0.385807,69.255816
0.8057,-0.049978,-0.021821,0.051627,0.005008,0.008744,-0.007233,-0.023952,-0.531455,0.051658,0.708855,-261.479423,0.460816,69.255817
0.8263,-0.050094,-0.021767,0.051907,0.005029,0.008732,-0.007237,-0.023833,-0.531327,0.051645,0.708855,-261.479423,0.460816,69.255817
0.8457,-0.050167,-0.021949,0.051224,0.005037,0.008728,-0.007239,-0.023633,-0.531081,0.051907,0.712545,-261.479423,0.535797,69.255818
0.8655,-0.049739,-0.021871,0.052515,0.005047,0.008721,-0.007241,-0.024016,-0.531262,0.051286,0.712545,-261.479423,0.535797,69.255818
0.8859,-0.05,-0.022151,0.052155,0.005056,0.008715,-0.007242,-0.024016,-0.531262,0.051286,0.712545,-261.479423,0.535797,69.255818
0.9059,-0.050401,-0.021886,0.052317,0.005056,0.008715,-0.007242,-0.023413,-0.531457,0.052155,0.707427,-261.479422,0.61078,69.255821
0.9256,-0.049953,-0.021561,0.051715,0.005056,0.008722,-0.007246,-0.023543,-0.531347,0.052221,0.707427,-261.479422,0.61078,69.255821
0.9464,-0.050113,-0.021638,0.05267,0.005057,0.008724,-0.007247,-0.02359,-0.530879,0.051715,0.703806,-261.479415,0.685784,69.255835
0.9659,-0.050056,-0.021918,0.05357,0.00506,0.008722,-0.007249,-0.023293,-0.530926,0.052584,0.703806,-261.479415,0.685784,69.255835
0.9861,-0.050275,-0.022028,0.052653,0.005064,0.00872,-0.00725,-0.023293,-0.530926,0.052584,0.703806,-261.479415,0.685784,69.255835
1.0061,-0.050043,-0.022007,0.051496,0.005064,0.00872,-0.00725,-0.023431,-0.531318,0.05265,0.704485,-261.479385,0.760801,69.255898
1.0259,-0.049936,-0.021608,0.051603,0.005064,0.008724,-0.007251,-0.023578,-0.531323,0.052178,0.704485,-261.479385,0.760801,69.255898
1.0456,-0.050101,-0.021499,0.052357,0.005064,0.008726,-0.007252,-0.023622,-0.530919,0.051596,0.703195,-261.479281,0.835768,69.25612
1.0661,-0.050189,-0.021932,0.051954,0.00507,0.008719,-0.007252,-0.023429,-0.53081,0.052289,0.703195,-261.479281,0.835768,69.25612
1.0859,-0.050075,-0.022016,0.052345,0.005076,0.008713,-0.007253,-0.023429,-0.53081,0.052289,0.703195,-261.479281,0.835768,69.25612
1.1056,-0.049943,-0.022066,0.050901,0.005076,0.008713,-0.007253,-0.023362,-0.531281,0.05232,0.703583,-261.47899,0.910791,69.256736
1.1256,-0.049816,-0.021905,0.051369,0.005073,0.008719,-0.007254,-0.023617,-0.531328,0.051737,0.703583,-261.47899,0.910791,69.256736
1.1459,-0.04985,-0.02146,0.051729,0.005072,0.008721,-0.007255,-0.023581,-0.531166,0.05132,0.701,-261.478321,0.985767,69.258155
1.1655,-0.049969,-0.022134,0.051258,0.005077,0.008715,-0.007255,-0.023486,-0.53081,0.051689,0.701,-261.478321,0.985767,69.258155
1.1857,-0.049858,-0.021896,0.052836,0.005082,0.00871,-0.007255,-0.023486,-0.53081,0.051689,0.701,-261.478321,0.985767,69.258155
1.2055,-0.049624,-0.021178,0.051544,0.005082,0.00871,-0.007255,-0.022816,-0.531016,0.052707,0.702164,-261.477078,1.060775,69.260793
1.2258,-0.04975,-0.021344,0.05102,0.005079,0.008715,-0.007256,-0.023022,-0.530786,0.052217,0.702164,-261.477078,1.060775,69.260793
1.2454,-0.049085,-0.020888,0.051793,0.005077,0.008716,-0.007257,-0.023624,-0.530476,0.050859,0.69982,-261.475148,1.135774,69.264888
1.2658,-0.049391,-0.021766,0.051098,0.005083,0.00871,-0.007295,-0.022761,-0.530218,0.051701,0.69982,-261.475148,1.135774,69.264888
1.2858,-0.04917,-0.021181,0.049985,0.005087,0.008704,-0.007327,-0.022761,-0.530218,0.051701,0.69982,-261.475148,1.135774,69.264888
1.3057,-0.048683,-0.020714,0.051357,0.005087,0.008704,-0.007327,-0.023507,-0.530195,0.049702,0.700908,-261.472672,1.202278,69.27014
1.3258,-0.048977,-0.020783,0.051349,0.005104,0.008683,-0.007413,-0.023076,-0.530092,0.050346,0.700908,-261.472672,1.202278,69.27014
1.3458,-0.047997,-0.020198,0.049679,0.00511,0.008675,-0.007446,-0.022653,-0.529826,0.051115,0.693544,-261.470028,1.202398,69.275786
1.3655,-0.048522,-0.020434,0.051101,0.005118,0.008664,-0.007493,-0.022663,-0.529577,0.049794,0.693544,-261.470028,1.202398,69.275786
1.3858,-0.048571,-0.020296,0.050918,0.005125,0.008655,-0.007532,-0.022663,-0.529577,0.049794,0.693544,-261.470028,1.202398,69.275786
1.406,-0.048283,-0.01946,0.050613,0.005125,0.008655,-0.007532,-0.02242,-0.529263,0.050608,0.679415,-261.467409,1.202004,69.281438
1.4262,-0.048034,-0.020092,0.049398,0.005147,0.008623,-0.007625,-0.022422,-0.529033,0.050574,0.679415,-261.467409,1.202004,69.281438
1.4454,-0.047734,-0.019483,0.050194,0.005156,0.008611,-0.00766,-0.022703,-0.529187,0.049158,0.669316,-261.464799,1.201869,69.287113
1.4657,-0.047503,-0.01922,0.049012,0.005162,0.008601,-0.007706,-0.022189,-0.528858,0.050088,0.669316,-261.464799,1.201869,69.287113
1.4854,-0.048011,-0.01951,0.050191,0.005168,0.008593,-0.007745,-0.022189,-0.528858,0.050088,0.669316,-261.464799,1.201869,69.287113
1.5056,-0.047459,-0.019031,0.049222,0.005168,0.008593,-0.007745,-0.022228,-0.528499,0.049872,0.651677,-261.462219,1.200732,69.292786
1.5256,-0.047258,-0.019149,0.048578,0.005192,0.008558,-0.007833,-0.022262,-0.528421,0.04957,0.651677,-261.462219,1.200732,69.292786
1.5457,-0.046773,-0.018693,0.050102,0.005201,0.008544,-0.007867,-0.022342,-0.528266,0.048331,0.641823,-261.459642,1.200756,69.298494
1.5655,-0.046752,-0.018371,0.048277,0.005203,0.00854,-0.007911,-0.021324,-0.528058,0.049931,0.641823,-261.459642,1.200756,69.298494
1.5858,-0.047007,-0.018681,0.049278,0.005204,0.008537,-0.007948,-0.021324,-0.528058,0.049931,0.641823,-261.459642,1.200756,69.298494
1.6056,-0.046284,-0.018204,0.047635,0.005204,0.008537,-0.007948,-0.021687,-0.527696,0.048951,0.623307,-261.457089,1.19925,69.304202
1.6256,-0.046472,-0.018009,0.049516,0.005231,0.008498,-0.008031,-0.021793,-0.527624,0.048368,0.623307,-261.457089,1.19925,69.304202
1.6456,-0.046054,-0.017711,0.049192,0.005241,0.008482,-0.008062,-0.021077,-0.527105,0.049264,0.615925,-261.454541,1.200153,69.309945
1.6655,-0.046013,-0.017346,0.049601,0.005248,0.00847,-0.008102,-0.020978,-0.527082,0.049185,0.615925,-261.454541,1.200153,69.309945
1.6858,-0.045925,-0.017614,0.049318,0.005255,0.008459,-0.008135,-0.020978,-0.527082,0.049185,0.615925,-261.454541,1.200153,69.309945
1.7059,-0.045668,-0.017052,0.047702,0.005255,0.008459,-0.008135,-0.020583,-0.526631,0.048983,0.596474,-261.452017,1.198142,69.31568
1.7258,-0.045612,-0.017229,0.047569,0.00528,0.008419,-0.008204,-0.020879,-0.526523,0.048411,0.596474,-261.452017,1.198142,69.31568
1.7459,-0.045084,-0.016522,0.047255,0.00529,0.008404,-0.008231,-0.021207,-0.526376,0.04731,0.586304,-261.449496,1.19778,69.321441
1.7656,-0.044976,-0.01657,0.048266,0.005309,0.008374,-0.008259,-0.021003,-0.525974,0.047248,0.586304,-261.449496,1.19778,69.321441
1.7859,-0.044982,-0.016775,0.04717,0.005325,0.008348,-0.008282,-0.021003,-0.525974,0.047248,0.586304,-261.449496,1.19778,69.321441
1.8059,-0.04459,-0.016172,0.047144,0.005325,0.008348,-0.008282,-0.020732,-0.52585,0.04683,0.568116,-261.447011,1.195587,69.327157
1.8263,-0.044886,-0.016078,0.047234,0.005348,0.00831,-0.008324,-0.020637,-0.525709,0.046918,0.568116,-261.447011,1.195587,69.327157
1.8456,-0.043887,-0.015821,0.046642,0.005357,0.008295,-0.00834,-0.020649,-0.525236,0.04697,0.553488,-261.444512,1.192737,69.332918
1.8664,-0.044021,-0.01584,0.046749,0.005366,0.008279,-0.008355,-0.020147,-0.525251,0.046657,0.553488,-261.444512,1.192737,69.332918
1.8862,-0.044076,-0.016011,0.044151,0.005373,0.008265,-0.008368,-0.020147,-0.525251,0.046657,0.553488,-261.444512,1.192737,69.332918
1.9059,-0.043624,-0.015262,0.047719,0.005373,0.008265,-0.008368,-0.021359,-0.525159,0.043804,0.538639,-261.442016,1.190195,69.338686
1.9259,-0.043409,-0.015497,0.046561,0.005403,0.008216,-0.008391,-0.020466,-0.524916,0.045414,0.538639,-261.442016,1.190195,69.338686
1.9457,-0.043393,-0.015198,0.047093,0.005413,0.008198,-0.0084,-0.019515,-0.524676,0.046298,0.53085,-261.439536,1.188816,69.344422
1.9658,-0.043487,-0.015245,0.046458,0.005415,0.008194,-0.00841,-0.019388,-0.524623,0.047008,0.53085,-261.439536,1.188816,69.344422
1.9857,-0.043371,-0.014848,0.046086,0.005415,0.00819,-0.008418,-0.019388,-0.524623,0.047008,0.53085,-261.439536,1.188816,69.344422
2.0058,-0.043045,-0.014731,0.046326,0.005415,0.00819,-0.008418,-0.019667,-0.523956,0.045737,0.515527,-261.437056,1.184977,69.350156
2.026,-0.043018,-0.014524,0.046726,0.005442,0.008145,-0.008433,-0.019543,-0.52401,0.045941,0.515527,-261.437056,1.184977,69.350156
2.0459,-0.042544,-0.013974,0.04225,0.005452,0.008127,-0.008439,-0.019037,-0.523701,0.046459,0.512823,-261.434574,1.184956,69.355902
2.0659,-0.042083,-0.014292,0.044803,0.005483,0.008074,-0.008445,-0.02082,-0.523522,0.04261,0.512823,-261.434574,1.184956,69.355902
2.0856,-0.042401,-0.014367,0.043728,0.005508,0.008029,-0.00845,-0.02082,-0.523522,0.04261,0.512823,-261.434574,1.184956,69.355902
2.1056,-0.042097,-0.013927,0.044912,0.005508,0.008029,-0.00845,-0.019895,-0.523531,0.043376,0.499299,-261.432095,1.181298,69.361633
2.1258,-0.042019,-0.013578,0.043218,0.005523,0.008,-0.008462,-0.019584,-0.523442,0.043968,0.499299,-261.432095,1.181298,69.361633
2.1459,-0.04149,-0.013244,0.043569,0.005529,0.007988,-0.008466,-0.019822,-0.522841,0.042951,0.480186,-261.42963,1.175225,69.367307
2.1661,-0.041331,-0.013439,0.045266,0.005544,0.00796,-0.008471,-0.019318,-0.522754,0.0435,0.480186,-261.42963,1.175225,69.367307
2.1856,-0.041407,-0.01331,0.044371,0.005556,0.007937,-0.008475,-0.019318,-0.522754,0.0435,0.480186,-261.42963,1.175225,69.367307
2.2056,-0.04084,-0.013242,0.045536,0.005556,0.007937,-0.008475,-0.018569,-0.522465,0.044017,0.471287,-261.427148,1.173011,69.373017
2.2263,-0.040984,-0.013325,0.044136,0.005557,0.007931,-0.008484,-0.018155,-0.522527,0.044603,0.471287,-261.427148,1.173011,69.373017
2.2459,-0.040554,-0.0122,0.043819,0.005557,0.007928,-0.008488,-0.018316,-0.522569,0.043867,0.461191,-261.424674,1.170016,69.378695
2.2658,-0.040018,-0.012503,0.044702,0.005573,0.007897,-0.008492,-0.018214,-0.521775,0.043809,0.461191,-261.424674,1.170016,69.378695
2.2856,-0.040444,-0.012128,0.042986,0.005587,0.00787,-0.008495,-0.018214,-0.521775,0.043809,0.461191,-261.424674,1.170016,69.378695
2.3056,-0.040016,-0.012115,0.042634,0.005587,0.00787,-0.008495,-0.018309,-0.521315,0.042631,0.45876,-261.422196,1.169968,69.38439
2.3259,-0.039997,-0.011955,0.04336,0.005621,0.007804,-0.008502,-0.018272,-0.521413,0.042591,0.45876,-261.422196,1.169968,69.38439
2.3456,-0.039794,-0.011358,0.044203,0.005633,0.007779,-0.008505,-0.017724,-0.521218,0.04309,0.447607,-261.419722,1.166542,69.39006
2.3657,-0.039318,-0.01157,0.042553,0.005644,0.007756,-0.008509,-0.017291,-0.520879,0.04409,0.447607,-261.419722,1.166542,69.39006
2.3856,-0.039591,-0.011865,0.044801,0.005652,0.007737,-0.008512,-0.017291,-0.520879,0.04409,0.447607,-261.419722,1.166542,69.39006
2.4059,-0.038926,-0.011159,0.042031,0.005652,0.007737,-0.008512,-0.01653,-0.521019,0.044446,0.430107,-261.417252,1.161136,69.395696
2.4257,-0.039087,-0.01131,0.041099,0.005655,0.007724,-0.008518,-0.016901,-0.520853,0.043416,0.430107,-261.417252,1.161136,69.395696
2.4458,-0.038538,-0.011251,0.040023,0.005656,0.007719,-0.00852,-0.017963,-0.520627,0.040829,0.422062,-261.414778,1.15886,69.401334
2.4659,-0.038576,-0.010517,0.041434,0.005671,0.007689,-0.008521,-0.018108,-0.520811,0.04008,0.422062,-261.414778,1.15886,69.401334
2.4856,-0.038509,-0.010416,0.042236,0.005684,0.007664,-0.008523,-0.018108,-0.520811,0.04008,0.422062,-261.414778,1.15886,69.401334
2.5056,-0.037919,-0.010763,0.041594,0.005684,0.007664,-0.008523,-0.016752,-0.51963,0.041881,0.418395,-261.412301,1.158208,69.406977
2.5259,-0.037771,-0.010372,0.042217,0.00571,0.007604,-0.008528,-0.01671,-0.519876,0.041721,0.418395,-261.412301,1.158208,69.406977
2.5458,-0.037754,-0.010079,0.041671,0.00572,0.007581,-0.008531,-0.016077,-0.519667,0.041946,0.408294,-261.409827,1.154911,69.412597
2.5659,-0.037768,-0.009658,0.041193,0.005731,0.007556,-0.008533,-0.016463,-0.519627,0.041681,0.408294,-261.409827,1.154911,69.412597
2.5858,-0.037385,-0.009758,0.04001,0.005739,0.007535,-0.008535,-0.016463,-0.519627,0.041681,0.408294,-261.409827,1.154911,69.412597
2.6057,-0.037171,-0.009507,0.039314,0.005739,0.007535,-0.008535,-0.016759,-0.519025,0.039655,0.392932,-261.407362,1.15027,69.418176
2.6259,-0.037028,-0.009102,0.040079,0.005782,0.007437,-0.00854,-0.016884,-0.519024,0.039474,0.392932,-261.407362,1.15027,69.418176
2.6458,-0.036445,-0.009312,0.039717,0.005798,0.007399,-0.008542,-0.016421,-0.518446,0.039808,0.384536,-261.404893,1.147785,69.423752
2.6661,-0.03644,-0.009534,0.040347,0.005807,0.007375,-0.008544,-0.016206,-0.518856,0.039711,0.384536,-261.404893,1.147785,69.423752
2.6859,-0.036657,-0.009051,0.040638,0.005815,0.007355,-0.008546,-0.016206,-0.518856,0.039711,0.384536,-261.404893,1.147785,69.423752
2.7059,-0.036562,-0.009052,0.039232,0.005815,0.007355,-0.008546,-0.01571,-0.518313,0.040284,0.360032,-261.402441,1.140012,69.429247
2.7261,-0.036171,-0.008922,0.038607,0.00584,0.007289,-0.00855,-0.016028,-0.518418,0.039816,0.360032,-261.402441,1.140012,69.429247
2.7461,-0.035851,-0.008163,0.037631,0.005849,0.007264,-0.008552,-0.016311,-0.518301,0.038335,0.351909,-261.399965,1.137655,69.434784
2.7661,-0.035521,-0.008834,0.039322,0.005873,0.007202,-0.008554,-0.016624,-0.517834,0.03768,0.351909,-261.399965,1.137655,69.434784
2.7862,-0.035452,-0.008358,0.039181,0.005893,0.00715,-0.008556,-0.016624,-0.517834,0.03768,0.351909,-261.399965,1.137655,69.434784
2.806,-0.034954,-0.007993,0.039947,0.005893,0.00715,-0.008556,-0.015243,-0.517655,0.038825,0.33577,-261.397499,1.132754,69.440273
2.8261,-0.035377,-0.008005,0.038975,0.005904,0.00711,-0.00856,-0.01495,-0.517591,0.039239,0.33577,-261.397499,1.132754,69.440273
2.846,-0.034929,-0.007885,0.038158,0.005907,0.007095,-0.008562,-0.015327,-0.517384,0.038704,0.315688,-261.395032,1.12636,69.445727
2.8661,-0.034519,-0.007648,0.038725,0.005917,0.007066,-0.008563,-0.015452,-0.517492,0.038192,0.315688,-261.395032,1.12636,69.445727
2.886,-0.034832,-0.007624,0.037558,0.005925,0.007042,-0.008564,-0.015452,-0.517492,0.038192,0.315688,-261.395032,1.12636,69.445727
2.9058,-0.034318,-0.007249,0.036811,0.005925,0.007042,-0.008564,-0.015446,-0.51696,0.037201,0.305856,-261.392563,1.123818,69.451175
2.9256,-0.034308,-0.007216,0.037972,0.005958,0.006944,-0.008568,-0.015461,-0.516902,0.037001,0.305856,-261.392563,1.123818,69.451175
2.9458,-0.033646,-0.007411,0.036343,0.00597,0.006907,-0.008569,-0.014767,-0.516618,0.037701,0.296743,-261.390086,1.121028,69.456623
2.9661,-0.0335,-0.007157,0.039188,0.005974,0.006893,-0.00857,-0.015076,-0.517023,0.036448,0.296743,-261.390086,1.121028,69.456623
2.9865,-0.03349,-0.006876,0.038278,0.005976,0.006881,-0.008571,-0.015076,-0.517023,0.036448,0.296743,-261.390086,1.121028,69.456623
3.0059,-0.033161,-0.006797,0.037656,0.005976,0.006881,-0.008571,-0.013736,-0.516206,0.037923,0.273257,-261.387632,1.113759,69.461977
3.026,-0.0327,-0.00643,0.03596,0.005989,0.006822,-0.008576,-0.0138,-0.516265,0.037774,0.273257,-261.387632,1.113759,69.461977
3.0458,-0.032837,-0.006035,0.037834,0.005993,0.0068,-0.008578,-0.014182,-0.515874,0.035687,0.268781,-261.38515,1.112562,69.467386
3.066,-0.032673,-0.005966,0.035827,0.006007,0.006745,-0.008581,-0.013593,-0.515676,0.037631,0.268781,-261.38515,1.112562,69.467386
3.0859,-0.032769,-0.005986,0.037886,0.006019,0.006699,-0.008584,-0.013593,-0.515676,0.037631,0.268781,-261.38515,1.112562,69.467386
3.1058,-0.032012,-0.005877,0.0376,0.006019,0.006699,-0.008584,-0.013213,-0.515328,0.037529,0.254806,-261.382679,1.108917,69.472752
3.126,-0.032328,-0.005879,0.035856,0.006037,0.00661,-0.00859,-0.013032,-0.515372,0.037517,0.254806,-261.382679,1.108917,69.472752
3.1457,-0.031781,-0.005748,0.036609,0.006043,0.006577,-0.008592,-0.013863,-0.515332,0.035585,0.23737,-261.380217,1.103943,69.47807
3.1656,-0.031709,-0.005333,0.035662,0.006048,0.00655,-0.008594,-0.01317,-0.515389,0.036507,0.23737,-261.380217,1.103943,69.47807
3.1858,-0.031407,-0.005209,0.036955,0.006052,0.006527,-0.008594,-0.01317,-0.515389,0.036507,0.23737,-261.380217,1.103943,69.47807
3.2058,-0.031369,-0.005345,0.033709,0.006052,0.006527,-0.008594,-0.012325,-0.514579,0.036599,0.216571,-261.37776,1.098357,69.483343
3.2256,-0.031138,-0.004741,0.035098,0.006079,0.006407,-0.008599,-0.013063,-0.514743,0.035365,0.216571,-261.37776,1.098357,69.483343
3.2459,-0.030439,-0.004687,0.035659,0.006088,0.006363,-0.008601,-0.013057,-0.514213,0.034824,0.208152,-261.375293,1.096082,69.488624
3.2656,-0.030303,-0.005069,0.03495,0.006097,0.006306,-0.008604,-0.012319,-0.514338,0.03557,0.208152,-261.375293,1.096082,69.488624
3.2859,-0.030969,-0.004572,0.035705,0.006104,0.006258,-0.008606,-0.012319,-0.514338,0.03557,0.208152,-261.375293,1.096082,69.488624
3.3055,-0.029974,-0.004738,0.034782,0.006104,0.006258,-0.008606,-0.012522,-0.513976,0.03535,0.180307,-261.37285,1.088039,69.4938
3.3255,-0.030315,-0.004577,0.034912,0.00612,0.006155,-0.008609,-0.012378,-0.51413,0.035077,0.180307,-261.37285,1.088039,69.4938
3.3454,-0.029571,-0.004301,0.034038,0.006125,0.006116,-0.008609,-0.012327,-0.514061,0.034639,0.162792,-261.370389,1.083343,69.498985
3.3661,-0.029728,-0.004281,0.033831,0.00613,0.006077,-0.008609,-0.012216,-0.514,0.034079,0.162792,-261.370389,1.083343,69.498985
3.3862,-0.029758,-0.004302,0.033779,0.006133,0.006045,-0.008609,-0.012216,-0.514,0.034079,0.162792,-261.370389,1.083343,69.498985
3.4055,-0.02886,-0.003902,0.033297,0.006133,0.006045,-0.008609,-0.012288,-0.513748,0.033421,0.139207,-261.367939,1.076794,69.504103
3.4259,-0.029111,-0.00348,0.032418,0.006145,0.005947,-0.00861,-0.012095,-0.513666,0.03333,0.139207,-261.367939,1.076794,69.504103
3.4459,-0.028585,-0.003381,0.033153,0.006149,0.005911,-0.00861,-0.012392,-0.513014,0.032144,0.12759,-261.365452,1.073632,69.509274
3.4659,-0.028473,-0.003515,0.033783,0.006158,0.005832,-0.008613,-0.011727,-0.513085,0.033063,0.12759,-261.365452,1.073632,69.509274
3.4858,-0.0286,-0.003634,0.032829,0.006164,0.005768,-0.008614,-0.011727,-0.513085,0.033063,0.12759,-261.365452,1.073632,69.509274
3.5055,-0.028023,-0.003201,0.032509,0.006164,0.005768,-0.008614,-0.011615,-0.513108,0.032475,0.105765,-261.363006,1.067575,69.514318
3.5255,-0.02775,-0.002943,0.033488,0.00617,0.005663,-0.008615,-0.011515,-0.513004,0.032448,0.105765,-261.363006,1.067575,69.514318
3.5456,-0.027398,-0.002807,0.032441,0.006171,0.005624,-0.008614,-0.010488,-0.512471,0.033218,0.081986,-261.360568,1.061161,69.519299
3.5655,-0.027339,-0.003045,0.03125,0.006172,0.005549,-0.008616,-0.010814,-0.512523,0.032496,0.081986,-261.360568,1.061161,69.519299
3.5857,-0.027681,-0.002752,0.031354,0.006172,0.005488,-0.008617,-0.010814,-0.512523,0.032496,0.081986,-261.360568,1.061161,69.519299
3.6055,-0.027391,-0.00271,0.03171,0.006172,0.005488,-0.008617,-0.011445,-0.51226,0.030996,0.058732,-261.358114,1.055061,69.524266
3.6255,-0.026947,-0.002485,0.031596,0.006179,0.005355,-0.008617,-0.011325,-0.512311,0.031247,0.058732,-261.358114,1.055061,69.524266
3.6454,-0.026742,-0.002312,0.032658,0.00618,0.005306,-0.008614,-0.010647,-0.512052,0.031324,0.03643,-261.355658,1.04966,69.529196
3.6655,-0.026347,-0.002221,0.032539,0.006174,0.005239,-0.008616,-0.010125,-0.512033,0.03254,0.03643,-261.355658,1.04966,69.529196
3.6855,-0.026521,-0.002308,0.032937,0.006168,0.005184,-0.008615,-0.010125,-0.512033,0.03254,0.03643,-261.355658,1.04966,69.529196
3.7057,-0.026016,-0.001941,0.030534,0.006168,0.005184,-0.008615,-0.00948,-0.511806,0.032583,0.007229,-261.353229,1.041611,69.534008
3.7263,-0.026036,-0.002082,0.030639,0.006154,0.005043,-0.008616,-0.009847,-0.511737,0.031703,0.007229,-261.353229,1.041611,69.534008
3.7459,-0.025231,-0.001918,0.030121,0.006147,0.004991,-0.008614,-0.010222,-0.511672,0.030365,-0.012563,-261.350764,1.037453,69.538855
3.7659,-0.025707,-0.001722,0.03057,0.006141,0.004945,-0.008612,-0.00989,-0.511678,0.030127,-0.012563,-261.350764,1.037453,69.538855
3.7861,-0.025683,-0.001802,0.030799,0.006135,0.004906,-0.008608,-0.00989,-0.511678,0.030127,-0.012563,-261.350764,1.037453,69.538855
3.806,-0.0249,-0.001606,0.031309,0.006135,0.004906,-0.008608,-0.009733,-0.511348,0.030447,-0.043876,-261.348351,1.030727,69.543545
3.8262,-0.025,-0.001609,0.029948,0.006115,0.004768,-0.008608,-0.009373,-0.511327,0.030764,-0.043876,-261.348351,1.030727,69.543545
3.8454,-0.024209,-0.001192,0.029634,0.006106,0.004717,-0.008606,-0.009539,-0.51122,0.029676,-0.05717,-261.34591,1.027733,69.54826
3.8655,-0.024387,-0.001182,0.030483,0.006094,0.004632,-0.008608,-0.009128,-0.510983,0.029624,-0.05717,-261.34591,1.027733,69.54826
3.8856,-0.024581,-0.001376,0.031152,0.006083,0.004563,-0.008607,-0.009128,-0.510983,0.029624,-0.05717,-261.34591,1.027733,69.54826
3.9058,-0.024204,-0.000947,0.029243,0.006083,0.004563,-0.008607,-0.00845,-0.510926,0.030797,-0.087995,-261.343496,1.021448,69.552865
3.9259,-0.023799,-0.001039,0.027959,0.006052,0.004416,-0.008606,-0.008765,-0.510823,0.030124,-0.087995,-261.343496,1.021448,69.552865
3.9456,-0.023574,-0.000887,0.028349,0.006039,0.004362,-0.008603,-0.009354,-0.51069,0.027687,-0.113511,-261.341074,1.016203,69.557435
3.9656,-0.02336,-0.000575,0.029392,0.006032,0.004307,-0.008599,-0.009129,-0.510675,0.028275,-0.113511,-261.341074,1.016203,69.557435
3.9857,-0.023228,-0.000919,0.028223,0.006025,0.004262,-0.008594,-0.009129,-0.510675,0.028275,-0.113511,-261.341074,1.016203,69.557435
4.0057,-0.023014,-0.000466,0.029438,0.006025,0.004262,-0.008594,-0.008593,-0.51053,0.02787,-0.146754,-261.338673,1.01007,69.561902
4.0263,-0.022681,-0.000446,0.027866,0.005984,0.004103,-0.008596,-0.008321,-0.510391,0.028477,-0.146754,-261.338673,1.01007,69.561902
4.0458,-0.022016,-0.000551,0.027641,0.005966,0.004045,-0.008594,-0.008284,-0.510107,0.027592,-0.162405,-261.336245,1.006122,69.56638
4.0657,-0.022511,-0.00052,0.027561,0.005942,0.003982,-0.008592,-0.007944,-0.510327,0.027622,-0.162405,-261.336245,1.006122,69.56638
4.0861,-0.022276,-0.0004,0.026447,0.005922,0.003932,-0.008589,-0.007944,-0.510327,0.027622,-0.162405,-261.336245,1.006122,69.56638
4.1058,-0.021812,-0.000185,0.026307,0.005922,0.003932,-0.008589,-0.00855,-0.510049,0.026095,-0.199091,-261.333863,1.000048,69.5707
4.1257,-0.021916,-0.000205,0.027379,0.005902,0.003806,-0.008582,-0.00846,-0.510013,0.026141,-0.199091,-261.333863,1.000048,69.5707
4.146,-0.021227,-0.000468,0.026349,0.005894,0.003761,-0.008577,-0.007771,-0.509884,0.027107,-0.218309,-261.331451,0.997764,69.575043
4.1658,-0.02124,0.000149,0.027183,0.005874,0.003741,-0.00857,-0.007779,-0.510247,0.026404,-0.218309,-261.331451,0.997764,69.575043
4.1857,-0.02148,8.5e-05,0.025884,0.005858,0.003725,-0.008563,-0.007779,-0.510247,0.026404,-0.218309,-261.331451,0.997764,69.575043
4.206,-0.02074,0.000107,0.027949,0.005858,0.003725,-0.008563,-0.008042,-0.509583,0.025529,-0.245634,-261.329041,0.990924,69.57931
4.2261,-0.020688,0.000142,0.026583,0.005787,0.003508,-0.008579,-0.007361,-0.509611,0.026504,-0.245634,-261.329041,0.990924,69.57931
4.2458,-0.020384,0.00069,0.027651,0.005759,0.00343,-0.008578,-0.00695,-0.509555,0.026312,-0.251537,-261.326634,0.991504,69.583569
4.2659,-0.020255,0.000851,0.025609,0.005674,0.003253,-0.008604,-0.006334,-0.509149,0.027516,-0.251537,-261.326634,0.991504,69.583569
4.2862,-0.020448,0.000429,0.025594,0.005604,0.003111,-0.008615,-0.006334,-0.509149,0.027516,-0.251537,-261.326634,0.991504,69.583569
4.3057,-0.019624,0.000332,0.02566,0.005604,0.003111,-0.008615,-0.00717,-0.509261,0.025251,-0.30432,-261.324326,0.984397,69.587547
4.3259,-0.019865,0.000774,0.025825,0.005561,0.003012,-0.008585,-0.006886,-0.509343,0.025378,-0.30432,-261.324326,0.984397,69.587547
4.3461,-0.019033,0.000758,0.026663,0.005544,0.002977,-0.00857,-0.00653,-0.508959,0.025567,-0.366497,-261.32207,0.980981,69.591334
4.3661,-0.019474,0.000737,0.025509,0.005434,0.002836,-0.008598,-0.005526,-0.509047,0.026552,-0.366497,-261.32207,0.980981,69.591334
4.386,-0.019651,0.001117,0.025301,0.005344,0.002724,-0.008609,-0.005526,-0.509047,0.026552,-0.366497,-261.32207,0.980981,69.591334
4.4059,-0.019086,0.001158,0.025559,0.005344,0.002724,-0.008609,-0.006522,-0.50859,0.024945,-0.386635,-261.319692,0.976858,69.595271
4.4261,-0.019056,0.000707,0.024648,0.005281,0.002521,-0.008588,-0.006304,-0.50861,0.025155,-0.386635,-261.319692,0.976858,69.595271
4.4459,-0.018818,0.001311,0.025334,0.005257,0.002448,-0.008574,-0.006327,-0.509052,0.024388,-0.442729,-261.317443,0.980845,69.598924
4.4659,-0.018211,0.001081,0.025959,0.005212,0.002363,-0.008568,-0.005929,-0.508568,0.025237,-0.442729,-261.317443,0.980845,69.598924
4.4855,-0.018574,0.000801,0.024912,0.005174,0.002295,-0.008558,-0.005929,-0.508568,0.025237,-0.442729,-261.317443,0.980845,69.598924
4.5056,-0.017869,0.001409,0.024265,0.005174,0.002295,-0.008558,-0.005661,-0.508936,0.024566,-0.487712,-261.315142,0.970857,69.602523
4.5256,-0.017708,0.001514,0.02485,0.005083,0.002209,-0.00854,-0.005569,-0.508722,0.024403,-0.487712,-261.315142,0.970857,69.602523
4.5454,-0.01779,0.001167,0.023022,0.005049,0.002178,-0.008528,-0.004875,-0.508253,0.024581,-0.515489,-261.312793,0.968261,69.60613
4.5657,-0.017619,0.001321,0.023026,0.005046,0.002166,-0.008505,-0.005936,-0.508654,0.023148,-0.515489,-261.312793,0.968261,69.60613
4.5857,-0.017392,0.001249,0.024084,0.005043,0.002155,-0.008485,-0.005936,-0.508654,0.023148,-0.515489,-261.312793,0.968261,69.60613
4.6057,-0.017158,0.001548,0.023956,0.005043,0.002155,-0.008485,-0.004904,-0.508508,0.023731,-0.540488,-261.310457,0.971185,69.609679
4.6258,-0.017131,0.001659,0.022828,0.004855,0.001964,-0.00853,-0.004895,-0.508413,0.023783,-0.540488,-261.310457,0.971185,69.609679
4.6458,-0.016726,0.001225,0.022044,0.004788,0.001897,-0.008534,-0.005331,-0.508136,0.022558,-0.54058,-261.308108,0.968667,69.613234
4.6657,-0.016715,0.001662,0.022782,0.004796,0.001911,-0.008502,-0.005462,-0.508601,0.022077,-0.54058,-261.308108,0.968667,69.613234
4.6859,-0.01618,0.001305,0.024898,0.004802,0.001922,-0.008475,-0.005462,-0.508601,0.022077,-0.54058,-261.308108,0.968667,69.613234
4.7058,-0.016198,0.001711,0.022436,0.004802,0.001922,-0.008475,-0.003298,-0.508458,0.024564,-0.605704,-261.305922,0.978087,69.616452
4.726,-0.016002,0.001756,0.023578,0.004449,0.001682,-0.00858,-0.003893,-0.508323,0.023627,-0.605704,-261.305922,0.978087,69.616452
4.7466,-0.015833,0.001781,0.021456,0.004326,0.001599,-0.008597,-0.003828,-0.508038,0.023311,-0.59554,-261.30362,0.976053,69.619854
4.7656,-0.015785,0.002156,0.022313,0.004332,0.001557,-0.008558,-0.004768,-0.508091,0.021639,-0.59554,-261.30362,0.976053,69.619854
4.7859,-0.015527,0.001962,0.021865,0.004337,0.001523,-0.008526,-0.004768,-0.508091,0.021639,-0.59554,-261.30362,0.976053,69.619854
4.8056,-0.015254,0.001878,0.022494,0.004337,0.001523,-0.008526,-0.004227,-0.507855,0.021572,-0.670072,-261.301755,1.007415,69.622522
4.8258,-0.015393,0.002056,0.022114,0.004159,0.001334,-0.008543,-0.004029,-0.507905,0.021915,-0.670072,-261.301755,1.007415,69.622522
4.8458,-0.014738,0.002363,0.019836,0.004095,0.001268,-0.008538,-0.003981,-0.507769,0.021847,-0.704297,-261.299524,0.998406,69.625661
4.8662,-0.014981,0.001727,0.021602,0.004092,0.001204,-0.00851,-0.004558,-0.507555,0.020003,-0.704297,-261.299524,0.998406,69.625661
4.8858,-0.014822,0.001875,0.021647,0.004089,0.001153,-0.008485,-0.004558,-0.507555,0.020003,-0.704297,-261.299524,0.998406,69.625661
4.9059,-0.014802,0.00251,0.019666,0.004089,0.001153,-0.008485,-0.003623,-0.507952,0.021311,-0.766901,-261.29739,1.007314,69.628538
4.9261,-0.014656,0.001888,0.0198,0.003993,0.001059,-0.008475,-0.004068,-0.50772,0.020609,-0.766901,-261.29739,1.007314,69.628538
4.9459,-0.013881,0.002326,0.019707,0.003958,0.001026,-0.008465,-0.00443,-0.507973,0.019531,-0.778133,-261.295099,0.997667,69.631546
4.9657,-0.013776,0.002189,0.020351,0.003896,0.000971,-0.008467,-0.003876,-0.507608,0.019678,-0.778133,-261.295099,0.997667,69.631546
4.9859,-0.014203,0.00195,0.020831,0.003847,0.000928,-0.008463,-0.003876,-0.507608,0.019678,-0.778133,-261.295099,0.997667,69.631546
5.0061,-0.013296,0.002002,0.020012,0.003847,0.000928,-0.008463,-0.003418,-0.507894,0.020483,-0.808374,-261.29284,1.002341,69.634444
5.026,-0.013615,0.001947,0.019505,0.003624,0.000871,-0.008497,-0.003265,-0.507889,0.02025,-0.808374,-261.29284,1.002341,69.634444
5.0457,-0.013393,0.002067,0.019713,0.003546,0.000852,-0.008499,-0.003548,-0.507924,0.019239,-0.834045,-261.290575,1.007856,69.637296
5.0661,-0.013429,0.002049,0.020353,0.003499,0.000836,-0.008489,-0.003352,-0.50784,0.019658,-0.834045,-261.290575,1.007856,69.637296
5.0857,-0.013334,0.002096,0.019363,0.003461,0.000823,-0.008477,-0.003352,-0.50784,0.019658,-0.834045,-261.290575,1.007856,69.637296
5.1057,-0.013087,0.002137,0.019936,0.003461,0.000823,-0.008477,-0.003321,-0.507772,0.019028,-0.885546,-261.288461,1.040031,69.63994
5.1259,-0.012953,0.002604,0.019307,0.003333,0.00076,-0.008475,-0.003139,-0.507764,0.019365,-0.885546,-261.288461,1.040031,69.63994
5.1459,-0.012717,0.002217,0.019868,0.003288,0.000738,-0.008468,-0.002998,-0.507272,0.019039,-0.89914,-261.286249,1.047609,69.642695
5.1655,-0.012332,0.002405,0.019762,0.003142,0.000671,-0.008495,-0.002616,-0.507644,0.01978,-0.89914,-261.286249,1.047609,69.642695
5.186,-0.012814,0.002195,0.019222,0.003028,0.000617,-0.008508,-0.002616,-0.507644,0.01978,-0.89914,-261.286249,1.047609,69.642695
5.2057,-0.01222,0.002145,0.018552,0.003028,0.000617,-0.008508,-0.002877,-0.507678,0.018876,-0.932743,-261.284085,1.063136,69.645346
5.2259,-0.012174,0.002185,0.018249,0.002947,0.000582,-0.008479,-0.002813,-0.507711,0.018702,-0.932743,-261.284085,1.063136,69.645346
5.2454,-0.011396,0.002695,0.018415,0.002918,0.000569,-0.008465,-0.002777,-0.50771,0.017994,-0.986589,-261.282017,1.090599,69.647814
5.2655,-0.011745,0.002141,0.01737,0.002715,0.00046,-0.008502,-0.002071,-0.507263,0.018363,-0.986589,-261.282017,1.090599,69.647814
5.2856,-0.011747,0.002352,0.017907,0.002554,0.000371,-0.00852,-0.002071,-0.507263,0.018363,-0.986589,-261.282017,1.090599,69.647814
5.3057,-0.01148,0.00216,0.017808,0.002554,0.000371,-0.00852,-0.002494,-0.507541,0.017555,-1.005598,-261.279854,1.100466,69.650371
5.3259,-0.011568,0.002364,0.017243,0.002509,0.000378,-0.008471,-0.002441,-0.507627,0.017618,-1.005598,-261.279854,1.100466,69.650371
5.346,-0.011091,0.001956,0.016897,0.002491,0.00038,-0.008452,-0.002703,-0.507548,0.017004,-1.080597,-261.277925,1.141101,69.652535
5.3661,-0.010991,0.002594,0.01885,0.002505,0.000438,-0.008417,-0.00249,-0.507934,0.016894,-1.080597,-261.277925,1.141101,69.652535
5.3864,-0.011284,0.002309,0.016499,0.002515,0.000483,-0.00839,-0.00249,-0.507934,0.016894,-1.080597,-261.277925,1.141101,69.652535
5.4056,-0.010831,0.00246,0.01882,0.002515,0.000483,-0.00839,-0.002766,-0.507604,0.016146,-1.090484,-261.275773,1.148333,69.654961
5.4256,-0.011059,0.002489,0.017255,0.002348,0.000392,-0.008413,-0.002122,-0.507539,0.017209,-1.090484,-261.275773,1.148333,69.654961
5.4459,-0.010232,0.002146,0.015878,0.00229,0.000359,-0.008414,-0.002181,-0.507419,0.01699,-1.074223,-261.273673,1.149178,69.657405
5.4656,-0.010832,0.002442,0.017013,0.002257,0.000367,-0.008391,-0.002135,-0.507755,0.015966,-1.074223,-261.273673,1.149178,69.657405
5.4859,-0.010571,0.002231,0.016164,0.002231,0.000373,-0.00837,-0.002135,-0.507755,0.015966,-1.074223,-261.273673,1.149178,69.657405
5.5055,-0.010095,0.002759,0.016595,0.002231,0.000373,-0.00837,-0.002237,-0.507687,0.01583,-1.12401,-261.271659,1.17614,69.659668
5.5256,-0.010154,0.00271,0.015328,0.00211,0.00029,-0.008363,-0.00198,-0.507474,0.016104,-1.12401,-261.271659,1.17614,69.659668
5.5455,-0.00955,0.003041,0.015906,0.002067,0.00026,-0.008355,-0.002266,-0.507217,0.015063,-1.130824,-261.269565,1.184521,69.662036
5.566,-0.009936,0.002762,0.015668,0.001905,0.000156,-0.008376,-0.001506,-0.506922,0.01582,-1.130824,-261.269565,1.184521,69.662036
5.586,-0.010029,0.00233,0.016426,0.001776,7e-05,-0.008383,-0.001506,-0.506922,0.01582,-1.130824,-261.269565,1.184521,69.662036
5.6059,-0.009485,0.002333,0.016034,0.001776,7e-05,-0.008383,-0.001568,-0.507589,0.016086,-1.167357,-261.267515,1.202928,69.664274
5.6259,-0.009438,0.002604,0.014244,0.0016,9.2e-05,-0.008374,-0.001451,-0.507593,0.016025,-1.167357,-261.267515,1.202928,69.664274
5.6458,-0.009324,0.002496,0.014916,0.00154,9.8e-05,-0.008364,-0.002123,-0.507342,0.014001,-1.232578,-261.26556,1.24108,69.666277
5.6663,-0.009344,0.002963,0.016138,0.001564,9e-05,-0.008307,-0.00175,-0.507438,0.014825,-1.232578,-261.26556,1.24108,69.666277
5.6861,-0.009419,0.002747,0.015822,0.001582,8.4e-05,-0.008262,-0.00175,-0.507438,0.014825,-1.232578,-261.26556,1.24108,69.666277
5.7058,-0.008872,0.002395,0.014657,0.001582,8.4e-05,-0.008262,-0.001289,-0.507184,0.015491,-1.272641,-261.263574,1.283231,69.668334
5.726,-0.008668,0.002774,0.015486,0.001413,2.3e-05,-0.008257,-0.001326,-0.507335,0.015108,-1.272641,-261.263574,1.283231,69.668334
5.7454,-0.008852,0.002572,0.014033,0.001354,1e-06,-0.008248,-0.00072,-0.507162,0.015224,-1.262245,-261.261492,1.271699,69.670479
5.7658,-0.009209,0.002448,0.014986,0.001383,-5e-06,-0.008188,-0.001617,-0.50736,0.014114,-1.262245,-261.261492,1.271699,69.670479
5.786,-0.008656,0.002827,0.013952,0.001405,-9e-06,-0.008142,-0.001617,-0.50736,0.014114,-1.262245,-261.261492,1.271699,69.670479
5.8062,-0.008489,0.002523,0.013306,0.001405,-9e-06,-0.008142,-0.001488,-0.507123,0.013627,-1.308156,-261.259523,1.308247,69.67245
5.8262,-0.008506,0.002389,0.01316,0.001409,-4.5e-05,-0.008033,-0.001571,-0.50725,0.013456,-1.308156,-261.259523,1.308247,69.67245
5.8462,-0.008399,0.002994,0.01283,0.00141,-5.7e-05,-0.007994,-0.001751,-0.507567,0.012902,-1.295978,-261.257467,1.295032,69.674498
5.8665,-0.008418,0.002508,0.012754,0.001466,-8.5e-05,-0.007916,-0.001844,-0.507018,0.012824,-1.295978,-261.257467,1.295032,69.674498
5.8858,-0.007975,0.002464,0.015273,0.00151,-0.000106,-0.007857,-0.001844,-0.507018,0.012824,-1.295978,-261.257467,1.295032,69.674498
5.9056,-0.008421,0.002474,0.011473,0.00151,-0.000106,-0.007857,-0.000127,-0.507478,0.014938,-1.292863,-261.255415,1.286587,69.676507
5.9258,-0.008067,0.002809,0.010334,0.001269,-6.8e-05,-0.007908,-0.001113,-0.507484,0.013492,-1.292863,-261.255415,1.286587,69.676507
5.9464,-0.007644,0.002443,0.011414,0.001187,-5.5e-05,-0.007918,-0.002749,-0.507167,0.010088,-1.272195,-261.2534,1.259531,69.678442
5.9662,-0.007519,0.002421,0.01355,0.001332,-2.1e-05,-0.007704,-0.001909,-0.50749,0.011273,-1.272195,-261.2534,1.259531,69.678442
5.9863,-0.007745,0.002565,0.012255,0.001444,6e-06,-0.007548,-0.001909,-0.50749,0.011273,-1.272195,-261.2534,1.259531,69.678442
6.0059,-0.007317,0.002584,0.012103,0.001444,6e-06,-0.007548,-0.001451,-0.507399,0.011965,-1.332634,-261.251634,1.327324,69.68017
6.0263,-0.007152,0.002777,0.012119,0.001332,-1.7e-05,-0.007527,-0.00132,-0.507391,0.011988,-1.332634,-261.251634,1.327324,69.68017
6.0455,-0.007028,0.002528,0.01272,0.001294,-2.5e-05,-0.007517,-0.000931,-0.507185,0.011908,-1.266867,-261.249935,1.267589,69.681873
6.066,-0.007416,0.002787,0.01327,0.001059,-2.8e-05,-0.007601,-0.000574,-0.507409,0.012636,-1.266867,-261.249935,1.267589,69.681873
6.0859,-0.006995,0.002406,0.010617,0.000878,-3.3e-05,-0.007656,-0.000574,-0.507409,0.012636,-1.266867,-261.249935,1.267589,69.681873
6.106,-0.006865,0.002654,0.011959,0.000878,-3.3e-05,-0.007656,-0.001528,-0.507566,0.01031,-1.297572,-261.248068,1.294691,69.683721
6.126,-0.006787,0.002194,0.011823,0.000951,-3.9e-05,-0.007386,-0.001216,-0.507463,0.010936,-1.297572,-261.248068,1.294691,69.683721
6.1457,-0.006632,0.002463,0.010554,0.000975,-4e-05,-0.007299,-0.000734,-0.50777,0.011634,-1.372599,-261.246582,1.369718,69.685186
6.1659,-0.006848,0.002748,0.010919,0.000993,-3.2e-05,-0.0072,-0.001202,-0.507532,0.010641,-1.372599,-261.246582,1.369718,69.685186
6.1858,-0.006686,0.002486,0.010923,0.001006,-2.5e-05,-0.007126,-0.001202,-0.507532,0.010641,-1.372599,-261.246582,1.369718,69.685186
6.2061,-0.006295,0.002688,0.01081,0.001006,-2.5e-05,-0.007126,-0.001075,-0.507484,0.01062,-1.357347,-261.244743,1.353607,69.686995
6.2262,-0.006081,0.002611,0.011845,0.000897,-5.7e-05,-0.007064,-0.000945,-0.507399,0.010665,-1.357347,-261.244743,1.353607,69.686995
6.2454,-0.006152,0.002803,0.010921,0.000859,-6.7e-05,-0.007041,-9e-06,-0.507354,0.011621,-1.344818,-261.242966,1.342259,69.688752
6.2657,-0.006512,0.002524,0.008804,0.000717,-9.9e-05,-0.007082,-0.000531,-0.507183,0.010971,-1.344818,-261.242966,1.342259,69.688752
6.2855,-0.006417,0.002397,0.01066,0.000605,-0.000126,-0.007107,-0.000531,-0.507183,0.010971,-1.344818,-261.242966,1.342259,69.688752
6.3062,-0.005739,0.002796,0.011329,0.000605,-0.000126,-0.007107,-0.000946,-0.507576,0.010374,-1.376501,-261.241234,1.370473,69.690433
6.3262,-0.006429,0.002916,0.012681,0.000449,-0.00012,-0.00708,-0.000536,-0.50741,0.010735,-1.376501,-261.241234,1.370473,69.690433
6.3457,-0.005517,0.002382,0.01147,0.000395,-0.000119,-0.007066,5.5e-05,-0.507046,0.012479,-1.436223,-261.23962,1.428263,69.691957
6.3658,-0.006024,0.002643,0.009581,0.000107,-6.3e-05,-0.007185,0.00031,-0.50754,0.011546,-1.436223,-261.23962,1.428263,69.691957
6.3855,-0.005836,0.002389,0.010412,-0.000118,-2.4e-05,-0.007265,0.00031,-0.50754,0.011546,-1.436223,-261.23962,1.428263,69.691957
6.4057,-0.005608,0.002746,0.010901,-0.000118,-2.4e-05,-0.007265,-0.000511,-0.507588,0.010137,-1.481979,-261.237955,1.476959,69.693533
6.4257,-0.005879,0.002523,0.010002,-7.5e-05,-5.9e-05,-0.007072,-0.000315,-0.507435,0.010426,-1.481979,-261.237955,1.476959,69.693533
6.4462,-0.005949,0.00291,0.010239,-6.2e-05,-7.1e-05,-0.007009,-0.000777,-0.507452,0.009855,-1.557292,-261.236819,1.552273,69.694657
6.4659,-0.005733,0.002779,0.009836,6e-05,-0.000123,-0.006903,-0.000732,-0.507101,0.010194,-1.557292,-261.236819,1.552273,69.694657
6.4858,-0.005329,0.002494,0.009055,0.000154,-0.000164,-0.006826,-0.000732,-0.507101,0.010194,-1.557292,-261.236819,1.552273,69.694657
6.5057,-0.005577,0.002708,0.009704,0.000154,-0.000164,-0.006826,-0.000713,-0.507488,0.008771,-1.585123,-261.235127,1.585608,69.696294
6.5256,-0.005796,0.002713,0.008123,0.000271,-0.000163,-0.006462,-0.000678,-0.507397,0.009122,-1.585123,-261.235127,1.585608,69.696294
6.5457,-0.00557,0.00292,0.008703,0.00031,-0.000162,-0.006353,-0.001649,-0.507275,0.007923,-1.535208,-261.233536,1.5323,69.697764
6.5659,-0.00535,0.002587,0.008926,0.000467,-0.000189,-0.006157,-0.001179,-0.507081,0.008621,-1.535208,-261.233536,1.5323,69.697764
6.5855,-0.005064,0.002974,0.008469,0.00059,-0.00021,-0.006021,-0.001179,-0.507081,0.008621,-1.535208,-261.233536,1.5323,69.697764
6.6056,-0.004943,0.00255,0.009429,0.00059,-0.00021,-0.006021,-0.000733,-0.507014,0.008219,-1.494265,-261.232005,1.487632,69.699174
6.6255,-0.004843,0.002783,0.009118,0.000442,-0.00023,-0.005957,-0.000484,-0.507186,0.00869,-1.494265,-261.232005,1.487632,69.699174
6.6463,-0.00481,0.002793,0.006288,0.000392,-0.000238,-0.005936,-0.000179,-0.507201,0.008962,-1.42003,-261.230727,1.412535,69.700317
6.6658,-0.004632,0.003082,0.008208,0.000613,-0.000215,-0.005369,-0.001475,-0.507198,0.00652,-1.42003,-261.230727,1.412535,69.700317
6.6859,-0.004759,0.002954,0.009567,0.000787,-0.000197,-0.00498,-0.001475,-0.507198,0.00652,-1.42003,-261.230727,1.412535,69.700317
6.7064,-0.004644,0.002461,0.00713,0.000787,-0.000197,-0.00498,0.000136,-0.507032,0.009336,-1.469733,-261.229278,1.455647,69.701589
6.7256,-0.00468,0.002473,0.007023,0.000487,-0.000192,-0.005342,-0.000328,-0.507234,0.008411,-1.469733,-261.229278,1.455647,69.701589
6.7489,-0.004475,0.002582,0.008149,0.000386,-0.000193,-0.005452,-0.001089,-0.507518,0.006941,-1.39475,-261.228608,1.380665,69.702182
6.7662,-0.004212,0.002776,0.007282,0.000331,-0.000174,-0.005442,-0.00042,-0.507417,0.007984,-1.39475,-261.228608,1.380665,69.702182
6.7861,-0.004725,0.002607,0.008204,0.000289,-0.000159,-0.005433,-0.00042,-0.507417,0.007984,-1.39475,-261.228608,1.380665,69.702182
6.8061,-0.004608,0.002989,0.007334,0.000289,-0.000159,-0.005433,-0.000521,-0.507384,0.007989,-1.430666,-261.227258,1.413449,69.703386
6.8258,-0.004823,0.002409,0.007991,0.000353,-0.000185,-0.005291,-0.000663,-0.507224,0.007692,-1.430666,-261.227258,1.413449,69.703386
6.8459,-0.004488,0.003031,0.007516,0.000374,-0.000194,-0.005248,-0.000739,-0.507579,0.007838,-1.487759,-261.226027,1.479418,69.704505
6.8659,-0.004271,0.00252,0.007946,0.000389,-0.000225,-0.005187,-0.000661,-0.507009,0.007536,-1.487759,-261.226027,1.479418,69.704505
6.886,-0.004374,0.002593,0.006426,0.000401,-0.000249,-0.005143,-0.000661,-0.507009,0.007536,-1.487759,-261.226027,1.479418,69.704505
6.9067,-0.003959,0.002693,0.008224,0.000401,-0.000249,-0.005143,-0.001081,-0.507404,0.006213,-1.461289,-261.224698,1.447323,69.705684
6.926,-0.004288,0.002687,0.006433,0.000368,-0.000205,-0.004892,-0.000555,-0.50736,0.00699,-1.461289,-261.224698,1.447323,69.705684
6.946,-0.004519,0.00238,0.006698,0.000357,-0.00019,-0.004817,-0.000994,-0.507311,0.006269,-1.453074,-261.223338,1.433036,69.706847
6.9659,-0.004102,0.002402,0.005429,0.000502,-0.000133,-0.004643,-0.001093,-0.507583,0.006652,-1.453074,-261.223338,1.433036,69.706847
6.9857,-0.004079,0.002242,0.006757,0.000615,-8.8e-05,-0.004524,-0.001093,-0.507583,0.006652,-1.453074,-261.223338,1.433036,69.706847
7.0058,-0.003934,0.002309,0.008146,0.000615,-8.8e-05,-0.004524,-0.000619,-0.507754,0.006556,-1.457207,-261.222078,1.441724,69.707957
7.0257,-0.004281,0.002449,0.006768,0.000345,8e-06,-0.004692,-0.000273,-0.507723,0.007185,-1.457207,-261.222078,1.441724,69.707957
7.0459,-0.00371,0.002729,0.004846,0.000255,3.9e-05,-0.00474,-0.000817,-0.507541,0.006661,-1.382173,-261.22122,1.36669,69.708765
7.0658,-0.003766,0.00229,0.005264,0.000444,1.4e-05,-0.004118,-0.0012,-0.507289,0.005003,-1.382173,-261.22122,1.36669,69.708765
7.0857,-0.003712,0.002454,0.006279,0.000592,-4e-06,-0.003691,-0.0012,-0.507289,0.005003,-1.382173,-261.22122,1.36669,69.708765
7.1059,-0.003822,0.002001,0.006025,0.000592,-4e-06,-0.003691,-0.000499,-0.507535,0.006144,-1.45718,-261.220435,1.441697,69.709571
7.1261,-0.003595,0.00278,0.006907,0.000513,6.4e-05,-0.00378,-0.000601,-0.507722,0.006079,-1.45718,-261.220435,1.441697,69.709571
7.1461,-0.003549,0.002464,0.005317,0.000488,8.8e-05,-0.003809,-6.4e-05,-0.507208,0.006841,-1.382168,-261.219919,1.366685,69.710086
7.1661,-0.003723,0.002616,0.005626,0.000518,7.4e-05,-0.003649,-0.00077,-0.507501,0.005445,-1.382168,-261.219919,1.366685,69.710086
7.1862,-0.004149,0.002726,0.006698,0.000541,6.4e-05,-0.003539,-0.00077,-0.507501,0.005445,-1.382168,-261.219919,1.366685,69.710086
7.2058,-0.003672,0.002679,0.004732,0.000541,6.4e-05,-0.003539,-0.000713,-0.507259,0.006541,-1.356195,-261.219013,1.371443,69.71106
7.2263,-0.003773,0.002329,0.005179,0.000645,5e-06,-0.003553,-0.000935,-0.507281,0.00578,-1.356195,-261.219013,1.371443,69.71106
7.2465,-0.003401,0.00258,0.005285,0.000681,-1.6e-05,-0.003561,-0.001115,-0.507662,0.005071,-1.318175,-261.218188,1.332205,69.711932
7.2659,-0.003419,0.002597,0.006324,0.000659,-1.6e-05,-0.003436,-0.000742,-0.507435,0.00526,-1.318175,-261.218188,1.332205,69.711932
7.2855,-0.003365,0.002611,0.004763,0.000643,-1.5e-05,-0.003348,-0.000742,-0.507435,0.00526,-1.318175,-261.218188,1.332205,69.711932
7.3056,-0.00326,0.002498,0.006049,0.000643,-1.5e-05,-0.003348,-0.00091,-0.507384,0.004629,-1.269523,-261.217364,1.265303,69.712745
7.3258,-0.002901,0.002553,0.004154,0.000554,-1.5e-05,-0.00323,-0.000605,-0.507429,0.005197,-1.269523,-261.217364,1.265303,69.712745
7.3457,-0.003329,0.002805,0.003614,0.000524,-1.4e-05,-0.003195,-0.000762,-0.507443,0.004048,-1.268027,-261.216502,1.263928,69.713595
7.3658,-0.003173,0.002924,0.006013,0.00071,-2.1e-05,-0.0026,-0.001419,-0.507215,0.003648,-1.268027,-261.216502,1.263928,69.713595
7.3859,-0.003343,0.002791,0.004796,0.000857,-2.5e-05,-0.002192,-0.001419,-0.507215,0.003648,-1.268027,-261.216502,1.263928,69.713595
7.4061,-0.003582,0.002875,0.00494,0.000857,-2.5e-05,-0.002192,-0.000876,-0.507204,0.00467,-1.310498,-261.215734,1.306786,69.714354
7.4263,-0.00324,0.002509,0.004033,0.000849,-6.5e-05,-0.002416,-0.00095,-0.507169,0.004766,-1.310498,-261.215734,1.306786,69.714354
7.446,-0.003261,0.002852,0.00589,0.000847,-8e-05,-0.002485,-0.001182,-0.507487,0.00403,-1.235376,-261.215704,1.231663,69.714382
7.4661,-0.003254,0.002491,0.004603,0.000679,-8.9e-05,-0.002834,-0.000341,-0.50717,0.005721,-1.235376,-261.215704,1.231663,69.714382
7.4855,-0.00289,0.002878,0.004774,0.000548,-9.8e-05,-0.003081,-0.000341,-0.50717,0.005721,-1.235376,-261.215704,1.231663,69.714382
7.5058,-0.003088,0.002507,0.004807,0.000548,-9.8e-05,-0.003081,-0.000444,-0.507117,0.004732,-1.160496,-261.21543,1.156784,69.714635
7.526,-0.002992,0.002564,0.006274,0.000457,-0.000101,-0.002891,-0.000521,-0.507268,0.004758,-1.160496,-261.21543,1.156784,69.714635
7.5459,-0.003127,0.002626,0.005173,0.000425,-0.000102,-0.002831,0.00022,-0.507427,0.006217,-1.235502,-261.214946,1.231789,69.715074
7.5661,-0.00343,0.002709,0.004247,0.000371,-8.9e-05,-0.002939,-0.000425,-0.507373,0.005263,-1.235502,-261.214946,1.231789,69.715074
7.5859,-0.002987,0.002676,0.006621,0.000329,-7.9e-05,-0.003013,-0.000425,-0.507373,0.005263,-1.235502,-261.214946,1.231789,69.715074
7.6058,-0.002779,0.00261,0.003705,0.000329,-7.9e-05,-0.003013,0.000404,-0.507315,0.006534,-1.310584,-261.214385,1.306872,69.715576
7.6259,-0.003062,0.002691,0.005054,0.000122,-6.3e-05,-0.003171,-0.00013,-0.507345,0.005352,-1.310584,-261.214385,1.306872,69.715576
7.6457,-0.002726,0.002662,0.006355,5e-05,-5.9e-05,-0.003211,-0.000476,-0.507304,0.004979,-1.385774,-261.21377,1.382061,69.716143
7.6664,-0.00275,0.002519,0.006541,-0.00016,-3.7e-05,-0.003492,0.000426,-0.507325,0.006227,-1.385774,-261.21377,1.382061,69.716143
7.6858,-0.002855,0.002482,0.002015,-0.000325,-2.3e-05,-0.003687,0.000426,-0.507325,0.006227,-1.385774,-261.21377,1.382061,69.716143
7.7056,-0.002616,0.002322,0.004837,-0.000325,-2.3e-05,-0.003687,-0.001823,-0.507518,0.001957,-1.460499,-261.213419,1.456787,69.716473
7.7261,-0.003304,0.002432,0.004041,0.000226,4e-05,-0.002059,-0.00113,-0.507582,0.003142,-1.460499,-261.213419,1.456787,69.716473
7.7459,-0.003017,0.002498,0.005001,0.000415,6.5e-05,-0.001607,-0.001243,-0.507564,0.004026,-1.535617,-261.213308,1.531905,69.716582
7.7656,-0.002791,0.002497,0.005394,0.000393,6.3e-05,-0.001932,-0.000538,-0.507502,0.004911,-1.535617,-261.213308,1.531905,69.716582
7.7857,-0.002887,0.002514,0.004398,0.000377,6.2e-05,-0.00217,-0.000538,-0.507502,0.004911,-1.535617,-261.213308,1.531905,69.716582
7.806,-0.002896,0.002798,0.004884,0.000377,6.2e-05,-0.00217,-0.000644,-0.507481,0.004397,-1.460733,-261.213303,1.457021,69.716588
7.8258,-0.002808,0.002576,0.004819,0.000359,2.3e-05,-0.002311,-0.000543,-0.50736,0.004604,-1.460733,-261.213303,1.457021,69.716588
7.8463,-0.002895,0.002404,0.005967,0.000353,9e-06,-0.002355,-0.000347,-0.507417,0.00479,-1.385124,-261.213088,1.381412,69.716822
7.8659,-0.002701,0.002152,0.004127,0.000156,4.4e-05,-0.002762,0.000104,-0.507572,0.00586,-1.385124,-261.213088,1.381412,69.716822
7.8858,-0.0026,0.002465,0.005701,2e-06,6.7e-05,-0.00305,0.000104,-0.507572,0.00586,-1.385124,-261.213088,1.381412,69.716822
7.9059,-0.002807,0.002472,0.003947,2e-06,6.7e-05,-0.00305,0.000321,-0.507526,0.005611,-1.328335,-261.212547,1.331336,69.717369
7.9255,-0.003027,0.002246,0.004965,-7.1e-05,6.7e-05,-0.002923,-0.000151,-0.507525,0.004893,-1.328335,-261.212547,1.331336,69.717369
7.9459,-0.002673,0.002204,0.005638,-9.7e-05,6.7e-05,-0.002882,-0.000493,-0.507747,0.004951,-1.403832,-261.212436,1.406833,69.717489
7.966,-0.002632,0.002365,0.005494,-0.000213,0.000117,-0.003055,0.000135,-0.507784,0.005571,-1.403832,-261.212436,1.406833,69.717489
7.9857,-0.003028,0.002576,0.004269,-0.000302,0.000154,-0.003176,0.000135,-0.507784,0.005571,-1.403832,-261.212436,1.406833,69.717489
8.0057,-0.002607,0.00255,0.002908,-0.000302,0.000154,-0.003176,-0.000849,-0.507419,0.004244,-1.478458,-261.212294,1.481459,69.717641
8.0257,-0.002845,0.002489,0.003297,0.000147,0.000107,-0.002188,-0.000963,-0.507431,0.003689,-1.478458,-261.212294,1.481459,69.717641
8.0457,-0.002988,0.002372,0.003384,0.000302,9.1e-05,-0.001914,-0.001164,-0.507507,0.003283,-1.553453,-261.212193,1.556454,69.717759
8.0655,-0.002569,0.002493,0.004077,0.000505,0.000117,-0.001593,-0.001253,-0.507614,0.003374,-1.553453,-261.212193,1.556454,69.717759
8.0858,-0.002707,0.002651,0.005428,0.000665,0.000137,-0.001378,-0.001253,-0.507614,0.003374,-1.553453,-261.212193,1.556454,69.717759
8.1058,-0.002519,0.002638,0.002668,0.000665,0.000137,-0.001378,6.2e-05,-0.507341,0.005415,-1.478571,-261.212122,1.481572,69.717842
8.1259,-0.002844,0.002768,0.004918,0.0,0.0,0.0,-0.000437,-0.507349,0.00429,-1.478571,-261.212122,1.481572,69.717842
8.146,-0.002866,0.002453,0.005386,0.0,0.0,0.0,-0.000336,-0.507225,0.004918,-1.403563,-261.212122,1.406564,69.717842
8.166,-0.002435,0.002528,0.00433,0.0,0.0,0.0,-0.000138,-0.507512,0.005345,-1.403563,-261.212122,1.406564,69.717842
8.1859,-0.002469,0.0027,0.004458,0.0,0.0,0.0,-0.000138,-0.507512,0.005345,-1.403563,-261.212122,1.406564,69.717842
8.2059,-0.002971,0.00237,0.003834,0.0,0.0,0.0,-0.000196,-0.507295,0.004458,-1.403563,-261.212122,1.406564,69.717842
8.2261,-0.002321,0.002452,0.00473,0.0,0.0,0.0,-0.000551,-0.507439,0.004187,-1.403563,-261.212122,1.406564,69.717842
8.2457,-0.002632,0.002412,0.004394,0.0,0.0,0.0,9.2e-05,-0.507542,0.00473,-1.403563,-261.212122,1.406564,69.717842
8.2664,-0.00292,0.002347,0.006052,0.0,0.0,0.0,-0.000349,-0.50758,0.004423,-1.403563,-261.212122,1.406564,69.717842
8.2861,-0.0028,0.002435,0.003291,0.0,0.0,0.0,-0.000349,-0.50758,0.004423,-1.403563,-261.212122,1.406564,69.717842
8.3056,-0.002819,0.002305,0.004946,0.0,0.0,0.0,-0.001121,-0.507562,0.003291,-1.403563,-261.212122,1.406564,69.717842
8.3256,-0.002933,0.002446,0.003645,0.0,0.0,0.0,-0.000774,-0.507615,0.003989,-1.403563,-261.212122,1.406564,69.717842
8.3464,-0.002643,0.002538,0.004821,0.0,0.0,0.0,-0.001074,-0.50755,0.003645,-1.403563,-261.212122,1.406564,69.717842
8.3656,-0.002866,0.002619,0.004442,0.0,0.0,0.0,-0.000263,-0.507465,0.004717,-1.403563,-261.212122,1.406564,69.717842
8.3857,-0.002726,0.002434,0.004494,0.0,0.0,0.0,-0.000263,-0.507465,0.004717,-1.403563,-261.212122,1.406564,69.717842
8.4056,-0.002834,0.002805,0.004696,0.0,0.0,0.0,-0.000434,-0.507561,0.004494,-1.403563,-261.212122,1.406564,69.717842
8.4258,-0.002351,0.002524,0.005561,0.0,0.0,0.0,-0.000436,-0.507408,0.004577,-1.403563,-261.212122,1.406564,69.717842
8.4459,-0.002547,0.002877,0.00398,0.0,0.0,0.0,0.000485,-0.507468,0.005561,-1.403563,-261.212122,1.406564,69.717842
8.4657,-0.002625,0.0022,0.004496,0.0,0.0,0.0,-0.000421,-0.507153,0.00413,-1.403563,-261.212122,1.406564,69.717842
8.4858,-0.00232,0.002386,0.006053,0.0,0.0,0.0,-0.000421,-0.507153,0.00413,-1.403563,-261.212122,1.406564,69.717842
8.5059,-0.002481,0.002662,0.004875,0.0,0.0,0.0,0.000767,-0.507604,0.006053,-1.403563,-261.212122,1.406564,69.717842
8.526,-0.002486,0.002721,0.00465,0.0,0.0,0.0,0.000456,-0.507493,0.005571,-1.403563,-261.212122,1.406564,69.717842
8.5457,-0.002452,0.002477,0.004789,0.0,0.0,0.0,-0.000114,-0.507273,0.00465,-1.403563,-261.212122,1.406564,69.717842
8.5658,-0.002236,0.002579,0.003728,0.0,0.0,0.0,-1.9e-05,-0.507495,0.004777,-1.403563,-261.212122,1.406564,69.717842
8.5856,-0.002691,0.002364,0.004113,0.0,0.0,0.0,-1.9e-05,-0.507495,0.004777,-1.403563,-261.212122,1.406564,69.717842
8.6057,-0.002724,0.002772,0.005462,0.0,0.0,0.0,-0.000594,-0.507631,0.004113,-1.403563,-261.212122,1.406564,69.717842
8.6256,-0.002458,0.002303,0.004952,0.0,0.0,0.0,-0.000325,-0.507463,0.004665,-1.403563,-261.212122,1.406564,69.717842
8.6462,-0.002819,0.002804,0.004862,0.0,0.0,0.0,6.7e-05,-0.50769,0.004952,-1.403563,-261.212122,1.406564,69.717842
8.6657,-0.002377,0.002699,0.004244,0.0,0.0,0.0,-0.000305,-0.507232,0.00487,-1.403563,-261.212122,1.406564,69.717842
8.6858,-0.002738,0.002331,0.005501,0.0,0.0,0.0,-0.000305,-0.507232,0.00487,-1.403563,-261.212122,1.406564,69.717842
8.7055,-0.002232,0.002619,0.004216,0.0,0.0,0.0,6.7e-05,-0.507661,0.005501,-1.403563,-261.212122,1.406564,69.717842
8.7261,-0.002635,0.002632,0.004548,0.0,0.0,0.0,5e-06,-0.507543,0.004969,-1.403563,-261.212122,1.406564,69.717842
8.7458,-0.002637,0.002882,0.003827,0.0,0.0,0.0,-0.000316,-0.507362,0.004548,-1.403563,-261.212122,1.406564,69.717842
8.7655,-0.002821,0.002564,0.00353,0.0,0.0,0.0,-0.000653,-0.507136,0.00389,-1.403563,-261.212122,1.406564,69.717842
8.7859,-0.002537,0.002588,0.004868,0.0,0.0,0.0,-0.000653,-0.507136,0.00389,-1.403563,-261.212122,1.406564,69.717842
8.8056,-0.002609,0.002784,0.002429,0.0,0.0,0.0,-5.4e-05,-0.507406,0.004868,-1.403563,-261.212122,1.406564,69.717842
8.8261,-0.002443,0.002482,0.005641,0.0,0.0,0.0,-0.000592,-0.507328,0.003871,-1.403563,-261.212122,1.406564,69.717842
8.846,-0.002557,0.002623,0.00513,0.0,0.0,0.0,0.000433,-0.50751,0.005641,-1.403563,-261.212122,1.406564,69.717842
8.8658,-0.002641,0.00263,0.004607,0.0,0.0,0.0,9.1e-05,-0.507382,0.005174,-1.403563,-261.212122,1.406564,69.717842
8.8859,-0.002473,0.002343,0.00478,0.0,0.0,0.0,9.1e-05,-0.507382,0.005174,-1.403563,-261.212122,1.406564,69.717842
8.9059,-0.00273,0.002703,0.004662,0.0,0.0,0.0,-3.5e-05,-0.507651,0.00478,-1.403563,-261.212122,1.406564,69.717842
8.9258,-0.002853,0.002401,0.004113,0.0,0.0,0.0,-0.000166,-0.507502,0.004731,-1.403563,-261.212122,1.406564,69.717842
8.9459,-0.002993,0.002494,0.005189,0.0,0.0,0.0,-0.000756,-0.507595,0.004113,-1.403563,-261.212122,1.406564,69.717842
8.9659,-0.002436,0.002446,0.00407,0.0,0.0,0.0,-0.000381,-0.507507,0.005099,-1.403563,-261.212122,1.406564,69.717842
8.986,-0.002799,0.003027,0.0041,0.0,0.0,0.0,-0.000381,-0.507507,0.005099,-1.403563,-261.212122,1.406564,69.717842
9.0059,-0.002602,0.002619,0.005633,0.0,0.0,0.0,-0.000707,-0.506969,0.0041,-1.403563,-261.212122,1.406564,69.717842
9.0258,-0.002831,0.002618,0.004525,0.0,0.0,0.0,-0.000305,-0.507135,0.004731,-1.403563,-261.212122,1.406564,69.717842
9.0457,-0.0026,0.002735,0.005282,0.0,0.0,0.0,-0.000523,-0.507377,0.004525,-1.403563,-261.212122,1.406564,69.717842
9.0658,-0.00265,0.002725,0.002922,0.0,0.0,0.0,3.8e-05,-0.507269,0.005213,-1.403563,-261.212122,1.406564,69.717842
9.0856,-0.002562,0.002362,0.004893,0.0,0.0,0.0,3.8e-05,-0.507269,0.005213,-1.403563,-261.212122,1.406564,69.717842
9.1057,-0.002924,0.002306,0.002943,0.0,0.0,0.0,-6.7e-05,-0.507632,0.004893,-1.403563,-261.212122,1.406564,69.717842
9.1259,-0.002723,0.002611,0.005359,0.0,0.0,0.0,-0.000619,-0.507656,0.004099,-1.403563,-261.212122,1.406564,69.717842
9.1457,-0.002543,0.002915,0.004741,0.0,0.0,0.0,1e-05,-0.507382,0.005359,-1.403563,-261.212122,1.406564,69.717842
9.1655,-0.003037,0.002561,0.00485,0.0,0.0,0.0,-0.000113,-0.507105,0.004793,-1.403563,-261.212122,1.406564,69.717842
9.1856,-0.002551,0.002345,0.004644,0.0,0.0,0.0,-0.000113,-0.507105,0.004793,-1.403563,-261.212122,1.406564,69.717842
9.2059,-0.002487,0.002319,0.005403,0.0,0.0,0.0,-0.000183,-0.507649,0.004644,-1.403563,-261.212122,1.406564,69.717842
9.2255,-0.002858,0.003135,0.00322,0.0,0.0,0.0,2e-06,-0.507659,0.004955,-1.403563,-261.212122,1.406564,69.717842
9.2454,-0.002562,0.002363,0.0028,0.0,0.0,0.0,-0.001215,-0.506862,0.00322,-1.403563,-261.212122,1.406564,69.717842
9.2656,-0.002682,0.002447,0.004658,0.0,0.0,0.0,-0.001142,-0.507565,0.002838,-1.403563,-261.212122,1.406564,69.717842
9.2857,-0.002932,0.002184,0.003785,0.0,0.0,0.0,-0.001142,-0.507565,0.002838,-1.403563,-261.212122,1.406564,69.717842
9.3056,-0.002408,0.002414,0.004008,0.0,0.0,0.0,-0.001001,-0.507813,0.003785,-1.403563,-261.212122,1.406564,69.717842
9.3257,-0.002628,0.002301,0.004871,0.0,0.0,0.0,-0.000742,-0.507719,0.003876,-1.403563,-261.212122,1.406564,69.717842
9.346,-0.003037,0.002583,0.004193,0.0,0.0,0.0,-0.000144,-0.507693,0.004871,-1.403563,-261.212122,1.406564,69.717842
9.366,-0.002483,0.002668,0.004502,0.0,0.0,0.0,-0.000829,-0.507439,0.004255,-1.403563,-261.212122,1.406564,69.717842
9.3861,-0.002475,0.00239,0.004422,0.0,0.0,0.0,-0.000829,-0.507439,0.004255,-1.403563,-261.212122,1.406564,69.717842
9.4057,-0.002702,0.002641,0.005611,0.0,0.0,0.0,-0.00022,-0.507605,0.004422,-1.403563,-261.212122,1.406564,69.717842
9.4261,-0.002934,0.002308,0.005642,0.0,0.0,0.0,-6.5e-05,-0.507501,0.004907,-1.403563,-261.212122,1.406564,69.717842
9.4454,-0.002508,0.002574,0.005609,0.0,0.0,0.0,-5.6e-05,-0.507684,0.005642,-1.403563,-261.212122,1.406564,69.717842
9.4658,-0.003004,0.00283,0.00317,0.0,0.0,0.0,0.000316,-0.507442,0.005612,-1.403563,-261.212122,1.406564,69.717842
9.4856,-0.002772,0.002358,0.004344,0.0,0.0,0.0,0.000316,-0.507442,0.005612,-1.403563,-261.212122,1.406564,69.717842
9.5057,-0.002625,0.002728,0.00321,0.0,0.0,0.0,-0.000557,-0.507637,0.004344,-1.403563,-261.212122,1.406564,69.717842
9.5256,-0.002688,0.002619,0.005015,0.0,0.0,0.0,-0.000733,-0.507487,0.003881,-1.403563,-261.212122,1.406564,69.717842
9.5455,-0.002487,0.002727,0.003531,0.0,0.0,0.0,-0.00013,-0.507375,0.005015,-1.403563,-261.212122,1.406564,69.717842
9.5659,-0.00268,0.002786,0.00398,0.0,0.0,0.0,-0.000638,-0.507279,0.00366,-1.403563,-261.212122,1.406564,69.717842
9.5858,-0.002678,0.002443,0.004622,0.0,0.0,0.0,-0.000638,-0.507279,0.00366,-1.403563,-261.212122,1.406564,69.717842
9.606,-0.00232,0.002566,0.002834,0.0,0.0,0.0,-0.000321,-0.507552,0.004622,-1.403563,-261.212122,1.406564,69.717842
9.6259,-0.002921,0.002251,0.004657,0.0,0.0,0.0,-0.000547,-0.507503,0.003891,-1.403563,-261.212122,1.406564,69.717842
9.6458,-0.003037,0.002615,0.00541,0.0,0.0,0.0,-0.000546,-0.507744,0.004657,-1.403563,-261.212122,1.406564,69.717842
9.6659,-0.00262,0.002373,0.005623,0.0,0.0,0.0,-0.000302,-0.507411,0.005341,-1.403563,-261.212122,1.406564,69.717842
9.6859,-0.002733,0.002628,0.00508,0.0,0.0,0.0,-0.000302,-0.507411,0.005341,-1.403563,-261.212122,1.406564,69.717842
9.7057,-0.00232,0.002579,0.00569,0.0,0.0,0.0,-0.000143,-0.507365,0.00508,-1.403563,-261.212122,1.406564,69.717842
9.7258,-0.002771,0.002555,0.005257,0.0,0.0,0.0,0.000151,-0.507385,0.005327,-1.403563,-261.212122,1.406564,69.717842
9.7457,-0.002604,0.002626,0.00423,0.0,0.0,0.0,-9e-05,-0.507438,0.005257,-1.403563,-261.212122,1.406564,69.717842
9.7656,-0.002831,0.002574,0.004207,0.0,0.0,0.0,-0.000416,-0.507375,0.004318,-1.403563,-261.212122,1.406564,69.717842
9.7862,-0.002718,0.002738,0.004985,0.0,0.0,0.0,-0.000416,-0.507375,0.004318,-1.403563,-261.212122,1.406564,69.717842
9.8063,-0.002627,0.002874,0.005209,0.0,0.0,0.0,-0.000176,-0.507255,0.004985,-1.403563,-261.212122,1.406564,69.717842
9.8261,-0.002448,0.002377,0.005377,0.0,0.0,0.0,-9.4e-05,-0.507201,0.005074,-1.403563,-261.212122,1.406564,69.717842
9.8464,-0.002461,0.002314,0.003471,0.0,0.0,0.0,0.000294,-0.507615,0.005377,-1.403563,-261.212122,1.406564,69.717842
9.8657,-0.002898,0.002642,0.005352,0.0,0.0,0.0,-0.000604,-0.507677,0.003639,-1.403563,-261.212122,1.406564,69.717842
9.8861,-0.002703,0.002332,0.004818,0.0,0.0,0.0,-0.000604,-0.507677,0.003639,-1.403563,-261.212122,1.406564,69.717842
9.9058,-0.002598,0.002335,0.005013,0.0,0.0,0.0,-0.000246,-0.507662,0.004818,-1.403563,-261.212122,1.406564,69.717842
9.926,-0.00249,0.00251,0.004414,0.0,0.0,0.0,-0.000159,-0.50766,0.004901,-1.403563,-261.212122,1.406564,69.717842
9.9458,-0.002924,0.002678,0.00592,0.0,0.0,0.0,-0.000239,-0.507485,0.004414,-1.403563,-261.212122,1.406564,69.717842
9.9656,-0.002778,0.002782,0.003932,0.0,0.0,0.0,6.5e-05,-0.507329,0.005785,-1.403563,-261.212122,1.406564,69.717842
9.9856,-0.002643,0.002299,0.005477,0.0,0.0,0.0,6.5e-05,-0.507329,0.005785,-1.403563,-261.212122,1.406564,69.717842
10.0055,-0.002763,0.0028,0.004962,0.0,0.0,0.0,0.00015,-0.507694,0.005477,-1.403563,-261.212122,1.406564,69.717842
10.0257,-0.002792,0.002532,0.004466,0.0,0.0,0.0,-6e-06,-0.50749,0.005267,-1.403563,-261.212122,1.406564,69.717842
10.0459,-0.002492,0.002782,0.00346,0.0,0.0,0.0,-0.000515,-0.507463,0.004466,-1.403563,-261.212122,1.406564,69.717842
10.066,-0.00256,0.002403,0.003473,0.0,0.0,0.0,-0.000709,-0.507237,0.003549,-1.403563,-261.212122,1.406564,69.717842
10.0856,-0.002662,0.002556,0.003006,0.0,0.0,0.0,-0.000709,-0.507237,0.003549,-1.403563,-261.212122,1.406564,69.717842
10.1058,-0.002754,0.002445,0.0044,0.0,0.0,0.0,-0.001129,-0.507442,0.003006,-1.403563,-261.212122,1.406564,69.717842
10.1256,-0.002658,0.002441,0.005587,0.0,0.0,0.0,-0.000875,-0.507486,0.003578,-1.403563,-261.212122,1.406564,69.717842
10.1454,-0.002947,0.002422,0.004611,0.0,0.0,0.0,0.000192,-0.507551,0.005587,-1.403563,-261.212122,1.406564,69.717842
10.1657,-0.002669,0.002463,0.005638,0.0,0.0,0.0,-0.000524,-0.50757,0.0047,-1.403563,-261.212122,1.406564,69.717842
10.1859,-0.002743,0.002057,0.003382,0.0,0.0,0.0,-0.000524,-0.50757,0.0047,-1.403563,-261.212122,1.406564,69.717842
10.2055,-0.003019,0.002693,0.003692,0.0,0.0,0.0,-0.001018,-0.507941,0.003382,-1.403563,-261.212122,1.406564,69.717842
10.2259,-0.002852,0.002341,0.003491,0.0,0.0,0.0,-0.001067,-0.507678,0.00351,-1.403563,-261.212122,1.406564,69.717842
10.2462,-0.002578,0.002192,0.004046,0.0,0.0,0.0,-0.001071,-0.507656,0.003491,-1.403563,-261.212122,1.406564,69.717842
10.2658,-0.002603,0.002559,0.005446,0.0,0.0,0.0,-0.000563,-0.507791,0.003999,-1.403563,-261.212122,1.406564,69.717842
10.2856,-0.002796,0.002161,0.004762,0.0,0.0,0.0,-0.000563,-0.507791,0.003999,-1.403563,-261.212122,1.406564,69.717842
10.3058,-0.002854,0.002506,0.004898,0.0,0.0,0.0,-0.000368,-0.507833,0.004762,-1.403563,-261.212122,1.406564,69.717842
10.3255,-0.002609,0.002419,0.003363,0.0,0.0,0.0,-0.000363,-0.50769,0.004818,-1.403563,-261.212122,1.406564,69.717842
10.3458,-0.002727,0.002639,0.005218,0.0,0.0,0.0,-0.000894,-0.507578,0.003363,-1.403563,-261.212122,1.406564,69.717842
10.366,-0.002794,0.002576,0.003743,0.0,0.0,0.0,-0.00014,-0.507374,0.005052,-1.403563,-261.212122,1.406564,69.717842
10.386,-0.00286,0.002505,0.003602,0.0,0.0,0.0,-0.00014,-0.507374,0.005052,-1.403563,-261.212122,1.406564,69.717842
10.4059,-0.002637,0.002531,0.005718,0.0,0.0,0.0,-0.001023,-0.507492,0.003602,-1.403563,-261.212122,1.406564,69.717842
10.4259,-0.002658,0.002494,0.003958,0.0,0.0,0.0,-0.000495,-0.507479,0.00446,-1.403563,-261.212122,1.406564,69.717842
10.4458,-0.00273,0.002478,0.005279,0.0,0.0,0.0,-0.000639,-0.507502,0.003958,-1.403563,-261.212122,1.406564,69.717842
10.4662,-0.002545,0.002586,0.005024,0.0,0.0,0.0,-9.1e-05,-0.507513,0.005162,-1.403563,-261.212122,1.406564,69.717842
10.4855,-0.002616,0.002477,0.004644,0.0,0.0,0.0,-9.1e-05,-0.507513,0.005162,-1.403563,-261.212122,1.406564,69.717842
10.5058,-0.002494,0.002582,0.003459,0.0,0.0,0.0,-0.000247,-0.507518,0.004644,-1.403563,-261.212122,1.406564,69.717842
10.5258,-0.0023,0.002834,0.003374,0.0,0.0,0.0,-0.000446,-0.507476,0.004156,-1.403563,-261.212122,1.406564,69.717842
10.5455,-0.002583,0.002805,0.005497,0.0,0.0,0.0,-0.00058,-0.507164,0.003374,-1.403563,-261.212122,1.406564,69.717842
10.5659,-0.002584,0.002599,0.004699,0.0,0.0,0.0,0.000151,-0.507186,0.005313,-1.403563,-261.212122,1.406564,69.717842
10.5859,-0.002512,0.002729,0.005997,0.0,0.0,0.0,0.000151,-0.507186,0.005313,-1.403563,-261.212122,1.406564,69.717842
10.6057,-0.002992,0.002611,0.004051,0.0,0.0,0.0,0.000546,-0.507262,0.005997,-1.403563,-261.212122,1.406564,69.717842
10.626,-0.002602,0.00253,0.004428,0.0,0.0,0.0,-5.4e-05,-0.507312,0.005204,-1.403563,-261.212122,1.406564,69.717842
10.6459,-0.002622,0.002719,0.004589,0.0,0.0,0.0,-0.000344,-0.507465,0.004428,-1.403563,-261.212122,1.406564,69.717842
10.6659,-0.002449,0.002748,0.003578,0.0,0.0,0.0,-0.000287,-0.507292,0.004575,-1.403563,-261.212122,1.406564,69.717842
10.6857,-0.002687,0.002374,0.003584,0.0,0.0,0.0,-0.000287,-0.507292,0.004575,-1.403563,-261.212122,1.406564,69.717842
10.7059,-0.002729,0.002668,0.002924,0.0,0.0,0.0,-0.000859,-0.507623,0.003584,-1.403563,-261.212122,1.406564,69.717842
10.7259,-0.002574,0.002503,0.005105,0.0,0.0,0.0,-0.001014,-0.507503,0.003314,-1.403563,-261.212122,1.406564,69.717842
10.746,-0.002796,0.002282,0.004519,0.0,0.0,0.0,2.9e-05,-0.507491,0.005105,-1.403563,-261.212122,1.406564,69.717842
10.7661,-0.002804,0.002742,0.004653,0.0,0.0,0.0,-0.000445,-0.507693,0.004571,-1.403563,-261.212122,1.406564,69.717842
10.7865,-0.002938,0.002465,0.005297,0.0,0.0,0.0,-0.000445,-0.507693,0.004571,-1.403563,-261.212122,1.406564,69.717842
10.8059,-0.002918,0.002616,0.003477,0.0,0.0,0.0,-0.000237,-0.507528,0.005297,-1.403563,-261.212122,1.406564,69.717842
10.8259,-0.002975,0.002372,0.004895,0.0,0.0,0.0,-0.000598,-0.507469,0.004573,-1.403563,-261.212122,1.406564,69.717842
10.8454,-0.002361,0.002538,0.003928,0.0,0.0,0.0,-0.000478,-0.507622,0.004895,-1.403563,-261.212122,1.406564,69.717842
10.8659,-0.002528,0.002613,0.00485,0.0,0.0,0.0,-0.000369,-0.507473,0.004016,-1.403563,-261.212122,1.406564,69.717842
10.8858,-0.002552,0.002603,0.005467,0.0,0.0,0.0,-0.000369,-0.507473,0.004016,-1.403563,-261.212122,1.406564,69.717842
10.9063,-0.002745,0.002362,0.005688,0.0,0.0,0.0,0.000236,-0.50739,0.005467,-1.403563,-261.212122,1.406564,69.717842
10.926,-0.00299,0.002654,0.004994,0.0,0.0,0.0,0.000203,-0.507488,0.005558,-1.403563,-261.212122,1.406564,69.717842
10.946,-0.002457,0.002843,0.002931,0.0,0.0,0.0,-0.000443,-0.507339,0.004994,-1.403563,-261.212122,1.406564,69.717842
10.9658,-0.002568,0.002665,0.003591,0.0,0.0,0.0,-0.000917,-0.50717,0.00311,-1.403563,-261.212122,1.406564,69.717842
10.9856,-0.002367,0.002584,0.003777,0.0,0.0,0.0,-0.000917,-0.50717,0.00311,-1.403563,-261.212122,1.406564,69.717842
11.0058,-0.002393,0.002751,0.003493,0.0,0.0,0.0,-0.000441,-0.507413,0.003777,-1.403563,-261.212122,1.406564,69.717842
11.0259,-0.002532,0.002696,0.00432,0.0,0.0,0.0,-0.00051,-0.507345,0.003662,-1.403563,-261.212122,1.406564,69.717842
11.0462,-0.003113,0.002539,0.005043,0.0,0.0,0.0,-0.000329,-0.507299,0.00432,-1.403563,-261.212122,1.406564,69.717842
11.066,-0.002467,0.002916,0.004337,0.0,0.0,0.0,-0.000522,-0.507441,0.00498,-1.403563,-261.212122,1.406564,69.717842
11.0859,-0.002655,0.002561,0.00694,0.0,0.0,0.0,-0.000522,-0.507441,0.00498,-1.403563,-261.212122,1.406564,69.717842
11.1059,-0.002226,0.002283,0.004656,0.0,0.0,0.0,0.000884,-0.507427,0.00694,-1.403563,-261.212122,1.406564,69.717842
11.1255,-0.002515,0.002618,0.002327,0.0,0.0,0.0,0.000585,-0.507543,0.00601,-1.403563,-261.212122,1.406564,69.717842
11.1457,-0.00234,0.002261,0.004089,0.0,0.0,0.0,-0.001328,-0.507381,0.002327,-1.403563,-261.212122,1.406564,69.717842
11.1656,-0.002745,0.002375,0.002833,0.0,0.0,0.0,-0.000348,-0.507704,0.003936,-1.403563,-261.212122,1.406564,69.717842
11.1855,-0.002604,0.002697,0.00361,0.0,0.0,0.0,-0.000348,-0.507704,0.003936,-1.403563,-261.212122,1.406564,69.717842
11.2056,-0.003034,0.002563,0.004559,0.0,0.0,0.0,-0.000763,-0.507299,0.00361,-1.403563,-261.212122,1.406564,69.717842
11.226,-0.002998,0.002567,0.003072,0.0,0.0,0.0,-0.000741,-0.507353,0.003999,-1.403563,-261.212122,1.406564,69.717842
11.246,-0.002833,0.002702,0.004981,0.0,0.0,0.0,-0.001431,-0.50743,0.003072,-1.403563,-261.212122,1.406564,69.717842
11.2655,-0.002824,0.00266,0.005542,0.0,0.0,0.0,-0.000398,-0.507305,0.004805,-1.403563,-261.212122,1.406564,69.717842
11.2858,-0.002765,0.002456,0.004054,0.0,0.0,0.0,-0.000398,-0.507305,0.004805,-1.403563,-261.212122,1.406564,69.717842
11.3057,-0.002847,0.002237,0.004308,0.0,0.0,0.0,-0.000697,-0.507539,0.004054,-1.403563,-261.212122,1.406564,69.717842
11.3257,-0.002846,0.002319,0.004538,0.0,0.0,0.0,-0.000678,-0.50763,0.004159,-1.403563,-261.212122,1.406564,69.717842
11.346,-0.002545,0.002611,0.004709,0.0,0.0,0.0,-0.000531,-0.507676,0.004538,-1.403563,-261.212122,1.406564,69.717842
11.3658,-0.002895,0.00218,0.004247,0.0,0.0,0.0,-0.000176,-0.507408,0.004695,-1.403563,-261.212122,1.406564,69.717842
11.3856,-0.002799,0.002777,0.003415,0.0,0.0,0.0,-0.000176,-0.507408,0.004695,-1.403563,-261.212122,1.406564,69.717842
11.4057,-0.002434,0.003054,0.005087,0.0,0.0,0.0,-0.001058,-0.50722,0.003415,-1.403563,-261.212122,1.406564,69.717842
11.4257,-0.002517,0.002431,0.004139,0.0,0.0,0.0,-0.000558,-0.507105,0.0041,-1.403563,-261.212122,1.406564,69.717842
11.4459,-0.002696,0.002418,0.002919,0.0,0.0,0.0,-0.000406,-0.507565,0.004139,-1.403563,-261.212122,1.406564,69.717842
11.4657,-0.002736,0.002482,0.004087,0.0,0.0,0.0,-0.001138,-0.507579,0.003024,-1.403563,-261.212122,1.406564,69.717842
11.4856,-0.002524,0.002596,0.003838,0.0,0.0,0.0,-0.001138,-0.507579,0.003024,-1.403563,-261.212122,1.406564,69.717842
11.506,-0.002678,0.00238,0.005062,0.0,0.0,0.0,-0.000567,-0.5074,0.003838,-1.403563,-261.212122,1.406564,69.717842
11.5258,-0.002864,0.00248,0.004493,0.0,0.0,0.0,-0.000372,-0.507488,0.004344,-1.403563,-261.212122,1.406564,69.717842
11.5458,-0.002675,0.002629,0.004327,0.0,0.0,0.0,-0.000572,-0.507515,0.004493,-1.403563,-261.212122,1.406564,69.717842
11.5659,-0.00239,0.002625,0.006193,0.0,0.0,0.0,-0.000477,-0.50738,0.004342,-1.403563,-261.212122,1.406564,69.717842
11.5858,-0.002666,0.002389,0.004198,0.0,0.0,0.0,-0.000477,-0.50738,0.004342,-1.403563,-261.212122,1.406564,69.717842
11.6057,-0.002369,0.00274,0.004717,0.0,0.0,0.0,-0.000525,-0.507606,0.004198,-1.403563,-261.212122,1.406564,69.717842
11.6257,-0.002311,0.00209,0.003624,0.0,0.0,0.0,-0.000296,-0.507463,0.00441,-1.403563,-261.212122,1.406564,69.717842
11.6459,-0.002349,0.002401,0.004363,0.0,0.0,0.0,-0.000463,-0.507906,0.003624,-1.403563,-261.212122,1.406564,69.717842
11.6657,-0.00257,0.002793,0.005171,0.0,0.0,0.0,-0.000155,-0.507622,0.004296,-1.403563,-261.212122,1.406564,69.717842
11.6857,-0.002592,0.002494,0.003577,0.0,0.0,0.0,-0.000155,-0.507622,0.004296,-1.403563,-261.212122,1.406564,69.717842
11.7059,-0.002453,0.002743,0.00572,0.0,0.0,0.0,-0.000768,-0.507503,0.003577,-1.403563,-261.212122,1.406564,69.717842
11.726,-0.002782,0.002517,0.003718,0.0,0.0,0.0,-0.000263,-0.507399,0.004455,-1.403563,-261.212122,1.406564,69.717842
11.7459,-0.002219,0.002326,0.004879,0.0,0.0,0.0,-0.000886,-0.507479,0.003718,-1.403563,-261.212122,1.406564,69.717842
11.766,-0.002616,0.002289,0.003467,0.0,0.0,0.0,0.000163,-0.507651,0.004772,-1.403563,-261.212122,1.406564,69.717842
11.7858,-0.002906,0.00274,0.004688,0.0,0.0,0.0,0.000163,-0.507651,0.004772,-1.403563,-261.212122,1.406564,69.717842
11.8058,-0.002671,0.002811,0.006377,0.0,0.0,0.0,-0.000516,-0.507255,0.004688,-1.403563,-261.212122,1.406564,69.717842
11.8263,-0.002788,0.00226,0.005052,0.0,0.0,0.0,-7.4e-05,-0.507224,0.005368,-1.403563,-261.212122,1.406564,69.717842
11.8455,-0.00261,0.00267,0.003688,0.0,0.0,0.0,-0.000212,-0.507733,0.005052,-1.403563,-261.212122,1.406564,69.717842
11.8656,-0.002928,0.002678,0.005894,0.0,0.0,0.0,-0.000682,-0.507363,0.003811,-1.403563,-261.212122,1.406564,69.717842
11.8857,-0.002625,0.002312,0.006333,0.0,0.0,0.0,-0.000682,-0.507363,0.003811,-1.403563,-261.212122,1.406564,69.717842
11.906,-0.002523,0.002631,0.002354,0.0,0.0,0.0,0.000604,-0.507678,0.006333,-1.403563,-261.212122,1.406564,69.717842
11.9264,-0.002634,0.002449,0.004282,0.0,0.0,0.0,-0.000185,-0.507551,0.004703,-1.403563,-261.212122,1.406564,69.717842
11.9456,-0.002495,0.002505,0.005219,0.0,0.0,0.0,-0.00045,-0.507547,0.004282,-1.403563,-261.212122,1.406564,69.717842
11.966,-0.002526,0.002582,0.002989,0.0,0.0,0.0,0.000118,-0.507493,0.005145,-1.403563,-261.212122,1.406564,69.717842
11.9857,-0.002278,0.002661,0.004208,0.0,0.0,0.0,0.000118,-0.507493,0.005145,-1.403563,-261.212122,1.406564,69.717842
12.0057,-0.002415,0.002312,0.004076,0.0,0.0,0.0,-0.000131,-0.507334,0.004208,-1.403563,-261.212122,1.406564,69.717842
12.026,-0.002755,0.002469,0.00395,0.0,0.0,0.0,-0.000215,-0.507477,0.004154,-1.403563,-261.212122,1.406564,69.717842
12.0456,-0.002801,0.002389,0.003935,0.0,0.0,0.0,-0.00074,-0.507527,0.00395,-1.403563,-261.212122,1.406564,69.717842
12.0658,-0.0024,0.002702,0.004633,0.0,0.0,0.0,-0.000789,-0.5076,0.003937,-1.403563,-261.212122,1.406564,69.717842
12.0857,-0.002626,0.002687,0.005048,0.0,0.0,0.0,-0.000789,-0.5076,0.003937,-1.403563,-261.212122,1.406564,69.717842
12.106,-0.002609,0.002359,0.006168,0.0,0.0,0.0,-5.1e-05,-0.507306,0.005048,-1.403563,-261.212122,1.406564,69.717842
12.1257,-0.002446,0.002506,0.003855,0.0,0.0,0.0,0.00019,-0.507439,0.005507,-1.403563,-261.212122,1.406564,69.717842
12.1455,-0.002275,0.002734,0.004057,0.0,0.0,0.0,-0.000479,-0.50749,0.003855,-1.403563,-261.212122,1.406564,69.717842
12.1658,-0.003034,0.002638,0.004997,0.0,0.0,0.0,-0.000229,-0.507282,0.004039,-1.403563,-261.212122,1.406564,69.717842
12.1857,-0.00267,0.002246,0.004292,0.0,0.0,0.0,-0.000229,-0.507282,0.004039,-1.403563,-261.212122,1.406564,69.717842
12.2059,-0.002834,0.002539,0.004684,0.0,0.0,0.0,-0.000481,-0.507749,0.004292,-1.403563,-261.212122,1.406564,69.717842
12.2257,-0.003144,0.002425,0.005772,0.0,0.0,0.0,-0.000467,-0.507629,0.004452,-1.403563,-261.212122,1.406564,69.717842
12.2455,-0.002851,0.002741,0.004556,0.0,0.0,0.0,-0.0002,-0.507567,0.005772,-1.403563,-261.212122,1.406564,69.717842
12.2656,-0.002641,0.002664,0.004884,0.0,0.0,0.0,-0.000498,-0.507283,0.004668,-1.403563,-261.212122,1.406564,69.717842
12.2856,-0.002684,0.002333,0.004621,0.0,0.0,0.0,-0.000498,-0.507283,0.004668,-1.403563,-261.212122,1.406564,69.717842
12.3056,-0.0028,0.002622,0.005013,0.0,0.0,0.0,-0.000327,-0.507662,0.004621,-1.403563,-261.212122,1.406564,69.717842
12.3257,-0.00242,0.002505,0.003815,0.0,0.0,0.0,-0.000293,-0.507544,0.004781,-1.403563,-261.212122,1.406564,69.717842
12.3454,-0.002667,0.002294,0.004215,0.0,0.0,0.0,-0.000474,-0.507491,0.003815,-1.403563,-261.212122,1.406564,69.717842
12.3655,-0.002518,0.002483,0.003598,0.0,0.0,0.0,-0.000514,-0.507683,0.004179,-1.403563,-261.212122,1.406564,69.717842
12.3855,-0.002729,0.002832,0.004788,0.0,0.0,0.0,-0.000514,-0.507683,0.004179,-1.403563,-261.212122,1.406564,69.717842
12.406,-0.00301,0.002368,0.004042,0.0,0.0,0.0,-0.000287,-0.507162,0.004788,-1.403563,-261.212122,1.406564,69.717842
12.4256,-0.003033,0.002723,0.003643,0.0,0.0,0.0,-0.000557,-0.507352,0.004483,-1.403563,-261.212122,1.406564,69.717842
12.4456,-0.002784,0.002183,0.005136,0.0,0.0,0.0,-0.001175,-0.507274,0.003643,-1.403563,-261.212122,1.406564,69.717842
12.4658,-0.002664,0.002566,0.003774,0.0,0.0,0.0,-0.000255,-0.507762,0.005002,-1.403563,-261.212122,1.406564,69.717842
12.4856,-0.003019,0.002407,0.00503,0.0,0.0,0.0,-0.000255,-0.507762,0.005002,-1.403563,-261.212122,1.406564,69.717842
12.5058,-0.002714,0.002865,0.004924,0.0,0.0,0.0,-0.000454,-0.507587,0.00503,-1.403563,-261.212122,1.406564,69.717842
12.5258,-0.002924,0.002782,0.004034,0.0,0.0,0.0,-0.000351,-0.507399,0.004986,-1.403563,-261.212122,1.406564,69.717842
12.546,-0.002474,0.002556,0.004854,0.0,0.0,0.0,-0.000867,-0.507214,0.004034,-1.403563,-261.212122,1.406564,69.717842
12.5657,-0.002643,0.002705,0.004009,0.0,0.0,0.0,-7.6e-05,-0.507418,0.00478,-1.403563,-261.212122,1.406564,69.717842
12.5855,-0.00285,0.002747,0.004626,0.0,0.0,0.0,-7.6e-05,-0.507418,0.00478,-1.403563,-261.212122,1.406564,69.717842
12.6057,-0.003026,0.002113,0.00587,0.0,0.0,0.0,-0.00049,-0.507248,0.004626,-1.403563,-261.212122,1.406564,69.717842
12.6256,-0.002647,0.002494,0.004116,0.0,0.0,0.0,-0.000303,-0.507506,0.005135,-1.403563,-261.212122,1.406564,69.717842
12.6458,-0.002516,0.002727,0.004111,0.0,0.0,0.0,-0.000548,-0.507501,0.004116,-1.403563,-261.212122,1.406564,69.717842
12.6659,-0.002778,0.002589,0.003298,0.0,0.0,0.0,-0.000431,-0.50729,0.004112,-1.403563,-261.212122,1.406564,69.717842
12.6858,-0.002497,0.00235,0.003726,0.0,0.0,0.0,-0.000431,-0.50729,0.004112,-1.403563,-261.212122,1.406564,69.717842
12.706,-0.002612,0.002638,0.005501,0.0,0.0,0.0,-0.000597,-0.507646,0.003726,-1.403563,-261.212122,1.406564,69.717842
12.7263,-0.0026,0.002704,0.005508,0.0,0.0,0.0,-0.000275,-0.507527,0.004448,-1.403563,-261.212122,1.406564,69.717842
12.7458,-0.002563,0.002497,0.003943,0.0,0.0,0.0,0.000209,-0.507288,0.005508,-1.403563,-261.212122,1.406564,69.717842
12.7663,-0.002899,0.002629,0.003899,0.0,0.0,0.0,-0.000481,-0.507479,0.004089,-1.403563,-261.212122,1.406564,69.717842
12.786,-0.002567,0.00287,0.004654,0.0,0.0,0.0,-0.000481,-0.507479,0.004089,-1.403563,-261.212122,1.406564,69.717842
12.8058,-0.00241,0.00235,0.00442,0.0,0.0,0.0,-0.000194,-0.507125,0.004654,-1.403563,-261.212122,1.406564,69.717842
12.8259,-0.002656,0.002343,0.00389,0.0,0.0,0.0,-0.000178,-0.507336,0.004559,-1.403563,-261.212122,1.406564,69.717842
12.8454,-0.002601,0.002559,0.004116,0.0,0.0,0.0,-0.000672,-0.507653,0.00389,-1.403563,-261.212122,1.406564,69.717842
12.8656,-0.00281,0.002676,0.004557,0.0,0.0,0.0,-0.000517,-0.507455,0.004096,-1.403563,-261.212122,1.406564,69.717842
12.8856,-0.002689,0.002993,0.004573,0.0,0.0,0.0,-0.000517,-0.507455,0.004096,-1.403563,-261.212122,1.406564,69.717842
12.906,-0.002552,0.002585,0.004958,0.0,0.0,0.0,-0.000357,-0.507002,0.004573,-1.403563,-261.212122,1.406564,69.717842
12.926,-0.002679,0.00272,0.00465,0.0,0.0,0.0,-0.000219,-0.507169,0.004731,-1.403563,-261.212122,1.406564,69.717842
12.9456,-0.002686,0.002768,0.004582,0.0,0.0,0.0,-0.000307,-0.507274,0.00465,-1.403563,-261.212122,1.406564,69.717842
12.9656,-0.002947,0.002437,0.003145,0.0,0.0,0.0,-0.000345,-0.507231,0.004588,-1.403563,-261.212122,1.406564,69.717842
12.9858,-0.003039,0.002827,0.00283,0.0,0.0,0.0,-0.000345,-0.507231,0.004588,-1.403563,-261.212122,1.406564,69.717842
13.006,-0.00301,0.002488,0.002532,0.0,0.0,0.0,-0.001596,-0.507171,0.00283,-1.403563,-261.212122,1.406564,69.717842
13.026,-0.002932,0.002738,0.004223,0.0,0.0,0.0,-0.001646,-0.50731,0.002708,-1.403563,-261.212122,1.406564,69.717842
13.0461,-0.002922,0.002387,0.003999,0.0,0.0,0.0,-0.000778,-0.507258,0.004223,-1.403563,-261.212122,1.406564,69.717842
13.0661,-0.003034,0.002527,0.00415,0.0,0.0,0.0,-0.000873,-0.507576,0.004019,-1.403563,-261.212122,1.406564,69.717842
13.0859,-0.002478,0.002764,0.003222,0.0,0.0,0.0,-0.000873,-0.507576,0.004019,-1.403563,-261.212122,1.406564,69.717842
13.1059,-0.002887,0.002912,0.004695,0.0,0.0,0.0,-0.000835,-0.507233,0.003222,-1.403563,-261.212122,1.406564,69.717842
13.1259,-0.002713,0.002472,0.00505,0.0,0.0,0.0,-0.000696,-0.507172,0.003818,-1.403563,-261.212122,1.406564,69.717842
