mach0312/omni-docking-bench/src/icros_test_setup/results/MPPI_sample/timeseries/trial_087.csv
t,x,y,yaw,vx,vy,wz,bl_x,bl_y,bl_yaw,front_steering_joint,front_wheel_joint,rear_steering_joint,rear_wheel_joint
0.0,0.061127,0.019168,-0.06741,0.0,0.0,0.0,0.027716,-0.489564,-0.066352,0.168203,-261.052801,-0.599014,66.436157
0.0004,0.061273,0.019554,-0.067904,0.0,0.0,0.0,0.027716,-0.489564,-0.066352,0.168203,-261.052801,-0.599014,66.436157
0.0006,0.06165,0.019254,-0.067428,-9.9e-05,1.2e-05,0.0,0.027239,-0.489513,-0.067033,0.168203,-261.052801,-0.599014,66.436157
0.0009,0.061541,0.019089,-0.066474,-9.9e-05,1.2e-05,0.0,0.027239,-0.489513,-0.067033,0.168203,-261.052801,-0.599014,66.436157
0.0011,0.06139,0.019463,-0.067467,-9.9e-05,1.2e-05,0.0,0.026384,-0.489757,-0.06821,0.093307,-261.052801,-0.524118,66.436157
0.0014,0.061818,0.019494,-0.067324,-9.9e-05,1.2e-05,0.0,0.026626,-0.489859,-0.06813,0.018205,-261.052802,-0.449016,66.436156
0.0016,0.06132,0.019239,-0.06599,-9.9e-05,1.2e-05,0.0,0.026626,-0.489859,-0.06813,0.018205,-261.052802,-0.449016,66.436156
0.0018,0.061391,0.019396,-0.068769,-9.9e-05,1.2e-05,0.0,0.026626,-0.489859,-0.06813,0.018205,-261.052802,-0.449016,66.436156
0.002,0.061577,0.019051,-0.068349,-9.9e-05,1.2e-05,0.0,0.026622,-0.489843,-0.068453,0.018205,-261.052802,-0.449016,66.436156
0.0172,0.061382,0.018996,-0.067039,0.0,0.0,0.0,0.026746,-0.489758,-0.068349,-0.056791,-261.052807,-0.374019,66.436151
0.0377,0.061301,0.019372,-0.066728,0.0,0.0,0.0,0.026937,-0.489798,-0.067817,-0.056791,-261.052807,-0.374019,66.436151
0.0572,0.061469,0.019289,-0.067963,0.0,0.0,0.0,0.027295,-0.489493,-0.066728,-0.056791,-261.052807,-0.374019,66.436151
0.0775,0.061167,0.019782,-0.068633,0.0,0.0,0.0,0.026876,-0.489529,-0.067852,-0.056791,-261.052807,-0.374019,66.436151
0.0973,0.061344,0.019482,-0.067496,0.0,0.0,0.0,0.026876,-0.489529,-0.067852,-0.056791,-261.052807,-0.374019,66.436151
0.117,0.061124,0.01907,-0.067335,-0.004696,-0.00143,0.009434,0.026947,-0.489357,-0.067496,-0.056791,-261.052807,-0.374019,66.436151
0.1369,0.061145,0.01942,-0.068209,-0.005065,-0.001532,0.010158,0.026891,-0.489526,-0.067431,-0.056791,-261.052807,-0.374019,66.436151
0.1578,0.060959,0.019263,-0.067776,-0.005368,-0.001611,0.010743,0.026385,-0.489394,-0.068209,-0.131773,-261.052807,-0.299037,66.436151
0.1772,0.061396,0.019435,-0.066645,-0.005611,-0.001678,0.011212,0.026417,-0.489551,-0.067815,-0.131773,-261.052807,-0.299037,66.436151
0.1974,0.061361,0.019472,-0.068974,-0.00581,-0.001729,0.011587,0.026417,-0.489551,-0.067815,-0.131773,-261.052807,-0.299037,66.436151
0.2172,0.061269,0.019475,-0.067903,-0.005972,-0.001766,0.011887,0.026213,-0.489315,-0.068974,-0.206766,-261.052807,-0.224045,66.436151
0.2377,0.061427,0.019405,-0.067729,-0.006101,-0.001798,0.012126,0.0264,-0.48933,-0.068531,-0.206766,-261.052807,-0.224045,66.436151
0.2571,0.061384,0.019141,-0.066674,-0.006206,-0.00182,0.012318,0.026911,-0.489426,-0.067729,-0.281934,-261.052807,-0.148877,66.436151
0.2774,0.061536,0.019239,-0.065502,-0.006305,-0.001812,0.012474,0.02736,-0.489698,-0.066772,-0.281934,-261.052807,-0.148877,66.436151
0.2975,0.061329,0.019212,-0.068555,-0.006387,-0.001803,0.012598,0.02736,-0.489698,-0.066772,-0.281934,-261.052807,-0.148877,66.436151
0.3171,0.061565,0.019505,-0.066314,-0.006453,-0.001792,0.012698,0.026394,-0.48959,-0.068555,-0.356775,-261.052807,-0.074036,66.436151
0.3373,0.060976,0.01924,-0.068569,-0.006501,-0.001791,0.012776,0.026957,-0.489502,-0.067638,-0.356775,-261.052807,-0.074036,66.436151
0.357,0.061583,0.019138,-0.067781,-0.006539,-0.001788,0.012838,0.026033,-0.489561,-0.068569,-0.431894,-261.052807,0.001083,66.436151
0.3771,0.061471,0.01918,-0.067063,-0.006571,-0.001779,0.012888,0.026955,-0.48968,-0.067849,-0.431894,-261.052807,0.001083,66.436151
0.3975,0.061507,0.019027,-0.068622,-0.006598,-0.00177,0.012927,0.026955,-0.48968,-0.067849,-0.431894,-261.052807,0.001083,66.436151
0.4172,0.061328,0.01918,-0.067075,-0.006619,-0.001761,0.012958,0.026537,-0.489773,-0.068622,-0.506888,-261.052807,0.076078,66.436151
0.4374,0.061404,0.019487,-0.068564,-0.006634,-0.001753,0.012982,0.026786,-0.489732,-0.067988,-0.506888,-261.052807,0.076078,66.436151
0.4574,0.060997,0.019064,-0.067803,-0.006647,-0.001745,0.013001,0.026464,-0.489315,-0.068564,-0.581786,-261.052807,0.150976,66.43615
0.4774,0.061263,0.018927,-0.067973,-0.006653,-0.001742,0.013016,0.026445,-0.489726,-0.067868,-0.581786,-261.052807,0.150976,66.43615
0.4972,0.061583,0.019429,-0.068043,-0.006658,-0.001738,0.013028,0.026445,-0.489726,-0.067868,-0.581786,-261.052807,0.150976,66.43615
0.5173,0.061491,0.019123,-0.066655,-0.006662,-0.001734,0.013037,0.026908,-0.489391,-0.068043,-0.656894,-261.052807,0.226084,66.43615
0.5376,0.061206,0.019139,-0.069357,-0.006669,-0.001723,0.013045,0.02716,-0.489536,-0.067473,-0.656894,-261.052807,0.226084,66.43615
0.5574,0.061319,0.01904,-0.067366,-0.006675,-0.001712,0.013051,0.025862,-0.489635,-0.069357,-0.731882,-261.052808,0.301071,66.436149
0.5774,0.061567,0.019272,-0.068668,-0.00668,-0.001702,0.013056,0.026888,-0.489788,-0.067543,-0.731882,-261.052808,0.301071,66.436149
0.5975,0.06151,0.01905,-0.067143,-0.006684,-0.001693,0.01306,0.026888,-0.489788,-0.067543,-0.731882,-261.052808,0.301071,66.436149
0.617,0.061526,0.019044,-0.068718,-0.006687,-0.001684,0.013063,0.027293,-0.489801,-0.067142,-0.753247,-261.05281,0.376082,66.436147
0.6375,0.06128,0.01923,-0.068652,-0.006691,-0.001676,0.013065,0.026972,-0.489781,-0.067786,-0.753247,-261.05281,0.376082,66.436147
0.6574,0.061115,0.019054,-0.066861,-0.006693,-0.001669,0.013067,0.026294,-0.489568,-0.068651,-0.755072,-261.05282,0.450965,66.436134
0.6774,0.06143,0.018991,-0.068848,-0.006696,-0.001662,0.013068,0.026972,-0.489785,-0.067025,-0.755072,-261.05282,0.450965,66.436134
0.6975,0.061254,0.019481,-0.067258,-0.006698,-0.001656,0.013069,0.026972,-0.489785,-0.067025,-0.755072,-261.05282,0.450965,66.436134
0.7171,0.061291,0.019134,-0.066141,-0.0067,-0.00165,0.01307,0.026973,-0.489366,-0.067253,-0.756047,-261.052865,0.52595,66.436077
0.7372,0.061376,0.019184,-0.067837,-0.0067,-0.001647,0.01307,0.027217,-0.48952,-0.066808,-0.756047,-261.052865,0.52595,66.436077
0.7573,0.06146,0.019028,-0.067337,-0.0067,-0.001644,0.01307,0.026795,-0.489642,-0.067822,-0.757203,-261.053022,0.600968,66.435877
0.7775,0.06131,0.019058,-0.068374,-0.006703,-0.001638,0.013071,0.027114,-0.489802,-0.067378,-0.757203,-261.053022,0.600968,66.435877
0.7972,0.06158,0.019094,-0.068211,-0.006705,-0.001632,0.013071,0.027114,-0.489802,-0.067378,-0.757203,-261.053022,0.600968,66.435877
0.8174,0.061036,0.019413,-0.069407,-0.006707,-0.001627,0.013071,0.02678,-0.48972,-0.068156,-0.757658,-261.053455,0.676075,66.435327
0.8372,0.061171,0.019046,-0.068039,-0.006697,-0.001641,0.013069,0.02632,-0.489572,-0.068662,-0.757658,-261.053455,0.676075,66.435327
0.857,0.061095,0.019385,-0.067023,-0.006688,-0.001652,0.013068,0.026432,-0.489776,-0.067939,-0.758541,-261.054441,0.750987,66.434076
0.8771,0.061058,0.019652,-0.067123,-0.006686,-0.001653,0.013068,0.026893,-0.489496,-0.067097,-0.758541,-261.054441,0.750987,66.434076
0.8972,0.061348,0.019312,-0.068178,-0.006684,-0.001653,0.013069,0.026893,-0.489496,-0.067097,-0.758541,-261.054441,0.750987,66.434076
0.9174,0.060598,0.019183,-0.066412,-0.006683,-0.001653,0.013069,0.026455,-0.489516,-0.067932,-0.757832,-261.056211,0.826087,66.431821
0.9374,0.060452,0.019471,-0.067032,-0.006679,-0.001656,0.013143,0.026559,-0.48959,-0.067288,-0.757832,-261.056211,0.826087,66.431821
0.9572,0.060103,0.019226,-0.066579,-0.006676,-0.001659,0.013202,0.026126,-0.489406,-0.066734,-0.758175,-261.058923,0.900971,66.428367
0.9774,0.059659,0.019148,-0.06708,-0.006669,-0.001667,0.013305,0.02616,-0.489625,-0.066578,-0.758175,-261.058923,0.900971,66.428367
0.9971,0.060017,0.018929,-0.066195,-0.006663,-0.001674,0.013387,0.02616,-0.489625,-0.066578,-0.758175,-261.058923,0.900971,66.428367
1.0174,0.059439,0.018936,-0.066904,-0.006658,-0.001679,0.013453,0.026019,-0.490001,-0.065683,-0.764651,-261.062351,0.969078,66.423996
1.0374,0.059607,0.01927,-0.066685,-0.006653,-0.001684,0.013572,0.025715,-0.489975,-0.066119,-0.764651,-261.062351,0.969078,66.423996
1.057,0.058825,0.019213,-0.064993,-0.006649,-0.001688,0.013669,0.025409,-0.489635,-0.066258,-0.776266,-261.066078,0.978563,66.419232
1.0773,0.058764,0.019123,-0.067535,-0.006641,-0.001697,0.01381,0.025667,-0.489706,-0.065078,-0.776266,-261.066078,0.978563,66.419232
1.0973,0.058868,0.019206,-0.065635,-0.006634,-0.001706,0.013924,0.025667,-0.489706,-0.065078,-0.776266,-261.066078,0.978563,66.419232
1.1173,0.058098,0.019101,-0.065574,-0.006628,-0.001713,0.014018,0.025137,-0.489748,-0.065066,-0.786246,-261.069826,0.98567,66.414438
1.1369,0.05805,0.019192,-0.064336,-0.006615,-0.00173,0.014151,0.024918,-0.489776,-0.065207,-0.786246,-261.069826,0.98567,66.414438
1.1573,0.057295,0.018971,-0.063782,-0.006603,-0.001745,0.01426,0.025048,-0.489794,-0.063892,-0.801763,-261.073615,0.997857,66.409577
1.1775,0.057818,0.019007,-0.064273,-0.006595,-0.001754,0.014407,0.024801,-0.489976,-0.063769,-0.801763,-261.073615,0.997857,66.409577
1.1974,0.057921,0.01924,-0.063423,-0.006588,-0.001763,0.014528,0.024801,-0.489976,-0.063769,-0.801763,-261.073615,0.997857,66.409577
1.2172,0.056789,0.018839,-0.062552,-0.006581,-0.00177,0.014626,0.025318,-0.48979,-0.062828,-0.812001,-261.077441,1.007418,66.404647
1.2371,0.056668,0.019367,-0.063356,-0.00658,-0.001771,0.014763,0.025118,-0.489949,-0.062647,-0.812001,-261.077441,1.007418,66.404647
1.2568,0.056089,0.019089,-0.062945,-0.006578,-0.001772,0.014876,0.024166,-0.489653,-0.062894,-0.827662,-261.081308,1.019476,66.399653
1.2775,0.056067,0.01932,-0.063761,-0.006563,-0.001793,0.015017,0.024011,-0.48988,-0.062916,-0.827662,-261.081308,1.019476,66.399653
1.2971,0.056049,0.019059,-0.062392,-0.006549,-0.001811,0.015133,0.024011,-0.48988,-0.062916,-0.827662,-261.081308,1.019476,66.399653
1.317,0.055491,0.019302,-0.063292,-0.006537,-0.001827,0.015228,0.023971,-0.490005,-0.06177,-0.838305,-261.085233,1.026061,66.394588
1.3372,0.055657,0.018878,-0.062452,-0.006522,-0.001846,0.01535,0.02364,-0.489879,-0.062315,-0.838305,-261.085233,1.026061,66.394588
1.357,0.054798,0.018569,-0.060798,-0.006509,-0.001862,0.01545,0.023616,-0.490172,-0.061969,-0.852186,-261.089187,1.039655,66.389449
1.3776,0.054694,0.019127,-0.063021,-0.006508,-0.00186,0.01557,0.023783,-0.490463,-0.060877,-0.852186,-261.089187,1.039655,66.389449
1.3973,0.054669,0.01869,-0.061287,-0.006508,-0.001858,0.015668,0.023783,-0.490463,-0.060877,-0.852186,-261.089187,1.039655,66.389449
1.4175,0.054082,0.019057,-0.059558,-0.006507,-0.001858,0.01575,0.023155,-0.490414,-0.06064,-0.860918,-261.093166,1.04815,66.384254
1.4374,0.053907,0.018998,-0.059648,-0.006499,-0.001868,0.015842,0.023352,-0.490271,-0.060134,-0.860918,-261.093166,1.04815,66.384254
1.4571,0.053224,0.018885,-0.058919,-0.006491,-0.001878,0.015918,0.023294,-0.490142,-0.059147,-0.873083,-261.097205,1.055017,66.378992
1.4772,0.053051,0.018892,-0.060638,-0.006483,-0.001888,0.015997,0.023191,-0.490225,-0.058914,-0.873083,-261.097205,1.055017,66.378992
1.4972,0.0539,0.018749,-0.057934,-0.006475,-0.001897,0.016063,0.023191,-0.490225,-0.058914,-0.873083,-261.097205,1.055017,66.378992
1.517,0.052966,0.01869,-0.058731,-0.006469,-0.001905,0.016118,0.024093,-0.490459,-0.057264,-0.879492,-261.10128,1.060593,66.373671
1.537,0.052677,0.018677,-0.058518,-0.006472,-0.001897,0.016174,0.023634,-0.490455,-0.05778,-0.879492,-261.10128,1.060593,66.373671
1.5571,0.052026,0.018645,-0.058547,-0.006476,-0.001892,0.01622,0.022642,-0.490499,-0.058007,-0.887131,-261.105362,1.067505,66.368326
1.5771,0.0517,0.019065,-0.059069,-0.00646,-0.001912,0.016263,0.022214,-0.490485,-0.058473,-0.887131,-261.105362,1.067505,66.368326
1.5973,0.051877,0.018572,-0.058631,-0.006447,-0.001929,0.016298,0.022214,-0.490485,-0.058473,-0.887131,-261.105362,1.067505,66.368326
1.6172,0.051342,0.01847,-0.056727,-0.006435,-0.001943,0.016327,0.021718,-0.490614,-0.057953,-0.891228,-261.109482,1.068827,66.362944
1.6372,0.051176,0.018561,-0.057603,-0.006426,-0.001954,0.016358,0.021976,-0.49066,-0.057373,-0.891228,-261.109482,1.068827,66.362944
1.6575,0.050352,0.018356,-0.057217,-0.006417,-0.001964,0.016384,0.021606,-0.490643,-0.057084,-0.895115,-261.1136,1.075576,66.357525
1.6774,0.050272,0.018451,-0.057689,-0.006401,-0.001982,0.01641,0.021214,-0.490798,-0.057179,-0.895115,-261.1136,1.075576,66.357525
1.6969,0.050589,0.018783,-0.056223,-0.006388,-0.001998,0.016432,0.021214,-0.490798,-0.057179,-0.895115,-261.1136,1.075576,66.357525
1.7171,0.049765,0.018482,-0.057523,-0.006376,-0.00201,0.01645,0.021659,-0.490478,-0.055538,-0.897368,-261.117709,1.078688,66.352101
1.7372,0.049959,0.018829,-0.05503,-0.006361,-0.002026,0.01647,0.021135,-0.490565,-0.056263,-0.897368,-261.117709,1.078688,66.352101
1.7571,0.048778,0.018107,-0.055296,-0.006349,-0.00204,0.016486,0.021702,-0.490452,-0.054505,-0.900118,-261.121815,1.084368,66.346643
1.7772,0.048498,0.018617,-0.055043,-0.00634,-0.002048,0.016505,0.020679,-0.491058,-0.0552,-0.900118,-261.121815,1.084368,66.346643
1.7978,0.048684,0.017805,-0.054819,-0.006332,-0.002054,0.01652,0.020679,-0.491058,-0.0552,-0.900118,-261.121815,1.084368,66.346643
1.8178,0.048044,0.018719,-0.053586,-0.006326,-0.00206,0.016533,0.020469,-0.4915,-0.054127,-0.901753,-261.125903,1.087885,66.341182
1.8376,0.048358,0.018691,-0.053612,-0.00632,-0.002065,0.016547,0.020541,-0.49113,-0.053833,-0.901753,-261.125903,1.087885,66.341182
1.8571,0.04736,0.018333,-0.053326,-0.006315,-0.002068,0.016559,0.020825,-0.490631,-0.053085,-0.904015,-261.130009,1.091034,66.335681
1.8773,0.047006,0.018307,-0.053473,-0.006303,-0.002082,0.016571,0.02022,-0.490919,-0.053282,-0.904015,-261.130009,1.091034,66.335681
1.8975,0.047337,0.018564,-0.052825,-0.006292,-0.002093,0.016581,0.02022,-0.490919,-0.053282,-0.904015,-261.130009,1.091034,66.335681
1.9172,0.046618,0.018054,-0.052102,-0.006283,-0.002102,0.01659,0.02014,-0.490797,-0.05213,-0.905302,-261.134084,1.092541,66.330213
1.9373,0.046634,0.018404,-0.052482,-0.006275,-0.00211,0.016599,0.020077,-0.490986,-0.05204,-0.905302,-261.134084,1.092541,66.330213
1.9571,0.045701,0.018288,-0.052228,-0.006267,-0.002117,0.016608,0.019677,-0.490951,-0.051953,-0.906869,-261.138168,1.096381,66.324705
1.9773,0.046151,0.018128,-0.050652,-0.006246,-0.002141,0.016614,0.019119,-0.491014,-0.052178,-0.906869,-261.138168,1.096381,66.324705
1.9973,0.045396,0.018522,-0.052341,-0.006228,-0.00216,0.01662,0.019119,-0.491014,-0.052178,-0.906869,-261.138168,1.096381,66.324705
2.0177,0.04511,0.018276,-0.049722,-0.006212,-0.002177,0.016626,0.018448,-0.490855,-0.051647,-0.907847,-261.142242,1.098207,66.319196
2.0374,0.045176,0.018081,-0.050873,-0.006195,-0.002193,0.016631,0.018947,-0.49096,-0.050789,-0.907847,-261.142242,1.098207,66.319196
2.0573,0.044196,0.018171,-0.050387,-0.006181,-0.002207,0.016636,0.019041,-0.491318,-0.050345,-0.909209,-261.146285,1.104143,66.313675
2.0772,0.04447,0.018264,-0.04955,-0.006166,-0.002221,0.016641,0.018546,-0.491196,-0.050357,-0.909209,-261.146285,1.104143,66.313675
2.0971,0.044391,0.018073,-0.051038,-0.006153,-0.002233,0.016646,0.018546,-0.491196,-0.050357,-0.909209,-261.146285,1.104143,66.313675
2.1171,0.043822,0.017717,-0.049476,-0.006142,-0.002242,0.01665,0.018109,-0.491342,-0.050341,-0.910169,-261.150306,1.107344,66.308156
2.1373,0.043672,0.018228,-0.049596,-0.006133,-0.002249,0.016654,0.018277,-0.491479,-0.049912,-0.910169,-261.150306,1.107344,66.308156
2.1571,0.04295,0.017837,-0.048067,-0.006126,-0.002255,0.016658,0.018189,-0.491207,-0.049066,-0.911552,-261.154315,1.111244,66.30262
2.1777,0.042847,0.017846,-0.047462,-0.006124,-0.002254,0.016662,0.018412,-0.491544,-0.04813,-0.911552,-261.154315,1.111244,66.30262
2.1973,0.042798,0.018011,-0.047976,-0.006123,-0.002253,0.016666,0.018412,-0.491544,-0.04813,-0.911552,-261.154315,1.111244,66.30262
2.2177,0.042167,0.018184,-0.047274,-0.006121,-0.002252,0.016669,0.018079,-0.491484,-0.047277,-0.912374,-261.158319,1.112868,66.297078
2.2379,0.042276,0.01792,-0.04625,-0.006112,-0.002262,0.016671,0.018044,-0.491398,-0.047196,-0.912374,-261.158319,1.112868,66.297078
2.2574,0.041555,0.017941,-0.045929,-0.006103,-0.00227,0.016673,0.018499,-0.491598,-0.045718,-0.913303,-261.162326,1.113293,66.291534
2.2775,0.041398,0.017729,-0.045327,-0.006101,-0.00227,0.016675,0.018162,-0.491531,-0.045882,-0.913303,-261.162326,1.113293,66.291534
2.2973,0.041674,0.017882,-0.047557,-0.0061,-0.00227,0.016678,0.018162,-0.491531,-0.045882,-0.913303,-261.162326,1.113293,66.291534
2.3172,0.04102,0.017896,-0.046313,-0.006099,-0.00227,0.01668,0.017169,-0.491624,-0.046859,-0.913791,-261.166323,1.115107,66.285987
2.3373,0.040282,0.017745,-0.043909,-0.006081,-0.002289,0.01668,0.017237,-0.491607,-0.046556,-0.913791,-261.166323,1.115107,66.285987
2.357,0.040139,0.017324,-0.045375,-0.006066,-0.002305,0.01668,0.017699,-0.491827,-0.043377,-0.914402,-261.17032,1.115533,66.280439
2.377,0.040073,0.017637,-0.045598,-0.00606,-0.002309,0.016681,0.017058,-0.492126,-0.045169,-0.914402,-261.17032,1.115533,66.280439
2.3971,0.040163,0.017658,-0.046328,-0.006055,-0.002312,0.016682,0.017058,-0.492126,-0.045169,-0.914402,-261.17032,1.115533,66.280439
2.4169,0.039544,0.017767,-0.044409,-0.006051,-0.002315,0.016683,0.016286,-0.49188,-0.04563,-0.914887,-261.174306,1.118749,66.274874
2.4374,0.039161,0.017664,-0.044061,-0.006031,-0.002336,0.016682,0.016511,-0.491828,-0.045046,-0.914887,-261.174306,1.118749,66.274874
2.4573,0.038537,0.017264,-0.043787,-0.006013,-0.002353,0.016682,0.016502,-0.491906,-0.043531,-0.915601,-261.17827,1.120101,66.269329
2.4773,0.038441,0.017158,-0.041307,-0.006001,-0.002364,0.016682,0.016229,-0.49222,-0.043737,-0.915601,-261.17827,1.120101,66.269329
2.4977,0.038571,0.017337,-0.04285,-0.00599,-0.002373,0.016683,0.016229,-0.49222,-0.043737,-0.915601,-261.17827,1.120101,66.269329
2.5175,0.038284,0.017103,-0.043767,-0.005981,-0.00238,0.016683,0.016468,-0.492282,-0.042152,-0.916222,-261.18222,1.123726,66.263766
2.5373,0.037592,0.017263,-0.040384,-0.005977,-0.002382,0.016684,0.016234,-0.492344,-0.042734,-0.916222,-261.18222,1.123726,66.263766
2.5572,0.037075,0.017204,-0.043966,-0.005973,-0.002384,0.016685,0.016808,-0.492389,-0.039854,-0.917186,-261.186154,1.12666,66.2582
2.5769,0.036679,0.017068,-0.042755,-0.005937,-0.00242,0.016682,0.014844,-0.492315,-0.043567,-0.917186,-261.186154,1.12666,66.2582
2.5971,0.037051,0.017142,-0.041839,-0.005906,-0.002449,0.01668,0.014844,-0.492315,-0.043567,-0.917186,-261.186154,1.12666,66.2582
2.6171,0.036352,0.0169,-0.03873,-0.00588,-0.002473,0.016678,0.015465,-0.492501,-0.041141,-0.917694,-261.190086,1.127357,66.252631
2.6371,0.036355,0.017171,-0.040999,-0.00589,-0.002458,0.016682,0.015902,-0.4926,-0.040074,-0.917694,-261.190086,1.127357,66.252631
2.6569,0.035941,0.017101,-0.039166,-0.005898,-0.002445,0.016685,0.015261,-0.492471,-0.04047,-0.919495,-261.19396,1.135986,66.247056
2.6772,0.035616,0.016854,-0.038222,-0.005904,-0.002437,0.016687,0.015897,-0.492508,-0.039256,-0.919495,-261.19396,1.135986,66.247056
2.6972,0.035643,0.017289,-0.037862,-0.005909,-0.00243,0.016688,0.015897,-0.492508,-0.039256,-0.919495,-261.19396,1.135986,66.247056
2.717,0.034992,0.017242,-0.039448,-0.005914,-0.002424,0.01669,0.016088,-0.492438,-0.037165,-0.919957,-261.197854,1.134062,66.241478
2.7373,0.035112,0.017274,-0.039648,-0.005909,-0.002429,0.016689,0.015563,-0.492417,-0.038021,-0.919957,-261.197854,1.134062,66.241478
2.7573,0.033892,0.016812,-0.038461,-0.005905,-0.002433,0.016689,0.014705,-0.492395,-0.039117,-0.920175,-261.201759,1.132509,66.235905
2.7774,0.03428,0.01663,-0.037665,-0.005879,-0.002459,0.016686,0.01431,-0.492777,-0.038493,-0.920175,-261.201759,1.132509,66.235905
2.7972,0.034364,0.017033,-0.036681,-0.005857,-0.00248,0.016684,0.01431,-0.492777,-0.038493,-0.920175,-261.201759,1.132509,66.235905
2.817,0.033224,0.016646,-0.035981,-0.005838,-0.002497,0.016683,0.01541,-0.492717,-0.035983,-0.920337,-261.20566,1.133305,66.23033
2.8377,0.033353,0.01669,-0.035687,-0.005846,-0.002486,0.016685,0.015165,-0.492853,-0.035901,-0.920337,-261.20566,1.133305,66.23033
2.8571,0.032551,0.016435,-0.035717,-0.005852,-0.002477,0.016687,0.014966,-0.493059,-0.03515,-0.921561,-261.20952,1.139504,66.224746
2.8773,0.032966,0.016526,-0.03735,-0.005848,-0.00248,0.016687,0.014386,-0.493227,-0.035639,-0.921561,-261.20952,1.139504,66.224746
2.8977,0.032815,0.0165,-0.036322,-0.005844,-0.002483,0.016687,0.014386,-0.493227,-0.035639,-0.921561,-261.20952,1.139504,66.224746
2.9171,0.031779,0.01663,-0.03459,-0.00584,-0.002485,0.016686,0.014046,-0.493259,-0.035623,-0.921791,-261.213393,1.138038,66.219165
2.9369,0.031898,0.016503,-0.03684,-0.005829,-0.002496,0.016685,0.014056,-0.493192,-0.035125,-0.921791,-261.213393,1.138038,66.219165
2.9568,0.030959,0.016278,-0.036017,-0.005819,-0.002505,0.016685,0.012925,-0.493224,-0.036308,-0.922258,-261.217261,1.139079,66.213581
2.9769,0.031524,0.016329,-0.034767,-0.005774,-0.002547,0.016679,0.012614,-0.49338,-0.036016,-0.922258,-261.217261,1.139079,66.213581
2.9975,0.031062,0.016571,-0.034298,-0.005736,-0.00258,0.016676,0.012614,-0.49338,-0.036016,-0.922258,-261.217261,1.139079,66.213581
3.0173,0.030279,0.016675,-0.033128,-0.005704,-0.002607,0.016673,0.013325,-0.493226,-0.033597,-0.922741,-261.221136,1.141021,66.207968
3.0372,0.030764,0.01631,-0.033762,-0.005694,-0.002613,0.016674,0.013323,-0.493162,-0.033322,-0.922741,-261.221136,1.141021,66.207968
3.0574,0.029735,0.015836,-0.033409,-0.005685,-0.002618,0.016675,0.013366,-0.493476,-0.033235,-0.925436,-261.224904,1.151322,66.202403
3.0773,0.030078,0.01615,-0.034212,-0.005677,-0.002622,0.016675,0.012749,-0.493847,-0.033367,-0.925436,-261.224904,1.151322,66.202403
3.0976,0.030061,0.016004,-0.033213,-0.00567,-0.002625,0.016676,0.012749,-0.493847,-0.033367,-0.925436,-261.224904,1.151322,66.202403
3.1171,0.029043,0.016134,-0.031404,-0.005664,-0.002627,0.016676,0.012882,-0.493817,-0.032511,-0.926428,-261.228696,1.152894,66.19679
3.1373,0.029375,0.016167,-0.031085,-0.005662,-0.002626,0.016677,0.012915,-0.493747,-0.031985,-0.926428,-261.228696,1.152894,66.19679
3.1572,0.028422,0.015886,-0.032374,-0.005661,-0.002625,0.016678,0.013341,-0.493665,-0.030556,-0.927667,-261.23247,1.154558,66.191192
3.1771,0.028766,0.016013,-0.031107,-0.005635,-0.002647,0.016675,0.012029,-0.493835,-0.03219,-0.927667,-261.23247,1.154558,66.191192
3.1969,0.028349,0.015997,-0.032093,-0.005614,-0.002664,0.016673,0.012029,-0.493835,-0.03219,-0.927667,-261.23247,1.154558,66.191192
3.2174,0.027663,0.016124,-0.030742,-0.005595,-0.002679,0.016672,0.011745,-0.493842,-0.031396,-0.928127,-261.236244,1.154711,66.185597
3.2373,0.027431,0.015961,-0.030551,-0.005572,-0.002697,0.01667,0.011816,-0.493769,-0.031048,-0.928127,-261.236244,1.154711,66.185597
3.2569,0.026861,0.015777,-0.030896,-0.005553,-0.002711,0.016669,0.011672,-0.493881,-0.03002,-0.930083,-261.239992,1.160443,66.179981
3.2772,0.027025,0.015837,-0.030696,-0.005519,-0.002737,0.016667,0.011146,-0.493975,-0.030795,-0.930083,-261.239992,1.160443,66.179981
3.2971,0.026758,0.015978,-0.029614,-0.005491,-0.002758,0.016665,0.011146,-0.493975,-0.030795,-0.930083,-261.239992,1.160443,66.179981
3.3171,0.026449,0.016162,-0.028627,-0.005467,-0.002775,0.016664,0.011421,-0.493905,-0.028917,-0.931551,-261.243714,1.164101,66.174368
3.3372,0.026069,0.015589,-0.02923,-0.005458,-0.002779,0.016665,0.01157,-0.493804,-0.028718,-0.931551,-261.243714,1.164101,66.174368
3.3574,0.025381,0.015597,-0.028212,-0.00545,-0.002782,0.016665,0.010987,-0.494277,-0.028702,-0.934686,-261.247389,1.171426,66.168752
3.3773,0.025983,0.015617,-0.028291,-0.005434,-0.002792,0.016665,0.010985,-0.494211,-0.028228,-0.934686,-261.247389,1.171426,66.168752
3.3973,0.025356,0.015291,-0.025874,-0.005421,-0.0028,0.016664,0.010985,-0.494211,-0.028228,-0.934686,-261.247389,1.171426,66.168752
3.4178,0.024678,0.015549,-0.027172,-0.00541,-0.002806,0.016664,0.01193,-0.494649,-0.025177,-0.935765,-261.251064,1.172717,66.163128
3.4373,0.024834,0.015597,-0.02611,-0.005424,-0.002789,0.016667,0.011453,-0.494505,-0.025907,-0.935765,-261.251064,1.172717,66.163128
3.4573,0.02444,0.015363,-0.027078,-0.005437,-0.002775,0.016669,0.011345,-0.494314,-0.02558,-0.937715,-261.254721,1.176032,66.157503
3.477,0.024138,0.015595,-0.026366,-0.005419,-0.002789,0.016667,0.010685,-0.494442,-0.026923,-0.937715,-261.254721,1.176032,66.157503
3.4971,0.024348,0.015447,-0.026554,-0.005405,-0.0028,0.016666,0.010685,-0.494442,-0.026923,-0.937715,-261.254721,1.176032,66.157503
3.5176,0.023448,0.015114,-0.027635,-0.005392,-0.002809,0.016665,0.010577,-0.494483,-0.025857,-0.937507,-261.258395,1.173472,66.151883
3.5373,0.023121,0.015254,-0.024505,-0.005362,-0.002832,0.016662,0.01005,-0.494581,-0.026506,-0.937507,-261.258395,1.173472,66.151883
3.5568,0.022623,0.015378,-0.022795,-0.005337,-0.00285,0.01666,0.010451,-0.494678,-0.023976,-0.939092,-261.262048,1.177277,66.146258
3.577,0.023051,0.015379,-0.025522,-0.005348,-0.002837,0.016662,0.010943,-0.49451,-0.02287,-0.939092,-261.262048,1.177277,66.146258
3.5974,0.022475,0.015691,-0.024958,-0.005358,-0.002826,0.016664,0.010943,-0.49451,-0.02287,-0.939092,-261.262048,1.177277,66.146258
3.6175,0.022001,0.015186,-0.023332,-0.005367,-0.002818,0.016666,0.009522,-0.494263,-0.024262,-0.941129,-261.265671,1.181946,66.140631
3.6372,0.022012,0.014717,-0.024138,-0.005327,-0.002849,0.016661,0.009735,-0.494446,-0.023799,-0.941129,-261.265671,1.181946,66.140631
3.6572,0.021456,0.014901,-0.023417,-0.005294,-0.002875,0.016658,0.00953,-0.49522,-0.023609,-0.94083,-261.269314,1.179203,66.135008
3.6772,0.021623,0.014938,-0.023397,-0.005271,-0.00289,0.016656,0.009507,-0.494986,-0.023407,-0.94083,-261.269314,1.179203,66.135008
3.6971,0.021352,0.014963,-0.024136,-0.005251,-0.002903,0.016655,0.009507,-0.494986,-0.023407,-0.94083,-261.269314,1.179203,66.135008
3.7172,0.020673,0.014728,-0.022632,-0.005235,-0.002912,0.016654,0.008819,-0.495003,-0.02344,-0.943296,-261.272918,1.185365,66.129379
3.7371,0.020497,0.014839,-0.021326,-0.005199,-0.002937,0.016651,0.008921,-0.495073,-0.023029,-0.943296,-261.272918,1.185365,66.129379
3.757,0.020223,0.014811,-0.020765,-0.005169,-0.002956,0.016649,0.009454,-0.495134,-0.020797,-0.946019,-261.276498,1.190211,66.123742
3.7772,0.02003,0.0143,-0.022124,-0.005174,-0.002948,0.01665,0.00961,-0.495088,-0.020742,-0.946019,-261.276498,1.190211,66.123742
3.7969,0.019834,0.014594,-0.020472,-0.005178,-0.002941,0.01665,0.00961,-0.495088,-0.020742,-0.946019,-261.276498,1.190211,66.123742
3.817,0.019146,0.014669,-0.020567,-0.005182,-0.002936,0.016651,0.009176,-0.495418,-0.019778,-0.948941,-261.280044,1.195599,66.118106
3.8372,0.019225,0.014463,-0.020418,-0.005165,-0.002947,0.016647,0.008937,-0.495351,-0.020023,-0.948941,-261.280044,1.195599,66.118106
3.8571,0.018683,0.014823,-0.019934,-0.00515,-0.002956,0.016644,0.008645,-0.495521,-0.019888,-0.949155,-261.283598,1.194278,66.112477
3.8771,0.018602,0.01485,-0.021168,-0.005114,-0.002981,0.016639,0.00852,-0.495121,-0.019902,-0.949155,-261.283598,1.194278,66.112477
3.897,0.018865,0.014315,-0.018696,-0.005084,-0.003001,0.016635,0.00852,-0.495121,-0.019902,-0.949155,-261.283598,1.194278,66.112477
3.9172,0.017701,0.014534,-0.019145,-0.005058,-0.003017,0.016632,0.009112,-0.495715,-0.017999,-0.950464,-261.287141,1.19677,66.106839
3.937,0.017685,0.014297,-0.019486,-0.005053,-0.003016,0.016624,0.008609,-0.495589,-0.018386,-0.950464,-261.287141,1.19677,66.106839
3.9569,0.01725,0.014209,-0.017558,-0.005048,-0.003015,0.016617,0.007585,-0.495699,-0.018956,-0.954497,-261.290637,1.204251,66.1012
3.977,0.017413,0.014263,-0.019016,-0.005031,-0.003024,0.016601,0.008224,-0.495716,-0.017656,-0.954497,-261.290637,1.204251,66.1012
3.9972,0.017131,0.01435,-0.018194,-0.005016,-0.003032,0.016588,0.008224,-0.495716,-0.017656,-0.954497,-261.290637,1.204251,66.1012
4.0171,0.016303,0.014128,-0.017812,-0.005004,-0.003037,0.016578,0.007639,-0.495688,-0.017498,-0.954945,-261.294137,1.204621,66.095554
4.0372,0.016429,0.013843,-0.018266,-0.004957,-0.003067,0.016564,0.007443,-0.495744,-0.017547,-0.954945,-261.294137,1.204621,66.095554
4.0571,0.015573,0.014043,-0.017078,-0.004918,-0.003091,0.016554,0.006953,-0.496165,-0.017739,-0.956065,-261.297607,1.207508,66.089922
4.0772,0.015603,0.013894,-0.016172,-0.00486,-0.003126,0.016535,0.006864,-0.495912,-0.017109,-0.956065,-261.297607,1.207508,66.089922
4.0979,0.016394,0.013764,-0.016429,-0.004811,-0.003153,0.016521,0.006864,-0.495912,-0.017109,-0.956065,-261.297607,1.207508,66.089922
4.1175,0.015029,0.013412,-0.015841,-0.00477,-0.003175,0.01651,0.007808,-0.496293,-0.015737,-0.959639,-261.301028,1.214191,66.084299
4.1373,0.01522,0.013783,-0.016817,-0.004778,-0.003162,0.016465,0.007437,-0.496401,-0.0157,-0.959639,-261.301028,1.214191,66.084299
4.1569,0.014314,0.013345,-0.014855,-0.004786,-0.003151,0.01643,0.00649,-0.496244,-0.016292,-0.966484,-261.304377,1.225447,66.078678
4.1775,0.014415,0.013706,-0.015168,-0.004759,-0.003164,0.016362,0.006708,-0.496572,-0.014957,-0.966484,-261.304377,1.225447,66.078678
4.1974,0.014516,0.013704,-0.015228,-0.004737,-0.003174,0.01631,0.006708,-0.496572,-0.014957,-0.966484,-261.304377,1.225447,66.078678
4.2173,0.013977,0.013104,-0.016401,-0.00472,-0.003183,0.016269,0.006547,-0.496366,-0.014539,-0.963287,-261.307738,1.222643,66.073055
4.2374,0.014515,0.013601,-0.01345,-0.004673,-0.00321,0.016247,0.006139,-0.496571,-0.015228,-0.963287,-261.307738,1.222643,66.073055
4.257,0.013348,0.013202,-0.011807,-0.004635,-0.003233,0.016231,0.007505,-0.496452,-0.012933,-0.960853,-261.31103,1.22547,66.067484
4.2772,0.012933,0.013616,-0.011892,-0.004655,-0.003196,0.015935,0.007334,-0.49674,-0.011879,-0.960853,-261.31103,1.22547,66.067484
4.2975,0.012992,0.013221,-0.013657,-0.004679,-0.003169,0.015717,0.007334,-0.49674,-0.011879,-0.960853,-261.31103,1.22547,66.067484
4.3171,0.012829,0.012949,-0.011856,-0.004702,-0.00315,0.015556,0.005831,-0.496864,-0.012979,-0.964249,-261.314279,1.231828,66.061913
4.337,0.012526,0.012908,-0.011363,-0.004674,-0.003174,0.015495,0.006199,-0.496941,-0.01244,-0.964249,-261.314279,1.231828,66.061913
4.3572,0.011701,0.012941,-0.012023,-0.004651,-0.003193,0.01545,0.006583,-0.497156,-0.010878,-0.933425,-261.31738,1.214901,66.056618
4.3774,0.012275,0.012789,-0.011891,-0.004598,-0.003227,0.015351,0.005648,-0.497038,-0.011903,-0.933425,-261.31738,1.214901,66.056618
4.397,0.011775,0.013112,-0.01143,-0.004556,-0.003254,0.015278,0.005648,-0.497038,-0.011903,-0.933425,-261.31738,1.214901,66.056618
4.4173,0.011731,0.012654,-0.010142,-0.004523,-0.003276,0.015224,0.00575,-0.496986,-0.010786,-0.930488,-261.320492,1.217954,66.051237
4.4373,0.011346,0.012955,-0.009857,-0.004513,-0.003274,0.014971,0.006062,-0.497139,-0.010444,-0.930488,-261.320492,1.217954,66.051237
4.457,0.010785,0.012392,-0.010896,-0.004509,-0.003275,0.014788,0.006175,-0.497123,-0.009374,-0.926634,-261.323495,1.225518,66.045909
4.4772,0.011074,0.012925,-0.01039,-0.004476,-0.003297,0.014697,0.005305,-0.497543,-0.010735,-0.926634,-261.323495,1.225518,66.045909
4.4973,0.011025,0.012686,-0.008118,-0.004451,-0.003315,0.014631,0.005305,-0.497543,-0.010735,-0.926634,-261.323495,1.225518,66.045909
4.5173,0.010217,0.012542,-0.010182,-0.004432,-0.003331,0.014584,0.006696,-0.497432,-0.007502,-0.906373,-261.326399,1.21959,66.040703
4.5371,0.010245,0.011853,-0.007901,-0.00443,-0.003306,0.014106,0.005997,-0.497447,-0.008518,-0.906373,-261.326399,1.21959,66.040703
4.5573,0.009414,0.012286,-0.007666,-0.004439,-0.003291,0.013774,0.006073,-0.498236,-0.007437,-0.899302,-261.329251,1.223371,66.035492
4.5771,0.009507,0.012206,-0.009175,-0.004423,-0.003282,0.013307,0.005546,-0.49775,-0.007624,-0.899302,-261.329251,1.223371,66.035492
4.5971,0.009635,0.012672,-0.008544,-0.004418,-0.00328,0.01299,0.005546,-0.49775,-0.007624,-0.899302,-261.329251,1.223371,66.035492
4.6171,0.008955,0.012534,-0.0064,-0.004421,-0.003282,0.012775,0.005097,-0.497441,-0.007986,-0.856622,-261.331869,1.208268,66.030656
4.6373,0.009096,0.011897,-0.009269,-0.0044,-0.003297,0.012535,0.005316,-0.497462,-0.00728,-0.856622,-261.331869,1.208268,66.030656
4.657,0.008363,0.011954,-0.008746,-0.004387,-0.003312,0.012374,0.004235,-0.498179,-0.008887,-0.796592,-261.334251,1.191312,66.026161
4.6773,0.008099,0.011904,-0.00592,-0.004315,-0.003377,0.012588,0.003925,-0.498044,-0.008739,-0.796592,-261.334251,1.191312,66.026161
4.6975,0.008575,0.012041,-0.007246,-0.004254,-0.003429,0.012747,0.003925,-0.498044,-0.008739,-0.796592,-261.334251,1.191312,66.026161
4.7173,0.00774,0.012145,-0.006626,-0.004201,-0.00347,0.012865,0.004697,-0.498081,-0.006733,-0.769013,-261.33666,1.187167,66.021536
4.7374,0.00806,0.01167,-0.006571,-0.004175,-0.003458,0.012416,0.00454,-0.498001,-0.006632,-0.769013,-261.33666,1.187167,66.021536
4.7573,0.007549,0.011662,-0.006806,-0.00416,-0.003454,0.012109,0.004579,-0.498425,-0.006177,-0.807123,-261.339004,1.215622,66.016876
4.7771,0.007358,0.011897,-0.006579,-0.004131,-0.003464,0.011924,0.004115,-0.49834,-0.006731,-0.807123,-261.339004,1.215622,66.016876
4.7973,0.00747,0.011713,-0.005349,-0.00411,-0.003475,0.011798,0.004115,-0.49834,-0.006731,-0.807123,-261.339004,1.215622,66.016876
4.8173,0.006791,0.011538,-0.00546,-0.004095,-0.003485,0.011713,0.004574,-0.498417,-0.004863,-0.75849,-261.341207,1.204656,66.012409
4.8375,0.0071,0.011349,-0.005181,-0.004091,-0.003458,0.011108,0.004322,-0.498449,-0.005051,-0.75849,-261.341207,1.204656,66.012409
4.8573,0.006227,0.011516,-0.004257,-0.004095,-0.003442,0.010699,0.004329,-0.498753,-0.004813,-0.730612,-261.343379,1.203382,66.007905
4.8774,0.006562,0.011476,-0.004815,-0.004083,-0.003432,0.010131,0.004073,-0.498508,-0.004287,-0.730612,-261.343379,1.203382,66.007905
4.8972,0.006258,0.010849,-0.002493,-0.004079,-0.003428,0.009749,0.004073,-0.498508,-0.004287,-0.730612,-261.343379,1.203382,66.007905
4.9173,0.005945,0.011341,-0.005819,-0.004081,-0.003428,0.009493,0.004835,-0.499276,-0.002096,-0.655603,-261.345199,1.181316,66.004081
4.9371,0.005816,0.010957,-0.003644,-0.004098,-0.003411,0.009039,0.004054,-0.499034,-0.003579,-0.655603,-261.345199,1.181316,66.004081
4.9569,0.005432,0.010944,-0.004296,-0.004116,-0.003401,0.008732,0.003861,-0.499119,-0.003412,-0.580597,-261.346625,1.154297,66.001032
4.9771,0.005644,0.011428,-0.00472,-0.004074,-0.003434,0.008769,0.00329,-0.499061,-0.004208,-0.580597,-261.346625,1.154297,66.001032
4.9973,0.005791,0.011033,-0.003192,-0.00404,-0.00346,0.008799,0.00329,-0.499061,-0.004208,-0.580597,-261.346625,1.154297,66.001032
5.0171,0.005331,0.011103,-0.004333,-0.004013,-0.003482,0.008822,0.004042,-0.499062,-0.002923,-0.505583,-261.347928,1.130375,65.998265
5.0372,0.005704,0.011015,-0.003666,-0.004018,-0.003477,0.008548,0.003655,-0.499004,-0.003463,-0.505583,-261.347928,1.130375,65.998265
5.0573,0.004964,0.010962,-0.004655,-0.004025,-0.003475,0.00836,0.003714,-0.499085,-0.003403,-0.443578,-261.349592,1.145956,65.994618
5.0774,0.00513,0.010616,-0.005287,-0.003952,-0.003524,0.00863,0.002683,-0.499042,-0.004532,-0.443578,-261.349592,1.145956,65.994618
5.0978,0.004857,0.010914,-0.002516,-0.003889,-0.003562,0.008819,0.002683,-0.499042,-0.004532,-0.443578,-261.349592,1.145956,65.994618
5.1171,0.004388,0.010593,-0.001444,-0.003836,-0.003591,0.008952,0.003414,-0.499221,-0.002185,-0.385096,-261.351232,1.132225,65.99104
5.1372,0.00502,0.010479,-0.002816,-0.003851,-0.003556,0.007878,0.003493,-0.499312,-0.001846,-0.385096,-261.351232,1.132225,65.99104
5.1572,0.004158,0.010675,-0.002551,-0.003874,-0.00353,0.00713,0.003474,-0.499622,-0.002559,-0.454955,-261.352775,1.170225,65.987485
5.1775,0.004078,0.010225,-0.002567,-0.003856,-0.003536,0.006951,0.002906,-0.499355,-0.002539,-0.454955,-261.352775,1.170225,65.987485
5.1978,0.00425,0.010059,-0.002842,-0.003842,-0.003541,0.006831,0.002906,-0.499355,-0.002539,-0.454955,-261.352775,1.170225,65.987485
5.2174,0.00408,0.010775,-0.002479,-0.003833,-0.003546,0.006752,0.002744,-0.499987,-0.002727,-0.379998,-261.353344,1.114065,65.986222
5.2369,0.004159,0.010131,-0.000517,-0.003824,-0.00355,0.006738,0.002767,-0.49968,-0.002613,-0.379998,-261.353344,1.114065,65.986222
5.2568,0.003883,0.010147,-0.00221,-0.003816,-0.003553,0.00673,0.003844,-0.499913,-0.00042,-0.305001,-261.354001,1.107315,65.984769
5.2772,0.003686,0.0104,-0.001865,-0.003821,-0.003544,0.006462,0.00285,-0.49986,-0.002046,-0.305001,-261.354001,1.107315,65.984769
5.2974,0.003949,0.010112,-0.003586,-0.003827,-0.003538,0.006273,0.00285,-0.49986,-0.002046,-0.305001,-261.354001,1.107315,65.984769
5.3172,0.003893,0.010067,-0.001882,-0.003834,-0.003534,0.006141,0.002015,-0.499978,-0.003392,-0.229985,-261.355023,1.108741,65.982501
5.3373,0.003894,0.01041,-0.002714,-0.003801,-0.003553,0.006381,0.002378,-0.49997,-0.002754,-0.229985,-261.355023,1.108741,65.982501
5.357,0.002818,0.01022,-0.001257,-0.003772,-0.003568,0.00655,0.002435,-0.499653,-0.002589,-0.155002,-261.355963,1.086344,65.980487
5.377,0.003461,0.010257,-0.00165,-0.003712,-0.00358,0.005994,0.002196,-0.499772,-0.00137,-0.155002,-261.355963,1.086344,65.980487
5.3976,0.003223,0.010046,-0.000656,-0.003668,-0.00359,0.005601,0.002196,-0.499772,-0.00137,-0.155002,-261.355963,1.086344,65.980487
5.417,0.003381,0.009504,-0.001383,-0.003636,-0.003599,0.005325,0.002736,-0.500098,-0.000391,-0.114178,-261.35743,1.108419,65.977219
5.4373,0.003171,0.009894,-0.001134,-0.003669,-0.003576,0.00481,0.002694,-0.500277,-0.000767,-0.114178,-261.35743,1.108419,65.977219
5.4572,0.00285,0.010023,-0.003488,-0.003701,-0.00356,0.004443,0.002536,-0.500158,-0.001045,-0.039143,-261.358143,1.082872,65.975704
5.4777,0.003109,0.009648,0.001218,-0.003581,-0.003623,0.005348,0.0012,-0.499993,-0.003263,-0.039143,-261.358143,1.082872,65.975704
5.497,0.00323,0.010141,-0.0025,-0.003474,-0.003667,0.006,0.0012,-0.499993,-0.003263,-0.039143,-261.358143,1.082872,65.975704
5.5172,0.002962,0.009685,-0.000913,-0.003382,-0.003697,0.006465,0.001906,-0.499899,-0.002434,0.035808,-261.358618,1.037838,65.974793
5.5377,0.002854,0.009867,-0.001161,-0.003401,-0.003674,0.006151,0.002139,-0.500072,-0.00181,0.035808,-261.358618,1.037838,65.974793
5.557,0.002699,0.009691,-0.000866,-0.003418,-0.003656,0.005934,0.002187,-0.500211,-0.001028,-0.039202,-261.359517,1.112848,65.972578
5.5771,0.002213,0.009582,-0.0032,-0.003442,-0.003632,0.005293,0.002247,-0.500304,-0.000874,-0.039202,-261.359517,1.112848,65.972578
5.5973,0.00272,0.00988,-0.000508,-0.003467,-0.003616,0.004842,0.002247,-0.500304,-0.000874,-0.039202,-261.359517,1.112848,65.972578
5.6175,0.002052,0.009586,-0.001173,-0.003491,-0.003603,0.004524,0.002324,-0.500267,-0.000269,0.009186,-261.360826,1.131802,65.969497
5.6375,0.00237,0.009575,-0.002709,-0.003479,-0.003605,0.004153,0.001955,-0.500343,-0.000609,0.009186,-261.360826,1.131802,65.969497
5.6573,0.002168,0.009714,-0.000198,-0.003472,-0.003607,0.00389,0.000943,-0.500466,-0.002644,0.084179,-261.361413,1.069236,65.968311
5.6775,0.002219,0.009419,-0.000624,-0.003468,-0.003609,0.003604,0.001963,-0.500304,-0.000415,0.084179,-261.361413,1.069236,65.968311
5.6974,0.002164,0.009123,-0.001186,-0.003467,-0.003611,0.003399,0.001963,-0.500304,-0.000415,0.084179,-261.361413,1.069236,65.968311
5.7174,0.001915,0.009364,0.000253,-0.003468,-0.003613,0.003253,0.001508,-0.500923,-0.001123,0.159178,-261.361916,1.044873,65.967366
5.7377,0.002067,0.009678,0.000256,-0.003456,-0.003611,0.003228,0.00172,-0.500811,-0.000555,0.159178,-261.361916,1.044873,65.967366
5.7573,0.001944,0.009197,-0.000452,-0.003446,-0.00361,0.003211,0.002166,-0.500351,0.000291,0.234184,-261.362344,1.01624,65.966631
5.7776,0.002119,0.009565,-0.001724,-0.003439,-0.003608,0.003105,0.001753,-0.500763,-0.000383,0.234184,-261.362344,1.01624,65.966631
5.7973,0.002324,0.009619,-0.001155,-0.003435,-0.003607,0.003029,0.001753,-0.500763,-0.000383,0.234184,-261.362344,1.01624,65.966631
5.8175,0.001636,0.009304,0.000373,-0.003432,-0.003606,0.002974,0.001663,-0.500449,-0.001082,0.309196,-261.363083,1.01683,65.965363
5.8374,0.0019,0.00939,0.000355,-0.003424,-0.003611,0.002995,0.001721,-0.500557,-0.000483,0.309196,-261.363083,1.01683,65.965363
5.8571,0.001692,0.008936,0.000211,-0.003417,-0.003615,0.003009,0.002012,-0.500678,0.00042,0.384178,-261.364047,1.006534,65.963765
5.8772,0.001468,0.008685,-0.001832,-0.003423,-0.003603,0.002631,0.001815,-0.501033,0.000233,0.384178,-261.364047,1.006534,65.963765
5.8974,0.001623,0.009114,-0.000645,-0.003431,-0.003594,0.002358,0.001815,-0.501033,0.000233,0.384178,-261.364047,1.006534,65.963765
5.9175,0.001256,0.008745,-0.000466,-0.00344,-0.003588,0.002161,0.001169,-0.501015,-0.000534,0.459231,-261.365377,1.010993,65.961542
5.9376,0.001494,0.008972,0.001656,-0.003367,-0.003605,0.002422,0.001094,-0.501127,-0.000494,0.459231,-261.365377,1.010993,65.961542
5.9573,0.001399,0.008473,0.001649,-0.003307,-0.003616,0.002608,0.002255,-0.501111,0.001711,0.534209,-261.366614,0.959518,65.959744
5.9774,0.001444,0.00929,0.000171,-0.00338,-0.003562,0.001715,0.002237,-0.501494,0.001658,0.534209,-261.366614,0.959518,65.959744
5.9974,0.001331,0.008593,-0.000557,-0.003446,-0.003524,0.00106,0.002237,-0.501494,0.001658,0.534209,-261.366614,0.959518,65.959744
6.0173,0.00114,0.008672,-0.000336,-0.003504,-0.003497,0.00058,0.000914,-0.501552,-0.000452,0.548993,-261.368108,1.005182,65.957366
6.0371,0.00086,0.00863,0.000409,-0.003405,-0.003532,0.001241,0.00092,-0.501478,-0.000393,0.548993,-261.368108,1.005182,65.957366
6.0572,0.001011,0.008852,0.001075,-0.003322,-0.003556,0.001711,0.001028,-0.50141,0.000423,0.623934,-261.368792,0.930241,65.956609
6.0774,0.001354,0.009018,0.000299,-0.003308,-0.003561,0.001315,0.001509,-0.501174,0.001017,0.623934,-261.368792,0.930241,65.956609
6.0976,0.001162,0.008826,-0.000573,-0.003301,-0.003567,0.001026,0.001509,-0.501174,0.001017,0.623934,-261.368792,0.930241,65.956609
6.1171,0.000894,0.008211,0.001732,-0.003296,-0.003571,0.000815,0.000732,-0.501321,-0.000502,0.647283,-261.370436,0.945513,65.954368
6.1375,0.000823,0.008168,0.001828,-0.00326,-0.003579,0.000972,0.001137,-0.501526,0.000405,0.647283,-261.370436,0.945513,65.954368
6.1571,0.000273,0.008396,-1e-05,-0.00323,-0.003584,0.001081,0.00167,-0.501921,0.00185,0.72226,-261.371883,0.889935,65.952687
6.1777,0.000625,0.008351,-0.001539,-0.003098,-0.003601,0.001291,0.000387,-0.501636,0.000155,0.72226,-261.371883,0.889935,65.952687
6.197,0.000632,0.008523,-0.000475,-0.002991,-0.003613,0.001441,0.000387,-0.501636,0.000155,0.72226,-261.371883,0.889935,65.952687
6.2174,0.00031,0.008355,0.000206,-0.002905,-0.003619,0.001548,0.000257,-0.501624,-0.00043,0.735644,-261.373595,0.920308,65.95059
6.2372,0.000205,0.008173,-0.001185,-0.002825,-0.003624,0.001804,0.000306,-0.50165,-0.000167,0.735644,-261.373595,0.920308,65.95059
6.2569,0.000563,0.00789,0.000531,-0.002759,-0.003625,0.001988,-0.000482,-0.501929,-0.001141,0.744024,-261.375006,0.995317,65.948656
6.2774,0.000369,0.007781,0.002202,-0.00276,-0.0036,0.001817,0.000716,-0.5021,0.000388,0.744024,-261.375006,0.995317,65.948656
6.2972,0.000336,0.007859,-0.000431,-0.002762,-0.003579,0.001694,0.000716,-0.5021,0.000388,0.744024,-261.375006,0.995317,65.948656
6.317,0.000309,0.00823,0.000956,-0.002764,-0.003563,0.001606,8e-06,-0.502284,-0.000353,0.718302,-261.37638,1.052649,65.946568
6.3374,-0.000323,0.007982,-1.7e-05,-0.002706,-0.00356,0.001646,0.000317,-0.502091,0.000189,0.718302,-261.37638,1.052649,65.946568
6.3571,0.000225,0.007496,0.001361,-0.002659,-0.003556,0.001675,-0.000417,-0.502128,3.2e-05,0.751372,-261.377848,1.024229,65.944504
6.3771,5.7e-05,0.007747,0.000486,-0.002683,-0.00352,0.001182,0.000795,-0.502475,0.001244,0.751372,-261.377848,1.024229,65.944504
6.3972,3.4e-05,0.007652,0.000125,-0.002706,-0.003492,0.000823,0.000795,-0.502475,0.001244,0.751372,-261.377848,1.024229,65.944504
6.417,-2.6e-05,0.007258,-0.001634,-0.002727,-0.003472,0.000563,-1.3e-05,-0.502496,0.000194,0.761015,-261.379305,1.044599,65.942403
6.437,-1e-06,0.007557,-0.000223,-0.002572,-0.003474,0.001311,-0.000371,-0.502613,-0.000545,0.761015,-261.379305,1.044599,65.942403
6.457,-0.000493,0.007438,0.000406,-0.002444,-0.00347,0.001846,-0.00018,-0.502527,-0.000207,0.836015,-261.380559,0.969599,65.940986
6.4773,-0.00033,0.007391,0.000516,-0.002346,-0.003466,0.001731,-0.00028,-0.502563,0.000352,0.836015,-261.380559,0.969599,65.940986
6.497,-0.000615,0.007471,0.00172,-0.002268,-0.003462,0.001648,-0.00028,-0.502563,0.000352,0.836015,-261.380559,0.969599,65.940986
6.5173,-0.000411,0.006951,-0.001495,-0.002208,-0.003457,0.001589,0.000183,-0.502636,0.001775,0.764397,-261.381579,1.044603,65.939417
6.5373,-0.000427,0.007366,0.000996,-0.002138,-0.003441,0.001503,-0.000385,-0.502818,0.000435,0.764397,-261.381579,1.044603,65.939417
6.5573,-0.000484,0.007354,0.001564,-0.002083,-0.003427,0.001441,2.1e-05,-0.502726,0.001038,0.83955,-261.382703,1.108208,65.937745
6.5773,-0.000911,0.006908,0.000128,-0.00214,-0.003408,0.000895,0.000286,-0.502657,0.001522,0.83955,-261.382703,1.108208,65.937745
6.5976,-0.000881,0.006699,5.4e-05,-0.002189,-0.003396,0.000498,0.000286,-0.502657,0.001522,0.83955,-261.382703,1.108208,65.937745
6.6172,-0.00064,0.007245,-0.000327,-0.00223,-0.003388,0.00021,-0.000938,-0.50344,0.000112,0.885289,-261.383971,1.120318,65.935902
6.6373,-0.000693,0.007029,0.001911,-0.002067,-0.003366,0.000791,-0.000894,-0.503179,-5.9e-05,0.885289,-261.383971,1.120318,65.935902
6.6575,-0.000725,0.006937,0.000749,-0.001936,-0.003345,0.001205,0.000232,-0.503049,0.001918,0.960176,-261.385108,1.04543,65.934703
6.6774,-0.000563,0.00677,0.001275,-0.001934,-0.003332,0.001018,-0.000293,-0.503066,0.000855,0.960176,-261.385108,1.04543,65.934703
6.6974,-0.000747,0.006772,-0.000316,-0.001933,-0.003321,0.000882,-0.000293,-0.503066,0.000855,0.960176,-261.385108,1.04543,65.934703
6.717,-0.000744,0.007155,-0.000244,-0.001933,-0.003313,0.000783,-0.00098,-0.503352,-0.000271,0.93249,-261.386259,1.120395,65.933103
6.7372,-0.000693,0.006689,-0.000347,-0.001828,-0.003303,0.001308,-0.000943,-0.503161,-0.000255,0.93249,-261.386259,1.120395,65.933103
6.7571,-0.001085,0.006592,0.000799,-0.001742,-0.003292,0.001683,-0.00093,-0.503413,-0.000323,0.972247,-261.387588,1.099222,65.931455
6.7773,-0.001417,0.006653,0.001069,-0.001698,-0.003266,0.001436,-0.000703,-0.503413,0.0007,0.972247,-261.387588,1.099222,65.931455
6.7973,-0.000913,0.006694,0.001954,-0.001665,-0.003246,0.001257,-0.000703,-0.503413,0.0007,0.972247,-261.387588,1.099222,65.931455
6.817,-0.001437,0.006226,0.000121,-0.001641,-0.003229,0.001129,2.1e-05,-0.50342,0.002013,0.915059,-261.388545,1.174263,65.929894
6.8376,-0.001174,0.006312,0.001007,-0.001639,-0.003202,0.000778,-0.000554,-0.503577,0.001249,0.915059,-261.388545,1.174263,65.929894
6.8573,-0.001432,0.005981,0.000635,-0.001641,-0.003181,0.000525,-0.000708,-0.50378,0.001039,0.990043,-261.389631,1.174248,65.928368
6.8771,-0.001204,0.005949,0.000944,-0.001537,-0.003132,0.000619,-0.001075,-0.504003,0.000672,0.990043,-261.389631,1.174248,65.928368
6.8975,-0.000948,0.006429,0.001737,-0.001456,-0.003093,0.000686,-0.001075,-0.504003,0.000672,0.990043,-261.389631,1.174248,65.928368
6.9171,-0.001269,0.006092,0.002138,-0.001393,-0.003061,0.000733,-0.000125,-0.503692,0.001757,1.049884,-261.390842,1.132475,65.926948
6.9372,-0.001259,0.005835,0.000881,-0.001521,-0.00304,0.000228,-0.000154,-0.503794,0.001913,1.049884,-261.390842,1.132475,65.926948
6.9571,-0.001513,0.00581,0.002478,-0.001624,-0.003027,-0.00014,-0.000851,-0.504256,0.000902,1.080977,-261.391942,1.192748,65.925546
6.9774,-0.001113,0.005842,0.001772,-0.001664,-0.002985,-0.000559,-0.000309,-0.5042,0.002329,1.080977,-261.391942,1.192748,65.925546
6.9969,-0.001549,0.005783,0.000476,-0.001699,-0.002953,-0.000863,-0.000309,-0.5042,0.002329,1.080977,-261.391942,1.192748,65.925546
7.0169,-0.001316,0.005605,0.001651,-0.001729,-0.00293,-0.001085,-0.001356,-0.504316,0.000474,1.089877,-261.393029,1.117737,65.924506
7.0371,-0.001706,0.005893,5.1e-05,-0.001624,-0.002906,-0.000655,-0.001001,-0.504359,0.000955,1.089877,-261.393029,1.117737,65.924506
7.0572,-0.001481,0.005728,0.001574,-0.00154,-0.002886,-0.000352,-0.001706,-0.504157,3.5e-05,1.122161,-261.393859,1.042658,65.923912
7.0774,-0.001223,0.005753,0.000421,-0.00152,-0.002877,-0.000366,-0.000773,-0.504264,0.001434,1.122161,-261.393859,1.042658,65.923912
7.0971,-0.001276,0.005636,-0.000755,-0.001505,-0.002869,-0.000377,-0.000773,-0.504264,0.001434,1.122161,-261.393859,1.042658,65.923912
7.1172,-0.001308,0.00532,6.5e-05,-0.001493,-0.002863,-0.000387,-0.001726,-0.504485,-0.000769,1.109789,-261.39524,1.047686,65.922682
7.1373,-0.001392,0.005678,-0.000274,-0.00133,-0.002824,0.000595,-0.001553,-0.504577,-0.000438,1.109789,-261.39524,1.047686,65.922682
7.1569,-0.001336,0.005618,0.000733,-0.001198,-0.002789,0.001292,-0.001579,-0.504413,-0.000286,1.121767,-261.396615,1.053759,65.921475
7.1772,-0.001645,0.005181,0.000302,-0.0012,-0.002783,0.001188,-0.001017,-0.504389,0.000646,1.121767,-261.396615,1.053759,65.921475
7.1975,-0.001983,0.005297,0.001603,-0.001202,-0.002778,0.001111,-0.001017,-0.504389,0.000646,1.121767,-261.396615,1.053759,65.921475
7.2169,-0.001715,0.005535,0.000266,-0.001204,-0.002774,0.001054,-0.001193,-0.504757,0.001626,1.046663,-261.397061,1.128863,65.920754
7.2369,-0.001497,0.005436,0.000283,-0.001117,-0.002742,0.000805,-0.001355,-0.504644,0.001071,1.046663,-261.397061,1.128863,65.920754
7.2573,-0.002032,0.004787,0.000451,-0.001051,-0.002716,0.000626,-0.001386,-0.504638,0.00031,1.05636,-261.397885,1.203823,65.919533
7.2772,-0.001903,0.005152,5.6e-05,-0.000893,-0.002625,0.000823,-0.001769,-0.505168,0.00044,1.05636,-261.397885,1.203823,65.919533
7.297,-0.001889,0.005013,0.002744,-0.000771,-0.002553,0.000962,-0.001769,-0.505168,0.00044,1.05636,-261.397885,1.203823,65.919533
7.3174,-0.001528,0.005033,0.000639,-0.000677,-0.002496,0.001061,-0.000528,-0.505082,0.002766,1.131404,-261.398758,1.243672,65.918417
7.3377,-0.001943,0.005191,0.000554,-0.000808,-0.00247,0.000467,-0.00081,-0.505046,0.001893,1.131404,-261.398758,1.243672,65.918417
7.3573,-0.001976,0.005253,0.001545,-0.000913,-0.002453,3.6e-05,-0.001678,-0.504865,0.000577,1.206382,-261.39932,1.318649,65.917499
7.3774,-0.001692,0.004918,0.002136,-0.000922,-0.002478,-0.000104,-0.001231,-0.504759,0.001463,1.206382,-261.39932,1.318649,65.917499
7.3972,-0.002023,0.005054,0.000778,-0.000929,-0.002497,-0.000205,-0.001231,-0.504759,0.001463,1.206382,-261.39932,1.318649,65.917499
7.4175,-0.002127,0.004816,8.9e-05,-0.000935,-0.002512,-0.000278,-0.001658,-0.505033,0.00078,1.21156,-261.400201,1.243671,65.916605
7.4373,-0.001916,0.004863,0.001431,-0.000805,-0.002475,0.00015,-0.001836,-0.505105,0.000496,1.21156,-261.400201,1.243671,65.916605
7.4572,-0.002209,0.004971,-0.000977,-0.000702,-0.002444,0.000454,-0.001214,-0.505212,0.001423,1.235324,-261.401277,1.190905,65.915649
7.4772,-0.002135,0.004726,0.00114,-0.000501,-0.002407,0.001367,-0.002581,-0.505048,-0.000772,1.235324,-261.401277,1.190905,65.915649
7.4972,-0.001979,0.004908,0.002047,-0.000338,-0.002374,0.002015,-0.002581,-0.505048,-0.000772,1.235324,-261.401277,1.190905,65.915649
7.517,-0.002284,0.004654,0.000616,-0.000207,-0.002345,0.002474,-0.000959,-0.505168,0.00206,1.257339,-261.401973,1.26591,65.91479
7.5372,-0.001857,0.004411,0.001503,-0.000317,-0.002321,0.001657,-0.001375,-0.50525,0.001471,1.257339,-261.401973,1.26591,65.91479
7.5573,-0.001749,0.00467,0.00082,-0.000406,-0.002305,0.001067,-0.001096,-0.505613,0.001529,1.327025,-261.402088,1.340796,65.914274
7.5772,-0.00187,0.004772,0.001322,-0.000498,-0.002283,0.000908,-0.001311,-0.505356,0.000884,1.327025,-261.402088,1.340796,65.914274
7.5974,-0.001793,0.004576,0.001048,-0.00057,-0.002267,0.000792,-0.001311,-0.505356,0.000884,1.327025,-261.402088,1.340796,65.914274
7.6171,-0.001915,0.00462,0.000105,-0.000627,-0.002256,0.000707,-0.001274,-0.505507,0.001087,1.329816,-261.40268,1.41593,65.913237
7.6372,-0.002126,0.00476,0.000635,-0.000622,-0.002231,0.000744,-0.001515,-0.505465,0.000691,1.329816,-261.40268,1.41593,65.913237
7.6575,-0.001884,0.00428,0.000282,-0.000618,-0.002212,0.00077,-0.001818,-0.505297,0.000652,1.25489,-261.4033,1.341613,65.912349
7.6773,-0.002071,0.004236,0.000845,-0.000554,-0.00216,0.000992,-0.001747,-0.505687,0.000314,1.25489,-261.4033,1.341613,65.912349
7.6971,-0.00213,0.003914,0.001899,-0.000505,-0.002119,0.001149,-0.001747,-0.505687,0.000314,1.25489,-261.4033,1.341613,65.912349
7.7171,-0.001983,0.004165,0.001629,-0.000468,-0.002087,0.001261,-0.001187,-0.506176,0.00193,1.229671,-261.404031,1.344196,65.911261
7.7373,-0.001884,0.004346,0.001728,-0.000537,-0.002004,0.000645,-0.001176,-0.506048,0.001812,1.229671,-261.404031,1.344196,65.911261
7.7572,-0.002237,0.004064,0.002456,-0.000595,-0.001944,0.000198,-0.001017,-0.505715,0.001766,1.22939,-261.404555,1.408422,65.910175
7.7773,-0.00201,0.004319,0.000492,-0.00069,-0.001921,-0.000338,-0.000988,-0.505918,0.002399,1.22939,-261.404555,1.408422,65.910175
7.7974,-0.002307,0.004129,0.002722,-0.000768,-0.001906,-0.000729,-0.000988,-0.505918,0.002399,1.22939,-261.404555,1.408422,65.910175
7.817,-0.002358,0.004236,-0.000127,-0.000831,-0.001896,-0.001013,-0.000937,-0.505934,0.002729,1.255608,-261.405162,1.333239,65.909495
7.8373,-0.002451,0.004238,0.002326,-0.000759,-0.001899,-0.000891,-0.001548,-0.505872,0.001559,1.255608,-261.405162,1.333239,65.909495
7.8568,-0.002292,0.004265,0.000732,-0.000704,-0.001899,-0.000804,-0.001268,-0.505771,0.002322,1.251708,-261.405324,1.258309,65.909402
7.8775,-0.002577,0.004426,-0.000155,-0.000608,-0.001916,-0.000414,-0.001864,-0.505738,0.000865,1.251708,-261.405324,1.258309,65.909402
7.8973,-0.002198,0.004049,0.001428,-0.000532,-0.001928,-0.000137,-0.001864,-0.505738,0.000865,1.251708,-261.405324,1.258309,65.909402
7.9174,-0.001872,0.004562,-0.000636,-0.00047,-0.001935,5.9e-05,-0.001488,-0.506006,0.001407,1.284477,-261.406005,1.183245,65.908971
7.9375,-0.002345,0.004096,0.002582,-0.00044,-0.001936,0.000363,-0.001787,-0.505774,0.000549,1.284477,-261.406005,1.183245,65.908971
7.9575,-0.002461,0.003791,0.001922,-0.000415,-0.001936,0.000579,-0.00104,-0.505943,0.002583,1.32806,-261.406524,1.258417,65.908434
7.9774,-0.002388,0.003929,0.002551,-0.00043,-0.001868,8.8e-05,-0.001443,-0.506187,0.001979,1.32806,-261.406524,1.258417,65.908434
7.9975,-0.002042,0.004342,0.001323,-0.000445,-0.001818,-0.000267,-0.001443,-0.506187,0.001979,1.32806,-261.406524,1.258417,65.908434
8.0173,-0.002143,0.003582,0.001808,-0.000461,-0.001782,-0.000524,-0.001383,-0.505717,0.00134,1.314382,-261.407014,1.333166,65.907736
8.0376,-0.002505,0.004057,0.002984,-0.000523,-0.001788,-0.000532,-0.001318,-0.506011,0.001534,1.314382,-261.407014,1.333166,65.907736
8.0573,-0.002479,0.004041,-0.00015,-0.000572,-0.001794,-0.000539,-0.000997,-0.505992,0.002969,1.355041,-261.407794,1.265425,65.907181
8.0773,-0.002409,0.004122,0.001885,-0.00038,-0.00178,0.000178,-0.002423,-0.505964,0.000115,1.355041,-261.407794,1.265425,65.907181
8.0976,-0.002218,0.003845,0.001957,-0.000226,-0.001767,0.000688,-0.002423,-0.505964,0.000115,1.355041,-261.407794,1.265425,65.907181
8.1176,-0.002078,0.003818,0.001093,-0.000103,-0.001755,0.001049,-0.001241,-0.506222,0.001937,1.307683,-261.408584,1.198554,65.906616
8.138,-0.002549,0.003867,0.001123,-0.000217,-0.001722,0.000584,-0.001359,-0.506213,0.001585,1.307683,-261.408584,1.198554,65.906616
8.1568,-0.002169,0.004281,0.001631,-0.000307,-0.0017,0.000246,-0.001977,-0.506138,0.001127,1.382714,-261.408631,1.273584,65.906514
8.1776,-0.002137,0.003459,0.001771,-0.000394,-0.00176,-2e-06,-0.001394,-0.505756,0.001587,1.382714,-261.408631,1.273584,65.906514
8.1976,-0.002163,0.003745,0.001383,-0.000462,-0.001807,-0.000182,-0.001394,-0.505756,0.001587,1.382714,-261.408631,1.273584,65.906514
8.2172,-0.002486,0.003795,0.00064,-0.000515,-0.001845,-0.000313,-0.001469,-0.506308,0.00139,1.375281,-261.40911,1.348497,65.905946
8.2375,-0.002511,0.003687,0.0003,-0.000443,-0.001786,-0.000168,-0.001763,-0.50627,0.001073,1.375281,-261.40911,1.348497,65.905946
8.2575,-0.002271,0.003641,0.001146,-0.000389,-0.001741,-6.5e-05,-0.002372,-0.506364,0.000291,1.322939,-261.409835,1.273056,65.905348
8.2775,-0.002252,0.003859,0.000669,-0.000347,-0.00169,5e-06,-0.00174,-0.506361,0.00108,1.322939,-261.409835,1.273056,65.905348
8.2977,-0.002209,0.003876,0.000163,-0.000316,-0.00165,5.4e-05,-0.00174,-0.506361,0.00108,1.322939,-261.409835,1.273056,65.905348
8.3171,-0.002304,0.003499,0.000657,-0.000292,-0.00162,8.9e-05,-0.002141,-0.50619,0.000161,1.355791,-261.41049,1.346027,65.90472
8.3374,-0.002386,0.003393,0.001698,-0.000208,-0.001595,0.000486,-0.002072,-0.506325,0.000364,1.355791,-261.41049,1.346027,65.90472
8.3571,-0.002308,0.00309,0.000552,-0.000142,-0.001574,0.000768,-0.001529,-0.506655,0.0017,1.38606,-261.411092,1.397862,65.904078
8.3771,-0.002345,0.003277,0.001278,-6.4e-05,-0.001443,0.000818,-0.001985,-0.506891,0.000648,1.38606,-261.411092,1.397862,65.904078
8.3974,-0.002434,0.003442,0.002213,-6e-06,-0.001344,0.000853,-0.001985,-0.506891,0.000648,1.38606,-261.411092,1.397862,65.904078
8.4174,-0.002989,0.00332,0.001679,3.6e-05,-0.001269,0.000878,-0.001311,-0.506609,0.002238,1.442927,-261.411448,1.472922,65.903424
8.4373,-0.002515,0.003337,0.000979,-1.5e-05,-0.001266,0.000297,-0.001648,-0.506644,0.002012,1.442927,-261.411448,1.472922,65.903424
8.4571,-0.002549,0.003078,0.000908,-5.7e-05,-0.001265,-0.000125,-0.002017,-0.506682,0.000993,1.517842,-261.411589,1.547837,65.903076
8.4771,-0.00205,0.003439,0.001398,1.6e-05,-0.001208,4.9e-05,-0.00208,-0.506903,0.000916,1.517842,-261.411589,1.547837,65.903076
8.4973,-0.002624,0.003458,0.000113,7.2e-05,-0.001163,0.000172,-0.00208,-0.506903,0.000916,1.517842,-261.411589,1.547837,65.903076
8.5171,-0.002343,0.003605,1.4e-05,0.000114,-0.001127,0.000259,-0.002569,-0.506595,0.000108,1.528134,-261.412119,1.522667,65.902606
8.5371,-0.002531,0.003446,0.00147,0.000194,-0.001163,0.000772,-0.002474,-0.506519,6.9e-05,1.528134,-261.412119,1.522667,65.902606
8.5575,-0.002577,0.003281,0.002247,0.000261,-0.001188,0.001136,-0.001781,-0.506571,0.001474,1.60301,-261.412311,1.597543,65.902352
8.5772,-0.002377,0.002909,0.002118,0.000112,-0.001189,0.000427,-0.001461,-0.506706,0.002182,1.60301,-261.412311,1.597543,65.902352
8.5975,-0.002123,0.003351,0.001562,-5e-06,-0.001194,-8.9e-05,-0.001461,-0.506706,0.002182,1.60301,-261.412311,1.597543,65.902352
8.6175,-0.002483,0.003148,0.00183,-9.7e-05,-0.0012,-0.000464,-0.001326,-0.506648,0.001562,1.527867,-261.412311,1.672686,65.902352
8.637,-0.002654,0.003333,0.000675,-0.000191,-0.001216,-0.000539,-0.001417,-0.50673,0.001671,1.527867,-261.412311,1.672686,65.902352
8.6571,-0.002255,0.003035,-0.000819,-0.000263,-0.00123,-0.000594,-0.002311,-0.506686,0.000667,1.505497,-261.412606,1.597884,65.902169
8.6771,-0.002641,0.003111,0.000998,-4.2e-05,-0.001162,0.000588,-0.00264,-0.506941,-0.000686,1.505497,-261.412606,1.597884,65.902169
8.6973,-0.002729,0.003309,0.001739,0.000135,-0.001105,0.001432,-0.00264,-0.506941,-0.000686,1.505497,-261.412606,1.597884,65.902169
8.717,-0.002235,0.003267,0.001228,0.000276,-0.001057,0.00203,-0.001843,-0.506698,0.001735,1.430492,-261.412709,1.52288,65.902111
8.7373,-0.001972,0.003115,0.002499,0.000189,-0.001098,0.001324,-0.001747,-0.506713,0.001527,1.430492,-261.412709,1.52288,65.902111
8.7571,-0.002401,0.003491,0.000439,0.000121,-0.00113,0.000813,-0.000697,-0.506883,0.002499,1.355485,-261.412709,1.597887,65.902111
8.7774,-0.002571,0.00319,0.000693,0.000113,-0.001185,0.000873,-0.002052,-0.50654,0.000612,1.355485,-261.412709,1.597887,65.902111
8.7977,-0.002164,0.003216,0.001572,0.00011,-0.001225,0.000914,-0.002052,-0.50654,0.000612,1.355485,-261.412709,1.597887,65.902111
8.8171,-0.002433,0.003533,0.00089,0.000108,-0.001256,0.000942,-0.001362,-0.506784,0.001572,1.280302,-261.412709,1.644817,65.902111
8.8377,-0.002067,0.003548,0.002453,1.9e-05,-0.001265,0.000631,-0.001615,-0.506654,0.001293,1.280302,-261.412709,1.644817,65.902111
8.8574,-0.002374,0.003407,0.000468,-5.1e-05,-0.001273,0.000407,-0.000816,-0.506452,0.002454,1.355275,-261.412719,1.629889,65.902085
8.8775,-0.002263,0.003734,0.002454,-2.2e-05,-0.001289,0.000561,-0.002017,-0.50658,0.000646,1.355275,-261.412719,1.629889,65.902085
8.8975,-0.002585,0.003372,0.002784,1e-06,-0.001299,0.00067,-0.002017,-0.50658,0.000646,1.355275,-261.412719,1.629889,65.902085
8.9172,-0.001943,0.003488,0.002951,2e-05,-0.001307,0.000747,-0.001167,-0.506656,0.002794,1.430152,-261.412949,1.555012,65.901743
8.9371,-0.002329,0.003232,0.001984,-0.000237,-0.00131,-7e-05,-0.000866,-0.506599,0.00286,1.430152,-261.412949,1.555012,65.901743
8.9569,-0.002535,0.003006,0.00042,-0.000436,-0.00132,-0.000672,-0.001318,-0.506793,0.002,1.505279,-261.413167,1.581969,65.901291
8.9773,-0.002349,0.003358,0.002872,-0.000248,-0.001244,-0.000152,-0.00223,-0.506977,0.000564,1.505279,-261.413167,1.581969,65.901291
8.9974,-0.002448,0.003024,-0.000181,-0.000102,-0.001184,0.000218,-0.00223,-0.506977,0.000564,1.505279,-261.413167,1.581969,65.901291
9.0173,-0.002506,0.003258,0.001605,1.1e-05,-0.001137,0.00048,-0.002541,-0.506977,-0.000182,1.430426,-261.41318,1.507116,65.901284
9.0372,-0.002496,0.00311,0.002674,8.1e-05,-0.001122,0.000667,-0.002187,-0.506879,0.000558,1.430426,-261.41318,1.507116,65.901284
9.0571,-0.002442,0.002573,0.00093,0.000136,-0.001108,0.000799,-0.001133,-0.506911,0.002683,1.505595,-261.413393,1.578762,65.900924
9.0777,-0.002481,0.003239,0.000458,0.000153,-0.00099,0.000628,-0.001893,-0.507382,0.001087,1.505595,-261.413393,1.578762,65.900924
9.0974,-0.002431,0.003212,0.001315,0.000162,-0.000902,0.000505,-0.001893,-0.507382,0.001087,1.505595,-261.413393,1.578762,65.900924
9.1172,-0.002462,0.003034,0.000288,0.000167,-0.000836,0.000416,-0.00176,-0.506788,0.001315,1.43075,-261.413392,1.653608,65.900924
9.1372,-0.002326,0.003166,0.001255,0.00015,-0.000899,0.000443,-0.001988,-0.506861,0.000894,1.43075,-261.413392,1.653608,65.900924
9.1572,-0.002625,0.002953,0.000994,0.000139,-0.000947,0.00046,-0.001686,-0.506833,0.001255,1.35561,-261.413392,1.722617,65.900924
9.1773,-0.00232,0.003048,0.001363,0.000168,-0.000945,0.000412,-0.002077,-0.507027,0.001018,1.35561,-261.413392,1.722617,65.900924
9.1979,-0.002305,0.002992,0.002968,0.00019,-0.000944,0.000378,-0.002077,-0.507027,0.001018,1.35561,-261.413392,1.722617,65.900924
9.2174,-0.00272,0.002755,0.001789,0.000206,-0.000943,0.000353,-0.000791,-0.507005,0.002968,1.280768,-261.413392,1.683429,65.900924
9.2377,-0.002556,0.002792,0.002081,1.1e-05,-0.000932,-0.000252,-0.001202,-0.507102,0.002491,1.280768,-261.413392,1.683429,65.900924
9.2573,-0.002409,0.003416,0.003329,-0.000141,-0.000929,-0.000692,-0.001495,-0.507207,0.002081,1.205752,-261.413392,1.608413,65.900924
9.2775,-0.002471,0.003281,0.001773,-0.000392,-0.001018,-0.001234,-0.000782,-0.506638,0.003217,1.205752,-261.413392,1.608413,65.900924
9.2972,-0.002669,0.003097,0.002179,-0.000587,-0.001092,-0.001631,-0.000782,-0.506638,0.003217,1.205752,-261.413392,1.608413,65.900924
9.3175,-0.002267,0.003118,0.001023,-0.000738,-0.001154,-0.001922,-0.001559,-0.506904,0.002177,1.280728,-261.413431,1.533438,65.900909
9.3372,-0.002659,0.003162,0.002207,-0.000631,-0.001157,-0.001591,-0.001634,-0.506896,0.00171,1.280728,-261.413431,1.533438,65.900909
9.357,-0.002306,0.003156,0.000933,-0.000548,-0.001158,-0.001357,-0.001533,-0.506837,0.002207,1.263827,-261.413431,1.458431,65.900909
9.3774,-0.002213,0.003442,0.000322,-0.000454,-0.001167,-0.00088,-0.001805,-0.506843,0.001043,1.263827,-261.413431,1.458431,65.900909
9.3972,-0.002583,0.003295,0.000705,-0.000379,-0.001171,-0.000545,-0.001805,-0.506843,0.001043,1.263827,-261.413431,1.458431,65.900909
9.4172,-0.002288,0.00346,0.001122,-0.00032,-0.001173,-0.000309,-0.002224,-0.506705,0.000705,1.301821,-261.413431,1.383341,65.900909
9.4372,-0.002337,0.003372,0.002059,-0.00024,-0.001209,-6.1e-05,-0.002014,-0.506637,0.000877,1.301821,-261.413431,1.383341,65.900909
9.4569,-0.002249,0.003243,0.000769,-0.000175,-0.001235,0.000114,-0.001294,-0.506655,0.002052,1.340091,-261.413854,1.308304,65.900596
9.4773,-0.00219,0.003209,0.001249,-0.000163,-0.001236,0.000238,-0.00181,-0.50675,0.000877,1.340091,-261.413854,1.308304,65.900596
9.497,-0.002174,0.003444,0.001696,-0.000153,-0.001236,0.000325,-0.00181,-0.50675,0.000877,1.340091,-261.413854,1.308304,65.900596
9.5172,-0.002606,0.003112,0.001268,-0.000143,-0.001236,0.000385,-0.001315,-0.50659,0.001699,1.415128,-261.414177,1.383342,65.900235
9.5371,-0.002858,0.003027,0.001423,-0.000185,-0.001244,0.000129,-0.001581,-0.506717,0.001522,1.415128,-261.414177,1.383342,65.900235
9.5572,-0.002679,0.003121,0.001279,-0.000217,-0.001251,-5.6e-05,-0.002136,-0.507007,0.001434,1.428781,-261.414531,1.458353,65.899718
9.5773,-0.002525,0.003012,-0.001389,-0.000121,-0.001213,-8.6e-05,-0.002037,-0.506891,0.001292,1.428781,-261.414531,1.458353,65.899718
9.5974,-0.002463,0.002801,0.001958,-4.9e-05,-0.001183,-0.000108,-0.002037,-0.506891,0.001292,1.428781,-261.414531,1.458353,65.899718
9.6174,-0.002308,0.00265,-1.5e-05,7e-06,-0.00116,-0.000123,-0.001473,-0.507247,0.001955,1.403151,-261.415013,1.393948,65.89926
9.6375,-0.00219,0.002941,0.000811,2.2e-05,-0.001057,-6.5e-05,-0.00182,-0.507295,0.001146,1.403151,-261.415013,1.393948,65.89926
9.6568,-0.002686,0.00298,0.000694,3.3e-05,-0.000979,-2.3e-05,-0.001778,-0.507072,0.000809,1.478125,-261.415191,1.468922,65.899104
9.6776,-0.002307,0.002815,0.001977,0.000124,-0.000969,0.000226,-0.002282,-0.507025,0.000704,1.478125,-261.415191,1.468922,65.899104
9.6969,-0.002567,0.003329,-0.000221,0.000196,-0.00096,0.000403,-0.002282,-0.507025,0.000704,1.478125,-261.415191,1.468922,65.899104
9.717,-0.002581,0.00273,0.001433,0.000253,-0.000952,0.000528,-0.002681,-0.506694,-0.000222,1.553007,-261.415421,1.543803,65.898881
9.737,-0.002396,0.003056,0.001191,0.000301,-0.000961,0.000752,-0.002343,-0.506931,0.000452,1.553007,-261.415421,1.543803,65.898881
9.7569,-0.002625,0.003111,-0.000192,0.00034,-0.000967,0.00091,-0.001788,-0.506943,0.001191,1.478011,-261.415421,1.468808,65.898881
9.7777,-0.002358,0.002888,0.00177,0.000428,-0.000968,0.001312,-0.002643,-0.506893,-7.4e-05,1.478011,-261.415421,1.468808,65.898881
9.7978,-0.002372,0.00296,0.002086,0.000499,-0.000966,0.001597,-0.002643,-0.506893,-7.4e-05,1.478011,-261.415421,1.468808,65.898881
9.8173,-0.002297,0.002705,0.002205,0.000556,-0.000963,0.001799,-0.001308,-0.507039,0.002086,1.402876,-261.415421,1.393673,65.898881
9.8371,-0.002204,0.00288,0.001189,0.000297,-0.00093,0.000931,-0.001252,-0.507143,0.002135,1.402876,-261.415421,1.393673,65.898881
9.8576,-0.002627,0.00297,0.000978,9.7e-05,-0.000911,0.000297,-0.001598,-0.50712,0.001189,1.32781,-261.415421,1.318606,65.898881
9.8777,-0.002645,0.00302,0.001382,0.000138,-0.000916,0.000313,-0.002084,-0.507038,0.000995,1.32781,-261.415421,1.318606,65.898881
9.8971,-0.002346,0.002945,0.002048,0.000168,-0.000919,0.000323,-0.002084,-0.507038,0.000995,1.32781,-261.415421,1.318606,65.898881
9.9173,-0.00224,0.002915,0.000779,0.000192,-0.000921,0.000329,-0.001302,-0.507054,0.002048,1.402814,-261.415425,1.39361,65.898875
9.9372,-0.002442,0.002729,0.000627,7.7e-05,-0.000924,9e-05,-0.001524,-0.507067,0.001526,1.402814,-261.415425,1.39361,65.898875
9.9572,-0.002206,0.002728,0.000766,-1.3e-05,-0.000929,-8.2e-05,-0.002123,-0.507271,0.000627,1.327871,-261.415425,1.468553,65.898875
9.9773,-0.002418,0.002818,0.001339,3e-06,-0.000885,0.000162,-0.001841,-0.507272,0.000754,1.327871,-261.415425,1.468553,65.898875
9.9972,-0.002313,0.002924,9e-05,1.6e-05,-0.000852,0.000334,-0.001841,-0.507272,0.000754,1.327871,-261.415425,1.468553,65.898875
10.0169,-0.002403,0.002571,0.002175,2.6e-05,-0.000826,0.000455,-0.002269,-0.507091,8.9e-05,1.402907,-261.415573,1.543589,65.898742
10.0375,-0.002687,0.002885,0.001769,4e-05,-0.000815,0.000443,-0.001867,-0.507231,0.000949,1.402907,-261.415573,1.543589,65.898742
10.0573,-0.002733,0.003211,0.001661,5e-05,-0.000806,0.000433,-0.001785,-0.507126,0.001776,1.477886,-261.415673,1.594105,65.89854
10.0777,-0.002374,0.002643,0.001805,4.1e-05,-0.000885,0.000101,-0.001877,-0.506817,0.001671,1.477886,-261.415673,1.594105,65.89854
10.0976,-0.002188,0.002675,0.001585,3.4e-05,-0.000945,-0.000138,-0.001877,-0.506817,0.001671,1.477886,-261.415673,1.594105,65.89854
10.1174,-0.00238,0.003069,0.002071,2.8e-05,-0.000991,-0.00031,-0.00138,-0.507344,0.001595,1.552889,-261.415798,1.617446,65.898295
10.1378,-0.001766,0.002738,0.00059,-8.9e-05,-0.000958,-0.000483,-0.001357,-0.507174,0.001794,1.552889,-261.415798,1.617446,65.898295
10.1574,-0.002261,0.002787,0.001706,-0.000179,-0.000936,-0.000607,-0.001464,-0.507293,0.00058,1.594369,-261.416255,1.605489,65.897984
10.1771,-0.00212,0.00242,0.001538,-0.000239,-0.000911,-0.000619,-0.001397,-0.507221,0.001605,1.594369,-261.416255,1.605489,65.897984
10.197,-0.002232,0.002641,0.001288,0.0,0.0,0.0,-0.001397,-0.507221,0.001605,1.594369,-261.416255,1.605489,65.897984
10.217,-0.002505,0.002967,0.001454,0.0,0.0,0.0,-0.001575,-0.507362,0.001286,1.519551,-261.416306,1.530671,65.897961
10.2374,-0.002418,0.002727,0.002343,0.0,0.0,0.0,-0.001652,-0.507229,0.001354,1.519551,-261.416306,1.530671,65.897961
10.2575,-0.002569,0.002595,0.000822,0.0,0.0,0.0,-0.001223,-0.507272,0.002343,1.519551,-261.416306,1.530671,65.897961
10.2773,-0.00214,0.003236,0.001147,0.0,0.0,0.0,-0.002074,-0.507394,0.000947,1.519551,-261.416306,1.530671,65.897961
10.2975,-0.002387,0.002726,0.001844,0.0,0.0,0.0,-0.002074,-0.507394,0.000947,1.519551,-261.416306,1.530671,65.897961
10.3174,-0.002172,0.002485,0.002728,0.0,0.0,0.0,-0.001447,-0.507274,0.001844,1.519551,-261.416306,1.530671,65.897961
10.3374,-0.002328,0.002769,0.00141,0.0,0.0,0.0,-0.001171,-0.507373,0.00221,1.519551,-261.416306,1.530671,65.897961
10.3574,-0.002553,0.002878,0.001267,0.0,0.0,0.0,-0.001609,-0.507231,0.00141,1.519551,-261.416306,1.530671,65.897961
10.3775,-0.002249,0.002598,0.000996,0.0,0.0,0.0,-0.001882,-0.507131,0.001279,1.519551,-261.416306,1.530671,65.897961
10.3972,-0.002041,0.002782,0.001288,0.0,0.0,0.0,-0.001882,-0.507131,0.001279,1.519551,-261.416306,1.530671,65.897961
10.4174,-0.002324,0.003295,0.002605,0.0,0.0,0.0,-0.001384,-0.507217,0.001288,1.519551,-261.416306,1.530671,65.897961
10.4376,-0.002552,0.002726,0.002048,0.0,0.0,0.0,-0.001224,-0.507005,0.001833,1.519551,-261.416306,1.530671,65.897961
10.4573,-0.002284,0.002616,0.00209,0.0,0.0,0.0,-0.001508,-0.507273,0.002048,1.519551,-261.416306,1.530671,65.897961
10.4772,-0.002319,0.00265,0.003073,0.0,0.0,0.0,-0.001244,-0.507373,0.002086,1.519551,-261.416306,1.530671,65.897961
10.4972,-0.002425,0.00286,0.000761,0.0,0.0,0.0,-0.001244,-0.507373,0.002086,1.519551,-261.416306,1.530671,65.897961
10.5173,-0.002229,0.002916,0.001703,0.0,0.0,0.0,-0.002037,-0.50714,0.000761,1.519551,-261.416306,1.530671,65.897961
10.5372,-0.002481,0.002874,0.000904,0.0,0.0,0.0,-0.001758,-0.507116,0.00115,1.519551,-261.416306,1.530671,65.897961
10.5573,-0.002326,0.002669,0.001603,0.0,0.0,0.0,-0.00202,-0.507126,0.000904,1.519551,-261.416306,1.530671,65.897961
10.5772,-0.002613,0.002913,0.002132,0.0,0.0,0.0,-0.001551,-0.507313,0.001545,1.519551,-261.416306,1.530671,65.897961
10.5973,-0.002426,0.002965,0.002763,0.0,0.0,0.0,-0.001551,-0.507313,0.001545,1.519551,-261.416306,1.530671,65.897961
10.6169,-0.002504,0.002358,0.000648,0.0,0.0,0.0,-0.001017,-0.507033,0.002763,1.519551,-261.416306,1.530671,65.897961
10.6369,-0.002392,0.003091,0.001143,0.0,0.0,0.0,-0.001504,-0.507289,0.001873,1.519551,-261.416306,1.530671,65.897961
10.657,-0.002017,0.002903,0.001396,0.0,0.0,0.0,-0.001809,-0.506908,0.001143,1.519551,-261.416306,1.530671,65.897961
10.677,-0.002586,0.002528,0.001233,0.0,0.0,0.0,-0.001348,-0.507081,0.001374,1.519551,-261.416306,1.530671,65.897961
10.697,-0.002106,0.00285,0.001301,0.0,0.0,0.0,-0.001348,-0.507081,0.001374,1.519551,-261.416306,1.530671,65.897961
10.7173,-0.002782,0.002641,0.001371,0.0,0.0,0.0,-0.001442,-0.507149,0.001301,1.519551,-261.416306,1.530671,65.897961
10.7375,-0.002291,0.002527,0.00208,0.0,0.0,0.0,-0.001707,-0.507236,0.00133,1.519551,-261.416306,1.530671,65.897961
10.7572,-0.002514,0.00268,0.00051,0.0,0.0,0.0,-0.001231,-0.507471,0.00208,1.519551,-261.416306,1.530671,65.897961
10.7776,-0.002021,0.002502,0.002308,0.0,0.0,0.0,-0.002167,-0.507333,0.000643,1.519551,-261.416306,1.530671,65.897961
10.7977,-0.002475,0.00302,0.000647,0.0,0.0,0.0,-0.002167,-0.507333,0.000643,1.519551,-261.416306,1.530671,65.897961
10.8172,-0.002185,0.002388,0.00164,0.0,0.0,0.0,-0.002145,-0.50698,0.000647,1.519551,-261.416306,1.530671,65.897961
10.8369,-0.002538,0.002495,-6.1e-05,0.0,0.0,0.0,-0.00182,-0.507238,0.001053,1.519551,-261.416306,1.530671,65.897961
10.8572,-0.002712,0.00285,0.000559,0.0,0.0,0.0,-0.002569,-0.507505,-6.1e-05,1.519551,-261.416306,1.530671,65.897961
10.8771,-0.002412,0.002559,0.002555,0.0,0.0,0.0,-0.002439,-0.50718,0.000506,1.519551,-261.416306,1.530671,65.897961
10.897,-0.002384,0.002203,0.002678,0.0,0.0,0.0,-0.002439,-0.50718,0.000506,1.519551,-261.416306,1.530671,65.897961
10.9173,-0.002356,0.002598,0.001015,0.0,0.0,0.0,-0.001018,-0.507796,0.002678,1.519551,-261.416306,1.530671,65.897961
10.9374,-0.002328,0.002799,0.001355,0.0,0.0,0.0,-0.001359,-0.507632,0.001987,1.519551,-261.416306,1.530671,65.897961
10.9572,-0.002124,0.002703,0.001176,0.0,0.0,0.0,-0.001637,-0.507201,0.001355,1.519551,-261.416306,1.530671,65.897961
10.9776,-0.002529,0.002967,0.002913,0.0,0.0,0.0,-0.001535,-0.507288,0.001191,1.519551,-261.416306,1.530671,65.897961
10.9977,-0.002495,0.002971,0.001154,0.0,0.0,0.0,-0.001535,-0.507288,0.001191,1.519551,-261.416306,1.530671,65.897961
11.0171,-0.002864,0.002681,0.001465,0.0,0.0,0.0,-0.001906,-0.507029,0.001154,1.519551,-261.416306,1.530671,65.897961
11.0374,-0.002398,0.002756,0.002355,0.0,0.0,0.0,-0.001993,-0.507148,0.001282,1.519551,-261.416306,1.530671,65.897961
11.0572,-0.002637,0.002675,0.001603,0.0,0.0,0.0,-0.001197,-0.507242,0.002355,1.519551,-261.416306,1.530671,65.897961
11.0775,-0.00231,0.003209,0.001149,0.0,0.0,0.0,-0.001768,-0.507318,0.001666,1.519551,-261.416306,1.530671,65.897961
11.0973,-0.00232,0.002616,0.002258,0.0,0.0,0.0,-0.001768,-0.507318,0.001666,1.519551,-261.416306,1.530671,65.897961
11.1171,-0.002515,0.003058,0.001719,0.0,0.0,0.0,-0.001169,-0.507382,0.002258,1.519551,-261.416306,1.530671,65.897961
11.1371,-0.002384,0.002883,0.000385,0.0,0.0,0.0,-0.001362,-0.507201,0.002036,1.519551,-261.416306,1.530671,65.897961
11.1571,-0.002497,0.002798,0.001479,0.0,0.0,0.0,-0.002187,-0.507117,0.000385,1.519551,-261.416306,1.530671,65.897961
11.1774,-0.002551,0.002756,0.002893,0.0,0.0,0.0,-0.001781,-0.507194,0.001384,1.519551,-261.416306,1.530671,65.897961
11.1976,-0.002672,0.002626,0.00255,0.0,0.0,0.0,-0.001781,-0.507194,0.001384,1.519551,-261.416306,1.530671,65.897961
11.2172,-0.002414,0.002701,0.000733,0.0,0.0,0.0,-0.001371,-0.507372,0.00255,1.519551,-261.416306,1.530671,65.897961
11.2371,-0.00225,0.002647,0.002014,0.0,0.0,0.0,-0.00165,-0.507342,0.001793,1.519551,-261.416306,1.530671,65.897961
11.257,-0.002355,0.002865,0.001534,0.0,0.0,0.0,-0.001223,-0.507352,0.002014,1.519551,-261.416306,1.530671,65.897961
11.2775,-0.0028,0.00231,0.001547,0.0,0.0,0.0,-0.001543,-0.507153,0.001575,1.519551,-261.416306,1.530671,65.897961
11.2971,-0.002463,0.003185,0.000109,0.0,0.0,0.0,-0.001543,-0.507153,0.001575,1.519551,-261.416306,1.530671,65.897961
11.3172,-0.002525,0.002513,0.000505,0.0,0.0,0.0,-0.002408,-0.506815,0.000109,1.519551,-261.416306,1.530671,65.897961
11.337,-0.002487,0.002662,0.001534,0.0,0.0,0.0,-0.00235,-0.507094,0.000273,1.519551,-261.416306,1.530671,65.897961
11.3572,-0.002531,0.002912,0.00209,0.0,0.0,0.0,-0.001705,-0.507338,0.001534,1.519551,-261.416306,1.530671,65.897961
11.3771,-0.002245,0.00289,0.000263,0.0,0.0,0.0,-0.001486,-0.507109,0.002042,1.519551,-261.416306,1.530671,65.897961
11.3971,-0.002145,0.002837,0.001661,0.0,0.0,0.0,-0.001486,-0.507109,0.002042,1.519551,-261.416306,1.530671,65.897961
11.4175,-0.002308,0.002838,-0.000243,0.0,0.0,0.0,-0.001298,-0.507163,0.001661,1.519551,-261.416306,1.530671,65.897961
11.4374,-0.00256,0.002467,0.000574,0.0,0.0,0.0,-0.001766,-0.507162,0.000875,1.519551,-261.416306,1.530671,65.897961
11.457,-0.002357,0.002638,0.000262,0.0,0.0,0.0,-0.002268,-0.507533,0.000574,1.519551,-261.416306,1.530671,65.897961
11.4775,-0.002274,0.002758,0.001915,0.0,0.0,0.0,-0.002227,-0.507377,0.000288,1.519551,-261.416306,1.530671,65.897961
11.4974,-0.002168,0.0028,0.001467,0.0,0.0,0.0,-0.002227,-0.507377,0.000288,1.519551,-261.416306,1.530671,65.897961
11.5173,-0.002503,0.002986,0.000167,0.0,0.0,0.0,-0.00142,-0.507199,0.001467,1.519551,-261.416306,1.530671,65.897961
11.5371,-0.00239,0.002821,0.002704,0.0,0.0,0.0,-0.001828,-0.507123,0.000935,1.519551,-261.416306,1.530671,65.897961
11.5573,-0.002297,0.002549,0.001176,0.0,0.0,0.0,-0.001011,-0.507177,0.002704,1.519551,-261.416306,1.530671,65.897961
11.5774,-0.002176,0.002918,0.000855,0.0,0.0,0.0,-0.001639,-0.507428,0.001306,1.519551,-261.416306,1.530671,65.897961
11.5972,-0.002334,0.003022,-0.000392,0.0,0.0,0.0,-0.001639,-0.507428,0.001306,1.519551,-261.416306,1.530671,65.897961
11.6171,-0.002621,0.00285,0.000607,0.0,0.0,0.0,-0.002534,-0.506978,-0.000392,1.519551,-261.416306,1.530671,65.897961
11.6373,-0.002285,0.002767,0.002748,0.0,0.0,0.0,-0.002443,-0.507048,1.6e-05,1.519551,-261.416306,1.530671,65.897961
11.6569,-0.002173,0.002664,9e-06,0.0,0.0,0.0,-0.000884,-0.507232,0.002748,1.519551,-261.416306,1.530671,65.897961
11.6774,-0.002359,0.002547,0.001371,0.0,0.0,0.0,-0.002056,-0.507327,0.000248,1.519551,-261.416306,1.530671,65.897961
11.6973,-0.002198,0.002726,0.001504,0.0,0.0,0.0,-0.002056,-0.507327,0.000248,1.519551,-261.416306,1.530671,65.897961
11.7171,-0.0024,0.002793,0.001697,0.0,0.0,0.0,-0.001431,-0.507274,0.001504,1.519551,-261.416306,1.530671,65.897961
11.7373,-0.002507,0.002827,0.001186,0.0,0.0,0.0,-0.001474,-0.507246,0.001583,1.519551,-261.416306,1.530671,65.897961
11.7572,-0.002517,0.002997,0.001199,0.0,0.0,0.0,-0.001902,-0.507173,0.001186,1.519551,-261.416306,1.530671,65.897961
11.7776,-0.002673,0.002482,0.001438,0.0,0.0,0.0,-0.001905,-0.507017,0.001198,1.519551,-261.416306,1.530671,65.897961
11.7974,-0.002571,0.002905,0.001079,0.0,0.0,0.0,-0.001905,-0.507017,0.001198,1.519551,-261.416306,1.530671,65.897961
11.8172,-0.0024,0.002311,0.001166,0.0,0.0,0.0,-0.00202,-0.507095,0.001079,1.519551,-261.416306,1.530671,65.897961
11.8372,-0.002537,0.00249,-0.000681,0.0,0.0,0.0,-0.001934,-0.507335,0.001114,1.519551,-261.416306,1.530671,65.897961
11.8571,-0.00226,0.002894,0.000428,0.0,0.0,0.0,-0.002884,-0.50751,-0.000681,1.519551,-261.416306,1.530671,65.897961
11.8777,-0.002491,0.00263,0.002506,0.0,0.0,0.0,-0.002117,-0.507142,0.000328,1.519551,-261.416306,1.530671,65.897961
11.8973,-0.002174,0.003025,0.002571,0.0,0.0,0.0,-0.002117,-0.507142,0.000328,1.519551,-261.416306,1.530671,65.897961
11.9175,-0.002069,0.002792,0.002513,0.0,0.0,0.0,-0.000863,-0.506973,0.002571,1.519551,-261.416306,1.530671,65.897961
11.937,-0.002563,0.002738,0.003081,0.0,0.0,0.0,-0.000832,-0.507068,0.002547,1.519551,-261.416306,1.530671,65.897961
11.9576,-0.002209,0.002678,0.001109,0.0,0.0,0.0,-0.000992,-0.50726,0.003081,1.519551,-261.416306,1.530671,65.897961
11.9775,-0.002906,0.002853,0.001343,0.0,0.0,0.0,-0.001584,-0.507316,0.001289,1.519551,-261.416306,1.530671,65.897961
11.9975,-0.002451,0.002613,0.00015,0.0,0.0,0.0,-0.001584,-0.507316,0.001289,1.519551,-261.416306,1.530671,65.897961
12.0175,-0.002305,0.002765,0.002378,0.0,0.0,0.0,-0.002374,-0.507387,0.00015,1.519551,-261.416306,1.530671,65.897961
12.0374,-0.00234,0.003202,-0.00131,0.0,0.0,0.0,-0.001854,-0.507324,0.001054,1.519551,-261.416306,1.530671,65.897961
12.057,-0.002395,0.002993,0.003075,0.0,0.0,0.0,-0.003008,-0.506797,-0.00131,1.519551,-261.416306,1.530671,65.897961
12.0773,-0.002684,0.002882,0.000288,0.0,0.0,0.0,-0.001013,-0.506987,0.002701,1.519551,-261.416306,1.530671,65.897961
12.0973,-0.002601,0.00288,0.000982,0.0,0.0,0.0,-0.001013,-0.506987,0.002701,1.519551,-261.416306,1.530671,65.897961
12.1174,-0.00257,0.002767,0.000738,0.0,0.0,0.0,-0.002101,-0.50712,0.000982,1.519551,-261.416306,1.530671,65.897961
12.1372,-0.002629,0.002842,0.002634,0.0,0.0,0.0,-0.002138,-0.507165,0.000884,1.519551,-261.416306,1.530671,65.897961
12.157,-0.002612,0.002622,0.002653,0.0,0.0,0.0,-0.001286,-0.507156,0.002634,1.519551,-261.416306,1.530671,65.897961
12.1774,-0.002071,0.002975,0.002561,0.0,0.0,0.0,-0.001261,-0.507357,0.002651,1.519551,-261.416306,1.530671,65.897961
12.1973,-0.00267,0.002601,0.002015,0.0,0.0,0.0,-0.001261,-0.507357,0.002651,1.519551,-261.416306,1.530671,65.897961
12.2171,-0.002255,0.002601,0.00202,0.0,0.0,0.0,-0.001642,-0.507398,0.002015,1.519551,-261.416306,1.530671,65.897961
12.2369,-0.002366,0.002645,0.000492,0.0,0.0,0.0,-0.001471,-0.507398,0.002017,1.519551,-261.416306,1.530671,65.897961
12.2569,-0.002259,0.002707,0.001077,0.0,0.0,0.0,-0.002116,-0.507355,0.000492,1.519551,-261.416306,1.530671,65.897961
12.277,-0.002624,0.002662,0.001863,0.0,0.0,0.0,-0.001744,-0.507299,0.001026,1.519551,-261.416306,1.530671,65.897961
12.2973,-0.002595,0.002766,0.000793,0.0,0.0,0.0,-0.001744,-0.507299,0.001026,1.519551,-261.416306,1.530671,65.897961
12.3174,-0.002785,0.003118,-0.000283,0.0,0.0,0.0,-0.00219,-0.507234,0.000793,1.519551,-261.416306,1.530671,65.897961
12.3374,-0.002323,0.002944,0.001152,0.0,0.0,0.0,-0.002493,-0.50709,0.000353,1.519551,-261.416306,1.530671,65.897961
12.357,-0.002606,0.002669,0.000748,0.0,0.0,0.0,-0.001736,-0.507056,0.001152,1.519551,-261.416306,1.530671,65.897961
12.3773,-0.002726,0.002607,0.002547,0.0,0.0,0.0,-0.002181,-0.507306,0.000784,1.519551,-261.416306,1.530671,65.897961
12.3973,-0.002262,0.003014,-0.000272,0.0,0.0,0.0,-0.002181,-0.507306,0.000784,1.519551,-261.416306,1.530671,65.897961
12.417,-0.002448,0.002885,0.001439,0.0,0.0,0.0,-0.0024,-0.506986,-0.000272,1.519551,-261.416306,1.530671,65.897961
12.437,-0.002202,0.00271,0.001192,0.0,0.0,0.0,-0.002117,-0.507039,0.000434,1.519551,-261.416306,1.530671,65.897961
12.4569,-0.002441,0.002467,0.0018,0.0,0.0,0.0,-0.001594,-0.507289,0.001192,1.519551,-261.416306,1.530671,65.897961
12.4774,-0.00227,0.002979,0.000972,0.0,0.0,0.0,-0.001529,-0.507511,0.001748,1.519551,-261.416306,1.530671,65.897961
12.4971,-0.002442,0.002524,0.002743,0.0,0.0,0.0,-0.001529,-0.507511,0.001748,1.519551,-261.416306,1.530671,65.897961
12.5173,-0.002342,0.002905,0.001142,0.0,0.0,0.0,-0.001043,-0.507474,0.002743,1.519551,-261.416306,1.530671,65.897961
12.5373,-0.002477,0.002787,0.002097,0.0,0.0,0.0,-0.001335,-0.507319,0.002089,1.519551,-261.416306,1.530671,65.897961
12.5573,-0.002269,0.002689,-9.8e-05,0.0,0.0,0.0,-0.001408,-0.507212,0.002097,1.519551,-261.416306,1.530671,65.897961
12.577,-0.002579,0.002871,0.001077,0.0,0.0,0.0,-0.002241,-0.507302,8.8e-05,1.519551,-261.416306,1.530671,65.897961
12.5972,-0.002303,0.002935,0.001543,0.0,0.0,0.0,-0.002241,-0.507302,8.8e-05,1.519551,-261.416306,1.530671,65.897961
12.6175,-0.00252,0.002595,0.001223,0.0,0.0,0.0,-0.001516,-0.507064,0.001543,1.519551,-261.416306,1.530671,65.897961
12.637,-0.002949,0.002793,0.001859,0.0,0.0,0.0,-0.001671,-0.507204,0.001412,1.519551,-261.416306,1.530671,65.897961
12.6574,-0.0029,0.002553,0.003218,0.0,0.0,0.0,-0.002001,-0.507206,0.001859,1.519551,-261.416306,1.530671,65.897961
12.6775,-0.002694,0.00292,0.002312,0.0,0.0,0.0,-0.001324,-0.507423,0.003097,1.519551,-261.416306,1.530671,65.897961
12.6972,-0.002366,0.002563,0.001163,0.0,0.0,0.0,-0.001324,-0.507423,0.003097,1.519551,-261.416306,1.530671,65.897961
12.7175,-0.002479,0.002797,0.001756,0.0,0.0,0.0,-0.001773,-0.507437,0.001163,1.519551,-261.416306,1.530671,65.897961
12.737,-0.002539,0.002674,0.000717,0.0,0.0,0.0,-0.001696,-0.507341,0.001406,1.519551,-261.416306,1.530671,65.897961
12.7573,-0.002542,0.003275,0.000205,0.0,0.0,0.0,-0.002174,-0.507326,0.000717,1.519551,-261.416306,1.530671,65.897961
12.7775,-0.002244,0.002684,0.001099,0.0,0.0,0.0,-0.002414,-0.506778,0.00025,1.519551,-261.416306,1.530671,65.897961
12.7973,-0.002476,0.003093,0.001439,0.0,0.0,0.0,-0.002414,-0.506778,0.00025,1.519551,-261.416306,1.530671,65.897961
12.8173,-0.002283,0.002956,-0.000438,0.0,0.0,0.0,-0.001743,-0.506906,0.001439,1.519551,-261.416306,1.530671,65.897961
12.837,-0.00209,0.002774,0.00029,0.0,0.0,0.0,-0.002058,-0.506963,0.000663,1.519551,-261.416306,1.530671,65.897961
12.8572,-0.002304,0.002627,0.000663,0.0,0.0,0.0,-0.001942,-0.507226,0.00029,1.519551,-261.416306,1.530671,65.897961
12.8773,-0.002786,0.002723,0.00031,0.0,0.0,0.0,-0.001963,-0.507361,0.000632,1.519551,-261.416306,1.530671,65.897961
12.8969,-0.002655,0.002882,0.002344,0.0,0.0,0.0,-0.001963,-0.507361,0.000632,1.519551,-261.416306,1.530671,65.897961
12.9177,-0.002148,0.002582,0.000598,0.0,0.0,0.0,-0.001459,-0.507116,0.002344,1.519551,-261.416306,1.530671,65.897961
12.9374,-0.002224,0.003021,0.00069,0.0,0.0,0.0,-0.001618,-0.507241,0.001624,1.519551,-261.416306,1.530671,65.897961
12.9575,-0.002438,0.002981,0.001607,0.0,0.0,0.0,-0.001872,-0.506979,0.00069,1.519551,-261.416306,1.530671,65.897961
12.9775,-0.002706,0.002934,0.001996,0.0,0.0,0.0,-0.001641,-0.507015,0.001528,1.519551,-261.416306,1.530671,65.897961
12.9973,-0.002523,0.002962,0.000824,0.0,0.0,0.0,-0.001641,-0.507015,0.001528,1.519551,-261.416306,1.530671,65.897961
13.0169,-0.002871,0.002448,0.00067,0.0,0.0,0.0,-0.002103,-0.507038,0.000824,1.519551,-261.416306,1.530671,65.897961
13.0373,-0.002729,0.003032,0.002611,0.0,0.0,0.0,-0.002276,-0.507247,0.000761,1.519551,-261.416306,1.530671,65.897961
13.0575,-0.002398,0.002588,0.001584,0.0,0.0,0.0,-0.001397,-0.506967,0.002611,1.519551,-261.416306,1.530671,65.897961
13.0773,-0.002661,0.002719,0.000381,0.0,0.0,0.0,-0.001574,-0.507373,0.001674,1.519551,-261.416306,1.530671,65.897961
13.0979,-0.002641,0.002637,0.001172,0.0,0.0,0.0,-0.001574,-0.507373,0.001674,1.519551,-261.416306,1.530671,65.897961
13.1173,-0.002256,0.002659,0.000829,0.0,0.0,0.0,-0.002044,-0.507363,0.001172,1.519551,-261.416306,1.530671,65.897961
13.1377,-0.002466,0.002724,0.001053,0.0,0.0,0.0,-0.001961,-0.507354,0.001037,1.519551,-261.416306,1.530671,65.897961
13.1575,-0.002204,0.002567,0.001097,0.0,0.0,0.0,-0.001929,-0.507276,0.001053,1.519551,-261.416306,1.530671,65.897961
13.1775,-0.002495,0.002707,0.001744,0.0,0.0,0.0,-0.001671,-0.507418,0.001093,1.519551,-261.416306,1.530671,65.897961
13.1974,-0.002298,0.002773,0.001097,0.0,0.0,0.0,-0.001671,-0.507418,0.001093,1.519551,-261.416306,1.530671,65.897961
13.2171,-0.002639,0.002618,0.003411,0.0,0.0,0.0,-0.001739,-0.507227,0.001097,1.519551,-261.416306,1.530671,65.897961
13.2372,-0.002385,0.002944,0.001117,0.0,0.0,0.0,-0.001395,-0.507289,0.002044,1.519551,-261.416306,1.530671,65.897961
13.2572,-0.00219,0.00289,0.001618,0.0,0.0,0.0,-0.001816,-0.507056,0.001117,1.519551,-261.416306,1.530671,65.897961
13.2772,-0.002279,0.002954,0.00234,0.0,0.0,0.0,-0.001403,-0.507105,0.001575,1.519551,-261.416306,1.530671,65.897961
13.2974,-0.002664,0.002793,0.001047,0.0,0.0,0.0,-0.001403,-0.507105,0.001575,1.519551,-261.416306,1.530671,65.897961
13.3173,-0.002638,0.002786,0.002014,0.0,0.0,0.0,-0.00213,-0.507207,0.001047,1.519551,-261.416306,1.530671,65.897961
13.3371,-0.002469,0.002409,0.003122,0.0,0.0,0.0,-0.001915,-0.507209,0.001447,1.519551,-261.416306,1.530671,65.897961
13.3571,-0.002477,0.003093,-0.000533,0.0,0.0,0.0,-0.000876,-0.507588,0.003122,1.519551,-261.416306,1.530671,65.897961
13.3771,-0.002285,0.002849,0.000127,0.0,0.0,0.0,-0.002588,-0.506965,-0.000219,1.519551,-261.416306,1.530671,65.897961
13.3973,-0.00242,0.002523,0.003053,0.0,0.0,0.0,-0.002588,-0.506965,-0.000219,1.519551,-261.416306,1.530671,65.897961
13.4173,-0.002624,0.002712,0.000698,0.0,0.0,0.0,-0.000863,-0.507474,0.003053,1.519551,-261.416306,1.530671,65.897961
13.4372,-0.002383,0.002818,0.002133,0.0,0.0,0.0,-0.001442,-0.507398,0.002082,1.519551,-261.416306,1.530671,65.897961
13.4575,-0.002465,0.003017,0.000485,0.0,0.0,0.0,-0.001295,-0.507181,0.002133,1.519551,-261.416306,1.530671,65.897961
13.4773,-0.002349,0.003011,0.000141,0.0,0.0,0.0,-0.002143,-0.506999,0.000619,1.519551,-261.416306,1.530671,65.897961
13.4975,-0.002388,0.003235,0.001561,0.0,0.0,0.0,-0.002143,-0.506999,0.000619,1.519551,-261.416306,1.530671,65.897961
13.5173,-0.002628,0.002498,0.000613,0.0,0.0,0.0,-0.001591,-0.506764,0.001561,1.519551,-261.416306,1.530671,65.897961
13.5373,-0.002147,0.002398,0.001117,0.0,0.0,0.0,-0.00189,-0.507069,0.00117,1.519551,-261.416306,1.530671,65.897961
13.5571,-0.002799,0.002726,0.002142,0.0,0.0,0.0,-0.001577,-0.507602,0.001117,1.519551,-261.416306,1.530671,65.897961
13.5773,-0.002356,0.002812,0.001275,0.0,0.0,0.0,-0.001696,-0.507301,0.002053,1.519551,-261.416306,1.530671,65.897961
13.5975,-0.002564,0.002908,0.002243,0.0,0.0,0.0,-0.001696,-0.507301,0.002053,1.519551,-261.416306,1.530671,65.897961
13.6171,-0.00184,0.002705,0.001356,0.0,0.0,0.0,-0.00142,-0.50709,0.002243,1.519551,-261.416306,1.530671,65.897961
13.637,-0.002363,0.002942,0.00209,0.0,0.0,0.0,-0.001308,-0.507175,0.001878,1.519551,-261.416306,1.530671,65.897961
13.6568,-0.002279,0.002801,0.000633,0.0,0.0,0.0,-0.001297,-0.507057,0.00209,1.519551,-261.416306,1.530671,65.897961
13.6777,-0.002363,0.002693,0.001563,0.0,0.0,0.0,-0.001898,-0.507186,0.000764,1.519551,-261.416306,1.530671,65.897961
13.6973,-0.002643,0.002703,0.001555,0.0,0.0,0.0,-0.001898,-0.507186,0.000764,1.519551,-261.416306,1.530671,65.897961
13.717,-0.002548,0.002519,0.000952,0.0,0.0,0.0,-0.00185,-0.507297,0.001555,1.519551,-261.416306,1.530671,65.897961
13.7371,-0.002469,0.002931,0.001673,0.0,0.0,0.0,-0.001949,-0.507382,0.001275,1.519551,-261.416306,1.530671,65.897961
13.757,-0.00241,0.002742,0.001424,0.0,0.0,0.0,-0.001616,-0.507068,0.001673,1.519551,-261.416306,1.530671,65.897961
13.7771,-0.002557,0.002811,0.001291,0.0,0.0,0.0,-0.001678,-0.50724,0.001446,1.519551,-261.416306,1.530671,65.897961
13.7976,-0.002354,0.002681,0.002932,0.0,0.0,0.0,-0.001678,-0.50724,0.001446,1.519551,-261.416306,1.530671,65.897961
13.8175,-0.002196,0.002824,0.002157,0.0,0.0,0.0,-0.000858,-0.507316,0.002932,1.519551,-261.416306,1.530671,65.897961
13.8375,-0.002142,0.002466,0.002023,0.0,0.0,0.0,-0.000956,-0.507258,0.002612,1.519551,-261.416306,1.530671,65.897961
13.8579,-0.00278,0.003183,0.000351,0.0,0.0,0.0,-0.001111,-0.507532,0.002023,1.519551,-261.416306,1.530671,65.897961
13.8774,-0.002481,0.003113,0.002703,0.0,0.0,0.0,-0.002473,-0.506878,0.000495,1.519551,-261.416306,1.530671,65.897961
13.8973,-0.002128,0.0027,0.001751,0.0,0.0,0.0,-0.002473,-0.506878,0.000495,1.519551,-261.416306,1.530671,65.897961
13.9172,-0.002382,0.002774,0.001062,0.0,0.0,0.0,-0.001236,-0.507299,0.001751,1.519551,-261.416306,1.530671,65.897961
13.937,-0.002755,0.002319,0.000479,0.0,0.0,0.0,-0.001485,-0.507269,0.001467,1.519551,-261.416306,1.530671,65.897961
13.9569,-0.00237,0.002383,0.000549,0.0,0.0,0.0,-0.00251,-0.507681,0.000479,1.519551,-261.416306,1.530671,65.897961
13.9771,-0.002517,0.002859,0.00101,0.0,0.0,0.0,-0.002128,-0.507622,0.000542,1.519551,-261.416306,1.530671,65.897961
13.9972,-0.002551,0.002635,-1.1e-05,0.0,0.0,0.0,-0.002128,-0.507622,0.000542,1.519551,-261.416306,1.530671,65.897961
14.017,-0.002456,0.002788,0.000596,0.0,0.0,0.0,-0.002557,-0.507365,-1.1e-05,1.519551,-261.416306,1.530671,65.897961
14.0371,-0.002286,0.002914,0.000237,0.0,0.0,0.0,-0.002392,-0.507303,0.000236,1.519551,-261.416306,1.530671,65.897961
14.0568,-0.002708,0.002989,0.001617,0.0,0.0,0.0,-0.002165,-0.507086,0.000237,1.519551,-261.416306,1.530671,65.897961
14.0775,-0.002278,0.00279,0.000862,0.0,0.0,0.0,-0.001907,-0.507016,0.001499,1.519551,-261.416306,1.530671,65.897961
14.0976,-0.002687,0.002473,0.000662,0.0,0.0,0.0,-0.001907,-0.507016,0.001499,1.519551,-261.416306,1.530671,65.897961
14.1175,-0.002475,0.002528,0.001885,0.0,0.0,0.0,-0.002349,-0.507527,0.000662,1.519551,-261.416306,1.530671,65.897961
14.1374,-0.00249,0.002771,0.000284,0.0,0.0,0.0,-0.00201,-0.507504,0.001158,1.519551,-261.416306,1.530671,65.897961
14.157,-0.002471,0.002627,0.000274,0.0,0.0,0.0,-0.002345,-0.507229,0.000284,1.519551,-261.416306,1.530671,65.897961
14.1775,-0.002217,0.00285,7e-05,0.0,0.0,0.0,-0.002332,-0.507361,0.000275,1.519551,-261.416306,1.530671,65.897961
14.1974,-0.002363,0.002577,0.000869,0.0,0.0,0.0,-0.002332,-0.507361,0.000275,1.519551,-261.416306,1.530671,65.897961
14.2174,-0.002256,0.002637,0.001397,0.0,0.0,0.0,-0.00192,-0.507422,0.000869,1.519551,-261.416306,1.530671,65.897961
14.2372,-0.002525,0.002804,0.001708,0.0,0.0,0.0,-0.001769,-0.507399,0.00108,1.519551,-261.416306,1.530671,65.897961
14.2572,-0.002344,0.003084,0.000285,0.0,0.0,0.0,-0.001653,-0.507195,0.001708,1.519551,-261.416306,1.530671,65.897961
14.2775,-0.002081,0.002651,0.000361,0.0,0.0,0.0,-0.002147,-0.506942,0.000419,1.519551,-261.416306,1.530671,65.897961
14.2974,-0.002482,0.002823,0.001483,0.0,0.0,0.0,-0.002147,-0.506942,0.000419,1.519551,-261.416306,1.530671,65.897961
14.317,-0.002654,0.002704,0.000607,0.0,0.0,0.0,-0.001726,-0.507176,0.001483,1.519551,-261.416306,1.530671,65.897961
14.337,-0.002305,0.002994,0.001634,0.0,0.0,0.0,-0.001974,-0.507224,0.001132,1.519551,-261.416306,1.530671,65.897961
14.3575,-0.002668,0.002471,0.00045,0.0,0.0,0.0,-0.001471,-0.507005,0.001634,1.519551,-261.416306,1.530671,65.897961
14.3775,-0.002525,0.002684,0.002439,0.0,0.0,0.0,-0.002356,-0.507484,0.00055,1.519551,-261.416306,1.530671,65.897961
14.3973,-0.002517,0.002451,0.001448,0.0,0.0,0.0,-0.002356,-0.507484,0.00055,1.519551,-261.416306,1.530671,65.897961
14.417,-0.002817,0.002858,0.001628,0.0,0.0,0.0,-0.001779,-0.507548,0.001448,1.519551,-261.416306,1.530671,65.897961
14.4371,-0.002654,0.002865,0.002251,0.0,0.0,0.0,-0.001865,-0.50738,0.001522,1.519551,-261.416306,1.530671,65.897961
14.4569,-0.002323,0.002685,0.001407,0.0,0.0,0.0,-0.001506,-0.507133,0.002251,1.519551,-261.416306,1.530671,65.897961
14.4769,-0.002471,0.002819,0.001593,0.0,0.0,0.0,-0.001596,-0.507299,0.00148,1.519551,-261.416306,1.530671,65.897961
14.497,-0.002075,0.002751,0.002061,0.0,0.0,0.0,-0.001596,-0.507299,0.00148,1.519551,-261.416306,1.530671,65.897961
14.5171,-0.002353,0.002952,0.001604,0.0,0.0,0.0,-0.001024,-0.507248,0.002061,1.519551,-261.416306,1.530671,65.897961
14.537,-0.002482,0.002854,0.002253,0.0,0.0,0.0,-0.001233,-0.507166,0.001874,1.519551,-261.416306,1.530671,65.897961
14.5572,-0.002171,0.002943,0.001602,0.0,0.0,0.0,-0.001333,-0.507144,0.002253,1.519551,-261.416306,1.530671,65.897961
14.5774,-0.002691,0.00241,0.002213,0.0,0.0,0.0,-0.001352,-0.507064,0.001658,1.519551,-261.416306,1.530671,65.897961
14.5971,-0.002499,0.00237,0.001473,0.0,0.0,0.0,-0.001352,-0.507064,0.001658,1.519551,-261.416306,1.530671,65.897961
14.6173,-0.002124,0.002842,0.001488,0.0,0.0,0.0,-0.001748,-0.50763,0.001473,1.519551,-261.416306,1.530671,65.897961
14.6371,-0.002402,0.002353,0.002014,0.0,0.0,0.0,-0.00159,-0.507435,0.001479,1.519551,-261.416306,1.530671,65.897961
14.6569,-0.00204,0.002751,0.002306,0.0,0.0,0.0,-0.001376,-0.507646,0.002014,1.519551,-261.416306,1.530671,65.897961
14.6774,-0.00268,0.00281,0.000743,0.0,0.0,0.0,-0.000907,-0.50728,0.002281,1.519551,-261.416306,1.530671,65.897961
14.6973,-0.002595,0.002826,0.000702,0.0,0.0,0.0,-0.000907,-0.50728,0.002281,1.519551,-261.416306,1.530671,65.897961
14.7173,-0.002337,0.003196,0.000183,0.0,0.0,0.0,-0.002236,-0.507174,0.000702,1.519551,-261.416306,1.530671,65.897961
14.7371,-0.00222,0.002813,0.001363,0.0,0.0,0.0,-0.002239,-0.507023,0.00049,1.519551,-261.416306,1.530671,65.897961
14.7573,-0.00264,0.00289,0.001016,0.0,0.0,0.0,-0.001525,-0.507186,0.001363,1.519551,-261.416306,1.530671,65.897961
14.7774,-0.002278,0.002394,0.002169,0.0,0.0,0.0,-0.00207,-0.507117,0.001046,1.519551,-261.416306,1.530671,65.897961
14.7972,-0.002351,0.002997,0.001378,0.0,0.0,0.0,-0.00207,-0.507117,0.001046,1.519551,-261.416306,1.530671,65.897961
14.8172,-0.002238,0.002725,0.000523,0.0,0.0,0.0,-0.001648,-0.507003,0.001378,1.519551,-261.416306,1.530671,65.897961
14.8372,-0.001905,0.002814,0.001096,0.0,0.0,0.0,-0.001782,-0.507115,0.001026,1.519551,-261.416306,1.530671,65.897961
14.8569,-0.002487,0.002381,0.00068,0.0,0.0,0.0,-0.001346,-0.507186,0.001096,1.519551,-261.416306,1.530671,65.897961
14.8775,-0.002591,0.002562,0.003486,0.0,0.0,0.0,-0.002068,-0.50758,0.000718,1.519551,-261.416306,1.530671,65.897961
14.8973,-0.002404,0.002695,0.002061,0.0,0.0,0.0,-0.002068,-0.50758,0.000718,1.519551,-261.416306,1.530671,65.897961
14.9174,-0.0026,0.002499,0.001248,0.0,0.0,0.0,-0.001353,-0.507304,0.002061,1.519551,-261.416306,1.530671,65.897961
14.9373,-0.002754,0.002592,0.001205,0.0,0.0,0.0,-0.001603,-0.507385,0.001728,1.519551,-261.416306,1.530671,65.897961
14.9569,-0.002331,0.002856,-0.000123,0.0,0.0,0.0,-0.002139,-0.507408,0.001205,1.519551,-261.416306,1.530671,65.897961
14.9774,-0.002386,0.002674,0.001756,0.0,0.0,0.0,-0.002371,-0.507167,-4e-06,1.519551,-261.416306,1.530671,65.897961
14.9975,-0.002477,0.002985,0.002704,0.0,0.0,0.0,-0.002371,-0.507167,-4e-06,1.519551,-261.416306,1.530671,65.897961
15.0172,-0.002771,0.00292,0.002862,0.0,0.0,0.0,-0.001097,-0.507013,0.002704,1.519551,-261.416306,1.530671,65.897961
15.0374,-0.002474,0.002742,0.001159,0.0,0.0,0.0,-0.001183,-0.507039,0.002768,1.519551,-261.416306,1.530671,65.897961
15.0574,-0.002531,0.002982,0.001894,0.0,0.0,0.0,-0.001883,-0.507258,0.001159,1.519551,-261.416306,1.530671,65.897961
15.0773,-0.00233,0.003264,0.00146,0.0,0.0,0.0,-0.001592,-0.507038,0.00183,1.519551,-261.416306,1.530671,65.897961
15.0975,-0.002267,0.003088,0.001448,0.0,0.0,0.0,-0.001592,-0.507038,0.00183,1.519551,-261.416306,1.530671,65.897961
15.1172,-0.002633,0.002703,0.001108,0.0,0.0,0.0,-0.001528,-0.506911,0.001448,1.519551,-261.416306,1.530671,65.897961
15.1373,-0.002627,0.002917,-4e-05,0.0,0.0,0.0,-0.001749,-0.507069,0.001309,1.519551,-261.416306,1.530671,65.897961
15.1573,-0.002301,0.002623,0.000815,0.0,0.0,0.0,-0.002647,-0.507083,-4e-05,1.519551,-261.416306,1.530671,65.897961
15.1773,-0.002314,0.002942,0.001243,0.0,0.0,0.0,-0.001953,-0.50735,0.000739,1.519551,-261.416306,1.530671,65.897961
15.1971,-0.002376,0.002731,0.002456,0.0,0.0,0.0,-0.001953,-0.50735,0.000739,1.519551,-261.416306,1.530671,65.897961
