mach0312/omni-docking-bench/src/icros_test_setup/results/MPPI_sample/timeseries/trial_090.csv
t,x,y,yaw,vx,vy,wz,bl_x,bl_y,bl_yaw,front_steering_joint,front_wheel_joint,rear_steering_joint,rear_wheel_joint
0.0,-0.026743,0.019031,0.085637,0.008608,0.000822,0.004588,0.016365,-0.489303,0.08563,0.398526,-261.964445,-0.226054,65.522763
0.0005,-0.026429,0.018928,0.087493,0.004294,0.00041,0.002288,0.016387,-0.489365,0.085594,0.398526,-261.960709,-0.226054,65.526296
0.0008,-0.026289,0.019203,0.087187,0.003533,0.000338,0.001883,0.016387,-0.489365,0.085594,0.398526,-261.957516,-0.226054,65.529316
0.0011,-0.026608,0.018946,0.086132,0.002724,0.00026,0.001452,0.017554,-0.489204,0.087398,0.398526,-261.954791,-0.226054,65.531893
0.0014,-0.026429,0.019101,0.087511,0.001865,0.000178,0.000994,0.017048,-0.489017,0.08652,0.398526,-261.952926,-0.226054,65.533656
0.0017,-0.026432,0.018816,0.087001,0.000958,9.2e-05,0.000511,0.017048,-0.489017,0.08652,0.398526,-261.951743,-0.226054,65.534775
0.0021,-0.026662,0.018918,0.086881,3e-06,0.0,1e-06,0.017048,-0.489017,0.08652,0.398526,-261.951742,-0.226054,65.534776
0.0023,-0.026376,0.019234,0.086521,0.0,0.0,0.0,0.017604,-0.489009,0.087037,0.398526,-261.951742,-0.226054,65.534776
0.0026,-0.026007,0.019158,0.087481,0.0,0.0,0.0,0.017604,-0.489009,0.087037,0.398526,-261.951742,-0.226054,65.534776
0.0029,-0.026411,0.019266,0.087288,0.0,0.0,0.0,0.017339,-0.48904,0.086477,0.398526,-261.951742,-0.226054,65.534776
0.0075,-0.026622,0.018922,0.087214,0.0,0.0,0.0,0.01805,-0.488792,0.087288,0.398526,-261.951742,-0.226054,65.534776
0.0278,-0.026143,0.019635,0.086979,0.0,0.0,0.0,0.017946,-0.488937,0.087257,0.398526,-261.951742,-0.226054,65.534776
0.0473,-0.026663,0.018932,0.086799,0.0,0.0,0.0,0.01816,-0.488438,0.086979,0.398526,-261.951742,-0.226054,65.534776
0.0674,-0.026228,0.019343,0.086988,0.0,0.0,0.0,0.017602,-0.489086,0.086814,0.398526,-261.951742,-0.226054,65.534776
0.0874,-0.026787,0.019416,0.086576,0.0,0.0,0.0,0.017602,-0.489086,0.086814,0.398526,-261.951742,-0.226054,65.534776
0.1076,-0.026072,0.019093,0.085297,0.0,0.0,0.0,0.017312,-0.488674,0.086576,0.398526,-261.951742,-0.226054,65.534776
0.1275,-0.02648,0.019531,0.08571,-0.002974,-0.007145,-0.015889,0.017339,-0.48883,0.08605,0.398526,-261.951742,-0.226054,65.534776
0.1474,-0.026181,0.018983,0.088619,-0.003142,-0.007638,-0.016546,0.017179,-0.488597,0.08571,0.398526,-261.951742,-0.226054,65.534776
0.1673,-0.026365,0.019118,0.084684,-0.003305,-0.008025,-0.01709,0.018794,-0.488977,0.088354,0.398526,-261.951742,-0.226054,65.534776
0.188,-0.026352,0.018635,0.086363,-0.003439,-0.008352,-0.017479,0.018794,-0.488977,0.088354,0.398526,-261.951742,-0.226054,65.534776
0.2072,-0.026061,0.019352,0.085947,-0.003439,-0.008352,-0.017479,0.017639,-0.489464,0.086363,0.473396,-261.951742,-0.300925,65.534776
0.2274,-0.02642,0.019259,0.086943,-0.003604,-0.008896,-0.018066,0.017671,-0.489181,0.086195,0.473396,-261.951742,-0.300925,65.534776
0.2475,-0.026119,0.019375,0.088727,-0.003663,-0.009106,-0.01824,0.017865,-0.488814,0.086943,0.548394,-261.951742,-0.375922,65.534776
0.2675,-0.026003,0.019153,0.085622,-0.003725,-0.009269,-0.01843,0.018957,-0.488638,0.088555,0.548394,-261.951742,-0.375922,65.534776
0.2874,-0.026423,0.019116,0.087679,-0.003775,-0.009408,-0.018566,0.018957,-0.488638,0.088555,0.548394,-261.951742,-0.375922,65.534776
0.3076,-0.026541,0.01902,0.086171,-0.003775,-0.009408,-0.018566,0.018235,-0.488925,0.087679,0.623392,-261.951743,-0.450921,65.534776
0.3276,-0.02636,0.018913,0.087153,-0.003824,-0.009652,-0.018981,0.017879,-0.488991,0.08707,0.623392,-261.951743,-0.450921,65.534776
0.3475,-0.026188,0.019074,0.08724,-0.003842,-0.009747,-0.01911,0.018032,-0.489152,0.087153,0.698402,-261.951744,-0.472951,65.534776
0.3676,-0.026466,0.019395,0.087624,-0.003862,-0.009822,-0.019205,0.018229,-0.489001,0.087233,0.698402,-261.951744,-0.472951,65.534776
0.3872,-0.026245,0.019097,0.087205,-0.003877,-0.009885,-0.019275,0.018229,-0.489001,0.087233,0.698402,-261.951744,-0.472951,65.534776
0.4078,-0.026374,0.018634,0.085557,-0.003877,-0.009885,-0.019275,0.018174,-0.488965,0.087205,0.773404,-261.951746,-0.464378,65.534775
0.4276,-0.026481,0.019154,0.08829,-0.00389,-0.009996,-0.019362,0.017777,-0.489185,0.086529,0.773404,-261.951746,-0.464378,65.534775
0.4475,-0.026228,0.019196,0.086693,-0.003895,-0.010039,-0.019389,0.018489,-0.48886,0.08829,0.848492,-261.951759,-0.452879,65.534773
0.4675,-0.026191,0.019148,0.086909,-0.003897,-0.010076,-0.019409,0.01798,-0.488886,0.086836,0.848492,-261.951759,-0.452879,65.534773
0.4873,-0.026576,0.018924,0.086524,-0.003899,-0.010108,-0.019423,0.01798,-0.488886,0.086836,0.848492,-261.951759,-0.452879,65.534773
0.5078,-0.026343,0.019247,0.086429,-0.003899,-0.010108,-0.019423,0.017494,-0.489171,0.086519,0.923407,-261.951818,-0.433599,65.534762
0.5278,-0.02612,0.01911,0.086963,-0.003891,-0.010168,-0.019442,0.017571,-0.489039,0.086482,0.923407,-261.951818,-0.433599,65.534762
0.5475,-0.026557,0.018875,0.088025,-0.003887,-0.010192,-0.019448,0.018169,-0.48897,0.08695,0.998521,-261.952038,-0.422987,65.534719
0.5675,-0.026107,0.018866,0.086336,-0.003898,-0.010196,-0.019454,0.018268,-0.489135,0.087932,0.998521,-261.952038,-0.422987,65.534719
0.5876,-0.026204,0.019104,0.087327,-0.003907,-0.0102,-0.019459,0.018268,-0.489135,0.087932,0.998521,-261.952038,-0.422987,65.534719
0.6072,-0.026108,0.019153,0.08697,-0.003907,-0.0102,-0.019459,0.018256,-0.488982,0.087273,1.073528,-261.9527,-0.409259,65.534594
0.6273,-0.026378,0.018832,0.08533,-0.003914,-0.010214,-0.019464,0.018227,-0.48896,0.087142,1.073528,-261.9527,-0.409259,65.534594
0.6475,-0.026056,0.019582,0.088165,-0.003917,-0.01022,-0.019465,0.017054,-0.48937,0.085224,1.148552,-261.954353,-0.407009,65.534281
0.6675,-0.026275,0.019113,0.086815,-0.003921,-0.010223,-0.019466,0.018695,-0.48852,0.087909,1.148552,-261.954353,-0.407009,65.534281
0.6873,-0.026397,0.018515,0.08696,-0.003924,-0.010225,-0.019467,0.018695,-0.48852,0.087909,1.148552,-261.954353,-0.407009,65.534281
0.7073,-0.026011,0.018574,0.085875,-0.003924,-0.010225,-0.019467,0.01782,-0.489717,0.086669,1.223515,-261.957704,-0.402661,65.533645
0.7275,-0.025902,0.01863,0.085961,-0.00393,-0.010227,-0.019746,0.017775,-0.489665,0.086309,1.223515,-261.957704,-0.402661,65.533645
0.7476,-0.025836,0.018713,0.086079,-0.003933,-0.010228,-0.019835,0.017803,-0.489692,0.085584,1.298526,-261.963287,-0.401117,65.532586
0.7673,-0.025981,0.01848,0.084858,-0.003937,-0.010228,-0.020037,0.017987,-0.489436,0.086015,1.298526,-261.963287,-0.401117,65.532586
0.7874,-0.026055,0.01826,0.086178,-0.00394,-0.010228,-0.020189,0.017987,-0.489436,0.086015,1.298526,-261.963287,-0.401117,65.532586
0.8075,-0.025476,0.018029,0.084376,-0.00394,-0.010228,-0.020189,0.017727,-0.490213,0.085491,1.3734,-261.970819,-0.447129,65.531137
0.8275,-0.025417,0.0183,0.085501,-0.003955,-0.010216,-0.020689,0.017623,-0.490232,0.084958,1.3734,-261.970819,-0.447129,65.531137
0.8471,-0.025506,0.017806,0.082449,-0.003962,-0.010211,-0.020855,0.018042,-0.490159,0.084883,1.397889,-261.979627,-0.490246,65.52942
0.8677,-0.024749,0.01809,0.083511,-0.003953,-0.010224,-0.021156,0.016622,-0.490451,0.082626,1.397889,-261.979627,-0.490246,65.52942
0.8873,-0.025103,0.017722,0.084369,-0.003945,-0.010235,-0.02139,0.016622,-0.490451,0.082626,1.397889,-261.979627,-0.490246,65.52942
0.9072,-0.024727,0.017543,0.081586,-0.003945,-0.010235,-0.02139,0.017756,-0.490862,0.083579,1.399819,-261.988074,-0.565271,65.527715
0.9276,-0.024857,0.016973,0.081235,-0.003973,-0.010209,-0.021986,0.017367,-0.490867,0.082673,1.399819,-261.988074,-0.565271,65.527715
0.9474,-0.024767,0.016553,0.082584,-0.003984,-0.010199,-0.022191,0.016433,-0.491663,0.080588,1.403063,-261.997047,-0.622159,65.525872
0.9672,-0.024686,0.017183,0.081402,-0.004006,-0.010176,-0.022494,0.01722,-0.491721,0.082371,1.403063,-261.997047,-0.622159,65.525872
0.9872,-0.024805,0.016787,0.081918,-0.004026,-0.010156,-0.022733,0.01722,-0.491721,0.082371,1.403063,-261.997047,-0.622159,65.525872
1.0076,-0.024286,0.016194,0.080238,-0.004026,-0.010156,-0.022733,0.016807,-0.491901,0.081075,1.404606,-262.005809,-0.697147,65.523977
1.0276,-0.024292,0.01634,0.082496,-0.004051,-0.010133,-0.023283,0.016704,-0.492056,0.080633,1.404606,-262.005809,-0.697147,65.523977
1.0471,-0.023692,0.015667,0.078694,-0.004062,-0.010125,-0.02348,0.017637,-0.492245,0.081803,1.404881,-262.015163,-0.747016,65.521871
1.0678,-0.023631,0.015855,0.081145,-0.004079,-0.010107,-0.023742,0.016508,-0.492725,0.078939,1.404881,-262.015163,-0.747016,65.521871
1.0877,-0.024038,0.015878,0.079756,-0.004094,-0.010093,-0.023954,0.016508,-0.492725,0.078939,1.404881,-262.015163,-0.747016,65.521871
1.1074,-0.023713,0.015419,0.078457,-0.004094,-0.010093,-0.023954,0.016466,-0.492915,0.078824,1.406279,-262.024579,-0.804019,65.519649
1.1276,-0.023052,0.015216,0.078216,-0.004124,-0.010063,-0.024425,0.016366,-0.493002,0.078566,1.406279,-262.024579,-0.804019,65.519649
1.1474,-0.02312,0.01507,0.077723,-0.004137,-0.010052,-0.024596,0.016695,-0.493549,0.077467,1.406693,-262.03449,-0.836719,65.517232
1.1673,-0.022839,0.015268,0.076861,-0.004157,-0.010029,-0.024811,0.01649,-0.493416,0.077671,1.406693,-262.03449,-0.836719,65.517232
1.1877,-0.022546,0.015094,0.077748,-0.004175,-0.01001,-0.024986,0.01649,-0.493416,0.077671,1.406693,-262.03449,-0.836719,65.517232
1.2076,-0.022676,0.014195,0.075884,-0.004175,-0.01001,-0.024986,0.01693,-0.493784,0.076751,1.407291,-262.044358,-0.876696,65.514721
1.2277,-0.022378,0.014842,0.077607,-0.004227,-0.00995,-0.025347,0.016526,-0.494061,0.076278,1.407291,-262.044358,-0.876696,65.514721
1.2474,-0.022031,0.013857,0.074895,-0.004249,-0.009927,-0.02548,0.017054,-0.49395,0.076814,1.407043,-262.054506,-0.898919,65.512063
1.2675,-0.021767,0.013629,0.075039,-0.004272,-0.009899,-0.025627,0.01621,-0.49466,0.075031,1.407043,-262.054506,-0.898919,65.512063
1.2876,-0.022041,0.014173,0.074935,-0.004293,-0.009875,-0.025747,0.01621,-0.49466,0.075031,1.407043,-262.054506,-0.898919,65.512063
1.3077,-0.021693,0.013648,0.073964,-0.004293,-0.009875,-0.025747,0.015995,-0.494819,0.07388,1.405629,-262.064731,-0.924775,65.509271
1.3281,-0.021683,0.013901,0.073554,-0.004327,-0.009837,-0.025971,0.015978,-0.494924,0.073792,1.405629,-262.064731,-0.924775,65.509271
1.3476,-0.02114,0.01342,0.071708,-0.004342,-0.009822,-0.026054,0.015682,-0.495045,0.072733,1.404656,-262.075087,-0.93772,65.506376
1.3678,-0.021009,0.013371,0.071687,-0.00435,-0.009815,-0.026137,0.01542,-0.495265,0.07176,1.404656,-262.075087,-0.93772,65.506376
1.3878,-0.021173,0.012886,0.07262,-0.004357,-0.009809,-0.026205,0.01542,-0.495265,0.07176,1.404656,-262.075087,-0.93772,65.506376
1.4073,-0.020622,0.012686,0.071137,-0.004357,-0.009809,-0.026205,0.015679,-0.496193,0.071531,1.403661,-262.085494,-0.951491,65.503393
1.4274,-0.020539,0.012445,0.071969,-0.004408,-0.00974,-0.026343,0.015641,-0.496173,0.071247,1.403661,-262.085494,-0.951491,65.503393
1.4476,-0.02027,0.012083,0.068895,-0.004429,-0.009714,-0.026395,0.016018,-0.496556,0.071135,1.403595,-262.095958,-0.957979,65.500365
1.4675,-0.020113,0.012038,0.069723,-0.004445,-0.009694,-0.026449,0.014941,-0.49671,0.069057,1.403595,-262.095958,-0.957979,65.500365
1.4878,-0.019977,0.012133,0.069346,-0.004459,-0.009677,-0.026493,0.014941,-0.49671,0.069057,1.403595,-262.095958,-0.957979,65.500365
1.5075,-0.019511,0.011757,0.069584,-0.004459,-0.009677,-0.026493,0.015204,-0.497059,0.068242,1.401005,-262.106431,-0.965927,65.497253
1.5276,-0.019371,0.011619,0.070111,-0.004511,-0.009603,-0.026587,0.015489,-0.497087,0.068662,1.401005,-262.106431,-0.965927,65.497253
1.5478,-0.018879,0.011001,0.067569,-0.004533,-0.009574,-0.026621,0.016236,-0.497445,0.069267,1.400043,-262.116963,-0.969819,65.494088
1.5677,-0.019315,0.011165,0.067139,-0.004566,-0.009522,-0.02666,0.015611,-0.497816,0.06768,1.400043,-262.116963,-0.969819,65.494088
1.5876,-0.018982,0.011531,0.067664,-0.004596,-0.009478,-0.026692,0.015611,-0.497816,0.06768,1.400043,-262.116963,-0.969819,65.494088
1.6076,-0.01875,0.010888,0.06606,-0.004596,-0.009478,-0.026692,0.015338,-0.497713,0.066555,1.397106,-262.127425,-0.974971,65.490867
1.6276,-0.018654,0.011078,0.06622,-0.004631,-0.00943,-0.026749,0.015147,-0.497878,0.066224,1.397106,-262.127425,-0.974971,65.490867
1.6477,-0.018025,0.010321,0.063284,-0.004645,-0.009412,-0.026771,0.014967,-0.498115,0.065371,1.394392,-262.13788,-0.978101,65.487582
1.6678,-0.01807,0.010712,0.06575,-0.004659,-0.009393,-0.026794,0.014289,-0.498625,0.06343,1.394392,-262.13788,-0.978101,65.487582
1.6876,-0.017961,0.010064,0.064719,-0.00467,-0.009378,-0.026812,0.014289,-0.498625,0.06343,1.394392,-262.13788,-0.978101,65.487582
1.7077,-0.017307,0.010172,0.063227,-0.00467,-0.009378,-0.026812,0.014853,-0.499274,0.063597,1.39239,-262.148363,-0.980826,65.484238
1.7278,-0.017351,0.00996,0.061936,-0.004724,-0.009288,-0.026854,0.01486,-0.49913,0.063317,1.39239,-262.148363,-0.980826,65.484238
1.7474,-0.017321,0.009493,0.061408,-0.004746,-0.009254,-0.026869,0.014085,-0.49937,0.06108,1.3914,-262.158819,-0.982286,65.480877
1.7675,-0.017285,0.009646,0.061613,-0.004759,-0.009233,-0.026883,0.013981,-0.499545,0.061333,1.3914,-262.158819,-0.982286,65.480877
1.7877,-0.017005,0.00943,0.061484,-0.004771,-0.009216,-0.026894,0.013981,-0.499545,0.061333,1.3914,-262.158819,-0.982286,65.480877
1.8076,-0.017015,0.009323,0.06013,-0.004771,-0.009216,-0.026894,0.014157,-0.500007,0.060354,1.38795,-262.169255,-0.985229,65.477444
1.8277,-0.0168,0.009016,0.05942,-0.004805,-0.009161,-0.026918,0.013928,-0.499952,0.060137,1.38795,-262.169255,-0.985229,65.477444
1.8474,-0.015987,0.008491,0.057699,-0.004818,-0.00914,-0.026927,0.013351,-0.500387,0.05856,1.386818,-262.179687,-0.98616,65.473986
1.8676,-0.015988,0.008605,0.05766,-0.004836,-0.009106,-0.026937,0.01341,-0.500651,0.057733,1.386818,-262.179687,-0.98616,65.473986
1.8876,-0.016015,0.008707,0.058314,-0.004852,-0.009078,-0.026945,0.01341,-0.500651,0.057733,1.386818,-262.179687,-0.98616,65.473986
1.9076,-0.015988,0.008233,0.05828,-0.004852,-0.009078,-0.026945,0.013529,-0.500821,0.057183,1.384661,-262.190118,-0.987772,65.470479
1.9278,-0.01583,0.007979,0.057196,-0.004892,-0.009004,-0.026961,0.013585,-0.500899,0.057501,1.384661,-262.190118,-0.987772,65.470479
1.9474,-0.015652,0.007964,0.057543,-0.004908,-0.008975,-0.026967,0.013186,-0.501484,0.056338,1.383012,-262.200514,-0.98906,65.466947
1.9677,-0.015217,0.008163,0.057166,-0.004929,-0.008933,-0.026974,0.013627,-0.501234,0.05739,1.383012,-262.200514,-0.98906,65.466947
1.9876,-0.015226,0.007796,0.056109,-0.004948,-0.008898,-0.026979,0.013627,-0.501234,0.05739,1.383012,-262.200514,-0.98906,65.466947
2.0078,-0.015007,0.007026,0.054733,-0.004948,-0.008898,-0.026979,0.01319,-0.501788,0.054978,1.380246,-262.210861,-0.991004,65.46337
2.0277,-0.015198,0.007229,0.053734,-0.004992,-0.008802,-0.02699,0.01305,-0.502002,0.05475,1.380246,-262.210861,-0.991004,65.46337
2.0473,-0.014486,0.006905,0.05257,-0.005011,-0.008765,-0.026994,0.01205,-0.502327,0.052873,1.378222,-262.221199,-0.992465,65.459751
2.0673,-0.014331,0.006825,0.052447,-0.005024,-0.008736,-0.026997,0.012282,-0.502399,0.052554,1.378222,-262.221199,-0.992465,65.459751
2.0875,-0.014237,0.006731,0.052926,-0.005037,-0.008712,-0.026999,0.012282,-0.502399,0.052554,1.378222,-262.221199,-0.992465,65.459751
2.1076,-0.013915,0.006708,0.053688,-0.005037,-0.008712,-0.026999,0.012552,-0.502933,0.051797,1.374913,-262.231496,-0.995186,65.456069
2.1277,-0.013741,0.006548,0.054031,-0.005085,-0.008594,-0.027008,0.012898,-0.502822,0.052439,1.374913,-262.231496,-0.995186,65.456069
2.1474,-0.013535,0.005979,0.050601,-0.005105,-0.008548,-0.027011,0.013656,-0.502993,0.053171,1.373543,-262.241773,-0.996134,65.452364
2.1677,-0.013763,0.005833,0.051685,-0.005127,-0.008493,-0.027015,0.012378,-0.503349,0.050788,1.373543,-262.241773,-0.996134,65.452364
2.1877,-0.013513,0.006027,0.04944,-0.005145,-0.008447,-0.027017,0.012378,-0.503349,0.050788,1.373543,-262.241773,-0.996134,65.452364
2.2072,-0.013142,0.005831,0.050824,-0.005145,-0.008447,-0.027017,0.011495,-0.503718,0.04831,1.369717,-262.251993,-0.999878,65.448587
2.2274,-0.013244,0.005904,0.04881,-0.00518,-0.008358,-0.027021,0.011991,-0.503676,0.049206,1.369717,-262.251993,-0.999878,65.448587
2.2474,-0.012619,0.005174,0.047275,-0.005194,-0.008324,-0.027022,0.011489,-0.503765,0.04795,1.367393,-262.26218,-1.002279,65.444764
2.2675,-0.012748,0.004793,0.047805,-0.005211,-0.008272,-0.027024,0.011475,-0.504226,0.047292,1.367393,-262.26218,-1.002279,65.444764
2.2877,-0.012594,0.005032,0.046966,-0.005226,-0.00823,-0.027025,0.011475,-0.504226,0.047292,1.367393,-262.26218,-1.002279,65.444764
2.3073,-0.012401,0.004792,0.047984,-0.005226,-0.00823,-0.027025,0.011148,-0.504764,0.045835,1.364569,-262.272324,-1.005053,65.44089
2.3279,-0.012347,0.005254,0.047709,-0.005267,-0.00809,-0.027032,0.011497,-0.504747,0.046579,1.364569,-262.272324,-1.005053,65.44089
2.3471,-0.01179,0.004342,0.047725,-0.005284,-0.008036,-0.027033,0.011822,-0.504436,0.046848,1.362591,-262.282434,-1.007593,65.436975
2.3674,-0.011315,0.004323,0.044762,-0.005308,-0.007945,-0.027038,0.012466,-0.505032,0.047599,1.362591,-262.282434,-1.007593,65.436975
2.3876,-0.011537,0.004412,0.04575,-0.00533,-0.00787,-0.027041,0.012466,-0.505032,0.047599,1.362591,-262.282434,-1.007593,65.436975
2.408,-0.010957,0.004203,0.042583,-0.00533,-0.00787,-0.027041,0.011582,-0.5054,0.044619,1.358782,-262.292471,-1.013272,65.432983
2.4278,-0.011028,0.004096,0.045579,-0.005362,-0.007758,-0.027044,0.011222,-0.505413,0.043662,1.358782,-262.292471,-1.013272,65.432983
2.4476,-0.011054,0.003652,0.042774,-0.005375,-0.007716,-0.027044,0.012051,-0.505632,0.044718,1.355589,-262.302449,-1.018322,65.428923
2.4679,-0.010504,0.003747,0.043796,-0.005389,-0.00765,-0.027046,0.010864,-0.505872,0.042906,1.355589,-262.302449,-1.018322,65.428923
2.4878,-0.010871,0.003697,0.04391,-0.005402,-0.007595,-0.027048,0.010864,-0.505872,0.042906,1.355589,-262.302449,-1.018322,65.428923
2.5077,-0.01019,0.003011,0.043789,-0.005402,-0.007595,-0.027048,0.011305,-0.506145,0.042776,1.352536,-262.312373,-1.022579,65.4248
2.5276,-0.010476,0.003399,0.041488,-0.005436,-0.007409,-0.027055,0.011618,-0.506327,0.043058,1.352536,-262.312373,-1.022579,65.4248
2.5474,-0.010126,0.003244,0.040293,-0.005451,-0.007338,-0.027056,0.010514,-0.506411,0.040627,1.350421,-262.322256,-1.02651,65.420628
2.5678,-0.010064,0.002783,0.040501,-0.00546,-0.007304,-0.027055,0.010418,-0.506361,0.040279,1.350421,-262.322256,-1.02651,65.420628
2.5877,-0.010172,0.003072,0.039703,-0.005468,-0.007276,-0.027053,0.010418,-0.506361,0.040279,1.350421,-262.322256,-1.02651,65.420628
2.6075,-0.009503,0.002808,0.038882,-0.005468,-0.007276,-0.027053,0.009856,-0.506841,0.038572,1.346205,-262.332045,-1.035217,65.416356
2.6275,-0.00961,0.002647,0.040387,-0.005481,-0.007158,-0.027055,0.010022,-0.506864,0.038569,1.346205,-262.332045,-1.035217,65.416356
2.6474,-0.009041,0.00239,0.037405,-0.005488,-0.007114,-0.027054,0.010817,-0.507175,0.039529,1.344966,-262.341846,-1.036777,65.412044
2.6673,-0.009448,0.002141,0.036974,-0.005494,-0.007036,-0.027056,0.010085,-0.507258,0.037531,1.344966,-262.341846,-1.036777,65.412044
2.6874,-0.009384,0.002048,0.037382,-0.005501,-0.006971,-0.027057,0.010085,-0.507258,0.037531,1.344966,-262.341846,-1.036777,65.412044
2.7071,-0.008817,0.001659,0.034854,-0.005501,-0.006971,-0.027057,0.009459,-0.507899,0.036257,1.342666,-262.351499,-1.042791,65.407711
2.7273,-0.008971,0.001906,0.035344,-0.005493,-0.006741,-0.027062,0.009228,-0.507989,0.035553,1.342666,-262.351499,-1.042791,65.407711
2.7475,-0.008379,0.001742,0.033923,-0.005494,-0.006657,-0.027062,0.008883,-0.508004,0.03448,1.340814,-262.361158,-1.048359,65.403299
2.7673,-0.008098,0.001281,0.035244,-0.005494,-0.006595,-0.02706,0.008907,-0.507979,0.033929,1.340814,-262.361158,-1.048359,65.403299
2.7873,-0.008271,0.001515,0.035931,-0.005495,-0.006544,-0.027058,0.008907,-0.507979,0.033929,1.340814,-262.361158,-1.048359,65.403299
2.8076,-0.007736,0.00151,0.033931,-0.005495,-0.006544,-0.027058,0.009831,-0.508441,0.034806,1.338112,-262.370663,-1.062889,65.398792
2.8278,-0.008128,0.0015,0.033441,-0.005503,-0.006371,-0.027058,0.009696,-0.508373,0.034313,1.338112,-262.370663,-1.062889,65.398792
2.8476,-0.007354,0.001073,0.032898,-0.005509,-0.006307,-0.027057,0.008756,-0.508429,0.03258,1.336967,-262.380127,-1.067587,65.394245
2.8673,-0.00733,0.001069,0.031031,-0.005508,-0.006225,-0.027057,0.009353,-0.508642,0.032826,1.336967,-262.380127,-1.067587,65.394245
2.8875,-0.007344,0.001279,0.030278,-0.005509,-0.006157,-0.027056,0.009353,-0.508642,0.032826,1.336967,-262.380127,-1.067587,65.394245
2.9078,-0.006833,0.000605,0.030926,-0.005509,-0.006157,-0.027056,0.007873,-0.508758,0.029147,1.33403,-262.389509,-1.076303,65.389608
2.928,-0.007205,0.000703,0.02965,-0.005474,-0.005985,-0.027055,0.008279,-0.508949,0.029738,1.33403,-262.389509,-1.076303,65.389608
2.9476,-0.006761,0.000382,0.029161,-0.005464,-0.005923,-0.027053,0.007745,-0.509274,0.02879,1.332525,-262.398839,-1.082342,65.384915
2.9674,-0.006289,0.000837,0.029894,-0.005438,-0.005806,-0.027055,0.008068,-0.5094,0.029083,1.332525,-262.398839,-1.082342,65.384915
2.9874,-0.006522,0.000284,0.028597,-0.005419,-0.005711,-0.027055,0.008068,-0.5094,0.029083,1.332525,-262.398839,-1.082342,65.384915
3.0077,-0.006477,0.000297,0.028014,-0.005419,-0.005711,-0.027055,0.007839,-0.509761,0.027467,1.331988,-262.408057,-1.094824,65.380156
3.0275,-0.006224,4.1e-05,0.028308,-0.005365,-0.005494,-0.027056,0.007801,-0.509685,0.02756,1.331988,-262.408057,-1.094824,65.380156
3.0473,-0.006132,-2.4e-05,0.026346,-0.005349,-0.005415,-0.027055,0.008045,-0.509941,0.027448,1.331753,-262.417191,-1.106226,65.375329
3.0673,-0.005876,-2.6e-05,0.026613,-0.005316,-0.005317,-0.027056,0.007362,-0.509865,0.026401,1.331753,-262.417191,-1.106226,65.375329
3.0876,-0.005815,-0.000306,0.026069,-0.005291,-0.005238,-0.027056,0.007362,-0.509865,0.026401,1.331753,-262.417191,-1.106226,65.375329
3.1076,-0.005051,-8.3e-05,0.026325,-0.005291,-0.005238,-0.027056,0.007262,-0.510365,0.024941,1.331651,-262.426189,-1.122071,65.370416
3.1273,-0.005256,-2.4e-05,0.025643,-0.005253,-0.005049,-0.027056,0.007691,-0.510204,0.025376,1.331651,-262.426189,-1.122071,65.370416
3.1471,-0.005121,-0.000413,0.023106,-0.005244,-0.004981,-0.027055,0.007657,-0.510026,0.024784,1.332289,-262.435131,-1.132426,65.365439
3.1671,-0.004894,-0.000851,0.025275,-0.005195,-0.004892,-0.027055,0.006744,-0.510263,0.023214,1.332289,-262.435131,-1.132426,65.365439
3.1874,-0.004828,-0.000368,0.025455,-0.005157,-0.004822,-0.027055,0.006744,-0.510263,0.023214,1.332289,-262.435131,-1.132426,65.365439
3.208,-0.003726,-0.000826,0.02218,-0.005157,-0.004822,-0.027055,0.007939,-0.510416,0.024326,1.331631,-262.443965,-1.144406,65.360379
3.2275,-0.004757,-0.000711,0.020718,-0.00516,-0.0047,-0.027052,0.00777,-0.510556,0.023321,1.331631,-262.443965,-1.144406,65.360379
3.2473,-0.00373,-0.000843,0.019947,-0.005164,-0.004655,-0.02705,0.005648,-0.510758,0.019859,1.333726,-262.45273,-1.155667,65.355275
3.2673,-0.003951,-0.001059,0.020874,-0.005089,-0.004541,-0.027043,0.006363,-0.510751,0.019895,1.333726,-262.45273,-1.155667,65.355275
3.2878,-0.004203,-0.001465,0.022599,-0.005032,-0.004452,-0.027036,0.006363,-0.510751,0.019895,1.333726,-262.45273,-1.155667,65.355275
3.3072,-0.003713,-0.001263,0.01714,-0.005032,-0.004452,-0.027036,0.00711,-0.511535,0.021465,1.33162,-262.461455,-1.160368,65.350095
3.3275,-0.003492,-0.001449,0.021167,-0.004856,-0.004126,-0.027021,0.006237,-0.511417,0.019573,1.33162,-262.461455,-1.160368,65.350095
3.3474,-0.002884,-0.001679,0.017488,-0.0048,-0.00401,-0.027015,0.007146,-0.511479,0.020311,1.335236,-262.470036,-1.175545,65.344894
3.3676,-0.003263,-0.001499,0.018009,-0.004739,-0.003885,-0.026985,0.006133,-0.511598,0.017713,1.335236,-262.470036,-1.175545,65.344894
3.3877,-0.002919,-0.001573,0.021034,-0.004693,-0.003785,-0.026961,0.006133,-0.511598,0.017713,1.335236,-262.470036,-1.175545,65.344894
3.4079,-0.002757,-0.002058,0.016774,-0.004693,-0.003785,-0.026961,0.007612,-0.51163,0.019916,1.340885,-262.478355,-1.203865,65.339609
3.4278,-0.002844,-0.001902,0.0172,-0.004698,-0.003662,-0.026949,0.006852,-0.511795,0.01851,1.340885,-262.478355,-1.203865,65.339609
3.4474,-0.002103,-0.00183,0.015611,-0.004703,-0.003616,-0.026944,0.005781,-0.511949,0.016346,1.343069,-262.486644,-1.216327,65.334218
3.468,-0.002633,-0.002028,0.016207,-0.004631,-0.003524,-0.026854,0.005844,-0.51179,0.015633,1.343069,-262.486644,-1.216327,65.334218
3.4877,-0.002185,-0.001519,0.016051,-0.004577,-0.003451,-0.026784,0.005844,-0.51179,0.015633,1.343069,-262.486644,-1.216327,65.334218
3.5074,-0.001716,-0.001894,0.014929,-0.004577,-0.003451,-0.026784,0.005806,-0.511608,0.014923,1.340641,-262.494887,-1.219699,65.32875
3.5273,-0.001586,-0.001876,0.014612,-0.004504,-0.003366,-0.0266,0.005821,-0.511719,0.014796,1.340641,-262.494887,-1.219699,65.32875
3.5474,-0.001383,-0.002325,0.013301,-0.004479,-0.003337,-0.026538,0.005722,-0.511933,0.013759,1.343748,-262.503005,-1.230045,65.323282
3.5671,-0.001212,-0.002011,0.01262,-0.004368,-0.003203,-0.026351,0.005423,-0.512253,0.013299,1.343748,-262.503005,-1.230045,65.323282
3.5872,-0.001299,-0.002023,0.014319,-0.004284,-0.0031,-0.026211,0.005423,-0.512253,0.013299,1.343748,-262.503005,-1.230045,65.323282
3.6073,-0.000512,-0.002388,0.010795,-0.004284,-0.0031,-0.026211,0.005817,-0.512113,0.013207,1.34551,-262.511021,-1.235906,65.317834
3.6275,-0.00091,-0.002319,0.012038,-0.004169,-0.00295,-0.02576,0.005462,-0.512229,0.012102,1.34551,-262.511021,-1.235906,65.317834
3.6477,-0.00034,-0.002286,0.010623,-0.004131,-0.002901,-0.025623,0.005094,-0.512382,0.011204,1.350269,-262.518835,-1.250404,65.312407
3.6676,-0.000137,-0.002338,0.011059,-0.004048,-0.002816,-0.025256,0.005072,-0.512273,0.010632,1.350269,-262.518835,-1.250404,65.312407
3.6877,-0.0004,-0.002651,0.010299,-0.003985,-0.002754,-0.024999,0.005072,-0.512273,0.010632,1.350269,-262.518835,-1.250404,65.312407
3.7074,-0.000137,-0.002531,0.008929,-0.003985,-0.002754,-0.024999,0.004681,-0.512747,0.009226,1.351675,-262.526434,-1.257415,65.307049
3.7274,0.000186,-0.002993,0.010228,-0.003709,-0.002476,-0.024002,0.004554,-0.512665,0.008982,1.351675,-262.526434,-1.257415,65.307049
3.7475,0.000349,-0.003019,0.008591,-0.003619,-0.002391,-0.02373,0.005276,-0.513055,0.009435,1.353199,-262.533809,-1.262518,65.301801
3.7677,0.000274,-0.003259,0.007152,-0.003549,-0.002296,-0.023451,0.004771,-0.51301,0.008625,1.353199,-262.533809,-1.262518,65.301801
3.7876,0.000525,-0.00265,0.008645,-0.003498,-0.002225,-0.023264,0.004771,-0.51301,0.008625,1.353199,-262.533809,-1.262518,65.301801
3.8075,0.00065,-0.002841,0.007739,-0.003498,-0.002225,-0.023264,0.004784,-0.512732,0.007658,1.359645,-262.540683,-1.280216,65.296772
3.8274,0.000822,-0.003039,0.00762,-0.00344,-0.002145,-0.022534,0.004689,-0.512782,0.007578,1.359645,-262.540683,-1.280216,65.296772
3.8474,0.001762,-0.002604,0.006281,-0.003422,-0.002126,-0.022341,0.004598,-0.513096,0.006881,1.361099,-262.547395,-1.286822,65.291785
3.8674,0.001094,-0.003003,0.006335,-0.003449,-0.002124,-0.021776,0.004928,-0.51264,0.006296,1.361099,-262.547395,-1.286822,65.291785
3.8877,0.001327,-0.003259,0.004687,-0.003471,-0.002132,-0.021399,0.004928,-0.51264,0.006296,1.361099,-262.547395,-1.286822,65.291785
3.9075,0.001595,-0.003107,0.006328,-0.003471,-0.002132,-0.021399,0.003575,-0.513343,0.003755,1.357141,-262.553836,-1.282029,65.286989
3.9276,0.001714,-0.003587,0.004463,-0.003207,-0.001858,-0.019876,0.004068,-0.513253,0.004698,1.357141,-262.553836,-1.282029,65.286989
3.9472,0.002114,-0.003531,0.003718,-0.003121,-0.00178,-0.019478,0.003881,-0.51365,0.003787,1.34632,-262.560036,-1.263494,65.282427
3.9675,0.002029,-0.00301,0.002758,-0.003023,-0.001667,-0.018747,0.003993,-0.513541,0.003691,1.34632,-262.560036,-1.263494,65.282427
3.9878,0.002414,-0.003259,0.002189,-0.002949,-0.001588,-0.018263,0.003993,-0.513541,0.003691,1.34632,-262.560036,-1.263494,65.282427
4.0077,0.00231,-0.003567,0.003306,-0.002949,-0.001588,-0.018263,0.003401,-0.513332,0.001376,1.346426,-262.565644,-1.271556,65.278195
4.0281,0.002048,-0.003293,0.002801,-0.002779,-0.001429,-0.016288,0.00363,-0.513436,0.002074,1.346426,-262.565644,-1.271556,65.278195
4.0477,0.00281,-0.003494,0.001749,-0.002722,-0.001391,-0.015751,0.003383,-0.513342,0.002222,1.343361,-262.570872,-1.271739,65.274193
4.0677,0.002528,-0.003394,0.002322,-0.002683,-0.001362,-0.015217,0.00367,-0.513482,0.001761,1.343361,-262.570872,-1.271739,65.274193
4.0877,0.002874,-0.003505,0.001782,-0.002653,-0.001348,-0.014854,0.00367,-0.513482,0.001761,1.343361,-262.570872,-1.271739,65.274193
4.1079,0.003068,-0.003544,0.00215,-0.002653,-0.001348,-0.014854,0.00367,-0.513562,0.00113,1.328464,-262.575358,-1.25139,65.270765
4.1278,0.003146,-0.003602,-4.3e-05,-0.002658,-0.001347,-0.014167,0.003858,-0.513561,0.001468,1.328464,-262.575358,-1.25139,65.270765
4.1474,0.003561,-0.003422,-0.000369,-0.002659,-0.001353,-0.013973,0.003039,-0.513645,-0.000516,1.321503,-262.579646,-1.239981,65.267508
4.1674,0.002895,-0.003399,-0.000232,-0.002598,-0.001307,-0.012993,0.003338,-0.513444,-0.000407,1.321503,-262.579646,-1.239981,65.267508
4.1873,0.003153,-0.003472,0.000172,-0.00255,-0.00128,-0.012302,0.003338,-0.513444,-0.000407,1.321503,-262.579646,-1.239981,65.267508
4.2073,0.002854,-0.003468,-0.000929,-0.00255,-0.00128,-0.012302,0.003131,-0.513528,-0.000405,1.30806,-262.583699,-1.216131,65.264477
4.2273,0.003611,-0.003658,-0.000907,-0.002302,-0.001192,-0.011261,0.002808,-0.513509,-0.000689,1.30806,-262.583699,-1.216131,65.264477
4.2474,0.003862,-0.003845,-0.002432,-0.002216,-0.001171,-0.010962,0.003069,-0.513698,-0.001288,1.288552,-262.587268,-1.182492,65.261852
4.2673,0.003524,-0.003678,-0.000934,-0.002111,-0.001099,-0.010246,0.002658,-0.513832,-0.002348,1.288552,-262.587268,-1.182492,65.261852
4.2876,0.003655,-0.003553,-0.002611,-0.00203,-0.001048,-0.009734,0.002658,-0.513832,-0.002348,1.288552,-262.587268,-1.182492,65.261852
4.3076,0.003989,-0.00383,-0.002203,-0.00203,-0.001048,-0.009734,0.00223,-0.5136,-0.00307,1.29616,-262.590537,-1.189209,65.259471
4.3275,0.003679,-0.003516,-0.00013,-0.001879,-0.000994,-0.008885,0.00248,-0.513699,-0.002767,1.29616,-262.590537,-1.189209,65.259471
4.3472,0.003928,-0.003605,-0.0033,-0.001827,-0.000983,-0.008634,0.003549,-0.513549,-0.000438,1.288312,-262.593436,-1.177848,65.25736
4.3677,0.003915,-0.003507,-0.002253,-0.001772,-0.000981,-0.008353,0.00236,-0.513599,-0.003057,1.288312,-262.593436,-1.177848,65.25736
4.3877,0.004113,-0.003728,-0.003173,-0.001729,-0.000984,-0.00815,0.00236,-0.513599,-0.003057,1.288312,-262.593436,-1.177848,65.25736
4.4075,0.004322,-0.004004,-0.001908,-0.001729,-0.000984,-0.00815,0.002418,-0.513766,-0.003535,1.286605,-262.596042,-1.168117,65.255496
4.428,0.0042,-0.003891,-0.002074,-0.001782,-0.000998,-0.007922,0.002788,-0.513867,-0.002915,1.286605,-262.596042,-1.168117,65.255496
4.4478,0.003962,-0.003966,-0.004854,-0.001799,-0.001004,-0.007847,0.003087,-0.513921,-0.002333,1.288529,-262.598525,-1.162159,65.253756
4.4678,0.004328,-0.003874,-0.002917,-0.001582,-0.000932,-0.007374,0.001621,-0.513959,-0.004651,1.288529,-262.598525,-1.162159,65.253756
4.4877,0.004125,-0.004165,-0.002279,-0.001414,-0.000881,-0.007027,0.001621,-0.513959,-0.004651,1.288529,-262.598525,-1.162159,65.253756
4.5075,0.004324,-0.003498,-0.003463,-0.001414,-0.000881,-0.007027,0.00289,-0.514204,-0.002599,1.269821,-262.600897,-1.127405,65.252117
4.5279,0.004373,-0.004237,-0.00473,-0.001572,-0.000955,-0.007239,0.002744,-0.513915,-0.002993,1.269821,-262.600897,-1.127405,65.252117
4.5473,0.004231,-0.003798,-0.003674,-0.001625,-0.000977,-0.007287,0.001918,-0.514258,-0.00494,1.303896,-262.602914,-1.177778,65.250727
4.5677,0.00455,-0.004002,-0.003842,-0.001596,-0.000969,-0.007084,0.002317,-0.513836,-0.003794,1.303896,-262.602914,-1.177778,65.250727
4.5875,0.004508,-0.00355,-0.003932,-0.001573,-0.000964,-0.006933,0.002317,-0.513836,-0.003794,1.303896,-262.602914,-1.177778,65.250727
4.6074,0.00472,-0.003549,-0.004516,-0.001573,-0.000964,-0.006933,0.002437,-0.513585,-0.004224,1.279908,-262.60509,-1.133199,65.249255
4.6271,0.004546,-0.004281,-0.005356,-0.001619,-0.001009,-0.006495,0.002421,-0.513573,-0.004379,1.279908,-262.60509,-1.133199,65.249255
4.6471,0.004689,-0.003997,-0.006221,-0.001633,-0.001029,-0.006357,0.001765,-0.514304,-0.005576,1.276944,-262.607258,-1.122488,65.247806
4.6671,0.004564,-0.004371,-0.004073,-0.001438,-0.000955,-0.005935,0.001535,-0.514016,-0.006177,1.276944,-262.607258,-1.122488,65.247806
4.6875,0.004554,-0.004047,-0.004063,-0.001289,-0.0009,-0.00562,0.001535,-0.514016,-0.006177,1.276944,-262.607258,-1.122488,65.247806
4.7074,0.00449,-0.004049,-0.004181,-0.001289,-0.0009,-0.00562,0.00242,-0.514081,-0.004305,1.249857,-262.609141,-1.05105,65.24661
4.7278,0.00458,-0.004248,-0.004566,-0.001375,-0.000919,-0.00582,0.002387,-0.514071,-0.004282,1.249857,-262.609141,-1.05105,65.24661
4.7472,0.004885,-0.004289,-0.00539,-0.001404,-0.000922,-0.005872,0.002212,-0.51427,-0.004735,1.281663,-262.610852,-1.100067,65.245534
4.7678,0.004802,-0.004164,-0.004269,-0.001376,-0.000886,-0.005675,0.002141,-0.514282,-0.00534,1.281663,-262.610852,-1.100067,65.245534
4.7878,0.004747,-0.004165,-0.006117,-0.001356,-0.000859,-0.005528,0.002141,-0.514282,-0.00534,1.281663,-262.610852,-1.100067,65.245534
4.8073,0.004528,-0.004476,-0.003377,-0.001356,-0.000859,-0.005528,0.001569,-0.514193,-0.006362,1.268983,-262.612734,-1.08593,65.244334
4.8279,0.004849,-0.004028,-0.004429,-0.001302,-0.000818,-0.005387,0.002071,-0.514313,-0.005161,1.268983,-262.612734,-1.08593,65.244334
4.8473,0.004772,-0.004244,-0.005816,-0.001284,-0.000805,-0.005341,0.002547,-0.51405,-0.004604,1.260909,-262.614505,-1.076661,65.243195
4.8674,0.005151,-0.004205,-0.005782,-0.001238,-0.000788,-0.005198,0.001871,-0.51422,-0.005716,1.260909,-262.614505,-1.076661,65.243195
4.8873,0.004907,-0.004373,-0.005722,-0.001203,-0.000776,-0.005092,0.001871,-0.51422,-0.005716,1.260909,-262.614505,-1.076661,65.243195
4.9073,0.005086,-0.004214,-0.007017,-0.001203,-0.000776,-0.005092,0.001935,-0.514398,-0.005945,1.264935,-262.616206,-1.089251,65.242089
4.9275,0.004827,-0.004329,-0.005646,-0.001108,-0.000733,-0.004761,0.001755,-0.514322,-0.006406,1.264935,-262.616206,-1.089251,65.242089
4.9471,0.004812,-0.004328,-0.005713,-0.001076,-0.00072,-0.004657,0.001909,-0.514345,-0.005808,1.270579,-262.617832,-1.094817,65.24104
4.9675,0.004948,-0.004358,-0.005613,-0.001078,-0.000723,-0.00469,0.001897,-0.514323,-0.00573,1.270579,-262.617832,-1.094817,65.24104
4.9873,0.005244,-0.004329,-0.00689,-0.00108,-0.000725,-0.004713,0.001897,-0.514323,-0.00573,1.270579,-262.617832,-1.094817,65.24104
5.0076,0.005091,-0.004223,-0.004983,-0.00108,-0.000725,-0.004713,0.001685,-0.514347,-0.007085,1.277649,-262.619318,-1.102026,65.240089
5.0276,0.005181,-0.0043,-0.007639,-0.001138,-0.000734,-0.004586,0.002034,-0.514297,-0.006247,1.277649,-262.619318,-1.102026,65.240089
5.0471,0.005272,-0.004381,-0.006896,-0.001157,-0.000737,-0.004545,0.001251,-0.514308,-0.007789,1.279524,-262.620823,-1.105794,65.239126
5.0674,0.00524,-0.004468,-0.005962,-0.001105,-0.000718,-0.004404,0.001709,-0.514365,-0.006983,1.279524,-262.620823,-1.105794,65.239126
5.0873,0.005076,-0.004784,-0.005857,-0.001065,-0.000704,-0.004299,0.001709,-0.514365,-0.006983,1.279524,-262.620823,-1.105794,65.239126
5.1072,0.004815,-0.004356,-0.007001,-0.001065,-0.000704,-0.004299,0.002043,-0.514804,-0.006038,1.252588,-262.622228,-1.054544,65.238235
5.1273,0.00549,-0.004603,-0.006377,-0.00099,-0.000662,-0.004291,0.001709,-0.514618,-0.006455,1.252588,-262.622228,-1.054544,65.238235
5.1473,0.005077,-0.004346,-0.006632,-0.000964,-0.000647,-0.004288,0.002204,-0.514614,-0.006513,1.261142,-262.623621,-1.064593,65.23736
5.1672,0.00537,-0.0044,-0.006281,-0.000963,-0.000653,-0.004256,0.001737,-0.51436,-0.006628,1.261142,-262.623621,-1.064593,65.23736
5.1877,0.005278,-0.004584,-0.006613,-0.000962,-0.000658,-0.004232,0.001737,-0.51436,-0.006628,1.261142,-262.623621,-1.064593,65.23736
5.2074,0.005432,-0.00428,-0.006607,-0.000962,-0.000658,-0.004232,0.001867,-0.514598,-0.006783,1.283755,-262.624917,-1.11602,65.236524
5.2272,0.005283,-0.004975,-0.006045,-0.001024,-0.000666,-0.004176,0.001943,-0.514466,-0.006731,1.283755,-262.624917,-1.11602,65.236524
5.2476,0.004899,-0.004219,-0.006278,-0.001046,-0.000668,-0.004156,0.00217,-0.514986,-0.00618,1.282506,-262.626266,-1.107735,65.235666
5.2673,0.005266,-0.004335,-0.007435,-0.001031,-0.000681,-0.004209,0.001739,-0.51428,-0.006276,1.282506,-262.626266,-1.107735,65.235666
5.2874,0.005547,-0.004726,-0.008052,-0.001019,-0.00069,-0.004247,0.001739,-0.51428,-0.006276,1.282506,-262.626266,-1.107735,65.235666
5.3073,0.005359,-0.005146,-0.007467,-0.001019,-0.00069,-0.004247,0.001398,-0.514735,-0.008218,1.255535,-262.627554,-1.060886,65.234848
5.3273,0.005347,-0.004337,-0.006951,-0.000858,-0.0006,-0.003922,0.001456,-0.5149,-0.007931,1.255535,-262.627554,-1.060886,65.234848
5.3474,0.005575,-0.004427,-0.006573,-0.000804,-0.000569,-0.003817,0.00177,-0.514346,-0.007085,1.269998,-262.628917,-1.079336,65.233992
5.3674,0.005672,-0.004593,-0.006799,-0.000925,-0.000612,-0.003911,0.002181,-0.514411,-0.006626,1.269998,-262.628917,-1.079336,65.233992
5.3874,0.005348,-0.004499,-0.007002,-0.001019,-0.000645,-0.003978,0.002181,-0.514411,-0.006626,1.269998,-262.628917,-1.079336,65.233992
5.4075,0.005188,-0.004533,-0.007873,-0.001019,-0.000645,-0.003978,0.001746,-0.514509,-0.00715,1.300472,-262.630031,-1.142863,65.233275
5.4274,0.005352,-0.004423,-0.008289,-0.000906,-0.000621,-0.003844,0.001507,-0.514515,-0.007464,1.300472,-262.630031,-1.142863,65.233275
5.4478,0.005829,-0.004802,-0.008124,-0.000867,-0.000614,-0.003801,0.001098,-0.514422,-0.008396,1.25093,-262.631121,-1.067717,65.232584
5.4676,0.005535,-0.004603,-0.008991,-0.000861,-0.000597,-0.003697,0.00163,-0.514753,-0.008155,1.25093,-262.631121,-1.067717,65.232584
5.4874,0.005566,-0.004256,-0.007344,-0.000857,-0.000584,-0.003617,0.00163,-0.514753,-0.008155,1.25093,-262.631121,-1.067717,65.232584
5.5077,0.005624,-0.005146,-0.007468,-0.000857,-0.000584,-0.003617,0.001786,-0.514267,-0.007498,1.283513,-262.632304,-1.100676,65.231844
5.5276,0.005674,-0.004978,-0.007743,-0.00092,-0.000595,-0.003636,0.001794,-0.51462,-0.007503,1.283513,-262.632304,-1.100676,65.231844
5.5472,0.005779,-0.004537,-0.008025,-0.000942,-0.000599,-0.003641,0.001697,-0.514981,-0.007858,1.273056,-262.633466,-1.085583,65.231113
5.5673,0.005649,-0.004706,-0.008773,-0.000941,-0.0006,-0.003584,0.001686,-0.514564,-0.008016,1.273056,-262.633466,-1.085583,65.231113
5.5875,0.005576,-0.004918,-0.006632,-0.00094,-0.000601,-0.003541,0.001686,-0.514564,-0.008016,1.273056,-262.633466,-1.085583,65.231113
5.6073,0.00562,-0.004309,-0.008209,-0.00094,-0.000601,-0.003541,0.002155,-0.51493,-0.006779,1.248584,-262.634614,-1.045251,65.230388
5.6273,0.005633,-0.004902,-0.009725,-0.000989,-0.000606,-0.003616,0.001858,-0.514674,-0.007376,1.248584,-262.634614,-1.045251,65.230388
5.6474,0.005754,-0.004826,-0.009594,-0.001006,-0.000607,-0.003639,0.000643,-0.514897,-0.009837,1.242872,-262.635776,-1.028807,65.229663
5.6676,0.005882,-0.004626,-0.008338,-0.000813,-0.000572,-0.003447,0.00084,-0.514812,-0.009621,1.242872,-262.635776,-1.028807,65.229663
5.6877,0.005678,-0.004882,-0.007866,-0.000662,-0.000544,-0.003299,0.00084,-0.514812,-0.009621,1.242872,-262.635776,-1.028807,65.229663
5.7076,0.005805,-0.004676,-0.006701,-0.000662,-0.000544,-0.003299,0.001625,-0.514891,-0.008017,1.229209,-262.63697,-1.01383,65.228906
5.7272,0.005868,-0.004799,-0.008852,-0.000833,-0.000568,-0.003461,0.001931,-0.514801,-0.007497,1.229209,-262.63697,-1.01383,65.228906
5.7473,0.005899,-0.004889,-0.008384,-0.000891,-0.000574,-0.003511,0.001338,-0.514791,-0.008921,1.304211,-262.63767,-1.088832,65.228479
5.7678,0.005692,-0.004537,-0.009268,-0.000871,-0.000558,-0.00344,0.001595,-0.514864,-0.008439,1.304211,-262.63767,-1.088832,65.228479
5.7882,0.005836,-0.00473,-0.009637,-0.000855,-0.000546,-0.003386,0.001595,-0.514864,-0.008439,1.304211,-262.63767,-1.088832,65.228479
5.8078,0.006079,-0.005137,-0.009557,-0.000855,-0.000546,-0.003386,0.000886,-0.514729,-0.009776,1.253916,-262.638748,-1.054681,65.227798
5.8278,0.006162,-0.004651,-0.010231,-0.00063,-0.000504,-0.003133,0.001008,-0.514883,-0.009706,1.253916,-262.638748,-1.054681,65.227798
5.8476,0.006124,-0.004884,-0.008828,-0.000553,-0.000491,-0.003048,0.000917,-0.514642,-0.010339,1.254489,-262.639848,-1.058822,65.2271
5.8678,0.005879,-0.004946,-0.008972,-0.000602,-0.000497,-0.003042,0.001557,-0.514845,-0.00897,1.254489,-262.639848,-1.058822,65.2271
5.8878,0.005964,-0.004258,-0.009835,-0.00064,-0.000501,-0.003037,0.001557,-0.514845,-0.00897,1.254489,-262.639848,-1.058822,65.2271
5.9073,0.006056,-0.004859,-0.010632,-0.00064,-0.000501,-0.003037,0.000931,-0.514248,-0.009921,1.329504,-262.640509,-1.133837,65.226696
5.9279,0.006124,-0.005011,-0.008606,-0.000442,-0.000521,-0.002858,0.000807,-0.514487,-0.010222,1.329504,-262.640509,-1.133837,65.226696
5.9477,0.005749,-0.004314,-0.01015,-0.000375,-0.000531,-0.002799,0.001714,-0.515008,-0.008702,1.305585,-262.641475,-1.129059,65.226104
5.9679,0.006138,-0.004681,-0.009577,-0.000296,-0.000547,-0.002763,0.000674,-0.514354,-0.010024,1.305585,-262.641475,-1.129059,65.226104
5.9876,0.006085,-0.004598,-0.008411,-0.000234,-0.000561,-0.002736,0.000674,-0.514354,-0.010024,1.305585,-262.641475,-1.129059,65.226104
6.0077,0.005961,-0.005003,-0.009664,-0.000234,-0.000561,-0.002736,0.001784,-0.514594,-0.008485,1.380474,-262.642056,-1.203948,65.225787
6.0277,0.005768,-0.005085,-0.009536,-0.00042,-0.000569,-0.002854,0.001481,-0.51475,-0.008966,1.380474,-262.642056,-1.203948,65.225787
6.0475,0.005981,-0.004674,-0.010372,-0.000484,-0.000569,-0.002892,0.000899,-0.515073,-0.009588,1.455471,-262.642587,-1.278945,65.225519
6.0675,0.006449,-0.00526,-0.008571,-0.000381,-0.000557,-0.002815,0.000711,-0.514687,-0.010302,1.455471,-262.642587,-1.278945,65.225519
6.0875,0.005945,-0.00469,-0.009195,-0.0003,-0.000548,-0.002756,0.000711,-0.514687,-0.010302,1.455471,-262.642587,-1.278945,65.225519
6.1073,0.006103,-0.005325,-0.009427,-0.0003,-0.000548,-0.002756,0.001241,-0.514687,-0.009288,1.380482,-262.64332,-1.203956,65.225122
6.1272,0.006158,-0.005276,-0.010554,-0.000372,-0.000527,-0.002797,0.001261,-0.51494,-0.009355,1.380482,-262.64332,-1.203956,65.225122
6.1472,0.006026,-0.004853,-0.010168,-0.000397,-0.000518,-0.00281,0.000768,-0.515262,-0.010623,1.437125,-262.644028,-1.278971,65.224753
6.1675,0.006518,-0.005203,-0.009565,-0.000334,-0.000507,-0.002754,0.000833,-0.514867,-0.010213,1.437125,-262.644028,-1.278971,65.224753
6.1874,0.005768,-0.005381,-0.010378,-0.000286,-0.000498,-0.002712,0.000833,-0.514867,-0.010213,1.437125,-262.644028,-1.278971,65.224753
6.2077,0.006158,-0.005217,-0.010438,-0.000286,-0.000498,-0.002712,0.00046,-0.515374,-0.010491,1.394973,-262.644899,-1.250851,65.224268
6.2275,0.006618,-0.005164,-0.009809,-0.000128,-0.000444,-0.002628,0.000611,-0.515301,-0.010482,1.394973,-262.644899,-1.250851,65.224268
6.2475,0.006165,-0.00525,-0.011993,-7.3e-05,-0.000424,-0.0026,0.001608,-0.515154,-0.009885,1.438924,-262.645664,-1.325858,65.223849
6.2676,0.00646,-0.005551,-0.009648,4.9e-05,-0.000412,-0.00252,0.000189,-0.515209,-0.011807,1.438924,-262.645664,-1.325858,65.223849
6.2882,0.006539,-0.005222,-0.01007,0.000145,-0.000403,-0.002458,0.000189,-0.515209,-0.011807,1.438924,-262.645664,-1.325858,65.223849
6.3076,0.005993,-0.00523,-0.009571,0.000145,-0.000403,-0.002458,0.0014,-0.515205,-0.010125,1.513925,-262.646072,-1.400859,65.223612
6.3275,0.006545,-0.005143,-0.009259,-9e-05,-0.000415,-0.002554,0.001282,-0.515207,-0.009905,1.513925,-262.646072,-1.400859,65.223612
6.3475,0.00597,-0.00506,-0.010635,-0.000172,-0.000417,-0.002584,0.001823,-0.515123,-0.009273,1.589054,-262.646204,-1.475987,65.223536
6.3676,0.006155,-0.004524,-0.009494,-0.000121,-0.000416,-0.002555,0.000656,-0.515039,-0.010519,1.589054,-262.646204,-1.475987,65.223536
6.3877,0.006447,-0.005312,-0.00987,-8.1e-05,-0.000415,-0.002534,0.000656,-0.515039,-0.010519,1.589054,-262.646204,-1.475987,65.223536
6.4075,0.006471,-0.005352,-0.010282,-8.1e-05,-0.000415,-0.002534,0.001409,-0.515301,-0.009957,1.514053,-262.646847,-1.423838,65.223159
6.4282,0.006292,-0.005253,-0.009577,-0.00024,-0.000412,-0.002564,0.001335,-0.515312,-0.010099,1.514053,-262.646847,-1.423838,65.223159
6.4476,0.006904,-0.005084,-0.009181,-0.000296,-0.00041,-0.002572,0.001405,-0.515241,-0.00965,1.529763,-262.647561,-1.498707,65.222746
6.4674,0.006803,-0.004941,-0.011707,-0.000494,-0.000449,-0.002649,0.002147,-0.51508,-0.009227,1.529763,-262.647561,-1.498707,65.222746
6.4874,0.00647,-0.005062,-0.011016,-0.000651,-0.000477,-0.002704,0.002147,-0.51508,-0.009227,1.529763,-262.647561,-1.498707,65.222746
6.5074,0.006496,-0.005019,-0.010653,-0.000651,-0.000477,-0.002704,0.000847,-0.515039,-0.011071,1.454767,-262.647963,-1.423711,65.222506
6.5273,0.006252,-0.005591,-0.009865,-0.000475,-0.000459,-0.002562,0.000935,-0.51502,-0.010905,1.454767,-262.647963,-1.423711,65.222506
6.5472,0.006731,-0.005036,-0.01044,-0.000415,-0.000453,-0.002514,0.00122,-0.515567,-0.009872,1.379643,-262.648027,-1.348586,65.222467
6.5674,0.006461,-0.005293,-0.011875,-0.000454,-0.000457,-0.002507,0.001391,-0.515056,-0.010392,1.379643,-262.648027,-1.348586,65.222467
6.5873,0.006586,-0.005327,-0.01144,-0.000485,-0.00046,-0.002501,0.001391,-0.515056,-0.010392,1.379643,-262.648027,-1.348586,65.222467
6.6078,0.006443,-0.005086,-0.011374,-0.000485,-0.00046,-0.002501,0.00074,-0.515307,-0.011515,1.365151,-262.648608,-1.273567,65.222135
6.6276,0.006724,-0.005009,-0.011784,-0.000288,-0.00043,-0.00239,0.000699,-0.515204,-0.011466,1.365151,-262.648608,-1.273567,65.222135
6.6473,0.006342,-0.005345,-0.011543,-0.000219,-0.00042,-0.002353,0.000703,-0.514984,-0.011844,1.331324,-262.649222,-1.198546,65.221783
6.6676,0.006714,-0.005284,-0.010546,-0.000122,-0.000406,-0.002319,0.000475,-0.515285,-0.01157,1.331324,-262.649222,-1.198546,65.221783
6.6874,0.006397,-0.005095,-0.010302,-4.6e-05,-0.000396,-0.002293,0.000475,-0.515285,-0.01157,1.331324,-262.649222,-1.198546,65.221783
6.7075,0.006908,-0.005072,-0.01142,-4.6e-05,-0.000396,-0.002293,0.001137,-0.515077,-0.010353,1.406398,-262.649613,-1.27362,65.221566
6.7274,0.006599,-0.005235,-0.01092,-0.000165,-0.000419,-0.002326,0.001114,-0.515062,-0.010796,1.406398,-262.649613,-1.27362,65.221566
6.7479,0.00664,-0.00521,-0.011816,-0.000206,-0.000426,-0.002336,0.001029,-0.515208,-0.010939,1.481289,-262.649803,-1.348511,65.22146
6.7677,0.006432,-0.005383,-0.01096,-0.000146,-0.000419,-0.002296,0.000654,-0.515178,-0.011732,1.481289,-262.649803,-1.348511,65.22146
6.7875,0.006427,-0.005033,-0.010963,-0.0001,-0.000414,-0.002265,0.000654,-0.515178,-0.011732,1.481289,-262.649803,-1.348511,65.22146
6.8076,0.006775,-0.005501,-0.011527,-0.0001,-0.000414,-0.002265,0.000827,-0.515019,-0.011059,1.460225,-262.650537,-1.367955,65.221058
6.8279,0.006495,-0.005177,-0.009878,-0.000102,-0.000409,-0.002263,0.000855,-0.515206,-0.011264,1.460225,-262.650537,-1.367955,65.221058
6.8475,0.006736,-0.005155,-0.012952,-0.000103,-0.000407,-0.002262,0.001454,-0.515163,-0.009936,1.515352,-262.651119,-1.442688,65.220742
6.8673,0.006571,-0.0056,-0.010693,1.2e-05,-0.000407,-0.002209,0.000252,-0.515117,-0.012678,1.515352,-262.651119,-1.442688,65.220742
6.8879,0.00678,-0.005336,-0.011143,0.000101,-0.000407,-0.002169,0.000252,-0.515117,-0.012678,1.515352,-262.651119,-1.442688,65.220742
6.9079,0.006604,-0.005142,-0.010446,0.000101,-0.000407,-0.002169,0.001092,-0.515321,-0.011237,1.513427,-262.65183,-1.465726,65.220354
6.9276,0.00679,-0.005076,-0.011137,-8e-05,-0.000417,-0.002249,0.001167,-0.515239,-0.010926,1.513427,-262.65183,-1.465726,65.220354
6.9472,0.006674,-0.005129,-0.010239,-0.000142,-0.000419,-0.002274,0.00111,-0.51505,-0.011163,1.588429,-262.652095,-1.540728,65.220213
6.9676,0.006705,-0.005401,-0.011947,-0.000244,-0.000433,-0.002326,0.00142,-0.515098,-0.010325,1.588429,-262.652095,-1.540728,65.220213
6.9874,0.007121,-0.005211,-0.011473,-0.000324,-0.000444,-0.002365,0.00142,-0.515098,-0.010325,1.588429,-262.652095,-1.540728,65.220213
7.0075,0.00661,-0.004978,-0.011453,-0.000324,-0.000444,-0.002365,0.001267,-0.51519,-0.011539,1.513397,-262.652601,-1.465696,65.219939
7.0274,0.006713,-0.005537,-0.010593,-0.000315,-0.000444,-0.002305,0.00106,-0.51509,-0.011511,1.513397,-262.652601,-1.465696,65.219939
7.0478,0.007073,-0.005775,-0.011303,-0.000312,-0.000444,-0.002284,0.001307,-0.515514,-0.010624,1.438292,-262.652912,-1.390591,65.219768
7.0675,0.006838,-0.005209,-0.010972,-0.000336,-0.000422,-0.002287,0.001308,-0.515722,-0.011244,1.438292,-262.652912,-1.390591,65.219768
7.0875,0.006827,-0.005574,-0.009895,-0.000356,-0.000403,-0.002289,0.001308,-0.515722,-0.011244,1.438292,-262.652912,-1.390591,65.219768
7.1075,0.006778,-0.005417,-0.009936,-0.000356,-0.000403,-0.002289,0.001772,-0.515562,-0.009964,1.402775,-262.653454,-1.315736,65.219478
7.1275,0.006734,-0.005696,-0.011168,-0.000534,-0.000409,-0.002422,0.001746,-0.515494,-0.009961,1.402775,-262.653454,-1.315736,65.219478
7.1476,0.007169,-0.005328,-0.009788,-0.000596,-0.000408,-0.002465,0.001029,-0.515675,-0.011232,1.375757,-262.654094,-1.240661,65.219109
7.1672,0.006744,-0.005323,-0.010911,-0.000709,-0.000427,-0.002503,0.002074,-0.515337,-0.00992,1.375757,-262.654094,-1.240661,65.219109
7.1877,0.006845,-0.005251,-0.013555,-0.000798,-0.000441,-0.00253,0.002074,-0.515337,-0.00992,1.375757,-262.654094,-1.240661,65.219109
7.2076,0.006811,-0.005436,-0.012373,-0.000798,-0.000441,-0.00253,-7.9e-05,-0.515212,-0.01361,1.300844,-262.654519,-1.165747,65.218844
7.2279,0.006578,-0.005285,-0.012651,-0.000302,-0.00041,-0.002308,0.00016,-0.51529,-0.013104,1.300844,-262.654519,-1.165747,65.218844
7.2473,0.006997,-0.004871,-0.013894,-0.00013,-0.000401,-0.002233,0.000118,-0.515249,-0.012682,1.22567,-262.654838,-1.090574,65.218641
7.2675,0.007228,-0.005316,-0.011474,5.2e-05,-0.000418,-0.00216,-7.1e-05,-0.514858,-0.013793,1.22567,-262.654838,-1.090574,65.218641
7.2877,0.007142,-0.005429,-0.01112,0.000195,-0.000433,-0.002105,-7.1e-05,-0.514858,-0.013793,1.22567,-262.654838,-1.090574,65.218641
7.3076,0.006858,-0.005248,-0.012497,0.000195,-0.000433,-0.002105,0.00147,-0.515398,-0.011124,1.300653,-262.654868,-1.165556,65.218625
7.3277,0.007036,-0.005362,-0.012447,1.5e-05,-0.000428,-0.002146,0.001067,-0.515321,-0.011686,1.300653,-262.654868,-1.165556,65.218625
7.3474,0.007393,-0.005238,-0.011728,-4.8e-05,-0.000425,-0.002158,0.000688,-0.515322,-0.012447,1.375514,-262.654868,-1.090695,65.218625
7.3676,0.006895,-0.005192,-0.012518,-0.000152,-0.000435,-0.002163,0.001347,-0.515213,-0.011792,1.375514,-262.654868,-1.090695,65.218625
7.3877,0.006827,-0.005311,-0.012239,-0.000234,-0.000441,-0.002165,0.001347,-0.515213,-0.011792,1.375514,-262.654868,-1.090695,65.218625
7.4076,0.007092,-0.005186,-0.013711,-0.000234,-0.000441,-0.002165,0.000585,-0.515274,-0.012242,1.450508,-262.65489,-1.165689,65.218613
7.4275,0.006886,-0.005218,-0.009728,-2.6e-05,-0.000424,-0.002054,0.000386,-0.515218,-0.012843,1.450508,-262.65489,-1.165689,65.218613
7.4475,0.007249,-0.005323,-0.013432,4.6e-05,-0.000419,-0.002017,0.001918,-0.515204,-0.009777,1.438678,-262.655396,-1.240832,65.218354
7.4674,0.00669,-0.005407,-0.013039,7.6e-05,-0.000414,-0.002001,0.000528,-0.515271,-0.013123,1.438678,-262.655396,-1.240832,65.218354
7.4877,0.006807,-0.005397,-0.011944,9.9e-05,-0.000411,-0.001988,0.000528,-0.515271,-0.013123,1.438678,-262.655396,-1.240832,65.218354
7.5073,0.006987,-0.005401,-0.011075,9.9e-05,-0.000411,-0.001988,0.000716,-0.515361,-0.011949,1.513663,-262.655434,-1.315817,65.218335
7.5276,0.007217,-0.005316,-0.012248,-1.1e-05,-0.000405,-0.002034,0.000969,-0.515365,-0.011593,1.513663,-262.655434,-1.315817,65.218335
7.5474,0.006993,-0.005342,-0.011893,-4.9e-05,-0.000402,-0.002048,0.000971,-0.515279,-0.012252,1.588657,-262.655484,-1.390811,65.21831
7.5674,0.006845,-0.005209,-0.012057,-7.4e-05,-0.000401,-0.002044,0.000932,-0.515304,-0.011925,1.588657,-262.655484,-1.390811,65.21831
7.5876,0.007166,-0.005069,-0.0116,-9.3e-05,-0.0004,-0.002041,0.000932,-0.515304,-0.011925,1.588657,-262.655484,-1.390811,65.21831
7.6075,0.006442,-0.005247,-0.01148,-9.3e-05,-0.0004,-0.002041,0.001247,-0.515048,-0.011665,1.541021,-262.655987,-1.465691,65.218052
7.6276,0.007172,-0.005617,-0.011952,-0.000145,-0.000416,-0.002054,0.000979,-0.515117,-0.011597,1.541021,-262.655987,-1.465691,65.218052
7.6474,0.007153,-0.00539,-0.011934,-0.000163,-0.000422,-0.002058,0.001074,-0.515593,-0.012016,1.514236,-262.656639,-1.461016,65.217716
7.6677,0.006839,-0.00498,-0.011449,-0.000186,-0.000416,-0.00205,0.001067,-0.515376,-0.011945,1.514236,-262.656639,-1.461016,65.217716
7.6876,0.006658,-0.005683,-0.010362,-0.000205,-0.00041,-0.002043,0.001067,-0.515376,-0.011945,1.514236,-262.656639,-1.461016,65.217716
7.7078,0.006942,-0.005572,-0.012975,-0.000205,-0.00041,-0.002043,0.001368,-0.515671,-0.010437,1.473849,-262.65723,-1.386012,65.217417
7.7277,0.006903,-0.005645,-0.012358,-0.000176,-0.000377,-0.002063,0.000928,-0.515613,-0.011515,1.473849,-262.65723,-1.386012,65.217417
7.7476,0.006907,-0.005647,-0.010764,-0.000167,-0.000365,-0.002069,0.000594,-0.515618,-0.012419,1.447914,-262.657861,-1.331081,65.217092
7.7676,0.006706,-0.005486,-0.012156,-0.000235,-0.000363,-0.002109,0.001358,-0.515618,-0.010885,1.447914,-262.657861,-1.331081,65.217092
7.7875,0.006803,-0.005459,-0.012669,-0.000289,-0.00036,-0.002139,0.001358,-0.515618,-0.010885,1.447914,-262.657861,-1.331081,65.217092
7.8078,0.0068,-0.00567,-0.01155,-0.000289,-0.00036,-0.002139,0.000335,-0.515432,-0.01275,1.468729,-262.658476,-1.387284,65.216748
7.8278,0.007152,-0.005501,-0.013425,-0.000116,-0.000341,-0.002097,0.000566,-0.515516,-0.012275,1.468729,-262.658476,-1.387284,65.216748
7.8474,0.00748,-0.005389,-0.01117,-5.6e-05,-0.000335,-0.002084,0.000299,-0.515464,-0.013477,1.399347,-262.658987,-1.312734,65.21645
7.8674,0.007066,-0.005514,-0.013786,-0.00021,-0.000361,-0.002122,0.001653,-0.515367,-0.011374,1.399347,-262.658987,-1.312734,65.21645
7.8875,0.007082,-0.005796,-0.013165,-0.00033,-0.000381,-0.00215,0.001653,-0.515367,-0.011374,1.399347,-262.658987,-1.312734,65.21645
7.9074,0.007133,-0.005482,-0.011851,-0.00033,-0.000381,-0.00215,0.000365,-0.515757,-0.013199,1.474352,-262.659241,-1.387738,65.216301
7.9278,0.007413,-0.005233,-0.011912,-0.000171,-0.00035,-0.002098,0.000661,-0.515631,-0.012651,1.474352,-262.659241,-1.387738,65.216301
7.9471,0.007077,-0.00569,-0.012334,-0.000117,-0.00034,-0.002082,0.001333,-0.515204,-0.011952,1.399456,-262.659641,-1.312842,65.216072
7.9674,0.007316,-0.005657,-0.012423,-0.000104,-0.000334,-0.002082,0.000833,-0.515613,-0.012303,1.399456,-262.659641,-1.312842,65.216072
7.9874,0.007179,-0.005221,-0.012918,-9.5e-05,-0.000329,-0.002082,0.000833,-0.515613,-0.012303,1.399456,-262.659641,-1.312842,65.216072
8.0075,0.007182,-0.005482,-0.015103,-9.5e-05,-0.000329,-0.002082,0.000587,-0.515188,-0.012973,1.474575,-262.660056,-1.387962,65.215831
8.0275,0.007736,-0.005634,-0.012556,0.000141,-0.000345,-0.002009,0.000132,-0.515286,-0.013854,1.474575,-262.660056,-1.387962,65.215831
8.0472,0.007223,-0.005463,-0.012747,0.000223,-0.000352,-0.001986,0.00133,-0.515603,-0.012614,1.511519,-262.660619,-1.462956,65.215498
8.0672,0.007233,-0.00569,-0.0118,0.000171,-0.000355,-0.002002,0.000774,-0.515437,-0.012738,1.511519,-262.660619,-1.462956,65.215498
8.0872,0.007436,-0.005117,-0.011494,0.00013,-0.000357,-0.002015,0.000774,-0.515437,-0.012738,1.511519,-262.660619,-1.462956,65.215498
8.1076,0.007177,-0.005429,-0.013151,0.00013,-0.000357,-0.002015,0.001575,-0.515083,-0.011494,1.58652,-262.660619,-1.387955,65.215498
8.1274,0.00737,-0.00573,-0.012935,-5.5e-05,-0.000391,-0.002061,0.001124,-0.515206,-0.012171,1.58652,-262.660619,-1.387955,65.215498
8.1472,0.0073,-0.00545,-0.012977,-0.000118,-0.000402,-0.002075,0.000774,-0.515689,-0.012945,1.652213,-262.66072,-1.462844,65.215442
8.1674,0.007475,-0.005683,-0.012386,-8.2e-05,-0.000394,-0.002057,0.00069,-0.515432,-0.012974,1.652213,-262.66072,-1.462844,65.215442
8.1874,0.007385,-0.00558,-0.010068,-5.4e-05,-0.000387,-0.002044,0.00069,-0.515432,-0.012974,1.652213,-262.66072,-1.462844,65.215442
8.2072,0.00727,-0.00534,-0.013684,-5.4e-05,-0.000387,-0.002044,0.002249,-0.515566,-0.010127,1.577217,-262.661176,-1.435384,65.215204
8.2277,0.006945,-0.00548,-0.011923,-0.000259,-0.000401,-0.002116,0.001453,-0.515456,-0.01158,1.577217,-262.661176,-1.435384,65.215204
8.2472,0.007295,-0.005667,-0.011996,-0.00033,-0.000404,-0.002138,0.000863,-0.515455,-0.011982,1.537974,-262.661762,-1.508501,65.214895
8.2679,0.007314,-0.005462,-0.013546,-0.000328,-0.000391,-0.002137,0.001149,-0.515615,-0.011998,1.537974,-262.661762,-1.508501,65.214895
8.2875,0.007162,-0.00558,-0.012273,-0.000327,-0.00038,-0.002136,0.001149,-0.515615,-0.011998,1.537974,-262.661762,-1.508501,65.214895
8.3073,0.007299,-0.005504,-0.013866,-0.000327,-0.00038,-0.002136,0.000902,-0.515545,-0.012288,1.462927,-262.661883,-1.433454,65.214829
8.3277,0.007363,-0.005056,-0.013937,-0.000163,-0.000362,-0.002071,0.000626,-0.515508,-0.012936,1.462927,-262.661883,-1.433454,65.214829
8.3472,0.00726,-0.005253,-0.012685,-0.000106,-0.000356,-0.00205,0.000252,-0.515012,-0.013969,1.387805,-262.662198,-1.358332,65.214649
8.3673,0.00744,-0.005235,-0.012193,-8.9e-05,-0.000367,-0.002035,0.000743,-0.515194,-0.012802,1.387805,-262.662198,-1.358332,65.214649
8.3874,0.007442,-0.00567,-0.013305,-7.5e-05,-0.000376,-0.002023,0.000743,-0.515194,-0.012802,1.387805,-262.662198,-1.358332,65.214649
8.4073,0.007026,-0.005703,-0.012124,-7.5e-05,-0.000376,-0.002023,0.000652,-0.515635,-0.013365,1.462653,-262.662646,-1.43318,65.214398
8.4275,0.007328,-0.005578,-0.01258,-3.5e-05,-0.000354,-0.002012,0.000729,-0.515649,-0.012866,1.462653,-262.662646,-1.43318,65.214398
8.4475,0.007304,-0.005199,-0.013518,-2.2e-05,-0.000346,-0.002009,0.00091,-0.515549,-0.012638,1.524535,-262.663229,-1.484252,65.214086
8.4674,0.007531,-0.005626,-0.012292,3.3e-05,-0.000358,-0.001988,0.000453,-0.515187,-0.013445,1.524535,-262.663229,-1.484252,65.214086
8.4877,0.007549,-0.005482,-0.012989,7.6e-05,-0.000368,-0.001972,0.000453,-0.515187,-0.013445,1.524535,-262.663229,-1.484252,65.214086
8.5075,0.007444,-0.005589,-0.013732,7.6e-05,-0.000368,-0.001972,0.000924,-0.515452,-0.013066,1.557107,-262.66381,-1.546374,65.21376
8.5279,0.007579,-0.005583,-0.011293,5.5e-05,-0.000365,-0.001965,0.000725,-0.51549,-0.013349,1.557107,-262.66381,-1.546374,65.21376
8.5475,0.00762,-0.005376,-0.013513,4.7e-05,-0.000363,-0.001963,0.00182,-0.515559,-0.011341,1.619347,-262.664287,-1.621381,65.213505
8.5676,0.007504,-0.005405,-0.0139,1.9e-05,-0.00037,-0.001961,0.000827,-0.515351,-0.013319,1.619347,-262.664287,-1.621381,65.213505
8.5876,0.00761,-0.005641,-0.013242,-2e-06,-0.000375,-0.001959,0.000827,-0.515351,-0.013319,1.619347,-262.664287,-1.621381,65.213505
8.6078,0.007313,-0.005503,-0.013303,-2e-06,-0.000375,-0.001959,0.000858,-0.515611,-0.013324,1.600974,-262.66491,-1.627181,65.213172
8.6274,0.007594,-0.005133,-0.013781,8e-06,-0.000365,-0.001962,0.000723,-0.51555,-0.013325,1.600974,-262.66491,-1.627181,65.213172
8.6473,0.007805,-0.005758,-0.015086,1.2e-05,-0.000361,-0.001963,0.000566,-0.515096,-0.013839,1.569256,-262.665494,-1.567848,65.212867
8.6674,0.008133,-0.005663,-0.01336,0.000116,-0.000352,-0.001939,0.000152,-0.515646,-0.014977,1.569256,-262.665494,-1.567848,65.212867
8.6872,0.0074,-0.00542,-0.013767,0.000198,-0.000345,-0.001921,0.000152,-0.515646,-0.014977,1.569256,-262.665494,-1.567848,65.212867
8.7072,0.007573,-0.005578,-0.013039,0.000198,-0.000345,-0.001921,0.00038,-0.515387,-0.013848,1.57827,-262.666114,-1.584702,65.212534
8.7272,0.007602,-0.005753,-0.013591,0.000167,-0.000352,-0.001939,0.000603,-0.515449,-0.013526,1.57827,-262.666114,-1.584702,65.212534
8.7474,0.007798,-0.00591,-0.012733,0.000157,-0.000355,-0.001945,0.000671,-0.515706,-0.013591,1.653264,-262.666114,-1.509709,65.212534
8.7672,0.00752,-0.005598,-0.013392,4.5e-05,-0.000352,-0.001973,0.001251,-0.515854,-0.012806,1.653264,-262.666114,-1.509709,65.212534
8.7878,0.00761,-0.005671,-0.013247,-4.3e-05,-0.000348,-0.001993,0.001251,-0.515854,-0.012806,1.653264,-262.666114,-1.509709,65.212534
8.8075,0.007893,-0.005737,-0.01332,-4.3e-05,-0.000348,-0.001993,0.000854,-0.515626,-0.013247,1.671938,-262.666114,-1.434563,65.212534
8.8276,0.007448,-0.005391,-0.013002,-8.9e-05,-0.000344,-0.001991,0.000954,-0.515653,-0.013277,1.671938,-262.666114,-1.434563,65.212534
8.8472,0.007778,-0.005703,-0.014071,-0.000105,-0.000342,-0.001989,0.000817,-0.515355,-0.013045,1.596984,-262.66654,-1.509517,65.212297
8.8674,0.007719,-0.005693,-0.012829,-6e-05,-0.000338,-0.001972,0.00062,-0.515628,-0.013986,1.596984,-262.66654,-1.509517,65.212297
8.8873,0.00754,-0.0056,-0.013448,-2.4e-05,-0.000335,-0.001959,0.00062,-0.515628,-0.013986,1.596984,-262.66654,-1.509517,65.212297
8.9075,0.007636,-0.005953,-0.011727,-2.4e-05,-0.000335,-0.001959,0.000679,-0.515565,-0.013516,1.521912,-262.667054,-1.451449,65.212007
8.9273,0.00796,-0.005891,-0.01347,-0.000115,-0.000333,-0.001994,0.00108,-0.515712,-0.012789,1.521912,-262.667054,-1.451449,65.212007
8.9471,0.007775,-0.005866,-0.012643,-0.000146,-0.000332,-0.002005,0.00109,-0.515854,-0.013523,1.554887,-262.66758,-1.52643,65.211711
8.9675,0.007789,-0.00573,-0.013834,-0.000207,-0.000331,-0.002018,0.001306,-0.515828,-0.012725,1.554887,-262.66758,-1.52643,65.211711
8.9874,0.008022,-0.005547,-0.014121,-0.000255,-0.000329,-0.002028,0.001306,-0.515828,-0.012725,1.554887,-262.66758,-1.52643,65.211711
9.0073,0.007868,-0.005758,-0.01327,-0.000255,-0.000329,-0.002028,0.000817,-0.515506,-0.014182,1.48003,-262.668036,-1.451573,65.211448
9.0272,0.007944,-0.006076,-0.012901,-0.00022,-0.000333,-0.001989,0.000933,-0.515593,-0.013814,1.48003,-262.668036,-1.451573,65.211448
9.0477,0.007926,-0.005704,-0.014185,-0.000209,-0.000335,-0.001975,0.00136,-0.51604,-0.012942,1.409827,-262.668437,-1.376431,65.211209
9.0674,0.007928,-0.005754,-0.013942,-0.000166,-0.00033,-0.001959,0.00075,-0.515686,-0.014079,1.409827,-262.668437,-1.376431,65.211209
9.0874,0.007594,-0.005909,-0.013904,-0.000132,-0.000327,-0.001946,0.00075,-0.515686,-0.014079,1.409827,-262.668437,-1.376431,65.211209
9.1076,0.008011,-0.005863,-0.014777,-0.000132,-0.000327,-0.001946,0.000494,-0.515873,-0.013984,1.436068,-262.669036,-1.335619,65.210864
9.1275,0.007756,-0.005879,-0.014136,1e-06,-0.000308,-0.001921,0.000485,-0.515848,-0.014318,1.436068,-262.669036,-1.335619,65.210864
9.1476,0.00797,-0.005918,-0.012545,4.8e-05,-0.000301,-0.001913,0.000543,-0.515837,-0.014189,1.483921,-262.669562,-1.410634,65.210562
9.1675,0.008372,-0.00568,-0.012619,-8.2e-05,-0.000311,-0.00195,0.001478,-0.515874,-0.012698,1.483921,-262.669562,-1.410634,65.210562
9.1876,0.008323,-0.005918,-0.01407,-0.000184,-0.000317,-0.001977,0.001478,-0.515874,-0.012698,1.483921,-262.669562,-1.410634,65.210562
9.2074,0.007915,-0.005721,-0.015034,-0.000184,-0.000317,-0.001977,0.001147,-0.515873,-0.0141,1.558974,-262.669783,-1.485687,65.210432
9.2274,0.008164,-0.005771,-0.012563,-0.000124,-0.00031,-0.001937,0.000777,-0.515787,-0.014487,1.558974,-262.669783,-1.485687,65.210432
9.2474,0.007967,-0.005608,-0.013759,-0.000103,-0.000307,-0.001923,0.001754,-0.515737,-0.012605,1.484042,-262.670188,-1.410755,65.210192
9.2678,0.007768,-0.005948,-0.014025,-0.000133,-0.000317,-0.001927,0.001022,-0.515577,-0.013657,1.484042,-262.670188,-1.410755,65.210192
9.2875,0.008204,-0.006084,-0.014133,-0.000157,-0.000325,-0.001929,0.001022,-0.515577,-0.013657,1.484042,-262.670188,-1.410755,65.210192
9.3075,0.008082,-0.005955,-0.014477,-0.000157,-0.000325,-0.001929,0.000992,-0.516045,-0.014211,1.501434,-262.670764,-1.452681,65.209853
9.3279,0.008092,-0.006187,-0.016491,-0.00013,-0.000305,-0.001923,0.000871,-0.515988,-0.014329,1.501434,-262.670764,-1.452681,65.209853
9.3473,0.008119,-0.006046,-0.015117,-0.000121,-0.000297,-0.001921,-0.000323,-0.516128,-0.016548,1.466534,-262.671319,-1.388604,65.209534
9.3674,0.008022,-0.005878,-0.013721,-2.6e-05,-0.000286,-0.001906,0.000344,-0.516,-0.015247,1.466534,-262.671319,-1.388604,65.209534
9.3874,0.008008,-0.006012,-0.013569,4.9e-05,-0.000278,-0.001895,0.000344,-0.516,-0.015247,1.466534,-262.671319,-1.388604,65.209534
9.4071,0.008063,-0.005681,-0.015588,4.9e-05,-0.000278,-0.001895,0.001083,-0.515977,-0.013646,1.488565,-262.671886,-1.433304,65.209194
9.4273,0.007879,-0.005854,-0.015189,5.1e-05,-0.000281,-0.001901,0.000683,-0.515831,-0.014455,1.488565,-262.671886,-1.433304,65.209194
9.4477,0.008364,-0.005629,-0.013656,5.1e-05,-0.000282,-0.001903,0.000132,-0.5158,-0.015215,1.563539,-262.672139,-1.508278,65.209039
9.4677,0.008172,-0.005923,-0.014348,-5.9e-05,-0.000303,-0.001917,0.00129,-0.5156,-0.013792,1.563539,-262.672139,-1.508278,65.209039
9.4883,0.007901,-0.005956,-0.015883,-0.000146,-0.00032,-0.001927,0.00129,-0.5156,-0.013792,1.563539,-262.672139,-1.508278,65.209039
9.5072,0.008318,-0.005563,-0.014124,-0.000146,-0.00032,-0.001927,-0.000198,-0.515901,-0.015944,1.606179,-262.672584,-1.583316,65.208768
9.5276,0.008004,-0.005844,-0.014735,3.4e-05,-0.00031,-0.001895,0.000339,-0.515743,-0.015207,1.606179,-262.672584,-1.583316,65.208768
9.5471,0.008235,-0.005847,-0.016232,9.7e-05,-0.000308,-0.001886,0.000489,-0.515793,-0.014762,1.531166,-262.672853,-1.508303,65.208612
9.5671,0.007989,-0.00549,-0.014742,0.000206,-0.000304,-0.001867,-4e-06,-0.515781,-0.016125,1.531166,-262.672853,-1.508303,65.208612
9.5873,0.008563,-0.005984,-0.014524,0.000292,-0.000302,-0.001854,-4e-06,-0.515781,-0.016125,1.531166,-262.672853,-1.508303,65.208612
9.6074,0.008203,-0.00576,-0.014839,0.000292,-0.000302,-0.001854,0.001156,-0.515936,-0.014564,1.606485,-262.673147,-1.583622,65.208442
9.6274,0.008,-0.006107,-0.014945,0.000124,-0.000309,-0.001874,0.000944,-0.515842,-0.014681,1.606485,-262.673147,-1.583622,65.208442
9.6474,0.008617,-0.005786,-0.014444,6.5e-05,-0.00031,-0.00188,0.000378,-0.51605,-0.014945,1.531929,-262.673147,-1.509066,65.208442
9.6679,0.008007,-0.005936,-0.012945,-2.2e-05,-0.000319,-0.001885,0.001173,-0.515761,-0.014488,1.531929,-262.673147,-1.509066,65.208442
9.6879,0.008203,-0.005876,-0.014985,-9.2e-05,-0.000325,-0.001887,0.001173,-0.515761,-0.014488,1.531929,-262.673147,-1.509066,65.208442
9.7078,0.008597,-0.005465,-0.014418,-9.2e-05,-0.000325,-0.001887,0.000562,-0.515827,-0.015036,1.606969,-262.673528,-1.584105,65.208222
9.7273,0.008322,-0.006096,-0.015322,-9e-05,-0.000329,-0.001878,0.000837,-0.515661,-0.014793,1.606969,-262.673528,-1.584105,65.208222
9.7475,0.008501,-0.006012,-0.01354,-9e-05,-0.000331,-0.001874,0.000507,-0.516043,-0.015363,1.53205,-262.673925,-1.509187,65.207999
9.7674,0.008441,-0.005761,-0.013599,-0.000192,-0.000334,-0.001893,0.001498,-0.515973,-0.013707,1.53205,-262.673925,-1.509187,65.207999
9.7879,0.007964,-0.006055,-0.014031,-0.000273,-0.000336,-0.001907,0.001498,-0.515973,-0.013707,1.53205,-262.673925,-1.509187,65.207999
9.8077,0.008463,-0.00593,-0.01304,-0.000273,-0.000336,-0.001907,0.000804,-0.516018,-0.014106,1.510006,-262.674491,-1.460926,65.207686
9.8277,0.00828,-0.005886,-0.016451,-0.000305,-0.000322,-0.00192,0.001212,-0.515966,-0.013683,1.510006,-262.674491,-1.460926,65.207686
9.8476,0.008468,-0.006093,-0.013601,-0.000317,-0.000317,-0.001924,-0.000112,-0.515821,-0.016475,1.434962,-262.674732,-1.385882,65.207548
9.8676,0.008631,-0.005979,-0.014553,-0.000354,-0.000315,-0.001925,0.001386,-0.516026,-0.013857,1.434962,-262.674732,-1.385882,65.207548
9.8878,0.008348,-0.005771,-0.014744,-0.000383,-0.000312,-0.001925,0.001386,-0.516026,-0.013857,1.434962,-262.674732,-1.385882,65.207548
9.9073,0.008163,-0.005882,-0.016176,-0.000383,-0.000312,-0.001925,0.000822,-0.515722,-0.014791,1.361438,-262.675086,-1.310877,65.207336
9.9276,0.008394,-0.005924,-0.015971,-0.000152,-0.000302,-0.001873,0.000452,-0.515761,-0.015359,1.361438,-262.675086,-1.310877,65.207336
9.9476,0.008608,-0.005996,-0.015035,-7.2e-05,-0.0003,-0.001857,0.000242,-0.515865,-0.016012,1.318736,-262.675485,-1.235873,65.20709
9.9676,0.008373,-0.005844,-0.016395,-7.9e-05,-0.000297,-0.001853,0.000878,-0.515932,-0.015124,1.318736,-262.675485,-1.235873,65.20709
9.9878,0.008689,-0.005996,-0.014105,-8.5e-05,-0.000294,-0.00185,0.000878,-0.515932,-0.015124,1.318736,-262.675485,-1.235873,65.20709
10.0076,0.008474,-0.006427,-0.0169,-8.5e-05,-0.000294,-0.00185,0.001494,-0.515948,-0.01412,1.39372,-262.675595,-1.310857,65.207026
10.0275,0.00821,-0.005674,-0.015167,-7.3e-05,-0.000278,-0.00181,0.000828,-0.516113,-0.015251,1.39372,-262.675595,-1.310857,65.207026
10.0472,0.008256,-0.006017,-0.014806,-6.8e-05,-0.000272,-0.001795,0.000473,-0.515621,-0.015198,1.468681,-262.6759,-1.385818,65.206846
10.0674,0.008376,-0.005733,-0.014208,-4.3e-05,-0.000271,-0.001784,0.000684,-0.51593,-0.014844,1.468681,-262.6759,-1.385818,65.206846
10.0874,0.008538,-0.005609,-0.015224,-2.3e-05,-0.00027,-0.001775,0.000684,-0.51593,-0.014844,1.468681,-262.6759,-1.385818,65.206846
10.1075,0.008664,-0.005719,-0.01655,-2.3e-05,-0.00027,-0.001775,0.000772,-0.515559,-0.015285,1.520832,-262.676344,-1.460819,65.206578
10.1275,0.008711,-0.005959,-0.015615,3.7e-05,-0.00029,-0.001775,0.00055,-0.515597,-0.015804,1.520832,-262.676344,-1.460819,65.206578
10.1471,0.008471,-0.005817,-0.01374,5.8e-05,-0.000299,-0.001775,0.000747,-0.515905,-0.015665,1.553641,-262.676823,-1.535818,65.20629
10.1673,0.008449,-0.006083,-0.015857,-6.6e-05,-0.000314,-0.001809,0.001398,-0.515782,-0.01392,1.553641,-262.676823,-1.535818,65.20629
10.1877,0.008843,-0.006003,-0.014362,-0.000164,-0.000325,-0.001834,0.001398,-0.515782,-0.01392,1.553641,-262.676823,-1.535818,65.20629
10.2074,0.008427,-0.006161,-0.015666,-0.000164,-0.000325,-0.001834,0.00152,-0.51596,-0.014421,1.613036,-262.677255,-1.610812,65.206044
10.2275,0.008383,-0.005859,-0.017227,-0.000199,-0.000312,-0.001844,0.001082,-0.516017,-0.014932,1.613036,-262.677255,-1.610812,65.206044
10.2474,0.008242,-0.005985,-0.0165,-0.000212,-0.000307,-0.001847,-0.000402,-0.515786,-0.017242,1.538031,-262.677406,-1.535807,65.20596
10.2674,0.008426,-0.005805,-0.0143,-9e-06,-0.000299,-0.001821,-0.000194,-0.515903,-0.016569,1.538031,-262.677406,-1.535807,65.20596
10.2874,0.008163,-0.005945,-0.016312,0.000152,-0.000294,-0.001803,-0.000194,-0.515903,-0.016569,1.538031,-262.677406,-1.535807,65.20596
10.3074,0.008727,-0.006095,-0.014491,0.000152,-0.000294,-0.001803,-0.000158,-0.515882,-0.016342,1.463031,-262.677627,-1.460806,65.205831
10.3273,0.008628,-0.005951,-0.016292,0.000184,-0.000284,-0.001805,0.000456,-0.515948,-0.015585,1.463031,-262.677627,-1.460806,65.205831
10.3476,0.008361,-0.006154,-0.01534,0.000196,-0.000281,-0.001805,0.000319,-0.515883,-0.016292,1.538156,-262.677627,-1.38568,65.205831
10.3676,0.008557,-0.005864,-0.01705,0.000197,-0.000274,-0.001791,0.000517,-0.516074,-0.015431,1.538156,-262.677627,-1.38568,65.205831
10.3876,0.008364,-0.00569,-0.014911,0.000197,-0.000268,-0.001779,0.000517,-0.516074,-0.015431,1.538156,-262.677627,-1.38568,65.205831
10.4072,0.008574,-0.006061,-0.015389,0.000197,-0.000268,-0.001779,0.00076,-0.515634,-0.014911,1.613037,-262.677627,-1.3108,65.205831
10.4273,0.008539,-0.006064,-0.015633,0.000122,-0.000283,-0.001766,0.000745,-0.515787,-0.015111,1.613037,-262.677627,-1.3108,65.205831
10.4475,0.008167,-0.00623,-0.013909,9.6e-05,-0.000287,-0.001761,0.000567,-0.516001,-0.015633,1.688531,-262.677627,-1.235306,65.205831
10.4673,0.008781,-0.005658,-0.014977,3.7e-05,-0.000282,-0.001772,0.001028,-0.516164,-0.014064,1.688531,-262.677627,-1.235306,65.205831
10.4875,0.008726,-0.006116,-0.0153,-1e-05,-0.000278,-0.001781,0.001028,-0.516164,-0.014064,1.688531,-262.677627,-1.235306,65.205831
10.5075,0.008694,-0.006017,-0.014723,-1e-05,-0.000278,-0.001781,0.000923,-0.516056,-0.015302,1.640929,-262.677644,-1.309811,65.205821
10.5275,0.008203,-0.005699,-0.014605,-8.6e-05,-0.000279,-0.001769,0.001029,-0.516018,-0.015068,1.640929,-262.677644,-1.309811,65.205821
10.5475,0.008364,-0.005765,-0.015646,-0.000113,-0.000279,-0.001764,0.000753,-0.515648,-0.014624,1.565934,-262.677827,-1.384807,65.205713
10.5675,0.008411,-0.005935,-0.014218,-3.5e-05,-0.000283,-0.001746,0.000417,-0.515697,-0.015556,1.565934,-262.677827,-1.384807,65.205713
10.5877,0.008352,-0.006152,-0.013858,2.8e-05,-0.000286,-0.001733,0.000417,-0.515697,-0.015556,1.565934,-262.677827,-1.384807,65.205713
10.6071,0.008645,-0.006088,-0.015141,2.8e-05,-0.000286,-0.001733,0.00128,-0.516113,-0.013923,1.490904,-262.678304,-1.42988,65.20543
10.6273,0.008515,-0.006149,-0.015051,-9e-05,-0.000285,-0.001752,0.001134,-0.516081,-0.014428,1.490904,-262.678304,-1.42988,65.20543
10.6472,0.008575,-0.005803,-0.01676,-0.000131,-0.000284,-0.001757,0.000838,-0.516096,-0.01508,1.565862,-262.678581,-1.504838,65.205271
10.6672,0.008534,-0.006009,-0.014657,6e-06,-0.000284,-0.001729,0.0001,-0.515764,-0.016612,1.565862,-262.678581,-1.504838,65.205271
10.6877,0.008766,-0.005904,-0.016436,0.000114,-0.000285,-0.001709,0.0001,-0.515764,-0.016612,1.565862,-262.678581,-1.504838,65.205271
10.7071,0.008556,-0.006086,-0.01519,0.000114,-0.000285,-0.001709,0.000381,-0.515843,-0.016491,1.490805,-262.678989,-1.429781,65.205031
10.7276,0.008858,-0.005825,-0.015968,0.00013,-0.000281,-0.001702,0.000555,-0.515919,-0.015968,1.490805,-262.678989,-1.429781,65.205031
10.7476,0.008712,-0.006119,-0.016651,0.000135,-0.000279,-0.001699,0.000714,-0.515761,-0.015977,1.565772,-262.679076,-1.504749,65.204981
10.7674,0.008548,-0.005993,-0.014499,0.000189,-0.000273,-0.00169,0.000266,-0.516022,-0.016589,1.565772,-262.679076,-1.504749,65.204981
10.7876,0.008796,-0.006103,-0.015343,0.000231,-0.000268,-0.001684,0.000266,-0.516022,-0.016589,1.565772,-262.679076,-1.504749,65.204981
10.8075,0.008447,-0.006216,-0.014804,0.000231,-0.000268,-0.001684,0.000971,-0.516043,-0.015343,1.64075,-262.679076,-1.42977,65.204981
10.8277,0.008787,-0.005704,-0.016845,9.5e-05,-0.000269,-0.001709,0.000941,-0.516091,-0.015123,1.64075,-262.679076,-1.42977,65.204981
10.8472,0.009005,-0.006029,-0.016619,4.7e-05,-0.000269,-0.001716,0.000196,-0.515632,-0.016845,1.565704,-262.679076,-1.354724,65.204981
10.8674,0.008437,-0.005992,-0.01539,7.8e-05,-0.000268,-0.001705,0.000499,-0.515928,-0.01664,1.565704,-262.679076,-1.354724,65.204981
10.8876,0.008982,-0.005858,-0.016856,0.000103,-0.000268,-0.001696,0.000499,-0.515928,-0.01664,1.565704,-262.679076,-1.354724,65.204981
10.9078,0.008659,-0.005991,-0.015701,0.000103,-0.000268,-0.001696,0.000385,-0.515789,-0.016876,1.60625,-262.679225,-1.429728,65.204893
10.9274,0.008971,-0.006451,-0.017513,0.000139,-0.000273,-0.001685,0.000493,-0.515846,-0.016405,1.60625,-262.679225,-1.429728,65.204893
10.9479,0.008804,-0.005993,-0.015072,0.000152,-0.000275,-0.001682,4e-05,-0.516376,-0.017529,1.649667,-262.679375,-1.50469,65.204804
10.9676,0.008469,-0.006166,-0.016356,7.6e-05,-0.00028,-0.001694,0.001021,-0.515975,-0.015294,1.649667,-262.679375,-1.50469,65.204804
10.9877,0.008916,-0.005922,-0.016314,1.5e-05,-0.000283,-0.001703,0.001021,-0.515975,-0.015294,1.649667,-262.679375,-1.50469,65.204804
11.0077,0.009116,-0.006025,-0.013653,1.5e-05,-0.000283,-0.001703,0.000596,-0.515854,-0.016314,1.686817,-262.679375,-1.429697,65.204804
11.0274,0.008949,-0.005809,-0.015975,-0.000139,-0.0003,-0.001718,0.001239,-0.515905,-0.015216,1.686817,-262.679375,-1.429697,65.204804
11.0477,0.008366,-0.006192,-0.016176,-0.000193,-0.000305,-0.001722,0.000802,-0.515749,-0.016005,1.611544,-262.679667,-1.50497,65.204637
11.0674,0.008527,-0.005952,-0.015909,-5.6e-05,-0.00029,-0.001706,0.000175,-0.516093,-0.016163,1.611544,-262.679667,-1.50497,65.204637
11.0873,0.008764,-0.005911,-0.014751,5.2e-05,-0.000279,-0.001696,0.000175,-0.516093,-0.016163,1.611544,-262.679667,-1.50497,65.204637
11.1074,0.008829,-0.006086,-0.016798,5.2e-05,-0.000279,-0.001696,0.00124,-0.51586,-0.014775,1.536676,-262.67985,-1.430102,65.204534
11.1274,0.008621,-0.006234,-0.015703,4e-06,-0.000283,-0.001702,0.00084,-0.515923,-0.015605,1.536676,-262.67985,-1.430102,65.204534
11.1476,0.00868,-0.006352,-0.014966,-1.3e-05,-0.000283,-0.001703,0.000613,-0.516175,-0.015727,1.610616,-262.680087,-1.505054,65.204397
11.1677,0.00867,-0.005809,-0.015174,-4.6e-05,-0.000275,-0.001713,0.001007,-0.516284,-0.015039,1.610616,-262.680087,-1.505054,65.204397
11.1877,0.008362,-0.006237,-0.01671,-7.3e-05,-0.000268,-0.00172,0.001007,-0.516284,-0.015039,1.610616,-262.680087,-1.505054,65.204397
11.2076,0.008708,-0.006081,-0.014979,-7.3e-05,-0.000268,-0.00172,-0.000161,-0.516177,-0.016777,1.560701,-262.680577,-1.55314,65.204117
11.2277,0.008934,-0.006588,-0.017507,8.1e-05,-0.000253,-0.001701,0.00033,-0.516117,-0.016067,1.560701,-262.680577,-1.55314,65.204117
11.2473,0.008586,-0.006081,-0.01515,0.000135,-0.000248,-0.001695,3e-06,-0.516518,-0.017556,1.515565,-262.681044,-1.478147,65.203839
11.2676,0.008754,-0.006652,-0.016,0.000103,-0.000249,-0.001702,0.000782,-0.516068,-0.01537,1.515565,-262.681044,-1.478147,65.203839
11.2876,0.008793,-0.005777,-0.016086,7.8e-05,-0.00025,-0.001707,0.000782,-0.516068,-0.01537,1.515565,-262.681044,-1.478147,65.203839
11.3076,0.008992,-0.006107,-0.016089,7.8e-05,-0.00025,-0.001707,0.000589,-0.515714,-0.016101,1.590565,-262.681155,-1.553147,65.20377
11.3277,0.00948,-0.005945,-0.016602,6.8e-05,-0.000263,-0.001699,0.00067,-0.515848,-0.016098,1.590565,-262.681155,-1.553147,65.20377
11.3474,0.009296,-0.005895,-0.017971,6.5e-05,-0.000268,-0.001696,0.001015,-0.515881,-0.016645,1.631111,-262.681562,-1.628182,65.20352
11.3675,0.009218,-0.006135,-0.014619,0.000139,-0.000269,-0.001678,0.000211,-0.515819,-0.017854,1.631111,-262.681562,-1.628182,65.20352
11.3877,0.008998,-0.006325,-0.016597,0.000197,-0.000271,-0.001665,0.000211,-0.515819,-0.017854,1.631111,-262.681562,-1.628182,65.20352
11.4073,0.008785,-0.006203,-0.014412,0.000197,-0.000271,-0.001665,0.000536,-0.516266,-0.016667,1.620561,-262.682077,-1.655164,65.203216
11.4275,0.008873,-0.00659,-0.016647,8.7e-05,-0.000263,-0.001686,0.000903,-0.51622,-0.015755,1.620561,-262.682077,-1.655164,65.203216
11.4475,0.009012,-0.005901,-0.014862,4.7e-05,-0.00026,-0.001693,0.000384,-0.516519,-0.016647,1.695563,-262.682077,-1.580163,65.203216
11.4673,0.008989,-0.005944,-0.01602,-6.3e-05,-0.000276,-0.001707,0.001339,-0.515905,-0.015022,1.695563,-262.682077,-1.580163,65.203216
11.4873,0.008969,-0.006061,-0.016291,-0.00015,-0.000288,-0.001717,0.001339,-0.515905,-0.015022,1.695563,-262.682077,-1.580163,65.203216
11.5076,0.009068,-0.006091,-0.015834,-0.00015,-0.000288,-0.001717,0.000662,-0.516003,-0.016351,1.620563,-262.682515,-1.631959,65.202954
11.5275,0.009131,-0.005894,-0.016913,-0.00011,-0.00028,-0.001737,0.000798,-0.516014,-0.016146,1.620563,-262.682515,-1.631959,65.202954
11.5472,0.008842,-0.006073,-0.015564,-9.6e-05,-0.000277,-0.001745,0.000506,-0.515824,-0.016926,1.545558,-262.682639,-1.556955,65.202882
11.5673,0.009021,-0.005796,-0.015772,-9.7e-05,-0.000276,-0.001738,0.000869,-0.515994,-0.015688,1.545558,-262.682639,-1.556955,65.202882
11.588,0.008965,-0.005998,-0.0175,-9.7e-05,-0.000275,-0.001732,0.000869,-0.515994,-0.015688,1.545558,-262.682639,-1.556955,65.202882
11.6072,0.0091,-0.006497,-0.016844,-9.7e-05,-0.000275,-0.001732,3.7e-05,-0.515929,-0.017559,1.499391,-262.683071,-1.481949,65.202627
11.6277,0.008463,-0.006204,-0.017357,9.1e-05,-0.000256,-0.001728,0.000229,-0.516131,-0.017275,1.499391,-262.683071,-1.481949,65.202627
11.6475,0.008857,-0.006292,-0.014523,0.000157,-0.00025,-0.001729,-0.000392,-0.516136,-0.017411,1.497819,-262.683595,-1.446991,65.202317
11.6672,0.00881,-0.006448,-0.015907,4.2e-05,-0.000257,-0.001762,0.001284,-0.51623,-0.014786,1.497819,-262.683595,-1.446991,65.202317
11.6876,0.008815,-0.006722,-0.016149,-4.9e-05,-0.000261,-0.001787,0.001284,-0.51623,-0.014786,1.497819,-262.683595,-1.446991,65.202317
11.7073,0.009079,-0.006032,-0.016215,-4.9e-05,-0.000261,-0.001787,0.00058,-0.516656,-0.016149,1.572821,-262.683595,-1.371989,65.202317
11.7277,0.009165,-0.006188,-0.016155,-1e-06,-0.000239,-0.001755,0.000672,-0.516377,-0.016176,1.572821,-262.683595,-1.371989,65.202317
11.7477,0.008813,-0.006099,-0.017366,1.5e-05,-0.000231,-0.001744,0.000924,-0.516127,-0.016195,1.534742,-262.683984,-1.44698,65.202079
11.7677,0.009046,-0.006605,-0.016129,0.00013,-0.000231,-0.001719,2.8e-05,-0.51603,-0.017282,1.534742,-262.683984,-1.44698,65.202079
11.7877,0.009484,-0.005962,-0.016871,0.000222,-0.000232,-0.0017,2.8e-05,-0.51603,-0.017282,1.534742,-262.683984,-1.44698,65.202079
11.8077,0.009043,-0.006001,-0.015951,0.000222,-0.000232,-0.0017,0.00088,-0.515896,-0.016922,1.58241,-262.684344,-1.522465,65.201847
11.8277,0.008919,-0.006107,-0.017441,9e-05,-0.000255,-0.001732,0.000891,-0.515913,-0.016532,1.58241,-262.684344,-1.522465,65.201847
11.8471,0.00902,-0.006383,-0.016164,4.3e-05,-0.000263,-0.001743,2.4e-05,-0.516029,-0.017441,1.657029,-262.684344,-1.447847,65.201847
11.8675,0.008846,-0.006279,-0.017618,4.3e-05,-0.000254,-0.001734,0.000714,-0.516292,-0.016271,1.657029,-262.684344,-1.447847,65.201847
11.8879,0.009331,-0.006035,-0.017171,4.3e-05,-0.000247,-0.001727,0.000714,-0.516292,-0.016271,1.657029,-262.684344,-1.447847,65.201847
11.9073,0.009256,-0.005589,-0.016425,4.3e-05,-0.000247,-0.001727,0.000574,-0.515966,-0.017213,1.603459,-262.68465,-1.52291,65.201662
11.9278,0.009264,-0.006099,-0.017356,3.1e-05,-0.000266,-0.001704,0.0007,-0.515784,-0.016894,1.603459,-262.68465,-1.52291,65.201662
11.9473,0.009369,-0.006256,-0.016581,2.7e-05,-0.000273,-0.001695,0.000413,-0.516029,-0.017403,1.604008,-262.685091,-1.597897,65.201388
11.9675,0.009123,-0.006032,-0.01747,3e-06,-0.000269,-0.001693,0.000868,-0.516172,-0.016657,1.604008,-262.685091,-1.597897,65.201388
11.9873,0.009272,-0.006418,-0.016496,-1.6e-05,-0.000265,-0.001691,0.000868,-0.516172,-0.016657,1.604008,-262.685091,-1.597897,65.201388
12.0074,0.009515,-0.006371,-0.016481,-1.6e-05,-0.000265,-0.001691,0.00086,-0.51636,-0.016567,1.591796,-262.685613,-1.60686,65.201084
12.0275,0.009264,-0.006271,-0.016979,-6.6e-05,-0.000252,-0.001725,0.000961,-0.516337,-0.01654,1.591796,-262.685613,-1.60686,65.201084
12.0478,0.009257,-0.005997,-0.017522,-8.4e-05,-0.000247,-0.001737,0.000604,-0.516205,-0.017029,1.55818,-262.686097,-1.549477,65.200798
12.0677,0.009108,-0.006046,-0.017342,-3e-06,-0.000247,-0.001734,0.000347,-0.515945,-0.01748,1.55818,-262.686097,-1.549477,65.200798
12.0877,0.009602,-0.00594,-0.016506,6e-05,-0.000249,-0.001734,0.000347,-0.515945,-0.01748,1.55818,-262.686097,-1.549477,65.200798
12.1082,0.008973,-0.006377,-0.018029,6e-05,-0.000249,-0.001734,0.001181,-0.51588,-0.016569,1.506532,-262.686548,-1.474483,65.200516
12.1276,0.009092,-0.006025,-0.01538,7.3e-05,-0.000249,-0.001745,0.000612,-0.516049,-0.017168,1.506532,-262.686548,-1.474483,65.200516
12.1472,0.009234,-0.005914,-0.016714,7.8e-05,-0.000249,-0.001749,0.001249,-0.515969,-0.015408,1.581537,-262.686817,-1.549488,65.200349
12.1674,0.009485,-0.006571,-0.015705,5.4e-05,-0.000258,-0.001755,0.000759,-0.515854,-0.016597,1.581537,-262.686817,-1.549488,65.200349
12.1871,0.009029,-0.005821,-0.016142,3.6e-05,-0.000265,-0.00176,0.000759,-0.515854,-0.016597,1.581537,-262.686817,-1.549488,65.200349
12.2078,0.00954,-0.006543,-0.016541,3.6e-05,-0.000265,-0.00176,0.000799,-0.515763,-0.016199,1.629773,-262.687227,-1.624483,65.200093
12.2276,0.009459,-0.006314,-0.017971,-3.2e-05,-0.000268,-0.001779,0.000925,-0.516056,-0.016347,1.629773,-262.687227,-1.624483,65.200093
12.2475,0.009208,-0.006528,-0.018641,-5.6e-05,-0.000268,-0.001785,0.000295,-0.51624,-0.018026,1.597788,-262.687754,-1.615445,65.199774
12.2673,0.009568,-0.00643,-0.016289,0.000112,-0.000252,-0.00177,-0.000245,-0.516422,-0.018589,1.597788,-262.687754,-1.615445,65.199774
12.2873,0.00937,-0.006477,-0.016927,0.000246,-0.000238,-0.00176,-0.000245,-0.516422,-0.018589,1.597788,-262.687754,-1.615445,65.199774
12.3075,0.009201,-0.005956,-0.017869,0.000246,-0.000238,-0.00176,0.000737,-0.516413,-0.016983,1.529385,-262.688165,-1.540492,65.199525
12.328,0.009708,-0.006095,-0.016756,0.000235,-0.000233,-0.001768,0.000473,-0.516195,-0.01735,1.529385,-262.688165,-1.540492,65.199525
12.3478,0.009227,-0.006386,-0.016809,0.000231,-0.000231,-0.001771,0.001163,-0.516023,-0.016756,1.454386,-262.688165,-1.465493,65.199525
12.3676,0.00951,-0.006373,-0.017279,0.000193,-0.000229,-0.00178,0.000701,-0.516287,-0.016804,1.454386,-262.688165,-1.465493,65.199525
12.3873,0.009528,-0.006649,-0.016069,0.000162,-0.000227,-0.001786,0.000701,-0.516287,-0.016804,1.454386,-262.688165,-1.465493,65.199525
12.4078,0.009351,-0.006195,-0.018586,0.000162,-0.000227,-0.001786,0.001334,-0.516584,-0.016069,1.529378,-262.688165,-1.3905,65.199525
12.4277,0.009408,-0.006399,-0.016998,0.000109,-0.000219,-0.00179,0.000742,-0.51639,-0.017089,1.529378,-262.688165,-1.3905,65.199525
12.4476,0.009342,-0.006068,-0.016409,9e-05,-0.000215,-0.00179,0.00074,-0.516325,-0.016998,1.604381,-262.688165,-1.315497,65.199525
12.4678,0.009265,-0.006348,-0.017849,3.4e-05,-0.000227,-0.001793,0.000953,-0.516029,-0.016463,1.604381,-262.688165,-1.315497,65.199525
12.4879,0.009515,-0.006331,-0.016799,-9e-06,-0.000236,-0.001794,0.000953,-0.516029,-0.016463,1.604381,-262.688165,-1.315497,65.199525
12.5081,0.009267,-0.006107,-0.018233,-9e-06,-0.000236,-0.001794,0.000947,-0.516261,-0.016808,1.639157,-262.688229,-1.390507,65.199482
12.5277,0.009283,-0.006391,-0.017481,4.9e-05,-0.000231,-0.001745,0.000553,-0.516165,-0.017383,1.639157,-262.688229,-1.390507,65.199482
12.5474,0.009306,-0.006819,-0.017216,6.9e-05,-0.00023,-0.001727,0.000367,-0.516318,-0.017514,1.564164,-262.688536,-1.4655,65.199284
12.5677,0.009534,-0.006185,-0.017167,9.7e-05,-0.000214,-0.001716,0.000512,-0.516706,-0.017244,1.564164,-262.688536,-1.4655,65.199284
12.5878,0.009259,-0.006305,-0.015565,0.000119,-0.000201,-0.001706,0.000512,-0.516706,-0.017244,1.564164,-262.688536,-1.4655,65.199284
12.6079,0.009487,-0.006436,-0.016243,0.000119,-0.000201,-0.001706,0.001322,-0.516249,-0.015604,1.624426,-262.688809,-1.540549,65.199108
12.6278,0.009548,-0.006437,-0.017693,-7.1e-05,-0.000222,-0.001719,0.001273,-0.516298,-0.015869,1.624426,-262.688809,-1.540549,65.199108
12.6477,0.009324,-0.006015,-0.016557,-0.000138,-0.000229,-0.001721,0.000527,-0.516361,-0.017726,1.666486,-262.689112,-1.615501,65.198902
12.6674,0.009489,-0.006306,-0.017461,-0.000129,-0.000236,-0.001711,0.000848,-0.515983,-0.016665,1.666486,-262.689112,-1.615501,65.198902
12.6874,0.009458,-0.006425,-0.017331,-0.000123,-0.000242,-0.001702,0.000848,-0.515983,-0.016665,1.666486,-262.689112,-1.615501,65.198902
12.7077,0.009545,-0.006474,-0.017951,-0.000123,-0.000242,-0.001702,0.00062,-0.516351,-0.017349,1.591497,-262.689242,-1.540511,65.198818
12.7274,0.009381,-0.006214,-0.016139,-1.4e-05,-0.000223,-0.001678,0.000527,-0.516368,-0.017596,1.591497,-262.689242,-1.540511,65.198818
12.7474,0.009319,-0.00628,-0.017336,2.5e-05,-0.000216,-0.001671,0.001149,-0.516153,-0.016173,1.516489,-262.689568,-1.465504,65.198614
12.7675,0.009766,-0.006657,-0.017324,5.2e-05,-0.000215,-0.001666,0.000539,-0.516199,-0.017232,1.516489,-262.689568,-1.465504,65.198614
12.7874,0.00997,-0.006272,-0.017346,7.4e-05,-0.000215,-0.001662,0.000539,-0.516199,-0.017232,1.516489,-262.689568,-1.465504,65.198614
12.8075,0.009831,-0.00631,-0.017807,7.4e-05,-0.000215,-0.001662,0.001123,-0.516201,-0.017394,1.590865,-262.689904,-1.540506,65.198395
12.8274,0.009533,-0.006239,-0.017609,-2.2e-05,-0.000225,-0.001663,0.000971,-0.516213,-0.017567,1.590865,-262.689904,-1.540506,65.198395
12.8472,0.009389,-0.006305,-0.017054,-5.6e-05,-0.000228,-0.001662,0.000554,-0.516165,-0.01765,1.631192,-262.690281,-1.615493,65.198149
12.8673,0.009507,-0.006376,-0.017783,-3.4e-05,-0.000226,-0.00166,0.00068,-0.516225,-0.017109,1.631192,-262.690281,-1.615493,65.198149
12.8878,0.009481,-0.006101,-0.018081,-1.7e-05,-0.000224,-0.001659,0.00068,-0.516225,-0.017109,1.631192,-262.690281,-1.615493,65.198149
12.9077,0.009532,-0.006257,-0.017559,-1.7e-05,-0.000224,-0.001659,0.000259,-0.516024,-0.018128,1.556177,-262.690617,-1.540478,65.197936
12.9277,0.009406,-0.006114,-0.017928,8.9e-05,-0.000225,-0.001645,0.000389,-0.516088,-0.017902,1.556177,-262.690617,-1.540478,65.197936
12.9474,0.009951,-0.006774,-0.016674,0.000126,-0.000226,-0.001641,0.000262,-0.516039,-0.017981,1.557043,-262.691113,-1.549219,65.19762
12.9677,0.00966,-0.006394,-0.016362,1.6e-05,-0.000227,-0.001655,0.001346,-0.516647,-0.016789,1.557043,-262.691113,-1.549219,65.19762
12.9874,0.009571,-0.00649,-0.018057,-7.1e-05,-0.000227,-0.001666,0.001346,-0.516647,-0.016789,1.557043,-262.691113,-1.549219,65.19762
13.0079,0.0098,-0.006395,-0.018379,-7.1e-05,-0.000227,-0.001666,0.000364,-0.516411,-0.01809,1.632172,-262.691345,-1.624349,65.197472
13.0276,0.00974,-0.006188,-0.017562,5.6e-05,-0.000211,-0.001684,0.00039,-0.51637,-0.018212,1.632172,-262.691345,-1.624349,65.197472
13.0476,0.009552,-0.006297,-0.018132,0.0001,-0.000205,-0.001692,0.000784,-0.516113,-0.017593,1.557194,-262.69163,-1.549371,65.19729
13.0676,0.009629,-0.006163,-0.019384,0.000142,-0.000205,-0.001698,0.000349,-0.516205,-0.018085,1.557194,-262.69163,-1.549371,65.19729
13.0876,0.009404,-0.006436,-0.017782,0.000175,-0.000205,-0.001704,0.000349,-0.516205,-0.018085,1.557194,-262.69163,-1.549371,65.19729
13.1077,0.009739,-0.0062,-0.017868,0.000175,-0.000205,-0.001704,0.000337,-0.51636,-0.017827,1.632092,-262.691943,-1.624268,65.19708
13.1278,0.009705,-0.006047,-0.017657,0.000191,-0.000205,-0.001719,0.000459,-0.516259,-0.01785,1.632092,-262.691943,-1.624268,65.19708
13.1471,0.009422,-0.006306,-0.017713,0.000197,-0.000205,-0.001724,0.000701,-0.515968,-0.017657,1.707424,-262.691943,-1.548936,65.19708
13.1672,0.009742,-0.006238,-0.016208,0.000209,-0.000206,-0.00171,0.000416,-0.516204,-0.017708,1.707424,-262.691943,-1.548936,65.19708
13.1881,0.009779,-0.006438,-0.016698,0.000219,-0.000207,-0.001698,0.000416,-0.516204,-0.017708,1.707424,-262.691943,-1.548936,65.19708
13.2075,0.009626,-0.006637,-0.016041,0.000219,-0.000207,-0.001698,0.001263,-0.516367,-0.016698,1.726352,-262.691943,-1.474151,65.197081
13.2275,0.009378,-0.006078,-0.016345,-1.8e-05,-0.000224,-0.001711,0.001336,-0.516449,-0.016434,1.726352,-262.691943,-1.474151,65.197081
13.2471,0.009704,-0.006189,-0.018366,-0.000102,-0.000229,-0.001713,0.001043,-0.51601,-0.016345,1.744779,-262.691943,-1.39929,65.197081
13.2679,0.009518,-0.006189,-0.017499,-2.7e-05,-0.000227,-0.001694,0.000399,-0.516094,-0.018189,1.744779,-262.691943,-1.39929,65.197081
13.2881,0.009575,-0.006568,-0.01722,3.2e-05,-0.000227,-0.001679,0.000399,-0.516094,-0.018189,1.744779,-262.691943,-1.39929,65.197081
13.3075,0.009684,-0.006286,-0.016608,3.2e-05,-0.000227,-0.001679,0.000793,-0.516496,-0.017245,1.66971,-262.692117,-1.446484,65.196969
13.3275,0.009826,-0.006473,-0.017009,-3.7e-05,-0.000224,-0.00168,0.000962,-0.516384,-0.016992,1.66971,-262.692117,-1.446484,65.196969
13.3471,0.010144,-0.00618,-0.019147,-6.2e-05,-0.000222,-0.00168,0.001152,-0.516404,-0.017041,1.596298,-262.692414,-1.521432,65.196778
13.3675,0.009952,-0.006394,-0.01779,-5e-06,-0.000221,-0.001666,0.000449,-0.516116,-0.018958,1.596298,-262.692414,-1.521432,65.196778
13.3877,0.009974,-0.006459,-0.018182,3.9e-05,-0.000221,-0.001655,0.000449,-0.516116,-0.018958,1.596298,-262.692414,-1.521432,65.196778
13.4075,0.009776,-0.005997,-0.018405,3.9e-05,-0.000221,-0.001655,0.000699,-0.516383,-0.018246,1.521291,-262.692866,-1.493941,65.196487
13.4277,0.009582,-0.006361,-0.019245,7e-05,-0.00022,-0.001646,0.000573,-0.516192,-0.018318,1.521291,-262.692866,-1.493941,65.196487
13.4473,0.009658,-0.006543,-0.018787,8e-05,-0.00022,-0.001643,-0.000232,-0.516272,-0.019282,1.596286,-262.693208,-1.568937,65.196268
13.4676,0.010001,-0.006518,-0.018326,0.000174,-0.00021,-0.001635,5e-05,-0.516437,-0.018833,1.596286,-262.693208,-1.568937,65.196268
13.4877,0.009974,-0.005974,-0.017785,0.000248,-0.000202,-0.00163,5e-05,-0.516437,-0.018833,1.596286,-262.693208,-1.568937,65.196268
13.5072,0.009727,-0.006534,-0.01873,0.000248,-0.000202,-0.00163,0.000907,-0.515901,-0.017841,1.636274,-262.69361,-1.643937,65.196009
13.5276,0.00982,-0.006741,-0.017506,0.00019,-0.000213,-0.001635,0.000607,-0.516125,-0.018212,1.636274,-262.69361,-1.643937,65.196009
13.5471,0.009803,-0.006466,-0.017315,0.000171,-0.000217,-0.001636,0.000893,-0.516663,-0.017506,1.561227,-262.69361,-1.568891,65.196009
13.5674,0.009752,-0.006223,-0.017336,0.000103,-0.000218,-0.001645,0.000966,-0.516415,-0.017332,1.561227,-262.69361,-1.568891,65.196009
13.5873,0.009482,-0.006408,-0.018723,5e-05,-0.000218,-0.001652,0.000966,-0.516415,-0.017332,1.561227,-262.69361,-1.568891,65.196009
13.608,0.009907,-0.006551,-0.017777,5e-05,-0.000218,-0.001652,-6.7e-05,-0.516319,-0.018723,1.636179,-262.69361,-1.493939,65.196009
13.6276,0.009818,-0.006472,-0.017262,0.000156,-0.000204,-0.001641,0.00031,-0.516382,-0.01833,1.636179,-262.69361,-1.493939,65.196009
13.6474,0.009797,-0.006702,-0.017797,0.000194,-0.000199,-0.001638,0.001015,-0.516401,-0.0173,1.611423,-262.693964,-1.569266,65.195781
13.6674,0.009633,-0.00627,-0.018183,0.000158,-0.000194,-0.001644,0.000748,-0.516602,-0.017754,1.611423,-262.693964,-1.569266,65.195781
13.6874,0.009821,-0.006093,-0.018052,0.000129,-0.00019,-0.001647,0.000748,-0.516602,-0.017754,1.611423,-262.693964,-1.569266,65.195781
13.7074,0.009882,-0.006266,-0.01733,0.000129,-0.00019,-0.001647,0.000615,-0.51601,-0.018052,1.686095,-262.693964,-1.494595,65.195781
13.7272,0.009916,-0.006234,-0.017488,6.1e-05,-0.00021,-0.001649,0.00079,-0.516083,-0.017757,1.686095,-262.693964,-1.494595,65.195781
13.7471,0.009904,-0.006452,-0.019289,3.7e-05,-0.000217,-0.001649,0.000998,-0.516159,-0.01751,1.678614,-262.694164,-1.569602,65.195644
13.7674,0.009984,-0.005972,-0.017865,0.000123,-0.00021,-0.001639,0.000152,-0.516339,-0.019129,1.678614,-262.694164,-1.569602,65.195644
13.7875,0.010148,-0.006301,-0.017865,0.000191,-0.000205,-0.001633,0.000152,-0.516339,-0.019129,1.678614,-262.694164,-1.569602,65.195644
13.8073,0.010062,-0.006089,-0.018907,0.000191,-0.000205,-0.001633,0.001039,-0.516227,-0.017925,1.603597,-262.694592,-1.618133,65.195367
13.8278,0.009764,-0.006359,-0.017154,0.000101,-0.000218,-0.001638,0.000788,-0.516135,-0.01833,1.603597,-262.694592,-1.618133,65.195367
13.8474,0.010237,-0.006367,-0.018906,6.9e-05,-0.000223,-0.001639,0.001016,-0.516284,-0.017154,1.678576,-262.694592,-1.543155,65.195367
13.8674,0.010079,-0.006677,-0.018499,7.1e-05,-0.00022,-0.001638,0.000634,-0.516277,-0.018747,1.678576,-262.694592,-1.543155,65.195367
13.8878,0.009935,-0.006149,-0.016585,7.2e-05,-0.000218,-0.001637,0.000634,-0.516277,-0.018747,1.678576,-262.694592,-1.543155,65.195367
13.908,0.010208,-0.006342,-0.019737,7.2e-05,-0.000218,-0.001637,0.001479,-0.516086,-0.016638,1.627226,-262.694971,-1.618158,65.195126
13.9277,0.009839,-0.006612,-0.019665,-1.7e-05,-0.00023,-0.001643,0.000936,-0.51615,-0.017903,1.627226,-262.694971,-1.618158,65.195126
13.9477,0.010071,-0.006525,-0.018757,-4.8e-05,-0.000234,-0.001644,-0.000187,-0.51652,-0.019716,1.629749,-262.695444,-1.662456,65.194822
13.9678,0.009941,-0.006533,-0.01924,1e-05,-0.000222,-0.001639,0.000443,-0.516443,-0.018846,1.629749,-262.695444,-1.662456,65.194822
13.9879,0.010317,-0.006386,-0.018115,5.5e-05,-0.000213,-0.001635,0.000443,-0.516443,-0.018846,1.629749,-262.695444,-1.662456,65.194822
14.0075,0.009709,-0.006522,-0.018547,5.5e-05,-0.000213,-0.001635,0.001078,-0.516308,-0.018156,1.554748,-262.695735,-1.587456,65.19464
14.0285,0.009977,-0.006379,-0.01917,3.1e-05,-0.000209,-0.001638,0.000751,-0.516358,-0.018316,1.554748,-262.695735,-1.587456,65.19464
14.0472,0.01035,-0.006464,-0.019214,2.3e-05,-0.000208,-0.001639,0.000203,-0.516291,-0.019219,1.615976,-262.696172,-1.640401,65.194356
14.0675,0.0102,-0.006418,-0.018454,5.2e-05,-0.000203,-0.001635,0.000518,-0.516362,-0.019217,1.615976,-262.696172,-1.640401,65.194356
14.0875,0.010441,-0.00648,-0.016048,7.4e-05,-0.0002,-0.001632,0.000518,-0.516362,-0.019217,1.615976,-262.696172,-1.640401,65.194356
14.1076,0.010298,-0.006698,-0.019041,7.4e-05,-0.0002,-0.001632,0.002257,-0.516423,-0.016114,1.589455,-262.696637,-1.599226,65.194051
14.1275,0.010248,-0.006268,-0.019728,-0.000179,-0.000226,-0.00169,0.00158,-0.516498,-0.017308,1.589455,-262.696637,-1.599226,65.194051
14.1474,0.009822,-0.006596,-0.018875,-0.000269,-0.000234,-0.001709,0.000189,-0.516175,-0.019775,1.632962,-262.697074,-1.664035,65.193759
14.1672,0.010072,-0.006155,-0.018065,-0.000129,-0.000219,-0.001705,0.000196,-0.516479,-0.018949,1.632962,-262.697074,-1.664035,65.193759
14.1873,0.010122,-0.005984,-0.018484,-1.8e-05,-0.000208,-0.001704,0.000196,-0.516479,-0.018949,1.632962,-262.697074,-1.664035,65.193759
14.2075,0.01035,-0.006351,-0.018984,-1.8e-05,-0.000208,-0.001704,0.000696,-0.515898,-0.018485,1.557653,-262.697083,-1.588727,65.193753
14.2277,0.010209,-0.006656,-0.018136,-6e-06,-0.000221,-0.001713,0.000684,-0.516048,-0.018693,1.557653,-262.697083,-1.588727,65.193753
14.2475,0.010287,-0.006231,-0.019833,-2e-06,-0.000226,-0.001716,0.000959,-0.516578,-0.018189,1.556595,-262.697569,-1.5495,65.193429
14.2675,0.010382,-0.006505,-0.019775,7.4e-05,-0.000222,-0.001715,0.000245,-0.516172,-0.019685,1.556595,-262.697569,-1.5495,65.193429
14.2876,0.010069,-0.006512,-0.018667,0.000135,-0.00022,-0.001715,0.000245,-0.516172,-0.019685,1.556595,-262.697569,-1.5495,65.193429
14.3073,0.010306,-0.006461,-0.018185,0.000135,-0.00022,-0.001715,0.000549,-0.516433,-0.018738,1.569059,-262.698075,-1.568106,65.193103
14.3275,0.010489,-0.006733,-0.018369,8.3e-05,-0.000213,-0.001733,0.000744,-0.516411,-0.018523,1.569059,-262.698075,-1.568106,65.193103
14.3475,0.010475,-0.0063,-0.017434,6.5e-05,-0.000209,-0.00174,0.001122,-0.516651,-0.018399,1.644059,-262.69835,-1.643107,65.192922
14.3674,0.010634,-0.006362,-0.01871,-7.7e-05,-0.000229,-0.001756,0.001544,-0.516259,-0.017518,1.644059,-262.69835,-1.643107,65.192922
14.3876,0.010766,-0.006531,-0.018187,-0.000191,-0.000244,-0.001768,0.001544,-0.516259,-0.017518,1.644059,-262.69835,-1.643107,65.192922
14.4072,0.010432,-0.006532,-0.017965,-0.000191,-0.000244,-0.001768,0.001494,-0.516455,-0.018259,1.621914,-262.698855,-1.646924,65.192583
14.4283,0.010361,-0.006468,-0.018765,-0.000306,-0.000245,-0.001779,0.001404,-0.516454,-0.018148,1.621914,-262.698855,-1.646924,65.192583
14.4472,0.01057,-0.006539,-0.018811,-0.000347,-0.000245,-0.001781,0.000791,-0.516379,-0.018773,1.547012,-262.698922,-1.572021,65.19254
14.468,0.010354,-0.006416,-0.018856,-0.000313,-0.000235,-0.001775,0.00096,-0.516443,-0.018808,1.547012,-262.698922,-1.572021,65.19254
14.4879,0.010645,-0.006392,-0.019701,-0.000286,-0.000227,-0.00177,0.00096,-0.516443,-0.018808,1.547012,-262.698922,-1.572021,65.19254
14.5076,0.010459,-0.006578,-0.019724,-0.000286,-0.000227,-0.00177,0.000598,-0.516294,-0.019704,1.471928,-262.69894,-1.496937,65.192527
14.5277,0.010459,-0.006453,-0.019645,-0.000125,-0.00021,-0.00175,0.000517,-0.51637,-0.019713,1.471928,-262.69894,-1.496937,65.192527
14.5482,0.010313,-0.006697,-0.018836,-6.9e-05,-0.000205,-0.001744,0.000438,-0.516356,-0.019662,1.396917,-262.699099,-1.421926,65.192421
14.568,0.010602,-0.006789,-0.01937,-4.6e-05,-0.000197,-0.001725,0.000681,-0.516583,-0.018916,1.396917,-262.699099,-1.421926,65.192421
14.5878,0.01065,-0.006578,-0.018895,-2.8e-05,-0.00019,-0.001709,0.000681,-0.516583,-0.018916,1.396917,-262.699099,-1.421926,65.192421
14.6077,0.010386,-0.006769,-0.01745,-2.8e-05,-0.00019,-0.001709,0.001011,-0.516493,-0.018948,1.471998,-262.699473,-1.491154,65.192167
14.6274,0.010562,-0.00687,-0.019484,-0.000145,-0.000196,-0.001696,0.001205,-0.516574,-0.018342,1.471998,-262.699473,-1.491154,65.192167
14.6478,0.010352,-0.006801,-0.019147,-0.000187,-0.000197,-0.00169,0.000625,-0.516778,-0.019532,1.546929,-262.699907,-1.537975,65.191867
14.6677,0.010471,-0.006446,-0.019204,-0.000126,-0.000185,-0.001677,0.000591,-0.516715,-0.019185,1.546929,-262.699907,-1.537975,65.191867
14.6877,0.010495,-0.006617,-0.018795,-7.7e-05,-0.000175,-0.001666,0.000591,-0.516715,-0.019185,1.546929,-262.699907,-1.537975,65.191867
14.7073,0.010306,-0.006383,-0.017565,-7.7e-05,-0.000175,-0.001666,0.000908,-0.51653,-0.018826,1.472074,-262.700125,-1.463121,65.191716
14.7273,0.01033,-0.006522,-0.020054,-0.000151,-0.000187,-0.001697,0.001089,-0.516438,-0.018312,1.472074,-262.700125,-1.463121,65.191716
14.7474,0.010357,-0.006276,-0.018901,-0.000176,-0.00019,-0.001708,0.0001,-0.516425,-0.020106,1.506446,-262.700592,-1.479829,65.191386
