mach0312/omni-docking-bench/src/icros_test_setup/results/MPPI_sample/timeseries/trial_135.csv
t,x,y,yaw,vx,vy,wz,bl_x,bl_y,bl_yaw,front_steering_joint,front_wheel_joint,rear_steering_joint,rear_wheel_joint
0.0,-0.047937,-0.03212,0.08733,0.001211,-0.000197,0.000614,-0.004733,-0.539706,0.08586,0.145808,-257.984074,-0.441683,67.271929
0.0004,-0.047866,-0.031499,0.084908,0.0,0.0,0.0,-0.00436,-0.540213,0.085736,0.145808,-257.981516,-0.441683,67.274729
0.0007,-0.047456,-0.031779,0.086375,0.0,0.0,0.0,-0.00436,-0.540213,0.085736,0.145808,-257.980126,-0.441683,67.27625
0.001,-0.047719,-0.031902,0.086217,0.0,0.0,0.0,-0.004427,-0.540063,0.085733,0.145808,-257.979637,-0.441683,67.276785
0.0013,-0.047912,-0.031388,0.087065,0.0,0.0,0.0,-0.004427,-0.540063,0.085733,0.145808,-257.979637,-0.441683,67.276785
0.0017,-0.047887,-0.031891,0.085443,0.0,0.0,0.0,-0.00433,-0.539691,0.085915,0.145808,-257.979637,-0.441683,67.276785
0.0019,-0.047635,-0.031718,0.086591,0.0,0.0,0.0,-0.00344,-0.539843,0.087035,0.145808,-257.979637,-0.441683,67.276785
0.0022,-0.0475,-0.031878,0.085779,0.0,0.0,0.0,-0.00344,-0.539843,0.087035,0.145808,-257.979637,-0.441683,67.276785
0.0024,-0.047709,-0.032349,0.086435,0.0,0.0,0.0,-0.00344,-0.539843,0.087035,0.145808,-257.979637,-0.441683,67.276785
0.0159,-0.047754,-0.031976,0.085476,0.0,0.0,0.0,-0.003781,-0.539985,0.085853,0.145808,-257.979637,-0.441683,67.276785
0.0359,-0.047551,-0.031936,0.085523,0.0,0.0,0.0,-0.004214,-0.540114,0.085476,0.145808,-257.979637,-0.441683,67.276785
0.056,-0.048062,-0.032178,0.0856,0.0,0.0,0.0,-0.00412,-0.540096,0.085495,0.145808,-257.979637,-0.441683,67.276785
0.0753,-0.047625,-0.03158,0.08695,0.0,0.0,0.0,-0.00446,-0.540311,0.0856,0.145808,-257.979637,-0.441683,67.276785
0.0958,-0.047911,-0.031898,0.086645,0.0,0.0,0.0,-0.003431,-0.539709,0.086836,0.145808,-257.979637,-0.441683,67.276785
0.1155,-0.047402,-0.031758,0.085887,-0.00176,0.005889,-0.005854,-0.003431,-0.539709,0.086836,0.145808,-257.979637,-0.441683,67.276785
0.1355,-0.047547,-0.032021,0.087558,-0.001943,0.006428,-0.006425,-0.003653,-0.539878,0.085887,0.145808,-257.979637,-0.441683,67.276785
0.1554,-0.0472,-0.032199,0.084886,-0.002105,0.00689,-0.006933,-0.003362,-0.539956,0.086579,0.145808,-257.979637,-0.441683,67.276785
0.1756,-0.047645,-0.031951,0.088274,-0.002247,0.007286,-0.007369,-0.00396,-0.540362,0.084886,0.070805,-257.979637,-0.516686,67.276785
0.1955,-0.047528,-0.031967,0.085063,-0.002386,0.007628,-0.00779,-0.002791,-0.539999,0.087989,0.070805,-257.979637,-0.516686,67.276785
0.2155,-0.047837,-0.032134,0.085965,-0.002507,0.007921,-0.008152,-0.002791,-0.539999,0.087989,0.070805,-257.979637,-0.516686,67.276785
0.2354,-0.047489,-0.03179,0.084788,-0.002612,0.008173,-0.008462,-0.004049,-0.540251,0.085965,-0.004157,-257.979637,-0.591647,67.276785
0.2556,-0.047533,-0.03205,0.087873,-0.002664,0.008383,-0.008724,-0.00415,-0.540132,0.085488,-0.004157,-257.979637,-0.591647,67.276785
0.2755,-0.047685,-0.032112,0.08585,-0.002711,0.008564,-0.008951,-0.002775,-0.540082,0.087873,-0.07897,-257.979637,-0.66646,67.276785
0.2957,-0.047913,-0.031951,0.085627,-0.002758,0.008721,-0.009147,-0.003867,-0.540222,0.086002,-0.07897,-257.979637,-0.66646,67.276785
0.3156,-0.047923,-0.031903,0.086434,-0.0028,0.008856,-0.009315,-0.003867,-0.540222,0.086002,-0.07897,-257.979637,-0.66646,67.276785
0.3355,-0.047985,-0.032002,0.08596,-0.002837,0.008972,-0.00946,-0.003896,-0.539999,0.086434,-0.154423,-257.979637,-0.741913,67.276785
0.3561,-0.047878,-0.031918,0.087551,-0.002863,0.009071,-0.009584,-0.004022,-0.540049,0.086238,-0.154423,-257.979637,-0.741913,67.276785
0.3753,-0.047651,-0.031868,0.086286,-0.002886,0.009157,-0.009691,-0.003284,-0.539965,0.087551,-0.229232,-257.979637,-0.816722,67.276785
0.3955,-0.047839,-0.031786,0.086912,-0.002917,0.009232,-0.009784,-0.003664,-0.53997,0.086394,-0.229232,-257.979637,-0.816722,67.276785
0.4161,-0.04794,-0.031841,0.086416,-0.002944,0.009298,-0.009865,-0.003664,-0.53997,0.086394,-0.229232,-257.979637,-0.816722,67.276785
0.4359,-0.047517,-0.031924,0.089028,-0.002967,0.009354,-0.009934,-0.003922,-0.539938,0.086416,-0.304187,-257.979637,-0.891677,67.276785
0.4561,-0.047757,-0.031898,0.086985,-0.003,0.009405,-0.009995,-0.003218,-0.539924,0.087468,-0.304187,-257.979637,-0.891677,67.276785
0.4757,-0.047482,-0.031756,0.086611,-0.003028,0.00945,-0.010048,-0.003451,-0.53997,0.086984,-0.378985,-257.979637,-0.966475,67.276784
0.4962,-0.047812,-0.0321,0.084714,-0.003048,0.009487,-0.010093,-0.003373,-0.539855,0.086644,-0.378985,-257.979637,-0.966475,67.276784
0.516,-0.047501,-0.031912,0.085896,-0.003066,0.00952,-0.010131,-0.003373,-0.539855,0.086644,-0.378985,-257.979637,-0.966475,67.276784
0.5355,-0.04748,-0.031854,0.086311,-0.003081,0.009548,-0.010165,-0.003749,-0.540032,0.085895,-0.453988,-257.979641,-1.041479,67.276771
0.5562,-0.047656,-0.031972,0.085818,-0.003087,0.009572,-0.010193,-0.003651,-0.54,0.086069,-0.453988,-257.979641,-1.041479,67.276771
0.5753,-0.047899,-0.031875,0.086276,-0.003092,0.009592,-0.010217,-0.003946,-0.540091,0.085813,-0.529414,-257.97967,-1.116904,67.276666
0.596,-0.047732,-0.032292,0.086232,-0.003087,0.009608,-0.010238,-0.003952,-0.539987,0.086237,-0.529414,-257.97967,-1.116904,67.276666
0.6158,-0.047592,-0.031995,0.086571,-0.003084,0.009621,-0.010256,-0.003952,-0.539987,0.086237,-0.529414,-257.97967,-1.116904,67.276666
0.6358,-0.047515,-0.031697,0.086447,-0.003081,0.009633,-0.010272,-0.003514,-0.540058,0.086537,-0.604247,-257.979815,-1.191738,67.276153
0.6558,-0.047593,-0.031881,0.086083,-0.003091,0.009646,-0.010287,-0.003503,-0.539947,0.086497,-0.604247,-257.979815,-1.191738,67.276153
0.6752,-0.047776,-0.031832,0.08614,-0.0031,0.009657,-0.0103,-0.003784,-0.539922,0.086001,-0.678995,-257.980274,-1.266485,67.274521
0.6957,-0.047728,-0.032029,0.083946,-0.003097,0.009665,-0.01031,-0.003891,-0.539937,0.086124,-0.678995,-257.980274,-1.266485,67.274521
0.716,-0.047434,-0.032044,0.085015,-0.003094,0.009672,-0.010319,-0.003891,-0.539937,0.086124,-0.678995,-257.980274,-1.266485,67.274521
0.7358,-0.047747,-0.031462,0.085284,-0.003091,0.009677,-0.010327,-0.004232,-0.539983,0.084765,-0.75414,-257.981326,-1.341631,67.270788
0.7555,-0.047797,-0.031334,0.085985,-0.003078,0.00968,-0.010333,-0.004274,-0.539805,0.084948,-0.75414,-257.981326,-1.341631,67.270788
0.7753,-0.047663,-0.030897,0.086283,-0.003068,0.009683,-0.010338,-0.00411,-0.539182,0.08569,-0.828536,-257.982961,-1.379755,67.264967
0.7954,-0.047575,-0.030607,0.085133,-0.003069,0.009687,-0.010413,-0.003755,-0.539003,0.086214,-0.828536,-257.982961,-1.379755,67.264967
0.8155,-0.047689,-0.030947,0.08324,-0.003069,0.00969,-0.010476,-0.003755,-0.539003,0.086214,-0.828536,-257.982961,-1.379755,67.264967
0.8356,-0.047258,-0.030787,0.083578,-0.00307,0.009694,-0.010529,-0.005447,-0.538788,0.082807,-0.83213,-257.984784,-1.381334,67.258452
0.8559,-0.047781,-0.030749,0.084597,-0.003029,0.009687,-0.0106,-0.005155,-0.538831,0.083071,-0.83213,-257.984784,-1.381334,67.258452
0.8758,-0.047319,-0.030308,0.085676,-0.002994,0.009682,-0.01066,-0.004812,-0.538627,0.084262,-0.815891,-257.986568,-1.382657,67.251914
0.8961,-0.047412,-0.029751,0.083751,-0.003,0.009685,-0.010742,-0.003786,-0.538439,0.085531,-0.815891,-257.986568,-1.382657,67.251914
0.9162,-0.047602,-0.029722,0.08346,-0.003005,0.009688,-0.010811,-0.003786,-0.538439,0.085531,-0.815891,-257.986568,-1.382657,67.251914
0.9361,-0.047782,-0.029592,0.082941,-0.003009,0.00969,-0.010869,-0.005246,-0.537553,0.083013,-0.814132,-257.988317,-1.387943,67.245311
0.9561,-0.047171,-0.029079,0.083005,-0.002959,0.00968,-0.010939,-0.005382,-0.537625,0.082932,-0.814132,-257.988317,-1.387943,67.245311
0.976,-0.047332,-0.028965,0.082966,-0.002916,0.009671,-0.010999,-0.005007,-0.537026,0.082662,-0.792546,-257.990016,-1.388555,67.238731
0.9959,-0.047449,-0.028823,0.08343,-0.002886,0.009665,-0.011074,-0.005068,-0.53718,0.082922,-0.792546,-257.990016,-1.388555,67.238731
1.016,-0.047452,-0.028997,0.083379,-0.00286,0.009659,-0.011138,-0.005068,-0.53718,0.082922,-0.792546,-257.990016,-1.388555,67.238731
1.036,-0.047025,-0.028557,0.082218,-0.002837,0.009655,-0.011192,-0.005134,-0.536832,0.082918,-0.791764,-257.991676,-1.3947,67.232072
1.056,-0.046848,-0.028547,0.081215,-0.002812,0.009649,-0.01126,-0.005155,-0.536788,0.08258,-0.791764,-257.991676,-1.3947,67.232072
1.0757,-0.047241,-0.027751,0.08308,-0.002791,0.009644,-0.011318,-0.005588,-0.536568,0.08086,-0.782116,-257.993272,-1.400395,67.225396
1.0956,-0.047396,-0.027908,0.0819,-0.002772,0.009639,-0.011389,-0.004983,-0.536027,0.082869,-0.782116,-257.993272,-1.400395,67.225396
1.1164,-0.047111,-0.02805,0.080801,-0.002755,0.009635,-0.011448,-0.004983,-0.536027,0.082869,-0.782116,-257.993272,-1.400395,67.225396
1.1357,-0.04682,-0.027942,0.080607,-0.002741,0.009632,-0.011499,-0.006096,-0.535994,0.080328,-0.774585,-257.99483,-1.403789,67.218696
1.1562,-0.047045,-0.027449,0.081798,-0.002698,0.00962,-0.011561,-0.005974,-0.536068,0.080387,-0.774585,-257.99483,-1.403789,67.218696
1.1755,-0.046535,-0.027002,0.080615,-0.002661,0.009609,-0.011614,-0.005487,-0.535445,0.081432,-0.760716,-257.996339,-1.40769,67.211967
1.1956,-0.046667,-0.026742,0.082221,-0.00264,0.009603,-0.011678,-0.005474,-0.535339,0.080672,-0.760716,-257.996339,-1.40769,67.211967
1.2157,-0.047124,-0.026705,0.081048,-0.002621,0.009598,-0.011733,-0.005474,-0.535339,0.080672,-0.760716,-257.996339,-1.40769,67.211967
1.2353,-0.047107,-0.026825,0.079234,-0.002605,0.009593,-0.011779,-0.005979,-0.534639,0.080561,-0.757341,-257.997803,-1.412783,67.205206
1.2561,-0.046734,-0.026269,0.08049,-0.002559,0.009578,-0.011827,-0.006304,-0.534831,0.079967,-0.757341,-257.997803,-1.412783,67.205206
1.2755,-0.046524,-0.026269,0.080141,-0.002521,0.009566,-0.011868,-0.005838,-0.534316,0.080109,-0.744234,-257.999215,-1.416841,67.198431
1.2958,-0.046678,-0.026032,0.079654,-0.002505,0.009561,-0.011909,-0.005715,-0.534588,0.080119,-0.744234,-257.999215,-1.416841,67.198431
1.3161,-0.046681,-0.026041,0.080124,-0.002491,0.009556,-0.011944,-0.005715,-0.534588,0.080119,-0.744234,-257.999215,-1.416841,67.198431
1.3361,-0.046594,-0.025704,0.079116,-0.00248,0.009553,-0.011974,-0.005999,-0.534013,0.079626,-0.74345,-258.000584,-1.421998,67.191635
1.3562,-0.046116,-0.025495,0.078605,-0.002451,0.009543,-0.012001,-0.00613,-0.534007,0.079364,-0.74345,-258.000584,-1.421998,67.191635
1.3754,-0.04647,-0.02541,0.077064,-0.002427,0.009534,-0.012023,-0.006171,-0.533623,0.078224,-0.734471,-258.001919,-1.424797,67.184825
1.3961,-0.046435,-0.025,0.078298,-0.002373,0.009515,-0.012043,-0.007117,-0.533856,0.07715,-0.734471,-258.001919,-1.424797,67.184825
1.4161,-0.046105,-0.024962,0.079625,-0.002327,0.009498,-0.01206,-0.007117,-0.533856,0.07715,-0.734471,-258.001919,-1.424797,67.184825
1.436,-0.046725,-0.024804,0.076872,-0.002288,0.009483,-0.012076,-0.005672,-0.532956,0.079121,-0.734442,-258.003226,-1.428002,67.178005
1.4561,-0.046147,-0.024668,0.079097,-0.002268,0.009475,-0.012092,-0.006452,-0.53305,0.078152,-0.734442,-258.003226,-1.428002,67.178005
1.476,-0.046122,-0.023937,0.07775,-0.002251,0.009469,-0.012106,-0.005946,-0.532779,0.078713,-0.744371,-258.004469,-1.435881,67.171208
1.4958,-0.046028,-0.02395,0.078751,-0.002229,0.00946,-0.01212,-0.006465,-0.532415,0.077815,-0.744371,-258.004469,-1.435881,67.171208
1.5159,-0.046121,-0.024139,0.07816,-0.00221,0.009453,-0.012132,-0.006465,-0.532415,0.077815,-0.744371,-258.004469,-1.435881,67.171208
1.5356,-0.045815,-0.023822,0.077977,-0.002194,0.009446,-0.012142,-0.006424,-0.532195,0.077655,-0.744727,-258.005694,-1.4381,67.164401
1.5555,-0.046197,-0.023661,0.076897,-0.002184,0.009442,-0.012153,-0.0063,-0.532182,0.077728,-0.744727,-258.005694,-1.4381,67.164401
1.5757,-0.045935,-0.023124,0.074797,-0.002175,0.009438,-0.012162,-0.007111,-0.531859,0.07651,-0.746653,-258.00689,-1.441399,67.1576
1.5957,-0.045829,-0.023203,0.075752,-0.002113,0.009411,-0.012168,-0.007767,-0.531698,0.074925,-0.746653,-258.00689,-1.441399,67.1576
1.6154,-0.045687,-0.023137,0.074913,-0.00206,0.009388,-0.012173,-0.007767,-0.531698,0.074925,-0.746653,-258.00689,-1.441399,67.1576
1.6359,-0.045795,-0.022985,0.076802,-0.002014,0.009368,-0.012179,-0.007638,-0.53132,0.074405,-0.745904,-258.008075,-1.442534,67.150795
1.6559,-0.045223,-0.022602,0.076761,-0.001989,0.009357,-0.012186,-0.00725,-0.531342,0.075334,-0.745904,-258.008075,-1.442534,67.150795
1.6757,-0.045397,-0.022078,0.073947,-0.001967,0.009348,-0.012192,-0.0062,-0.530811,0.076377,-0.764016,-258.009183,-1.451506,67.144071
1.6959,-0.045296,-0.022508,0.074111,-0.001928,0.00933,-0.012197,-0.007593,-0.530681,0.074134,-0.764016,-258.009183,-1.451506,67.144071
1.7157,-0.045116,-0.022022,0.075776,-0.001895,0.009315,-0.012202,-0.007593,-0.530681,0.074134,-0.764016,-258.009183,-1.451506,67.144071
1.7359,-0.045338,-0.021463,0.072249,-0.001868,0.009302,-0.012206,-0.006618,-0.530176,0.075267,-0.768467,-258.010275,-1.454198,67.137323
1.7561,-0.045679,-0.021963,0.074322,-0.001842,0.009291,-0.012211,-0.007405,-0.530114,0.073982,-0.768467,-258.010275,-1.454198,67.137323
1.7755,-0.045099,-0.021425,0.07316,-0.001821,0.00928,-0.012215,-0.007891,-0.530263,0.073932,-0.779976,-258.011325,-1.459807,67.130583
1.7956,-0.044639,-0.021376,0.073465,-0.001788,0.009264,-0.012218,-0.00783,-0.530064,0.073208,-0.779976,-258.011325,-1.459807,67.130583
1.8156,-0.045357,-0.021263,0.073599,-0.00176,0.00925,-0.012221,-0.00783,-0.530064,0.073208,-0.779976,-258.011325,-1.459807,67.130583
1.8354,-0.044889,-0.020687,0.07383,-0.001736,0.009239,-0.012224,-0.00796,-0.529502,0.073089,-0.785157,-258.012354,-1.462435,67.123855
1.856,-0.044963,-0.020647,0.0743,-0.001709,0.009225,-0.012226,-0.007688,-0.529374,0.073335,-0.785157,-258.012354,-1.462435,67.123855
1.8759,-0.044957,-0.020311,0.071916,-0.001687,0.009214,-0.012229,-0.007181,-0.528952,0.073912,-0.796013,-258.013343,-1.467271,67.117162
1.896,-0.044589,-0.020519,0.071933,-0.001644,0.009191,-0.01223,-0.008214,-0.528974,0.072076,-0.796013,-258.013343,-1.467271,67.117162
1.9161,-0.044454,-0.019952,0.072059,-0.001607,0.009171,-0.012231,-0.008214,-0.528974,0.072076,-0.796013,-258.013343,-1.467271,67.117162
1.9357,-0.044233,-0.019917,0.072952,-0.001576,0.009155,-0.012232,-0.007834,-0.528249,0.071547,-0.802334,-258.014313,-1.470008,67.11046
1.9555,-0.044452,-0.019842,0.072854,-0.001564,0.009148,-0.012234,-0.007533,-0.528331,0.072054,-0.802334,-258.014313,-1.470008,67.11046
1.9761,-0.044449,-0.01933,0.068942,-0.001553,0.009143,-0.012236,-0.0074,-0.528203,0.072466,-0.818481,-258.015231,-1.476274,67.103811
1.9956,-0.044488,-0.019257,0.071884,-0.001485,0.009102,-0.012234,-0.009148,-0.528112,0.06924,-0.818481,-258.015231,-1.476274,67.103811
2.0156,-0.0447,-0.019372,0.070644,-0.001427,0.009068,-0.012234,-0.009148,-0.528112,0.06924,-0.818481,-258.015231,-1.476274,67.103811
2.0355,-0.044155,-0.018406,0.07011,-0.001378,0.009039,-0.012233,-0.008793,-0.527723,0.070132,-0.821463,-258.016145,-1.477584,67.097127
2.0554,-0.043587,-0.018904,0.069504,-0.001341,0.009017,-0.012234,-0.008653,-0.527445,0.070064,-0.821463,-258.016145,-1.477584,67.097127
2.0754,-0.043628,-0.018456,0.068624,-0.001308,0.008998,-0.012234,-0.008231,-0.527393,0.06912,-0.849461,-258.016968,-1.487505,67.09059
2.0955,-0.043698,-0.018157,0.071041,-0.00128,0.008981,-0.012234,-0.008624,-0.527254,0.068648,-0.849461,-258.016968,-1.487505,67.09059
2.1154,-0.044041,-0.018705,0.06958,-0.001255,0.008967,-0.012235,-0.008624,-0.527254,0.068648,-0.849461,-258.016968,-1.487505,67.09059
2.1358,-0.043924,-0.018192,0.070546,-0.001235,0.008955,-0.012235,-0.008665,-0.527101,0.06907,-0.862032,-258.01777,-1.491523,67.084002
2.1559,-0.043469,-0.017879,0.069597,-0.00122,0.008946,-0.012236,-0.00839,-0.526985,0.069618,-0.862032,-258.01777,-1.491523,67.084002
2.1759,-0.04373,-0.017601,0.068879,-0.001207,0.008938,-0.012236,-0.008062,-0.526364,0.069209,-0.876177,-258.018539,-1.495776,67.077435
2.1956,-0.043336,-0.01758,0.068186,-0.001177,0.008919,-0.012235,-0.008584,-0.526375,0.068889,-0.876177,-258.018539,-1.495776,67.077435
2.2156,-0.043334,-0.017478,0.068884,-0.001152,0.008903,-0.012235,-0.008584,-0.526375,0.068889,-0.876177,-258.018539,-1.495776,67.077435
2.2356,-0.043573,-0.016818,0.066848,-0.001131,0.008889,-0.012235,-0.008307,-0.5259,0.068373,-0.881678,-258.019298,-1.497383,67.070849
2.2557,-0.042927,-0.017152,0.069308,-0.001093,0.008862,-0.012233,-0.008812,-0.525766,0.067683,-0.881678,-258.019298,-1.497383,67.070849
2.2756,-0.042661,-0.016735,0.06673,-0.00106,0.00884,-0.012232,-0.007663,-0.52565,0.068922,-0.896952,-258.02002,-1.501774,67.064322
2.2955,-0.042906,-0.01603,0.066762,-0.001038,0.008825,-0.012232,-0.008572,-0.525591,0.066898,-0.896952,-258.02002,-1.501774,67.064322
2.3155,-0.042878,-0.016602,0.068712,-0.00102,0.008813,-0.012232,-0.008572,-0.525591,0.066898,-0.896952,-258.02002,-1.501774,67.064322
2.3357,-0.042746,-0.015879,0.067453,-0.001004,0.008802,-0.012232,-0.007931,-0.525035,0.068203,-0.91175,-258.02071,-1.505879,67.057809
2.3559,-0.042899,-0.016018,0.066196,-0.000991,0.008792,-0.012231,-0.00812,-0.524863,0.067836,-0.91175,-258.02071,-1.505879,67.057809
2.3755,-0.042838,-0.015807,0.065653,-0.000979,0.008784,-0.012231,-0.009214,-0.524624,0.065807,-0.924733,-258.021375,-1.509181,67.051306
2.3958,-0.042583,-0.015652,0.066282,-0.000922,0.00874,-0.012228,-0.009367,-0.524687,0.065647,-0.924733,-258.021375,-1.509181,67.051306
2.4159,-0.042503,-0.015423,0.065639,-0.000873,0.008703,-0.012227,-0.009367,-0.524687,0.065647,-0.924733,-258.021375,-1.509181,67.051306
2.4356,-0.042301,-0.015355,0.06617,-0.000832,0.008672,-0.012226,-0.009116,-0.523961,0.065127,-0.930491,-258.022029,-1.510622,67.044808
2.4556,-0.04231,-0.015077,0.065188,-0.000798,0.008646,-0.012225,-0.008906,-0.524032,0.065491,-0.930491,-258.022029,-1.510622,67.044808
2.4755,-0.042143,-0.014796,0.065718,-0.000768,0.008624,-0.012224,-0.009131,-0.523726,0.064807,-0.966341,-258.022603,-1.51928,67.038469
2.4959,-0.04199,-0.014936,0.065011,-0.000742,0.008604,-0.012223,-0.008693,-0.523685,0.065624,-0.966341,-258.022603,-1.51928,67.038469
2.5161,-0.04205,-0.014864,0.065688,-0.00072,0.008587,-0.012222,-0.008693,-0.523685,0.065624,-0.966341,-258.022603,-1.51928,67.038469
2.5354,-0.042033,-0.013968,0.063188,-0.000702,0.008573,-0.012222,-0.008628,-0.523409,0.065181,-0.984903,-258.023155,-1.523091,67.032077
2.5558,-0.04146,-0.01423,0.063923,-0.000659,0.008537,-0.01222,-0.009125,-0.523181,0.064307,-0.984903,-258.023155,-1.523091,67.032077
2.5761,-0.041457,-0.013655,0.0625,-0.000622,0.008507,-0.012219,-0.008921,-0.52292,0.063537,-1.006593,-258.023676,-1.527068,67.025695
2.5955,-0.041535,-0.01397,0.064523,-0.000565,0.008455,-0.012218,-0.009545,-0.522668,0.062571,-1.006593,-258.023676,-1.527068,67.025695
2.6159,-0.041612,-0.014235,0.065097,-0.000516,0.008412,-0.012217,-0.009545,-0.522668,0.062571,-1.006593,-258.023676,-1.527068,67.025695
2.6359,-0.041313,-0.013538,0.063845,-0.000474,0.008377,-0.012217,-0.008484,-0.522807,0.064593,-1.033345,-258.024156,-1.531863,67.019388
2.6559,-0.04139,-0.013282,0.063883,-0.000472,0.008378,-0.012218,-0.008608,-0.522641,0.06423,-1.033345,-258.024156,-1.531863,67.019388
2.6754,-0.040951,-0.013082,0.061982,-0.000469,0.008378,-0.012218,-0.008862,-0.521991,0.063515,-1.092516,-258.024546,-1.540858,67.013395
2.6955,-0.040997,-0.012817,0.062276,-0.000428,0.00834,-0.012216,-0.009319,-0.522081,0.062096,-1.092516,-258.024546,-1.540858,67.013395
2.7156,-0.041262,-0.012962,0.063472,-0.000394,0.008308,-0.012214,-0.009319,-0.522081,0.062096,-1.092516,-258.024546,-1.540858,67.013395
2.7355,-0.04116,-0.012582,0.06183,-0.000364,0.008282,-0.012213,-0.008955,-0.521587,0.062961,-1.097247,-258.024958,-1.54117,67.007047
2.7558,-0.040707,-0.012641,0.062722,-0.000326,0.008246,-0.012212,-0.009245,-0.521555,0.062435,-1.097247,-258.024958,-1.54117,67.007047
2.7757,-0.040417,-0.012103,0.060211,-0.000294,0.008216,-0.012211,-0.008766,-0.52139,0.062355,-1.154254,-258.025299,-1.547676,67.001081
2.7956,-0.040828,-0.011936,0.064251,-0.000245,0.008165,-0.012209,-0.009647,-0.521185,0.060377,-1.154254,-258.025299,-1.547676,67.001081
2.8157,-0.040714,-0.012088,0.058571,-0.000203,0.008123,-0.012208,-0.009647,-0.521185,0.060377,-1.154254,-258.025299,-1.547676,67.001081
2.8357,-0.040286,-0.011627,0.061323,-0.000168,0.008088,-0.012207,-0.010891,-0.520883,0.058078,-1.200151,-258.025613,-1.552014,66.995021
2.856,-0.040202,-0.01188,0.059723,-0.000112,0.008027,-0.012207,-0.010133,-0.520757,0.059349,-1.200151,-258.025613,-1.552014,66.995021
2.8755,-0.04031,-0.011477,0.060471,-6.4e-05,0.007977,-0.012206,-0.009779,-0.520761,0.059405,-1.275148,-258.025827,-1.560004,66.98994
2.8959,-0.040142,-0.011198,0.060386,-3.5e-05,0.007949,-0.012202,-0.009516,-0.520554,0.060358,-1.275148,-258.025827,-1.560004,66.98994
2.9158,-0.040277,-0.011274,0.061729,-1.1e-05,0.007925,-0.012198,-0.009516,-0.520554,0.060358,-1.275148,-258.025827,-1.560004,66.98994
2.9356,-0.039826,-0.010976,0.059535,1e-05,0.007906,-0.012195,-0.00883,-0.520097,0.061414,-1.35002,-258.025956,-1.566646,66.986139
2.9559,-0.040125,-0.011256,0.058859,2.8e-05,0.007887,-0.012184,-0.009097,-0.520064,0.060612,-1.35002,-258.025956,-1.566646,66.986139
2.9755,-0.039811,-0.010745,0.058824,4.4e-05,0.007871,-0.012174,-0.010131,-0.520276,0.058708,-1.425018,-258.026027,-1.571431,66.983758
2.9955,-0.039664,-0.010797,0.061473,8.4e-05,0.007824,-0.012151,-0.009856,-0.519895,0.058806,-1.425018,-258.026027,-1.571431,66.983758
3.0159,-0.039862,-0.011165,0.058856,0.000117,0.007785,-0.012133,-0.009856,-0.519895,0.058806,-1.425018,-258.026027,-1.571431,66.983758
3.0359,-0.039611,-0.010998,0.060186,0.000146,0.007753,-0.012118,-0.00987,-0.520159,0.058665,-1.500013,-258.026093,-1.573678,66.981468
3.0557,-0.039651,-0.011094,0.059105,0.000152,0.00775,-0.012088,-0.009492,-0.52011,0.05926,-1.500013,-258.026093,-1.573678,66.981468
3.0753,-0.039778,-0.010929,0.058145,0.000158,0.007747,-0.012064,-0.009524,-0.520204,0.059105,-1.42502,-258.026093,-1.580417,66.981468
3.0956,-0.039701,-0.010917,0.059038,0.000179,0.007723,-0.012018,-0.010088,-0.520079,0.058227,-1.42502,-258.026093,-1.580417,66.981468
3.1161,-0.039461,-0.01124,0.058902,0.000197,0.007703,-0.01198,-0.010088,-0.520079,0.058227,-1.42502,-258.026093,-1.580417,66.981468
3.1354,-0.039299,-0.010788,0.058769,0.000212,0.007687,-0.011948,-0.009439,-0.520355,0.058902,-1.349879,-258.026093,-1.581255,66.981467
3.1553,-0.039506,-0.010635,0.060834,0.000201,0.007704,-0.011897,-0.009401,-0.520176,0.058849,-1.349879,-258.026093,-1.581255,66.981467
3.1755,-0.039636,-0.011029,0.057334,0.000191,0.007718,-0.011854,-0.008499,-0.519692,0.060834,-1.274955,-258.026093,-1.584961,66.981467
3.1956,-0.039457,-0.011208,0.059913,0.000206,0.007699,-0.011793,-0.010243,-0.520147,0.057643,-1.274955,-258.026093,-1.584961,66.981467
3.2156,-0.039719,-0.01091,0.060414,0.000219,0.007684,-0.011742,-0.010243,-0.520147,0.057643,-1.274955,-258.026093,-1.584961,66.981467
3.2355,-0.039438,-0.011045,0.059911,0.00023,0.007671,-0.0117,-0.008927,-0.51998,0.060414,-1.199967,-258.026093,-1.583571,66.981466
3.2555,-0.039376,-0.010788,0.059691,0.000202,0.007706,-0.011634,-0.008917,-0.520041,0.060208,-1.199967,-258.026093,-1.583571,66.981466
3.2758,-0.039535,-0.010531,0.060213,0.000178,0.007735,-0.011578,-0.008951,-0.51988,0.059691,-1.125011,-258.026093,-1.586339,66.981465
3.2956,-0.039753,-0.010875,0.059258,0.000166,0.007746,-0.011501,-0.008855,-0.519632,0.060166,-1.125011,-258.026093,-1.586339,66.981465
3.3155,-0.03991,-0.010759,0.059431,0.000157,0.007755,-0.011435,-0.008855,-0.519632,0.060166,-1.125011,-258.026093,-1.586339,66.981465
3.3359,-0.039297,-0.010611,0.059578,0.000148,0.007763,-0.01138,-0.009618,-0.519858,0.059431,-1.050002,-258.026093,-1.582796,66.981465
3.3556,-0.040034,-0.010883,0.059082,0.00015,0.00776,-0.011301,-0.009332,-0.519795,0.059492,-1.050002,-258.026093,-1.582796,66.981465
3.3755,-0.039484,-0.010853,0.060417,0.000151,0.007757,-0.011234,-0.00992,-0.519994,0.059082,-0.974801,-258.026093,-1.580863,66.981464
3.3957,-0.039824,-0.01056,0.0604,0.00013,0.007781,-0.011144,-0.008798,-0.519929,0.060301,-0.974801,-258.026093,-1.580863,66.981464
3.4155,-0.039629,-0.011037,0.058929,0.000111,0.007801,-0.01107,-0.008798,-0.519929,0.060301,-0.974801,-258.026093,-1.580863,66.981464
3.4357,-0.039776,-0.010807,0.060174,9.5e-05,0.007817,-0.011008,-0.009592,-0.520152,0.058929,-1.049685,-258.026093,-1.581132,66.981463
3.4558,-0.0395,-0.010933,0.059621,9.6e-05,0.007815,-0.01089,-0.009393,-0.520042,0.059438,-1.049685,-258.026093,-1.581132,66.981463
3.4755,-0.039737,-0.010633,0.059782,9.6e-05,0.007813,-0.010793,-0.009112,-0.520027,0.05962,-1.12463,-258.026094,-1.577344,66.981452
3.4956,-0.039808,-0.010937,0.059764,0.000101,0.007805,-0.010713,-0.009253,-0.519749,0.059767,-1.12463,-258.026094,-1.577344,66.981452
3.5156,-0.039818,-0.01083,0.059372,0.000105,0.007798,-0.010647,-0.009253,-0.519749,0.059767,-1.12463,-258.026094,-1.577344,66.981452
3.5358,-0.039949,-0.010437,0.060527,0.000108,0.007793,-0.010592,-0.009556,-0.519928,0.059367,-1.199585,-258.026098,-1.577487,66.981396
3.5556,-0.039912,-0.010804,0.059758,0.000114,0.007784,-0.010547,-0.00937,-0.519755,0.059838,-1.199585,-258.026098,-1.577487,66.981396
3.576,-0.039424,-0.010754,0.060767,0.000119,0.007777,-0.01051,-0.009454,-0.519885,0.059747,-1.274586,-258.026116,-1.578361,66.981204
3.5961,-0.039623,-0.010669,0.060071,9.4e-05,0.007805,-0.010479,-0.008543,-0.519819,0.060674,-1.274586,-258.026116,-1.578361,66.981204
3.6155,-0.039843,-0.011095,0.059042,7.2e-05,0.007829,-0.010453,-0.008543,-0.519819,0.060674,-1.274586,-258.026116,-1.578361,66.981204
3.6355,-0.03969,-0.011028,0.057955,5.4e-05,0.007848,-0.010431,-0.009751,-0.520178,0.059003,-1.349591,-258.026165,-1.579182,66.980697
3.6556,-0.039733,-0.010978,0.059528,7.1e-05,0.007827,-0.010413,-0.009913,-0.520172,0.058574,-1.349591,-258.026165,-1.579182,66.980697
3.6759,-0.039808,-0.010842,0.059993,8.5e-05,0.007809,-0.010399,-0.009397,-0.519989,0.059415,-1.424582,-258.026367,-1.574562,66.978752
3.6958,-0.039638,-0.010893,0.05994,8.5e-05,0.007809,-0.010387,-0.009246,-0.519926,0.059935,-1.424582,-258.026367,-1.574562,66.978752
3.716,-0.039578,-0.010554,0.058891,8.5e-05,0.007809,-0.010377,-0.009246,-0.519926,0.059935,-1.424582,-258.026367,-1.574562,66.978752
3.7354,-0.039636,-0.010189,0.061432,8.5e-05,0.00781,-0.010368,-0.009571,-0.519504,0.05867,-1.499588,-258.026664,-1.576834,66.97587
3.7556,-0.039402,-0.010378,0.058121,9.6e-05,0.007795,-0.010401,-0.009061,-0.519371,0.059778,-1.499588,-258.026664,-1.576834,66.97587
3.7761,-0.038958,-0.010152,0.058157,0.000105,0.007782,-0.010429,-0.009787,-0.519326,0.057868,-1.57463,-258.027119,-1.576819,66.971527
3.7959,-0.038992,-0.010203,0.05779,0.000126,0.007755,-0.010479,-0.009356,-0.519283,0.058119,-1.57463,-258.027119,-1.576819,66.971527
3.816,-0.039183,-0.009978,0.059904,0.000144,0.007733,-0.010522,-0.009356,-0.519283,0.058119,-1.57463,-258.027119,-1.576819,66.971527
3.8359,-0.038953,-0.009795,0.05733,0.00016,0.007714,-0.010557,-0.008664,-0.518763,0.059502,-1.644968,-258.027641,-1.578216,66.966309
3.8558,-0.038909,-0.009603,0.057596,0.000181,0.007686,-0.010614,-0.0091,-0.518807,0.058571,-1.644968,-258.027641,-1.578216,66.966309
3.876,-0.039058,-0.00962,0.057776,0.0002,0.007662,-0.010663,-0.00956,-0.518521,0.057273,-1.696199,-258.028132,-1.582072,66.960864
3.8964,-0.038908,-0.009575,0.058344,0.000233,0.007618,-0.010731,-0.009605,-0.518737,0.057719,-1.696199,-258.028132,-1.582072,66.960864
3.9164,-0.039202,-0.009221,0.05709,0.000262,0.007581,-0.010789,-0.009605,-0.518737,0.057719,-1.696199,-258.028132,-1.582072,66.960864
3.936,-0.0381,-0.008804,0.056501,0.000287,0.007551,-0.010838,-0.010111,-0.518081,0.056659,-1.742993,-258.028582,-1.584904,66.955404
3.9558,-0.038521,-0.008879,0.056448,0.000335,0.007481,-0.010905,-0.009785,-0.518009,0.056546,-1.742993,-258.028582,-1.584904,66.955404
3.9759,-0.03881,-0.008673,0.058151,0.000377,0.007423,-0.010962,-0.009748,-0.518066,0.056448,-1.668189,-258.028582,-1.591048,66.955404
3.9962,-0.038606,-0.009185,0.056906,0.000404,0.007387,-0.011009,-0.009219,-0.517833,0.058005,-1.668189,-258.028582,-1.591048,66.955404
4.0158,-0.038725,-0.009141,0.057445,0.000427,0.007358,-0.011049,-0.009219,-0.517833,0.058005,-1.668189,-258.028582,-1.591048,66.955404
4.0359,-0.038594,-0.009099,0.057555,0.000446,0.007334,-0.011082,-0.009444,-0.5183,0.057445,-1.593082,-258.028582,-1.597459,66.955403
4.0556,-0.038169,-0.008836,0.055096,0.000453,0.007332,-0.011109,-0.009368,-0.518281,0.05749,-1.593082,-258.028582,-1.597459,66.955403
4.0753,-0.038458,-0.009508,0.058391,0.000459,0.00733,-0.011132,-0.010084,-0.518062,0.055096,-1.518038,-258.028581,-1.602447,66.955403
4.0959,-0.038474,-0.009083,0.058578,0.000437,0.007366,-0.01115,-0.008815,-0.518589,0.058106,-1.518038,-258.028581,-1.602447,66.955403
4.1159,-0.038301,-0.009184,0.056891,0.000419,0.007395,-0.011165,-0.008815,-0.518589,0.058106,-1.518038,-258.028581,-1.602447,66.955403
4.1359,-0.038373,-0.009005,0.05746,0.000404,0.00742,-0.011177,-0.009302,-0.518359,0.056891,-1.44302,-258.028581,-1.603263,66.955402
4.1559,-0.03854,-0.009087,0.05656,0.000412,0.007408,-0.011186,-0.009214,-0.51828,0.057123,-1.44302,-258.028581,-1.603263,66.955402
4.1761,-0.038834,-0.008979,0.056696,0.000419,0.007399,-0.011193,-0.00971,-0.518271,0.05656,-1.3681,-258.028581,-1.599127,66.955401
4.1957,-0.038417,-0.009024,0.056449,0.000447,0.007359,-0.011191,-0.00991,-0.518171,0.056681,-1.3681,-258.028581,-1.599127,66.955401
4.2155,-0.038569,-0.008739,0.057515,0.00047,0.007326,-0.011189,-0.00991,-0.518171,0.056681,-1.3681,-258.028581,-1.599127,66.955401
4.2355,-0.038427,-0.008931,0.058012,0.00049,0.007298,-0.011188,-0.009252,-0.517896,0.057515,-1.293073,-258.028581,-1.600241,66.955401
4.2563,-0.038682,-0.008748,0.056048,0.000491,0.007299,-0.011172,-0.009089,-0.517969,0.05772,-1.293073,-258.028581,-1.600241,66.955401
4.2757,-0.038387,-0.008641,0.057314,0.000492,0.007299,-0.011158,-0.010112,-0.517947,0.056048,-1.218058,-258.028581,-1.605442,66.9554
4.2959,-0.038721,-0.009062,0.056895,0.000501,0.007285,-0.011124,-0.009258,-0.517817,0.057198,-1.218058,-258.028581,-1.605442,66.9554
4.316,-0.038311,-0.008751,0.056213,0.000509,0.007274,-0.011096,-0.009258,-0.517817,0.057198,-1.218058,-258.028581,-1.605442,66.9554
4.3358,-0.038514,-0.008822,0.057506,0.000515,0.007265,-0.011073,-0.009657,-0.517946,0.056213,-1.143185,-258.028581,-1.605637,66.9554
4.3559,-0.038703,-0.008517,0.055855,0.000521,0.007259,-0.011024,-0.00947,-0.517959,0.056745,-1.143185,-258.028581,-1.605637,66.9554
4.3757,-0.038785,-0.009079,0.057038,0.000526,0.007253,-0.010984,-0.010231,-0.517721,0.055855,-1.068073,-258.028581,-1.607525,66.955399
4.3954,-0.038459,-0.009466,0.057532,0.000527,0.007254,-0.010913,-0.009757,-0.518203,0.056933,-1.068073,-258.028581,-1.607525,66.955399
4.416,-0.03881,-0.00919,0.057494,0.000529,0.007254,-0.010854,-0.009757,-0.518203,0.056933,-1.068073,-258.028581,-1.607525,66.955399
4.4357,-0.038569,-0.009417,0.057085,0.00053,0.007254,-0.010806,-0.009504,-0.518347,0.057494,-0.993102,-258.028581,-1.608419,66.955399
4.456,-0.03862,-0.008889,0.055957,0.000516,0.007276,-0.010724,-0.009491,-0.518445,0.057326,-0.993102,-258.028581,-1.608419,66.955399
4.4759,-0.038268,-0.008935,0.057771,0.000504,0.007294,-0.010656,-0.010096,-0.518091,0.055957,-0.918042,-258.028581,-1.609014,66.955398
4.4956,-0.038658,-0.009245,0.056556,0.00049,0.007313,-0.0106,-0.008969,-0.518085,0.057562,-0.918042,-258.028581,-1.609014,66.955398
4.5158,-0.038772,-0.009128,0.056854,0.000478,0.007328,-0.010553,-0.008969,-0.518085,0.057562,-0.918042,-258.028581,-1.609014,66.955398
4.5357,-0.038248,-0.00908,0.056383,0.000467,0.00734,-0.010514,-0.009792,-0.518304,0.056854,-0.843186,-258.028581,-1.607313,66.955398
4.5559,-0.03853,-0.009279,0.057176,0.000472,0.007332,-0.010483,-0.009678,-0.51829,0.056666,-0.843186,-258.028581,-1.607313,66.955398
4.5755,-0.038591,-0.009125,0.057137,0.000476,0.007326,-0.010457,-0.009386,-0.518446,0.057176,-0.768186,-258.028581,-1.604754,66.955397
4.5956,-0.038278,-0.009046,0.056763,0.000473,0.00733,-0.010436,-0.009459,-0.518307,0.057141,-0.768186,-258.028581,-1.604754,66.955397
4.6155,-0.038858,-0.009179,0.05792,0.00047,0.007333,-0.010418,-0.009459,-0.518307,0.057141,-0.768186,-258.028581,-1.604754,66.955397
4.6355,-0.038128,-0.008803,0.057295,0.000468,0.007336,-0.010403,-0.009336,-0.518324,0.05792,-0.693189,-258.028581,-1.605473,66.955396
4.6556,-0.038648,-0.009076,0.056632,0.000461,0.007343,-0.01039,-0.009156,-0.518168,0.057647,-0.693189,-258.028581,-1.605473,66.955396
4.6757,-0.038977,-0.008915,0.057494,0.000456,0.007349,-0.01038,-0.009781,-0.518258,0.056632,-0.617282,-258.028581,-1.604933,66.955396
4.6956,-0.038817,-0.008661,0.057551,0.000469,0.007329,-0.010372,-0.009681,-0.518088,0.057424,-0.617282,-258.028581,-1.604933,66.955396
4.7154,-0.038446,-0.009412,0.057178,0.000479,0.007313,-0.010365,-0.009681,-0.518088,0.057424,-0.617282,-258.028581,-1.604933,66.955396
4.7358,-0.038446,-0.009036,0.057786,0.000488,0.007299,-0.01036,-0.009301,-0.518578,0.057178,-0.542855,-258.028581,-1.6041,66.955395
4.7559,-0.038574,-0.009143,0.057282,0.000471,0.007325,-0.010355,-0.009175,-0.518418,0.057426,-0.542855,-258.028581,-1.6041,66.955395
4.7757,-0.038875,-0.008858,0.057631,0.000457,0.007346,-0.01035,-0.009377,-0.518306,0.057282,-0.468186,-258.028581,-1.606609,66.955395
4.7958,-0.038453,-0.009039,0.056527,0.000466,0.007331,-0.010347,-0.009489,-0.518037,0.057601,-0.468186,-258.028581,-1.606609,66.955395
4.8158,-0.038669,-0.009227,0.056362,0.000473,0.007319,-0.010344,-0.009489,-0.518037,0.057601,-0.468186,-258.028581,-1.606609,66.955395
4.8356,-0.038394,-0.008639,0.057347,0.00048,0.00731,-0.010342,-0.009939,-0.518418,0.056362,-0.393051,-258.028581,-1.604223,66.955394
4.8555,-0.038375,-0.008615,0.055291,0.000484,0.007303,-0.01034,-0.009623,-0.518166,0.056764,-0.393051,-258.028581,-1.604223,66.955394
4.8756,-0.038492,-0.008747,0.057915,0.000488,0.007298,-0.010339,-0.010191,-0.517835,0.055291,-0.31804,-258.028581,-1.605985,66.955394
4.8955,-0.038445,-0.008857,0.056934,0.000486,0.007301,-0.010337,-0.009078,-0.517887,0.057687,-0.31804,-258.028581,-1.605985,66.955394
4.9157,-0.038455,-0.009016,0.056607,0.000483,0.007304,-0.010335,-0.009078,-0.517887,0.057687,-0.31804,-258.028581,-1.605985,66.955394
4.9357,-0.038565,-0.009327,0.057938,0.000481,0.007306,-0.010334,-0.0096,-0.518199,0.056607,-0.243059,-258.028581,-1.606657,66.955393
4.9557,-0.038794,-0.008793,0.058236,0.000474,0.007318,-0.010333,-0.009364,-0.518312,0.057161,-0.243059,-258.028581,-1.606657,66.955393
4.9753,-0.038409,-0.008664,0.056744,0.000468,0.007327,-0.010332,-0.009111,-0.517929,0.058236,-0.167833,-258.028581,-1.606141,66.955393
4.9955,-0.038445,-0.00919,0.055998,0.00048,0.007308,-0.010332,-0.00945,-0.51785,0.05688,-0.167833,-258.028581,-1.606141,66.955393
5.0154,-0.038344,-0.008853,0.057081,0.00049,0.007293,-0.010331,-0.00945,-0.51785,0.05688,-0.167833,-258.028581,-1.606141,66.955393
5.0353,-0.038377,-0.009051,0.057608,0.000498,0.00728,-0.010331,-0.009248,-0.518022,0.057081,-0.093183,-258.028581,-1.605125,66.955392
5.0555,-0.038475,-0.008765,0.057112,0.000489,0.007294,-0.010331,-0.009153,-0.518097,0.057295,-0.093183,-258.028581,-1.605125,66.955392
5.0757,-0.038435,-0.009172,0.056919,0.000482,0.007306,-0.01033,-0.009364,-0.517934,0.057112,-0.018187,-258.028581,-1.607415,66.955392
5.0958,-0.03848,-0.008876,0.05765,0.000476,0.007316,-0.01033,-0.009416,-0.518309,0.056937,-0.018187,-258.028581,-1.607415,66.955392
5.1159,-0.03854,-0.00906,0.056515,0.000471,0.007324,-0.010329,-0.009416,-0.518309,0.056937,-0.018187,-258.028581,-1.607415,66.955392
5.1361,-0.038643,-0.008979,0.057752,0.000467,0.00733,-0.010329,-0.009733,-0.518245,0.056515,0.056808,-258.028581,-1.60615,66.955391
5.1561,-0.038492,-0.0096,0.058564,0.00047,0.007326,-0.010329,-0.00951,-0.518196,0.057038,0.056808,-258.028581,-1.60615,66.955391
5.1754,-0.037995,-0.009314,0.058077,0.000472,0.007323,-0.010329,-0.008642,-0.518726,0.058563,0.132348,-258.028581,-1.605021,66.95539
5.1954,-0.038424,-0.009119,0.057053,0.000431,0.007379,-0.010328,-0.008417,-0.51848,0.058124,0.132348,-258.028581,-1.605021,66.95539
5.2153,-0.038575,-0.009161,0.057208,0.000396,0.007425,-0.010326,-0.008417,-0.51848,0.058124,0.132348,-258.028581,-1.605021,66.95539
5.2355,-0.038692,-0.00906,0.05777,0.000366,0.007463,-0.010325,-0.009415,-0.518327,0.057208,0.206816,-258.028581,-1.605398,66.95539
5.256,-0.038727,-0.009337,0.056809,0.000377,0.007446,-0.010325,-0.009346,-0.518278,0.057438,0.206816,-258.028581,-1.605398,66.95539
5.2754,-0.038439,-0.009073,0.057586,0.000386,0.007433,-0.010325,-0.00977,-0.518514,0.056809,0.281814,-258.028581,-1.597367,66.955389
5.2957,-0.038629,-0.008951,0.057246,0.000388,0.007428,-0.010325,-0.009149,-0.518254,0.057515,0.281814,-258.028581,-1.597367,66.955389
5.3157,-0.038412,-0.009105,0.056912,0.000391,0.007424,-0.010325,-0.009149,-0.518254,0.057515,0.281814,-258.028581,-1.597367,66.955389
5.3358,-0.038113,-0.009451,0.055825,0.000393,0.007422,-0.010325,-0.009403,-0.51828,0.056912,0.356805,-258.028581,-1.598857,66.955389
5.3555,-0.038446,-0.009007,0.057442,0.000399,0.007414,-0.010325,-0.009506,-0.518433,0.05647,0.356805,-258.028581,-1.598857,66.955389
5.376,-0.038479,-0.009135,0.057664,0.000404,0.007408,-0.010326,-0.009167,-0.518166,0.057442,0.431812,-258.02858,-1.59941,66.955388
5.3956,-0.038482,-0.008925,0.056684,0.000402,0.007412,-0.010326,-0.009095,-0.518274,0.05764,0.431812,-258.02858,-1.59941,66.955388
5.4157,-0.03853,-0.008789,0.057512,0.0004,0.007414,-0.010325,-0.009095,-0.518274,0.05764,0.431812,-258.02858,-1.59941,66.955388
5.4357,-0.038439,-0.008914,0.056811,0.000398,0.007416,-0.010325,-0.009215,-0.517946,0.057512,0.506819,-258.02858,-1.600233,66.955388
5.4555,-0.038538,-0.009273,0.056217,0.000412,0.007395,-0.010326,-0.009323,-0.518005,0.057228,0.506819,-258.02858,-1.600233,66.955388
5.4757,-0.03841,-0.009156,0.05808,0.000424,0.007378,-0.010326,-0.009883,-0.518467,0.056217,0.581909,-258.02858,-1.599826,66.955386
5.4957,-0.038437,-0.009279,0.056273,0.000412,0.007396,-0.010326,-0.008902,-0.518312,0.057914,0.581909,-258.02858,-1.599826,66.955386
5.5157,-0.038558,-0.008793,0.058407,0.000401,0.007411,-0.010325,-0.008902,-0.518312,0.057914,0.581909,-258.02858,-1.599826,66.955386
5.5355,-0.038394,-0.008781,0.056802,0.000393,0.007424,-0.010325,-0.008787,-0.517923,0.058407,0.6569,-258.02858,-1.60175,66.955377
5.5555,-0.038562,-0.009327,0.056298,0.000402,0.007409,-0.010325,-0.009053,-0.517937,0.057752,0.6569,-258.02858,-1.60175,66.955377
5.5755,-0.038415,-0.009021,0.057123,0.00041,0.007396,-0.010325,-0.009865,-0.518518,0.056297,0.731812,-258.028578,-1.599387,66.955357
5.5958,-0.038954,-0.0089,0.058413,0.000416,0.007389,-0.010326,-0.009349,-0.518219,0.057049,0.731812,-258.028578,-1.599387,66.955357
5.6156,-0.038211,-0.008466,0.05755,0.000421,0.007383,-0.010326,-0.009349,-0.518219,0.057049,0.731812,-258.028578,-1.599387,66.955357
5.6356,-0.03852,-0.009007,0.057115,0.000425,0.007378,-0.010326,-0.008877,-0.517615,0.05754,0.806912,-258.028568,-1.600687,66.955237
5.6557,-0.038332,-0.008969,0.057788,0.000433,0.007364,-0.010326,-0.009094,-0.517844,0.057365,0.806912,-258.028568,-1.600687,66.955237
5.6752,-0.038824,-0.008989,0.056112,0.000441,0.007353,-0.010326,-0.008876,-0.518097,0.057759,0.881804,-258.028528,-1.601847,66.954762
5.6955,-0.038653,-0.009079,0.056036,0.000463,0.007322,-0.010328,-0.010107,-0.518177,0.056252,0.881804,-258.028528,-1.601847,66.954762
5.7154,-0.038738,-0.008735,0.057017,0.000482,0.007296,-0.010329,-0.010107,-0.518177,0.056252,0.881804,-258.028528,-1.601847,66.954762
5.7358,-0.038511,-0.008979,0.057424,0.000498,0.007275,-0.010331,-0.009674,-0.517829,0.056906,0.956942,-258.028412,-1.60304,66.953376
5.7561,-0.038503,-0.008944,0.056464,0.000503,0.007269,-0.010331,-0.009497,-0.517947,0.057105,0.956942,-258.028412,-1.60304,66.953376
5.7755,-0.038398,-0.008589,0.057258,0.000508,0.007263,-0.010331,-0.009718,-0.517964,0.056228,1.031812,-258.028092,-1.607419,66.949487
5.7959,-0.038042,-0.008609,0.057034,0.000511,0.007259,-0.010375,-0.009257,-0.517764,0.057155,1.031812,-258.028092,-1.607419,66.949487
5.8161,-0.038392,-0.008569,0.056544,0.000514,0.007256,-0.010411,-0.009257,-0.517764,0.057155,1.031812,-258.028092,-1.607419,66.949487
5.8356,-0.037719,-0.007932,0.056278,0.000516,0.007253,-0.010441,-0.009565,-0.517461,0.056128,1.081449,-258.027676,-1.608201,66.944263
5.8557,-0.037745,-0.008138,0.0567,0.000537,0.007216,-0.010499,-0.009349,-0.517291,0.056141,1.081449,-258.027676,-1.608201,66.944263
5.8753,-0.037492,-0.007879,0.055025,0.000555,0.007186,-0.010548,-0.00884,-0.517094,0.056377,1.038485,-258.027282,-1.608639,66.938966
5.8961,-0.037673,-0.007379,0.05567,0.000579,0.007147,-0.010618,-0.009391,-0.517095,0.055125,1.038485,-258.027282,-1.608639,66.938966
5.9161,-0.037571,-0.008117,0.055223,0.000599,0.007115,-0.010677,-0.009391,-0.517095,0.055125,1.038485,-258.027282,-1.608639,66.938966
5.9357,-0.037685,-0.007852,0.055638,0.000616,0.007088,-0.010726,-0.009417,-0.517088,0.054857,0.963473,-258.026975,-1.61153,66.934462
5.9555,-0.03763,-0.007911,0.056505,0.000634,0.007062,-0.01079,-0.00938,-0.51705,0.055125,0.963473,-258.026975,-1.61153,66.934462
5.9756,-0.037078,-0.007682,0.055423,0.000648,0.007041,-0.010844,-0.008826,-0.517012,0.056378,0.888603,-258.026852,-1.615967,66.932419
5.9956,-0.037441,-0.007474,0.055516,0.000652,0.007037,-0.010899,-0.008826,-0.516905,0.055505,0.888603,-258.026852,-1.615967,66.932419
6.0157,-0.037619,-0.00732,0.056018,0.000655,0.007033,-0.010944,-0.008826,-0.516905,0.055505,0.888603,-258.026852,-1.615967,66.932419
6.0356,-0.037096,-0.007723,0.055648,0.000658,0.00703,-0.010982,-0.009063,-0.516461,0.05593,0.813604,-258.026792,-1.6182,66.931344
6.0555,-0.037406,-0.007432,0.054825,0.000672,0.007006,-0.01102,-0.008928,-0.516645,0.055806,0.813604,-258.026792,-1.6182,66.931344
6.0758,-0.037382,-0.00719,0.055768,0.000684,0.006986,-0.011052,-0.009458,-0.516638,0.054782,0.738615,-258.026755,-1.61865,66.930661
6.0956,-0.037316,-0.007358,0.056612,0.000703,0.00695,-0.011082,-0.008998,-0.516416,0.055682,0.738615,-258.026755,-1.61865,66.930661
6.1157,-0.037258,-0.007369,0.054036,0.00072,0.006922,-0.011108,-0.008998,-0.516416,0.055682,0.738615,-258.026755,-1.61865,66.930661
6.1356,-0.037389,-0.007339,0.055631,0.000734,0.006898,-0.011129,-0.009712,-0.516605,0.054006,0.663468,-258.026736,-1.620548,66.9303
6.1555,-0.037131,-0.007064,0.053592,0.000751,0.006872,-0.011149,-0.009436,-0.516581,0.05466,0.663468,-258.026736,-1.620548,66.9303
6.1757,-0.037227,-0.007352,0.05518,0.000766,0.006851,-0.011165,-0.009812,-0.51633,0.053588,0.588592,-258.026734,-1.624353,66.930247
6.1957,-0.037411,-0.007647,0.055082,0.000773,0.006843,-0.011176,-0.00916,-0.516555,0.055044,0.588592,-258.026734,-1.624353,66.930247
6.2157,-0.036969,-0.007243,0.054744,0.000778,0.006836,-0.011186,-0.00916,-0.516555,0.055044,0.588592,-258.026734,-1.624353,66.930247
6.2357,-0.037243,-0.007308,0.055319,0.000784,0.00683,-0.011194,-0.009063,-0.516478,0.054741,0.513479,-258.026732,-1.626746,66.930212
6.2555,-0.037299,-0.007332,0.055379,0.000787,0.006827,-0.011193,-0.009056,-0.516498,0.054976,0.513479,-258.026732,-1.626746,66.930212
6.276,-0.03739,-0.007203,0.055073,0.00079,0.006824,-0.011193,-0.00907,-0.516548,0.055376,0.438588,-258.026728,-1.628064,66.930155
6.2958,-0.03721,-0.006974,0.054955,0.000799,0.006809,-0.011174,-0.009293,-0.516441,0.055101,0.438588,-258.026728,-1.628064,66.930155
6.3155,-0.037471,-0.007498,0.054028,0.000806,0.006797,-0.011158,-0.009293,-0.516441,0.055101,0.438588,-258.026728,-1.628064,66.930155
6.3357,-0.037113,-0.00713,0.055679,0.000813,0.006787,-0.011145,-0.009929,-0.516744,0.054013,0.363601,-258.026718,-1.628532,66.929974
6.3557,-0.037493,-0.007178,0.05468,0.000816,0.006785,-0.011107,-0.00944,-0.516578,0.054692,0.363601,-258.026718,-1.628532,66.929974
6.3757,-0.037073,-0.007124,0.054313,0.000819,0.006782,-0.011075,-0.009619,-0.516397,0.054651,0.288601,-258.02669,-1.630508,66.929511
6.3957,-0.037329,-0.007521,0.055996,0.000826,0.00677,-0.011019,-0.009407,-0.516373,0.05434,0.288601,-258.02669,-1.630508,66.929511
6.4157,-0.037162,-0.007312,0.054857,0.000831,0.006761,-0.010972,-0.009407,-0.516373,0.05434,0.288601,-258.02669,-1.630508,66.929511
6.4362,-0.037101,-0.007236,0.055485,0.000836,0.006753,-0.010933,-0.009193,-0.516454,0.054711,0.213508,-258.026586,-1.631191,66.927791
6.4555,-0.037084,-0.007004,0.052871,0.000828,0.00677,-0.010881,-0.009039,-0.516442,0.055011,0.213508,-258.026586,-1.631191,66.927791
6.4753,-0.036718,-0.006478,0.0543,0.00082,0.006784,-0.010837,-0.01012,-0.516122,0.0526,0.138498,-258.026324,-1.632973,66.923579
6.4958,-0.036922,-0.006902,0.053909,0.000838,0.00674,-0.010819,-0.00913,-0.515751,0.054142,0.138498,-258.026324,-1.632973,66.923579
6.516,-0.036837,-0.006848,0.054944,0.000854,0.006704,-0.010805,-0.00913,-0.515751,0.054142,0.138498,-258.026324,-1.632973,66.923579
6.5356,-0.036445,-0.006105,0.05311,0.000867,0.006674,-0.010792,-0.008812,-0.51581,0.054517,0.19865,-258.026009,-1.631909,66.91852
6.5559,-0.036915,-0.006548,0.054559,0.000882,0.006642,-0.010807,-0.009039,-0.515605,0.053891,0.19865,-258.026009,-1.631909,66.91852
6.5754,-0.036905,-0.006441,0.053836,0.000895,0.006615,-0.01082,-0.00909,-0.515609,0.054271,0.123793,-258.025715,-1.636096,66.914037
6.5956,-0.036641,-0.006412,0.053082,0.000912,0.006581,-0.010853,-0.009428,-0.515684,0.05386,0.123793,-258.025715,-1.636096,66.914037
6.6154,-0.036407,-0.006439,0.053038,0.000926,0.006553,-0.01088,-0.009428,-0.515684,0.05386,0.123793,-258.025715,-1.636096,66.914037
6.6356,-0.035992,-0.006108,0.053013,0.000939,0.006531,-0.010903,-0.009351,-0.515498,0.052676,0.048718,-258.025427,-1.638351,66.909776
6.6554,-0.036167,-0.006114,0.051637,0.000953,0.006502,-0.010944,-0.009194,-0.515429,0.052771,0.048718,-258.025427,-1.638351,66.909776
6.6755,-0.035882,-0.005666,0.05267,0.000965,0.006478,-0.010977,-0.009833,-0.515312,0.051438,-0.026165,-258.025208,-1.641864,66.906719
6.6955,-0.035924,-0.005415,0.052196,0.000986,0.006425,-0.011022,-0.009104,-0.514984,0.05255,-0.026165,-258.025208,-1.641864,66.906719
6.7155,-0.036141,-0.005807,0.051666,0.001005,0.006382,-0.011059,-0.009104,-0.514984,0.05255,-0.026165,-258.025208,-1.641864,66.906719
6.7359,-0.035694,-0.005337,0.053852,0.001021,0.006347,-0.01109,-0.00979,-0.514985,0.051433,-0.101176,-258.025006,-1.64386,66.904019
6.7556,-0.035612,-0.005884,0.05165,0.00104,0.0063,-0.011129,-0.00916,-0.514812,0.052389,-0.101176,-258.025006,-1.64386,66.904019
6.7757,-0.035723,-0.005619,0.051825,0.001057,0.006262,-0.011162,-0.009276,-0.515153,0.051565,-0.176187,-258.024897,-1.648444,66.90273
6.7957,-0.035777,-0.005212,0.051909,0.001071,0.006237,-0.011195,-0.009301,-0.514951,0.051798,-0.176187,-258.024897,-1.648444,66.90273
6.816,-0.035648,-0.005291,0.050695,0.001082,0.006217,-0.011222,-0.009301,-0.514951,0.051798,-0.176187,-258.024897,-1.648444,66.90273
6.8358,-0.035528,-0.005538,0.051598,0.001092,0.0062,-0.011245,-0.009797,-0.514578,0.050596,-0.251178,-258.024794,-1.651471,66.901596
6.8558,-0.035798,-0.005615,0.051892,0.001111,0.006154,-0.011271,-0.009563,-0.514685,0.050992,-0.251178,-258.024794,-1.651471,66.901596
6.8758,-0.035701,-0.005062,0.05104,0.001128,0.006117,-0.011293,-0.009339,-0.51488,0.051809,-0.326179,-258.024673,-1.654193,66.900354
6.8957,-0.035132,-0.005016,0.05066,0.001149,0.006062,-0.011316,-0.009653,-0.514437,0.051101,-0.326179,-258.024673,-1.654193,66.900354
6.9157,-0.035558,-0.00507,0.052644,0.001168,0.006017,-0.011335,-0.009653,-0.514437,0.051101,-0.326179,-258.024673,-1.654193,66.900354
6.9359,-0.035452,-0.005414,0.051052,0.001183,0.00598,-0.01135,-0.008711,-0.514288,0.052513,-0.401311,-258.024517,-1.657251,66.898876
6.9556,-0.035228,-0.005379,0.050848,0.001187,0.005976,-0.011359,-0.008998,-0.514465,0.05191,-0.401311,-258.024517,-1.657251,66.898876
6.9755,-0.035452,-0.005249,0.051285,0.00119,0.005972,-0.011367,-0.009298,-0.514663,0.050745,-0.476202,-258.024341,-1.662194,66.897369
6.9959,-0.034837,-0.004943,0.050767,0.001194,0.00597,-0.011362,-0.009306,-0.514583,0.051232,-0.476202,-258.024341,-1.662194,66.897369
7.0157,-0.03516,-0.005274,0.051614,0.001197,0.005967,-0.011357,-0.009306,-0.514583,0.051232,-0.476202,-258.024341,-1.662194,66.897369
7.0358,-0.035262,-0.00497,0.051693,0.0012,0.005965,-0.011353,-0.008829,-0.514468,0.05138,-0.551279,-258.024035,-1.662692,66.894785
7.0555,-0.035212,-0.005129,0.051658,0.0012,0.005964,-0.011338,-0.00886,-0.51438,0.051481,-0.551279,-258.024035,-1.662692,66.894785
7.0758,-0.034935,-0.004595,0.05193,0.0012,0.005963,-0.011325,-0.008855,-0.5143,0.05138,-0.626179,-258.02356,-1.663583,66.890798
7.0958,-0.035411,-0.004907,0.050948,0.001205,0.005935,-0.011314,-0.008497,-0.513935,0.051866,-0.626179,-258.02356,-1.663583,66.890798
7.1157,-0.034831,-0.004787,0.050194,0.00121,0.005912,-0.011305,-0.008497,-0.513935,0.051866,-0.626179,-258.02356,-1.663583,66.890798
7.136,-0.034626,-0.004484,0.050473,0.001214,0.005894,-0.011297,-0.009206,-0.513901,0.049735,-0.671396,-258.022967,-1.66371,66.88579
7.1559,-0.034616,-0.004121,0.049912,0.001228,0.00585,-0.011299,-0.009075,-0.513846,0.049983,-0.671396,-258.022967,-1.66371,66.88579
7.1756,-0.034395,-0.00415,0.050233,0.001239,0.005814,-0.011299,-0.009142,-0.513298,0.049555,-0.69191,-258.02234,-1.6654,66.880684
7.1954,-0.034106,-0.00407,0.050235,0.001254,0.005757,-0.011313,-0.008818,-0.513478,0.050153,-0.69191,-258.02234,-1.6654,66.880684
7.2154,-0.034299,-0.004334,0.049761,0.001267,0.005711,-0.011324,-0.008818,-0.513478,0.050153,-0.69191,-258.02234,-1.6654,66.880684
7.2355,-0.0339,-0.0038,0.047899,0.001279,0.005673,-0.011333,-0.008892,-0.51346,0.049294,-0.719917,-258.021689,-1.667965,66.875638
7.2558,-0.033611,-0.003561,0.048377,0.001295,0.005618,-0.011354,-0.009128,-0.513332,0.048671,-0.719917,-258.021689,-1.667965,66.875638
7.2758,-0.033715,-0.003348,0.048914,0.001309,0.005573,-0.011372,-0.008918,-0.51279,0.048032,-0.773268,-258.021007,-1.67197,66.870801
7.2959,-0.033618,-0.00346,0.049137,0.001328,0.005483,-0.011408,-0.00879,-0.512734,0.048814,-0.773268,-258.021007,-1.67197,66.870801
7.3157,-0.033493,-0.003414,0.047078,0.001345,0.005409,-0.011437,-0.00879,-0.512734,0.048814,-0.773268,-258.021007,-1.67197,66.870801
7.3356,-0.033285,-0.00291,0.048453,0.00136,0.00535,-0.01146,-0.009449,-0.512617,0.046611,-0.809006,-258.020264,-1.67498,66.865869
7.3557,-0.032854,-0.002979,0.046963,0.001379,0.005264,-0.011501,-0.009095,-0.512467,0.047302,-0.809006,-258.020264,-1.67498,66.865869
7.3754,-0.03294,-0.002892,0.0466,0.001396,0.005194,-0.011535,-0.008879,-0.512258,0.046628,-0.881539,-258.019478,-1.680443,66.861304
7.3956,-0.032942,-0.003,0.047738,0.001413,0.00512,-0.011579,-0.009153,-0.512323,0.046586,-0.881539,-258.019478,-1.680443,66.861304
7.4157,-0.03313,-0.002921,0.047162,0.001429,0.005059,-0.011616,-0.009153,-0.512323,0.046586,-0.881539,-258.019478,-1.680443,66.861304
7.4356,-0.032486,-0.002337,0.048401,0.001443,0.005009,-0.011645,-0.00904,-0.512141,0.046693,-0.924544,-258.018576,-1.684354,66.856511
7.4557,-0.032636,-0.002604,0.046341,0.001453,0.004939,-0.011689,-0.008528,-0.511951,0.047343,-0.924544,-258.018576,-1.684354,66.856511
7.4755,-0.032418,-0.002267,0.045837,0.001463,0.004883,-0.011724,-0.008973,-0.5119,0.045983,-0.969598,-258.017591,-1.689252,66.851796
7.4957,-0.032278,-0.002056,0.046513,0.001477,0.004802,-0.011774,-0.009041,-0.511738,0.045832,-0.969598,-258.017591,-1.689252,66.851796
7.5155,-0.032181,-0.002184,0.047364,0.00149,0.004736,-0.011815,-0.009041,-0.511738,0.045832,-0.969598,-258.017591,-1.689252,66.851796
7.5355,-0.031666,-0.002186,0.045795,0.001502,0.004682,-0.011848,-0.007983,-0.511408,0.046881,-0.999809,-258.016524,-1.691677,66.847014
7.5555,-0.031912,-0.002369,0.046375,0.001506,0.004624,-0.011887,-0.008114,-0.511484,0.046384,-0.999809,-258.016524,-1.691677,66.847014
7.5755,-0.031781,-0.001824,0.04492,0.001511,0.004577,-0.011919,-0.008229,-0.511673,0.046007,-1.039232,-258.015367,-1.69613,66.842321
7.5957,-0.031504,-0.001492,0.045434,0.001522,0.004509,-0.011955,-0.008822,-0.511333,0.044995,-1.039232,-258.015367,-1.69613,66.842321
7.6154,-0.031758,-0.002136,0.043761,0.001532,0.004455,-0.011984,-0.008822,-0.511333,0.044995,-1.039232,-258.015367,-1.69613,66.842321
7.6355,-0.031479,-0.001696,0.042857,0.001541,0.00441,-0.012007,-0.009393,-0.511455,0.043267,-1.060968,-258.014139,-1.697584,66.837584
7.6554,-0.031246,-0.001997,0.042864,0.001553,0.004368,-0.012028,-0.009483,-0.51134,0.043043,-1.060968,-258.014139,-1.697584,66.837584
7.6755,-0.031028,-0.001547,0.043951,0.001564,0.004333,-0.012046,-0.009349,-0.511387,0.042485,-1.085715,-258.012829,-1.70126,66.832886
7.6957,-0.030708,-0.00144,0.042452,0.001569,0.004285,-0.012063,-0.008681,-0.511076,0.043805,-1.085715,-258.012829,-1.70126,66.832886
7.7156,-0.030821,-0.001696,0.045242,0.001574,0.004246,-0.012076,-0.008681,-0.511076,0.043805,-1.085715,-258.012829,-1.70126,66.832886
7.7359,-0.030221,-0.001217,0.043541,0.001578,0.004214,-0.012087,-0.007699,-0.510991,0.044739,-1.093528,-258.011469,-1.703765,66.828173
7.7554,-0.030291,-0.00134,0.042597,0.001576,0.004173,-0.012098,-0.007825,-0.510863,0.044187,-1.093528,-258.011469,-1.703765,66.828173
7.7757,-0.030098,-0.001199,0.042448,0.001574,0.004139,-0.012107,-0.008528,-0.510741,0.042214,-1.108515,-258.010059,-1.706085,66.823512
7.7955,-0.030021,-0.000768,0.044764,0.001577,0.004091,-0.012118,-0.00846,-0.510733,0.042407,-1.108515,-258.010059,-1.706085,66.823512
7.8154,-0.029891,-0.000993,0.042931,0.001581,0.004051,-0.012127,-0.00846,-0.510733,0.042407,-1.108515,-258.010059,-1.706085,66.823512
7.8355,-0.029794,-0.001119,0.040837,0.001585,0.004019,-0.012134,-0.007945,-0.510348,0.042426,-1.120407,-258.008616,-1.706411,66.818866
7.8558,-0.029716,-0.000681,0.042079,0.001586,0.003962,-0.012145,-0.008361,-0.51047,0.041715,-1.120407,-258.008616,-1.706411,66.818866
7.8758,-0.029648,-0.000549,0.041254,0.001588,0.003916,-0.012153,-0.008217,-0.5101,0.041694,-1.133605,-258.007124,-1.708597,66.814269
7.8954,-0.029416,-0.000336,0.041662,0.001589,0.003833,-0.012168,-0.008576,-0.510107,0.041275,-1.133605,-258.007124,-1.708597,66.814269
7.9158,-0.029349,-0.000228,0.041541,0.00159,0.003766,-0.012179,-0.008576,-0.510107,0.041275,-1.133605,-258.007124,-1.708597,66.814269
7.9358,-0.028954,-0.00043,0.040252,0.001593,0.003712,-0.012187,-0.00811,-0.509622,0.041033,-1.14544,-258.005588,-1.709986,66.809699
7.9558,-0.029383,-0.000226,0.043411,0.001588,0.003625,-0.0122,-0.008233,-0.509763,0.040658,-1.14544,-258.005588,-1.709986,66.809699
7.9755,-0.028662,-7e-05,0.038972,0.001585,0.003555,-0.01221,-0.007205,-0.509624,0.043024,-1.162193,-258.003992,-1.711778,66.805186
7.9955,-0.028559,-4.1e-05,0.03945,0.001587,0.003491,-0.012219,-0.008653,-0.509672,0.039299,-1.162193,-258.003992,-1.711778,66.805186
8.0154,-0.028402,0.000153,0.040992,0.001589,0.00344,-0.012226,-0.008653,-0.509672,0.039299,-1.162193,-258.003992,-1.711778,66.805186
8.0355,-0.027996,0.000692,0.04097,0.001591,0.003398,-0.012231,-0.007442,-0.509269,0.040485,-1.184861,-258.002324,-1.713778,66.800779
8.0554,-0.028251,0.000148,0.039136,0.001566,0.003273,-0.012249,-0.0073,-0.509095,0.040622,-1.184861,-258.002324,-1.713778,66.800779
8.0758,-0.02814,0.000227,0.038897,0.001547,0.003175,-0.012261,-0.008251,-0.509352,0.038748,-1.198244,-258.00058,-1.716199,66.796399
8.0955,-0.027645,0.000341,0.040016,0.001553,0.003149,-0.012262,-0.0083,-0.509379,0.038863,-1.198244,-258.00058,-1.716199,66.796399
8.1158,-0.027826,-1e-06,0.039549,0.001558,0.003127,-0.012263,-0.0083,-0.509379,0.038863,-1.198244,-258.00058,-1.716199,66.796399
8.1354,-0.027467,0.000414,0.038322,0.001563,0.003109,-0.012263,-0.007603,-0.509469,0.039042,-1.226522,-257.998771,-1.714834,66.792144
8.1556,-0.02724,0.000277,0.039238,0.001561,0.003088,-0.012264,-0.007728,-0.509349,0.038692,-1.226522,-257.998771,-1.714834,66.792144
8.1757,-0.027355,0.000854,0.038142,0.00156,0.003071,-0.012265,-0.007188,-0.509229,0.038847,-1.228027,-257.996911,-1.717218,66.787859
8.1956,-0.027154,0.000368,0.038253,0.001547,0.002985,-0.012275,-0.00784,-0.508811,0.038186,-1.228027,-257.996911,-1.717218,66.787859
8.2157,-0.027219,0.000441,0.036923,0.001537,0.002917,-0.012282,-0.00784,-0.508811,0.038186,-1.228027,-257.996911,-1.717218,66.787859
8.2359,-0.026872,0.000582,0.036849,0.00153,0.002863,-0.012287,-0.008332,-0.509081,0.036409,-1.231466,-257.995036,-1.71746,66.783589
8.2555,-0.026648,0.000879,0.038007,0.001538,0.00286,-0.012284,-0.008225,-0.509062,0.036525,-1.231466,-257.995036,-1.71746,66.783589
8.2753,-0.026269,0.000879,0.036403,0.001544,0.002858,-0.012281,-0.007224,-0.50866,0.037618,-1.25226,-257.993092,-1.717364,66.779421
8.2955,-0.026096,0.000779,0.037336,0.001535,0.00281,-0.012286,-0.007663,-0.508768,0.036489,-1.25226,-257.993092,-1.717364,66.779421
8.3156,-0.026691,0.000745,0.038492,0.001528,0.002772,-0.012289,-0.007663,-0.508768,0.036489,-1.25226,-257.993092,-1.717364,66.779421
8.3357,-0.025827,0.001187,0.036192,0.001523,0.002741,-0.012291,-0.007004,-0.508755,0.037979,-1.249726,-257.991138,-1.71876,66.775238
8.3555,-0.026314,0.001083,0.036154,0.001506,0.002688,-0.012296,-0.007148,-0.508629,0.037193,-1.249726,-257.991138,-1.71876,66.775238
8.3753,-0.025507,0.001114,0.033536,0.001493,0.002645,-0.0123,-0.007834,-0.508495,0.035762,-1.261542,-257.989141,-1.718308,66.771103
8.3955,-0.025789,0.000977,0.035181,0.0015,0.002632,-0.012297,-0.008353,-0.508585,0.033717,-1.261542,-257.989141,-1.718308,66.771103
8.4156,-0.025546,0.001202,0.036042,0.001507,0.002621,-0.012295,-0.008353,-0.508585,0.033717,-1.261542,-257.989141,-1.718308,66.771103
8.4358,-0.025224,0.001539,0.034639,0.001512,0.002611,-0.012293,-0.007111,-0.508354,0.035527,-1.273154,-257.987109,-1.716728,66.767005
8.4559,-0.024768,0.001379,0.03709,0.00149,0.002538,-0.012301,-0.007286,-0.508261,0.035109,-1.273154,-257.987109,-1.716728,66.767005
8.4753,-0.02451,0.001725,0.034345,0.001472,0.00248,-0.012307,-0.005811,-0.508185,0.036696,-1.27128,-257.98506,-1.719132,66.762913
8.4955,-0.024692,0.001328,0.034314,0.001438,0.002385,-0.012316,-0.006888,-0.507989,0.034538,-1.27128,-257.98506,-1.719132,66.762913
8.5158,-0.024759,0.001446,0.034782,0.001412,0.00231,-0.012322,-0.006888,-0.507989,0.034538,-1.27128,-257.98506,-1.719132,66.762913
8.5358,-0.024671,0.001735,0.033563,0.001393,0.002251,-0.012325,-0.006966,-0.50814,0.034269,-1.286388,-257.982969,-1.717033,66.758887
8.5557,-0.024116,0.001486,0.034346,0.001389,0.002225,-0.012325,-0.007199,-0.508062,0.033923,-1.286388,-257.982969,-1.717033,66.758887
8.5759,-0.024219,0.00179,0.033723,0.001386,0.002204,-0.012324,-0.006562,-0.508141,0.033958,-1.312722,-257.980811,-1.712263,66.754981
8.5957,-0.024228,0.001668,0.033573,0.001374,0.002165,-0.012325,-0.006979,-0.507937,0.033724,-1.312722,-257.980811,-1.712263,66.754981
8.6165,-0.023824,0.001575,0.032955,0.001365,0.002133,-0.012325,-0.006979,-0.507937,0.033724,-1.312722,-257.980811,-1.712263,66.754981
8.6361,-0.02356,0.001754,0.032284,0.001358,0.002108,-0.012324,-0.006965,-0.508054,0.032439,-1.316022,-257.978611,-1.712281,66.751049
8.6559,-0.023295,0.002245,0.033224,0.001357,0.002102,-0.012322,-0.007013,-0.508013,0.032317,-1.316022,-257.978611,-1.712281,66.751049
8.6756,-0.023067,0.002168,0.032636,0.001357,0.002097,-0.01232,-0.006314,-0.507405,0.032832,-1.325326,-257.97638,-1.710791,66.747163
8.6956,-0.023408,0.001834,0.030265,0.001315,0.002004,-0.012327,-0.006413,-0.507543,0.032634,-1.325326,-257.97638,-1.710791,66.747163
8.716,-0.023481,0.001891,0.031945,0.001283,0.001931,-0.01233,-0.006413,-0.507543,0.032634,-1.325326,-257.97638,-1.710791,66.747163
8.7361,-0.022625,0.002366,0.030985,0.001258,0.001873,-0.012332,-0.007138,-0.507759,0.031429,-1.325765,-257.974142,-1.710934,66.743277
8.7559,-0.023057,0.002249,0.032448,0.001261,0.001859,-0.01233,-0.007005,-0.507599,0.03119,-1.325765,-257.974142,-1.710934,66.743277
8.776,-0.022318,0.00203,0.029969,0.001264,0.001848,-0.012327,-0.006474,-0.507422,0.032059,-1.352053,-257.97185,-1.703767,66.739526
8.796,-0.022908,0.002308,0.030294,0.001271,0.001855,-0.012323,-0.006982,-0.507708,0.030143,-1.352053,-257.97185,-1.703767,66.739526
8.8161,-0.022634,0.002274,0.03035,0.001278,0.001861,-0.012319,-0.006982,-0.507708,0.030143,-1.352053,-257.97185,-1.703767,66.739526
8.8356,-0.022326,0.002528,0.029567,0.001283,0.001865,-0.012317,-0.007108,-0.507412,0.029832,-1.351932,-257.969523,-1.704745,66.735742
8.8559,-0.021866,0.002412,0.029876,0.001274,0.001824,-0.012319,-0.007159,-0.507338,0.029666,-1.351932,-257.969523,-1.704745,66.735742
8.876,-0.021598,0.002491,0.029649,0.001267,0.001791,-0.01232,-0.006593,-0.5073,0.029483,-1.347857,-257.967203,-1.706596,66.731953
8.896,-0.022088,0.002272,0.02932,0.001239,0.001732,-0.012324,-0.006487,-0.507283,0.029614,-1.347857,-257.967203,-1.706596,66.731953
8.9159,-0.022213,0.002321,0.029175,0.001217,0.001685,-0.012326,-0.006487,-0.507283,0.029614,-1.347857,-257.967203,-1.706596,66.731953
8.9354,-0.021539,0.002743,0.030457,0.0012,0.001648,-0.012327,-0.007285,-0.507385,0.028659,-1.353229,-257.964846,-1.706025,66.72818
8.9558,-0.021324,0.002527,0.028731,0.001193,0.001623,-0.012326,-0.006749,-0.507225,0.029346,-1.353229,-257.964846,-1.706025,66.72818
8.9753,-0.021348,0.002817,0.027692,0.001187,0.001602,-0.012325,-0.006637,-0.50721,0.028342,-1.369487,-257.962466,-1.700817,66.724509
8.9955,-0.020881,0.002501,0.028622,0.001186,0.001575,-0.012325,-0.007172,-0.507005,0.027731,-1.369487,-257.962466,-1.700817,66.724509
9.0158,-0.020948,0.002836,0.028449,0.001185,0.001553,-0.012324,-0.007172,-0.507005,0.027731,-1.369487,-257.962466,-1.700817,66.724509
9.0359,-0.020545,0.002779,0.028381,0.001185,0.001535,-0.012323,-0.006393,-0.506889,0.027933,-1.373035,-257.960049,-1.700133,66.720827
9.056,-0.020718,0.00283,0.027728,0.001149,0.001472,-0.012327,-0.006257,-0.506933,0.028056,-1.373035,-257.960049,-1.700133,66.720827
9.0756,-0.02031,0.002566,0.027833,0.00112,0.001422,-0.012328,-0.006542,-0.506924,0.027336,-1.375548,-257.957606,-1.700814,66.717172
9.0959,-0.020298,0.002827,0.025394,0.001111,0.001418,-0.012324,-0.006154,-0.507206,0.027767,-1.375548,-257.957606,-1.700814,66.717172
9.116,-0.020364,0.003161,0.027803,0.001102,0.001416,-0.012321,-0.006154,-0.507206,0.027767,-1.375548,-257.957606,-1.700814,66.717172
9.1362,-0.01999,0.003079,0.025413,0.001096,0.001414,-0.012317,-0.006141,-0.506581,0.027288,-1.389412,-257.955131,-1.69529,66.713577
9.1562,-0.01989,0.003115,0.025944,0.00107,0.00135,-0.01232,-0.00649,-0.506644,0.026483,-1.389412,-257.955131,-1.69529,66.713577
9.1755,-0.019451,0.003282,0.026273,0.001051,0.0013,-0.012322,-0.006626,-0.506667,0.025551,-1.393328,-257.95265,-1.69279,66.709976
9.1958,-0.019724,0.002442,0.026476,0.001014,0.001228,-0.012325,-0.006104,-0.506551,0.026188,-1.393328,-257.95265,-1.69279,66.709976
9.216,-0.019431,0.003232,0.026315,0.000985,0.001172,-0.012325,-0.006104,-0.506551,0.026188,-1.393328,-257.95265,-1.69279,66.709976
9.2358,-0.019324,0.002731,0.024929,0.000962,0.001128,-0.012324,-0.00597,-0.506536,0.025799,-1.403513,-257.950129,-1.689358,66.706428
9.256,-0.019225,0.003192,0.026482,0.000965,0.001129,-0.012319,-0.006222,-0.50676,0.025391,-1.403513,-257.950129,-1.689358,66.706428
9.2757,-0.018799,0.003432,0.022479,0.000966,0.00113,-0.012315,-0.005692,-0.506592,0.026091,-1.421525,-257.947556,-1.681541,66.702966
9.2956,-0.01855,0.003263,0.023763,0.000987,0.001138,-0.012311,-0.007183,-0.506452,0.022792,-1.421525,-257.947556,-1.681541,66.702966
9.3156,-0.018965,0.003116,0.02475,0.001003,0.001143,-0.012308,-0.007183,-0.506452,0.022792,-1.421525,-257.947556,-1.681541,66.702966
9.3357,-0.018257,0.003134,0.023959,0.001017,0.001147,-0.012306,-0.006304,-0.50668,0.024233,-1.420747,-257.944971,-1.682024,66.699484
9.356,-0.018375,0.0028,0.024904,0.001005,0.001134,-0.012306,-0.006193,-0.50669,0.024063,-1.420747,-257.944971,-1.682024,66.699484
9.3756,-0.017987,0.003322,0.024219,0.000996,0.001123,-0.012305,-0.005643,-0.507005,0.02451,-1.412396,-257.942395,-1.687709,66.696001
9.3956,-0.018211,0.003215,0.024981,0.000951,0.001069,-0.012306,-0.005635,-0.50657,0.024226,-1.412396,-257.942395,-1.687709,66.696001
9.416,-0.01804,0.003021,0.023488,0.000915,0.001026,-0.012306,-0.005635,-0.50657,0.024226,-1.412396,-257.942395,-1.687709,66.696001
9.436,-0.017701,0.00327,0.022431,0.000887,0.000993,-0.012304,-0.006022,-0.50679,0.022972,-1.416285,-257.939808,-1.685534,66.692524
9.4555,-0.017921,0.003121,0.023248,0.000899,0.001015,-0.012299,-0.006113,-0.50671,0.022697,-1.416285,-257.939808,-1.685534,66.692524
9.4757,-0.017063,0.003303,0.020961,0.000909,0.001032,-0.012294,-0.006038,-0.506709,0.02286,-1.435641,-257.937192,-1.674651,66.689123
9.4955,-0.017251,0.003461,0.023518,0.000921,0.001043,-0.012292,-0.006342,-0.506595,0.021112,-1.435641,-257.937192,-1.674651,66.689123
9.5158,-0.01715,0.003097,0.023571,0.00093,0.001051,-0.01229,-0.006342,-0.506595,0.021112,-1.435641,-257.937192,-1.674651,66.689123
9.5356,-0.016826,0.003889,0.020814,0.000938,0.001058,-0.012288,-0.005093,-0.506717,0.023057,-1.431312,-257.934576,-1.67685,66.685687
9.5553,-0.016832,0.003815,0.021442,0.00089,0.000994,-0.012291,-0.005549,-0.506418,0.022075,-1.431312,-257.934576,-1.67685,66.685687
9.5755,-0.016994,0.003638,0.022036,0.000853,0.000945,-0.012292,-0.005868,-0.506034,0.021053,-1.426396,-257.931973,-1.679848,66.682246
9.5957,-0.016738,0.003428,0.020156,0.000826,0.000895,-0.012294,-0.005765,-0.506218,0.021926,-1.426396,-257.931973,-1.679848,66.682246
9.6154,-0.0167,0.0033,0.020112,0.000805,0.000856,-0.012294,-0.005765,-0.506218,0.021926,-1.426396,-257.931973,-1.679848,66.682246
9.6354,-0.016224,0.003472,0.02055,0.000789,0.000825,-0.012294,-0.006409,-0.506557,0.019601,-1.441538,-257.929343,-1.671379,66.678869
9.6556,-0.016299,0.00336,0.019783,0.000814,0.000861,-0.012287,-0.006134,-0.506497,0.019929,-1.441538,-257.929343,-1.671379,66.678869
9.6758,-0.015744,0.00334,0.016919,0.000835,0.00089,-0.012283,-0.006185,-0.506514,0.019392,-1.453339,-257.926655,-1.665146,66.675526
9.6957,-0.015875,0.003678,0.019517,0.00089,0.000967,-0.012274,-0.007033,-0.506579,0.017115,-1.453339,-257.926655,-1.665146,66.675526
9.7158,-0.015783,0.003351,0.0188,0.000935,0.001028,-0.012268,-0.007033,-0.506579,0.017115,-1.453339,-257.926655,-1.665146,66.675526
9.7358,-0.015352,0.003854,0.016941,0.00097,0.001075,-0.012265,-0.006161,-0.506522,0.018288,-1.445219,-257.923996,-1.669944,66.672162
9.7562,-0.015483,0.003666,0.016421,0.000961,0.00105,-0.01227,-0.006381,-0.506334,0.01768,-1.445219,-257.923996,-1.669944,66.672162
9.7761,-0.015414,0.003894,0.018017,0.000954,0.001031,-0.012274,-0.007079,-0.506231,0.016035,-1.420673,-257.92143,-1.683605,66.668752
9.796,-0.015258,0.003604,0.018517,0.000926,0.000973,-0.012281,-0.006298,-0.506039,0.017828,-1.420673,-257.92143,-1.683605,66.668752
9.816,-0.015389,0.003738,0.018888,0.000904,0.000927,-0.012286,-0.006298,-0.506039,0.017828,-1.420673,-257.92143,-1.683605,66.668752
9.8356,-0.014781,0.003683,0.018365,0.000888,0.000891,-0.012289,-0.005718,-0.506127,0.018375,-1.42435,-257.91882,-1.682182,66.665326
9.856,-0.015088,0.004126,0.018334,0.000845,0.000838,-0.012292,-0.00559,-0.506165,0.018312,-1.42435,-257.91882,-1.682182,66.665326
9.8758,-0.015066,0.004235,0.017292,0.000811,0.000796,-0.012292,-0.005711,-0.505759,0.017943,-1.437385,-257.916159,-1.676129,66.66196
9.8956,-0.014284,0.003826,0.016934,0.00079,0.000747,-0.012294,-0.006198,-0.505694,0.017331,-1.437385,-257.916159,-1.676129,66.66196
9.9156,-0.014676,0.003707,0.018526,0.000774,0.000708,-0.012295,-0.006198,-0.505694,0.017331,-1.437385,-257.916159,-1.676129,66.66196
9.9354,-0.014238,0.003858,0.017011,0.000762,0.000677,-0.012295,-0.005195,-0.506171,0.018013,-1.450474,-257.913465,-1.66821,66.658635
9.9554,-0.014062,0.004075,0.016179,0.000734,0.000657,-0.012291,-0.005341,-0.506126,0.017546,-1.450474,-257.913465,-1.66821,66.658635
9.9755,-0.013395,0.003937,0.015166,0.00071,0.000641,-0.012287,-0.005786,-0.505836,0.015789,-1.459667,-257.91072,-1.66367,66.655352
9.9958,-0.013959,0.003815,0.0161,0.000704,0.000634,-0.012279,-0.005671,-0.505988,0.015202,-1.459667,-257.91072,-1.66367,66.655352
10.0154,-0.01362,0.003707,0.014881,0.000699,0.000628,-0.012273,-0.005671,-0.505988,0.015202,-1.459667,-257.91072,-1.66367,66.655352
10.0358,-0.013215,0.003694,0.015005,0.000694,0.000624,-0.012267,-0.006001,-0.50621,0.014368,-1.467677,-257.907964,-1.657765,66.652086
10.0555,-0.01385,0.004121,0.013572,0.000716,0.00066,-0.012255,-0.00582,-0.506222,0.014567,-1.467677,-257.907964,-1.657765,66.652086
10.0753,-0.013052,0.003833,0.015184,0.000732,0.000689,-0.012245,-0.006907,-0.505812,0.013181,-1.470071,-257.905203,-1.656126,66.648829
10.0955,-0.012813,0.004039,0.013711,0.000713,0.000671,-0.012243,-0.005452,-0.50608,0.014983,-1.470071,-257.905203,-1.656126,66.648829
10.1155,-0.01301,0.004131,0.015295,0.000697,0.000656,-0.01224,-0.005452,-0.50608,0.014983,-1.470071,-257.905203,-1.656126,66.648829
10.1356,-0.012885,0.004124,0.013535,0.000685,0.000645,-0.012238,-0.005179,-0.50578,0.014781,-1.4634,-257.902474,-1.660171,66.645552
10.1555,-0.012922,0.004059,0.014843,0.000658,0.000602,-0.012233,-0.005499,-0.505796,0.01422,-1.4634,-257.902474,-1.660171,66.645552
10.1753,-0.012681,0.004002,0.013066,0.000637,0.000568,-0.012227,-0.005331,-0.505864,0.014454,-1.470854,-257.899733,-1.654932,66.642296
10.1957,-0.012783,0.003868,0.013565,0.00066,0.000587,-0.012202,-0.005955,-0.505945,0.013171,-1.470854,-257.899733,-1.654932,66.642296
10.2156,-0.012415,0.003957,0.013302,0.000678,0.000602,-0.012181,-0.005955,-0.505945,0.013171,-1.470854,-257.899733,-1.654932,66.642296
10.2357,-0.011847,0.004213,0.012729,0.000692,0.000614,-0.012165,-0.005605,-0.505974,0.012792,-1.478672,-257.896965,-1.649963,66.639076
10.2554,-0.012005,0.00405,0.013153,0.000674,0.000586,-0.012144,-0.0055,-0.505878,0.012707,-1.478672,-257.896965,-1.649963,66.639076
10.2757,-0.011671,0.004097,0.01219,0.000659,0.000564,-0.012126,-0.005275,-0.505886,0.012767,-1.469573,-257.894226,-1.656654,66.63585
10.2957,-0.011526,0.004108,0.012342,0.000643,0.000541,-0.012096,-0.005438,-0.505866,0.01222,-1.469573,-257.894226,-1.656654,66.63585
10.3156,-0.011434,0.004033,0.012712,0.000631,0.000523,-0.012072,-0.005438,-0.505866,0.01222,-1.469573,-257.894226,-1.656654,66.63585
10.3355,-0.011092,0.0042,0.012788,0.000621,0.000509,-0.012052,-0.004924,-0.505902,0.012206,-1.474819,-257.891479,-1.653251,66.632653
10.3555,-0.011108,0.003617,0.010829,0.00056,0.000451,-0.012041,-0.004776,-0.50584,0.012385,-1.474819,-257.891479,-1.653251,66.632653
10.3755,-0.01113,0.004046,0.011602,0.000511,0.000406,-0.01203,-0.005565,-0.506336,0.010446,-1.48046,-257.888729,-1.649501,66.629497
10.3954,-0.010916,0.004089,0.011591,0.000521,0.000417,-0.011984,-0.005243,-0.505956,0.011483,-1.48046,-257.888729,-1.649501,66.629497
10.4154,-0.011303,0.004436,0.010058,0.000528,0.000426,-0.011948,-0.005243,-0.505956,0.011483,-1.48046,-257.888729,-1.649501,66.629497
10.4356,-0.010587,0.00421,0.010665,0.000533,0.000433,-0.011919,-0.006152,-0.505521,0.009559,-1.497289,-257.885968,-1.636627,66.626416
10.4554,-0.011144,0.004284,0.007324,0.00055,0.000415,-0.011807,-0.005739,-0.505617,0.009954,-1.497289,-257.885968,-1.636627,66.626416
10.4753,-0.010372,0.004387,0.010749,0.000563,0.000403,-0.01172,-0.007392,-0.505689,0.006945,-1.493088,-257.883218,-1.639816,66.623319
10.4959,-0.010316,0.004167,0.008803,0.000526,0.000352,-0.011685,-0.005103,-0.505592,0.010404,-1.493088,-257.883218,-1.639816,66.623319
10.5156,-0.010445,0.004223,0.009003,0.000497,0.000313,-0.011657,-0.005103,-0.505592,0.010404,-1.493088,-257.883218,-1.639816,66.623319
10.5356,-0.010217,0.004559,0.00841,0.000473,0.000283,-0.011635,-0.00583,-0.505739,0.008514,-1.487596,-257.880514,-1.64517,66.620295
10.5557,-0.010042,0.004269,0.009462,0.000517,0.000293,-0.011419,-0.005867,-0.505608,0.008415,-1.487596,-257.880514,-1.64517,66.620295
10.5761,-0.009793,0.004352,0.008902,0.000549,0.000301,-0.011256,-0.005201,-0.505699,0.009093,-1.501637,-257.877786,-1.63468,66.617343
10.5965,-0.009859,0.004386,0.007206,0.000532,0.000278,-0.011193,-0.005248,-0.505634,0.0089,-1.501637,-257.877786,-1.63468,66.617343
10.6157,-0.009398,0.004084,0.008951,0.000517,0.000261,-0.011144,-0.005248,-0.505634,0.0089,-1.501637,-257.877786,-1.63468,66.617343
10.636,-0.009162,0.004169,0.00807,0.000504,0.000248,-0.011106,-0.004811,-0.505883,0.008483,-1.487452,-257.875162,-1.64717,66.61448
10.6555,-0.009259,0.003916,0.008367,0.000489,0.000239,-0.010997,-0.004906,-0.505853,0.008258,-1.487452,-257.875162,-1.64717,66.61448
10.676,-0.00928,0.004,0.007204,0.000475,0.000233,-0.010913,-0.004976,-0.506058,0.008015,-1.493784,-257.872544,-1.642397,66.611664
10.6957,-0.009043,0.004593,0.008375,0.000525,0.000283,-0.010697,-0.005551,-0.505992,0.007256,-1.493784,-257.872544,-1.642397,66.611664
10.7158,-0.009349,0.004684,0.009614,0.000562,0.000324,-0.010536,-0.005551,-0.505992,0.007256,-1.493784,-257.872544,-1.642397,66.611664
10.7357,-0.008912,0.004381,0.006197,0.000588,0.000356,-0.010417,-0.004426,-0.505283,0.009157,-1.497082,-257.869965,-1.639555,66.608899
10.756,-0.008904,0.004232,0.00792,0.000516,0.000273,-0.010428,-0.004966,-0.505415,0.007895,-1.497082,-257.869965,-1.639555,66.608899
10.7757,-0.008284,0.004529,0.006144,0.00046,0.000209,-0.010436,-0.004846,-0.50574,0.007594,-1.47327,-257.867587,-1.658033,66.606242
10.7956,-0.008281,0.004628,0.007322,0.000451,0.00017,-0.010165,-0.005124,-0.505485,0.006253,-1.47327,-257.867587,-1.658033,66.606242
10.8159,-0.008498,0.004569,0.006235,0.000441,0.000141,-0.009963,-0.005124,-0.505485,0.006253,-1.47327,-257.867587,-1.658033,66.606242
10.8358,-0.008272,0.004327,0.00526,0.000429,0.00012,-0.009812,-0.005299,-0.505412,0.005804,-1.49634,-257.865147,-1.640533,66.603637
10.8558,-0.008304,0.004219,0.006584,0.00045,0.000123,-0.009541,-0.005415,-0.505514,0.005533,-1.49634,-257.865147,-1.640533,66.603637
10.876,-0.008216,0.00429,0.005906,0.000463,0.000128,-0.009342,-0.004933,-0.505767,0.006271,-1.497855,-257.86279,-1.640895,66.601185
10.8962,-0.007716,0.004404,0.004249,0.000462,0.000144,-0.009277,-0.00518,-0.505706,0.005921,-1.497855,-257.86279,-1.640895,66.601185
10.9161,-0.00779,0.004664,0.005624,0.00046,0.000159,-0.009228,-0.00518,-0.505706,0.005921,-1.497855,-257.86279,-1.640895,66.601185
10.936,-0.007957,0.004336,0.006297,0.000456,0.000171,-0.009191,-0.004902,-0.505322,0.005235,-1.487954,-257.860562,-1.650032,66.598855
10.9557,-0.007466,0.004637,0.003877,0.00041,0.000122,-0.009104,-0.004836,-0.505457,0.005622,-1.487954,-257.860562,-1.650032,66.598855
10.9756,-0.00736,0.004277,0.004548,0.000372,8.6e-05,-0.009038,-0.005475,-0.505354,0.003585,-1.487188,-257.858374,-1.649495,66.596531
10.9955,-0.007636,0.004295,0.004634,0.000398,9.7e-05,-0.008684,-0.005077,-0.505686,0.004452,-1.487188,-257.858374,-1.649495,66.596531
11.0161,-0.007273,0.004679,0.004578,0.000413,0.000109,-0.008428,-0.005077,-0.505686,0.004452,-1.487188,-257.858374,-1.649495,66.596531
11.0358,-0.007449,0.004568,0.00305,0.000421,0.00012,-0.008241,-0.004923,-0.505312,0.004203,-1.502396,-257.856211,-1.637099,66.5943
11.0558,-0.0073,0.004575,0.003633,0.000434,9.9e-05,-0.007873,-0.005317,-0.50536,0.003689,-1.502396,-257.856211,-1.637099,66.5943
11.0758,-0.007262,0.004439,0.003651,0.000439,8.4e-05,-0.007607,-0.005434,-0.505418,0.003372,-1.485368,-257.854256,-1.652262,66.59225
11.0958,-0.006595,0.004367,0.003956,0.000459,0.000103,-0.007388,-0.005402,-0.505545,0.003613,-1.485368,-257.854256,-1.652262,66.59225
11.1159,-0.00681,0.004347,0.004172,0.000472,0.00012,-0.007229,-0.005402,-0.505545,0.003613,-1.485368,-257.854256,-1.652262,66.59225
11.1359,-0.006369,0.004508,0.002184,0.000479,0.000135,-0.007114,-0.004664,-0.505644,0.003855,-1.474879,-257.852429,-1.663314,66.590356
11.156,-0.006322,0.004434,0.003925,0.000459,0.000114,-0.006868,-0.004902,-0.505582,0.00314,-1.474879,-257.852429,-1.663314,66.590356
11.1754,-0.006446,0.004191,0.004051,0.000439,0.000101,-0.00669,-0.004305,-0.505557,0.0037,-1.45759,-257.850748,-1.677231,66.588568
11.1957,-0.006344,0.004249,0.003073,0.00037,9e-05,-0.006833,-0.004372,-0.505782,0.004007,-1.45759,-257.850748,-1.677231,66.588568
11.216,-0.006759,0.004477,0.003066,0.000314,8.2e-05,-0.006935,-0.004372,-0.505782,0.004007,-1.45759,-257.850748,-1.677231,66.588568
11.2362,-0.006704,0.004081,0.002597,0.000271,7.6e-05,-0.007008,-0.005177,-0.505516,0.002786,-1.46101,-257.849142,-1.675321,66.586882
11.2558,-0.006132,0.004591,0.002645,0.00033,0.000108,-0.006603,-0.005257,-0.505679,0.002677,-1.46101,-257.849142,-1.675321,66.586882
11.2756,-0.006091,0.004629,0.00152,0.000371,0.000136,-0.006313,-0.004775,-0.505405,0.002436,-1.506527,-257.847561,-1.632838,66.585244
11.2959,-0.006053,0.004394,0.002231,0.000406,0.000114,-0.005629,-0.005266,-0.505373,0.001593,-1.506527,-257.847561,-1.632838,66.585244
11.3157,-0.006033,0.004477,0.003634,0.000426,0.000101,-0.005139,-0.005266,-0.505373,0.001593,-1.506527,-257.847561,-1.632838,66.585244
11.3359,-0.006184,0.004689,0.002541,0.000434,9.4e-05,-0.004785,-0.004164,-0.505514,0.003378,-1.471437,-257.846116,-1.663437,66.583695
11.356,-0.005922,0.004466,0.001029,0.000339,5e-05,-0.005107,-0.004454,-0.505431,0.003012,-1.471437,-257.846116,-1.663437,66.583695
11.3759,-0.005878,0.004442,0.000896,0.000266,1.5e-05,-0.005343,-0.005385,-0.505531,0.000889,-1.418529,-257.845064,-1.713694,66.582575
11.396,-0.005533,0.004534,0.001691,0.000351,5.7e-05,-0.004575,-0.005417,-0.505556,0.000889,-1.418529,-257.845064,-1.713694,66.582575
11.416,-0.005446,0.004194,0.00099,0.000408,9.4e-05,-0.004022,-0.005417,-0.505556,0.000889,-1.418529,-257.845064,-1.713694,66.582575
11.4359,-0.00581,0.004035,0.000763,0.000446,0.000126,-0.003623,-0.004931,-0.505805,0.000796,-1.489127,-257.843932,-1.651734,66.581432
11.4559,-0.005694,0.004317,0.001228,0.000477,0.000176,-0.003268,-0.005127,-0.50587,0.00076,-1.489127,-257.843932,-1.651734,66.581432
11.4753,-0.005359,0.004393,0.002389,0.000496,0.000217,-0.00301,-0.005067,-0.505683,0.001228,-1.414064,-257.843932,-1.576671,66.581432
11.4956,-0.006162,0.004594,0.000942,0.000368,0.00016,-0.003521,-0.004222,-0.505612,0.002287,-1.414064,-257.843932,-1.576671,66.581432
11.5155,-0.005689,0.004764,0.00093,0.000271,0.000115,-0.003895,-0.004222,-0.505612,0.002287,-1.414064,-257.843932,-1.576671,66.581432
11.5359,-0.005631,0.004434,0.002171,0.000197,7.9e-05,-0.004169,-0.005215,-0.505236,0.00093,-1.339108,-257.843931,-1.501715,66.581432
11.5559,-0.006121,0.004333,0.000675,0.000205,6.6e-05,-0.004007,-0.004934,-0.505369,0.001433,-1.339108,-257.843931,-1.501715,66.581432
11.5762,-0.005306,0.004379,0.00332,0.00021,5.6e-05,-0.003888,-0.005774,-0.505665,0.000609,-1.41403,-257.843441,-1.576636,66.580911
11.5961,-0.005633,0.004179,0.00194,8.6e-05,1.1e-05,-0.00442,-0.003803,-0.505622,0.003078,-1.41403,-257.843441,-1.576636,66.580911
11.6155,-0.005424,0.004432,0.002439,-8e-06,-2.6e-05,-0.004813,-0.003803,-0.505622,0.003078,-1.41403,-257.843441,-1.576636,66.580911
11.6355,-0.005884,0.004486,0.001125,-7.9e-05,-5.6e-05,-0.005103,-0.004173,-0.505564,0.002302,-1.480313,-257.842659,-1.651723,66.58009
11.6556,-0.005318,0.004392,0.001068,-2.5e-05,-3.8e-05,-0.004837,-0.004642,-0.505543,0.0018,-1.480313,-257.842659,-1.651723,66.58009
11.6757,-0.005724,0.004535,-8.3e-05,1.6e-05,-2.3e-05,-0.004645,-0.004772,-0.505609,0.000959,-1.555362,-257.841805,-1.576674,66.579267
11.6956,-0.005452,0.00448,0.001833,0.000163,4.1e-05,-0.00361,-0.005679,-0.505477,3e-06,-1.555362,-257.841805,-1.576674,66.579267
11.7157,-0.005152,0.004838,0.00163,0.00027,9.4e-05,-0.002862,-0.005679,-0.505477,3e-06,-1.555362,-257.841805,-1.576674,66.579267
11.7356,-0.005465,0.004492,-0.000882,0.000348,0.00014,-0.00232,-0.00432,-0.505162,0.001437,-1.565376,-257.840662,-1.576306,66.578142
11.7563,-0.005321,0.004455,0.001841,0.000329,0.000112,-0.002169,-0.00498,-0.505305,0.000455,-1.565376,-257.840662,-1.576306,66.578142
11.7754,-0.005306,0.004235,0.000156,0.000312,9.1e-05,-0.002058,-0.004382,-0.505544,0.001841,-1.490298,-257.840662,-1.501228,66.578142
11.7956,-0.005548,0.004416,0.001598,0.000346,0.000143,-0.001897,-0.00515,-0.505745,0.000307,-1.490298,-257.840662,-1.501228,66.578142
11.8157,-0.005376,0.00447,0.000578,0.000371,0.000185,-0.00178,-0.00515,-0.505745,0.000307,-1.490298,-257.840662,-1.501228,66.578142
11.8354,-0.005665,0.004421,0.001174,0.000389,0.000218,-0.001693,-0.005081,-0.50553,0.000578,-1.415382,-257.840662,-1.426312,66.578142
11.8563,-0.005314,0.004199,0.001331,0.000366,0.000216,-0.001898,-0.005075,-0.50555,0.000821,-1.415382,-257.840662,-1.426312,66.578142
11.876,-0.005344,0.004156,0.001905,0.000349,0.000214,-0.002047,-0.004635,-0.505801,0.001331,-1.340479,-257.840662,-1.351409,66.578142
11.8961,-0.005437,0.004524,0.000576,0.000277,0.00021,-0.002606,-0.004396,-0.505839,0.001855,-1.340479,-257.840662,-1.351409,66.578142
11.9158,-0.005344,0.004834,0.000854,0.000225,0.000204,-0.00302,-0.004396,-0.505839,0.001855,-1.340479,-257.840662,-1.351409,66.578142
11.9353,-0.005394,0.004562,0.002611,0.000187,0.000198,-0.003325,-0.004908,-0.505166,0.000854,-1.265348,-257.840662,-1.276278,66.578142
11.9553,-0.005077,0.004315,0.000732,0.000136,0.000127,-0.003448,-0.004556,-0.505278,0.001585,-1.265348,-257.840662,-1.276278,66.578142
11.976,-0.005526,0.004332,0.000863,9.8e-05,7.1e-05,-0.003537,-0.004704,-0.505685,0.000727,-1.340594,-257.840626,-1.351524,66.578098
11.996,-0.005391,0.004548,0.000158,0.000159,0.000109,-0.00325,-0.005051,-0.505669,0.00085,-1.340594,-257.840626,-1.351524,66.578098
12.0157,-0.005419,0.004208,0.001076,0.000204,0.00014,-0.003043,-0.005051,-0.505669,0.00085,-1.340594,-257.840626,-1.351524,66.578098
12.0356,-0.005575,0.004567,0.000472,0.000238,0.000164,-0.002893,-0.00487,-0.505791,0.001048,-1.415227,-257.840467,-1.426157,66.577929
12.0556,-0.005492,0.00421,-2.4e-05,0.000263,0.000181,-0.002766,-0.005059,-0.505646,0.000811,-1.415227,-257.840467,-1.426157,66.577929
12.0756,-0.005739,0.004436,-0.000174,0.000281,0.000194,-0.002674,-0.005504,-0.505789,-5.3e-05,-1.42348,-257.840263,-1.5012,66.577684
12.0954,-0.005307,0.004296,0.000598,0.000367,0.000239,-0.002107,-0.005798,-0.505585,-0.000164,-1.42348,-257.840263,-1.5012,66.577684
12.1153,-0.005322,0.004464,0.000596,0.000429,0.000277,-0.001696,-0.005798,-0.505585,-0.000164,-1.42348,-257.840263,-1.5012,66.577684
12.1353,-0.005201,0.004167,0.000569,0.000475,0.000309,-0.001396,-0.005015,-0.505532,0.000547,-1.377794,-257.840008,-1.576143,66.577362
12.1553,-0.005283,0.004374,-0.000913,0.000436,0.000293,-0.001547,-0.004972,-0.505654,0.00055,-1.377794,-257.840008,-1.576143,66.577362
12.1757,-0.005077,0.004399,0.000701,0.000406,0.00028,-0.001656,-0.005749,-0.505626,-0.000913,-1.302792,-257.840008,-1.501141,66.577362
12.1954,-0.005163,0.004095,0.00147,0.000365,0.000252,-0.001748,-0.004811,-0.505603,0.000556,-1.302792,-257.840008,-1.501141,66.577362
12.2156,-0.005385,0.004425,-0.000115,0.000333,0.000231,-0.001812,-0.004811,-0.505603,0.000556,-1.302792,-257.840008,-1.501141,66.577362
12.2359,-0.005401,0.004469,0.00132,0.000309,0.000214,-0.001857,-0.005444,-0.505575,-0.000115,-1.227799,-257.840008,-1.426147,66.577362
12.2562,-0.005268,0.004436,-0.000735,0.000315,0.000218,-0.001842,-0.005154,-0.505557,0.000467,-1.227799,-257.840008,-1.426147,66.577362
12.2758,-0.005054,0.004342,0.000708,0.00032,0.000222,-0.001831,-0.005643,-0.505564,-0.000735,-1.246982,-257.840008,-1.351151,66.577362
12.296,-0.005071,0.004548,-0.000323,0.000299,0.000211,-0.001877,-0.004779,-0.50565,0.000578,-1.246982,-257.840008,-1.351151,66.577362
12.3158,-0.004852,0.004122,0.000109,0.000282,0.000202,-0.001909,-0.004779,-0.50565,0.000578,-1.246982,-257.840008,-1.351151,66.577362
12.3356,-0.005528,0.004073,0.000713,0.000269,0.000196,-0.001932,-0.004796,-0.505878,0.000109,-1.227528,-257.840008,-1.276139,66.577362
12.3557,-0.005,0.004693,0.001542,0.000298,0.000236,-0.001831,-0.004947,-0.505898,0.000356,-1.227528,-257.840008,-1.276139,66.577362
12.3757,-0.005544,0.00453,0.000674,0.000319,0.000268,-0.001758,-0.004214,-0.505307,0.001542,-1.302612,-257.840008,-1.201055,66.577362
12.3955,-0.005288,0.004364,-0.00063,0.000302,0.000247,-0.001908,-0.005115,-0.505456,0.000749,-1.302612,-257.840008,-1.201055,66.577362
12.4157,-0.004908,0.004419,0.000976,0.000291,0.00023,-0.002017,-0.005115,-0.505456,0.000749,-1.302612,-257.840008,-1.201055,66.577362
12.4361,-0.005455,0.004508,0.001827,0.000284,0.000216,-0.002097,-0.004411,-0.505581,0.000976,-1.227577,-257.840008,-1.12602,66.577363
12.4557,-0.005414,0.004246,0.000306,0.000217,0.000171,-0.002419,-0.004457,-0.505544,0.001322,-1.227577,-257.840008,-1.12602,66.577363
12.4755,-0.005098,0.004313,0.002513,0.000168,0.000136,-0.002655,-0.005258,-0.505753,0.000306,-1.302643,-257.840008,-1.050955,66.577363
12.4958,-0.005279,0.004169,0.001456,6.8e-05,9.7e-05,-0.0032,-0.003948,-0.505691,0.002312,-1.302643,-257.840008,-1.050955,66.577363
12.5155,-0.004968,0.004605,0.000872,-5e-06,6.4e-05,-0.003604,-0.003948,-0.505691,0.002312,-1.302643,-257.840008,-1.050955,66.577363
12.5357,-0.005251,0.004161,0.000304,-5.9e-05,3.7e-05,-0.003902,-0.004523,-0.505395,0.000872,-1.377455,-257.840007,-1.125767,66.577362
12.556,-0.005326,0.004439,0.000452,1.3e-05,4.8e-05,-0.003398,-0.004755,-0.505575,0.000642,-1.377455,-257.840007,-1.125767,66.577362
12.5755,-0.005314,0.004571,0.000532,6.4e-05,5.9e-05,-0.003034,-0.005096,-0.505561,0.000449,-1.452457,-257.839983,-1.200769,66.577338
12.5958,-0.005197,0.004166,0.000872,0.000116,7.1e-05,-0.002714,-0.005047,-0.505441,0.000525,-1.452457,-257.839983,-1.200769,66.577338
12.6158,-0.005311,0.004521,9e-06,0.000154,8.1e-05,-0.002484,-0.005047,-0.505441,0.000525,-1.452457,-257.839983,-1.200769,66.577338
12.6355,-0.005333,0.004719,0.000365,0.000183,8.9e-05,-0.002318,-0.005307,-0.505479,2e-06,-1.52746,-257.839939,-1.275772,66.57729
12.6559,-0.005205,0.004015,0.000876,0.000226,0.000102,-0.002006,-0.005242,-0.505398,0.000149,-1.52746,-257.839939,-1.275772,66.57729
12.676,-0.005567,0.004793,0.001586,0.000257,0.000114,-0.00178,-0.004758,-0.505984,0.000873,-1.45246,-257.839912,-1.350772,66.57726
12.6959,-0.005434,0.004636,-0.000745,0.000197,8.2e-05,-0.002268,-0.004759,-0.505276,0.001521,-1.45246,-257.839912,-1.350772,66.57726
12.7157,-0.005386,0.004146,-0.000414,0.000155,5.5e-05,-0.002628,-0.004759,-0.505276,0.001521,-1.45246,-257.839912,-1.350772,66.57726
12.7358,-0.004823,0.003988,0.000347,0.000125,3.2e-05,-0.002893,-0.005597,-0.505854,-0.000414,-1.377462,-257.839912,-1.275774,66.57726
12.7558,-0.005075,0.004661,0.000176,0.00023,0.000119,-0.002289,-0.005196,-0.505921,-9.3e-05,-1.377462,-257.839912,-1.275774,66.57726
12.7759,-0.005294,0.004221,0.001825,0.000307,0.00019,-0.001854,-0.004986,-0.505338,0.000168,-1.452862,-257.83985,-1.351174,66.577195
12.7959,-0.005076,0.004487,0.00199,0.000238,0.000178,-0.00238,-0.004417,-0.50574,0.001681,-1.452862,-257.83985,-1.351174,66.577195
12.8158,-0.005225,0.004446,0.001333,0.000189,0.000167,-0.002768,-0.004417,-0.50574,0.001681,-1.452862,-257.83985,-1.351174,66.577195
12.836,-0.005496,0.004669,-7.7e-05,0.000152,0.000156,-0.003054,-0.004545,-0.505554,0.001333,-1.378133,-257.83985,-1.276445,66.577195
12.8561,-0.005224,0.004281,0.000911,0.000174,0.000143,-0.002848,-0.004951,-0.505462,0.000755,-1.378133,-257.83985,-1.276445,66.577195
12.8753,-0.005299,0.004066,0.000984,0.000189,0.000133,-0.0027,-0.00476,-0.505718,0.000903,-1.453103,-257.839788,-1.351415,66.577123
12.8958,-0.005557,0.004856,0.001471,0.000216,0.000178,-0.002694,-0.004794,-0.505914,0.000976,-1.453103,-257.839788,-1.351415,66.577123
12.9158,-0.005187,0.004777,0.000599,0.000237,0.000213,-0.002691,-0.004794,-0.505914,0.000976,-1.453103,-257.839788,-1.351415,66.577123
12.9358,-0.00533,0.004752,0.001043,0.000253,0.00024,-0.00269,-0.004882,-0.505222,0.000579,-1.446452,-257.839679,-1.426318,66.576995
12.9559,-0.005334,0.004285,0.002156,0.000222,0.000174,-0.002598,-0.004848,-0.505232,0.000765,-1.446452,-257.839679,-1.426318,66.576995
12.9755,-0.005206,0.004417,3.5e-05,0.000198,0.000122,-0.00253,-0.004233,-0.505712,0.002133,-1.392607,-257.839523,-1.501318,66.576787
12.9954,-0.005504,0.004223,0.000201,0.000244,0.000144,-0.00219,-0.005112,-0.505594,0.000202,-1.392607,-257.839523,-1.501318,66.576787
13.0153,-0.004827,0.004756,0.000284,0.000277,0.000162,-0.001942,-0.005112,-0.505594,0.000202,-1.392607,-257.839523,-1.501318,66.576787
13.0359,-0.005264,0.004133,-0.000608,0.0003,0.000177,-0.001763,-0.00468,-0.505241,0.000226,-1.432348,-257.839207,-1.576645,66.576417
13.0557,-0.00543,0.004155,0.000706,0.000314,0.00017,-0.001467,-0.005044,-0.505496,-0.000121,-1.432348,-257.839207,-1.576645,66.576417
13.0758,-0.005204,0.004136,-0.001567,0.000322,0.000167,-0.001251,-0.005069,-0.505844,0.000706,-1.357671,-257.839207,-1.501968,66.576417
13.0957,-0.005366,0.004357,0.003367,0.00044,0.000261,-0.000486,-0.005922,-0.505861,-0.00137,-1.357671,-257.839207,-1.501968,66.576417
13.1155,-0.004796,0.004398,0.000212,0.000527,0.000338,7.2e-05,-0.005922,-0.505861,-0.00137,-1.357671,-257.839207,-1.501968,66.576417
13.1356,-0.005339,0.004634,0.000904,0.000591,0.000401,0.000479,-0.004688,-0.505602,0.000212,-1.282584,-257.839207,-1.426882,66.576417
13.156,-0.005242,0.004121,0.001001,0.00048,0.00034,-0.000146,-0.004765,-0.505506,0.000493,-1.282584,-257.839207,-1.426882,66.576417
13.176,-0.005462,0.004547,-0.000879,0.000397,0.00029,-0.000601,-0.004732,-0.505879,0.001001,-1.207679,-257.839207,-1.351976,66.576417
13.1956,-0.005469,0.00451,0.000381,0.000441,0.000312,-0.000344,-0.005773,-0.505503,-0.00066,-1.207679,-257.839207,-1.351976,66.576417
13.2154,-0.005262,0.004353,0.000679,0.000474,0.00033,-0.000156,-0.005773,-0.505503,-0.00066,-1.207679,-257.839207,-1.351976,66.576417
13.2355,-0.005592,0.004534,-0.000179,0.000498,0.000345,-1.8e-05,-0.004916,-0.505647,0.000679,-1.132676,-257.839207,-1.276973,66.576417
13.2555,-0.005566,0.004656,-0.00047,0.000457,0.000335,-0.000421,-0.005229,-0.505573,0.000329,-1.132676,-257.839207,-1.276973,66.576417
13.2754,-0.005189,0.005001,-0.000768,0.000428,0.000326,-0.000715,-0.005806,-0.505344,-0.00047,-1.057678,-257.839207,-1.201976,66.576417
13.2955,-0.00513,0.004714,0.000211,0.000426,0.000271,-0.000391,-0.005597,-0.505025,-0.000745,-1.057678,-257.839207,-1.201976,66.576417
13.3156,-0.005376,0.004815,-0.000159,0.000421,0.000229,-0.000153,-0.005597,-0.505025,-0.000745,-1.057678,-257.839207,-1.201976,66.576417
13.3355,-0.005256,0.004295,0.001453,0.000416,0.000198,2.1e-05,-0.005457,-0.505185,-0.000159,-0.982257,-257.839207,-1.126554,66.576417
13.3557,-0.005313,0.004556,3.4e-05,0.000365,0.000187,-0.000474,-0.005075,-0.505396,0.000494,-0.982257,-257.839207,-1.126554,66.576417
13.3756,-0.005176,0.004345,0.000862,0.000329,0.000177,-0.000836,-0.005296,-0.505444,3.4e-05,-0.907683,-257.839207,-1.05198,66.576417
13.3955,-0.00525,0.004797,-0.000803,0.00029,0.000181,-0.001241,-0.004786,-0.505636,0.00079,-0.907683,-257.839207,-1.05198,66.576417
13.4158,-0.005167,0.0044,0.000172,0.000263,0.000182,-0.001539,-0.004786,-0.505636,0.00079,-0.907683,-257.839207,-1.05198,66.576417
13.4357,-0.004902,0.004507,-0.000976,0.000244,0.000182,-0.001758,-0.005079,-0.5056,0.000172,-0.832554,-257.839207,-0.976851,66.576417
13.4557,-0.005259,0.004335,0.000909,0.000289,0.000194,-0.001372,-0.005207,-0.505557,-0.000288,-0.832554,-257.839207,-0.976851,66.576417
13.4754,-0.005201,0.003973,0.000558,0.000321,0.000206,-0.001091,-0.004796,-0.505665,0.000909,-0.907428,-257.839207,-0.901976,66.576417
13.4958,-0.004945,0.004257,0.000977,0.000327,0.00026,-0.001327,-0.004906,-0.505996,0.000589,-0.907428,-257.839207,-0.901976,66.576417
13.5158,-0.005487,0.00458,0.000683,0.000334,0.000301,-0.001501,-0.004906,-0.505996,0.000589,-0.907428,-257.839207,-0.901976,66.576417
13.536,-0.005342,0.00438,3.8e-05,0.000339,0.000332,-0.001629,-0.005139,-0.50542,0.000683,-0.962418,-257.839207,-0.826866,66.576417
13.5555,-0.005043,0.00423,-0.00024,0.000335,0.00031,-0.001647,-0.005213,-0.505501,0.000423,-0.962418,-257.839207,-0.826866,66.576417
13.5757,-0.005522,0.004218,0.00127,0.000333,0.000291,-0.00166,-0.005166,-0.50577,-0.00024,-1.037301,-257.839207,-0.751983,66.576417
13.5958,-0.005058,0.004168,0.000835,0.000311,0.000296,-0.002008,-0.004901,-0.50578,0.00113,-1.037301,-257.839207,-0.751983,66.576417
13.6156,-0.005533,0.004229,0.00161,0.000297,0.000299,-0.002264,-0.004901,-0.50578,0.00113,-1.037301,-257.839207,-0.751983,66.576417
13.6356,-0.005121,0.004633,0.001201,0.000289,0.000299,-0.002452,-0.004712,-0.50577,0.00161,-1.112416,-257.839207,-0.676868,66.576417
13.6559,-0.005274,0.00431,0.002881,0.00024,0.000257,-0.002731,-0.004628,-0.505605,0.001442,-1.112416,-257.839207,-0.676868,66.576417
13.6758,-0.005417,0.004485,0.001212,0.000205,0.000223,-0.002935,-0.003805,-0.505687,0.002881,-1.187462,-257.839207,-0.751913,66.576417
13.6959,-0.00536,0.004411,-0.000232,0.000183,0.000191,-0.003048,-0.004714,-0.50553,0.001355,-1.187462,-257.839207,-0.751913,66.576417
13.7158,-0.005101,0.00415,-0.000584,0.000168,0.000165,-0.003131,-0.004714,-0.50553,0.001355,-1.187462,-257.839207,-0.751913,66.576417
13.7357,-0.00523,0.004638,-0.001195,0.000157,0.000145,-0.003192,-0.005399,-0.50585,-0.000584,-1.262416,-257.839207,-0.826867,66.576417
13.7558,-0.005321,0.004264,-8.3e-05,0.000282,0.000192,-0.002146,-0.00558,-0.505649,-0.000835,-1.262416,-257.839207,-0.826867,66.576417
13.7753,-0.004984,0.004304,0.001932,0.00037,0.000234,-0.001387,-0.005363,-0.505736,-8.3e-05,-1.337444,-257.839207,-0.901895,66.576417
13.7956,-0.005057,0.004501,0.001099,0.000248,0.000187,-0.002065,-0.004116,-0.505699,0.001758,-1.337444,-257.839207,-0.901895,66.576417
13.8154,-0.00515,0.0043,-0.000146,0.000157,0.000149,-0.002566,-0.004116,-0.505699,0.001758,-1.337444,-257.839207,-0.901895,66.576417
13.8357,-0.005476,0.004736,-0.001009,9e-05,0.000118,-0.002935,-0.005225,-0.5057,-0.000146,-1.262459,-257.839207,-0.82691,66.576417
13.8558,-0.005237,0.004346,-5.9e-05,0.000203,0.000157,-0.002115,-0.005539,-0.505521,-0.0005,-1.262459,-257.839207,-0.82691,66.576417
13.876,-0.004674,0.004579,0.000535,0.000286,0.00019,-0.001523,-0.005267,-0.505654,-5.9e-05,-1.33742,-257.839207,-0.901871,66.576417
13.8955,-0.005133,0.004365,0.000237,0.00023,0.00014,-0.001597,-0.004487,-0.505444,0.000476,-1.33742,-257.839207,-0.901871,66.576417
13.9158,-0.005336,0.004405,0.000809,0.000186,0.0001,-0.001649,-0.004487,-0.505444,0.000476,-1.33742,-257.839207,-0.901871,66.576417
13.9353,-0.005282,0.004373,-3.4e-05,0.000152,7e-05,-0.001687,-0.004923,-0.505595,0.000809,-1.262406,-257.839207,-0.826857,66.576417
13.9562,-0.005281,0.004353,0.002219,0.000187,0.00011,-0.001704,-0.005077,-0.505608,0.000465,-1.262406,-257.839207,-0.826857,66.576417
13.9757,-0.005086,0.004335,0.000364,0.000215,0.000141,-0.001717,-0.004149,-0.505646,0.002219,-1.337314,-257.839207,-0.901765,66.576417
13.9958,-0.005045,0.004964,-0.000385,0.000221,0.000155,-0.001758,-0.004835,-0.505663,0.000526,-1.337314,-257.839207,-0.901765,66.576417
14.0159,-0.005326,0.004541,0.002272,0.000226,0.000166,-0.001788,-0.004835,-0.505663,0.000526,-1.337314,-257.839207,-0.901765,66.576417
14.0358,-0.004871,0.003881,0.001911,0.00023,0.000175,-0.001811,-0.004167,-0.505457,0.002272,-1.338396,-257.839207,-0.826658,66.576417
14.056,-0.00536,0.004846,-0.000381,0.000128,0.000143,-0.002503,-0.004058,-0.505723,0.002127,-1.338396,-257.839207,-0.826658,66.576417
14.0755,-0.005031,0.004454,-0.000243,5.3e-05,0.000116,-0.003018,-0.005555,-0.505154,-0.000381,-1.328828,-257.839207,-0.751764,66.576417
14.0957,-0.004895,0.004236,0.001418,0.000145,0.000131,-0.002295,-0.005191,-0.50551,-0.000255,-1.328828,-257.839207,-0.751764,66.576417
14.1156,-0.005193,0.004272,0.000991,0.000211,0.000146,-0.001774,-0.005191,-0.50551,-0.000255,-1.328828,-257.839207,-0.751764,66.576417
14.1355,-0.005016,0.004356,-0.000962,0.000258,0.00016,-0.001398,-0.004688,-0.505728,0.000991,-1.403836,-257.839207,-0.826771,66.576417
14.1556,-0.005337,0.004388,-0.000863,0.000278,0.000187,-0.001358,-0.005018,-0.505694,0.000203,-1.403836,-257.839207,-0.826771,66.576417
14.1759,-0.005246,0.00442,0.000575,0.000293,0.000207,-0.00133,-0.005777,-0.505612,-0.000863,-1.328847,-257.839207,-0.751783,66.576417
14.1957,-0.005064,0.004317,0.000796,0.00029,0.000211,-0.001435,-0.005028,-0.505583,0.000444,-1.328847,-257.839207,-0.751783,66.576417
14.2158,-0.005381,0.004766,-6.3e-05,0.000289,0.000213,-0.001512,-0.005028,-0.505583,0.000444,-1.328847,-257.839207,-0.751783,66.576417
14.2357,-0.00525,0.004508,-0.000607,0.000288,0.000214,-0.001569,-0.005413,-0.505234,-6.3e-05,-1.253847,-257.839207,-0.676782,66.576417
14.2558,-0.005061,0.004245,0.00088,0.000325,0.00021,-0.001238,-0.005473,-0.50534,-0.000287,-1.253847,-257.839207,-0.676782,66.576417
14.2753,-0.00552,0.004486,0.001044,0.00035,0.000209,-0.000997,-0.004612,-0.505755,0.00088,-1.201031,-257.839206,-0.601694,66.576417
14.2956,-0.00536,0.004151,-0.000172,0.00031,0.000204,-0.001474,-0.004953,-0.505536,0.001029,-1.201031,-257.839206,-0.601694,66.576417
14.3157,-0.005248,0.004529,0.000199,0.000281,0.000198,-0.001826,-0.004953,-0.505536,0.001029,-1.201031,-257.839206,-0.601694,66.576417
14.3355,-0.005141,0.004548,-0.000542,0.000262,0.000192,-0.002085,-0.005147,-0.505471,0.000199,-1.126121,-257.839206,-0.526785,66.576417
14.3554,-0.004987,0.004355,-0.000952,0.000299,0.000193,-0.001707,-0.005258,-0.505463,-0.000105,-1.126121,-257.839206,-0.526785,66.576417
14.3755,-0.005272,0.004525,0.000862,0.000325,0.000194,-0.001432,-0.005473,-0.505645,-0.000952,-1.201209,-257.839206,-0.451697,66.576417
14.3959,-0.005049,0.004554,0.001121,0.000293,0.000178,-0.001643,-0.004889,-0.50549,0.000701,-1.201209,-257.839206,-0.451697,66.576417
14.4155,-0.00545,0.00427,-8.9e-05,0.000269,0.000165,-0.001796,-0.004889,-0.50549,0.000701,-1.201209,-257.839206,-0.451697,66.576417
14.4361,-0.005553,0.004298,0.000778,0.000252,0.000154,-0.001908,-0.005495,-0.50573,-8.9e-05,-1.126288,-257.839206,-0.376777,66.576417
14.4557,-0.005438,0.004592,0.00105,0.000303,0.000205,-0.001764,-0.005358,-0.505718,0.000262,-1.126288,-257.839206,-0.376777,66.576417
14.4757,-0.005342,0.004259,0.000696,0.000342,0.000245,-0.00166,-0.004903,-0.505408,0.00105,-1.201283,-257.839206,-0.301782,66.576417
14.4961,-0.005587,0.004401,0.000476,0.000331,0.000253,-0.00182,-0.00498,-0.505712,0.000726,-1.201283,-257.839206,-0.301782,66.576417
14.5158,-0.005404,0.004761,0.000168,0.000323,0.000258,-0.001937,-0.00498,-0.505712,0.000726,-1.201283,-257.839206,-0.301782,66.576417
14.5356,-0.005662,0.00487,0.000681,0.000319,0.000262,-0.002023,-0.005318,-0.505239,0.000168,-1.152725,-257.839206,-0.226666,66.576417
14.5555,-0.005263,0.004989,0.000846,0.000312,0.000221,-0.001916,-0.005317,-0.505195,0.000375,-1.152725,-257.839206,-0.226666,66.576417
14.5752,-0.005067,0.004296,0.002099,0.000306,0.000189,-0.001838,-0.004831,-0.505011,0.000846,-1.227612,-257.839206,-0.15178,66.576417
14.5954,-0.005226,0.004519,1e-05,0.000187,0.00014,-0.002484,-0.004069,-0.505644,0.001991,-1.227612,-257.839206,-0.15178,66.576417
14.6157,-0.005516,0.004758,0.000351,9.9e-05,0.0001,-0.002962,-0.004069,-0.505644,0.001991,-1.227612,-257.839206,-0.15178,66.576417
14.6355,-0.005169,0.004195,0.001578,3.3e-05,6.8e-05,-0.003314,-0.005338,-0.505242,0.000351,-1.253848,-257.839206,-0.076676,66.576418
14.6559,-0.005138,0.004226,-0.001229,7.9e-05,7.5e-05,-0.003081,-0.00494,-0.505472,0.000852,-1.253848,-257.839206,-0.076676,66.576418
14.6755,-0.005158,0.00467,0.001235,0.000114,8.1e-05,-0.002913,-0.005765,-0.505774,-0.001229,-1.32888,-257.839206,-0.151709,66.576417
14.6957,-0.005249,0.00396,0.000881,0.000101,5.2e-05,-0.002879,-0.004633,-0.505368,0.001026,-1.32888,-257.839206,-0.151709,66.576417
14.7156,-0.005212,0.004209,-0.001356,9.2e-05,2.9e-05,-0.002854,-0.004633,-0.505368,0.001026,-1.32888,-257.839206,-0.151709,66.576417
14.7357,-0.005075,0.004145,0.000591,8.4e-05,1.1e-05,-0.002836,-0.005904,-0.505791,-0.001356,-1.403883,-257.839206,-0.226712,66.576417
14.756,-0.005124,0.004475,-0.000392,0.000217,0.000104,-0.002011,-0.005443,-0.505817,-0.000562,-1.403883,-257.839206,-0.226712,66.576417
14.7755,-0.005307,0.004541,0.000876,0.000313,0.000179,-0.001415,-0.005323,-0.505525,-0.000392,-1.478835,-257.839206,-0.301664,66.576417
14.7957,-0.004852,0.004349,0.000198,0.000281,0.000164,-0.001659,-0.004903,-0.505465,0.000758,-1.478835,-257.839206,-0.301664,66.576417
14.8158,-0.005292,0.004452,0.000254,0.000258,0.000152,-0.001836,-0.004903,-0.505465,0.000758,-1.478835,-257.839206,-0.301664,66.576417
