mach0312/omni-docking-bench/src/icros_test_setup/results/MPPI_sample/timeseries/trial_089.csv
t,x,y,yaw,vx,vy,wz,bl_x,bl_y,bl_yaw,front_steering_joint,front_wheel_joint,rear_steering_joint,rear_wheel_joint
0.0,0.068985,0.018778,-0.085325,-0.002024,0.00015,-0.001062,0.025738,-0.48935,-0.085822,0.241588,-261.382472,-0.375993,66.206651
0.0004,0.068589,0.019011,-0.086844,-0.001019,7.6e-05,-0.000535,0.024999,-0.489118,-0.086165,0.241588,-261.384384,-0.375993,66.204655
0.0007,0.068967,0.018887,-0.085044,-1e-06,0.0,-1e-06,0.024999,-0.489118,-0.086165,0.241588,-261.385217,-0.375993,66.203785
0.001,0.068981,0.018937,-0.087487,0.0,0.0,0.0,0.025147,-0.489483,-0.086717,0.241588,-261.385218,-0.375993,66.203784
0.0013,0.068955,0.018761,-0.086449,0.0,0.0,0.0,0.025147,-0.489483,-0.086717,0.241588,-261.385218,-0.375993,66.203784
0.0015,0.06896,0.019028,-0.086369,0.0,0.0,0.0,0.025147,-0.489483,-0.086717,0.241588,-261.385218,-0.375993,66.203784
0.0018,0.068683,0.018898,-0.085558,0.0,0.0,0.0,0.025637,-0.489229,-0.085877,0.241588,-261.385218,-0.375993,66.203784
0.0021,0.068419,0.018559,-0.085578,0.0,0.0,0.0,0.025637,-0.489229,-0.085877,0.241588,-261.385218,-0.375993,66.203784
0.0056,0.068951,0.018571,-0.086844,0.0,0.0,0.0,0.024828,-0.489574,-0.085578,0.241588,-261.385218,-0.375993,66.203784
0.0252,0.068869,0.019014,-0.087722,0.0,0.0,0.0,0.024783,-0.489547,-0.086093,0.241588,-261.385218,-0.375993,66.203784
0.0451,0.068866,0.018923,-0.086144,0.0,0.0,0.0,0.024188,-0.489025,-0.087722,0.241588,-261.385218,-0.375993,66.203784
0.0652,0.068744,0.019113,-0.085401,0.0,0.0,0.0,0.024919,-0.489172,-0.086278,0.241588,-261.385218,-0.375993,66.203784
0.0856,0.068364,0.01886,-0.085936,0.0,0.0,0.0,0.024919,-0.489172,-0.086278,0.241588,-261.385218,-0.375993,66.203784
0.1057,0.06887,0.01899,-0.084566,0.0,0.0,0.0,0.02459,-0.489258,-0.085936,0.241588,-261.385218,-0.375993,66.203784
0.1257,0.06876,0.01871,-0.085798,-0.003396,-0.001829,0.004475,0.02508,-0.489229,-0.085379,0.241588,-261.385218,-0.375993,66.203784
0.145,0.068562,0.018481,-0.085424,-0.003629,-0.00193,0.004716,0.025056,-0.489414,-0.085798,0.241588,-261.385218,-0.375993,66.203784
0.1655,0.069025,0.01902,-0.086729,-0.003832,-0.002003,0.004923,0.025049,-0.489637,-0.085457,0.241588,-261.385218,-0.375993,66.203784
0.1856,0.068762,0.01869,-0.08666,-0.004003,-0.00206,0.005088,0.025049,-0.489637,-0.085457,0.241588,-261.385218,-0.375993,66.203784
0.2055,0.068632,0.018879,-0.086096,-0.004003,-0.00206,0.005088,0.024621,-0.489396,-0.08666,0.166496,-261.385218,-0.3009,66.203784
0.2252,0.068955,0.018944,-0.086358,-0.004252,-0.002157,0.005356,0.024685,-0.489329,-0.086427,0.166496,-261.385218,-0.3009,66.203784
0.2451,0.069011,0.018834,-0.08574,-0.004348,-0.002191,0.005453,0.024967,-0.489156,-0.086358,0.091452,-261.385218,-0.225857,66.203784
0.2652,0.068548,0.018932,-0.086229,-0.004439,-0.002208,0.005563,0.025306,-0.489281,-0.085793,0.091452,-261.385218,-0.225857,66.203784
0.2852,0.068527,0.018713,-0.085065,-0.004516,-0.00222,0.005652,0.025306,-0.489281,-0.085793,0.091452,-261.385218,-0.225857,66.203784
0.3053,0.068843,0.018981,-0.083932,-0.004516,-0.00222,0.005652,0.025196,-0.489443,-0.085065,0.016465,-261.385218,-0.15087,66.203784
0.3257,0.068623,0.019213,-0.087643,-0.004648,-0.002223,0.005782,0.025561,-0.489353,-0.084601,0.016465,-261.385218,-0.15087,66.203784
0.3454,0.068551,0.019014,-0.086017,-0.004699,-0.002223,0.005831,0.023983,-0.488829,-0.087643,-0.058514,-261.385218,-0.075891,66.203784
0.3655,0.068788,0.019085,-0.08788,-0.004724,-0.00224,0.005874,0.024666,-0.489076,-0.086169,-0.058514,-261.385218,-0.075891,66.203784
0.3853,0.068516,0.019007,-0.084608,-0.004745,-0.002253,0.005908,0.024666,-0.489076,-0.086169,-0.058514,-261.385218,-0.075891,66.203784
0.4055,0.068929,0.01879,-0.08646,-0.004745,-0.002253,0.005908,0.025417,-0.489168,-0.084608,-0.133515,-261.385218,-0.00089,66.203784
0.4256,0.068739,0.018876,-0.084995,-0.004798,-0.002251,0.005957,0.025201,-0.489225,-0.085367,-0.133515,-261.385218,-0.00089,66.203784
0.4456,0.068797,0.018758,-0.085356,-0.004819,-0.00225,0.005975,0.025444,-0.489282,-0.084995,-0.208497,-261.385218,0.074093,66.203784
0.4656,0.069001,0.018676,-0.085871,-0.004841,-0.002244,0.005989,0.025329,-0.489376,-0.085324,-0.208497,-261.385218,0.074093,66.203784
0.4855,0.068791,0.018682,-0.086854,-0.00486,-0.002238,0.006001,0.025329,-0.489376,-0.085324,-0.208497,-261.385218,0.074093,66.203784
0.5057,0.068913,0.018921,-0.085558,-0.00486,-0.002238,0.006001,0.024551,-0.489396,-0.086854,-0.282513,-261.385218,0.149107,66.203784
0.5254,0.068673,0.018871,-0.085903,-0.004875,-0.002244,0.006023,0.024868,-0.489321,-0.086327,-0.282513,-261.385218,0.149107,66.203784
0.5451,0.069072,0.019053,-0.08441,-0.004881,-0.002245,0.006031,0.024917,-0.489249,-0.085903,-0.28552,-261.385219,0.224115,66.203783
0.5654,0.068779,0.018768,-0.086376,-0.004899,-0.002233,0.006035,0.025973,-0.489141,-0.08454,-0.28552,-261.385219,0.224115,66.203783
0.5854,0.069081,0.019008,-0.08663,-0.004915,-0.002222,0.006038,0.025973,-0.489141,-0.08454,-0.28552,-261.385219,0.224115,66.203783
0.6055,0.068655,0.018817,-0.085309,-0.004915,-0.002222,0.006038,0.024955,-0.489079,-0.08663,-0.286541,-261.38522,0.299106,66.203781
0.6257,0.068909,0.018875,-0.086246,-0.004915,-0.002229,0.00605,0.025055,-0.489181,-0.086091,-0.286541,-261.38522,0.299106,66.203781
0.6454,0.068541,0.018696,-0.086505,-0.004916,-0.002232,0.006054,0.024977,-0.48923,-0.086245,-0.28987,-261.385227,0.374114,66.20377
0.6654,0.068767,0.018836,-0.086624,-0.004912,-0.002238,0.006058,0.024522,-0.489383,-0.086482,-0.28987,-261.385227,0.374114,66.20377
0.6855,0.068964,0.018728,-0.086126,-0.004908,-0.002243,0.006061,0.024522,-0.489383,-0.086482,-0.28987,-261.385227,0.374114,66.20377
0.7055,0.069033,0.018625,-0.085271,-0.004908,-0.002243,0.006061,0.025091,-0.489382,-0.086123,-0.289785,-261.385257,0.449129,66.203726
0.7254,0.068919,0.019037,-0.085047,-0.004926,-0.002228,0.006062,0.025299,-0.48944,-0.085773,-0.289785,-261.385257,0.449129,66.203726
0.7455,0.068687,0.018962,-0.085469,-0.004933,-0.002222,0.006063,0.025588,-0.489121,-0.08504,-0.288959,-261.385351,0.524161,66.203584
0.7655,0.068386,0.019164,-0.084708,-0.004933,-0.002223,0.006065,0.025188,-0.489172,-0.085432,-0.288959,-261.385351,0.524161,66.203584
0.7858,0.069032,0.019128,-0.086675,-0.004933,-0.002223,0.006066,0.025188,-0.489172,-0.085432,-0.288959,-261.385351,0.524161,66.203584
0.8055,0.068505,0.018944,-0.08597,-0.004933,-0.002223,0.006066,0.024852,-0.488963,-0.086648,-0.291691,-261.385622,0.599176,66.203179
0.8253,0.069151,0.018834,-0.085354,-0.004918,-0.00224,0.006072,0.024793,-0.489047,-0.086375,-0.291691,-261.385622,0.599176,66.203179
0.8455,0.06832,0.018742,-0.085936,-0.004912,-0.002246,0.006073,0.025622,-0.48932,-0.085307,-0.291788,-261.386213,0.67411,66.202294
0.8657,0.068257,0.018922,-0.08614,-0.004911,-0.002247,0.006074,0.024637,-0.489372,-0.08588,-0.291788,-261.386213,0.67411,66.202294
0.8856,0.068567,0.019106,-0.086023,-0.00491,-0.002248,0.006074,0.024637,-0.489372,-0.08588,-0.291788,-261.386213,0.67411,66.202294
0.9051,0.06803,0.019044,-0.085234,-0.00491,-0.002248,0.006074,0.024636,-0.489038,-0.085908,-0.289555,-261.387239,0.749123,66.200748
0.9251,0.068411,0.018814,-0.086013,-0.004899,-0.00226,0.006076,0.024614,-0.489068,-0.08562,-0.289555,-261.387239,0.749123,66.200748
0.9452,0.068012,0.018678,-0.084665,-0.004895,-0.002264,0.006077,0.024472,-0.489341,-0.085873,-0.289301,-261.388786,0.82401,66.198417
0.9652,0.068089,0.018821,-0.085141,-0.004902,-0.002257,0.006075,0.024841,-0.489483,-0.084766,-0.289301,-261.388786,0.82401,66.198417
0.9857,0.067858,0.018471,-0.08484,-0.004909,-0.002251,0.006074,0.024841,-0.489483,-0.084766,-0.289301,-261.388786,0.82401,66.198417
1.0054,0.067599,0.019352,-0.083902,-0.004909,-0.002251,0.006074,0.024441,-0.489767,-0.0846,-0.287499,-261.390715,0.884481,66.195498
1.0255,0.067808,0.018835,-0.085009,-0.004908,-0.002252,0.00616,0.02459,-0.489401,-0.084286,-0.287499,-261.390715,0.884481,66.195498
1.0452,0.067523,0.018444,-0.08444,-0.004908,-0.002252,0.006192,0.024344,-0.489381,-0.084816,-0.288932,-261.39276,0.88189,66.192415
1.0657,0.067114,0.018996,-0.084176,-0.004911,-0.002249,0.006236,0.024487,-0.48971,-0.084464,-0.288932,-261.39276,0.88189,66.192415
1.0854,0.067256,0.018696,-0.085663,-0.004913,-0.002246,0.006272,0.024487,-0.48971,-0.084464,-0.288932,-261.39276,0.88189,66.192415
1.1057,0.067004,0.018308,-0.085843,-0.004913,-0.002246,0.006272,0.023409,-0.48951,-0.085405,-0.302207,-261.394812,0.887994,66.189309
1.1259,0.06706,0.018665,-0.085676,-0.004881,-0.002277,0.006365,0.023331,-0.489643,-0.085554,-0.302207,-261.394812,0.887994,66.189309
1.1452,0.066195,0.018289,-0.083979,-0.004869,-0.002289,0.006399,0.023257,-0.489522,-0.085477,-0.311935,-261.39687,0.890896,66.186194
1.1658,0.066265,0.018335,-0.085486,-0.004865,-0.002293,0.006443,0.023394,-0.489882,-0.084103,-0.311935,-261.39687,0.890896,66.186194
1.186,0.066339,0.018536,-0.085187,-0.004862,-0.002295,0.006479,0.023394,-0.489882,-0.084103,-0.311935,-261.39687,0.890896,66.186194
1.2055,0.066275,0.018507,-0.084448,-0.004862,-0.002295,0.006479,0.022736,-0.489692,-0.08492,-0.320992,-261.398918,0.904921,66.183048
1.2257,0.066013,0.018369,-0.084316,-0.004837,-0.00232,0.006569,0.022925,-0.489694,-0.084696,-0.320992,-261.398918,0.904921,66.183048
1.2453,0.065373,0.018669,-0.083231,-0.004827,-0.002329,0.006603,0.022904,-0.489878,-0.08411,-0.329347,-261.400969,0.909847,66.179887
1.2652,0.065677,0.018292,-0.080824,-0.004819,-0.002338,0.006646,0.02296,-0.489596,-0.083297,-0.329347,-261.400969,0.909847,66.179887
1.2858,0.065745,0.018498,-0.084447,-0.004811,-0.002345,0.006681,0.02296,-0.489596,-0.083297,-0.329347,-261.400969,0.909847,66.179887
1.3058,0.064996,0.018023,-0.082475,-0.004811,-0.002345,0.006681,0.02252,-0.489764,-0.084173,-0.339193,-261.40301,0.921715,66.176702
1.3255,0.065651,0.018725,-0.082973,-0.004804,-0.002352,0.006762,0.022687,-0.489971,-0.083439,-0.339193,-261.40301,0.921715,66.176702
1.3453,0.064629,0.018586,-0.08186,-0.004802,-0.002355,0.006792,0.023225,-0.489582,-0.082761,-0.346248,-261.40506,0.928049,66.173485
1.3656,0.064791,0.018403,-0.082124,-0.0048,-0.002357,0.00683,0.022942,-0.4897,-0.081918,-0.346248,-261.40506,0.928049,66.173485
1.3854,0.064568,0.017771,-0.084724,-0.004798,-0.002359,0.006861,0.022942,-0.4897,-0.081918,-0.346248,-261.40506,0.928049,66.173485
1.4058,0.064478,0.018108,-0.082039,-0.004798,-0.002359,0.006861,0.021203,-0.49048,-0.084443,-0.357459,-261.407098,0.934751,66.170272
1.4257,0.064458,0.018083,-0.083473,-0.00478,-0.002375,0.006929,0.02179,-0.490365,-0.083419,-0.357459,-261.407098,0.934751,66.170272
1.4453,0.064086,0.017676,-0.080638,-0.004773,-0.002382,0.006954,0.021778,-0.490203,-0.083255,-0.364642,-261.409145,0.938562,66.167035
1.4656,0.063726,0.017816,-0.082949,-0.004793,-0.002363,0.006975,0.022885,-0.490628,-0.080865,-0.364642,-261.409145,0.938562,66.167035
1.4851,0.063905,0.017963,-0.081003,-0.004809,-0.002348,0.006994,0.022885,-0.490628,-0.080865,-0.364642,-261.409145,0.938562,66.167035
1.5052,0.063884,0.017935,-0.081441,-0.004809,-0.002348,0.006994,0.022431,-0.490448,-0.080713,-0.372494,-261.4112,0.946703,66.16376
1.5251,0.063829,0.017857,-0.081702,-0.004811,-0.002346,0.007032,0.022392,-0.490427,-0.080984,-0.372494,-261.4112,0.946703,66.16376
1.545,0.063038,0.01801,-0.081709,-0.004812,-0.002345,0.007046,0.022049,-0.490503,-0.081481,-0.380488,-261.41326,0.942566,66.160506
1.565,0.06307,0.017826,-0.082348,-0.004795,-0.002362,0.007064,0.021463,-0.490312,-0.081677,-0.380488,-261.41326,0.942566,66.160506
1.5854,0.063154,0.018131,-0.081773,-0.00478,-0.002375,0.007078,0.021463,-0.490312,-0.081677,-0.380488,-261.41326,0.942566,66.160506
1.6051,0.062791,0.017722,-0.081242,-0.00478,-0.002375,0.007078,0.021287,-0.490246,-0.081478,-0.386518,-261.415337,0.944265,66.157225
1.625,0.062667,0.018136,-0.081345,-0.004756,-0.002398,0.007102,0.02131,-0.490397,-0.081348,-0.386518,-261.415337,0.944265,66.157225
1.6453,0.061846,0.01772,-0.081022,-0.004747,-0.002407,0.007111,0.021069,-0.490241,-0.08112,-0.386877,-261.4174,0.951,66.153936
1.6653,0.062257,0.017677,-0.081603,-0.00473,-0.002422,0.007121,0.020607,-0.490577,-0.081019,-0.386877,-261.4174,0.951,66.153936
1.6851,0.061962,0.017568,-0.080414,-0.004716,-0.002435,0.007129,0.020607,-0.490577,-0.081019,-0.386877,-261.4174,0.951,66.153936
1.7056,0.06199,0.01757,-0.080368,-0.004716,-0.002435,0.007129,0.020789,-0.490869,-0.080116,-0.387303,-261.419448,0.957889,66.150638
1.7252,0.062014,0.017391,-0.081022,-0.004714,-0.002436,0.00714,0.02087,-0.490844,-0.080184,-0.387303,-261.419448,0.957889,66.150638
1.7451,0.061603,0.017381,-0.079299,-0.004713,-0.002437,0.007145,0.020582,-0.491001,-0.080795,-0.386549,-261.421487,0.963673,66.147328
1.7654,0.061456,0.017705,-0.0795,-0.004722,-0.00243,0.007148,0.021142,-0.491018,-0.079417,-0.386549,-261.421487,0.963673,66.147328
1.7854,0.061086,0.017628,-0.081435,-0.004728,-0.002423,0.007151,0.021142,-0.491018,-0.079417,-0.386549,-261.421487,0.963673,66.147328
1.805,0.061258,0.01748,-0.080263,-0.004728,-0.002423,0.007151,0.019395,-0.490768,-0.081137,-0.388011,-261.423526,0.964749,66.144016
1.8251,0.060755,0.017602,-0.079756,-0.004683,-0.002464,0.007168,0.019774,-0.490823,-0.08074,-0.388011,-261.423526,0.964749,66.144016
1.8453,0.060196,0.017299,-0.080271,-0.004666,-0.002479,0.007173,0.019967,-0.490842,-0.079529,-0.390132,-261.425565,0.962558,66.140715
1.8654,0.060144,0.01738,-0.079277,-0.004648,-0.002495,0.007179,0.019354,-0.491042,-0.080192,-0.390132,-261.425565,0.962558,66.140715
1.8852,0.060368,0.017467,-0.080495,-0.004633,-0.002508,0.007183,0.019354,-0.491042,-0.080192,-0.390132,-261.425565,0.962558,66.140715
1.9053,0.05994,0.017485,-0.079372,-0.004633,-0.002508,0.007183,0.019158,-0.490969,-0.080195,-0.387047,-261.427577,0.973548,66.137402
1.9254,0.060057,0.016811,-0.079787,-0.004604,-0.002533,0.007191,0.019276,-0.490955,-0.079824,-0.387047,-261.427577,0.973548,66.137402
1.9453,0.060129,0.017062,-0.076168,-0.004593,-0.002543,0.007193,0.019255,-0.491634,-0.079558,-0.38528,-261.429575,0.979198,66.134082
1.9653,0.059763,0.01718,-0.078392,-0.004632,-0.002508,0.007187,0.021125,-0.491478,-0.076465,-0.38528,-261.429575,0.979198,66.134082
1.9852,0.05975,0.017254,-0.080365,-0.004664,-0.002478,0.007183,0.021125,-0.491478,-0.076465,-0.38528,-261.429575,0.979198,66.134082
2.0055,0.059523,0.017035,-0.078877,-0.004664,-0.002478,0.007183,0.018608,-0.49119,-0.080064,-0.382914,-261.431557,0.985903,66.130752
2.0258,0.059195,0.016739,-0.078178,-0.004624,-0.002514,0.007195,0.018885,-0.491278,-0.079541,-0.382914,-261.431557,0.985903,66.130752
2.0458,0.059081,0.017175,-0.077556,-0.004608,-0.002528,0.007199,0.019211,-0.49177,-0.077951,-0.388477,-261.433564,0.973994,66.127446
2.0657,0.059044,0.016954,-0.077706,-0.004611,-0.002526,0.007199,0.019527,-0.491339,-0.07758,-0.388477,-261.433564,0.973994,66.127446
2.0858,0.058966,0.017133,-0.079012,-0.004614,-0.002524,0.0072,0.019527,-0.491339,-0.07758,-0.388477,-261.433564,0.973994,66.127446
2.106,0.058099,0.016586,-0.076499,-0.004614,-0.002524,0.0072,0.018511,-0.491366,-0.078711,-0.385301,-261.43555,0.983622,66.124125
2.1258,0.058343,0.016871,-0.07832,-0.004598,-0.002538,0.007204,0.018734,-0.491601,-0.077785,-0.385301,-261.43555,0.983622,66.124125
2.1453,0.058213,0.01668,-0.077157,-0.004592,-0.002543,0.007206,0.018288,-0.491634,-0.078091,-0.385743,-261.437542,0.982819,66.120798
2.1658,0.058114,0.016413,-0.076457,-0.004593,-0.002542,0.007206,0.018838,-0.491791,-0.077231,-0.385743,-261.437542,0.982819,66.120798
2.1854,0.05769,0.016869,-0.077964,-0.004595,-0.002541,0.007206,0.018838,-0.491791,-0.077231,-0.385743,-261.437542,0.982819,66.120798
2.2055,0.057463,0.016419,-0.075793,-0.004595,-0.002541,0.007206,0.017769,-0.491673,-0.077663,-0.384484,-261.439525,0.98657,66.117464
2.2255,0.057518,0.016209,-0.076271,-0.004575,-0.002557,0.007211,0.01819,-0.491866,-0.076857,-0.384484,-261.439525,0.98657,66.117464
2.2457,0.056813,0.016532,-0.076221,-0.004568,-0.002564,0.007212,0.018505,-0.492378,-0.076042,-0.384784,-261.441506,0.986128,66.114138
2.2657,0.057327,0.016413,-0.077138,-0.004562,-0.002569,0.007213,0.018017,-0.492026,-0.076193,-0.384784,-261.441506,0.986128,66.114138
2.2857,0.056924,0.016732,-0.076055,-0.004557,-0.002573,0.007214,0.018017,-0.492026,-0.076193,-0.384784,-261.441506,0.986128,66.114138
2.306,0.056987,0.016516,-0.076139,-0.004557,-0.002573,0.007214,0.017975,-0.491886,-0.075753,-0.383145,-261.443475,0.990604,66.110807
2.3258,0.056933,0.016355,-0.07666,-0.004547,-0.002581,0.007215,0.01804,-0.491946,-0.075873,-0.383145,-261.443475,0.990604,66.110807
2.3451,0.056262,0.016388,-0.075327,-0.004543,-0.002584,0.007215,0.017723,-0.492218,-0.07643,-0.382444,-261.445439,0.992384,66.107473
2.3652,0.056294,0.016363,-0.075607,-0.004542,-0.002585,0.007216,0.017859,-0.492174,-0.075415,-0.382444,-261.445439,0.992384,66.107473
2.3856,0.056657,0.016074,-0.076307,-0.00454,-0.002586,0.007216,0.017859,-0.492174,-0.075415,-0.382444,-261.445439,0.992384,66.107473
2.4057,0.055701,0.016269,-0.075902,-0.00454,-0.002586,0.007216,0.01758,-0.492535,-0.076005,-0.38151,-261.447397,0.994503,66.104138
2.4257,0.055835,0.016072,-0.074592,-0.004526,-0.002598,0.007218,0.017332,-0.492435,-0.075928,-0.38151,-261.447397,0.994503,66.104138
2.4455,0.055365,0.016231,-0.075446,-0.004521,-0.002602,0.007218,0.017678,-0.492581,-0.074362,-0.381323,-261.449354,0.994956,66.100803
2.4658,0.055496,0.016085,-0.075788,-0.004507,-0.002614,0.00722,0.016984,-0.492345,-0.075338,-0.381323,-261.449354,0.994956,66.100803
2.4855,0.055723,0.016064,-0.075413,-0.004495,-0.002623,0.007222,0.016984,-0.492345,-0.075338,-0.381323,-261.449354,0.994956,66.100803
2.5056,0.055085,0.015913,-0.075265,-0.004495,-0.002623,0.007222,0.017102,-0.492581,-0.075111,-0.38016,-261.451301,0.998012,66.097467
2.5253,0.054771,0.016395,-0.075202,-0.004486,-0.00263,0.007222,0.01693,-0.492617,-0.075139,-0.38016,-261.451301,0.998012,66.097467
2.5455,0.054577,0.015838,-0.074693,-0.004483,-0.002633,0.007221,0.016305,-0.492236,-0.074972,-0.378467,-261.453235,1.002142,66.094129
2.5657,0.05439,0.016004,-0.07342,-0.004472,-0.002641,0.007223,0.016492,-0.492698,-0.074706,-0.378467,-261.453235,1.002142,66.094129
2.5857,0.054591,0.016129,-0.074572,-0.004463,-0.002649,0.007224,0.016492,-0.492698,-0.074706,-0.378467,-261.453235,1.002142,66.094129
2.6056,0.054365,0.016494,-0.07393,-0.004463,-0.002649,0.007224,0.0164,-0.492549,-0.07427,-0.377563,-261.455165,1.003947,66.090789
2.6258,0.054364,0.015746,-0.073525,-0.004436,-0.00267,0.007226,0.016498,-0.492382,-0.074096,-0.377563,-261.455165,1.003947,66.090789
2.6455,0.053717,0.015608,-0.073371,-0.004426,-0.002678,0.007226,0.016752,-0.49295,-0.073296,-0.376226,-261.457084,1.007138,66.087449
2.6654,0.053206,0.015753,-0.073385,-0.00443,-0.002675,0.007225,0.016361,-0.493017,-0.073353,-0.376226,-261.457084,1.007138,66.087449
2.6855,0.054009,0.015645,-0.073594,-0.004433,-0.002672,0.007223,0.016361,-0.493017,-0.073353,-0.376226,-261.457084,1.007138,66.087449
2.7059,0.05331,0.016175,-0.073459,-0.004433,-0.002672,0.007223,0.016317,-0.493073,-0.073292,-0.373588,-261.458986,1.012844,66.084104
2.7253,0.053481,0.015419,-0.07354,-0.004418,-0.002684,0.007224,0.016114,-0.492827,-0.073326,-0.373588,-261.458986,1.012844,66.084104
2.7452,0.05293,0.015686,-0.072901,-0.004412,-0.002688,0.007225,0.015863,-0.493277,-0.073311,-0.373912,-261.460888,1.011635,66.080765
2.7655,0.0529,0.015231,-0.072346,-0.004403,-0.002695,0.007225,0.015783,-0.492992,-0.072926,-0.373912,-261.460888,1.011635,66.080765
2.7856,0.053028,0.015471,-0.07273,-0.004396,-0.002701,0.007226,0.015783,-0.492992,-0.072926,-0.373912,-261.460888,1.011635,66.080765
2.8054,0.052605,0.015423,-0.072911,-0.004396,-0.002701,0.007226,0.015776,-0.493279,-0.072428,-0.372479,-261.462783,1.014807,66.077422
2.8261,0.052732,0.015643,-0.072988,-0.00439,-0.002706,0.007225,0.015623,-0.493267,-0.07259,-0.372479,-261.462783,1.014807,66.077422
2.8458,0.052109,0.01547,-0.072463,-0.004387,-0.002707,0.007225,0.015396,-0.493075,-0.072758,-0.37138,-261.46467,1.017321,66.074076
2.8655,0.051928,0.015212,-0.072929,-0.004372,-0.002719,0.007227,0.015196,-0.493185,-0.072477,-0.37138,-261.46467,1.017321,66.074076
2.8858,0.052146,0.015363,-0.071661,-0.004359,-0.002729,0.007228,0.015196,-0.493185,-0.072477,-0.37138,-261.46467,1.017321,66.074076
2.9058,0.051577,0.015489,-0.072492,-0.004359,-0.002729,0.007228,0.015439,-0.493428,-0.071358,-0.37094,-261.466554,1.01822,66.070732
2.9254,0.052052,0.015493,-0.070271,-0.004342,-0.002742,0.007229,0.015091,-0.493335,-0.071786,-0.37094,-261.466554,1.01822,66.070732
2.9456,0.050997,0.014995,-0.071371,-0.004336,-0.002747,0.007228,0.016099,-0.493325,-0.070041,-0.368988,-261.468422,1.022909,66.067386
2.9654,0.051151,0.015039,-0.072014,-0.00433,-0.002751,0.007228,0.014752,-0.493677,-0.07124,-0.368988,-261.468422,1.022909,66.067386
2.9859,0.051484,0.015282,-0.071552,-0.004325,-0.002754,0.007228,0.014752,-0.493677,-0.07124,-0.368988,-261.468422,1.022909,66.067386
3.006,0.050877,0.015961,-0.071618,-0.004325,-0.002754,0.007228,0.014834,-0.493515,-0.071249,-0.367324,-261.47028,1.026412,66.064038
3.0258,0.050861,0.015043,-0.073177,-0.00429,-0.002781,0.007231,0.014631,-0.493211,-0.071363,-0.367324,-261.47028,1.026412,66.064038
3.0456,0.050767,0.014786,-0.072595,-0.004276,-0.002791,0.007232,0.01343,-0.49367,-0.072946,-0.366623,-261.472136,1.027932,66.060684
3.0658,0.050443,0.014928,-0.070707,-0.004254,-0.002807,0.007234,0.01374,-0.493857,-0.072614,-0.366623,-261.472136,1.027932,66.060684
3.0858,0.050717,0.014592,-0.070556,-0.004235,-0.00282,0.007235,0.01374,-0.493857,-0.072614,-0.366623,-261.472136,1.027932,66.060684
3.1054,0.049783,0.014692,-0.071904,-0.004235,-0.00282,0.007235,0.014576,-0.494243,-0.070254,-0.36335,-261.473964,1.035333,66.057335
3.1255,0.050004,0.01481,-0.069298,-0.004237,-0.002818,0.007231,0.01397,-0.494152,-0.070892,-0.36335,-261.473964,1.035333,66.057335
3.1455,0.049855,0.014772,-0.070118,-0.004238,-0.002817,0.00723,0.01455,-0.494046,-0.069068,-0.360896,-261.475771,1.041393,66.053988
3.1659,0.049359,0.014995,-0.069916,-0.00424,-0.002815,0.007229,0.014156,-0.493986,-0.07001,-0.360896,-261.475771,1.041393,66.053988
3.1858,0.049695,0.0148,-0.070913,-0.004242,-0.002814,0.007228,0.014156,-0.493986,-0.07001,-0.360896,-261.475771,1.041393,66.053988
3.2053,0.049422,0.014482,-0.070473,-0.004242,-0.002814,0.007228,0.013372,-0.494025,-0.070606,-0.36073,-261.477582,1.040814,66.050635
3.2256,0.049131,0.014407,-0.070423,-0.004208,-0.002838,0.007231,0.013405,-0.494124,-0.070521,-0.36073,-261.477582,1.040814,66.050635
3.2453,0.049047,0.014422,-0.06783,-0.004196,-0.002847,0.007232,0.013104,-0.494409,-0.070192,-0.360823,-261.479396,1.040079,66.047283
3.2654,0.048774,0.014215,-0.067805,-0.004224,-0.002825,0.007227,0.014348,-0.49441,-0.068031,-0.360823,-261.479396,1.040079,66.047283
3.2855,0.04929,0.014506,-0.0696,-0.004247,-0.002807,0.007223,0.014348,-0.49441,-0.068031,-0.360823,-261.479396,1.040079,66.047283
3.3056,0.048611,0.014319,-0.068665,-0.004247,-0.002807,0.007223,0.013639,-0.494365,-0.069297,-0.358136,-261.481186,1.046966,66.043931
3.3254,0.048402,0.014408,-0.070103,-0.004241,-0.002812,0.007225,0.01361,-0.494424,-0.069004,-0.358136,-261.481186,1.046966,66.043931
3.3457,0.047863,0.01407,-0.067179,-0.004239,-0.002813,0.007225,0.012537,-0.494419,-0.069873,-0.361175,-261.483004,1.038999,66.040578
3.3656,0.048199,0.014303,-0.068411,-0.004245,-0.002808,0.007225,0.013529,-0.494753,-0.067394,-0.361175,-261.483004,1.038999,66.040578
3.3857,0.04834,0.014185,-0.068586,-0.00425,-0.002804,0.007224,0.013529,-0.494753,-0.067394,-0.361175,-261.483004,1.038999,66.040578
3.4057,0.048189,0.014022,-0.069023,-0.00425,-0.002804,0.007224,0.013204,-0.494721,-0.068284,-0.360908,-261.484812,1.040311,66.037233
3.4257,0.047648,0.014196,-0.06843,-0.004231,-0.002818,0.007228,0.013106,-0.49475,-0.06855,-0.360908,-261.484812,1.040311,66.037233
3.4453,0.047014,0.014198,-0.068154,-0.004223,-0.002823,0.007229,0.012634,-0.49469,-0.068199,-0.361778,-261.486638,1.038597,66.033869
3.4653,0.047458,0.014075,-0.068098,-0.004187,-0.002848,0.007234,0.012303,-0.494628,-0.068147,-0.361778,-261.486638,1.038597,66.033869
3.4861,0.047332,0.013772,-0.068877,-0.004157,-0.002869,0.007237,0.012303,-0.494628,-0.068147,-0.361778,-261.486638,1.038597,66.033869
3.5053,0.046734,0.014257,-0.066215,-0.004157,-0.002869,0.007237,0.012049,-0.495124,-0.068576,-0.360543,-261.488435,1.042568,66.030533
3.5254,0.046752,0.013855,-0.067171,-0.004135,-0.002884,0.007237,0.01241,-0.494933,-0.06758,-0.360543,-261.488435,1.042568,66.030533
3.5452,0.046344,0.013918,-0.067942,-0.004127,-0.00289,0.007236,0.012383,-0.495077,-0.066941,-0.357015,-261.490206,1.052473,66.027182
3.5661,0.046213,0.014152,-0.068352,-0.004097,-0.002911,0.007239,0.011773,-0.494925,-0.06784,-0.357015,-261.490206,1.052473,66.027182
3.5856,0.046241,0.013757,-0.066033,-0.004071,-0.002928,0.00724,0.011773,-0.494925,-0.06784,-0.357015,-261.490206,1.052473,66.027182
3.6054,0.045756,0.013527,-0.066721,-0.004071,-0.002928,0.00724,0.012407,-0.495241,-0.06573,-0.354896,-261.491969,1.056812,66.023821
3.6256,0.046138,0.013724,-0.06626,-0.004079,-0.002922,0.007235,0.012119,-0.495293,-0.0661,-0.354896,-261.491969,1.056812,66.023821
3.6452,0.045388,0.01351,-0.067759,-0.004081,-0.00292,0.007233,0.012236,-0.495241,-0.06603,-0.35174,-261.493701,1.064898,66.020465
3.6657,0.045515,0.013305,-0.066768,-0.004039,-0.002947,0.007238,0.01097,-0.495317,-0.067598,-0.35174,-261.493701,1.064898,66.020465
3.6855,0.045681,0.013647,-0.066372,-0.004004,-0.00297,0.007241,0.01097,-0.495317,-0.067598,-0.35174,-261.493701,1.064898,66.020465
3.7056,0.045606,0.014086,-0.06612,-0.004004,-0.00297,0.007241,0.011677,-0.495341,-0.066069,-0.351793,-261.49544,1.063176,66.017106
3.7255,0.045864,0.013246,-0.063657,-0.003999,-0.002974,0.007237,0.011751,-0.495134,-0.066055,-0.351793,-261.49544,1.063176,66.017106
3.745,0.04503,0.013056,-0.065554,-0.003997,-0.002975,0.007235,0.013288,-0.495807,-0.063427,-0.347956,-261.497148,1.074331,66.013736
3.7651,0.044554,0.013101,-0.066274,-0.004017,-0.00296,0.007231,0.011741,-0.495849,-0.065384,-0.347956,-261.497148,1.074331,66.013736
3.7857,0.045064,0.01329,-0.065553,-0.004034,-0.002948,0.007228,0.011741,-0.495849,-0.065384,-0.347956,-261.497148,1.074331,66.013736
3.8059,0.044529,0.012882,-0.064094,-0.004034,-0.002948,0.007228,0.011481,-0.495727,-0.065252,-0.346611,-261.498838,1.075176,66.010394
3.8254,0.045063,0.01312,-0.064618,-0.004053,-0.002934,0.007226,0.011616,-0.49588,-0.064747,-0.346611,-261.498838,1.075176,66.010394
3.8453,0.044274,0.012919,-0.064354,-0.00406,-0.002929,0.007225,0.011997,-0.495901,-0.064388,-0.348612,-261.500554,1.069601,66.007037
3.866,0.044198,0.012765,-0.063405,-0.004067,-0.002924,0.007225,0.011516,-0.496018,-0.064345,-0.348612,-261.500554,1.069601,66.007037
3.8859,0.043927,0.01309,-0.063455,-0.004073,-0.002919,0.007225,0.011516,-0.496018,-0.064345,-0.348612,-261.500554,1.069601,66.007037
3.9055,0.043312,0.012792,-0.06403,-0.004073,-0.002919,0.007225,0.011409,-0.495996,-0.063152,-0.350397,-261.502282,1.065626,66.003683
3.9254,0.04357,0.012586,-0.064062,-0.004057,-0.00293,0.007229,0.011093,-0.496076,-0.063474,-0.350397,-261.502282,1.065626,66.003683
3.9456,0.043147,0.012634,-0.063003,-0.004051,-0.002934,0.00723,0.010785,-0.496452,-0.063832,-0.351447,-261.504018,1.063751,66.000328
3.9656,0.043568,0.012707,-0.065994,-0.004052,-0.002932,0.00723,0.011007,-0.496367,-0.063066,-0.351447,-261.504018,1.063751,66.000328
3.9855,0.043104,0.012871,-0.065491,-0.004053,-0.002931,0.00723,0.011007,-0.496367,-0.063066,-0.351447,-261.504018,1.063751,66.000328
4.0056,0.043097,0.012814,-0.064546,-0.004053,-0.002931,0.00723,0.009551,-0.496147,-0.065188,-0.35076,-261.505743,1.067084,65.996972
4.0256,0.042839,0.012927,-0.065595,-0.003944,-0.003,0.007243,0.009797,-0.49615,-0.06489,-0.35076,-261.505743,1.067084,65.996972
4.0454,0.042485,0.012604,-0.065623,-0.003904,-0.003025,0.007246,0.009275,-0.496061,-0.065365,-0.351205,-261.507469,1.066703,65.993615
4.0656,0.042616,0.012502,-0.062625,-0.003838,-0.003064,0.007251,0.009055,-0.496281,-0.065588,-0.351205,-261.507469,1.066703,65.993615
4.0855,0.042493,0.012679,-0.064277,-0.003785,-0.003096,0.007254,0.009055,-0.496281,-0.065588,-0.351205,-261.507469,1.066703,65.993615
4.1059,0.042271,0.012353,-0.063443,-0.003785,-0.003096,0.007254,0.009565,-0.496383,-0.063976,-0.344433,-261.509117,1.088175,65.990274
4.1254,0.042344,0.012329,-0.062638,-0.003775,-0.003102,0.007247,0.009698,-0.496494,-0.063722,-0.344433,-261.509117,1.088175,65.990274
4.1452,0.041543,0.012417,-0.06197,-0.003771,-0.003105,0.007245,0.010294,-0.496761,-0.062409,-0.338975,-261.510712,1.104877,65.986925
4.1652,0.041543,0.012301,-0.062725,-0.003787,-0.003095,0.00724,0.009983,-0.496623,-0.061998,-0.338975,-261.510712,1.104877,65.986925
4.1853,0.04151,0.012285,-0.062919,-0.003799,-0.003087,0.007237,0.009983,-0.496623,-0.061998,-0.338975,-261.510712,1.104877,65.986925
4.2051,0.041399,0.012133,-0.062656,-0.003799,-0.003087,0.007237,0.009277,-0.496825,-0.062616,-0.336683,-261.512316,1.106457,65.983544
4.2252,0.041538,0.012076,-0.061536,-0.003778,-0.0031,0.007237,0.009336,-0.496856,-0.062598,-0.336683,-261.512316,1.106457,65.983544
4.245,0.04087,0.01215,-0.061847,-0.003769,-0.003104,0.007237,0.010049,-0.497049,-0.061307,-0.337369,-261.513933,1.102249,65.980165
4.2656,0.040757,0.012381,-0.063538,-0.003767,-0.003105,0.007236,0.009393,-0.496891,-0.061799,-0.337369,-261.513933,1.102249,65.980165
4.2858,0.041153,0.012255,-0.062073,-0.003765,-0.003106,0.007236,0.009393,-0.496891,-0.061799,-0.337369,-261.513933,1.102249,65.980165
4.3054,0.040358,0.012345,-0.061672,-0.003765,-0.003106,0.007236,0.009352,-0.496882,-0.061773,-0.335819,-261.515518,1.106392,65.976823
4.3255,0.040748,0.011814,-0.059747,-0.003737,-0.003123,0.007237,0.009158,-0.496815,-0.061697,-0.335819,-261.515518,1.106392,65.976823
4.3455,0.040335,0.01172,-0.061728,-0.003727,-0.003129,0.007237,0.01017,-0.497367,-0.059517,-0.335481,-261.517112,1.106866,65.973461
4.3654,0.040186,0.011615,-0.060972,-0.003727,-0.003128,0.007236,0.008984,-0.497318,-0.061518,-0.335481,-261.517112,1.106866,65.973461
4.3853,0.039966,0.012084,-0.061103,-0.003728,-0.003127,0.007235,0.008984,-0.497318,-0.061518,-0.335481,-261.517112,1.106866,65.973461
4.4053,0.039922,0.011486,-0.061137,-0.003728,-0.003127,0.007235,0.008659,-0.497086,-0.0608,-0.333505,-261.518691,1.112206,65.97009
4.4255,0.039759,0.011317,-0.060135,-0.0037,-0.003142,0.007238,0.008682,-0.497295,-0.060904,-0.333505,-261.518691,1.112206,65.97009
4.4457,0.039278,0.011496,-0.060578,-0.003689,-0.003147,0.007238,0.008984,-0.497854,-0.059905,-0.333765,-261.520269,1.111948,65.966723
4.4651,0.03914,0.011842,-0.060419,-0.00368,-0.003152,0.007238,0.008446,-0.497597,-0.060509,-0.333765,-261.520269,1.111948,65.966723
4.4855,0.039428,0.011374,-0.061189,-0.003671,-0.003155,0.007238,0.008446,-0.497597,-0.060509,-0.333765,-261.520269,1.111948,65.966723
4.5051,0.039192,0.011125,-0.060652,-0.003671,-0.003155,0.007238,0.008079,-0.497793,-0.060887,-0.332367,-261.521827,1.117189,65.963362
4.5256,0.03921,0.011539,-0.059743,-0.003647,-0.003167,0.00724,0.008141,-0.497866,-0.060756,-0.332367,-261.521827,1.117189,65.963362
4.5452,0.038855,0.0114,-0.060892,-0.003637,-0.003171,0.00724,0.008637,-0.497645,-0.059512,-0.33193,-261.523384,1.119544,65.959989
4.5652,0.038374,0.011385,-0.058803,-0.003608,-0.003187,0.007242,0.007883,-0.497658,-0.060763,-0.33193,-261.523384,1.119544,65.959989
4.5853,0.03894,0.011507,-0.060363,-0.003583,-0.0032,0.007243,0.007883,-0.497658,-0.060763,-0.33193,-261.523384,1.119544,65.959989
4.6056,0.038324,0.010715,-0.059514,-0.003583,-0.0032,0.007243,0.008013,-0.497688,-0.060061,-0.3312,-261.524918,1.124039,65.956629
4.6255,0.038198,0.011153,-0.059161,-0.00358,-0.0032,0.007241,0.007985,-0.497981,-0.059806,-0.3312,-261.524918,1.124039,65.956629
4.6452,0.037519,0.010831,-0.060571,-0.003579,-0.003199,0.00724,0.007923,-0.49805,-0.05893,-0.329127,-261.526435,1.131449,65.953254
4.6653,0.03814,0.011248,-0.059998,-0.003511,-0.003233,0.007247,0.006748,-0.498223,-0.060423,-0.329127,-261.526435,1.131449,65.953254
4.6853,0.037566,0.011287,-0.060506,-0.003455,-0.003261,0.007251,0.006748,-0.498223,-0.060423,-0.329127,-261.526435,1.131449,65.953254
4.7055,0.037385,0.010814,-0.05844,-0.003455,-0.003261,0.007251,0.006569,-0.497904,-0.060204,-0.32909,-261.527947,1.13172,65.94989
4.7256,0.037674,0.011288,-0.059799,-0.00339,-0.003294,0.007252,0.006971,-0.498086,-0.059448,-0.32909,-261.527947,1.13172,65.94989
4.7452,0.036972,0.010771,-0.059486,-0.003366,-0.003306,0.007251,0.00708,-0.497897,-0.05957,-0.325865,-261.529399,1.148528,65.946532
4.7653,0.037106,0.010514,-0.05901,-0.003335,-0.003321,0.007251,0.006682,-0.498296,-0.059482,-0.325865,-261.529399,1.148528,65.946532
4.7856,0.037379,0.011149,-0.060083,-0.00331,-0.003333,0.00725,0.006682,-0.498296,-0.059482,-0.325865,-261.529399,1.148528,65.946532
4.8054,0.036931,0.010346,-0.058036,-0.00331,-0.003333,0.00725,0.006606,-0.49806,-0.059781,-0.321899,-261.530816,1.160328,65.943164
4.8253,0.036764,0.01085,-0.05894,-0.003304,-0.003335,0.007245,0.006895,-0.498378,-0.059028,-0.321899,-261.530816,1.160328,65.943164
4.845,0.03672,0.010833,-0.057269,-0.003301,-0.003336,0.007243,0.006611,-0.498363,-0.05871,-0.319621,-261.532212,1.167696,65.939786
4.8653,0.036486,0.010151,-0.058676,-0.003334,-0.003318,0.007238,0.007451,-0.498338,-0.057372,-0.319621,-261.532212,1.167696,65.939786
4.8854,0.036416,0.010319,-0.057025,-0.003361,-0.003304,0.007234,0.007451,-0.498338,-0.057372,-0.319621,-261.532212,1.167696,65.939786
4.9057,0.036027,0.010258,-0.056914,-0.003361,-0.003304,0.007234,0.007204,-0.498983,-0.056723,-0.318372,-261.533596,1.168547,65.936429
4.9256,0.036243,0.010198,-0.055982,-0.003411,-0.003274,0.007229,0.007111,-0.498971,-0.056766,-0.318372,-261.533596,1.168547,65.936429
4.945,0.035878,0.010303,-0.056295,-0.003429,-0.003263,0.007228,0.007594,-0.499102,-0.055752,-0.320034,-261.53501,1.160244,65.933064
4.9654,0.036021,0.010135,-0.056557,-0.003448,-0.003251,0.007228,0.007214,-0.498913,-0.056234,-0.320034,-261.53501,1.160244,65.933064
4.9854,0.035886,0.010171,-0.056166,-0.003464,-0.003242,0.007228,0.007214,-0.498913,-0.056234,-0.320034,-261.53501,1.160244,65.933064
5.0051,0.035232,0.009705,-0.056381,-0.003464,-0.003242,0.007228,0.007106,-0.499152,-0.055864,-0.324112,-261.53646,1.150796,65.929694
5.0251,0.035257,0.009975,-0.056387,-0.003474,-0.003233,0.007231,0.006832,-0.499306,-0.056045,-0.324112,-261.53646,1.150796,65.929694
5.0456,0.034778,0.009561,-0.055657,-0.003477,-0.00323,0.007232,0.0064,-0.499311,-0.056158,-0.326324,-261.53792,1.145867,65.92634
5.0654,0.034849,0.010004,-0.058239,-0.003464,-0.003234,0.007235,0.006401,-0.499625,-0.055688,-0.326324,-261.53792,1.145867,65.92634
5.0856,0.034895,0.009949,-0.05606,-0.003454,-0.003237,0.007237,0.006401,-0.499625,-0.055688,-0.326324,-261.53792,1.145867,65.92634
5.1056,0.034529,0.009642,-0.055405,-0.003454,-0.003237,0.007237,0.006166,-0.499376,-0.055758,-0.329016,-261.539386,1.144003,65.922987
5.1257,0.034712,0.009663,-0.056252,-0.0034,-0.003262,0.007244,0.006198,-0.499472,-0.05558,-0.329016,-261.539386,1.144003,65.922987
5.1451,0.034448,0.009099,-0.057383,-0.00338,-0.003271,0.007245,0.005923,-0.499627,-0.056022,-0.33007,-261.540853,1.147042,65.919613
5.1654,0.0343,0.009294,-0.05648,-0.00331,-0.0033,0.007252,0.00525,-0.500032,-0.057266,-0.33007,-261.540853,1.147042,65.919613
5.1852,0.034192,0.009349,-0.055285,-0.003254,-0.003323,0.007256,0.00525,-0.500032,-0.057266,-0.33007,-261.540853,1.147042,65.919613
5.2056,0.033944,0.00934,-0.055579,-0.003254,-0.003323,0.007256,0.005863,-0.5,-0.054984,-0.329072,-261.542276,1.157023,65.916264
5.2254,0.03365,0.009447,-0.054958,-0.003242,-0.003325,0.007252,0.005744,-0.499963,-0.055191,-0.329072,-261.542276,1.157023,65.916264
5.2453,0.03362,0.009593,-0.05503,-0.003238,-0.003326,0.007251,0.005527,-0.499882,-0.054729,-0.328343,-261.543642,1.173524,65.912922
5.2651,0.033833,0.009402,-0.055605,-0.003207,-0.003341,0.007252,0.00556,-0.499662,-0.05499,-0.328343,-261.543642,1.173524,65.912922
5.2852,0.033308,0.009606,-0.055423,-0.003181,-0.003353,0.007253,0.00556,-0.499662,-0.05499,-0.328343,-261.543642,1.173524,65.912922
5.3055,0.033195,0.009172,-0.055708,-0.003181,-0.003353,0.007253,0.004914,-0.499742,-0.05512,-0.328182,-261.54501,1.175223,65.909561
5.3251,0.032993,0.009268,-0.055046,-0.00305,-0.003408,0.00726,0.00485,-0.499877,-0.055324,-0.328182,-261.54501,1.175223,65.909561
5.345,0.032654,0.008954,-0.055095,-0.003002,-0.003428,0.007261,0.004826,-0.50006,-0.054816,-0.326348,-261.546352,1.182756,65.906201
5.3651,0.032694,0.008528,-0.055587,-0.002954,-0.003444,0.007262,0.004588,-0.500258,-0.055057,-0.326348,-261.546352,1.182756,65.906201
5.3853,0.032677,0.008991,-0.055544,-0.002916,-0.003458,0.007262,0.004588,-0.500258,-0.055057,-0.326348,-261.546352,1.182756,65.906201
5.4055,0.032388,0.008713,-0.054826,-0.002916,-0.003458,0.007262,0.004232,-0.500357,-0.055243,-0.323796,-261.54761,1.20612,65.902858
5.4254,0.032505,0.008656,-0.054539,-0.002823,-0.003488,0.007262,0.004302,-0.50044,-0.055036,-0.323796,-261.54761,1.20612,65.902858
5.4452,0.031962,0.008601,-0.052706,-0.002789,-0.003499,0.007261,0.004605,-0.50069,-0.054308,-0.323365,-261.548843,1.216889,65.899483
5.4653,0.03226,0.008591,-0.054153,-0.002847,-0.003471,0.007251,0.005054,-0.500695,-0.052814,-0.323365,-261.548843,1.216889,65.899483
5.4852,0.032519,0.00879,-0.053594,-0.002894,-0.003448,0.007245,0.005054,-0.500695,-0.052814,-0.323365,-261.548843,1.216889,65.899483
5.5054,0.032221,0.008591,-0.051931,-0.002894,-0.003448,0.007245,0.005076,-0.500616,-0.053294,-0.323507,-261.550018,1.232698,65.896125
5.5252,0.031831,0.008857,-0.053551,-0.003008,-0.003394,0.007234,0.005351,-0.500678,-0.052671,-0.323507,-261.550018,1.232698,65.896125
5.5455,0.031946,0.008231,-0.052864,-0.003049,-0.003375,0.007232,0.004437,-0.500515,-0.053325,-0.325349,-261.551225,1.218579,65.89281
5.5655,0.031741,0.008574,-0.05286,-0.003063,-0.003366,0.007233,0.004942,-0.501013,-0.052894,-0.325349,-261.551225,1.218579,65.89281
5.5856,0.031469,0.00829,-0.052051,-0.003075,-0.003359,0.007235,0.004942,-0.501013,-0.052894,-0.325349,-261.551225,1.218579,65.89281
5.6053,0.031258,0.008073,-0.052466,-0.003075,-0.003359,0.007235,0.004801,-0.501152,-0.051751,-0.329235,-261.552505,1.197771,65.889487
5.6256,0.031024,0.008042,-0.05366,-0.003063,-0.003357,0.00724,0.004668,-0.501198,-0.052008,-0.329235,-261.552505,1.197771,65.889487
5.645,0.030967,0.008076,-0.051096,-0.003058,-0.003356,0.007243,0.003566,-0.501326,-0.053429,-0.332006,-261.553805,1.194306,65.886143
5.6655,0.031088,0.008068,-0.052683,-0.003072,-0.003347,0.007243,0.004793,-0.501269,-0.051294,-0.332006,-261.553805,1.194306,65.886143
5.6853,0.030845,0.007965,-0.053397,-0.003082,-0.00334,0.007243,0.004793,-0.501269,-0.051294,-0.332006,-261.553805,1.194306,65.886143
5.705,0.030778,0.007835,-0.051982,-0.003082,-0.00334,0.007243,0.00349,-0.501441,-0.053094,-0.335758,-261.555103,1.196227,65.882793
5.7252,0.030341,0.007733,-0.05044,-0.002923,-0.003393,0.00726,0.003801,-0.501471,-0.052599,-0.335758,-261.555103,1.196227,65.882793
5.745,0.030034,0.008267,-0.052278,-0.002866,-0.003412,0.007264,0.004525,-0.501719,-0.05021,-0.338148,-261.556407,1.192879,65.879459
5.7654,0.02982,0.007483,-0.051326,-0.002767,-0.003448,0.00727,0.003481,-0.501102,-0.052082,-0.338148,-261.556407,1.192879,65.879459
5.785,0.029955,0.007977,-0.051382,-0.002687,-0.003477,0.007274,0.003481,-0.501102,-0.052082,-0.338148,-261.556407,1.192879,65.879459
5.8055,0.029563,0.007675,-0.051597,-0.002687,-0.003477,0.007274,0.003637,-0.501485,-0.051082,-0.34317,-261.557609,1.22067,65.876159
5.8252,0.029818,0.007846,-0.052519,-0.002606,-0.003498,0.007272,0.003468,-0.501567,-0.051257,-0.34317,-261.557609,1.22067,65.876159
5.8452,0.029662,0.007506,-0.049438,-0.002577,-0.003505,0.007271,0.002955,-0.501556,-0.05229,-0.344943,-261.558742,1.243739,65.872843
5.8655,0.029436,0.007396,-0.050794,-0.002667,-0.003464,0.007258,0.004319,-0.501848,-0.049682,-0.344943,-261.558742,1.243739,65.872843
5.8853,0.029562,0.007224,-0.05021,-0.002739,-0.003432,0.00725,0.004319,-0.501848,-0.049682,-0.344943,-261.558742,1.243739,65.872843
5.9057,0.02928,0.007146,-0.048951,-0.002739,-0.003432,0.00725,0.003851,-0.502273,-0.049907,-0.348036,-261.559837,1.257151,65.869507
5.9257,0.029202,0.007438,-0.049117,-0.002831,-0.003379,0.007244,0.004034,-0.502277,-0.049477,-0.348036,-261.559837,1.257151,65.869507
5.9456,0.028938,0.007253,-0.050814,-0.002863,-0.00336,0.007244,0.004071,-0.502051,-0.048889,-0.348815,-261.560992,1.235462,65.866208
5.9654,0.029153,0.007117,-0.049484,-0.002763,-0.003392,0.007257,0.003122,-0.502091,-0.05063,-0.348815,-261.560992,1.235462,65.866208
5.9855,0.028879,0.007204,-0.047924,-0.002682,-0.003418,0.007265,0.003122,-0.502091,-0.05063,-0.348815,-261.560992,1.235462,65.866208
6.0053,0.02839,0.007105,-0.049316,-0.002682,-0.003418,0.007265,0.004321,-0.502345,-0.047623,-0.355809,-261.562215,1.218369,65.862885
6.0254,0.028634,0.006914,-0.050051,-0.002761,-0.003379,0.007258,0.003849,-0.502331,-0.048311,-0.355809,-261.562215,1.218369,65.862885
6.0456,0.028369,0.00678,-0.04903,-0.002788,-0.003365,0.007256,0.00303,-0.50255,-0.049824,-0.363231,-261.563344,1.241711,65.859619
6.0654,0.028266,0.006824,-0.04994,-0.002759,-0.003368,0.007261,0.00334,-0.502607,-0.049088,-0.363231,-261.563344,1.241711,65.859619
6.0854,0.02828,0.006671,-0.048413,-0.002736,-0.00337,0.007265,0.00334,-0.502607,-0.049088,-0.363231,-261.563344,1.241711,65.859619
6.1054,0.027511,0.006667,-0.048214,-0.002736,-0.00337,0.007265,0.003476,-0.502865,-0.048111,-0.365367,-261.564535,1.227353,65.856318
6.1253,0.027907,0.006574,-0.049262,-0.0027,-0.003362,0.007271,0.003239,-0.50283,-0.048118,-0.365367,-261.564535,1.227353,65.856318
6.1454,0.027296,0.006284,-0.048611,-0.002687,-0.003359,0.007273,0.002701,-0.502911,-0.049031,-0.372019,-261.565709,1.233691,65.85301
6.1652,0.027248,0.006894,-0.048598,-0.00258,-0.003376,0.007284,0.002526,-0.503101,-0.048636,-0.372019,-261.565709,1.233691,65.85301
6.1853,0.027285,0.006257,-0.047151,-0.002494,-0.003389,0.007291,0.002526,-0.503101,-0.048636,-0.372019,-261.565709,1.233691,65.85301
6.2055,0.027373,0.006584,-0.048333,-0.002494,-0.003389,0.007291,0.003128,-0.50331,-0.046847,-0.383072,-261.566866,1.239083,65.849715
6.2253,0.027345,0.006243,-0.04708,-0.002498,-0.00337,0.00729,0.002953,-0.503127,-0.047417,-0.383072,-261.566866,1.239083,65.849715
6.2452,0.027018,0.006051,-0.045846,-0.002498,-0.003363,0.00729,0.003261,-0.503294,-0.046852,-0.403297,-261.567934,1.262853,65.846475
6.2653,0.026755,0.006077,-0.047288,-0.002612,-0.003307,0.007279,0.003608,-0.503408,-0.04592,-0.403297,-261.567934,1.262853,65.846475
6.2855,0.026895,0.006606,-0.046542,-0.002702,-0.003264,0.007273,0.003608,-0.503408,-0.04592,-0.403297,-261.567934,1.262853,65.846475
6.3054,0.02614,0.005971,-0.048382,-0.002702,-0.003264,0.007273,0.003056,-0.502978,-0.046237,-0.411299,-261.569023,1.261372,65.843197
6.3253,0.026717,0.005851,-0.048537,-0.00247,-0.003326,0.007301,0.002397,-0.503179,-0.047079,-0.411299,-261.569023,1.261372,65.843197
6.3452,0.025983,0.005697,-0.046327,-0.002389,-0.003347,0.007309,0.001883,-0.503647,-0.048309,-0.411233,-261.570188,1.233567,65.83997
6.3652,0.025868,0.006062,-0.047805,-0.002337,-0.003337,0.007311,0.00232,-0.503751,-0.046483,-0.411233,-261.570188,1.233567,65.83997
6.3853,0.026187,0.005928,-0.046366,-0.002295,-0.003329,0.007313,0.00232,-0.503751,-0.046483,-0.411233,-261.570188,1.233567,65.83997
6.4053,0.025946,0.006103,-0.047325,-0.002295,-0.003329,0.007313,0.002447,-0.503654,-0.046071,-0.437231,-261.571204,1.273998,65.836821
6.4255,0.02595,0.00578,-0.046415,-0.002171,-0.003347,0.007321,0.002177,-0.503534,-0.046553,-0.437231,-261.571204,1.273998,65.836821
6.4452,0.025417,0.005623,-0.04601,-0.002127,-0.003352,0.007323,0.002209,-0.503772,-0.046186,-0.460189,-261.572217,1.284441,65.83361
6.4653,0.02617,0.005595,-0.045048,-0.002068,-0.003346,0.007326,0.001978,-0.503836,-0.046014,-0.460189,-261.572217,1.284441,65.83361
6.4855,0.025708,0.005528,-0.046229,-0.002021,-0.003341,0.007327,0.001978,-0.503836,-0.046014,-0.460189,-261.572217,1.284441,65.83361
6.5051,0.02549,0.005411,-0.044455,-0.002021,-0.003341,0.007327,0.002046,-0.504061,-0.045927,-0.484893,-261.573163,1.305419,65.830416
6.5253,0.025605,0.005378,-0.044266,-0.002104,-0.003276,0.00732,0.002357,-0.504087,-0.045285,-0.484893,-261.573163,1.305419,65.830416
6.5453,0.025171,0.005103,-0.045448,-0.002131,-0.003253,0.00732,0.002969,-0.504225,-0.044035,-0.511567,-261.574079,1.317774,65.827227
6.5651,0.025248,0.005593,-0.04513,-0.002112,-0.003226,0.007323,0.002078,-0.504363,-0.04532,-0.511567,-261.574079,1.317774,65.827227
6.5851,0.025204,0.005177,-0.045236,-0.002095,-0.003203,0.007326,0.002078,-0.504363,-0.04532,-0.511567,-261.574079,1.317774,65.827227
6.6051,0.024943,0.005053,-0.04503,-0.002095,-0.003203,0.007326,0.002047,-0.504432,-0.044932,-0.518872,-261.575054,1.301547,65.824042
6.6257,0.024716,0.00505,-0.044825,-0.002054,-0.003162,0.007335,0.002011,-0.504446,-0.044937,-0.518872,-261.575054,1.301547,65.824042
6.6456,0.024285,0.004995,-0.043856,-0.002039,-0.003147,0.00734,0.001793,-0.504535,-0.044594,-0.545436,-261.576022,1.304395,65.820899
6.6654,0.024232,0.004684,-0.045313,-0.00201,-0.003132,0.007344,0.00191,-0.504521,-0.043911,-0.545436,-261.576022,1.304395,65.820899
6.6857,0.024611,0.004877,-0.044803,-0.001987,-0.003119,0.007349,0.00191,-0.504521,-0.043911,-0.545436,-261.576022,1.304395,65.820899
6.7055,0.024188,0.004862,-0.045127,-0.001987,-0.003119,0.007349,0.001679,-0.504736,-0.044502,-0.580035,-261.576978,1.309715,65.817802
6.7255,0.024227,0.004605,-0.04374,-0.001793,-0.003093,0.007361,0.001466,-0.504703,-0.044722,-0.580035,-261.576978,1.309715,65.817802
6.7453,0.024,0.004786,-0.044028,-0.001726,-0.003083,0.007365,0.00186,-0.505003,-0.043508,-0.603351,-261.577936,1.315305,65.81468
6.7653,0.023995,0.004812,-0.04384,-0.001701,-0.003067,0.007368,0.001576,-0.504749,-0.043972,-0.603351,-261.577936,1.315305,65.81468
6.7858,0.023458,0.004577,-0.043588,-0.001681,-0.003054,0.00737,0.001576,-0.504749,-0.043972,-0.603351,-261.577936,1.315305,65.81468
6.8057,0.023522,0.004836,-0.044322,-0.001681,-0.003054,0.00737,0.001167,-0.505049,-0.043317,-0.678468,-261.578722,1.346887,65.811944
6.8259,0.023393,0.00485,-0.044708,-0.001452,-0.003026,0.007375,0.00106,-0.504904,-0.043698,-0.678468,-261.578722,1.346887,65.811944
6.845,0.023515,0.004417,-0.042923,-0.001374,-0.003015,0.007377,0.000542,-0.504734,-0.044477,-0.710771,-261.579593,1.351892,65.808904
6.8652,0.023627,0.00439,-0.043729,-0.00143,-0.002978,0.007373,0.001529,-0.505083,-0.043053,-0.710771,-261.579593,1.351892,65.808904
6.8851,0.023386,0.004186,-0.043809,-0.001472,-0.002949,0.007371,0.001529,-0.505083,-0.043053,-0.710771,-261.579593,1.351892,65.808904
6.905,0.023288,0.004496,-0.043425,-0.001472,-0.002949,0.007371,0.001,-0.505423,-0.043567,-0.785665,-261.580232,1.390139,65.806492
6.9253,0.023228,0.004498,-0.041962,-0.00134,-0.002889,0.00737,0.001054,-0.505272,-0.043481,-0.785665,-261.580232,1.390139,65.806492
6.9452,0.022678,0.004127,-0.042956,-0.001294,-0.002868,0.007371,0.001783,-0.505144,-0.041729,-0.811956,-261.581076,1.37571,65.803497
6.9655,0.02283,0.004089,-0.043765,-0.001216,-0.00284,0.007372,0.000869,-0.505383,-0.042829,-0.811956,-261.581076,1.37571,65.803497
6.9851,0.023063,0.004308,-0.043087,-0.001156,-0.002818,0.007374,0.000869,-0.505383,-0.042829,-0.811956,-261.581076,1.37571,65.803497
7.0055,0.022669,0.003795,-0.042253,-0.001156,-0.002818,0.007374,0.001044,-0.505322,-0.042817,-0.886932,-261.581805,1.397001,65.800881
7.0254,0.022512,0.004366,-0.042755,-0.00117,-0.002756,0.00737,0.001071,-0.505507,-0.042557,-0.886932,-261.581805,1.397001,65.800881
7.0454,0.02238,0.004392,-0.042438,-0.001174,-0.002735,0.007371,0.000677,-0.505247,-0.042545,-0.961952,-261.582536,1.414201,65.79823
7.0655,0.022399,0.003548,-0.043137,-0.001086,-0.002761,0.007378,0.000736,-0.505161,-0.042437,-0.961952,-261.582536,1.414201,65.79823
7.086,0.022716,0.00409,-0.040822,-0.001018,-0.002782,0.007383,0.000736,-0.505161,-0.042437,-0.961952,-261.582536,1.414201,65.79823
7.1057,0.022202,0.004155,-0.042029,-0.001018,-0.002782,0.007383,0.00185,-0.505596,-0.040517,-0.984471,-261.583375,1.409994,65.79533
7.1254,0.022221,0.003986,-0.041962,-0.001246,-0.002716,0.007369,0.001418,-0.50553,-0.041079,-0.984471,-261.583375,1.409994,65.79533
7.1456,0.022168,0.003664,-0.041897,-0.001321,-0.002694,0.007367,0.000793,-0.505648,-0.041739,-1.038102,-261.584136,1.432066,65.792537
7.1654,0.021607,0.003624,-0.042475,-0.001233,-0.002642,0.007364,0.000804,-0.505871,-0.041873,-1.038102,-261.584136,1.432066,65.792537
7.1852,0.022042,0.003764,-0.040692,-0.001166,-0.002601,0.007363,0.000804,-0.505871,-0.041873,-1.038102,-261.584136,1.432066,65.792537
7.2056,0.021597,0.003599,-0.040996,-0.001166,-0.002601,0.007363,0.001246,-0.505905,-0.040436,-0.963007,-261.584877,1.389159,65.790113
7.2254,0.021835,0.003317,-0.04224,-0.001181,-0.002522,0.007356,0.001016,-0.505943,-0.040635,-0.963007,-261.584877,1.389159,65.790113
7.2458,0.02162,0.003579,-0.040768,-0.001184,-0.002495,0.007356,0.000261,-0.506305,-0.042019,-1.019663,-261.585719,1.40801,65.787394
7.2652,0.021254,0.003182,-0.040003,-0.001127,-0.002464,0.007356,0.000781,-0.506028,-0.040867,-1.019663,-261.585719,1.40801,65.787394
7.2851,0.021447,0.003321,-0.041011,-0.001083,-0.00244,0.007357,0.000781,-0.506028,-0.040867,-1.019663,-261.585719,1.40801,65.787394
7.3056,0.021073,0.003785,-0.039942,-0.001083,-0.00244,0.007357,0.000484,-0.506352,-0.040705,-1.035652,-261.586643,1.402887,65.784573
7.3252,0.021703,0.003936,-0.041321,-0.000925,-0.002375,0.007362,0.000569,-0.506142,-0.040358,-1.035652,-261.586643,1.402887,65.784573
7.3451,0.020986,0.003173,-0.039283,-0.000872,-0.002353,0.007364,0.000599,-0.505702,-0.041097,-1.085651,-261.587533,1.415877,65.781884
7.3655,0.021337,0.003412,-0.040472,-0.000939,-0.002298,0.007359,0.000922,-0.50637,-0.039437,-1.085651,-261.587533,1.415877,65.781884
7.3854,0.021147,0.003405,-0.038558,-0.000989,-0.002256,0.007357,0.000922,-0.50637,-0.039437,-1.085651,-261.587533,1.415877,65.781884
7.4058,0.020963,0.003323,-0.041705,-0.000989,-0.002256,0.007357,0.001453,-0.506299,-0.038298,-1.160646,-261.588321,1.444149,65.779534
7.4259,0.020909,0.002949,-0.038535,-0.00094,-0.002228,0.007369,0.000703,-0.506281,-0.039717,-1.160646,-261.588321,1.444149,65.779534
7.4457,0.02001,0.002766,-0.041642,-0.000924,-0.002218,0.007373,0.001228,-0.506742,-0.038305,-1.154639,-261.589286,1.425309,65.776843
7.4656,0.020826,0.003236,-0.038669,-0.000442,-0.002064,0.007364,-0.001003,-0.506791,-0.04133,-1.154639,-261.589286,1.425309,65.776843
7.4857,0.020497,0.003204,-0.037972,-7.1e-05,-0.001951,0.007358,-0.001003,-0.506791,-0.04133,-1.154639,-261.589286,1.425309,65.776843
7.506,0.020045,0.00335,-0.038526,-7.1e-05,-0.001951,0.007358,0.001095,-0.506519,-0.037668,-1.186683,-261.590256,1.434211,65.774172
7.5255,0.020197,0.003023,-0.03827,-0.000468,-0.00199,0.007369,0.000809,-0.506429,-0.03798,-1.186683,-261.590256,1.434211,65.774172
7.545,0.020109,0.003237,-0.040136,-0.000598,-0.002007,0.007377,0.000682,-0.50661,-0.038248,-1.261822,-261.590355,1.50935,65.773921
7.5656,0.020634,0.003051,-0.03929,-0.000407,-0.002022,0.007375,-0.000266,-0.506374,-0.039972,-1.261822,-261.590355,1.50935,65.773921
7.5854,0.020212,0.003164,-0.037315,-0.000261,-0.002034,0.007372,-0.000266,-0.506374,-0.039972,-1.261822,-261.590355,1.50935,65.773921
7.6052,0.020064,0.002817,-0.037878,-0.000261,-0.002034,0.007372,0.00116,-0.506556,-0.037036,-1.33576,-261.591283,1.479182,65.77156
7.6255,0.019985,0.003143,-0.039025,-0.000711,-0.00197,0.007336,0.00099,-0.506671,-0.037348,-1.33576,-261.591283,1.479182,65.77156
7.6453,0.020084,0.00299,-0.037557,-0.000859,-0.001951,0.007329,7.7e-05,-0.506516,-0.038854,-1.410748,-261.592009,1.530941,65.769647
7.6652,0.019786,0.002995,-0.03957,-0.000932,-0.001946,0.007324,0.000859,-0.506641,-0.037661,-1.410748,-261.592009,1.530941,65.769647
7.6855,0.019888,0.002886,-0.037835,-0.000987,-0.001943,0.007322,0.000859,-0.506641,-0.037661,-1.410748,-261.592009,1.530941,65.769647
7.7054,0.020026,0.002277,-0.038475,-0.000987,-0.001943,0.007322,0.000579,-0.506792,-0.037664,-1.335752,-261.592599,1.455945,65.768211
7.7255,0.020232,0.002711,-0.03885,-0.000897,-0.001817,0.007294,0.000508,-0.507025,-0.037976,-1.335752,-261.592599,1.455945,65.768211
7.7455,0.019395,0.002693,-0.038181,-0.000868,-0.001775,0.007287,0.000401,-0.506947,-0.03868,-1.260705,-261.593382,1.41806,65.76634
7.7655,0.019788,0.002777,-0.037428,-0.000678,-0.001754,0.007284,-3.2e-05,-0.506939,-0.038217,-1.260705,-261.593382,1.41806,65.76634
7.7852,0.019633,0.002613,-0.036996,-0.000534,-0.001737,0.00728,-3.2e-05,-0.506939,-0.038217,-1.260705,-261.593382,1.41806,65.76634
7.8054,0.019371,0.002337,-0.037759,-0.000534,-0.001737,0.00728,0.000731,-0.50711,-0.036692,-1.25719,-261.594505,1.432341,65.76383
7.8255,0.019726,0.003297,-0.038059,-0.000628,-0.001638,0.007257,0.000479,-0.507195,-0.037087,-1.25719,-261.594505,1.432341,65.76383
7.845,0.019397,0.002593,-0.037205,-0.000658,-0.001605,0.007252,0.000305,-0.506376,-0.037883,-1.332312,-261.595351,1.484611,65.761928
7.8652,0.019321,0.002618,-0.036931,-0.000655,-0.001618,0.007254,0.000417,-0.507006,-0.037248,-1.332312,-261.595351,1.484611,65.761928
7.8852,0.019248,0.002881,-0.037245,-0.000653,-0.001629,0.007255,0.000417,-0.507006,-0.037248,-1.332312,-261.595351,1.484611,65.761928
7.9056,0.019075,0.002244,-0.036986,-0.000653,-0.001629,0.007255,0.000228,-0.506831,-0.036946,-1.341922,-261.596495,1.462194,65.759533
7.9254,0.01875,0.002635,-0.037402,-0.000545,-0.001617,0.007257,0.00022,-0.507075,-0.036928,-1.341922,-261.596495,1.462194,65.759533
7.9454,0.018934,0.002558,-0.036813,-0.000509,-0.001613,0.007258,-0.000343,-0.50706,-0.037172,-1.34197,-261.597645,1.46351,65.757096
7.9652,0.018662,0.002741,-0.036739,-0.00045,-0.001606,0.007258,0.000118,-0.507096,-0.036833,-1.34197,-261.597645,1.46351,65.757096
7.9854,0.019221,0.0025,-0.035751,-0.000406,-0.0016,0.007258,0.000118,-0.507096,-0.036833,-1.34197,-261.597645,1.46351,65.757096
8.0054,0.018397,0.002052,-0.035783,-0.000406,-0.0016,0.007258,0.00097,-0.507237,-0.035462,-1.392141,-261.598737,1.486791,65.754785
8.0255,0.018397,0.002424,-0.035713,-0.000648,-0.001485,0.007232,0.000631,-0.507402,-0.035561,-1.392141,-261.598737,1.486791,65.754785
8.0452,0.018178,0.002321,-0.036692,-0.000727,-0.001447,0.007229,0.000173,-0.5073,-0.035488,-1.428573,-261.599852,1.503655,65.752429
8.0652,0.018476,0.002286,-0.036081,-0.000437,-0.00141,0.00725,-0.000471,-0.507335,-0.036577,-1.428573,-261.599852,1.503655,65.752429
8.0852,0.018139,0.002219,-0.033667,-0.000216,-0.001383,0.007266,-0.000471,-0.507335,-0.036577,-1.428573,-261.599852,1.503655,65.752429
8.1055,0.018375,0.002313,-0.036416,-0.000216,-0.001383,0.007266,0.000947,-0.507541,-0.03342,-1.35357,-261.600849,1.447486,65.7505
8.1256,0.017961,0.002039,-0.035913,-0.000455,-0.001331,0.007274,0.000476,-0.507467,-0.03462,-1.35357,-261.600849,1.447486,65.7505
8.1453,0.017892,0.002391,-0.03716,-0.000532,-0.001315,0.007281,-0.000359,-0.50766,-0.035769,-1.428614,-261.601617,1.522529,65.74904
8.1655,0.018418,0.002171,-0.035162,-0.000145,-0.001292,0.007293,-0.000993,-0.507295,-0.037028,-1.428614,-261.601617,1.522529,65.74904
8.1852,0.018269,0.002355,-0.034846,0.000153,-0.001277,0.007301,-0.000993,-0.507295,-0.037028,-1.428614,-261.601617,1.522529,65.74904
8.2055,0.017913,0.002023,-0.036106,0.000153,-0.001277,0.007301,0.000478,-0.507388,-0.034554,-1.402409,-261.602837,1.478659,65.746817
8.2252,0.017958,0.002086,-0.036481,-1.4e-05,-0.001251,0.007309,7.9e-05,-0.507498,-0.035152,-1.402409,-261.602837,1.478659,65.746817
8.2453,0.017964,0.002056,-0.033695,-6.6e-05,-0.001244,0.007315,-0.000646,-0.507589,-0.036394,-1.477526,-261.603314,1.553777,65.745959
8.2654,0.017844,0.002293,-0.034759,-0.000302,-0.001206,0.007303,0.000654,-0.50765,-0.033934,-1.477526,-261.603314,1.553777,65.745959
8.2853,0.017904,0.002082,-0.034115,-0.000479,-0.001178,0.007298,0.000654,-0.50765,-0.033934,-1.477526,-261.603314,1.553777,65.745959
8.3058,0.017568,0.001995,-0.033697,-0.000479,-0.001178,0.007298,0.000504,-0.507669,-0.033834,-1.550251,-261.604501,1.559197,65.743857
8.3265,0.017576,0.002465,-0.033722,-0.000602,-0.001129,0.007299,0.000455,-0.507694,-0.033745,-1.550251,-261.604501,1.559197,65.743857
8.3453,0.017489,0.002033,-0.034739,-0.000642,-0.001113,0.007301,0.00037,-0.507272,-0.033553,-1.475099,-261.605447,1.48594,65.742242
8.3652,0.017359,0.002268,-0.033658,-0.000463,-0.001107,0.007309,-0.000168,-0.507623,-0.034617,-1.475099,-261.605447,1.48594,65.742242
8.3854,0.017412,0.002222,-0.036198,-0.000328,-0.001103,0.007315,-0.000168,-0.507623,-0.034617,-1.475099,-261.605447,1.48594,65.742242
8.4054,0.016994,0.002221,-0.033644,-0.000328,-0.001103,0.007315,-0.001069,-0.507483,-0.035936,-1.400261,-261.606615,1.456122,65.740319
8.4254,0.017204,0.002559,-0.033855,0.000139,-0.001115,0.007321,-0.000701,-0.50749,-0.034969,-1.400261,-261.606615,1.456122,65.740319
8.4452,0.017264,0.001927,-0.034228,0.000294,-0.001119,0.007321,-6.9e-05,-0.507179,-0.033653,-1.473651,-261.607793,1.512016,65.738374
8.4653,0.016931,0.001901,-0.032388,0.00025,-0.00109,0.007308,-0.000179,-0.507722,-0.034166,-1.473651,-261.607793,1.512016,65.738374
8.4855,0.016872,0.002249,-0.033428,0.000218,-0.001068,0.0073,-0.000179,-0.507722,-0.034166,-1.473651,-261.607793,1.512016,65.738374
8.5052,0.0169,0.002311,-0.033631,0.000218,-0.001068,0.0073,-0.000174,-0.507488,-0.033282,-1.548539,-261.608434,1.586904,65.737308
8.5256,0.017134,0.002006,-0.033518,0.000192,-0.001165,0.007294,-0.000205,-0.507454,-0.033412,-1.548539,-261.608434,1.586904,65.737308
8.5453,0.016754,0.001953,-0.033367,0.000184,-0.001197,0.007289,4.7e-05,-0.507738,-0.033315,-1.624025,-261.609622,1.610158,65.735374
8.5655,0.016875,0.001891,-0.034171,0.000187,-0.001153,0.007271,-0.000232,-0.507763,-0.033352,-1.624025,-261.609622,1.610158,65.735374
8.5856,0.016538,0.001775,-0.032812,0.00019,-0.001119,0.007258,-0.000232,-0.507763,-0.033352,-1.624025,-261.609622,1.610158,65.735374
8.6058,0.016425,0.002048,-0.031546,0.00019,-0.001119,0.007258,-0.000188,-0.508001,-0.032508,-1.62734,-261.610926,1.603393,65.733112
8.6254,0.016522,0.002048,-0.033088,3.5e-05,-0.001034,0.007239,3e-05,-0.507882,-0.032076,-1.62734,-261.610926,1.603393,65.733112
8.6451,0.016652,0.00197,-0.032717,-1.5e-05,-0.001007,0.007236,-0.000345,-0.507709,-0.032858,-1.62796,-261.612254,1.604939,65.73089
8.6653,0.016396,0.002036,-0.033363,-2.1e-05,-0.001015,0.007248,-5.8e-05,-0.507754,-0.032718,-1.62796,-261.612254,1.604939,65.73089
8.6857,0.016703,0.002117,-0.033565,-2.6e-05,-0.001021,0.007257,-5.8e-05,-0.507754,-0.032718,-1.62796,-261.612254,1.604939,65.73089
8.705,0.016768,0.00202,-0.03173,-2.6e-05,-0.001021,0.007257,-0.000414,-0.507634,-0.033287,-1.566347,-261.613509,1.567998,65.728894
8.7253,0.016609,0.001781,-0.033365,-6.2e-05,-0.001063,0.007274,-5e-06,-0.507675,-0.032618,-1.566347,-261.613509,1.567998,65.728894
8.7454,0.015981,0.001672,-0.03146,-7.4e-05,-0.001077,0.007279,-0.000406,-0.507967,-0.033134,-1.563208,-261.614873,1.56605,65.726713
8.765,0.016036,0.001616,-0.030661,-5.7e-05,-0.00099,0.007277,-9.2e-05,-0.508068,-0.031597,-1.563208,-261.614873,1.56605,65.726713
8.7853,0.015971,0.00162,-0.032308,-4.5e-05,-0.000924,0.00728,-9.2e-05,-0.508068,-0.031597,-1.563208,-261.614873,1.56605,65.726713
8.8054,0.01612,0.001156,-0.032055,-4.5e-05,-0.000924,0.00728,-0.000508,-0.508159,-0.032004,-1.548901,-261.616217,1.557441,65.724509
8.8252,0.016104,0.00212,-0.030287,0.000161,-0.000689,0.007279,-0.000392,-0.508338,-0.03199,-1.548901,-261.616217,1.557441,65.724509
8.8452,0.015943,0.001741,-0.030732,0.000227,-0.000613,0.007284,0.000657,-0.507676,-0.030057,-1.558155,-261.617621,1.562505,65.722369
8.8655,0.015977,0.001117,-0.030819,3.4e-05,-0.000661,0.007306,0.000307,-0.507989,-0.03066,-1.558155,-261.617621,1.562505,65.722369
8.8859,0.015802,0.001826,-0.032057,-0.000112,-0.000698,0.007324,0.000307,-0.507989,-0.03066,-1.558155,-261.617621,1.562505,65.722369
8.9057,0.015625,0.001555,-0.030502,-0.000112,-0.000698,0.007324,-0.000537,-0.507935,-0.031788,-1.629989,-261.618974,1.615666,65.720586
8.9253,0.015241,0.001572,-0.031434,5.4e-05,-0.000704,0.007354,-0.000289,-0.508048,-0.031236,-1.629989,-261.618974,1.615666,65.720586
8.945,0.015323,0.001516,-0.03056,0.000108,-0.000706,0.007363,-0.00079,-0.508195,-0.031242,-1.554996,-261.620219,1.549188,65.71888
8.9656,0.015193,0.001467,-0.029977,0.000155,-0.000655,0.007361,-0.000302,-0.508242,-0.030606,-1.554996,-261.620219,1.549188,65.71888
8.9857,0.015274,0.001574,-0.030024,0.00019,-0.000617,0.007361,-0.000302,-0.508242,-0.030606,-1.554996,-261.620219,1.549188,65.71888
9.0056,0.015038,0.001349,-0.029193,0.00019,-0.000617,0.007361,-3.3e-05,-0.508224,-0.029735,-1.5994,-261.621644,1.591645,65.716926
9.0259,0.015716,0.001783,-0.030816,1.9e-05,-0.000548,0.00737,4.3e-05,-0.508313,-0.02948,-1.5994,-261.621644,1.591645,65.716926
9.0452,0.015241,0.001845,-0.029358,-3.7e-05,-0.000525,0.007376,7e-06,-0.507994,-0.030584,-1.61984,-261.623178,1.608009,65.714904
9.0655,0.014876,0.001198,-0.030936,-0.000143,-0.000605,0.007401,0.000247,-0.507941,-0.029455,-1.61984,-261.623178,1.608009,65.714904
9.0856,0.015271,0.001024,-0.028319,-0.000224,-0.000667,0.007419,0.000247,-0.507941,-0.029455,-1.61984,-261.623178,1.608009,65.714904
9.1053,0.014639,0.001149,-0.028485,-0.000224,-0.000667,0.007419,0.000828,-0.508792,-0.028036,-1.561535,-261.624638,1.563469,65.713058
9.1256,0.015045,0.001436,-0.029428,-0.000562,-0.000359,0.007368,0.000536,-0.508734,-0.028187,-1.561535,-261.624638,1.563469,65.713058
9.1453,0.014286,0.001841,-0.028669,-0.000672,-0.000259,0.007361,3.1e-05,-0.508363,-0.029205,-1.51276,-261.626098,1.527634,65.711095
9.1651,0.014758,0.001429,-0.029707,-0.000446,-0.000378,0.007401,-0.000301,-0.507987,-0.028705,-1.51276,-261.626098,1.527634,65.711095
9.1855,0.01457,0.001651,-0.028184,-0.000274,-0.000469,0.007427,-0.000301,-0.507987,-0.028705,-1.51276,-261.626098,1.527634,65.711095
9.2051,0.0148,0.001869,-0.028573,-0.000274,-0.000469,0.007427,0.00018,-0.508154,-0.027957,-1.437747,-261.627358,1.452622,65.709686
9.2257,0.014601,0.001572,-0.029004,-0.000345,-0.000578,0.007442,0.000199,-0.50806,-0.028183,-1.437747,-261.627358,1.452622,65.709686
9.2455,0.014748,0.001211,-0.028048,-0.000368,-0.000615,0.007445,-0.000197,-0.508226,-0.028797,-1.503575,-261.628783,1.516133,65.707933
9.2655,0.014857,0.001451,-0.028674,-0.000465,-0.000506,0.007417,0.000386,-0.508556,-0.028105,-1.503575,-261.628783,1.516133,65.707933
9.2856,0.014874,0.001481,-0.028078,-0.000539,-0.000425,0.007401,0.000386,-0.508556,-0.028105,-1.503575,-261.628783,1.516133,65.707933
9.306,0.014641,0.001561,-0.028041,-0.000539,-0.000425,0.007401,0.00054,-0.508343,-0.027772,-1.477593,-261.630339,1.499711,65.705894
9.3257,0.014125,0.001696,-0.027609,-0.00067,-0.000444,0.007407,0.000459,-0.508304,-0.027844,-1.477593,-261.630339,1.499711,65.705894
9.345,0.01421,0.001507,-0.027953,-0.000713,-0.000451,0.00741,2.9e-05,-0.508122,-0.027384,-1.440012,-261.631919,1.462288,65.703992
9.3651,0.014478,0.001376,-0.02468,-0.000566,-0.000457,0.007417,-3.9e-05,-0.508279,-0.027889,-1.440012,-261.631919,1.462288,65.703992
9.3854,0.013851,0.001448,-0.028386,-0.000455,-0.000463,0.007421,-3.9e-05,-0.508279,-0.027889,-1.440012,-261.631919,1.462288,65.703992
9.4052,0.014225,0.001297,-0.027195,-0.000455,-0.000463,0.007421,-0.000653,-0.508364,-0.02809,-1.397529,-261.633497,1.428448,65.702074
9.4254,0.01399,0.001312,-0.027937,-0.000175,-0.000387,0.007419,-0.000248,-0.508427,-0.027694,-1.397529,-261.633497,1.428448,65.702074
9.4452,0.013626,0.00165,-0.026391,-8.3e-05,-0.000363,0.007419,-0.000269,-0.508502,-0.027724,-1.459514,-261.634973,1.479997,65.700266
9.4653,0.013866,0.001262,-0.026203,-0.000148,-0.000413,0.007428,0.000128,-0.508202,-0.0265,-1.459514,-261.634973,1.479997,65.700266
9.4851,0.01348,0.001098,-0.027483,-0.000196,-0.000452,0.007434,0.000128,-0.508202,-0.0265,-1.459514,-261.634973,1.479997,65.700266
9.5055,0.013486,0.001452,-0.027151,-0.000196,-0.000452,0.007434,-0.000538,-0.508721,-0.027234,-1.534534,-261.63631,1.553797,65.698696
9.5255,0.013585,0.001322,-0.025741,0.000117,-0.000291,0.007419,-0.000466,-0.508575,-0.027171,-1.534534,-261.63631,1.553797,65.698696
9.5451,0.013286,0.001471,-0.026672,0.000219,-0.000239,0.007416,0.000452,-0.508523,-0.025506,-1.522826,-261.637931,1.531505,65.696718
9.5652,0.013517,0.001559,-0.026793,0.000217,-0.000269,0.007422,-0.000247,-0.508364,-0.026556,-1.522826,-261.637931,1.531505,65.696718
9.5853,0.0133,0.001382,-0.026892,0.000216,-0.000291,0.007425,-0.000247,-0.508364,-0.026556,-1.522826,-261.637931,1.531505,65.696718
9.6053,0.01321,0.001209,-0.026192,0.000216,-0.000291,0.007425,-0.000409,-0.508441,-0.026656,-1.597841,-261.639238,1.606521,65.695265
9.6256,0.0132,0.001558,-0.025174,0.000252,-0.000244,0.007414,-0.000302,-0.508513,-0.026441,-1.597841,-261.639238,1.606521,65.695265
9.6453,0.012982,0.001374,-0.025763,0.000264,-0.000228,0.007411,0.000369,-0.50829,-0.02494,-1.621547,-261.640921,1.615438,65.693353
9.6656,0.013128,0.00166,-0.025338,0.000203,-0.000242,0.007412,-0.000109,-0.508442,-0.025679,-1.621547,-261.640921,1.615438,65.693353
9.6853,0.012948,0.001376,-0.027554,0.000157,-0.000253,0.007413,-0.000109,-0.508442,-0.025679,-1.621547,-261.640921,1.615438,65.693353
9.7053,0.012888,0.001482,-0.024757,0.000157,-0.000253,0.007413,-0.001092,-0.508441,-0.027245,-1.632246,-261.642637,1.626357,65.691455
9.7251,0.012572,0.001259,-0.022982,0.000362,-0.00026,0.007428,-0.000536,-0.508409,-0.026191,-1.632246,-261.642637,1.626357,65.691455
9.7452,0.012732,0.001499,-0.024782,0.00043,-0.000262,0.007432,0.000857,-0.508614,-0.022751,-1.607405,-261.644316,1.603531,65.689577
9.765,0.012194,0.001301,-0.026052,0.000228,-0.000291,0.007432,0.000164,-0.508369,-0.024588,-1.607405,-261.644316,1.603531,65.689577
9.7856,0.012739,0.001088,-0.02322,7.6e-05,-0.000314,0.007434,0.000164,-0.508369,-0.024588,-1.607405,-261.644316,1.603531,65.689577
9.8056,0.012505,0.001432,-0.023404,7.6e-05,-0.000314,0.007434,0.000914,-0.508784,-0.022942,-1.670893,-261.645848,1.66004,65.687859
9.8252,0.012234,0.001389,-0.024747,-0.000538,-0.000198,0.007397,0.000776,-0.508641,-0.023098,-1.670893,-261.645848,1.66004,65.687859
9.845,0.012461,0.001096,-0.023778,-0.000739,-0.000162,0.007392,-0.000383,-0.508463,-0.024552,-1.595869,-261.647249,1.58653,65.68625
9.8653,0.012301,0.001067,-0.023374,-0.000709,-0.000109,0.007391,0.000282,-0.508738,-0.023827,-1.595869,-261.647249,1.58653,65.68625
9.8853,0.012412,0.001718,-0.024905,-0.000687,-6.8e-05,0.007392,0.000282,-0.508738,-0.023827,-1.595869,-261.647249,1.58653,65.68625
9.9056,0.012372,0.001315,-0.024553,-0.000687,-6.8e-05,0.007392,-0.000292,-0.508126,-0.0248,-1.520403,-261.647845,1.511063,65.685611
9.9255,0.012243,0.001143,-0.023043,-0.000322,-0.000224,0.007416,-0.000234,-0.508293,-0.024686,-1.520403,-261.647845,1.511063,65.685611
9.9453,0.012227,0.001361,-0.023763,-0.000203,-0.000275,0.007419,0.000478,-0.508723,-0.022869,-1.44575,-261.64918,1.436411,65.684235
9.965,0.011696,0.001226,-0.021465,-0.00025,-0.000259,0.007402,0.000142,-0.508516,-0.023673,-1.44575,-261.64918,1.436411,65.684235
9.9853,0.012213,0.001212,-0.024206,-0.000285,-0.000248,0.007389,0.000142,-0.508516,-0.023673,-1.44575,-261.64918,1.436411,65.684235
10.0056,0.011764,0.001703,-0.023801,-0.000285,-0.000248,0.007389,-0.000139,-0.508648,-0.02396,-1.520634,-261.650533,1.511295,65.682708
10.0254,0.012099,0.001305,-0.022213,-8.6e-05,-0.000255,0.007383,-0.000236,-0.508445,-0.023866,-1.520634,-261.650533,1.511295,65.682708
10.0456,0.01132,0.001338,-0.022762,-2.1e-05,-0.000258,0.007379,0.000762,-0.508576,-0.02198,-1.503999,-261.652233,1.510931,65.680811
10.0652,0.011859,0.001335,-0.02264,1.4e-05,-0.000236,0.007371,-0.000195,-0.508535,-0.022681,-1.503999,-261.652233,1.510931,65.680811
10.0856,0.011159,0.00139,-0.023102,4.1e-05,-0.000219,0.007365,-0.000195,-0.508535,-0.022681,-1.503999,-261.652233,1.510931,65.680811
10.1057,0.01161,0.001028,-0.022642,4.1e-05,-0.000219,0.007365,-0.000623,-0.508484,-0.022826,-1.565968,-261.653754,1.566491,65.679105
10.1253,0.011517,0.001422,-0.021818,0.000175,-0.000138,0.007358,-0.000343,-0.508631,-0.022719,-1.565968,-261.653754,1.566491,65.679105
10.1452,0.011439,0.001456,-0.021912,0.000219,-0.000112,0.007356,0.000392,-0.508464,-0.021585,-1.580406,-261.655458,1.579514,65.677227
10.1654,0.011148,0.001217,-0.023441,2.4e-05,-0.000162,0.007359,0.000276,-0.508426,-0.021872,-1.580406,-261.655458,1.579514,65.677227
10.1854,0.01152,0.000959,-0.022442,-0.000123,-0.0002,0.007362,0.000276,-0.508426,-0.021872,-1.580406,-261.655458,1.579514,65.677227
10.2055,0.01092,0.001763,-0.021363,-0.000123,-0.0002,0.007362,8.4e-05,-0.508917,-0.02215,-1.620696,-261.657126,1.618265,65.675474
10.2255,0.011022,0.001801,-0.023144,-0.000183,-0.000167,0.007354,6.1e-05,-0.50859,-0.021792,-1.620696,-261.657126,1.618265,65.675474
10.2455,0.010979,0.00127,-0.021699,-0.000202,-0.000156,0.007352,-0.000783,-0.508068,-0.02295,-1.545701,-261.658554,1.544534,65.673913
10.2655,0.01129,0.0012,-0.023031,-0.000139,-0.000152,0.007352,-0.000147,-0.508563,-0.021797,-1.545701,-261.658554,1.544534,65.673913
10.2857,0.011261,0.00127,-0.022156,-9.2e-05,-0.000149,0.007352,-0.000147,-0.508563,-0.021797,-1.545701,-261.658554,1.544534,65.673913
10.3053,0.010893,0.001527,-0.020483,-9.2e-05,-0.000149,0.007352,-4.6e-05,-0.508611,-0.021852,-1.524147,-261.660266,1.527281,65.672077
10.3251,0.011122,0.001159,-0.021918,-0.000226,-0.00018,0.007352,0.000153,-0.508512,-0.02126,-1.524147,-261.660266,1.527281,65.672077
10.3457,0.010298,0.001025,-0.019622,-0.000269,-0.00019,0.007352,-5.9e-05,-0.508723,-0.021689,-1.549677,-261.66197,1.551035,65.670257
10.3655,0.010684,0.001134,-0.021553,-0.00035,-8.9e-05,0.007335,0.000259,-0.508864,-0.019795,-1.549677,-261.66197,1.551035,65.670257
10.3855,0.010704,0.001554,-0.01993,-0.000411,-1.4e-05,0.007325,0.000259,-0.508864,-0.019795,-1.549677,-261.66197,1.551035,65.670257
10.4055,0.01022,0.001477,-0.021253,-0.000411,-1.4e-05,0.007325,0.00053,-0.508352,-0.019637,-1.508247,-261.663609,1.513308,65.668473
10.4259,0.010213,0.001758,-0.021696,-0.000348,-0.000167,0.007382,6.1e-05,-0.508376,-0.020262,-1.508247,-261.663609,1.513308,65.668473
10.4452,0.010328,0.001312,-0.020407,-0.000328,-0.000217,0.007398,-0.000864,-0.508123,-0.021469,-1.479012,-261.665344,1.479573,65.666728
10.4655,0.00997,0.001463,-0.022037,-0.000235,-0.000205,0.007407,-0.000151,-0.50854,-0.020492,-1.479012,-261.665344,1.479573,65.666728
10.4853,0.010384,0.001801,-0.019693,-0.000165,-0.000195,0.007413,-0.000151,-0.50854,-0.020492,-1.479012,-261.665344,1.479573,65.666728
10.5057,0.0101,0.001286,-0.020274,-0.000165,-0.000195,0.007413,0.000328,-0.508109,-0.019387,-1.494693,-261.667049,1.501658,65.664851
10.5251,0.010307,0.001537,-0.020765,-0.00023,-0.000303,0.007442,9.6e-05,-0.508314,-0.019713,-1.494693,-261.667049,1.501658,65.664851
10.5454,0.009683,0.001348,-0.020874,-0.00025,-0.000339,0.00745,-0.000288,-0.508359,-0.020539,-1.532636,-261.668712,1.535791,65.663038
10.5656,0.009732,0.001482,-0.020068,7.8e-05,-0.00027,0.007454,-0.000901,-0.508525,-0.020833,-1.532636,-261.668712,1.535791,65.663038
10.5857,0.009847,0.001342,-0.019187,0.000329,-0.000218,0.007456,-0.000901,-0.508525,-0.020833,-1.532636,-261.668712,1.535791,65.663038
10.6052,0.009785,0.00139,-0.019966,0.000329,-0.000218,0.007456,5.2e-05,-0.508578,-0.018878,-1.511391,-261.670381,1.519609,65.661102
10.6255,0.009518,0.001623,-0.020247,0.000197,-0.00019,0.007448,-0.000132,-0.508551,-0.019284,-1.511391,-261.670381,1.519609,65.661102
10.6452,0.009888,0.001045,-0.017844,0.000155,-0.000182,0.007448,-0.000805,-0.508277,-0.020106,-1.586387,-261.671426,1.594604,65.659952
10.6654,0.009557,0.001069,-0.020273,-0.0002,-8.3e-05,0.007412,0.000705,-0.508847,-0.017749,-1.586387,-261.671426,1.594604,65.659952
10.6852,0.009654,0.001123,-0.019156,-0.000468,-1.1e-05,0.007392,0.000705,-0.508847,-0.017749,-1.586387,-261.671426,1.594604,65.659952
10.7055,0.009084,0.001145,-0.018457,-0.000468,-1.1e-05,0.007392,-0.000109,-0.508791,-0.018853,-1.606233,-261.673136,1.60351,65.6581
10.7257,0.009424,0.001008,-0.018532,-0.000212,5.4e-05,0.007408,-0.000199,-0.508782,-0.018654,-1.606233,-261.673136,1.60351,65.6581
10.7457,0.009158,0.001433,-0.017158,-0.000129,7.4e-05,0.007413,-3e-05,-0.508904,-0.018404,-1.532312,-261.674122,1.529589,65.65711
10.7655,0.009231,0.00151,-0.018465,-0.000279,8e-06,0.007417,0.000368,-0.508529,-0.017264,-1.532312,-261.674122,1.529589,65.65711
10.7856,0.009082,0.001465,-0.018277,-0.000392,-4.4e-05,0.007419,0.000368,-0.508529,-0.017264,-1.532312,-261.674122,1.529589,65.65711
10.8056,0.009203,0.001468,-0.01752,-0.000392,-4.4e-05,0.007419,-0.000244,-0.508446,-0.017968,-1.542716,-261.675958,1.541781,65.655332
10.8255,0.009086,0.001127,-0.019597,-0.000279,-0.000148,0.007434,-3.4e-05,-0.508449,-0.017748,-1.542716,-261.675958,1.541781,65.655332
10.845,0.008721,0.001798,-0.017049,-0.000242,-0.000182,0.007436,-0.000919,-0.508776,-0.019386,-1.483703,-261.677577,1.485352,65.653682
10.8652,0.008996,0.000741,-0.016587,-0.000206,-0.00028,0.007445,-5.6e-05,-0.508184,-0.01724,-1.483703,-261.677577,1.485352,65.653682
10.8851,0.009035,0.001427,-0.017277,-0.000179,-0.000354,0.007449,-5.6e-05,-0.508184,-0.01724,-1.483703,-261.677577,1.485352,65.653682
10.9051,0.00888,0.001352,-0.018035,-0.000179,-0.000354,0.007449,0.000215,-0.508504,-0.016976,-1.51528,-261.679264,1.519555,65.651854
10.9256,0.008503,0.001188,-0.017978,-0.000177,-0.000287,0.007421,-4e-06,-0.50853,-0.017375,-1.51528,-261.679264,1.519555,65.651854
10.9455,0.008511,0.001378,-0.01646,-0.000176,-0.000266,0.007413,-0.000671,-0.50874,-0.017742,-1.52822,-261.680932,1.534364,65.649906
10.9655,0.008393,0.001135,-0.017183,-0.000194,-0.00024,0.007404,4.6e-05,-0.50857,-0.016563,-1.52822,-261.680932,1.534364,65.649906
10.9857,0.008601,0.001394,-0.016217,-0.000208,-0.00022,0.007398,4.6e-05,-0.50857,-0.016563,-1.52822,-261.680932,1.534364,65.649906
11.0055,0.008284,0.001076,-0.016528,-0.000208,-0.00022,0.007398,0.000323,-0.50855,-0.015907,-1.529543,-261.682638,1.534117,65.647988
11.0253,0.007931,0.001408,-0.016462,-0.000285,-0.000141,0.007379,0.000131,-0.508676,-0.016125,-1.529543,-261.682638,1.534117,65.647988
11.0457,0.007901,0.001168,-0.016376,-0.000309,-0.000115,0.007375,-0.000471,-0.508529,-0.016226,-1.522423,-261.684358,1.52691,65.646091
11.0656,0.008114,0.001261,-0.016097,-0.000109,-6e-05,0.007379,-0.000452,-0.508744,-0.016351,-1.522423,-261.684358,1.52691,65.646091
11.0856,0.0082,0.001052,-0.017838,4.2e-05,-1.9e-05,0.007382,-0.000452,-0.508744,-0.016351,-1.522423,-261.684358,1.52691,65.646091
11.1051,0.008073,0.001503,-0.014802,4.2e-05,-1.9e-05,0.007382,-0.00091,-0.508871,-0.017534,-1.500422,-261.68609,1.503918,65.644269
11.1254,0.007831,0.001021,-0.015488,0.000163,2e-06,0.007387,-0.000327,-0.508696,-0.016385,-1.500422,-261.68609,1.503918,65.644269
11.1452,0.007715,0.001145,-0.016687,0.000203,9e-06,0.007389,-6.6e-05,-0.508918,-0.015295,-1.575431,-261.687565,1.578927,65.642781
11.1656,0.007722,0.001297,-0.015455,0.000379,6.2e-05,0.007395,-0.00073,-0.508796,-0.016553,-1.575431,-261.687565,1.578927,65.642781
11.1859,0.007576,0.001485,-0.01475,0.000513,0.000102,0.0074,-0.00073,-0.508796,-0.016553,-1.575431,-261.687565,1.578927,65.642781
11.2058,0.007725,0.001465,-0.014321,0.000513,0.000102,0.0074,6.2e-05,-0.50846,-0.014455,-1.615703,-261.689291,1.615884,65.641062
11.2254,0.007425,0.001327,-0.014132,8.4e-05,-6.2e-05,0.007386,0.00021,-0.508469,-0.014366,-1.615703,-261.689291,1.615884,65.641062
11.2455,0.007366,0.001264,-0.015715,-5.6e-05,-0.000118,0.007379,0.000232,-0.508619,-0.013929,-1.681411,-261.690894,1.686457,65.639529
11.2652,0.006907,0.001474,-0.015518,0.000125,-8.2e-05,0.007388,-0.000569,-0.508668,-0.015545,-1.681411,-261.690894,1.686457,65.639529
11.2858,0.007213,0.001006,-0.015319,0.000262,-5.6e-05,0.007394,-0.000569,-0.508668,-0.015545,-1.681411,-261.690894,1.686457,65.639529
11.3054,0.007572,0.001428,-0.014138,0.000262,-5.6e-05,0.007394,-0.000595,-0.508937,-0.015133,-1.606405,-261.691958,1.611451,65.638408
11.3259,0.007318,0.001247,-0.014009,0.000203,6e-06,0.007366,-0.000191,-0.508762,-0.014692,-1.606405,-261.691958,1.611451,65.638408
11.3455,0.007225,0.001381,-0.01465,0.000184,2.6e-05,0.007357,0.000182,-0.508705,-0.013778,-1.62944,-261.693713,1.628005,65.636609
11.3654,0.00723,0.001274,-0.015962,0.000175,-1.6e-05,0.00736,-0.000207,-0.508577,-0.01456,-1.62944,-261.693713,1.628005,65.636609
11.3855,0.007069,0.001682,-0.013433,0.000168,-4.7e-05,0.007361,-0.000207,-0.508577,-0.01456,-1.62944,-261.693713,1.628005,65.636609
11.4058,0.007048,0.001272,-0.014239,0.000168,-4.7e-05,0.007361,0.000226,-0.508271,-0.013128,-1.611563,-261.695508,1.612035,65.634835
11.4261,0.007084,0.000961,-0.013925,-1e-05,-0.000172,0.007336,4.6e-05,-0.508437,-0.013549,-1.611563,-261.695508,1.612035,65.634835
11.4455,0.00708,0.001019,-0.014423,-6.9e-05,-0.000213,0.007325,-1.2e-05,-0.508991,-0.013691,-1.608554,-261.697285,1.607769,65.63302
11.4656,0.006565,0.00117,-0.014921,4e-06,-8.4e-05,0.007309,-0.000252,-0.508934,-0.014345,-1.608554,-261.697285,1.607769,65.63302
11.4858,0.006969,0.001385,-0.014252,5.8e-05,1.4e-05,0.007301,-0.000252,-0.508934,-0.014345,-1.608554,-261.697285,1.607769,65.63302
11.5058,0.006542,0.001491,-0.01259,5.8e-05,1.4e-05,0.007301,-0.000302,-0.508571,-0.013971,-1.554661,-261.698846,1.556129,65.631303
11.5258,0.006474,0.001076,-0.012282,3.7e-05,-8.8e-05,0.007287,-0.000128,-0.50853,-0.01337,-1.554661,-261.698846,1.556129,65.631303
11.5455,0.00636,0.001255,-0.012323,3e-05,-0.000122,0.00728,0.000212,-0.508886,-0.012056,-1.583796,-261.70059,1.583878,65.629569
11.5655,0.006686,0.000968,-0.012939,-5.9e-05,-9.6e-05,0.007226,8.7e-05,-0.508722,-0.01229,-1.583796,-261.70059,1.583878,65.629569
11.5857,0.006695,0.001355,-0.013669,-0.000127,-7.7e-05,0.007185,8.7e-05,-0.508722,-0.01229,-1.583796,-261.70059,1.583878,65.629569
11.6057,0.006139,0.001047,-0.012735,-0.000127,-7.7e-05,0.007185,-0.000274,-0.508602,-0.013365,-1.577748,-261.702318,1.577378,65.627744
11.6256,0.00609,0.001256,-0.013519,4.9e-05,-3e-05,0.007183,-0.000308,-0.508731,-0.01307,-1.577748,-261.702318,1.577378,65.627744
11.6453,0.006352,0.000912,-0.012704,0.000106,-1.5e-05,0.007183,-0.000808,-0.5087,-0.0133,-1.541381,-261.703974,1.542393,65.626029
11.6654,0.005883,0.001207,-0.011565,0.000105,8.7e-05,0.007159,-0.000185,-0.509017,-0.012744,-1.541381,-261.703974,1.542393,65.626029
11.6855,0.006043,0.001698,-0.011868,0.000104,0.000163,0.007145,-0.000185,-0.509017,-0.012744,-1.541381,-261.703974,1.542393,65.626029
11.7054,0.005913,0.001385,-0.012619,0.000104,0.000163,0.007145,-6e-06,-0.508267,-0.011594,-1.595053,-261.705573,1.594891,65.624419
11.7259,0.006261,0.001746,-0.012017,0.000114,-7.4e-05,0.007123,-0.000219,-0.508394,-0.011985,-1.595053,-261.705573,1.594891,65.624419
11.745,0.005868,0.001421,-0.01245,0.000118,-0.000152,0.00711,0.000136,-0.508212,-0.011791,-1.593824,-261.707381,1.595613,65.622742
11.7651,0.005522,0.001445,-0.011766,0.000196,-0.000172,0.007111,-0.000426,-0.50851,-0.012379,-1.593824,-261.707381,1.595613,65.622742
11.785,0.005836,0.000954,-0.00938,0.000255,-0.000188,0.007109,-0.000426,-0.50851,-0.012379,-1.593824,-261.707381,1.595613,65.622742
11.8059,0.005636,0.001003,-0.012095,0.000255,-0.000188,0.007109,0.001058,-0.50903,-0.009082,-1.598851,-261.709057,1.596952,65.620944
11.8254,0.005393,0.001548,-0.011041,-0.000237,4.7e-05,0.006845,0.000411,-0.509002,-0.010274,-1.598851,-261.709057,1.596952,65.620944
11.845,0.005598,0.001156,-0.008977,-0.000397,0.000121,0.006765,-0.00023,-0.508427,-0.010819,-1.632045,-261.710676,1.626969,65.619179
11.8654,0.005305,0.001037,-0.011401,-0.000702,0.000122,0.006605,0.000919,-0.508792,-0.009116,-1.632045,-261.710676,1.626969,65.619179
11.8855,0.005374,0.001315,-0.010874,-0.000935,0.000121,0.006488,0.000919,-0.508792,-0.009116,-1.632045,-261.710676,1.626969,65.619179
11.9055,0.00514,0.001355,-0.011203,-0.000935,0.000121,0.006488,-0.000173,-0.508653,-0.010742,-1.556755,-261.711464,1.551679,65.618435
11.9254,0.005277,0.001294,-0.010197,-0.000417,2.8e-05,0.006606,-0.000336,-0.508636,-0.010915,-1.556755,-261.711464,1.551679,65.618435
11.9452,0.00515,0.001435,-0.009097,-0.000248,-3e-06,0.006642,7.4e-05,-0.508679,-0.01015,-1.482068,-261.711839,1.476993,65.618081
11.9651,0.005466,0.001226,-0.009937,-0.000424,-5.3e-05,0.00652,0.000473,-0.508556,-0.009186,-1.482068,-261.711839,1.476993,65.618081
11.9851,0.005598,0.001338,-0.010138,-0.000558,-9.3e-05,0.006426,0.000473,-0.508556,-0.009186,-1.482068,-261.711839,1.476993,65.618081
12.005,0.005213,0.00132,-0.010243,-0.000558,-9.3e-05,0.006426,0.000417,-0.508635,-0.009869,-1.509569,-261.713417,1.509666,65.616501
12.0251,0.00542,0.000838,-0.010434,-0.000583,-0.00011,0.006416,0.00024,-0.508643,-0.009992,-1.509569,-261.713417,1.509666,65.616501
12.0452,0.004874,0.000886,-0.010832,-0.000591,-0.000115,0.006412,8.5e-05,-0.509136,-0.010267,-1.434562,-261.714678,1.434659,65.615179
12.0653,0.005091,0.001334,-0.009522,-0.000278,4.4e-05,0.00645,-0.000588,-0.509089,-0.010776,-1.434562,-261.714678,1.434659,65.615179
12.0852,0.005358,0.00113,-0.010567,-4.1e-05,0.000165,0.006481,-0.000588,-0.509089,-0.010776,-1.434562,-261.714678,1.434659,65.615179
12.1056,0.004588,0.000935,-0.009085,-4.1e-05,0.000165,0.006481,-5.6e-05,-0.508846,-0.010301,-1.416446,-261.716206,1.425156,65.613561
12.1255,0.0048,0.001057,-0.009382,-9.1e-05,0.000203,0.006396,-5.4e-05,-0.508928,-0.009774,-1.416446,-261.716206,1.425156,65.613561
12.1455,0.00465,0.001213,-0.008877,-0.000106,0.000215,0.006369,1e-05,-0.508918,-0.009272,-1.491422,-261.717088,1.500133,65.612749
12.1653,0.005165,0.001544,-0.008591,-0.000182,0.000178,0.006267,0.000112,-0.50878,-0.008906,-1.491422,-261.717088,1.500133,65.612749
12.1857,0.004494,0.001227,-0.009491,-0.00024,0.000149,0.006189,0.000112,-0.50878,-0.008906,-1.491422,-261.717088,1.500133,65.612749
12.2056,0.004724,0.001392,-0.011301,-0.00024,0.000149,0.006189,-0.00035,-0.508741,-0.009244,-1.545046,-261.718611,1.542035,65.611386
12.2253,0.004326,0.00132,-0.009651,0.000162,7.8e-05,0.00627,-0.000628,-0.508674,-0.010043,-1.545046,-261.718611,1.542035,65.611386
12.2451,0.004088,0.001354,-0.008116,0.000294,5.5e-05,0.006293,-0.000603,-0.508651,-0.009462,-1.509693,-261.720122,1.504706,65.609989
12.2652,0.004691,0.001371,-0.008421,0.0002,1.7e-05,0.006124,-0.0001,-0.508631,-0.008224,-1.509693,-261.720122,1.504706,65.609989
12.2852,0.004655,0.001335,-0.008952,0.00013,-1.4e-05,0.005997,-0.0001,-0.508631,-0.008224,-1.509693,-261.720122,1.504706,65.609989
12.3051,0.004473,0.001313,-0.008471,0.00013,-1.4e-05,0.005997,9.1e-05,-0.508644,-0.008811,-1.584774,-261.720956,1.579787,65.609179
12.3251,0.004112,0.001437,-0.007825,-0.000106,-5.4e-05,0.0059,0.000117,-0.508654,-0.008655,-1.584774,-261.720956,1.579787,65.609179
12.3451,0.00427,0.001252,-0.007052,-0.000182,-6.8e-05,0.005868,0.000125,-0.508548,-0.007638,-1.606523,-261.722387,1.606255,65.607737
12.3652,0.003806,0.001045,-0.008056,-0.000434,-4.4e-05,0.005617,0.000624,-0.508719,-0.007095,-1.606523,-261.722387,1.606255,65.607737
12.3853,0.004115,0.001386,-0.008347,-0.000626,-3e-05,0.005437,0.000624,-0.508719,-0.007095,-1.606523,-261.722387,1.606255,65.607737
12.4055,0.003607,0.001465,-0.00898,-0.000626,-3e-05,0.005437,-0.000147,-0.508598,-0.008154,-1.531653,-261.723495,1.531385,65.606586
12.4255,0.004378,0.001055,-0.008025,-0.000158,-9.2e-05,0.00556,-0.000483,-0.508565,-0.008467,-1.531653,-261.723495,1.531385,65.606586
12.4453,0.003893,0.001436,-0.008524,-5e-06,-0.000113,0.005597,0.000279,-0.508929,-0.007937,-1.456656,-261.724164,1.456388,65.605905
12.4654,0.003685,0.001188,-0.005775,7.7e-05,-0.000127,0.005624,-0.000386,-0.508581,-0.008465,-1.456656,-261.724164,1.456388,65.605905
12.4855,0.003923,0.00127,-0.007268,0.00014,-0.000138,0.005643,-0.000386,-0.508581,-0.008465,-1.456656,-261.724164,1.456388,65.605905
12.5056,0.004049,0.001264,-0.008578,0.00014,-0.000138,0.005643,0.000213,-0.508719,-0.007112,-1.531667,-261.725044,1.531399,65.604965
12.5256,0.003769,0.001048,-0.008692,-2.5e-05,-8.6e-05,0.005474,-4e-06,-0.508719,-0.007685,-1.531667,-261.725044,1.531399,65.604965
12.5451,0.003896,0.001622,-0.007281,-7.8e-05,-7e-05,0.005422,-0.000661,-0.508936,-0.008545,-1.606672,-261.726124,1.606404,65.603795
12.5655,0.003792,0.001323,-0.005702,-0.000159,-0.000146,0.005355,0.000107,-0.508417,-0.007388,-1.606672,-261.726124,1.606404,65.603795
12.5853,0.003789,0.001327,-0.006982,-0.00022,-0.000205,0.005303,0.000107,-0.508417,-0.007388,-1.606672,-261.726124,1.606404,65.603795
12.6053,0.003416,0.001567,-0.007717,-0.00022,-0.000205,0.005303,0.000226,-0.508663,-0.006779,-1.546659,-261.727283,1.54766,65.602586
12.6255,0.00336,0.00106,-0.008029,-0.000182,-0.000206,0.005155,-7.7e-05,-0.508564,-0.007136,-1.546659,-261.727283,1.54766,65.602586
12.6454,0.003392,0.001212,-0.007692,-0.000171,-0.000208,0.005108,-0.000741,-0.508929,-0.00787,-1.49854,-261.728425,1.507125,65.601291
12.6656,0.003132,0.001359,-0.006594,1.6e-05,-0.000131,0.005151,-0.000551,-0.508788,-0.0077,-1.49854,-261.728425,1.507125,65.601291
12.6857,0.003279,0.001124,-0.007781,0.000157,-7.2e-05,0.005184,-0.000551,-0.508788,-0.0077,-1.49854,-261.728425,1.507125,65.601291
12.7053,0.003198,0.001157,-0.006095,0.000157,-7.2e-05,0.005184,-0.000696,-0.508869,-0.007568,-1.512296,-261.729585,1.519592,65.599965
12.7255,0.003117,0.001349,-0.006315,0.000234,4.1e-05,0.005025,-0.000374,-0.508855,-0.006939,-1.512296,-261.729585,1.519592,65.599965
12.7455,0.003251,0.001202,-0.007114,0.00026,7.6e-05,0.004977,-0.000102,-0.508643,-0.006199,-1.587337,-261.730457,1.594633,65.599052
12.7654,0.003042,0.001291,-0.006195,0.00027,7.5e-05,0.004957,-0.000352,-0.508772,-0.007026,-1.587337,-261.730457,1.594633,65.599052
12.7857,0.003282,0.001284,-0.007441,0.000277,7.4e-05,0.004942,-0.000352,-0.508772,-0.007026,-1.587337,-261.730457,1.594633,65.599052
12.8055,0.003341,0.000883,-0.006756,0.000277,7.4e-05,0.004942,-0.000503,-0.508699,-0.007259,-1.654007,-261.731549,1.658268,65.598014
12.8253,0.003632,0.000795,-0.005162,0.000282,0.000124,0.004921,-0.000339,-0.508865,-0.007032,-1.654007,-261.731549,1.658268,65.598014
12.8451,0.002888,0.001217,-0.006575,0.000284,0.00014,0.004915,0.001008,-0.509196,-0.005005,-1.66028,-261.732789,1.664749,65.596832
12.8651,0.003064,0.000889,-0.005034,0.000283,0.000139,0.004812,-0.000334,-0.50881,-0.006427,-1.66028,-261.732789,1.664749,65.596832
12.8852,0.002978,0.001319,-0.005441,0.000283,0.000137,0.004737,-0.000334,-0.50881,-0.006427,-1.66028,-261.732789,1.664749,65.596832
12.9051,0.002812,0.001428,-0.006192,0.000283,0.000137,0.004737,0.000215,-0.508667,-0.005236,-1.661008,-261.734053,1.669777,65.59568
12.9251,0.002918,0.00143,-0.006506,7e-05,3.4e-05,0.004371,-1.6e-05,-0.508623,-0.005608,-1.661008,-261.734053,1.669777,65.59568
12.9455,0.002428,0.001225,-0.005321,-0.0,-2e-06,0.004261,-0.000391,-0.508555,-0.006356,-1.663819,-261.735268,1.672987,65.594574
12.9653,0.002918,0.001073,-0.006737,5.2e-05,1.4e-05,0.004136,-0.000295,-0.508748,-0.005407,-1.663819,-261.735268,1.672987,65.594574
12.9854,0.002944,0.001261,-0.004695,9.2e-05,2.6e-05,0.004046,-0.000295,-0.508748,-0.005407,-1.663819,-261.735268,1.672987,65.594574
13.0051,0.002998,0.001142,-0.00496,9.2e-05,2.6e-05,0.004046,0.000552,-0.508734,-0.004564,-1.588946,-261.736033,1.598114,65.593808
13.0257,0.002852,0.001254,-0.005901,-0.000404,6.3e-05,0.003626,0.000518,-0.508782,-0.004711,-1.588946,-261.736033,1.598114,65.593808
13.0452,0.002617,0.001169,-0.00441,-0.000568,7.2e-05,0.003506,-0.000154,-0.508737,-0.005774,-1.607525,-261.737025,1.608294,65.592836
13.0652,0.002416,0.001271,-0.00695,-0.000617,8.9e-05,0.003374,0.000322,-0.508818,-0.004524,-1.607525,-261.737025,1.608294,65.592836
13.0851,0.002297,0.001111,-0.005225,-0.000656,0.000101,0.00328,0.000322,-0.508818,-0.004524,-1.607525,-261.737025,1.608294,65.592836
13.1054,0.002974,0.00116,-0.005612,-0.000656,0.000101,0.00328,-0.000368,-0.508882,-0.005217,-1.532557,-261.737077,1.533326,65.592787
13.1254,0.002355,0.001469,-0.005345,-0.000375,0.000136,0.003504,-0.000171,-0.508861,-0.005377,-1.532557,-261.737077,1.533326,65.592787
13.1456,0.002479,0.001061,-0.005375,-0.000284,0.000149,0.003573,-0.000371,-0.508523,-0.005336,-1.457571,-261.737147,1.45834,65.592723
13.1653,0.00273,0.001619,-0.005828,-0.000177,0.000172,0.003617,-0.000272,-0.508896,-0.005371,-1.457571,-261.737147,1.45834,65.592723
13.1852,0.002565,0.0011,-0.004081,-9.5e-05,0.00019,0.003649,-0.000272,-0.508896,-0.005371,-1.457571,-261.737147,1.45834,65.592723
13.206,0.00219,0.00135,-0.005106,-9.5e-05,0.00019,0.003649,0.000472,-0.50889,-0.003933,-1.449388,-261.738074,1.431857,65.591913
13.2253,0.002275,0.001162,-0.005992,-0.000245,0.000157,0.003283,0.00011,-0.508789,-0.004394,-1.449388,-261.738074,1.431857,65.591913
13.2451,0.00255,0.001331,-0.006031,-0.000293,0.000145,0.003174,-0.000784,-0.508824,-0.005901,-1.524297,-261.738833,1.506766,65.591273
13.2652,0.002007,0.001565,-0.005342,-9e-05,0.000101,0.003442,-0.000549,-0.508674,-0.006015,-1.524297,-261.738833,1.506766,65.591273
13.2854,0.002529,0.001275,-0.005016,6.5e-05,6.9e-05,0.00364,-0.000549,-0.508674,-0.006015,-1.524297,-261.738833,1.506766,65.591273
13.3055,0.002145,0.001187,-0.006136,6.5e-05,6.9e-05,0.00364,-3.7e-05,-0.508714,-0.004917,-1.449292,-261.73946,1.431761,65.590731
13.3251,0.00254,0.000897,-0.005365,0.000199,7.1e-05,0.003681,-0.000423,-0.50875,-0.005401,-1.449292,-261.73946,1.431761,65.590731
13.3453,0.002458,0.001454,-0.005446,0.000244,7.2e-05,0.003693,-0.000198,-0.509095,-0.005314,-1.524289,-261.739863,1.506758,65.590352
13.3656,0.002171,0.001183,-0.00463,0.000234,2e-05,0.003709,-0.000309,-0.508587,-0.005432,-1.524289,-261.739863,1.506758,65.590352
13.3856,0.002324,0.0014,-0.005805,0.000226,-1.9e-05,0.003719,-0.000309,-0.508587,-0.005432,-1.524289,-261.739863,1.506758,65.590352
13.4056,0.002363,0.001253,-0.005408,0.000226,-1.9e-05,0.003719,-0.000636,-0.50859,-0.00574,-1.599385,-261.740259,1.581854,65.589981
13.4257,0.002103,0.001361,-0.006211,0.000364,-3e-05,0.003775,-0.000537,-0.508651,-0.005596,-1.599385,-261.740259,1.581854,65.589981
13.4453,0.00217,0.001237,-0.003914,0.000409,-3.3e-05,0.003789,-0.00106,-0.508629,-0.006115,-1.670956,-261.740997,1.656859,65.58923
13.4655,0.002312,0.001652,-0.003948,0.000219,-6e-06,0.003418,6.7e-05,-0.508748,-0.0041,-1.670956,-261.740997,1.656859,65.58923
13.4856,0.002275,0.001493,-0.005218,7.7e-05,1.3e-05,0.003159,6.7e-05,-0.508748,-0.0041,-1.670956,-261.740997,1.656859,65.58923
13.5051,0.002497,0.00097,-0.0047,7.7e-05,1.3e-05,0.003159,-0.000387,-0.5085,-0.005218,-1.595922,-261.740997,1.731892,65.58923
13.5257,0.001929,0.001489,-0.005218,5.6e-05,9e-06,0.003236,-0.000186,-0.508716,-0.005005,-1.595922,-261.740997,1.731892,65.58923
13.5452,0.002085,0.00152,-0.003709,4.9e-05,8e-06,0.003259,-0.000729,-0.508504,-0.005139,-1.610197,-261.74161,1.656913,65.588625
13.5651,0.00184,0.001172,-0.002805,-6.8e-05,-5.7e-05,0.002974,0.000114,-0.508479,-0.003828,-1.610197,-261.74161,1.656913,65.588625
13.5852,0.001915,0.001578,-0.004466,-0.000157,-0.000108,0.002772,0.000114,-0.508479,-0.003828,-1.610197,-261.74161,1.656913,65.588625
13.6056,0.001824,0.001113,-0.004908,-0.000157,-0.000108,0.002772,-0.00036,-0.508417,-0.004338,-1.5954,-261.74236,1.595597,65.587881
13.6256,0.00224,0.001166,-0.004255,0.000112,-0.000103,0.002864,-0.00049,-0.508606,-0.004556,-1.5954,-261.74236,1.595597,65.587881
13.6451,0.001951,0.001459,-0.004992,0.0002,-0.000101,0.002891,6.8e-05,-0.508831,-0.004199,-1.520393,-261.742768,1.520591,65.587418
13.6652,0.001701,0.001349,-0.004485,0.000281,-0.000114,0.002996,-0.000538,-0.508561,-0.004921,-1.520393,-261.742768,1.520591,65.587418
13.6852,0.001795,0.001245,-0.002243,0.000343,-0.000123,0.003072,-0.000538,-0.508561,-0.004921,-1.520393,-261.742768,1.520591,65.587418
13.7054,0.002084,0.001389,-0.004469,0.000343,-0.000123,0.003072,0.000652,-0.508756,-0.002191,-1.595395,-261.743052,1.595592,65.5871
13.7252,0.001973,0.001389,-0.003859,-0.000121,-6.7e-05,0.00226,0.000302,-0.508694,-0.003125,-1.595395,-261.743052,1.595592,65.5871
13.7451,0.001828,0.001482,-0.005699,-0.000273,-5.2e-05,0.002032,5e-06,-0.508608,-0.003859,-1.5204,-261.743052,1.670587,65.5871
13.7652,0.001789,0.001313,-0.004138,6e-05,-7.8e-05,0.002474,-0.000987,-0.508518,-0.005543,-1.5204,-261.743052,1.670587,65.5871
13.7856,0.001918,0.001184,-0.004006,0.000316,-9.7e-05,0.0028,-0.000987,-0.508518,-0.005543,-1.5204,-261.743052,1.670587,65.5871
13.8052,0.001958,0.001391,-0.002132,0.000316,-9.7e-05,0.0028,-0.000126,-0.508812,-0.003995,-1.445374,-261.743116,1.595561,65.587031
13.8252,0.001967,0.001009,-0.00423,-0.000133,-3.3e-05,0.002172,0.000285,-0.508728,-0.003225,-1.445374,-261.743116,1.595561,65.587031
13.8451,0.001966,0.001016,-0.003773,-0.000278,-1.5e-05,0.001998,-0.000191,-0.508986,-0.00423,-1.370369,-261.743116,1.670566,65.587031
13.8651,0.002067,0.00142,-0.004987,-0.000286,7.5e-05,0.002048,2.1e-05,-0.508981,-0.003814,-1.370369,-261.743116,1.670566,65.587031
13.885,0.001408,0.001484,-0.003906,-0.000292,0.000144,0.002087,2.1e-05,-0.508981,-0.003814,-1.370369,-261.743116,1.670566,65.587031
13.9051,0.001978,0.001179,-0.005085,-0.000292,0.000144,0.002087,-0.000586,-0.508512,-0.003891,-1.343802,-261.743207,1.595713,65.586938
13.9252,0.001991,0.001189,-0.004065,9.1e-05,6.3e-05,0.002416,-0.000598,-0.508636,-0.004376,-1.343802,-261.743207,1.595713,65.586938
13.945,0.001551,0.001214,-0.004443,0.000217,3.8e-05,0.002514,-8.4e-05,-0.508806,-0.004046,-1.367698,-261.743371,1.520679,65.586805
13.9651,0.001905,0.001288,-0.004155,0.0,0.0,0.0,-0.000658,-0.508783,-0.004406,-1.367698,-261.743371,1.520679,65.586805
