mach0312/omni-docking-bench/src/icros_test_setup/results/MPPI_sample/timeseries/trial_139.csv
t,x,y,yaw,vx,vy,wz,bl_x,bl_y,bl_yaw,front_steering_joint,front_wheel_joint,rear_steering_joint,rear_wheel_joint
0.0,0.0529,-0.02002,-0.044263,0.003434,-0.002557,-0.009277,0.029124,-0.528964,-0.04181,-1.175226,-257.548954,0.735892,66.980584
0.0003,0.052976,-0.020072,-0.044749,0.002351,-0.001751,-0.006352,0.029124,-0.528964,-0.04181,-1.175226,-257.543339,0.735892,66.983503
0.0006,0.053439,-0.020178,-0.044413,0.001215,-0.000905,-0.003284,0.029124,-0.528964,-0.04181,-1.175226,-257.539774,0.735892,66.985356
0.0008,0.053163,-0.01979,-0.04607,0.0,0.0,0.0,0.029324,-0.529535,-0.04266,-1.175226,-257.539774,0.735892,66.985356
0.0011,0.053303,-0.019992,-0.046645,0.0,0.0,0.0,0.029324,-0.529535,-0.04266,-1.175226,-257.539774,0.735892,66.985356
0.0013,0.05332,-0.020297,-0.046159,0.0,0.0,0.0,0.029459,-0.529371,-0.042672,-1.175226,-257.539774,0.735892,66.985356
0.0015,0.053363,-0.020294,-0.04484,0.0,0.0,0.0,0.029459,-0.529371,-0.042672,-1.175226,-257.539774,0.735892,66.985356
0.0154,0.053139,-0.020087,-0.044696,0.0,0.0,0.0,0.030503,-0.529781,-0.04484,-1.175226,-257.539774,0.735892,66.985356
0.0356,0.053138,-0.019917,-0.04514,0.0,0.0,0.0,0.030365,-0.529596,-0.044709,-1.175226,-257.539774,0.735892,66.985356
0.0555,0.053493,-0.019932,-0.045476,0.0,0.0,0.0,0.030365,-0.529596,-0.044709,-1.175226,-257.539774,0.735892,66.985356
0.0757,0.053303,-0.019949,-0.045434,0.0,0.0,0.0,0.030308,-0.529405,-0.045476,-1.175226,-257.539774,0.735892,66.985356
0.0961,0.053097,-0.020019,-0.044495,0.0,0.0,0.0,0.03024,-0.529412,-0.045459,-1.175226,-257.539774,0.735892,66.985356
0.1157,0.052946,-0.020232,-0.044941,-0.001596,0.000983,0.003043,0.030412,-0.529514,-0.044495,-1.175226,-257.539774,0.735892,66.985356
0.136,0.053098,-0.020462,-0.044786,-0.001736,0.001084,0.003795,0.030066,-0.529699,-0.044903,-1.175226,-257.539774,0.735892,66.985356
0.1555,0.053769,-0.02012,-0.045068,-0.001856,0.001172,0.004366,0.030066,-0.529699,-0.044903,-1.175226,-257.539774,0.735892,66.985356
0.1754,0.053261,-0.020267,-0.046034,-0.001958,0.001251,0.004795,0.030772,-0.529589,-0.045022,-1.100062,-257.540207,0.660728,66.985114
0.1956,0.053523,-0.020377,-0.045625,-0.002049,0.001316,0.005421,0.030367,-0.529644,-0.045432,-1.100062,-257.540207,0.660728,66.985114
0.2155,0.053076,-0.020294,-0.04508,-0.002127,0.001375,0.005906,0.030205,-0.529806,-0.04548,-1.132627,-257.541955,0.708187,66.984138
0.2363,0.053257,-0.020009,-0.045874,-0.00219,0.001437,0.00652,0.0301,-0.529776,-0.045109,-1.132627,-257.541955,0.708187,66.984138
0.2557,0.052813,-0.02017,-0.044842,-0.002245,0.001493,0.007007,0.0301,-0.529776,-0.045109,-1.132627,-257.541955,0.708187,66.984138
0.2759,0.052732,-0.01982,-0.044781,-0.002292,0.001545,0.007391,0.029879,-0.529605,-0.044638,-1.167245,-257.543759,0.783033,66.983111
0.2956,0.05281,-0.020187,-0.043046,-0.002336,0.001587,0.007863,0.029879,-0.52948,-0.044672,-1.167245,-257.543759,0.783033,66.983111
0.3157,0.052788,-0.020058,-0.043571,-0.002373,0.001626,0.008239,0.030809,-0.529675,-0.042875,-1.209128,-257.545676,0.858044,66.982001
0.3357,0.052394,-0.020095,-0.044964,-0.00241,0.001656,0.008706,0.030592,-0.529581,-0.043499,-1.209128,-257.545676,0.858044,66.982001
0.3556,0.052573,-0.020032,-0.045122,-0.002443,0.001684,0.009084,0.030592,-0.529581,-0.043499,-1.209128,-257.545676,0.858044,66.982001
0.3755,0.052371,-0.019636,-0.044006,-0.002471,0.001711,0.009388,0.029487,-0.529451,-0.044836,-1.228367,-257.548041,0.933037,66.980612
0.3956,0.052416,-0.019815,-0.044374,-0.002493,0.001742,0.009691,0.029663,-0.529317,-0.04446,-1.228367,-257.548041,0.933037,66.980612
0.4161,0.051993,-0.019647,-0.044003,-0.002511,0.001771,0.009936,0.029726,-0.529262,-0.044112,-1.250287,-257.550799,1.008179,66.978951
0.4359,0.052131,-0.01947,-0.043906,-0.002529,0.001797,0.010203,0.029571,-0.529161,-0.043999,-1.250287,-257.550799,1.008179,66.978951
0.456,0.052229,-0.019761,-0.043818,-0.002545,0.00182,0.01042,0.029571,-0.529161,-0.043999,-1.250287,-257.550799,1.008179,66.978951
0.4761,0.051722,-0.019482,-0.044401,-0.002559,0.001841,0.010594,0.029789,-0.529195,-0.043412,-1.260777,-257.554028,1.041902,66.977
0.4961,0.051521,-0.019695,-0.042436,-0.002572,0.00186,0.010773,0.029487,-0.529097,-0.043773,-1.260777,-257.554028,1.041902,66.977
0.5159,0.051544,-0.019418,-0.043012,-0.002583,0.001878,0.010917,0.029807,-0.529174,-0.042103,-1.272107,-257.557467,1.065851,66.974908
0.5359,0.051196,-0.019694,-0.041139,-0.002596,0.001888,0.011074,0.029628,-0.528963,-0.042918,-1.272107,-257.557467,1.065851,66.974908
0.556,0.051316,-0.019382,-0.041969,-0.002608,0.001898,0.0112,0.029628,-0.528963,-0.042918,-1.272107,-257.557467,1.065851,66.974908
0.5758,0.050757,-0.019141,-0.042075,-0.002618,0.001908,0.011303,0.029814,-0.52885,-0.041514,-1.277288,-257.56103,1.07628,66.972736
0.5955,0.050876,-0.019323,-0.04213,-0.002629,0.001914,0.011424,0.029592,-0.528774,-0.041693,-1.277288,-257.56103,1.07628,66.972736
0.6157,0.050437,-0.019464,-0.041181,-0.002638,0.001921,0.011523,0.029316,-0.528807,-0.041772,-1.281968,-257.564696,1.088033,66.970486
0.6356,0.050714,-0.019327,-0.042297,-0.002642,0.001936,0.01164,0.029426,-0.529009,-0.041214,-1.281968,-257.564696,1.088033,66.970486
0.6562,0.050508,-0.019295,-0.041761,-0.002645,0.001949,0.011735,0.029426,-0.529009,-0.041214,-1.281968,-257.564696,1.088033,66.970486
0.6756,0.049855,-0.019241,-0.040912,-0.002649,0.00196,0.011812,0.029109,-0.528765,-0.041279,-1.284399,-257.568429,1.094778,66.968185
0.6956,0.049938,-0.018855,-0.042456,-0.002652,0.001971,0.011906,0.02905,-0.528775,-0.041074,-1.284399,-257.568429,1.094778,66.968185
0.7158,0.049538,-0.019012,-0.039315,-0.002655,0.001981,0.011983,0.02821,-0.52833,-0.04208,-1.289751,-257.572238,1.103863,66.965838
0.7357,0.049358,-0.019079,-0.039816,-0.002662,0.001981,0.012067,0.029374,-0.528589,-0.039542,-1.289751,-257.572238,1.103863,66.965838
0.7557,0.049538,-0.019306,-0.039861,-0.002668,0.001982,0.012135,0.029374,-0.528589,-0.039542,-1.289751,-257.572238,1.103863,66.965838
0.776,0.049078,-0.018997,-0.039218,-0.002674,0.001984,0.012191,0.029106,-0.528813,-0.03936,-1.292729,-257.576103,1.109312,66.963455
0.7958,0.0493,-0.019007,-0.039771,-0.002674,0.001994,0.012255,0.029084,-0.528719,-0.039244,-1.292729,-257.576103,1.109312,66.963455
0.8158,0.048488,-0.019161,-0.038863,-0.002675,0.002002,0.012308,0.02894,-0.528538,-0.039383,-1.294501,-257.580027,1.115562,66.961021
0.8359,0.049005,-0.018949,-0.03845,-0.002672,0.002017,0.012368,0.028692,-0.528752,-0.038888,-1.294501,-257.580027,1.115562,66.961021
0.8561,0.048879,-0.018401,-0.037502,-0.002669,0.002029,0.012417,0.028692,-0.528752,-0.038888,-1.294501,-257.580027,1.115562,66.961021
0.8759,0.048482,-0.018813,-0.037871,-0.002668,0.00204,0.012458,0.029649,-0.527955,-0.036987,-1.296866,-257.58398,1.119217,66.95857
0.8959,0.048583,-0.01848,-0.038898,-0.00268,0.002024,0.012504,0.029442,-0.528146,-0.03729,-1.296866,-257.58398,1.119217,66.95857
0.9157,0.047766,-0.018769,-0.037538,-0.00269,0.002011,0.012542,0.028668,-0.528026,-0.038503,-1.301066,-257.587983,1.124075,66.956101
0.9358,0.047788,-0.018629,-0.039402,-0.002689,0.002019,0.012582,0.028626,-0.528374,-0.037601,-1.301066,-257.587983,1.124075,66.956101
0.956,0.047954,-0.01841,-0.037769,-0.002689,0.002026,0.012615,0.028626,-0.528374,-0.037601,-1.301066,-257.587983,1.124075,66.956101
0.976,0.04781,-0.018435,-0.037992,-0.002689,0.002032,0.012642,0.028587,-0.527958,-0.037245,-1.299476,-257.591991,1.126301,66.953603
0.996,0.046994,-0.018502,-0.038639,-0.002693,0.00203,0.012671,0.028515,-0.527992,-0.037487,-1.299476,-257.591991,1.126301,66.953603
1.0154,0.04676,-0.018767,-0.036543,-0.002696,0.002028,0.012694,0.027209,-0.528053,-0.038236,-1.301833,-257.596037,1.129338,66.951086
1.036,0.046932,-0.018611,-0.036243,-0.002689,0.002045,0.012718,0.028041,-0.52839,-0.036674,-1.301833,-257.596037,1.129338,66.951086
1.0563,0.046966,-0.018642,-0.037228,-0.002683,0.002059,0.012737,0.028041,-0.52839,-0.036674,-1.301833,-257.596037,1.129338,66.951086
1.0757,0.046674,-0.018539,-0.034612,-0.002679,0.002071,0.012753,0.027875,-0.5282,-0.036697,-1.301817,-257.600102,1.130678,66.948551
1.0959,0.046414,-0.018335,-0.035788,-0.00268,0.002072,0.01277,0.028337,-0.528203,-0.035774,-1.301817,-257.600102,1.130678,66.948551
1.1156,0.045864,-0.018047,-0.035953,-0.002681,0.002073,0.012784,0.028083,-0.527939,-0.035382,-1.305513,-257.604187,1.132713,66.946026
1.1356,0.045918,-0.018309,-0.036105,-0.002681,0.002074,0.012798,0.027577,-0.527734,-0.035881,-1.305513,-257.604187,1.132713,66.946026
1.156,0.045717,-0.018245,-0.034581,-0.002682,0.002075,0.01281,0.027577,-0.527734,-0.035881,-1.305513,-257.604187,1.132713,66.946026
1.1757,0.045504,-0.018115,-0.033243,-0.002683,0.002076,0.01282,0.027975,-0.52785,-0.034045,-1.305859,-257.608281,1.133536,66.943495
1.1955,0.045554,-0.017778,-0.034623,-0.002686,0.002072,0.01283,0.028198,-0.527833,-0.033656,-1.305859,-257.608281,1.133536,66.943495
1.2156,0.045321,-0.017743,-0.035199,-0.002689,0.002069,0.012839,0.027817,-0.527404,-0.034216,-1.306329,-257.612381,1.134471,66.940959
1.2359,0.045175,-0.017666,-0.033272,-0.002691,0.002067,0.012848,0.027409,-0.527422,-0.035088,-1.306329,-257.612381,1.134471,66.940959
1.2558,0.045458,-0.017793,-0.03387,-0.002693,0.002065,0.012855,0.027409,-0.527422,-0.035088,-1.306329,-257.612381,1.134471,66.940959
1.2761,0.044674,-0.017762,-0.03396,-0.002694,0.002064,0.012861,0.028078,-0.52741,-0.033333,-1.30582,-257.616488,1.134847,66.938412
1.2955,0.044913,-0.017561,-0.034064,-0.002698,0.002059,0.012868,0.027775,-0.527423,-0.033522,-1.30582,-257.616488,1.134847,66.938412
1.3156,0.044072,-0.017598,-0.032113,-0.002701,0.002055,0.012874,0.02746,-0.527196,-0.033655,-1.305569,-257.6206,1.135326,66.935857
1.3357,0.044339,-0.017598,-0.033037,-0.002703,0.002051,0.01288,0.027671,-0.527319,-0.03223,-1.305569,-257.6206,1.135326,66.935857
1.3558,0.044254,-0.017556,-0.031839,-0.002705,0.002049,0.012885,0.027671,-0.527319,-0.03223,-1.305569,-257.6206,1.135326,66.935857
1.3757,0.043714,-0.017542,-0.031831,-0.002707,0.002047,0.012889,0.027908,-0.527208,-0.0313,-1.304894,-257.624711,1.135505,66.933295
1.3956,0.044285,-0.017319,-0.031829,-0.00271,0.002043,0.012893,0.027723,-0.527228,-0.031453,-1.304894,-257.624711,1.135505,66.933295
1.4157,0.043044,-0.017294,-0.031178,-0.002712,0.00204,0.012897,0.027971,-0.526993,-0.031418,-1.304368,-257.628824,1.135748,66.930725
1.4358,0.043081,-0.017764,-0.033147,-0.002712,0.002041,0.0129,0.027215,-0.527038,-0.031179,-1.304368,-257.628824,1.135748,66.930725
1.4559,0.04316,-0.017326,-0.029675,-0.002712,0.002042,0.012903,0.027215,-0.527038,-0.031179,-1.304368,-257.628824,1.135748,66.930725
1.4756,0.042879,-0.017425,-0.0313,-0.002712,0.002042,0.012906,0.027917,-0.527013,-0.029135,-1.303843,-257.632942,1.135846,66.928147
1.4956,0.043183,-0.017069,-0.030091,-0.002713,0.00204,0.012909,0.027493,-0.527069,-0.029964,-1.303843,-257.632942,1.135846,66.928147
1.5155,0.042419,-0.01738,-0.030688,-0.002714,0.002039,0.012911,0.027755,-0.52677,-0.02968,-1.304073,-257.637052,1.136081,66.925575
1.5356,0.042443,-0.017307,-0.02996,-0.002709,0.002049,0.012913,0.026855,-0.527103,-0.030577,-1.304073,-257.637052,1.136081,66.925575
1.5559,0.042574,-0.017035,-0.02992,-0.002705,0.002056,0.012915,0.026855,-0.527103,-0.030577,-1.304073,-257.637052,1.136081,66.925575
1.5756,0.041928,-0.017021,-0.028954,-0.002702,0.002063,0.012917,0.027206,-0.526718,-0.029378,-1.303831,-257.641173,1.13616,66.922993
1.5958,0.041952,-0.017139,-0.029089,-0.002706,0.002055,0.012919,0.027176,-0.526744,-0.029143,-1.303831,-257.641173,1.13616,66.922993
1.6155,0.041226,-0.017036,-0.028679,-0.00271,0.002048,0.01292,0.027035,-0.526855,-0.028677,-1.305706,-257.645292,1.136586,66.920428
1.6357,0.041274,-0.017347,-0.029654,-0.002707,0.002054,0.012921,0.026637,-0.526825,-0.028658,-1.305706,-257.645292,1.136586,66.920428
1.6565,0.041542,-0.017149,-0.029144,-0.002704,0.002059,0.012923,0.026637,-0.526825,-0.028658,-1.305706,-257.645292,1.136586,66.920428
1.6758,0.040943,-0.017044,-0.029864,-0.002702,0.002063,0.012923,0.026569,-0.526843,-0.028598,-1.304587,-257.649412,1.136507,66.917852
1.6959,0.041076,-0.016771,-0.026389,-0.002696,0.002074,0.012924,0.026219,-0.526823,-0.029038,-1.304587,-257.649412,1.136507,66.917852
1.7157,0.040515,-0.016825,-0.027522,-0.002692,0.002082,0.012925,0.027535,-0.526525,-0.025978,-1.305795,-257.653538,1.136776,66.915282
1.7356,0.04047,-0.016427,-0.027391,-0.002694,0.002079,0.012926,0.026571,-0.526619,-0.027362,-1.305795,-257.653538,1.136776,66.915282
1.7559,0.040619,-0.01672,-0.026956,-0.002695,0.002076,0.012927,0.026571,-0.526619,-0.027362,-1.305795,-257.653538,1.136776,66.915282
1.7758,0.040065,-0.016385,-0.02643,-0.002696,0.002074,0.012927,0.026762,-0.526445,-0.026414,-1.307228,-257.657671,1.137066,66.91272
1.7957,0.040257,-0.01659,-0.026358,-0.002702,0.002064,0.012928,0.026679,-0.526338,-0.026358,-1.307228,-257.657671,1.137066,66.91272
1.8162,0.039578,-0.016378,-0.025649,-0.002706,0.002055,0.012929,0.026732,-0.526344,-0.025946,-1.306658,-257.661809,1.137053,66.91015
1.8364,0.039706,-0.01677,-0.026899,-0.00271,0.002049,0.012929,0.026515,-0.526219,-0.025655,-1.306658,-257.661809,1.137053,66.91015
1.8558,0.039551,-0.016304,-0.026103,-0.002713,0.002043,0.01293,0.026515,-0.526219,-0.025655,-1.306658,-257.661809,1.137053,66.91015
1.8757,0.038886,-0.016557,-0.02427,-0.002716,0.002039,0.01293,0.02613,-0.526042,-0.025563,-1.305257,-257.665933,1.136878,66.907575
1.896,0.038612,-0.016332,-0.025016,-0.002716,0.002039,0.01293,0.026274,-0.526182,-0.024966,-1.305257,-257.665933,1.136878,66.907575
1.9153,0.038717,-0.01595,-0.024049,-0.002716,0.002039,0.012931,0.025771,-0.526105,-0.024605,-1.304004,-257.670055,1.136709,66.904992
1.9357,0.038463,-0.015844,-0.024735,-0.002722,0.002028,0.012931,0.026392,-0.525825,-0.024076,-1.304004,-257.670055,1.136709,66.904992
1.9558,0.038612,-0.016273,-0.0261,-0.002726,0.00202,0.012931,0.026392,-0.525825,-0.024076,-1.304004,-257.670055,1.136709,66.904992
1.976,0.037928,-0.016089,-0.024528,-0.002731,0.002012,0.012932,0.025191,-0.526012,-0.025561,-1.304026,-257.674174,1.136711,66.90241
1.996,0.038205,-0.016702,-0.025755,-0.002721,0.002029,0.012932,0.025273,-0.52597,-0.025072,-1.304026,-257.674174,1.136711,66.90241
2.0158,0.037944,-0.015885,-0.025043,-0.002714,0.002042,0.012932,0.024986,-0.526467,-0.025344,-1.301944,-257.678287,1.136429,66.899814
2.0358,0.037856,-0.015827,-0.024127,-0.00271,0.00205,0.012932,0.025153,-0.525785,-0.025049,-1.301944,-257.678287,1.136429,66.899814
2.056,0.037817,-0.015766,-0.021381,-0.002706,0.002057,0.012932,0.025153,-0.525785,-0.025049,-1.301944,-257.678287,1.136429,66.899814
2.0762,0.037218,-0.016039,-0.023842,-0.002703,0.002062,0.012932,0.026802,-0.525562,-0.020842,-1.304259,-257.682407,1.136766,66.897233
2.096,0.037364,-0.015868,-0.02397,-0.002709,0.00205,0.012932,0.026072,-0.525689,-0.022015,-1.304259,-257.682407,1.136766,66.897233
2.1157,0.036792,-0.016136,-0.022384,-0.002715,0.002041,0.012932,0.025056,-0.525654,-0.023559,-1.305773,-257.68653,1.137017,66.894664
2.1358,0.036848,-0.015858,-0.022556,-0.002708,0.002054,0.012932,0.025344,-0.525973,-0.022469,-1.305773,-257.68653,1.137017,66.894664
2.156,0.037092,-0.015288,-0.022748,-0.002702,0.002064,0.012932,0.025344,-0.525973,-0.022469,-1.305773,-257.68653,1.137017,66.894664
2.1755,0.036763,-0.015867,-0.022128,-0.002697,0.002073,0.012932,0.025379,-0.525067,-0.022202,-1.304187,-257.69065,1.136804,66.892082
2.1958,0.036316,-0.015828,-0.020512,-0.002704,0.00206,0.012932,0.025406,-0.525325,-0.022112,-1.304187,-257.69065,1.136804,66.892082
2.216,0.036019,-0.015908,-0.02078,-0.002709,0.00205,0.012932,0.025772,-0.525653,-0.0201,-1.306608,-257.694788,1.137192,66.889511
2.236,0.036103,-0.01563,-0.019915,-0.002707,0.002055,0.012931,0.025447,-0.525782,-0.020702,-1.306608,-257.694788,1.137192,66.889511
2.256,0.035831,-0.01566,-0.020164,-0.002704,0.002059,0.012931,0.025447,-0.525782,-0.020702,-1.306608,-257.694788,1.137192,66.889511
2.2756,0.035151,-0.015351,-0.020311,-0.002702,0.002062,0.012931,0.025436,-0.525469,-0.019624,-1.304878,-257.69891,1.136953,66.886933
2.2959,0.035517,-0.015333,-0.020961,-0.002705,0.002058,0.012929,0.025159,-0.525367,-0.019844,-1.304878,-257.69891,1.136953,66.886933
2.3158,0.034845,-0.015411,-0.019412,-0.002706,0.002055,0.012928,0.024743,-0.525154,-0.02055,-1.305845,-257.703038,1.137092,66.884361
2.3363,0.034852,-0.015125,-0.019898,-0.002707,0.002055,0.012926,0.024923,-0.525297,-0.019491,-1.305845,-257.703038,1.137092,66.884361
2.3561,0.034688,-0.015591,-0.019256,-0.002707,0.002055,0.012924,0.024923,-0.525297,-0.019491,-1.305845,-257.703038,1.137092,66.884361
2.3755,0.034403,-0.015365,-0.017813,-0.002707,0.002055,0.012923,0.024756,-0.525408,-0.018715,-1.305253,-257.707164,1.136866,66.881786
2.3961,0.034531,-0.01526,-0.0188,-0.002707,0.002057,0.012916,0.024973,-0.525348,-0.018284,-1.305253,-257.707164,1.136866,66.881786
2.4157,0.034279,-0.015076,-0.018396,-0.002708,0.002058,0.012911,0.024858,-0.525102,-0.018388,-1.305086,-257.711288,1.136574,66.879212
2.436,0.033934,-0.014896,-0.017424,-0.002713,0.00205,0.012908,0.02489,-0.524997,-0.018375,-1.305086,-257.711288,1.136574,66.879212
2.456,0.034367,-0.015204,-0.019317,-0.002717,0.002044,0.012905,0.02489,-0.524997,-0.018375,-1.305086,-257.711288,1.136574,66.879212
2.4758,0.033452,-0.014949,-0.01647,-0.00272,0.002038,0.012903,0.024404,-0.525021,-0.018777,-1.304949,-257.715404,1.135844,66.876645
2.4963,0.033606,-0.014772,-0.017787,-0.002721,0.002038,0.012898,0.024655,-0.524953,-0.017777,-1.304949,-257.715404,1.135844,66.876645
2.5159,0.033161,-0.014955,-0.01715,-0.002722,0.002037,0.012894,0.024449,-0.524624,-0.017375,-1.303158,-257.719523,1.1351,66.874065
2.5362,0.033011,-0.014608,-0.017084,-0.002723,0.002039,0.012886,0.024413,-0.524853,-0.017149,-1.303158,-257.719523,1.1351,66.874065
2.5564,0.033018,-0.014876,-0.017221,-0.002723,0.002041,0.01288,0.024413,-0.524853,-0.017149,-1.303158,-257.719523,1.1351,66.874065
2.5757,0.032469,-0.014569,-0.01679,-0.002723,0.002042,0.012875,0.024123,-0.524712,-0.016677,-1.302766,-257.723646,1.134472,66.871481
2.5958,0.032626,-0.014862,-0.015926,-0.002723,0.002044,0.012867,0.024022,-0.524615,-0.016662,-1.302766,-257.723646,1.134472,66.871481
2.6158,0.03202,-0.014722,-0.016001,-0.002723,0.002046,0.012861,0.024419,-0.524731,-0.015519,-1.302553,-257.727746,1.133305,66.868916
2.6357,0.032276,-0.014507,-0.016684,-0.002721,0.002054,0.012847,0.023903,-0.52466,-0.015941,-1.302553,-257.727746,1.133305,66.868916
2.6557,0.032301,-0.014579,-0.016989,-0.00272,0.002059,0.012836,0.023903,-0.52466,-0.015941,-1.302553,-257.727746,1.133305,66.868916
2.6758,0.031515,-0.014545,-0.016251,-0.002719,0.002064,0.012828,0.023525,-0.524418,-0.016452,-1.302401,-257.731851,1.132415,66.866352
2.6959,0.031444,-0.01464,-0.014127,-0.002716,0.002069,0.012826,0.023389,-0.524432,-0.016307,-1.302401,-257.731851,1.132415,66.866352
2.7158,0.031123,-0.014583,-0.015568,-0.002713,0.002073,0.012825,0.024154,-0.524523,-0.013719,-1.302753,-257.735957,1.13051,66.8638
2.7356,0.030929,-0.014345,-0.013845,-0.002709,0.002085,0.01281,0.023264,-0.524518,-0.015386,-1.302753,-257.735957,1.13051,66.8638
2.756,0.031147,-0.014525,-0.01718,-0.002706,0.002094,0.012798,0.023264,-0.524518,-0.015386,-1.302753,-257.735957,1.13051,66.8638
2.7759,0.030424,-0.01403,-0.013678,-0.002703,0.002101,0.012789,0.022273,-0.524361,-0.016643,-1.303431,-257.740067,1.130536,66.861252
2.7959,0.030385,-0.014513,-0.014532,-0.002701,0.002107,0.012782,0.02274,-0.524196,-0.01537,-1.303431,-257.740067,1.130536,66.861252
2.8154,0.030525,-0.014283,-0.013585,-0.002698,0.002112,0.012776,0.022888,-0.524391,-0.014125,-1.304568,-257.744174,1.128635,66.858727
2.8357,0.030259,-0.014284,-0.014014,-0.002708,0.002111,0.012718,0.023531,-0.524246,-0.013612,-1.304568,-257.744174,1.128635,66.858727
2.8559,0.029905,-0.014352,-0.013293,-0.002716,0.00211,0.012674,0.023531,-0.524246,-0.013612,-1.304568,-257.744174,1.128635,66.858727
2.8755,0.029621,-0.014191,-0.012952,-0.002722,0.002108,0.012641,0.023014,-0.524217,-0.01276,-1.305092,-257.748286,1.128055,66.856207
2.8959,0.030029,-0.013944,-0.013201,-0.002726,0.002119,0.012572,0.023002,-0.524178,-0.012777,-1.305092,-257.748286,1.128055,66.856207
2.9154,0.029319,-0.013863,-0.011204,-0.002729,0.002127,0.012521,0.023211,-0.523831,-0.012799,-1.300627,-257.752362,1.11922,66.853713
2.9355,0.029524,-0.013744,-0.012892,-0.002751,0.002118,0.012358,0.023568,-0.523828,-0.011318,-1.300627,-257.752362,1.11922,66.853713
2.9558,0.029423,-0.014343,-0.010886,-0.002768,0.00211,0.01224,0.023568,-0.523828,-0.011318,-1.300627,-257.752362,1.11922,66.853713
2.9756,0.029005,-0.013798,-0.011028,-0.002781,0.002102,0.012154,0.023758,-0.524223,-0.010361,-1.29853,-257.756408,1.111647,66.851259
2.9957,0.029044,-0.013639,-0.011597,-0.002793,0.002104,0.012005,0.023594,-0.52403,-0.01057,-1.29853,-257.756408,1.111647,66.851259
3.0156,0.028515,-0.013708,-0.011068,-0.002802,0.002104,0.011899,0.023042,-0.523537,-0.011212,-1.286685,-257.760343,1.089172,66.848877
3.0357,0.029043,-0.013269,-0.012175,-0.002804,0.002102,0.011878,0.022881,-0.523661,-0.011061,-1.286685,-257.760343,1.089172,66.848877
3.0558,0.028484,-0.013806,-0.011018,-0.002806,0.002099,0.011864,0.022881,-0.523661,-0.011061,-1.286685,-257.760343,1.089172,66.848877
3.0755,0.028158,-0.013771,-0.010441,-0.002807,0.002097,0.011856,0.022749,-0.523686,-0.010524,-1.280258,-257.764231,1.073546,66.846542
3.0958,0.027954,-0.013457,-0.010259,-0.002809,0.002101,0.011778,0.02277,-0.523699,-0.010433,-1.280258,-257.764231,1.073546,66.846542
3.1161,0.027656,-0.013629,-0.008915,-0.002811,0.002103,0.011722,0.022633,-0.523362,-0.009881,-1.278822,-257.768131,1.071372,66.844199
3.1357,0.027718,-0.013648,-0.009576,-0.002823,0.002105,0.01146,0.023056,-0.52358,-0.008991,-1.278822,-257.768131,1.071372,66.844199
3.1558,0.027952,-0.01357,-0.00913,-0.002831,0.002103,0.011275,0.023056,-0.52358,-0.008991,-1.278822,-257.768131,1.071372,66.844199
3.1756,0.027109,-0.013374,-0.008791,-0.002836,0.0021,0.011144,0.023179,-0.52346,-0.00864,-1.276145,-257.771998,1.063352,66.841887
3.1957,0.027146,-0.013433,-0.008071,-0.002843,0.002094,0.010989,0.022939,-0.523406,-0.008645,-1.276145,-257.771998,1.063352,66.841887
3.216,0.027091,-0.013454,-0.007925,-0.002847,0.002088,0.010881,0.022942,-0.523351,-0.007724,-1.26251,-257.775654,1.028479,66.839738
3.236,0.027126,-0.013632,-0.009485,-0.002854,0.002086,0.01065,0.023035,-0.523427,-0.007889,-1.26251,-257.775654,1.028479,66.839738
3.2562,0.026901,-0.013268,-0.00942,-0.002858,0.002081,0.010492,0.023035,-0.523427,-0.007889,-1.26251,-257.775654,1.028479,66.839738
3.2758,0.026544,-0.013552,-0.009413,-0.00286,0.002075,0.010383,0.021979,-0.523157,-0.008967,-1.255656,-257.77931,1.012412,66.837599
3.2955,0.026376,-0.013575,-0.008126,-0.002846,0.002078,0.010521,0.02187,-0.523298,-0.009096,-1.255656,-257.77931,1.012412,66.837599
3.3155,0.026437,-0.012708,-0.007723,-0.002834,0.002081,0.010623,0.022143,-0.523492,-0.007801,-1.243204,-257.7828,0.98016,66.835583
3.3353,0.025651,-0.013123,-0.008759,-0.002847,0.002064,0.010441,0.022463,-0.52276,-0.007714,-1.243204,-257.7828,0.98016,66.835583
3.3558,0.025962,-0.013159,-0.007433,-0.002856,0.002048,0.010314,0.022463,-0.52276,-0.007714,-1.243204,-257.7828,0.98016,66.835583
3.3767,0.025474,-0.013137,-0.007816,-0.002863,0.002034,0.010225,0.022055,-0.523058,-0.006992,-1.251416,-257.786383,0.999381,66.833503
3.3961,0.025471,-0.01279,-0.007177,-0.002857,0.002048,0.010061,0.021814,-0.523073,-0.00727,-1.251416,-257.786383,0.999381,66.833503
3.4157,0.025301,-0.013208,-0.007098,-0.002851,0.002058,0.009948,0.021721,-0.522712,-0.006854,-1.23788,-257.789841,0.973757,66.831493
3.4358,0.025083,-0.012828,-0.007657,-0.002843,0.002071,0.009818,0.02168,-0.523148,-0.007059,-1.23788,-257.789841,0.973757,66.831493
3.4555,0.025078,-0.013139,-0.006816,-0.002835,0.00208,0.009728,0.02168,-0.523148,-0.007059,-1.23788,-257.789841,0.973757,66.831493
3.476,0.024618,-0.012756,-0.006428,-0.002829,0.002086,0.009667,0.021484,-0.523041,-0.006403,-1.233678,-257.793265,0.953712,66.829535
3.4961,0.024981,-0.012635,-0.005535,-0.002827,0.002092,0.009444,0.021412,-0.52291,-0.006366,-1.233678,-257.793265,0.953712,66.829535
3.5159,0.024245,-0.012629,-0.004741,-0.002824,0.002095,0.009291,0.022069,-0.52256,-0.005228,-1.230566,-257.796632,0.933233,66.827648
3.5357,0.024551,-0.01267,-0.006045,-0.002841,0.002095,0.00866,0.021845,-0.522614,-0.004769,-1.230566,-257.796632,0.933233,66.827648
3.5558,0.024713,-0.013069,-0.005879,-0.00285,0.002088,0.008242,0.021845,-0.522614,-0.004769,-1.230566,-257.796632,0.933233,66.827648
3.5758,0.024003,-0.012611,-0.003336,-0.002854,0.002077,0.00797,0.021599,-0.522973,-0.005496,-1.2222,-257.799887,0.902957,66.825852
3.5956,0.023898,-0.012414,-0.007025,-0.002853,0.002073,0.007721,0.021872,-0.522814,-0.004572,-1.2222,-257.799887,0.902957,66.825852
3.6153,0.023866,-0.012633,-0.005687,-0.00285,0.002066,0.007561,0.02025,-0.522354,-0.006833,-1.180856,-257.80213,0.827951,66.82466
3.6356,0.023612,-0.01272,-0.003281,-0.002832,0.002059,0.007837,0.020901,-0.522599,-0.005776,-1.180856,-257.80213,0.827951,66.82466
3.6557,0.023711,-0.012379,-0.005368,-0.002818,0.002054,0.008033,0.020901,-0.522599,-0.005776,-1.180856,-257.80213,0.827951,66.82466
3.6754,0.023755,-0.012017,-0.005215,-0.002808,0.002051,0.008172,0.020872,-0.522298,-0.005094,-1.167759,-257.804614,0.752844,66.823352
3.6956,0.023732,-0.012412,-0.00449,-0.002811,0.002038,0.008067,0.02095,-0.522174,-0.005111,-1.167759,-257.804614,0.752844,66.823352
3.7161,0.023176,-0.011877,-0.003895,-0.002813,0.002027,0.007996,0.021357,-0.522345,-0.004245,-1.19144,-257.807474,0.808504,66.821818
3.7359,0.022969,-0.012079,-0.004115,-0.00283,0.002017,0.007503,0.0212,-0.521913,-0.003914,-1.19144,-257.807474,0.808504,66.821818
3.7559,0.022805,-0.012462,-0.005068,-0.00284,0.002004,0.007173,0.0212,-0.521913,-0.003914,-1.19144,-257.807474,0.808504,66.821818
3.776,0.022796,-0.012273,-0.002833,-0.002846,0.00199,0.006953,0.020104,-0.52237,-0.004734,-1.184151,-257.810445,0.793007,66.820222
3.7964,0.022901,-0.012111,-0.003727,-0.002834,0.002003,0.006816,0.020594,-0.522321,-0.003929,-1.184151,-257.810445,0.793007,66.820222
3.8156,0.02267,-0.012056,-0.004149,-0.002822,0.002012,0.006726,0.020932,-0.52206,-0.003554,-1.142661,-257.81254,0.718012,66.819112
3.8358,0.022571,-0.012494,-0.003344,-0.002816,0.002006,0.006729,0.020585,-0.52205,-0.004086,-1.142661,-257.81254,0.718012,66.819112
3.8556,0.02259,-0.011945,-0.004674,-0.00281,0.002,0.006733,0.020585,-0.52205,-0.004086,-1.142661,-257.81254,0.718012,66.819112
3.8758,0.022329,-0.012132,-0.00172,-0.002805,0.001995,0.006737,0.0201,-0.521863,-0.004419,-1.138723,-257.814977,0.643006,66.817841
3.8962,0.022597,-0.012269,-0.002548,-0.002807,0.001997,0.00642,0.020636,-0.521963,-0.003296,-1.138723,-257.814977,0.643006,66.817841
3.9154,0.021972,-0.012138,-0.002402,-0.002807,0.001995,0.006206,0.021208,-0.522203,-0.002331,-1.140453,-257.817669,0.647181,66.816433
3.9355,0.021871,-0.011989,-0.003375,-0.00281,0.002009,0.005633,0.020783,-0.522139,-0.002385,-1.140453,-257.817669,0.647181,66.816433
3.9556,0.022092,-0.011915,-0.003004,-0.002809,0.002015,0.005249,0.020783,-0.522139,-0.002385,-1.140453,-257.817669,0.647181,66.816433
3.9757,0.021924,-0.011552,-0.001535,-0.002805,0.002015,0.004995,0.020455,-0.521837,-0.00277,-1.118972,-257.819984,0.572066,66.815233
3.9961,0.021845,-0.011608,-0.002512,-0.002809,0.001999,0.004754,0.020725,-0.521711,-0.002235,-1.118972,-257.819984,0.572066,66.815233
4.0156,0.021518,-0.012101,-0.00139,-0.002811,0.001984,0.004596,0.020525,-0.521581,-0.002437,-1.065031,-257.821007,0.497062,66.814705
4.0361,0.021451,-0.011787,-0.002775,-0.002809,0.001993,0.004087,0.020781,-0.522053,-0.00148,-1.065031,-257.821007,0.497062,66.814705
4.0561,0.021614,-0.011989,-0.001544,-0.002804,0.001995,0.003744,0.020781,-0.522053,-0.00148,-1.065031,-257.821007,0.497062,66.814705
4.0756,0.021183,-0.012246,-0.003357,-0.002798,0.001993,0.003514,0.020772,-0.521952,-0.001445,-1.040166,-257.822071,0.422155,66.814144
4.096,0.021262,-0.011734,-0.000188,-0.002779,0.001987,0.003755,0.020238,-0.522066,-0.00221,-1.040166,-257.822071,0.422155,66.814144
4.1154,0.02153,-0.011987,-0.001922,-0.002765,0.001984,0.003922,0.021158,-0.521728,-0.000174,-0.976355,-257.822277,0.347162,66.814028
4.1357,0.021426,-0.011648,-0.002365,-0.002763,0.001978,0.003816,0.020602,-0.521963,-0.001771,-0.976355,-257.822277,0.347162,66.814028
4.156,0.021615,-0.011642,-0.002663,-0.00276,0.001972,0.003743,0.020602,-0.521963,-0.001771,-0.976355,-257.822277,0.347162,66.814028
4.1756,0.021466,-0.011959,-0.001811,-0.002757,0.001966,0.003693,0.020198,-0.521601,-0.002572,-1.007693,-257.823351,0.272055,66.813449
4.1957,0.021309,-0.011581,-0.002223,-0.002752,0.001949,0.003908,0.020333,-0.521743,-0.002248,-1.007693,-257.823351,0.272055,66.813449
4.2158,0.021067,-0.011511,-0.0033,-0.002749,0.001937,0.004055,0.02012,-0.521542,-0.002144,-0.992225,-257.824629,0.19705,66.812746
4.2358,0.021144,-0.011676,-0.002017,-0.002735,0.001928,0.004568,0.019446,-0.521509,-0.003195,-0.992225,-257.824629,0.19705,66.812746
4.2556,0.021369,-0.011687,-0.001554,-0.002727,0.001923,0.004924,0.019446,-0.521509,-0.003195,-0.992225,-257.824629,0.19705,66.812746
4.2756,0.021045,-0.011416,-0.00052,-0.002722,0.001923,0.005168,0.020462,-0.521606,-0.001386,-1.013708,-257.826694,0.193815,66.811634
4.2958,0.020688,-0.011898,-0.002643,-0.002748,0.001934,0.004223,0.020579,-0.521519,-0.001011,-1.013708,-257.826694,0.193815,66.811634
4.3155,0.020698,-0.011532,-0.001591,-0.002764,0.001935,0.003579,0.019305,-0.521869,-0.002584,-1.078839,-257.827598,0.268835,66.811165
4.3359,0.020771,-0.011599,-0.003945,-0.002758,0.001937,0.003523,0.019835,-0.521559,-0.001673,-1.078839,-257.827598,0.268835,66.811165
4.3561,0.02098,-0.011399,-0.002269,-0.002753,0.001937,0.003487,0.019835,-0.521559,-0.001673,-1.078839,-257.827598,0.268835,66.811165
4.3755,0.02052,-0.011608,-0.001518,-0.002748,0.001937,0.003464,0.019765,-0.521358,-0.002186,-1.003838,-257.828613,0.193834,66.810597
4.3955,0.020675,-0.011481,-0.001238,-0.002744,0.001929,0.003575,0.019751,-0.521455,-0.001904,-1.003838,-257.828613,0.193834,66.810597
4.4156,0.020595,-0.011064,-0.002903,-0.00274,0.001924,0.003652,0.019978,-0.521436,-0.001152,-0.974851,-257.830094,0.118923,66.809764
4.4358,0.020182,-0.011413,-0.000711,-0.002733,0.001907,0.004097,0.019187,-0.521093,-0.002745,-0.974851,-257.830094,0.118923,66.809764
4.4558,0.020561,-0.01154,-0.001588,-0.00273,0.001896,0.004404,0.019187,-0.521093,-0.002745,-0.974851,-257.830094,0.118923,66.809764
4.4754,0.020341,-0.011134,-0.001435,-0.002729,0.001889,0.004614,0.019636,-0.521459,-0.001436,-0.987734,-257.832077,0.111497,66.808665
4.4957,0.020087,-0.011244,-0.00122,-0.002738,0.001906,0.004095,0.019612,-0.521317,-0.001418,-0.987734,-257.832077,0.111497,66.808665
4.5156,0.019876,-0.011586,9e-05,-0.002743,0.001916,0.003741,0.019425,-0.521214,-0.001159,-1.045443,-257.833046,0.186452,66.808152
4.5357,0.020299,-0.011384,-0.000701,-0.002758,0.001948,0.002658,0.019877,-0.521553,-1.6e-05,-1.045443,-257.833046,0.186452,66.808152
4.5557,0.020109,-0.011262,-0.001445,-0.002762,0.001964,0.001908,0.019877,-0.521553,-1.6e-05,-1.045443,-257.833046,0.186452,66.808152
4.5758,0.020063,-0.011056,-0.000728,-0.002761,0.00197,0.001393,0.019267,-0.521188,-0.001302,-0.992398,-257.834879,0.133745,66.807141
4.5958,0.019858,-0.011091,-0.000168,-0.002751,0.001945,0.001673,0.019428,-0.521126,-0.001052,-0.992398,-257.834879,0.133745,66.807141
4.6158,0.020051,-0.010742,0.000755,-0.002744,0.001927,0.00187,0.019772,-0.521091,-0.000168,-0.91749,-257.834888,0.058836,66.807134
4.6359,0.020192,-0.011266,-0.001943,-0.002776,0.001908,0.000964,0.02038,-0.520771,0.000678,-0.91749,-257.834888,0.058836,66.807134
4.656,0.020391,-0.011201,-0.001645,-0.002796,0.001885,0.000332,0.02038,-0.520771,0.000678,-0.91749,-257.834888,0.058836,66.807134
4.6757,0.020049,-0.011159,-0.002267,-0.002809,0.001861,-0.000104,0.019536,-0.521191,-0.00163,-0.842331,-257.835122,-0.016322,66.806972
4.696,0.019835,-0.011354,-0.001091,-0.002773,0.001837,0.00107,0.019271,-0.521176,-0.001888,-0.842331,-257.835122,-0.016322,66.806972
4.716,0.019968,-0.011148,-0.001829,-0.002749,0.001824,0.001898,0.019278,-0.521354,-0.001091,-0.767495,-257.835123,-0.091158,66.80697
4.7357,0.019741,-0.011019,-0.00105,-0.00273,0.001827,0.002421,0.019056,-0.521165,-0.001765,-0.767495,-257.835123,-0.091158,66.80697
4.7561,0.019884,-0.011456,-0.000191,-0.002717,0.001833,0.002787,0.019056,-0.521165,-0.001765,-0.767495,-257.835123,-0.091158,66.80697
4.7759,0.01979,-0.011029,-0.000234,-0.002708,0.001842,0.003041,0.019709,-0.521407,-0.000133,-0.826176,-257.836213,-0.166249,66.806211
4.7954,0.019603,-0.010847,-0.000378,-0.002722,0.001868,0.002285,0.019684,-0.521246,-0.000168,-0.826176,-257.836213,-0.166249,66.806211
4.8155,0.019679,-0.011009,-0.001069,-0.002728,0.001882,0.001765,0.019366,-0.520816,-0.000333,-0.901183,-257.837144,-0.091242,66.805661
4.8355,0.01967,-0.011012,-0.001366,-0.002722,0.001877,0.001918,0.019151,-0.52099,-0.001003,-0.901183,-257.837144,-0.091242,66.805661
4.8554,0.019643,-0.01134,-0.002313,-0.002717,0.001874,0.002026,0.019151,-0.52099,-0.001003,-0.901183,-257.837144,-0.091242,66.805661
4.8756,0.019766,-0.0111,-0.001539,-0.002714,0.001872,0.002101,0.018406,-0.521303,-0.002271,-0.82619,-257.837939,-0.166238,66.805099
4.8955,0.019565,-0.011167,-0.000752,-0.002694,0.001877,0.002666,0.018638,-0.521215,-0.001963,-0.82619,-257.837939,-0.166238,66.805099
4.9157,0.01932,-0.010475,-0.002511,-0.002681,0.001885,0.003058,0.0191,-0.52111,-0.000689,-0.860478,-257.839513,-0.213682,66.804048
4.9357,0.019479,-0.010811,9e-05,-0.002679,0.001874,0.003507,0.018127,-0.520526,-0.00235,-0.860478,-257.839513,-0.213682,66.804048
4.9558,0.01959,-0.011303,8.2e-05,-0.00268,0.001869,0.003817,0.018127,-0.520526,-0.00235,-0.860478,-257.839513,-0.213682,66.804048
4.9757,0.019054,-0.011111,-0.001125,-0.002682,0.001867,0.004029,0.019582,-0.521265,0.000132,-0.935388,-257.840324,-0.138771,66.803577
4.9959,0.019772,-0.011148,-0.000856,-0.002699,0.001905,0.00308,0.019127,-0.521198,-0.000374,-0.935388,-257.840324,-0.138771,66.803577
5.0159,0.019327,-0.010769,-0.000483,-0.002708,0.001928,0.002431,0.019326,-0.521139,-0.000844,-1.010289,-257.840553,-0.06387,66.803453
5.0359,0.019412,-0.011064,0.000819,-0.002717,0.001923,0.002077,0.019102,-0.5208,-0.000513,-1.010289,-257.840553,-0.06387,66.803453
5.0559,0.019357,-0.010739,-0.000743,-0.002722,0.001915,0.001836,0.019102,-0.5208,-0.000513,-1.010289,-257.840553,-0.06387,66.803453
5.0758,0.019272,-0.010625,-0.001162,-0.002724,0.001907,0.001672,0.0189,-0.520681,-0.000668,-0.935188,-257.84178,-0.138971,66.802681
5.096,0.019403,-0.010886,-0.000322,-0.002722,0.001892,0.001784,0.018801,-0.520652,-0.00086,-0.935188,-257.84178,-0.138971,66.802681
5.1158,0.019616,-0.010635,0.001107,-0.002721,0.001881,0.00186,0.019196,-0.520857,-0.00029,-0.860283,-257.842577,-0.213877,66.80211
5.1356,0.019578,-0.010861,-0.000538,-0.002758,0.001876,0.00079,0.020105,-0.52065,0.001004,-0.860283,-257.842577,-0.213877,66.80211
5.1561,0.019175,-0.010699,-7.7e-05,-0.002782,0.001864,4.1e-05,0.020105,-0.52065,0.001004,-0.860283,-257.842577,-0.213877,66.80211
5.176,0.019102,-0.010799,0.000358,-0.002796,0.001848,-0.000481,0.019028,-0.520625,-4e-06,-0.837064,-257.844108,-0.267313,66.801047
5.1963,0.018927,-0.010659,-0.001757,-0.002781,0.001838,-0.000332,0.019119,-0.520686,0.00015,-0.837064,-257.844108,-0.267313,66.801047
5.2157,0.01902,-0.011017,-0.000555,-0.002769,0.001831,-0.000228,0.01803,-0.520657,-0.001756,-0.76249,-257.844127,-0.341887,66.801026
5.2362,0.019028,-0.010419,-0.001354,-0.002741,0.001834,0.000345,0.018677,-0.520986,-0.000657,-0.76249,-257.844127,-0.341887,66.801026
5.2562,0.018385,-0.0107,0.001616,-0.00272,0.001841,0.000742,0.018677,-0.520986,-0.000657,-0.76249,-257.844127,-0.341887,66.801026
5.276,0.018786,-0.010593,0.000389,-0.002706,0.00185,0.001018,0.019193,-0.520689,0.001619,-0.687341,-257.844306,-0.417036,66.800839
5.2957,0.018555,-0.010697,0.000402,-0.002728,0.001866,0.000148,0.019106,-0.520649,0.001118,-0.687341,-257.844306,-0.417036,66.800839
5.3159,0.018627,-0.010597,-0.000885,-0.002741,0.001872,-0.000462,0.018678,-0.520641,0.000433,-0.740253,-257.845707,-0.426134,66.799703
5.3363,0.018524,-0.010576,-0.000686,-0.002718,0.001857,0.000257,0.018215,-0.520598,-0.000769,-0.740253,-257.845707,-0.426134,66.799703
5.3564,0.018502,-0.010792,-0.000366,-0.002703,0.00185,0.000755,0.018215,-0.520598,-0.000769,-0.740253,-257.845707,-0.426134,66.799703
5.3757,0.018389,-0.01031,-0.000324,-0.002693,0.001849,0.001099,0.018294,-0.520777,-0.000364,-0.665162,-257.845945,-0.501225,66.799441
5.396,0.018493,-0.010343,7.2e-05,-0.002689,0.001856,0.001093,0.018263,-0.520585,-0.000347,-0.665162,-257.845945,-0.501225,66.799441
5.4157,0.018162,-0.010341,-7.3e-05,-0.002686,0.001861,0.001087,0.018463,-0.520297,9.8e-05,-0.740071,-257.847098,-0.426315,66.798522
5.436,0.018357,-0.010831,0.000236,-0.002691,0.001863,0.0009,0.01815,-0.520335,-5.7e-05,-0.740071,-257.847098,-0.426315,66.798522
5.4562,0.018221,-0.010568,-0.000155,-0.002693,0.001863,0.00077,0.01815,-0.520335,-5.7e-05,-0.740071,-257.847098,-0.426315,66.798522
5.4756,0.018102,-0.010164,6.3e-05,-0.002695,0.001862,0.000679,0.018029,-0.52049,-0.000109,-0.754534,-257.848566,-0.419272,66.797352
5.4958,0.018398,-0.010292,0.001794,-0.002694,0.001864,0.000602,0.018059,-0.520351,-3.5e-05,-0.754534,-257.848566,-0.419272,66.797352
5.5154,0.018266,-0.010285,0.001444,-0.002692,0.001865,0.000549,0.019237,-0.52024,0.001813,-0.701584,-257.849801,-0.492825,66.79628
5.5356,0.018096,-0.010492,-0.000104,-0.002726,0.001863,-0.000361,0.01902,-0.520278,0.001478,-0.701584,-257.849801,-0.492825,66.79628
5.5557,0.017951,-0.010442,-6.2e-05,-0.002748,0.001854,-0.000999,0.01902,-0.520278,0.001478,-0.701584,-257.849801,-0.492825,66.79628
5.5756,0.018152,-0.010139,-0.000201,-0.002761,0.001842,-0.001447,0.017808,-0.520364,-3.9e-05,-0.685144,-257.851176,-0.516811,66.795056
5.5955,0.018153,-0.010312,-0.001537,-0.002738,0.001827,-0.000815,0.017893,-0.520264,-0.000102,-0.685144,-257.851176,-0.516811,66.795056
5.6158,0.018119,-0.010456,-0.00062,-0.002721,0.001819,-0.00038,0.017365,-0.520308,-0.001538,-0.61002,-257.851227,-0.591935,66.794988
5.636,0.018163,-0.010439,-0.000901,-0.0027,0.001816,0.000282,0.017765,-0.520443,-0.000698,-0.61002,-257.851227,-0.591935,66.794988
5.6559,0.018279,-0.010203,-0.001777,-0.002686,0.001819,0.00074,0.017765,-0.520443,-0.000698,-0.61002,-257.851227,-0.591935,66.794988
5.6762,0.018164,-0.01047,0.000322,-0.002676,0.001826,0.001055,0.017276,-0.520136,-0.00179,-0.53501,-257.852304,-0.645922,66.793823
5.6958,0.018111,-0.009921,-0.000961,-0.002672,0.001823,0.001407,0.017693,-0.520265,-0.000931,-0.53501,-257.852304,-0.645922,66.793823
5.7154,0.018419,-0.009936,0.001442,-0.00267,0.001825,0.001649,0.017603,-0.519909,-0.000958,-0.609872,-257.852608,-0.57106,66.793579
5.7355,0.017982,-0.009921,-0.000226,-0.002718,0.001819,0.00054,0.019015,-0.519932,0.001228,-0.609872,-257.852608,-0.57106,66.793579
5.7555,0.018129,-0.010376,-0.000554,-0.00275,0.001806,-0.000238,0.019015,-0.519932,0.001228,-0.609872,-257.852608,-0.57106,66.793579
5.7757,0.018311,-0.010223,-0.000418,-0.002772,0.00179,-0.000783,0.017829,-0.520364,-0.000549,-0.684916,-257.852842,-0.496016,66.793411
5.7958,0.01797,-0.010265,0.000657,-0.002747,0.001784,-0.000118,0.017937,-0.520305,-0.000494,-0.684916,-257.852842,-0.496016,66.793411
5.8157,0.018047,-0.010076,0.00076,-0.002729,0.001783,0.00034,0.018287,-0.520253,0.000656,-0.609812,-257.853107,-0.57112,66.793102
5.8357,0.018053,-0.010276,-0.000272,-0.002741,0.00179,-0.000113,0.018421,-0.52009,0.000751,-0.609812,-257.853107,-0.57112,66.793102
5.8558,0.018001,-0.010128,-0.00052,-0.002747,0.001791,-0.000428,0.018421,-0.52009,0.000751,-0.609812,-257.853107,-0.57112,66.793102
5.8759,0.017769,-0.009705,-0.002049,-0.002749,0.00179,-0.000648,0.017627,-0.520056,-0.000506,-0.630272,-257.8544,-0.523492,66.791896
5.8962,0.017777,-0.010085,-0.000155,-0.002724,0.001773,0.000331,0.017248,-0.519905,-0.001131,-0.630272,-257.8544,-0.523492,66.791896
5.9156,0.017891,-0.010142,-0.001277,-0.002709,0.001767,0.001014,0.017657,-0.520059,-0.000159,-0.555369,-257.854971,-0.598395,66.791245
5.9355,0.017554,-0.009765,-0.00059,-0.002694,0.001776,0.001513,0.017275,-0.520133,-0.001177,-0.555369,-257.854971,-0.598395,66.791245
5.9556,0.017586,-0.010036,-0.000519,-0.002684,0.001787,0.001857,0.017275,-0.520133,-0.001177,-0.555369,-257.854971,-0.598395,66.791245
5.9757,0.017877,-0.00978,-0.000369,-0.002677,0.0018,0.002093,0.017282,-0.520011,-0.000511,-0.630374,-257.855463,-0.52339,66.790844
5.9959,0.017554,-0.009659,-0.000751,-0.002684,0.001813,0.001828,0.017443,-0.519914,-0.000453,-0.630374,-257.855463,-0.52339,66.790844
6.0156,0.017364,-0.009691,0.00031,-0.002689,0.001822,0.001645,0.017165,-0.519654,-0.000748,-0.70537,-257.855584,-0.448394,66.790763
6.0359,0.017652,-0.009918,-0.000629,-0.002706,0.001828,0.001102,0.017491,-0.519687,0.000219,-0.70537,-257.855584,-0.448394,66.790763
6.0556,0.017452,-0.009611,0.001025,-0.002717,0.001829,0.000727,0.017491,-0.519687,0.000219,-0.70537,-257.855584,-0.448394,66.790763
6.0757,0.017677,-0.009786,-0.001559,-0.002723,0.001827,0.000469,0.01791,-0.519565,0.001059,-0.780468,-257.85648,-0.373296,66.790118
6.0956,0.017373,-0.009949,-0.00218,-0.002725,0.001817,0.000427,0.017486,-0.519649,2e-06,-0.780468,-257.85648,-0.373296,66.790118
6.1156,0.01764,-0.009648,0.00042,-0.002727,0.00181,0.000399,0.016212,-0.519915,-0.002167,-0.705558,-257.857271,-0.448206,66.789399
6.1354,0.017379,-0.009789,0.001493,-0.002732,0.001802,0.00026,0.017706,-0.51967,0.000193,-0.705558,-257.857271,-0.448206,66.789399
6.1559,0.01708,-0.009638,-0.000549,-0.002735,0.001794,0.000165,0.017706,-0.51967,0.000193,-0.705558,-257.857271,-0.448206,66.789399
6.1759,0.017338,-0.009801,-0.0012,-0.002737,0.001787,9.9e-05,0.016701,-0.519572,-0.000535,-0.645453,-257.858454,-0.52135,66.78831
6.1962,0.017417,-0.009724,-0.000166,-0.002717,0.001789,0.000667,0.0167,-0.519658,-0.000805,-0.645453,-257.858454,-0.52135,66.78831
6.2161,0.017237,-0.010125,-0.000757,-0.002703,0.001795,0.001059,0.017251,-0.519671,-0.000163,-0.593847,-257.859686,-0.56279,66.787102
6.2362,0.017294,-0.009442,0.000283,-0.002687,0.001819,0.001272,0.016882,-0.520082,-0.000705,-0.593847,-257.859686,-0.56279,66.787102
6.2562,0.017308,-0.009804,-0.00031,-0.002674,0.00184,0.001418,0.016882,-0.520082,-0.000705,-0.593847,-257.859686,-0.56279,66.787102
6.2758,0.017195,-0.009596,0.001183,-0.002665,0.001859,0.001519,0.017094,-0.519767,-0.000296,-0.668868,-257.860384,-0.487769,66.78654
6.2958,0.017263,-0.009772,0.001222,-0.002684,0.001862,0.00098,0.017361,-0.519697,0.000278,-0.668868,-257.860384,-0.487769,66.78654
6.3155,0.016997,-0.009641,0.001318,-0.002696,0.00186,0.000607,0.017842,-0.519741,0.001241,-0.743786,-257.861167,-0.412851,66.785966
6.3361,0.016903,-0.009694,0.001643,-0.002725,0.001862,-0.000242,0.017682,-0.519647,0.001313,-0.743786,-257.861167,-0.412851,66.785966
6.3559,0.016937,-0.009715,-0.000154,-0.002743,0.001856,-0.000836,0.017682,-0.519647,0.001313,-0.743786,-257.861167,-0.412851,66.785966
6.376,0.017035,-0.00985,0.001051,-0.002754,0.001846,-0.001251,0.016764,-0.519651,-0.000131,-0.691242,-257.862335,-0.487955,66.784938
6.3959,0.017226,-0.00936,0.000131,-0.002737,0.001837,-0.000973,0.017082,-0.519725,0.000353,-0.691242,-257.862335,-0.487955,66.784938
6.4159,0.01701,-0.009371,0.001385,-0.002725,0.00183,-0.000781,0.017287,-0.519356,0.00013,-0.616341,-257.862406,-0.562856,66.784848
6.4357,0.016894,-0.009795,-0.000991,-0.002744,0.001814,-0.001193,0.017679,-0.519369,0.001276,-0.616341,-257.862406,-0.562856,66.784848
6.4564,0.016913,-0.009431,0.000336,-0.002756,0.001797,-0.00148,0.017679,-0.519369,0.001276,-0.616341,-257.862406,-0.562856,66.784848
6.4756,0.016966,-0.009479,-0.00205,-0.002764,0.00178,-0.00168,0.017027,-0.519391,0.000327,-0.541229,-257.863009,-0.637968,66.78414
6.496,0.016813,-0.009096,0.000846,-0.002735,0.001763,-0.00069,0.016597,-0.51942,-0.000584,-0.541229,-257.863009,-0.637968,66.78414
6.5155,0.016605,-0.009781,-0.000206,-0.002716,0.001756,-2e-06,0.017227,-0.519083,0.00084,-0.466251,-257.863238,-0.712945,66.783825
6.5365,0.01649,-0.009135,0.002069,-0.0027,0.001777,0.000186,0.016562,-0.51972,-0.000116,-0.466251,-257.863238,-0.712945,66.783825
6.556,0.017174,-0.009312,-0.0007,-0.002688,0.001796,0.000314,0.016562,-0.51972,-0.000116,-0.466251,-257.863238,-0.712945,66.783825
6.5759,0.01672,-0.009345,-0.001488,-0.002679,0.001812,0.000402,0.016748,-0.519265,-0.000705,-0.541277,-257.864026,-0.63792,66.783037
6.5956,0.016885,-0.009456,-0.000257,-0.002675,0.001794,0.001,0.01643,-0.519291,-0.001015,-0.541277,-257.864026,-0.63792,66.783037
6.6156,0.016511,-0.009185,-0.000196,-0.002675,0.001783,0.001414,0.016697,-0.519418,-0.000252,-0.616156,-257.864936,-0.563041,66.782201
6.6357,0.01657,-0.009201,0.000115,-0.002684,0.001789,0.001209,0.016432,-0.519203,-0.000201,-0.616156,-257.864936,-0.563041,66.782201
6.6556,0.016811,-0.009122,-0.000221,-0.002691,0.001792,0.001067,0.016432,-0.519203,-0.000201,-0.616156,-257.864936,-0.563041,66.782201
6.6762,0.016663,-0.009571,0.001625,-0.002696,0.001793,0.000969,0.016667,-0.5191,-0.000211,-0.691283,-257.865345,-0.487914,66.781893
6.696,0.016828,-0.009001,-0.001472,-0.002714,0.001799,0.000441,0.017001,-0.51929,0.000541,-0.691283,-257.865345,-0.487914,66.781893
6.7156,0.016554,-0.008998,-0.000703,-0.002726,0.001799,7.6e-05,0.015999,-0.518949,-0.001444,-0.724175,-257.866658,-0.419294,66.780817
6.7357,0.01699,-0.008829,-0.000516,-0.002717,0.001781,0.000629,0.016174,-0.518991,-0.000768,-0.724175,-257.866658,-0.419294,66.780817
6.7558,0.01653,-0.009056,-0.00042,-0.002712,0.00177,0.001012,0.016174,-0.518991,-0.000768,-0.724175,-257.866658,-0.419294,66.780817
6.776,0.016663,-0.008998,-0.001819,-0.00271,0.001765,0.001275,0.016255,-0.519017,-0.000412,-0.649182,-257.867353,-0.494287,66.780132
6.7959,0.016763,-0.009661,-0.0008,-0.002706,0.001763,0.001587,0.016034,-0.519004,-0.000991,-0.649182,-257.867353,-0.494287,66.780132
6.8159,0.016254,-0.009016,-0.000511,-0.002704,0.001765,0.001801,0.016304,-0.519626,-0.00078,-0.724323,-257.868241,-0.419146,66.779443
6.8357,0.016379,-0.009211,-0.00074,-0.002704,0.00178,0.001676,0.016018,-0.519067,-0.000533,-0.724323,-257.868241,-0.419146,66.779443
6.856,0.016276,-0.009126,-7.3e-05,-0.002704,0.001792,0.00159,0.016018,-0.519067,-0.000533,-0.724323,-257.868241,-0.419146,66.779443
6.8764,0.016557,-0.009313,-0.000172,-0.002703,0.001801,0.00153,0.016179,-0.519085,-3.9e-05,-0.799295,-257.869073,-0.344174,66.778855
6.8959,0.015993,-0.008944,-0.002098,-0.002709,0.001812,0.001214,0.016291,-0.519173,-8.9e-05,-0.799295,-257.869073,-0.344174,66.778855
6.9154,0.01593,-0.008786,0.000179,-0.002711,0.00182,0.000996,0.014839,-0.518886,-0.002051,-0.791212,-257.870581,-0.310003,66.777742
6.9357,0.016168,-0.009056,0.00064,-0.002718,0.001814,0.000795,0.015916,-0.518792,-8e-06,-0.791212,-257.870581,-0.310003,66.777742
6.956,0.016499,-0.00906,0.000289,-0.002723,0.001809,0.000657,0.015916,-0.518792,-8e-06,-0.791212,-257.870581,-0.310003,66.777742
6.9759,0.015908,-0.009157,-0.000651,-0.002726,0.001803,0.000562,0.016557,-0.519002,0.000324,-0.730361,-257.871711,-0.38501,66.77682
6.9957,0.015996,-0.008734,0.001102,-0.002723,0.001803,0.000537,0.016144,-0.519059,-7.2e-05,-0.730361,-257.871711,-0.38501,66.77682
7.0157,0.015802,-0.008907,-0.000439,-0.002721,0.001804,0.00052,0.016489,-0.51869,0.001117,-0.667,-257.872794,-0.46003,66.775854
7.0356,0.015766,-0.008768,0.000163,-0.002714,0.001805,0.000654,0.015652,-0.518886,-0.000305,-0.667,-257.872794,-0.46003,66.775854
7.0557,0.015842,-0.008976,-0.001713,-0.002709,0.001807,0.000746,0.015652,-0.518886,-0.000305,-0.667,-257.872794,-0.46003,66.775854
7.0755,0.015757,-0.008562,-0.000284,-0.002706,0.001809,0.00081,0.014858,-0.518902,-0.001692,-0.662178,-257.874138,-0.499833,66.774647
7.0958,0.015596,-0.008393,-6.7e-05,-0.002694,0.001805,0.001332,0.015154,-0.518754,-0.001113,-0.662178,-257.874138,-0.499833,66.774647
7.1158,0.015511,-0.008689,0.000713,-0.002686,0.001805,0.001692,0.015481,-0.518339,-4.3e-05,-0.705361,-257.87547,-0.452263,66.773519
7.1358,0.015701,-0.009013,-0.000263,-0.002713,0.001814,0.000876,0.015836,-0.518656,0.000649,-0.705361,-257.87547,-0.452263,66.773519
7.1558,0.015538,-0.009166,0.000842,-0.00273,0.001815,0.000308,0.015836,-0.518656,0.000649,-0.705361,-257.87547,-0.452263,66.773519
7.1757,0.015491,-0.008606,-0.000508,-0.002741,0.001812,-8.5e-05,0.01591,-0.519126,0.000873,-0.780419,-257.876273,-0.377205,66.772945
7.1963,0.015291,-0.008828,0.000968,-0.002732,0.001818,-0.000152,0.015627,-0.51891,0.000315,-0.780419,-257.876273,-0.377205,66.772945
7.2167,0.015777,-0.008513,0.000132,-0.002724,0.001823,-0.000199,0.015765,-0.518815,0.000972,-0.705507,-257.876567,-0.452117,66.772646
7.236,0.015449,-0.008768,-0.000625,-0.002729,0.001799,-0.00016,0.015837,-0.518538,0.000202,-0.705507,-257.876567,-0.452117,66.772646
7.2558,0.015395,-0.008733,0.000613,-0.002733,0.00178,-0.000132,0.015837,-0.518538,0.000202,-0.705507,-257.876567,-0.452117,66.772646
7.276,0.015455,-0.008538,-0.000658,-0.002737,0.001765,-0.000113,0.015656,-0.518699,0.000617,-0.63037,-257.877144,-0.527254,66.772044
7.2961,0.0154,-0.0087,0.001046,-0.002729,0.001767,-2.9e-05,0.015428,-0.518628,8.9e-05,-0.63037,-257.877144,-0.527254,66.772044
7.3161,0.015247,-0.008595,0.000107,-0.002724,0.00177,2.9e-05,0.015859,-0.518651,0.001043,-0.555333,-257.878246,-0.590528,66.770917
7.3358,0.015387,-0.008657,-0.00049,-0.00272,0.001775,7e-06,0.015346,-0.518598,0.000188,-0.555333,-257.878246,-0.590528,66.770917
7.3557,0.015333,-0.008306,-0.000149,-0.002717,0.001778,-8e-06,0.015346,-0.518598,0.000188,-0.555333,-257.878246,-0.590528,66.770917
7.3759,0.015031,-0.008296,7.3e-05,-0.002714,0.001781,-1.8e-05,0.015145,-0.518233,-0.000148,-0.580765,-257.879528,-0.571642,66.769642
7.3962,0.01501,-0.008724,0.000659,-0.002715,0.001767,0.000128,0.015101,-0.518251,-5.7e-05,-0.580765,-257.879528,-0.571642,66.769642
7.4163,0.014974,-0.008493,0.000961,-0.002717,0.001758,0.000229,0.01526,-0.518667,0.000659,-0.577762,-257.880821,-0.583406,66.768345
7.4363,0.015316,-0.008165,0.000163,-0.002729,0.001772,-0.000303,0.01544,-0.518506,0.000932,-0.577762,-257.880821,-0.583406,66.768345
7.4561,0.014623,-0.008142,0.0013,-0.002736,0.001779,-0.000673,0.01544,-0.518506,0.000932,-0.577762,-257.880821,-0.583406,66.768345
7.4758,0.014319,-0.00858,0.000727,-0.00274,0.001781,-0.00093,0.015178,-0.518072,0.001309,-0.609838,-257.882082,-0.537109,66.767142
7.4957,0.014785,-0.008345,0.001229,-0.002742,0.001784,-0.001188,0.014964,-0.518274,0.001069,-0.609838,-257.882082,-0.537109,66.767142
7.5156,0.014855,-0.008236,0.000603,-0.002741,0.001785,-0.001367,0.015382,-0.518325,0.001225,-0.534794,-257.88249,-0.612153,66.76665
7.5356,0.014802,-0.008407,0.000465,-0.002738,0.001768,-0.001247,0.015181,-0.518243,0.000658,-0.534794,-257.88249,-0.612153,66.76665
7.5557,0.014813,-0.008325,0.000621,-0.002736,0.001755,-0.001164,0.015181,-0.518243,0.000658,-0.534794,-257.88249,-0.612153,66.76665
7.5757,0.014673,-0.008223,0.000583,-0.002735,0.001745,-0.001107,0.015087,-0.518297,0.000607,-0.459864,-257.88291,-0.687083,66.766101
7.5958,0.01444,-0.008225,-0.000554,-0.00273,0.001742,-0.001029,0.015034,-0.518263,0.000595,-0.459864,-257.88291,-0.687083,66.766101
7.6154,0.014858,-0.008281,-0.000488,-0.002727,0.001739,-0.000976,0.014082,-0.518176,-0.000584,-0.384803,-257.883926,-0.724565,66.764837
7.6357,0.014843,-0.008009,0.000667,-0.002708,0.001734,-0.000259,0.01456,-0.51827,-0.000498,-0.384803,-257.883926,-0.724565,66.764837
7.6556,0.014725,-0.007954,0.000968,-0.002696,0.001734,0.000237,0.01456,-0.51827,-0.000498,-0.384803,-257.883926,-0.724565,66.764837
7.6754,0.014412,-0.008156,0.000439,-0.002688,0.001739,0.00058,0.015106,-0.517881,0.000928,-0.397012,-257.885101,-0.708148,66.763411
7.6956,0.014542,-0.007768,0.000429,-0.00271,0.001742,6.4e-05,0.014899,-0.517986,0.000722,-0.397012,-257.885101,-0.708148,66.763411
7.7155,0.014344,-0.007969,0.000749,-0.002725,0.00174,-0.000295,0.014749,-0.517761,0.000428,-0.471988,-257.885284,-0.633172,66.763248
7.7355,0.014494,-0.007903,0.000187,-0.002734,0.001738,-0.000543,0.014728,-0.517949,0.00072,-0.471988,-257.885284,-0.633172,66.763248
7.7557,0.014104,-0.007927,0.000179,-0.002739,0.001735,-0.000715,0.014728,-0.517949,0.00072,-0.471988,-257.885284,-0.633172,66.763248
7.7754,0.014495,-0.007645,-8.3e-05,-0.002742,0.001731,-0.000835,0.014087,-0.517857,0.000167,-0.519869,-257.886487,-0.613688,66.761971
7.7956,0.014518,-0.007756,0.00171,-0.002734,0.001721,-0.00051,0.014225,-0.517762,6.3e-05,-0.519869,-257.886487,-0.613688,66.761971
7.8153,0.01439,-0.008097,0.001221,-0.002729,0.001715,-0.000286,0.015322,-0.517711,0.001691,-0.444902,-257.887427,-0.685143,66.760862
7.8356,0.014193,-0.007769,-0.001511,-0.002745,0.001725,-0.000843,0.015036,-0.518061,0.001261,-0.444902,-257.887427,-0.685143,66.760862
7.8557,0.014437,-0.00796,0.000611,-0.002755,0.001729,-0.001232,0.015036,-0.518061,0.001261,-0.444902,-257.887427,-0.685143,66.760862
7.8757,0.014197,-0.007739,-0.000402,-0.002761,0.001728,-0.001503,0.014654,-0.5179,0.000601,-0.513866,-257.888477,-0.610132,66.75975
7.8956,0.014288,-0.007679,0.001235,-0.002747,0.001714,-0.001045,0.01437,-0.517827,0.000186,-0.513866,-257.888477,-0.610132,66.75975
7.9158,0.014254,-0.007648,-0.000475,-0.002738,0.001706,-0.000729,0.014892,-0.517662,0.001226,-0.438837,-257.888816,-0.68516,66.7593
7.9358,0.014316,-0.007757,0.001333,-0.002729,0.001691,-0.000188,0.014085,-0.517648,-0.000331,-0.438837,-257.888816,-0.68516,66.7593
7.9557,0.014335,-0.007847,9.2e-05,-0.002724,0.001684,0.000185,0.014085,-0.517648,-0.000331,-0.438837,-257.888816,-0.68516,66.7593
7.9755,0.01416,-0.007674,-0.000939,-0.002722,0.001681,0.000442,0.014268,-0.517776,6.2e-05,-0.431535,-257.890013,-0.665927,66.757917
7.9956,0.014151,-0.007749,0.000478,-0.002718,0.001688,0.000634,0.014012,-0.517725,-0.000355,-0.431535,-257.890013,-0.665927,66.757917
8.0158,0.014008,-0.007529,0.00108,-0.002716,0.001695,0.000765,0.014367,-0.517732,0.000478,-0.506526,-257.890437,-0.590936,66.757529
8.0361,0.013855,-0.007648,-3.5e-05,-0.002745,0.0017,2e-05,0.01454,-0.517546,0.001027,-0.506526,-257.890437,-0.590936,66.757529
8.0557,0.01414,-0.00768,0.000608,-0.002764,0.001697,-0.000501,0.01454,-0.517546,0.001027,-0.506526,-257.890437,-0.590936,66.757529
8.0756,0.013826,-0.007896,0.000998,-0.002777,0.001691,-0.000864,0.014403,-0.517651,0.000614,-0.581438,-257.891011,-0.516024,66.757036
8.0958,0.014087,-0.007324,0.000702,-0.002773,0.001696,-0.00097,0.014368,-0.517751,0.000776,-0.581438,-257.891011,-0.516024,66.757036
8.1156,0.01355,-0.007764,-0.000511,-0.002768,0.001698,-0.001045,0.014411,-0.517303,0.000697,-0.506053,-257.891475,-0.591409,66.756489
8.1358,0.01393,-0.00775,-0.001155,-0.002738,0.001709,-0.000365,0.013388,-0.517721,-0.000402,-0.506053,-257.891475,-0.591409,66.756489
8.156,0.014097,-0.007482,-5.4e-05,-0.002716,0.001723,0.000104,0.013388,-0.517721,-0.000402,-0.506053,-257.891475,-0.591409,66.756489
8.1757,0.013918,-0.007346,-0.000233,-0.0027,0.001739,0.000428,0.014,-0.517438,-7.5e-05,-0.431481,-257.892191,-0.665981,66.755613
8.1959,0.013956,-0.007355,-0.001072,-0.002708,0.001725,0.000491,0.013908,-0.517395,-0.000143,-0.431481,-257.892191,-0.665981,66.755613
8.2158,0.013424,-0.007502,3.7e-05,-0.002715,0.001714,0.000533,0.013382,-0.517338,-0.001072,-0.506849,-257.892626,-0.590613,66.755215
8.2355,0.013768,-0.007449,-0.000547,-0.002712,0.001725,0.000511,0.013436,-0.517487,-6.1e-05,-0.506849,-257.892626,-0.590613,66.755215
8.2557,0.013764,-0.007241,-0.001046,-0.00271,0.001735,0.000495,0.013436,-0.517487,-6.1e-05,-0.506849,-257.892626,-0.590613,66.755215
8.2758,0.013919,-0.007403,0.001464,-0.002708,0.001742,0.000483,0.013163,-0.517199,-0.001039,-0.581505,-257.893428,-0.515957,66.754495
8.2961,0.013375,-0.007446,0.000291,-0.002717,0.001728,0.000447,0.013769,-0.517278,-1.6e-05,-0.581505,-257.893428,-0.515957,66.754495
8.3155,0.013523,-0.007296,0.000112,-0.002725,0.001717,0.000421,0.013443,-0.517394,0.000305,-0.644989,-257.894686,-0.490781,66.753355
8.3361,0.013383,-0.007546,-0.000524,-0.002728,0.001719,0.000311,0.013563,-0.517303,0.000131,-0.644989,-257.894686,-0.490781,66.753355
8.3557,0.013462,-0.00751,-0.001271,-0.00273,0.001719,0.000235,0.013563,-0.517303,0.000131,-0.644989,-257.894686,-0.490781,66.753355
8.3757,0.0132,-0.007428,4.6e-05,-0.002731,0.001719,0.000183,0.012701,-0.517438,-0.001253,-0.627005,-257.896027,-0.491849,66.752123
8.3961,0.013337,-0.007337,-0.001302,-0.002711,0.00173,0.000666,0.012904,-0.517426,-0.000714,-0.627005,-257.896027,-0.491849,66.752123
8.4162,0.01356,-0.00722,-0.000391,-0.002698,0.001743,0.001001,0.01259,-0.517284,-0.001296,-0.590392,-257.897282,-0.531906,66.750914
8.4355,0.013207,-0.007244,-0.001979,-0.002703,0.001735,0.001082,0.013291,-0.517223,-0.000467,-0.590392,-257.897282,-0.531906,66.750914
8.4554,0.013241,-0.007269,0.001642,-0.002709,0.00173,0.001138,0.013291,-0.517223,-0.000467,-0.590392,-257.897282,-0.531906,66.750914
8.4758,0.013259,-0.006768,0.000201,-0.002713,0.001726,0.001176,0.014013,-0.517226,0.00166,-0.665401,-257.898108,-0.456898,66.750239
8.4959,0.013369,-0.007006,-0.00036,-0.002749,0.001723,0.000285,0.013737,-0.517033,0.001061,-0.665401,-257.898108,-0.456898,66.750239
8.5156,0.013081,-0.007159,0.000946,-0.002772,0.001715,-0.000338,0.013117,-0.516962,-0.000332,-0.733305,-257.899259,-0.381938,66.749326
8.5358,0.013145,-0.007035,-0.001052,-0.002778,0.001712,-0.000647,0.013522,-0.51714,0.00084,-0.733305,-257.899259,-0.381938,66.749326
8.5565,0.013003,-0.007129,0.002803,-0.002781,0.001707,-0.000861,0.013522,-0.51714,0.00084,-0.733305,-257.899259,-0.381938,66.749326
8.5762,0.013154,-0.006932,0.00043,-0.002782,0.001701,-0.00101,0.014411,-0.517114,0.002806,-0.658265,-257.899489,-0.456979,66.749081
8.596,0.012957,-0.007131,0.000383,-0.002805,0.00169,-0.001642,0.013984,-0.517038,0.001835,-0.658265,-257.899489,-0.456979,66.749081
8.6156,0.013003,-0.006973,-0.001837,-0.002819,0.001676,-0.002084,0.013143,-0.517125,0.000383,-0.583311,-257.899615,-0.531932,66.748928
8.636,0.012916,-0.007629,-0.001512,-0.002765,0.001668,-0.000455,0.012163,-0.516986,-0.001637,-0.583311,-257.899615,-0.531932,66.748928
8.6557,0.012957,-0.007069,0.000408,-0.002729,0.001669,0.000705,0.012163,-0.516986,-0.001637,-0.583311,-257.899615,-0.531932,66.748928
8.6755,0.012909,-0.007133,0.00012,-0.002706,0.001676,0.001522,0.013163,-0.517069,0.000407,-0.508427,-257.899628,-0.606816,66.748909
8.6956,0.013174,-0.006998,4.1e-05,-0.002719,0.001699,0.000965,0.013083,-0.517095,0.000289,-0.508427,-257.899628,-0.606816,66.748909
8.7158,0.013067,-0.006961,-0.000121,-0.002727,0.001712,0.000582,0.013191,-0.516995,4.2e-05,-0.583535,-257.899707,-0.531709,66.74885
8.7356,0.01278,-0.006788,-0.000979,-0.00273,0.001708,0.000566,0.013021,-0.516963,-0.000107,-0.583535,-257.899707,-0.531709,66.74885
8.7557,0.013454,-0.007051,-0.000872,-0.002732,0.001705,0.000555,0.013021,-0.516963,-0.000107,-0.583535,-257.899707,-0.531709,66.74885
8.7756,0.012504,-0.007086,0.001987,-0.002733,0.001702,0.000549,0.01291,-0.516989,-0.000851,-0.648695,-257.90089,-0.461785,66.747797
8.7955,0.012764,-0.00678,0.000313,-0.002739,0.001706,0.00029,0.013145,-0.51702,0.0003,-0.648695,-257.90089,-0.461785,66.747797
8.8159,0.012918,-0.006794,-0.000339,-0.002743,0.001708,0.000111,0.012836,-0.516726,0.00033,-0.640535,-257.902252,-0.463775,66.746576
8.8358,0.012303,-0.006909,0.000513,-0.00274,0.001697,0.000351,0.012748,-0.516785,-0.000281,-0.640535,-257.902252,-0.463775,66.746576
8.8558,0.012709,-0.006906,-0.001119,-0.002738,0.00169,0.000517,0.012748,-0.516785,-0.000281,-0.640535,-257.902252,-0.463775,66.746576
8.8762,0.012623,-0.006898,-0.000159,-0.002738,0.001686,0.000632,0.012041,-0.516844,-0.001115,-0.574569,-257.903365,-0.538792,66.745487
8.896,0.012973,-0.006568,5.3e-05,-0.002722,0.001698,0.000979,0.012235,-0.516859,-0.000723,-0.574569,-257.903365,-0.538792,66.745487
8.9158,0.012562,-0.006735,-0.000571,-0.002712,0.001711,0.001219,0.012932,-0.516525,6.8e-05,-0.647804,-257.904455,-0.463796,66.744525
8.936,0.01233,-0.006871,0.000966,-0.002713,0.001715,0.00126,0.012323,-0.516715,-0.000517,-0.647804,-257.904455,-0.463796,66.744525
8.9563,0.012398,-0.006761,0.001856,-0.002713,0.001718,0.001288,0.012323,-0.516715,-0.000517,-0.647804,-257.904455,-0.463796,66.744525
8.9758,0.012521,-0.006749,2.6e-05,-0.002714,0.001721,0.001307,0.013265,-0.516709,0.001888,-0.722846,-257.905474,-0.388754,66.743724
8.9961,0.012193,-0.006856,-0.0014,-0.002747,0.00173,0.000332,0.012962,-0.516719,0.001141,-0.722846,-257.905474,-0.388754,66.743724
9.0159,0.011983,-0.006418,-0.000317,-0.002768,0.00173,-0.00035,0.011398,-0.516804,-0.001362,-0.748085,-257.906856,-0.327668,66.742653
9.036,0.012446,-0.006588,0.001011,-0.00275,0.001722,0.000112,0.01178,-0.516448,-0.000405,-0.748085,-257.906856,-0.327668,66.742653
9.0559,0.011999,-0.006761,0.000519,-0.002738,0.001718,0.00043,0.01178,-0.516448,-0.000405,-0.748085,-257.906856,-0.327668,66.742653
9.0757,0.01214,-0.006747,0.001038,-0.002729,0.001718,0.000649,0.012252,-0.516754,0.000521,-0.672963,-257.906983,-0.40279,66.742518
9.0961,0.011943,-0.006457,0.001114,-0.002738,0.001736,0.0001,0.012421,-0.51675,0.000732,-0.672963,-257.906983,-0.40279,66.742518
9.1158,0.011708,-0.006443,0.001296,-0.002743,0.001746,-0.000282,0.012428,-0.516404,0.001134,-0.659272,-257.908311,-0.451042,66.741351
9.136,0.012069,-0.006714,0.00012,-0.002762,0.001738,-0.000858,0.01237,-0.516436,0.001283,-0.659272,-257.908311,-0.451042,66.741351
9.1559,0.012178,-0.006708,0.000577,-0.002774,0.001727,-0.00126,0.01237,-0.516436,0.001283,-0.659272,-257.908311,-0.451042,66.741351
9.1757,0.01159,-0.00624,1.3e-05,-0.002781,0.001715,-0.00154,0.012415,-0.516673,0.000578,-0.584157,-257.908929,-0.526156,66.740697
9.1956,0.012267,-0.006775,5.3e-05,-0.002765,0.0017,-0.001176,0.01207,-0.51649,0.000344,-0.584157,-257.908929,-0.526156,66.740697
9.2154,0.011914,-0.006408,-0.000387,-0.002754,0.001691,-0.000924,0.012286,-0.51677,5.1e-05,-0.509135,-257.909025,-0.601178,66.740569
9.2357,0.011774,-0.006783,0.001076,-0.002737,0.001681,-0.000318,0.011765,-0.516439,-0.00035,-0.509135,-257.909025,-0.601178,66.740569
9.2557,0.011989,-0.006524,-0.000545,-0.002726,0.001677,0.000102,0.011765,-0.516439,-0.00035,-0.509135,-257.909025,-0.601178,66.740569
9.2757,0.011761,-0.006151,0.00107,-0.002718,0.001678,0.000391,0.01163,-0.516473,-0.000569,-0.434129,-257.909862,-0.676184,66.739568
9.2957,0.01207,-0.006307,0.000735,-0.002723,0.001676,0.000314,0.011894,-0.516337,9.1e-05,-0.434129,-257.909862,-0.676184,66.739568
9.3159,0.011821,-0.006341,-8.2e-05,-0.002727,0.001675,0.000261,0.012416,-0.516289,0.000734,-0.508987,-257.910306,-0.601327,66.739157
9.3356,0.011736,-0.006201,-9.8e-05,-0.002727,0.001674,0.000286,0.011835,-0.516336,-9e-06,-0.508987,-257.910306,-0.601327,66.739157
9.3561,0.011675,-0.006613,0.000804,-0.002728,0.001673,0.000303,0.011835,-0.516336,-9e-06,-0.508987,-257.910306,-0.601327,66.739157
9.3757,0.01158,-0.006404,0.001414,-0.002728,0.001673,0.000315,0.011997,-0.516558,0.00081,-0.583986,-257.911328,-0.526328,66.738186
9.3959,0.012003,-0.006295,0.000949,-0.002743,0.001693,-0.00032,0.012112,-0.516488,0.001059,-0.583986,-257.911328,-0.526328,66.738186
9.4155,0.011357,-0.006123,-0.000485,-0.002751,0.001703,-0.000762,0.012402,-0.516242,0.000959,-0.5997,-257.912627,-0.497275,66.736966
9.4356,0.011526,-0.00636,0.001413,-0.002735,0.001691,-0.000202,0.011217,-0.516131,-0.000359,-0.5997,-257.912627,-0.497275,66.736966
9.4557,0.011495,-0.006133,-0.001018,-0.002724,0.001686,0.000185,0.011217,-0.516131,-0.000359,-0.5997,-257.912627,-0.497275,66.736966
9.4758,0.011684,-0.006246,-0.000454,-0.002717,0.001685,0.000452,0.010931,-0.516106,-0.001023,-0.524736,-257.913084,-0.572238,66.736436
9.4959,0.011622,-0.005958,0.000438,-0.002705,0.001688,0.000896,0.011139,-0.51616,-0.000792,-0.524736,-257.913084,-0.572238,66.736436
9.5156,0.011392,-0.006438,0.000659,-0.002697,0.001693,0.001201,0.011781,-0.515919,0.000446,-0.599643,-257.914076,-0.497332,66.73553
9.5357,0.011355,-0.005955,0.000607,-0.002712,0.001719,0.000534,0.01173,-0.516391,0.000641,-0.599643,-257.914076,-0.497332,66.73553
9.5559,0.011469,-0.006343,-0.001508,-0.00272,0.001734,7.1e-05,0.01173,-0.516391,0.000641,-0.599643,-257.914076,-0.497332,66.73553
9.5756,0.011205,-0.00593,-0.000258,-0.002724,0.001743,-0.000251,0.010642,-0.516306,-0.001489,-0.674779,-257.914816,-0.422196,66.734946
9.5959,0.011573,-0.006286,0.001273,-0.002702,0.001735,0.000513,0.010812,-0.516147,-0.000982,-0.674779,-257.914816,-0.422196,66.734946
9.6157,0.011323,-0.005972,-0.000517,-0.002687,0.001733,0.001044,0.012187,-0.516264,0.001276,-0.599778,-257.915329,-0.497197,66.734407
9.6361,0.011301,-0.005814,-0.000975,-0.002693,0.001726,0.001041,0.011154,-0.515996,-0.000363,-0.599778,-257.915329,-0.497197,66.734407
9.6564,0.011337,-0.006015,-0.002096,-0.002699,0.00172,0.00104,0.011154,-0.515996,-0.000363,-0.599778,-257.915329,-0.497197,66.734407
9.6763,0.011639,-0.006307,0.00061,-0.002703,0.001715,0.001039,0.010195,-0.515967,-0.002073,-0.674771,-257.916254,-0.422204,66.733657
9.6958,0.011153,-0.005947,0.001575,-0.002693,0.001719,0.001402,0.010904,-0.516101,-0.000974,-0.674771,-257.916254,-0.422204,66.733657
9.7158,0.011018,-0.005643,0.000608,-0.002686,0.001725,0.001653,0.011874,-0.515895,0.001607,-0.715653,-257.917611,-0.38047,66.732555
9.7358,0.010847,-0.006176,0.000234,-0.002728,0.001706,0.000812,0.011372,-0.515662,0.000696,-0.715653,-257.917611,-0.38047,66.732555
9.7557,0.01097,-0.005727,0.000108,-0.002757,0.001684,0.000228,0.011372,-0.515662,0.000696,-0.715653,-257.917611,-0.38047,66.732555
9.7759,0.010704,-0.006237,-0.001001,-0.002776,0.001662,-0.000178,0.010944,-0.515673,0.000154,-0.790649,-257.918711,-0.305473,66.731757
9.7957,0.011066,-0.005953,0.000777,-0.002754,0.001672,0.000162,0.010633,-0.515894,-0.000305,-0.790649,-257.918711,-0.305473,66.731757
9.8156,0.010928,-0.005382,0.001112,-0.002738,0.001683,0.000396,0.011454,-0.515948,0.000779,-0.715772,-257.918828,-0.38035,66.731636
9.8358,0.010828,-0.00605,0.00211,-0.002777,0.001646,-0.00028,0.011491,-0.515432,0.001083,-0.715772,-257.918828,-0.38035,66.731636
9.8557,0.010935,-0.005974,0.001514,-0.002805,0.001612,-0.000751,0.011491,-0.515432,0.001083,-0.715772,-257.918828,-0.38035,66.731636
9.8757,0.010671,-0.005587,0.000719,-0.002824,0.001581,-0.001079,0.011627,-0.515924,0.00153,-0.640706,-257.919776,-0.455416,66.730759
9.896,0.010728,-0.005669,0.000714,-0.002824,0.001586,-0.001374,0.011378,-0.515781,0.001202,-0.640706,-257.919776,-0.455416,66.730759
9.9155,0.010806,-0.005839,-0.000182,-0.002822,0.001588,-0.00158,0.011085,-0.515664,0.000714,-0.565774,-257.919877,-0.530349,66.730637
9.9358,0.011091,-0.005705,0.001122,-0.002789,0.001597,-0.000927,0.010746,-0.515823,-0.000102,-0.565774,-257.919877,-0.530349,66.730637
9.9559,0.010737,-0.00591,0.002167,-0.002764,0.001608,-0.000477,0.010746,-0.515823,-0.000102,-0.565774,-257.919877,-0.530349,66.730637
9.9756,0.01027,-0.005328,-0.000606,-0.002746,0.001621,-0.000166,0.011834,-0.515903,0.002165,-0.49077,-257.919958,-0.605352,66.730531
9.9957,0.011231,-0.005786,-0.000173,-0.00276,0.001628,-0.000645,0.011071,-0.515669,0.001038,-0.49077,-257.919958,-0.605352,66.730531
10.0158,0.010244,-0.00604,0.001052,-0.002768,0.00163,-0.000979,0.011059,-0.515736,-0.000178,-0.505373,-257.921169,-0.560221,66.72928
10.0359,0.010444,-0.005616,0.000844,-0.002752,0.001664,-0.001156,0.010801,-0.51601,0.000941,-0.505373,-257.921169,-0.560221,66.72928
10.0562,0.010588,-0.005408,0.00182,-0.002738,0.001689,-0.001279,0.010801,-0.51601,0.000941,-0.505373,-257.921169,-0.560221,66.72928
10.0764,0.010958,-0.005379,0.000751,-0.002726,0.001709,-0.001365,0.011451,-0.515368,0.001803,-0.430372,-257.921833,-0.635222,66.728481
10.0959,0.010715,-0.005862,0.001164,-0.002757,0.001657,-0.001666,0.011399,-0.515368,0.001373,-0.430372,-257.921833,-0.635222,66.728481
10.1161,0.010513,-0.005692,0.000691,-0.002781,0.001614,-0.001875,0.011252,-0.515826,0.00114,-0.355353,-257.922568,-0.71024,66.727524
10.136,0.010398,-0.005733,0.001347,-0.002767,0.001612,-0.001648,0.010897,-0.515702,0.00073,-0.355353,-257.922568,-0.71024,66.727524
10.1565,0.010651,-0.005655,-0.001168,-0.002757,0.001611,-0.001492,0.010897,-0.515702,0.00073,-0.355353,-257.922568,-0.71024,66.727524
10.1761,0.010395,-0.005663,-0.000607,-0.002749,0.001612,-0.001385,0.009995,-0.515616,-0.001203,-0.280342,-257.923155,-0.781543,66.726708
10.196,0.010253,-0.005722,0.0002,-0.002713,0.001616,-0.000283,0.010023,-0.51563,-0.000975,-0.280342,-257.923155,-0.781543,66.726708
10.2159,0.010198,-0.005439,-6.2e-05,-0.002689,0.001627,0.000488,0.010271,-0.515673,0.000157,-0.271833,-257.924247,-0.729493,66.725297
10.2361,0.010479,-0.00571,-0.002284,-0.00269,0.001637,0.000461,0.010172,-0.515458,-4.4e-05,-0.271833,-257.924247,-0.729493,66.725297
10.2563,0.010485,-0.005504,-3e-05,-0.002691,0.001646,0.000442,0.010172,-0.515458,-4.4e-05,-0.271833,-257.924247,-0.729493,66.725297
10.2762,0.009943,-0.00556,-0.000408,-0.002692,0.001653,0.000428,0.010465,-0.515501,-3.1e-05,-0.346884,-257.924302,-0.654442,66.725247
10.2961,0.010396,-0.005281,0.000645,-0.002689,0.001662,0.000506,0.010167,-0.515525,-0.000184,-0.346884,-257.924302,-0.654442,66.725247
10.3161,0.010608,-0.005536,0.000886,-0.002687,0.00167,0.000559,0.010709,-0.515272,0.000643,-0.421831,-257.924544,-0.579495,66.725025
10.3362,0.010429,-0.005678,-0.000332,-0.002718,0.001659,-4.3e-05,0.011027,-0.515511,0.000864,-0.421831,-257.924544,-0.579495,66.725025
10.3562,0.010545,-0.005407,0.00163,-0.00274,0.001645,-0.000463,0.011027,-0.515511,0.000864,-0.421831,-257.924544,-0.579495,66.725025
10.376,0.010144,-0.005314,-0.0007,-0.002756,0.001631,-0.000754,0.011334,-0.515383,0.001632,-0.496829,-257.925028,-0.504497,66.724593
10.3957,0.010464,-0.005498,-0.000296,-0.002764,0.001613,-0.00087,0.010722,-0.515353,0.000717,-0.496829,-257.925028,-0.504497,66.724593
10.4155,0.00967,-0.00514,-0.001905,-0.00277,0.001598,-0.00095,0.010258,-0.515467,-0.000307,-0.421768,-257.925768,-0.579558,66.723738
10.4362,0.009899,-0.005255,0.002606,-0.002714,0.001621,0.000393,0.008836,-0.515167,-0.001762,-0.421768,-257.925768,-0.579558,66.723738
10.4558,0.010046,-0.005326,0.000317,-0.002675,0.001645,0.001344,0.008836,-0.515167,-0.001762,-0.421768,-257.925768,-0.579558,66.723738
10.4755,0.009982,-0.005258,0.000258,-0.002648,0.00167,0.002011,0.010111,-0.515272,0.000285,-0.352172,-257.926736,-0.654501,66.722583
10.4956,0.010124,-0.005542,-0.00019,-0.002677,0.001677,0.001297,0.010101,-0.51526,0.000271,-0.352172,-257.926736,-0.654501,66.722583
10.5155,0.009731,-0.005184,0.000762,-0.002697,0.001678,0.000805,0.010027,-0.515542,-0.00019,-0.42717,-257.926736,-0.579503,66.722582
10.5356,0.010129,-0.005541,0.000114,-0.002718,0.001678,0.000222,0.010111,-0.515216,0.000678,-0.42717,-257.926736,-0.579503,66.722582
10.5564,0.009955,-0.005303,0.000479,-0.002732,0.001674,-0.000182,0.010111,-0.515216,0.000678,-0.42717,-257.926736,-0.579503,66.722582
10.5755,0.009848,-0.005104,0.000227,-0.00274,0.001667,-0.00046,0.010172,-0.515287,0.00048,-0.50222,-257.92706,-0.504452,66.722306
10.5955,0.00998,-0.005141,-0.001121,-0.002741,0.001654,-0.000468,0.010084,-0.515211,0.000378,-0.50222,-257.92706,-0.504452,66.722306
10.6153,0.009738,-0.005386,-0.000901,-0.002741,0.001644,-0.000472,0.009337,-0.515099,-0.001131,-0.46815,-257.928042,-0.579404,66.721232
10.6354,0.009877,-0.005467,-0.001274,-0.002704,0.001664,0.000316,0.00928,-0.515359,-0.000922,-0.46815,-257.928042,-0.579404,66.721232
10.6561,0.010033,-0.005102,0.001137,-0.002677,0.001685,0.000865,0.00928,-0.515359,-0.000922,-0.46815,-257.928042,-0.579404,66.721232
10.6759,0.009817,-0.00507,0.000184,-0.002659,0.001706,0.001244,0.0105,-0.515034,0.001118,-0.459335,-257.92924,-0.614022,66.719918
10.6958,0.009726,-0.005257,0.000706,-0.0027,0.001683,0.000501,0.010247,-0.515041,0.000735,-0.459335,-257.92924,-0.614022,66.719918
10.7153,0.009563,-0.004783,-0.000215,-0.00273,0.00166,-1.5e-05,0.010079,-0.515253,0.000707,-0.534255,-257.929353,-0.539102,66.71983
10.7357,0.00947,-0.005198,0.000167,-0.002732,0.001635,0.000163,0.009508,-0.514823,-0.000135,-0.534255,-257.929353,-0.539102,66.71983
10.7556,0.009818,-0.005283,0.000874,-0.002734,0.001616,0.000286,0.009508,-0.514823,-0.000135,-0.534255,-257.929353,-0.539102,66.71983
10.7757,0.009444,-0.005352,-0.000512,-0.002736,0.001602,0.000371,0.01015,-0.515214,0.000873,-0.543793,-257.930624,-0.548852,66.718556
10.7956,0.009578,-0.005124,0.000652,-0.00273,0.001628,0.000151,0.009743,-0.515262,0.00031,-0.543793,-257.930624,-0.548852,66.718556
10.8156,0.009078,-0.004528,0.000188,-0.002723,0.001648,-0.0,0.009835,-0.515079,0.000662,-0.589262,-257.931766,-0.473958,66.717493
10.8356,0.009465,-0.004761,0.00034,-0.002733,0.001622,-5.6e-05,0.009228,-0.514574,0.00023,-0.589262,-257.931766,-0.473958,66.717493
10.856,0.009683,-0.004965,0.001216,-0.00274,0.001601,-9.4e-05,0.009228,-0.514574,0.00023,-0.589262,-257.931766,-0.473958,66.717493
10.8758,0.009395,-0.004734,-7.4e-05,-0.002745,0.001584,-0.00012,0.010201,-0.514903,0.001216,-0.54403,-257.932905,-0.544113,66.716353
10.8959,0.009545,-0.004779,0.000632,-0.002761,0.001569,-0.000424,0.00985,-0.514828,0.000696,-0.54403,-257.932905,-0.544113,66.716353
10.9167,0.009612,-0.005463,-0.000342,-0.002772,0.001555,-0.000635,0.009782,-0.51473,0.000629,-0.502893,-257.934124,-0.543074,66.715105
10.9358,0.009007,-0.004873,0.00218,-0.002736,0.001594,-0.00019,0.009464,-0.515394,-0.000253,-0.502893,-257.934124,-0.543074,66.715105
10.9561,0.009224,-0.004881,0.000772,-0.002709,0.001629,0.000117,0.009464,-0.515394,-0.000253,-0.502893,-257.934124,-0.543074,66.715105
10.9758,0.009151,-0.004616,0.000177,-0.002689,0.001659,0.000329,0.009528,-0.514829,0.000754,-0.427927,-257.935062,-0.611136,66.71405
10.9958,0.009481,-0.00493,0.00101,-0.002709,0.00164,-4e-06,0.0094,-0.514736,0.000516,-0.427927,-257.935062,-0.611136,66.71405
11.0158,0.00931,-0.00477,-0.000833,-0.002724,0.001622,-0.000235,0.009953,-0.514905,0.00101,-0.502916,-257.935703,-0.536146,66.713451
11.0362,0.009191,-0.004941,0.000724,-0.00271,0.001611,0.00034,0.008976,-0.51478,-0.000673,-0.502916,-257.935703,-0.536146,66.713451
11.056,0.008954,-0.004616,0.001013,-0.002702,0.001606,0.000738,0.008976,-0.51478,-0.000673,-0.502916,-257.935703,-0.536146,66.713451
11.0761,0.00903,-0.004571,0.001946,-0.002697,0.001605,0.001012,0.009359,-0.51455,0.001003,-0.497471,-257.936912,-0.575188,66.712185
11.0959,0.009169,-0.004645,0.000187,-0.002745,0.001589,-9e-06,0.009618,-0.514551,0.001389,-0.497471,-257.936912,-0.575188,66.712185
11.1157,0.008741,-0.004321,-8e-05,-0.002778,0.00157,-0.000726,0.009243,-0.514632,0.000191,-0.572458,-257.937254,-0.500202,66.711903
11.1358,0.008972,-0.004378,-0.001294,-0.002769,0.001545,-0.000372,0.008748,-0.514348,-5.5e-05,-0.572458,-257.937254,-0.500202,66.711903
11.156,0.008593,-0.004674,0.00134,-0.002764,0.001528,-0.000129,0.008748,-0.514348,-5.5e-05,-0.572458,-257.937254,-0.500202,66.711903
11.1758,0.008676,-0.004771,-0.001225,-0.00276,0.001516,3.7e-05,0.009225,-0.514644,0.001334,-0.497483,-257.93778,-0.575177,66.711301
11.1958,0.009189,-0.004546,0.00043,-0.002745,0.001548,-7.1e-05,0.008744,-0.514691,0.000297,-0.497483,-257.93778,-0.575177,66.711301
11.2161,0.008896,-0.004623,0.000592,-0.002732,0.001573,-0.000146,0.009329,-0.514502,0.000431,-0.508479,-257.938921,-0.500187,66.710169
11.2358,0.008788,-0.004837,-0.000302,-0.002741,0.001566,-0.000371,0.009205,-0.51461,0.000578,-0.508479,-257.938921,-0.500187,66.710169
11.256,0.008768,-0.004477,0.000724,-0.002747,0.001558,-0.000527,0.009205,-0.51461,0.000578,-0.508479,-257.938921,-0.500187,66.710169
11.2755,0.008561,-0.004872,0.000248,-0.002751,0.001551,-0.000635,0.009027,-0.514414,0.000719,-0.497587,-257.94012,-0.546604,66.708935
11.2957,0.008656,-0.004304,0.001094,-0.002745,0.001558,-0.000679,0.008876,-0.514593,0.000526,-0.497587,-257.94012,-0.546604,66.708935
11.3161,0.00869,-0.004387,6.7e-05,-0.002739,0.001563,-0.00071,0.009144,-0.514263,0.001079,-0.422586,-257.941074,-0.613932,66.70786
11.3358,0.00863,-0.004521,0.001478,-0.002737,0.001545,-0.0005,0.008757,-0.514374,0.000154,-0.422586,-257.941074,-0.613932,66.70786
11.3555,0.008359,-0.00423,0.000231,-0.002737,0.001531,-0.000355,0.008757,-0.514374,0.000154,-0.422586,-257.941074,-0.613932,66.70786
11.3759,0.008294,-0.004297,0.000388,-0.002736,0.001522,-0.000254,0.008365,-0.514166,0.000202,-0.391072,-257.942235,-0.630011,66.706531
11.3963,0.008246,-0.004203,0.00081,-0.002736,0.001518,-0.000261,0.008403,-0.514212,0.000274,-0.391072,-257.942235,-0.630011,66.706531
11.4154,0.008113,-0.004464,0.000818,-0.002735,0.001515,-0.000266,0.008587,-0.514163,0.000803,-0.463077,-257.943251,-0.555009,66.705465
11.4358,0.008168,-0.004007,-0.000136,-0.002734,0.001539,-0.000601,0.008532,-0.514436,0.000816,-0.463077,-257.943251,-0.555009,66.705465
11.4559,0.008044,-0.004112,-0.000513,-0.002732,0.001555,-0.000833,0.008532,-0.514436,0.000816,-0.463077,-257.943251,-0.555009,66.705465
11.4757,0.008214,-0.004281,-0.000279,-0.002728,0.001566,-0.000994,0.007667,-0.514048,-0.000525,-0.459059,-257.94447,-0.55012,66.704184
11.4957,0.008348,-0.004202,5.8e-05,-0.002706,0.001558,-0.000337,0.007817,-0.514135,-0.000427,-0.459059,-257.94447,-0.55012,66.704184
11.5158,0.008021,-0.003931,-0.000931,-0.00269,0.001556,0.000117,0.008323,-0.514171,4.3e-05,-0.384117,-257.945189,-0.625062,66.703317
11.5357,0.008166,-0.004236,-0.000182,-0.00268,0.001541,0.00068,0.007611,-0.51395,-0.000847,-0.384117,-257.945189,-0.625062,66.703317
11.5559,0.007952,-0.004249,0.000553,-0.002674,0.001533,0.001069,0.007611,-0.51395,-0.000847,-0.384117,-257.945189,-0.625062,66.703317
11.5756,0.007843,-0.004002,0.000263,-0.002671,0.00153,0.001337,0.008174,-0.514216,0.000549,-0.459144,-257.945847,-0.550034,66.702673
11.5959,0.008279,-0.004238,0.000535,-0.002688,0.001546,0.000736,0.008088,-0.514126,0.000433,-0.459144,-257.945847,-0.550034,66.702673
11.6159,0.008126,-0.004084,0.000337,-0.002699,0.001554,0.000319,0.008544,-0.514234,0.000536,-0.534033,-257.945969,-0.475145,66.702579
11.6358,0.00794,-0.003774,-6.6e-05,-0.002713,0.001541,8.1e-05,0.008319,-0.514097,0.000354,-0.534033,-257.945969,-0.475145,66.702579
11.6559,0.008114,-0.004009,0.001655,-0.002722,0.001529,-8.4e-05,0.008319,-0.514097,0.000354,-0.534033,-257.945969,-0.475145,66.702579
11.6758,0.008268,-0.003589,0.001448,-0.002729,0.001518,-0.000198,0.008848,-0.513945,0.001668,-0.575006,-257.947218,-0.466613,66.701404
11.6959,0.00806,-0.004202,0.000477,-0.002779,0.001468,-0.000962,0.008901,-0.513792,0.001579,-0.575006,-257.947218,-0.466613,66.701404
11.7157,0.007636,-0.003913,0.002159,-0.002814,0.001422,-0.001498,0.008236,-0.514163,0.000473,-0.50006,-257.94817,-0.540886,66.700416
11.7361,0.007782,-0.003598,0.001127,-0.002833,0.001414,-0.00208,0.00869,-0.513932,0.00201,-0.50006,-257.94817,-0.540886,66.700416
11.7559,0.00796,-0.00406,-0.000513,-0.002845,0.001402,-0.002486,0.00869,-0.513932,0.00201,-0.50006,-257.94817,-0.540886,66.700416
11.7756,0.008116,-0.004047,-0.001829,-0.002851,0.001389,-0.002767,0.007683,-0.514051,-0.000517,-0.425014,-257.948316,-0.615932,66.700229
11.7957,0.00771,-0.004241,0.001467,-0.002782,0.001407,-0.001211,0.007475,-0.514048,-0.001058,-0.425014,-257.948316,-0.615932,66.700229
11.8158,0.007806,-0.004186,0.000655,-0.002733,0.001429,-0.000118,0.008458,-0.514241,0.001467,-0.35003,-257.948321,-0.690916,66.700222
11.8356,0.008184,-0.003998,0.000839,-0.002728,0.001464,-0.000434,0.008167,-0.51419,0.000726,-0.35003,-257.948321,-0.690916,66.700222
11.856,0.007485,-0.003791,-0.000183,-0.002723,0.00149,-0.000656,0.008167,-0.51419,0.000726,-0.35003,-257.948321,-0.690916,66.700222
11.8758,0.007884,-0.004048,2.9e-05,-0.002718,0.001509,-0.000811,0.007341,-0.513761,-0.000191,-0.424989,-257.948886,-0.615957,66.699644
11.8956,0.007648,-0.003662,-0.000285,-0.002701,0.001508,-0.000408,0.007566,-0.513876,-0.000101,-0.424989,-257.948886,-0.615957,66.699644
11.9155,0.007707,-0.003828,0.000978,-0.00269,0.00151,-0.000131,0.007423,-0.513618,-0.000308,-0.357046,-257.949958,-0.635584,66.698397
11.9355,0.007779,-0.003955,-0.000873,-0.002714,0.001491,-0.000534,0.008135,-0.513808,0.000868,-0.357046,-257.949958,-0.635584,66.698397
11.9557,0.007604,-0.003753,0.000723,-0.002732,0.001473,-0.000815,0.008135,-0.513808,0.000868,-0.357046,-257.949958,-0.635584,66.698397
11.9761,0.00762,-0.003681,0.000314,-0.002744,0.001457,-0.001011,0.007901,-0.513713,0.000715,-0.432071,-257.950738,-0.560559,66.697596
11.9961,0.007709,-0.003784,-0.000363,-0.002745,0.001439,-0.000956,0.007843,-0.513696,0.00055,-0.432071,-257.950738,-0.560559,66.697596
12.0158,0.007682,-0.003869,-0.00017,-0.002746,0.001426,-0.000919,0.007467,-0.513752,-0.00038,-0.357196,-257.951497,-0.635434,66.696686
12.0355,0.007781,-0.00348,0.000812,-0.002723,0.001437,-0.000432,0.007581,-0.513857,-0.00019,-0.357196,-257.951497,-0.635434,66.696686
12.0559,0.007946,-0.003526,-0.000281,-0.002707,0.00145,-9.6e-05,0.007581,-0.513857,-0.00019,-0.357196,-257.951497,-0.635434,66.696686
12.0755,0.007133,-0.003694,0.000168,-0.002695,0.001462,0.000135,0.007693,-0.513469,-0.000318,-0.30507,-257.952598,-0.626382,66.695391
12.0955,0.007351,-0.003434,-0.001105,-0.0027,0.001444,0.000253,0.007487,-0.513554,-0.000124,-0.30507,-257.952598,-0.626382,66.695391
12.1154,0.006741,-0.003416,-0.000155,-0.002705,0.00143,0.000335,0.006759,-0.51342,-0.001109,-0.380026,-257.953001,-0.551426,66.694997
12.1356,0.007549,-0.003501,0.001196,-0.002685,0.001452,0.000458,0.006669,-0.513416,-0.000239,-0.380026,-257.953001,-0.551426,66.694997
12.1556,0.007261,-0.003777,0.001334,-0.002669,0.00147,0.000541,0.006669,-0.513416,-0.000239,-0.380026,-257.953001,-0.551426,66.694997
12.1755,0.007181,-0.003335,-0.000563,-0.002656,0.001485,0.000598,0.007884,-0.513747,0.001335,-0.455068,-257.953639,-0.476384,66.694398
12.1957,0.007361,-0.003864,0.000828,-0.002677,0.00148,0.000146,0.007472,-0.513575,0.000557,-0.455068,-257.953639,-0.476384,66.694398
12.2158,0.007044,-0.003745,-0.001643,-0.002691,0.001474,-0.000168,0.00773,-0.513836,0.000837,-0.53008,-257.954445,-0.401372,66.693681
12.2358,0.007329,-0.003476,0.000732,-0.002627,0.00153,0.000775,0.006339,-0.513751,-0.001422,-0.53008,-257.954445,-0.401372,66.693681
12.2557,0.007312,-0.003615,-0.0004,-0.002581,0.001579,0.001433,0.006339,-0.513751,-0.001422,-0.53008,-257.954445,-0.401372,66.693681
12.276,0.007062,-0.003316,-0.000571,-0.002548,0.001621,0.001889,0.007025,-0.513573,-0.000401,-0.471158,-257.955322,-0.476362,66.692775
12.2957,0.007325,-0.00355,0.000129,-0.002572,0.001597,0.001661,0.006911,-0.513463,-0.000471,-0.471158,-257.955322,-0.476362,66.692775
12.3156,0.007157,-0.003639,-0.000413,-0.00259,0.001578,0.001504,0.007388,-0.513549,0.00013,-0.546135,-257.955367,-0.401385,66.692744
12.3359,0.007027,-0.003215,0.001583,-0.002598,0.001581,0.001332,0.006985,-0.513631,-0.000365,-0.546135,-257.955367,-0.401385,66.692744
12.3557,0.007018,-0.003826,-0.000459,-0.002603,0.001583,0.001214,0.006985,-0.513631,-0.000365,-0.546135,-257.955367,-0.401385,66.692744
12.3757,0.007155,-0.003315,-0.000138,-0.002607,0.001584,0.001133,0.006748,-0.513807,-0.000446,-0.621143,-257.955819,-0.326378,66.692409
12.3962,0.006921,-0.003236,0.000724,-0.002608,0.001589,0.001048,0.006882,-0.513603,-0.000318,-0.621143,-257.955819,-0.326378,66.692409
12.4159,0.006783,-0.004088,-0.000889,-0.002609,0.001592,0.00099,0.007218,-0.513194,0.000754,-0.69612,-257.95701,-0.329701,66.69146
12.4359,0.00681,-0.003372,0.000308,-0.002559,0.001671,0.001203,0.006406,-0.514005,-0.00074,-0.69612,-257.95701,-0.329701,66.69146
12.4561,0.006739,-0.003677,0.001277,-0.002521,0.001734,0.001349,0.006406,-0.514005,-0.00074,-0.69612,-257.95701,-0.329701,66.69146
12.4757,0.007028,-0.003293,0.000275,-0.002492,0.001784,0.00145,0.007283,-0.513611,0.001318,-0.69978,-257.958352,-0.361659,66.690362
12.4958,0.006844,-0.003095,-0.000592,-0.002554,0.00173,0.000537,0.007223,-0.513474,0.000897,-0.69978,-257.958352,-0.361659,66.690362
12.5157,0.006612,-0.003193,0.001621,-0.002598,0.001681,-0.0001,0.006478,-0.513051,-0.000558,-0.774768,-257.959507,-0.345905,66.689525
12.5358,0.006551,-0.003631,-0.000409,-0.002657,0.001601,-0.000827,0.007351,-0.513177,0.00143,-0.774768,-257.959507,-0.345905,66.689525
12.5558,0.006757,-0.00319,0.001432,-0.002698,0.001533,-0.001337,0.007351,-0.513177,0.00143,-0.774768,-257.959507,-0.345905,66.689525
12.5759,0.006589,-0.003031,-0.001059,-0.002728,0.001476,-0.001692,0.007467,-0.513177,0.001436,-0.69973,-257.959724,-0.420943,66.689303
12.5955,0.006837,-0.003202,-1.3e-05,-0.002725,0.001428,-0.001349,0.006887,-0.513116,0.000418,-0.69973,-257.959724,-0.420943,66.689303
12.6158,0.00644,-0.00303,0.000867,-0.002722,0.001392,-0.001113,0.00683,-0.513202,-1.3e-05,-0.624753,-257.959726,-0.495919,66.689301
12.6357,0.006457,-0.003242,-0.000695,-0.002729,0.001362,-0.001175,0.006877,-0.513046,0.000784,-0.624753,-257.959726,-0.495919,66.689301
12.6562,0.006517,-0.003577,0.000226,-0.002734,0.001337,-0.001219,0.006877,-0.513046,0.000784,-0.624753,-257.959726,-0.495919,66.689301
12.6762,0.006468,-0.002859,0.000611,-0.002737,0.001317,-0.00125,0.006624,-0.513572,0.000225,-0.549751,-257.959808,-0.570921,66.689201
12.6957,0.006283,-0.003194,0.000196,-0.002712,0.00134,-0.001025,0.006685,-0.513289,0.000378,-0.549751,-257.959808,-0.570921,66.689201
12.7157,0.006506,-0.003212,-0.000283,-0.002694,0.001359,-0.00087,0.006372,-0.513187,0.000194,-0.474699,-257.959945,-0.645974,66.689033
12.7359,0.00649,-0.003015,0.00017,-0.002666,0.001374,-0.000377,0.006362,-0.51321,-0.000241,-0.474699,-257.959945,-0.645974,66.689033
12.7559,0.00646,-0.003726,0.000526,-0.002646,0.00139,-3.7e-05,0.006362,-0.51321,-0.000241,-0.474699,-257.959945,-0.645974,66.689033
12.7756,0.006607,-0.002985,-0.000567,-0.002631,0.001404,0.000197,0.006663,-0.513689,0.000509,-0.399656,-257.960615,-0.611967,66.68825
12.7958,0.006051,-0.003223,0.001177,-0.002618,0.001438,0.000165,0.006514,-0.513397,6.8e-05,-0.399656,-257.960615,-0.611967,66.68825
12.8156,0.006655,-0.003138,0.001256,-0.002608,0.001464,0.000142,0.006609,-0.513199,0.001176,-0.474549,-257.961247,-0.537075,66.687641
12.8357,0.006709,-0.002977,-0.000798,-0.002657,0.001426,-0.000564,0.007233,-0.513142,0.001249,-0.474549,-257.961247,-0.537075,66.687641
12.8555,0.006464,-0.003185,0.001208,-0.002692,0.001392,-0.001058,0.007233,-0.513142,0.001249,-0.474549,-257.961247,-0.537075,66.687641
12.8754,0.006267,-0.003031,-0.000305,-0.002717,0.001362,-0.001403,0.006981,-0.513129,0.001213,-0.536499,-257.962341,-0.485751,66.686578
12.8957,0.00641,-0.003196,-0.000728,-0.002707,0.001353,-0.00126,0.006613,-0.513082,0.000592,-0.536499,-257.962341,-0.485751,66.686578
12.9159,0.006124,-0.002875,0.000687,-0.002699,0.001346,-0.001163,0.006033,-0.513192,-0.000729,-0.461546,-257.962417,-0.560704,66.686481
12.9359,0.006305,-0.003194,-0.000443,-0.002696,0.001325,-0.001077,0.006434,-0.512903,0.000558,-0.461546,-257.962417,-0.560704,66.686481
12.9559,0.006152,-0.003246,-0.000242,-0.002694,0.001309,-0.001018,0.006434,-0.512903,0.000558,-0.461546,-257.962417,-0.560704,66.686481
12.9756,0.006134,-0.003192,0.001313,-0.002692,0.001297,-0.000978,0.005987,-0.513223,-0.000255,-0.386542,-257.962832,-0.635708,66.685974
12.9957,0.00627,-0.003137,0.001461,-0.002667,0.001333,-0.000848,0.006319,-0.513207,0.000389,-0.386542,-257.962832,-0.635708,66.685974
13.0161,0.006218,-0.002765,-0.000247,-0.002648,0.001362,-0.000759,0.006952,-0.513103,0.001441,-0.311453,-257.963664,-0.613058,66.684989
13.036,0.006071,-0.003432,-0.000952,-0.002649,0.001325,-0.000391,0.006165,-0.512794,-9.8e-05,-0.311453,-257.963664,-0.613058,66.684989
13.0555,0.006417,-0.002737,-0.000243,-0.00265,0.001299,-0.000137,0.006165,-0.512794,-9.8e-05,-0.311453,-257.963664,-0.613058,66.684989
13.0755,0.00635,-0.002995,0.000771,-0.002651,0.001281,3.8e-05,0.006183,-0.51268,-0.000274,-0.327161,-257.964776,-0.603655,66.68371
13.0954,0.006217,-0.002609,-0.000568,-0.002662,0.001261,5e-06,0.006399,-0.512802,0.000149,-0.327161,-257.964776,-0.603655,66.68371
13.1155,0.006332,-0.002732,0.000583,-0.00267,0.001247,-1.8e-05,0.005885,-0.512588,-0.000572,-0.402131,-257.965372,-0.528685,66.683118
13.1357,0.005852,-0.002887,0.001233,-0.002691,0.001218,-0.00024,0.006562,-0.512718,0.000482,-0.402131,-257.965372,-0.528685,66.683118
13.1555,0.006046,-0.003065,3e-05,-0.002707,0.001195,-0.000394,0.006562,-0.512718,0.000482,-0.402131,-257.965372,-0.528685,66.683118
13.176,0.005858,-0.002657,-0.001344,-0.002718,0.001176,-0.000501,0.005965,-0.513019,2.9e-05,-0.433366,-257.966393,-0.453588,66.682094
13.196,0.005991,-0.003175,0.001447,-0.002664,0.001231,4.2e-05,0.005634,-0.512868,-0.000525,-0.433366,-257.966393,-0.453588,66.682094
13.2158,0.005827,-0.002611,-0.001005,-0.002623,0.001276,0.000417,0.006664,-0.513145,0.001437,-0.358412,-257.967257,-0.499022,66.681157
13.2358,0.005414,-0.003129,0.000754,-0.002593,0.001289,0.000827,0.005433,-0.512657,-0.000784,-0.358412,-257.967257,-0.499022,66.681157
13.2558,0.005551,-0.003181,0.000783,-0.002571,0.001302,0.00111,0.005433,-0.512657,-0.000784,-0.358412,-257.967257,-0.499022,66.681157
13.2757,0.006181,-0.002971,8.3e-05,-0.002554,0.001313,0.001303,0.005896,-0.513156,0.000785,-0.433358,-257.967846,-0.424076,66.68061
13.296,0.005774,-0.003061,-0.001227,-0.002558,0.001371,0.00065,0.006023,-0.513078,0.0005,-0.433358,-257.967846,-0.424076,66.68061
13.3154,0.005635,-0.002876,-0.000375,-0.002559,0.001411,0.000198,0.005135,-0.513054,-0.001224,-0.508507,-257.968048,-0.348927,66.680452
13.3358,0.005805,-0.002777,-0.000569,-0.002527,0.001439,0.00047,0.005415,-0.512892,-0.00045,-0.508507,-257.968048,-0.348927,66.680452
13.3559,0.005716,-0.002974,1.9e-05,-0.002502,0.001462,0.000657,0.005415,-0.512892,-0.00045,-0.508507,-257.968048,-0.348927,66.680452
13.3755,0.005415,-0.002951,0.00043,-0.002483,0.001481,0.000786,0.005641,-0.512929,2.9e-05,-0.539361,-257.968987,-0.423829,66.679549
13.3961,0.005734,-0.002783,-0.00017,-0.002485,0.001497,0.000477,0.005628,-0.512933,0.000192,-0.539361,-257.968987,-0.423829,66.679549
13.4154,0.005398,-0.00288,-0.001236,-0.002485,0.001508,0.000263,0.005587,-0.512749,-0.000154,-0.614317,-257.969931,-0.38308,66.678751
13.4361,0.005612,-0.002535,0.001246,-0.002424,0.001545,0.000905,0.004839,-0.512866,-0.001136,-0.614317,-257.969931,-0.38308,66.678751
13.4561,0.005187,-0.002779,0.002143,-0.002379,0.001576,0.001349,0.004839,-0.512866,-0.001136,-0.614317,-257.969931,-0.38308,66.678751
13.4759,0.005399,-0.002452,-0.000187,-0.002344,0.001603,0.001655,0.006194,-0.512728,0.002155,-0.591221,-257.970895,-0.458083,66.67784
13.4959,0.005079,-0.002694,-0.001272,-0.002423,0.001545,0.000492,0.005832,-0.512613,0.001227,-0.591221,-257.970895,-0.458083,66.67784
13.5158,0.005328,-0.002327,-0.000384,-0.002479,0.001495,-0.000325,0.004416,-0.512685,-0.001266,-0.666214,-257.971148,-0.38309,66.677666
13.5359,0.004935,-0.002547,-0.000564,-0.002474,0.001428,0.000116,0.005067,-0.512359,-0.000463,-0.666214,-257.971148,-0.38309,66.677666
13.5563,0.005199,-0.002655,0.000815,-0.00247,0.001379,0.00042,0.005067,-0.512359,-0.000463,-0.666214,-257.971148,-0.38309,66.677666
13.5759,0.005024,-0.002554,-0.002388,-0.002467,0.001343,0.000629,0.005586,-0.512638,0.000817,-0.591208,-257.971452,-0.458096,66.677339
13.596,0.005245,-0.002587,0.000148,-0.002431,0.001379,0.000787,0.004855,-0.512601,-0.000493,-0.591208,-257.971452,-0.458096,66.677339
13.6157,0.005257,-0.002433,0.000823,-0.002404,0.001407,0.000894,0.005251,-0.512549,0.000165,-0.611067,-257.972512,-0.383057,66.676408
13.6358,0.005056,-0.002626,3e-05,-0.002457,0.001362,0.000207,0.005634,-0.512442,0.000764,-0.611067,-257.972512,-0.383057,66.676408
13.6558,0.005204,-0.002628,-0.000386,-0.002495,0.001324,-0.00027,0.005634,-0.512442,0.000764,-0.611067,-257.972512,-0.383057,66.676408
13.6758,0.005386,-0.002488,-4.9e-05,-0.002522,0.001292,-0.000601,0.004917,-0.512575,-0.000352,-0.682079,-257.973627,-0.343834,66.675489
13.6958,0.005001,-0.002444,7.4e-05,-0.002492,0.001304,-0.000225,0.005086,-0.512534,-0.000225,-0.682079,-257.973627,-0.343834,66.675489
13.7155,0.005178,-0.002637,0.000511,-0.00247,0.001316,3.5e-05,0.005034,-0.512441,7.5e-05,-0.607074,-257.973699,-0.41884,66.675407
13.7359,0.005196,-0.002154,0.000605,-0.002475,0.001328,-0.000219,0.005403,-0.51262,0.000473,-0.607074,-257.973699,-0.41884,66.675407
13.756,0.005405,-0.002129,0.000277,-0.002478,0.001335,-0.000395,0.005403,-0.51262,0.000473,-0.607074,-257.973699,-0.41884,66.675407
13.7789,0.004999,-0.002468,0.000399,-0.002479,0.00134,-0.000517,0.005467,-0.512085,0.000281,-0.531945,-257.974562,-0.482757,66.674551
13.7959,0.005155,-0.002329,-0.000724,-0.002501,0.001274,-0.000508,0.005351,-0.512235,0.000329,-0.531945,-257.974562,-0.482757,66.674551
13.816,0.004784,-0.002292,0.000534,-0.002516,0.001223,-0.000502,0.004738,-0.512302,-0.00073,-0.457069,-257.975216,-0.557633,66.673824
13.8361,0.004458,-0.002302,0.001465,-0.002504,0.00122,-0.000559,0.005025,-0.512292,0.000419,-0.457069,-257.975216,-0.557633,66.673824
13.8558,0.005,-0.002287,-0.001056,-0.002494,0.001217,-0.000599,0.005025,-0.512292,0.000419,-0.457069,-257.975216,-0.557633,66.673824
13.8757,0.004795,-0.002349,-0.000909,-0.002484,0.001214,-0.000627,0.004374,-0.512243,-0.001071,-0.382073,-257.976103,-0.546105,66.672849
13.896,0.004367,-0.002292,-0.000914,-0.00241,0.001238,0.000208,0.004347,-0.512281,-0.001007,-0.382073,-257.976103,-0.546105,66.672849
13.9155,0.004648,-0.002215,-0.000346,-0.002355,0.00126,0.000788,0.003827,-0.512256,-0.000933,-0.322981,-257.977084,-0.571363,66.671743
13.9357,0.004852,-0.002608,-0.003129,-0.002327,0.001272,0.00083,0.004408,-0.512217,-0.000401,-0.322981,-257.977084,-0.571363,66.671743
13.9559,0.004604,-0.002263,0.000474,-0.002305,0.001281,0.000859,0.004408,-0.512217,-0.000401,-0.322981,-257.977084,-0.571363,66.671743
13.976,0.004713,-0.002288,-0.001195,-0.002286,0.001288,0.000878,0.004838,-0.512259,0.000474,-0.397955,-257.977168,-0.496388,66.671671
13.996,0.004576,-0.00226,8.8e-05,-0.002281,0.001296,0.000775,0.004535,-0.512271,-0.000212,-0.397955,-257.977168,-0.496388,66.671671
14.0156,0.004617,-0.001998,0.000322,-0.002275,0.001301,0.000704,0.004608,-0.512254,9e-05,-0.473078,-257.977373,-0.421265,66.671503
14.0359,0.004627,-0.002311,-0.000579,-0.002312,0.001244,0.000339,0.004765,-0.51202,0.000302,-0.473078,-257.977373,-0.421265,66.671503
14.0558,0.00449,-0.002035,-0.0,-0.002338,0.001198,8.7e-05,0.004765,-0.51202,0.000302,-0.473078,-257.977373,-0.421265,66.671503
14.0756,0.004587,-0.002416,0.000371,-0.002357,0.001161,-8.7e-05,0.004433,-0.512007,1.2e-05,-0.548113,-257.978029,-0.365752,66.670944
14.0957,0.004664,-0.002511,-0.000576,-0.002342,0.001177,-0.000123,0.004568,-0.512172,0.000161,-0.548113,-257.978029,-0.365752,66.670944
14.1159,0.004406,-0.001828,-0.001305,-0.00233,0.001188,-0.000149,0.004319,-0.512486,-0.000575,-0.47316,-257.978739,-0.440705,66.670221
14.1358,0.0046,-0.002206,9.1e-05,-0.002251,0.001169,0.000657,0.003788,-0.511883,-0.001242,-0.47316,-257.978739,-0.440705,66.670221
14.1556,0.00438,-0.001957,-9.4e-05,-0.002191,0.001156,0.001216,0.003788,-0.511883,-0.001242,-0.47316,-257.978739,-0.440705,66.670221
14.1756,0.004501,-0.0021,0.000679,-0.002146,0.001148,0.001603,0.004242,-0.511911,-0.0001,-0.440134,-257.979691,-0.501925,66.669239
14.1957,0.004432,-0.001983,0.001533,-0.002185,0.001138,0.001001,0.004477,-0.511982,0.000215,-0.440134,-257.979691,-0.501925,66.669239
14.2161,0.004389,-0.002643,-0.002086,-0.002212,0.001127,0.000586,0.005213,-0.511982,0.001533,-0.515021,-257.9797,-0.427037,66.669232
14.2358,0.00445,-0.002164,0.000105,-0.00206,0.001299,0.001418,0.003496,-0.512582,-0.00176,-0.515021,-257.9797,-0.427037,66.669232
14.2559,0.004593,-0.002142,6.8e-05,-0.001947,0.001431,0.001997,0.003496,-0.512582,-0.00176,-0.515021,-257.9797,-0.427037,66.669232
14.2757,0.004275,-0.002191,-0.00057,-0.001862,0.001533,0.002397,0.004554,-0.512104,8.6e-05,-0.590014,-257.980548,-0.352045,66.668487
14.2956,0.004554,-0.002164,0.001233,-0.001937,0.001472,0.00178,0.004312,-0.512136,-0.000181,-0.590014,-257.980548,-0.352045,66.668487
14.3155,0.004202,-0.00197,0.000567,-0.001992,0.001423,0.001357,0.005182,-0.512163,0.001233,-0.665119,-257.980562,-0.27694,66.668479
14.3359,0.004336,-0.002298,-0.00019,-0.002075,0.001348,0.000582,0.004551,-0.511987,0.000624,-0.665119,-257.980562,-0.27694,66.668479
14.356,0.003915,-0.002081,0.000346,-0.002136,0.001286,4.6e-05,0.004551,-0.511987,0.000624,-0.665119,-257.980562,-0.27694,66.668479
14.3756,0.004328,-0.001939,-0.000914,-0.002181,0.001236,-0.000325,0.004039,-0.512048,0.000375,-0.740147,-257.981268,-0.289707,66.667991
14.3958,0.004105,-0.002108,0.000692,-0.00215,0.001232,-0.000112,0.003962,-0.512,-0.000144,-0.740147,-257.981268,-0.289707,66.667991
14.4156,0.00414,-0.002038,-2.2e-05,-0.002125,0.001229,3.6e-05,0.004454,-0.512106,0.000693,-0.66521,-257.981326,-0.364644,66.667929
14.4356,0.004207,-0.002176,0.000446,-0.00213,0.001218,2.4e-05,0.004159,-0.512044,4.3e-05,-0.66521,-257.981326,-0.364644,66.667929
14.4562,0.004191,-0.002181,0.000744,-0.002133,0.00121,1.7e-05,0.004159,-0.512044,4.3e-05,-0.66521,-257.981326,-0.364644,66.667929
14.4756,0.004417,-0.002317,2.3e-05,-0.002136,0.001204,1.3e-05,0.004524,-0.512155,0.00075,-0.590274,-257.981838,-0.43958,66.667421
14.4957,0.004319,-0.002205,0.001099,-0.002158,0.001217,-0.000245,0.004481,-0.512217,0.000459,-0.590274,-257.981838,-0.43958,66.667421
14.5158,0.003851,-0.002185,0.000969,-0.002175,0.001225,-0.000424,0.004822,-0.512172,0.001099,-0.516164,-257.982669,-0.510402,66.666593
14.5361,0.004162,-0.002057,-0.000158,-0.002186,0.001246,-0.000859,0.004385,-0.512182,0.000981,-0.516164,-257.982669,-0.510402,66.666593
14.5556,0.003643,-0.001895,0.0005,-0.002192,0.001259,-0.001161,0.004385,-0.512182,0.000981,-0.516164,-257.982669,-0.510402,66.666593
14.5756,0.00409,-0.001858,0.001091,-0.002195,0.001266,-0.00137,0.003829,-0.511856,0.000488,-0.441081,-257.983388,-0.585484,66.665797
14.5961,0.003958,-0.002172,-0.001906,-0.002194,0.001211,-0.001367,0.00415,-0.511852,0.00073,-0.441081,-257.983388,-0.585484,66.665797
14.6154,0.004019,-0.001993,0.0026,-0.002192,0.001168,-0.001365,0.00297,-0.512161,-0.001912,-0.366169,-257.983587,-0.660397,66.665528
14.6362,0.003988,-0.001903,0.001921,-0.002274,0.001119,-0.002112,0.005134,-0.512005,0.002201,-0.366169,-257.983587,-0.660397,66.665528
14.6564,0.003554,-0.002058,0.000172,-0.002335,0.001079,-0.002633,0.005134,-0.512005,0.002201,-0.366169,-257.983587,-0.660397,66.665528
14.6754,0.003763,-0.001776,0.000409,-0.002382,0.001044,-0.002995,0.003602,-0.512034,0.000152,-0.291116,-257.983968,-0.73545,66.665018
14.6957,0.004068,-0.001365,0.001723,-0.002283,0.001068,-0.002165,0.003745,-0.511929,0.000252,-0.291116,-257.983968,-0.73545,66.665018
14.7155,0.004248,-0.001996,0.000572,-0.002207,0.001088,-0.001601,0.004946,-0.511364,0.001723,-0.216034,-257.983969,-0.810531,66.665016
14.7358,0.003779,-0.002118,0.000377,-0.002232,0.001048,-0.00147,0.004577,-0.511939,0.000676,-0.216034,-257.983969,-0.810531,66.665016
14.756,0.003796,-0.001889,-0.000181,-0.002254,0.00102,-0.001382,0.004577,-0.511939,0.000676,-0.216034,-257.983969,-0.810531,66.665016
14.7757,0.003851,-0.002132,-0.000174,-0.002271,0.001,-0.001324,0.003647,-0.511859,-0.000218,-0.141063,-257.984506,-0.752467,66.664281
14.796,0.003894,-0.001907,-6e-05,-0.002186,0.001048,-0.000748,0.003688,-0.511968,-0.000204,-0.141063,-257.984506,-0.752467,66.664281
14.8156,0.003943,-0.001888,-0.000482,-0.002122,0.001086,-0.000353,0.003802,-0.51188,-9.6e-05,-0.08394,-257.985287,-0.677456,66.663286
14.8359,0.00379,-0.002166,0.000782,-0.002073,0.001096,7.1e-05,0.003703,-0.511886,-0.000451,-0.08394,-257.985287,-0.677456,66.663286
14.8558,0.004212,-0.001646,0.000257,-0.002036,0.001105,0.000361,0.003703,-0.511886,-0.000451,-0.08394,-257.985287,-0.677456,66.663286
14.8755,0.003578,-0.001971,0.00019,-0.002007,0.001113,0.00056,0.004327,-0.51164,0.000251,-0.158988,-257.985442,-0.602409,66.663118
14.896,0.004122,-0.00188,0.000556,-0.002043,0.001074,0.000281,0.004058,-0.511775,0.000225,-0.158988,-257.985442,-0.602409,66.663118
14.9158,0.003795,-0.001911,0.001025,-0.002071,0.001043,8.8e-05,0.004405,-0.511879,0.000556,-0.23383,-257.985452,-0.527566,66.663109
