mach0312/omni-docking-bench/src/icros_test_setup/results/MPPI_sample/timeseries/trial_098.csv
t,x,y,yaw,vx,vy,wz,bl_x,bl_y,bl_yaw,front_steering_joint,front_wheel_joint,rear_steering_joint,rear_wheel_joint
0.0,0.046972,0.027485,-0.08546,-0.00991,8.4e-05,-0.001778,0.004,-0.481051,-0.086234,0.100772,-263.766864,-0.117545,68.043214
0.0005,0.046669,0.027125,-0.085343,-0.00761,6.5e-05,-0.001366,0.004,-0.481051,-0.086234,0.100772,-263.770904,-0.117545,68.039167
0.0008,0.0464,0.027874,-0.086594,-0.007078,6e-05,-0.00127,0.003663,-0.481071,-0.085962,0.100772,-263.774818,-0.117545,68.035246
0.0012,0.046266,0.027526,-0.084094,-0.006494,5.5e-05,-0.001165,0.003663,-0.481071,-0.085962,0.100772,-263.778394,-0.117545,68.031664
0.0015,0.046522,0.027236,-0.085308,-0.005864,5e-05,-0.001052,0.00353,-0.480814,-0.086202,0.100772,-263.781648,-0.117545,68.028404
0.0018,0.046261,0.027428,-0.085816,-0.005177,4.4e-05,-0.000929,0.00353,-0.480814,-0.086202,0.100772,-263.784258,-0.117545,68.025789
0.0021,0.046026,0.027666,-0.0866,-0.004446,3.8e-05,-0.000798,0.002738,-0.480495,-0.087879,0.100772,-263.786336,-0.117545,68.023707
0.0024,0.045792,0.027301,-0.087498,-0.003658,3.1e-05,-0.000656,0.002823,-0.480608,-0.087149,0.100772,-263.786336,-0.117545,68.023707
0.0027,0.045972,0.027597,-0.086728,-0.002824,2.4e-05,-0.000507,0.002823,-0.480608,-0.087149,0.100772,-263.786336,-0.117545,68.023707
0.0029,0.046084,0.02772,-0.086631,-0.001938,1.6e-05,-0.000348,0.002823,-0.480608,-0.087149,0.100772,-263.786336,-0.117545,68.023707
0.0165,0.045482,0.027135,-0.087742,0.0,0.0,0.0,0.00172,-0.480508,-0.086803,0.100772,-263.786336,-0.117545,68.023707
0.0365,0.045821,0.027572,-0.087426,0.0,0.0,0.0,0.000673,-0.480892,-0.087763,0.100772,-263.787473,-0.117545,68.022568
0.0566,0.045512,0.027413,-0.087064,0.0,0.0,0.0,0.000913,-0.480721,-0.087628,0.100772,-263.787473,-0.117545,68.022568
0.0763,0.045645,0.027592,-0.086226,0.0,0.0,0.0,0.001165,-0.480655,-0.087064,0.100772,-263.787473,-0.117545,68.022568
0.0966,0.045518,0.028098,-0.086132,0.0,0.0,0.0,0.001674,-0.480526,-0.086301,0.100772,-263.787473,-0.117545,68.022568
0.1166,0.045505,0.027654,-0.086495,0.001825,-0.002235,0.011373,0.001674,-0.480526,-0.086301,0.100772,-263.787473,-0.117545,68.022568
0.1363,0.045609,0.027239,-0.086861,0.001964,-0.002477,0.012182,0.001447,-0.480439,-0.086495,0.100772,-263.787473,-0.117545,68.022568
0.1567,0.045584,0.027635,-0.087,0.002085,-0.002693,0.012831,0.001413,-0.480605,-0.086647,0.100772,-263.787473,-0.117545,68.022568
0.1762,0.045921,0.027438,-0.086145,0.002184,-0.002885,0.013339,0.00127,-0.480436,-0.087,0.176071,-263.787473,-0.192844,68.022568
0.1966,0.045823,0.027667,-0.08775,0.002248,-0.003056,0.013802,0.001973,-0.48065,-0.086221,0.176071,-263.787473,-0.192844,68.022568
0.2162,0.046012,0.027582,-0.086473,0.002301,-0.003208,0.014166,0.001973,-0.48065,-0.086221,0.176071,-263.787473,-0.192844,68.022568
0.236,0.045243,0.027597,-0.087159,0.002345,-0.003342,0.014452,0.001966,-0.480513,-0.086473,0.250806,-263.787473,-0.267579,68.022568
0.2561,0.045472,0.027991,-0.087319,0.002394,-0.003461,0.014677,0.001503,-0.480494,-0.086757,0.250806,-263.787473,-0.267579,68.022568
0.2764,0.045739,0.027839,-0.084111,0.002435,-0.003568,0.014851,0.000996,-0.480066,-0.087319,0.325958,-263.787473,-0.342731,68.022568
0.2965,0.045708,0.027509,-0.087671,0.002429,-0.003663,0.01498,0.00273,-0.480333,-0.084387,0.325958,-263.787473,-0.342731,68.022568
0.3164,0.04543,0.027638,-0.086269,0.002423,-0.003748,0.015079,0.00273,-0.480333,-0.084387,0.325958,-263.787473,-0.342731,68.022568
0.336,0.045779,0.027498,-0.085842,0.002418,-0.003823,0.015156,0.001488,-0.480465,-0.086269,0.400861,-263.787473,-0.417634,68.022568
0.3561,0.045764,0.027692,-0.086709,0.002443,-0.00389,0.015219,0.001718,-0.48053,-0.086095,0.400861,-263.787473,-0.417634,68.022568
0.3763,0.045433,0.027263,-0.08719,0.002464,-0.003951,0.015267,0.001598,-0.480392,-0.086709,0.475761,-263.787473,-0.492534,68.022568
0.3961,0.045596,0.027547,-0.087344,0.002501,-0.004004,0.015306,0.001075,-0.480763,-0.087145,0.475761,-263.787473,-0.492534,68.022568
0.4161,0.045841,0.027589,-0.085492,0.002532,-0.004051,0.015335,0.001075,-0.480763,-0.087145,0.475761,-263.787473,-0.492534,68.022568
0.4364,0.045587,0.027419,-0.087016,0.002559,-0.004094,0.015355,0.002293,-0.480548,-0.085492,0.55076,-263.787473,-0.567533,68.022568
0.4565,0.045399,0.027389,-0.086968,0.002554,-0.004132,0.015367,0.001874,-0.48059,-0.086114,0.55076,-263.787473,-0.567533,68.022568
0.4762,0.045345,0.02766,-0.087676,0.00255,-0.004166,0.015375,0.001102,-0.480683,-0.086968,0.62576,-263.787473,-0.642533,68.022568
0.4961,0.045768,0.027382,-0.08669,0.002583,-0.004195,0.015386,0.000722,-0.480407,-0.087617,0.62576,-263.787473,-0.642533,68.022568
0.5166,0.045803,0.027461,-0.087379,0.002612,-0.004222,0.015394,0.000722,-0.480407,-0.087617,0.62576,-263.787473,-0.642533,68.022568
0.5362,0.04583,0.02747,-0.084853,0.002636,-0.004245,0.015399,0.001296,-0.480593,-0.087379,0.700936,-263.787473,-0.717709,68.022568
0.5565,0.045419,0.027608,-0.088279,0.002621,-0.004267,0.015396,0.001828,-0.480634,-0.086355,0.700936,-263.787473,-0.717709,68.022568
0.576,0.04569,0.027671,-0.087813,0.002609,-0.004286,0.015394,0.000455,-0.480406,-0.088279,0.775781,-263.787473,-0.792554,68.022568
0.5964,0.045904,0.0275,-0.086604,0.002628,-0.004303,0.015397,0.000916,-0.480368,-0.087856,0.775781,-263.787473,-0.792554,68.022568
0.6164,0.04567,0.027341,-0.086318,0.002644,-0.004318,0.015399,0.000916,-0.480368,-0.087856,0.775781,-263.787473,-0.792554,68.022568
0.6362,0.045582,0.027339,-0.086424,0.002658,-0.004331,0.015399,0.001702,-0.48076,-0.086318,0.85076,-263.787472,-0.867533,68.022571
0.6561,0.045749,0.027407,-0.084318,0.002646,-0.004343,0.015395,0.001645,-0.480759,-0.086361,0.85076,-263.787472,-0.867533,68.022571
0.676,0.045431,0.027614,-0.086543,0.002635,-0.004354,0.015392,0.002799,-0.480782,-0.084316,0.925758,-263.78746,-0.942531,68.022599
0.6967,0.045945,0.027631,-0.087958,0.002632,-0.004364,0.015391,0.001481,-0.480505,-0.086341,0.925758,-263.78746,-0.942531,68.022599
0.7166,0.045346,0.027833,-0.088251,0.002629,-0.004373,0.01539,0.001481,-0.480505,-0.086341,0.925758,-263.78746,-0.942531,68.022599
0.7364,0.045708,0.027488,-0.085226,0.002626,-0.00438,0.015389,0.000402,-0.480187,-0.088236,1.000761,-263.787399,-1.017534,68.02275
0.7565,0.045435,0.027469,-0.086915,0.002634,-0.004387,0.01539,0.001179,-0.480382,-0.087001,1.000761,-263.787399,-1.017534,68.02275
0.7763,0.045638,0.027418,-0.086995,0.002641,-0.004393,0.01539,0.001178,-0.480619,-0.08687,1.07593,-263.787173,-1.092703,68.023309
0.7966,0.045601,0.02749,-0.086942,0.002642,-0.004399,0.015389,0.001314,-0.480651,-0.086981,1.07593,-263.787173,-1.092703,68.023309
0.8169,0.045894,0.027518,-0.087949,0.002643,-0.004403,0.015388,0.001314,-0.480651,-0.086981,1.07593,-263.787173,-1.092703,68.023309
0.8362,0.04578,0.027481,-0.087225,0.002644,-0.004408,0.015388,0.001138,-0.480557,-0.08779,1.08541,-263.78659,-1.167537,68.024755
0.8562,0.045338,0.027873,-0.085059,0.002648,-0.004411,0.015387,0.001228,-0.480572,-0.087547,1.08541,-263.78659,-1.167537,68.024755
0.8763,0.045678,0.027189,-0.084972,0.002651,-0.004415,0.015387,0.002059,-0.480351,-0.084831,1.083629,-263.785511,-1.24254,68.02744
0.8967,0.045528,0.027284,-0.085877,0.002616,-0.004418,0.015474,0.002367,-0.480918,-0.084948,1.083629,-263.785511,-1.24254,68.02744
0.9164,0.045398,0.027358,-0.085878,0.002586,-0.00442,0.015544,0.002367,-0.480918,-0.084948,1.083629,-263.785511,-1.24254,68.02744
0.9366,0.04543,0.027418,-0.085002,0.00256,-0.004423,0.015601,0.001738,-0.480903,-0.08541,1.081839,-263.783851,-1.317537,68.031579
0.9565,0.045371,0.027375,-0.084498,0.002552,-0.004425,0.01572,0.001908,-0.480853,-0.085189,1.081839,-263.783851,-1.317537,68.031579
0.9765,0.045079,0.027102,-0.085144,0.002546,-0.004428,0.015815,0.002391,-0.480939,-0.084047,1.10605,-263.78177,-1.389326,68.036746
0.9963,0.045158,0.027198,-0.084586,0.002544,-0.00443,0.015972,0.001773,-0.481047,-0.085023,1.10605,-263.78177,-1.389326,68.036746
1.0164,0.044968,0.027091,-0.086853,0.002542,-0.004431,0.016099,0.001773,-0.481047,-0.085023,1.10605,-263.78177,-1.389326,68.036746
1.0363,0.044257,0.026731,-0.083459,0.002541,-0.004433,0.016202,0.000818,-0.481179,-0.086193,1.117886,-263.779439,-1.39199,68.042482
1.0563,0.04506,0.026966,-0.084586,0.002555,-0.004434,0.016366,0.001216,-0.481334,-0.084969,1.117886,-263.779439,-1.39199,68.042482
1.076,0.044699,0.026751,-0.084305,0.002567,-0.004436,0.016499,0.00204,-0.481356,-0.084076,1.135377,-263.777048,-1.395274,68.048257
1.0965,0.044223,0.026623,-0.083877,0.002558,-0.004437,0.016676,0.001783,-0.481438,-0.084259,1.135377,-263.777048,-1.395274,68.048257
1.1162,0.044416,0.026759,-0.084008,0.002551,-0.004438,0.016821,0.001783,-0.481438,-0.084259,1.135377,-263.777048,-1.395274,68.048257
1.1362,0.044083,0.02657,-0.08337,0.002544,-0.004438,0.016941,0.001713,-0.481636,-0.08332,1.143728,-263.774575,-1.395713,68.054137
1.1563,0.044147,0.026513,-0.083,0.00254,-0.004439,0.017105,0.001683,-0.481668,-0.083261,1.143728,-263.774575,-1.395713,68.054137
1.1763,0.04395,0.026485,-0.081216,0.002537,-0.00444,0.017241,0.001934,-0.481878,-0.082464,1.164174,-263.77202,-1.400383,68.060096
1.1961,0.043728,0.025999,-0.081415,0.002504,-0.00444,0.017408,0.002521,-0.481845,-0.081301,1.164174,-263.77202,-1.400383,68.060096
1.2164,0.043535,0.026313,-0.081622,0.002477,-0.00444,0.017546,0.002521,-0.481845,-0.081301,1.164174,-263.77202,-1.400383,68.060096
1.2361,0.04359,0.02604,-0.080557,0.002453,-0.00444,0.017662,0.002044,-0.482183,-0.0809,1.176109,-263.769387,-1.402934,68.066155
1.2561,0.043883,0.026226,-0.080776,0.002439,-0.00444,0.017814,0.002259,-0.482255,-0.080679,1.176109,-263.769387,-1.402934,68.066155
1.2763,0.043341,0.025851,-0.081916,0.002427,-0.00444,0.01794,0.002798,-0.482257,-0.080221,1.201987,-263.766693,-1.411062,68.07226
1.2966,0.043402,0.025683,-0.080047,0.002435,-0.004441,0.018092,0.001717,-0.48243,-0.081742,1.201987,-263.766693,-1.411062,68.07226
1.3164,0.043065,0.025695,-0.080634,0.002442,-0.004442,0.018219,0.001717,-0.48243,-0.081742,1.201987,-263.766693,-1.411062,68.07226
1.3368,0.043025,0.025814,-0.079678,0.002448,-0.004443,0.018325,0.002072,-0.482841,-0.079886,1.214231,-263.763923,-1.41444,68.078471
1.3566,0.042722,0.025835,-0.078037,0.002433,-0.004442,0.018444,0.002228,-0.482752,-0.079715,1.214231,-263.763923,-1.41444,68.078471
1.3764,0.042483,0.025619,-0.07906,0.00242,-0.004442,0.018544,0.00303,-0.48276,-0.077453,1.222899,-263.76105,-1.415504,68.084804
1.3966,0.042625,0.025761,-0.077922,0.002406,-0.004442,0.018653,0.002279,-0.482793,-0.078892,1.222899,-263.76105,-1.415504,68.084804
1.4167,0.042542,0.025873,-0.077518,0.002395,-0.004442,0.018745,0.002279,-0.482793,-0.078892,1.222899,-263.76105,-1.415504,68.084804
1.4366,0.042238,0.024992,-0.078088,0.002385,-0.004442,0.018822,0.003134,-0.482788,-0.076744,1.23275,-263.758141,-1.418526,68.091163
1.4567,0.042346,0.025605,-0.077341,0.002354,-0.00444,0.0189,0.002867,-0.483082,-0.077203,1.23275,-263.758141,-1.418526,68.091163
1.477,0.041855,0.024879,-0.07591,0.002328,-0.004439,0.018966,0.003006,-0.483017,-0.076742,1.244766,-263.755164,-1.422262,68.097605
1.4969,0.04173,0.025344,-0.076579,0.002292,-0.004437,0.01903,0.003166,-0.483604,-0.075952,1.244766,-263.755164,-1.422262,68.097605
1.5165,0.041524,0.025302,-0.075885,0.002261,-0.004435,0.019085,0.003166,-0.483604,-0.075952,1.244766,-263.755164,-1.422262,68.097605
1.5368,0.041508,0.024938,-0.075709,0.002235,-0.004434,0.019132,0.002943,-0.483423,-0.075092,1.255794,-263.752171,-1.426515,68.104056
1.5562,0.041205,0.025175,-0.075557,0.00222,-0.004433,0.01918,0.002949,-0.483516,-0.075249,1.255794,-263.752171,-1.426515,68.104056
1.5763,0.040862,0.024892,-0.074284,0.002207,-0.004433,0.019221,0.002767,-0.483515,-0.07495,1.271765,-263.749147,-1.433002,68.110542
1.5964,0.040914,0.024887,-0.073772,0.002193,-0.004432,0.019262,0.002994,-0.483692,-0.074312,1.271765,-263.749147,-1.433002,68.110542
1.6164,0.040987,0.02467,-0.075101,0.002181,-0.004431,0.019296,0.002994,-0.483692,-0.074312,1.271765,-263.749147,-1.433002,68.110542
1.6365,0.040586,0.024298,-0.07293,0.002171,-0.004431,0.019325,0.0028,-0.484084,-0.074299,1.277426,-263.746099,-1.43515,68.117059
1.6563,0.040376,0.024634,-0.07399,0.002156,-0.00443,0.019355,0.003065,-0.484213,-0.073646,1.277426,-263.746099,-1.43515,68.117059
1.6764,0.040087,0.024307,-0.071665,0.002144,-0.004429,0.019381,0.002734,-0.484117,-0.073374,1.284466,-263.743028,-1.437877,68.123603
1.6963,0.040033,0.023821,-0.074495,0.002116,-0.004427,0.019405,0.003493,-0.484366,-0.071794,1.284466,-263.743028,-1.437877,68.123603
1.7161,0.039929,0.024012,-0.072273,0.002093,-0.004425,0.019427,0.003493,-0.484366,-0.071794,1.284466,-263.743028,-1.437877,68.123603
1.7361,0.039719,0.024193,-0.070939,0.002072,-0.004423,0.019445,0.003178,-0.484848,-0.071463,1.28907,-263.739945,-1.439736,68.130163
1.7564,0.039488,0.024431,-0.071214,0.002058,-0.004422,0.019466,0.003347,-0.484738,-0.071156,1.28907,-263.739945,-1.439736,68.130163
1.7763,0.039403,0.023862,-0.070637,0.002045,-0.004421,0.019485,0.003255,-0.484421,-0.070594,1.2996,-263.736857,-1.444333,68.136721
1.7962,0.038966,0.023919,-0.06959,0.002032,-0.00442,0.019504,0.003396,-0.484831,-0.0706,1.2996,-263.736857,-1.444333,68.136721
1.8164,0.039252,0.024095,-0.06971,0.00202,-0.004419,0.019521,0.003396,-0.484831,-0.0706,1.2996,-263.736857,-1.444333,68.136721
1.8367,0.039225,0.023696,-0.069252,0.00201,-0.004418,0.019536,0.003802,-0.484856,-0.068894,1.303888,-263.733756,-1.446142,68.143299
1.8563,0.038569,0.023742,-0.070615,0.001983,-0.004416,0.019548,0.003864,-0.48497,-0.068946,1.303888,-263.733756,-1.446142,68.143299
1.8762,0.038407,0.023899,-0.068756,0.00196,-0.004413,0.019559,0.00264,-0.485132,-0.069993,1.309328,-263.730647,-1.448443,68.149884
1.8962,0.038542,0.022982,-0.068558,0.00196,-0.004414,0.019576,0.003306,-0.484925,-0.068835,1.309328,-263.730647,-1.448443,68.149884
1.9162,0.039013,0.02362,-0.067796,0.001961,-0.004414,0.01959,0.003306,-0.484925,-0.068835,1.309328,-263.730647,-1.448443,68.149884
1.9361,0.038178,0.023358,-0.066825,0.001961,-0.004414,0.019602,0.004533,-0.485398,-0.066978,1.316252,-263.727536,-1.451561,68.15647
1.9561,0.037928,0.023286,-0.068709,0.001917,-0.004409,0.019606,0.004373,-0.485463,-0.066821,1.316252,-263.727536,-1.451561,68.15647
1.9764,0.037859,0.023268,-0.064785,0.00188,-0.004405,0.019611,0.002966,-0.485655,-0.068085,1.31694,-263.724413,-1.451697,68.16307
1.9963,0.037437,0.023114,-0.066098,0.001835,-0.004399,0.019615,0.004676,-0.485669,-0.06505,1.31694,-263.724413,-1.451697,68.16307
2.0168,0.037955,0.023443,-0.066518,0.001796,-0.004394,0.01962,0.004676,-0.485669,-0.06505,1.31694,-263.724413,-1.451697,68.16307
2.0366,0.037152,0.023159,-0.065716,0.001763,-0.00439,0.019626,0.004122,-0.485618,-0.065699,1.32739,-263.721299,-1.456506,68.169651
2.0566,0.037286,0.022658,-0.064595,0.001762,-0.004391,0.019638,0.003941,-0.48569,-0.065612,1.32739,-263.721299,-1.456506,68.169651
2.0764,0.036813,0.022497,-0.066165,0.001762,-0.004392,0.019648,0.004413,-0.486421,-0.063973,1.342707,-263.71819,-1.463539,68.176219
2.0961,0.03704,0.022645,-0.063544,0.001784,-0.004395,0.019662,0.00321,-0.486397,-0.065943,1.342707,-263.71819,-1.463539,68.176219
2.1161,0.036999,0.022748,-0.064998,0.001803,-0.004397,0.019673,0.00321,-0.486397,-0.065943,1.342707,-263.71819,-1.463539,68.176219
2.136,0.036387,0.022626,-0.062233,0.001819,-0.004399,0.019681,0.003935,-0.486363,-0.064177,1.343288,-263.715066,-1.463745,68.182813
2.1562,0.036465,0.022764,-0.062844,0.001792,-0.004396,0.01968,0.004244,-0.486395,-0.063282,1.343288,-263.715066,-1.463745,68.182813
2.176,0.036089,0.022492,-0.061493,0.001768,-0.004393,0.019681,0.004484,-0.486373,-0.062218,1.336429,-263.711934,-1.460434,68.189418
2.1963,0.035892,0.022494,-0.063021,0.001727,-0.004387,0.01968,0.004727,-0.486536,-0.061524,1.336429,-263.711934,-1.460434,68.189418
2.2162,0.035982,0.022321,-0.062744,0.001693,-0.004382,0.019679,0.004727,-0.486536,-0.061524,1.336429,-263.711934,-1.460434,68.189418
2.2366,0.035647,0.02232,-0.062047,0.001663,-0.004378,0.01968,0.004066,-0.486863,-0.061922,1.342995,-263.70881,-1.463479,68.196004
2.2569,0.035916,0.022044,-0.061179,0.001662,-0.004379,0.019687,0.004056,-0.486818,-0.061878,1.342995,-263.70881,-1.463479,68.196004
2.2765,0.034887,0.022253,-0.061284,0.00166,-0.004379,0.019693,0.004779,-0.487144,-0.060552,1.356486,-263.705688,-1.469719,68.202584
2.2967,0.035218,0.022142,-0.061059,0.00167,-0.004381,0.0197,0.003753,-0.486828,-0.061188,1.356486,-263.705688,-1.469719,68.202584
2.3165,0.034754,0.022009,-0.060531,0.001678,-0.004383,0.019706,0.003753,-0.486828,-0.061188,1.356486,-263.705688,-1.469719,68.202584
2.3363,0.034737,0.02197,-0.058164,0.001685,-0.004384,0.01971,0.003961,-0.487244,-0.059707,1.357053,-263.702562,-1.469955,68.20917
2.3565,0.034729,0.021814,-0.059221,0.00166,-0.00438,0.019708,0.004427,-0.487234,-0.058985,1.357053,-263.702562,-1.469955,68.20917
2.3767,0.034166,0.021471,-0.059069,0.001639,-0.004377,0.019707,0.004589,-0.487434,-0.058594,1.354085,-263.699423,-1.468537,68.215782
2.3966,0.034195,0.021393,-0.05783,0.00163,-0.004376,0.019709,0.004106,-0.487629,-0.058998,1.354085,-263.699423,-1.468537,68.215782
2.4167,0.034093,0.021781,-0.058734,0.001622,-0.004375,0.019711,0.004106,-0.487629,-0.058998,1.354085,-263.699423,-1.468537,68.215782
2.4366,0.03402,0.021402,-0.059171,0.001616,-0.004374,0.019713,0.004214,-0.487526,-0.057911,1.360024,-263.696297,-1.471291,68.222365
2.4565,0.034206,0.021643,-0.05758,0.001611,-0.004374,0.019715,0.004076,-0.487621,-0.05833,1.360024,-263.696297,-1.471291,68.222365
2.4763,0.033122,0.021284,-0.057126,0.001607,-0.004373,0.019717,0.0049,-0.487654,-0.056951,1.363043,-263.693164,-1.47267,68.228962
2.4965,0.033378,0.020901,-0.055732,0.0016,-0.004372,0.019719,0.004086,-0.487871,-0.057078,1.363043,-263.693164,-1.47267,68.228962
2.5167,0.033532,0.021537,-0.055563,0.001594,-0.004372,0.01972,0.004086,-0.487871,-0.057078,1.363043,-263.693164,-1.47267,68.228962
2.5367,0.032779,0.021347,-0.05559,0.001589,-0.004371,0.019721,0.005267,-0.487863,-0.054737,1.364242,-263.69003,-1.473214,68.235559
2.5567,0.03254,0.020985,-0.055591,0.001549,-0.004364,0.019716,0.004939,-0.487885,-0.054988,1.364242,-263.69003,-1.473214,68.235559
2.5765,0.032833,0.020621,-0.055169,0.001515,-0.004358,0.019713,0.004246,-0.488369,-0.054963,1.366624,-263.686895,-1.474303,68.242157
2.5967,0.032486,0.020655,-0.055291,0.00149,-0.004354,0.019712,0.004672,-0.48859,-0.05512,1.366624,-263.686895,-1.474303,68.242157
2.6165,0.032637,0.021136,-0.05372,0.001468,-0.00435,0.019713,0.004672,-0.48859,-0.05512,1.366624,-263.686895,-1.474303,68.242157
2.6369,0.03186,0.02079,-0.05364,0.00145,-0.004347,0.019714,0.005306,-0.488313,-0.052896,1.376113,-263.683769,-1.478686,68.248731
2.6564,0.03243,0.020596,-0.054553,0.001422,-0.004342,0.019712,0.004996,-0.4884,-0.053098,1.376113,-263.683769,-1.478686,68.248731
2.6761,0.031925,0.020353,-0.053835,0.001397,-0.004338,0.019712,0.00466,-0.488786,-0.053926,1.384481,-263.680642,-1.482534,68.255304
2.6961,0.031534,0.020352,-0.051808,0.001393,-0.004337,0.019716,0.0045,-0.488904,-0.053811,1.384481,-263.680642,-1.482534,68.255304
2.7162,0.031416,0.020448,-0.053069,0.001389,-0.004337,0.019719,0.0045,-0.488904,-0.053811,1.384481,-263.680642,-1.482534,68.255304
2.7363,0.031292,0.019998,-0.050515,0.001385,-0.004337,0.019722,0.004412,-0.489018,-0.052245,1.391298,-263.677514,-1.485675,68.261871
2.7563,0.031106,0.020302,-0.052443,0.001362,-0.004332,0.01972,0.004877,-0.489175,-0.051446,1.391298,-263.677514,-1.485675,68.261871
2.776,0.030683,0.02027,-0.050701,0.001342,-0.004329,0.019719,0.004409,-0.489137,-0.051815,1.392994,-263.674379,-1.486443,68.268453
2.7961,0.030782,0.019876,-0.050439,0.001328,-0.004326,0.01972,0.004801,-0.489087,-0.050767,1.392994,-263.674379,-1.486443,68.268453
2.8163,0.030641,0.020358,-0.050704,0.001317,-0.004324,0.019721,0.004801,-0.489087,-0.050767,1.392994,-263.674379,-1.486443,68.268453
2.8363,0.030328,0.019931,-0.049587,0.001307,-0.004323,0.019722,0.00484,-0.489171,-0.049878,1.398612,-263.671251,-1.489031,68.275014
2.8565,0.030189,0.020075,-0.049534,0.00129,-0.004319,0.019722,0.00493,-0.489302,-0.049666,1.398612,-263.671251,-1.489031,68.275014
2.8764,0.030402,0.019509,-0.048871,0.001276,-0.004317,0.019722,0.004972,-0.48944,-0.048903,1.403157,-263.668114,-1.491121,68.281592
2.8964,0.029813,0.019573,-0.049811,0.001235,-0.004307,0.019717,0.005445,-0.489851,-0.048843,1.403157,-263.668114,-1.491121,68.281592
2.9163,0.029762,0.019734,-0.047227,0.0012,-0.0043,0.019713,0.005445,-0.489851,-0.048843,1.403157,-263.668114,-1.491121,68.281592
2.9361,0.029444,0.019457,-0.046616,0.001171,-0.004293,0.019712,0.005729,-0.48988,-0.046403,1.407227,-263.664983,-1.492995,68.288151
2.9563,0.029604,0.019527,-0.048271,0.001131,-0.004284,0.019708,0.005714,-0.489946,-0.046395,1.407227,-263.664983,-1.492995,68.288151
2.9762,0.028965,0.019564,-0.0457,0.001097,-0.004276,0.019707,0.005026,-0.490017,-0.047646,1.420797,-263.661859,-1.49924,68.29468
2.996,0.029039,0.019505,-0.046924,0.001073,-0.004271,0.019707,0.005611,-0.48992,-0.04584,1.420797,-263.661859,-1.49924,68.29468
3.0161,0.02911,0.019439,-0.046465,0.001052,-0.004266,0.019708,0.005611,-0.48992,-0.04584,1.420797,-263.661859,-1.49924,68.29468
3.036,0.028142,0.019044,-0.045977,0.001035,-0.004262,0.01971,0.005458,-0.49019,-0.045645,1.4303,-263.658729,-1.503618,68.30121
3.0561,0.028589,0.019042,-0.045766,0.001034,-0.004263,0.019714,0.005149,-0.490305,-0.045687,1.4303,-263.658729,-1.503618,68.30121
3.0759,0.028352,0.018679,-0.044141,0.001034,-0.004263,0.019717,0.005284,-0.49056,-0.045142,1.438515,-263.655597,-1.50741,68.307731
3.0965,0.0281,0.018917,-0.04671,0.000998,-0.004254,0.019712,0.0058,-0.490808,-0.044196,1.438515,-263.655597,-1.50741,68.307731
3.1161,0.027997,0.018637,-0.044919,0.000967,-0.004245,0.019709,0.0058,-0.490808,-0.044196,1.438515,-263.655597,-1.50741,68.307731
3.1364,0.027888,0.018971,-0.044384,0.000941,-0.004239,0.019708,0.005132,-0.491029,-0.044096,1.438658,-263.652459,-1.507468,68.314265
3.156,0.027508,0.01846,-0.043558,0.000945,-0.00424,0.019713,0.005188,-0.490844,-0.044118,1.438658,-263.652459,-1.507468,68.314265
3.176,0.026983,0.017993,-0.043072,0.000948,-0.004241,0.019717,0.005324,-0.491192,-0.042932,1.450719,-263.649324,-1.51305,68.320772
3.1966,0.02676,0.018414,-0.043473,0.000948,-0.004241,0.019719,0.00505,-0.491512,-0.04303,1.450719,-263.649324,-1.51305,68.320772
3.2164,0.026986,0.018149,-0.044312,0.000947,-0.004241,0.01972,0.00505,-0.491512,-0.04303,1.450719,-263.649324,-1.51305,68.320772
3.2363,0.026751,0.018457,-0.04174,0.000946,-0.004241,0.019721,0.004426,-0.491529,-0.043487,1.449828,-263.646183,-1.512626,68.327291
3.2564,0.026825,0.018181,-0.040673,0.000956,-0.004243,0.019724,0.004857,-0.491374,-0.042678,1.449828,-263.646183,-1.512626,68.327291
3.2763,0.02596,0.018247,-0.040865,0.000965,-0.004245,0.019727,0.006112,-0.491533,-0.040044,1.450105,-263.643034,-1.512743,68.333825
3.2963,0.026299,0.018234,-0.040217,0.000955,-0.004243,0.019725,0.005209,-0.491351,-0.040765,1.450105,-263.643034,-1.512743,68.333825
3.3162,0.026168,0.018266,-0.042747,0.000946,-0.00424,0.019723,0.005209,-0.491351,-0.040765,1.450105,-263.643034,-1.512743,68.333825
3.3368,0.025631,0.018211,-0.039457,0.000938,-0.004238,0.019723,0.004406,-0.491447,-0.041923,1.447763,-263.639893,-1.511648,68.340346
3.3561,0.025559,0.018228,-0.039674,0.000947,-0.004241,0.019725,0.004861,-0.491445,-0.040822,1.447763,-263.639893,-1.511648,68.340346
3.3761,0.024841,0.017637,-0.038159,0.000954,-0.004242,0.019727,0.005355,-0.491506,-0.039046,1.451168,-263.636753,-1.513231,68.34686
3.3964,0.025452,0.017582,-0.039243,0.000927,-0.004235,0.019721,0.005383,-0.491956,-0.038206,1.451168,-263.636753,-1.513231,68.34686
3.4162,0.025461,0.017581,-0.039482,0.000903,-0.004228,0.019717,0.005383,-0.491956,-0.038206,1.451168,-263.636753,-1.513231,68.34686
3.4363,0.024689,0.017644,-0.037664,0.000884,-0.004222,0.019714,0.005363,-0.492201,-0.038657,1.449172,-263.633603,-1.512297,68.353396
3.4562,0.024688,0.017902,-0.038643,0.000863,-0.004216,0.019712,0.005417,-0.492137,-0.038154,1.449172,-263.633603,-1.512297,68.353396
3.4762,0.023835,0.017223,-0.037155,0.000845,-0.004211,0.019711,0.005008,-0.491852,-0.038017,1.458223,-263.630466,-1.516502,68.35989
3.4964,0.02421,0.017668,-0.036539,0.000852,-0.004213,0.019715,0.004901,-0.492381,-0.0372,1.458223,-263.630466,-1.516502,68.35989
3.5163,0.024299,0.017383,-0.037378,0.000859,-0.004215,0.019718,0.004901,-0.492381,-0.0372,1.458223,-263.630466,-1.516502,68.35989
3.5363,0.023811,0.017199,-0.035678,0.000864,-0.004216,0.01972,0.005269,-0.492439,-0.036551,1.463228,-263.627318,-1.518829,68.366396
3.5567,0.024092,0.017251,-0.036204,0.000841,-0.004209,0.019716,0.005414,-0.492474,-0.036104,1.463228,-263.627318,-1.518829,68.366396
3.5764,0.023568,0.016884,-0.03557,0.000822,-0.004204,0.019714,0.005655,-0.49255,-0.035575,1.460906,-263.624163,-1.517727,68.37292
3.5964,0.023467,0.017514,-0.035393,0.000799,-0.004197,0.01971,0.005451,-0.492779,-0.03554,1.460906,-263.624163,-1.517727,68.37292
3.6167,0.02345,0.01715,-0.034643,0.000779,-0.004191,0.019709,0.005451,-0.492779,-0.03554,1.460906,-263.624163,-1.517727,68.37292
3.6366,0.02301,0.016993,-0.033121,0.000762,-0.004186,0.019708,0.005814,-0.492721,-0.033819,1.466265,-263.621012,-1.520226,68.379423
3.6567,0.022666,0.016941,-0.033487,0.000724,-0.004173,0.019703,0.005943,-0.492744,-0.033439,1.466265,-263.621012,-1.520226,68.379423
3.6764,0.02232,0.016336,-0.033944,0.000691,-0.004163,0.0197,0.005611,-0.492907,-0.03286,1.473983,-263.617862,-1.523829,68.385908
3.6964,0.022651,0.016733,-0.032222,0.000696,-0.004164,0.019705,0.005065,-0.493337,-0.033819,1.473983,-263.617862,-1.523829,68.385908
3.7163,0.022203,0.016889,-0.032462,0.000701,-0.004165,0.019709,0.005065,-0.493337,-0.033819,1.473983,-263.617862,-1.523829,68.385908
3.7361,0.02197,0.016286,-0.032454,0.000704,-0.004166,0.019712,0.005673,-0.493017,-0.031641,1.483181,-263.614712,-1.528142,68.392372
3.7562,0.022296,0.016432,-0.032684,0.000682,-0.004159,0.019709,0.005573,-0.493212,-0.031877,1.483181,-263.614712,-1.528142,68.392372
3.7762,0.021551,0.016357,-0.030562,0.000664,-0.004154,0.019707,0.005648,-0.493429,-0.032057,1.481597,-263.611547,-1.527375,68.398869
3.7961,0.021473,0.016241,-0.031877,0.000626,-0.004141,0.019701,0.00594,-0.493413,-0.03066,1.481597,-263.611547,-1.527375,68.398869
3.8163,0.021642,0.01603,-0.031104,0.000594,-0.00413,0.019698,0.00594,-0.493413,-0.03066,1.481597,-263.611547,-1.527375,68.398869
3.8364,0.020928,0.016318,-0.031536,0.000567,-0.004121,0.019696,0.005804,-0.493898,-0.030282,1.486771,-263.608384,-1.529812,68.405346
3.8564,0.021391,0.016003,-0.031665,0.000564,-0.00412,0.0197,0.005414,-0.493725,-0.030701,1.486771,-263.608384,-1.529812,68.405346
3.8766,0.020809,0.015983,-0.027324,0.000562,-0.004119,0.019703,0.005259,-0.493873,-0.031038,1.499234,-263.605221,-1.535708,68.411793
3.8963,0.02062,0.015983,-0.029604,0.000492,-0.004093,0.01969,0.006712,-0.493839,-0.027664,1.499234,-263.605221,-1.535708,68.411793
3.9172,0.020652,0.015751,-0.028301,0.000434,-0.004071,0.019682,0.006712,-0.493839,-0.027664,1.499234,-263.605221,-1.535708,68.411793
3.9366,0.020641,0.015568,-0.027418,0.000384,-0.004052,0.019678,0.006239,-0.49422,-0.027466,1.499933,-263.602049,-1.536031,68.418256
3.9565,0.020118,0.015392,-0.027649,0.000348,-0.004039,0.019677,0.006406,-0.494247,-0.027356,1.499933,-263.602049,-1.536031,68.418256
3.9762,0.019848,0.015368,-0.028825,0.000317,-0.004027,0.019677,0.006028,-0.494541,-0.027029,1.522618,-263.598889,-1.546901,68.424625
3.9964,0.019585,0.015356,-0.027301,0.000348,-0.004038,0.01969,0.005224,-0.494437,-0.028643,1.522618,-263.598889,-1.546901,68.424625
4.0169,0.019661,0.01537,-0.027615,0.000374,-0.004047,0.019699,0.005224,-0.494437,-0.028643,1.522618,-263.598889,-1.546901,68.424625
4.0367,0.019041,0.015234,-0.026333,0.000396,-0.004055,0.019706,0.005588,-0.494604,-0.026793,1.5311,-263.595701,-1.551019,68.431023
4.0568,0.019162,0.0149,-0.024816,0.000389,-0.004053,0.019704,0.005599,-0.494617,-0.026512,1.5311,-263.595701,-1.551019,68.431023
4.0764,0.018468,0.014898,-0.025459,0.000384,-0.004051,0.019704,0.006517,-0.495072,-0.024189,1.521216,-263.592506,-1.546191,68.437458
4.0967,0.018722,0.015028,-0.024934,0.000372,-0.004046,0.019701,0.005575,-0.494955,-0.025319,1.521216,-263.592506,-1.546191,68.437458
4.1163,0.018474,0.014894,-0.023794,0.000363,-0.004043,0.019699,0.005575,-0.494955,-0.025319,1.521216,-263.592506,-1.546191,68.437458
4.1366,0.018169,0.01484,-0.025079,0.000355,-0.004039,0.019698,0.006352,-0.495132,-0.022967,1.522767,-263.589309,-1.546945,68.443893
4.1566,0.01852,0.015015,-0.02455,0.000323,-0.004027,0.019692,0.005959,-0.495098,-0.023731,1.522767,-263.589309,-1.546945,68.443893
4.1765,0.017856,0.014828,-0.022871,0.000297,-0.004016,0.019688,0.006009,-0.494961,-0.023921,1.526444,-263.586111,-1.54873,68.450321
4.1964,0.017402,0.014846,-0.022153,0.000264,-0.004003,0.019684,0.006177,-0.495038,-0.022931,1.526444,-263.586111,-1.54873,68.450321
4.2166,0.017541,0.015017,-0.023705,0.000237,-0.003992,0.019682,0.006177,-0.495038,-0.022931,1.526444,-263.586111,-1.54873,68.450321
4.2362,0.017604,0.014412,-0.023693,0.000213,-0.003982,0.019681,0.005462,-0.495008,-0.022882,1.533706,-263.582912,-1.552273,68.456724
4.2562,0.017547,0.014624,-0.020752,0.000226,-0.003987,0.019688,0.005487,-0.495206,-0.023119,1.533706,-263.582912,-1.552273,68.456724
4.2762,0.017015,0.014608,-0.022897,0.000237,-0.003991,0.019693,0.006969,-0.495393,-0.020127,1.544277,-263.579688,-1.557473,68.463142
4.2968,0.016622,0.014229,-0.022043,0.000245,-0.003994,0.019696,0.005465,-0.495275,-0.022654,1.544277,-263.579688,-1.557473,68.463142
4.3166,0.016776,0.014276,-0.020098,0.000252,-0.003996,0.019698,0.005465,-0.495275,-0.022654,1.544277,-263.579688,-1.557473,68.463142
4.3365,0.016468,0.014014,-0.020056,0.000257,-0.003998,0.0197,0.006534,-0.495789,-0.019274,1.541361,-263.576479,-1.556025,68.469536
4.3565,0.016179,0.014404,-0.02061,0.000195,-0.003972,0.019678,0.006416,-0.495846,-0.019496,1.541361,-263.576479,-1.556025,68.469536
4.3762,0.015835,0.013881,-0.018323,0.000143,-0.00395,0.019662,0.005674,-0.495615,-0.019985,1.538792,-263.573266,-1.554752,68.475944
4.3964,0.015469,0.014168,-0.016591,9.2e-05,-0.003931,0.019642,0.006422,-0.496005,-0.018433,1.538792,-263.573266,-1.554752,68.475944
4.4164,0.015865,0.013961,-0.018874,5e-05,-0.003914,0.019627,0.006422,-0.496005,-0.018433,1.538792,-263.573266,-1.554752,68.475944
4.4365,0.015049,0.013456,-0.018593,1.4e-05,-0.0039,0.019617,0.006242,-0.496112,-0.018056,1.553113,-263.570063,-1.561867,68.482286
4.4565,0.015294,0.013938,-0.018029,0.0,-0.003896,0.01961,0.005968,-0.496271,-0.01818,1.553113,-263.570063,-1.561867,68.482286
4.4762,0.014979,0.013575,-0.0171,-1.1e-05,-0.003893,0.019605,0.006098,-0.496103,-0.017405,1.569086,-263.566842,-1.569926,68.488617
4.4966,0.014595,0.013999,-0.016737,-3.9e-05,-0.003885,0.01958,0.006244,-0.496335,-0.017095,1.569086,-263.566842,-1.569926,68.488617
4.5167,0.014879,0.013854,-0.016988,-6.2e-05,-0.003878,0.01956,0.006244,-0.496335,-0.017095,1.569086,-263.566842,-1.569926,68.488617
4.5366,0.014557,0.013331,-0.016854,-8.2e-05,-0.003872,0.019544,0.006213,-0.496236,-0.016168,1.57214,-263.563608,-1.57148,68.494967
4.5565,0.014108,0.013371,-0.018293,-9.5e-05,-0.003872,0.019515,0.006109,-0.496403,-0.016355,1.57214,-263.563608,-1.57148,68.494967
4.5762,0.013703,0.013134,-0.014737,-0.000105,-0.003871,0.019492,0.004775,-0.496667,-0.017672,1.580969,-263.560388,-1.575985,68.501279
4.5966,0.013541,0.013309,-0.014682,-0.000121,-0.003871,0.019413,0.006059,-0.496804,-0.014971,1.580969,-263.560388,-1.575985,68.501279
4.6163,0.013548,0.013316,-0.016777,-0.000135,-0.003871,0.019352,0.006059,-0.496804,-0.014971,1.580969,-263.560388,-1.575985,68.501279
4.6364,0.013055,0.013276,-0.014987,-0.000147,-0.00387,0.019303,0.004985,-0.496774,-0.015961,1.583864,-263.557176,-1.577451,68.507586
4.6565,0.013332,0.012952,-0.013275,-0.000104,-0.00389,0.0193,0.005158,-0.496749,-0.015472,1.583864,-263.557176,-1.577451,68.507586
4.6762,0.012678,0.012991,-0.013055,-6.9e-05,-0.003907,0.019295,0.006556,-0.497127,-0.01266,1.589349,-263.554009,-1.58018,68.513847
4.6964,0.012762,0.0124,-0.013686,-9.2e-05,-0.003902,0.019101,0.006066,-0.496985,-0.012991,1.589349,-263.554009,-1.58018,68.513847
4.7165,0.012627,0.012951,-0.012861,-0.000111,-0.003898,0.018952,0.006066,-0.496985,-0.012991,1.589349,-263.554009,-1.58018,68.513847
4.7363,0.012292,0.012514,-0.012858,-0.000127,-0.003894,0.018836,0.006063,-0.497171,-0.012053,1.579533,-263.55087,-1.575183,68.5201
4.7562,0.012302,0.012916,-0.012108,-0.000139,-0.00389,0.018672,0.005931,-0.497298,-0.012283,1.579533,-263.55087,-1.575183,68.5201
4.776,0.011879,0.012351,-0.012531,-0.000148,-0.003887,0.018547,0.006121,-0.49717,-0.011509,1.587494,-263.547829,-1.579049,68.526252
4.7963,0.01172,0.012575,-0.011178,-0.000142,-0.00389,0.018467,0.005545,-0.497576,-0.012408,1.587494,-263.547829,-1.579049,68.526252
4.8164,0.011504,0.012124,-0.010991,-0.000137,-0.003893,0.018406,0.005545,-0.497576,-0.012408,1.587494,-263.547829,-1.579049,68.526252
4.8363,0.011478,0.01224,-0.01207,-0.000133,-0.003895,0.018359,0.005891,-0.498008,-0.010214,1.590695,-263.544848,-1.580529,68.532347
4.8567,0.011257,0.01207,-0.009684,-0.000139,-0.003885,0.018123,0.005657,-0.49791,-0.010884,1.590695,-263.544848,-1.580529,68.532347
4.8765,0.010743,0.012105,-0.010011,-0.000144,-0.003876,0.017947,0.006312,-0.49803,-0.009101,1.588937,-263.541925,-1.579585,68.538379
4.8962,0.010421,0.012137,-0.009206,-0.000145,-0.003866,0.01765,0.005699,-0.49789,-0.009896,1.588937,-263.541925,-1.579585,68.538379
4.9165,0.010669,0.01248,-0.009245,-0.000147,-0.003858,0.017433,0.005699,-0.49789,-0.009896,1.588937,-263.541925,-1.579585,68.538379
4.9366,0.010237,0.012083,-0.009665,-0.000147,-0.003851,0.017276,0.005947,-0.497661,-0.008492,1.591051,-263.539091,-1.580469,68.544314
4.9569,0.010169,0.012013,-0.007435,-0.00014,-0.003843,0.016963,0.005689,-0.497773,-0.008878,1.591051,-263.539091,-1.580469,68.544314
4.9768,0.009427,0.011734,-0.007956,-0.000133,-0.003837,0.016737,0.006371,-0.498096,-0.006883,1.592757,-263.53641,-1.581015,68.550075
4.9962,0.009796,0.01168,-0.007654,-0.000124,-0.003827,0.016334,0.005465,-0.498242,-0.007824,1.592757,-263.53641,-1.581015,68.550075
5.0164,0.009625,0.01139,-0.00827,-0.000116,-0.003819,0.016046,0.005465,-0.498242,-0.007824,1.592757,-263.53641,-1.581015,68.550075
5.0361,0.00942,0.011312,-0.008494,-0.000109,-0.003814,0.015843,0.005401,-0.498753,-0.007569,1.591595,-263.533857,-1.580244,68.555697
5.0561,0.00971,0.011352,-0.005453,-0.000105,-0.003809,0.015703,0.005273,-0.498737,-0.007865,1.591595,-263.533857,-1.580244,68.555697
5.0765,0.008745,0.011316,-0.004682,-0.000102,-0.003804,0.015604,0.006925,-0.498762,-0.004949,1.589342,-263.531507,-1.578855,68.561103
5.0966,0.009295,0.01152,-0.006551,-0.00018,-0.003765,0.014562,0.006406,-0.498692,-0.00468,1.589342,-263.531507,-1.578855,68.561103
5.1161,0.009168,0.011448,-0.006266,-0.000238,-0.003731,0.013839,0.006406,-0.498692,-0.00468,1.589342,-263.531507,-1.578855,68.561103
5.1361,0.0081,0.011028,-0.005741,-0.000282,-0.003702,0.013341,0.005968,-0.498701,-0.005614,1.588602,-263.52922,-1.578443,68.566428
5.1562,0.008318,0.010935,-0.005592,-0.00027,-0.003697,0.013308,0.005642,-0.498827,-0.005591,1.588602,-263.52922,-1.578443,68.566428
5.1764,0.008316,0.011087,-0.00444,-0.00026,-0.003693,0.013292,0.005457,-0.499171,-0.005183,1.634178,-263.527504,-1.594605,68.570995
5.1962,0.008213,0.010663,-0.005713,-0.000282,-0.003676,0.012902,0.005997,-0.498938,-0.004486,1.634178,-263.527504,-1.594605,68.570995
5.2162,0.008302,0.010695,-0.00379,-0.000298,-0.003662,0.012631,0.005997,-0.498938,-0.004486,1.634178,-263.527504,-1.594605,68.570995
5.2361,0.007721,0.010738,-0.00377,-0.000311,-0.00365,0.012446,0.006358,-0.499456,-0.003234,1.629405,-263.525731,-1.592778,68.575719
5.2564,0.008039,0.011094,-0.004777,-0.000354,-0.003629,0.011881,0.006129,-0.499393,-0.003388,1.629405,-263.525731,-1.592778,68.575719
5.2763,0.007463,0.010734,-0.00326,-0.000386,-0.003611,0.011488,0.005593,-0.499016,-0.004383,1.649249,-263.524157,-1.598399,68.58019
5.2965,0.007424,0.010236,-0.003163,-0.000385,-0.003611,0.011198,0.005781,-0.499247,-0.00334,1.649249,-263.524157,-1.598399,68.58019
5.3167,0.00739,0.010282,-0.004118,-0.000383,-0.003609,0.010995,0.005781,-0.499247,-0.00334,1.649249,-263.524157,-1.598399,68.58019
5.3363,0.007171,0.010694,-0.001696,-0.000379,-0.003607,0.010854,0.005273,-0.499862,-0.003647,1.683713,-263.522813,-1.607116,68.584359
5.3566,0.007025,0.010559,-0.00236,-0.00039,-0.003602,0.010514,0.005693,-0.499652,-0.002796,1.683713,-263.522813,-1.607116,68.584359
5.3765,0.006951,0.010458,-0.002522,-0.000397,-0.003597,0.010273,0.005809,-0.499554,-0.002015,1.695674,-263.521598,-1.607836,68.588447
5.3964,0.007043,0.009994,-0.002928,-0.0004,-0.003597,0.009947,0.005677,-0.499547,-0.002459,1.695674,-263.521598,-1.607836,68.588447
5.4166,0.006804,0.010385,-0.00166,-0.000401,-0.003596,0.009715,0.005677,-0.499547,-0.002459,1.695674,-263.521598,-1.607836,68.588447
5.4363,0.006735,0.00993,-0.001823,-0.000401,-0.003595,0.00955,0.005941,-0.499763,-0.001233,1.718045,-263.520524,-1.611001,68.592366
5.4565,0.006875,0.009936,-0.002042,-0.000435,-0.003578,0.008914,0.005884,-0.499905,-0.001424,1.718045,-263.520524,-1.611001,68.592366
5.4764,0.0066,0.010235,-0.002012,-0.000461,-0.003565,0.008457,0.005834,-0.500063,-0.002042,1.643053,-263.520524,-1.613252,68.592367
5.4964,0.006682,0.010097,-0.0022,-0.00045,-0.003567,0.00843,0.005597,-0.49979,-0.002014,1.643053,-263.520524,-1.613252,68.592367
5.5167,0.006478,0.009954,-0.000492,-0.000442,-0.003569,0.008407,0.005597,-0.49979,-0.002014,1.643053,-263.520524,-1.613252,68.592367
5.5362,0.006748,0.009777,-0.003385,-0.000434,-0.003569,0.008388,0.006227,-0.500046,-0.000492,1.567939,-263.520524,-1.623523,68.592367
5.5562,0.006637,0.009718,-0.001728,-0.00045,-0.003559,0.008215,0.00572,-0.500119,-0.001711,1.567939,-263.520524,-1.623523,68.592367
5.5765,0.006503,0.009903,-0.000317,-0.000463,-0.00355,0.008087,0.005755,-0.500281,-0.001728,1.492508,-263.520524,-1.620736,68.592367
5.5968,0.006455,0.009891,-0.00228,-0.00052,-0.003518,0.007338,0.006291,-0.500112,-0.000438,1.492508,-263.520524,-1.620736,68.592367
5.6167,0.006455,0.010006,-0.001115,-0.000565,-0.003493,0.006791,0.006291,-0.500112,-0.000438,1.492508,-263.520524,-1.620736,68.592367
5.6364,0.006899,0.010405,-0.001627,-0.0006,-0.003472,0.006391,0.005886,-0.499994,-0.001115,1.417896,-263.520524,-1.625238,68.592368
5.6569,0.006675,0.009788,-0.00241,-0.000586,-0.003476,0.00657,0.005961,-0.49983,-0.001325,1.417896,-263.520524,-1.625238,68.592368
5.6765,0.006365,0.010084,-0.001391,-0.000576,-0.003479,0.006693,0.005446,-0.500211,-0.00241,1.342904,-263.520524,-1.651964,68.592368
5.6964,0.006914,0.009932,-0.002078,-0.00055,-0.00349,0.006863,0.005638,-0.499941,-0.001478,1.342904,-263.520524,-1.651964,68.592368
5.7162,0.006621,0.010117,-0.000825,-0.00053,-0.003498,0.00698,0.005638,-0.499941,-0.001478,1.342904,-263.520524,-1.651964,68.592368
5.7361,0.006368,0.009726,-0.00301,-0.000513,-0.003506,0.00706,0.0062,-0.499883,-0.000825,1.267884,-263.520524,-1.646836,68.592368
5.7565,0.006682,0.01038,-0.000842,-0.000501,-0.003508,0.007239,0.005637,-0.500043,-0.001724,1.267884,-263.520524,-1.646836,68.592368
5.7761,0.006722,0.010174,-0.002067,-0.000492,-0.00351,0.007364,0.006252,-0.499619,-0.000842,1.192907,-263.520524,-1.636323,68.592369
5.7962,0.006743,0.010147,-0.001372,-0.000479,-0.003514,0.007564,0.00572,-0.499807,-0.001958,1.192907,-263.520524,-1.636323,68.592369
5.8162,0.006618,0.010044,-0.001748,-0.000469,-0.003517,0.007704,0.00572,-0.499807,-0.001958,1.192907,-263.520524,-1.636323,68.592369
5.8363,0.006083,0.010362,-0.001555,-0.000462,-0.00352,0.0078,0.005727,-0.499955,-0.001748,1.117978,-263.520525,-1.632098,68.592369
5.8561,0.006607,0.009957,-0.001789,-0.000446,-0.00353,0.007736,0.005549,-0.499826,-0.001669,1.117978,-263.520525,-1.632098,68.592369
5.8765,0.006727,0.00981,-0.00143,-0.000433,-0.003538,0.007685,0.005694,-0.500042,-0.001789,1.043036,-263.520525,-1.626512,68.592369
5.8967,0.006372,0.010442,-0.001162,-0.000463,-0.003522,0.007533,0.005971,-0.500176,-0.001462,1.043036,-263.520525,-1.626512,68.592369
5.9164,0.006882,0.010052,-0.003831,-0.000487,-0.003509,0.00742,0.005971,-0.500176,-0.001462,1.043036,-263.520525,-1.626512,68.592369
5.9363,0.007105,0.009842,-0.000954,-0.000507,-0.003497,0.007336,0.004929,-0.499945,-0.003831,0.968027,-263.520525,-1.623385,68.59237
5.9564,0.006331,0.010365,-0.001923,-0.000488,-0.003502,0.007772,0.005615,-0.500031,-0.002662,0.968027,-263.520525,-1.623385,68.59237
5.9767,0.006946,0.010167,-0.002428,-0.000473,-0.003505,0.008078,0.005351,-0.499635,-0.001923,0.892979,-263.520525,-1.634256,68.59237
5.9966,0.006715,0.010228,-0.002629,-0.000459,-0.00351,0.00819,0.005677,-0.499815,-0.002385,0.892979,-263.520525,-1.634256,68.59237
6.0164,0.006499,0.00964,-0.002078,-0.000449,-0.003515,0.008266,0.005677,-0.499815,-0.002385,0.892979,-263.520525,-1.634256,68.59237
6.0367,0.006831,0.010023,-0.002554,-0.00044,-0.003518,0.008316,0.00544,-0.500359,-0.002078,0.817881,-263.520525,-1.626751,68.59237
6.0567,0.006683,0.009965,-0.001825,-0.000435,-0.00352,0.008306,0.005477,-0.500197,-0.002278,0.817881,-263.520525,-1.626751,68.59237
6.0772,0.006828,0.009928,-0.001683,-0.000431,-0.003522,0.008296,0.005753,-0.500034,-0.001825,0.742521,-263.520525,-1.621934,68.592371
6.097,0.006934,0.010095,-0.0018,-0.000458,-0.003511,0.008031,0.005949,-0.500068,-0.001697,0.742521,-263.520525,-1.621934,68.592371
6.1166,0.006544,0.010018,-0.000678,-0.00048,-0.003503,0.007842,0.005949,-0.500068,-0.001697,0.742521,-263.520525,-1.621934,68.592371
6.136,0.006325,0.010416,-0.004235,-0.000498,-0.003495,0.007708,0.006198,-0.499982,-0.000678,0.668018,-263.520525,-1.620896,68.592371
6.156,0.00628,0.010051,-0.00137,-0.000462,-0.003514,0.007813,0.005369,-0.499818,-0.002129,0.668018,-263.520525,-1.620896,68.592371
6.1765,0.006588,0.00999,-0.001726,-0.000432,-0.00353,0.007887,0.005581,-0.499949,-0.00137,0.59302,-263.520525,-1.631389,68.592371
6.1962,0.006106,0.00995,-0.001792,-0.00044,-0.003529,0.007744,0.005698,-0.500004,-0.001699,0.59302,-263.520525,-1.631389,68.592371
6.2163,0.006651,0.010089,-0.003324,-0.000446,-0.003528,0.007642,0.005698,-0.500004,-0.001699,0.59302,-263.520525,-1.631389,68.592371
6.2365,0.006452,0.009807,-0.003481,-0.00045,-0.003527,0.00757,0.004956,-0.499908,-0.003324,0.517656,-263.520525,-1.622496,68.592372
6.2561,0.006943,0.009788,-0.001626,-0.000389,-0.003555,0.008164,0.004843,-0.500023,-0.003388,0.517656,-263.520525,-1.622496,68.592372
6.2764,0.006838,0.010117,-0.001784,-0.000338,-0.003576,0.008588,0.006114,-0.500211,-0.001626,0.443031,-263.520525,-1.625973,68.592372
6.2963,0.006863,0.01016,-0.003304,-0.000377,-0.003561,0.008257,0.005945,-0.499912,-0.00177,0.443031,-263.520525,-1.625973,68.592372
6.3165,0.006757,0.010056,5.5e-05,-0.000408,-0.003549,0.008025,0.005945,-0.499912,-0.00177,0.443031,-263.520525,-1.625973,68.592372
6.3361,0.006509,0.010064,-0.001714,-0.000432,-0.003538,0.007862,0.006785,-0.499944,5.5e-05,0.368023,-263.520525,-1.609144,68.592372
6.3561,0.006563,0.010155,-0.001604,-0.000486,-0.003517,0.007208,0.006315,-0.49994,-0.000669,0.368023,-263.520525,-1.609144,68.592372
6.3765,0.006809,0.009806,-0.001478,-0.000527,-0.0035,0.006741,0.005745,-0.499845,-0.001604,0.293042,-263.520525,-1.622562,68.592373
6.3965,0.006759,0.00996,-0.002605,-0.000542,-0.003488,0.006816,0.006028,-0.500164,-0.001489,0.293042,-263.520525,-1.622562,68.592373
6.4163,0.006802,0.01021,-0.003598,-0.000555,-0.003478,0.006872,0.006028,-0.500164,-0.001489,0.293042,-263.520525,-1.622562,68.592373
6.4362,0.006602,0.010719,-0.001916,-0.000566,-0.00347,0.006915,0.004967,-0.499786,-0.003598,0.217907,-263.520525,-1.639828,68.592373
6.4565,0.00658,0.010218,-0.002488,-0.000497,-0.003502,0.007532,0.005238,-0.499578,-0.002906,0.217907,-263.520525,-1.639828,68.592373
6.4765,0.006879,0.010415,-0.002791,-0.00044,-0.003528,0.007975,0.005311,-0.49978,-0.002488,0.142971,-263.520525,-1.644222,68.592373
6.4962,0.006699,0.009848,-0.001668,-0.000409,-0.003542,0.008238,0.005443,-0.499601,-0.002764,0.142971,-263.520525,-1.644222,68.592373
6.5166,0.006234,0.009652,-0.000675,-0.000383,-0.003554,0.008424,0.005443,-0.499601,-0.002764,0.142971,-263.520525,-1.644222,68.592373
6.5362,0.006606,0.01003,-0.001326,-0.000362,-0.003563,0.008556,0.00589,-0.500348,-0.000675,0.068056,-263.520525,-1.623179,68.592374
6.5562,0.006514,0.009699,-0.003515,-0.000414,-0.003546,0.007834,0.005906,-0.500194,-0.000939,0.068056,-263.520525,-1.623179,68.592374
6.5763,0.006893,0.010153,-0.002888,-0.000453,-0.003533,0.007321,0.004722,-0.500297,-0.003515,-0.006942,-263.520525,-1.612,68.592374
6.5962,0.006836,0.009818,-0.002312,-0.000421,-0.003544,0.007823,0.005357,-0.499886,-0.002945,-0.006942,-263.520525,-1.612,68.592374
6.6161,0.006619,0.010223,-0.00148,-0.000396,-0.003552,0.008183,0.005357,-0.499886,-0.002945,-0.006942,-263.520525,-1.612,68.592374
6.6361,0.006752,0.009852,-0.001849,-0.000375,-0.003559,0.00844,0.005865,-0.499777,-0.00148,-0.08196,-263.520525,-1.62727,68.592374
6.6561,0.006716,0.010009,-0.003066,-0.000403,-0.003551,0.008086,0.005842,-0.499928,-0.001631,-0.08196,-263.520525,-1.62727,68.592374
6.6766,0.006756,0.010095,-0.001554,-0.000425,-0.003544,0.007837,0.005152,-0.499988,-0.003066,-0.15697,-263.520525,-1.61385,68.592375
6.6964,0.006745,0.009826,-0.002105,-0.000443,-0.003536,0.007689,0.005892,-0.499911,-0.001688,-0.15697,-263.520525,-1.61385,68.592375
6.7163,0.006533,0.010151,-0.002577,-0.000457,-0.00353,0.007586,0.005892,-0.499911,-0.001688,-0.15697,-263.520525,-1.61385,68.592375
6.7365,0.006478,0.010401,-0.001602,-0.000469,-0.003524,0.007515,0.005219,-0.499848,-0.002577,-0.232006,-263.520526,-1.62171,68.592375
6.7564,0.006717,0.00988,-0.001914,-0.000436,-0.003539,0.007688,0.005399,-0.499746,-0.00218,-0.232006,-263.520526,-1.62171,68.592375
6.7764,0.006706,0.010079,-0.002543,-0.00041,-0.003551,0.007812,0.005741,-0.500119,-0.001914,-0.306965,-263.520526,-1.628521,68.592375
6.7964,0.006486,0.010086,-0.000236,-0.000395,-0.003555,0.008019,0.005438,-0.499936,-0.002488,-0.306965,-263.520526,-1.628521,68.592375
6.8165,0.006795,0.010532,-0.000647,-0.000384,-0.003558,0.008166,0.005438,-0.499936,-0.002488,-0.306965,-263.520526,-1.628521,68.592375
6.8364,0.006717,0.009699,-0.001966,-0.000374,-0.003561,0.008271,0.006465,-0.499468,-0.000647,-0.38202,-263.520526,-1.620025,68.592376
6.8567,0.00648,0.009836,-0.00178,-0.00042,-0.003546,0.007759,0.006159,-0.499807,-0.001185,-0.38202,-263.520526,-1.620025,68.592376
6.8759,0.006925,0.009892,-0.002983,-0.000455,-0.003534,0.007396,0.005572,-0.500163,-0.00178,-0.456954,-263.520526,-1.614241,68.592376
6.8967,0.006998,0.010054,-0.001699,-0.000436,-0.003537,0.007855,0.005419,-0.500111,-0.002874,-0.456954,-263.520526,-1.614241,68.592376
6.9166,0.006687,0.010238,-0.001528,-0.00042,-0.003539,0.008183,0.005419,-0.500111,-0.002874,-0.456954,-263.520526,-1.614241,68.592376
6.9364,0.006887,0.010205,-0.000762,-0.000408,-0.003541,0.008417,0.005908,-0.499761,-0.001528,-0.53197,-263.520526,-1.627302,68.592377
6.9566,0.00668,0.009819,-0.002105,-0.000447,-0.00353,0.007873,0.006148,-0.499775,-0.001216,-0.53197,-263.520526,-1.627302,68.592377
6.9765,0.006953,0.010235,-0.001925,-0.000477,-0.003522,0.007489,0.005606,-0.50018,-0.002105,-0.60697,-263.520526,-1.617719,68.592378
6.9963,0.006552,0.009811,-0.002738,-0.000481,-0.003518,0.007557,0.00594,-0.4998,-0.00194,-0.60697,-263.520526,-1.617719,68.592378
7.0169,0.006785,0.010039,-0.002319,-0.000485,-0.003514,0.007607,0.00594,-0.4998,-0.00194,-0.60697,-263.520526,-1.617719,68.592378
7.0361,0.006383,0.010093,-0.001756,-0.000489,-0.003511,0.007645,0.005602,-0.499961,-0.002316,-0.682125,-263.520529,-1.629605,68.592402
7.0562,0.00691,0.00983,-0.001005,-0.000471,-0.003519,0.00774,0.005555,-0.499939,-0.002087,-0.682125,-263.520529,-1.629605,68.592402
7.0765,0.006346,0.010016,-0.002905,-0.000457,-0.003525,0.007808,0.006397,-0.500171,-0.001001,-0.756968,-263.520539,-1.630494,68.592463
7.0961,0.006901,0.009686,-0.000811,-0.000405,-0.003547,0.008116,0.004998,-0.499998,-0.002739,-0.756968,-263.520539,-1.630494,68.592463
7.1163,0.00683,0.009935,-0.000961,-0.000363,-0.003565,0.008334,0.004998,-0.499998,-0.002739,-0.756968,-263.520539,-1.630494,68.592463
7.1362,0.006478,0.009771,-0.001979,-0.000329,-0.00358,0.008487,0.006339,-0.500069,-0.000951,-0.832044,-263.520554,-1.625858,68.59256
7.156,0.006444,0.010096,-0.002861,-0.000383,-0.003559,0.007998,0.005982,-0.500135,-0.001371,-0.832044,-263.520554,-1.625858,68.59256
7.1759,0.006452,0.009582,-0.001415,-0.000425,-0.003542,0.007652,0.004985,-0.499903,-0.002858,-0.906957,-263.520559,-1.608293,68.592588
7.1961,0.006982,0.010047,-0.001269,-0.000446,-0.003532,0.007492,0.005663,-0.500371,-0.001544,-0.906957,-263.520559,-1.608293,68.592588
7.216,0.006738,0.009947,-0.000391,-0.000462,-0.003523,0.007379,0.005663,-0.500371,-0.001544,-0.906957,-263.520559,-1.608293,68.592588
7.236,0.006846,0.009807,-0.00111,-0.000475,-0.003515,0.007301,0.006533,-0.500086,-0.000322,-0.981944,-263.520666,-1.622481,68.593314
7.2564,0.00699,0.010339,-0.001529,-0.000533,-0.003489,0.006791,0.00643,-0.500133,-0.000635,-0.981944,-263.520666,-1.622481,68.593314
7.2759,0.006218,0.009881,-0.001135,-0.000578,-0.003468,0.006427,0.006197,-0.499748,-0.001347,-1.056951,-263.520998,-1.630336,68.595823
7.2962,0.006958,0.010134,-0.001602,-0.000562,-0.003478,0.006437,0.00569,-0.500089,-0.001145,-1.056951,-263.520998,-1.630336,68.595823
7.3162,0.006751,0.009826,-0.002992,-0.000548,-0.003486,0.006446,0.00569,-0.500089,-0.001145,-1.056951,-263.520998,-1.630336,68.595823
7.3363,0.006712,0.009433,-0.00224,-0.000537,-0.003493,0.006453,0.005223,-0.500184,-0.002969,-0.982002,-263.521023,-1.648769,68.596073
7.3566,0.006598,0.00976,-0.001711,-0.000508,-0.0035,0.007108,0.005364,-0.500341,-0.002669,-0.982002,-263.521023,-1.648769,68.596073
7.3763,0.006494,0.010012,-0.000348,-0.000484,-0.003506,0.007578,0.005721,-0.500269,-0.001656,-0.90695,-263.521097,-1.642967,68.596861
7.3966,0.00616,0.00987,-0.000591,-0.00053,-0.003488,0.00691,0.006262,-0.500015,-0.000466,-0.90695,-263.521097,-1.642967,68.596861
7.4162,0.006575,0.009803,-0.001391,-0.000565,-0.003475,0.006431,0.006262,-0.500015,-0.000466,-0.90695,-263.521097,-1.642967,68.596861
7.4364,0.006538,0.009475,-0.001192,-0.000592,-0.003466,0.00609,0.005858,-0.500247,-0.001283,-0.981956,-263.521265,-1.630257,68.597982
7.4569,0.00623,0.010139,-0.002106,-0.000595,-0.00346,0.006238,0.005886,-0.500366,-0.001233,-0.981956,-263.521265,-1.630257,68.597982
7.4766,0.006493,0.009903,-0.001111,-0.000598,-0.003456,0.006349,0.005156,-0.49986,-0.002105,-0.906966,-263.521266,-1.652966,68.597992
7.4966,0.006126,0.010028,-8.5e-05,-0.000588,-0.003462,0.006422,0.005852,-0.500074,-0.001206,-0.906966,-263.521266,-1.652966,68.597992
7.5166,0.006622,0.009897,-0.001984,-0.00058,-0.003466,0.006477,0.005852,-0.500074,-0.001206,-0.906966,-263.521266,-1.652966,68.597992
7.5361,0.006459,0.009826,-0.002843,-0.000573,-0.00347,0.006518,0.005604,-0.500137,-0.001917,-0.831963,-263.521339,-1.652109,68.598724
7.5566,0.005881,0.009811,-0.000745,-0.000531,-0.003486,0.007041,0.005362,-0.500155,-0.002285,-0.831963,-263.521339,-1.652109,68.598724
7.5765,0.006041,0.009902,-9.9e-05,-0.000498,-0.003498,0.007419,0.005486,-0.500282,-0.000569,-0.756951,-263.521597,-1.647556,68.601235
7.5966,0.006087,0.009188,-0.000842,-0.00053,-0.003488,0.006647,0.005943,-0.50012,-0.000133,-0.756951,-263.521597,-1.647556,68.601235
7.6166,0.00582,0.009632,-0.002488,-0.000552,-0.003483,0.006088,0.005943,-0.50012,-0.000133,-0.756951,-263.521597,-1.647556,68.601235
7.6368,0.006228,0.009782,-0.001449,-0.000567,-0.00348,0.005683,0.004548,-0.500384,-0.002454,-0.831872,-263.521649,-1.632738,68.6016
7.6565,0.005688,0.009152,-0.001468,-0.000503,-0.003506,0.006341,0.004929,-0.500318,-0.002042,-0.831872,-263.521649,-1.632738,68.6016
7.677,0.00631,0.009884,-0.000175,-0.000452,-0.003526,0.006818,0.00494,-0.500847,-0.001468,-0.756792,-263.521649,-1.652191,68.6016
7.6963,0.005702,0.009789,-0.001073,-0.000499,-0.003506,0.006298,0.006088,-0.500191,-0.000309,-0.756792,-263.521649,-1.652191,68.6016
7.7165,0.006337,0.009551,-0.002107,-0.000535,-0.003491,0.005923,0.006088,-0.500191,-0.000309,-0.756792,-263.521649,-1.652191,68.6016
7.7365,0.006061,0.00933,-0.001442,-0.000564,-0.003479,0.005653,0.005252,-0.500527,-0.001957,-0.831794,-263.521814,-1.629493,68.60323
7.7566,0.00598,0.009581,-0.002249,-0.000537,-0.003485,0.006176,0.00528,-0.500594,-0.00173,-0.831794,-263.521814,-1.629493,68.60323
7.7761,0.005775,0.009388,-0.001182,-0.000517,-0.003489,0.006556,0.004832,-0.500418,-0.002249,-0.756796,-263.521814,-1.651953,68.60323
7.7964,0.006167,0.009629,-0.000553,-0.000492,-0.003502,0.00662,0.005142,-0.500594,-0.001279,-0.756796,-263.521814,-1.651953,68.60323
7.8167,0.005692,0.009462,0.000161,-0.000472,-0.003512,0.006666,0.005142,-0.500594,-0.001279,-0.756796,-263.521814,-1.651953,68.60323
7.8366,0.0056,0.009113,-0.001534,-0.000455,-0.003521,0.006699,0.005755,-0.500658,0.000393,-0.783212,-263.522102,-1.639681,68.605731
7.8565,0.00593,0.009426,5.1e-05,-0.000476,-0.003514,0.006247,0.005372,-0.500764,-0.000363,-0.783212,-263.522102,-1.639681,68.605731
7.8765,0.005616,0.009548,0.000479,-0.000491,-0.003509,0.005921,0.005944,-0.500665,0.000224,-0.858202,-263.522338,-1.630471,68.608199
7.8966,0.005477,0.008955,0.000806,-0.000534,-0.003488,0.005272,0.005867,-0.500476,0.000465,-0.858202,-263.522338,-1.630471,68.608199
7.9164,0.005828,0.009177,0.000307,-0.000565,-0.003472,0.004797,0.005867,-0.500476,0.000465,-0.858202,-263.522338,-1.630471,68.608199
7.9363,0.005568,0.009163,0.000491,-0.000589,-0.003459,0.00445,0.005984,-0.500824,0.000307,-0.783214,-263.522338,-1.639572,68.608201
7.9564,0.005497,0.009401,-0.000162,-0.000623,-0.003439,0.004234,0.005917,-0.500829,0.000382,-0.783214,-263.522338,-1.639572,68.608201
7.9765,0.005478,0.008958,0.00082,-0.00065,-0.003422,0.004077,0.005415,-0.500599,-0.000162,-0.708217,-263.522338,-1.665814,68.608201
7.9964,0.005528,0.009073,0.000524,-0.000678,-0.003402,0.0038,0.005851,-0.501,0.000728,-0.708217,-263.522338,-1.665814,68.608201
8.0166,0.005514,0.009295,7e-05,-0.0007,-0.003387,0.003599,0.005851,-0.501,0.000728,-0.708217,-263.522338,-1.665814,68.608201
8.0366,0.00592,0.009085,0.000272,-0.000718,-0.003374,0.003454,0.00555,-0.500705,7e-05,-0.633188,-263.522338,-1.680252,68.608202
8.0565,0.005597,0.009299,0.000143,-0.000711,-0.003378,0.003634,0.005756,-0.50079,0.000152,-0.633188,-263.522338,-1.680252,68.608202
8.0762,0.005515,0.009223,0.000269,-0.000706,-0.003381,0.003765,0.00567,-0.500701,0.000143,-0.558189,-263.522338,-1.700994,68.608202
8.0963,0.005329,0.00896,-0.000347,-0.000694,-0.003389,0.003811,0.005654,-0.500771,0.000258,-0.558189,-263.522338,-1.700994,68.608202
8.1165,0.005354,0.008948,-0.001872,-0.000685,-0.003395,0.003843,0.005654,-0.500771,0.000258,-0.558189,-263.522338,-1.700994,68.608202
8.1365,0.005622,0.009182,3.6e-05,-0.000677,-0.003401,0.003866,0.0044,-0.501051,-0.001872,-0.483029,-263.522338,-1.69454,68.608202
8.1565,0.005704,0.0089,0.000392,-0.000613,-0.003429,0.004591,0.004904,-0.500957,-0.001096,-0.483029,-263.522338,-1.69454,68.608202
8.1762,0.005832,0.009361,-0.000104,-0.000563,-0.003451,0.005114,0.005903,-0.5011,0.000392,-0.40819,-263.522338,-1.687729,68.608202
8.1964,0.005774,0.008945,0.000908,-0.000583,-0.003443,0.004946,0.005789,-0.500678,-6.2e-05,-0.40819,-263.522338,-1.687729,68.608202
8.217,0.005818,0.009145,0.000174,-0.000599,-0.003438,0.004825,0.005789,-0.500678,-6.2e-05,-0.40819,-263.522338,-1.687729,68.608202
8.237,0.005502,0.009134,0.000204,-0.000612,-0.003433,0.004737,0.005907,-0.500855,0.000174,-0.332997,-263.522338,-1.656214,68.608203
8.2566,0.005206,0.00922,-0.001436,-0.000632,-0.003423,0.004547,0.005786,-0.500859,0.000186,-0.332997,-263.522338,-1.656214,68.608203
8.2765,0.005681,0.009292,-0.000153,-0.000647,-0.003415,0.004409,0.004474,-0.50078,-0.001436,-0.258183,-263.522338,-1.667251,68.608203
8.2971,0.00565,0.009114,0.000681,-0.00063,-0.003426,0.004545,0.005507,-0.500714,-0.000263,-0.258183,-263.522338,-1.667251,68.608203
8.3171,0.005714,0.008766,0.000177,-0.000617,-0.003434,0.004644,0.005507,-0.500714,-0.000263,-0.258183,-263.522338,-1.667251,68.608203
8.3364,0.005488,0.0092,0.000471,-0.000606,-0.003441,0.004714,0.005804,-0.501234,0.000177,-0.183045,-263.522339,-1.676327,68.608203
8.3565,0.005593,0.009324,-0.000834,-0.000635,-0.003424,0.004473,0.005774,-0.501059,0.000296,-0.183045,-263.522339,-1.676327,68.608203
8.3762,0.005658,0.009122,-0.00015,-0.000658,-0.00341,0.004297,0.005167,-0.500676,-0.000834,-0.10808,-263.522339,-1.666394,68.608203
8.3964,0.00544,0.008817,-0.002283,-0.000647,-0.003416,0.004434,0.005546,-0.500861,-0.000208,-0.10808,-263.522339,-1.666394,68.608203
8.4163,0.005756,0.008965,-0.000348,-0.000639,-0.00342,0.004532,0.005546,-0.500861,-0.000208,-0.10808,-263.522339,-1.666394,68.608203
8.4364,0.005895,0.009213,0.000636,-0.000633,-0.003424,0.004601,0.005578,-0.501035,-0.000348,-0.033054,-263.522339,-1.679344,68.608204
8.4562,0.005447,0.009134,-0.000845,-0.000654,-0.003412,0.004509,0.00584,-0.500934,5.4e-05,-0.033054,-263.522339,-1.679344,68.608204
8.4766,0.005389,0.009219,0.000242,-0.000671,-0.003403,0.004442,0.005016,-0.500866,-0.000845,0.041906,-263.522339,-1.67203,68.608204
8.4967,0.00543,0.009057,-0.000756,-0.000655,-0.003414,0.004356,0.005467,-0.500789,0.000143,0.041906,-263.522339,-1.67203,68.608204
8.5165,0.005461,0.009046,-9.6e-05,-0.000642,-0.003423,0.004293,0.005467,-0.500789,0.000143,0.041906,-263.522339,-1.67203,68.608204
8.5365,0.005747,0.009014,-0.001091,-0.00063,-0.003431,0.004247,0.005412,-0.500954,-9.6e-05,0.116832,-263.522339,-1.680043,68.608204
8.5563,0.005564,0.00896,-0.000992,-0.00061,-0.003439,0.004546,0.005322,-0.500967,-0.0005,0.116832,-263.522339,-1.680043,68.608204
8.5765,0.005804,0.008806,0.000499,-0.000595,-0.003445,0.004762,0.005058,-0.50104,-0.000992,0.191868,-263.522339,-1.675019,68.608204
8.597,0.005783,0.009147,-0.000415,-0.000645,-0.003414,0.00446,0.005968,-0.50118,0.000365,0.191868,-263.522339,-1.675019,68.608204
8.6166,0.00539,0.009092,0.000137,-0.000685,-0.003389,0.004241,0.005968,-0.50118,0.000365,0.191868,-263.522339,-1.675019,68.608204
8.6363,0.005746,0.009228,-9.9e-05,-0.000717,-0.003369,0.004084,0.00546,-0.500909,0.000138,0.266811,-263.522341,-1.664217,68.608223
8.6568,0.005552,0.009275,-0.001542,-0.000699,-0.003381,0.004145,0.005556,-0.500853,4.2e-05,0.266811,-263.522341,-1.664217,68.608223
8.6765,0.005581,0.0091,0.001385,-0.000685,-0.003391,0.004189,0.004766,-0.500725,-0.001542,0.341811,-263.522342,-1.692457,68.608226
8.697,0.00565,0.009146,0.000162,-0.000725,-0.003366,0.003702,0.006151,-0.500884,0.001122,0.341811,-263.522342,-1.692457,68.608226
8.7165,0.005452,0.009277,-0.00089,-0.000755,-0.003347,0.003346,0.006151,-0.500884,0.001122,0.341811,-263.522342,-1.692457,68.608226
8.7365,0.005527,0.008987,0.000482,-0.000778,-0.003332,0.003086,0.004997,-0.500724,-0.000888,0.416809,-263.522345,-1.68536,68.608244
8.7566,0.005673,0.008698,0.000991,-0.000725,-0.00336,0.003629,0.005313,-0.500842,-0.00033,0.416809,-263.522345,-1.68536,68.608244
8.776,0.005473,0.009554,0.000448,-0.000682,-0.003384,0.004019,0.006178,-0.501302,0.000991,0.491809,-263.522345,-1.718899,68.608245
8.7962,0.005725,0.009247,0.001286,-0.000675,-0.003393,0.003873,0.005744,-0.500522,0.000497,0.491809,-263.522345,-1.718899,68.608245
8.8162,0.005914,0.009134,-0.001119,-0.000668,-0.003401,0.003765,0.005744,-0.500522,0.000497,0.491809,-263.522345,-1.718899,68.608245
8.836,0.006028,0.008936,-3e-05,-0.000662,-0.003408,0.003687,0.005342,-0.50087,-0.001112,0.566815,-263.522362,-1.687158,68.608332
8.8561,0.005732,0.009119,0.001154,-0.000653,-0.003407,0.004228,0.005615,-0.50095,-0.000671,0.566815,-263.522362,-1.687158,68.608332
8.8759,0.005431,0.009015,-0.00134,-0.000648,-0.003406,0.004618,0.006321,-0.500883,0.001157,0.641809,-263.522373,-1.687237,68.608378
8.8963,0.005699,0.008989,-8.2e-05,-0.000591,-0.003431,0.005135,0.004888,-0.500975,-0.001116,0.641809,-263.522373,-1.687237,68.608378
8.9162,0.005683,0.008989,-0.000339,-0.000546,-0.003452,0.005506,0.004888,-0.500975,-0.001116,0.641809,-263.522373,-1.687237,68.608378
8.9363,0.005406,0.009103,1.7e-05,-0.00051,-0.00347,0.005772,0.005486,-0.501135,-0.000171,0.716818,-263.522676,-1.674458,68.610552
8.9568,0.005342,0.008724,0.001447,-0.000536,-0.003462,0.00542,0.005455,-0.501052,-7.5e-05,0.716818,-263.522676,-1.674458,68.610552
8.9769,0.005494,0.008869,0.00051,-0.000555,-0.003455,0.005166,0.00608,-0.501276,0.001447,0.64178,-263.522676,-1.643606,68.610552
8.9964,0.00575,0.009004,0.001589,-0.000604,-0.003428,0.004641,0.005788,-0.501145,0.000606,0.64178,-263.522676,-1.643606,68.610552
9.0168,0.005488,0.00891,-0.00051,-0.000641,-0.003406,0.004258,0.005788,-0.501145,0.000606,0.64178,-263.522676,-1.643606,68.610552
9.0366,0.005466,0.008777,0.000933,-0.00067,-0.00339,0.00398,0.005212,-0.501193,-0.000358,0.566826,-263.522854,-1.654623,68.612425
9.0562,0.005352,0.008731,0.000217,-0.000673,-0.003389,0.00399,0.005508,-0.501217,0.000186,0.566826,-263.522854,-1.654623,68.612425
9.076,0.005361,0.008796,0.001111,-0.000675,-0.003388,0.003997,0.005461,-0.501277,0.000228,0.641856,-263.52289,-1.685413,68.612605
9.0962,0.005499,0.008798,0.00168,-0.000711,-0.003365,0.003594,0.005887,-0.50121,0.001035,0.641856,-263.52289,-1.685413,68.612605
9.1164,0.005082,0.008838,-0.000932,-0.000739,-0.003347,0.003301,0.005887,-0.50121,0.001035,0.641856,-263.52289,-1.685413,68.612605
9.1361,0.005368,0.008683,0.000765,-0.000761,-0.003333,0.003087,0.0046,-0.50119,-0.000895,0.716938,-263.522988,-1.686082,68.613098
9.1562,0.005516,0.0087,0.002043,-0.00071,-0.00336,0.003564,0.005071,-0.501245,-0.000214,0.716938,-263.522988,-1.686082,68.613098
9.1764,0.005214,0.00869,0.00128,-0.000669,-0.003382,0.003907,0.006555,-0.50131,0.002054,0.791886,-263.523057,-1.71555,68.613319
9.1964,0.005099,0.008528,-0.000209,-0.000717,-0.003352,0.003401,0.005927,-0.50131,0.001349,0.791886,-263.523057,-1.71555,68.613319
9.2161,0.005335,0.008789,0.000496,-0.000753,-0.003328,0.00303,0.005927,-0.50131,0.001349,0.791886,-263.523057,-1.71555,68.613319
9.2364,0.005181,0.008882,-0.000366,-0.000781,-0.003309,0.002759,0.005571,-0.501289,0.000589,0.866886,-263.523326,-1.686319,68.614623
9.2564,0.005134,0.008786,0.001895,-0.000749,-0.003329,0.0031,0.005334,-0.501228,0.000211,0.866886,-263.523326,-1.686319,68.614623
9.2765,0.005418,0.008211,0.000379,-0.000723,-0.003345,0.003346,0.00609,-0.501248,0.001926,0.94182,-263.52357,-1.72597,68.615308
9.2965,0.005465,0.008666,-0.00045,-0.000751,-0.003325,0.003356,0.005654,-0.501742,0.000519,0.94182,-263.52357,-1.72597,68.615308
9.3166,0.005198,0.008651,0.000685,-0.000774,-0.003308,0.003365,0.005654,-0.501742,0.000519,0.94182,-263.52357,-1.72597,68.615308
9.336,0.005067,0.008352,0.001302,-0.000793,-0.003295,0.003372,0.005523,-0.501457,0.000796,1.016822,-263.524036,-1.704217,68.61701
9.3562,0.005122,0.008505,-0.000983,-0.000804,-0.003287,0.003152,0.005606,-0.501548,0.001017,1.016822,-263.524036,-1.704217,68.61701
9.3761,0.005151,0.008495,0.000768,-0.000813,-0.003281,0.002993,0.004595,-0.501598,-0.000877,1.000206,-263.524619,-1.717744,68.619159
9.3961,0.004738,0.008378,0.000341,-0.000805,-0.003286,0.003059,0.005457,-0.501519,0.000628,1.000206,-263.524619,-1.717744,68.619159
9.4165,0.004713,0.008241,0.002163,-0.000798,-0.003289,0.003107,0.005457,-0.501519,0.000628,1.000206,-263.524619,-1.717744,68.619159
9.4362,0.004783,0.008309,0.001482,-0.000793,-0.003293,0.003142,0.005784,-0.501887,0.002281,1.060558,-263.525246,-1.728613,68.621107
9.4562,0.004804,0.008483,-0.000119,-0.000834,-0.003263,0.00263,0.005681,-0.501822,0.001969,1.060558,-263.525246,-1.728613,68.621107
9.4763,0.004745,0.007583,0.000139,-0.000864,-0.00324,0.002252,0.004718,-0.501621,-1.9e-05,1.047076,-263.525878,-1.721833,68.623208
9.4962,0.004696,0.007728,0.003789,-0.000827,-0.003251,0.002784,0.004806,-0.502351,0.00013,1.047076,-263.525878,-1.721833,68.623208
9.5168,0.004856,0.008141,0.000679,-0.0008,-0.003261,0.003164,0.004806,-0.502351,0.00013,1.047076,-263.525878,-1.721833,68.623208
9.5366,0.004854,0.007985,0.000166,-0.000779,-0.003268,0.003435,0.005202,-0.501859,0.000679,1.122085,-263.525878,-1.646825,68.623208
9.5566,0.00503,0.00832,0.00081,-0.000768,-0.003276,0.003464,0.005095,-0.501922,0.00047,1.122085,-263.525878,-1.646825,68.623208
9.5762,0.004613,0.007733,0.001836,-0.000759,-0.003283,0.003482,0.005427,-0.501752,0.000884,1.047082,-263.526262,-1.714884,68.62469
9.5967,0.004671,0.007788,0.000888,-0.000814,-0.003244,0.002951,0.005538,-0.502225,0.001757,1.047082,-263.526262,-1.714884,68.62469
9.6168,0.004799,0.0083,0.00156,-0.000855,-0.003213,0.00256,0.005538,-0.502225,0.001757,1.047082,-263.526262,-1.714884,68.62469
9.6364,0.004439,0.007897,0.002353,-0.000887,-0.003189,0.002274,0.005565,-0.501829,0.001698,0.989869,-263.526786,-1.710156,68.626761
9.6566,0.004882,0.00787,0.003192,-0.000906,-0.003175,0.001992,0.005592,-0.501956,0.001983,0.989869,-263.526786,-1.710156,68.626761
9.6766,0.004424,0.007414,0.00113,-0.00092,-0.003165,0.001787,0.00651,-0.502127,0.003192,1.064829,-263.526786,-1.635196,68.62676
9.6964,0.004341,0.00752,0.000947,-0.00092,-0.003158,0.001878,0.005154,-0.502539,0.00134,1.064829,-263.526786,-1.635196,68.62676
9.7166,0.004659,0.007794,0.00101,-0.000921,-0.003152,0.001943,0.005154,-0.502539,0.00134,1.064829,-263.526786,-1.635196,68.62676
9.7362,0.0045,0.007564,0.002588,-0.000922,-0.003147,0.001988,0.005174,-0.502206,0.00101,1.139775,-263.526786,-1.56025,68.62676
9.7565,0.004685,0.007364,0.001112,-0.000934,-0.003137,0.001895,0.005438,-0.502299,0.001656,1.139775,-263.526786,-1.56025,68.62676
9.7762,0.004723,0.007803,0.000389,-0.000944,-0.003129,0.001828,0.005253,-0.502636,0.001112,1.125669,-263.526786,-1.485193,68.62676
9.7963,0.004585,0.007459,0.00163,-0.0009,-0.003156,0.002326,0.00495,-0.502235,0.000451,1.125669,-263.526786,-1.485193,68.62676
9.8163,0.004702,0.007715,0.001766,-0.000866,-0.003177,0.00268,0.00495,-0.502235,0.000451,1.125669,-263.526786,-1.485193,68.62676
9.8364,0.004543,0.007521,0.000716,-0.00084,-0.003195,0.002932,0.005603,-0.502285,0.001766,1.132078,-263.526786,-1.410162,68.62676
9.8566,0.004621,0.007848,0.000828,-0.000862,-0.003181,0.002706,0.005318,-0.502364,0.001335,1.132078,-263.526786,-1.410162,68.62676
9.8764,0.004832,0.007596,0.001235,-0.000879,-0.00317,0.00254,0.005042,-0.502167,0.000842,1.057048,-263.526883,-1.485192,68.627059
9.8962,0.004052,0.007784,0.002289,-0.000899,-0.003156,0.002473,0.005426,-0.502384,0.001202,1.057048,-263.526883,-1.485192,68.627059
9.9166,0.004632,0.007685,0.00186,-0.000915,-0.003146,0.002423,0.005426,-0.502384,0.001202,1.057048,-263.526883,-1.485192,68.627059
9.9364,0.004694,0.007814,0.000485,-0.000928,-0.003137,0.002387,0.00558,-0.502314,0.00186,1.073222,-263.526883,-1.41018,68.627059
9.9566,0.005047,0.007483,0.000813,-0.000922,-0.003143,0.002325,0.005318,-0.502262,0.001295,1.073222,-263.526883,-1.41018,68.627059
9.9764,0.004464,0.007763,0.002236,-0.000917,-0.003148,0.002278,0.005461,-0.502517,0.000813,1.066105,-263.526884,-1.335103,68.627059
9.9965,0.004359,0.00797,0.001528,-0.000942,-0.003132,0.001935,0.005591,-0.502263,0.002102,1.066105,-263.526884,-1.335103,68.627059
10.0167,0.003902,0.007879,0.000285,-0.00096,-0.00312,0.001682,0.005591,-0.502263,0.002102,1.066105,-263.526884,-1.335103,68.627059
10.0363,0.0046,0.007955,0.001163,-0.000973,-0.003111,0.001497,0.004048,-0.502121,0.000285,1.089401,-263.526884,-1.260175,68.627059
10.0563,0.004632,0.007386,0.00011,-0.000879,-0.003169,0.002,0.00452,-0.502089,0.000647,1.089401,-263.526884,-1.260175,68.627059
10.0766,0.004751,0.007903,0.002803,-0.000803,-0.003217,0.002357,0.004689,-0.502614,0.00011,1.153705,-263.526884,-1.185182,68.627059
10.0967,0.004791,0.00802,0.001509,-0.000879,-0.003169,0.001841,0.006053,-0.50214,0.002572,1.153705,-263.526884,-1.185182,68.627059
10.1163,0.004382,0.00802,0.000334,-0.000939,-0.00313,0.001459,0.006053,-0.50214,0.002572,1.153705,-263.526884,-1.185182,68.627059
10.1361,0.004145,0.007699,0.002364,-0.000985,-0.003099,0.001178,0.004552,-0.501981,0.000334,1.146455,-263.526888,-1.260216,68.627069
10.1564,0.004701,0.007787,0.002208,-0.000923,-0.00314,0.001521,0.00488,-0.502112,0.001169,1.146455,-263.526888,-1.260216,68.627069
10.1759,0.00454,0.007703,0.001178,-0.000873,-0.003173,0.001764,0.005827,-0.502212,0.002208,1.178429,-263.526888,-1.185231,68.627069
10.196,0.004434,0.007669,0.00047,-0.000868,-0.003177,0.001883,0.005199,-0.50229,0.001265,1.178429,-263.526888,-1.185231,68.627069
10.2163,0.004393,0.007786,0.001574,-0.000864,-0.003181,0.001967,0.005199,-0.50229,0.001265,1.178429,-263.526888,-1.185231,68.627069
10.2363,0.00458,0.007755,0.001444,-0.00086,-0.003183,0.002025,0.005196,-0.502213,0.001574,1.175856,-263.526888,-1.110239,68.627069
10.2564,0.004789,0.007872,-0.000956,-0.000861,-0.003184,0.00196,0.005245,-0.502226,0.001521,1.175856,-263.526888,-1.110239,68.627069
10.2763,0.004571,0.007305,0.000456,-0.000861,-0.003185,0.001912,0.004301,-0.502127,-0.000956,1.154568,-263.526888,-1.035262,68.627068
10.2964,0.005119,0.007881,0.000692,-0.000831,-0.003198,0.002432,0.004758,-0.502644,0.000329,1.154568,-263.526888,-1.035262,68.627068
10.3164,0.004418,0.007713,0.000944,-0.000808,-0.003209,0.002804,0.004758,-0.502644,0.000329,1.154568,-263.526888,-1.035262,68.627068
10.3363,0.004741,0.007963,0.0015,-0.000791,-0.003218,0.00307,0.0049,-0.502287,0.000944,1.167422,-263.526888,-0.960374,68.627068
10.3561,0.004562,0.007817,0.001983,-0.000796,-0.00322,0.002863,0.005149,-0.502184,0.001173,1.167422,-263.526888,-0.960374,68.627068
10.3761,0.004581,0.007566,0.002115,-0.000799,-0.003222,0.002712,0.005573,-0.502182,0.001983,1.092307,-263.526888,-1.035489,68.627069
10.3964,0.004536,0.00762,-2.2e-05,-0.000858,-0.003182,0.002244,0.005652,-0.502411,0.002104,1.092307,-263.526888,-1.035489,68.627069
10.4164,0.004394,0.007684,0.002558,-0.000904,-0.00315,0.001899,0.005652,-0.502411,0.002104,1.092307,-263.526888,-1.035489,68.627069
10.4364,0.00433,0.008006,0.003299,-0.00094,-0.003125,0.001646,0.005698,-0.502314,0.002558,1.09901,-263.526889,-1.110495,68.627069
10.4564,0.004694,0.00744,0.002038,-0.000979,-0.003102,0.001234,0.005825,-0.502184,0.002858,1.09901,-263.526889,-1.110495,68.627069
10.4761,0.004283,0.00776,6e-06,-0.001009,-0.003085,0.000929,0.005733,-0.502558,0.002038,1.153537,-263.526889,-1.03564,68.627069
10.4964,0.004208,0.007966,0.001416,-0.000901,-0.003148,0.001838,0.004415,-0.502268,0.000187,1.153537,-263.526889,-1.03564,68.627069
10.5166,0.004418,0.00781,0.000476,-0.000815,-0.003199,0.002481,0.004415,-0.502268,0.000187,1.153537,-263.526889,-1.03564,68.627069
10.5363,0.004527,0.007818,0.000301,-0.000747,-0.00324,0.002937,0.004661,-0.50219,0.000476,1.189517,-263.526889,-0.960604,68.627069
10.5562,0.00461,0.007719,0.002361,-0.000713,-0.003265,0.003145,0.004669,-0.502187,0.000405,1.189517,-263.526889,-0.960604,68.627069
10.5762,0.004241,0.008156,0.002213,-0.000686,-0.003285,0.00329,0.005815,-0.50228,0.002361,1.114534,-263.526889,-1.035587,68.627069
10.5962,0.004286,0.007737,0.002054,-0.00073,-0.003266,0.002652,0.00541,-0.501882,0.002226,1.114534,-263.526889,-1.035587,68.627069
10.6163,0.004728,0.00801,0.002425,-0.000761,-0.003251,0.002178,0.00541,-0.501882,0.002226,1.114534,-263.526889,-1.035587,68.627069
10.6361,0.004522,0.007833,0.001605,-0.000783,-0.00324,0.001826,0.005964,-0.501988,0.002425,1.077269,-263.526889,-1.11057,68.62707
10.6562,0.004293,0.007482,0.001628,-0.000826,-0.003211,0.001604,0.005708,-0.502062,0.002088,1.077269,-263.526889,-1.11057,68.62707
10.6765,0.004165,0.007588,0.000908,-0.00086,-0.003189,0.00144,0.005123,-0.502517,0.001628,1.152419,-263.526889,-1.035419,68.62707
10.6967,0.004619,0.007423,0.002527,-0.000816,-0.003213,0.001788,0.004673,-0.502421,0.000973,1.152419,-263.526889,-1.035419,68.62707
10.7168,0.004895,0.007457,0.00067,-0.000782,-0.003232,0.002035,0.004673,-0.502421,0.000973,1.152419,-263.526889,-1.035419,68.62707
10.7363,0.004461,0.007448,0.001398,-0.000755,-0.003248,0.002209,0.005237,-0.502542,0.00067,1.214292,-263.526889,-0.960562,68.62707
10.7567,0.004618,0.007521,0.001174,-0.000782,-0.003228,0.002325,0.005211,-0.502546,0.000963,1.214292,-263.526889,-0.960562,68.62707
10.7764,0.00459,0.007838,-0.000105,-0.000805,-0.003213,0.002407,0.005216,-0.502479,0.001174,1.192195,-263.526889,-1.035595,68.62707
10.7965,0.004361,0.007562,0.001382,-0.000748,-0.003247,0.002959,0.004598,-0.50219,1.1e-05,1.192195,-263.526889,-1.035595,68.62707
10.8163,0.004812,0.007558,0.001025,-0.000704,-0.003276,0.003354,0.004598,-0.50219,1.1e-05,1.192195,-263.526889,-1.035595,68.62707
10.8364,0.004652,0.007731,1.6e-05,-0.000669,-0.003299,0.003637,0.005335,-0.502441,0.001025,1.1382,-263.52689,-1.110568,68.627071
10.8563,0.004526,0.007656,0.00114,-0.000693,-0.003287,0.003526,0.005057,-0.50237,0.000609,1.1382,-263.52689,-1.110568,68.627071
10.8765,0.004494,0.007485,0.002238,-0.000713,-0.003277,0.003445,0.005108,-0.502344,0.00114,1.063078,-263.526891,-1.18569,68.627076
10.8966,0.004688,0.007686,0.000746,-0.000793,-0.003226,0.002777,0.005589,-0.502499,0.002142,1.063078,-263.526891,-1.18569,68.627076
10.9166,0.004455,0.00809,0.002444,-0.000854,-0.003184,0.002282,0.005589,-0.502499,0.002142,1.063078,-263.526891,-1.18569,68.627076
10.9363,0.004564,0.00764,0.002342,-0.0009,-0.003151,0.001916,0.005702,-0.50191,0.002446,1.025049,-263.526897,-1.260675,68.627101
10.9566,0.004473,0.007703,0.002333,-0.00093,-0.003134,0.001569,0.005725,-0.502095,0.002403,1.025049,-263.526897,-1.260675,68.627101
10.9764,0.004514,0.00755,0.00194,-0.000953,-0.003121,0.001313,0.005663,-0.502296,0.002333,1.100079,-263.526897,-1.185645,68.627101
10.9966,0.00476,0.007433,0.001273,-0.000967,-0.003109,0.001269,0.005517,-0.502436,0.001973,1.100079,-263.526897,-1.185645,68.627101
11.0165,0.004692,0.007614,-0.00031,-0.000979,-0.003099,0.001236,0.005517,-0.502436,0.001973,1.100079,-263.526897,-1.185645,68.627101
11.0361,0.004473,0.007837,0.002146,-0.000988,-0.003091,0.001212,0.004534,-0.502386,-0.00031,1.175091,-263.526897,-1.110633,68.6271
11.0561,0.004975,0.008063,0.000939,-0.000936,-0.003125,0.001756,0.00496,-0.502293,0.000703,1.175091,-263.526897,-1.110633,68.6271
11.0764,0.004953,0.007521,0.001886,-0.000895,-0.003152,0.002142,0.005454,-0.501937,0.000939,1.172784,-263.526897,-1.035633,68.6271
11.0961,0.00456,0.007703,0.003054,-0.000946,-0.003116,0.001927,0.005875,-0.502431,0.001804,1.172784,-263.526897,-1.035633,68.6271
11.1163,0.004599,0.007394,0.002713,-0.000988,-0.003087,0.001771,0.005875,-0.502431,0.001804,1.172784,-263.526897,-1.035633,68.6271
11.1361,0.004494,0.007528,0.00272,-0.001021,-0.003064,0.001658,0.005983,-0.502604,0.002713,1.118824,-263.526897,-0.960696,68.6271
11.156,0.004511,0.007549,0.001953,-0.00107,-0.00303,0.001276,0.005941,-0.502549,0.002716,1.118824,-263.526897,-0.960696,68.6271
11.176,0.004568,0.007924,0.001156,-0.001107,-0.003003,0.000996,0.005506,-0.50245,0.001953,1.108929,-263.526897,-0.885648,68.6271
11.1967,0.00474,0.007534,0.001282,-0.001047,-0.003046,0.001363,0.005187,-0.502107,0.001223,1.108929,-263.526897,-0.885648,68.6271
11.2162,0.004313,0.007478,0.000821,-0.000999,-0.003081,0.001624,0.005187,-0.502107,0.001223,1.108929,-263.526897,-0.885648,68.6271
11.2362,0.004632,0.007794,0.00234,-0.000962,-0.003109,0.001809,0.004732,-0.502522,0.000821,1.137772,-263.526898,-0.81065,68.6271
11.2561,0.004429,0.007403,0.001766,-0.000947,-0.00312,0.001836,0.005187,-0.50239,0.001453,1.137772,-263.526898,-0.81065,68.6271
11.276,0.004386,0.007418,0.000172,-0.000934,-0.003129,0.001854,0.005329,-0.502596,0.001766,1.123528,-263.526898,-0.735602,68.6271
11.2961,0.004153,0.007805,0.003661,-0.00087,-0.003165,0.002414,0.004546,-0.502583,0.000305,1.123528,-263.526898,-0.735602,68.6271
11.3161,0.004479,0.007857,0.001983,-0.000819,-0.003194,0.002813,0.004546,-0.502583,0.000305,1.123528,-263.526898,-0.735602,68.6271
11.3363,0.004765,0.007954,0.00082,-0.00078,-0.003218,0.003096,0.00549,-0.502142,0.001983,1.133045,-263.526898,-0.660609,68.627099
11.3562,0.004201,0.007716,0.001111,-0.000802,-0.003209,0.002751,0.005363,-0.502102,0.001501,1.133045,-263.526898,-0.660609,68.627099
11.3763,0.004877,0.007904,0.001658,-0.000819,-0.003203,0.002497,0.004767,-0.502284,0.001111,1.058085,-263.526898,-0.73557,68.6271
11.3962,0.004779,0.007815,0.001344,-0.000853,-0.003184,0.002263,0.005642,-0.502111,0.001612,1.058085,-263.526898,-0.73557,68.6271
11.416,0.004353,0.00799,0.000615,-0.000879,-0.003169,0.002093,0.005642,-0.502111,0.001612,1.058085,-263.526898,-0.73557,68.6271
11.4361,0.004261,0.007421,0.002518,-0.0009,-0.003157,0.001968,0.004667,-0.50201,0.000615,1.116724,-263.526898,-0.810587,68.6271
11.4562,0.004424,0.007722,-9.1e-05,-0.000877,-0.003174,0.001971,0.00503,-0.502245,0.001401,1.116724,-263.526898,-0.810587,68.6271
11.4764,0.004185,0.007617,1.9e-05,-0.000858,-0.003187,0.001971,0.004378,-0.502278,-9.1e-05,1.139263,-263.526898,-0.735646,68.6271
11.4963,0.004491,0.007618,0.000992,-0.000765,-0.003238,0.002656,0.004211,-0.502375,1e-05,1.139263,-263.526898,-0.735646,68.6271
11.5171,0.004755,0.007699,0.000935,-0.000692,-0.003279,0.003144,0.004211,-0.502375,1e-05,1.139263,-263.526898,-0.735646,68.6271
11.5363,0.004448,0.007839,0.002552,-0.000633,-0.003314,0.003492,0.005232,-0.502301,0.000935,1.162559,-263.526898,-0.660592,68.627099
11.5563,0.004607,0.007896,0.001409,-0.000696,-0.003277,0.003001,0.00544,-0.502244,0.001586,1.162559,-263.526898,-0.660592,68.627099
11.5764,0.004568,0.008025,0.000573,-0.000745,-0.003248,0.002641,0.005325,-0.502103,0.001409,1.087575,-263.526898,-0.735576,68.6271
11.5964,0.004753,0.00786,0.001889,-0.000722,-0.003268,0.0028,0.004903,-0.501986,0.000649,1.087575,-263.526898,-0.735576,68.6271
11.6164,0.004398,0.00806,0.001961,-0.000704,-0.003284,0.002912,0.004903,-0.501986,0.000649,1.087575,-263.526898,-0.735576,68.6271
11.6364,0.004441,0.008034,0.001602,-0.00069,-0.003298,0.002992,0.005398,-0.501939,0.001961,1.143176,-263.526898,-0.810439,68.6271
11.6564,0.004567,0.007921,0.001616,-0.000722,-0.003281,0.002555,0.005341,-0.50195,0.001814,1.143176,-263.526898,-0.810439,68.6271
11.6764,0.004633,0.007775,0.002879,-0.000746,-0.003268,0.002234,0.005391,-0.502078,0.001616,1.132299,-263.526898,-0.885467,68.6271
11.6963,0.004295,0.007637,0.001021,-0.000837,-0.003208,0.001687,0.00604,-0.502211,0.002769,1.132299,-263.526898,-0.885467,68.6271
11.7164,0.004927,0.007834,0.001833,-0.000908,-0.00316,0.001282,0.00604,-0.502211,0.002769,1.132299,-263.526898,-0.885467,68.6271
11.7365,0.004558,0.007502,0.001144,-0.000963,-0.003121,0.000984,0.005862,-0.502165,0.001833,1.197283,-263.526898,-0.960561,68.6271
11.7563,0.00434,0.007575,0.000579,-0.000968,-0.003116,0.001198,0.005567,-0.502301,0.001551,1.197283,-263.526898,-0.960561,68.6271
11.7762,0.004763,0.007977,0.0007,-0.000972,-0.003112,0.001351,0.004635,-0.502425,0.000579,1.205698,-263.526898,-0.885571,68.6271
11.7963,0.004772,0.007916,0.000924,-0.000921,-0.003146,0.001863,0.005079,-0.502057,0.000689,1.205698,-263.526898,-0.885571,68.6271
11.8162,0.004562,0.007825,-0.000176,-0.000882,-0.003173,0.002227,0.005079,-0.502057,0.000689,1.205698,-263.526898,-0.885571,68.6271
11.8364,0.004912,0.007996,6.8e-05,-0.000851,-0.003195,0.002486,0.004472,-0.502175,-0.000176,1.168853,-263.526899,-0.810547,68.6271
11.8564,0.004349,0.007682,0.000793,-0.000789,-0.003232,0.003067,0.00467,-0.502104,-7.4e-05,1.168853,-263.526899,-0.810547,68.6271
11.8763,0.004909,0.007689,-0.000561,-0.000739,-0.003263,0.003482,0.004753,-0.502318,0.000793,1.101025,-263.526899,-0.735387,68.6271
11.8964,0.004468,0.007699,3.5e-05,-0.000703,-0.003282,0.003967,0.004635,-0.502311,-0.00044,1.101025,-263.526899,-0.735387,68.6271
11.9164,0.004823,0.007945,0.002088,-0.000675,-0.003297,0.004314,0.004635,-0.502311,-0.00044,1.101025,-263.526899,-0.735387,68.6271
11.9365,0.004481,0.007913,0.001989,-0.000654,-0.00331,0.004562,0.005888,-0.502054,0.002088,1.026166,-263.526899,-0.810247,68.6271
11.9564,0.004634,0.007967,0.000576,-0.000739,-0.003262,0.003656,0.005728,-0.502067,0.002048,1.026166,-263.526899,-0.810247,68.6271
11.9764,0.00467,0.007622,0.002529,-0.000803,-0.003225,0.002979,0.004928,-0.502033,0.000576,0.95131,-263.526899,-0.885103,68.6271
11.9964,0.004561,0.007618,0.001199,-0.000878,-0.003175,0.002373,0.005869,-0.502347,0.002359,0.95131,-263.526899,-0.885103,68.6271
12.0169,0.004252,0.007712,0.001186,-0.000936,-0.003135,0.001922,0.005869,-0.502347,0.002359,0.95131,-263.526899,-0.885103,68.6271
12.0366,0.004859,0.007815,0.002945,-0.00098,-0.003103,0.001588,0.004856,-0.502287,0.001186,1.026401,-263.526899,-0.960194,68.6271
12.0565,0.00435,0.007934,0.000611,-0.000977,-0.003106,0.001512,0.005452,-0.502246,0.001882,1.026401,-263.526899,-0.960194,68.6271
12.0766,0.004601,0.007832,0.001501,-0.000974,-0.003108,0.001455,0.004662,-0.502066,0.000611,1.101311,-263.526899,-0.885284,68.6271
12.0965,0.004212,0.007843,0.000959,-0.000952,-0.003124,0.001597,0.005305,-0.502159,0.001424,1.101311,-263.526899,-0.885284,68.6271
12.1163,0.004438,0.007607,0.001814,-0.000935,-0.003137,0.001696,0.005305,-0.502159,0.001424,1.101311,-263.526899,-0.885284,68.6271
12.1365,0.004785,0.00787,0.00059,-0.000922,-0.003147,0.001766,0.005363,-0.502392,0.001814,1.157381,-263.526899,-0.810172,68.6271
12.1562,0.004318,0.007878,0.002139,-0.000912,-0.003154,0.001862,0.005249,-0.502284,0.00131,1.157381,-263.526899,-0.810172,68.6271
12.1764,0.004722,0.007903,0.003113,-0.000904,-0.00316,0.00193,0.005409,-0.50212,0.002139,1.151564,-263.526899,-0.735151,68.6271
12.1964,0.004653,0.00762,0.002219,-0.000977,-0.003114,0.001397,0.006227,-0.502097,0.003024,1.151564,-263.526899,-0.735151,68.6271
12.2165,0.004712,0.007707,0.001966,-0.001033,-0.003078,0.001002,0.006227,-0.502097,0.003024,1.151564,-263.526899,-0.735151,68.6271
12.2365,0.004403,0.007895,0.002826,-0.001076,-0.003049,0.00071,0.005715,-0.502292,0.001966,1.142719,-263.526899,-0.660173,68.627099
12.2564,0.004911,0.007494,0.000669,-0.001077,-0.003047,0.000717,0.005768,-0.502215,0.002317,1.142719,-263.526899,-0.660173,68.627099
12.2765,0.004578,0.007943,0.002511,-0.001077,-0.003044,0.000722,0.005252,-0.502506,0.000669,1.180417,-263.526899,-0.585182,68.627099
12.2961,0.004987,0.00783,0.001832,-0.001075,-0.003046,0.000717,0.005804,-0.502096,0.002345,1.180417,-263.526899,-0.585182,68.627099
12.3166,0.004883,0.007635,0.000335,-0.001074,-0.003046,0.000712,0.005804,-0.502096,0.002345,1.180417,-263.526899,-0.585182,68.627099
12.3361,0.004684,0.008169,0.002529,-0.001072,-0.003047,0.000709,0.005053,-0.502365,0.000335,1.178386,-263.526899,-0.510283,68.627099
12.3563,0.004896,0.007519,0.001924,-0.001037,-0.00307,0.001153,0.005427,-0.502148,0.001226,1.178386,-263.526899,-0.510283,68.627099
12.3764,0.004794,0.007485,0.002354,-0.001011,-0.003088,0.001469,0.005878,-0.50248,0.001924,1.181553,-263.526899,-0.435279,68.627099
12.3966,0.004433,0.00769,0.00253,-0.001056,-0.003052,0.001261,0.005984,-0.50251,0.002314,1.181553,-263.526899,-0.435279,68.627099
12.4162,0.004712,0.007714,0.000717,-0.001091,-0.003023,0.001109,0.005984,-0.50251,0.002314,1.181553,-263.526899,-0.435279,68.627099
12.4363,0.004419,0.007944,0.001196,-0.00112,-0.003,0.000999,0.005077,-0.502285,0.000717,1.138642,-263.526899,-0.360251,68.627099
12.4561,0.004653,0.007659,0.002773,-0.001049,-0.003048,0.001512,0.005058,-0.502192,0.00091,1.138642,-263.526899,-0.360251,68.627099
12.476,0.004456,0.007764,0.001689,-0.000993,-0.003086,0.001876,0.006067,-0.502339,0.002773,1.132539,-263.5269,-0.285284,68.627099
12.4964,0.00437,0.007839,0.001659,-0.000984,-0.003094,0.001756,0.005386,-0.502244,0.001788,1.132539,-263.5269,-0.285284,68.627099
12.5171,0.004508,0.00754,0.0009,-0.000976,-0.003101,0.001667,0.005386,-0.502244,0.001788,1.132539,-263.5269,-0.285284,68.627099
12.5362,0.004616,0.007707,0.001267,-0.000969,-0.003107,0.0016,0.004968,-0.502459,0.0009,1.097849,-263.5269,-0.210283,68.627099
12.5565,0.004511,0.007606,0.002474,-0.00094,-0.003125,0.001864,0.005087,-0.502392,0.001049,1.097849,-263.5269,-0.210283,68.627099
12.576,0.004468,0.007803,0.003047,-0.000918,-0.00314,0.002051,0.005772,-0.502392,0.002474,1.143916,-263.5269,-0.135242,68.627098
12.5965,0.004447,0.007748,-0.000192,-0.000981,-0.003103,0.001499,0.006,-0.502212,0.002997,1.143916,-263.5269,-0.135242,68.627098
12.6165,0.004049,0.007939,0.0022,-0.001028,-0.003074,0.001088,0.006,-0.502212,0.002997,1.143916,-263.5269,-0.135242,68.627098
12.6365,0.004449,0.007792,0.002707,-0.001064,-0.003051,0.000784,0.005171,-0.50206,0.0022,1.118141,-263.5269,-0.060156,68.627098
12.6564,0.004674,0.007911,0.000582,-0.00104,-0.003066,0.00075,0.005438,-0.502119,0.002405,1.118141,-263.5269,-0.060156,68.627098
12.6764,0.004176,0.007578,0.001101,-0.001021,-0.003079,0.000723,0.004971,-0.502089,0.000582,1.178658,-263.5269,0.014715,68.627098
12.6965,0.0044,0.00777,0.000675,-0.000954,-0.003119,0.00125,0.004759,-0.502391,0.001054,1.178658,-263.5269,0.014715,68.627098
12.7163,0.004543,0.008074,0.001588,-0.0009,-0.003151,0.001622,0.004759,-0.502391,0.001054,1.178658,-263.5269,0.014715,68.627098
12.7365,0.004318,0.007621,0.001498,-0.000858,-0.003178,0.001885,0.005352,-0.501925,0.001588,1.201353,-263.5269,0.089714,68.627098
12.7563,0.004534,0.007997,0.001734,-0.000853,-0.003183,0.001854,0.00524,-0.502114,0.001551,1.201353,-263.5269,0.089714,68.627098
12.7765,0.004375,0.007725,0.002161,-0.000849,-0.003189,0.001829,0.005419,-0.502002,0.001734,1.170368,-263.5269,0.165002,68.627098
12.7963,0.004297,0.00773,0.002045,-0.000874,-0.003172,0.001592,0.005472,-0.50225,0.002124,1.170368,-263.5269,0.165002,68.627098
12.8164,0.004593,0.007878,0.001982,-0.000894,-0.003159,0.001419,0.005472,-0.50225,0.002124,1.170368,-263.5269,0.165002,68.627098
12.8363,0.0046,0.008008,0.002006,-0.000909,-0.003148,0.001292,0.005604,-0.502121,0.001982,1.181929,-263.5269,0.239864,68.627098
12.856,0.004636,0.007575,0.000139,-0.000921,-0.003142,0.001247,0.005612,-0.502067,0.001992,1.181929,-263.5269,0.239864,68.627098
12.8764,0.004509,0.008037,0.000523,-0.00093,-0.003137,0.001215,0.004707,-0.502425,0.000139,1.203052,-263.5269,0.314842,68.627097
12.8965,0.004657,0.007653,0.001154,-0.000857,-0.003183,0.001871,0.004769,-0.502005,0.000488,1.203052,-263.5269,0.314842,68.627097
12.9169,0.004402,0.007576,0.002698,-0.0008,-0.00322,0.002338,0.004769,-0.502005,0.000488,1.203052,-263.5269,0.314842,68.627097
12.9362,0.004367,0.00796,0.000515,-0.000755,-0.003251,0.00267,0.005778,-0.502422,0.002698,1.200491,-263.5269,0.389846,68.627097
12.9567,0.004929,0.007566,0.001048,-0.000789,-0.00323,0.002312,0.005323,-0.502271,0.001833,1.200491,-263.5269,0.389846,68.627097
12.9765,0.004453,0.007736,0.001535,-0.000814,-0.003214,0.002049,0.005464,-0.502434,0.001048,1.1345,-263.526901,0.464719,68.627097
12.9964,0.004475,0.008235,0.000979,-0.000825,-0.003206,0.001987,0.005255,-0.502278,0.001493,1.1345,-263.526901,0.464719,68.627097
13.0162,0.004523,0.007377,0.00063,-0.000834,-0.003201,0.001942,0.005255,-0.502278,0.001493,1.1345,-263.526901,0.464719,68.627097
13.0364,0.004362,0.007596,0.003026,-0.000842,-0.003196,0.001907,0.004845,-0.502622,0.00063,1.177516,-263.526901,0.539846,68.627097
13.0568,0.004445,0.007727,0.00109,-0.000863,-0.00318,0.001826,0.005283,-0.502531,0.00162,1.177516,-263.526901,0.539846,68.627097
13.0764,0.004882,0.007726,0.002318,-0.00088,-0.003166,0.001767,0.005001,-0.502273,0.00109,1.178009,-263.526901,0.61484,68.627097
13.0965,0.004945,0.007779,0.002434,-0.000935,-0.003128,0.001506,0.005973,-0.502272,0.002213,1.178009,-263.526901,0.61484,68.627097
13.1164,0.004411,0.008144,0.001295,-0.000979,-0.003098,0.001316,0.005973,-0.502272,0.002213,1.178009,-263.526901,0.61484,68.627097
13.1366,0.004663,0.007935,0.00041,-0.001014,-0.003073,0.001179,0.005072,-0.501855,0.001295,1.171621,-263.526901,0.689844,68.627096
13.1567,0.004877,0.007491,0.000504,-0.000946,-0.003121,0.001624,0.004991,-0.50194,0.000936,1.171621,-263.526901,0.689844,68.627096
13.1763,0.004236,0.007995,0.000608,-0.000891,-0.003159,0.00194,0.005134,-0.502509,0.000504,1.163828,-263.526902,0.764741,68.627094
13.1964,0.004683,0.007458,0.002011,-0.000818,-0.003207,0.002333,0.004597,-0.502049,0.000599,1.163828,-263.526902,0.764741,68.627094
13.2162,0.004586,0.007671,0.002035,-0.000759,-0.003246,0.002612,0.004597,-0.502049,0.000599,1.163828,-263.526902,0.764741,68.627094
13.2365,0.004472,0.00786,0.000794,-0.000712,-0.003278,0.002809,0.005623,-0.502328,0.002035,1.146773,-263.526904,0.839805,68.627091
13.2566,0.00428,0.007493,0.000471,-0.000749,-0.003256,0.002524,0.005317,-0.502251,0.001526,1.146773,-263.526904,0.839805,68.627091
13.2764,0.004569,0.007372,0.000826,-0.000777,-0.003238,0.002315,0.00452,-0.502507,0.000471,1.143279,-263.526906,0.914815,68.627085
13.2961,0.004891,0.008001,0.001394,-0.000783,-0.003232,0.002482,0.00495,-0.502618,0.000795,1.143279,-263.526906,0.914815,68.627085
13.3161,0.004682,0.008022,0.00073,-0.000788,-0.003226,0.002601,0.00495,-0.502618,0.000795,1.143279,-263.526906,0.914815,68.627085
13.3361,0.004431,0.008022,0.001988,-0.000792,-0.003222,0.002687,0.005053,-0.50198,0.000731,1.167947,-263.52692,0.989843,68.627051
13.3562,0.004863,0.007864,0.001616,-0.000791,-0.003229,0.002555,0.005211,-0.501979,0.00124,1.167947,-263.52692,0.989843,68.627051
13.3763,0.004586,0.008024,0.000844,-0.000789,-0.003235,0.002459,0.005685,-0.50214,0.00162,1.106256,-263.526957,1.064707,68.626949
13.3962,0.004516,0.007836,0.001249,-0.000774,-0.003248,0.002536,0.005076,-0.501991,0.000914,1.106256,-263.526957,1.064707,68.626949
13.4164,0.004506,0.007819,0.002367,-0.000762,-0.003259,0.002591,0.005076,-0.501991,0.000914,1.106256,-263.526957,1.064707,68.626949
13.4363,0.004576,0.007919,0.001006,-0.000753,-0.003268,0.002631,0.005705,-0.502198,0.00238,1.143658,-263.527068,1.139852,68.626668
13.4562,0.004618,0.007921,0.001719,-0.00079,-0.003244,0.00228,0.005453,-0.502152,0.001821,1.143658,-263.527068,1.139852,68.626668
13.4763,0.004307,0.007592,0.001864,-0.000818,-0.003225,0.002024,0.005484,-0.502107,0.001741,1.145258,-263.527277,1.214795,68.626103
13.4962,0.004865,0.007502,0.001574,-0.000839,-0.003209,0.001824,0.005277,-0.502382,0.001854,1.145258,-263.527277,1.214795,68.626103
13.5162,0.004813,0.007711,0.000609,-0.000855,-0.003195,0.001678,0.005277,-0.502382,0.001854,1.145258,-263.527277,1.214795,68.626103
13.5363,0.004358,0.007821,0.002332,-0.000867,-0.003185,0.001573,0.005097,-0.502369,0.000658,1.180505,-263.527794,1.289848,68.625014
13.5562,0.004784,0.007645,0.000825,-0.000869,-0.003184,0.001697,0.005279,-0.502299,0.001353,1.180505,-263.527794,1.289848,68.625014
13.5759,0.00434,0.007395,0.003014,-0.00087,-0.003182,0.001787,0.00518,-0.502447,0.00087,1.198996,-263.528662,1.364518,68.623474
13.596,0.004199,0.007498,0.001948,-0.000942,-0.003131,0.001335,0.005815,-0.502593,0.002827,1.198996,-263.528662,1.364518,68.623474
13.6161,0.004456,0.007988,0.002097,-0.000998,-0.003091,0.001001,0.005815,-0.502593,0.002827,1.198996,-263.528662,1.364518,68.623474
13.6362,0.00385,0.00715,0.002681,-0.001041,-0.003058,0.000757,0.00549,-0.502143,0.002171,1.176289,-263.529561,1.369865,68.621743
13.6563,0.004107,0.007052,0.001818,-0.001032,-0.003062,0.000724,0.005374,-0.502448,0.002389,1.176289,-263.529561,1.369865,68.621743
13.6762,0.004423,0.007165,0.000639,-0.001024,-0.003066,0.0007,0.005005,-0.503033,0.00184,1.189399,-263.53055,1.294792,68.620444
13.6962,0.004201,0.007324,0.002873,-0.000978,-0.003087,0.001369,0.00477,-0.502856,0.000746,1.189399,-263.53055,1.294792,68.620444
13.7161,0.003846,0.007299,0.001995,-0.000944,-0.003103,0.001843,0.00477,-0.502856,0.000746,1.189399,-263.53055,1.294792,68.620444
13.7367,0.004155,0.006648,0.001866,-0.000917,-0.003116,0.002179,0.004821,-0.502828,0.002024,1.200564,-263.531677,1.28568,68.618995
13.7563,0.003945,0.007159,0.00138,-0.000934,-0.003098,0.001903,0.004933,-0.503057,0.001963,1.200564,-263.531677,1.28568,68.618995
13.7764,0.004231,0.007148,0.002391,-0.000946,-0.003085,0.0017,0.004627,-0.502915,0.001432,1.125635,-263.532283,1.36061,68.617623
13.7962,0.004233,0.007036,0.001517,-0.000983,-0.003057,0.00143,0.005379,-0.50286,0.002312,1.125635,-263.532283,1.36061,68.617623
13.8161,0.003941,0.00691,0.001639,-0.001012,-0.003035,0.001232,0.005379,-0.50286,0.002312,1.125635,-263.532283,1.36061,68.617623
13.8361,0.004082,0.006698,0.000327,-0.001034,-0.003017,0.001088,0.004738,-0.503217,0.00171,1.137895,-263.533178,1.345307,68.615944
13.8562,0.003615,0.006469,0.002255,-0.000995,-0.003033,0.001444,0.004533,-0.503267,0.001153,1.137895,-263.533178,1.345307,68.615944
13.8767,0.003731,0.006786,0.002102,-0.000965,-0.003046,0.001698,0.004734,-0.503622,0.002289,1.156651,-263.534163,1.296939,68.614479
13.8962,0.003933,0.006625,0.001518,-0.000974,-0.003035,0.0015,0.004795,-0.503255,0.00212,1.156651,-263.534163,1.296939,68.614479
13.9163,0.003961,0.00652,0.003119,-0.00098,-0.003025,0.001356,0.004795,-0.503255,0.00212,1.156651,-263.534163,1.296939,68.614479
13.9364,0.003725,0.006118,0.002403,-0.000983,-0.003018,0.001253,0.005513,-0.503599,0.003187,1.122885,-263.535014,1.338639,68.612876
13.9564,0.003369,0.006276,0.002775,-0.001061,-0.002951,0.000933,0.005278,-0.503728,0.002873,1.122885,-263.535014,1.338639,68.612876
13.9767,0.003814,0.006442,0.001627,-0.001122,-0.002897,0.0007,0.004754,-0.503815,0.002813,1.15937,-263.535971,1.316576,68.611354
13.9963,0.003846,0.006529,0.001336,-0.0011,-0.002905,0.000931,0.004652,-0.503584,0.001728,1.15937,-263.535971,1.316576,68.611354
14.0164,0.003802,0.006298,0.002842,-0.001082,-0.00291,0.001095,0.004652,-0.503584,0.001728,1.15937,-263.535971,1.316576,68.611354
14.0361,0.003612,0.006434,0.0014,-0.001068,-0.002914,0.001212,0.005209,-0.503811,0.002869,1.144299,-263.536966,1.245316,68.610067
14.0562,0.003934,0.006115,0.004695,-0.001088,-0.002893,0.001096,0.004843,-0.503724,0.002272,1.144299,-263.536966,1.245316,68.610067
14.0763,0.003668,0.005952,0.001497,-0.001102,-0.002876,0.001012,0.006296,-0.503969,0.004732,1.114078,-263.537895,1.286387,68.608607
14.0962,0.003945,0.005997,0.002633,-0.001107,-0.002858,0.00112,0.004597,-0.504045,0.00179,1.114078,-263.537895,1.286387,68.608607
14.1164,0.003703,0.005779,0.001888,-0.001111,-0.002843,0.001197,0.004597,-0.504045,0.00179,1.114078,-263.537895,1.286387,68.608607
14.1363,0.003328,0.005671,0.002501,-0.001114,-0.00283,0.001253,0.00462,-0.50434,0.001931,1.116613,-263.538893,1.26518,68.607152
14.1561,0.00358,0.00597,0.002819,-0.00114,-0.002793,0.00115,0.004608,-0.504349,0.002168,1.116613,-263.538893,1.26518,68.607152
14.1768,0.003471,0.005936,0.003201,-0.00116,-0.002763,0.001077,0.004984,-0.504116,0.002858,1.075961,-263.539807,1.270247,68.605686
14.196,0.003188,0.005378,0.001309,-0.001215,-0.002726,0.000731,0.005091,-0.504071,0.003172,1.075961,-263.539807,1.270247,68.605686
14.2161,0.003318,0.00583,0.0022,-0.001256,-0.002696,0.000479,0.005091,-0.504071,0.003172,1.075961,-263.539807,1.270247,68.605686
14.2364,0.00343,0.005605,0.003241,-0.001288,-0.002671,0.000295,0.004392,-0.504283,0.002244,1.067041,-263.540757,1.243766,68.604257
14.2562,0.003071,0.005566,0.002601,-0.001287,-0.002659,0.000311,0.00467,-0.504341,0.002659,1.067041,-263.540757,1.243766,68.604257
14.276,0.003203,0.005309,0.003045,-0.001287,-0.002649,0.000323,0.004364,-0.504505,0.002609,1.093546,-263.541709,1.168672,68.603195
14.2965,0.002938,0.005553,0.003434,-0.001311,-0.002612,0.00022,0.004719,-0.504676,0.003006,1.093546,-263.541709,1.168672,68.603195
14.3169,0.003328,0.00505,0.002905,-0.00133,-0.002581,0.000147,0.004719,-0.504676,0.003006,1.093546,-263.541709,1.168672,68.603195
14.3369,0.003247,0.005601,0.002497,-0.001345,-0.002556,9.5e-05,0.004756,-0.505058,0.002918,1.087595,-263.542808,1.146244,68.601956
14.3563,0.003249,0.005536,0.00282,-0.001355,-0.00253,0.000123,0.004655,-0.504804,0.00275,1.087595,-263.542808,1.146244,68.601956
14.3761,0.003183,0.005225,0.001398,-0.001363,-0.002508,0.000141,0.004646,-0.504541,0.002823,1.076827,-263.543896,1.095605,68.600828
14.3963,0.002849,0.005623,0.002672,-0.001284,-0.002544,0.000621,0.003958,-0.504758,0.001521,1.076827,-263.543896,1.095605,68.600828
14.416,0.003038,0.005361,0.002608,-0.001222,-0.002573,0.000958,0.003958,-0.504758,0.001521,1.076827,-263.543896,1.095605,68.600828
14.4363,0.002882,0.005645,0.003342,-0.001174,-0.002595,0.001193,0.004312,-0.504741,0.002614,1.05824,-263.545,1.087156,68.599664
14.4563,0.002962,0.004696,0.001277,-0.001188,-0.002588,0.000877,0.004418,-0.504593,0.002914,1.05824,-263.545,1.087156,68.599664
14.4765,0.002941,0.005085,0.001221,-0.001197,-0.002583,0.000643,0.003585,-0.50536,0.001302,1.009291,-263.545607,1.16215,68.598693
14.4964,0.003214,0.00497,0.001774,-0.001114,-0.002612,0.001095,0.003564,-0.504958,0.001229,1.009291,-263.545607,1.16215,68.598693
14.5165,0.003204,0.00473,0.002369,-0.001049,-0.002634,0.001413,0.003564,-0.504958,0.001229,1.009291,-263.545607,1.16215,68.598693
14.5364,0.002956,0.005487,0.00271,-0.000998,-0.002651,0.001636,0.004365,-0.50537,0.002394,1.070849,-263.546537,1.188439,68.597499
14.5563,0.002714,0.004686,0.001773,-0.001062,-0.002597,0.001299,0.004349,-0.505032,0.002525,1.070849,-263.546537,1.188439,68.597499
14.5761,0.003145,0.004859,0.000542,-0.001111,-0.002554,0.001052,0.003591,-0.505379,0.001813,1.027203,-263.547141,1.263451,68.596314
14.5962,0.00261,0.004999,0.002903,-0.001035,-0.002578,0.001644,0.003436,-0.505167,0.000662,1.027203,-263.547141,1.263451,68.596314
14.6172,0.002902,0.004632,0.001668,-0.000977,-0.002595,0.002063,0.003436,-0.505167,0.000662,1.027203,-263.547141,1.263451,68.596314
14.6368,0.003063,0.004568,0.001695,-0.000931,-0.002608,0.002359,0.003706,-0.505475,0.001712,1.044522,-263.548011,1.236394,68.594982
14.6566,0.002751,0.004761,0.002248,-0.000969,-0.002557,0.002101,0.003785,-0.50547,0.00171,1.044522,-263.548011,1.236394,68.594982
14.6765,0.002505,0.004646,0.003565,-0.000997,-0.002516,0.001911,0.003879,-0.505287,0.002291,0.969524,-263.548361,1.311391,68.594009
14.6965,0.002785,0.004447,0.00291,-0.00109,-0.002455,0.001262,0.004284,-0.505348,0.003457,0.969524,-263.548361,1.311391,68.594009
14.7164,0.002882,0.004543,0.003401,-0.001161,-0.002407,0.000775,0.004284,-0.505348,0.003457,0.969524,-263.548361,1.311391,68.594009
14.7368,0.002699,0.004195,0.00336,-0.001214,-0.002369,0.000413,0.004576,-0.505558,0.003479,0.93396,-263.549018,1.306347,68.592513
14.7568,0.002228,0.004321,0.002366,-0.001296,-0.00229,0.000139,0.004504,-0.50567,0.003439,0.93396,-263.549018,1.306347,68.592513
14.7764,0.002725,0.004396,0.003624,-0.001361,-0.002226,-6e-05,0.003417,-0.505716,0.002375,1.009032,-263.549514,1.231275,68.591926
14.7963,0.002615,0.004015,0.002828,-0.001411,-0.002182,-0.000223,0.004474,-0.505612,0.003518,1.009032,-263.549514,1.231275,68.591926
14.8162,0.002296,0.004082,0.001373,-0.001451,-0.002146,-0.000341,0.004474,-0.505612,0.003518,1.009032,-263.549514,1.231275,68.591926
14.8362,0.002363,0.004032,0.002327,-0.001482,-0.002117,-0.000425,0.002974,-0.505963,0.001375,1.029406,-263.550007,1.156289,68.591446
14.8564,0.002597,0.004318,0.002855,-0.001364,-0.002145,0.000113,0.003208,-0.50597,0.001767,1.029406,-263.550007,1.156289,68.591446
14.8761,0.002601,0.004036,0.002697,-0.001271,-0.002166,0.00049,0.00404,-0.505704,0.002853,1.013098,-263.550382,1.081337,68.591127
14.8965,0.002504,0.00429,0.00173,-0.0013,-0.002127,0.000407,0.003982,-0.50594,0.002711,1.013098,-263.550382,1.081337,68.591127
14.9165,0.002517,0.004517,0.003306,-0.001323,-0.002096,0.000347,0.003982,-0.50594,0.002711,1.013098,-263.550382,1.081337,68.591127
14.9365,0.002583,0.004135,0.002623,-0.00134,-0.002071,0.000302,0.004152,-0.505569,0.003326,0.972889,-263.55126,1.094634,68.590049
14.9565,0.002556,0.004021,0.002741,-0.00135,-0.002073,0.000177,0.004052,-0.505698,0.003043,0.972889,-263.55126,1.094634,68.590049
14.9765,0.002466,0.003925,0.003485,-0.001357,-0.002074,8.5e-05,0.003914,-0.506039,0.00275,0.953074,-263.552128,1.034712,68.589064
14.9966,0.002613,0.004117,0.002533,-0.00141,-0.002019,-9.3e-05,0.00421,-0.506072,0.003415,0.953074,-263.552128,1.034712,68.589064
15.017,0.002378,0.004267,0.001653,-0.001451,-0.001975,-0.000221,0.00421,-0.506072,0.003415,0.953074,-263.552128,1.034712,68.589064
