mach0312/omni-docking-bench/src/icros_test_setup/results/MPPI_sample/timeseries/trial_046.csv
t,x,y,yaw,vx,vy,wz,bl_x,bl_y,bl_yaw,front_steering_joint,front_wheel_joint,rear_steering_joint,rear_wheel_joint
0.0,-0.019545,-0.020157,0.00049,-0.002696,-0.00314,-0.000173,-0.019632,-0.529189,-0.001041,0.87766,-262.085023,0.844356,71.782312
0.0005,-0.019764,-0.020061,-0.000823,-0.001838,-0.00214,-0.000118,-0.019632,-0.529189,-0.001041,0.87766,-262.088534,0.844356,71.778934
0.0009,-0.019833,-0.02008,0.000884,-0.000928,-0.001081,-6e-05,-0.019668,-0.529427,-0.001038,0.87766,-262.091198,0.844356,71.776372
0.0013,-0.019504,-0.020138,-0.000612,0.0,0.0,0.0,-0.0191,-0.529657,0.000644,0.87766,-262.092348,0.844356,71.775266
0.0016,-0.019866,-0.020537,0.000543,0.0,0.0,0.0,-0.0191,-0.529657,0.000644,0.87766,-262.092348,0.844356,71.775266
0.0019,-0.020071,-0.020269,-0.001321,0.0,0.0,0.0,-0.0191,-0.529657,0.000644,0.87766,-262.092348,0.844356,71.775266
0.0022,-0.019868,-0.020356,-0.000579,0.0,0.0,0.0,-0.019721,-0.529627,-0.000267,0.87766,-262.092348,0.844356,71.775266
0.0025,-0.020018,-0.020018,-2.3e-05,0.0,0.0,0.0,-0.019721,-0.529627,-0.000267,0.87766,-262.092348,0.844356,71.775266
0.0028,-0.020082,-0.020292,-1.9e-05,0.0,0.0,0.0,-0.020023,-0.529879,-0.000578,0.87766,-262.092348,0.844356,71.775266
0.0078,-0.019971,-0.020225,-0.000572,0.0,0.0,0.0,-0.020091,-0.530292,-1.9e-05,0.87766,-262.092348,0.844356,71.775266
0.028,-0.020195,-0.0203,-0.001134,0.0,0.0,0.0,-0.020161,-0.530265,-0.000243,0.87766,-262.092348,0.844356,71.775266
0.0479,-0.019992,-0.020188,-0.001075,0.0,0.0,0.0,-0.020773,-0.5303,-0.001134,0.87766,-262.092348,0.844356,71.775266
0.068,-0.019486,-0.020558,-0.000637,0.0,0.0,0.0,-0.020561,-0.530197,-0.00108,0.87766,-262.092348,0.844356,71.775266
0.0882,-0.019983,-0.020634,-0.001718,0.0,0.0,0.0,-0.020561,-0.530197,-0.00108,0.87766,-262.092348,0.844356,71.775266
0.1084,-0.020006,-0.020118,6.6e-05,0.0,0.0,0.0,-0.020859,-0.530633,-0.001718,0.87766,-262.092348,0.844356,71.775266
0.1279,-0.020045,-0.020423,-0.001176,0.003304,0.001941,0.001741,-0.0205,-0.530425,-0.000996,0.87766,-262.092348,0.844356,71.775266
0.1479,-0.019777,-0.020427,-0.001904,0.003541,0.002092,0.001803,-0.020645,-0.530423,-0.001176,0.87766,-262.092348,0.844356,71.775266
0.1682,-0.020177,-0.019794,-0.002048,0.003751,0.002207,0.002277,-0.020738,-0.530426,-0.001838,0.87766,-262.092348,0.844356,71.775266
0.1884,-0.020201,-0.020419,0.000283,0.003929,0.002312,0.00259,-0.020738,-0.530426,-0.001838,0.87766,-262.092348,0.844356,71.775266
0.2079,-0.020211,-0.020148,-0.001219,0.003929,0.002312,0.00259,-0.020056,-0.530419,0.000283,0.802673,-262.092343,0.769369,71.77527
0.228,-0.019574,-0.020275,-0.000262,0.004189,0.002531,0.001512,-0.020372,-0.530308,-0.000328,0.802673,-262.092343,0.769369,71.77527
0.2481,-0.019978,-0.020494,-0.000811,0.004297,0.002617,0.001193,-0.019707,-0.530275,-0.000262,0.780819,-262.092336,0.694376,71.775275
0.2681,-0.020115,-0.02028,-0.000607,0.00439,0.002689,0.001215,-0.020329,-0.530474,-0.000761,0.780819,-262.092336,0.694376,71.775275
0.288,-0.020253,-0.019982,-0.000801,0.004471,0.002753,0.001223,-0.020329,-0.530474,-0.000761,0.780819,-262.092336,0.694376,71.775275
0.308,-0.020034,-0.020482,-0.001663,0.004471,0.002753,0.001223,-0.020625,-0.529953,-0.000795,0.705818,-262.091851,0.619375,71.775692
0.3281,-0.019508,-0.020215,-5.6e-05,0.004627,0.002826,0.001588,-0.020726,-0.530165,-0.001148,0.705818,-262.091851,0.619375,71.775692
0.3479,-0.01987,-0.020224,-0.000811,0.004689,0.00286,0.001682,-0.019465,-0.530165,-4.3e-05,0.66423,-262.090673,0.544377,71.776709
0.3682,-0.02006,-0.020025,0.001073,0.004728,0.002908,0.00151,-0.020207,-0.530216,-0.000742,0.66423,-262.090673,0.544377,71.776709
0.3883,-0.019829,-0.020382,0.001764,0.004764,0.002949,0.001388,-0.020207,-0.530216,-0.000742,0.66423,-262.090673,0.544377,71.776709
0.4081,-0.019562,-0.020236,0.000147,0.004764,0.002949,0.001388,-0.018812,-0.530302,0.001798,0.692178,-262.089176,0.469323,71.777946
0.4283,-0.020018,-0.02011,-0.0007,0.004741,0.003074,-0.000503,-0.019073,-0.530266,0.00113,0.692178,-262.089176,0.469323,71.777946
0.4481,-0.019371,-0.019696,0.000691,0.004742,0.003119,-0.001056,-0.020231,-0.530021,-0.000658,0.672856,-262.086866,0.415375,71.779921
0.4683,-0.019206,-0.019844,-0.000117,0.004763,0.003144,-0.001149,-0.019119,-0.529721,0.000573,0.672856,-262.086866,0.415375,71.779921
0.4884,-0.019618,-0.020143,0.000175,0.004782,0.003166,-0.001215,-0.019119,-0.529721,0.000573,0.672856,-262.086866,0.415375,71.779921
0.5082,-0.019487,-0.01974,0.00074,0.004782,0.003166,-0.001215,-0.01949,-0.530119,0.000176,0.597895,-262.086455,0.490336,71.780386
0.5286,-0.019415,-0.019798,-0.00011,0.004815,0.0032,-0.001133,-0.019331,-0.529962,0.000405,0.597895,-262.086455,0.490336,71.780386
0.5478,-0.019254,-0.019966,0.00057,0.004828,0.003215,-0.00111,-0.019405,-0.529758,-0.000116,0.522895,-262.085564,0.565336,71.781413
0.568,-0.019657,-0.019505,-0.000911,0.004832,0.003236,-0.001153,-0.019,-0.529945,0.000507,0.522895,-262.085564,0.565336,71.781413
0.5887,-0.019413,-0.019649,-0.000656,0.004835,0.003254,-0.001182,-0.019,-0.529945,0.000507,0.522895,-262.085564,0.565336,71.781413
0.6084,-0.01965,-0.019377,0.0008,0.004835,0.003254,-0.001182,-0.019584,-0.529545,-0.000688,0.483924,-262.08383,0.64033,71.783384
0.6285,-0.019107,-0.019527,-0.000701,0.004885,0.003239,-0.000621,-0.019428,-0.529465,-9.3e-05,0.483924,-262.08383,0.64033,71.783384
0.6482,-0.019103,-0.019435,-0.000708,0.004903,0.003236,-0.000462,-0.019316,-0.529426,-0.000738,0.482372,-262.081725,0.688216,71.785798
0.6684,-0.01888,-0.019204,0.001006,0.004923,0.003225,1.1e-05,-0.019443,-0.529429,-0.000713,0.482372,-262.081725,0.688216,71.785798
0.6882,-0.01939,-0.019693,-0.000169,0.004938,0.003219,0.000337,-0.019443,-0.529429,-0.000713,0.482372,-262.081725,0.688216,71.785798
0.7081,-0.01828,-0.019367,-0.000432,0.004938,0.003219,0.000337,-0.019295,-0.529573,-0.000186,0.542112,-262.079708,0.62236,71.787925
0.7285,-0.018358,-0.019468,-0.001406,0.004934,0.003246,0.000292,-0.018949,-0.529475,-0.000289,0.542112,-262.079708,0.62236,71.787925
0.7481,-0.018364,-0.01928,0.000825,0.004933,0.003256,0.000278,-0.01894,-0.52938,-0.001397,0.606424,-262.077649,0.547878,71.789907
0.7684,-0.018408,-0.019324,-0.000448,0.004906,0.003287,-0.000258,-0.018024,-0.529284,0.00063,0.606424,-262.077649,0.547878,71.789907
0.7886,-0.018588,-0.01926,-0.00062,0.004886,0.003312,-0.000632,-0.018024,-0.529284,0.00063,0.606424,-262.077649,0.547878,71.789907
0.8087,-0.018444,-0.019294,-0.00078,0.004886,0.003312,-0.000632,-0.018697,-0.529123,-0.000609,0.607033,-262.075252,0.559052,71.792229
0.8281,-0.018097,-0.019191,0.000223,0.004909,0.003291,0.000212,-0.018731,-0.529175,-0.000675,0.607033,-262.075252,0.559052,71.792229
0.8483,-0.017762,-0.019032,-0.001018,0.004917,0.003287,0.000449,-0.017855,-0.529106,0.000208,0.539507,-262.073386,0.634018,71.794237
0.8682,-0.018064,-0.019066,-0.001159,0.004915,0.003289,0.000743,-0.018235,-0.529034,-0.000906,0.539507,-262.073386,0.634018,71.794237
0.8882,-0.017892,-0.019195,-0.00038,0.004913,0.003293,0.000945,-0.018235,-0.529034,-0.000906,0.539507,-262.073386,0.634018,71.794237
0.9084,-0.018015,-0.01864,2e-06,0.004913,0.003293,0.000945,-0.017923,-0.529086,-0.000368,0.614498,-262.071469,0.559027,71.796058
0.9283,-0.017763,-0.01884,0.000905,0.004894,0.003323,0.0005,-0.017941,-0.528892,-0.000216,0.614498,-262.071469,0.559027,71.796058
0.9479,-0.017435,-0.01868,-0.000543,0.004888,0.003332,0.000373,-0.017159,-0.528744,0.000932,0.667252,-262.069185,0.505036,71.798108
0.9682,-0.017461,-0.018335,0.00012,0.004883,0.003339,0.000397,-0.017654,-0.528681,-0.000408,0.667252,-262.069185,0.505036,71.798108
0.988,-0.01698,-0.018422,0.000149,0.004879,0.003345,0.000414,-0.017654,-0.528681,-0.000408,0.667252,-262.069185,0.505036,71.798108
1.0081,-0.01755,-0.018513,-9.2e-05,0.004879,0.003345,0.000414,-0.016715,-0.528293,0.000163,0.629479,-262.066957,0.56581,71.800242
1.0281,-0.017416,-0.01859,-0.001509,0.00485,0.003376,-3.1e-05,-0.017052,-0.528368,6.1e-05,0.629479,-262.066957,0.56581,71.800242
1.048,-0.017131,-0.018306,-0.001869,0.004841,0.003386,-0.000156,-0.01803,-0.528484,-0.001496,0.635514,-262.064533,0.564983,71.802551
1.068,-0.017023,-0.018569,-0.000326,0.004866,0.003343,0.000811,-0.018071,-0.528316,-0.001835,0.635514,-262.064533,0.564983,71.802551
1.0881,-0.017213,-0.018377,0.000685,0.004885,0.003313,0.001484,-0.018071,-0.528316,-0.001835,0.635514,-262.064533,0.564983,71.802551
1.1079,-0.016884,-0.018065,-0.000526,0.004885,0.003313,0.001484,-0.016676,-0.528246,0.000679,0.597028,-262.062369,0.623534,71.804756
1.1283,-0.016926,-0.017992,0.001069,0.004843,0.003361,0.000356,-0.016847,-0.528157,0.00019,0.597028,-262.062369,0.623534,71.804756
1.1481,-0.01688,-0.018272,0.000175,0.004831,0.003377,3.4e-05,-0.0163,-0.527934,0.001085,0.67203,-262.061028,0.548533,71.805887
1.1685,-0.016401,-0.018191,0.000249,0.004817,0.003392,-0.000228,-0.016743,-0.528239,0.000258,0.67203,-262.061028,0.548533,71.805887
1.1878,-0.017028,-0.017861,-0.000567,0.004807,0.003404,-0.000409,-0.016743,-0.528239,0.000258,0.67203,-262.061028,0.548533,71.805887
1.208,-0.016804,-0.017876,-0.000282,0.004807,0.003404,-0.000409,-0.017136,-0.527735,-0.000565,0.612955,-262.058913,0.607097,71.807993
1.2279,-0.016931,-0.017701,-0.000774,0.004834,0.003378,8.7e-05,-0.017039,-0.527778,-0.00045,0.612955,-262.058913,0.607097,71.807993
1.2481,-0.016407,-0.017783,-0.000235,0.004843,0.00337,0.000228,-0.01718,-0.527598,-0.000786,0.580845,-262.056717,0.650005,71.8103
1.268,-0.016255,-0.017831,-0.000434,0.004838,0.003378,0.000226,-0.016577,-0.527762,-0.000284,0.580845,-262.056717,0.650005,71.8103
1.2878,-0.016579,-0.017561,-0.001339,0.004834,0.003384,0.000225,-0.016577,-0.527762,-0.000284,0.580845,-262.056717,0.650005,71.8103
1.308,-0.01639,-0.017508,-0.000524,0.004834,0.003384,0.000225,-0.017078,-0.527433,-0.001331,0.627089,-262.054542,0.588338,71.812417
1.328,-0.016084,-0.017267,0.00103,0.00486,0.00335,0.000926,-0.016884,-0.527449,-0.000998,0.627089,-262.054542,0.588338,71.812417
1.3479,-0.016031,-0.017775,-8.9e-05,0.004869,0.00334,0.001121,-0.015405,-0.527159,0.001037,0.629559,-262.052147,0.591351,71.814749
1.3681,-0.016267,-0.017334,-0.001593,0.00484,0.003372,0.000671,-0.016012,-0.527717,8e-06,0.629559,-262.052147,0.591351,71.814749
1.3885,-0.015809,-0.017498,-0.000722,0.004817,0.003396,0.000359,-0.016012,-0.527717,8e-06,0.629559,-262.052147,0.591351,71.814749
1.4081,-0.015986,-0.017266,-0.000907,0.004817,0.003396,0.000359,-0.016011,-0.527382,-0.000685,0.69078,-262.050072,0.516229,71.81657
1.428,-0.01594,-0.017533,-0.001268,0.00482,0.003391,0.000764,-0.01617,-0.527321,-0.000772,0.69078,-262.050072,0.516229,71.81657
1.4478,-0.015609,-0.017298,-0.000854,0.00482,0.003391,0.000878,-0.016448,-0.527436,-0.001257,0.643817,-262.047902,0.583036,71.818649
1.4682,-0.015457,-0.017336,-0.000791,0.004818,0.003392,0.001023,-0.016074,-0.527306,-0.00089,0.643817,-262.047902,0.583036,71.818649
1.4882,-0.015603,-0.017204,-0.000774,0.004816,0.003393,0.001123,-0.016074,-0.527306,-0.00089,0.643817,-262.047902,0.583036,71.818649
1.5086,-0.0154,-0.017096,-0.000186,0.004816,0.003393,0.001123,-0.015808,-0.527071,-0.000739,0.683699,-262.045572,0.534704,71.820748
1.5285,-0.015177,-0.017165,-0.000815,0.004799,0.003414,0.000868,-0.01566,-0.527066,-0.000511,0.683699,-262.045572,0.534704,71.820748
1.5481,-0.015348,-0.016844,8.6e-05,0.004793,0.003421,0.000796,-0.015441,-0.527058,-0.000779,0.702688,-262.043079,0.512128,71.822931
1.5679,-0.015034,-0.016641,-0.000505,0.004778,0.003435,0.000442,-0.015309,-0.526857,1.3e-05,0.702688,-262.043079,0.512128,71.822931
1.5883,-0.014904,-0.016513,-0.000476,0.004768,0.003445,0.000196,-0.015309,-0.526857,1.3e-05,0.702688,-262.043079,0.512128,71.822931
1.6082,-0.014595,-0.016368,-0.000752,0.004768,0.003445,0.000196,-0.01495,-0.526373,-0.000443,0.6839,-262.040674,0.549418,71.825117
1.6283,-0.014572,-0.016709,0.001788,0.004764,0.003445,0.000483,-0.01494,-0.526355,-0.000564,0.6839,-262.040674,0.549418,71.825117
1.6479,-0.014822,-0.016609,-0.000533,0.004763,0.003445,0.000565,-0.013521,-0.526607,0.001794,0.642096,-262.038486,0.609033,71.827253
1.6679,-0.014844,-0.016427,0.000319,0.004753,0.003455,0.000481,-0.014947,-0.526604,-0.000326,0.642096,-262.038486,0.609033,71.827253
1.6879,-0.014883,-0.016643,-0.002363,0.004746,0.003463,0.000424,-0.014947,-0.526604,-0.000326,0.642096,-262.038486,0.609033,71.827253
1.7079,-0.014505,-0.016398,7e-06,0.004746,0.003463,0.000424,-0.015895,-0.526503,-0.002341,0.672211,-262.036125,0.577085,71.829457
1.7286,-0.014685,-0.016245,-0.00085,0.004767,0.003425,0.00136,-0.015297,-0.526443,-0.001368,0.672211,-262.036125,0.577085,71.829457
1.7482,-0.014233,-0.01598,-9.2e-05,0.004773,0.003416,0.001621,-0.014969,-0.526135,-0.000837,0.665071,-262.033726,0.59379,71.831735
1.7684,-0.014084,-0.016463,-0.000763,0.004753,0.003439,0.00111,-0.014332,-0.525988,-0.000155,0.665071,-262.033726,0.59379,71.831735
1.7879,-0.014073,-0.015957,-0.000632,0.004738,0.003456,0.000756,-0.014332,-0.525988,-0.000155,0.665071,-262.033726,0.59379,71.831735
1.8077,-0.014297,-0.016029,-0.000598,0.004738,0.003456,0.000756,-0.014256,-0.525853,-0.000591,0.740053,-262.031893,0.518808,71.833246
1.8278,-0.013891,-0.016202,0.000426,0.004731,0.003463,0.000771,-0.014382,-0.525914,-0.000589,0.740053,-262.031893,0.518808,71.833246
1.848,-0.014159,-0.015918,0.002036,0.004728,0.003466,0.000775,-0.013533,-0.5261,0.000448,0.690964,-262.029601,0.563641,71.835335
1.8679,-0.013712,-0.015937,0.000651,0.004656,0.003513,-0.000476,-0.013149,-0.525928,0.001899,0.690964,-262.029601,0.563641,71.835335
1.888,-0.013625,-0.016457,-0.001443,0.004603,0.003549,-0.001372,-0.013149,-0.525928,0.001899,0.690964,-262.029601,0.563641,71.835335
1.908,-0.013869,-0.01598,0.000363,0.004603,0.003549,-0.001372,-0.014163,-0.526312,-0.00141,0.694688,-262.027139,0.564256,71.837574
1.9283,-0.013466,-0.01552,-0.000174,0.00461,0.003535,-0.000124,-0.013942,-0.526158,-0.000672,0.694688,-262.027139,0.564256,71.837574
1.9478,-0.013831,-0.015769,-7.1e-05,0.004611,0.003535,0.000226,-0.013502,-0.525481,-0.00018,0.619626,-262.026391,0.639318,71.838464
1.968,-0.01373,-0.015867,-0.001862,0.004613,0.003538,0.000121,-0.013833,-0.525743,-8e-05,0.619626,-262.026391,0.639318,71.838464
1.988,-0.013199,-0.015926,0.002052,0.004616,0.003541,4.7e-05,-0.013833,-0.525743,-8e-05,0.619626,-262.026391,0.639318,71.838464
2.0078,-0.013431,-0.015484,3.6e-05,0.004616,0.003541,4.7e-05,-0.011969,-0.525783,0.002061,0.672694,-262.024142,0.634946,71.840649
2.0283,-0.013369,-0.015761,-0.000882,0.004519,0.003618,-0.001264,-0.01253,-0.525646,0.001245,0.672694,-262.024142,0.634946,71.840649
2.0478,-0.013629,-0.015204,-0.000695,0.004487,0.003643,-0.001644,-0.013673,-0.525649,-0.000881,0.658203,-262.021825,0.650419,71.842952
2.0678,-0.013337,-0.015676,-0.000443,0.004536,0.003591,-0.00079,-0.013948,-0.525238,-0.000712,0.658203,-262.021825,0.650419,71.842952
2.0885,-0.013321,-0.015212,-0.000237,0.004574,0.003553,-0.0002,-0.013948,-0.525238,-0.000712,0.658203,-262.021825,0.650419,71.842952
2.1084,-0.01296,-0.015196,-0.000286,0.004574,0.003553,-0.0002,-0.013339,-0.525133,-0.000263,0.583181,-262.020715,0.725442,71.844329
2.1284,-0.013226,-0.015271,-0.000816,0.004588,0.003552,4.6e-05,-0.013231,-0.52515,-0.000275,0.583181,-262.020715,0.725442,71.844329
2.1484,-0.012707,-0.015011,0.000506,0.004593,0.003552,0.000113,-0.013509,-0.525169,-0.000822,0.643531,-262.018637,0.67691,71.846462
2.1683,-0.012973,-0.015346,-0.000358,0.004569,0.003576,-0.000232,-0.012533,-0.525019,0.000393,0.643531,-262.018637,0.67691,71.846462
2.1882,-0.012718,-0.015181,-0.001239,0.004552,0.003594,-0.000472,-0.012533,-0.525019,0.000393,0.643531,-262.018637,0.67691,71.846462
2.2077,-0.012791,-0.014886,0.000414,0.004552,0.003594,-0.000472,-0.013162,-0.525036,-0.001234,0.667615,-262.016348,0.648845,71.848718
2.2281,-0.012756,-0.015158,0.000281,0.004567,0.00358,0.000183,-0.0129,-0.524957,-0.000553,0.667615,-262.016348,0.648845,71.848718
2.2479,-0.012116,-0.014576,-0.000719,0.004571,0.003577,0.000367,-0.012479,-0.525053,0.000267,0.628171,-262.01427,0.70623,71.850928
2.2683,-0.012469,-0.015139,0.000811,0.004569,0.003579,0.000537,-0.012475,-0.524613,-0.00063,0.628171,-262.01427,0.70623,71.850928
2.2882,-0.012519,-0.014878,6.6e-05,0.004567,0.003581,0.000654,-0.012475,-0.524613,-0.00063,0.628171,-262.01427,0.70623,71.850928
2.308,-0.012602,-0.014938,-0.000898,0.004567,0.003581,0.000654,-0.012321,-0.52475,7.9e-05,0.693659,-262.012231,0.632839,71.852873
2.3282,-0.012189,-0.014967,-0.001096,0.004558,0.003594,0.000484,-0.012607,-0.524812,-0.000322,0.693659,-262.012231,0.632839,71.852873
2.3479,-0.01208,-0.014142,0.001837,0.004555,0.003598,0.000434,-0.012605,-0.524855,-0.001076,0.716898,-262.00985,0.608437,71.85506
2.3681,-0.011884,-0.014196,0.000459,0.004495,0.003637,-0.000597,-0.011259,-0.524196,0.001592,0.716898,-262.00985,0.608437,71.85506
2.3881,-0.011794,-0.014364,0.000772,0.004451,0.003666,-0.00133,-0.011259,-0.524196,0.001592,0.716898,-262.00985,0.608437,71.85506
2.4084,-0.011819,-0.01439,-0.00108,0.004451,0.003666,-0.00133,-0.011213,-0.524215,0.00079,0.703394,-262.007492,0.631633,71.857288
2.4278,-0.011733,-0.013772,0.000509,0.004448,0.003669,-0.000798,-0.011663,-0.524269,2.9e-05,0.703394,-262.007492,0.631633,71.857288
2.4481,-0.01123,-0.014291,-0.000741,0.004446,0.003673,-0.000648,-0.0114,-0.523713,0.000496,0.628546,-262.006421,0.706482,71.858567
2.4681,-0.011673,-0.013795,-0.000984,0.004445,0.003669,-0.000157,-0.011585,-0.524235,-0.000628,0.628546,-262.006421,0.706482,71.858567
2.488,-0.011734,-0.014256,0.000383,0.004444,0.003669,0.000182,-0.011585,-0.524235,-0.000628,0.628546,-262.006421,0.706482,71.858567
2.5082,-0.011858,-0.01396,-0.000865,0.004444,0.003669,0.000182,-0.011356,-0.524106,0.000356,0.635213,-262.004256,0.741189,71.86093
2.5278,-0.011534,-0.014363,0.000812,0.004454,0.003666,9.8e-05,-0.01172,-0.524029,-0.000145,0.635213,-262.004256,0.741189,71.86093
2.5479,-0.0111,-0.013839,-0.000628,0.004458,0.003664,7.3e-05,-0.010998,-0.524262,0.000817,0.704862,-262.002242,0.675086,71.862894
2.5682,-0.011388,-0.01356,-4.9e-05,0.004456,0.003666,0.000261,-0.011376,-0.523872,-0.000498,0.704862,-262.002242,0.675086,71.862894
2.5878,-0.011308,-0.013742,4.3e-05,0.004453,0.003668,0.00039,-0.011376,-0.523872,-0.000498,0.704862,-262.002242,0.675086,71.862894
2.608,-0.010987,-0.013193,-0.000422,0.004453,0.003668,0.00039,-0.0111,-0.523589,4.6e-05,0.69386,-261.999929,0.681946,71.865185
2.6277,-0.011125,-0.013285,-0.00128,0.004449,0.003673,0.000191,-0.01112,-0.52341,-0.000145,0.69386,-261.999929,0.681946,71.865185
2.648,-0.010713,-0.013561,0.00019,0.004449,0.003674,0.000133,-0.011639,-0.523171,-0.001268,0.720093,-261.99761,0.656276,71.867385
2.6679,-0.010662,-0.013283,0.000858,0.004425,0.003694,-2.8e-05,-0.010701,-0.52352,5.9e-05,0.720093,-261.99761,0.656276,71.867385
2.6879,-0.011067,-0.013588,-7.1e-05,0.004407,0.003709,-0.000139,-0.010701,-0.52352,5.9e-05,0.720093,-261.99761,0.656276,71.867385
2.7081,-0.010708,-0.013159,0.000624,0.004407,0.003709,-0.000139,-0.010919,-0.523437,-6.5e-05,0.701056,-261.99531,0.679271,71.869644
2.7278,-0.010498,-0.013481,0.000734,0.004388,0.003724,-0.000424,-0.01068,-0.523305,0.000219,0.701056,-261.99531,0.679271,71.869644
2.7477,-0.010495,-0.013169,0.000479,0.004381,0.003728,-0.000504,-0.009986,-0.523365,0.000729,0.688295,-261.993074,0.710884,71.871923
2.7681,-0.010706,-0.01302,0.000412,0.004357,0.003747,-0.000723,-0.01022,-0.523181,0.000501,0.688295,-261.993074,0.710884,71.871923
2.7882,-0.010456,-0.013171,-0.001166,0.004338,0.003761,-0.000874,-0.01022,-0.523181,0.000501,0.688295,-261.993074,0.710884,71.871923
2.8081,-0.009877,-0.013333,0.000593,0.004338,0.003761,-0.000874,-0.010871,-0.523018,-0.001186,0.662854,-261.990913,0.744445,71.87424
2.8281,-0.009803,-0.012703,-0.001223,0.004335,0.003753,-8.2e-05,-0.010329,-0.523128,-0.000472,0.662854,-261.990913,0.744445,71.87424
2.8481,-0.009627,-0.012679,-0.000927,0.004332,0.003753,0.000142,-0.010292,-0.522586,-0.001251,0.639619,-261.988813,0.780407,71.87661
2.8681,-0.009876,-0.013025,-0.002155,0.004337,0.003742,0.000579,-0.01011,-0.522664,-0.000958,0.639619,-261.988813,0.780407,71.87661
2.8882,-0.009994,-0.012756,-0.000492,0.004339,0.003735,0.00088,-0.01011,-0.522664,-0.000958,0.639619,-261.988813,0.780407,71.87661
2.9079,-0.009929,-0.012743,8.5e-05,0.004339,0.003735,0.00088,-0.010097,-0.522629,-0.000489,0.714613,-261.986943,0.705412,71.878443
2.9281,-0.01005,-0.012447,0.000727,0.004324,0.003751,0.000537,-0.009994,-0.522661,-0.000255,0.714613,-261.986943,0.705412,71.878443
2.9479,-0.00946,-0.012119,0.000704,0.004319,0.003756,0.00044,-0.00956,-0.522344,0.000752,0.777715,-261.98483,0.635166,71.880314
2.968,-0.009701,-0.012764,0.000136,0.004279,0.003784,-0.000173,-0.009134,-0.522133,0.000709,0.777715,-261.98483,0.635166,71.880314
2.9882,-0.009796,-0.011793,-0.00141,0.00425,0.003804,-0.000602,-0.009134,-0.522133,0.000709,0.777715,-261.98483,0.635166,71.880314
3.0085,-0.009522,-0.012228,0.001608,0.00425,0.003804,-0.000602,-0.010342,-0.521642,-0.001392,0.750158,-261.98257,0.679335,71.882439
3.0281,-0.009252,-0.012414,-0.000914,0.004288,0.003768,-0.000261,-0.009647,-0.521866,-0.000155,0.750158,-261.98257,0.679335,71.882439
3.0483,-0.008826,-0.01221,0.000533,0.004301,0.003756,-0.000165,-0.00961,-0.522319,-0.000927,0.679988,-261.980831,0.754324,71.884334
3.0683,-0.009331,-0.012319,-0.000714,0.004242,0.003803,-0.000432,-0.008639,-0.522215,0.000407,0.679988,-261.980831,0.754324,71.884334
3.0885,-0.009218,-0.011828,-0.000432,0.004194,0.003839,-0.000616,-0.008639,-0.522215,0.000407,0.679988,-261.980831,0.754324,71.884334
3.1077,-0.008984,-0.011862,-0.000136,0.004194,0.003839,-0.000616,-0.009261,-0.521674,-0.000439,0.704453,-261.978618,0.731019,71.886599
3.128,-0.008984,-0.011986,0.000853,0.004217,0.003815,-0.000102,-0.009158,-0.521732,-0.000318,0.704453,-261.978618,0.731019,71.886599
3.1481,-0.008484,-0.011697,-0.001101,0.004223,0.003808,4.3e-05,-0.008422,-0.52187,0.000835,0.690116,-261.976556,0.787913,71.888853
3.1684,-0.009208,-0.011578,-0.000437,0.004223,0.003801,0.000494,-0.008981,-0.521707,-0.000922,0.690116,-261.976556,0.787913,71.888853
3.1882,-0.008511,-0.01166,-0.000137,0.004222,0.003797,0.000805,-0.008981,-0.521707,-0.000922,0.690116,-261.976556,0.787913,71.888853
3.2085,-0.008465,-0.011429,-0.00014,0.004222,0.003797,0.000805,-0.00842,-0.521514,-0.000136,0.737217,-261.974469,0.730309,71.890928
3.2281,-0.008446,-0.01165,-0.000695,0.004172,0.003839,0.000392,-0.008449,-0.521462,-0.000137,0.737217,-261.974469,0.730309,71.890928
3.2484,-0.008528,-0.011807,-0.001364,0.004155,0.003852,0.000275,-0.008681,-0.521543,-0.000672,0.79324,-261.972336,0.66431,71.892828
3.268,-0.008177,-0.011076,-0.000787,0.004175,0.003825,0.000862,-0.009166,-0.521776,-0.001298,0.79324,-261.972336,0.66431,71.892828
3.2881,-0.008387,-0.011457,0.000648,0.004189,0.003806,0.001265,-0.009166,-0.521776,-0.001298,0.79324,-261.972336,0.66431,71.892828
3.3082,-0.007994,-0.010853,0.000615,0.004189,0.003806,0.001265,-0.007894,-0.521306,0.000659,0.768858,-261.970178,0.725366,71.8949
3.3282,-0.008178,-0.011067,-0.000377,0.004083,0.003883,-0.000132,-0.007788,-0.521105,0.000642,0.768858,-261.970178,0.725366,71.8949
3.3479,-0.008152,-0.010857,-0.000618,0.004049,0.003907,-0.000532,-0.008264,-0.520968,-0.000347,0.829813,-261.968177,0.650368,71.896569
3.3683,-0.0081,-0.011575,-0.001064,0.004082,0.003875,-8.8e-05,-0.008444,-0.520862,-0.000593,0.829813,-261.968177,0.650368,71.896569
3.3883,-0.008307,-0.01064,-0.000559,0.004107,0.003852,0.000218,-0.008444,-0.520862,-0.000593,0.829813,-261.968177,0.650368,71.896569
3.4079,-0.008075,-0.010978,-0.000505,0.004107,0.003852,0.000218,-0.008494,-0.52055,-0.000562,0.754789,-261.966961,0.725392,71.897886
3.4283,-0.007799,-0.010718,-0.001599,0.00415,0.003818,0.000522,-0.008417,-0.520713,-0.000539,0.754789,-261.966961,0.725392,71.897886
3.4481,-0.007701,-0.010541,0.000809,0.004165,0.003806,0.000606,-0.008482,-0.520594,-0.001592,0.770395,-261.964684,0.735923,71.900091
3.4679,-0.007643,-0.010585,-0.000532,0.004108,0.003848,1.2e-05,-0.00739,-0.520539,0.000591,0.770395,-261.964684,0.735923,71.900091
3.4879,-0.008093,-0.010658,-0.000604,0.004065,0.00388,-0.000402,-0.00739,-0.520539,0.000591,0.770395,-261.964684,0.735923,71.900091
3.5083,-0.007425,-0.010656,-0.000111,0.004065,0.00388,-0.000402,-0.008233,-0.520505,-0.00058,0.786792,-261.962415,0.689854,71.902168
3.528,-0.00764,-0.010464,-0.000159,0.00408,0.003865,7.6e-05,-0.007909,-0.520549,-0.000387,0.786792,-261.962415,0.689854,71.902168
3.5481,-0.007616,-0.010676,-0.000862,0.004084,0.003861,0.000211,-0.007615,-0.520366,-0.000167,0.729502,-261.960668,0.764763,71.904024
3.5678,-0.007262,-0.010427,-0.000297,0.004092,0.003851,0.000545,-0.008012,-0.520644,-0.000801,0.729502,-261.960668,0.764763,71.904024
3.5882,-0.007218,-0.010487,-0.001172,0.004098,0.003845,0.000775,-0.008012,-0.520644,-0.000801,0.729502,-261.960668,0.764763,71.904024
3.6081,-0.007424,-0.010424,0.000457,0.004098,0.003845,0.000775,-0.007651,-0.520332,-0.001164,0.773675,-261.958476,0.740381,71.906148
3.6281,-0.007538,-0.010198,0.001385,0.004058,0.003876,0.000748,-0.007446,-0.520351,-0.000505,0.773675,-261.958476,0.740381,71.906148
3.6479,-0.006872,-0.009758,0.0001,0.004044,0.003886,0.000741,-0.00671,-0.520082,0.001408,0.81156,-261.956247,0.688442,71.908135
3.668,-0.006842,-0.010268,0.000624,0.004003,0.003913,0.000316,-0.006805,-0.519781,0.000219,0.81156,-261.956247,0.688442,71.908135
3.688,-0.006886,-0.009969,-0.000364,0.003972,0.003933,2.1e-05,-0.006805,-0.519781,0.000219,0.81156,-261.956247,0.688442,71.908135
3.708,-0.006771,-0.009961,-0.000225,0.003972,0.003933,2.1e-05,-0.006903,-0.519807,-0.000333,0.820577,-261.953886,0.704028,71.910246
3.728,-0.006569,-0.010224,0.000273,0.003941,0.003949,0.000176,-0.006876,-0.519852,-0.000285,0.820577,-261.953886,0.704028,71.910246
3.748,-0.006514,-0.009632,0.001393,0.003929,0.003955,0.000221,-0.006317,-0.520112,0.000274,0.782056,-261.951887,0.778805,71.912239
3.7683,-0.006412,-0.009918,-0.000154,0.003826,0.004014,-0.000605,-0.005844,-0.519669,0.001292,0.782056,-261.951887,0.778805,71.912239
3.7882,-0.0065,-0.009735,0.001317,0.003747,0.004059,-0.001185,-0.005844,-0.519669,0.001292,0.782056,-261.951887,0.778805,71.912239
3.808,-0.006728,-0.009411,-0.000865,0.003747,0.004059,-0.001185,-0.005665,-0.519571,0.001326,0.805448,-261.94964,0.771338,71.914409
3.8283,-0.006437,-0.009399,0.000293,0.003728,0.004063,-0.001098,-0.006256,-0.519487,0.000439,0.805448,-261.94964,0.771338,71.914409
3.8483,-0.006442,-0.009442,-0.000196,0.003721,0.004065,-0.001073,-0.006204,-0.519313,0.000272,0.730441,-261.948282,0.846346,71.916055
3.8681,-0.006177,-0.009663,-0.000938,0.003743,0.004044,-0.000703,-0.006508,-0.519426,-0.000155,0.730441,-261.948282,0.846346,71.916055
3.8882,-0.006308,-0.009255,-0.001303,0.003759,0.00403,-0.000447,-0.006508,-0.519426,-0.000155,0.730441,-261.948282,0.846346,71.916055
3.9083,-0.006243,-0.008965,0.001141,0.003759,0.00403,-0.000447,-0.006824,-0.519093,-0.001346,0.741762,-261.946362,0.903194,71.918341
3.9279,-0.006376,-0.009085,-0.000122,0.003789,0.003999,1.9e-05,-0.006325,-0.519021,-0.000319,0.741762,-261.946362,0.903194,71.918341
3.9478,-0.005963,-0.009234,-1.6e-05,0.003799,0.00399,0.000149,-0.006327,-0.518966,-0.000135,0.78509,-261.944389,0.852746,71.920463
3.9681,-0.005881,-0.00904,0.001353,0.003769,0.004011,6.3e-05,-0.005998,-0.519204,-2.8e-05,0.78509,-261.944389,0.852746,71.920463
3.9881,-0.005817,-0.008622,0.000977,0.003745,0.004027,3e-06,-0.005998,-0.519204,-2.8e-05,0.78509,-261.944389,0.852746,71.920463
4.008,-0.005296,-0.008629,-0.000422,0.003745,0.004027,3e-06,-0.00517,-0.518465,0.000983,0.821127,-261.942303,0.798329,71.922499
4.0279,-0.005809,-0.008831,0.001688,0.003643,0.004078,-0.000494,-0.005292,-0.518514,0.00041,0.821127,-261.942303,0.798329,71.922499
4.0481,-0.005936,-0.008714,-0.000133,0.003608,0.004094,-0.000635,-0.00483,-0.518703,0.001688,0.821876,-261.940116,0.821372,71.924685
4.068,-0.005533,-0.008509,-0.000124,0.003631,0.004074,-0.000497,-0.005903,-0.518707,1.5e-05,0.821876,-261.940116,0.821372,71.924685
4.0883,-0.005991,-0.008535,-0.000708,0.003649,0.004059,-0.000402,-0.005903,-0.518707,1.5e-05,0.821876,-261.940116,0.821372,71.924685
4.1078,-0.004979,-0.008421,-0.000954,0.003649,0.004059,-0.000402,-0.006214,-0.518379,-0.000732,0.798879,-261.938231,0.893027,71.926781
4.1281,-0.005272,-0.00856,-0.000591,0.003709,0.003995,0.000547,-0.005897,-0.518378,-0.000824,0.798879,-261.938231,0.893027,71.926781
4.1481,-0.005055,-0.00803,-0.000424,0.003729,0.003976,0.000812,-0.005458,-0.518432,-0.000604,0.807497,-261.936144,0.867691,71.929013
4.1681,-0.004801,-0.00825,-0.000915,0.0037,0.003991,0.000768,-0.005281,-0.518058,-0.00044,0.807497,-261.936144,0.867691,71.929013
4.1884,-0.005354,-0.008371,-0.000169,0.003677,0.004002,0.000737,-0.005281,-0.518058,-0.00044,0.807497,-261.936144,0.867691,71.929013
4.2078,-0.005122,-0.008287,-0.000814,0.003677,0.004002,0.000737,-0.005326,-0.518244,-0.000148,0.875703,-261.934407,0.792685,71.930535
4.2282,-0.005133,-0.008061,-0.000298,0.003648,0.004017,0.000675,-0.005399,-0.518247,-0.000416,0.875703,-261.934407,0.792685,71.930535
4.2481,-0.004933,-0.007869,0.000677,0.003637,0.004022,0.000657,-0.005169,-0.517935,-0.000275,0.880484,-261.93212,0.768059,71.932559
4.2683,-0.004931,-0.007643,-0.000111,0.003555,0.004064,6.2e-05,-0.004631,-0.517869,0.000598,0.880484,-261.93212,0.768059,71.932559
4.2882,-0.00498,-0.007933,0.001457,0.003492,0.004094,-0.000352,-0.004631,-0.517869,0.000598,0.880484,-261.93212,0.768059,71.932559
4.3085,-0.004834,-0.007665,-0.000203,0.003492,0.004094,-0.000352,-0.004086,-0.517765,0.001485,0.882602,-261.929837,0.783065,71.934605
4.328,-0.004705,-0.007388,-0.000715,0.003371,0.004145,-0.001019,-0.004419,-0.517704,0.000793,0.882602,-261.929837,0.783065,71.934605
4.3479,-0.004731,-0.007481,-0.000278,0.00333,0.00416,-0.001208,-0.004979,-0.517285,-0.000722,0.837811,-261.928153,0.858112,71.936395
4.3683,-0.005082,-0.007693,0.000388,0.003371,0.004117,-0.000684,-0.004878,-0.51746,-0.000316,0.837811,-261.928153,0.858112,71.936395
4.3883,-0.004661,-0.007148,0.000176,0.003403,0.004086,-0.000323,-0.004878,-0.51746,-0.000316,0.837811,-261.928153,0.858112,71.936395
4.4085,-0.004176,-0.007661,-0.001521,0.003403,0.004086,-0.000323,-0.004458,-0.517013,0.00014,0.799028,-261.92665,0.93308,71.938259
4.4281,-0.004474,-0.007428,0.000338,0.003418,0.004052,0.000306,-0.004641,-0.517255,-0.000526,0.799028,-261.92665,0.93308,71.938259
4.4479,-0.004501,-0.006954,-0.000592,0.003422,0.004042,0.000483,-0.0042,-0.517306,0.000329,0.852014,-261.924709,0.899511,71.940313
4.468,-0.004216,-0.007246,-0.000961,0.003451,0.004011,0.0006,-0.004745,-0.516979,-0.000511,0.852014,-261.924709,0.899511,71.940313
4.4882,-0.004673,-0.00721,0.000492,0.003474,0.003988,0.000679,-0.004745,-0.516979,-0.000511,0.852014,-261.924709,0.899511,71.940313
4.5081,-0.004334,-0.006929,0.000302,0.003474,0.003988,0.000679,-0.004295,-0.51706,0.00051,0.902827,-261.922744,0.830718,71.942118
4.5281,-0.003796,-0.006883,-0.00043,0.003378,0.004031,-0.000163,-0.004233,-0.516989,0.000427,0.902827,-261.922744,0.830718,71.942118
4.5479,-0.003981,-0.006515,0.000502,0.003347,0.004043,-0.000403,-0.003907,-0.516758,-0.000409,0.902659,-261.920536,0.799364,71.944081
4.568,-0.003972,-0.006783,0.000994,0.003278,0.004059,-0.000574,-0.003735,-0.51653,0.000424,0.902659,-261.920536,0.799364,71.944081
4.5883,-0.003921,-0.007156,-0.000412,0.003224,0.00407,-0.000691,-0.003735,-0.51653,0.000424,0.902659,-261.920536,0.799364,71.944081
4.6081,-0.003847,-0.006854,0.00032,0.003224,0.00407,-0.000691,-0.004018,-0.517025,-0.000422,0.848355,-261.918939,0.874436,71.945797
4.6285,-0.003859,-0.00646,-0.000976,0.003152,0.004098,-0.000288,-0.003869,-0.51694,-0.00012,0.848355,-261.918939,0.874436,71.945797
4.6485,-0.003524,-0.006192,-0.000765,0.003126,0.004108,-0.000171,-0.004263,-0.516341,-0.000996,0.846973,-261.917155,0.94831,71.947823
4.668,-0.003481,-0.00637,0.000502,0.003159,0.004054,0.000311,-0.003941,-0.516199,-0.000787,0.846973,-261.917155,0.94831,71.947823
4.6883,-0.003842,-0.006466,-0.001313,0.003183,0.004013,0.000641,-0.003941,-0.516199,-0.000787,0.846973,-261.917155,0.94831,71.947823
4.7083,-0.003714,-0.006206,0.000972,0.003183,0.004013,0.000641,-0.004389,-0.516305,-0.001319,0.907811,-261.915248,0.932291,71.949793
4.7285,-0.003913,-0.006173,-0.000212,0.003195,0.003978,0.000637,-0.003903,-0.516246,-0.000397,0.907811,-261.915248,0.932291,71.949793
4.7478,-0.003458,-0.006268,-0.000442,0.003199,0.003965,0.000635,-0.003932,-0.51606,-0.000195,0.94507,-261.913342,0.857298,71.951484
4.7678,-0.00355,-0.005894,-9e-06,0.003173,0.003969,0.000639,-0.003701,-0.516243,-0.000418,0.94507,-261.913342,0.857298,71.951484
4.7881,-0.003451,-0.006198,0.000104,0.003153,0.003971,0.000643,-0.003701,-0.516243,-0.000418,0.94507,-261.913342,0.857298,71.951484
4.8085,-0.003516,-0.005601,-0.000123,0.003153,0.003971,0.000643,-0.003264,-0.516033,0.000131,0.936997,-261.911192,0.841217,71.953394
4.8286,-0.003422,-0.00594,0.00146,0.003064,0.003965,0.000193,-0.003376,-0.515839,3.1e-05,0.936997,-261.911192,0.841217,71.953394
4.8478,-0.003534,-0.005706,-0.000279,0.003034,0.00396,6.6e-05,-0.002577,-0.515812,0.001481,0.945127,-261.909043,0.84858,71.955298
4.8687,-0.003103,-0.00568,0.000272,0.00305,0.003926,7.1e-05,-0.00357,-0.515709,-0.000116,0.945127,-261.909043,0.84858,71.955298
4.8887,-0.003393,-0.00557,-0.000253,0.003062,0.003899,7.4e-05,-0.00357,-0.515709,-0.000116,0.945127,-261.909043,0.84858,71.955298
4.9085,-0.003013,-0.005478,0.000206,0.003062,0.003899,7.4e-05,-0.003404,-0.515416,-0.00025,0.921953,-261.907176,0.912081,71.957141
4.9279,-0.002946,-0.005461,-0.001021,0.002989,0.003865,1.2e-05,-0.003189,-0.515423,-6.5e-05,0.921953,-261.907176,0.912081,71.957141
4.948,-0.003034,-0.005127,9e-05,0.002963,0.003851,-5e-06,-0.003369,-0.515337,-0.001019,0.910703,-261.905188,0.899501,71.959101
4.9682,-0.002627,-0.005081,0.001123,0.002925,0.003823,-5e-05,-0.003017,-0.515139,-1e-05,0.910703,-261.905188,0.899501,71.959101
4.9885,-0.003123,-0.005467,0.000315,0.002895,0.003799,-8.1e-05,-0.003017,-0.515139,-1e-05,0.910703,-261.905188,0.899501,71.959101
5.0085,-0.002585,-0.00523,0.000421,0.002895,0.003799,-8.1e-05,-0.002839,-0.515306,0.000314,0.914611,-261.903251,0.915316,71.961039
5.0285,-0.002535,-0.005307,-0.000257,0.002703,0.003834,-0.000495,-0.002632,-0.515256,0.000358,0.914611,-261.903251,0.915316,71.961039
5.048,-0.002302,-0.004853,0.000333,0.002638,0.003841,-0.00061,-0.002574,-0.515187,-0.00026,0.913319,-261.901363,0.925948,71.96296
5.0683,-0.00245,-0.00507,0.000553,0.002506,0.003835,-0.000652,-0.002167,-0.514877,0.00028,0.913319,-261.901363,0.925948,71.96296
5.0885,-0.002786,-0.004424,-0.001391,0.002404,0.003827,-0.000679,-0.002167,-0.514877,0.00028,0.913319,-261.901363,0.925948,71.96296
5.1085,-0.002557,-0.004473,-0.001828,0.002404,0.003827,-0.000679,-0.003396,-0.514281,-0.001413,0.920615,-261.899811,1.000844,71.96473
5.1284,-0.002395,-0.004487,0.001397,0.002779,0.003477,0.001129,-0.003423,-0.514342,-0.001585,0.920615,-261.899811,1.000844,71.96473
5.1487,-0.002025,-0.004278,0.000875,0.002902,0.003368,0.001634,-0.001611,-0.514372,0.001377,0.9571,-261.898254,1.055229,71.966548
5.1685,-0.002381,-0.004452,-5.3e-05,0.002563,0.003426,0.000547,-0.001578,-0.514281,0.000921,0.9571,-261.898254,1.055229,71.966548
5.1882,-0.002655,-0.004506,0.000905,0.002309,0.003463,-0.000213,-0.001578,-0.514281,0.000921,0.9571,-261.898254,1.055229,71.966548
5.2083,-0.002291,-0.004521,0.000718,0.002309,0.003463,-0.000213,-0.002183,-0.514489,0.000909,0.984125,-261.898035,0.98035,71.966704
5.2285,-0.002209,-0.004579,-0.001103,0.002176,0.003502,-0.001003,-0.002077,-0.5145,0.000832,0.984125,-261.898035,0.98035,71.966704
5.2477,-0.002128,-0.004237,-0.00087,0.002134,0.003512,-0.001226,-0.002699,-0.51447,-0.00111,0.96503,-261.896435,0.999692,71.968389
5.2679,-0.002443,-0.004332,-0.00019,0.002238,0.003427,-0.000367,-0.002579,-0.514252,-0.000892,0.96503,-261.896435,0.999692,71.968389
5.2884,-0.002115,-0.004119,-0.000857,0.002316,0.003369,0.000227,-0.002579,-0.514252,-0.000892,0.96503,-261.896435,0.999692,71.968389
5.3088,-0.002604,-0.004302,0.000925,0.002316,0.003369,0.000227,-0.002479,-0.514003,-0.000897,0.913233,-261.895317,1.074568,71.969916
5.3282,-0.001843,-0.004035,0.002193,0.002329,0.00331,0.000186,-0.002329,-0.514111,-0.000161,0.913233,-261.895317,1.074568,71.969916
5.3481,-0.001793,-0.004432,-0.001028,0.002334,0.00329,0.000172,-0.000675,-0.513957,0.002196,0.987148,-261.894122,0.999263,71.971046
5.368,-0.001764,-0.004062,-0.000382,0.002296,0.003314,0.000514,-0.002185,-0.51439,-0.000773,0.987148,-261.894122,0.999263,71.971046
5.388,-0.001724,-0.004096,-3.3e-05,0.002266,0.003334,0.000751,-0.002185,-0.51439,-0.000773,0.987148,-261.894122,0.999263,71.971046
5.4081,-0.001715,-0.003638,-0.000944,0.002266,0.003334,0.000751,-0.00165,-0.513968,-2.6e-05,0.968599,-261.892584,0.938388,71.97252
5.4279,-0.001703,-0.004164,-0.000129,0.002127,0.003259,0.000648,-0.001862,-0.513818,-0.0004,0.968599,-261.892584,0.938388,71.97252
5.4478,-0.001794,-0.003791,-6.6e-05,0.00208,0.00323,0.000618,-0.001703,-0.514067,-0.000107,1.032276,-261.89096,0.903367,71.973865
5.468,-0.001856,-0.003872,-0.00091,0.002029,0.003211,0.000403,-0.001813,-0.513811,-6.9e-05,1.032276,-261.89096,0.903367,71.973865
5.4884,-0.001874,-0.003674,2e-05,0.001991,0.003195,0.000254,-0.001813,-0.513811,-6.9e-05,1.032276,-261.89096,0.903367,71.973865
5.5082,-0.00153,-0.003432,7.5e-05,0.001991,0.003195,0.000254,-0.001779,-0.513542,4.5e-05,1.047765,-261.889335,0.940846,71.975243
5.5285,-0.00133,-0.003922,3.4e-05,0.001886,0.003084,-5.7e-05,-0.001652,-0.513482,6e-05,1.047765,-261.889335,0.940846,71.975243
5.5484,-0.001888,-0.003619,-0.000288,0.001851,0.003044,-0.000145,-0.001253,-0.513824,4.1e-05,1.034528,-261.887842,0.990861,71.976635
5.5682,-0.001388,-0.003429,-0.000327,0.001904,0.003014,-6e-06,-0.001965,-0.513632,-0.00026,1.034528,-261.887842,0.990861,71.976635
5.588,-0.001579,-0.003486,-0.000484,0.001943,0.002992,9e-05,-0.001965,-0.513632,-0.00026,1.034528,-261.887842,0.990861,71.976635
5.6083,-0.001687,-0.002889,0.000445,0.001943,0.002992,9e-05,-0.001751,-0.513365,-0.00049,1.011299,-261.886506,1.03706,71.97803
5.6282,-0.00131,-0.003073,0.001274,0.001869,0.002846,2.5e-05,-0.001622,-0.513155,-0.000105,1.011299,-261.886506,1.03706,71.97803
5.6481,-0.001357,-0.003021,0.00044,0.001844,0.002795,6e-06,-0.000601,-0.512981,0.001277,1.003077,-261.885121,0.986311,71.97938
5.6679,-0.001262,-0.003046,0.001184,0.001664,0.002759,-0.00038,-0.001083,-0.513013,0.000513,1.003077,-261.885121,0.986311,71.97938
5.6885,-0.000963,-0.002811,-7e-06,0.001528,0.002727,-0.000646,-0.001083,-0.513013,0.000513,1.003077,-261.885121,0.986311,71.97938
5.7084,-0.001456,-0.002988,0.000568,0.001528,0.002727,-0.000646,-0.000889,-0.512695,-7e-06,0.988195,-261.883784,0.9869,71.980713
5.7282,-0.001264,-0.002852,0.000627,0.001308,0.002594,-0.00069,-0.000994,-0.512801,0.000228,0.988195,-261.883784,0.9869,71.980713
5.7481,-0.001131,-0.003128,-3e-06,0.001235,0.002546,-0.000698,-0.000905,-0.512786,0.000613,0.990675,-261.882929,1.061903,71.98178
5.7684,-0.001357,-0.002879,-0.002254,0.001211,0.002564,-0.000588,-0.001111,-0.513096,4.9e-05,0.990675,-261.882929,1.061903,71.98178
5.7884,-0.001573,-0.003147,7.3e-05,0.001192,0.002578,-0.000508,-0.001111,-0.513096,4.9e-05,0.990675,-261.882929,1.061903,71.98178
5.8084,-0.001407,-0.002719,-0.001448,0.001192,0.002578,-0.000508,-0.001494,-0.513065,5.2e-05,1.043494,-261.882171,1.136945,71.982775
5.8282,-0.001203,-0.002668,0.000692,0.001514,0.002447,0.000238,-0.001758,-0.512913,-0.00057,1.043494,-261.882171,1.136945,71.982775
5.8481,-0.001121,-0.002822,0.000345,0.001619,0.00241,0.000446,-0.000814,-0.512591,0.000677,1.086662,-261.881204,1.17918,71.983953
5.8679,-0.001052,-0.002717,-0.000668,0.001447,0.002414,1.2e-05,-0.000933,-0.512799,0.000372,1.086662,-261.881204,1.17918,71.983953
5.8879,-0.00089,-0.002807,-0.000396,0.001318,0.002413,-0.000289,-0.000933,-0.512799,0.000372,1.086662,-261.881204,1.17918,71.983953
5.9081,-0.000909,-0.002431,-0.000769,0.001318,0.002413,-0.000289,-0.001072,-0.512773,-0.000393,1.027764,-261.880795,1.104183,71.984303
5.9281,-0.000972,-0.002535,-0.000912,0.001301,0.002306,0.000279,-0.001165,-0.512628,-0.000548,1.027764,-261.880795,1.104183,71.984303
5.9482,-0.001158,-0.002715,-0.001859,0.001294,0.002272,0.00044,-0.001395,-0.512458,-0.000921,1.038335,-261.879759,1.100081,71.985463
5.9681,-0.001235,-0.002547,-0.001016,0.001543,0.00218,0.001246,-0.002041,-0.512688,-0.001776,1.038335,-261.879759,1.100081,71.985463
5.9881,-0.000965,-0.002819,0.000299,0.001731,0.002119,0.001801,-0.002041,-0.512688,-0.001776,1.038335,-261.879759,1.100081,71.985463
6.0081,-0.001254,-0.002301,0.000129,0.001731,0.002119,0.001801,-0.00077,-0.512743,0.000312,1.099744,-261.878853,1.025122,71.986221
6.0282,-0.000905,-0.002144,0.000143,0.001392,0.002149,0.000481,-0.000937,-0.512552,0.000238,1.099744,-261.878853,1.025122,71.986221
6.048,-0.001233,-0.002327,0.001341,0.001286,0.002152,0.000106,-0.000832,-0.512142,0.000144,1.077294,-261.878828,0.9501,71.986235
6.0682,-0.00154,-0.002618,-0.000332,0.001077,0.002112,-0.000691,-0.000574,-0.512311,0.001238,1.077294,-261.878828,0.9501,71.986235
6.0883,-0.000869,-0.002325,-0.001221,0.000922,0.002077,-0.00125,-0.000574,-0.512311,0.001238,1.077294,-261.878828,0.9501,71.986235
6.1078,-0.000836,-0.002509,0.000412,0.000922,0.002077,-0.00125,-0.001442,-0.512242,-0.001217,1.045247,-261.877892,1.018747,71.98713
6.1278,-0.00077,-0.002257,-0.000157,0.001056,0.001976,-0.000179,-0.001099,-0.512343,-0.000543,1.045247,-261.877892,1.018747,71.98713
6.1481,-0.001089,-0.002191,-0.001279,0.001098,0.001949,0.000124,-0.000837,-0.512235,-0.00017,0.970196,-261.877665,1.093798,71.987553
6.1682,-0.000596,-0.002245,0.000384,0.001328,0.001841,0.000713,-0.00166,-0.512193,-0.00118,0.970196,-261.877665,1.093798,71.987553
6.1881,-0.000848,-0.002383,-0.00212,0.001501,0.001766,0.001116,-0.00166,-0.512193,-0.00118,0.970196,-261.877665,1.093798,71.987553
6.2079,-0.00118,-0.001767,2.4e-05,0.001501,0.001766,0.001116,-0.001891,-0.512317,-0.002117,1.045058,-261.876923,1.040584,71.988252
6.2281,-0.000584,-0.002264,-0.000574,0.001705,0.001636,0.001614,-0.001588,-0.512082,-0.001234,1.045058,-261.876923,1.040584,71.988252
6.2481,-0.000656,-0.002396,-0.000441,0.001772,0.001598,0.001747,-0.000875,-0.512261,-0.000573,1.020625,-261.876856,0.965492,71.988295
6.2681,-0.000997,-0.0021,0.000896,0.001583,0.001702,0.00137,-0.00088,-0.512385,-0.000452,1.020625,-261.876856,0.965492,71.988295
6.2881,-0.000804,-0.002529,-0.000295,0.001442,0.001777,0.001113,-0.00088,-0.512385,-0.000452,1.020625,-261.876856,0.965492,71.988295
6.3081,-0.001017,-0.001868,0.000687,0.001442,0.001777,0.001113,-0.000954,-0.512529,-0.000295,0.984027,-261.876856,0.890433,71.988295
6.328,-0.001226,-0.002282,-0.001003,0.001227,0.00183,0.000276,-0.000838,-0.512262,0.000102,0.984027,-261.876856,0.890433,71.988295
6.3479,-0.000491,-0.002178,0.00034,0.001159,0.001844,4.2e-05,-0.001721,-0.512259,-0.000992,1.039955,-261.876429,0.815605,71.988567
6.3682,-0.000693,-0.002028,0.000261,0.000972,0.001851,-0.00021,-0.000437,-0.512183,0.000226,1.039955,-261.876429,0.815605,71.988567
6.3883,-0.000773,-0.002192,0.000962,0.000831,0.001854,-0.00038,-0.000437,-0.512183,0.000226,1.039955,-261.876429,0.815605,71.988567
6.4081,-0.00101,-0.001923,-0.00088,0.000831,0.001854,-0.00038,-0.000253,-0.51215,0.000966,1.015978,-261.875936,0.890719,71.98905
6.4282,-0.000894,-0.00207,0.002229,0.000829,0.001772,-0.000537,-0.000742,-0.512052,0.000213,1.015978,-261.875936,0.890719,71.98905
6.4478,-0.001121,-0.002299,0.001461,0.000827,0.001745,-0.00058,0.00025,-0.512057,0.002228,1.090875,-261.875785,0.965616,71.989236
6.4678,-0.001117,-0.001739,-0.000582,0.0,0.0,0.0,-0.000323,-0.512278,0.001525,1.090875,-261.875785,0.965616,71.989236
