mach0312/omni-docking-bench/src/icros_test_setup/results/MPPI_sample/timeseries/trial_100.csv
t,x,y,yaw,vx,vy,wz,bl_x,bl_y,bl_yaw,front_steering_joint,front_wheel_joint,rear_steering_joint,rear_wheel_joint
0.0,-0.019791,0.019976,0.001182,-0.003237,0.002479,0.000174,-0.018864,-0.490668,0.000429,-0.673918,-263.659761,-0.632471,68.348921
0.0003,-0.020168,0.020154,0.000192,-0.002218,0.001698,0.000119,-0.018864,-0.490668,0.000429,-0.673918,-263.663206,-0.632471,68.345584
0.0006,-0.019813,0.020226,0.000688,-0.001131,0.000866,6.1e-05,-0.018917,-0.49067,0.000327,-0.673918,-263.665815,-0.632471,68.343057
0.0008,-0.020052,0.020084,-0.001554,-1e-06,0.0,0.0,-0.019211,-0.490468,0.000304,-0.673918,-263.66695,-0.632471,68.341957
0.0011,-0.019976,0.020221,-0.001542,0.0,0.0,0.0,-0.019211,-0.490468,0.000304,-0.673918,-263.66695,-0.632471,68.341956
0.0013,-0.020368,0.020215,-0.000382,0.0,0.0,0.0,-0.019211,-0.490468,0.000304,-0.673918,-263.66695,-0.632471,68.341956
0.0015,-0.020441,0.020278,0.001626,0.0,0.0,0.0,-0.020515,-0.490216,-0.000576,-0.673918,-263.66695,-0.632471,68.341956
0.0018,-0.019914,0.020081,-0.000632,0.0,0.0,0.0,-0.020515,-0.490216,-0.000576,-0.673918,-263.66695,-0.632471,68.341956
0.002,-0.020003,0.020094,0.000349,0.0,0.0,0.0,-0.020711,-0.490228,-0.001021,-0.673918,-263.66695,-0.632471,68.341956
0.0078,-0.020124,0.020267,-0.000229,0.0,0.0,0.0,-0.019825,-0.489906,0.000349,-0.673918,-263.66695,-0.632471,68.341956
0.0278,-0.020404,0.020101,-0.000433,0.0,0.0,0.0,-0.019997,-0.489834,0.00011,-0.673918,-263.66695,-0.632471,68.341956
0.0478,-0.020591,0.020005,0.000246,0.0,0.0,0.0,-0.020625,-0.489899,-0.000433,-0.673918,-263.66695,-0.632471,68.341956
0.0681,-0.020193,0.020054,3.5e-05,0.0,0.0,0.0,-0.02048,-0.489986,0.000184,-0.673918,-263.66695,-0.632471,68.341956
0.0886,-0.020156,0.020106,0.000669,0.0,0.0,0.0,-0.02048,-0.489986,0.000184,-0.673918,-263.66695,-0.632471,68.341956
0.1078,-0.019905,0.019975,-0.001507,0.0,0.0,0.0,-0.019815,-0.489894,0.000669,-0.673918,-263.66695,-0.632471,68.341956
0.1279,-0.020257,0.02014,-0.000323,0.002957,-0.002075,-0.003489,-0.020166,-0.489947,-0.000222,-0.673918,-263.66695,-0.632471,68.341956
0.1477,-0.020094,0.019728,-0.000173,0.003139,-0.00219,-0.003562,-0.020421,-0.48986,-0.000323,-0.673918,-263.66695,-0.632471,68.341956
0.1681,-0.020156,0.019793,0.000308,0.003293,-0.002277,-0.003644,-0.020203,-0.490237,-0.000186,-0.673918,-263.66695,-0.632471,68.341956
0.1881,-0.020182,0.019703,6e-05,0.003419,-0.002347,-0.00371,-0.020203,-0.490237,-0.000186,-0.673918,-263.66695,-0.632471,68.341956
0.2081,-0.020039,0.020254,-0.000127,0.003419,-0.002347,-0.00371,-0.020151,-0.490297,6e-05,-0.748921,-263.666949,-0.557467,68.341957
0.2279,-0.020327,0.020022,-9.7e-05,0.003597,-0.002457,-0.003964,-0.020132,-0.490072,-1.6e-05,-0.748921,-263.666949,-0.557467,68.341957
0.248,-0.020363,0.019843,0.000424,0.003662,-0.002494,-0.004045,-0.020376,-0.489978,-9.8e-05,-0.823789,-263.666938,-0.4826,68.341964
0.2684,-0.019966,0.01984,0.001095,0.003715,-0.002525,-0.004321,-0.020167,-0.490141,0.000377,-0.823789,-263.666938,-0.4826,68.341964
0.288,-0.01991,0.019626,-0.000533,0.003759,-0.002549,-0.004519,-0.020167,-0.490141,0.000377,-0.823789,-263.666938,-0.4826,68.341964
0.3081,-0.020005,0.020153,-0.000603,0.003759,-0.002549,-0.004519,-0.020179,-0.490376,-0.000535,-0.898815,-263.666891,-0.407573,68.341991
0.3276,-0.020228,0.020107,-0.000251,0.003832,-0.002561,-0.003915,-0.020233,-0.490159,-0.000563,-0.898815,-263.666891,-0.407573,68.341991
0.3478,-0.020205,0.019712,-0.000728,0.003859,-0.002566,-0.003738,-0.020352,-0.489896,-0.000253,-0.954681,-263.666822,-0.332568,68.342032
0.3677,-0.020184,0.020189,0.000813,0.003887,-0.00256,-0.003554,-0.020556,-0.490252,-0.000685,-0.954681,-263.666822,-0.332568,68.342032
0.3879,-0.020321,0.019857,-0.000184,0.003911,-0.002555,-0.003423,-0.020556,-0.490252,-0.000685,-0.954681,-263.666822,-0.332568,68.342032
0.4077,-0.019975,0.019831,0.000971,0.003911,-0.002555,-0.003423,-0.020364,-0.490182,-0.000226,-0.898583,-263.66603,-0.257597,68.342526
0.4283,-0.020096,0.020113,-0.000839,0.003918,-0.002581,-0.004123,-0.019996,-0.490181,0.000259,-0.898583,-263.66603,-0.257597,68.342526
0.4476,-0.019708,0.02008,-0.000749,0.003921,-0.002589,-0.004328,-0.020434,-0.489949,-0.000914,-0.871074,-263.664274,-0.18261,68.343665
0.4681,-0.020089,0.019678,0.000216,0.003925,-0.002587,-0.003942,-0.020117,-0.489925,-0.000768,-0.871074,-263.664274,-0.18261,68.343665
0.4878,-0.020035,0.019972,0.000436,0.003927,-0.002585,-0.003666,-0.020117,-0.489925,-0.000768,-0.871074,-263.664274,-0.18261,68.343665
0.5077,-0.019769,0.020009,-9.8e-05,0.003927,-0.002585,-0.003666,-0.019729,-0.490088,0.000352,-0.92771,-263.662938,-0.107612,68.344466
0.5278,-0.01939,0.019871,-0.000583,0.003918,-0.002608,-0.004154,-0.019756,-0.490055,0.000158,-0.92771,-263.662938,-0.107612,68.344466
0.5476,-0.019077,0.01974,-0.000877,0.003915,-0.002615,-0.004297,-0.019566,-0.490209,-0.000696,-0.887538,-263.660529,-0.087918,68.345993
0.5678,-0.01979,0.019939,0.000119,0.003913,-0.002611,-0.003876,-0.019522,-0.490259,-0.000867,-0.887538,-263.660529,-0.087918,68.345993
0.5879,-0.019635,0.019492,0.000333,0.003912,-0.002608,-0.003575,-0.019522,-0.490259,-0.000867,-0.887538,-263.660529,-0.087918,68.345993
0.6083,-0.019329,0.019631,-0.000582,0.003912,-0.002608,-0.003575,-0.019326,-0.490602,0.000181,-0.929177,-263.658293,-0.012968,68.347331
0.628,-0.019314,0.0196,0.000385,0.003911,-0.002614,-0.003837,-0.019433,-0.490518,-0.000149,-0.929177,-263.658293,-0.012968,68.347331
0.6478,-0.019014,0.019327,-0.001964,0.003912,-0.002615,-0.003916,-0.019013,-0.490469,0.000287,-0.886166,-263.656215,-0.088052,68.348653
0.668,-0.0189,0.019731,-0.001169,0.003924,-0.002587,-0.003256,-0.019926,-0.490658,-0.001778,-0.886166,-263.656215,-0.088052,68.348653
0.688,-0.018838,0.019425,-0.000115,0.003934,-0.002566,-0.002784,-0.019926,-0.490658,-0.001778,-0.886166,-263.656215,-0.088052,68.348653
0.7083,-0.018958,0.018879,-0.001355,0.003934,-0.002566,-0.002784,-0.018737,-0.490682,-0.000275,-0.907641,-263.653735,-0.057101,68.350182
0.7282,-0.018738,0.019138,-0.000373,0.003927,-0.002573,-0.002968,-0.019088,-0.490872,-0.000731,-0.907641,-263.653735,-0.057101,68.350182
0.7476,-0.018665,0.019225,-0.001505,0.003925,-0.002575,-0.003023,-0.018853,-0.490908,-0.000431,-0.832779,-263.652347,-0.131963,68.351146
0.7679,-0.018572,0.0193,-0.000418,0.003927,-0.002567,-0.002766,-0.019379,-0.490788,-0.001414,-0.832779,-263.652347,-0.131963,68.351146
0.7879,-0.018617,0.018981,-0.001672,0.003928,-0.00256,-0.002583,-0.019379,-0.490788,-0.001414,-0.832779,-263.652347,-0.131963,68.351146
0.8082,-0.017875,0.01917,-0.001288,0.003928,-0.00256,-0.002583,-0.019313,-0.491122,-0.001792,-0.844839,-263.650085,-0.18359,68.352673
0.828,-0.018206,0.018842,-0.001612,0.003922,-0.002555,-0.002242,-0.018974,-0.491014,-0.001599,-0.844839,-263.650085,-0.18359,68.352673
0.8477,-0.017694,0.019427,-0.002074,0.003919,-0.002554,-0.002142,-0.018913,-0.491233,-0.001688,-0.811451,-263.64798,-0.245138,68.354167
0.8678,-0.018097,0.019071,-0.001066,0.003904,-0.002561,-0.001913,-0.01876,-0.490637,-0.002043,-0.811451,-263.64798,-0.245138,68.354167
0.8881,-0.017815,0.019177,-0.001482,0.003891,-0.002568,-0.00175,-0.01876,-0.490637,-0.002043,-0.811451,-263.64798,-0.245138,68.354167
0.908,-0.017808,0.019178,-0.000744,0.003891,-0.002568,-0.00175,-0.01842,-0.490922,-0.001565,-0.778192,-263.645949,-0.307796,68.355685
0.928,-0.017787,0.019205,9.2e-05,0.003865,-0.002599,-0.002085,-0.018308,-0.490893,-0.001242,-0.778192,-263.645949,-0.307796,68.355685
0.9479,-0.017554,0.018973,-0.001421,0.003855,-0.00261,-0.002183,-0.017624,-0.490871,4e-05,-0.751695,-263.64396,-0.367781,68.357242
0.9678,-0.017721,0.018808,-0.00124,0.003847,-0.002618,-0.002231,-0.018213,-0.491016,-0.001291,-0.751695,-263.64396,-0.367781,68.357242
0.9879,-0.017456,0.018977,-0.001139,0.003841,-0.002624,-0.002265,-0.018213,-0.491016,-0.001291,-0.751695,-263.64396,-0.367781,68.357242
1.0077,-0.017322,0.018949,-0.002382,0.003841,-0.002624,-0.002265,-0.017886,-0.491125,-0.001224,-0.796717,-263.641902,-0.319818,68.358757
1.0281,-0.017394,0.018313,-0.001131,0.003831,-0.002628,-0.002027,-0.018133,-0.491106,-0.001705,-0.796717,-263.641902,-0.319818,68.358757
1.0481,-0.017187,0.018424,-0.001779,0.003827,-0.00263,-0.001957,-0.017849,-0.49177,-0.001203,-0.806679,-263.639687,-0.312614,68.360368
1.068,-0.016898,0.018615,-0.000973,0.003831,-0.002624,-0.001896,-0.018066,-0.491597,-0.00173,-0.806679,-263.639687,-0.312614,68.360368
1.0883,-0.017,0.018538,-0.001891,0.003835,-0.002619,-0.001852,-0.018066,-0.491597,-0.00173,-0.806679,-263.639687,-0.312614,68.360368
1.108,-0.016666,0.01784,-0.002659,0.003835,-0.002619,-0.001852,-0.017809,-0.491568,-0.00197,-0.785199,-263.637611,-0.358796,68.361936
1.1282,-0.016638,0.01826,-0.002003,0.003841,-0.002605,-0.001479,-0.017877,-0.491815,-0.002254,-0.785199,-263.637611,-0.358796,68.361936
1.148,-0.016699,0.018086,-0.00072,0.003842,-0.0026,-0.001368,-0.017538,-0.491822,-0.002061,-0.774206,-263.63547,-0.370076,68.363578
1.1687,-0.016491,0.018375,-0.001914,0.003827,-0.002622,-0.001867,-0.017101,-0.49191,-0.000839,-0.774206,-263.63547,-0.370076,68.363578
1.1878,-0.016633,0.018374,-0.00232,0.003816,-0.002638,-0.002214,-0.017101,-0.49191,-0.000839,-0.774206,-263.63547,-0.370076,68.363578
1.2081,-0.016469,0.018285,-0.002921,0.003816,-0.002638,-0.002214,-0.01767,-0.491724,-0.002372,-0.729636,-263.633587,-0.430599,68.365123
1.2281,-0.016482,0.018202,-0.003368,0.003822,-0.002618,-0.00147,-0.017772,-0.491731,-0.002604,-0.729636,-263.633587,-0.430599,68.365123
1.2479,-0.016366,0.017933,-0.002158,0.003823,-0.002613,-0.001246,-0.018108,-0.49186,-0.003419,-0.804639,-263.631912,-0.355596,68.366344
1.2677,-0.01629,0.018263,-0.003286,0.003824,-0.002611,-0.001194,-0.017517,-0.492051,-0.002269,-0.804639,-263.631912,-0.355596,68.366344
1.2881,-0.016046,0.018085,-0.003034,0.003826,-0.002609,-0.001155,-0.017517,-0.492051,-0.002269,-0.804639,-263.631912,-0.355596,68.366344
1.3083,-0.015922,0.018068,-0.003011,0.003826,-0.002609,-0.001155,-0.017469,-0.491997,-0.003077,-0.729662,-263.63033,-0.430573,68.367662
1.3278,-0.015521,0.017603,-0.003047,0.003824,-0.002602,-0.000687,-0.01745,-0.49198,-0.003055,-0.729662,-263.63033,-0.430573,68.367662
1.3478,-0.01579,0.017774,-0.002609,0.003822,-0.002601,-0.000547,-0.016955,-0.492476,-0.003083,-0.713994,-263.628345,-0.461741,68.369338
1.3686,-0.015912,0.017691,-0.003185,0.003817,-0.002606,-0.000566,-0.017099,-0.492252,-0.002655,-0.713994,-263.628345,-0.461741,68.369338
1.3877,-0.016018,0.017886,-0.00252,0.003813,-0.002609,-0.000579,-0.017099,-0.492252,-0.002655,-0.713994,-263.628345,-0.461741,68.369338
1.4077,-0.015909,0.017843,-0.000942,0.003813,-0.002609,-0.000579,-0.017165,-0.492207,-0.00254,-0.654918,-263.626674,-0.535437,68.370879
1.4278,-0.015712,0.017459,-0.001342,0.003795,-0.002636,-0.001042,-0.016834,-0.492198,-0.001894,-0.654918,-263.626674,-0.535437,68.370879
1.4477,-0.015563,0.017624,-0.000216,0.003789,-0.002646,-0.001174,-0.016275,-0.492624,-0.001361,-0.660585,-263.624743,-0.534167,68.37265
1.4678,-0.015469,0.01711,-0.002191,0.003756,-0.002683,-0.001999,-0.015722,-0.492403,-0.000321,-0.660585,-263.624743,-0.534167,68.37265
1.4878,-0.015433,0.017423,-0.00193,0.003732,-0.002713,-0.002572,-0.015722,-0.492403,-0.000321,-0.660585,-263.624743,-0.534167,68.37265
1.508,-0.01529,0.017466,-0.002386,0.003732,-0.002713,-0.002572,-0.016278,-0.492673,-0.001973,-0.725869,-263.622965,-0.470864,68.374143
1.5278,-0.015155,0.017419,-0.002599,0.003739,-0.002695,-0.001886,-0.016356,-0.492626,-0.002148,-0.725869,-263.622965,-0.470864,68.374143
1.5482,-0.015219,0.017546,-0.002109,0.003741,-0.00269,-0.001679,-0.016424,-0.492621,-0.002631,-0.801044,-263.621892,-0.395689,68.37488
1.5678,-0.014807,0.017279,-0.00361,0.003739,-0.002691,-0.001525,-0.016302,-0.49247,-0.002156,-0.801044,-263.621892,-0.395689,68.37488
1.5883,-0.014909,0.017193,-0.001305,0.003737,-0.002692,-0.001414,-0.016302,-0.49247,-0.002156,-0.801044,-263.621892,-0.395689,68.37488
1.6077,-0.015062,0.017392,-0.00267,0.003737,-0.002692,-0.001414,-0.01542,-0.492917,-0.001374,-0.78188,-263.619816,-0.418538,68.376491
1.6281,-0.014842,0.017208,-0.004261,0.003728,-0.002705,-0.001424,-0.015814,-0.492802,-0.001913,-0.78188,-263.619816,-0.418538,68.376491
1.6483,-0.014613,0.017308,-0.002833,0.003724,-0.00271,-0.001425,-0.0169,-0.492872,-0.004305,-0.76047,-263.617808,-0.454972,68.378111
1.6682,-0.01481,0.017215,-0.002406,0.003727,-0.002701,-0.001081,-0.016126,-0.49271,-0.002964,-0.76047,-263.617808,-0.454972,68.378111
1.6885,-0.014648,0.017252,-0.001804,0.003729,-0.002695,-0.000834,-0.016126,-0.49271,-0.002964,-0.76047,-263.617808,-0.454972,68.378111
1.7082,-0.014162,0.017243,-0.001378,0.003729,-0.002695,-0.000834,-0.015413,-0.492861,-0.001863,-0.76575,-263.615743,-0.4589,68.379771
1.7281,-0.014431,0.016837,-0.003528,0.003692,-0.002739,-0.001294,-0.015168,-0.492831,-0.00167,-0.76575,-263.615743,-0.4589,68.379771
1.7479,-0.013962,0.016965,-0.003423,0.003679,-0.002755,-0.001426,-0.016127,-0.493235,-0.003551,-0.709972,-263.614018,-0.530177,68.381288
1.768,-0.014481,0.016909,-0.002682,0.003691,-0.002736,-0.000955,-0.015739,-0.493053,-0.003435,-0.709972,-263.614018,-0.530177,68.381288
1.7879,-0.014302,0.017237,-0.001877,0.003698,-0.002723,-0.000614,-0.015739,-0.493053,-0.003435,-0.709972,-263.614018,-0.530177,68.381288
1.808,-0.014156,0.016592,-0.003027,0.003698,-0.002723,-0.000614,-0.015124,-0.492864,-0.00193,-0.778094,-263.612197,-0.473207,68.382745
1.8282,-0.013783,0.016741,-0.002103,0.003689,-0.002734,-0.000733,-0.015346,-0.493099,-0.002388,-0.778094,-263.612197,-0.473207,68.382745
1.8477,-0.014044,0.016401,-0.002981,0.003685,-0.002738,-0.000767,-0.014762,-0.493326,-0.00212,-0.703049,-263.610681,-0.548252,68.384121
1.8679,-0.013818,0.016873,-0.003753,0.003696,-0.002724,-0.000624,-0.01549,-0.493577,-0.002907,-0.703049,-263.610681,-0.548252,68.384121
1.8881,-0.01379,0.016836,-0.004349,0.003705,-0.002713,-0.000523,-0.01549,-0.493577,-0.002907,-0.703049,-263.610681,-0.548252,68.384121
1.9083,-0.013703,0.016982,-0.002844,0.003705,-0.002713,-0.000523,-0.015855,-0.493274,-0.004381,-0.716037,-263.608732,-0.552082,68.385848
1.9279,-0.01372,0.016808,-0.00174,0.00371,-0.002698,-4e-06,-0.015549,-0.493182,-0.003755,-0.716037,-263.608732,-0.552082,68.385848
1.948,-0.013462,0.016686,-0.003394,0.003711,-0.002694,0.000152,-0.014492,-0.493275,-0.001756,-0.685757,-263.606861,-0.573534,68.387573
1.9678,-0.013336,0.016129,-0.00386,0.003701,-0.002702,0.000127,-0.015127,-0.493312,-0.003254,-0.685757,-263.606861,-0.573534,68.387573
1.9878,-0.013793,0.016143,-0.001471,0.003693,-0.002709,0.000109,-0.015127,-0.493312,-0.003254,-0.685757,-263.606861,-0.573534,68.387573
2.0077,-0.01338,0.016113,-0.00273,0.003693,-0.002709,0.000109,-0.014412,-0.493952,-0.001465,-0.61132,-263.605329,-0.644107,68.389142
2.0279,-0.013197,0.015879,-0.003945,0.003678,-0.002734,-0.00061,-0.014546,-0.493935,-0.001989,-0.61132,-263.605329,-0.644107,68.389142
2.0477,-0.013107,0.016174,-0.003879,0.003674,-0.002743,-0.000812,-0.015093,-0.494204,-0.003942,-0.620951,-263.603515,-0.644443,68.390986
2.0678,-0.013187,0.015728,-0.001322,0.003688,-0.002724,-0.000378,-0.01508,-0.493859,-0.003884,-0.620951,-263.603515,-0.644443,68.390986
2.088,-0.013415,0.016192,-0.003978,0.003698,-0.002709,-6.3e-05,-0.01508,-0.493859,-0.003884,-0.620951,-263.603515,-0.644443,68.390986
2.1077,-0.013075,0.01621,-0.003532,0.003698,-0.002709,-6.3e-05,-0.015332,-0.493887,-0.003998,-0.695918,-263.60208,-0.569476,68.392249
2.1282,-0.012617,0.01597,-0.004306,0.003711,-0.002689,0.000298,-0.015129,-0.493855,-0.003807,-0.695918,-263.60208,-0.569476,68.392249
2.1478,-0.012735,0.016053,-0.003352,0.003715,-0.002682,0.000407,-0.014707,-0.494104,-0.004308,-0.639095,-263.600417,-0.625598,68.393895
2.1679,-0.012893,0.015673,-0.004509,0.003702,-0.002694,0.000384,-0.014462,-0.493962,-0.003434,-0.639095,-263.600417,-0.625598,68.393895
2.1879,-0.013058,0.015797,-0.003201,0.003692,-0.002703,0.000368,-0.014462,-0.493962,-0.003434,-0.639095,-263.600417,-0.625598,68.393895
2.2077,-0.01254,0.016017,-0.00307,0.003692,-0.002703,0.000368,-0.014548,-0.494304,-0.003185,-0.579963,-263.598787,-0.667989,68.395632
2.2277,-0.012245,0.016198,-0.00456,0.003679,-0.002717,0.000203,-0.014352,-0.494184,-0.003136,-0.579963,-263.598787,-0.667989,68.395632
2.248,-0.012494,0.015395,-0.002307,0.003674,-0.002722,0.000155,-0.014454,-0.493883,-0.004549,-0.591154,-263.597013,-0.670526,68.397512
2.2681,-0.012218,0.015571,-0.002523,0.003663,-0.002738,-8e-05,-0.013735,-0.494544,-0.002508,-0.591154,-263.597013,-0.670526,68.397512
2.2877,-0.012711,0.015712,-0.001855,0.003653,-0.00275,-0.000244,-0.013735,-0.494544,-0.002508,-0.591154,-263.597013,-0.670526,68.397512
2.308,-0.012338,0.015007,-0.003727,0.003653,-0.00275,-0.000244,-0.013506,-0.494399,-0.001848,-0.620771,-263.595236,-0.654069,68.399333
2.3282,-0.012528,0.015736,-0.001916,0.003648,-0.002758,-0.000375,-0.01379,-0.494655,-0.002621,-0.620771,-263.595236,-0.654069,68.399333
2.3479,-0.012298,0.015695,-0.004452,0.003646,-0.00276,-0.000412,-0.013396,-0.494345,-0.001923,-0.670723,-263.59348,-0.618554,68.401022
2.3679,-0.012296,0.015029,-0.002232,0.00366,-0.002742,1e-06,-0.014464,-0.494308,-0.004237,-0.670723,-263.59348,-0.618554,68.401022
2.3879,-0.012224,0.015455,-0.003219,0.003671,-0.002728,0.0003,-0.014464,-0.494308,-0.004237,-0.670723,-263.59348,-0.618554,68.401022
2.4079,-0.012083,0.01559,-0.002716,0.003671,-0.002728,0.0003,-0.013716,-0.494657,-0.003236,-0.690513,-263.591607,-0.602782,68.402775
2.4278,-0.011878,0.015262,-0.002344,0.003645,-0.002753,0.000113,-0.013596,-0.494567,-0.003023,-0.690513,-263.591607,-0.602782,68.402775
2.4477,-0.011473,0.01513,-0.003183,0.003635,-0.002762,5.9e-05,-0.012977,-0.494809,-0.002337,-0.6155,-263.590126,-0.670493,68.404328
2.4679,-0.011532,0.01531,-0.001871,0.003619,-0.002775,4.7e-05,-0.013082,-0.494866,-0.003111,-0.6155,-263.590126,-0.670493,68.404328
2.4885,-0.011912,0.01496,-0.004231,0.003607,-0.002785,3.9e-05,-0.013082,-0.494866,-0.003111,-0.6155,-263.590126,-0.670493,68.404328
2.5082,-0.011437,0.014774,-0.003478,0.003607,-0.002785,3.9e-05,-0.013921,-0.49515,-0.004229,-0.643503,-263.588338,-0.656049,68.406134
2.5283,-0.012085,0.015139,-0.002948,0.003636,-0.002752,0.00041,-0.013612,-0.495193,-0.00392,-0.643503,-263.588338,-0.656049,68.406134
2.5477,-0.011569,0.014897,-0.002044,0.003646,-0.00274,0.000521,-0.013474,-0.494948,-0.002946,-0.653448,-263.586524,-0.661766,68.407959
2.5682,-0.011423,0.014915,-0.003315,0.00362,-0.002769,3.4e-05,-0.01268,-0.495093,-0.002122,-0.653448,-263.586524,-0.661766,68.407959
2.5883,-0.011275,0.014808,-0.001559,0.0036,-0.002793,-0.000306,-0.01268,-0.495093,-0.002122,-0.653448,-263.586524,-0.661766,68.407959
2.6081,-0.011683,0.014617,-0.003036,0.0036,-0.002793,-0.000306,-0.011931,-0.495296,-0.001539,-0.586364,-263.584929,-0.698014,68.409693
2.6283,-0.011197,0.014929,-0.002202,0.003571,-0.002826,-0.000686,-0.012451,-0.495343,-0.002154,-0.586364,-263.584929,-0.698014,68.409693
2.6481,-0.01118,0.014463,-0.00284,0.003561,-0.002838,-0.000794,-0.01223,-0.495137,-0.002208,-0.661378,-263.583486,-0.626649,68.411065
2.6684,-0.011341,0.014741,-0.004156,0.003561,-0.002835,-0.000655,-0.01259,-0.495504,-0.002787,-0.661378,-263.583486,-0.626649,68.411065
2.6879,-0.011047,0.014706,-0.002773,0.003561,-0.002833,-0.000555,-0.01259,-0.495504,-0.002787,-0.661378,-263.583486,-0.626649,68.411065
2.7082,-0.010951,0.014545,-0.002911,0.003561,-0.002833,-0.000555,-0.012333,-0.495393,-0.002799,-0.736399,-263.581824,-0.58398,68.412522
2.7279,-0.011028,0.014675,-0.002495,0.003545,-0.002844,-0.000402,-0.01236,-0.495429,-0.002848,-0.736399,-263.581824,-0.58398,68.412522
2.7482,-0.011058,0.014403,-0.005318,0.003538,-0.002849,-0.000356,-0.012189,-0.495413,-0.002512,-0.727616,-263.57994,-0.610806,68.414239
2.7679,-0.010693,0.014398,-0.002714,0.003588,-0.0028,0.000206,-0.013622,-0.495578,-0.005066,-0.727616,-263.57994,-0.610806,68.414239
2.7881,-0.011115,0.014372,-0.004248,0.003626,-0.002761,0.00062,-0.013622,-0.495578,-0.005066,-0.727616,-263.57994,-0.610806,68.414239
2.8078,-0.010494,0.014317,-0.003353,0.003626,-0.002761,0.00062,-0.013136,-0.495741,-0.004262,-0.714015,-263.578098,-0.639436,68.415975
2.8277,-0.010497,0.014131,-0.00161,0.003626,-0.002755,0.000693,-0.01274,-0.49573,-0.003894,-0.714015,-263.578098,-0.639436,68.415975
2.8479,-0.010779,0.014149,-0.003427,0.003625,-0.002753,0.000715,-0.01124,-0.495931,-0.0016,-0.639022,-263.576898,-0.713634,68.417301
2.868,-0.010552,0.014047,-0.001962,0.003617,-0.002762,0.000557,-0.012413,-0.495858,-0.00327,-0.639022,-263.576898,-0.713634,68.417301
2.888,-0.010334,0.014325,-0.002768,0.00361,-0.00277,0.000445,-0.012413,-0.495858,-0.00327,-0.639022,-263.576898,-0.713634,68.417301
2.9078,-0.010422,0.014034,-0.003036,0.00361,-0.00277,0.000445,-0.011607,-0.495779,-0.002741,-0.56854,-263.575313,-0.721558,68.41908
2.9282,-0.010367,0.013894,-0.002747,0.00356,-0.002818,9.5e-05,-0.011739,-0.495867,-0.002858,-0.56854,-263.575313,-0.721558,68.41908
2.948,-0.01012,0.01353,-0.003514,0.003541,-0.002836,-6e-06,-0.011657,-0.49619,-0.002733,-0.60527,-263.573607,-0.700212,68.420915
2.9681,-0.010505,0.014331,-0.002596,0.003548,-0.002827,9.7e-05,-0.011883,-0.496446,-0.003442,-0.60527,-263.573607,-0.700212,68.420915
2.9882,-0.010137,0.013832,-0.002844,0.003554,-0.00282,0.00017,-0.011883,-0.496446,-0.003442,-0.60527,-263.573607,-0.700212,68.420915
3.0081,-0.009751,0.013688,-0.003106,0.003554,-0.00282,0.00017,-0.011453,-0.496275,-0.002844,-0.675886,-263.571948,-0.674596,68.422571
3.0278,-0.009688,0.013541,-0.003174,0.003523,-0.002849,1.3e-05,-0.011389,-0.496302,-0.002951,-0.675886,-263.571948,-0.674596,68.422571
3.0477,-0.009908,0.013351,-0.00329,0.003512,-0.00286,-3.2e-05,-0.011195,-0.496546,-0.003168,-0.652466,-263.570178,-0.688425,68.424393
3.0679,-0.009726,0.013749,-0.002053,0.003518,-0.002852,3.4e-05,-0.011546,-0.496642,-0.00328,-0.652466,-263.570178,-0.688425,68.424393
3.0878,-0.010053,0.013928,-0.002926,0.003524,-0.002846,8.1e-05,-0.011546,-0.496642,-0.00328,-0.652466,-263.570178,-0.688425,68.424393
3.1079,-0.009616,0.013827,-0.003164,0.003524,-0.002846,8.1e-05,-0.011402,-0.496188,-0.002928,-0.686785,-263.568399,-0.680002,68.426162
3.1281,-0.009949,0.013493,-0.002042,0.003492,-0.002875,9e-06,-0.011315,-0.496194,-0.003024,-0.686785,-263.568399,-0.680002,68.426162
3.1486,-0.009265,0.013547,-0.002862,0.00348,-0.002885,-1.2e-05,-0.010879,-0.496597,-0.002039,-0.670916,-263.566606,-0.68799,68.42798
3.1682,-0.00942,0.013134,-0.00293,0.003457,-0.002905,-0.000103,-0.010733,-0.49647,-0.002783,-0.670916,-263.566606,-0.68799,68.42798
3.188,-0.009694,0.013204,-0.003191,0.003439,-0.002922,-0.000166,-0.010733,-0.49647,-0.002783,-0.670916,-263.566606,-0.68799,68.42798
3.2079,-0.009487,0.013579,-0.003098,0.003439,-0.002922,-0.000166,-0.011177,-0.496913,-0.003191,-0.693469,-263.56481,-0.690874,68.429772
3.2279,-0.008903,0.013209,-0.003435,0.00345,-0.00291,-4.7e-05,-0.011115,-0.496723,-0.003153,-0.693469,-263.56481,-0.690874,68.429772
3.2476,-0.008772,0.012957,-0.001951,0.003454,-0.002905,-1.2e-05,-0.010547,-0.49688,-0.00344,-0.721216,-263.562997,-0.686991,68.431533
3.268,-0.009187,0.01315,-0.003723,0.003417,-0.00294,-0.000353,-0.009823,-0.497033,-0.002067,-0.721216,-263.562997,-0.686991,68.431533
3.2879,-0.008998,0.012919,-0.002221,0.003387,-0.002968,-0.000591,-0.009823,-0.497033,-0.002067,-0.721216,-263.562997,-0.686991,68.431533
3.3081,-0.008904,0.012742,-0.00461,0.003387,-0.002968,-0.000591,-0.009989,-0.4972,-0.002221,-0.700519,-263.561211,-0.698023,68.433316
3.328,-0.009189,0.012805,-0.004437,0.003404,-0.002947,-0.000236,-0.010495,-0.497236,-0.003208,-0.700519,-263.561211,-0.698023,68.433316
3.3478,-0.008583,0.012755,-0.004053,0.00341,-0.00294,-0.00013,-0.011357,-0.497274,-0.004453,-0.77529,-263.559529,-0.656086,68.434829
3.3682,-0.009012,0.012931,-0.002085,0.003428,-0.002921,0.000174,-0.010705,-0.497248,-0.004088,-0.77529,-263.559529,-0.656086,68.434829
3.3879,-0.008711,0.013055,-0.004648,0.003441,-0.002907,0.000394,-0.010705,-0.497248,-0.004088,-0.77529,-263.559529,-0.656086,68.434829
3.4078,-0.008757,0.012237,-0.001567,0.003441,-0.002907,0.000394,-0.010949,-0.497054,-0.004653,-0.724751,-263.557827,-0.697956,68.436492
3.4277,-0.008436,0.012782,-0.003797,0.003436,-0.00291,0.000348,-0.010362,-0.497358,-0.003387,-0.724751,-263.557827,-0.697956,68.436492
3.4479,-0.00853,0.012193,-0.002732,0.003434,-0.002911,0.000335,-0.010273,-0.497299,-0.003786,-0.65911,-263.55625,-0.740803,68.438182
3.4682,-0.008579,0.012501,-0.004133,0.003429,-0.002918,0.000154,-0.009948,-0.497766,-0.002822,-0.65911,-263.55625,-0.740803,68.438182
3.488,-0.008479,0.012228,-0.003024,0.003426,-0.002923,2.6e-05,-0.009948,-0.497766,-0.002822,-0.65911,-263.55625,-0.740803,68.438182
3.508,-0.008528,0.012168,-0.003945,0.003426,-0.002923,2.6e-05,-0.009878,-0.497891,-0.00301,-0.667434,-263.554501,-0.736708,68.440036
3.5282,-0.008298,0.012097,-0.002845,0.003442,-0.002905,0.000168,-0.010137,-0.497879,-0.003397,-0.667434,-263.554501,-0.736708,68.440036
3.5486,-0.007946,0.012347,-0.00295,0.003448,-0.002899,0.00021,-0.009644,-0.497991,-0.002844,-0.703779,-263.552767,-0.70918,68.441778
3.5683,-0.008248,0.012277,-0.001171,0.003417,-0.002925,0.000103,-0.009462,-0.497687,-0.002941,-0.703779,-263.552767,-0.70918,68.441778
3.588,-0.00843,0.01235,-0.001945,0.003392,-0.002946,2.8e-05,-0.009462,-0.497687,-0.002941,-0.703779,-263.552767,-0.70918,68.441778
3.6084,-0.008111,0.01202,-0.001669,0.003392,-0.002946,2.8e-05,-0.00928,-0.497769,-0.001937,-0.677027,-263.551022,-0.72055,68.443588
3.6277,-0.008125,0.012038,-0.003812,0.003338,-0.003,-0.000733,-0.009135,-0.497868,-0.001827,-0.677027,-263.551022,-0.72055,68.443588
3.6476,-0.008209,0.011882,-0.00254,0.00332,-0.003019,-0.000949,-0.009963,-0.498051,-0.003811,-0.712176,-263.549265,-0.717893,68.445354
3.6682,-0.00804,0.012032,-0.003033,0.003332,-0.003007,-0.000805,-0.00954,-0.498115,-0.002653,-0.712176,-263.549265,-0.717893,68.445354
3.6878,-0.007571,0.011777,-0.002288,0.003342,-0.002997,-0.000702,-0.00954,-0.498115,-0.002653,-0.712176,-263.549265,-0.717893,68.445354
3.7086,-0.007694,0.012047,-0.003177,0.003342,-0.002997,-0.000702,-0.008635,-0.498312,-0.002313,-0.787181,-263.547843,-0.642888,68.44655
3.7278,-0.007613,0.011806,-0.003069,0.003308,-0.00302,-0.000573,-0.008895,-0.498178,-0.002662,-0.787181,-263.547843,-0.642888,68.44655
3.7479,-0.007412,0.011804,-0.003225,0.003295,-0.003029,-0.000534,-0.009072,-0.498287,-0.003091,-0.797876,-263.545937,-0.655313,68.448229
3.7682,-0.007531,0.011704,-0.002016,0.003294,-0.003026,-0.000338,-0.009053,-0.498207,-0.003214,-0.797876,-263.545937,-0.655313,68.448229
3.7878,-0.00741,0.01141,-0.003031,0.003293,-0.003025,-0.000199,-0.009053,-0.498207,-0.003214,-0.797876,-263.545937,-0.655313,68.448229
3.808,-0.007499,0.011658,-0.002855,0.003293,-0.003025,-0.000199,-0.008821,-0.498713,-0.003053,-0.794453,-263.544087,-0.687106,68.449906
3.8282,-0.006996,0.011546,-0.003863,0.003297,-0.00302,-0.000151,-0.00886,-0.498575,-0.002975,-0.794453,-263.544087,-0.687106,68.449906
3.848,-0.00723,0.011107,-0.004809,0.003298,-0.003018,-0.000137,-0.008865,-0.498544,-0.003869,-0.762634,-263.54233,-0.722603,68.4516
3.8684,-0.007664,0.011319,-0.003213,0.003352,-0.002968,0.000307,-0.009598,-0.49886,-0.004719,-0.762634,-263.54233,-0.722603,68.4516
3.888,-0.007391,0.011713,-0.003746,0.003394,-0.002929,0.000631,-0.009598,-0.49886,-0.004719,-0.762634,-263.54233,-0.722603,68.4516
3.9084,-0.00693,0.010923,-0.002808,0.003394,-0.002929,0.000631,-0.009164,-0.498411,-0.003752,-0.754636,-263.540521,-0.72707,68.453363
3.9285,-0.006571,0.011079,-0.002383,0.003368,-0.002949,0.000457,-0.008821,-0.498696,-0.003368,-0.754636,-263.540521,-0.72707,68.453363
3.9479,-0.007224,0.011002,-0.003195,0.003358,-0.002957,0.000406,-0.007702,-0.498995,-0.00237,-0.679644,-263.539178,-0.773449,68.454865
3.9684,-0.006911,0.010918,-0.002598,0.003358,-0.002958,0.000298,-0.008746,-0.498999,-0.00312,-0.679644,-263.539178,-0.773449,68.454865
3.9887,-0.006738,0.011179,-0.003224,0.003358,-0.002959,0.000221,-0.008746,-0.498999,-0.00312,-0.679644,-263.539178,-0.773449,68.454865
4.0085,-0.006724,0.011271,-0.002331,0.003358,-0.002959,0.000221,-0.008242,-0.498943,-0.003207,-0.67876,-263.537456,-0.761996,68.456718
4.0277,-0.006767,0.010853,-0.003207,0.00329,-0.003013,-1.5e-05,-0.008093,-0.49887,-0.002851,-0.67876,-263.537456,-0.761996,68.456718
4.0478,-0.00674,0.01078,-0.003906,0.003265,-0.003033,-8.2e-05,-0.008297,-0.499238,-0.0032,-0.699219,-263.535721,-0.744507,68.458523
4.068,-0.006306,0.011043,-0.005345,0.003291,-0.003008,0.000152,-0.008688,-0.499223,-0.003842,-0.699219,-263.535721,-0.744507,68.458523
4.088,-0.006912,0.010629,-0.004194,0.003311,-0.002988,0.000319,-0.008688,-0.499223,-0.003842,-0.699219,-263.535721,-0.744507,68.458523
4.1079,-0.006481,0.010771,-0.003581,0.003311,-0.002988,0.000319,-0.008922,-0.499487,-0.004197,-0.756766,-263.534019,-0.740296,68.4602
4.1278,-0.006726,0.010693,-0.004304,0.003351,-0.00295,0.000571,-0.008657,-0.499395,-0.003947,-0.756766,-263.534019,-0.740296,68.4602
4.1477,-0.006303,0.010233,-0.003998,0.003365,-0.002936,0.000645,-0.008823,-0.499392,-0.004295,-0.700697,-263.532388,-0.765668,68.461929
4.1677,-0.006202,0.01051,-0.003904,0.003376,-0.002924,0.000718,-0.008381,-0.499734,-0.004024,-0.700697,-263.532388,-0.765668,68.461929
4.1878,-0.006208,0.010457,-0.002574,0.003385,-0.002914,0.00077,-0.008381,-0.499734,-0.004024,-0.700697,-263.532388,-0.765668,68.461929
4.2081,-0.006262,0.010307,-0.002192,0.003385,-0.002914,0.00077,-0.007387,-0.499659,-0.002549,-0.647094,-263.530779,-0.780299,68.463736
4.2279,-0.006357,0.010618,-0.002522,0.003291,-0.002994,-1e-05,-0.007369,-0.499686,-0.002397,-0.647094,-263.530779,-0.780299,68.463736
4.2478,-0.006043,0.010304,-0.003491,0.003258,-0.003023,-0.000232,-0.007537,-0.499472,-0.002498,-0.625169,-263.529126,-0.785222,68.465631
4.2679,-0.00617,0.010144,-0.004553,0.003256,-0.003022,-7.4e-05,-0.007792,-0.499678,-0.003402,-0.625169,-263.529126,-0.785222,68.465631
4.2878,-0.0061,0.010307,-0.003483,0.003254,-0.003021,3.9e-05,-0.007792,-0.499678,-0.003402,-0.625169,-263.529126,-0.785222,68.465631
4.3079,-0.005826,0.010198,-0.002632,0.003254,-0.003021,3.9e-05,-0.007783,-0.499771,-0.003484,-0.700006,-263.52791,-0.724101,68.466795
4.3278,-0.006099,0.010144,-0.003684,0.00323,-0.003038,4.8e-05,-0.007521,-0.499792,-0.003137,-0.700006,-263.52791,-0.724101,68.466795
4.3475,-0.005513,0.009869,-0.002913,0.003222,-0.003044,5.2e-05,-0.007879,-0.499945,-0.003683,-0.744396,-263.526215,-0.752282,68.468503
4.3677,-0.006045,0.010102,-0.000716,0.003202,-0.003058,7e-06,-0.007069,-0.500118,-0.002979,-0.744396,-263.526215,-0.752282,68.468503
4.3877,-0.00558,0.01009,-0.003487,0.003186,-0.00307,-2.5e-05,-0.007069,-0.500118,-0.002979,-0.744396,-263.526215,-0.752282,68.468503
4.408,-0.005764,0.009981,-8.4e-05,0.003186,-0.00307,-2.5e-05,-0.007224,-0.500034,-0.003485,-0.751837,-263.524457,-0.762215,68.470278
4.4281,-0.005479,0.009754,-0.003307,0.003105,-0.003134,-0.000573,-0.006631,-0.500043,-0.002097,-0.751837,-263.524457,-0.762215,68.470278
4.4478,-0.00564,0.009793,-0.002465,0.003077,-0.003156,-0.00073,-0.007065,-0.500341,-0.003308,-0.769256,-263.522692,-0.764365,68.472035
4.4679,-0.005639,0.009772,-0.003671,0.00308,-0.003154,-0.000683,-0.006907,-0.500222,-0.00254,-0.769256,-263.522692,-0.764365,68.472035
4.488,-0.005515,0.009711,-0.003065,0.003082,-0.003152,-0.000649,-0.006907,-0.500222,-0.00254,-0.769256,-263.522692,-0.764365,68.472035
4.5083,-0.005215,0.009942,-0.002819,0.003082,-0.003152,-0.000649,-0.006969,-0.500397,-0.003089,-0.844286,-263.521096,-0.722119,68.473416
4.5282,-0.005085,0.009359,-0.002757,0.00308,-0.003147,-0.00037,-0.006827,-0.50027,-0.002982,-0.844286,-263.521096,-0.722119,68.473416
4.5479,-0.004864,0.009126,-0.004266,0.003079,-0.003146,-0.000287,-0.006393,-0.50074,-0.002778,-0.855651,-263.519222,-0.72965,68.475064
4.5677,-0.004891,0.009638,-0.00116,0.003121,-0.003107,7.7e-05,-0.006977,-0.500863,-0.004135,-0.855651,-263.519222,-0.72965,68.475064
4.5878,-0.005317,0.009256,-0.003354,0.003154,-0.003077,0.00034,-0.006977,-0.500863,-0.004135,-0.855651,-263.519222,-0.72965,68.475064
4.6079,-0.004848,0.009279,-0.003435,0.003154,-0.003077,0.00034,-0.006904,-0.500868,-0.003365,-0.823124,-263.517481,-0.767318,68.476709
4.6279,-0.005415,0.009447,-0.002071,0.003165,-0.003065,0.000333,-0.006766,-0.500822,-0.003395,-0.823124,-263.517481,-0.767318,68.476709
4.6477,-0.004587,0.009234,-0.003872,0.003169,-0.00306,0.00033,-0.006384,-0.500638,-0.002062,-0.748152,-263.515995,-0.80578,68.478296
4.6678,-0.004948,0.008572,-0.001958,0.003156,-0.003066,0.000416,-0.006542,-0.500756,-0.003716,-0.748152,-263.515995,-0.80578,68.478296
4.6881,-0.004862,0.009176,-0.00339,0.003144,-0.003072,0.000477,-0.006542,-0.500756,-0.003716,-0.748152,-263.515995,-0.80578,68.478296
4.7084,-0.004619,0.008902,-0.003823,0.003144,-0.003072,0.000477,-0.006459,-0.500949,-0.003376,-0.733947,-263.514296,-0.799851,68.480106
4.7281,-0.004427,0.008769,-0.003262,0.003142,-0.003069,0.000476,-0.006488,-0.501022,-0.003554,-0.733947,-263.514296,-0.799851,68.480106
4.748,-0.004081,0.008982,-0.00255,0.003142,-0.003068,0.000476,-0.005992,-0.501326,-0.003247,-0.724118,-263.512628,-0.818974,68.481936
4.7681,-0.00461,0.008564,-0.002988,0.003062,-0.00312,0.000183,-0.005429,-0.501048,-0.00261,-0.724118,-263.512628,-0.818974,68.481936
4.788,-0.004451,0.009081,-0.003058,0.002998,-0.003163,-2e-05,-0.005429,-0.501048,-0.00261,-0.724118,-263.512628,-0.818974,68.481936
4.8084,-0.004361,0.0088,-0.003689,0.002998,-0.003163,-2e-05,-0.00588,-0.501045,-0.003038,-0.723852,-263.510952,-0.818701,68.483774
4.828,-0.004756,0.008597,-0.003575,0.002995,-0.003163,0.000106,-0.006013,-0.501122,-0.003302,-0.723852,-263.510952,-0.818701,68.483774
4.8477,-0.004537,0.008433,-0.002792,0.002993,-0.003163,0.000143,-0.006495,-0.501487,-0.003575,-0.798767,-263.509419,-0.81015,68.485301
4.868,-0.004332,0.008584,-0.003814,0.003014,-0.00315,3.8e-05,-0.006002,-0.501563,-0.002859,-0.798767,-263.509419,-0.81015,68.485301
4.8881,-0.004172,0.008624,-0.003924,0.00303,-0.003138,-3.6e-05,-0.006002,-0.501563,-0.002859,-0.798767,-263.509419,-0.81015,68.485301
4.9081,-0.00404,0.008221,-0.002266,0.00303,-0.003138,-3.6e-05,-0.00605,-0.501504,-0.003918,-0.798965,-263.507712,-0.826601,68.487059
4.9279,-0.004107,0.008272,-0.002878,0.003018,-0.003138,7.1e-05,-0.005686,-0.501631,-0.003242,-0.798965,-263.507712,-0.826601,68.487059
4.948,-0.004371,0.00818,-0.003768,0.003013,-0.003139,0.000103,-0.005479,-0.501824,-0.002879,-0.806472,-263.505981,-0.799444,68.488777
4.9682,-0.003869,0.008509,-0.003675,0.003061,-0.0031,0.000251,-0.006216,-0.501822,-0.003689,-0.806472,-263.505981,-0.799444,68.488777
4.9881,-0.004124,0.008079,-0.002805,0.003099,-0.003069,0.000356,-0.006216,-0.501822,-0.003689,-0.806472,-263.505981,-0.799444,68.488777
5.0078,-0.003748,0.007798,-0.003153,0.003099,-0.003069,0.000356,-0.00543,-0.50205,-0.002801,-0.795684,-263.504271,-0.815713,68.490523
5.0278,-0.00374,0.007975,-0.002036,0.003065,-0.003087,0.000114,-0.005385,-0.502126,-0.002944,-0.795684,-263.504271,-0.815713,68.490523
5.0478,-0.004179,0.008363,-0.003047,0.003054,-0.003093,4.4e-05,-0.004684,-0.502118,-0.002025,-0.743894,-263.502657,-0.814862,68.492254
5.0678,-0.00372,0.007719,-0.00484,0.00304,-0.003104,-3e-06,-0.005635,-0.501683,-0.002956,-0.743894,-263.502657,-0.814862,68.492254
5.0878,-0.003621,0.008255,-0.001935,0.00303,-0.003113,-3.5e-05,-0.005635,-0.501683,-0.002956,-0.743894,-263.502657,-0.814862,68.492254
5.1079,-0.003989,0.007637,-0.003885,0.00303,-0.003113,-3.5e-05,-0.004485,-0.501869,-0.001933,-0.787452,-263.500986,-0.796086,68.49394
5.1276,-0.003472,0.007716,-0.001967,0.002969,-0.003148,-0.000192,-0.005081,-0.502085,-0.002735,-0.787452,-263.500986,-0.796086,68.49394
5.1482,-0.003186,0.007846,-0.002708,0.002948,-0.00316,-0.000237,-0.004379,-0.502382,-0.001968,-0.802306,-263.49925,-0.795441,68.495664
5.1685,-0.00341,0.007682,-0.001804,0.002885,-0.003194,-0.000299,-0.004546,-0.502177,-0.002643,-0.802306,-263.49925,-0.795441,68.495664
5.1883,-0.003647,0.007623,-0.002668,0.002834,-0.003222,-0.000342,-0.004546,-0.502177,-0.002643,-0.802306,-263.49925,-0.795441,68.495664
5.2087,-0.00368,0.007163,-0.002722,0.002834,-0.003222,-0.000342,-0.004887,-0.502504,-0.002677,-0.842401,-263.497524,-0.796771,68.497307
5.2281,-0.003118,0.007847,-0.002564,0.002881,-0.003183,-0.000356,-0.004946,-0.502652,-0.002696,-0.842401,-263.497524,-0.796771,68.497307
5.2477,-0.002916,0.007167,-0.004175,0.002897,-0.003168,-0.00036,-0.004338,-0.502251,-0.002574,-0.88029,-263.495794,-0.816005,68.498915
5.2681,-0.003156,0.007344,-0.001699,0.002928,-0.003138,5e-06,-0.004978,-0.502782,-0.004034,-0.88029,-263.495794,-0.816005,68.498915
5.2883,-0.003092,0.007603,-0.002912,0.00295,-0.003114,0.000269,-0.004978,-0.502782,-0.004034,-0.88029,-263.495794,-0.816005,68.498915
5.308,-0.003193,0.006905,-0.002316,0.00295,-0.003114,0.000269,-0.004458,-0.502526,-0.002927,-0.863341,-263.494033,-0.794052,68.500548
5.3281,-0.002811,0.007135,-0.003526,0.002872,-0.003157,-7e-05,-0.004409,-0.502774,-0.002678,-0.863341,-263.494033,-0.794052,68.500548
5.3483,-0.0031,0.006808,-0.002876,0.002844,-0.003171,-0.000167,-0.004527,-0.502949,-0.003518,-0.788345,-263.492566,-0.837993,68.502099
5.3683,-0.002652,0.006738,-0.002993,0.002863,-0.003151,-0.000152,-0.004559,-0.503173,-0.002932,-0.788345,-263.492566,-0.837993,68.502099
5.3881,-0.003086,0.00681,-0.003328,0.002878,-0.003135,-0.000141,-0.004559,-0.503173,-0.002932,-0.788345,-263.492566,-0.837993,68.502099
5.4081,-0.002628,0.006843,-0.004455,0.002878,-0.003135,-0.000141,-0.004673,-0.503311,-0.003335,-0.855405,-263.490957,-0.823432,68.503652
5.4279,-0.002683,0.006764,-0.002775,0.002949,-0.003068,0.000286,-0.004753,-0.50326,-0.003794,-0.855405,-263.490957,-0.823432,68.503652
5.4479,-0.002632,0.006638,-0.001382,0.002973,-0.003045,0.000413,-0.004008,-0.503334,-0.00278,-0.841549,-263.489237,-0.814129,68.505321
5.4678,-0.002659,0.006564,-0.001788,0.002834,-0.003114,-0.000283,-0.003396,-0.503364,-0.001517,-0.841549,-263.489237,-0.814129,68.505321
5.488,-0.002519,0.006515,-0.002911,0.002726,-0.003169,-0.000761,-0.003396,-0.503364,-0.001517,-0.841549,-263.489237,-0.814129,68.505321
5.5077,-0.00189,0.006068,-0.002773,0.002726,-0.003169,-0.000761,-0.003896,-0.503596,-0.002896,-0.766566,-263.487805,-0.837023,68.506879
5.5277,-0.002513,0.006535,-0.004045,0.002681,-0.003164,-0.000488,-0.00364,-0.503746,-0.002844,-0.766566,-263.487805,-0.837023,68.506879
5.5482,-0.002215,0.006721,-0.002837,0.002664,-0.003162,-0.000405,-0.004519,-0.503522,-0.004056,-0.84158,-263.486663,-0.78141,68.507845
5.5683,-0.002311,0.006431,-0.003334,0.002635,-0.003182,-0.000316,-0.003735,-0.503302,-0.002946,-0.84158,-263.486663,-0.78141,68.507845
5.5881,-0.002391,0.006586,-0.002558,0.002611,-0.003198,-0.000251,-0.003735,-0.503302,-0.002946,-0.84158,-263.486663,-0.78141,68.507845
5.6082,-0.002333,0.006645,-0.003837,0.002611,-0.003198,-0.000251,-0.003596,-0.503532,-0.002573,-0.907506,-263.485107,-0.830287,68.509265
5.628,-0.001914,0.006524,-0.003421,0.002627,-0.003187,-9.1e-05,-0.003871,-0.503471,-0.003098,-0.907506,-263.485107,-0.830287,68.509265
5.6479,-0.002185,0.006449,-0.003081,0.002633,-0.003184,-4.4e-05,-0.003577,-0.503573,-0.003429,-0.908851,-263.483437,-0.861784,68.510841
5.6677,-0.002277,0.005955,-0.002806,0.002626,-0.003185,-6e-06,-0.003735,-0.503556,-0.003114,-0.908851,-263.483437,-0.861784,68.510841
5.6877,-0.002296,0.006247,-0.003227,0.00262,-0.003185,2.2e-05,-0.003735,-0.503556,-0.003114,-0.908851,-263.483437,-0.861784,68.510841
5.7081,-0.002071,0.00624,-0.002833,0.00262,-0.003185,2.2e-05,-0.003833,-0.503883,-0.003228,-0.884069,-263.481795,-0.875771,68.512467
5.7277,-0.001819,0.005812,-0.003074,0.002637,-0.003157,3.3e-05,-0.00369,-0.503847,-0.003066,-0.884069,-263.481795,-0.875771,68.512467
5.7477,-0.002184,0.005694,-0.00321,0.002643,-0.003148,3.6e-05,-0.003303,-0.504287,-0.003073,-0.880371,-263.480154,-0.884435,68.514116
5.7677,-0.00188,0.006245,-0.002541,0.00269,-0.003098,8e-05,-0.003768,-0.504307,-0.003197,-0.880371,-263.480154,-0.884435,68.514116
5.7877,-0.001311,0.005801,-0.00302,0.002727,-0.003058,0.00011,-0.003768,-0.504307,-0.003197,-0.880371,-263.480154,-0.884435,68.514116
5.8078,-0.001535,0.005503,-0.001739,0.002727,-0.003058,0.00011,-0.002741,-0.504328,-0.003019,-0.868884,-263.478523,-0.875854,68.515761
5.8279,-0.00164,0.005527,-0.002636,0.002474,-0.003121,-0.000238,-0.002598,-0.504412,-0.002497,-0.868884,-263.478523,-0.875854,68.515761
5.8479,-0.001686,0.005344,-0.003233,0.002388,-0.003143,-0.000335,-0.0029,-0.504566,-0.002632,-0.831517,-263.476952,-0.853436,68.517371
5.8681,-0.001441,0.005545,-0.002972,0.002449,-0.003091,-0.000185,-0.003292,-0.50465,-0.003179,-0.831517,-263.476952,-0.853436,68.517371
5.8879,-0.001652,0.005538,-0.000481,0.002496,-0.003051,-7.9e-05,-0.003292,-0.50465,-0.003179,-0.831517,-263.476952,-0.853436,68.517371
5.9079,-0.001386,0.005376,-0.002486,0.002496,-0.003051,-7.9e-05,-0.001817,-0.504562,-0.000489,-0.906512,-263.475671,-0.888355,68.518551
5.9277,-0.001563,0.00518,-0.003964,0.002201,-0.003139,-0.001143,-0.002145,-0.504598,-0.001295,-0.906512,-263.475671,-0.888355,68.518551
5.9476,-0.001268,0.005204,-0.004317,0.002104,-0.00317,-0.00144,-0.003506,-0.504913,-0.003967,-0.892587,-263.474085,-0.877174,68.520107
5.9676,-0.001577,0.005162,-0.001775,0.002271,-0.003071,-0.000718,-0.003468,-0.504806,-0.004287,-0.892587,-263.474085,-0.877174,68.520107
5.9881,-0.001033,0.005447,-0.001798,0.0024,-0.002996,-0.000192,-0.003468,-0.504806,-0.004287,-0.892587,-263.474085,-0.877174,68.520107
6.0078,-0.000884,0.005472,-0.00346,0.0024,-0.002996,-0.000192,-0.0019,-0.504617,-0.001823,-0.967709,-263.473157,-0.827913,68.520739
6.028,-0.001365,0.005488,-0.002063,0.002168,-0.003089,-0.000392,-0.002201,-0.504587,-0.002496,-0.967709,-263.473157,-0.827913,68.520739
6.0477,-0.001348,0.004875,-0.003295,0.00209,-0.003122,-0.000446,-0.002347,-0.504598,-0.002068,-0.914064,-263.471712,-0.875798,68.522117
6.0678,-0.001124,0.004766,-0.002455,0.002197,-0.00305,-0.000262,-0.002963,-0.505079,-0.003184,-0.914064,-263.471712,-0.875798,68.522117
6.088,-0.001085,0.005007,-0.003645,0.002279,-0.002994,-0.000132,-0.002963,-0.505079,-0.003184,-0.914064,-263.471712,-0.875798,68.522117
6.1079,-0.000924,0.004727,-0.003956,0.002279,-0.002994,-0.000132,-0.002873,-0.505092,-0.003658,-0.988958,-263.470454,-0.938054,68.523232
6.1281,-0.001231,0.00495,-0.003251,0.002391,-0.002897,0.000303,-0.002893,-0.505176,-0.003781,-0.988958,-263.470454,-0.938054,68.523232
6.1479,-0.000823,0.005033,-0.002462,0.002428,-0.002865,0.000433,-0.002821,-0.505137,-0.003255,-0.932853,-263.469023,-0.906986,68.524616
6.1684,-0.001025,0.004609,-0.003335,0.002301,-0.002912,0.000144,-0.002141,-0.504985,-0.002532,-0.932853,-263.469023,-0.906986,68.524616
6.188,-0.000957,0.004707,-0.004145,0.002205,-0.002949,-5.6e-05,-0.002141,-0.504985,-0.002532,-0.932853,-263.469023,-0.906986,68.524616
6.2081,-0.000686,0.004654,-0.002326,0.002205,-0.002949,-5.6e-05,-0.00299,-0.505388,-0.004133,-0.857967,-263.467864,-0.910962,68.525906
6.2279,-0.000981,0.004539,-0.002557,0.002253,-0.002875,0.000164,-0.002523,-0.505381,-0.003391,-0.857967,-263.467864,-0.910962,68.525906
6.248,-0.000889,0.004661,-0.002675,0.002269,-0.002849,0.000229,-0.002221,-0.505545,-0.002558,-0.932933,-263.466516,-0.923253,68.527234
6.2677,-0.001107,0.004476,-0.004185,0.002225,-0.002854,5.1e-05,-0.002247,-0.50536,-0.002664,-0.932933,-263.466516,-0.923253,68.527234
6.2877,-0.000994,0.004369,-0.004451,0.002192,-0.002857,-7.3e-05,-0.002247,-0.50536,-0.002664,-0.932933,-263.466516,-0.923253,68.527234
6.3081,-0.000912,0.004994,-0.004318,0.002192,-0.002857,-7.3e-05,-0.003174,-0.505739,-0.004442,-0.873807,-263.465178,-0.921585,68.528655
6.3279,-0.000784,0.00478,-0.002317,0.002448,-0.002719,0.000584,-0.003139,-0.505449,-0.00439,-0.873807,-263.465178,-0.921585,68.528655
6.3478,-0.000526,0.003882,-0.002086,0.002535,-0.002672,0.000782,-0.001899,-0.505306,-0.00232,-0.923917,-263.463786,-0.90879,68.530019
6.368,-0.000643,0.004678,-0.003375,0.002323,-0.002653,0.000229,-0.001614,-0.506049,-0.002107,-0.923917,-263.463786,-0.90879,68.530019
6.3879,-0.000498,0.00422,-0.002386,0.002165,-0.002639,-0.000152,-0.001614,-0.506049,-0.002107,-0.923917,-263.463786,-0.90879,68.530019
6.4082,-0.000465,0.004249,-0.004584,0.002165,-0.002639,-0.000152,-0.001667,-0.505836,-0.002376,-0.849044,-263.463131,-0.893117,68.53081
6.428,-0.000519,0.004088,-0.001492,0.002141,-0.002628,5.9e-05,-0.002126,-0.505806,-0.003278,-0.849044,-263.463131,-0.893117,68.53081
6.4478,-0.000151,0.003981,-0.003173,0.002133,-0.002625,0.000123,-0.001215,-0.505991,-0.001496,-0.900592,-263.461812,-0.866063,68.532074
6.4679,-0.000408,0.003918,-0.003914,0.002047,-0.002617,9.3e-05,-0.001715,-0.506019,-0.00302,-0.900592,-263.461812,-0.866063,68.532074
6.4883,-0.000405,0.004311,-0.002111,0.001981,-0.00261,7.4e-05,-0.001715,-0.506019,-0.00302,-0.900592,-263.461812,-0.866063,68.532074
6.5079,-0.000449,0.003901,-0.00334,0.001981,-0.00261,7.4e-05,-0.001396,-0.505795,-0.002106,-0.874199,-263.460522,-0.902307,68.533409
6.5283,-0.000239,0.004133,-0.003913,0.001874,-0.002631,-0.000168,-0.001696,-0.505931,-0.002612,-0.874199,-263.460522,-0.902307,68.533409
6.5482,-5.8e-05,0.003948,-0.003208,0.001839,-0.002639,-0.000237,-0.002174,-0.505944,-0.003911,-0.913064,-263.459274,-0.929804,68.534685
6.5679,-0.000276,0.004055,-0.003168,0.001829,-0.002622,-8.2e-05,-0.001734,-0.506044,-0.003271,-0.913064,-263.459274,-0.929804,68.534685
6.588,-0.000136,0.003877,-0.003998,0.001821,-0.00261,2.9e-05,-0.001734,-0.506044,-0.003271,-0.913064,-263.459274,-0.929804,68.534685
6.6081,-7.9e-05,0.004094,-0.003907,0.001821,-0.00261,2.9e-05,-0.002105,-0.506221,-0.004007,-0.986939,-263.458051,-0.935376,68.535822
6.6283,-0.000217,0.003914,-0.002881,0.00196,-0.002536,0.000481,-0.002083,-0.506102,-0.003967,-0.986939,-263.458051,-0.935376,68.535822
6.648,3.4e-05,0.003703,-0.003086,0.002005,-0.002511,0.000616,-0.001629,-0.506165,-0.00288,-0.95833,-263.456817,-0.964673,68.537067
6.6683,1.3e-05,0.003756,-0.003903,0.001921,-0.002497,0.00046,-0.001545,-0.506287,-0.003068,-0.95833,-263.456817,-0.964673,68.537067
6.6877,9.7e-05,0.003354,-0.001099,0.001858,-0.002486,0.000352,-0.001545,-0.506287,-0.003068,-0.95833,-263.456817,-0.964673,68.537067
6.7087,-0.000186,0.003403,-0.005186,0.001858,-0.002486,0.000352,-0.000405,-0.506724,-0.001083,-0.883298,-263.455965,-0.963808,68.538089
6.7281,0.000105,0.003432,-0.003578,0.00174,-0.002363,6.5e-05,-0.00139,-0.506678,-0.002759,-0.883298,-263.455965,-0.963808,68.538089
6.7478,0.000169,0.003419,-0.002728,0.001702,-0.002323,-1.7e-05,-0.001661,-0.506644,-0.003567,-0.885109,-263.454794,-0.968274,68.539397
6.7676,7.6e-05,0.003298,-0.003753,0.001633,-0.002314,-6.3e-05,-0.001256,-0.506589,-0.002798,-0.885109,-263.454794,-0.968274,68.539397
6.7882,0.00046,0.002889,-0.00206,0.001581,-0.002308,-9.4e-05,-0.001256,-0.506589,-0.002798,-0.885109,-263.454794,-0.968274,68.539397
6.8081,5.2e-05,0.003227,-0.004988,0.001581,-0.002308,-9.4e-05,-0.000525,-0.507201,-0.002061,-0.940669,-263.453713,-0.936326,68.540472
6.8282,7.8e-05,0.003298,-0.002685,0.001585,-0.002136,0.000117,-0.001321,-0.507034,-0.003258,-0.940669,-263.453713,-0.936326,68.540472
6.8482,5.3e-05,0.002971,-0.002383,0.001586,-0.00208,0.00018,-0.001243,-0.506771,-0.002688,-0.981585,-263.452614,-0.958368,68.541535
6.8683,0.00028,0.003241,-0.003395,0.001542,-0.002055,-4.8e-05,-0.001167,-0.507008,-0.00241,-0.981585,-263.452614,-0.958368,68.541535
6.8881,0.000697,0.003087,-0.00452,0.00151,-0.002036,-0.000206,-0.001167,-0.507008,-0.00241,-0.981585,-263.452614,-0.958368,68.541535
6.9082,0.000141,0.002942,-0.003427,0.00151,-0.002036,-0.000206,-0.001551,-0.506984,-0.004514,-0.906584,-263.451725,-0.943898,68.542485
6.9282,0.00051,0.002915,-0.002252,0.001671,-0.001956,0.00042,-0.001567,-0.507022,-0.004066,-0.906584,-263.451725,-0.943898,68.542485
6.9482,0.000249,0.002902,-0.001651,0.001723,-0.001931,0.000608,-0.000595,-0.507144,-0.002258,-0.961145,-263.450748,-0.901835,68.543386
6.9682,0.000324,0.002893,-0.003571,0.001469,-0.001933,-3.3e-05,-0.000591,-0.507105,-0.001705,-0.961145,-263.450748,-0.901835,68.543386
6.9881,0.000455,0.002848,-0.003221,0.001282,-0.001939,-0.000473,-0.000591,-0.507105,-0.001705,-0.961145,-263.450748,-0.901835,68.543386
7.008,0.00034,0.002768,-0.003133,0.001282,-0.001939,-0.000473,-0.001159,-0.507186,-0.003214,-0.886263,-263.450343,-0.928261,68.543888
7.0283,0.000562,0.002923,-0.003521,0.001375,-0.001873,-0.000114,-0.001196,-0.507208,-0.003179,-0.886263,-263.450343,-0.928261,68.543888
7.048,0.000277,0.002557,-0.00303,0.001405,-0.001852,-7e-06,-0.001205,-0.507112,-0.003528,-0.961405,-263.449674,-0.910237,68.544432
7.0684,0.000793,0.002796,-0.003105,0.001457,-0.001789,4.1e-05,-0.001262,-0.507414,-0.003072,-0.961405,-263.449674,-0.910237,68.544432
7.0883,0.000197,0.003152,-0.002852,0.001497,-0.001742,7.5e-05,-0.001262,-0.507414,-0.003072,-0.961405,-263.449674,-0.910237,68.544432
7.1084,0.000308,0.003006,-0.003429,0.001497,-0.001742,7.5e-05,-0.001201,-0.506922,-0.002853,-0.922692,-263.448766,-0.920609,68.545337
7.1281,0.000563,0.002818,-0.003234,0.001524,-0.001849,0.000115,-0.001293,-0.506959,-0.003089,-0.922692,-263.448766,-0.920609,68.545337
7.1481,0.00076,0.00251,-0.005392,0.001533,-0.001886,0.000127,-0.001044,-0.507228,-0.003231,-0.84774,-263.447969,-0.873625,68.546158
7.1683,0.000603,0.002655,-0.003644,0.00174,-0.00176,0.000632,-0.001903,-0.507462,-0.005198,-0.84774,-263.447969,-0.873625,68.546158
7.1884,0.000741,0.002695,-0.001979,0.001897,-0.001664,0.001003,-0.001903,-0.507462,-0.005198,-0.84774,-263.447969,-0.873625,68.546158
7.2086,0.000908,0.002333,-0.002453,0.001897,-0.001664,0.001003,-0.000205,-0.507381,-0.001973,-0.867448,-263.447043,-0.907876,68.547132
7.2283,0.000614,0.002606,-0.003692,0.001201,-0.001625,3.3e-05,-0.000254,-0.507506,-0.002168,-0.867448,-263.447043,-0.907876,68.547132
7.2479,0.000714,0.002664,-0.001833,0.000982,-0.00162,-0.000236,-0.001262,-0.507398,-0.003689,-0.792313,-263.446942,-0.87614,68.54727
7.2682,0.000653,0.002596,-0.001913,0.000839,-0.001661,-0.00049,-0.000308,-0.507341,-0.001988,-0.792313,-263.446942,-0.87614,68.54727
7.2879,0.00091,0.002508,-0.002357,0.000732,-0.001695,-0.000663,-0.000308,-0.507341,-0.001988,-0.792313,-263.446942,-0.87614,68.54727
7.3084,0.00091,0.002264,-0.003223,0.000732,-0.001695,-0.000663,-0.00028,-0.507507,-0.002358,-0.867329,-263.446738,-0.951156,68.547449
7.3279,0.001093,0.002271,-0.001274,0.000691,-0.001632,-0.000431,-0.000462,-0.5076,-0.002708,-0.867329,-263.446738,-0.951156,68.547449
7.3479,0.00042,0.002308,-0.005035,0.000678,-0.001613,-0.000361,0.000446,-0.507733,-0.001275,-0.942174,-263.446656,-1.026002,68.547504
7.3683,0.000527,0.002473,-0.003212,0.0011,-0.001499,0.00019,-0.001924,-0.50769,-0.004711,-0.942174,-263.446656,-1.026002,68.547504
7.3885,0.000889,0.002381,-0.003485,0.001426,-0.001413,0.00059,-0.001924,-0.50769,-0.004711,-0.942174,-263.446656,-1.026002,68.547504
7.4083,0.000726,0.002458,-0.003996,0.001426,-0.001413,0.00059,-0.000879,-0.507633,-0.003487,-1.017272,-263.446455,-1.1011,68.547663
7.4286,0.001038,0.002367,-0.003843,0.001444,-0.001437,0.000674,-0.001056,-0.507596,-0.003696,-1.017272,-263.446455,-1.1011,68.547663
7.4481,0.000622,0.002288,-0.00281,0.001451,-0.001446,0.0007,-0.000921,-0.507632,-0.003843,-0.94227,-263.446422,-1.026098,68.547705
7.468,0.001004,0.002427,-0.002193,0.0,0.0,0.0,-0.000821,-0.507703,-0.002903,-0.94227,-263.446422,-1.026098,68.547705
