mach0312/omni-docking-bench/src/icros_test_setup/results/MPPI_sample/timeseries/trial_132.csv
t,x,y,yaw,vx,vy,wz,bl_x,bl_y,bl_yaw,front_steering_joint,front_wheel_joint,rear_steering_joint,rear_wheel_joint
0.0,0.039969,-0.030737,-0.067849,0.0,0.0,0.0,0.005159,-0.539971,-0.06873,0.379171,-258.715595,-0.037196,68.800611
0.0003,0.039957,-0.030905,-0.068973,-9.9e-05,-1.3e-05,0.0,0.005386,-0.539609,-0.068239,0.379171,-258.715595,-0.037196,68.800611
0.0006,0.039987,-0.030669,-0.067598,-9.9e-05,-1.3e-05,0.0,0.005386,-0.539609,-0.068239,0.379171,-258.715595,-0.037196,68.800611
0.0009,0.039964,-0.030824,-0.067954,-9.9e-05,-1.3e-05,0.0,0.005386,-0.539609,-0.068239,0.304318,-258.715604,0.037657,68.800602
0.0011,0.040022,-0.03071,-0.067908,-9.9e-05,-1.3e-05,0.0,0.004798,-0.539917,-0.068951,0.229324,-258.715626,0.112652,68.80058
0.0014,0.039809,-0.031139,-0.068349,-9.9e-05,-1.3e-05,0.0,0.004798,-0.539917,-0.068951,0.229324,-258.715626,0.112652,68.80058
0.0017,0.040011,-0.031274,-0.067957,-9.9e-05,-1.3e-05,0.0,0.00495,-0.539871,-0.068761,0.229324,-258.715626,0.112652,68.80058
0.0019,0.040069,-0.030945,-0.067242,-9.9e-05,-1.3e-05,0.0,0.00495,-0.539871,-0.068761,0.229324,-258.715626,0.112652,68.80058
0.0166,0.040241,-0.030557,-0.069423,0.0,0.0,0.0,0.005799,-0.539793,-0.067242,0.154211,-258.71566,0.134869,68.800545
0.0369,0.04011,-0.03097,-0.067948,0.0,0.0,0.0,0.004944,-0.539368,-0.069236,0.154211,-258.71566,0.134869,68.800545
0.0568,0.040112,-0.031084,-0.067304,0.0,0.0,0.0,0.004944,-0.539368,-0.069236,0.154211,-258.71566,0.134869,68.800545
0.0767,0.040097,-0.03055,-0.06868,0.0,0.0,0.0,0.005812,-0.539929,-0.067304,0.154211,-258.71566,0.134869,68.800545
0.0968,0.039761,-0.031147,-0.069644,0.0,0.0,0.0,0.005518,-0.53969,-0.067871,0.154211,-258.71566,0.134869,68.800545
0.1166,0.040056,-0.030864,-0.067018,0.000212,0.005221,0.011456,0.004271,-0.539911,-0.069644,0.154211,-258.71566,0.134869,68.800545
0.1367,0.040305,-0.030772,-0.068775,0.000205,0.005686,0.012156,0.005765,-0.539736,-0.067238,0.154211,-258.71566,0.134869,68.800545
0.1568,0.040129,-0.030773,-0.068304,0.000199,0.006082,0.012682,0.005765,-0.539736,-0.067238,0.154211,-258.71566,0.134869,68.800545
0.1771,0.039981,-0.030806,-0.067626,0.000195,0.006419,0.013073,0.005321,-0.539584,-0.068304,0.229276,-258.71566,0.209934,68.800545
0.1968,0.039856,-0.030722,-0.068112,0.000202,0.006707,0.013362,0.005401,-0.539607,-0.068027,0.229276,-258.71566,0.209934,68.800545
0.2169,0.03973,-0.03061,-0.069267,0.000209,0.006954,0.013573,0.005145,-0.539539,-0.068112,0.3041,-258.71566,0.284757,68.800545
0.2368,0.039929,-0.030886,-0.068476,0.000242,0.00717,0.013727,0.004497,-0.539401,-0.069162,0.3041,-258.71566,0.284757,68.800545
0.257,0.040252,-0.03044,-0.068668,0.000271,0.007355,0.013835,0.004497,-0.539401,-0.069162,0.3041,-258.71566,0.284757,68.800545
0.2768,0.039821,-0.031026,-0.067811,0.000296,0.007513,0.013909,0.005258,-0.539238,-0.068668,0.379096,-258.71566,0.359753,68.800545
0.2971,0.040177,-0.030798,-0.068213,0.000295,0.007642,0.013955,0.005261,-0.539488,-0.06832,0.379096,-258.71566,0.359753,68.800545
0.3169,0.040262,-0.030504,-0.0657,0.000294,0.007752,0.013984,0.005415,-0.539612,-0.068213,0.454098,-258.71566,0.284751,68.800545
0.3369,0.040213,-0.030789,-0.067843,0.000252,0.007835,0.013995,0.006655,-0.539423,-0.065929,0.454098,-258.71566,0.284751,68.800545
0.3569,0.040146,-0.030478,-0.068307,0.000217,0.007907,0.014,0.006655,-0.539423,-0.065929,0.454098,-258.71566,0.284751,68.800545
0.3771,0.039875,-0.030808,-0.068004,0.000187,0.007968,0.014,0.005337,-0.539288,-0.068307,0.529095,-258.71566,0.209754,68.800545
0.3966,0.040075,-0.03056,-0.070134,0.000204,0.008033,0.014,0.005289,-0.539428,-0.068184,0.529095,-258.71566,0.209754,68.800545
0.4165,0.040443,-0.030757,-0.069296,0.000217,0.008088,0.013998,0.004336,-0.539306,-0.070134,0.604101,-258.71566,0.134748,68.800545
0.4366,0.039784,-0.030898,-0.067301,0.000235,0.008137,0.013993,0.005059,-0.539512,-0.069371,0.604101,-258.71566,0.134748,68.800545
0.4566,0.040052,-0.030438,-0.066223,0.000251,0.008179,0.013987,0.005059,-0.539512,-0.069371,0.604101,-258.71566,0.134748,68.800545
0.4767,0.040278,-0.030702,-0.068422,0.000264,0.008215,0.01398,0.006303,-0.53932,-0.066223,0.679114,-258.71566,0.059735,68.800545
0.4967,0.040124,-0.030707,-0.068157,0.000248,0.008239,0.013969,0.005939,-0.539397,-0.067121,0.679114,-258.71566,0.059735,68.800545
0.5165,0.040023,-0.030886,-0.068713,0.000235,0.008259,0.01396,0.005391,-0.539523,-0.068157,0.754108,-258.71566,-0.015259,68.800545
0.5367,0.039747,-0.030763,-0.068053,0.000253,0.008285,0.013955,0.005041,-0.539668,-0.068663,0.754108,-258.71566,-0.015259,68.800545
0.5566,0.039895,-0.030867,-0.068381,0.000268,0.008306,0.013949,0.005041,-0.539668,-0.068663,0.754108,-258.71566,-0.015259,68.800545
0.5771,0.040176,-0.03065,-0.067664,0.00028,0.008325,0.013944,0.005047,-0.539675,-0.068381,0.82911,-258.71566,-0.090261,68.800545
0.5968,0.040085,-0.030858,-0.067649,0.000282,0.008339,0.013937,0.005311,-0.539597,-0.068089,0.82911,-258.71566,-0.090261,68.800545
0.6165,0.039934,-0.030926,-0.068285,0.000284,0.00835,0.013931,0.00561,-0.539692,-0.067649,0.904193,-258.71566,-0.165344,68.800545
0.6365,0.040192,-0.030681,-0.067589,0.000291,0.008362,0.013927,0.005177,-0.539733,-0.06823,0.904193,-258.71566,-0.165344,68.800545
0.6564,0.040364,-0.031156,-0.06784,0.000296,0.008371,0.013922,0.005177,-0.539733,-0.06823,0.904193,-258.71566,-0.165344,68.800545
0.6766,0.040295,-0.030133,-0.067581,0.0003,0.00838,0.013919,0.005792,-0.539983,-0.06784,0.979221,-258.71566,-0.240372,68.800545
0.6967,0.040271,-0.030844,-0.066997,0.000284,0.008381,0.013913,0.005818,-0.53957,-0.067735,0.979221,-258.71566,-0.240372,68.800545
0.7165,0.039719,-0.030971,-0.06836,0.00027,0.008383,0.013908,0.006128,-0.539699,-0.066996,1.054098,-258.715641,-0.315249,68.800546
0.7368,0.039822,-0.031215,-0.069349,0.000285,0.008392,0.013908,0.004994,-0.539773,-0.068238,1.054098,-258.715641,-0.315249,68.800546
0.7568,0.039725,-0.030418,-0.06582,0.000297,0.008399,0.013906,0.004994,-0.539773,-0.068238,1.054098,-258.715641,-0.315249,68.800546
0.7768,0.040095,-0.030984,-0.068027,0.000307,0.008405,0.013905,0.006184,-0.53931,-0.065812,1.129102,-258.715547,-0.390253,68.800547
0.7969,0.040062,-0.030636,-0.069038,0.000289,0.008403,0.013901,0.005875,-0.539512,-0.066719,1.129102,-258.715547,-0.390253,68.800547
0.8163,0.040094,-0.030762,-0.067179,0.000273,0.008401,0.013897,0.004886,-0.539411,-0.06902,1.204095,-258.715261,-0.315261,68.800553
0.8369,0.040007,-0.030312,-0.067419,0.000263,0.008401,0.013895,0.005769,-0.539593,-0.067347,1.204095,-258.715261,-0.315261,68.800553
0.8566,0.04005,-0.031222,-0.068422,0.000254,0.0084,0.013894,0.005769,-0.539593,-0.067347,1.204095,-258.715261,-0.315261,68.800553
0.8763,0.039925,-0.030929,-0.067851,0.000247,0.0084,0.013893,0.005199,-0.539985,-0.068347,1.279111,-258.714354,-0.308029,68.800568
0.8967,0.03991,-0.030846,-0.067342,0.000258,0.008405,0.013894,0.005262,-0.539885,-0.068135,1.279111,-258.714354,-0.308029,68.800568
0.9163,0.039857,-0.03077,-0.067965,0.000267,0.008408,0.013894,0.005614,-0.539616,-0.067218,1.354194,-258.712426,-0.330034,68.800598
0.9366,0.04005,-0.030528,-0.065663,0.000274,0.008411,0.013894,0.005258,-0.539591,-0.067891,1.354194,-258.712426,-0.330034,68.800598
0.9565,0.040303,-0.030574,-0.067396,0.000279,0.008413,0.013894,0.005258,-0.539591,-0.067891,1.354194,-258.712426,-0.330034,68.800598
0.9765,0.039474,-0.030312,-0.065993,0.000283,0.008415,0.013893,0.005997,-0.539243,-0.067106,1.429086,-258.709026,-0.281775,68.800654
0.9967,0.039678,-0.030281,-0.068318,0.000265,0.008411,0.013987,0.005939,-0.539207,-0.06662,1.429086,-258.709026,-0.281775,68.800654
1.0162,0.039953,-0.029759,-0.067338,0.000249,0.008407,0.014062,0.004894,-0.53889,-0.067983,1.504087,-258.703897,-0.241537,68.800743
1.0366,0.039598,-0.030683,-0.067185,0.000243,0.008406,0.014188,0.005572,-0.538618,-0.067378,1.504087,-258.703897,-0.241537,68.800743
1.0566,0.039678,-0.030046,-0.066006,0.000238,0.008404,0.014288,0.005572,-0.538618,-0.067378,1.504087,-258.703897,-0.241537,68.800743
1.0765,0.039507,-0.029747,-0.066558,0.000234,0.008403,0.014368,0.006042,-0.538906,-0.065957,1.556123,-258.703333,-0.316555,68.800753
1.0967,0.039295,-0.030118,-0.065812,0.000223,0.0084,0.014437,0.005856,-0.538784,-0.066198,1.556123,-258.703333,-0.316555,68.800753
1.1164,0.039607,-0.029914,-0.066694,0.000214,0.008397,0.014491,0.005755,-0.539014,-0.065811,1.557189,-258.703331,-0.391674,68.800753
1.1366,0.039408,-0.030083,-0.066315,0.000213,0.008397,0.014535,0.005631,-0.538801,-0.066614,1.557189,-258.703331,-0.391674,68.800753
1.1565,0.039476,-0.029365,-0.067301,0.000213,0.008397,0.01457,0.005631,-0.538801,-0.066614,1.557189,-258.703331,-0.391674,68.800753
1.1766,0.039634,-0.029868,-0.066763,0.000212,0.008396,0.014597,0.005178,-0.538211,-0.067301,1.558387,-258.70333,-0.466565,68.800753
1.1965,0.039415,-0.029954,-0.066412,0.000218,0.008398,0.01462,0.005355,-0.538424,-0.067081,1.558387,-258.70333,-0.466565,68.800753
1.2164,0.039242,-0.030146,-0.068195,0.000223,0.008399,0.014637,0.00557,-0.53883,-0.066412,1.558524,-258.703328,-0.541641,68.800753
1.2369,0.039595,-0.030016,-0.068169,0.000255,0.008407,0.014653,0.004584,-0.53895,-0.068039,1.558524,-258.703328,-0.541641,68.800753
1.2564,0.040008,-0.030021,-0.066043,0.000281,0.008414,0.014665,0.004584,-0.53895,-0.068039,1.558524,-258.703328,-0.541641,68.800753
1.277,0.039706,-0.030055,-0.066635,0.000303,0.008419,0.014674,0.00635,-0.538909,-0.066043,1.557917,-258.703321,-0.616645,68.800753
1.2967,0.039659,-0.029906,-0.066437,0.000273,0.008411,0.014675,0.006103,-0.538915,-0.066286,1.557917,-258.703321,-0.616645,68.800753
1.3166,0.039323,-0.029822,-0.067203,0.000249,0.008404,0.014675,0.005802,-0.538771,-0.06642,1.55339,-258.703061,-0.691644,68.800763
1.3366,0.039427,-0.030235,-0.067724,0.000258,0.008407,0.01468,0.00513,-0.538678,-0.067143,1.55339,-258.703061,-0.691644,68.800763
1.3568,0.039337,-0.030093,-0.06684,0.000265,0.008409,0.014683,0.00513,-0.538678,-0.067143,1.55339,-258.703061,-0.691644,68.800763
1.3768,0.039737,-0.030133,-0.066369,0.000271,0.008411,0.014686,0.005275,-0.538944,-0.066822,1.556461,-258.702854,-0.767033,68.80077
1.3965,0.039712,-0.030322,-0.067721,0.000265,0.008409,0.014678,0.005538,-0.53897,-0.066633,1.556461,-258.702854,-0.767033,68.80077
1.4166,0.039684,-0.029978,-0.06676,0.00026,0.008408,0.014671,0.005204,-0.539118,-0.067659,1.555205,-258.701938,-0.841659,68.800803
1.4365,0.039572,-0.029822,-0.068241,0.000252,0.008406,0.014653,0.005622,-0.538865,-0.066837,1.555205,-258.701938,-0.841659,68.800803
1.4567,0.039684,-0.030158,-0.066959,0.000246,0.008405,0.01464,0.005622,-0.538865,-0.066837,1.555205,-258.701938,-0.841659,68.800803
1.4771,0.03949,-0.029528,-0.066271,0.00024,0.008403,0.014629,0.00557,-0.538924,-0.066802,1.555829,-258.700152,-0.916578,68.800865
1.4967,0.039294,-0.02996,-0.066789,0.000235,0.008402,0.014599,0.005631,-0.538704,-0.066568,1.555829,-258.700152,-0.916578,68.800865
1.5164,0.039426,-0.029506,-0.065761,0.00023,0.008401,0.014576,0.005269,-0.538708,-0.06659,1.556929,-258.697177,-0.991548,68.800965
1.5364,0.039275,-0.029377,-0.065318,0.000219,0.008398,0.014529,0.005855,-0.538425,-0.065825,1.556929,-258.697177,-0.991548,68.800965
1.5566,0.03908,-0.029744,-0.065342,0.000209,0.008396,0.014492,0.005855,-0.538425,-0.065825,1.556929,-258.697177,-0.991548,68.800965
1.5764,0.039129,-0.029568,-0.0658,0.000201,0.008394,0.014463,0.005802,-0.53841,-0.064915,1.55748,-258.692325,-1.066659,68.80112
1.597,0.039229,-0.02934,-0.065267,0.000198,0.008393,0.0145,0.005721,-0.538404,-0.065227,1.55748,-258.692325,-1.066659,68.80112
1.6164,0.038743,-0.028864,-0.063427,0.000196,0.008393,0.01453,0.005988,-0.538008,-0.064842,1.559138,-258.686033,-1.141564,68.801296
1.6365,0.038913,-0.028815,-0.066789,0.00017,0.008385,0.014629,0.006378,-0.537841,-0.063536,1.559138,-258.686033,-1.141564,68.801296
1.6563,0.038654,-0.028951,-0.065857,0.000148,0.008379,0.014707,0.006378,-0.537841,-0.063536,1.559138,-258.686033,-1.141564,68.801296
1.6767,0.038628,-0.028621,-0.066544,0.00013,0.008373,0.01477,0.005122,-0.537506,-0.065267,1.559451,-258.679326,-1.184449,68.801498
1.6969,0.038502,-0.028524,-0.064996,0.000157,0.00838,0.014899,0.00496,-0.537461,-0.065718,1.559451,-258.679326,-1.184449,68.801498
1.7166,0.038339,-0.02845,-0.065188,0.00018,0.008386,0.015001,0.00539,-0.537298,-0.064731,1.563335,-258.675404,-1.259451,68.801647
1.7367,0.038353,-0.028296,-0.063477,0.000192,0.008389,0.015122,0.005142,-0.537353,-0.065133,1.563335,-258.675404,-1.259451,68.801647
1.7567,0.037976,-0.028466,-0.063607,0.000202,0.008391,0.015218,0.005142,-0.537353,-0.065133,1.563335,-258.675404,-1.259451,68.801647
1.7767,0.03775,-0.027905,-0.061866,0.000211,0.008392,0.015295,0.005586,-0.537121,-0.063045,1.560555,-258.669119,-1.33442,68.801933
1.7965,0.037816,-0.027743,-0.063832,0.000194,0.008387,0.015414,0.005849,-0.537007,-0.062495,1.560555,-258.669119,-1.33442,68.801933
1.8165,0.037479,-0.027384,-0.061987,0.000179,0.008382,0.01551,0.005307,-0.53644,-0.063349,1.558901,-258.662073,-1.352102,68.802319
1.8365,0.037569,-0.027421,-0.06239,0.000163,0.008376,0.015653,0.005835,-0.536394,-0.062085,1.558901,-258.662073,-1.352102,68.802319
1.8567,0.037442,-0.027363,-0.062502,0.00015,0.008371,0.015767,0.005835,-0.536394,-0.062085,1.558901,-258.662073,-1.352102,68.802319
1.8768,0.037316,-0.026577,-0.062134,0.000138,0.008367,0.015859,0.005615,-0.536034,-0.061883,1.560753,-258.655279,-1.407948,68.80274
1.8967,0.037214,-0.026914,-0.062517,0.000131,0.008364,0.015994,0.005632,-0.535818,-0.061914,1.560753,-258.655279,-1.407948,68.80274
1.9164,0.037009,-0.026133,-0.060521,0.000125,0.008361,0.016102,0.005371,-0.535665,-0.062038,1.563147,-258.648444,-1.466504,68.803242
1.9369,0.036807,-0.026788,-0.060285,9.9e-05,0.008352,0.016235,0.006092,-0.535229,-0.060632,1.563147,-258.648444,-1.466504,68.803242
1.957,0.036868,-0.026321,-0.061004,7.8e-05,0.008345,0.016344,0.006092,-0.535229,-0.060632,1.563147,-258.648444,-1.466504,68.803242
1.9768,0.036531,-0.025944,-0.060297,6e-05,0.008338,0.016431,0.005801,-0.535025,-0.060334,1.563921,-258.641211,-1.486072,68.80383
1.9971,0.036396,-0.0259,-0.060762,5.3e-05,0.008336,0.016546,0.005803,-0.534982,-0.060242,1.563921,-258.641211,-1.486072,68.80383
2.0167,0.036158,-0.025896,-0.05789,4.8e-05,0.008333,0.016639,0.005444,-0.534703,-0.060258,1.567536,-258.634132,-1.535513,68.804484
2.0367,0.035758,-0.02594,-0.060393,1.8e-05,0.008323,0.01674,0.006542,-0.534998,-0.058079,1.567536,-258.634132,-1.535513,68.804484
2.0565,0.035846,-0.025841,-0.060785,-8e-06,0.008314,0.016823,0.006542,-0.534998,-0.058079,1.567536,-258.634132,-1.535513,68.804484
2.0775,0.035554,-0.025233,-0.05826,-2.9e-05,0.008307,0.016891,0.004888,-0.534551,-0.060089,1.568223,-258.626757,-1.544778,68.805213
2.0968,0.035853,-0.025071,-0.059484,-5e-06,0.008313,0.01697,0.005277,-0.534438,-0.059279,1.568223,-258.626757,-1.544778,68.805213
2.1164,0.034922,-0.025132,-0.058544,1.4e-05,0.008319,0.017034,0.005549,-0.53391,-0.058958,1.572342,-258.61949,-1.585126,68.805998
2.1365,0.035608,-0.024608,-0.058686,3.5e-05,0.008324,0.017096,0.005123,-0.534215,-0.058555,1.572342,-258.61949,-1.585126,68.805998
2.1567,0.03533,-0.024944,-0.059169,5.3e-05,0.008329,0.017146,0.005123,-0.534215,-0.058555,1.572342,-258.61949,-1.585126,68.805998
2.1772,0.03514,-0.024382,-0.056873,6.8e-05,0.008333,0.017186,0.005192,-0.533707,-0.058462,1.570038,-258.612055,-1.563984,68.806826
2.1965,0.034664,-0.024443,-0.056921,5.7e-05,0.008329,0.017224,0.005586,-0.533606,-0.05773,1.570038,-258.612055,-1.563984,68.806826
2.2163,0.035039,-0.023807,-0.055527,4.9e-05,0.008326,0.017256,0.005667,-0.533355,-0.05638,1.567209,-258.604607,-1.539588,68.807682
2.2366,0.034107,-0.024022,-0.055954,-4e-06,0.008308,0.017303,0.006638,-0.533038,-0.055577,1.567209,-258.604607,-1.539588,68.807682
2.2568,0.034556,-0.023962,-0.05639,-4.7e-05,0.008294,0.017343,0.006638,-0.533038,-0.055577,1.567209,-258.604607,-1.539588,68.807682
2.2771,0.034132,-0.023505,-0.055832,-8.4e-05,0.008282,0.017376,0.005834,-0.532803,-0.055667,1.568214,-258.597073,-1.548785,68.808566
2.2965,0.034119,-0.023527,-0.054921,-8.3e-05,0.008282,0.017419,0.005773,-0.532726,-0.055649,1.568214,-258.597073,-1.548785,68.808566
2.3165,0.033872,-0.023195,-0.05392,-8.3e-05,0.008282,0.017455,0.006135,-0.532508,-0.054396,1.575231,-258.589916,-1.606725,68.809449
2.3371,0.033423,-0.022815,-0.052839,-0.000108,0.008274,0.017484,0.006364,-0.532446,-0.053936,1.575231,-258.589916,-1.606725,68.809449
2.3573,0.033885,-0.022998,-0.053561,-0.000129,0.008267,0.017509,0.006364,-0.532446,-0.053936,1.575231,-258.589916,-1.606725,68.809449
2.3771,0.033447,-0.022278,-0.053027,-0.000147,0.008261,0.017529,0.006597,-0.531919,-0.052827,1.575182,-258.582328,-1.605715,68.810402
2.3969,0.033532,-0.022848,-0.05284,-0.000175,0.008251,0.017553,0.006525,-0.531734,-0.052824,1.575182,-258.582328,-1.605715,68.810402
2.4168,0.032971,-0.022004,-0.052015,-0.000199,0.008243,0.017573,0.006605,-0.531877,-0.052289,1.57853,-258.574822,-1.630719,68.811372
2.4366,0.032718,-0.022446,-0.053114,-0.00022,0.008235,0.017597,0.006469,-0.53135,-0.052011,1.57853,-258.574822,-1.630719,68.811372
2.4568,0.032642,-0.022379,-0.052504,-0.000238,0.008229,0.017618,0.006469,-0.53135,-0.052011,1.57853,-258.574822,-1.630719,68.811372
2.4768,0.032429,-0.021503,-0.052045,-0.000253,0.008224,0.017634,0.005886,-0.531334,-0.051775,1.581279,-258.567249,-1.650514,68.812369
2.4973,0.032243,-0.021306,-0.051642,-0.000245,0.008227,0.017655,0.005893,-0.531075,-0.051803,1.581279,-258.567249,-1.650514,68.812369
2.5167,0.03159,-0.021163,-0.0518,-0.000237,0.008229,0.017672,0.005923,-0.530368,-0.051088,1.584138,-258.559725,-1.669987,68.813382
2.5371,0.03199,-0.021175,-0.049577,-0.000209,0.008238,0.017694,0.005249,-0.530456,-0.05171,1.584138,-258.559725,-1.669987,68.813382
2.557,0.031974,-0.021223,-0.050385,-0.000186,0.008245,0.017711,0.005249,-0.530456,-0.05171,1.584138,-258.559725,-1.669987,68.813382
2.5764,0.031738,-0.020663,-0.049726,-0.000167,0.008252,0.017724,0.006296,-0.530232,-0.049647,1.583265,-258.552121,-1.663045,68.814411
2.5965,0.031548,-0.021127,-0.050713,-0.000202,0.008239,0.017733,0.006335,-0.53011,-0.049594,1.583265,-258.552121,-1.663045,68.814411
2.6165,0.031251,-0.020636,-0.048565,-0.000231,0.008228,0.01774,0.005703,-0.530212,-0.050156,1.579553,-258.544584,-1.63561,68.81543
2.6367,0.03093,-0.020933,-0.04879,-0.00026,0.008218,0.01775,0.006425,-0.530037,-0.048676,1.579553,-258.544584,-1.63561,68.81543
2.6567,0.031131,-0.020403,-0.050937,-0.000283,0.008209,0.017758,0.006425,-0.530037,-0.048676,1.579553,-258.544584,-1.63561,68.81543
2.6768,0.030799,-0.020074,-0.047653,-0.000303,0.008202,0.017765,0.005172,-0.5294,-0.050201,1.582928,-258.537024,-1.659289,68.816468
2.6968,0.030512,-0.019684,-0.048242,-0.000296,0.008205,0.017777,0.005719,-0.5294,-0.049073,1.582928,-258.537024,-1.659289,68.816468
2.7168,0.029785,-0.019376,-0.047021,-0.000291,0.008206,0.017786,0.005921,-0.528832,-0.047681,1.586703,-258.529487,-1.684768,68.817522
2.7366,0.030078,-0.019851,-0.048613,-0.000297,0.008204,0.017794,0.005823,-0.528801,-0.047051,1.586703,-258.529487,-1.684768,68.817522
2.7568,0.030336,-0.019698,-0.047565,-0.000302,0.008201,0.017801,0.005823,-0.528801,-0.047051,1.586703,-258.529487,-1.684768,68.817522
2.7766,0.030124,-0.019291,-0.046951,-0.000307,0.008199,0.017807,0.006091,-0.528778,-0.046822,1.586035,-258.521871,-1.679767,68.818589
2.7966,0.02972,-0.019476,-0.046466,-0.000326,0.008192,0.017812,0.006131,-0.528718,-0.046788,1.586035,-258.521871,-1.679767,68.818589
2.8168,0.029248,-0.01862,-0.046001,-0.000343,0.008186,0.017816,0.006033,-0.528664,-0.045899,1.586883,-258.514205,-1.684963,68.819672
2.8368,0.02923,-0.018906,-0.045247,-0.000349,0.008183,0.017825,0.005814,-0.528114,-0.045968,1.586883,-258.514205,-1.684963,68.819672
2.8564,0.028755,-0.018737,-0.04617,-0.000354,0.008181,0.017833,0.005814,-0.528114,-0.045968,1.586883,-258.514205,-1.684963,68.819672
2.8763,0.029028,-0.018392,-0.044108,-0.000359,0.008179,0.017839,0.005218,-0.527853,-0.045429,1.588758,-258.506622,-1.697197,68.820752
2.8969,0.029034,-0.017994,-0.04291,-0.000363,0.008177,0.017846,0.005761,-0.527831,-0.0448,1.588758,-258.506622,-1.697197,68.820752
2.9167,0.028416,-0.018221,-0.043887,-0.000366,0.008175,0.017851,0.007156,-0.527265,-0.042344,1.589597,-258.499005,-1.702048,68.821846
2.9365,0.028429,-0.018022,-0.0433,-0.00039,0.008166,0.017855,0.00614,-0.527676,-0.043722,1.589597,-258.499005,-1.702048,68.821846
2.9569,0.029077,-0.018146,-0.042845,-0.000409,0.008158,0.017858,0.00614,-0.527676,-0.043722,1.589597,-258.499005,-1.702048,68.821846
2.9767,0.02825,-0.017535,-0.043921,-0.000425,0.008151,0.017861,0.007232,-0.527335,-0.042098,1.589998,-258.491375,-1.704312,68.822947
2.9968,0.028251,-0.017326,-0.043104,-0.000473,0.008132,0.017862,0.006674,-0.527178,-0.042751,1.589998,-258.491375,-1.704312,68.822947
3.0165,0.027509,-0.01679,-0.042641,-0.000513,0.008115,0.017863,0.006272,-0.526593,-0.042537,1.593101,-258.483781,-1.723797,68.824058
3.0368,0.027218,-0.016801,-0.040965,-0.000516,0.008113,0.017871,0.005811,-0.526336,-0.042605,1.593101,-258.483781,-1.723797,68.824058
3.0567,0.027756,-0.01721,-0.041168,-0.000519,0.008111,0.017877,0.005811,-0.526336,-0.042605,1.593101,-258.483781,-1.723797,68.824058
3.0768,0.027207,-0.017502,-0.043175,-0.000521,0.00811,0.017882,0.006766,-0.526777,-0.041168,1.597728,-258.48378,-1.64861,68.824058
3.0965,0.027564,-0.017029,-0.042517,-0.000528,0.008107,0.01783,0.006109,-0.526882,-0.042006,1.597728,-258.48378,-1.64861,68.824058
3.1166,0.02741,-0.017162,-0.041304,-0.000533,0.008105,0.017788,0.005887,-0.526568,-0.042517,1.598185,-258.483779,-1.573422,68.824058
3.1364,0.027356,-0.016946,-0.043261,-0.000549,0.008099,0.0177,0.006302,-0.52671,-0.041432,1.598185,-258.483779,-1.573422,68.824058
3.1566,0.027396,-0.016921,-0.042966,-0.000562,0.008094,0.017629,0.006302,-0.52671,-0.041432,1.598185,-258.483779,-1.573422,68.824058
3.1769,0.027408,-0.017199,-0.0419,-0.000573,0.00809,0.017572,0.00549,-0.526451,-0.042966,1.598902,-258.483778,-1.498792,68.824058
3.1968,0.027475,-0.0172,-0.042635,-0.000554,0.008097,0.017471,0.005714,-0.526572,-0.042535,1.598902,-258.483778,-1.498792,68.824058
3.2166,0.027426,-0.017138,-0.042344,-0.000538,0.008104,0.017389,0.005738,-0.526737,-0.042634,1.601236,-258.483778,-1.423767,68.824058
3.2366,0.027245,-0.01714,-0.040521,-0.000527,0.008108,0.017254,0.005829,-0.526685,-0.042368,1.601236,-258.483778,-1.423767,68.824058
3.2565,0.027813,-0.016856,-0.040503,-0.000519,0.008112,0.017146,0.005829,-0.526685,-0.042368,1.601236,-258.483778,-1.423767,68.824058
3.2766,0.027177,-0.017097,-0.042318,-0.000511,0.008115,0.017059,0.007162,-0.526437,-0.040503,1.5995,-258.483777,-1.348618,68.824058
3.2966,0.027507,-0.016996,-0.043341,-0.000542,0.008103,0.016908,0.006522,-0.52652,-0.041247,1.5995,-258.483777,-1.348618,68.824058
3.3167,0.027555,-0.017285,-0.040849,-0.000568,0.008093,0.016788,0.00541,-0.526517,-0.043341,1.598383,-258.483776,-1.273692,68.824057
3.3368,0.027546,-0.017008,-0.04171,-0.000587,0.008086,0.016612,0.006615,-0.52683,-0.041063,1.598383,-258.483776,-1.273692,68.824057
3.3568,0.027637,-0.016796,-0.04149,-0.000602,0.008081,0.016472,0.006615,-0.52683,-0.041063,1.598383,-258.483776,-1.273692,68.824057
3.3771,0.027659,-0.017169,-0.042696,-0.000615,0.008077,0.016361,0.006483,-0.526357,-0.04149,1.601736,-258.483775,-1.198686,68.824057
3.3965,0.027116,-0.016861,-0.042301,-0.000613,0.008079,0.016187,0.006241,-0.526499,-0.041983,1.601736,-258.483775,-1.198686,68.824057
3.4163,0.027589,-0.017049,-0.041054,-0.000611,0.008081,0.016048,0.005549,-0.526404,-0.042301,1.604841,-258.483775,-1.123778,68.824057
3.4365,0.027684,-0.017467,-0.041293,-0.000623,0.008077,0.015834,0.006563,-0.526601,-0.04116,1.604841,-258.483775,-1.123778,68.824057
3.4564,0.027551,-0.017342,-0.042427,-0.000632,0.008075,0.015666,0.006563,-0.526601,-0.04116,1.604841,-258.483775,-1.123778,68.824057
3.477,0.027429,-0.017191,-0.041434,-0.00064,0.008073,0.015533,0.005919,-0.526883,-0.042427,1.604966,-258.483774,-1.048642,68.824057
3.497,0.027807,-0.017019,-0.041409,-0.000616,0.008084,0.015313,0.006076,-0.52683,-0.042023,1.604966,-258.483774,-1.048642,68.824057
3.5167,0.02757,-0.017466,-0.040608,-0.000597,0.008094,0.015141,0.006695,-0.526582,-0.041409,1.607211,-258.483773,-0.973785,68.824057
3.5365,0.027195,-0.017368,-0.040508,-0.000615,0.008088,0.014859,0.006851,-0.527005,-0.040678,1.607211,-258.483773,-0.973785,68.824057
3.5565,0.027674,-0.016768,-0.042166,-0.000629,0.008084,0.014642,0.006851,-0.527005,-0.040678,1.607211,-258.483773,-0.973785,68.824057
3.5765,0.02767,-0.017094,-0.042428,-0.000641,0.008081,0.014476,0.006176,-0.526314,-0.042165,1.605191,-258.483773,-0.898679,68.824057
3.5971,0.027475,-0.017147,-0.041482,-0.000626,0.008088,0.014352,0.00612,-0.526444,-0.042272,1.605191,-258.483773,-0.898679,68.824057
3.6166,0.027029,-0.017378,-0.041741,-0.000613,0.008095,0.014256,0.006326,-0.526709,-0.041482,1.608677,-258.483772,-0.823802,68.824057
3.6368,0.027356,-0.017003,-0.041616,-0.000577,0.00811,0.014185,0.005801,-0.526913,-0.041717,1.608677,-258.483772,-0.823802,68.824057
3.6569,0.027234,-0.01665,-0.041305,-0.000548,0.008123,0.014129,0.005801,-0.526913,-0.041717,1.608677,-258.483772,-0.823802,68.824057
3.6764,0.027702,-0.016902,-0.042115,-0.000523,0.008133,0.014086,0.006175,-0.526215,-0.041305,1.607273,-258.483771,-0.748788,68.824057
3.6967,0.027799,-0.017167,-0.042507,-0.000533,0.008129,0.014049,0.006197,-0.526311,-0.041636,1.607273,-258.483771,-0.748788,68.824057
3.7166,0.027688,-0.016714,-0.042806,-0.000542,0.008126,0.014021,0.006127,-0.526706,-0.042507,1.602044,-258.483771,-0.673664,68.824057
3.7368,0.02759,-0.017434,-0.041587,-0.000534,0.008129,0.014001,0.005887,-0.526286,-0.04278,1.602044,-258.483771,-0.673664,68.824057
3.7567,0.027289,-0.017055,-0.043437,-0.000527,0.008132,0.013986,0.005887,-0.526286,-0.04278,1.602044,-258.483771,-0.673664,68.824057
3.7765,0.027447,-0.017205,-0.041935,-0.000522,0.008134,0.013974,0.005143,-0.526574,-0.043437,1.603256,-258.48377,-0.598666,68.824057
3.7968,0.027116,-0.016893,-0.042722,-0.000491,0.008146,0.013967,0.005516,-0.526648,-0.04283,1.603256,-258.48377,-0.598666,68.824057
3.8164,0.027355,-0.016989,-0.04275,-0.000466,0.008156,0.013961,0.005334,-0.526427,-0.042722,1.602092,-258.483769,-0.523788,68.824057
3.8366,0.027472,-0.016986,-0.042405,-0.000448,0.008162,0.013956,0.00554,-0.526515,-0.042747,1.602092,-258.483769,-0.523788,68.824057
3.8565,0.027582,-0.016979,-0.042168,-0.000433,0.008168,0.013952,0.00554,-0.526515,-0.042747,1.602092,-258.483769,-0.523788,68.824057
3.8769,0.027663,-0.01712,-0.041915,-0.000421,0.008172,0.013948,0.006082,-0.526525,-0.042168,1.598726,-258.483769,-0.448655,68.824057
3.8966,0.027633,-0.017143,-0.042315,-0.000442,0.008164,0.013941,0.006168,-0.526585,-0.042065,1.598726,-258.483769,-0.448655,68.824057
3.9163,0.02712,-0.017104,-0.043224,-0.000459,0.008157,0.013937,0.006059,-0.526686,-0.042315,1.596022,-258.483768,-0.373696,68.824057
3.9364,0.027892,-0.01704,-0.041791,-0.00042,0.008172,0.013939,0.005159,-0.526632,-0.043153,1.596022,-258.483768,-0.373696,68.824057
3.9566,0.027501,-0.016554,-0.041185,-0.000388,0.008184,0.01394,0.005159,-0.526632,-0.043153,1.596022,-258.483768,-0.373696,68.824057
3.9767,0.027609,-0.017063,-0.042404,-0.000361,0.008193,0.013941,0.006503,-0.526122,-0.041185,1.598332,-258.483767,-0.298447,68.824057
3.9973,0.027413,-0.017165,-0.042468,-0.000403,0.008177,0.013933,0.006293,-0.52632,-0.041684,1.598332,-258.483767,-0.298447,68.824057
4.0165,0.027427,-0.017057,-0.042521,-0.000437,0.008163,0.013929,0.005761,-0.526706,-0.042468,1.592392,-258.483767,-0.223789,68.824057
4.0367,0.027359,-0.017385,-0.042539,-0.000433,0.008165,0.013929,0.005748,-0.526606,-0.042516,1.592392,-258.483767,-0.223789,68.824057
4.057,0.027355,-0.017147,-0.041173,-0.000429,0.008167,0.01393,0.005748,-0.526606,-0.042516,1.592392,-258.483767,-0.223789,68.824057
4.0767,0.027685,-0.016954,-0.041331,-0.000427,0.008168,0.01393,0.006363,-0.526715,-0.041172,1.597003,-258.483766,-0.148784,68.824057
4.0968,0.02717,-0.016898,-0.039617,-0.000459,0.008156,0.013926,0.006463,-0.526636,-0.041236,1.597003,-258.483766,-0.148784,68.824057
4.1166,0.027752,-0.01695,-0.042673,-0.000486,0.008145,0.013923,0.006971,-0.526498,-0.039617,1.596368,-258.483765,-0.073744,68.824057
4.1368,0.027412,-0.017209,-0.042342,-0.000493,0.008143,0.013924,0.006085,-0.526487,-0.042393,1.596368,-258.483765,-0.073744,68.824057
4.1568,0.027572,-0.016842,-0.042564,-0.000499,0.008141,0.013925,0.006085,-0.526487,-0.042393,1.596368,-258.483765,-0.073744,68.824057
4.1769,0.027492,-0.016997,-0.042094,-0.000504,0.008139,0.013925,0.005871,-0.52638,-0.042564,1.600005,-258.483764,0.001211,68.824057
4.1969,0.028109,-0.01702,-0.041572,-0.000501,0.00814,0.013927,0.005936,-0.526447,-0.042373,1.600005,-258.483764,0.001211,68.824057
4.2167,0.027282,-0.017123,-0.041167,-0.000498,0.008142,0.013928,0.006913,-0.52658,-0.041572,1.601063,-258.483755,0.076203,68.824056
4.2367,0.027701,-0.017066,-0.042701,-0.000512,0.008136,0.013926,0.00635,-0.52668,-0.041204,1.601063,-258.483755,0.076203,68.824056
4.2567,0.027003,-0.01726,-0.042473,-0.000524,0.008132,0.013926,0.00635,-0.52668,-0.041204,1.601063,-258.483755,0.076203,68.824056
4.2767,0.027561,-0.016762,-0.043592,-0.000534,0.008128,0.013925,0.005348,-0.526798,-0.04247,1.600713,-258.483719,0.151204,68.824055
4.2967,0.027512,-0.017126,-0.040986,-0.000492,0.008144,0.013931,0.005343,-0.526588,-0.042923,1.600713,-258.483719,0.151204,68.824055
4.3167,0.02775,-0.017045,-0.041921,-0.000458,0.008157,0.013934,0.006614,-0.526691,-0.040974,1.602866,-258.48353,0.226214,68.824048
4.3367,0.027411,-0.017052,-0.042303,-0.000483,0.008147,0.01393,0.006398,-0.526605,-0.041835,1.602866,-258.48353,0.226214,68.824048
4.3567,0.027515,-0.016683,-0.041883,-0.000504,0.008139,0.013927,0.006398,-0.526605,-0.041835,1.602866,-258.48353,0.226214,68.824048
4.3765,0.027481,-0.017083,-0.041477,-0.000522,0.008132,0.013926,0.00616,-0.526219,-0.041856,1.598247,-258.483219,0.301209,68.824037
4.3967,0.027575,-0.017077,-0.042292,-0.000531,0.008129,0.013926,0.006231,-0.526391,-0.041698,1.598247,-258.483219,0.301209,68.824037
4.4167,0.027633,-0.016578,-0.041677,-0.000539,0.008125,0.013926,0.006012,-0.526572,-0.042208,1.602133,-258.481953,0.37621,68.823988
4.4365,0.027462,-0.016879,-0.040951,-0.000556,0.008118,0.013925,0.006353,-0.526169,-0.041718,1.602133,-258.481953,0.37621,68.823988
4.4565,0.02695,-0.016714,-0.041715,-0.00057,0.008113,0.013925,0.006353,-0.526169,-0.041718,1.602133,-258.481953,0.37621,68.823988
4.4766,0.027177,-0.016695,-0.042291,-0.000582,0.008108,0.013925,0.005678,-0.526133,-0.041482,1.603206,-258.479278,0.451354,68.823882
4.497,0.027447,-0.016935,-0.042734,-0.000555,0.008119,0.01393,0.005652,-0.52616,-0.041786,1.603206,-258.479278,0.451354,68.823882
4.5168,0.027015,-0.016299,-0.041972,-0.000532,0.008127,0.013933,0.005654,-0.526284,-0.042418,1.605824,-258.474584,0.526209,68.823683
4.5367,0.026882,-0.016449,-0.040115,-0.000518,0.008133,0.014069,0.005618,-0.52588,-0.041997,1.605824,-258.474584,0.526209,68.823683
4.5567,0.027175,-0.016519,-0.041106,-0.000506,0.008137,0.014177,0.005618,-0.52588,-0.041997,1.605824,-258.474584,0.526209,68.823683
4.5766,0.026543,-0.016276,-0.040299,-0.000496,0.00814,0.014262,0.006209,-0.525795,-0.040603,1.602781,-258.468846,0.60122,68.823457
4.5964,0.026789,-0.015715,-0.041137,-0.000516,0.008131,0.014397,0.006122,-0.525788,-0.040422,1.602781,-258.468846,0.60122,68.823457
4.6165,0.026124,-0.016129,-0.041031,-0.000533,0.008124,0.014505,0.005813,-0.525191,-0.040977,1.600234,-258.466465,0.676208,68.82335
4.6366,0.026752,-0.015627,-0.039853,-0.000502,0.008134,0.014624,0.005259,-0.52565,-0.041018,1.600234,-258.466465,0.676208,68.82335
4.6565,0.026316,-0.015955,-0.040045,-0.000477,0.008143,0.014719,0.005259,-0.52565,-0.041018,1.600234,-258.466465,0.676208,68.82335
4.6769,0.026284,-0.015952,-0.04005,-0.000456,0.00815,0.014793,0.005895,-0.525438,-0.039855,1.602179,-258.464331,0.751252,68.823236
4.6971,0.026148,-0.015762,-0.038015,-0.000477,0.008141,0.014872,0.005882,-0.525468,-0.039913,1.602179,-258.464331,0.751252,68.823236
4.7165,0.026141,-0.016119,-0.03868,-0.000494,0.008133,0.014935,0.006764,-0.525355,-0.037947,1.597338,-258.463329,0.826259,68.823178
4.7367,0.026249,-0.015728,-0.041188,-0.000533,0.008117,0.014993,0.006449,-0.525701,-0.038612,1.597338,-258.463329,0.826259,68.823178
4.7565,0.026173,-0.015428,-0.041576,-0.000565,0.008103,0.01504,0.006449,-0.525701,-0.038612,1.597338,-258.463329,0.826259,68.823178
4.7765,0.026198,-0.015495,-0.039544,-0.000592,0.008091,0.015078,0.004972,-0.524892,-0.041405,1.599391,-258.461417,0.90125,68.823056
4.797,0.026071,-0.015843,-0.039636,-0.000573,0.008098,0.015136,0.005409,-0.524965,-0.04062,1.599391,-258.461417,0.90125,68.823056
4.8164,0.025972,-0.015534,-0.038166,-0.000557,0.008104,0.015182,0.005856,-0.525291,-0.039357,1.604994,-258.457364,0.97625,68.82276
4.8366,0.025882,-0.015524,-0.038906,-0.000598,0.008086,0.015253,0.006455,-0.525166,-0.038255,1.604994,-258.457364,0.97625,68.82276
4.8571,0.025971,-0.015538,-0.039014,-0.000631,0.008071,0.015311,0.006455,-0.525166,-0.038255,1.604994,-258.457364,0.97625,68.82276
4.8767,0.025846,-0.015257,-0.036399,-0.000659,0.008059,0.015358,0.006071,-0.524912,-0.038572,1.602861,-258.452518,1.051333,68.822399
4.8965,0.025576,-0.014916,-0.038841,-0.000695,0.008043,0.015442,0.006564,-0.524888,-0.037638,1.602861,-258.452518,1.051333,68.822399
4.9165,0.025212,-0.014947,-0.038259,-0.000724,0.008029,0.01551,0.005762,-0.524287,-0.038376,1.608587,-258.445875,1.107878,68.821837
4.9368,0.025652,-0.01491,-0.038324,-0.000709,0.008035,0.015625,0.005709,-0.524538,-0.038246,1.608587,-258.445875,1.107878,68.821837
4.9567,0.025524,-0.014536,-0.037736,-0.000696,0.008039,0.015716,0.005709,-0.524538,-0.038246,1.608587,-258.445875,1.107878,68.821837
4.9769,0.024657,-0.014512,-0.0367,-0.000686,0.008043,0.015789,0.006266,-0.523836,-0.037088,1.61214,-258.438887,1.105921,68.821193
4.9969,0.025262,-0.014286,-0.037216,-0.000716,0.008028,0.015888,0.006133,-0.523933,-0.036856,1.61214,-258.438887,1.105921,68.821193
5.0167,0.024521,-0.013876,-0.037129,-0.000741,0.008015,0.015968,0.006274,-0.523691,-0.036741,1.609566,-258.432203,1.165786,68.820535
5.037,0.024618,-0.01401,-0.036273,-0.000742,0.008013,0.016058,0.00565,-0.523527,-0.03707,1.609566,-258.432203,1.165786,68.820535
5.0569,0.02476,-0.013748,-0.036986,-0.000743,0.008011,0.01613,0.00565,-0.523527,-0.03707,1.609566,-258.432203,1.165786,68.820535
5.0765,0.02436,-0.013304,-0.034979,-0.000744,0.008009,0.016188,0.005883,-0.523062,-0.036317,1.612459,-258.42509,1.167708,68.81978
5.0966,0.023934,-0.01329,-0.035797,-0.000788,0.007986,0.016246,0.006141,-0.522995,-0.035698,1.612459,-258.42509,1.167708,68.81978
5.1168,0.023206,-0.012736,-0.034819,-0.000824,0.007968,0.016294,0.005667,-0.52271,-0.035285,1.612352,-258.417984,1.193525,68.818979
5.1366,0.023446,-0.012838,-0.034219,-0.000826,0.007964,0.016384,0.005469,-0.522439,-0.034834,1.612352,-258.417984,1.193525,68.818979
5.1569,0.023438,-0.013265,-0.035642,-0.000827,0.007961,0.016455,0.005469,-0.522439,-0.034834,1.612352,-258.417984,1.193525,68.818979
5.1773,0.023166,-0.012564,-0.033618,-0.000828,0.007959,0.016513,0.005242,-0.522609,-0.034963,1.616763,-258.41086,1.177081,68.818125
5.1966,0.023149,-0.012597,-0.034208,-0.000835,0.007954,0.016602,0.005554,-0.522437,-0.034345,1.616763,-258.41086,1.177081,68.818125
5.2169,0.0226,-0.012009,-0.033775,-0.000841,0.007949,0.016674,0.005688,-0.522047,-0.033686,1.616661,-258.40368,1.199437,68.817218
5.2366,0.022709,-0.012798,-0.032679,-0.000857,0.007939,0.016779,0.005404,-0.521734,-0.033742,1.616661,-258.40368,1.199437,68.817218
5.2566,0.022991,-0.012101,-0.034622,-0.000869,0.00793,0.016865,0.005404,-0.521734,-0.033742,1.616661,-258.40368,1.199437,68.817218
5.277,0.022285,-0.011924,-0.03099,-0.000879,0.007923,0.016936,0.005314,-0.521462,-0.033925,1.617156,-258.39643,1.210667,68.816265
5.2964,0.022459,-0.011897,-0.032231,-0.000922,0.007899,0.017026,0.005789,-0.521513,-0.032644,1.617156,-258.39643,1.210667,68.816265
5.3165,0.02217,-0.011579,-0.032389,-0.000957,0.00788,0.017101,0.006004,-0.521381,-0.031695,1.618907,-258.389148,1.222287,68.815239
5.3366,0.021668,-0.011424,-0.031548,-0.000985,0.007864,0.017188,0.005685,-0.521305,-0.032298,1.618907,-258.389148,1.222287,68.815239
5.3565,0.02199,-0.011408,-0.03183,-0.001009,0.00785,0.017259,0.005685,-0.521305,-0.032298,1.618907,-258.389148,1.222287,68.815239
5.3766,0.021394,-0.010988,-0.03075,-0.001028,0.007839,0.017317,0.00573,-0.520819,-0.031114,1.622963,-258.381779,1.213662,68.81414
5.3966,0.021458,-0.010832,-0.031055,-0.001064,0.007817,0.017384,0.005719,-0.52075,-0.030878,1.622963,-258.381779,1.213662,68.81414
5.4166,0.021073,-0.010724,-0.028904,-0.001094,0.007799,0.017439,0.005598,-0.520338,-0.030507,1.626546,-258.374442,1.211636,68.812977
5.4377,0.021027,-0.01015,-0.029631,-0.001165,0.007758,0.017487,0.006266,-0.520483,-0.029021,1.626546,-258.374442,1.211636,68.812977
5.4566,0.021478,-0.010478,-0.030524,-0.001224,0.007723,0.017528,0.006266,-0.520483,-0.029021,1.626546,-258.374442,1.211636,68.812977
5.4769,0.020353,-0.010013,-0.02984,-0.001272,0.007695,0.017562,0.005877,-0.519913,-0.029795,1.630019,-258.367057,1.204478,68.811756
5.4966,0.020368,-0.01014,-0.028242,-0.001287,0.007683,0.017603,0.005571,-0.519823,-0.02973,1.630019,-258.367057,1.204478,68.811756
5.5162,0.020007,-0.009604,-0.028593,-0.001299,0.007674,0.017637,0.005934,-0.519695,-0.027692,1.639729,-258.359794,1.173459,68.810464
5.5364,0.019928,-0.009869,-0.028588,-0.001317,0.007659,0.017673,0.005471,-0.51941,-0.028484,1.639729,-258.359794,1.173459,68.810464
5.5565,0.019782,-0.009868,-0.028453,-0.001331,0.007647,0.017703,0.005471,-0.51941,-0.028484,1.639729,-258.359794,1.173459,68.810464
5.5763,0.019713,-0.009408,-0.027631,-0.001343,0.007637,0.017727,0.005228,-0.519339,-0.027714,1.641092,-258.35239,1.173844,68.809119
5.5965,0.019304,-0.009164,-0.027677,-0.001351,0.007628,0.017753,0.005385,-0.51925,-0.027595,1.641092,-258.35239,1.173844,68.809119
5.6162,0.018922,-0.008727,-0.027691,-0.001358,0.007621,0.017775,0.005155,-0.518725,-0.027113,1.643393,-258.344981,1.172363,68.807733
5.6369,0.018541,-0.009242,-0.027194,-0.001341,0.007622,0.017806,0.00483,-0.518536,-0.027614,1.643393,-258.344981,1.172363,68.807733
5.6569,0.018933,-0.009541,-0.028522,-0.001327,0.007622,0.01783,0.00483,-0.518536,-0.027614,1.643393,-258.344981,1.172363,68.807733
5.6763,0.018439,-0.008669,-0.024706,-0.001316,0.007621,0.01785,0.004341,-0.519014,-0.027779,1.644157,-258.337584,1.173329,68.806333
5.6967,0.018663,-0.00853,-0.024558,-0.001306,0.007624,0.017869,0.004945,-0.518774,-0.026445,1.644157,-258.337584,1.173329,68.806333
5.7167,0.017826,-0.008593,-0.024229,-0.001297,0.007625,0.017884,0.006103,-0.518133,-0.023992,1.641738,-258.330177,1.189224,68.804923
5.7365,0.018098,-0.008265,-0.02431,-0.001356,0.007587,0.017893,0.005524,-0.518404,-0.02418,1.641738,-258.330177,1.189224,68.804923
5.7566,0.017986,-0.008452,-0.024913,-0.001403,0.007556,0.017901,0.005524,-0.518404,-0.02418,1.641738,-258.330177,1.189224,68.804923
5.7768,0.017448,-0.007586,-0.022953,-0.001442,0.007531,0.017909,0.005236,-0.517973,-0.024165,1.640618,-258.322745,1.195999,68.803507
5.7967,0.017622,-0.007691,-0.025204,-0.0015,0.007488,0.017921,0.005437,-0.517724,-0.023584,1.640618,-258.322745,1.195999,68.803507
5.8164,0.016548,-0.007544,-0.02348,-0.001546,0.007453,0.017933,0.00473,-0.517289,-0.024636,1.648712,-258.31542,1.170392,68.802044
5.8368,0.017202,-0.007531,-0.022742,-0.001517,0.007457,0.017959,0.004586,-0.517381,-0.023555,1.648712,-258.31542,1.170392,68.802044
5.8565,0.016921,-0.007586,-0.021757,-0.001494,0.007459,0.01798,0.004586,-0.517381,-0.023555,1.648712,-258.31542,1.170392,68.802044
5.8764,0.016498,-0.00699,-0.021814,-0.001475,0.00746,0.017997,0.005769,-0.517154,-0.02101,1.654587,-258.308075,1.154765,68.800523
5.8966,0.01635,-0.007076,-0.022354,-0.001577,0.007386,0.017995,0.005602,-0.517002,-0.02125,1.654587,-258.308075,1.154765,68.800523
5.9162,0.015666,-0.007067,-0.021317,-0.001659,0.007326,0.017995,0.004909,-0.516712,-0.021784,1.650576,-258.300711,1.175105,68.799
5.9366,0.015556,-0.006506,-0.021714,-0.001652,0.007321,0.018014,0.004803,-0.516919,-0.02133,1.650576,-258.300711,1.175105,68.799
5.9565,0.01558,-0.007107,-0.02056,-0.001646,0.007316,0.018029,0.004803,-0.516919,-0.02133,1.650576,-258.300711,1.175105,68.799
5.9767,0.015573,-0.00617,-0.020156,-0.001641,0.007312,0.018041,0.005032,-0.516696,-0.019818,1.661144,-258.29347,1.145575,68.797416
5.9971,0.015296,-0.006279,-0.021569,-0.0017,0.007261,0.018045,0.005131,-0.516405,-0.01987,1.661144,-258.29347,1.145575,68.797416
6.0163,0.014692,-0.005857,-0.018072,-0.001747,0.007219,0.01805,0.004249,-0.515925,-0.020991,1.660099,-258.286126,1.153933,68.795799
6.0369,0.014957,-0.005918,-0.018441,-0.001847,0.007128,0.018049,0.005361,-0.515775,-0.018309,1.660099,-258.286126,1.153933,68.795799
6.0565,0.01476,-0.005791,-0.01924,-0.001926,0.007054,0.018051,0.005361,-0.515775,-0.018309,1.660099,-258.286126,1.153933,68.795799
6.0768,0.014514,-0.005596,-0.018403,-0.001989,0.006996,0.018054,0.004881,-0.515394,-0.018486,1.666275,-258.278822,1.140328,68.79413
6.0969,0.014308,-0.00544,-0.019306,-0.002023,0.006944,0.018069,0.004973,-0.515406,-0.018366,1.666275,-258.278822,1.140328,68.79413
6.1167,0.013449,-0.004987,-0.017851,-0.002049,0.006903,0.018081,0.004404,-0.515123,-0.018739,1.680721,-258.271683,1.112398,68.79236
6.1367,0.013749,-0.004827,-0.017074,-0.002028,0.006868,0.018105,0.004348,-0.514914,-0.017903,1.680721,-258.271683,1.112398,68.79236
6.1572,0.013656,-0.004758,-0.018783,-0.002009,0.006839,0.018124,0.004348,-0.514914,-0.017903,1.680721,-258.271683,1.112398,68.79236
6.177,0.013209,-0.004846,-0.015721,-0.001994,0.006814,0.018139,0.003996,-0.514376,-0.018023,1.684505,-258.264461,1.111157,68.790513
6.1967,0.013231,-0.004931,-0.01747,-0.002026,0.006744,0.018142,0.004466,-0.514506,-0.017014,1.684505,-258.264461,1.111157,68.790513
6.2163,0.013098,-0.004548,-0.015558,-0.00205,0.006688,0.018146,0.004262,-0.514637,-0.016896,1.68177,-258.257316,1.133401,68.788645
6.2366,0.012579,-0.005014,-0.015228,-0.002143,0.0066,0.018108,0.00508,-0.514489,-0.015649,1.68177,-258.257316,1.133401,68.788645
6.2568,0.012179,-0.00469,-0.015083,-0.002216,0.006531,0.018082,0.00508,-0.514489,-0.015649,1.68177,-258.257316,1.133401,68.788645
6.2775,0.011904,-0.004455,-0.015023,-0.002273,0.006476,0.018063,0.004405,-0.514351,-0.014324,1.685658,-258.250163,1.13434,68.786706
6.2969,0.012096,-0.004366,-0.016468,-0.00224,0.006471,0.018024,0.004331,-0.514337,-0.014515,1.685658,-258.250163,1.13434,68.786706
6.3164,0.011609,-0.004226,-0.013644,-0.002213,0.006466,0.017995,0.00363,-0.514092,-0.0159,1.699899,-258.243201,1.10805,68.784698
6.3366,0.011391,-0.004058,-0.01326,-0.002238,0.006426,0.017927,0.004555,-0.514161,-0.013819,1.699899,-258.243201,1.10805,68.784698
6.3565,0.011631,-0.003608,-0.012806,-0.002256,0.006393,0.017876,0.004555,-0.514161,-0.013819,1.699899,-258.243201,1.10805,68.784698
6.3768,0.010944,-0.003225,-0.013312,-0.00227,0.006366,0.017839,0.005011,-0.513295,-0.012052,1.696887,-258.236171,1.115963,68.782686
6.3967,0.010675,-0.003513,-0.012379,-0.002376,0.006212,0.017692,0.004654,-0.513217,-0.012477,1.696887,-258.236171,1.115963,68.782686
6.4167,0.010524,-0.003299,-0.012578,-0.002456,0.00609,0.017585,0.004292,-0.513271,-0.011812,1.701579,-258.229208,1.106056,68.78066
6.4367,0.010383,-0.003341,-0.010761,-0.002441,0.006035,0.017524,0.004122,-0.513249,-0.012484,1.701579,-258.229208,1.106056,68.78066
6.4567,0.010805,-0.003081,-0.011972,-0.002428,0.00599,0.017479,0.004122,-0.513249,-0.012484,1.701579,-258.229208,1.106056,68.78066
6.4772,0.009323,-0.002855,-0.011389,-0.002417,0.005953,0.017447,0.004601,-0.512792,-0.011244,1.715716,-258.222487,1.084885,68.778581
6.4968,0.009698,-0.003034,-0.012331,-0.00246,0.005851,0.017269,0.00415,-0.512775,-0.011219,1.715716,-258.222487,1.084885,68.778581
6.5167,0.009164,-0.002443,-0.010942,-0.002491,0.00577,0.017141,0.003334,-0.512804,-0.011771,1.715313,-258.215787,1.096067,68.77647
6.5368,0.009329,-0.002443,-0.010994,-0.002445,0.005679,0.017027,0.003557,-0.512438,-0.01099,1.715313,-258.215787,1.096067,68.77647
6.5567,0.008995,-0.002953,-0.011321,-0.002407,0.005606,0.016945,0.003557,-0.512438,-0.01099,1.715313,-258.215787,1.096067,68.77647
6.5767,0.008303,-0.002184,-0.011366,-0.002376,0.005546,0.016886,0.00312,-0.512678,-0.010605,1.722984,-258.209237,1.083444,68.77435
6.5967,0.008817,-0.002418,-0.009387,-0.002207,0.005545,0.016837,0.002858,-0.512435,-0.010833,1.722984,-258.209237,1.083444,68.77435
6.6165,0.008131,-0.001825,-0.007783,-0.002077,0.00554,0.016799,0.003956,-0.51222,-0.008855,1.719522,-258.202887,1.108406,68.772241
6.6367,0.007613,-0.002204,-0.008694,-0.002266,0.00537,0.016113,0.004139,-0.511837,-0.007851,1.719522,-258.202887,1.108406,68.772241
6.6566,0.007991,-0.001803,-0.009025,-0.002414,0.005232,0.015649,0.004139,-0.511837,-0.007851,1.719522,-258.202887,1.108406,68.772241
6.6766,0.007683,-0.001893,-0.006969,-0.002529,0.005121,0.015338,0.003307,-0.51156,-0.008351,1.701519,-258.196774,1.15626,68.770262
6.6966,0.007833,-0.001518,-0.009772,-0.002552,0.005019,0.015105,0.00363,-0.511664,-0.007714,1.701519,-258.196774,1.15626,68.770262
6.7165,0.00695,-0.001279,-0.006364,-0.002568,0.004936,0.014953,0.002791,-0.51137,-0.009397,1.743588,-258.19228,1.081269,68.768752
6.7367,0.007504,-0.001571,-0.005559,-0.002608,0.004793,0.01453,0.00362,-0.511271,-0.006613,1.743588,-258.19228,1.081269,68.768752
6.7569,0.007162,-0.001403,-0.006339,-0.002638,0.004676,0.01425,0.00362,-0.511271,-0.006613,1.743588,-258.19228,1.081269,68.768752
6.7767,0.007023,-0.001853,-0.007014,-0.00266,0.004582,0.014068,0.003929,-0.511393,-0.006339,1.668595,-258.19228,1.021603,68.768752
6.7965,0.007404,-0.001188,-0.007142,-0.002671,0.004581,0.013929,0.003738,-0.51157,-0.006606,1.668595,-258.19228,1.021603,68.768752
6.8166,0.007307,-0.001387,-0.008616,-0.002681,0.004577,0.013835,0.003761,-0.511175,-0.007142,1.593639,-258.192281,0.985213,68.768751
6.8369,0.007611,-0.001612,-0.007702,-0.002547,0.004526,0.014198,0.002988,-0.511351,-0.008485,1.593639,-258.192281,0.985213,68.768751
6.8566,0.007393,-0.001572,-0.006257,-0.002443,0.004487,0.014454,0.002988,-0.511351,-0.008485,1.593639,-258.192281,0.985213,68.768751
6.8767,0.007332,-0.001319,-0.008327,-0.002363,0.004457,0.014632,0.004202,-0.511562,-0.006257,1.518582,-258.192281,0.965329,68.768751
6.8968,0.007396,-0.001091,-0.005666,-0.002439,0.004454,0.014392,0.003749,-0.511456,-0.007098,1.518582,-258.192281,0.965329,68.768751
6.9162,0.00714,-0.001658,-0.005916,-0.002499,0.00445,0.014216,0.004507,-0.511083,-0.005666,1.443637,-258.192282,1.040273,68.768751
6.9366,0.007385,-0.001439,-0.005437,-0.002595,0.004486,0.013703,0.004158,-0.511598,-0.005893,1.443637,-258.192282,1.040273,68.768751
6.9566,0.00739,-0.001646,-0.008222,-0.002674,0.004512,0.013347,0.004158,-0.511598,-0.005893,1.443637,-258.192282,1.040273,68.768751
6.9769,0.007142,-0.001302,-0.008967,-0.002737,0.00453,0.0131,0.003197,-0.511628,-0.008222,1.368637,-258.192282,1.037394,68.768751
6.9969,0.007121,-0.001464,-0.006131,-0.00256,0.004542,0.01352,0.002936,-0.511484,-0.008531,1.368637,-258.192282,1.037394,68.768751
7.0162,0.007283,-0.001812,-0.007152,-0.002427,0.004552,0.013814,0.003994,-0.511455,-0.006131,1.293359,-258.192283,0.962116,68.768751
7.0369,0.007248,-0.001771,-0.006281,-0.002455,0.004611,0.013656,0.003668,-0.511768,-0.007061,1.293359,-258.192283,0.962116,68.768751
7.0566,0.006997,-0.001822,-0.007191,-0.002479,0.004659,0.013533,0.003668,-0.511768,-0.007061,1.293359,-258.192283,0.962116,68.768751
7.0773,0.007353,-0.001771,-0.005755,-0.0025,0.004697,0.013437,0.00333,-0.511809,-0.007191,1.218633,-258.192283,1.012509,68.768751
7.0969,0.00733,-0.001593,-0.006947,-0.00253,0.004739,0.013202,0.00377,-0.51179,-0.00661,1.218633,-258.192283,1.012509,68.768751
7.1172,0.007685,-0.00162,-0.0067,-0.002555,0.004772,0.013028,0.003787,-0.511581,-0.006947,1.143533,-258.192284,0.951944,68.76875
7.1366,0.007315,-0.00132,-0.008055,-0.002646,0.004745,0.012859,0.004223,-0.511606,-0.006723,1.143533,-258.192284,0.951944,68.76875
7.1573,0.007023,-0.001164,-0.007154,-0.002718,0.004725,0.01273,0.004223,-0.511606,-0.006723,1.143533,-258.192284,0.951944,68.76875
7.177,0.007258,-0.001943,-0.006847,-0.002775,0.004711,0.012631,0.003375,-0.511151,-0.007154,1.068617,-258.192284,0.894734,68.76875
7.1968,0.007521,-0.001655,-0.008836,-0.002723,0.0047,0.012577,0.003531,-0.511462,-0.007031,1.068617,-258.192284,0.894734,68.76875
7.2169,0.007317,-0.001565,-0.007995,-0.002683,0.004692,0.012526,0.003014,-0.511635,-0.008836,0.993604,-258.192285,0.824879,68.76875
7.2365,0.007298,-0.001433,-0.008671,-0.002578,0.004708,0.012614,0.003219,-0.511557,-0.008071,0.993604,-258.192285,0.824879,68.76875
7.2566,0.00745,-0.001119,-0.006063,-0.002498,0.004722,0.012658,0.003219,-0.511557,-0.008071,0.993604,-258.192285,0.824879,68.76875
7.2772,0.007124,-0.001695,-0.007296,-0.002436,0.004733,0.012675,0.004357,-0.51111,-0.006063,0.918615,-258.192285,0.834249,68.76875
7.2971,0.007318,-0.001558,-0.008914,-0.002537,0.004677,0.012357,0.003971,-0.511341,-0.006563,0.918615,-258.192285,0.834249,68.76875
7.317,0.007436,-0.002,-0.007241,-0.002615,0.004634,0.012135,0.002771,-0.511538,-0.008914,0.843627,-258.192285,0.890174,68.76875
7.3371,0.00717,-0.001262,-0.009029,-0.002574,0.004733,0.012165,0.003655,-0.511946,-0.007393,0.843627,-258.192285,0.890174,68.76875
7.3567,0.007541,-0.001558,-0.006879,-0.002544,0.004811,0.012182,0.003655,-0.511946,-0.007393,0.843627,-258.192285,0.890174,68.76875
7.3768,0.007229,-0.001606,-0.006148,-0.002522,0.004873,0.012189,0.004033,-0.511545,-0.006879,0.768631,-258.192286,0.815577,68.76875
7.3967,0.007287,-0.001516,-0.006307,-0.002603,0.004832,0.012006,0.004058,-0.511567,-0.006579,0.768631,-258.192286,0.815577,68.76875
7.4164,0.007061,-0.001226,-0.007825,-0.002666,0.004801,0.011882,0.00407,-0.511506,-0.006307,0.693554,-258.192286,0.795049,68.768749
7.4366,0.007438,-0.001516,-0.005632,-0.002581,0.004724,0.012038,0.00316,-0.511237,-0.007689,0.693554,-258.192286,0.795049,68.768749
7.4569,0.007177,-0.00144,-0.006159,-0.002514,0.004664,0.012144,0.00316,-0.511237,-0.007689,0.693554,-258.192286,0.795049,68.768749
7.4771,0.00702,-0.001645,-0.007406,-0.002462,0.004619,0.012215,0.004036,-0.511431,-0.006159,0.618611,-258.192287,0.744534,68.768749
7.4974,0.007049,-0.001749,-0.006633,-0.002502,0.004639,0.012045,0.003713,-0.511512,-0.006667,0.618611,-258.192287,0.744534,68.768749
7.5165,0.007111,-0.001642,-0.006707,-0.002534,0.004653,0.01193,0.003666,-0.511738,-0.006633,0.543653,-258.192287,0.819492,68.768749
7.5367,0.006811,-0.001656,-0.008054,-0.002544,0.004693,0.011861,0.003688,-0.51164,-0.006701,0.543653,-258.192287,0.819492,68.768749
7.5566,0.007368,-0.001841,-0.007561,-0.002553,0.004724,0.011815,0.003688,-0.51164,-0.006701,0.543653,-258.192287,0.819492,68.768749
7.5765,0.007076,-0.001607,-0.007305,-0.002561,0.004748,0.011785,0.003512,-0.511826,-0.007561,0.468613,-258.192288,0.804566,68.768749
7.5968,0.007401,-0.001286,-0.006952,-0.002515,0.004788,0.011922,0.003446,-0.511731,-0.007456,0.468613,-258.192288,0.804566,68.768749
7.6164,0.007214,-0.001499,-0.006353,-0.00248,0.004819,0.012016,0.003855,-0.511274,-0.006952,0.393639,-258.192288,0.763321,68.768749
7.6371,0.007463,-0.002044,-0.009196,-0.002563,0.004776,0.011845,0.003964,-0.51147,-0.006404,0.393639,-258.192288,0.763321,68.768749
7.657,0.007372,-0.001593,-0.008517,-0.002627,0.004741,0.01173,0.003964,-0.51147,-0.006404,0.393639,-258.192288,0.763321,68.768749
7.6769,0.007095,-0.001709,-0.008147,-0.002677,0.004714,0.011654,0.003029,-0.511575,-0.008517,0.318526,-258.192289,0.793223,68.768749
7.6963,0.007245,-0.001795,-0.005959,-0.002516,0.004752,0.011988,0.002993,-0.511622,-0.008367,0.318526,-258.192289,0.793223,68.768749
7.7166,0.006944,-0.001445,-0.006899,-0.002393,0.004781,0.012222,0.004206,-0.511786,-0.005959,0.243629,-258.192289,0.731713,68.768749
7.7363,0.007452,-0.001464,-0.007565,-0.002417,0.004762,0.012092,0.003484,-0.511459,-0.006829,0.243629,-258.192289,0.731713,68.768749
7.7564,0.006981,-0.001351,-0.007847,-0.002435,0.004746,0.012002,0.003484,-0.511459,-0.006829,0.243629,-258.192289,0.731713,68.768749
7.7771,0.007227,-0.001182,-0.00774,-0.002448,0.004733,0.011941,0.002978,-0.511335,-0.007847,0.168187,-258.19229,0.807155,68.768749
7.7966,0.007471,-0.001744,-0.006885,-0.002395,0.004679,0.012092,0.0031,-0.511267,-0.007804,0.168187,-258.19229,0.807155,68.768749
7.8163,0.006885,-0.001877,-0.006907,-0.002354,0.004638,0.012195,0.00396,-0.511732,-0.006885,0.093597,-258.19229,0.807636,68.768748
7.8365,0.007311,-0.001488,-0.007457,-0.002337,0.00474,0.01209,0.003414,-0.511853,-0.006905,0.093597,-258.19229,0.807636,68.768748
7.8569,0.007441,-0.001573,-0.008655,-0.002326,0.004819,0.012017,0.003414,-0.511853,-0.006905,0.093597,-258.19229,0.807636,68.768748
7.8768,0.007152,-0.001789,-0.006566,-0.002319,0.00488,0.011967,0.003027,-0.511554,-0.008655,0.01858,-258.192291,0.873575,68.768748
7.8966,0.006871,-0.001646,-0.007961,-0.002315,0.004872,0.012101,0.003343,-0.511645,-0.007804,0.01858,-258.192291,0.873575,68.768748
7.9167,0.007275,-0.001523,-0.005746,-0.002312,0.004867,0.012194,0.002811,-0.51163,-0.007961,-0.056362,-258.192291,0.808471,68.768748
7.9368,0.00759,-0.001554,-0.007021,-0.002458,0.00482,0.011822,0.004216,-0.511524,-0.005931,-0.056362,-258.192291,0.808471,68.768748
7.9566,0.007223,-0.001238,-0.006976,-0.002574,0.004783,0.011577,0.004216,-0.511524,-0.005931,-0.056362,-258.192291,0.808471,68.768748
7.9773,0.006818,-0.00207,-0.007736,-0.002666,0.004752,0.011418,0.003665,-0.511225,-0.006976,-0.131547,-258.192292,0.84032,68.768748
7.9968,0.00723,-0.00152,-0.007645,-0.002591,0.004761,0.011636,0.003344,-0.511562,-0.007285,-0.131547,-258.192292,0.84032,68.768748
8.0166,0.007204,-0.001812,-0.008217,-0.002534,0.004768,0.011789,0.003331,-0.511505,-0.007645,-0.206485,-258.192292,0.765381,68.768748
8.0367,0.007327,-0.001446,-0.007009,-0.002407,0.004827,0.012052,0.003041,-0.511769,-0.008167,-0.206485,-258.192292,0.765381,68.768748
8.0571,0.006972,-0.001442,-0.007473,-0.00231,0.004873,0.012234,0.003041,-0.511769,-0.008167,-0.206485,-258.192292,0.765381,68.768748
8.0764,0.006991,-0.001455,-0.007978,-0.002236,0.00491,0.012358,0.003161,-0.511427,-0.007473,-0.281461,-258.192292,0.764892,68.768748
8.0966,0.007355,-0.0013,-0.007206,-0.002216,0.004863,0.012355,0.003064,-0.511432,-0.007677,-0.281461,-258.192292,0.764892,68.768748
8.1167,0.007378,-0.001653,-0.007151,-0.002199,0.004828,0.01235,0.00368,-0.511287,-0.007206,-0.356304,-258.192293,0.839735,68.768748
8.1366,0.007224,-0.001522,-0.009921,-0.00229,0.004814,0.012229,0.003727,-0.511608,-0.007156,-0.356304,-258.192293,0.839735,68.768748
8.1568,0.006904,-0.001374,-0.007481,-0.002361,0.004804,0.012147,0.003727,-0.511608,-0.007156,-0.356304,-258.192293,0.839735,68.768748
8.1766,0.007301,-0.001902,-0.006804,-0.002417,0.004796,0.01209,0.003089,-0.51136,-0.007481,-0.43136,-258.192293,0.889871,68.768748
8.1967,0.006989,-0.001624,-0.008586,-0.002407,0.004802,0.01207,0.003392,-0.511576,-0.007205,-0.43136,-258.192293,0.889871,68.768748
8.2165,0.006902,-0.00169,-0.006648,-0.0024,0.004806,0.012057,0.00261,-0.511605,-0.008586,-0.506362,-258.192294,0.819582,68.768747
8.2364,0.006981,-0.001626,-0.008558,-0.002395,0.004835,0.011969,0.003431,-0.511672,-0.006821,-0.506362,-258.192294,0.819582,68.768747
8.2564,0.006928,-0.00167,-0.008223,-0.002392,0.004856,0.011911,0.003431,-0.511672,-0.006821,-0.506362,-258.192294,0.819582,68.768747
8.2767,0.00676,-0.001624,-0.006511,-0.002391,0.004872,0.011872,0.002735,-0.511652,-0.008223,-0.58136,-258.192294,0.817422,68.768747
8.2966,0.007759,-0.001436,-0.007277,-0.00231,0.004888,0.011994,0.00302,-0.511637,-0.00753,-0.58136,-258.192294,0.817422,68.768747
8.3166,0.006994,-0.001334,-0.006416,-0.002248,0.004901,0.012079,0.004048,-0.511422,-0.007277,-0.656362,-258.192295,0.782897,68.768747
8.3366,0.007191,-0.001719,-0.007709,-0.002359,0.004816,0.011901,0.003752,-0.511333,-0.006495,-0.656362,-258.192295,0.782897,68.768747
8.3566,0.007201,-0.001512,-0.007086,-0.002445,0.00475,0.011782,0.003752,-0.511333,-0.006495,-0.656362,-258.192295,0.782897,68.768747
8.3765,0.007272,-0.001738,-0.007928,-0.002511,0.004699,0.011705,0.003587,-0.511499,-0.007086,-0.731354,-258.192296,0.83372,68.768747
8.3966,0.007086,-0.001459,-0.008531,-0.002485,0.004719,0.011856,0.003441,-0.511591,-0.007431,-0.731354,-258.192296,0.83372,68.768747
8.4164,0.007355,-0.001654,-0.008021,-0.002465,0.004735,0.011961,0.002735,-0.51144,-0.00853,-0.806461,-258.192301,0.773142,68.768745
8.4365,0.007024,-0.001613,-0.007339,-0.002402,0.004759,0.012148,0.003217,-0.51162,-0.008067,-0.806461,-258.192301,0.773142,68.768745
8.4568,0.007422,-0.001642,-0.006412,-0.002354,0.004778,0.012276,0.003217,-0.51162,-0.008067,-0.806461,-258.192301,0.773142,68.768745
8.4769,0.007401,-0.001656,-0.007786,-0.002317,0.004794,0.012363,0.004151,-0.511631,-0.00641,-0.881359,-258.192324,0.806285,68.768739
8.4969,0.007218,-0.001611,-0.008526,-0.0024,0.00479,0.012201,0.003856,-0.511635,-0.006972,-0.881359,-258.192324,0.806285,68.768739
8.5166,0.007115,-0.001683,-0.006863,-0.002466,0.004787,0.01209,0.002867,-0.511591,-0.008522,-0.956449,-258.192392,0.871925,68.768719
8.5371,0.006733,-0.001368,-0.007907,-0.002467,0.004809,0.01203,0.00355,-0.511664,-0.007007,-0.956449,-258.192392,0.871925,68.768719
8.5568,0.007142,-0.001373,-0.007235,-0.002469,0.004826,0.01199,0.00355,-0.511664,-0.007007,-0.956449,-258.192392,0.871925,68.768719
8.5765,0.007067,-0.001789,-0.007824,-0.00247,0.004838,0.011963,0.003442,-0.51135,-0.00721,-1.031463,-258.192668,0.811104,68.76864
8.5968,0.007225,-0.001246,-0.0069,-0.002435,0.004822,0.012038,0.003292,-0.511522,-0.007458,-1.031463,-258.192668,0.811104,68.76864
8.6162,0.006975,-0.001653,-0.008375,-0.002407,0.004809,0.012089,0.003686,-0.511213,-0.006846,-1.106352,-258.193422,0.785046,68.768427
8.6363,0.007151,-0.001346,-0.007166,-0.00227,0.004835,0.012267,0.002792,-0.511595,-0.008233,-1.106352,-258.193422,0.785046,68.768427
8.6565,0.007029,-0.000877,-0.008291,-0.002166,0.004854,0.012388,0.002792,-0.511595,-0.008233,-1.106352,-258.193422,0.785046,68.768427
8.6765,0.006965,-0.00125,-0.005777,-0.002086,0.00487,0.01247,0.002756,-0.510802,-0.008145,-1.181358,-258.194928,0.818984,68.768
8.6964,0.007017,-0.001548,-0.006717,-0.002173,0.004713,0.012312,0.003269,-0.510976,-0.007156,-1.181358,-258.194928,0.818984,68.768
8.7164,0.007119,-0.001459,-0.007633,-0.002237,0.004591,0.012204,0.003555,-0.511481,-0.006573,-1.256454,-258.196831,0.89408,68.767482
8.7365,0.006936,-0.00123,-0.005244,-0.002246,0.004613,0.012257,0.003255,-0.511445,-0.007529,-1.256454,-258.196831,0.89408,68.767482
8.7566,0.006595,-0.001418,-0.007228,-0.002253,0.004629,0.012299,0.003255,-0.511445,-0.007529,-1.256454,-258.196831,0.89408,68.767482
8.7768,0.006657,-0.0013,-0.007606,-0.002259,0.004642,0.012333,0.002828,-0.51126,-0.006844,-1.331363,-258.200546,0.907363,68.76638
8.7966,0.006582,-0.00107,-0.005745,-0.002188,0.004635,0.012322,0.002799,-0.511253,-0.007105,-1.331363,-258.200546,0.907363,68.76638
8.8166,0.006451,-0.000766,-0.005998,-0.002134,0.004627,0.012322,0.003584,-0.51092,-0.005371,-1.387328,-258.205256,0.907504,68.764984
8.8367,0.005592,-0.001255,-0.006266,-0.002252,0.004467,0.01205,0.003406,-0.510764,-0.005922,-1.387328,-258.205256,0.907504,68.764984
8.8567,0.005947,-0.000761,-0.005241,-0.002342,0.004341,0.011883,0.003406,-0.510764,-0.005922,-1.387328,-258.205256,0.907504,68.764984
8.8767,0.005997,-0.000825,-0.004128,-0.002411,0.004241,0.011784,0.003186,-0.510563,-0.004732,-1.396984,-258.210128,0.936143,68.763563
8.8965,0.005422,-0.000655,-0.004782,-0.002482,0.004155,0.011271,0.003466,-0.510646,-0.004426,-1.396984,-258.210128,0.936143,68.763563
8.9163,0.00525,-0.000463,-0.003813,-0.002538,0.004082,0.010953,0.002911,-0.510521,-0.004428,-1.363069,-258.214535,0.886705,68.762125
8.9365,0.005381,-0.000435,-0.0042,-0.002547,0.003982,0.010564,0.003267,-0.510458,-0.00385,-1.363069,-258.214535,0.886705,68.762125
8.9566,0.005423,-0.000962,-0.004059,-0.002554,0.003898,0.01033,0.003267,-0.510458,-0.00385,-1.363069,-258.214535,0.886705,68.762125
8.9765,0.005009,-0.000431,-0.004388,-0.00256,0.003828,0.010197,0.003261,-0.510808,-0.003656,-1.339411,-258.218412,0.811813,68.76085
8.9968,0.004667,-0.000395,-0.003351,-0.002509,0.003821,0.010167,0.003051,-0.510636,-0.003907,-1.339411,-258.218412,0.811813,68.76085
9.0165,0.004424,3.6e-05,-0.003107,-0.002471,0.003812,0.010166,0.002882,-0.510277,-0.003046,-1.321557,-258.222323,0.753173,68.759528
9.0367,0.004641,1.8e-05,-0.004285,-0.002424,0.003615,0.009832,0.00284,-0.509984,-0.003086,-1.321557,-258.222323,0.753173,68.759528
9.0567,0.004474,-0.000178,-0.003637,-0.002386,0.003458,0.009626,0.00284,-0.509984,-0.003086,-1.321557,-258.222323,0.753173,68.759528
9.0769,0.004131,0.000277,-0.003007,-0.002356,0.003333,0.009504,0.002517,-0.510015,-0.003214,-1.329033,-258.226431,0.770284,68.758158
9.0966,0.004323,4.1e-05,-0.002768,-0.00226,0.003192,0.009444,0.002538,-0.509877,-0.003081,-1.329033,-258.226431,0.770284,68.758158
9.1165,0.003771,0.000494,-0.001693,-0.002186,0.00308,0.009417,0.002839,-0.509854,-0.002473,-1.318457,-258.230133,0.809314,68.756818
9.1369,0.003563,0.000239,-0.003851,-0.002213,0.002908,0.008691,0.002899,-0.509525,-0.001735,-1.318457,-258.230133,0.809314,68.756818
9.1568,0.003703,4.7e-05,-0.001809,-0.002234,0.002769,0.008212,0.002899,-0.509525,-0.001735,-1.318457,-258.230133,0.809314,68.756818
9.1764,0.003537,0.000137,-0.003311,-0.002249,0.002656,0.007901,0.002698,-0.509836,-0.001452,-1.328198,-258.233421,0.884853,68.755571
9.1966,0.00352,0.000378,-0.002393,-0.002119,0.002646,0.007957,0.002345,-0.509832,-0.002163,-1.328198,-258.233421,0.884853,68.755571
9.2162,0.00312,0.000571,-0.001193,-0.00202,0.002635,0.008005,0.002246,-0.509556,-0.002196,-1.278731,-258.235833,0.810486,68.754606
9.237,0.003016,0.000492,-0.0024,-0.001986,0.002511,0.007525,0.002486,-0.509437,-0.001269,-1.278731,-258.235833,0.810486,68.754606
9.2565,0.003157,0.000371,-0.003779,-0.001958,0.002411,0.007204,0.002486,-0.509437,-0.001269,-1.278731,-258.235833,0.810486,68.754606
9.2772,0.003016,0.000996,-0.001591,-0.001936,0.00233,0.006992,0.001148,-0.509518,-0.003454,-1.308535,-258.238866,0.840055,68.753428
9.2968,0.002662,0.000636,-0.001836,-0.001639,0.002165,0.007646,0.001573,-0.509294,-0.00265,-1.308535,-258.238866,0.840055,68.753428
9.3168,0.002553,0.000543,-0.000929,-0.001414,0.002041,0.008094,0.001667,-0.509293,-0.001626,-1.285432,-258.241468,0.786439,68.752391
9.3368,0.002288,0.000552,-0.000691,-0.001389,0.002045,0.007448,0.002041,-0.50944,-0.000978,-1.285432,-258.241468,0.786439,68.752391
9.3568,0.002559,0.000595,-0.00072,-0.001371,0.002043,0.007006,0.002041,-0.50944,-0.000978,-1.285432,-258.241468,0.786439,68.752391
9.3769,0.002466,0.000884,-0.002021,-0.001357,0.002037,0.006704,0.002181,-0.509391,-0.000672,-1.360342,-258.241892,0.861349,68.752199
9.3965,0.002768,0.000656,-2e-05,-0.001302,0.001971,0.006653,0.001875,-0.509276,-0.001218,-1.360342,-258.241892,0.861349,68.752199
9.4162,0.001985,0.000494,-0.00243,-0.001258,0.001919,0.006617,0.002723,-0.509293,0.000143,-1.352951,-258.243837,0.936219,68.751435
9.4372,0.00233,0.000483,-4.8e-05,-0.000883,0.001915,0.007185,0.000911,-0.509484,-0.002204,-1.352951,-258.243837,0.936219,68.751435
9.457,0.002726,0.000846,-0.001283,-0.000601,0.001914,0.007567,0.000911,-0.509484,-0.002204,-1.352951,-258.243837,0.936219,68.751435
9.4768,0.002495,0.000715,-0.000764,-0.000389,0.001913,0.00782,0.002026,-0.509085,-0.001049,-1.362786,-258.245909,1.011356,68.750596
9.4966,0.002514,0.00124,0.000908,-0.0006,0.001854,0.007203,0.002053,-0.509159,-0.000905,-1.362786,-258.245909,1.011356,68.750596
9.5167,0.002478,0.001062,-0.000199,-0.000763,0.001805,0.006781,0.002976,-0.508757,0.000917,-1.437655,-258.246004,1.086225,68.750555
9.5369,0.002435,0.000902,0.000594,-0.000976,0.001723,0.006011,0.002428,-0.508923,-0.000104,-1.437655,-258.246004,1.086225,68.750555
9.5569,0.002295,0.001124,-0.001527,-0.001142,0.001656,0.005485,0.002428,-0.508923,-0.000104,-1.437655,-258.246004,1.086225,68.750555
9.5769,0.002338,0.000648,-0.000577,-0.001271,0.0016,0.005126,0.001493,-0.508827,-0.001349,-1.443158,-258.247517,1.161369,68.749935
9.5973,0.00223,0.001147,-0.000867,-0.001179,0.001553,0.005455,0.001714,-0.509034,-0.001015,-1.443158,-258.247517,1.161369,68.749935
9.6169,0.001946,0.001051,8.5e-05,-0.00111,0.001518,0.00568,0.001781,-0.508843,-0.000832,-1.368308,-258.247913,1.086518,68.749774
9.6368,0.002205,0.001172,0.00039,-0.001133,0.001492,0.005221,0.00197,-0.508938,1e-06,-1.368308,-258.247913,1.086518,68.749774
9.6569,0.00206,0.000491,-0.000243,-0.001151,0.001468,0.004905,0.00197,-0.508938,1e-06,-1.368308,-258.247913,1.086518,68.749774
9.6771,0.001709,0.000917,8e-05,-0.001166,0.001447,0.004687,0.001891,-0.509447,-1e-05,-1.351792,-258.249913,1.053374,68.748896
9.6971,0.002163,0.001375,-0.001448,-0.00115,0.001548,0.004514,0.001828,-0.509292,5.3e-05,-1.351792,-258.249913,1.053374,68.748896
9.7166,0.001933,0.001513,-0.001421,-0.001139,0.001622,0.004394,0.001403,-0.508597,-0.001356,-1.306629,-258.250993,0.978401,68.748452
9.7367,0.00181,0.000962,3.8e-05,-0.00093,0.001376,0.0052,0.001224,-0.508494,-0.001411,-1.306629,-258.250993,0.978401,68.748452
9.7571,0.00197,0.000821,0.000836,-0.000771,0.001193,0.005746,0.001224,-0.508494,-0.001411,-1.306629,-258.250993,0.978401,68.748452
9.7764,0.00191,0.001243,0.000443,-0.000648,0.001057,0.006112,0.002377,-0.509151,0.000917,-1.312185,-258.251758,0.903267,68.748184
9.7974,0.001649,0.001243,0.000605,-0.000852,0.001181,0.005104,0.002278,-0.508989,0.000735,-1.312185,-258.251758,0.903267,68.748184
9.8164,0.001955,0.000866,0.0003,-0.001014,0.00127,0.004404,0.001956,-0.508755,0.000612,-1.387058,-258.25183,0.978141,68.748144
9.8367,0.001603,0.001062,0.000795,-0.001098,0.001375,0.00415,0.002095,-0.509101,0.000327,-1.387058,-258.25183,0.978141,68.748144
9.8569,0.001997,0.001332,-0.000589,-0.001164,0.001453,0.003975,0.002095,-0.509101,0.000327,-1.387058,-258.25183,0.978141,68.748144
9.877,0.001316,0.001196,0.00059,-0.001218,0.001512,0.003854,0.001658,-0.508619,-0.00042,-1.320069,-258.253332,0.950594,68.747502
9.8965,0.001527,0.00126,-0.001403,-0.001127,0.001404,0.003962,0.001637,-0.508689,1.3e-05,-1.320069,-258.253332,0.950594,68.747502
9.9166,0.001283,0.001394,0.001328,-0.001058,0.001322,0.004034,0.000806,-0.508733,-0.001385,-1.265682,-258.253553,0.875592,68.747422
9.9367,0.001706,0.001359,-0.001481,-0.001067,0.00126,0.003484,0.001862,-0.508616,0.001098,-1.265682,-258.253553,0.875592,68.747422
9.9567,0.001714,0.001097,0.000293,-0.001073,0.001209,0.003104,0.001862,-0.508616,0.001098,-1.265682,-258.253553,0.875592,68.747422
9.9767,0.001463,0.001324,-0.000491,-0.001078,0.001167,0.002845,0.001822,-0.508851,0.000452,-1.298274,-258.255033,0.82365,68.746835
9.9966,0.00144,0.00115,0.001077,-0.000996,0.001155,0.003243,0.001567,-0.508773,8.3e-05,-1.298274,-258.255033,0.82365,68.746835
10.0166,0.001332,0.001352,0.000583,-0.000934,0.001148,0.003512,0.001985,-0.508845,0.001091,-1.223283,-258.255206,0.74866,68.746767
10.0367,0.001559,0.000793,0.000802,-0.000913,0.001122,0.003378,0.001659,-0.508665,0.000626,-1.223283,-258.255206,0.74866,68.746767
10.0566,0.001547,0.001097,0.00141,-0.000896,0.0011,0.003285,0.001659,-0.508665,0.000626,-1.223283,-258.255206,0.74866,68.746767
10.0769,0.001353,0.001305,0.001661,-0.000883,0.001083,0.00322,0.002233,-0.508861,0.001535,-1.294568,-258.256372,0.817996,68.746302
10.0968,0.001339,0.001398,-0.000166,-0.00102,0.00114,0.002676,0.002216,-0.508789,0.001601,-1.294568,-258.256372,0.817996,68.746302
10.1171,0.001121,0.001636,0.001535,-0.001127,0.001181,0.002303,0.001227,-0.508568,-6.5e-05,-1.288944,-258.257621,0.785972,68.745811
10.1368,0.001082,0.001454,0.002547,-0.001106,0.001069,0.002151,0.001841,-0.50838,0.001395,-1.288944,-258.257621,0.785972,68.745811
10.1571,0.001341,0.00163,0.001067,-0.001089,0.000982,0.002049,0.001841,-0.50838,0.001395,-1.288944,-258.257621,0.785972,68.745811
10.177,0.001303,0.001204,0.000526,-0.001075,0.000914,0.001981,0.001885,-0.508369,0.001067,-1.213969,-258.257623,0.710997,68.74581
10.1968,0.001388,0.001342,0.00087,-0.001043,0.000897,0.002224,0.001759,-0.508541,0.000849,-1.213969,-258.257623,0.710997,68.74581
10.2169,0.000878,0.001492,0.00187,-0.001019,0.000885,0.002389,0.001831,-0.508657,0.000872,-1.138961,-258.257654,0.635989,68.745795
10.2367,0.001125,0.00094,0.002137,-0.001016,0.000885,0.002037,0.001832,-0.50852,0.001784,-1.138961,-258.257654,0.635989,68.745795
10.2573,0.000602,0.001567,-7e-05,-0.001015,0.000883,0.001794,0.001832,-0.50852,0.001784,-1.138961,-258.257654,0.635989,68.745795
10.2767,0.000981,0.001308,0.000763,-0.001014,0.000879,0.001628,0.000534,-0.508405,9e-06,-1.160779,-258.25845,0.560872,68.745431
10.2971,0.000821,0.001275,0.00141,-0.000694,0.000824,0.002321,0.000875,-0.50852,0.000329,-1.160779,-258.25845,0.560872,68.745431
10.3169,0.000974,0.001382,0.001739,-0.000454,0.000786,0.002784,0.00154,-0.508724,0.001412,-1.085786,-258.258478,0.485879,68.745418
10.3371,0.001454,0.001394,0.001333,-0.00058,0.00084,0.002339,0.001832,-0.508626,0.00171,-1.085786,-258.258478,0.485879,68.745418
10.3571,0.001193,0.001688,0.00158,-0.000677,0.000878,0.002033,0.001832,-0.508626,0.00171,-1.085786,-258.258478,0.485879,68.745418
10.377,0.001178,0.00123,0.000853,-0.000752,0.000906,0.001822,0.001998,-0.508312,0.00158,-1.160667,-258.258478,0.56076,68.745417
10.3969,0.001164,0.001066,0.000254,-0.000814,0.000879,0.00188,0.001844,-0.508496,0.001288,-1.160667,-258.258478,0.56076,68.745417
10.4162,0.000803,0.001085,0.000875,-0.000861,0.00086,0.001918,0.001288,-0.508928,0.000269,-1.21432,-258.258684,0.485758,68.745343
10.4369,0.000928,0.001275,0.000374,-0.000713,0.000955,0.002211,0.001252,-0.508916,0.000821,-1.21432,-258.258684,0.485758,68.745343
10.4572,0.001303,0.00107,0.001862,-0.000603,0.001028,0.002407,0.001252,-0.508916,0.000821,-1.21432,-258.258684,0.485758,68.745343
10.4768,0.001009,0.001261,0.001846,-0.000522,0.001085,0.002535,0.002227,-0.508905,0.00192,-1.169842,-258.259313,0.410737,68.745082
10.497,0.000948,0.001472,0.000394,-0.000708,0.001143,0.002067,0.002112,-0.508834,0.001897,-1.169842,-258.259313,0.410737,68.745082
10.5168,0.000701,0.001255,0.001842,-0.000854,0.001186,0.001745,0.001147,-0.508524,0.000402,-1.244828,-258.25942,0.485723,68.745054
10.5369,0.000885,0.00171,-0.000252,-0.000822,0.001162,0.001624,0.001596,-0.508724,0.001713,-1.244828,-258.25942,0.485723,68.745054
10.5572,0.00123,0.001691,-0.000555,-0.000799,0.001144,0.00154,0.001596,-0.508724,0.001713,-1.244828,-258.25942,0.485723,68.745054
10.5772,0.000975,0.001312,0.002256,-0.000781,0.001129,0.001484,0.000947,-0.508308,-0.000555,-1.208231,-258.259421,0.410697,68.745054
10.5968,0.000752,0.001385,-0.000253,0.0,0.0,0.0,0.001426,-0.508462,0.000586,-1.208231,-258.259421,0.410697,68.745054
