mach0312/omni-docking-bench/src/icros_test_setup/results/MPPI_sample/timeseries/trial_085.csv
t,x,y,yaw,vx,vy,wz,bl_x,bl_y,bl_yaw,front_steering_joint,front_wheel_joint,rear_steering_joint,rear_wheel_joint
0.0,0.052671,0.018299,-0.046409,0.001762,0.002073,-0.004926,0.027404,-0.492718,-0.045871,-0.488088,-260.905353,1.237106,66.425677
0.0003,0.053338,0.018107,-0.047064,0.000903,0.001063,-0.002526,0.027404,-0.492718,-0.045871,-0.488088,-260.90419,1.237106,66.428815
0.0006,0.053257,0.017898,-0.049509,0.0,0.0,-1e-06,0.028845,-0.492225,-0.04426,-0.488088,-260.90419,1.237106,66.428815
0.001,0.053001,0.018298,-0.047307,0.0,0.0,0.0,0.028845,-0.492225,-0.04426,-0.488088,-260.90419,1.237106,66.428815
0.0012,0.053222,0.018152,-0.048556,0.0,0.0,0.0,0.028393,-0.4921,-0.045296,-0.488088,-260.90419,1.237106,66.428815
0.0015,0.052938,0.018207,-0.047684,0.0,0.0,0.0,0.028393,-0.4921,-0.045296,-0.488088,-260.90419,1.237106,66.428815
0.0156,0.053369,0.018047,-0.049382,0.0,0.0,0.0,0.028628,-0.491213,-0.047684,-0.488088,-260.90419,1.237106,66.428815
0.0359,0.053008,0.018196,-0.047507,0.0,0.0,0.0,0.028233,-0.491321,-0.04923,-0.488088,-260.90419,1.237106,66.428815
0.0558,0.053068,0.018083,-0.049088,0.0,0.0,0.0,0.028233,-0.491321,-0.04923,-0.488088,-260.90419,1.237106,66.428815
0.0755,0.053096,0.018211,-0.048265,0.0,0.0,0.0,0.028043,-0.491302,-0.049088,-0.488088,-260.90419,1.237106,66.428815
0.0959,0.053302,0.017942,-0.047473,0.0,0.0,0.0,0.028228,-0.491258,-0.048749,-0.488088,-260.90419,1.237106,66.428815
0.1153,0.053111,0.018269,-0.0486,-0.007623,-0.002151,0.002887,0.0291,-0.491483,-0.047473,-0.488088,-260.90419,1.237106,66.428815
0.1358,0.052955,0.018256,-0.047433,-0.008301,-0.002388,0.003457,0.028403,-0.49116,-0.0485,-0.488088,-260.90419,1.237106,66.428815
0.1557,0.053222,0.017867,-0.047013,-0.008876,-0.002598,0.003907,0.028403,-0.49116,-0.0485,-0.488088,-260.90419,1.237106,66.428815
0.1753,0.053381,0.017833,-0.047882,-0.009363,-0.002785,0.004265,0.029254,-0.491569,-0.047013,-0.413091,-260.90419,1.162109,66.428815
0.1954,0.052747,0.018581,-0.048729,-0.009793,-0.002932,0.004742,0.029139,-0.491575,-0.047365,-0.413091,-260.90419,1.162109,66.428815
0.2154,0.052828,0.017922,-0.048746,-0.010158,-0.003062,0.005122,0.027905,-0.490814,-0.048729,-0.338181,-260.90419,1.087198,66.428815
0.2361,0.053516,0.018085,-0.047382,-0.010452,-0.003198,0.005593,0.027972,-0.491417,-0.048744,-0.338181,-260.90419,1.087198,66.428815
0.2554,0.053365,0.017996,-0.048848,-0.010703,-0.003317,0.00597,0.027972,-0.491417,-0.048744,-0.338181,-260.90419,1.087198,66.428815
0.2755,0.053112,0.018237,-0.047635,-0.010918,-0.003422,0.00627,0.028462,-0.491396,-0.048847,-0.263079,-260.904195,1.012097,66.428809
0.2959,0.05323,0.018303,-0.048456,-0.011107,-0.003508,0.006638,0.028614,-0.491308,-0.048341,-0.263079,-260.904195,1.012097,66.428809
0.3159,0.052743,0.018165,-0.047394,-0.01127,-0.003584,0.006932,0.028521,-0.491101,-0.048449,-0.187953,-260.904291,0.936971,66.428694
0.3357,0.053295,0.017834,-0.048324,-0.011409,-0.00365,0.00727,0.028575,-0.491248,-0.047487,-0.187953,-260.904291,0.936971,66.428694
0.3557,0.053315,0.018015,-0.046917,-0.011528,-0.003709,0.007541,0.028575,-0.491248,-0.047487,-0.187953,-260.904291,0.936971,66.428694
0.3756,0.0528,0.017967,-0.046674,-0.01163,-0.00376,0.007759,0.029341,-0.491446,-0.046866,-0.113164,-260.904872,0.862181,66.427988
0.3955,0.053179,0.017978,-0.046707,-0.01173,-0.003793,0.008032,0.029196,-0.491462,-0.046781,-0.113164,-260.904872,0.862181,66.427988
0.4155,0.05252,0.018019,-0.048918,-0.011815,-0.003822,0.008252,0.029221,-0.49152,-0.046586,-0.083903,-260.906813,0.787001,66.425592
0.4354,0.052902,0.017801,-0.046966,-0.011867,-0.00387,0.008434,0.02772,-0.491387,-0.048704,-0.083903,-260.906813,0.787001,66.425592
0.4553,0.0528,0.018155,-0.046672,-0.011914,-0.003912,0.00858,0.02772,-0.491387,-0.048704,-0.083903,-260.906813,0.787001,66.425592
0.4754,0.052147,0.018005,-0.047483,-0.011955,-0.003948,0.008698,0.028657,-0.4914,-0.046407,-0.102764,-260.910211,0.712076,66.421366
0.4955,0.052316,0.017988,-0.046123,-0.011999,-0.00397,0.008852,0.028319,-0.491421,-0.046822,-0.102764,-260.910211,0.712076,66.421366
0.5154,0.050861,0.017713,-0.045558,-0.012037,-0.003989,0.008977,0.028434,-0.491573,-0.045859,-0.11362,-260.9148,0.659058,66.4156
0.5355,0.05145,0.0178,-0.04835,-0.012068,-0.004007,0.009118,0.027686,-0.491747,-0.045571,-0.11362,-260.9148,0.659058,66.4156
0.5555,0.051072,0.01785,-0.047144,-0.012096,-0.004023,0.009233,0.027686,-0.491747,-0.045571,-0.11362,-260.9148,0.659058,66.4156
0.5752,0.0503,0.017472,-0.044608,-0.01212,-0.004037,0.009325,0.026529,-0.491726,-0.04677,-0.12348,-260.919639,0.666672,66.409489
0.5953,0.050541,0.017741,-0.04696,-0.012133,-0.004058,0.009442,0.026895,-0.491864,-0.045833,-0.12348,-260.919639,0.666672,66.409489
0.6152,0.049448,0.017696,-0.047322,-0.012145,-0.004076,0.009537,0.026211,-0.491806,-0.046665,-0.135967,-260.924514,0.676586,66.403294
0.6353,0.04983,0.017687,-0.045466,-0.012131,-0.004118,0.009657,0.025379,-0.491745,-0.047252,-0.135967,-260.924514,0.676586,66.403294
0.6552,0.049947,0.017508,-0.046591,-0.01212,-0.004153,0.009754,0.025379,-0.491745,-0.047252,-0.135967,-260.924514,0.676586,66.403294
0.6754,0.048567,0.017125,-0.045384,-0.012113,-0.004183,0.009833,0.025681,-0.492085,-0.046193,-0.14302,-260.929419,0.683934,66.397031
0.6955,0.048687,0.017026,-0.044558,-0.01212,-0.004196,0.009932,0.025517,-0.492212,-0.04581,-0.14302,-260.929419,0.683934,66.397031
0.7155,0.04772,0.016922,-0.045292,-0.012126,-0.004207,0.010014,0.025581,-0.492583,-0.044248,-0.149318,-260.934292,0.699307,66.390733
0.7356,0.048109,0.01727,-0.04535,-0.012127,-0.004222,0.010118,0.024691,-0.492563,-0.045189,-0.149318,-260.934292,0.699307,66.390733
0.7555,0.0481,0.016716,-0.044423,-0.012128,-0.004234,0.010202,0.024691,-0.492563,-0.045189,-0.149318,-260.934292,0.699307,66.390733
0.7753,0.047056,0.016894,-0.046492,-0.01213,-0.004245,0.010271,0.024939,-0.492934,-0.044005,-0.156154,-260.939193,0.705239,66.384376
0.7954,0.046914,0.016966,-0.045609,-0.012129,-0.004256,0.010365,0.024226,-0.492795,-0.044981,-0.156154,-260.939193,0.705239,66.384376
0.8156,0.046289,0.016859,-0.043323,-0.012129,-0.004266,0.010442,0.023271,-0.49262,-0.045284,-0.165689,-260.9441,0.714344,66.37797
0.8356,0.045981,0.016814,-0.044185,-0.012125,-0.004279,0.010541,0.024091,-0.492665,-0.043493,-0.165689,-260.9441,0.714344,66.37797
0.8556,0.04592,0.016293,-0.043795,-0.012123,-0.004289,0.010623,0.024091,-0.492665,-0.043493,-0.165689,-260.9441,0.714344,66.37797
0.8754,0.045323,0.016811,-0.042985,-0.012121,-0.004298,0.010689,0.023079,-0.493374,-0.04336,-0.172321,-260.949018,0.72026,66.371524
0.8956,0.045486,0.016956,-0.043786,-0.012115,-0.004311,0.010775,0.023155,-0.493121,-0.043154,-0.172321,-260.949018,0.72026,66.371524
0.9154,0.044621,0.016557,-0.042974,-0.01211,-0.004322,0.010845,0.022772,-0.492675,-0.043446,-0.181942,-260.953935,0.729046,66.36504
0.9354,0.0443,0.016363,-0.043548,-0.012094,-0.004343,0.010925,0.022697,-0.492952,-0.042998,-0.181942,-260.953935,0.729046,66.36504
0.9557,0.044669,0.016413,-0.042728,-0.012082,-0.004361,0.010991,0.022697,-0.492952,-0.042998,-0.181942,-260.953935,0.729046,66.36504
0.9753,0.043297,0.016186,-0.04362,-0.012073,-0.004376,0.011044,0.022371,-0.493281,-0.042274,-0.187787,-260.95886,0.734959,66.358518
0.9957,0.043346,0.016175,-0.042495,-0.012057,-0.004396,0.011103,0.021776,-0.493319,-0.042772,-0.187787,-260.95886,0.734959,66.358518
1.0156,0.042472,0.016166,-0.042187,-0.012044,-0.004413,0.01115,0.02129,-0.493488,-0.042144,-0.193827,-260.963771,0.744395,66.351966
1.0357,0.042975,0.015958,-0.041898,-0.012021,-0.00444,0.011199,0.020973,-0.493396,-0.042164,-0.193827,-260.963771,0.744395,66.351966
1.0556,0.042345,0.016151,-0.040936,-0.012002,-0.004463,0.011239,0.020973,-0.493396,-0.042164,-0.193827,-260.963771,0.744395,66.351966
1.0755,0.041807,0.015529,-0.041085,-0.011987,-0.004481,0.011271,0.020962,-0.493586,-0.04047,-0.19645,-260.96868,0.750134,66.345385
1.0956,0.041905,0.01591,-0.041867,-0.011984,-0.004489,0.011302,0.020861,-0.49379,-0.040667,-0.19645,-260.96868,0.750134,66.345385
1.1154,0.04083,0.015637,-0.041767,-0.011982,-0.004495,0.011327,0.020173,-0.493769,-0.041508,-0.197789,-260.973556,0.75876,66.338796
1.1356,0.041255,0.015538,-0.043613,-0.011954,-0.004524,0.011358,0.019572,-0.493911,-0.041725,-0.197789,-260.973556,0.75876,66.338796
1.1557,0.041121,0.015572,-0.040913,-0.011933,-0.004547,0.011382,0.019572,-0.493911,-0.041725,-0.197789,-260.973556,0.75876,66.338796
1.1753,0.040097,0.01535,-0.040253,-0.011915,-0.004567,0.011402,0.019751,-0.49417,-0.040438,-0.19955,-260.978452,0.761087,66.33217
1.1954,0.040424,0.015485,-0.03998,-0.011911,-0.004574,0.011421,0.01962,-0.494216,-0.040308,-0.19955,-260.978452,0.761087,66.33217
1.2154,0.039312,0.015119,-0.039474,-0.011908,-0.00458,0.011437,0.019656,-0.494237,-0.039618,-0.198487,-260.983307,0.769023,66.325545
1.2354,0.039114,0.014851,-0.040659,-0.011904,-0.004587,0.011455,0.019207,-0.494469,-0.039469,-0.198487,-260.983307,0.769023,66.325545
1.2555,0.03887,0.015018,-0.040392,-0.011901,-0.004592,0.011469,0.019207,-0.494469,-0.039469,-0.198487,-260.983307,0.769023,66.325545
1.2753,0.038326,0.014981,-0.038437,-0.011898,-0.004597,0.011481,0.01777,-0.494737,-0.039915,-0.199258,-260.988169,0.770787,66.318902
1.2959,0.038256,0.015554,-0.040105,-0.011877,-0.004618,0.011499,0.018108,-0.494718,-0.039248,-0.199258,-260.988169,0.770787,66.318902
1.3156,0.037402,0.014469,-0.038861,-0.011859,-0.004636,0.011512,0.017425,-0.494167,-0.03974,-0.200266,-260.993026,0.773111,66.312252
1.3358,0.037033,0.014742,-0.038988,-0.011841,-0.004654,0.011528,0.017551,-0.49506,-0.038925,-0.200266,-260.993026,0.773111,66.312252
1.3554,0.037073,0.014868,-0.038156,-0.011826,-0.004669,0.01154,0.017551,-0.49506,-0.038925,-0.200266,-260.993026,0.773111,66.312252
1.3759,0.03622,0.015113,-0.037884,-0.011814,-0.004682,0.011549,0.017116,-0.494935,-0.037676,-0.199307,-260.997855,0.777228,66.305612
1.3958,0.036176,0.015195,-0.038778,-0.011782,-0.004711,0.011563,0.016971,-0.494786,-0.037705,-0.199307,-260.997855,0.777228,66.305612
1.4155,0.035526,0.014521,-0.037073,-0.011756,-0.004736,0.011574,0.016022,-0.494557,-0.038409,-0.19813,-261.002681,0.782039,66.298942
1.4357,0.035546,0.01453,-0.038514,-0.011733,-0.004759,0.011585,0.016554,-0.495086,-0.037169,-0.19813,-261.002681,0.782039,66.298942
1.4562,0.035739,0.014582,-0.036378,-0.011714,-0.004777,0.011594,0.016554,-0.495086,-0.037169,-0.19813,-261.002681,0.782039,66.298942
1.4753,0.034531,0.014423,-0.036045,-0.011699,-0.004793,0.0116,0.016687,-0.495263,-0.035889,-0.195868,-261.007472,0.787465,66.292283
1.4956,0.034723,0.014144,-0.035362,-0.01169,-0.004803,0.011607,0.016419,-0.495276,-0.035897,-0.195868,-261.007472,0.787465,66.292283
1.5153,0.033509,0.013917,-0.035459,-0.011682,-0.004812,0.011612,0.016315,-0.495676,-0.034994,-0.193454,-261.012241,0.792996,66.285613
1.5354,0.03371,0.014112,-0.036242,-0.011663,-0.004829,0.011621,0.015485,-0.495762,-0.035403,-0.193454,-261.012241,0.792996,66.285613
1.5555,0.033872,0.014004,-0.035726,-0.011648,-0.004844,0.011627,0.015485,-0.495762,-0.035403,-0.193454,-261.012241,0.792996,66.285613
1.5756,0.032616,0.013978,-0.034088,-0.011635,-0.004856,0.011632,0.015161,-0.495854,-0.035242,-0.192759,-261.016991,0.794814,66.278958
1.5954,0.032839,0.013662,-0.03678,-0.011617,-0.004873,0.011638,0.015134,-0.495824,-0.034716,-0.192759,-261.016991,0.794814,66.278958
1.6152,0.031745,0.013722,-0.034999,-0.011602,-0.004887,0.011643,0.01371,-0.496134,-0.03641,-0.190867,-261.021737,0.799157,66.272275
1.6355,0.031729,0.013798,-0.033869,-0.01155,-0.004929,0.011655,0.013864,-0.495987,-0.035102,-0.190867,-261.021737,0.799157,66.272275
1.656,0.031817,0.013312,-0.035608,-0.011508,-0.004963,0.011663,0.013864,-0.495987,-0.035102,-0.190867,-261.021737,0.799157,66.272275
1.6755,0.031242,0.013363,-0.034698,-0.011474,-0.004992,0.011668,0.013169,-0.496552,-0.035121,-0.189416,-261.026453,0.802175,66.265612
1.6955,0.030865,0.013488,-0.033473,-0.011441,-0.005019,0.011673,0.013266,-0.496484,-0.034894,-0.189416,-261.026453,0.802175,66.265612
1.7154,0.030091,0.012988,-0.033359,-0.011415,-0.005041,0.011677,0.013426,-0.496373,-0.033101,-0.183914,-261.03112,0.81266,66.258939
1.7355,0.029865,0.013343,-0.033469,-0.011396,-0.005058,0.011679,0.013092,-0.496705,-0.033319,-0.183914,-261.03112,0.81266,66.258939
1.7554,0.030073,0.013106,-0.033954,-0.01138,-0.005072,0.011681,0.013092,-0.496705,-0.033319,-0.183914,-261.03112,0.81266,66.258939
1.7754,0.029385,0.012858,-0.033516,-0.011368,-0.005083,0.011682,0.012276,-0.496794,-0.033466,-0.1811,-261.035759,0.817541,66.252268
1.7953,0.029333,0.013072,-0.033942,-0.011326,-0.005115,0.011689,0.012228,-0.496842,-0.03343,-0.1811,-261.035759,0.817541,66.252268
1.8153,0.028334,0.012788,-0.032285,-0.011293,-0.005141,0.011693,0.01166,-0.496783,-0.033571,-0.178562,-261.040377,0.821401,66.245596
1.8353,0.028357,0.01249,-0.031879,-0.011253,-0.005171,0.011699,0.011836,-0.49694,-0.032377,-0.178562,-261.040377,0.821401,66.245596
1.8554,0.028196,0.012945,-0.033606,-0.011221,-0.005196,0.011702,0.011836,-0.49694,-0.032377,-0.178562,-261.040377,0.821401,66.245596
1.8755,0.027136,0.012383,-0.033042,-0.011195,-0.005216,0.011704,0.010581,-0.496967,-0.033118,-0.175356,-261.044962,0.827349,66.238926
1.896,0.027498,0.012761,-0.031119,-0.011109,-0.005274,0.011717,0.010406,-0.497142,-0.03303,-0.175356,-261.044962,0.827349,66.238926
1.9156,0.026473,0.012037,-0.033057,-0.01104,-0.005322,0.011725,0.011269,-0.497147,-0.030746,-0.17088,-261.049502,0.834996,66.232261
1.9357,0.026554,0.012312,-0.03116,-0.010966,-0.00537,0.011734,0.009741,-0.497646,-0.032841,-0.17088,-261.049502,0.834996,66.232261
1.9557,0.026411,0.012232,-0.031626,-0.010907,-0.00541,0.011739,0.009741,-0.497646,-0.032841,-0.17088,-261.049502,0.834996,66.232261
1.9753,0.025924,0.011954,-0.03144,-0.01086,-0.005442,0.011741,0.009818,-0.497721,-0.031137,-0.165107,-261.053957,0.846683,66.225626
1.9958,0.025746,0.012644,-0.030478,-0.010832,-0.005462,0.011739,0.009794,-0.497774,-0.031204,-0.165107,-261.053957,0.846683,66.225626
2.0157,0.025214,0.011645,-0.030451,-0.01081,-0.005479,0.011737,0.009854,-0.497282,-0.030104,-0.157818,-261.058349,0.859961,66.218979
2.0357,0.024726,0.012325,-0.030356,-0.010798,-0.005488,0.011734,0.009683,-0.498053,-0.030402,-0.157818,-261.058349,0.859961,66.218979
2.0557,0.024655,0.011716,-0.029469,-0.010788,-0.005495,0.011731,0.009683,-0.498053,-0.030402,-0.157818,-261.058349,0.859961,66.218979
2.0752,0.024009,0.011414,-0.030972,-0.01078,-0.005502,0.011728,0.00917,-0.498278,-0.028979,-0.155042,-261.062715,0.863572,66.21234
2.0953,0.0243,0.011749,-0.030733,-0.010726,-0.005534,0.011736,0.008729,-0.498329,-0.029734,-0.155042,-261.062715,0.863572,66.21234
2.1156,0.02346,0.011584,-0.030405,-0.010682,-0.00556,0.01174,0.00828,-0.498174,-0.03036,-0.152924,-261.067083,0.865609,66.205679
2.1354,0.023156,0.011151,-0.028846,-0.010588,-0.005612,0.011753,0.007967,-0.498188,-0.030383,-0.152924,-261.067083,0.865609,66.205679
2.1559,0.02288,0.011371,-0.028693,-0.010512,-0.005655,0.01176,0.007967,-0.498188,-0.030383,-0.152924,-261.067083,0.865609,66.205679
2.1761,0.022327,0.011384,-0.029386,-0.010452,-0.00569,0.011763,0.007793,-0.49864,-0.028199,-0.149637,-261.071394,0.872638,66.199048
2.1957,0.022332,0.011337,-0.028091,-0.010391,-0.005723,0.011767,0.007563,-0.498568,-0.028614,-0.149637,-261.071394,0.872638,66.199048
2.2157,0.021326,0.011386,-0.027537,-0.010342,-0.00575,0.011768,0.007671,-0.498633,-0.027719,-0.142059,-261.075604,0.888877,66.192436
2.2357,0.021176,0.010491,-0.029667,-0.010279,-0.005783,0.011772,0.007301,-0.498447,-0.027534,-0.142059,-261.075604,0.888877,66.192436
2.2558,0.021667,0.010711,-0.029146,-0.010229,-0.00581,0.011773,0.007301,-0.498447,-0.027534,-0.142059,-261.075604,0.888877,66.192436
2.2754,0.020579,0.01044,-0.028241,-0.010188,-0.005831,0.011771,0.006366,-0.4993,-0.028654,-0.138158,-261.079773,0.896431,66.185822
2.2958,0.020391,0.010671,-0.028348,-0.0101,-0.00587,0.011781,0.006239,-0.49935,-0.028428,-0.138158,-261.079773,0.896431,66.185822
2.3157,0.019774,0.010215,-0.026635,-0.01003,-0.005902,0.011786,0.005606,-0.4993,-0.027974,-0.132509,-261.083879,0.906847,66.179219
2.3355,0.019674,0.010539,-0.025546,-0.009975,-0.005924,0.011787,0.006126,-0.499587,-0.02673,-0.132509,-261.083879,0.906847,66.179219
2.3557,0.019933,0.010407,-0.026936,-0.009932,-0.005943,0.011787,0.006126,-0.499587,-0.02673,-0.132509,-261.083879,0.906847,66.179219
2.3753,0.019189,0.010373,-0.027828,-0.009897,-0.005957,0.011785,0.005773,-0.499643,-0.026445,-0.128571,-261.087912,0.917365,66.172638
2.3955,0.019394,0.010019,-0.025632,-0.009799,-0.005997,0.011795,0.005405,-0.499582,-0.026958,-0.128571,-261.087912,0.917365,66.172638
2.4153,0.018019,0.009993,-0.026223,-0.00972,-0.006029,0.0118,0.006004,-0.499995,-0.025258,-0.124643,-261.091897,0.925775,66.166062
2.4352,0.018183,0.009888,-0.026058,-0.009599,-0.006074,0.011814,0.004747,-0.499854,-0.026122,-0.124643,-261.091897,0.925775,66.166062
2.4552,0.018279,0.009578,-0.02591,-0.009502,-0.006109,0.01182,0.004747,-0.499854,-0.026122,-0.124643,-261.091897,0.925775,66.166062
2.4752,0.01769,0.009805,-0.026145,-0.009426,-0.006137,0.011822,0.004655,-0.500491,-0.025418,-0.120585,-261.095804,0.937399,66.159509
2.4952,0.017803,0.009666,-0.023901,-0.009353,-0.00616,0.011824,0.004485,-0.500325,-0.025661,-0.120585,-261.095804,0.937399,66.159509
2.5151,0.016903,0.009085,-0.024338,-0.009296,-0.006178,0.011823,0.005312,-0.500375,-0.023527,-0.114417,-261.09957,0.956239,66.15302
2.5355,0.01677,0.009724,-0.025911,-0.009276,-0.006179,0.011816,0.00455,-0.500739,-0.024247,-0.114417,-261.09957,0.956239,66.15302
2.5555,0.017196,0.009489,-0.025476,-0.009261,-0.00618,0.011809,0.00455,-0.500739,-0.024247,-0.114417,-261.09957,0.956239,66.15302
2.5754,0.016195,0.008901,-0.02435,-0.009248,-0.006181,0.011804,0.00381,-0.500594,-0.024982,-0.111742,-261.103308,0.964242,66.146504
2.5956,0.015659,0.008952,-0.02376,-0.009139,-0.006211,0.011819,0.003751,-0.500767,-0.024666,-0.111742,-261.103308,0.964242,66.146504
2.616,0.015041,0.008518,-0.024399,-0.009053,-0.006234,0.011827,0.003242,-0.501094,-0.023384,-0.110752,-261.107029,0.966331,66.139996
2.6364,0.01516,0.008683,-0.021728,-0.008844,-0.006275,0.011859,0.002642,-0.501319,-0.024288,-0.110752,-261.107029,0.966331,66.139996
2.6558,0.015377,0.00843,-0.023089,-0.00868,-0.006305,0.011877,0.002642,-0.501319,-0.024288,-0.110752,-261.107029,0.966331,66.139996
2.6757,0.014242,0.008291,-0.022979,-0.008552,-0.006328,0.011885,0.003219,-0.501686,-0.022595,-0.108817,-261.110663,0.978626,66.133524
2.6955,0.014424,0.007801,-0.019655,-0.0085,-0.00633,0.011878,0.00289,-0.501669,-0.022695,-0.108817,-261.110663,0.978626,66.133524
2.7158,0.013681,0.008207,-0.024128,-0.008459,-0.006331,0.011871,0.004129,-0.502293,-0.019283,-0.108351,-261.114053,1.009002,66.127197
2.7362,0.013739,0.007935,-0.022486,-0.008226,-0.006356,0.011902,0.001614,-0.501714,-0.023667,-0.108351,-261.114053,1.009002,66.127197
2.7562,0.013931,0.007591,-0.023784,-0.008043,-0.006374,0.011917,0.001614,-0.501714,-0.023667,-0.108351,-261.114053,1.009002,66.127197
2.7759,0.012812,0.007676,-0.020912,-0.0079,-0.006386,0.011922,0.001442,-0.502521,-0.023287,-0.108239,-261.117459,1.013753,66.120793
2.7956,0.013114,0.007713,-0.02217,-0.007805,-0.006377,0.011921,0.001688,-0.502425,-0.022263,-0.108239,-261.117459,1.013753,66.120793
2.8152,0.012186,0.007883,-0.021401,-0.007731,-0.006368,0.011916,0.001557,-0.502355,-0.021798,-0.112811,-261.120584,1.046731,66.114588
2.8354,0.012334,0.007221,-0.021267,-0.007606,-0.006373,0.011919,0.001285,-0.502042,-0.021417,-0.112811,-261.120584,1.046731,66.114588
2.8556,0.012326,0.007414,-0.019113,-0.007509,-0.006375,0.011916,0.001285,-0.502042,-0.021417,-0.112811,-261.120584,1.046731,66.114588
2.8754,0.011448,0.007147,-0.020506,-0.007433,-0.006376,0.01191,0.002252,-0.502752,-0.018616,-0.11715,-261.123693,1.055332,66.108324
2.8954,0.011578,0.007347,-0.019983,-0.007454,-0.006347,0.011889,0.001696,-0.50278,-0.019335,-0.11715,-261.123693,1.055332,66.108324
2.9156,0.010914,0.006825,-0.020687,-0.00747,-0.006322,0.011873,0.001148,-0.502748,-0.019606,-0.120245,-261.126671,1.072139,66.102143
2.9357,0.011014,0.006874,-0.01886,-0.007239,-0.0063,0.011909,0.000425,-0.503046,-0.020566,-0.120245,-261.126671,1.072139,66.102143
2.9558,0.010706,0.006812,-0.019456,-0.00706,-0.00628,0.011927,0.000425,-0.503046,-0.020566,-0.120245,-261.126671,1.072139,66.102143
2.9753,0.010299,0.006552,-0.019376,-0.006922,-0.006261,0.011934,0.000466,-0.50335,-0.018959,-0.123753,-261.129679,1.067723,66.09595
2.9955,0.009897,0.00634,-0.018296,-0.006808,-0.006229,0.011936,0.00041,-0.503381,-0.019071,-0.123753,-261.129679,1.067723,66.09595
3.0155,0.009775,0.006145,-0.019384,-0.00672,-0.006201,0.011932,0.000348,-0.503765,-0.017925,-0.147366,-261.132412,1.098526,66.090009
3.0357,0.01007,0.006221,-0.018977,-0.006546,-0.006149,0.011946,-8e-05,-0.503769,-0.019234,-0.147366,-261.132412,1.098526,66.090009
3.0558,0.009719,0.006372,-0.020456,-0.006411,-0.006106,0.011948,-8e-05,-0.503769,-0.019234,-0.147366,-261.132412,1.098526,66.090009
3.0757,0.008565,0.006031,-0.01975,-0.006307,-0.006069,0.011943,-0.000998,-0.503775,-0.019959,-0.160176,-261.135123,1.108567,66.084006
3.0956,0.008964,0.00568,-0.018554,-0.006012,-0.005995,0.011967,-0.001238,-0.503842,-0.019816,-0.160176,-261.135123,1.108567,66.084006
3.1158,0.008119,0.005497,-0.015917,-0.005782,-0.005934,0.011972,-0.000698,-0.504418,-0.018182,-0.191935,-261.137639,1.1298,66.078222
3.1358,0.008183,0.005809,-0.016278,-0.005813,-0.005871,0.0119,-6.8e-05,-0.504446,-0.016093,-0.191935,-261.137639,1.1298,66.078222
3.1561,0.008409,0.005941,-0.017527,-0.005835,-0.00582,0.011845,-6.8e-05,-0.504446,-0.016093,-0.191935,-261.137639,1.1298,66.078222
3.1755,0.007452,0.005507,-0.015947,-0.005851,-0.005778,0.011801,-0.000765,-0.504215,-0.017047,-0.233904,-261.139917,1.15921,66.07268
3.1957,0.007552,0.005802,-0.017142,-0.005724,-0.005738,0.011798,-0.000758,-0.504329,-0.016543,-0.233904,-261.139917,1.15921,66.07268
3.2158,0.00745,0.005005,-0.016714,-0.005626,-0.005705,0.011789,-0.001379,-0.504303,-0.016767,-0.239556,-261.14232,1.14745,66.066998
3.2359,0.007016,0.005011,-0.016211,-0.005454,-0.005615,0.011803,-0.00111,-0.504879,-0.016701,-0.239556,-261.14232,1.14745,66.066998
3.2556,0.007113,0.005146,-0.017193,-0.005322,-0.005541,0.011805,-0.00111,-0.504879,-0.016701,-0.239556,-261.14232,1.14745,66.066998
3.2756,0.006477,0.004996,-0.015388,-0.005219,-0.00548,0.0118,-0.001891,-0.505011,-0.016704,-0.259738,-261.144625,1.159688,66.061425
3.2957,0.006703,0.004819,-0.015221,-0.005023,-0.005389,0.011796,-0.001707,-0.50501,-0.016113,-0.259738,-261.144625,1.159688,66.061425
3.3157,0.006224,0.004343,-0.014349,-0.004869,-0.005315,0.011783,-0.001218,-0.505283,-0.014869,-0.31945,-261.146687,1.180522,66.056278
3.3355,0.005938,0.004558,-0.014811,-0.004838,-0.00521,0.011704,-0.001113,-0.505584,-0.014378,-0.31945,-261.146687,1.180522,66.056278
3.3557,0.006072,0.004166,-0.015362,-0.004812,-0.005125,0.011638,-0.001113,-0.505584,-0.014378,-0.31945,-261.146687,1.180522,66.056278
3.3758,0.005451,0.003927,-0.015039,-0.004791,-0.005057,0.011585,-0.001961,-0.505984,-0.01489,-0.368729,-261.148684,1.199648,66.051143
3.3957,0.005749,0.00413,-0.015254,-0.004564,-0.004895,0.011599,-0.002088,-0.506021,-0.014896,-0.368729,-261.148684,1.199648,66.051143
3.4159,0.005036,0.003956,-0.014119,-0.004386,-0.004766,0.011599,-0.002183,-0.505967,-0.01489,-0.398628,-261.150733,1.194676,66.046001
3.4356,0.004648,0.004115,-0.013006,-0.004235,-0.00466,0.011559,-0.002174,-0.505999,-0.014171,-0.398628,-261.150733,1.194676,66.046001
3.4559,0.005038,0.003732,-0.014554,-0.004117,-0.004575,0.011521,-0.002174,-0.505999,-0.014171,-0.398628,-261.150733,1.194676,66.046001
3.4757,0.004675,0.003836,-0.014517,-0.004023,-0.004506,0.011485,-0.002548,-0.506387,-0.014129,-0.473638,-261.152475,1.21629,66.041564
3.4959,0.004422,0.003944,-0.011851,-0.003861,-0.004382,0.011468,-0.00264,-0.506294,-0.014239,-0.473638,-261.152475,1.21629,66.041564
3.5154,0.004336,0.003432,-0.013821,-0.003733,-0.004281,0.011446,-0.001738,-0.506146,-0.011527,-0.548627,-261.154161,1.234807,66.037225
3.5358,0.004136,0.003565,-0.015128,-0.003623,-0.004168,0.011393,-0.002633,-0.506493,-0.013605,-0.548627,-261.154161,1.234807,66.037225
3.5554,0.004206,0.003665,-0.013367,-0.003535,-0.004077,0.011346,-0.002633,-0.506493,-0.013605,-0.548627,-261.154161,1.234807,66.037225
3.5754,0.003821,0.003244,-0.013808,-0.003466,-0.004003,0.011305,-0.002754,-0.506449,-0.012937,-0.623685,-261.155825,1.250996,66.032941
3.5954,0.003585,0.00329,-0.01367,-0.00336,-0.003912,0.011253,-0.002963,-0.506574,-0.013247,-0.623685,-261.155825,1.250996,66.032941
3.6154,0.003166,0.003111,-0.012,-0.003275,-0.003838,0.011206,-0.003488,-0.506778,-0.013341,-0.69686,-261.157481,1.263125,66.028749
3.6353,0.003558,0.003145,-0.012285,-0.003184,-0.003721,0.01109,-0.003005,-0.506852,-0.012098,-0.69686,-261.157481,1.263125,66.028749
3.6555,0.003086,0.003045,-0.01159,-0.003111,-0.003627,0.010996,-0.003005,-0.506852,-0.012098,-0.69686,-261.157481,1.263125,66.028749
3.6754,0.003051,0.00281,-0.012079,-0.003053,-0.003551,0.01092,-0.002959,-0.507073,-0.011138,-0.742596,-261.159195,1.273337,66.024441
3.6956,0.003015,0.003172,-0.011661,-0.002987,-0.003434,0.010809,-0.003036,-0.507124,-0.011471,-0.742596,-261.159195,1.273337,66.024441
3.7154,0.002426,0.00321,-0.010491,-0.002933,-0.003341,0.010721,-0.003026,-0.506901,-0.011328,-0.79588,-261.160865,1.280495,66.020357
3.7356,0.002479,0.00289,-0.011577,-0.002921,-0.003327,0.010537,-0.002937,-0.506778,-0.010545,-0.79588,-261.160865,1.280495,66.020357
3.7554,0.002573,0.002842,-0.009367,-0.00291,-0.003315,0.0104,-0.002937,-0.506778,-0.010545,-0.79588,-261.160865,1.280495,66.020357
3.7755,0.002019,0.002608,-0.010285,-0.002901,-0.003306,0.010297,-0.002325,-0.507272,-0.008928,-0.829827,-261.162567,1.28245,66.016317
3.7953,0.002303,0.002695,-0.012045,-0.002895,-0.003199,0.01008,-0.002706,-0.507326,-0.009429,-0.829827,-261.162567,1.28245,66.016317
3.8155,0.001564,0.002664,-0.010585,-0.002889,-0.003117,0.009921,-0.003932,-0.50737,-0.011722,-0.799511,-261.164209,1.277222,66.012362
3.8354,0.00167,0.002334,-0.00909,-0.002746,-0.003016,0.009972,-0.003847,-0.507318,-0.010669,-0.799511,-261.164209,1.277222,66.012362
3.8558,0.001374,0.002655,-0.008682,-0.002632,-0.002934,0.010005,-0.003847,-0.507318,-0.010669,-0.799511,-261.164209,1.277222,66.012362
3.8755,0.00107,0.002283,-0.009544,-0.00254,-0.002868,0.010024,-0.003175,-0.507455,-0.008267,-0.794482,-261.165852,1.265793,66.008529
3.8955,0.001212,0.002538,-0.008072,-0.00249,-0.002768,0.009768,-0.003441,-0.507566,-0.008736,-0.794482,-261.165852,1.265793,66.008529
3.9151,0.000964,0.002209,-0.010692,-0.002449,-0.00269,0.00958,-0.002972,-0.507519,-0.007818,-0.869381,-261.167175,1.295489,66.005534
3.9352,0.000956,0.002685,-0.009064,-0.002331,-0.002581,0.00967,-0.004356,-0.507744,-0.010421,-0.869381,-261.167175,1.295489,66.005534
3.9555,0.000952,0.002651,-0.00951,-0.002235,-0.002491,0.009733,-0.004356,-0.507744,-0.010421,-0.869381,-261.167175,1.295489,66.005534
3.9756,0.000781,0.002232,-0.007095,-0.002157,-0.002417,0.009776,-0.003999,-0.507434,-0.00912,-0.911619,-261.168729,1.291588,66.002081
3.9956,0.000408,0.002453,-0.010127,-0.002172,-0.002402,0.009472,-0.00354,-0.507577,-0.008255,-0.911619,-261.168729,1.291588,66.002081
4.0156,0.000127,0.002111,-0.0095,-0.002182,-0.00239,0.009254,-0.004814,-0.507584,-0.009878,-0.986612,-261.170065,1.319069,65.999297
4.0355,-3e-06,0.002294,-0.007836,-0.002078,-0.002301,0.009304,-0.00473,-0.507844,-0.009521,-0.986612,-261.170065,1.319069,65.999297
4.0558,0.000114,0.002027,-0.009916,-0.001993,-0.002228,0.009337,-0.00473,-0.507844,-0.009521,-0.986612,-261.170065,1.319069,65.999297
4.0757,8e-06,0.002058,-0.007427,-0.001924,-0.002169,0.009358,-0.005035,-0.508047,-0.00953,-0.981088,-261.17163,1.305823,65.995975
4.0956,-5.5e-05,0.00183,-0.009041,-0.001871,-0.002089,0.009239,-0.004534,-0.50801,-0.008629,-0.981088,-261.17163,1.305823,65.995975
4.1157,-0.000714,0.002015,-0.007583,-0.001827,-0.002026,0.00915,-0.00472,-0.508209,-0.008786,-1.056076,-261.173023,1.331486,65.993172
4.1359,-0.000453,0.002092,-0.006746,-0.001782,-0.001969,0.008902,-0.004596,-0.507994,-0.007674,-1.056076,-261.173023,1.331486,65.993172
4.1558,-0.000398,0.002217,-0.007978,-0.001745,-0.001923,0.008723,-0.004596,-0.507994,-0.007674,-1.056076,-261.173023,1.331486,65.993172
4.1757,-0.001295,0.001428,-0.007268,-0.001715,-0.001887,0.008594,-0.004542,-0.507848,-0.007606,-1.096891,-261.174588,1.335256,65.990112
4.1957,-0.000646,0.00209,-0.008124,-0.001675,-0.001825,0.00845,-0.004744,-0.508156,-0.00742,-1.096891,-261.174588,1.335256,65.990112
4.2159,-0.000909,0.001335,-0.007609,-0.001642,-0.001775,0.008346,-0.004844,-0.507952,-0.007852,-1.098927,-261.176089,1.334886,65.987192
4.2359,-0.001064,0.001542,-0.006772,-0.001607,-0.001657,0.008316,-0.004797,-0.508591,-0.007617,-1.098927,-261.176089,1.334886,65.987192
4.2563,-0.000993,0.00166,-0.006721,-0.001577,-0.001563,0.008293,-0.004797,-0.508591,-0.007617,-1.098927,-261.176089,1.334886,65.987192
4.2754,-0.001215,0.0018,-0.005601,-0.001552,-0.001487,0.008275,-0.00449,-0.508402,-0.006372,-1.111802,-261.17758,1.336245,65.984351
4.2954,-0.001138,0.00168,-0.006836,-0.001566,-0.001483,0.007862,-0.004321,-0.508321,-0.006004,-1.111802,-261.17758,1.336245,65.984351
4.3154,-0.001534,0.001767,-0.004444,-0.001575,-0.00148,0.007573,-0.004672,-0.508353,-0.006585,-1.160451,-261.179068,1.33788,65.981778
4.3358,-0.001417,0.001709,-0.00637,-0.001629,-0.001507,0.006925,-0.003877,-0.508241,-0.004615,-1.160451,-261.179068,1.33788,65.981778
4.3559,-0.001398,0.001703,-0.005967,-0.001669,-0.00153,0.006481,-0.003877,-0.508241,-0.004615,-1.160451,-261.179068,1.33788,65.981778
4.3753,-0.002147,0.001402,-0.006111,-0.0017,-0.00155,0.006178,-0.004504,-0.508346,-0.005667,-1.106452,-261.180401,1.31832,65.97939
4.3953,-0.001637,0.001568,-0.006126,-0.001639,-0.001506,0.006343,-0.004822,-0.508452,-0.005814,-1.106452,-261.180401,1.31832,65.97939
4.4154,-0.001985,0.001605,-0.006759,-0.001591,-0.00147,0.006462,-0.004788,-0.508448,-0.006018,-1.031586,-261.181002,1.261778,65.97819
4.4354,-0.002068,0.001568,-0.005779,-0.001529,-0.001446,0.006745,-0.005376,-0.50839,-0.006687,-1.031586,-261.181002,1.261778,65.97819
4.4556,-0.001844,0.001227,-0.006378,-0.001478,-0.001425,0.00695,-0.005376,-0.50839,-0.006687,-1.031586,-261.181002,1.261778,65.97819
4.476,-0.002057,0.001273,-0.005569,-0.001436,-0.001405,0.007097,-0.005162,-0.508822,-0.006114,-0.999847,-261.182152,1.2851,65.975983
4.4956,-0.00236,0.001512,-0.00505,-0.001409,-0.00132,0.007,-0.005061,-0.508786,-0.005859,-0.999847,-261.182152,1.2851,65.975983
4.5158,-0.00219,0.001429,-0.005476,-0.001387,-0.001253,0.00693,-0.004973,-0.508517,-0.004874,-1.074992,-261.183181,1.325556,65.974118
4.5358,-0.002344,0.001381,-0.006026,-0.001373,-0.00124,0.006748,-0.004984,-0.508561,-0.005417,-1.074992,-261.183181,1.325556,65.974118
4.5557,-0.002433,0.001726,-0.004478,-0.001361,-0.00123,0.006618,-0.004984,-0.508561,-0.005417,-1.074992,-261.183181,1.325556,65.974118
4.5757,-0.002857,0.001268,-0.004799,-0.001351,-0.001223,0.006526,-0.004772,-0.508318,-0.004205,-1.135261,-261.18442,1.32319,65.971985
4.5957,-0.002526,0.001425,-0.003848,-0.001341,-0.001227,0.00614,-0.004996,-0.508491,-0.004417,-1.135261,-261.18442,1.32319,65.971985
4.6154,-0.003107,0.001187,-0.002694,-0.001332,-0.001232,0.00587,-0.004532,-0.508609,-0.003642,-1.115858,-261.18564,1.316911,65.96985
4.636,-0.002896,0.001125,-0.004685,-0.001361,-0.001182,0.005038,-0.004488,-0.508795,-0.002769,-1.115858,-261.18564,1.316911,65.96985
4.6567,-0.002687,0.000974,-0.003245,-0.001379,-0.001148,0.004468,-0.004488,-0.508795,-0.002769,-1.115858,-261.18564,1.316911,65.96985
4.6755,-0.002888,0.001296,-0.003802,-0.001391,-0.001125,0.004079,-0.004395,-0.509072,-0.00301,-1.055739,-261.186657,1.300994,65.967971
4.6958,-0.003275,0.001351,-0.003178,-0.00139,-0.001082,0.004033,-0.004567,-0.508934,-0.00329,-1.055739,-261.186657,1.300994,65.967971
4.7156,-0.003072,0.001301,-0.003013,-0.001388,-0.001049,0.004006,-0.004905,-0.508654,-0.003145,-0.98074,-261.186847,1.225995,65.967594
4.7356,-0.00317,0.001589,-0.004458,-0.001384,-0.001069,0.003881,-0.004634,-0.508693,-0.003022,-0.98074,-261.186847,1.225995,65.967594
4.7556,-0.002809,0.001244,-0.004802,-0.00138,-0.001086,0.003795,-0.004634,-0.508693,-0.003022,-0.98074,-261.186847,1.225995,65.967594
4.7755,-0.002881,0.001038,-0.002163,-0.001377,-0.001101,0.003737,-0.005288,-0.508772,-0.004708,-0.905606,-261.187275,1.192822,65.966776
4.7955,-0.003328,0.001254,-0.003089,-0.001364,-0.001085,0.003935,-0.004755,-0.508852,-0.003651,-0.905606,-261.187275,1.192822,65.966776
4.8155,-0.003382,0.001221,-0.003059,-0.001354,-0.001072,0.004075,-0.004925,-0.50876,-0.003023,-0.830607,-261.187665,1.1842,65.965991
4.8357,-0.003046,0.000924,-0.002626,-0.001334,-0.001078,0.003945,-0.004942,-0.508776,-0.003053,-0.830607,-261.187665,1.1842,65.965991
4.856,-0.003232,0.001151,-0.002565,-0.001318,-0.001083,0.003852,-0.004942,-0.508776,-0.003053,-0.830607,-261.187665,1.1842,65.965991
4.8753,-0.003781,0.00089,-0.003281,-0.001304,-0.001087,0.003785,-0.004596,-0.508891,-0.002397,-0.808358,-261.188434,1.20751,65.964496
4.8955,-0.003385,0.000785,-0.001721,-0.001291,-0.00105,0.003611,-0.004952,-0.508984,-0.002738,-0.808358,-261.188434,1.20751,65.964496
4.9152,-0.004014,0.001155,-0.002947,-0.00128,-0.001022,0.003488,-0.004302,-0.509247,-0.001606,-0.754106,-261.189117,1.204366,65.963107
4.9353,-0.003593,0.000718,-0.002384,-0.001244,-0.001011,0.003434,-0.00541,-0.50888,-0.002821,-0.754106,-261.189117,1.204366,65.963107
4.9555,-0.003694,0.001192,-0.003222,-0.001214,-0.001002,0.003394,-0.00541,-0.50888,-0.002821,-0.754106,-261.189117,1.204366,65.963107
4.9754,-0.004006,0.001087,-0.004663,-0.00119,-0.000995,0.003365,-0.00539,-0.508847,-0.003081,-0.713851,-261.189773,1.185139,65.961789
4.9957,-0.003961,0.001398,-0.004798,-0.001154,-0.000988,0.003671,-0.005801,-0.508876,-0.00371,-0.713851,-261.189773,1.185139,65.961789
5.0157,-0.00406,0.000675,-0.001962,-0.001125,-0.000981,0.003885,-0.006445,-0.508627,-0.004691,-0.727906,-261.190407,1.198739,65.960488
5.0361,-0.003965,0.000632,-0.003389,-0.001132,-0.000906,0.003431,-0.005187,-0.509263,-0.002202,-0.727906,-261.190407,1.198739,65.960488
5.0555,-0.004204,0.000717,-0.001857,-0.001135,-0.000848,0.003114,-0.005187,-0.509263,-0.002202,-0.727906,-261.190407,1.198739,65.960488
5.0753,-0.003892,0.000937,-0.001705,-0.001135,-0.000803,0.002891,-0.005182,-0.509309,-0.001757,-0.802916,-261.190859,1.247054,65.959595
5.0952,-0.004235,0.000445,-0.002363,-0.001147,-0.000777,0.002507,-0.005011,-0.50921,-0.001724,-0.802916,-261.190859,1.247054,65.959595
5.1154,-0.004288,0.000922,-0.002595,-0.001155,-0.000757,0.00224,-0.005466,-0.509572,-0.002294,-0.727569,-261.1913,1.171707,65.958762
5.1353,-0.004257,0.000867,-0.001588,-0.001129,-0.000757,0.002435,-0.0056,-0.50912,-0.002566,-0.727569,-261.1913,1.171707,65.958762
5.1557,-0.004177,0.001071,-0.002382,-0.001107,-0.000756,0.002572,-0.0056,-0.50912,-0.002566,-0.727569,-261.1913,1.171707,65.958762
5.1752,-0.003717,0.001002,-0.003215,-0.00109,-0.000754,0.002668,-0.005407,-0.508937,-0.002348,-0.652809,-261.191475,1.096947,65.958439
5.1955,-0.004141,0.000982,-0.002742,-0.001088,-0.000784,0.002783,-0.005388,-0.508962,-0.002696,-0.652809,-261.191475,1.096947,65.958439
5.2154,-0.004288,0.000827,-0.002496,-0.001086,-0.000806,0.002864,-0.005573,-0.509039,-0.002661,-0.676463,-261.192012,1.141773,65.957431
5.2355,-0.004681,0.000985,-0.0014,-0.001076,-0.000786,0.002845,-0.005564,-0.509161,-0.002506,-0.676463,-261.192012,1.141773,65.957431
5.2555,-0.004386,0.000817,-0.002381,-0.001067,-0.000769,0.00283,-0.005564,-0.509161,-0.002506,-0.676463,-261.192012,1.141773,65.957431
5.2754,-0.00431,0.00073,-0.00144,-0.00106,-0.000756,0.002819,-0.005645,-0.509214,-0.002265,-0.714605,-261.192568,1.1688,65.956358
5.2958,-0.004408,0.000757,-0.001943,-0.001063,-0.00073,0.002543,-0.005403,-0.509241,-0.001912,-0.714605,-261.192568,1.1688,65.956358
5.3156,-0.004595,0.000747,-0.000836,-0.001064,-0.00071,0.00235,-0.005433,-0.509266,-0.001854,-0.739029,-261.193135,1.166695,65.955293
5.3356,-0.004459,0.000752,-0.001008,-0.001088,-0.000689,0.00171,-0.00506,-0.509255,-0.000923,-0.739029,-261.193135,1.166695,65.955293
5.3555,-0.004514,0.000674,-0.001417,-0.001105,-0.000676,0.001262,-0.00506,-0.509255,-0.000923,-0.739029,-261.193135,1.166695,65.955293
5.3756,-0.004568,0.000823,-0.001593,-0.001116,-0.000668,0.000949,-0.005267,-0.509345,-0.001347,-0.664203,-261.193492,1.110341,65.954628
5.3956,-0.004802,0.000738,-0.00098,-0.001108,-0.00066,0.001004,-0.005318,-0.509277,-0.001442,-0.664203,-261.193492,1.110341,65.954628
5.4153,-0.004351,0.000846,-0.001373,-0.001101,-0.000654,0.001044,-0.005302,-0.509261,-0.00098,-0.588933,-261.193492,1.035071,65.954628
5.4356,-0.004929,0.000786,-0.001779,-0.00111,-0.000672,0.001022,-0.005073,-0.509163,-0.001339,-0.588933,-261.193492,1.035071,65.954628
5.4557,-0.004718,0.000551,-0.001343,-0.001118,-0.000687,0.001007,-0.005073,-0.509163,-0.001339,-0.588933,-261.193492,1.035071,65.954628
5.4752,-0.004655,0.000132,-0.001747,-0.001124,-0.000699,0.000998,-0.005403,-0.509449,-0.001343,-0.514107,-261.193493,0.960245,65.954627
5.4954,-0.004461,0.000816,-0.00092,-0.001108,-0.000624,0.001085,-0.005461,-0.509619,-0.001508,-0.514107,-261.193493,0.960245,65.954627
5.5153,-0.004709,0.000821,-0.003101,-0.001095,-0.000564,0.001146,-0.00493,-0.509184,-0.00092,-0.439096,-261.193494,0.885234,65.954626
5.5354,-0.004836,0.000591,-0.002013,-0.001052,-0.000593,0.001777,-0.006174,-0.509177,-0.002913,-0.439096,-261.193494,0.885234,65.954626
5.5555,-0.004444,0.000502,-0.001557,-0.001019,-0.000612,0.002223,-0.006174,-0.509177,-0.002913,-0.439096,-261.193494,0.885234,65.954626
5.576,-0.004856,0.000703,-0.001781,-0.000992,-0.000625,0.002536,-0.005247,-0.509501,-0.001546,-0.364109,-261.19358,0.856861,65.954495
5.5953,-0.004682,0.000678,-0.002444,-0.001003,-0.000593,0.002209,-0.00546,-0.509417,-0.001641,-0.364109,-261.19358,0.856861,65.954495
5.6159,-0.004455,0.000777,-0.000584,-0.001011,-0.000567,0.001978,-0.005929,-0.509321,-0.002442,-0.439092,-261.193593,0.931844,65.954473
5.6354,-0.004341,0.000488,-0.003032,-0.00106,-0.000583,0.001353,-0.004858,-0.509232,-0.00075,-0.439092,-261.193593,0.931844,65.954473
5.6554,-0.004663,0.000917,-0.001927,-0.001096,-0.000598,0.000915,-0.004858,-0.509232,-0.00075,-0.439092,-261.193593,0.931844,65.954473
5.6755,-0.004574,0.000618,-0.002102,-0.001124,-0.000614,0.000609,-0.005673,-0.509096,-0.001879,-0.514006,-261.193885,1.006757,65.953974
5.6954,-0.004705,0.000418,-0.00314,-0.001093,-0.000628,0.001002,-0.005665,-0.509214,-0.001965,-0.514006,-261.193885,1.006757,65.953974
5.7159,-0.004794,0.000816,-0.001208,-0.001069,-0.000638,0.001281,-0.006306,-0.509579,-0.00314,-0.439005,-261.193885,0.931756,65.953974
5.7355,-0.004407,0.000629,-0.002675,-0.00106,-0.000643,0.001201,-0.005491,-0.509219,-0.001381,-0.439005,-261.193885,0.931756,65.953974
5.7558,-0.004275,0.000749,-0.001978,-0.001052,-0.000647,0.001143,-0.005491,-0.509219,-0.001381,-0.439005,-261.193885,0.931756,65.953974
5.7756,-0.004848,0.000697,-0.000923,-0.001046,-0.00065,0.001102,-0.005293,-0.509255,-0.001964,-0.364013,-261.193981,0.925392,65.953816
5.7954,-0.004888,0.000815,-0.001841,-0.00105,-0.000646,0.001148,-0.005305,-0.509275,-0.001537,-0.364013,-261.193981,0.925392,65.953816
5.816,-0.00456,0.000502,-0.003411,-0.001053,-0.000642,0.00118,-0.005832,-0.509187,-0.001834,-0.28901,-261.194042,0.901967,65.953718
5.8353,-0.004456,0.000382,-0.001417,-0.001021,-0.000611,0.001892,-0.006257,-0.509467,-0.003266,-0.28901,-261.194042,0.901967,65.953718
5.8557,-0.004986,0.000565,-0.003035,-0.000993,-0.000581,0.002397,-0.006257,-0.509467,-0.003266,-0.28901,-261.194042,0.901967,65.953718
5.8758,-0.004472,0.000685,-0.002612,-0.000971,-0.000554,0.002752,-0.006555,-0.509444,-0.003009,-0.214005,-261.194242,0.912994,65.953391
5.8954,-0.004629,0.00088,-0.000324,-0.000951,-0.00054,0.002848,-0.006251,-0.509392,-0.002844,-0.214005,-261.194242,0.912994,65.953391
5.916,-0.004529,0.000859,-0.000704,-0.000935,-0.000528,0.002913,-0.004795,-0.50912,-0.000323,-0.289046,-261.194246,0.988035,65.953385
5.9358,-0.005078,0.00071,-0.001619,-0.001006,-0.000562,0.001931,-0.00488,-0.509139,-0.000671,-0.289046,-261.194246,0.988035,65.953385
5.9559,-0.004794,0.000456,-0.001785,-0.001056,-0.000594,0.001246,-0.00488,-0.509139,-0.000671,-0.289046,-261.194246,0.988035,65.953385
5.9759,-0.00476,0.000822,-0.00338,-0.001093,-0.000624,0.000772,-0.005704,-0.509543,-0.001785,-0.364105,-261.194246,1.063094,65.953384
5.9955,-0.004653,0.000894,-0.002059,-0.001057,-0.000604,0.001285,-0.006022,-0.509393,-0.002434,-0.364105,-261.194246,1.063094,65.953384
6.0156,-0.004675,0.000604,-0.001507,-0.001027,-0.000586,0.001651,-0.005703,-0.509105,-0.002059,-0.289168,-261.194248,0.988158,65.953382
6.0359,-0.004638,0.000481,-0.001436,-0.001028,-0.000571,0.001522,-0.005466,-0.50937,-0.001555,-0.289168,-261.194248,0.988158,65.953382
6.0562,-0.004873,0.001063,-0.001771,-0.001028,-0.00056,0.001433,-0.005466,-0.50937,-0.001555,-0.289168,-261.194248,0.988158,65.953382
6.0756,-0.00519,0.000488,-0.000901,-0.001028,-0.000552,0.001374,-0.005814,-0.508957,-0.001713,-0.364234,-261.194624,0.998339,65.952741
6.0956,-0.004742,0.00065,-0.001219,-0.001014,-0.000576,0.001249,-0.005753,-0.509177,-0.001388,-0.364234,-261.194624,0.998339,65.952741
6.1153,-0.004819,0.000243,-0.002166,-0.001002,-0.000595,0.001163,-0.005393,-0.509366,-0.001178,-0.297376,-261.195009,0.949324,65.952108
6.1358,-0.004913,0.000551,-0.002014,-0.00099,-0.000522,0.001431,-0.005877,-0.509721,-0.002075,-0.297376,-261.195009,0.949324,65.952108
6.1559,-0.004667,0.000675,-0.002053,-0.00098,-0.000463,0.00162,-0.005877,-0.509721,-0.002075,-0.297376,-261.195009,0.949324,65.952108
6.1754,-0.004746,0.000633,-0.002091,-0.000972,-0.000413,0.001753,-0.005738,-0.509337,-0.002023,-0.222386,-261.19524,0.916368,65.95173
6.1958,-0.004724,0.000666,-0.00216,-0.000965,-0.000436,0.001828,-0.005771,-0.509351,-0.002047,-0.222386,-261.19524,0.916368,65.95173
6.2155,-0.004879,0.000645,-0.001767,-0.00096,-0.000453,0.001881,-0.005829,-0.509335,-0.002155,-0.297484,-261.195285,0.991017,65.951663
6.2362,-0.005022,0.000705,-0.001029,-0.000956,-0.000465,0.001805,-0.005785,-0.509353,-0.0018,-0.297484,-261.195285,0.991017,65.951663
6.2554,-0.004938,0.000486,-0.00257,-0.000953,-0.000474,0.001752,-0.005785,-0.509353,-0.0018,-0.297484,-261.195285,0.991017,65.951663
6.2755,-0.004987,0.000328,-0.000132,-0.000951,-0.000482,0.001715,-0.006255,-0.509517,-0.002558,-0.3725,-261.195363,1.030725,65.951539
6.2958,-0.004899,0.000772,-0.002731,-0.000952,-0.000448,0.00158,-0.005765,-0.509581,-0.001564,-0.3725,-261.195363,1.030725,65.951539
6.3153,-0.004797,0.000659,-0.001354,-0.000952,-0.000422,0.001486,-0.006312,-0.509237,-0.002697,-0.447392,-261.195649,1.014625,65.951074
6.3356,-0.004796,0.000565,-0.000224,-0.000959,-0.000445,0.001373,-0.005564,-0.509332,-0.001475,-0.447392,-261.195649,1.014625,65.951074
6.3556,-0.005258,0.000354,-0.00164,-0.000965,-0.000464,0.001295,-0.005564,-0.509332,-0.001475,-0.447392,-261.195649,1.014625,65.951074
6.3755,-0.005327,0.000495,-0.00099,-0.000969,-0.00048,0.001241,-0.006131,-0.509662,-0.001583,-0.471506,-261.196045,0.949498,65.950468
6.3956,-0.005001,0.00024,-0.002521,-0.000956,-0.000444,0.001138,-0.006013,-0.5096,-0.001334,-0.471506,-261.196045,0.949498,65.950468
6.4153,-0.005125,0.000772,-0.002607,-0.000944,-0.000416,0.001066,-0.006303,-0.509766,-0.002499,-0.396507,-261.196261,0.906336,65.950131
6.4357,-0.004911,0.000465,-0.002597,-0.000918,-0.000451,0.001564,-0.006442,-0.509273,-0.002596,-0.396507,-261.196261,0.906336,65.950131
6.4554,-0.005113,0.000548,-0.001348,-0.000898,-0.000475,0.001916,-0.006442,-0.509273,-0.002596,-0.396507,-261.196261,0.906336,65.950131
6.4757,-0.005353,0.000299,-0.001274,-0.000882,-0.000493,0.002163,-0.005826,-0.509462,-0.001318,-0.321413,-261.196513,0.846518,65.949762
6.4955,-0.005062,0.000627,-0.001447,-0.000893,-0.000457,0.001753,-0.005901,-0.50956,-0.001296,-0.321413,-261.196513,0.846518,65.949762
6.5152,-0.005164,0.000118,-0.001234,-0.0009,-0.000429,0.001467,-0.005801,-0.509373,-0.001446,-0.396319,-261.19652,0.921424,65.949751
6.5356,-0.005426,0.000304,-0.00165,-0.000913,-0.00036,0.001249,-0.005795,-0.509836,-0.001253,-0.396319,-261.19652,0.921424,65.949751
6.5556,-0.00538,0.000782,-0.001897,-0.000921,-0.000307,0.001098,-0.005795,-0.509836,-0.001253,-0.396319,-261.19652,0.921424,65.949751
6.5757,-0.005241,0.000399,-0.000334,-0.000927,-0.000265,0.000993,-0.00638,-0.509233,-0.001844,-0.471319,-261.196867,0.974179,65.949202
6.5955,-0.005267,0.000223,-0.000417,-0.000917,-0.000306,0.000898,-0.005988,-0.509385,-0.001221,-0.471319,-261.196867,0.974179,65.949202
6.6154,-0.005081,0.000528,-0.00249,-0.00091,-0.00034,0.000832,-0.00549,-0.50978,-0.000404,-0.396263,-261.197013,0.899124,65.949015
6.6356,-0.005125,0.000556,-0.002566,-0.000894,-0.000354,0.001281,-0.006273,-0.509499,-0.0023,-0.396263,-261.197013,0.899124,65.949015
6.6557,-0.005295,0.000521,-0.001109,-0.000881,-0.000362,0.001599,-0.006273,-0.509499,-0.0023,-0.396263,-261.197013,0.899124,65.949015
6.6757,-0.005401,0.000491,-0.000788,-0.000872,-0.000366,0.001824,-0.005873,-0.509483,-0.001095,-0.321313,-261.197137,0.824174,65.948848
6.6955,-0.005262,0.000199,-0.000967,-0.000885,-0.000365,0.001348,-0.005846,-0.509494,-0.000969,-0.321313,-261.197137,0.824174,65.948848
6.7155,-0.005256,0.000449,-0.002214,-0.000894,-0.000366,0.001015,-0.005757,-0.509802,-0.000965,-0.39631,-261.197155,0.899171,65.94882
6.7358,-0.005163,0.000779,-0.001222,-0.00088,-0.00036,0.001326,-0.006328,-0.509573,-0.002101,-0.39631,-261.197155,0.899171,65.94882
6.7558,-0.004974,0.000955,-0.001863,-0.00087,-0.000353,0.001547,-0.006328,-0.509573,-0.002101,-0.39631,-261.197155,0.899171,65.94882
6.7759,-0.005473,0.000924,-0.003101,-0.000861,-0.000346,0.001703,-0.005951,-0.509055,-0.00183,-0.321263,-261.197431,0.834236,65.948425
6.7956,-0.005509,0.000462,0.001149,-0.000852,-0.000419,0.001906,-0.006403,-0.509064,-0.002343,-0.321263,-261.197431,0.834236,65.948425
6.8152,-0.005201,0.000606,-0.000209,-0.000845,-0.000477,0.002048,-0.004925,-0.509539,0.001153,-0.396215,-261.197464,0.909188,65.948376
6.8356,-0.005183,0.000346,-0.001061,-0.000908,-0.000463,0.001018,-0.005273,-0.509407,-8.6e-05,-0.396215,-261.197464,0.909188,65.948376
6.8557,-0.005575,0.000505,-0.001983,-0.000953,-0.000457,0.000292,-0.005273,-0.509407,-8.6e-05,-0.396215,-261.197464,0.909188,65.948376
6.8757,-0.005377,0.00066,-0.002447,-0.000984,-0.000457,-0.000217,-0.006589,-0.509495,-0.001978,-0.471208,-261.197497,0.984181,65.948321
6.8958,-0.005455,6.6e-05,-0.00198,-0.000945,-0.000462,0.000469,-0.006604,-0.509432,-0.002167,-0.471208,-261.197497,0.984181,65.948321
6.9162,-0.00567,0.0004,0.000149,-0.000913,-0.000462,0.00096,-0.006465,-0.509933,-0.00198,-0.396208,-261.197497,0.909181,65.948321
6.9354,-0.005136,0.000815,-0.000957,-0.000934,-0.000416,0.000266,-0.005695,-0.509638,-9.9e-05,-0.396208,-261.197497,0.909181,65.948321
6.9554,-0.005421,0.00093,-0.000521,-0.000947,-0.000382,-0.000222,-0.005695,-0.509638,-9.9e-05,-0.396208,-261.197497,0.909181,65.948321
6.9754,-0.005394,0.00067,0.000642,-0.000953,-0.000359,-0.000564,-0.005698,-0.509075,-0.000507,-0.321201,-261.197614,0.853754,65.948145
6.9954,-0.005457,0.000504,-0.001542,-0.000968,-0.000424,-0.000844,-0.005443,-0.509179,-3.8e-05,-0.321201,-261.197614,0.853754,65.948145
7.0153,-0.005466,0.000472,-0.001683,-0.000979,-0.000478,-0.001038,-0.006243,-0.509495,-0.001542,-0.246202,-261.197614,0.778755,65.948145
7.0354,-0.005514,0.000271,-0.000349,-0.000947,-0.000467,-0.000321,-0.006317,-0.509524,-0.001671,-0.246202,-261.197614,0.778755,65.948145
7.0554,-0.00538,0.000415,-0.000462,-0.000921,-0.000455,0.000191,-0.006317,-0.509524,-0.001671,-0.246202,-261.197614,0.778755,65.948145
7.0756,-0.00522,0.000615,-0.002676,-0.0009,-0.000443,0.000555,-0.005615,-0.509585,-0.000462,-0.171204,-261.197614,0.703757,65.948145
7.0958,-0.005314,0.000419,-0.001612,-0.000894,-0.000434,0.000663,-0.006008,-0.509503,-0.001359,-0.171204,-261.197614,0.703757,65.948145
7.1155,-0.005647,0.000365,-0.002014,-0.00089,-0.000427,0.000741,-0.006136,-0.50958,-0.001612,-0.096195,-261.197616,0.628748,65.948142
7.1355,-0.005461,0.000339,-0.001366,-0.000868,-0.000403,0.001086,-0.006626,-0.509629,-0.001978,-0.096195,-261.197616,0.628748,65.948142
7.1556,-0.005365,0.000285,-0.000684,-0.000851,-0.000381,0.00133,-0.006626,-0.509629,-0.001978,-0.096195,-261.197616,0.628748,65.948142
7.176,-0.00564,0.000191,-0.000877,-0.000837,-0.000362,0.001501,-0.005739,-0.509725,-0.000666,-0.028555,-261.197847,0.70374,65.947819
7.1956,-0.005185,0.000904,-0.00326,-0.000857,-0.000318,0.001013,-0.005886,-0.509761,-0.000751,-0.028555,-261.197847,0.70374,65.947819
7.2155,-0.005346,0.000336,0.000714,-0.000871,-0.000284,0.00067,-0.006848,-0.509093,-0.00326,-0.103818,-261.197847,0.779003,65.947818
7.2359,-0.005593,0.000292,-0.001336,-0.000932,-0.000278,-0.000179,-0.005153,-0.509612,0.000351,-0.103818,-261.197847,0.779003,65.947818
7.2559,-0.005523,0.001019,-0.002147,-0.000976,-0.000276,-0.00078,-0.005153,-0.509612,0.000351,-0.103818,-261.197847,0.779003,65.947818
7.2754,-0.00581,0.000853,-0.001664,-0.001009,-0.000279,-0.001205,-0.006648,-0.50899,-0.002123,-0.14249,-261.198134,0.704264,65.947455
7.2954,-0.005518,0.000673,-0.000533,-0.00096,-0.000376,-0.000336,-0.006655,-0.509055,-0.001932,-0.14249,-261.198134,0.704264,65.947455
7.3159,-0.005172,0.000419,-0.001245,-0.000922,-0.000451,0.000284,-0.005789,-0.509327,-0.000533,-0.067389,-261.198134,0.629162,65.947455
7.3357,-0.005816,0.000522,-0.000427,-0.000921,-0.000431,0.00038,-0.005806,-0.509558,-0.001181,-0.067389,-261.198134,0.629162,65.947455
7.3556,-0.00537,0.000673,-0.001682,-0.00092,-0.000416,0.00045,-0.005806,-0.509558,-0.001181,-0.067389,-261.198134,0.629162,65.947455
7.3754,-0.005692,0.000175,-0.000439,-0.00092,-0.000403,0.000501,-0.006232,-0.509328,-0.001679,0.007506,-261.19818,0.595228,65.947402
7.3957,-0.005534,0.000343,-0.001973,-0.000907,-0.000396,0.000536,-0.006104,-0.50953,-0.001176,0.007506,-261.19818,0.595228,65.947402
7.4156,-0.005866,0.00056,0.000916,-0.000897,-0.000391,0.00056,-0.006563,-0.509666,-0.001959,0.082503,-261.198479,0.656811,65.947026
7.4358,-0.005583,0.000675,-0.00182,-0.000936,-0.00039,-0.000409,-0.005505,-0.509461,0.000657,0.082503,-261.198479,0.656811,65.947026
7.4558,-0.005257,0.000397,-0.000775,-0.000962,-0.000393,-0.001102,-0.005505,-0.509461,0.000657,0.082503,-261.198479,0.656811,65.947026
7.4754,-0.005738,0.000477,0.000293,-0.000979,-0.000398,-0.001595,-0.005689,-0.509619,-0.000752,0.054195,-261.198829,0.685192,65.946574
7.496,-0.005747,0.000656,-0.002018,-0.000974,-0.00039,-0.001401,-0.005652,-0.509582,-0.000323,0.054195,-261.198829,0.685192,65.946574
7.5161,-0.005819,0.000337,-0.000707,-0.000969,-0.000383,-0.001261,-0.006776,-0.509343,-0.002018,0.129247,-261.198829,0.610141,65.946574
7.5358,-0.00546,0.000568,-0.001148,-0.00094,-0.000371,-0.00088,-0.006238,-0.509631,-0.000836,0.129247,-261.198829,0.610141,65.946574
7.556,-0.005614,0.000292,-0.000465,-0.000917,-0.00036,-0.00061,-0.006238,-0.509631,-0.000836,0.129247,-261.198829,0.610141,65.946574
7.5758,-0.005624,-0.000196,-0.002615,-0.000898,-0.00035,-0.000419,-0.005851,-0.509708,-0.000465,0.204189,-261.198829,0.535199,65.946574
7.5957,-0.005583,0.000456,-0.001363,-0.000884,-0.0003,-3.3e-05,-0.006292,-0.509902,-0.001321,0.204189,-261.198829,0.535199,65.946574
7.6158,-0.005614,0.000303,-0.000903,-0.000873,-0.000258,0.00024,-0.006278,-0.509543,-0.001363,0.279192,-261.198831,0.460196,65.946573
7.6359,-0.005538,0.000321,-0.001686,-0.000868,-0.000255,0.000237,-0.006093,-0.509683,-0.000945,0.279192,-261.198831,0.460196,65.946573
7.6558,-0.005557,0.0004,-0.000518,-0.000864,-0.000252,0.000235,-0.006093,-0.509683,-0.000945,0.279192,-261.198831,0.460196,65.946573
7.6758,-0.005267,0.000296,-0.000749,-0.000861,-0.00025,0.000232,-0.005846,-0.509609,-0.000513,0.204193,-261.19907,0.433872,65.946311
7.6958,-0.005925,0.00048,-0.001797,-0.000873,-0.000252,5.1e-05,-0.005768,-0.509649,-0.000609,0.204193,-261.19907,0.433872,65.946311
7.7156,-0.005841,0.000182,-0.000471,-0.000883,-0.000255,-7.7e-05,-0.006866,-0.509526,-0.00179,0.129131,-261.199384,0.426759,65.945969
7.7357,-0.005707,0.0004,-0.002696,-0.000877,-0.000234,-0.000178,-0.00615,-0.509793,-0.000585,0.129131,-261.199384,0.426759,65.945969
7.7555,-0.005774,0.000163,-0.000803,-0.000872,-0.000217,-0.000249,-0.00615,-0.509793,-0.000585,0.129131,-261.199384,0.426759,65.945969
7.7755,-0.005898,0.000534,-0.000572,-0.000867,-0.000204,-0.0003,-0.006193,-0.50984,-0.000801,0.204157,-261.19949,0.351733,65.945866
7.7957,-0.005573,0.000629,-0.000558,-0.000859,-0.000211,-0.000272,-0.006193,-0.509686,-0.000706,0.204157,-261.19949,0.351733,65.945866
7.8158,-0.00579,0.000362,-0.001013,-0.000853,-0.000217,-0.000253,-0.00586,-0.509372,-0.000558,0.279246,-261.199521,0.276644,65.945838
7.8358,-0.00569,0.000535,-0.000622,-0.000843,-0.000233,-9.6e-05,-0.006272,-0.509616,-0.000977,0.279246,-261.199521,0.276644,65.945838
7.8559,-0.006246,0.000155,-0.002893,-0.000836,-0.000246,1.4e-05,-0.006272,-0.509616,-0.000977,0.279246,-261.199521,0.276644,65.945838
7.8757,-0.006088,0.000518,0.00032,-0.000831,-0.000255,9.2e-05,-0.007736,-0.509847,-0.002895,0.354402,-261.199665,0.201488,65.945705
7.8956,-0.005826,0.000238,-0.000837,-0.000807,-0.000253,0.000451,-0.007001,-0.509699,-0.001588,0.354402,-261.199665,0.201488,65.945705
7.9152,-0.005751,0.000331,-0.000787,-0.000788,-0.000248,0.000705,-0.006268,-0.509765,-0.000837,0.279739,-261.199849,0.276152,65.945515
7.9358,-0.005756,0.000517,-0.001021,-0.000799,-0.000243,0.000478,-0.006164,-0.509677,-0.000792,0.279739,-261.199849,0.276152,65.945515
7.9558,-0.005717,0.00038,-0.000649,-0.000807,-0.00024,0.000317,-0.006164,-0.509677,-0.000792,0.279739,-261.199849,0.276152,65.945515
7.9755,-0.005763,6.1e-05,-0.001159,-0.000813,-0.000238,0.000204,-0.006048,-0.50962,-0.000649,0.204739,-261.199849,0.351152,65.945515
7.9957,-0.006006,0.00042,-0.000131,-0.000818,-0.000225,0.00016,-0.006172,-0.509749,-0.000856,0.204739,-261.199849,0.351152,65.945515
8.0152,-0.005737,9.3e-05,-0.001087,-0.000822,-0.000216,0.00013,-0.006095,-0.509587,-0.000125,0.138281,-261.200133,0.419579,65.945207
8.0356,-0.005599,0.000316,-0.002253,-0.000823,-0.000188,0.000185,-0.006274,-0.509878,-0.000999,0.138281,-261.200133,0.419579,65.945207
8.0553,-0.005703,0.000293,-0.001148,-0.000823,-0.000166,0.000225,-0.006274,-0.509878,-0.000999,0.138281,-261.200133,0.419579,65.945207
8.0757,-0.006114,0.000507,-0.001063,-0.000823,-0.000147,0.000253,-0.006319,-0.509715,-0.001143,0.164291,-261.200434,0.344568,65.944891
8.0953,-0.0058,0.000595,-0.001354,-0.000813,-0.000173,0.000326,-0.00646,-0.509625,-0.00111,0.164291,-261.200434,0.344568,65.944891
8.1155,-0.006049,0.000403,-0.001833,-0.000806,-0.000193,0.000377,-0.006507,-0.509409,-0.001351,0.089298,-261.200638,0.351382,65.944674
8.1355,-0.005999,0.000354,-0.001219,-0.000786,-0.000217,0.000742,-0.006943,-0.50958,-0.001791,0.089298,-261.200638,0.351382,65.944674
8.1555,-0.005648,0.000573,-0.001658,-0.000772,-0.000235,0.001,-0.006943,-0.50958,-0.001791,0.089298,-261.200638,0.351382,65.944674
8.1755,-0.005794,0.00053,-0.00149,-0.000761,-0.000249,0.001181,-0.006513,-0.509431,-0.001651,0.01419,-261.200819,0.42649,65.94447
8.1955,-0.005789,0.000337,-0.001643,-0.000762,-0.000279,0.001207,-0.006532,-0.509447,-0.001583,0.01419,-261.200819,0.42649,65.94447
8.2154,-0.005558,0.000344,0.000187,-0.000764,-0.000303,0.001225,-0.006627,-0.509662,-0.001643,-0.060846,-261.200819,0.501525,65.94447
8.2356,-0.006097,0.000276,-0.000489,-0.000821,-0.00028,0.000385,-0.005563,-0.509656,2.9e-05,-0.060846,-261.200819,0.501525,65.94447
8.2553,-0.005746,0.000442,-0.002695,-0.000861,-0.000266,-0.000209,-0.005563,-0.509656,2.9e-05,-0.060846,-261.200819,0.501525,65.94447
8.2755,-0.006129,4.6e-05,-0.000565,-0.00089,-0.000259,-0.000626,-0.007121,-0.509556,-0.002695,-0.135813,-261.20082,0.576492,65.944469
8.2956,-0.005997,0.000446,-0.001485,-0.000861,-0.000257,3.8e-05,-0.006833,-0.509719,-0.001824,-0.135813,-261.20082,0.576492,65.944469
8.3157,-0.005805,8.8e-05,0.000427,-0.000837,-0.000252,0.000512,-0.006754,-0.509554,-0.001485,-0.060915,-261.20082,0.501595,65.944469
8.3354,-0.006073,0.000322,0.000367,-0.000874,-0.000203,-0.000239,-0.005691,-0.50988,0.000256,-0.060915,-261.20082,0.501595,65.944469
8.3556,-0.005901,0.000412,-0.000689,-0.0009,-0.000168,-0.000771,-0.005691,-0.50988,0.000256,-0.060915,-261.20082,0.501595,65.944469
8.3758,-0.005904,0.00013,-0.001006,-0.000917,-0.000143,-0.001145,-0.006283,-0.509597,-0.000671,-0.07278,-261.201112,0.576591,65.944117
8.3955,-0.006157,0.000517,-0.00036,-0.000893,-0.000162,-0.000824,-0.006342,-0.509709,-0.000806,-0.07278,-261.201112,0.576591,65.944117
8.4155,-0.006084,0.000526,-0.00235,-0.000874,-0.000175,-0.000595,-0.00634,-0.509483,-0.00036,0.002222,-261.201112,0.50159,65.944117
8.4355,-0.005878,0.000385,-0.001299,-0.000837,-0.000225,0.000208,-0.007202,-0.509473,-0.002179,0.002222,-261.201112,0.50159,65.944117
8.4555,-0.006145,0.000391,-0.000538,-0.000807,-0.000261,0.00078,-0.007202,-0.509473,-0.002179,0.002222,-261.201112,0.50159,65.944117
8.4755,-0.005569,0.000663,0.000523,-0.000784,-0.000288,0.001187,-0.006419,-0.509609,-0.000538,0.077326,-261.201112,0.426486,65.944117
8.4955,-0.006082,0.000384,-0.000311,-0.000814,-0.000296,0.000427,-0.005965,-0.509499,-0.000106,0.077326,-261.201112,0.426486,65.944117
8.5154,-0.005654,0.000193,-0.001421,-0.000833,-0.000306,-0.000109,-0.006241,-0.509616,-0.000311,0.002442,-261.201112,0.50137,65.944117
8.5355,-0.006341,0.000395,-0.000157,-0.000829,-0.000277,0.00017,-0.006367,-0.50979,-0.001327,0.002442,-261.201112,0.50137,65.944117
8.5556,-0.006165,6.1e-05,-0.000501,-0.000824,-0.000253,0.000371,-0.006367,-0.50979,-0.001327,0.002442,-261.201112,0.50137,65.944117
8.5753,-0.005826,0.000631,-0.001905,-0.000821,-0.000233,0.000514,-0.006421,-0.509939,-0.0005,0.077571,-261.201121,0.426241,65.944108
8.5953,-0.006215,0.000496,-0.001267,-0.000812,-0.000228,0.000489,-0.006576,-0.509704,-0.001078,0.077571,-261.201121,0.426241,65.944108
8.6152,-0.005787,0.00069,-0.000689,-0.000804,-0.000224,0.000473,-0.006872,-0.509507,-0.001262,0.002579,-261.201253,0.501233,65.943951
8.6357,-0.005821,0.000436,-6e-06,-0.000808,-0.00028,0.000276,-0.006204,-0.509328,-0.000739,0.002579,-261.201253,0.501233,65.943951
8.6559,-0.005725,0.00031,-0.000142,-0.000811,-0.000325,0.000139,-0.006204,-0.509328,-0.000739,0.002579,-261.201253,0.501233,65.943951
8.6758,-0.005991,0.000427,-0.001635,-0.000814,-0.000362,4.3e-05,-0.005826,-0.509698,-0.000125,-0.072308,-261.201523,0.568028,65.943632
8.696,-0.006025,0.000514,-0.000952,-0.000818,-0.000342,-2.2e-05,-0.006232,-0.509648,-0.000733,-0.072308,-261.201523,0.568028,65.943632
8.7156,-0.005831,0.000287,-0.00127,-0.000821,-0.000326,-6.7e-05,-0.006511,-0.509486,-0.000952,0.00272,-261.20153,0.493,65.943624
8.7357,-0.005798,0.000363,-0.001821,-0.000813,-0.000309,0.000167,-0.006481,-0.509692,-0.001242,0.00272,-261.20153,0.493,65.943624
8.7556,-0.005713,0.000233,-0.000964,-0.000807,-0.000294,0.000333,-0.006481,-0.509692,-0.001242,0.00272,-261.20153,0.493,65.943624
8.776,-0.006007,5.5e-05,-0.001708,-0.000802,-0.000281,0.00045,-0.006206,-0.509767,-0.000964,0.077803,-261.201544,0.417917,65.943611
8.7956,-0.005819,0.000284,-0.001727,-0.0008,-0.000248,0.000554,-0.006491,-0.509842,-0.001279,0.077803,-261.201544,0.417917,65.943611
8.8156,-0.00584,0.000459,-0.003392,-0.000798,-0.000221,0.000626,-0.006714,-0.50972,-0.001721,0.00789,-261.20171,0.493255,65.943408
8.8357,-0.005792,0.000405,-0.001652,-0.000777,-0.00025,0.001469,-0.007497,-0.509554,-0.003248,0.00789,-261.20171,0.493255,65.943408
8.8557,-0.00635,0.000314,-0.000589,-0.00076,-0.000268,0.002071,-0.007497,-0.509554,-0.003248,0.00789,-261.20171,0.493255,65.943408
8.8754,-0.006109,0.000385,-0.001131,-0.000747,-0.00028,0.002498,-0.006662,-0.50969,-0.000582,-0.066805,-261.201821,0.56795,65.943273
8.8958,-0.006164,0.000312,-0.0009,-0.00076,-0.00026,0.001713,-0.006673,-0.50966,-0.0008,-0.066805,-261.201821,0.56795,65.943273
8.9156,-0.006259,0.000285,-0.002239,-0.000767,-0.000248,0.001163,-0.006623,-0.509687,-0.0009,-0.141655,-261.201821,0.6428,65.943273
8.9354,-0.006518,0.000427,-0.001566,-0.000754,-0.000239,0.001423,-0.007331,-0.509712,-0.002119,-0.141655,-261.201821,0.6428,65.943273
8.9557,-0.005943,0.00047,-0.001527,-0.000742,-0.000231,0.001609,-0.007331,-0.509712,-0.002119,-0.141655,-261.201821,0.6428,65.943273
8.9757,-0.006127,0.000365,-0.000362,-0.000734,-0.000223,0.001741,-0.006723,-0.509529,-0.001526,-0.216655,-261.20183,0.7178,65.94326
8.9957,-0.006105,6.1e-05,-0.00126,-0.000746,-0.000232,0.001319,-0.006555,-0.509572,-0.001052,-0.216655,-261.20183,0.7178,65.94326
9.0157,-0.006013,0.000268,-0.002322,-0.000754,-0.000241,0.001025,-0.006748,-0.509938,-0.00126,-0.291658,-261.20183,0.792803,65.94326
9.0358,-0.005779,3.8e-05,-0.000655,-0.000746,-0.00023,0.001378,-0.007159,-0.509748,-0.002231,-0.291658,-261.20183,0.792803,65.94326
9.0565,-0.006034,-0.000254,0.001945,-0.000739,-0.000219,0.001629,-0.007159,-0.509748,-0.002231,-0.291658,-261.20183,0.792803,65.94326
9.0756,-0.006201,0.000629,0.000277,-0.000734,-0.000209,0.001807,-0.00506,-0.510259,0.001968,-0.366788,-261.202018,0.855063,65.943005
9.0956,-0.005892,0.000336,0.000437,-0.00084,-0.000144,0.000189,-0.00545,-0.509916,0.001314,-0.366788,-261.202018,0.855063,65.943005
9.1157,-0.005739,-3.6e-05,0.000927,-0.000912,-0.000103,-0.000993,-0.005669,-0.509664,0.000438,-0.441668,-261.202021,0.929944,65.943001
9.1355,-0.006305,0.0002,-0.000811,-0.000962,-6e-05,-0.001647,-0.005302,-0.510003,0.000883,-0.441668,-261.202021,0.929944,65.943001
9.1553,-0.006055,0.000326,-0.000607,-0.000996,-3e-05,-0.00211,-0.005302,-0.510003,0.000883,-0.441668,-261.202021,0.929944,65.943001
9.1754,-0.006275,0.000161,0.001152,-0.00102,-9e-06,-0.002435,-0.006365,-0.509674,-0.000607,-0.366523,-261.202021,0.854798,65.943001
9.1958,-0.005975,-6.5e-05,-0.000686,-0.000987,-4.8e-05,-0.002246,-0.006087,-0.509741,0.000113,-0.366523,-261.202021,0.854798,65.943001
9.2155,-0.005952,0.000329,-0.001247,-0.00096,-7.9e-05,-0.00211,-0.006325,-0.510065,-0.000686,-0.291675,-261.202021,0.77995,65.943001
9.2354,-0.006301,0.000221,-0.001887,-0.000919,-0.000116,-0.001309,-0.006564,-0.509707,-0.001196,-0.291675,-261.202021,0.77995,65.943001
9.2554,-0.006267,4.9e-05,-0.000428,-0.000885,-0.000142,-0.000738,-0.006564,-0.509707,-0.001196,-0.291675,-261.202021,0.77995,65.943001
9.2756,-0.006,0.000279,-0.002511,-0.000859,-0.000161,-0.000331,-0.006486,-0.509951,-0.000428,-0.21667,-261.202021,0.704946,65.943001
9.2957,-0.006016,0.000205,-0.001765,-0.000835,-0.000153,6e-06,-0.006814,-0.509856,-0.001287,-0.21667,-261.202021,0.704946,65.943001
9.3156,-0.006069,0.000537,-0.000575,-0.000815,-0.000145,0.000243,-0.006916,-0.509795,-0.001765,-0.141557,-261.202021,0.629832,65.943001
9.3358,-0.005942,0.00031,-0.000984,-0.000808,-0.000189,8.7e-05,-0.00641,-0.509491,-0.000677,-0.141557,-261.202021,0.629832,65.943001
9.3557,-0.006091,0.000225,-0.00084,-0.000803,-0.000225,-2.3e-05,-0.00641,-0.509491,-0.000677,-0.141557,-261.202021,0.629832,65.943001
9.3756,-0.00591,0.000125,-0.000581,-0.0008,-0.000255,-0.000101,-0.006526,-0.509776,-0.000837,-0.066552,-261.202086,0.554828,65.942932
9.3956,-0.006084,0.000434,-0.001081,-0.000801,-0.000229,-0.000121,-0.006396,-0.509817,-0.000732,-0.066552,-261.202086,0.554828,65.942932
9.4157,-0.00611,9.1e-05,-0.000449,-0.000801,-0.000209,-0.000135,-0.006635,-0.509565,-0.001081,0.008331,-261.202088,0.479944,65.94293
9.4356,-0.005829,0.00033,-0.000453,-0.000804,-0.000181,-0.000266,-0.006366,-0.509878,-0.000506,0.008331,-261.202088,0.479944,65.94293
9.4559,-0.006105,0.000323,0.000126,-0.000806,-0.00016,-0.000359,-0.006366,-0.509878,-0.000506,0.008331,-261.202088,0.479944,65.94293
9.476,-0.006239,0.000437,-0.000877,-0.000807,-0.000143,-0.000424,-0.006042,-0.509677,0.000126,0.083331,-261.202098,0.404944,65.942921
9.4956,-0.00592,0.000247,-2.1e-05,-0.000807,-0.000168,-0.000596,-0.006306,-0.50963,-0.000285,0.083331,-261.202098,0.404944,65.942921
9.5154,-0.0062,0.000291,-0.000486,-0.000807,-0.000188,-0.000717,-0.005931,-0.509753,-2.1e-05,0.158373,-261.202098,0.329903,65.942921
9.5357,-0.006203,0.000262,-0.001583,-0.000804,-0.000193,-0.000713,-0.006402,-0.509713,-0.000444,0.158373,-261.202098,0.329903,65.942921
9.5557,-0.005966,0.000346,-0.00098,-0.000801,-0.000197,-0.00071,-0.006402,-0.509713,-0.000444,0.158373,-261.202098,0.329903,65.942921
9.5753,-0.006001,-7.7e-05,9.5e-05,-0.000798,-0.0002,-0.000708,-0.006466,-0.509654,-0.00098,0.233315,-261.202098,0.25496,65.942921
9.5954,-0.005996,0.000326,0.000134,-0.000802,-0.000185,-0.00065,-0.006257,-0.509826,-0.000543,0.233315,-261.202098,0.25496,65.942921
9.6155,-0.006124,0.000417,0.00012,-0.000805,-0.000173,-0.000608,-0.005928,-0.509674,0.000134,0.308325,-261.202098,0.17995,65.942921
9.6356,-0.005944,9e-05,-0.001059,-0.000818,-0.000196,-0.000952,-0.006052,-0.509591,0.000121,0.308325,-261.202098,0.17995,65.942921
9.6555,-0.005978,0.0003,-0.002069,-0.000827,-0.000217,-0.001195,-0.006052,-0.509591,0.000121,0.308325,-261.202098,0.17995,65.942921
9.6758,-0.006114,0.000378,-0.000218,-0.000834,-0.000235,-0.001368,-0.007033,-0.509699,-0.002069,0.383353,-261.202103,0.104923,65.942916
9.6959,-0.006392,0.000453,-0.003053,-0.000813,-0.000246,-0.000719,-0.006705,-0.509668,-0.001318,0.383353,-261.202103,0.104923,65.942916
9.7157,-0.006051,0.000139,-0.001828,-0.000797,-0.000251,-0.000257,-0.007949,-0.509545,-0.003053,0.458318,-261.202103,0.029957,65.942916
9.7359,-0.005916,0.00046,-0.001039,-0.000779,-0.000234,0.000354,-0.007066,-0.509833,-0.001932,0.458318,-261.202103,0.029957,65.942916
9.7555,-0.006179,0.000131,-0.000353,-0.000765,-0.000216,0.000788,-0.007066,-0.509833,-0.001932,0.458318,-261.202103,0.029957,65.942916
9.7758,-0.006087,-6e-06,-0.001449,-0.000754,-0.0002,0.001095,-0.006388,-0.509878,-0.000362,0.473199,-261.202419,0.105087,65.942634
9.7955,-0.006189,0.000433,-0.001132,-0.000762,-0.000163,0.00076,-0.006572,-0.509932,-0.00081,0.473199,-261.202419,0.105087,65.942634
9.8156,-0.006063,0.00028,-0.002245,-0.000768,-0.000134,0.000524,-0.006766,-0.509566,-0.001132,0.398199,-261.202419,0.180087,65.942634
9.8356,-0.006143,-1.6e-05,-0.000134,-0.000752,-0.000153,0.000995,-0.00717,-0.509706,-0.002149,0.398199,-261.202419,0.180087,65.942634
9.8559,-0.00608,0.000408,-0.000163,-0.000741,-0.000166,0.00133,-0.00717,-0.509706,-0.002149,0.398199,-261.202419,0.180087,65.942634
9.8757,-0.006297,0.00041,-0.001136,-0.000732,-0.000173,0.001567,-0.006164,-0.509592,-0.000163,0.323184,-261.202419,0.255102,65.942634
9.8956,-0.005879,0.000552,-0.001956,-0.000749,-0.000188,0.000944,-0.006457,-0.509591,-0.000563,0.323184,-261.202419,0.255102,65.942634
9.9158,-0.006231,0.000557,-0.002278,-0.00076,-0.000203,0.000506,-0.006877,-0.509447,-0.001956,0.248197,-261.202419,0.330089,65.942634
9.9354,-0.006128,0.000172,-0.0013,-0.000743,-0.000244,0.001014,-0.007347,-0.509442,-0.00225,0.248197,-261.202419,0.330089,65.942634
9.9556,-0.006182,1.7e-05,-0.002165,-0.00073,-0.000274,0.001376,-0.007347,-0.509442,-0.00225,0.248197,-261.202419,0.330089,65.942634
9.9755,-0.005921,0.000305,0.000193,-0.000721,-0.000297,0.001633,-0.007287,-0.509982,-0.002165,0.173185,-261.202427,0.405101,65.942623
9.9955,-0.006049,0.000123,-0.001636,-0.000735,-0.000249,0.001319,-0.006675,-0.509862,-0.00118,0.173185,-261.202427,0.405101,65.942623
10.0156,-0.006313,9.4e-05,-0.000882,-0.000744,-0.000212,0.001099,-0.006884,-0.509876,-0.001636,0.097959,-261.202427,0.480328,65.942623
10.0357,-0.006064,0.000615,-0.001418,-0.00075,-0.000177,0.000827,-0.006774,-0.509903,-0.000949,0.097959,-261.202427,0.480328,65.942623
10.0555,-0.006278,0.000194,-0.001532,-0.000753,-0.00015,0.000637,-0.006774,-0.509903,-0.000949,0.097959,-261.202427,0.480328,65.942623
10.0755,-0.005958,0.00031,-0.002659,-0.000754,-0.000129,0.000504,-0.007059,-0.509805,-0.001532,0.023318,-261.202427,0.554968,65.942623
10.0954,-0.006165,0.000135,-0.001956,-0.000742,-0.000139,0.000911,-0.007163,-0.509758,-0.00199,0.023318,-261.202427,0.554968,65.942623
10.1154,-0.006129,0.000143,-0.000195,-0.000733,-0.000145,0.001201,-0.007171,-0.509866,-0.001952,-0.051676,-261.202533,0.524557,65.942505
10.1355,-0.006001,-1.7e-05,-0.00096,-0.000759,-0.000122,0.00057,-0.006308,-0.509858,-0.000343,-0.051676,-261.202533,0.524557,65.942505
10.1553,-0.006155,0.000135,-0.000118,-0.000776,-0.000108,0.000125,-0.006308,-0.509858,-0.000343,-0.051676,-261.202533,0.524557,65.942505
10.1755,-0.006021,-0.000199,-0.000163,-0.000787,-9.9e-05,-0.000187,-0.006215,-0.509865,-0.000118,-0.126842,-261.202533,0.599724,65.942504
10.1953,-0.006156,0.000216,-0.000455,-0.000804,-6.8e-05,-0.000519,-0.00617,-0.510001,-0.000136,-0.126842,-261.202533,0.599724,65.942504
10.2152,-0.006184,0.000399,-0.00187,-0.000816,-4.5e-05,-0.000751,-0.006388,-0.509784,-0.000455,-0.05201,-261.202533,0.524892,65.942504
10.2353,-0.005821,0.000184,-0.001253,-0.00079,-9.6e-05,-9.2e-05,-0.007071,-0.509617,-0.001744,-0.05201,-261.202533,0.524892,65.942504
10.2555,-0.006146,0.000233,-0.00116,-0.00077,-0.000133,0.000379,-0.007071,-0.509617,-0.001744,-0.05201,-261.202533,0.524892,65.942504
10.2753,-0.006141,0.000299,-0.000804,-0.000754,-0.000162,0.000713,-0.006738,-0.509766,-0.00116,0.023048,-261.202533,0.449833,65.942504
10.2957,-0.006231,0.000501,-0.001027,-0.000754,-0.000162,0.000592,-0.006662,-0.50974,-0.001015,0.023048,-261.202533,0.449833,65.942504
10.3152,-0.006272,0.00056,-0.000819,-0.000754,-0.000163,0.000508,-0.006756,-0.509499,-0.001026,-0.051898,-261.202548,0.524779,65.942486
10.3353,-0.006426,0.000139,-0.001051,-0.000752,-0.000207,0.000351,-0.006696,-0.509445,-0.000837,-0.051898,-261.202548,0.524779,65.942486
10.3557,-0.006301,0.000177,0.000276,-0.00075,-0.000243,0.000241,-0.006696,-0.509445,-0.000837,-0.051898,-261.202548,0.524779,65.942486
10.3753,-0.006163,0.000138,-0.001124,-0.000748,-0.000273,0.000164,-0.006183,-0.509829,0.00029,-0.12689,-261.202767,0.560451,65.942232
10.3955,-0.006281,0.000402,-0.001524,-0.000764,-0.000235,-0.000186,-0.006411,-0.509843,-0.000284,-0.12689,-261.202767,0.560451,65.942232
10.4153,-0.006398,0.000466,-0.001558,-0.000774,-0.000206,-0.000432,-0.007061,-0.509598,-0.001523,-0.051886,-261.202801,0.485446,65.942195
10.4356,-0.006377,0.000745,-0.00092,-0.000755,-0.000234,5.2e-05,-0.007181,-0.509539,-0.001554,-0.051886,-261.202801,0.485446,65.942195
10.4558,-0.006379,0.00072,-0.002068,-0.00074,-0.000255,0.000396,-0.007181,-0.509539,-0.001554,-0.051886,-261.202801,0.485446,65.942195
10.4757,-0.005934,0.000282,-0.000682,-0.000728,-0.000271,0.000639,-0.007434,-0.509279,-0.002068,0.023108,-261.202801,0.410452,65.942195
10.4956,-0.006139,0.000472,-0.00195,-0.000723,-0.000294,0.000784,-0.006965,-0.509458,-0.001503,0.023108,-261.202801,0.410452,65.942195
10.5158,-0.005506,0.000202,-0.000999,-0.00072,-0.000313,0.000887,-0.007136,-0.509528,-0.001948,-0.051939,-261.202831,0.485499,65.942155
10.5356,-0.005899,0.000119,-0.00071,-0.000747,-0.000278,0.000758,-0.006125,-0.509771,-0.001092,-0.051939,-261.202831,0.485499,65.942155
10.5554,-0.006499,0.00059,0.000619,-0.000768,-0.000251,0.000668,-0.006125,-0.509771,-0.001092,-0.051939,-261.202831,0.485499,65.942155
10.5756,-0.006125,0.000241,4.7e-05,-0.000784,-0.00023,0.000606,-0.006184,-0.50941,0.00062,-0.126944,-261.202841,0.560504,65.942142
10.5956,-0.006403,-3.9e-05,-0.002319,-0.00081,-0.00024,-0.000244,-0.00615,-0.509552,0.000387,-0.126944,-261.202841,0.560504,65.942142
10.6152,-0.006212,0.000351,-0.000238,-0.000827,-0.000252,-0.00085,-0.007607,-0.510044,-0.002303,-0.176275,-261.203108,0.635456,65.94181
10.6356,-0.006033,5.5e-05,1.6e-05,-0.00082,-0.000248,-0.000825,-0.00645,-0.509685,-0.000426,-0.176275,-261.203108,0.635456,65.94181
10.6556,-0.006483,0.000292,0.000517,-0.000814,-0.000246,-0.000805,-0.00645,-0.509685,-0.000426,-0.176275,-261.203108,0.635456,65.94181
10.6755,-0.006001,0.000219,-0.000415,-0.000809,-0.000244,-0.000789,-0.006219,-0.509708,0.000517,-0.101277,-261.203108,0.560458,65.94181
10.6957,-0.006145,0.000264,0.000193,-0.000818,-0.00023,-0.001091,-0.006216,-0.509738,0.000136,-0.101277,-261.203108,0.560458,65.94181
10.7154,-0.006559,0.000271,-0.001254,-0.000824,-0.000221,-0.001304,-0.006046,-0.509736,0.000193,-0.026276,-261.203108,0.485457,65.94181
10.7354,-0.006133,0.000278,-0.000906,-0.000798,-0.000224,-0.000768,-0.007097,-0.509729,-0.001127,-0.026276,-261.203108,0.485457,65.94181
10.7554,-0.006238,0.000615,-5.3e-05,-0.000776,-0.000224,-0.000388,-0.007097,-0.509729,-0.001127,-0.026276,-261.203108,0.485457,65.94181
10.7757,-0.006214,0.000545,-0.001045,-0.00076,-0.000221,-0.000118,-0.006265,-0.509385,-5.3e-05,0.048781,-261.203108,0.4104,65.94181
10.7954,-0.006327,0.000318,-0.001691,-0.000762,-0.000263,-0.000291,-0.006461,-0.509413,-0.000457,0.048781,-261.203108,0.4104,65.94181
10.8153,-0.006243,0.000183,-0.00087,-0.000765,-0.000298,-0.000412,-0.007192,-0.509682,-0.001691,0.123725,-261.203136,0.335456,65.941783
10.8353,-0.00645,-0.000197,-0.001313,-0.000761,-0.000269,-0.00023,-0.006732,-0.509804,-0.000943,0.123725,-261.203136,0.335456,65.941783
10.8555,-0.006435,0.000101,0.000483,-0.000758,-0.000245,-0.000101,-0.006732,-0.509804,-0.000943,0.123725,-261.203136,0.335456,65.941783
10.8759,-0.005811,0.000397,-0.000562,-0.000755,-0.000226,-9e-06,-0.006189,-0.509899,0.000483,0.198774,-261.203138,0.260407,65.941782
10.8956,-0.006148,0.000564,-0.002049,-0.000779,-0.000205,-0.000494,-0.006152,-0.509778,5.8e-05,0.198774,-261.203138,0.260407,65.941782
10.9154,-0.006043,0.000275,-0.001159,-0.000796,-0.000191,-0.000838,-0.007213,-0.509441,-0.002049,0.273726,-261.203406,0.283307,65.941515
10.9354,-0.00605,3.6e-05,-0.001161,-0.000784,-0.000202,-0.000382,-0.006688,-0.509699,-0.00124,0.273726,-261.203406,0.283307,65.941515
10.956,-0.006558,0.000347,-0.000554,-0.000774,-0.000209,-5.9e-05,-0.006688,-0.509699,-0.00124,0.273726,-261.203406,0.283307,65.941515
10.9755,-0.006202,0.000173,-0.001614,-0.000767,-0.000213,0.00017,-0.00684,-0.509653,-0.000554,0.348731,-261.203406,0.208303,65.941515
10.9958,-0.006603,0.000546,0.000149,-0.000758,-0.00021,0.000202,-0.006916,-0.509724,-0.000986,0.348731,-261.203406,0.208303,65.941515
11.0152,-0.006065,0.000356,-0.000566,-0.00075,-0.000207,0.000225,-0.006535,-0.509456,0.000149,0.273686,-261.203496,0.283348,65.941418
11.0358,-0.006785,9e-05,-0.001178,-0.00076,-0.000217,-2.1e-05,-0.00637,-0.509627,-0.000503,0.273686,-261.203496,0.283348,65.941418
11.0556,-0.006194,-5.8e-05,-0.001098,-0.000767,-0.000227,-0.000194,-0.00637,-0.509627,-0.000503,0.273686,-261.203496,0.283348,65.941418
11.0756,-0.006432,0.000412,-0.001502,-0.000773,-0.000235,-0.000316,-0.006767,-0.510062,-0.001096,0.198677,-261.203622,0.358357,65.94128
11.0956,-0.006506,0.000483,-0.001067,-0.000762,-0.000211,1e-06,-0.006945,-0.509869,-0.001262,0.198677,-261.203622,0.358357,65.94128
11.1154,-0.006549,-0.000134,0.000537,-0.000754,-0.000189,0.000226,-0.007051,-0.509517,-0.001067,0.273675,-261.203639,0.283358,65.941265
11.1362,-0.006302,0.00023,-0.000895,-0.000783,-0.000125,-0.000512,-0.006342,-0.510081,0.000399,0.273675,-261.203639,0.283358,65.941265
11.156,-0.006539,1.8e-05,-0.001659,-0.000802,-7.6e-05,-0.001037,-0.006342,-0.510081,0.000399,0.273675,-261.203639,0.283358,65.941265
11.1759,-0.006662,0.000381,-0.000217,-0.000815,-4e-05,-0.00141,-0.007397,-0.509985,-0.001657,0.19862,-261.203758,0.358414,65.941137
11.1961,-0.006154,8e-06,-0.000671,-0.000788,-6.1e-05,-0.000872,-0.007146,-0.509837,-0.001075,0.19862,-261.203758,0.358414,65.941137
11.2154,-0.006671,-2.2e-05,-0.000798,-0.000766,-7.6e-05,-0.00049,-0.006496,-0.509992,-0.000671,0.273516,-261.203758,0.283518,65.941137
11.2354,-0.006329,0.000122,-0.001259,-0.000756,-5.8e-05,-0.000366,-0.007035,-0.510019,-0.000789,0.273516,-261.203758,0.283518,65.941137
11.2555,-0.006449,0.000178,-0.001443,-0.000747,-4.3e-05,-0.000278,-0.007035,-0.510019,-0.000789,0.273516,-261.203758,0.283518,65.941137
11.2758,-0.006115,0.000183,-0.000977,-0.00074,-3.1e-05,-0.000217,-0.007186,-0.509821,-0.001443,0.349007,-261.203759,0.208027,65.941136
11.2955,-0.006244,9.4e-05,-0.001172,-0.000731,-5e-05,6.1e-05,-0.006946,-0.509819,-0.001248,0.349007,-261.203759,0.208027,65.941136
11.3153,-0.006345,0.000313,-0.000381,-0.000725,-6.5e-05,0.000258,-0.006845,-0.509906,-0.001172,0.274201,-261.203792,0.133222,65.941103
11.3358,-0.006621,0.00021,-0.001383,-0.000732,-8.8e-05,-2.8e-05,-0.006566,-0.509706,-0.00045,0.274201,-261.203792,0.133222,65.941103
11.3559,-0.006592,0.000467,-0.000589,-0.000738,-0.000108,-0.00023,-0.006566,-0.509706,-0.00045,0.274201,-261.203792,0.133222,65.941103
11.3756,-0.006632,0.000469,-0.001354,-0.000743,-0.000125,-0.000373,-0.006894,-0.509534,-0.000589,0.199376,-261.203805,0.208047,65.941089
11.3957,-0.006817,0.00022,-0.000292,-0.000731,-0.000166,-0.000232,-0.007069,-0.509532,-0.000901,0.199376,-261.203805,0.208047,65.941089
11.4155,-0.006063,0.000295,-0.000241,-0.000722,-0.000199,-0.000132,-0.006967,-0.50978,-0.000292,0.27437,-261.203823,0.133053,65.941073
11.4358,-0.006378,0.000243,7.4e-05,-0.000743,-0.000196,-0.000416,-0.006254,-0.509711,-0.000246,0.27437,-261.203823,0.133053,65.941073
11.4562,-0.006349,0.000357,0.000234,-0.000758,-0.000196,-0.000616,-0.006254,-0.509711,-0.000246,0.27437,-261.203823,0.133053,65.941073
11.4756,-0.006215,0.000283,-0.001586,-0.000771,-0.000196,-0.000756,-0.006256,-0.50965,0.000229,0.349387,-261.204086,0.162621,65.940824
11.4956,-0.006466,1.8e-05,-0.000782,-0.000769,-0.000205,-0.000723,-0.00656,-0.509677,-0.000484,0.349387,-261.204086,0.162621,65.940824
11.5154,-0.006363,0.000308,-0.001275,-0.000767,-0.000211,-0.000698,-0.006865,-0.509982,-0.000782,0.424252,-261.204087,0.087756,65.940823
11.5357,-0.006211,-4.3e-05,-0.000823,-0.000753,-0.000215,-0.000285,-0.007001,-0.509716,-0.001232,0.424252,-261.204087,0.087756,65.940823
11.5552,-0.006503,0.000343,0.000398,-0.000742,-0.000215,7e-06,-0.007001,-0.509716,-0.001232,0.424252,-261.204087,0.087756,65.940823
11.5755,-0.006289,0.000327,-0.00149,-0.000733,-0.000214,0.000213,-0.006302,-0.509658,0.000397,0.49937,-261.204102,0.012637,65.940812
11.5953,-0.006298,0.00032,-0.002341,-0.00074,-0.000216,-9.7e-05,-0.00661,-0.509664,-0.00038,0.49937,-261.204102,0.012637,65.940812
11.6155,-0.006497,-1.5e-05,-0.000857,-0.000745,-0.000219,-0.000316,-0.007492,-0.509679,-0.002341,0.424397,-261.204103,0.087611,65.94081
11.6355,-0.006141,0.000215,-0.001725,-0.000741,-0.000179,-0.00014,-0.006982,-0.509986,-0.000984,0.424397,-261.204103,0.087611,65.94081
11.6557,-0.006245,0.000178,2.2e-05,-0.000737,-0.000146,-1.5e-05,-0.006982,-0.509986,-0.000984,0.424397,-261.204103,0.087611,65.94081
11.6753,-0.006533,0.000304,-0.000629,-0.000734,-0.000119,7.2e-05,-0.006261,-0.50983,1e-05,0.499426,-261.204397,0.035444,65.940553
11.6957,-0.006224,0.000342,-0.000451,-0.000744,-0.000122,-0.000265,-0.006508,-0.509776,-0.000254,0.499426,-261.204397,0.035444,65.940553
11.7153,-0.006694,0.000252,-0.00021,-0.000752,-0.000125,-0.000504,-0.006454,-0.509659,-0.000451,0.424461,-261.20441,0.11041,65.94054
11.7354,-0.00658,0.000388,-0.000411,-0.00075,-0.000135,-0.000686,-0.006771,-0.50974,-0.000231,0.424461,-261.20441,0.11041,65.94054
11.7554,-0.006076,0.000101,-0.000943,-0.000748,-0.000144,-0.000814,-0.006771,-0.50974,-0.000231,0.424461,-261.20441,0.11041,65.94054
11.7758,-0.006389,0.000158,-0.000845,-0.000746,-0.000151,-0.000904,-0.00656,-0.509899,-0.000945,0.499469,-261.204451,0.035401,65.940503
11.7954,-0.006506,0.000229,-0.000807,-0.000745,-0.000141,-0.0006,-0.006666,-0.509876,-0.000904,0.499469,-261.204451,0.035401,65.940503
11.8155,-0.006402,0.000163,-0.0007,-0.000745,-0.000131,-0.000383,-0.006917,-0.509771,-0.000807,0.574505,-261.204452,-0.039635,65.940502
11.8357,-0.006462,-0.000136,5.2e-05,-0.000742,-0.000128,-0.000334,-0.006773,-0.509831,-0.00071,0.574505,-261.204452,-0.039635,65.940502
11.8556,-0.006674,-6.4e-05,-0.00101,-0.00074,-0.000126,-0.000299,-0.006773,-0.509831,-0.00071,0.574505,-261.204452,-0.039635,65.940502
11.876,-0.00621,4.1e-05,0.002053,-0.000739,-0.000124,-0.000274,-0.007211,-0.510069,-0.001022,0.499635,-261.204679,-0.114505,65.940297
11.8956,-0.006491,0.000119,-0.001883,-0.00076,-8.4e-05,-0.000746,-0.006414,-0.510026,0.000177,0.499635,-261.204679,-0.114505,65.940297
11.9154,-0.006632,-0.000197,-0.002622,-0.000774,-5.5e-05,-0.00108,-0.007469,-0.509883,-0.00189,0.42464,-261.204915,-0.05937,65.940076
11.936,-0.006367,-1.1e-05,-0.001695,-0.000752,-4e-05,5e-06,-0.007926,-0.510168,-0.002558,0.42464,-261.204915,-0.05937,65.940076
11.9557,-0.006186,0.000102,-0.000308,-0.000733,-2.1e-05,0.000783,-0.007926,-0.510168,-0.002558,0.42464,-261.204915,-0.05937,65.940076
11.9757,-0.006484,-0.000107,-0.000878,-0.000717,-2e-06,0.00134,-0.006343,-0.509898,-0.000308,0.49974,-261.204915,-0.13447,65.940076
11.9959,-0.006356,0.000199,-0.000499,-0.000733,1e-05,0.000772,-0.006582,-0.509983,-0.00054,0.49974,-261.204915,-0.13447,65.940076
12.0154,-0.006369,0.000353,-0.001601,-0.000744,1.7e-05,0.000372,-0.00661,-0.509801,-0.000499,0.424803,-261.204915,-0.059533,65.940076
12.0354,-0.006465,0.000219,-0.001137,-0.00073,-3.1e-05,0.00059,-0.007137,-0.509659,-0.00151,0.424803,-261.204915,-0.059533,65.940076
12.0558,-0.006157,0.000422,-0.000985,-0.00072,-7e-05,0.000746,-0.007137,-0.509659,-0.00151,0.424803,-261.204915,-0.059533,65.940076
12.0756,-0.006379,-0.000118,-0.001044,-0.000712,-0.0001,0.000857,-0.00666,-0.509577,-0.000985,0.349629,-261.204916,0.015642,65.940076
12.0954,-0.006597,0.000734,0.000161,-0.000719,-0.000102,0.000687,-0.006761,-0.509795,-0.001009,0.349629,-261.204916,0.015642,65.940076
12.1158,-0.006111,0.000237,-0.001106,-0.000723,-0.000105,0.000568,-0.006515,-0.509266,0.000161,0.274822,-261.204916,0.090448,65.940076
12.1355,-0.006234,0.000421,-0.000727,-0.000729,-0.000118,0.000479,-0.006661,-0.50972,-0.000999,0.274822,-261.204916,0.090448,65.940076
12.1557,-0.006138,2.5e-05,-0.00161,-0.000733,-0.00013,0.000417,-0.006661,-0.50972,-0.000999,0.274822,-261.204916,0.090448,65.940076
12.1755,-0.006474,-9e-05,-0.000872,-0.000736,-0.00014,0.000375,-0.006959,-0.509975,-0.00161,0.19969,-261.204916,0.16558,65.940076
12.1953,-0.006497,0.000427,0.000783,-0.000735,-0.000106,0.000509,-0.006943,-0.510022,-0.001309,0.19969,-261.204916,0.16558,65.940076
12.2154,-0.006177,-5.5e-05,-0.001467,-0.000734,-7.9e-05,0.000604,-0.006098,-0.509573,0.000783,0.124817,-261.204929,0.240453,65.940062
12.2353,-0.006188,0.000367,-0.002008,-0.000735,-5.7e-05,0.000649,-0.006851,-0.510011,-0.001265,0.124817,-261.204929,0.240453,65.940062
12.2561,-0.006315,0.000171,-7e-05,-0.000735,-3.9e-05,0.000681,-0.006851,-0.510011,-0.001265,0.124817,-261.204929,0.240453,65.940062
12.2757,-0.006592,0.000236,-0.000685,-0.000736,-2.4e-05,0.000704,-0.006351,-0.509829,-7e-05,0.04985,-261.20493,0.31542,65.94006
12.2953,-0.006472,0.000234,-0.001255,-0.000746,-3.7e-05,0.000209,-0.006585,-0.509803,-0.000314,0.04985,-261.20493,0.31542,65.94006
12.3158,-0.006439,0.000486,-0.000928,-0.000752,-4.9e-05,-0.000141,-0.007112,-0.509766,-0.001255,-0.025166,-261.20493,0.390436,65.94006
12.3359,-0.006275,0.000258,-0.000523,-0.000742,-0.000103,-4.1e-05,-0.006932,-0.509538,-0.00096,-0.025166,-261.20493,0.390436,65.94006
12.3557,-0.006522,-0.0002,-0.000594,-0.000733,-0.000146,3e-05,-0.006932,-0.509538,-0.00096,-0.025166,-261.20493,0.390436,65.94006
12.3757,-0.006447,0.000354,-0.001179,-0.000727,-0.00018,8.1e-05,-0.006825,-0.5102,-0.000594,0.049952,-261.204937,0.315318,65.940053
12.3957,-0.006635,0.000411,-0.001484,-0.000729,-0.000144,5.6e-05,-0.006915,-0.509976,-0.00083,0.049952,-261.204937,0.315318,65.940053
12.4156,-0.006529,-9.8e-05,-0.001861,-0.00073,-0.000116,3.9e-05,-0.007409,-0.509592,-0.001481,0.124932,-261.205165,0.305874,65.939818
12.436,-0.006363,0.000148,-0.000403,-0.000719,-9e-05,0.000518,-0.007473,-0.510054,-0.001829,0.124932,-261.205165,0.305874,65.939818
12.4558,-0.006391,0.000289,-0.000957,-0.00071,-6.7e-05,0.000858,-0.007473,-0.510054,-0.001829,0.124932,-261.205165,0.305874,65.939818
12.4757,-0.006612,0.000234,-0.001424,-0.000703,-4.6e-05,0.001099,-0.006903,-0.509715,-0.000955,0.125418,-261.205401,0.230831,65.93958
12.4956,-0.006508,0.000159,-0.001436,-0.000702,-6.7e-05,0.000932,-0.007084,-0.509737,-0.001147,0.125418,-261.205401,0.230831,65.93958
12.5155,-0.006392,7.6e-05,-0.002268,-0.000701,-8.5e-05,0.000814,-0.007241,-0.509841,-0.001436,0.050375,-261.205401,0.305875,65.93958
12.5356,-0.006604,1e-05,-0.002137,-0.000694,-8.1e-05,0.001221,-0.007522,-0.509915,-0.002195,0.050375,-261.205401,0.305875,65.93958
12.5558,-0.006301,0.000284,-0.000602,-0.000689,-7.6e-05,0.00151,-0.007522,-0.509915,-0.002195,0.050375,-261.205401,0.305875,65.93958
12.5753,-0.006184,0.000324,-0.002115,-0.000685,-7e-05,0.001713,-0.006608,-0.509716,-0.000602,-0.024543,-261.205401,0.380793,65.93958
12.5956,-0.006841,0.000373,-0.000193,-0.000694,-8.8e-05,0.001388,-0.006871,-0.5097,-0.001209,-0.024543,-261.205401,0.380793,65.93958
12.6154,-0.006473,0.000132,-0.00013,-0.000702,-0.000104,0.001159,-0.006939,-0.509627,-0.000193,-0.099431,-261.205401,0.455681,65.93958
12.6358,-0.006617,-3e-06,-0.002041,-0.000727,-8.9e-05,0.000422,-0.006575,-0.509847,-0.000136,-0.099431,-261.205401,0.455681,65.93958
12.6561,-0.006033,0.000544,-0.00081,-0.000743,-8.1e-05,-9.8e-05,-0.006575,-0.509847,-0.000136,-0.099431,-261.205401,0.455681,65.93958
12.676,-0.006264,0.000498,0.000358,-0.000754,-7.7e-05,-0.000464,-0.006446,-0.509456,-0.00081,-0.174538,-261.205401,0.530788,65.93958
12.6956,-0.006678,0.000111,-0.001305,-0.000763,-0.000136,-0.000608,-0.006302,-0.509474,-0.000347,-0.174538,-261.205401,0.530788,65.93958
12.7156,-0.006607,8.8e-05,-0.000276,-0.00077,-0.000185,-0.000707,-0.007343,-0.509889,-0.001305,-0.099526,-261.205401,0.455776,65.93958
12.7356,-0.006784,0.000299,-0.001708,-0.000767,-0.000159,-0.000755,-0.006801,-0.50991,-0.000368,-0.099526,-261.205401,0.455776,65.93958
12.7555,-0.006503,0.000265,-0.000841,-0.000763,-0.000138,-0.000787,-0.006801,-0.50991,-0.000368,-0.099526,-261.205401,0.455776,65.93958
12.7757,-0.006601,0.000217,-0.000381,-0.000759,-0.000122,-0.000809,-0.006932,-0.509735,-0.000841,-0.024636,-261.205401,0.380885,65.93958
12.7956,-0.006732,0.000355,-0.00188,-0.00075,-0.000133,-0.000669,-0.006877,-0.509755,-0.000654,-0.024636,-261.205401,0.380885,65.93958
12.8154,-0.006291,0.000511,-0.000729,-0.000743,-0.000141,-0.000569,-0.007691,-0.509645,-0.00188,0.050357,-261.205401,0.305892,65.93958
12.8355,-0.006066,0.000228,-0.001469,-0.000737,-0.000186,-0.000405,-0.006757,-0.509503,-0.000834,0.050357,-261.205401,0.305892,65.93958
12.8556,-0.006436,0.000357,-0.001269,-0.000733,-0.000221,-0.000289,-0.006757,-0.509503,-0.000834,0.050357,-261.205401,0.305892,65.93958
12.8757,-0.00681,3.1e-05,-0.001769,-0.000731,-0.000249,-0.000207,-0.007083,-0.509642,-0.001269,0.12535,-261.205401,0.230899,65.939579
12.8955,-0.006628,-0.000111,-0.001886,-0.000719,-0.000235,0.00018,-0.00734,-0.509775,-0.001473,0.12535,-261.205401,0.230899,65.939579
12.9157,-0.006189,-1e-05,0.000143,-0.000709,-0.000223,0.000453,-0.007593,-0.510111,-0.001886,0.200355,-261.205443,0.166018,65.939541
12.9357,-0.006429,0.000234,0.000151,-0.000743,-0.000161,-0.000118,-0.006244,-0.510019,-3.3e-05,0.200355,-261.205443,0.166018,65.939541
12.9559,-0.006727,0.000511,-0.001159,-0.000768,-0.000115,-0.000522,-0.006244,-0.510019,-3.3e-05,0.200355,-261.205443,0.166018,65.939541
12.9757,-0.006275,-0.0001,5e-06,-0.000786,-8e-05,-0.000807,-0.007319,-0.509489,-0.001159,0.125279,-261.205446,0.241094,65.939538
12.9958,-0.006345,-0.000159,-0.001316,-0.000771,-0.000102,-0.000652,-0.00689,-0.509739,-0.000682,0.125279,-261.205446,0.241094,65.939538
13.0154,-0.006477,0.000208,-0.000366,-0.000759,-0.00012,-0.000542,-0.007016,-0.510159,-0.001316,0.200304,-261.205446,0.166069,65.939538
13.0355,-0.006395,0.000247,-0.00067,-0.000757,-0.000119,-0.000589,-0.006695,-0.509824,-0.000449,0.200304,-261.205446,0.166069,65.939538
13.0559,-0.00699,1e-06,-0.002823,-0.000755,-0.000119,-0.000622,-0.006695,-0.509824,-0.000449,0.200304,-261.205446,0.166069,65.939538
13.0754,-0.006923,0.000187,-0.000223,-0.000753,-0.000119,-0.000645,-0.00843,-0.509997,-0.002823,0.275278,-261.205449,0.091095,65.939536
13.0954,-0.006666,0.000329,-0.000866,-0.000729,-0.000116,-1e-06,-0.007858,-0.509922,-0.001756,0.275278,-261.205449,0.091095,65.939536
13.1156,-0.006723,0.000247,-0.001603,-0.00071,-0.000109,0.000456,-0.007108,-0.509671,-0.000866,0.350308,-261.205451,0.016065,65.939533
13.1357,-0.00653,9.2e-05,-0.000451,-0.000697,-0.000123,0.000679,-0.007506,-0.509746,-0.001544,0.350308,-261.205451,0.016065,65.939533
13.1555,-0.0065,0.000362,-0.001846,-0.000688,-0.000132,0.000835,-0.007506,-0.509746,-0.001544,0.350308,-261.205451,0.016065,65.939533
13.1755,-0.006409,0.000345,-0.001369,-0.000681,-0.00014,0.000945,-0.007441,-0.509638,-0.001846,0.275114,-261.205451,0.091259,65.939533
13.1959,-0.006179,0.000458,-0.001896,-0.000678,-0.000159,0.001071,-0.007305,-0.509645,-0.001651,0.275114,-261.205451,0.091259,65.939533
13.2154,-0.006284,0.000211,-0.002208,-0.000677,-0.000174,0.001159,-0.007146,-0.509541,-0.001896,0.200404,-261.205451,0.165969,65.939533
13.2357,-0.006378,0.000157,-0.000514,-0.000676,-0.000171,0.00146,-0.007388,-0.509767,-0.002182,0.200404,-261.205451,0.165969,65.939533
13.2553,-0.006373,0.000456,3e-05,-0.000676,-0.000168,0.001672,-0.007388,-0.509767,-0.002182,0.200404,-261.205451,0.165969,65.939533
13.2752,-0.006939,0.000274,0.00031,-0.000677,-0.000163,0.001821,-0.006358,-0.509544,3e-05,0.125233,-261.205451,0.24114,65.939533
13.2955,-0.006456,0.000198,-0.0013,-0.000716,-0.000167,0.000731,-0.00653,-0.509618,0.000144,0.125233,-261.205451,0.24114,65.939533
13.3156,-0.006296,0.000425,-0.000916,-0.000741,-0.000175,-4.3e-05,-0.007119,-0.509801,-0.0013,0.050399,-261.205451,0.315974,65.939533
13.3357,-0.006622,0.000163,-0.000427,-0.000739,-0.000196,1e-05,-0.006794,-0.509595,-0.000949,0.050399,-261.205451,0.315974,65.939533
13.3558,-0.00642,0.000148,-0.001106,-0.000738,-0.000213,5.2e-05,-0.006794,-0.509595,-0.000949,0.050399,-261.205451,0.315974,65.939533
13.3755,-0.006669,0.000309,-0.001493,-0.000737,-0.000226,8.4e-05,-0.006996,-0.509854,-0.001104,0.125523,-261.205568,0.24085,65.939419
13.3958,-0.006627,0.000316,0.000141,-0.000729,-0.000211,0.000274,-0.007175,-0.509788,-0.001263,0.125523,-261.205568,0.24085,65.939419
13.4156,-0.006521,9.7e-05,-0.000876,-0.000722,-0.000199,0.000409,-0.006571,-0.509688,0.000142,0.200488,-261.205768,0.315815,65.93921
13.4355,-0.006314,0.000474,-3e-06,-0.000724,-0.000172,0.000261,-0.006935,-0.509885,-0.00079,0.200488,-261.205768,0.315815,65.93921
13.4558,-0.006548,4.9e-05,-0.001644,-0.000725,-0.00015,0.000158,-0.006935,-0.509885,-0.00079,0.200488,-261.205768,0.315815,65.93921
13.4754,-0.006696,-6.3e-05,-0.000757,-0.000726,-0.000133,8.6e-05,-0.00739,-0.509951,-0.001643,0.125441,-261.205803,0.390862,65.939169
13.4956,-0.006403,8.7e-05,-0.003203,-0.000719,-0.000108,0.00029,-0.007264,-0.509997,-0.00128,0.125441,-261.205803,0.390862,65.939169
13.5152,-0.006543,-6.9e-05,4.6e-05,-0.000713,-8.6e-05,0.000435,-0.008053,-0.509914,-0.0032,0.111258,-261.206015,0.315973,65.938952
13.5354,-0.006567,-0.000202,-0.000362,-0.00073,-5e-05,-2e-05,-0.006654,-0.510056,-0.000236,0.111258,-261.206015,0.315973,65.938952
13.5555,-0.006588,0.000181,-0.000232,-0.000741,-2.3e-05,-0.000342,-0.006654,-0.510056,-0.000236,0.111258,-261.206015,0.315973,65.938952
13.5756,-0.006809,0.000284,-0.000863,-0.000748,-3e-06,-0.000569,-0.00671,-0.509819,-0.000232,0.036204,-261.206041,0.391027,65.938923
13.5957,-0.006376,0.000431,-0.001582,-0.00074,-3.2e-05,-0.00059,-0.006933,-0.509777,-0.000492,0.036204,-261.206041,0.391027,65.938923
13.6154,-0.006625,-3.1e-05,0.000421,-0.000734,-5.4e-05,-0.000604,-0.007183,-0.509568,-0.001582,0.11125,-261.206041,0.315981,65.938923
13.6355,-0.006381,8.5e-05,-0.002345,-0.000752,-3.4e-05,-0.001024,-0.006476,-0.509991,0.000251,0.11125,-261.206041,0.315981,65.938923
13.6553,-0.006644,0.000336,-0.001145,-0.000764,-2e-05,-0.001322,-0.006476,-0.509991,0.000251,0.11125,-261.206041,0.315981,65.938923
13.6755,-0.006731,7.6e-05,-0.000886,-0.000772,-1e-05,-0.001533,-0.007227,-0.509663,-0.001145,0.18627,-261.206041,0.240961,65.938923
13.6957,-0.006861,0.000672,-0.000751,-0.00075,-4.5e-05,-0.00098,-0.007209,-0.50977,-0.001039,0.18627,-261.206041,0.240961,65.938923
13.7156,-0.006483,0.000383,-0.00122,-0.000732,-7.1e-05,-0.000586,-0.007244,-0.509328,-0.000751,0.261124,-261.206041,0.166107,65.938923
13.7356,-0.006878,-0.000133,-0.001348,-0.000719,-0.000116,-0.000238,-0.007117,-0.509592,-0.001179,0.261124,-261.206041,0.166107,65.938923
13.7556,-0.006702,0.000345,-0.000229,-0.000709,-0.000151,8e-06,-0.007117,-0.509592,-0.001179,0.261124,-261.206041,0.166107,65.938923
13.7755,-0.006613,0.000678,-0.001286,-0.000702,-0.000178,0.000181,-0.006819,-0.509655,-0.000229,0.336239,-261.206042,0.090992,65.938922
13.7956,-0.006468,0.000242,-0.002473,-0.000701,-0.000207,3.2e-05,-0.007004,-0.509518,-0.000664,0.336239,-261.206042,0.090992,65.938922
13.8158,-0.006811,-0.000105,-0.00158,-0.000701,-0.000232,-7.4e-05,-0.007731,-0.509757,-0.002473,0.261241,-261.206068,0.16599,65.938895
13.8358,-0.006416,-0.0,-0.001458,-0.000694,-0.000183,0.000362,-0.007627,-0.510074,-0.001658,0.261241,-261.206068,0.16599,65.938895
13.8554,-0.00673,0.00013,-0.002063,-0.000688,-0.00014,0.00067,-0.007627,-0.510074,-0.001658,0.261241,-261.206068,0.16599,65.938895
13.8756,-0.006644,-0.000214,-0.001966,-0.000684,-0.000105,0.000888,-0.007803,-0.509875,-0.002065,0.336252,-261.206279,0.241001,65.938692
13.8957,-0.007256,0.000183,0.000585,-0.000677,-8.4e-05,0.001205,-0.007741,-0.510014,-0.002024,0.336252,-261.206279,0.241001,65.938692
13.9155,-0.006818,-2.7e-05,-0.002229,-0.000673,-6.6e-05,0.001429,-0.006957,-0.509817,0.000585,0.261263,-261.206279,0.31599,65.938692
13.9356,-0.006439,1.4e-05,-0.000139,-0.000668,-5.1e-05,0.001574,-0.007872,-0.510008,-0.001996,0.261263,-261.206279,0.31599,65.938692
13.9557,-0.006566,0.000267,-0.00245,-0.000664,-3.7e-05,0.001675,-0.007872,-0.510008,-0.001996,0.261263,-261.206279,0.31599,65.938692
13.9753,-0.006669,6e-05,-0.000508,-0.000661,-2.5e-05,0.001744,-0.007815,-0.509732,-0.00245,0.186111,-261.206279,0.391142,65.938692
13.9954,-0.007006,0.000344,-0.002619,-0.000662,-3.7e-05,0.001629,-0.00745,-0.509817,-0.001651,0.186111,-261.206279,0.391142,65.938692
14.0152,-0.006588,-7e-06,-0.000236,-0.000664,-4.7e-05,0.001548,-0.008342,-0.509654,-0.002619,0.111291,-261.206279,0.465961,65.938692
14.0354,-0.006804,0.000206,-0.00056,-0.000688,-2.5e-05,0.000863,-0.006848,-0.509977,-0.00044,0.111291,-261.206279,0.465961,65.938692
14.0557,-0.006999,7.5e-05,-0.000936,-0.000704,-1e-05,0.000381,-0.006848,-0.509977,-0.00044,0.111291,-261.206279,0.465961,65.938692
14.0757,-0.00681,0.000103,-0.000688,-0.000714,-1e-06,4.2e-05,-0.007476,-0.509925,-0.000936,0.036258,-261.206279,0.540995,65.938692
14.0954,-0.00671,0.000292,-0.000583,-0.000707,-8e-06,2e-05,-0.007349,-0.509913,-0.000836,0.036258,-261.206279,0.540995,65.938692
14.1157,-0.006805,-3.2e-05,-0.001285,-0.000701,-1.4e-05,6e-06,-0.007007,-0.509708,-0.000583,-0.034718,-261.206283,0.466115,65.938688
14.136,-0.006468,0.000222,-0.001354,-0.000694,-9e-06,0.0002,-0.007421,-0.510004,-0.001224,-0.034718,-261.206283,0.466115,65.938688
14.1555,-0.006586,0.000293,-0.001953,-0.000688,-4e-06,0.000338,-0.007421,-0.510004,-0.001224,-0.034718,-261.206283,0.466115,65.938688
14.1756,-0.00623,0.000506,-0.000629,-0.000684,0.0,0.000436,-0.007583,-0.509706,-0.001953,0.015416,-261.206293,0.391018,65.938677
14.1955,-0.006672,0.000549,0.000135,-0.00068,-4.9e-05,0.00059,-0.007156,-0.509618,-0.001405,0.015416,-261.206293,0.391018,65.938677
14.2158,-0.006455,0.000348,-0.0024,-0.000678,-8.8e-05,0.000699,-0.006605,-0.509452,0.000136,-0.059789,-261.206318,0.371003,65.938653
14.2356,-0.006775,0.000264,-0.001589,-0.000671,-0.000121,0.001124,-0.007582,-0.509632,-0.002171,-0.059789,-261.206318,0.371003,65.938653
14.2556,-0.00658,0.000489,-0.000195,-0.000666,-0.000145,0.001426,-0.007582,-0.509632,-0.002171,-0.059789,-261.206318,0.371003,65.938653
14.276,-0.006301,0.000205,-0.000887,-0.000663,-0.000163,0.001639,-0.00668,-0.509511,-0.000195,-0.134497,-261.206324,0.445711,65.938646
14.2955,-0.006825,0.000263,-0.00149,-0.000687,-0.000169,0.000945,-0.00671,-0.509628,-0.00048,-0.134497,-261.206324,0.445711,65.938646
14.3154,-0.006657,0.000433,-0.000557,-0.000703,-0.000179,0.000457,-0.007585,-0.509737,-0.00149,-0.209833,-261.206324,0.521047,65.938646
14.3355,-0.006987,-0.000249,-0.002645,-0.000706,-0.000196,0.000202,-0.006999,-0.509582,-0.000641,-0.209833,-261.206324,0.521047,65.938646
14.3559,-0.006949,0.000175,-0.000445,-0.000707,-0.000212,2.5e-05,-0.006999,-0.509582,-0.000641,-0.209833,-261.206324,0.521047,65.938646
14.3757,-0.006569,0.000187,-0.000639,-0.000708,-0.000225,-9.8e-05,-0.007202,-0.509831,-0.000429,-0.141439,-261.206575,0.576944,65.93835
14.3953,-0.006823,0.000128,-0.00157,-0.00071,-0.000202,-0.00025,-0.00708,-0.509825,-0.000513,-0.141439,-261.206575,0.576944,65.93835
14.4157,-0.006537,-0.000234,-0.001724,-0.00071,-0.000184,-0.000356,-0.007624,-0.509872,-0.00157,-0.066411,-261.206575,0.501917,65.938349
14.4357,-0.007032,0.000289,0.000355,-0.000707,-0.000127,0.000182,-0.007434,-0.510203,-0.001711,-0.066411,-261.206575,0.501917,65.938349
14.4553,-0.006858,0.000397,-0.001247,-0.000703,-7.7e-05,0.000565,-0.007434,-0.510203,-0.001711,-0.066411,-261.206575,0.501917,65.938349
14.4756,-0.006828,0.000419,-0.001828,-0.0007,-3.5e-05,0.000837,-0.007494,-0.509602,-0.001247,0.00865,-261.206575,0.426856,65.938349
14.4955,-0.006634,3.5e-05,-0.001163,-0.000687,-8e-05,0.000913,-0.007603,-0.509593,-0.001484,0.00865,-261.206575,0.426856,65.938349
14.5154,-0.006356,0.000351,0.000997,-0.000678,-0.000115,0.000966,-0.007228,-0.509965,-0.001163,-0.066247,-261.206576,0.501753,65.938349
14.5357,-0.00677,0.000206,-0.000491,-0.000741,-0.000122,-0.000206,-0.005967,-0.509676,0.00081,-0.066247,-261.206576,0.501753,65.938349
14.5553,-0.006784,0.000127,-0.000633,-0.000785,-0.000132,-0.001047,-0.005967,-0.509676,0.00081,-0.066247,-261.206576,0.501753,65.938349
14.5753,-0.006368,0.000293,-0.00065,-0.000816,-0.000145,-0.001647,-0.007107,-0.509873,-0.000633,-0.141379,-261.206576,0.576885,65.938348
14.5953,-0.006215,0.000459,-0.001419,-0.000796,-0.000147,-0.001275,-0.006939,-0.509805,-0.00064,-0.141379,-261.206576,0.576885,65.938348
14.6154,-0.006723,3e-05,-0.001135,-0.00078,-0.000148,-0.001009,-0.006939,-0.50954,-0.001419,-0.06634,-261.206576,0.501846,65.938348
14.6354,-0.00652,0.000122,-0.000552,-0.00076,-0.000134,-0.000545,-0.007269,-0.509931,-0.001161,-0.06634,-261.206576,0.501846,65.938348
14.6558,-0.006567,0.000572,-0.000178,-0.000745,-0.000121,-0.000215,-0.007269,-0.509931,-0.001161,-0.06634,-261.206576,0.501846,65.938348
14.676,-0.006806,0.000329,-0.000839,-0.000732,-0.000108,1.9e-05,-0.006657,-0.509428,-0.000178,0.0085,-261.206576,0.427006,65.938348
14.6962,-0.006513,0.000108,0.000977,-0.000729,-0.00015,-0.000203,-0.006889,-0.509526,-0.000444,0.0085,-261.206576,0.427006,65.938348
14.7154,-0.006867,0.000278,-0.000681,-0.000726,-0.000185,-0.00036,-0.00602,-0.509893,0.000978,0.083651,-261.206651,0.351855,65.938273
14.7355,-0.006632,0.000324,-3.4e-05,-0.00072,-0.000185,-0.000417,-0.00711,-0.509737,-0.000535,0.083651,-261.206651,0.351855,65.938273
14.7557,-0.006515,0.000441,-0.001135,-0.000716,-0.000184,-0.000457,-0.00711,-0.509737,-0.000535,0.083651,-261.206651,0.351855,65.938273
14.7753,-0.00677,0.000155,-0.001673,-0.000712,-0.000184,-0.000484,-0.007094,-0.509559,-0.001135,0.15863,-261.206652,0.276876,65.938272
14.7955,-0.006384,0.000348,-0.000599,-0.000701,-0.000197,-7.8e-05,-0.007312,-0.509676,-0.001356,0.15863,-261.206652,0.276876,65.938272
14.8155,-0.006786,0.000233,-0.000363,-0.000693,-0.000205,0.00021,-0.00669,-0.509652,-0.000599,0.23362,-261.206653,0.201885,65.938272
14.8357,-0.006524,0.000269,-0.001278,-0.0007,-0.000194,-9.9e-05,-0.006947,-0.509757,-0.000383,0.23362,-261.206653,0.201885,65.938272
