mach0312/omni-docking-bench/src/icros_test_setup/results/MPPI_sample/timeseries/trial_134.csv
t,x,y,yaw,vx,vy,wz,bl_x,bl_y,bl_yaw,front_steering_joint,front_wheel_joint,rear_steering_joint,rear_wheel_joint
0.0,0.047922,-0.031981,-0.087932,-0.004404,-0.000878,-0.001806,0.00453,-0.540495,-0.085819,0.422831,-257.807336,-0.050983,67.966
0.0003,0.046666,-0.032422,-0.087105,-0.003621,-0.000722,-0.001485,0.00453,-0.540495,-0.085819,0.422831,-257.810164,-0.050983,67.963418
0.0006,0.047536,-0.032406,-0.085964,-0.002793,-0.000557,-0.001145,0.004096,-0.540377,-0.086392,0.422831,-257.812412,-0.050983,67.961365
0.0008,0.047552,-0.03243,-0.087016,-0.001909,-0.000381,-0.000783,0.004096,-0.540377,-0.086392,0.422831,-257.813635,-0.050983,67.960249
0.001,0.047184,-0.032392,-0.087244,-0.000981,-0.000196,-0.000403,0.00351,-0.540274,-0.087271,0.422831,-257.814065,-0.050983,67.959856
0.0012,0.04713,-0.032097,-0.087519,-1e-06,-0.0,-0.0,0.003298,-0.539806,-0.087979,0.422831,-257.814065,-0.050983,67.959856
0.0014,0.047437,-0.032288,-0.086312,0.0,0.0,0.0,0.003298,-0.539806,-0.087979,0.422831,-257.814065,-0.050983,67.959856
0.0016,0.047651,-0.032207,-0.086862,0.0,0.0,0.0,0.003298,-0.539806,-0.087979,0.422831,-257.814065,-0.050983,67.959856
0.0169,0.047415,-0.032083,-0.087441,0.0,0.0,0.0,0.003383,-0.540368,-0.086425,0.422831,-257.814065,-0.050983,67.959856
0.0366,0.047261,-0.032271,-0.088308,0.0,0.0,0.0,0.002877,-0.540134,-0.087441,0.422831,-257.814065,-0.050983,67.959856
0.0569,0.047618,-0.032311,-0.087896,0.0,0.0,0.0,0.002637,-0.540194,-0.087791,0.422831,-257.814065,-0.050983,67.959856
0.0768,0.047289,-0.03235,-0.088275,0.0,0.0,0.0,0.002849,-0.540343,-0.087896,0.422831,-257.814065,-0.050983,67.959856
0.0967,0.046892,-0.031962,-0.088355,0.0,0.0,0.0,0.002374,-0.540362,-0.08824,0.422831,-257.814065,-0.050983,67.959856
0.1169,0.047202,-0.032578,-0.088942,0.001788,0.004063,0.001712,0.002374,-0.540362,-0.08824,0.422831,-257.814065,-0.050983,67.959856
0.1366,0.047053,-0.032201,-0.088279,0.002055,0.004468,0.001877,0.001901,-0.540562,-0.088942,0.422831,-257.814065,-0.050983,67.959856
0.157,0.046968,-0.032241,-0.08654,0.002314,0.004822,0.002027,0.001978,-0.540421,-0.088672,0.422831,-257.814065,-0.050983,67.959856
0.1767,0.047371,-0.032184,-0.087132,0.002554,0.00513,0.002154,0.002888,-0.540333,-0.08654,0.497926,-257.814065,0.024112,67.959856
0.197,0.047474,-0.032408,-0.086072,0.002742,0.005394,0.002277,0.002981,-0.540256,-0.087078,0.497926,-257.814065,0.024112,67.959856
0.2169,0.047344,-0.032451,-0.087556,0.002916,0.005624,0.002381,0.002981,-0.540256,-0.087078,0.497926,-257.814065,0.024112,67.959856
0.2368,0.047416,-0.032242,-0.087792,0.003077,0.005825,0.00247,0.002748,-0.540498,-0.087556,0.572819,-257.814065,0.099004,67.959856
0.2568,0.047351,-0.031861,-0.087939,0.003231,0.006,0.002571,0.002728,-0.540409,-0.087652,0.572819,-257.814065,0.099004,67.959856
0.2768,0.047254,-0.032103,-0.08644,0.003372,0.006153,0.002656,0.00256,-0.53989,-0.087939,0.647832,-257.814065,0.174017,67.959856
0.2966,0.047459,-0.032225,-0.088856,0.003485,0.006285,0.002729,0.003172,-0.540175,-0.086559,0.647832,-257.814065,0.174017,67.959856
0.3167,0.047069,-0.032105,-0.086328,0.003588,0.0064,0.00279,0.003172,-0.540175,-0.086559,0.647832,-257.814065,0.174017,67.959856
0.3366,0.047639,-0.03243,-0.087811,0.003683,0.0065,0.00284,0.003096,-0.540206,-0.086328,0.723144,-257.814065,0.24933,67.959856
0.3571,0.046986,-0.032154,-0.088331,0.003771,0.006589,0.002882,0.003022,-0.540311,-0.086929,0.723144,-257.814065,0.24933,67.959856
0.3766,0.04736,-0.032551,-0.088303,0.003852,0.006666,0.002916,0.001996,-0.540165,-0.088331,0.797836,-257.814065,0.324022,67.959856
0.3963,0.047427,-0.032327,-0.087412,0.003946,0.006736,0.002942,0.002351,-0.54053,-0.088305,0.797836,-257.814065,0.324022,67.959856
0.4168,0.047491,-0.032044,-0.088294,0.004029,0.006798,0.002963,0.002351,-0.54053,-0.088305,0.797836,-257.814065,0.324022,67.959856
0.4369,0.046929,-0.032282,-0.088172,0.004104,0.006852,0.002981,0.00252,-0.540057,-0.088294,0.87297,-257.814063,0.399155,67.959857
0.4565,0.047417,-0.032135,-0.088943,0.00417,0.006899,0.002996,0.002315,-0.540157,-0.088244,0.87297,-257.814063,0.399155,67.959857
0.4766,0.047549,-0.03235,-0.08699,0.004228,0.006941,0.003008,0.002117,-0.540118,-0.088943,0.947851,-257.814038,0.474036,67.959874
0.4966,0.047328,-0.032177,-0.088178,0.004256,0.006975,0.003022,0.003139,-0.540394,-0.087166,0.947851,-257.814038,0.474036,67.959874
0.5165,0.047041,-0.03206,-0.087667,0.004281,0.007004,0.003032,0.003139,-0.540394,-0.087166,0.947851,-257.814038,0.474036,67.959874
0.5363,0.046981,-0.032148,-0.086608,0.004305,0.00703,0.003041,0.002398,-0.540092,-0.08766,1.022854,-257.813877,0.54904,67.959984
0.5569,0.047694,-0.032236,-0.086248,0.004343,0.007055,0.003045,0.002591,-0.54015,-0.087229,1.022854,-257.813877,0.54904,67.959984
0.5769,0.047414,-0.032299,-0.087184,0.004378,0.007077,0.003049,0.003788,-0.540312,-0.086229,1.097831,-257.813286,0.624016,67.960386
0.5967,0.047684,-0.032199,-0.08755,0.004393,0.007094,0.003053,0.003083,-0.540356,-0.087091,1.097831,-257.813286,0.624016,67.960386
0.6167,0.04735,-0.031813,-0.086242,0.004407,0.00711,0.003057,0.003083,-0.540356,-0.087091,1.097831,-257.813286,0.624016,67.960386
0.6367,0.047507,-0.03218,-0.087925,0.00442,0.007123,0.00306,0.003503,-0.539822,-0.086185,1.115394,-257.811827,0.699037,67.961385
0.6564,0.047596,-0.032161,-0.088036,0.004427,0.007134,0.003062,0.003193,-0.53997,-0.086892,1.115394,-257.811827,0.699037,67.961385
0.6766,0.047415,-0.031763,-0.087042,0.004435,0.007144,0.003064,0.002859,-0.540058,-0.087969,1.113923,-257.809339,0.774022,67.96309
0.6967,0.047017,-0.031495,-0.085767,0.004445,0.007153,0.003065,0.003065,-0.539845,-0.087118,1.113923,-257.809339,0.774022,67.96309
0.7167,0.047222,-0.032332,-0.086827,0.004454,0.007161,0.003065,0.003065,-0.539845,-0.087118,1.113923,-257.809339,0.774022,67.96309
0.7364,0.047698,-0.03148,-0.087809,0.004463,0.007168,0.003065,0.003179,-0.54017,-0.086714,1.113651,-257.805893,0.849123,67.965453
0.7563,0.047758,-0.031378,-0.085928,0.004469,0.007174,0.003065,0.003117,-0.539879,-0.087142,1.113651,-257.805893,0.849123,67.965453
0.7762,0.047774,-0.031093,-0.086274,0.004474,0.00718,0.003065,0.004149,-0.539283,-0.085831,1.112214,-257.801883,0.870566,67.968207
0.7965,0.047477,-0.031034,-0.086227,0.004451,0.00718,0.003092,0.003865,-0.539193,-0.086231,1.112214,-257.801883,0.870566,67.968207
0.8168,0.047561,-0.031371,-0.086198,0.004431,0.00718,0.003113,0.003865,-0.539193,-0.086231,1.112214,-257.801883,0.870566,67.968207
0.8364,0.048277,-0.030472,-0.08701,0.004415,0.00718,0.00313,0.003866,-0.539195,-0.08607,1.111722,-257.797851,0.870366,67.97098
0.8568,0.047672,-0.030783,-0.085663,0.004398,0.00718,0.003151,0.003928,-0.538895,-0.08644,1.111722,-257.797851,0.870366,67.97098
0.8763,0.04842,-0.030971,-0.085834,0.004384,0.007179,0.003168,0.004197,-0.538698,-0.085563,1.118709,-257.793811,0.873268,67.973727
0.8965,0.048228,-0.030533,-0.086552,0.004348,0.007175,0.003191,0.004662,-0.539047,-0.085805,1.118709,-257.793811,0.873268,67.973727
0.9165,0.048165,-0.030721,-0.086322,0.004319,0.007171,0.003209,0.004662,-0.539047,-0.085805,1.118709,-257.793811,0.873268,67.973727
0.9365,0.048103,-0.029987,-0.088115,0.004295,0.007168,0.003224,0.004404,-0.538538,-0.086189,1.122489,-257.789767,0.874579,67.97646
0.9569,0.048396,-0.030073,-0.086396,0.004292,0.007168,0.003239,0.00395,-0.538291,-0.086954,1.122489,-257.789767,0.874579,67.97646
0.9767,0.048563,-0.029793,-0.087852,0.00429,0.007168,0.003251,0.004544,-0.537955,-0.086294,1.13139,-257.785736,0.880344,67.979153
0.9968,0.048246,-0.029583,-0.086117,0.004287,0.007167,0.003268,0.003889,-0.537827,-0.087706,1.13139,-257.785736,0.880344,67.979153
1.0166,0.048386,-0.02968,-0.087417,0.004284,0.007167,0.003281,0.003889,-0.537827,-0.087706,1.13139,-257.785736,0.880344,67.979153
1.0366,0.048334,-0.029573,-0.086219,0.004281,0.007167,0.003292,0.004065,-0.537448,-0.087281,1.132513,-257.781693,0.879275,67.981843
1.0565,0.048744,-0.029549,-0.084677,0.004266,0.007164,0.003308,0.004231,-0.537509,-0.086836,1.132513,-257.781693,0.879275,67.981843
1.0763,0.04873,-0.029378,-0.085078,0.004253,0.007161,0.003322,0.005766,-0.537506,-0.084572,1.134288,-257.777642,0.877813,67.984524
1.0964,0.049053,-0.029137,-0.086509,0.004202,0.007151,0.003343,0.005434,-0.53752,-0.085027,1.134288,-257.777642,0.877813,67.984524
1.1164,0.048898,-0.028794,-0.085592,0.00416,0.007142,0.00336,0.005434,-0.53752,-0.085027,1.134288,-257.777642,0.877813,67.984524
1.1364,0.049291,-0.028766,-0.086276,0.004125,0.007134,0.003374,0.005502,-0.536644,-0.085453,1.137364,-257.773593,0.878821,67.987189
1.1566,0.049106,-0.028763,-0.085838,0.004087,0.007125,0.003389,0.005462,-0.536703,-0.085772,1.137364,-257.773593,0.878821,67.987189
1.1766,0.049291,-0.028226,-0.08382,0.004055,0.007117,0.003401,0.005532,-0.536671,-0.085731,1.149099,-257.769569,0.888183,67.9898
1.197,0.048974,-0.028402,-0.08549,0.003993,0.007101,0.003418,0.00651,-0.536446,-0.083977,1.149099,-257.769569,0.888183,67.9898
1.2165,0.048863,-0.028475,-0.085684,0.00394,0.007087,0.003431,0.00651,-0.536446,-0.083977,1.149099,-257.769569,0.888183,67.9898
1.2363,0.049512,-0.027987,-0.086527,0.003897,0.007074,0.003441,0.005411,-0.536323,-0.085542,1.155377,-257.765555,0.893196,67.992384
1.2566,0.049185,-0.028344,-0.085,0.003893,0.007072,0.003445,0.005445,-0.536189,-0.085933,1.155377,-257.765555,0.893196,67.992384
1.2769,0.049051,-0.027389,-0.084519,0.003889,0.00707,0.003449,0.006029,-0.536291,-0.084891,1.169204,-257.761596,0.906156,67.994893
1.297,0.049414,-0.027816,-0.085676,0.003863,0.007062,0.003455,0.006008,-0.535623,-0.084548,1.169204,-257.761596,0.906156,67.994893
1.317,0.049351,-0.027598,-0.084706,0.003842,0.007056,0.00346,0.006008,-0.535623,-0.084548,1.169204,-257.761596,0.906156,67.994893
1.3365,0.049559,-0.027673,-0.087054,0.003824,0.00705,0.003464,0.00639,-0.535488,-0.084561,1.169912,-257.757605,0.906182,67.997418
1.3572,0.049622,-0.026949,-0.084945,0.00381,0.007045,0.003467,0.005933,-0.535559,-0.085561,1.169912,-257.757605,0.906182,67.997418
1.3764,0.049379,-0.027107,-0.086012,0.003798,0.00704,0.003469,0.006492,-0.534897,-0.084835,1.175541,-257.753641,0.911519,67.99991
1.3971,0.049243,-0.026746,-0.085111,0.003795,0.007038,0.003471,0.005657,-0.535182,-0.085901,1.175541,-257.753641,0.911519,67.99991
1.4164,0.049758,-0.027397,-0.084703,0.003792,0.007036,0.003472,0.005657,-0.535182,-0.085901,1.175541,-257.753641,0.911519,67.99991
1.4367,0.049465,-0.026581,-0.083685,0.00379,0.007035,0.003473,0.006795,-0.535288,-0.084558,1.177703,-257.749676,0.913541,68.002396
1.4571,0.05013,-0.026856,-0.083768,0.003746,0.007022,0.003479,0.006832,-0.535056,-0.084187,1.177703,-257.749676,0.913541,68.002396
1.4763,0.050247,-0.026412,-0.083161,0.00371,0.00701,0.003484,0.007598,-0.534854,-0.083657,1.178359,-257.745705,0.913864,68.004883
1.497,0.050054,-0.026389,-0.084633,0.003642,0.006988,0.003492,0.007866,-0.534657,-0.083198,1.178359,-257.745705,0.913864,68.004883
1.5169,0.050452,-0.026374,-0.085972,0.003584,0.006968,0.003499,0.007866,-0.534657,-0.083198,1.178359,-257.745705,0.913864,68.004883
1.5365,0.049884,-0.025999,-0.084592,0.003536,0.006952,0.003503,0.00684,-0.534212,-0.085827,1.185099,-257.741772,0.920985,68.007328
1.5567,0.050096,-0.025991,-0.083479,0.003524,0.006947,0.003502,0.006842,-0.534165,-0.085309,1.185099,-257.741772,0.920985,68.007328
1.5767,0.050025,-0.02599,-0.085556,0.003514,0.006942,0.0035,0.007701,-0.534006,-0.083368,1.199846,-257.737895,0.937131,68.009702
1.5969,0.050165,-0.025791,-0.085119,0.003516,0.006941,0.003498,0.006558,-0.534104,-0.085364,1.199846,-257.737895,0.937131,68.009702
1.6168,0.05011,-0.026012,-0.084479,0.003517,0.00694,0.003496,0.006558,-0.534104,-0.085364,1.199846,-257.737895,0.937131,68.009702
1.6366,0.050297,-0.025295,-0.083195,0.003518,0.006939,0.003494,0.007248,-0.533916,-0.084332,1.2015,-257.734006,0.939225,68.012079
1.6565,0.050257,-0.025141,-0.083398,0.003481,0.006926,0.003498,0.007539,-0.533728,-0.083854,1.2015,-257.734006,0.939225,68.012079
1.6763,0.050163,-0.024848,-0.083705,0.00345,0.006915,0.003501,0.007903,-0.533158,-0.083286,1.200942,-257.730114,0.938845,68.014461
1.6965,0.050192,-0.024813,-0.083651,0.003415,0.006902,0.003503,0.007564,-0.53306,-0.083663,1.200942,-257.730114,0.938845,68.014461
1.7166,0.050374,-0.025348,-0.083622,0.003387,0.00689,0.003505,0.007564,-0.53306,-0.083663,1.200942,-257.730114,0.938845,68.014461
1.7364,0.050297,-0.024799,-0.085887,0.003363,0.006881,0.003506,0.007944,-0.53329,-0.083475,1.206705,-257.726244,0.9453,68.016815
1.7565,0.050796,-0.024854,-0.083494,0.003349,0.006874,0.003505,0.007397,-0.533108,-0.084437,1.206705,-257.726244,0.9453,68.016815
1.7767,0.050579,-0.024268,-0.083843,0.003337,0.006869,0.003504,0.008388,-0.532868,-0.083383,1.214,-257.722395,0.953692,68.019138
1.7967,0.050701,-0.023978,-0.084811,0.003301,0.006854,0.003507,0.00792,-0.5325,-0.083798,1.214,-257.722395,0.953692,68.019138
1.8172,0.050747,-0.024193,-0.083052,0.003272,0.006842,0.003508,0.00792,-0.5325,-0.083798,1.214,-257.722395,0.953692,68.019138
1.8367,0.050849,-0.024017,-0.083165,0.003247,0.006831,0.003509,0.008603,-0.53216,-0.082905,1.216072,-257.718541,0.956247,68.02146
1.8573,0.050653,-0.024207,-0.083885,0.003199,0.006811,0.003513,0.008572,-0.532168,-0.082996,1.216072,-257.718541,0.956247,68.02146
1.8764,0.050865,-0.023766,-0.083695,0.003159,0.006794,0.003515,0.008043,-0.532206,-0.083773,1.223681,-257.714744,0.965118,68.023729
1.8967,0.051196,-0.023855,-0.082236,0.003135,0.006783,0.003514,0.00822,-0.53199,-0.083696,1.223681,-257.714744,0.965118,68.023729
1.9166,0.050683,-0.023659,-0.085553,0.003116,0.006773,0.003514,0.00822,-0.53199,-0.083696,1.223681,-257.714744,0.965118,68.023729
1.9365,0.050686,-0.023309,-0.083123,0.003099,0.006765,0.003512,0.007259,-0.531523,-0.085406,1.231135,-257.710964,0.97378,68.025969
1.9567,0.050971,-0.0235,-0.083765,0.003096,0.006762,0.00351,0.007719,-0.531502,-0.084457,1.231135,-257.710964,0.97378,68.025969
1.9762,0.051255,-0.022833,-0.081552,0.003094,0.00676,0.003507,0.008417,-0.531505,-0.083653,1.236092,-257.707188,0.979958,68.028196
1.9965,0.050962,-0.023239,-0.082431,0.003022,0.006727,0.003514,0.009606,-0.531159,-0.081724,1.236092,-257.707188,0.979958,68.028196
2.0165,0.050712,-0.022848,-0.082818,0.002962,0.006699,0.003519,0.009606,-0.531159,-0.081724,1.236092,-257.707188,0.979958,68.028196
2.0368,0.051096,-0.023004,-0.08289,0.002912,0.006675,0.003522,0.008676,-0.530829,-0.082671,1.236302,-257.703425,0.980489,68.030415
2.0568,0.051134,-0.022638,-0.083853,0.002895,0.006666,0.00352,0.008772,-0.53097,-0.082743,1.236302,-257.703425,0.980489,68.030415
2.0767,0.051198,-0.022452,-0.082348,0.002881,0.006658,0.003518,0.008529,-0.530644,-0.083742,1.252137,-257.699736,0.998902,68.03255
2.0967,0.051195,-0.022592,-0.082005,0.002851,0.006642,0.003518,0.009192,-0.530708,-0.082461,1.252137,-257.699736,0.998902,68.03255
2.1168,0.05123,-0.02218,-0.081708,0.002825,0.006629,0.003517,0.009192,-0.530708,-0.082461,1.252137,-257.699736,0.998902,68.03255
2.1367,0.050737,-0.021814,-0.081698,0.002804,0.006617,0.003516,0.009748,-0.530212,-0.081561,1.254622,-257.696037,1.002285,68.034687
2.1568,0.051599,-0.021894,-0.082397,0.002766,0.006598,0.003518,0.009508,-0.530141,-0.0816,1.254622,-257.696037,1.002285,68.034687
2.1764,0.051161,-0.021858,-0.081951,0.002735,0.006581,0.003518,0.00973,-0.529961,-0.082285,1.261211,-257.692357,1.010576,68.036797
2.1965,0.051331,-0.021616,-0.081472,0.002711,0.006568,0.003518,0.009445,-0.530121,-0.081974,1.261211,-257.692357,1.010576,68.036797
2.2167,0.051277,-0.021811,-0.082604,0.00269,0.006556,0.003517,0.009445,-0.530121,-0.081974,1.261211,-257.692357,1.010576,68.036797
2.2367,0.051131,-0.021342,-0.081091,0.002673,0.006546,0.003515,0.009333,-0.529808,-0.082457,1.267164,-257.688708,1.017896,68.038874
2.2569,0.051112,-0.021182,-0.080544,0.002649,0.006532,0.003515,0.009546,-0.52972,-0.081886,1.267164,-257.688708,1.017896,68.038874
2.2768,0.05127,-0.021148,-0.081982,0.002628,0.00652,0.003515,0.010181,-0.529327,-0.080432,1.272464,-257.685075,1.024725,68.04093
2.2972,0.051467,-0.021404,-0.081454,0.002605,0.006506,0.003515,0.009572,-0.529415,-0.081836,1.272464,-257.685075,1.024725,68.04093
2.3169,0.051348,-0.020824,-0.081593,0.002585,0.006494,0.003514,0.009572,-0.529415,-0.081836,1.272464,-257.685075,1.024725,68.04093
2.3369,0.051228,-0.020668,-0.080426,0.002569,0.006484,0.003513,0.009913,-0.528865,-0.081446,1.276365,-257.681455,1.029666,68.04297
2.3569,0.051455,-0.020728,-0.083356,0.00253,0.006461,0.003516,0.010067,-0.528897,-0.081015,1.276365,-257.681455,1.029666,68.04297
2.3768,0.051505,-0.020324,-0.08132,0.002497,0.006442,0.003517,0.009092,-0.528758,-0.083244,1.281459,-257.677852,1.036171,68.044987
2.3967,0.051605,-0.020684,-0.081628,0.002467,0.006423,0.003517,0.009997,-0.528639,-0.081481,1.281459,-257.677852,1.036171,68.044987
2.4168,0.051371,-0.020623,-0.080443,0.002441,0.006408,0.003517,0.009997,-0.528639,-0.081481,1.281459,-257.677852,1.036171,68.044987
2.4371,0.051849,-0.020013,-0.079579,0.00242,0.006394,0.003517,0.010515,-0.528713,-0.080296,1.287927,-257.674285,1.044128,68.046968
2.457,0.051791,-0.01971,-0.082083,0.002374,0.006366,0.00352,0.01085,-0.528556,-0.079989,1.287927,-257.674285,1.044128,68.046968
2.4767,0.051847,-0.01987,-0.080889,0.002335,0.006341,0.003522,0.01007,-0.527796,-0.081971,1.292845,-257.670729,1.050347,68.04893
2.4969,0.051439,-0.020177,-0.080142,0.002302,0.00632,0.003522,0.010592,-0.528156,-0.08098,1.292845,-257.670729,1.050347,68.04893
2.517,0.051633,-0.019779,-0.079385,0.002275,0.006302,0.003522,0.010592,-0.528156,-0.08098,1.292845,-257.670729,1.050347,68.04893
2.5364,0.051628,-0.01988,-0.079985,0.002252,0.006286,0.003521,0.011308,-0.527916,-0.079238,1.302505,-257.66722,1.062489,68.050841
2.5567,0.051887,-0.019189,-0.079904,0.002214,0.00626,0.003522,0.011148,-0.528022,-0.079524,1.302505,-257.66722,1.062489,68.050841
2.5762,0.051893,-0.01922,-0.080341,0.002181,0.006238,0.003523,0.011267,-0.527367,-0.079791,1.309915,-257.663736,1.07212,68.05272
2.5965,0.051886,-0.019037,-0.081545,0.00215,0.006216,0.003523,0.010995,-0.527546,-0.080286,1.309915,-257.663736,1.07212,68.05272
2.6165,0.051745,-0.019212,-0.080632,0.002123,0.006196,0.003523,0.010995,-0.527546,-0.080286,1.309915,-257.663736,1.07212,68.05272
2.6365,0.051557,-0.018846,-0.080798,0.0021,0.00618,0.003522,0.01078,-0.527302,-0.080484,1.316412,-257.66027,1.080475,68.054573
2.6567,0.05226,-0.019101,-0.079276,0.002087,0.006168,0.003519,0.010635,-0.527224,-0.080596,1.316412,-257.66027,1.080475,68.054573
2.6762,0.051741,-0.018299,-0.080751,0.002076,0.006159,0.003517,0.011953,-0.527309,-0.079165,1.32381,-257.656841,1.090228,68.056386
2.6965,0.051744,-0.018425,-0.080431,0.002052,0.006141,0.003517,0.010721,-0.526684,-0.080611,1.32381,-257.656841,1.090228,68.056386
2.7165,0.051929,-0.018642,-0.080461,0.002032,0.006125,0.003516,0.010721,-0.526684,-0.080611,1.32381,-257.656841,1.090228,68.056386
2.7367,0.051723,-0.01832,-0.079889,0.002016,0.006112,0.003515,0.011045,-0.526743,-0.080315,1.325943,-257.653418,1.093239,68.058191
2.7565,0.051705,-0.017921,-0.081166,0.001992,0.006094,0.003515,0.011048,-0.526694,-0.080123,1.325943,-257.653418,1.093239,68.058191
2.7763,0.051922,-0.017551,-0.08106,0.001972,0.006078,0.003515,0.010435,-0.526054,-0.081054,1.331402,-257.650026,1.100496,68.059966
2.7966,0.051835,-0.017831,-0.0786,0.001951,0.006061,0.003514,0.010614,-0.525883,-0.081054,1.331402,-257.650026,1.100496,68.059966
2.8164,0.051865,-0.017981,-0.079132,0.001934,0.006047,0.003513,0.010614,-0.525883,-0.081054,1.331402,-257.650026,1.100496,68.059966
2.8366,0.051907,-0.017523,-0.080874,0.001919,0.006034,0.003512,0.011652,-0.526138,-0.078985,1.335516,-257.646645,1.105971,68.061724
2.8568,0.051963,-0.017712,-0.079991,0.001889,0.006011,0.003513,0.011277,-0.525994,-0.079741,1.335516,-257.646645,1.105971,68.061724
2.8763,0.052246,-0.017257,-0.079743,0.001863,0.005991,0.003514,0.011287,-0.525894,-0.079879,1.34031,-257.643288,1.112398,68.063457
2.8966,0.052076,-0.017288,-0.079391,0.001825,0.00596,0.003516,0.011594,-0.52565,-0.07975,1.34031,-257.643288,1.112398,68.063457
2.9166,0.052083,-0.017188,-0.080829,0.001792,0.005934,0.003517,0.011594,-0.52565,-0.07975,1.34031,-257.643288,1.112398,68.063457
2.9366,0.052011,-0.016669,-0.079245,0.001765,0.005912,0.003517,0.011003,-0.525279,-0.080681,1.345663,-257.639954,1.119497,68.065164
2.957,0.052027,-0.017228,-0.080484,0.001741,0.005891,0.003517,0.011272,-0.525166,-0.080083,1.345663,-257.639954,1.119497,68.065164
2.9766,0.052522,-0.016726,-0.080356,0.001721,0.005874,0.003516,0.011096,-0.525392,-0.080371,1.355213,-257.636667,1.132275,68.06682
2.9967,0.052237,-0.016803,-0.079466,0.001695,0.005851,0.003516,0.011542,-0.5251,-0.080352,1.355213,-257.636667,1.132275,68.06682
3.0166,0.05233,-0.016837,-0.078238,0.001672,0.005831,0.003516,0.011542,-0.5251,-0.080352,1.355213,-257.636667,1.132275,68.06682
3.0369,0.052156,-0.016289,-0.079408,0.001653,0.005815,0.003515,0.01256,-0.525037,-0.078091,1.359397,-257.633388,1.138056,68.068461
3.0567,0.05217,-0.016431,-0.079468,0.001613,0.00578,0.003517,0.012222,-0.524866,-0.078608,1.359397,-257.633388,1.138056,68.068461
3.0762,0.052061,-0.016304,-0.080802,0.00158,0.00575,0.003519,0.011751,-0.524641,-0.079356,1.366026,-257.630142,1.147283,68.070067
3.0963,0.052096,-0.015788,-0.078365,0.001583,0.005751,0.003514,0.010977,-0.524631,-0.080666,1.366026,-257.630142,1.147283,68.070067
3.1166,0.051958,-0.016309,-0.080512,0.001586,0.005751,0.00351,0.010977,-0.524631,-0.080666,1.366026,-257.630142,1.147283,68.070067
3.1369,0.052006,-0.015693,-0.078544,0.001588,0.00575,0.003507,0.011026,-0.524423,-0.080365,1.373437,-257.626928,1.157465,68.071636
3.1564,0.051835,-0.015958,-0.0772,0.001568,0.005732,0.003508,0.011429,-0.524272,-0.079604,1.373437,-257.626928,1.157465,68.071636
3.1771,0.052431,-0.015258,-0.077483,0.00155,0.005716,0.003508,0.012567,-0.52426,-0.077088,1.372223,-257.623704,1.156171,68.073215
3.1968,0.05201,-0.01562,-0.07877,0.001483,0.005654,0.003515,0.012924,-0.523765,-0.077443,1.372223,-257.623704,1.156171,68.073215
3.2169,0.052008,-0.015622,-0.076744,0.001426,0.005602,0.00352,0.012924,-0.523765,-0.077443,1.372223,-257.623704,1.156171,68.073215
3.2368,0.052329,-0.015278,-0.079192,0.001379,0.005557,0.003523,0.01299,-0.523888,-0.076598,1.376005,-257.620502,1.161455,68.074771
3.2569,0.052434,-0.015522,-0.080414,0.001349,0.005528,0.003523,0.012588,-0.523776,-0.077641,1.376005,-257.620502,1.161455,68.074771
3.2767,0.05201,-0.015238,-0.077849,0.001323,0.005503,0.003522,0.011524,-0.523704,-0.080303,1.393773,-257.617419,1.186019,68.076218
3.2968,0.052016,-0.01531,-0.077878,0.001308,0.005488,0.00352,0.012276,-0.523685,-0.078064,1.393773,-257.617419,1.186019,68.076218
3.3171,0.052433,-0.014808,-0.077693,0.001295,0.005475,0.003517,0.012276,-0.523685,-0.078064,1.393773,-257.617419,1.186019,68.076218
3.3369,0.052297,-0.015136,-0.076748,0.001285,0.005464,0.003515,0.012922,-0.523044,-0.077545,1.399633,-257.614313,1.194867,68.077659
3.3572,0.052038,-0.014855,-0.077203,0.001246,0.005424,0.003517,0.013041,-0.523259,-0.077204,1.399633,-257.614313,1.194867,68.077659
3.3768,0.052344,-0.014286,-0.078083,0.001213,0.00539,0.003518,0.012757,-0.523166,-0.077092,1.403559,-257.611233,1.201249,68.079078
3.3966,0.051874,-0.014496,-0.07939,0.001185,0.005361,0.003518,0.012583,-0.522762,-0.077988,1.403559,-257.611233,1.201249,68.079078
3.4171,0.051827,-0.014438,-0.078048,0.001161,0.005335,0.003517,0.012583,-0.522762,-0.077988,1.403559,-257.611233,1.201249,68.079078
3.4368,0.052168,-0.014112,-0.077671,0.001141,0.005313,0.003516,0.012131,-0.522664,-0.077901,1.411278,-257.608184,1.212774,68.080461
3.4568,0.05257,-0.014709,-0.078535,0.001128,0.005298,0.003514,0.012329,-0.522602,-0.07779,1.411278,-257.608184,1.212774,68.080461
3.4763,0.052164,-0.014066,-0.076824,0.001116,0.005284,0.003512,0.012607,-0.522971,-0.078424,1.41898,-257.605175,1.224784,68.081802
3.4971,0.052189,-0.0139,-0.07859,0.00109,0.005256,0.003512,0.012988,-0.522589,-0.076959,1.41898,-257.605175,1.224784,68.081802
3.5172,0.051764,-0.014002,-0.077751,0.001068,0.005231,0.003512,0.012988,-0.522589,-0.076959,1.41898,-257.605175,1.224784,68.081802
3.537,0.051995,-0.013518,-0.076461,0.001049,0.00521,0.003512,0.012214,-0.522244,-0.077604,1.421647,-257.602162,1.229171,68.083139
3.5573,0.052201,-0.013526,-0.076381,0.001032,0.005191,0.003511,0.012563,-0.522129,-0.077113,1.421647,-257.602162,1.229171,68.083139
3.5769,0.051992,-0.013321,-0.078313,0.001019,0.005175,0.003509,0.013331,-0.521876,-0.076269,1.429155,-257.599209,1.241163,68.084427
3.5967,0.052093,-0.013576,-0.077796,0.001006,0.00516,0.003508,0.012205,-0.52176,-0.078127,1.429155,-257.599209,1.241163,68.084427
3.6172,0.052063,-0.013255,-0.078634,0.000996,0.005147,0.003506,0.012205,-0.52176,-0.078127,1.429155,-257.599209,1.241163,68.084427
3.6369,0.051859,-0.013081,-0.079284,0.000987,0.005136,0.003505,0.012061,-0.521466,-0.078487,1.4325,-257.596259,1.246657,68.085704
3.6572,0.051998,-0.013183,-0.076292,0.000982,0.005127,0.003503,0.011829,-0.521447,-0.07879,1.4325,-257.596259,1.246657,68.085704
3.6765,0.052015,-0.013068,-0.075675,0.000977,0.00512,0.003501,0.013171,-0.521538,-0.07618,1.435915,-257.593324,1.252327,68.086964
3.6969,0.052089,-0.012396,-0.076922,0.000939,0.005076,0.003505,0.013433,-0.521594,-0.075715,1.435915,-257.593324,1.252327,68.086964
3.7167,0.052382,-0.01304,-0.078522,0.000906,0.005038,0.003508,0.013433,-0.521594,-0.075715,1.435915,-257.593324,1.252327,68.086964
3.7367,0.052347,-0.012677,-0.077108,0.000879,0.005007,0.003509,0.012434,-0.521258,-0.078375,1.437007,-257.590394,1.254155,68.088219
3.757,0.052357,-0.012772,-0.075735,0.000863,0.004986,0.003508,0.012694,-0.521195,-0.077847,1.437007,-257.590394,1.254155,68.088219
3.7767,0.052135,-0.012418,-0.07718,0.000849,0.004969,0.003507,0.013808,-0.521154,-0.075624,1.448431,-257.587532,1.272863,68.089409
3.7964,0.051919,-0.0124,-0.075943,0.000825,0.00494,0.003508,0.0129,-0.520914,-0.077041,1.448431,-257.587532,1.272863,68.089409
3.8168,0.052156,-0.012116,-0.077641,0.000806,0.004915,0.003508,0.0129,-0.520914,-0.077041,1.448431,-257.587532,1.272863,68.089409
3.8368,0.052301,-0.012041,-0.077139,0.000789,0.004894,0.003507,0.012651,-0.520376,-0.077494,1.452028,-257.584673,1.279169,68.090587
3.8566,0.051789,-0.011904,-0.076822,0.000764,0.004862,0.003507,0.012799,-0.520412,-0.077333,1.452028,-257.584673,1.279169,68.090587
3.8765,0.051751,-0.012005,-0.077253,0.000744,0.004835,0.003507,0.012685,-0.520247,-0.07671,1.45913,-257.58185,1.291641,68.091729
3.8971,0.051634,-0.011724,-0.076742,0.000738,0.004826,0.003504,0.012419,-0.520455,-0.077199,1.45913,-257.58185,1.291641,68.091729
3.917,0.051971,-0.011946,-0.076279,0.000733,0.004819,0.003502,0.012419,-0.520455,-0.077199,1.45913,-257.58185,1.291641,68.091729
3.9365,0.052162,-0.011944,-0.075883,0.000728,0.004812,0.0035,0.013153,-0.520264,-0.076133,1.464601,-257.579049,1.301362,68.092844
3.9568,0.052021,-0.011711,-0.076702,0.000702,0.004778,0.003502,0.0133,-0.520328,-0.076014,1.464601,-257.579049,1.301362,68.092844
3.9769,0.051979,-0.01141,-0.073834,0.00068,0.004749,0.003503,0.012977,-0.52006,-0.07659,1.466412,-257.576251,1.305006,68.093954
3.9967,0.052002,-0.011626,-0.076438,0.000636,0.004689,0.003507,0.01424,-0.520016,-0.074067,1.466412,-257.576251,1.305006,68.093954
4.0166,0.051772,-0.011542,-0.075918,0.0006,0.004639,0.003509,0.01424,-0.520016,-0.074067,1.466412,-257.576251,1.305006,68.093954
4.0368,0.051741,-0.010679,-0.075722,0.000569,0.004597,0.00351,0.013134,-0.519877,-0.075772,1.472448,-257.573493,1.316028,68.095029
4.0571,0.051663,-0.011195,-0.074872,0.000553,0.004573,0.003508,0.013149,-0.519587,-0.075735,1.472448,-257.573493,1.316028,68.095029
4.0768,0.051858,-0.011215,-0.075712,0.000539,0.004553,0.003506,0.013543,-0.519623,-0.074761,1.48652,-257.570826,1.342715,68.096022
4.0971,0.051889,-0.010808,-0.075537,0.000528,0.004538,0.003503,0.013306,-0.519735,-0.075622,1.48652,-257.570826,1.342715,68.096022
4.1166,0.051898,-0.01104,-0.075118,0.000518,0.004524,0.003501,0.013306,-0.519735,-0.075622,1.48652,-257.570826,1.342715,68.096022
4.1364,0.051859,-0.010787,-0.074898,0.00051,0.004513,0.003499,0.01366,-0.519414,-0.074972,1.490468,-257.568144,1.35099,68.097009
4.1566,0.051681,-0.010423,-0.075155,0.000488,0.00448,0.003499,0.01368,-0.519369,-0.074925,1.490468,-257.568144,1.35099,68.097009
4.1762,0.051785,-0.010702,-0.073872,0.000469,0.004451,0.003499,0.013415,-0.51884,-0.075042,1.49422,-257.56548,1.359274,68.09798
4.1964,0.051745,-0.010487,-0.07392,0.000443,0.004413,0.0035,0.014078,-0.51926,-0.073975,1.49422,-257.56548,1.359274,68.09798
4.2168,0.052075,-0.010218,-0.075784,0.000422,0.004381,0.0035,0.014078,-0.51926,-0.073975,1.49422,-257.56548,1.359274,68.09798
4.2365,0.051275,-0.010293,-0.074611,0.000404,0.004354,0.0035,0.013495,-0.51857,-0.075638,1.499793,-257.562844,1.371011,68.098922
4.2564,0.051632,-0.010365,-0.075357,0.000386,0.004325,0.003499,0.013402,-0.518673,-0.075202,1.499793,-257.562844,1.371011,68.098922
4.2765,0.051405,-0.009937,-0.073399,0.000371,0.0043,0.003498,0.01326,-0.518781,-0.075247,1.50862,-257.560236,1.390451,68.099825
4.2964,0.051331,-0.010265,-0.07449,0.000347,0.004261,0.003499,0.013957,-0.518573,-0.073515,1.50862,-257.560236,1.390451,68.099825
4.3165,0.051369,-0.01006,-0.075606,0.000327,0.004228,0.003499,0.013957,-0.518573,-0.073515,1.50862,-257.560236,1.390451,68.099825
4.3364,0.051931,-0.009899,-0.075151,0.00031,0.0042,0.003498,0.012875,-0.518427,-0.075462,1.51326,-257.557689,1.401078,68.100692
4.3566,0.051618,-0.009925,-0.073999,0.000304,0.00419,0.003496,0.013191,-0.51842,-0.075318,1.51326,-257.557689,1.401078,68.100692
4.3766,0.051465,-0.009539,-0.073615,0.000299,0.004181,0.003494,0.013932,-0.518397,-0.073888,1.521931,-257.555157,1.421736,68.101525
4.3968,0.051388,-0.009246,-0.074349,0.000277,0.004143,0.003495,0.013955,-0.51817,-0.073631,1.521931,-257.555157,1.421736,68.101525
4.4168,0.051271,-0.009664,-0.073463,0.000259,0.004112,0.003496,0.013955,-0.51817,-0.073631,1.521931,-257.555157,1.421736,68.101525
4.4367,0.05146,-0.0095,-0.074849,0.000243,0.004085,0.003496,0.013864,-0.518116,-0.073317,1.523492,-257.552643,1.425808,68.102348
4.4572,0.051902,-0.009573,-0.073363,0.000232,0.004066,0.003495,0.013647,-0.518078,-0.073922,1.523492,-257.552643,1.425808,68.102348
4.4767,0.051168,-0.00912,-0.074122,0.000223,0.00405,0.003494,0.014537,-0.518073,-0.073253,1.531769,-257.55017,1.446875,68.103129
4.4969,0.051737,-0.009102,-0.074726,0.00021,0.004026,0.003493,0.013499,-0.517743,-0.074042,1.531769,-257.55017,1.446875,68.103129
4.517,0.051355,-0.00913,-0.073182,0.000199,0.004005,0.003493,0.013499,-0.517743,-0.074042,1.531769,-257.55017,1.446875,68.103129
4.5367,0.051677,-0.009074,-0.072813,0.000189,0.003987,0.003492,0.014087,-0.517598,-0.073036,1.534748,-257.547694,1.454944,68.103901
4.5566,0.051232,-0.009328,-0.075248,0.000168,0.003947,0.003494,0.014293,-0.51763,-0.072926,1.534748,-257.547694,1.454944,68.103901
4.5765,0.050827,-0.008917,-0.075395,0.00015,0.003914,0.003495,0.012907,-0.51776,-0.075138,1.539916,-257.545258,1.469203,68.104642
4.5964,0.051413,-0.008826,-0.073427,0.000159,0.003928,0.00349,0.012455,-0.517487,-0.075367,1.539916,-257.545258,1.469203,68.104642
4.6168,0.051218,-0.008773,-0.071754,0.000166,0.003939,0.003487,0.012455,-0.517487,-0.075367,1.539916,-257.545258,1.469203,68.104642
4.6366,0.051682,-0.00866,-0.073562,0.000172,0.003949,0.003484,0.014673,-0.517299,-0.071609,1.546038,-257.542847,1.48682,68.105354
4.6568,0.051153,-0.008562,-0.074013,0.000144,0.003893,0.003488,0.014475,-0.517273,-0.072416,1.546038,-257.542847,1.48682,68.105354
4.6767,0.051317,-0.00825,-0.073654,0.00012,0.003847,0.003491,0.013456,-0.517043,-0.073903,1.54246,-257.540428,1.476476,68.106082
4.6966,0.051002,-0.008086,-0.073023,0.0001,0.003806,0.003493,0.013758,-0.516877,-0.073671,1.54246,-257.540428,1.476476,68.106082
4.7168,0.051421,-0.008281,-0.074041,8.3e-05,0.003772,0.003493,0.013758,-0.516877,-0.073671,1.54246,-257.540428,1.476476,68.106082
4.7368,0.051209,-0.007961,-0.075087,6.8e-05,0.003743,0.003493,0.013712,-0.516725,-0.073896,1.550737,-257.53805,1.500961,68.106765
4.7568,0.050688,-0.00813,-0.071968,5.5e-05,0.003715,0.003493,0.013393,-0.516622,-0.074381,1.550737,-257.53805,1.500961,68.106765
4.7766,0.050954,-0.008027,-0.071834,4.3e-05,0.003691,0.003492,0.014027,-0.516694,-0.071859,1.559238,-257.535726,1.528617,68.107402
4.7965,0.050656,-0.007595,-0.073507,2.5e-05,0.003654,0.003493,0.014327,-0.516706,-0.071831,1.559238,-257.535726,1.528617,68.107402
4.8169,0.050889,-0.00826,-0.072751,1e-05,0.003623,0.003493,0.014327,-0.516706,-0.071831,1.559238,-257.535726,1.528617,68.107402
4.8365,0.051055,-0.007825,-0.073058,-3e-06,0.003597,0.003493,0.013831,-0.516759,-0.072606,1.563393,-257.533416,1.543136,68.10802
4.8569,0.050696,-0.007892,-0.07309,-1.1e-05,0.003582,0.003492,0.013832,-0.516619,-0.072776,1.563393,-257.533416,1.543136,68.10802
4.8764,0.050635,-0.007968,-0.072541,-1.7e-05,0.003569,0.00349,0.013461,-0.516417,-0.07298,1.571368,-257.531155,1.573035,68.108598
4.8966,0.05094,-0.007732,-0.073978,-2.1e-05,0.003563,0.003488,0.013655,-0.516605,-0.072572,1.571368,-257.531155,1.573035,68.108598
4.9166,0.050976,-0.00745,-0.072048,-2.3e-05,0.003557,0.003486,0.013655,-0.516605,-0.072572,1.571368,-257.531155,1.573035,68.108598
4.9366,0.050658,-0.007275,-0.073719,-2.6e-05,0.003552,0.003485,0.014273,-0.515978,-0.071903,1.573794,-257.528881,1.58268,68.109171
4.9565,0.051045,-0.007487,-0.071501,-4.4e-05,0.003509,0.003486,0.013791,-0.515925,-0.072632,1.573794,-257.528881,1.58268,68.109171
4.9764,0.050809,-0.007487,-0.072183,-5.9e-05,0.003473,0.003487,0.014618,-0.516072,-0.07139,1.575382,-257.526615,1.589089,68.10974
4.9968,0.050589,-0.006953,-0.072915,-7e-05,0.003448,0.003487,0.014081,-0.516145,-0.072106,1.575382,-257.526615,1.589089,68.10974
5.0167,0.050918,-0.007324,-0.074095,-7.9e-05,0.003426,0.003487,0.014081,-0.516145,-0.072106,1.575382,-257.526615,1.589089,68.10974
5.0366,0.0505,-0.007291,-0.070251,-8.8e-05,0.003408,0.003486,0.013173,-0.515781,-0.07395,1.581255,-257.524398,1.614392,68.110271
5.0568,0.050773,-0.007304,-0.072519,-9.7e-05,0.003385,0.003485,0.01379,-0.515866,-0.072442,1.581255,-257.524398,1.614392,68.110271
5.0766,0.050491,-0.007238,-0.070913,-0.000105,0.003366,0.003485,0.013826,-0.515856,-0.072408,1.586606,-257.522205,1.639128,68.110779
5.0965,0.050735,-0.007131,-0.070291,-0.000115,0.003343,0.003485,0.014308,-0.515941,-0.071043,1.586606,-257.522205,1.639128,68.110779
5.1168,0.050385,-0.006852,-0.071384,-0.000123,0.003323,0.003484,0.014308,-0.515941,-0.071043,1.586606,-257.522205,1.639128,68.110779
5.137,0.050672,-0.006568,-0.074213,-0.000131,0.003307,0.003484,0.014015,-0.515413,-0.071239,1.589906,-257.519999,1.655439,68.111278
5.1567,0.049934,-0.006572,-0.072604,-0.000142,0.003274,0.003483,0.01352,-0.51529,-0.072497,1.589906,-257.519999,1.655439,68.111278
5.1767,0.050263,-0.006358,-0.072768,-0.000152,0.003247,0.003483,0.012942,-0.515126,-0.072496,1.59485,-257.517866,1.681251,68.111743
5.1967,0.050232,-0.006553,-0.071989,-0.000162,0.003216,0.003482,0.013163,-0.515014,-0.072738,1.59485,-257.517866,1.681251,68.111743
5.2167,0.050229,-0.006227,-0.072775,-0.00017,0.003191,0.003481,0.013163,-0.515014,-0.072738,1.59485,-257.517866,1.681251,68.111743
5.2365,0.050336,-0.006171,-0.072042,-0.000177,0.003169,0.003479,0.01315,-0.514742,-0.072631,1.59899,-257.515734,1.705305,68.112191
5.2564,0.050372,-0.006467,-0.071901,-0.00019,0.003132,0.003479,0.013344,-0.51477,-0.072375,1.59899,-257.515734,1.705305,68.112191
5.2764,0.050318,-0.005915,-0.071886,-0.0002,0.003102,0.003479,0.013736,-0.51505,-0.071793,1.604295,-257.513654,1.739111,68.112607
5.2967,0.049917,-0.006754,-0.07179,-0.000214,0.00306,0.003479,0.013692,-0.514632,-0.071872,1.604295,-257.513654,1.739111,68.112607
5.3169,0.050017,-0.005932,-0.071141,-0.000225,0.003025,0.003479,0.013692,-0.514632,-0.071872,1.604295,-257.513654,1.739111,68.112607
5.3366,0.050356,-0.006464,-0.072712,-0.000235,0.002996,0.003478,0.013766,-0.514642,-0.071141,1.609027,-257.513654,1.664101,68.112607
5.3568,0.049882,-0.00613,-0.073234,-0.000239,0.002987,0.003469,0.01358,-0.514833,-0.071774,1.609027,-257.513654,1.664101,68.112607
5.3762,0.050352,-0.006511,-0.072024,-0.000243,0.00298,0.003462,0.012566,-0.514763,-0.073234,1.61674,-257.513654,1.589207,68.112607
5.3965,0.050814,-0.006524,-0.071565,-0.00024,0.002993,0.003448,0.013563,-0.515154,-0.072122,1.61674,-257.513654,1.589207,68.112607
5.4166,0.050353,-0.006236,-0.071454,-0.000237,0.003004,0.003436,0.013563,-0.515154,-0.072122,1.61674,-257.513654,1.589207,68.112607
5.4366,0.050431,-0.006435,-0.0709,-0.000235,0.003014,0.003426,0.013943,-0.514935,-0.071454,1.618433,-257.513654,1.513956,68.112607
5.4569,0.050295,-0.006383,-0.071658,-0.000239,0.003003,0.003413,0.01409,-0.515025,-0.071226,1.618433,-257.513654,1.513956,68.112607
5.4763,0.050601,-0.006179,-0.070866,-0.000243,0.002995,0.003402,0.013781,-0.515075,-0.071658,1.616745,-257.513653,1.43909,68.112607
5.4967,0.050452,-0.00636,-0.070259,-0.00025,0.002975,0.003388,0.014429,-0.514914,-0.070934,1.616745,-257.513653,1.43909,68.112607
5.5169,0.050001,-0.006007,-0.071248,-0.000256,0.002959,0.003376,0.014429,-0.514914,-0.070934,1.616745,-257.513653,1.43909,68.112607
5.5369,0.050032,-0.005905,-0.071373,-0.000261,0.002945,0.003365,0.013696,-0.514713,-0.071248,1.618646,-257.513653,1.364115,68.112607
5.5563,0.050247,-0.006312,-0.070332,-0.000264,0.002936,0.003349,0.013682,-0.51467,-0.071299,1.618646,-257.513653,1.364115,68.112607
5.5763,0.05018,-0.006716,-0.070982,-0.000266,0.002929,0.003335,0.014407,-0.515051,-0.070332,1.623023,-257.513653,1.289205,68.112607
5.5965,0.0502,-0.00649,-0.072109,-0.000258,0.002957,0.003315,0.014044,-0.515398,-0.070924,1.623023,-257.513653,1.289205,68.112607
5.6167,0.050096,-0.006171,-0.07178,-0.000251,0.002981,0.003299,0.014044,-0.515398,-0.070924,1.623023,-257.513653,1.289205,68.112607
5.6365,0.050759,-0.006009,-0.07203,-0.000245,0.003001,0.003286,0.013519,-0.514857,-0.07178,1.624362,-257.513653,1.214206,68.112607
5.6566,0.050277,-0.006398,-0.07087,-0.000248,0.002992,0.003269,0.01374,-0.514787,-0.071883,1.624362,-257.513653,1.214206,68.112607
5.6768,0.05021,-0.006362,-0.071736,-0.00025,0.002985,0.003254,0.014164,-0.515117,-0.07087,1.619758,-257.513653,1.139082,68.112607
5.6968,0.050426,-0.006016,-0.07093,-0.000246,0.002996,0.003218,0.013707,-0.515057,-0.071649,1.619758,-257.513653,1.139082,68.112607
5.7163,0.050184,-0.006263,-0.071669,-0.000244,0.003005,0.003188,0.013707,-0.515057,-0.071649,1.619758,-257.513653,1.139082,68.112607
5.7363,0.050178,-0.006026,-0.072924,-0.000241,0.003013,0.003163,0.013664,-0.514954,-0.071669,1.620983,-257.513652,1.064197,68.112607
5.7568,0.050374,-0.006064,-0.072768,-0.000241,0.003013,0.003142,0.0134,-0.514838,-0.072182,1.620983,-257.513652,1.064197,68.112607
5.7764,0.049929,-0.006464,-0.069781,-0.00024,0.003013,0.003125,0.013295,-0.514715,-0.072768,1.619578,-257.513652,0.989203,68.112607
5.7966,0.050272,-0.006184,-0.071718,-0.000241,0.003014,0.003111,0.014273,-0.515177,-0.070048,1.619578,-257.513652,0.989203,68.112607
5.8165,0.050284,-0.006232,-0.072161,-0.000241,0.003015,0.0031,0.014273,-0.515177,-0.070048,1.619578,-257.513652,0.989203,68.112607
5.8368,0.050118,-0.006632,-0.071255,-0.000242,0.003016,0.003091,0.013514,-0.514905,-0.072161,1.619591,-257.513652,0.914208,68.112607
5.8567,0.05028,-0.006343,-0.072135,-0.000239,0.003025,0.003082,0.013634,-0.515081,-0.071791,1.619591,-257.513652,0.914208,68.112607
5.8767,0.050135,-0.006233,-0.070592,-0.000236,0.003032,0.003074,0.013523,-0.515017,-0.072135,1.620084,-257.513652,0.839203,68.112607
5.8964,0.050132,-0.005901,-0.070602,-0.00024,0.003022,0.00307,0.014105,-0.514968,-0.070731,1.620084,-257.513652,0.839203,68.112607
5.9165,0.050117,-0.0066,-0.07056,-0.000243,0.003013,0.003066,0.014105,-0.514968,-0.070731,1.620084,-257.513652,0.839203,68.112607
5.9365,0.050551,-0.006499,-0.070884,-0.000246,0.003006,0.003062,0.014161,-0.515331,-0.07056,1.618885,-257.513652,0.764207,68.112607
5.957,0.0505,-0.006311,-0.070281,-0.000244,0.003014,0.003059,0.01427,-0.515285,-0.070692,1.618885,-257.513652,0.764207,68.112607
5.977,0.050228,-0.00616,-0.071712,-0.000242,0.00302,0.003056,0.014686,-0.515052,-0.070281,1.621129,-257.513651,0.689212,68.112607
5.9968,0.05005,-0.006509,-0.072513,-0.000244,0.003013,0.003054,0.013779,-0.514868,-0.071579,1.621129,-257.513651,0.689212,68.112607
6.0167,0.050106,-0.005865,-0.07212,-0.000246,0.003007,0.003052,0.013779,-0.514868,-0.071579,1.621129,-257.513651,0.689212,68.112607
6.0367,0.050338,-0.006205,-0.070485,-0.000247,0.003001,0.00305,0.013356,-0.514539,-0.07212,1.620318,-257.513651,0.614211,68.112607
6.0568,0.050293,-0.006008,-0.071047,-0.000252,0.002987,0.003049,0.013788,-0.514701,-0.071456,1.620318,-257.513651,0.614211,68.112607
6.0769,0.050339,-0.006539,-0.071939,-0.000255,0.002975,0.003048,0.014089,-0.514722,-0.071047,1.621617,-257.513651,0.539207,68.112607
6.0965,0.049997,-0.006608,-0.069388,-0.000249,0.002994,0.003046,0.013718,-0.515175,-0.071859,1.621617,-257.513651,0.539207,68.112607
6.1171,0.050241,-0.00611,-0.071186,-0.000244,0.00301,0.003044,0.013718,-0.515175,-0.071859,1.621617,-257.513651,0.539207,68.112607
6.1371,0.050001,-0.006161,-0.071569,-0.00024,0.003023,0.003042,0.013967,-0.514819,-0.071186,1.623489,-257.513651,0.464205,68.112607
6.1568,0.050603,-0.006504,-0.071288,-0.000243,0.003012,0.003043,0.013796,-0.514833,-0.071337,1.623489,-257.513651,0.464205,68.112607
6.1765,0.050061,-0.006404,-0.071324,-0.000246,0.003004,0.003043,0.014278,-0.515209,-0.071288,1.619935,-257.513651,0.389192,68.112606
6.1966,0.04978,-0.006329,-0.072003,-0.000243,0.003014,0.003042,0.013762,-0.515116,-0.071321,1.619935,-257.513651,0.389192,68.112606
6.2167,0.050473,-0.006425,-0.071131,-0.00024,0.003022,0.003041,0.013762,-0.515116,-0.071321,1.619935,-257.513651,0.389192,68.112606
6.2364,0.050092,-0.005929,-0.070573,-0.000238,0.003029,0.00304,0.014227,-0.515135,-0.071131,1.621297,-257.51365,0.313866,68.112606
6.2564,0.050628,-0.006175,-0.0723,-0.000242,0.003016,0.003042,0.014187,-0.514942,-0.070904,1.621297,-257.51365,0.313866,68.112606
6.2765,0.050201,-0.006671,-0.070462,-0.000246,0.003005,0.003042,0.013787,-0.514843,-0.0723,1.619427,-257.51365,0.239205,68.112606
6.2966,0.05016,-0.006599,-0.070284,-0.000243,0.003017,0.003042,0.014249,-0.515355,-0.070628,1.619427,-257.51365,0.239205,68.112606
6.3168,0.050491,-0.006025,-0.072377,-0.00024,0.003028,0.003041,0.014249,-0.515355,-0.070628,1.619427,-257.51365,0.239205,68.112606
6.3365,0.050337,-0.00618,-0.070833,-0.000238,0.003037,0.003041,0.013611,-0.51469,-0.072377,1.621417,-257.51365,0.164211,68.112606
6.3569,0.050096,-0.006211,-0.069533,-0.000243,0.003019,0.003042,0.013868,-0.514776,-0.071747,1.621417,-257.51365,0.164211,68.112606
6.3769,0.050355,-0.006377,-0.071115,-0.000247,0.003004,0.003042,0.014662,-0.514978,-0.069533,1.619343,-257.51365,0.089201,68.112606
6.3968,0.04957,-0.00633,-0.069747,-0.000248,0.003003,0.003042,0.01417,-0.515077,-0.07096,1.619343,-257.51365,0.089201,68.112606
6.4168,0.050093,-0.005968,-0.071335,-0.000249,0.003002,0.003042,0.01417,-0.515077,-0.07096,1.619343,-257.51365,0.089201,68.112606
6.4368,0.050132,-0.006358,-0.070797,-0.000249,0.003001,0.003042,0.013742,-0.514671,-0.071335,1.621581,-257.51365,0.014203,68.112606
6.4566,0.050228,-0.006146,-0.070815,-0.000251,0.002993,0.003042,0.01387,-0.514838,-0.071115,1.621581,-257.51365,0.014203,68.112606
6.4762,0.05018,-0.006555,-0.071268,-0.000253,0.002987,0.003042,0.014143,-0.514868,-0.070815,1.622031,-257.513649,-0.06079,68.112606
6.4966,0.050211,-0.005956,-0.071802,-0.000248,0.003003,0.003041,0.01389,-0.515225,-0.071227,1.622031,-257.513649,-0.06079,68.112606
6.5168,0.050589,-0.006415,-0.071345,-0.000244,0.003017,0.00304,0.01389,-0.515225,-0.071227,1.622031,-257.513649,-0.06079,68.112606
6.5367,0.05009,-0.006159,-0.07176,-0.00024,0.003028,0.003039,0.014233,-0.515117,-0.071345,1.623002,-257.513649,-0.1358,68.112606
6.5567,0.050055,-0.006153,-0.06968,-0.000241,0.003023,0.00304,0.013944,-0.515007,-0.071515,1.623002,-257.513649,-0.1358,68.112606
6.5767,0.050266,-0.006493,-0.071281,-0.000243,0.00302,0.00304,0.014547,-0.514915,-0.06968,1.619916,-257.513649,-0.210805,68.112606
6.597,0.050152,-0.006156,-0.070927,-0.000241,0.003025,0.00304,0.013995,-0.515173,-0.071142,1.619916,-257.513649,-0.210805,68.112606
6.6171,0.050466,-0.006065,-0.069293,-0.00024,0.00303,0.00304,0.013995,-0.515173,-0.071142,1.619916,-257.513649,-0.210805,68.112606
6.6369,0.050476,-0.006249,-0.069449,-0.000238,0.003033,0.00304,0.015155,-0.514841,-0.069293,1.620505,-257.513649,-0.285892,68.112606
6.6569,0.05046,-0.006089,-0.071903,-0.000249,0.003,0.003043,0.015127,-0.514914,-0.069356,1.620505,-257.513649,-0.285892,68.112606
6.6767,0.05028,-0.006213,-0.070265,-0.000259,0.002971,0.003045,0.013821,-0.514771,-0.071903,1.619512,-257.513649,-0.360795,68.112606
6.6965,0.050234,-0.006547,-0.067685,-0.000262,0.002963,0.003045,0.01442,-0.514939,-0.070402,1.619512,-257.513649,-0.360795,68.112606
6.7168,0.050106,-0.00589,-0.070596,-0.000265,0.002956,0.003044,0.01442,-0.514939,-0.070402,1.619512,-257.513649,-0.360795,68.112606
6.7366,0.050212,-0.006321,-0.071812,-0.000267,0.00295,0.003044,0.014132,-0.51462,-0.070596,1.624331,-257.513648,-0.43597,68.112606
6.7574,0.050105,-0.006065,-0.070252,-0.000268,0.002946,0.003043,0.013923,-0.514778,-0.071093,1.624331,-257.513648,-0.43597,68.112606
6.7767,0.050056,-0.006127,-0.071751,-0.000269,0.002942,0.003043,0.014306,-0.514807,-0.070252,1.626242,-257.513648,-0.510891,68.112606
6.7968,0.050591,-0.006546,-0.072037,-0.000266,0.002949,0.003041,0.013576,-0.514814,-0.071601,1.626242,-257.513648,-0.510891,68.112606
6.8167,0.050285,-0.006135,-0.071453,-0.000264,0.002955,0.00304,0.013576,-0.514814,-0.071601,1.626242,-257.513648,-0.510891,68.112606
6.8366,0.050096,-0.006239,-0.070651,-0.000262,0.00296,0.003039,0.013874,-0.514833,-0.071453,1.626695,-257.513648,-0.585798,68.112606
6.8571,0.050458,-0.006109,-0.071565,-0.000262,0.002959,0.003039,0.013964,-0.514888,-0.071123,1.626695,-257.513648,-0.585798,68.112606
6.8762,0.050329,-0.00587,-0.070475,-0.000262,0.002959,0.003039,0.013991,-0.514803,-0.071565,1.625095,-257.513648,-0.660898,68.112606
6.8967,0.049909,-0.006209,-0.070415,-0.00027,0.002935,0.003041,0.014378,-0.514622,-0.070573,1.625095,-257.513648,-0.660898,68.112606
6.9164,0.049934,-0.006073,-0.071774,-0.000276,0.002915,0.003042,0.014378,-0.514622,-0.070573,1.625095,-257.513648,-0.660898,68.112606
6.9365,0.050344,-0.006326,-0.071089,-0.000281,0.002898,0.003042,0.013361,-0.51476,-0.071774,1.625208,-257.513647,-0.735794,68.112606
6.957,0.050301,-0.006168,-0.071052,-0.000276,0.002913,0.00304,0.013669,-0.514873,-0.071495,1.625208,-257.513647,-0.735794,68.112606
6.9767,0.050212,-0.006581,-0.07094,-0.000272,0.002926,0.003039,0.014095,-0.514881,-0.071051,1.62988,-257.513639,-0.810792,68.112604
6.997,0.050309,-0.006202,-0.072633,-0.000265,0.00295,0.003038,0.014066,-0.51526,-0.07095,1.62988,-257.513639,-0.810792,68.112604
7.0169,0.050334,-0.00649,-0.073222,-0.000259,0.00297,0.003037,0.014066,-0.51526,-0.07095,1.62988,-257.513639,-0.810792,68.112604
7.0365,0.050521,-0.006261,-0.070266,-0.000254,0.002986,0.003036,0.013024,-0.515122,-0.073221,1.627705,-257.513615,-0.885791,68.112598
7.0569,0.05025,-0.006233,-0.07178,-0.000251,0.002997,0.003036,0.013721,-0.515072,-0.072002,1.627705,-257.513615,-0.885791,68.112598
7.0768,0.050336,-0.005859,-0.07184,-0.000248,0.003006,0.003036,0.013674,-0.514917,-0.071778,1.623307,-257.51356,-0.960936,68.112585
7.0966,0.050239,-0.00609,-0.070955,-0.000253,0.002984,0.003038,0.013724,-0.514577,-0.071834,1.623307,-257.51356,-0.960936,68.112585
7.1169,0.050355,-0.006291,-0.069951,-0.000259,0.002966,0.003039,0.013724,-0.514577,-0.071834,1.623307,-257.51356,-0.960936,68.112585
7.1368,0.050497,-0.006203,-0.072019,-0.000263,0.002951,0.003039,0.014708,-0.515035,-0.069942,1.621694,-257.513417,-1.035798,68.11255
7.1563,0.050263,-0.006202,-0.071374,-0.000264,0.002949,0.00304,0.014338,-0.514971,-0.070786,1.621694,-257.513417,-1.035798,68.11255
7.1765,0.050167,-0.006018,-0.070702,-0.000266,0.002947,0.00304,0.013892,-0.514882,-0.071351,1.625404,-257.512968,-1.11079,68.112445
7.1964,0.049993,-0.006024,-0.071073,-0.000269,0.002938,0.003041,0.014116,-0.514755,-0.070759,1.625404,-257.512968,-1.11079,68.112445
7.2165,0.050132,-0.006521,-0.071548,-0.000271,0.00293,0.003041,0.014116,-0.514755,-0.070759,1.625404,-257.512968,-1.11079,68.112445
7.2368,0.050034,-0.005818,-0.069752,-0.000273,0.002924,0.003041,0.013672,-0.51516,-0.071489,1.626073,-257.512092,-1.185779,68.112241
7.2567,0.050044,-0.00592,-0.070538,-0.000272,0.00293,0.00304,0.014005,-0.514916,-0.070773,1.626073,-257.512092,-1.185779,68.112241
7.2765,0.049987,-0.00589,-0.070941,-0.00027,0.002936,0.00304,0.014097,-0.514582,-0.070465,1.627935,-257.510656,-1.260786,68.111911
7.2968,0.05032,-0.006333,-0.072283,-0.000273,0.002925,0.00304,0.013861,-0.514602,-0.070894,1.627935,-257.510656,-1.260786,68.111911
7.3171,0.050254,-0.006054,-0.069244,-0.000276,0.002916,0.00304,0.013861,-0.514602,-0.070894,1.627935,-257.510656,-1.260786,68.111911
7.3368,0.050094,-0.005839,-0.070769,-0.000278,0.002908,0.00304,0.014965,-0.514717,-0.069125,1.627146,-257.508861,-1.325357,68.111495
7.3572,0.049827,-0.006029,-0.071035,-0.000284,0.00289,0.003041,0.014586,-0.514641,-0.06978,1.627146,-257.508861,-1.325357,68.111495
7.3762,0.050225,-0.005539,-0.072168,-0.000289,0.002874,0.003042,0.013628,-0.514649,-0.070937,1.629042,-257.506956,-1.312522,68.111061
7.3965,0.049955,-0.005896,-0.070953,-0.000293,0.002857,0.003065,0.013468,-0.514247,-0.072049,1.629042,-257.506956,-1.312522,68.111061
7.4173,0.049919,-0.005637,-0.072657,-0.000296,0.002842,0.003085,0.013468,-0.514247,-0.072049,1.629042,-257.506956,-1.312522,68.111061
7.4367,0.04998,-0.005577,-0.071291,-0.000299,0.00283,0.003101,0.012893,-0.514169,-0.072528,1.6318,-257.505068,-1.293795,68.11064
7.457,0.049666,-0.005739,-0.071617,-0.000301,0.002822,0.00312,0.013193,-0.5142,-0.072026,1.6318,-257.505068,-1.293795,68.11064
7.4765,0.04992,-0.005652,-0.068782,-0.000302,0.002815,0.003136,0.01317,-0.514342,-0.071519,1.634077,-257.503209,-1.261241,68.110254
7.4967,0.04966,-0.004832,-0.070686,-0.000309,0.002793,0.003157,0.014713,-0.514432,-0.069028,1.634077,-257.503209,-1.261241,68.110254
7.5169,0.049734,-0.005065,-0.06906,-0.000315,0.002775,0.003174,0.014713,-0.514432,-0.069028,1.634077,-257.503209,-1.261241,68.110254
7.5369,0.049836,-0.005307,-0.069337,-0.000321,0.00276,0.003188,0.014537,-0.51373,-0.068929,1.63454,-257.501319,-1.247079,68.109875
7.5569,0.049515,-0.005271,-0.069632,-0.000331,0.002716,0.003207,0.014522,-0.513859,-0.069079,1.63454,-257.501319,-1.247079,68.109875
7.5762,0.049497,-0.005502,-0.070676,-0.000341,0.002679,0.003222,0.014028,-0.51395,-0.069535,1.638786,-257.499513,-1.195014,68.109541
7.5965,0.049686,-0.005277,-0.071245,-0.000339,0.002687,0.003236,0.013531,-0.5142,-0.070569,1.638786,-257.499513,-1.195014,68.109541
7.6167,0.049925,-0.005221,-0.070172,-0.000337,0.002694,0.003249,0.013531,-0.5142,-0.070569,1.638786,-257.499513,-1.195014,68.109541
7.6367,0.049448,-0.005071,-0.069063,-0.000336,0.002699,0.003259,0.01416,-0.513861,-0.070048,1.64402,-257.497794,-1.124138,68.10925
7.6564,0.049592,-0.005035,-0.071105,-0.000344,0.002668,0.003275,0.014198,-0.513847,-0.069632,1.64402,-257.497794,-1.124138,68.10925
7.6767,0.049504,-0.004478,-0.07029,-0.000351,0.002642,0.003288,0.013355,-0.513659,-0.071001,1.64234,-257.495914,-1.127937,68.108936
7.6968,0.049752,-0.004595,-0.069812,-0.000361,0.002592,0.003304,0.013655,-0.513254,-0.070348,1.64234,-257.495914,-1.127937,68.108936
7.7167,0.049431,-0.004806,-0.070262,-0.00037,0.002549,0.003317,0.013655,-0.513254,-0.070348,1.64234,-257.495914,-1.127937,68.108936
7.7368,0.049383,-0.004614,-0.068465,-0.000378,0.002514,0.003328,0.01362,-0.513443,-0.070132,1.646036,-257.494161,-1.065728,68.108664
7.757,0.049503,-0.004762,-0.070723,-0.000384,0.00249,0.003339,0.013975,-0.513421,-0.069439,1.646036,-257.494161,-1.065728,68.108664
7.7768,0.049535,-0.004903,-0.067719,-0.000389,0.00247,0.003349,0.01346,-0.513434,-0.070654,1.653663,-257.49295,-0.990724,68.108502
7.7966,0.049076,-0.004774,-0.069488,-0.000394,0.002456,0.003357,0.014893,-0.513706,-0.067962,1.653663,-257.49295,-0.990724,68.108502
7.8168,0.049411,-0.004902,-0.069431,-0.000399,0.002444,0.003364,0.014893,-0.513706,-0.067962,1.653663,-257.49295,-0.990724,68.108502
7.8367,0.04949,-0.004605,-0.068631,-0.000402,0.002434,0.003369,0.014024,-0.513605,-0.06934,1.656775,-257.491765,-0.915556,68.108351
7.8574,0.049144,-0.004599,-0.070094,-0.000405,0.002425,0.003372,0.014224,-0.513516,-0.06904,1.656775,-257.491765,-0.915556,68.108351
7.8766,0.049275,-0.004363,-0.069158,-0.000407,0.002417,0.003374,0.013421,-0.513294,-0.070024,1.660163,-257.490588,-0.840731,68.108207
7.8967,0.04937,-0.004582,-0.070692,-0.000412,0.002392,0.003374,0.013987,-0.513153,-0.069219,1.660163,-257.490588,-0.840731,68.108207
7.9169,0.049205,-0.004458,-0.069072,-0.000416,0.002371,0.003374,0.013987,-0.513153,-0.069219,1.660163,-257.490588,-0.840731,68.108207
7.9366,0.049141,-0.004411,-0.070414,-0.00042,0.002354,0.003374,0.013998,-0.513161,-0.068962,1.661501,-257.489173,-0.765222,68.108037
7.9565,0.049133,-0.004397,-0.070564,-0.000422,0.002344,0.003372,0.013695,-0.513146,-0.069543,1.661501,-257.489173,-0.765222,68.108037
7.9765,0.048956,-0.004122,-0.069999,-0.000423,0.002335,0.003371,0.01317,-0.513076,-0.070492,1.665594,-257.48797,-0.690568,68.107898
7.9967,0.049075,-0.004064,-0.069737,-0.000426,0.002318,0.003368,0.013275,-0.512888,-0.070038,1.665594,-257.48797,-0.690568,68.107898
8.0165,0.048905,-0.004407,-0.069278,-0.000428,0.002304,0.003366,0.013275,-0.512888,-0.070038,1.665594,-257.48797,-0.690568,68.107898
8.0364,0.04916,-0.004342,-0.069336,-0.00043,0.002292,0.003364,0.013593,-0.513103,-0.069163,1.666857,-257.486529,-0.615598,68.107733
8.0571,0.049108,-0.004451,-0.069179,-0.000431,0.002289,0.003362,0.013687,-0.513099,-0.06922,1.666857,-257.486529,-0.615598,68.107733
8.0769,0.048787,-0.004486,-0.070195,-0.000432,0.002287,0.00336,0.013848,-0.513171,-0.069092,1.669376,-257.485098,-0.540685,68.107572
8.0966,0.048616,-0.004493,-0.067748,-0.000428,0.002305,0.003356,0.013088,-0.513222,-0.070096,1.669376,-257.485098,-0.540685,68.107572
8.1165,0.048941,-0.003721,-0.067951,-0.000425,0.002319,0.003353,0.013088,-0.513222,-0.070096,1.669376,-257.485098,-0.540685,68.107572
8.1368,0.048692,-0.003745,-0.070148,-0.000423,0.002331,0.003351,0.014301,-0.51245,-0.067815,1.669974,-257.483403,-0.499167,68.107381
8.1565,0.048554,-0.003909,-0.067952,-0.00043,0.002278,0.003353,0.013745,-0.512456,-0.068755,1.669974,-257.483403,-0.499167,68.107381
8.1762,0.048541,-0.003979,-0.068213,-0.000437,0.002234,0.003354,0.013918,-0.512666,-0.067859,1.667018,-257.481869,-0.574073,68.107203
8.1966,0.048267,-0.003699,-0.068066,-0.000441,0.00222,0.003354,0.013791,-0.512779,-0.068178,1.667018,-257.481869,-0.574073,68.107203
8.2166,0.04889,-0.003669,-0.068609,-0.000444,0.002208,0.003353,0.013791,-0.512779,-0.068178,1.667018,-257.481869,-0.574073,68.107203
8.2365,0.048664,-0.00373,-0.068344,-0.000447,0.002197,0.003352,0.01392,-0.51241,-0.068523,1.672588,-257.480802,-0.498944,68.107086
8.2567,0.048682,-0.003689,-0.067075,-0.000452,0.002166,0.00335,0.013884,-0.512456,-0.06844,1.672588,-257.480802,-0.498944,68.107086
8.2764,0.048509,-0.003696,-0.068373,-0.000457,0.002139,0.003349,0.014494,-0.512498,-0.067011,1.675689,-257.479758,-0.423984,68.10697
8.2967,0.04841,-0.003636,-0.068882,-0.00046,0.002123,0.003346,0.013738,-0.512502,-0.068251,1.675689,-257.479758,-0.423984,68.10697
8.3164,0.048238,-0.00363,-0.068222,-0.000463,0.002109,0.003344,0.013738,-0.512502,-0.068251,1.675689,-257.479758,-0.423984,68.10697
8.3365,0.0484,-0.003606,-0.066832,-0.000466,0.002098,0.003342,0.013466,-0.512402,-0.06816,1.679536,-257.478991,-0.348975,68.106885
8.3568,0.048442,-0.003696,-0.069198,-0.000469,0.002082,0.00334,0.013825,-0.512424,-0.067606,1.679536,-257.478991,-0.348975,68.106885
8.3765,0.048197,-0.003586,-0.067951,-0.000471,0.002069,0.003338,0.013175,-0.512446,-0.069153,1.682806,-257.478275,-0.273981,68.106805
8.3969,0.048192,-0.003762,-0.06782,-0.000473,0.002062,0.003334,0.013534,-0.512411,-0.068054,1.682806,-257.478275,-0.273981,68.106805
8.4171,0.048577,-0.003837,-0.068609,-0.000474,0.002055,0.003331,0.013534,-0.512411,-0.068054,1.682806,-257.478275,-0.273981,68.106805
8.4369,0.048426,-0.003719,-0.068461,-0.000475,0.00205,0.003328,0.013607,-0.512593,-0.068541,1.685018,-257.477457,-0.198957,68.106711
8.4568,0.048447,-0.003383,-0.067342,-0.000475,0.002055,0.003324,0.013579,-0.512561,-0.068501,1.685018,-257.477457,-0.198957,68.106711
8.4763,0.048428,-0.003556,-0.067574,-0.000475,0.002059,0.00332,0.014122,-0.512183,-0.067273,1.68671,-257.476378,-0.124077,68.106586
8.4968,0.048576,-0.003373,-0.068063,-0.000478,0.002044,0.003318,0.014002,-0.512372,-0.067545,1.68671,-257.476378,-0.124077,68.106586
8.517,0.04832,-0.003494,-0.06895,-0.00048,0.002032,0.003316,0.014002,-0.512372,-0.067545,1.68671,-257.476378,-0.124077,68.106586
8.5368,0.047875,-0.003668,-0.06683,-0.000482,0.002021,0.003314,0.01317,-0.512199,-0.068818,1.68658,-257.474823,-0.065762,68.106406
8.5572,0.047922,-0.00335,-0.066797,-0.000483,0.002017,0.003313,0.01343,-0.512323,-0.068,1.68658,-257.474823,-0.065762,68.106406
8.5764,0.048131,-0.003256,-0.069351,-0.000483,0.002014,0.003311,0.013871,-0.512152,-0.066699,1.689485,-257.473322,0.006443,68.106229
8.5967,0.048199,-0.003199,-0.06648,-0.000484,0.001998,0.00331,0.012883,-0.512038,-0.069118,1.689485,-257.473322,0.006443,68.106229
8.6169,0.04853,-0.003438,-0.068641,-0.000485,0.001985,0.00331,0.012883,-0.512038,-0.069118,1.689485,-257.473322,0.006443,68.106229
8.6368,0.047654,-0.003075,-0.067137,-0.000486,0.001973,0.003309,0.013536,-0.512152,-0.068503,1.689983,-257.4717,0.0176,68.106036
8.657,0.048476,-0.003141,-0.069482,-0.000488,0.001957,0.00331,0.013495,-0.512049,-0.067927,1.689983,-257.4717,0.0176,68.106036
8.6766,0.04815,-0.003259,-0.068381,-0.000491,0.001943,0.00331,0.013059,-0.511853,-0.069387,1.691845,-257.470247,0.09258,68.105859
8.6967,0.047977,-0.002966,-0.066275,-0.000492,0.001934,0.00331,0.013281,-0.512045,-0.068464,1.691845,-257.470247,0.09258,68.105859
8.7168,0.048458,-0.003171,-0.06802,-0.000493,0.001927,0.00331,0.013281,-0.512045,-0.068464,1.691845,-257.470247,0.09258,68.105859
8.7369,0.047929,-0.002909,-0.066015,-0.000494,0.00192,0.00331,0.013781,-0.511915,-0.06789,1.693888,-257.468756,0.157887,68.105674
8.7566,0.047788,-0.003156,-0.067405,-0.000498,0.001894,0.003313,0.013983,-0.511859,-0.067117,1.693888,-257.468756,0.157887,68.105674
8.7767,0.047653,-0.002858,-0.067271,-0.000501,0.001871,0.003315,0.013427,-0.511938,-0.067303,1.695556,-257.467211,0.201155,68.105478
8.7967,0.047466,-0.002767,-0.066228,-0.000504,0.001851,0.003318,0.013375,-0.511722,-0.067269,1.695556,-257.467211,0.201155,68.105478
8.8168,0.04763,-0.002815,-0.066797,-0.000506,0.001833,0.003321,0.013375,-0.511722,-0.067269,1.695556,-257.467211,0.201155,68.105478
8.8365,0.047331,-0.002821,-0.067081,-0.000508,0.001819,0.003323,0.013575,-0.511609,-0.066678,1.698767,-257.465856,0.276321,68.105297
8.8564,0.047709,-0.003085,-0.068613,-0.00051,0.0018,0.003328,0.013399,-0.511627,-0.066828,1.698767,-257.465856,0.276321,68.105297
8.8766,0.04736,-0.002831,-0.064925,-0.000512,0.001784,0.003331,0.012734,-0.511838,-0.068529,1.701962,-257.46461,0.351145,68.10512
8.8969,0.047775,-0.002623,-0.066774,-0.000515,0.001773,0.003337,0.014137,-0.511761,-0.065233,1.701962,-257.46461,0.351145,68.10512
8.9169,0.047572,-0.002956,-0.066163,-0.000517,0.001763,0.003342,0.014137,-0.511761,-0.065233,1.701962,-257.46461,0.351145,68.10512
8.9366,0.047136,-0.002397,-0.066378,-0.000519,0.001755,0.003347,0.01384,-0.511776,-0.066046,1.704081,-257.463316,0.426231,68.104929
8.9567,0.047695,-0.002642,-0.066048,-0.000521,0.00174,0.003352,0.013621,-0.511564,-0.066168,1.704081,-257.463316,0.426231,68.104929
8.9767,0.04715,-0.002692,-0.067116,-0.000523,0.001727,0.003356,0.014024,-0.511479,-0.065952,1.70667,-257.461935,0.501144,68.104715
8.9968,0.047286,-0.002373,-0.066428,-0.000523,0.00172,0.00336,0.01304,-0.511535,-0.06701,1.70667,-257.461935,0.501144,68.104715
9.0165,0.047491,-0.002208,-0.067957,-0.000523,0.001715,0.003364,0.01304,-0.511535,-0.06701,1.70667,-257.461935,0.501144,68.104715
9.0366,0.047099,-0.002593,-0.066598,-0.000524,0.00171,0.003367,0.012843,-0.51096,-0.067823,1.708326,-257.460475,0.553402,68.10448
9.0568,0.04725,-0.002319,-0.066529,-0.000525,0.001678,0.00337,0.01297,-0.511156,-0.067309,1.708326,-257.460475,0.553402,68.10448
9.0764,0.047131,-0.00247,-0.066617,-0.000526,0.001651,0.003373,0.013333,-0.511136,-0.066423,1.708962,-257.458977,0.584539,68.104232
9.0968,0.047436,-0.002246,-0.065635,-0.000528,0.00164,0.003376,0.013194,-0.511319,-0.066596,1.708962,-257.458977,0.584539,68.104232
9.1167,0.047099,-0.002329,-0.064808,-0.000529,0.00163,0.003378,0.013194,-0.511319,-0.066596,1.708962,-257.458977,0.584539,68.104232
9.1363,0.047411,-0.002586,-0.065574,-0.00053,0.001622,0.00338,0.014054,-0.511194,-0.064679,1.711686,-257.457612,0.659589,68.10399
9.1566,0.046814,-0.002,-0.066857,-0.000533,0.001607,0.003382,0.014027,-0.511306,-0.065026,1.711686,-257.457612,0.659589,68.10399
9.1771,0.046562,-0.002088,-0.066759,-0.000535,0.001595,0.003384,0.012729,-0.510808,-0.066751,1.713723,-257.456148,0.695062,68.103718
9.1967,0.047247,-0.002141,-0.065749,-0.000535,0.00157,0.003384,0.012555,-0.510937,-0.066754,1.713723,-257.456148,0.695062,68.103718
9.2166,0.046752,-0.002316,-0.064853,-0.000536,0.00155,0.003385,0.012555,-0.510937,-0.066754,1.713723,-257.456148,0.695062,68.103718
9.2369,0.046977,-0.002246,-0.067261,-0.000536,0.001533,0.003385,0.013682,-0.511177,-0.064714,1.715966,-257.454688,0.722777,68.103436
9.2569,0.046859,-0.00203,-0.065279,-0.000538,0.001527,0.003386,0.01328,-0.511135,-0.065736,1.715966,-257.454688,0.722777,68.103436
9.2768,0.046445,-0.001965,-0.064779,-0.000539,0.001523,0.003388,0.013577,-0.510897,-0.065178,1.718574,-257.453309,0.784117,68.10315
9.2968,0.046844,-0.002085,-0.065816,-0.000541,0.0015,0.003389,0.013442,-0.510894,-0.064806,1.718574,-257.453309,0.784117,68.10315
9.3166,0.046552,-0.001924,-0.067528,-0.000542,0.001482,0.00339,0.013442,-0.510894,-0.064806,1.718574,-257.453309,0.784117,68.10315
9.3367,0.046665,-0.001817,-0.065494,-0.000544,0.001467,0.003391,0.012121,-0.510697,-0.067387,1.719735,-257.451863,0.792205,68.102844
9.3564,0.046701,-0.001962,-0.066492,-0.000544,0.001445,0.003392,0.012605,-0.5107,-0.066581,1.719735,-257.451863,0.792205,68.102844
9.3766,0.046307,-0.002358,-0.066025,-0.000544,0.001426,0.003393,0.012801,-0.510789,-0.066388,1.723297,-257.450485,0.838368,68.102531
9.3971,0.046066,-0.001768,-0.065913,-0.000544,0.001451,0.003394,0.012671,-0.511203,-0.066053,1.723297,-257.450485,0.838368,68.102531
9.4168,0.046486,-0.001916,-0.065238,-0.000544,0.001471,0.003395,0.012671,-0.511203,-0.066053,1.723297,-257.450485,0.838368,68.102531
9.4369,0.046667,-0.002088,-0.065055,-0.000543,0.001487,0.003396,0.01322,-0.510771,-0.065097,1.725059,-257.449092,0.870682,68.102199
9.4567,0.046566,-0.001388,-0.06481,-0.000544,0.001469,0.003399,0.013333,-0.510858,-0.065065,1.725059,-257.449092,0.870682,68.102199
9.4762,0.046365,-0.001511,-0.064851,-0.000546,0.001453,0.003402,0.013522,-0.51027,-0.064706,1.72216,-257.447699,0.824021,68.10189
9.4967,0.046657,-0.001643,-0.064112,-0.000546,0.001408,0.003406,0.013332,-0.510422,-0.064833,1.72216,-257.447699,0.824021,68.10189
9.5168,0.046382,-0.001351,-0.064991,-0.000547,0.00137,0.003408,0.013332,-0.510422,-0.064833,1.72216,-257.447699,0.824021,68.10189
9.5366,0.04635,-0.001728,-0.06373,-0.000548,0.001339,0.003411,0.013242,-0.510213,-0.064851,1.724118,-257.446289,0.852892,68.101562
9.5571,0.046262,-0.001436,-0.063329,-0.000549,0.001312,0.003413,0.013499,-0.510404,-0.064372,1.724118,-257.446289,0.852892,68.101562
9.5763,0.046151,-0.001629,-0.064681,-0.000551,0.001289,0.003415,0.013973,-0.510375,-0.063232,1.729579,-257.445049,0.927865,68.101232
9.5966,0.046472,-0.00167,-0.064658,-0.000552,0.001281,0.003415,0.013257,-0.510543,-0.064546,1.729579,-257.445049,0.927865,68.101232
9.6167,0.04627,-0.001516,-0.06472,-0.000554,0.001276,0.003415,0.013257,-0.510543,-0.064546,1.729579,-257.445049,0.927865,68.101232
9.6366,0.046267,-0.001636,-0.064452,-0.000555,0.001271,0.003416,0.013267,-0.510395,-0.06458,1.732635,-257.443712,0.96605,68.100853
9.6569,0.045928,-0.001348,-0.062874,-0.000556,0.00126,0.003416,0.013328,-0.510464,-0.064511,1.732635,-257.443712,0.96605,68.100853
9.6765,0.045717,-0.001497,-0.061907,-0.000557,0.001251,0.003417,0.013869,-0.510299,-0.062765,1.734647,-257.442354,0.973253,68.100459
9.697,0.045992,-0.001191,-0.062441,-0.000559,0.001243,0.003419,0.014137,-0.510498,-0.061979,1.734647,-257.442354,0.973253,68.100459
9.7171,0.045868,-0.001155,-0.065614,-0.000561,0.001237,0.00342,0.014137,-0.510498,-0.061979,1.734647,-257.442354,0.973253,68.100459
9.7372,0.045589,-0.001054,-0.062514,-0.000562,0.001232,0.003421,0.012409,-0.510004,-0.065472,1.736116,-257.441002,0.983065,68.100058
9.7567,0.045649,-0.00121,-0.063906,-0.00056,0.001196,0.003421,0.012941,-0.51002,-0.064256,1.736116,-257.441002,0.983065,68.100058
9.7769,0.045512,-0.001306,-0.064791,-0.000559,0.001167,0.003421,0.013064,-0.510129,-0.063797,1.738451,-257.439654,0.990566,68.099647
9.7969,0.045609,-0.00148,-0.064444,-0.000559,0.00116,0.00342,0.01254,-0.510224,-0.064701,1.738451,-257.439654,0.990566,68.099647
9.8165,0.045752,-0.001235,-0.062913,-0.000558,0.001155,0.00342,0.01254,-0.510224,-0.064701,1.738451,-257.439654,0.990566,68.099647
9.8366,0.045368,-0.001481,-0.065561,-0.000558,0.00115,0.003419,0.013668,-0.510177,-0.062773,1.740839,-257.438361,1.026035,68.099225
9.8576,0.045712,-0.00124,-0.064872,-0.000559,0.001147,0.00342,0.012967,-0.510256,-0.063894,1.740839,-257.438361,1.026035,68.099225
9.8763,0.045588,-0.001283,-0.064422,-0.00056,0.001144,0.00342,0.012635,-0.510128,-0.06476,1.741476,-257.437042,1.034078,68.098787
9.8967,0.045644,-0.00091,-0.064242,-0.00056,0.00114,0.00342,0.012745,-0.510215,-0.064446,1.741476,-257.437042,1.034078,68.098787
9.9166,0.045577,-0.001189,-0.062731,-0.00056,0.001136,0.00342,0.012745,-0.510215,-0.064446,1.741476,-257.437042,1.034078,68.098787
9.9368,0.045215,-0.001378,-0.06323,-0.00056,0.001133,0.003421,0.013585,-0.510137,-0.062588,1.742162,-257.435736,1.035914,68.09835
9.9572,0.044911,-0.001137,-0.06151,-0.000561,0.001128,0.003422,0.013341,-0.510221,-0.062833,1.742162,-257.435736,1.035914,68.09835
9.9767,0.045771,-0.001017,-0.061897,-0.000562,0.001125,0.003423,0.013546,-0.510136,-0.0614,1.742866,-257.434426,1.04122,68.097906
9.9967,0.045407,-0.001244,-0.064966,-0.000563,0.001107,0.003425,0.014164,-0.510047,-0.061848,1.742866,-257.434426,1.04122,68.097906
10.0172,0.045258,-0.001114,-0.062627,-0.000564,0.001091,0.003427,0.014164,-0.510047,-0.061848,1.742866,-257.434426,1.04122,68.097906
10.0371,0.045325,-0.000376,-0.063929,-0.000565,0.001079,0.003428,0.013318,-0.510065,-0.062483,1.743796,-257.433121,1.043673,68.09746
10.0568,0.04511,-0.000383,-0.064013,-0.000563,0.00105,0.003428,0.013085,-0.509766,-0.063048,1.743796,-257.433121,1.043673,68.09746
10.0768,0.044922,-0.000884,-0.062825,-0.000562,0.001026,0.003428,0.012486,-0.509338,-0.064013,1.668806,-257.433121,1.063052,68.09746
10.0966,0.045539,-0.000602,-0.062289,-0.000561,0.001013,0.003422,0.012864,-0.50983,-0.062933,1.668806,-257.433121,1.063052,68.09746
10.1167,0.045266,-0.000918,-0.062367,-0.000561,0.001002,0.003416,0.012864,-0.50983,-0.062933,1.668806,-257.433121,1.063052,68.09746
10.137,0.045125,-0.000914,-0.06292,-0.000561,0.000992,0.003412,0.01348,-0.509927,-0.062367,1.593931,-257.433121,1.086316,68.09746
10.1567,0.045318,-0.000959,-0.063988,-0.000562,0.000994,0.003402,0.013308,-0.509918,-0.062592,1.593931,-257.433121,1.086316,68.09746
10.1767,0.045235,-0.000682,-0.06233,-0.000563,0.000995,0.003394,0.012706,-0.509915,-0.063988,1.518919,-257.433121,1.0962,68.09746
10.1968,0.044927,-0.001004,-0.062401,-0.000563,0.00098,0.003381,0.013401,-0.509711,-0.062475,1.518919,-257.433121,1.0962,68.09746
10.2165,0.045217,-0.001118,-0.063353,-0.000563,0.000968,0.00337,0.013401,-0.509711,-0.062475,1.518919,-257.433121,1.0962,68.09746
10.2367,0.044957,-0.000751,-0.06316,-0.000563,0.000957,0.003361,0.012928,-0.510095,-0.063353,1.443829,-257.433121,1.089218,68.09746
10.257,0.044668,-0.001152,-0.061732,-0.000564,0.000968,0.003347,0.012862,-0.509948,-0.063275,1.443829,-257.433121,1.089218,68.09746
10.277,0.045447,-0.001318,-0.061877,-0.000565,0.000978,0.003334,0.013205,-0.510181,-0.061732,1.368942,-257.433121,1.095972,68.097459
10.297,0.044908,-0.001011,-0.064257,-0.000568,0.00101,0.003319,0.013846,-0.510328,-0.061864,1.368942,-257.433121,1.095972,68.097459
10.3171,0.044838,-0.001018,-0.063171,-0.00057,0.001036,0.003306,0.013846,-0.510328,-0.061864,1.368942,-257.433121,1.095972,68.097459
10.337,0.045015,-0.001022,-0.063088,-0.000572,0.001058,0.003295,0.012643,-0.510001,-0.063171,1.293928,-257.433122,1.080859,68.097459
10.357,0.045243,-0.00106,-0.062522,-0.00057,0.001057,0.003279,0.012731,-0.510004,-0.063137,1.293928,-257.433122,1.080859,68.097459
10.3765,0.044963,-0.001103,-0.062732,-0.000569,0.001056,0.003265,0.013377,-0.510064,-0.062522,1.218936,-257.433122,1.031264,68.097459
10.3968,0.045012,-0.001059,-0.062869,-0.000569,0.001061,0.003247,0.013025,-0.510096,-0.062713,1.218936,-257.433122,1.031264,68.097459
10.4167,0.044823,-0.000854,-0.063381,-0.000569,0.001066,0.003231,0.013025,-0.510096,-0.062713,1.218936,-257.433122,1.031264,68.097459
10.4366,0.045381,-0.001291,-0.062869,-0.000569,0.00107,0.003219,0.01252,-0.50983,-0.063381,1.143937,-257.433122,1.025335,68.097459
10.4572,0.045167,-0.001088,-0.0642,-0.000568,0.001066,0.003185,0.012852,-0.510013,-0.063174,1.143937,-257.433122,1.025335,68.097459
10.4768,0.045148,-0.001175,-0.062194,-0.000568,0.001064,0.003156,0.012448,-0.510037,-0.0642,1.06894,-257.433122,1.005292,68.097459
10.4966,0.045301,-0.001279,-0.062245,-0.000569,0.001072,0.003133,0.013359,-0.510175,-0.062374,1.06894,-257.433122,1.005292,68.097459
10.517,0.045401,-0.000838,-0.063623,-0.000569,0.001079,0.003114,0.013359,-0.510175,-0.062374,1.06894,-257.433122,1.005292,68.097459
10.5366,0.045217,-0.000562,-0.06217,-0.00057,0.001085,0.003098,0.012975,-0.509807,-0.063623,0.993938,-257.433122,0.989375,68.097459
10.5567,0.045097,-0.000932,-0.062219,-0.000568,0.001054,0.003085,0.0132,-0.509713,-0.063034,0.993938,-257.433122,0.989375,68.097459
10.5762,0.045087,-0.000951,-0.061255,-0.000566,0.001029,0.003074,0.013386,-0.509945,-0.062219,0.91894,-257.433122,0.956117,68.097459
10.5965,0.045177,-0.00072,-0.063538,-0.000568,0.001028,0.003066,0.013823,-0.50999,-0.061342,0.91894,-257.433122,0.956117,68.097459
10.6167,0.045366,-0.001126,-0.063106,-0.000569,0.001027,0.003058,0.013823,-0.50999,-0.061342,0.91894,-257.433122,0.956117,68.097459
10.6365,0.044983,-0.000966,-0.062557,-0.00057,0.001027,0.003052,0.013203,-0.510111,-0.063106,0.843942,-257.433122,0.982326,68.097459
10.6564,0.045379,-0.001028,-0.063389,-0.00057,0.001033,0.003046,0.013161,-0.510053,-0.062884,0.843942,-257.433122,0.982326,68.097459
10.6765,0.044952,-0.000941,-0.062585,-0.000571,0.001038,0.003041,0.013072,-0.510003,-0.063389,0.76894,-257.433122,0.973039,68.097459
10.6968,0.045393,-0.000786,-0.062405,-0.00057,0.001035,0.003037,0.013056,-0.509948,-0.062654,0.76894,-257.433122,0.973039,68.097459
10.7165,0.044957,-0.001026,-0.062931,-0.00057,0.001032,0.003033,0.013056,-0.509948,-0.062654,0.76894,-257.433122,0.973039,68.097459
10.7369,0.045298,-0.001229,-0.063485,-0.00057,0.00103,0.00303,0.012884,-0.510016,-0.062931,0.693834,-257.433123,0.962467,68.097459
10.7569,0.045124,-0.00082,-0.061213,-0.00057,0.001039,0.003027,0.012908,-0.510092,-0.063158,0.693834,-257.433123,0.962467,68.097459
10.7764,0.045055,-0.001097,-0.062548,-0.00057,0.001047,0.003025,0.013925,-0.509864,-0.061213,0.618792,-257.433123,0.964276,68.097459
10.7968,0.044913,-0.000847,-0.062722,-0.00057,0.001051,0.003024,0.013245,-0.510078,-0.062426,0.618792,-257.433123,0.964276,68.097459
10.8166,0.04482,-0.001004,-0.064075,-0.000571,0.001055,0.003022,0.013245,-0.510078,-0.062426,0.618792,-257.433123,0.964276,68.097459
10.8368,0.044856,-0.001017,-0.06273,-0.000571,0.001058,0.003021,0.012164,-0.509958,-0.064075,0.543933,-257.433123,0.951928,68.097459
10.8569,0.045147,-0.000678,-0.061568,-0.00057,0.001056,0.003019,0.012458,-0.509981,-0.063526,0.543933,-257.433123,0.951928,68.097459
10.8768,0.044865,-0.001131,-0.063668,-0.000568,0.001054,0.003018,0.013767,-0.509712,-0.061568,0.468935,-257.433123,0.943308,68.097459
10.8967,0.045367,-0.000812,-0.061633,-0.000568,0.001059,0.003017,0.012533,-0.510064,-0.063486,0.468935,-257.433123,0.943308,68.097459
10.9169,0.045124,-0.000871,-0.062662,-0.000567,0.001063,0.003016,0.012533,-0.510064,-0.063486,0.468935,-257.433123,0.943308,68.097459
10.9368,0.045011,-0.000888,-0.063252,-0.000567,0.001067,0.003015,0.013187,-0.50987,-0.062662,0.393836,-257.433123,0.946411,68.097459
10.957,0.04527,-0.000661,-0.062667,-0.000566,0.001052,0.003015,0.01302,-0.509869,-0.062901,0.393836,-257.433123,0.946411,68.097459
10.9767,0.045497,-0.001079,-0.062222,-0.000566,0.00104,0.003016,0.013331,-0.50966,-0.062667,0.318934,-257.433123,0.938898,68.097459
10.9966,0.045263,-0.001102,-0.062861,-0.000568,0.001041,0.003017,0.013745,-0.510055,-0.062261,0.318934,-257.433123,0.938898,68.097459
11.0167,0.045113,-0.000857,-0.063063,-0.000569,0.001042,0.003017,0.013745,-0.510055,-0.062261,0.318934,-257.433123,0.938898,68.097459
11.0365,0.04532,-0.000896,-0.061956,-0.00057,0.001043,0.003018,0.012973,-0.509844,-0.063063,0.243841,-257.433123,0.956105,68.097459
11.0566,0.045328,-0.000673,-0.064192,-0.00057,0.001032,0.003018,0.013284,-0.509874,-0.062615,0.243841,-257.433123,0.956105,68.097459
11.0764,0.044958,-0.000663,-0.063913,-0.000569,0.001023,0.003018,0.012612,-0.509622,-0.064192,0.168941,-257.433123,0.951562,68.097459
11.0965,0.045265,-0.001039,-0.064331,-0.000566,0.000997,0.003017,0.012405,-0.509622,-0.063938,0.168941,-257.433123,0.951562,68.097459
11.1171,0.044829,-0.001076,-0.061325,-0.000564,0.000976,0.003016,0.012405,-0.509622,-0.063938,0.168941,-257.433123,0.951562,68.097459
11.1365,0.045254,-0.000877,-0.062909,-0.000562,0.000958,0.003015,0.013573,-0.510117,-0.061325,0.093876,-257.433123,0.963776,68.097459
11.1568,0.045124,-0.00094,-0.062081,-0.000565,0.000973,0.003015,0.013422,-0.510018,-0.061954,0.093876,-257.433123,0.963776,68.097459
11.1766,0.044958,-0.000769,-0.060766,-0.000567,0.000985,0.003016,0.013483,-0.509957,-0.062081,0.018935,-257.433124,1.003725,68.097459
11.1966,0.045225,-0.001008,-0.064074,-0.000568,0.00098,0.003017,0.013942,-0.509839,-0.060882,0.018935,-257.433124,1.003725,68.097459
11.2168,0.044741,-0.001218,-0.063537,-0.000569,0.000976,0.003018,0.013942,-0.509839,-0.060882,0.018935,-257.433124,1.003725,68.097459
11.2364,0.044924,-0.00096,-0.062667,-0.00057,0.000973,0.003018,0.012359,-0.510188,-0.063537,-0.056111,-257.433124,0.986505,68.097459
11.2566,0.044912,-0.000565,-0.062834,-0.000571,0.000994,0.003017,0.012613,-0.510095,-0.063183,-0.056111,-257.433124,0.986505,68.097459
11.2768,0.044936,-0.000989,-0.064547,-0.000571,0.001012,0.003015,0.012888,-0.509558,-0.062834,-0.131058,-257.433124,0.990648,68.097459
11.2967,0.045155,-0.001215,-0.063672,-0.000569,0.001011,0.003014,0.012126,-0.50989,-0.064373,-0.131058,-257.433124,0.990648,68.097459
11.3164,0.044832,-0.000512,-0.062796,-0.000567,0.00101,0.003012,0.012126,-0.50989,-0.064373,-0.131058,-257.433124,0.990648,68.097459
11.3366,0.045292,-0.000972,-0.063478,-0.000566,0.00101,0.003011,0.012828,-0.509507,-0.062796,-0.206056,-257.433124,0.968107,68.097459
11.3568,0.04517,-0.001044,-0.064,-0.000565,0.00099,0.003012,0.012874,-0.509686,-0.063075,-0.206056,-257.433124,0.968107,68.097459
11.3766,0.045225,-0.000925,-0.063375,-0.000564,0.000974,0.003013,0.012552,-0.509999,-0.064,-0.281159,-257.433124,0.972245,68.097459
11.3967,0.044595,-0.000724,-0.062083,-0.000565,0.000979,0.003013,0.012893,-0.50991,-0.06343,-0.281159,-257.433124,0.972245,68.097459
11.4168,0.045381,-0.000832,-0.063816,-0.000566,0.000982,0.003013,0.012893,-0.50991,-0.06343,-0.281159,-257.433124,0.972245,68.097459
11.4365,0.045121,-0.000738,-0.063444,-0.000566,0.000985,0.003013,0.012857,-0.509794,-0.063816,-0.35617,-257.433124,0.993351,68.097459
11.457,0.045466,-0.001184,-0.062549,-0.000566,0.000975,0.003014,0.012828,-0.50976,-0.063663,-0.35617,-257.433124,0.993351,68.097459
11.4766,0.044965,-0.000921,-0.062432,-0.000565,0.000968,0.003014,0.013586,-0.510186,-0.062549,-0.431177,-257.433124,0.986198,68.097458
11.4966,0.045194,-0.000697,-0.062917,-0.000567,0.000976,0.003014,0.013185,-0.50995,-0.062443,-0.431177,-257.433124,0.986198,68.097458
11.5167,0.045006,-0.000722,-0.062188,-0.000568,0.000982,0.003015,0.013185,-0.50995,-0.062443,-0.431177,-257.433124,0.986198,68.097458
11.5363,0.045124,-0.001174,-0.06264,-0.000569,0.000988,0.003015,0.01331,-0.509736,-0.062188,-0.506067,-257.433124,0.996195,68.097458
11.5569,0.045203,-0.000911,-0.062339,-0.000569,0.00099,0.003015,0.013264,-0.509915,-0.062373,-0.506067,-257.433124,0.996195,68.097458
11.5764,0.045229,-0.000992,-0.062932,-0.00057,0.000991,0.003016,0.013431,-0.509921,-0.062339,-0.581065,-257.433124,0.982969,68.097458
11.5964,0.0451,-0.001206,-0.061967,-0.00057,0.000997,0.003016,0.01318,-0.509976,-0.062878,-0.581065,-257.433124,0.982969,68.097458
11.6165,0.045262,-0.000961,-0.061643,-0.000571,0.001001,0.003016,0.01318,-0.509976,-0.062878,-0.581065,-257.433124,0.982969,68.097458
11.6362,0.045223,-0.00099,-0.063097,-0.000571,0.001005,0.003016,0.013844,-0.509992,-0.061643,-0.656053,-257.433125,0.980688,68.097458
11.6567,0.045086,-0.001101,-0.063363,-0.000572,0.001008,0.003016,0.013525,-0.509985,-0.062239,-0.656053,-257.433125,0.980688,68.097458
11.6764,0.045126,-0.000913,-0.063982,-0.000572,0.001011,0.003016,0.012793,-0.510078,-0.063363,-0.731054,-257.433125,0.971649,68.097458
11.6966,0.045223,-0.000611,-0.063969,-0.000571,0.001008,0.003015,0.01254,-0.509887,-0.06393,-0.731054,-257.433125,0.971649,68.097458
11.7167,0.045486,-0.000958,-0.064168,-0.00057,0.001006,0.003015,0.01254,-0.509887,-0.06393,-0.731054,-257.433125,0.971649,68.097458
11.7364,0.045295,-0.00079,-0.063106,-0.000569,0.001004,0.003014,0.012783,-0.509908,-0.064167,-0.806207,-257.433126,0.967877,68.097458
11.7566,0.044928,-0.000639,-0.063299,-0.000568,0.000999,0.003014,0.012926,-0.509854,-0.063733,-0.806207,-257.433126,0.967877,68.097458
11.7767,0.044901,-0.001224,-0.061982,-0.000568,0.000994,0.003014,0.012667,-0.509618,-0.063298,-0.881051,-257.433131,0.973528,68.097456
11.7966,0.045309,-0.001046,-0.062886,-0.00057,0.001016,0.003014,0.013252,-0.510189,-0.0621,-0.881051,-257.433131,0.973528,68.097456
11.8166,0.045163,-0.001125,-0.063394,-0.000571,0.001034,0.003014,0.013252,-0.510189,-0.0621,-0.881051,-257.433131,0.973528,68.097456
11.8368,0.045728,-0.000731,-0.06342,-0.000572,0.001049,0.003015,0.012853,-0.5101,-0.063393,-0.956051,-257.433151,0.980068,68.097449
11.8568,0.045327,-0.001286,-0.062673,-0.000571,0.001042,0.003015,0.013078,-0.50994,-0.063403,-0.956051,-257.433151,0.980068,68.097449
11.8764,0.04511,-0.000973,-0.064074,-0.000571,0.001036,0.003015,0.013383,-0.510283,-0.062668,-1.031059,-257.433215,0.945435,68.097428
11.8972,0.045597,-0.000856,-0.062171,-0.00057,0.001035,0.003014,0.012538,-0.509958,-0.063947,-1.031059,-257.433215,0.945435,68.097428
11.9166,0.045616,-0.001172,-0.062469,-0.000569,0.001034,0.003014,0.012538,-0.509958,-0.063947,-1.031059,-257.433215,0.945435,68.097428
11.9364,0.044745,-0.000827,-0.062383,-0.000568,0.001033,0.003013,0.013773,-0.510171,-0.062452,-1.106059,-257.433385,0.954163,68.097371
11.9563,0.044958,-0.000847,-0.063745,-0.000569,0.001035,0.003014,0.013433,-0.510032,-0.062422,-1.106059,-257.433385,0.954163,68.097371
11.9766,0.044991,-0.001052,-0.063479,-0.00057,0.001037,0.003015,0.012462,-0.509802,-0.063717,-1.181203,-257.433746,0.957542,68.097249
11.9966,0.045026,-0.000887,-0.062626,-0.000569,0.00104,0.003014,0.012624,-0.510005,-0.063498,-1.181203,-257.433746,0.957542,68.097249
12.0165,0.044952,-0.001019,-0.063624,-0.000569,0.001042,0.003014,0.012624,-0.510005,-0.063498,-1.181203,-257.433746,0.957542,68.097249
12.0364,0.044755,-0.001134,-0.064163,-0.000568,0.001043,0.003013,0.01251,-0.509964,-0.063557,-1.25624,-257.434385,0.954548,68.097034
12.0565,0.044876,-0.000602,-0.062914,-0.000567,0.001047,0.003013,0.012323,-0.51001,-0.063796,-1.25624,-257.434385,0.954548,68.097034
12.0763,0.044794,-0.000414,-0.063512,-0.000566,0.001049,0.003012,0.012797,-0.509566,-0.062839,-1.331163,-257.435317,0.95157,68.096724
12.0964,0.045221,-0.001249,-0.062356,-0.000562,0.001001,0.003012,0.012457,-0.5094,-0.063448,-1.331163,-257.435317,0.95157,68.096724
12.1165,0.045322,-0.000786,-0.063067,-0.000558,0.00096,0.003013,0.012457,-0.5094,-0.063448,-1.331163,-257.435317,0.95157,68.096724
12.1367,0.044626,-0.000771,-0.063165,-0.000556,0.000927,0.003013,0.013159,-0.509728,-0.062945,-1.377174,-257.436455,0.948986,68.096348
12.1566,0.044986,-0.000548,-0.060897,-0.000557,0.000926,0.003013,0.012863,-0.509734,-0.06302,-1.377174,-257.436455,0.948986,68.096348
12.1763,0.044712,-0.000568,-0.062827,-0.000559,0.000925,0.003014,0.013933,-0.509575,-0.06081,-1.372571,-257.437486,1.023887,68.095958
12.1967,0.045059,-0.00037,-0.063858,-0.000559,0.000911,0.003039,0.012801,-0.509562,-0.062643,-1.372571,-257.437486,1.023887,68.095958
12.2168,0.04437,-0.000521,-0.060943,-0.000559,0.0009,0.00306,0.012801,-0.509562,-0.062643,-1.372571,-257.437486,1.023887,68.095958
12.2365,0.044652,-0.000659,-0.063165,-0.000559,0.00089,0.003077,0.013287,-0.509534,-0.060816,-1.371414,-257.438615,1.022709,68.095528
12.2565,0.044965,-0.000753,-0.060912,-0.000559,0.000884,0.003098,0.012949,-0.509573,-0.061755,-1.371414,-257.438615,1.022709,68.095528
12.2769,0.044547,-0.001,-0.061966,-0.00056,0.000878,0.003115,0.013903,-0.509779,-0.060816,-1.371696,-257.439726,1.056565,68.095082
12.2965,0.044777,-0.000894,-0.061857,-0.000563,0.000907,0.003135,0.013046,-0.509999,-0.061861,-1.371696,-257.439726,1.056565,68.095082
12.3165,0.044276,-0.000612,-0.061721,-0.000565,0.00093,0.003151,0.013046,-0.509999,-0.061861,-1.371696,-257.439726,1.056565,68.095082
12.3367,0.044595,-0.000665,-0.061167,-0.000567,0.00095,0.003165,0.012797,-0.509603,-0.061591,-1.372082,-257.440857,1.070456,68.094616
12.3566,0.044321,-0.000668,-0.061721,-0.000566,0.000939,0.003182,0.013048,-0.509643,-0.061403,-1.372082,-257.440857,1.070456,68.094616
12.3764,0.044172,-0.000557,-0.061237,-0.000566,0.000929,0.003197,0.012847,-0.509666,-0.061621,-1.37657,-257.442028,1.047633,68.094164
12.3968,0.044552,-0.000286,-0.063499,-0.000565,0.000919,0.003214,0.012952,-0.509604,-0.061261,-1.37657,-257.442028,1.047633,68.094164
12.4166,0.044349,-0.000653,-0.062776,-0.000565,0.000911,0.003229,0.012952,-0.509604,-0.061261,-1.37657,-257.442028,1.047633,68.094164
12.4367,0.044238,-0.000436,-0.061458,-0.000564,0.000904,0.003241,0.012333,-0.509609,-0.062644,-1.3769,-257.443189,1.065531,68.093702
12.4566,0.044133,-0.000193,-0.06205,-0.000563,0.000894,0.003256,0.012568,-0.509549,-0.062145,-1.3769,-257.443189,1.065531,68.093702
12.4764,0.043989,-0.000419,-0.060084,-0.000562,0.000886,0.003268,0.012492,-0.509182,-0.061947,-1.377492,-257.444357,1.087501,68.093219
12.4965,0.044159,-0.000314,-0.062267,-0.000562,0.000873,0.003284,0.013287,-0.509469,-0.060241,-1.377492,-257.444357,1.087501,68.093219
12.5165,0.044315,-0.000651,-0.060854,-0.000562,0.000862,0.003297,0.013287,-0.509469,-0.060241,-1.377492,-257.444357,1.087501,68.093219
12.5364,0.044206,-0.000351,-0.05999,-0.000562,0.000853,0.003308,0.013278,-0.509669,-0.060718,-1.378119,-257.445527,1.102114,68.092723
12.5568,0.043901,-0.000363,-0.061511,-0.000563,0.000853,0.003321,0.01342,-0.509568,-0.060402,-1.378119,-257.445527,1.102114,68.092723
12.5766,0.043829,-0.000387,-0.062111,-0.000564,0.000853,0.003331,0.012534,-0.509371,-0.061406,-1.37761,-257.446691,1.122032,68.092208
12.5966,0.043797,-0.000612,-0.060923,-0.000562,0.00084,0.00334,0.012204,-0.509399,-0.062043,-1.37761,-257.446691,1.122032,68.092208
12.6167,0.043803,-0.000617,-0.060721,-0.000559,0.000829,0.003347,0.012204,-0.509399,-0.062043,-1.37761,-257.446691,1.122032,68.092208
12.6366,0.044076,-0.00068,-0.0614,-0.000558,0.000821,0.003353,0.012833,-0.50964,-0.060582,-1.377835,-257.447867,1.125502,68.091684
12.6567,0.043899,-0.000346,-0.061119,-0.00056,0.000835,0.00336,0.012809,-0.509668,-0.060902,-1.377835,-257.447867,1.125502,68.091684
12.6762,0.04366,-5.1e-05,-0.060085,-0.000561,0.000847,0.003366,0.012732,-0.509367,-0.061013,-1.378727,-257.44903,1.144216,68.091148
12.6964,0.043894,-0.000421,-0.060141,-0.000558,0.000816,0.003372,0.013008,-0.509149,-0.060159,-1.378727,-257.44903,1.144216,68.091148
12.7164,0.043477,-0.000475,-0.059755,-0.000556,0.00079,0.003378,0.013008,-0.509149,-0.060159,-1.378727,-257.44903,1.144216,68.091148
12.7366,0.043728,-0.000437,-0.060925,-0.000555,0.000768,0.003382,0.012999,-0.509528,-0.059615,-1.379815,-257.450209,1.136287,68.090616
12.7565,0.0436,-0.000101,-0.0602,-0.000557,0.00078,0.003386,0.012866,-0.509509,-0.060128,-1.379815,-257.450209,1.136287,68.090616
12.7766,0.04317,-0.000203,-0.059571,-0.000558,0.000789,0.00339,0.0129,-0.509152,-0.060094,-1.377579,-257.451347,1.166854,68.09006
12.7964,0.043746,-0.000338,-0.060501,-0.000557,0.000779,0.003393,0.012814,-0.509284,-0.059613,-1.377579,-257.451347,1.166854,68.09006
12.8163,0.043479,-0.000363,-0.061078,-0.000557,0.000771,0.003396,0.012814,-0.509284,-0.059613,-1.377579,-257.451347,1.166854,68.09006
12.8364,0.043545,-0.000361,-0.061994,-0.000556,0.000764,0.003399,0.012328,-0.509377,-0.060936,-1.37804,-257.452514,1.160155,68.0895
12.8571,0.043198,-5.5e-05,-0.059727,-0.000556,0.000765,0.0034,0.012168,-0.509375,-0.061359,-1.37804,-257.452514,1.160155,68.0895
12.8765,0.043231,0.000419,-0.059938,-0.000555,0.000766,0.003401,0.012739,-0.509121,-0.059619,-1.377275,-257.453669,1.169642,68.088931
12.8971,0.043213,3.6e-05,-0.061052,-0.000548,0.000712,0.003404,0.012686,-0.508703,-0.059905,-1.377275,-257.453669,1.169642,68.088931
12.9165,0.042999,0.000139,-0.058884,-0.000543,0.000668,0.003406,0.012686,-0.508703,-0.059905,-1.377275,-257.453669,1.169642,68.088931
12.9364,0.042866,-0.000165,-0.060158,-0.000539,0.000631,0.003408,0.012964,-0.508943,-0.058742,-1.37796,-257.454826,1.170464,68.088362
12.9565,0.042782,5.5e-05,-0.061364,-0.00054,0.000631,0.00341,0.012649,-0.509063,-0.059308,-1.37796,-257.454826,1.170464,68.088362
12.9762,0.042983,-0.000176,-0.061054,-0.000542,0.00063,0.003411,0.011491,-0.508965,-0.061259,-1.374749,-257.455898,1.215095,68.087763
12.9964,0.043049,-0.000122,-0.059258,-0.000542,0.00064,0.003411,0.011831,-0.509202,-0.061067,-1.374749,-257.455898,1.215095,68.087763
13.0165,0.042882,0.000118,-0.061109,-0.000543,0.000648,0.003411,0.011831,-0.509202,-0.061067,-1.374749,-257.455898,1.215095,68.087763
13.0365,0.04288,0.000128,-0.058828,-0.000543,0.000654,0.003411,0.011714,-0.508902,-0.060966,-1.373763,-257.457004,1.213996,68.087143
13.0567,0.043062,0.000227,-0.060222,-0.000541,0.000637,0.003412,0.012189,-0.508935,-0.060086,-1.373763,-257.457004,1.213996,68.087143
13.0764,0.042922,0.000392,-0.05877,-0.00054,0.000623,0.003413,0.012351,-0.508826,-0.060113,-1.374912,-257.458122,1.207566,68.086531
13.0965,0.04284,0.000604,-0.059394,-0.000538,0.000598,0.003416,0.012912,-0.508735,-0.05888,-1.374912,-257.458122,1.207566,68.086531
13.1166,0.042805,-4.3e-05,-0.058385,-0.000537,0.000577,0.003417,0.012912,-0.508735,-0.05888,-1.374912,-257.458122,1.207566,68.086531
13.137,0.042445,7.1e-05,-0.057402,-0.000536,0.00056,0.003419,0.013025,-0.509147,-0.058242,-1.374021,-257.459223,1.216906,68.085909
13.1567,0.042923,0.000261,-0.058553,-0.00054,0.000577,0.003421,0.013088,-0.50912,-0.057885,-1.374021,-257.459223,1.216906,68.085909
13.1771,0.042662,-0.000314,-0.059636,-0.000544,0.000591,0.003422,0.013062,-0.508847,-0.058445,-1.371058,-257.460301,1.23354,68.085263
13.1969,0.04245,0.000339,-0.060678,-0.000547,0.000621,0.003422,0.012333,-0.509358,-0.05953,-1.371058,-257.460301,1.23354,68.085263
13.217,0.042787,0.000382,-0.059161,-0.00055,0.000646,0.003421,0.012333,-0.509358,-0.05953,-1.371058,-257.460301,1.23354,68.085263
13.2364,0.042528,0.000253,-0.059841,-0.000552,0.000667,0.003421,0.012611,-0.5087,-0.059018,-1.370651,-257.461398,1.222715,68.084623
13.2569,0.042113,0.000256,-0.058591,-0.000547,0.000634,0.003422,0.012362,-0.508754,-0.05935,-1.370651,-257.461398,1.222715,68.084623
13.2764,0.042858,0.000395,-0.058143,-0.000543,0.000606,0.003422,0.012232,-0.508847,-0.058484,-1.373211,-257.462507,1.200734,68.084022
13.2966,0.0422,0.000149,-0.059043,-0.000541,0.000586,0.003424,0.013133,-0.508751,-0.058168,-1.373211,-257.462507,1.200734,68.084022
13.3167,0.042455,0.000336,-0.059711,-0.00054,0.00057,0.003425,0.013133,-0.508751,-0.058168,-1.373211,-257.462507,1.200734,68.084022
13.3367,0.041914,0.000324,-0.05961,-0.00054,0.000556,0.003426,0.011999,-0.508729,-0.059568,-1.372211,-257.463606,1.220292,68.08339
13.3575,0.041997,-0.000176,-0.057753,-0.000536,0.000539,0.003425,0.011799,-0.508743,-0.059569,-1.372211,-257.463606,1.220292,68.08339
13.3763,0.04197,0.000192,-0.059664,-0.000533,0.000525,0.003423,0.012543,-0.509307,-0.057644,-1.369678,-257.464677,1.232883,68.082745
13.3965,0.042169,0.000316,-0.058393,-0.000533,0.000531,0.003422,0.011652,-0.508938,-0.059467,-1.369678,-257.464677,1.232883,68.082745
13.4164,0.042095,8.3e-05,-0.057877,-0.000533,0.000536,0.003421,0.011652,-0.508938,-0.059467,-1.369678,-257.464677,1.232883,68.082745
13.4363,0.042147,0.000556,-0.057386,-0.000533,0.000539,0.00342,0.012573,-0.50904,-0.057733,-1.369638,-257.465746,1.242321,68.082083
13.4567,0.04172,0.000244,-0.05833,-0.000535,0.000539,0.003422,0.012703,-0.508859,-0.057574,-1.369638,-257.465746,1.242321,68.082083
13.4763,0.041978,0.000689,-0.058718,-0.000536,0.000538,0.003423,0.011973,-0.508871,-0.058222,-1.370604,-257.466819,1.23939,68.081427
13.4965,0.041761,0.000571,-0.058691,-0.00053,0.000502,0.003423,0.012041,-0.50847,-0.058668,-1.370604,-257.466819,1.23939,68.081427
13.5168,0.042073,0.000282,-0.057424,-0.000525,0.000473,0.003423,0.012041,-0.50847,-0.058668,-1.370604,-257.466819,1.23939,68.081427
13.5365,0.041679,0.000523,-0.058508,-0.000522,0.000448,0.003423,0.012782,-0.508853,-0.057281,-1.369577,-257.467895,1.238219,68.080768
13.5565,0.042292,0.000529,-0.056514,-0.000524,0.000453,0.003423,0.012396,-0.508747,-0.057773,-1.369577,-257.467895,1.238219,68.080768
13.5763,0.04174,0.000413,-0.057768,-0.000526,0.000458,0.003424,0.01347,-0.508642,-0.056406,-1.368051,-257.468918,1.263185,68.080088
13.5965,0.041728,0.00051,-0.058145,-0.000528,0.00046,0.003424,0.012399,-0.508727,-0.05764,-1.368051,-257.468918,1.263185,68.080088
13.6166,0.041709,0.00073,-0.056919,-0.000529,0.000461,0.003425,0.012399,-0.508727,-0.05764,-1.368051,-257.468918,1.263185,68.080088
13.6365,0.041504,0.00059,-0.057312,-0.00053,0.000462,0.003425,0.012675,-0.508424,-0.056776,-1.367143,-257.469959,1.259095,68.079401
13.6569,0.041451,0.000636,-0.056396,-0.000528,0.000444,0.003425,0.012516,-0.508482,-0.056977,-1.367143,-257.469959,1.259095,68.079401
13.6769,0.041359,0.000735,-0.058398,-0.000526,0.000429,0.003426,0.012688,-0.508538,-0.056287,-1.366212,-257.471001,1.25634,68.078717
13.6972,0.041486,0.000328,-0.05794,-0.000521,0.000405,0.003424,0.011694,-0.508408,-0.058197,-1.366212,-257.471001,1.25634,68.078717
13.7164,0.041955,0.000874,-0.057586,-0.000517,0.000386,0.003423,0.011694,-0.508408,-0.058197,-1.366212,-257.471001,1.25634,68.078717
13.7369,0.041333,0.000366,-0.057434,-0.000514,0.000369,0.003422,0.012581,-0.508262,-0.057443,-1.365112,-257.47203,1.264441,68.07802
13.7569,0.041473,0.000533,-0.058991,-0.000515,0.000365,0.003423,0.012368,-0.508474,-0.057423,-1.365112,-257.47203,1.264441,68.07802
13.7767,0.041292,0.000329,-0.058267,-0.000516,0.000362,0.003423,0.01139,-0.508567,-0.058883,-1.364772,-257.473031,1.280576,68.077305
13.7965,0.041423,0.000964,-0.056639,-0.000519,0.000383,0.003422,0.011574,-0.508783,-0.058317,-1.364772,-257.473031,1.280576,68.077305
13.817,0.040881,0.000501,-0.057956,-0.000521,0.0004,0.003421,0.011574,-0.508783,-0.058317,-1.364772,-257.473031,1.280576,68.077305
13.8363,0.041218,0.000863,-0.057147,-0.000522,0.000414,0.003421,0.011319,-0.508627,-0.057813,-1.363532,-257.474033,1.280894,68.076583
13.8566,0.04095,0.000134,-0.05677,-0.000519,0.0004,0.00342,0.011631,-0.508493,-0.057524,-1.363532,-257.474033,1.280894,68.076583
13.8764,0.040924,0.000544,-0.056791,-0.000517,0.000389,0.00342,0.011997,-0.509031,-0.056662,-1.36506,-257.475055,1.26865,68.075881
13.8965,0.041293,0.000888,-0.056755,-0.000519,0.000397,0.003421,0.011977,-0.508667,-0.056775,-1.36506,-257.475055,1.26865,68.075881
13.9168,0.041093,0.000551,-0.055942,-0.000521,0.000403,0.003421,0.011977,-0.508667,-0.056775,-1.36506,-257.475055,1.26865,68.075881
13.9365,0.040702,0.000764,-0.056331,-0.000522,0.000409,0.003422,0.012557,-0.508633,-0.055799,-1.365032,-257.476065,1.275572,68.075172
13.9564,0.040834,0.00075,-0.056997,-0.000522,0.000405,0.003423,0.012323,-0.508547,-0.055999,-1.365032,-257.476065,1.275572,68.075172
13.9767,0.040724,0.000508,-0.055528,-0.000523,0.000402,0.003423,0.011765,-0.508408,-0.056888,-1.364799,-257.477085,1.269651,68.074469
13.9972,0.040768,0.000544,-0.056634,-0.000525,0.000411,0.003424,0.012359,-0.508679,-0.055645,-1.364799,-257.477085,1.269651,68.074469
14.0169,0.040807,0.000445,-0.057808,-0.000527,0.000418,0.003425,0.012359,-0.508679,-0.055645,-1.364799,-257.477085,1.269651,68.074469
14.0371,0.040809,0.000442,-0.05486,-0.000528,0.000425,0.003425,0.01132,-0.508685,-0.057665,-1.364065,-257.478104,1.270581,68.073762
14.0568,0.040657,0.000308,-0.056471,-0.000529,0.000432,0.003425,0.011928,-0.508725,-0.056525,-1.364065,-257.478104,1.270581,68.073762
14.0766,0.040594,0.000479,-0.055691,-0.000529,0.000438,0.003424,0.011856,-0.508864,-0.056362,-1.363808,-257.479136,1.263862,68.07306
14.0965,0.04044,0.000582,-0.055958,-0.000531,0.000445,0.003425,0.012178,-0.50874,-0.055739,-1.363808,-257.479136,1.263862,68.07306
14.1165,0.040411,0.00085,-0.055497,-0.000531,0.000451,0.003425,0.012178,-0.50874,-0.055739,-1.363808,-257.479136,1.263862,68.07306
14.1366,0.04079,0.000494,-0.055712,-0.000532,0.000456,0.003425,0.012101,-0.508345,-0.055354,-1.364454,-257.480165,1.261013,68.072368
14.1564,0.040232,0.000467,-0.057059,-0.000529,0.00044,0.003425,0.012217,-0.508493,-0.055483,-1.364454,-257.480165,1.261013,68.072368
14.1766,0.040073,0.00073,-0.053785,-0.000527,0.000427,0.003425,0.011131,-0.508687,-0.05695,-1.364925,-257.481206,1.256201,68.07168
14.197,0.040472,0.001026,-0.056078,-0.000527,0.000423,0.003426,0.012517,-0.508546,-0.054065,-1.364925,-257.481206,1.256201,68.07168
14.2169,0.040266,0.000839,-0.053287,-0.000527,0.000419,0.003427,0.012517,-0.508546,-0.054065,-1.364925,-257.481206,1.256201,68.07168
14.2365,0.040094,0.000666,-0.055423,-0.000528,0.000417,0.003427,0.013082,-0.508418,-0.053143,-1.364503,-257.48224,1.264241,68.070978
14.2566,0.040226,0.000855,-0.055497,-0.000527,0.000409,0.003427,0.012559,-0.508472,-0.054083,-1.364503,-257.48224,1.264241,68.070978
14.2763,0.040178,0.000938,-0.05596,-0.000526,0.000402,0.003428,0.011921,-0.508345,-0.055389,-1.363564,-257.48326,1.265817,68.07028
14.2964,0.039757,0.001106,-0.056137,-0.00052,0.000373,0.003426,0.011677,-0.50827,-0.055903,-1.363564,-257.48326,1.265817,68.07028
14.3166,0.039938,0.00117,-0.056168,-0.000514,0.000348,0.003425,0.011677,-0.50827,-0.055903,-1.363564,-257.48326,1.265817,68.07028
14.337,0.040042,0.000979,-0.054294,-0.00051,0.000328,0.003424,0.011286,-0.508007,-0.056024,-1.362872,-257.48428,1.269089,68.069571
14.3566,0.039832,0.000658,-0.055004,-0.000504,0.000299,0.003423,0.011715,-0.50811,-0.055316,-1.362872,-257.48428,1.269089,68.069571
14.3766,0.039706,0.000707,-0.054852,-0.0005,0.000274,0.003422,0.011779,-0.508559,-0.054896,-1.362912,-257.485264,1.28895,68.068841
14.3965,0.039756,0.001265,-0.055942,-0.000504,0.000291,0.003422,0.011748,-0.508528,-0.054851,-1.362912,-257.485264,1.28895,68.068841
14.4167,0.040112,0.000834,-0.055197,-0.000507,0.000305,0.003421,0.011748,-0.508528,-0.054851,-1.362912,-257.485264,1.28895,68.068841
14.4368,0.039521,0.000729,-0.055933,-0.00051,0.000317,0.003421,0.011955,-0.508377,-0.055055,-1.362367,-257.486227,1.302138,68.06809
14.4568,0.039996,0.000681,-0.055712,-0.000509,0.000315,0.003421,0.011569,-0.508415,-0.055396,-1.362367,-257.486227,1.302138,68.06809
14.4766,0.039798,0.000838,-0.055135,-0.000508,0.000313,0.00342,0.011582,-0.508517,-0.055603,-1.362122,-257.48721,1.290866,68.067353
14.4968,0.039763,0.001163,-0.054274,-0.000508,0.000311,0.00342,0.011683,-0.508398,-0.05517,-1.362122,-257.48721,1.290866,68.067353
14.5169,0.039416,0.000907,-0.055479,-0.000508,0.000309,0.00342,0.011683,-0.508398,-0.05517,-1.362122,-257.48721,1.290866,68.067353
14.537,0.03943,0.000963,-0.055871,-0.000508,0.000308,0.00342,0.011116,-0.508294,-0.055336,-1.362199,-257.488196,1.291906,68.066611
14.557,0.039583,0.001017,-0.054161,-0.000503,0.000291,0.003418,0.011044,-0.50827,-0.055543,-1.362199,-257.488196,1.291906,68.066611
14.5766,0.039403,0.000753,-0.054607,-0.000499,0.000276,0.003417,0.011959,-0.508224,-0.054052,-1.361934,-257.489172,1.292957,68.065873
14.5966,0.039543,0.000652,-0.055817,-0.000502,0.000287,0.003418,0.0116,-0.508464,-0.054554,-1.361934,-257.489172,1.292957,68.065873
14.6169,0.039196,0.001002,-0.055845,-0.000504,0.000295,0.003418,0.0116,-0.508464,-0.054554,-1.361934,-257.489172,1.292957,68.065873
14.6367,0.039415,0.000726,-0.053808,-0.000505,0.000302,0.003418,0.01071,-0.508191,-0.055702,-1.362752,-257.490137,1.301925,68.065123
14.6576,0.039253,0.000775,-0.053928,-0.000503,0.000293,0.003417,0.011226,-0.50833,-0.054916,-1.362752,-257.490137,1.301925,68.065123
14.6768,0.038861,0.001105,-0.05574,-0.000501,0.000286,0.003417,0.011747,-0.508473,-0.053818,-1.362375,-257.491113,1.294964,68.064381
14.6967,0.039129,0.000895,-0.053315,-0.000492,0.000255,0.003415,0.010561,-0.508135,-0.055567,-1.362375,-257.491113,1.294964,68.064381
14.7171,0.039315,0.000892,-0.053159,-0.000485,0.00023,0.003413,0.010561,-0.508135,-0.055567,-1.362375,-257.491113,1.294964,68.064381
14.7375,0.038791,0.000939,-0.05301,-0.000479,0.000209,0.003411,0.012196,-0.508375,-0.053016,-1.362721,-257.492083,1.299534,68.063634
14.7569,0.038854,0.001294,-0.054144,-0.000486,0.000225,0.003414,0.012018,-0.508361,-0.052997,-1.362721,-257.492083,1.299534,68.063634
14.7765,0.039194,0.000822,-0.05236,-0.000491,0.000239,0.003416,0.011239,-0.507951,-0.054036,-1.364786,-257.493014,1.32051,68.062865
14.7966,0.038904,0.001134,-0.053974,-0.000498,0.000258,0.003418,0.012395,-0.508434,-0.052497,-1.364786,-257.493014,1.32051,68.062865
14.817,0.039214,0.001125,-0.054075,-0.000503,0.000274,0.00342,0.012395,-0.508434,-0.052497,-1.364786,-257.493014,1.32051,68.062865
14.8368,0.038842,0.001012,-0.053075,-0.000508,0.000288,0.003421,0.011629,-0.508119,-0.053933,-1.362524,-257.493962,1.310824,68.062102
14.8574,0.039074,0.001331,-0.054903,-0.000505,0.000272,0.003421,0.011691,-0.508179,-0.053565,-1.362524,-257.493962,1.310824,68.062102
14.8764,0.038847,0.001067,-0.053447,-0.000502,0.000259,0.00342,0.011072,-0.50789,-0.054794,-1.360337,-257.494931,1.296055,68.061356
14.8966,0.039209,0.000898,-0.053584,-0.0005,0.000247,0.00342,0.011555,-0.508177,-0.053558,-1.360337,-257.494931,1.296055,68.061356
14.9168,0.03867,0.001333,-0.054851,-0.000498,0.000238,0.003419,0.011555,-0.508177,-0.053558,-1.360337,-257.494931,1.296055,68.061356
14.9365,0.038597,0.000976,-0.052131,-0.000496,0.00023,0.003419,0.01069,-0.507888,-0.054708,-1.360122,-257.495891,1.302948,68.060598
14.9566,0.038617,0.001098,-0.052804,-0.000492,0.000211,0.003418,0.01123,-0.508067,-0.053642,-1.360122,-257.495891,1.302948,68.060598
14.9766,0.038439,0.001327,-0.051892,-0.000488,0.000195,0.003417,0.011684,-0.508183,-0.052696,-1.359849,-257.496838,1.309809,68.059829
14.9966,0.038452,0.000957,-0.05238,-0.000487,0.000184,0.003418,0.01196,-0.508003,-0.051956,-1.359849,-257.496838,1.309809,68.059829
15.0169,0.038628,0.001322,-0.052943,-0.000487,0.000174,0.003418,0.01196,-0.508003,-0.051956,-1.359849,-257.496838,1.309809,68.059829
