mach0312/omni-docking-bench/src/icros_test_setup/results/MPPI_sample/timeseries/trial_059.csv
t,x,y,yaw,vx,vy,wz,bl_x,bl_y,bl_yaw,front_steering_joint,front_wheel_joint,rear_steering_joint,rear_wheel_joint
0.0,-0.031477,-0.029173,0.048798,9e-05,-4.3e-05,0.0,-0.005639,-0.538725,0.049547,0.090797,-258.375656,-0.844569,72.472303
0.0005,-0.031474,-0.02919,0.048321,9e-05,-4.3e-05,0.0,-0.005639,-0.538725,0.049547,0.090797,-258.375656,-0.844569,72.472303
0.0008,-0.031434,-0.029034,0.048174,9e-05,-4.3e-05,0.0,-0.005659,-0.538941,0.049858,0.090797,-258.375656,-0.844569,72.472303
0.0012,-0.031069,-0.029286,0.049886,9e-05,-4.3e-05,0.0,-0.005659,-0.538941,0.049858,0.090797,-258.375656,-0.844569,72.472303
0.0015,-0.031337,-0.029566,0.049492,9e-05,-4.3e-05,0.0,-0.006497,-0.538986,0.04847,0.015901,-258.375656,-0.769674,72.472303
0.0019,-0.031209,-0.02921,0.049529,9e-05,-4.3e-05,0.0,-0.006497,-0.538986,0.04847,-0.059092,-258.375656,-0.694681,72.472303
0.0022,-0.031373,-0.029453,0.050209,9e-05,-4.3e-05,0.0,-0.0061,-0.538955,0.049335,-0.059092,-258.375656,-0.694681,72.472303
0.0025,-0.031192,-0.029499,0.048042,9e-05,-4.3e-05,0.0,-0.0061,-0.538955,0.049335,-0.059092,-258.375656,-0.694681,72.472303
0.0028,-0.031124,-0.029368,0.048249,9e-05,-4.3e-05,0.0,-0.0061,-0.538955,0.049335,-0.059092,-258.375656,-0.694681,72.472303
0.017,-0.0312,-0.029004,0.049948,0.0,0.0,0.0,-0.006526,-0.538775,0.048249,-0.134143,-258.375655,-0.61963,72.472305
0.0361,-0.031306,-0.029345,0.049239,0.0,0.0,0.0,-0.006207,-0.53861,0.048936,-0.134143,-258.375655,-0.61963,72.472305
0.056,-0.031229,-0.029041,0.051233,0.0,0.0,0.0,-0.006205,-0.538727,0.049239,-0.134143,-258.375655,-0.61963,72.472305
0.076,-0.031439,-0.029393,0.050252,0.0,0.0,0.0,-0.005208,-0.538403,0.051058,-0.134143,-258.375655,-0.61963,72.472305
0.0962,-0.030974,-0.029131,0.049654,0.0,0.0,0.0,-0.005208,-0.538403,0.051058,-0.134143,-258.375655,-0.61963,72.472305
0.1168,-0.031109,-0.029229,0.050554,0.000828,0.004818,-0.008304,-0.005661,-0.538502,0.049654,-0.134143,-258.375655,-0.61963,72.472305
0.1364,-0.030593,-0.029053,0.048018,0.000874,0.005259,-0.008903,-0.00553,-0.538533,0.050018,-0.134143,-258.375655,-0.61963,72.472305
0.1563,-0.031253,-0.029777,0.049511,0.00091,0.005633,-0.009378,-0.006114,-0.538465,0.048018,-0.209084,-258.375655,-0.694571,72.472304
0.1767,-0.031552,-0.029428,0.049713,0.000951,0.005947,-0.009755,-0.006022,-0.53909,0.049375,-0.209084,-258.375655,-0.694571,72.472304
0.1967,-0.031244,-0.029473,0.050026,0.000984,0.006212,-0.010051,-0.006022,-0.53909,0.049375,-0.209084,-258.375655,-0.694571,72.472304
0.2164,-0.03161,-0.029481,0.049117,0.001011,0.006436,-0.010281,-0.005741,-0.538835,0.050026,-0.13407,-258.375655,-0.769584,72.472304
0.2366,-0.031039,-0.029487,0.049092,0.001038,0.006625,-0.010462,-0.00608,-0.538848,0.049655,-0.13407,-258.375655,-0.769584,72.472304
0.2565,-0.030821,-0.029088,0.048474,0.00106,0.006785,-0.010603,-0.006012,-0.538873,0.049092,-0.059075,-258.375655,-0.844579,72.472304
0.2762,-0.031294,-0.029373,0.049391,0.001081,0.00692,-0.010714,-0.0061,-0.538524,0.04853,-0.059075,-258.375655,-0.844579,72.472304
0.2962,-0.031016,-0.029268,0.050411,0.001099,0.007033,-0.0108,-0.0061,-0.538524,0.04853,-0.059075,-258.375655,-0.844579,72.472304
0.3165,-0.031191,-0.029439,0.050387,0.001115,0.007129,-0.010868,-0.005317,-0.53862,0.050411,0.015916,-258.375655,-0.91957,72.472304
0.3363,-0.030929,-0.029609,0.048497,0.001105,0.007216,-0.010918,-0.005393,-0.538689,0.050402,0.015916,-258.375655,-0.91957,72.472304
0.3563,-0.031526,-0.029053,0.048515,0.001098,0.00729,-0.010958,-0.006205,-0.539009,0.048497,0.090918,-258.375655,-0.994572,72.472304
0.3765,-0.031498,-0.029124,0.047799,0.001137,0.007339,-0.010993,-0.00674,-0.538503,0.048514,0.090918,-258.375655,-0.994572,72.472304
0.3964,-0.03137,-0.029214,0.050176,0.001171,0.00738,-0.01102,-0.00674,-0.538503,0.048514,0.090918,-258.375655,-0.994572,72.472304
0.4167,-0.031494,-0.02954,0.050792,0.001199,0.007415,-0.011041,-0.005791,-0.538572,0.050176,0.16592,-258.375654,-1.069574,72.472303
0.4365,-0.031104,-0.029348,0.04881,0.001189,0.007455,-0.011053,-0.005714,-0.538697,0.050425,0.16592,-258.375654,-1.069574,72.472303
0.4563,-0.031252,-0.029306,0.048467,0.001181,0.007488,-0.011063,-0.00622,-0.538741,0.04881,0.240929,-258.375654,-1.144583,72.472301
0.4767,-0.031106,-0.029281,0.050545,0.0012,0.007508,-0.011072,-0.006516,-0.53871,0.048497,0.240929,-258.375654,-1.144583,72.472301
0.4969,-0.031442,-0.028914,0.050742,0.001217,0.007525,-0.01108,-0.006516,-0.53871,0.048497,0.240929,-258.375654,-1.144583,72.472301
0.5166,-0.031362,-0.029378,0.049757,0.001231,0.00754,-0.011086,-0.005575,-0.538257,0.050741,0.31602,-258.375653,-1.219674,72.472286
0.5366,-0.030826,-0.029232,0.047793,0.00122,0.007558,-0.011088,-0.005742,-0.538451,0.05035,0.31602,-258.375653,-1.219674,72.472286
0.5559,-0.030959,-0.02916,0.050837,0.001212,0.007574,-0.011089,-0.006462,-0.538646,0.047787,0.39093,-258.375643,-1.294584,72.472191
0.5766,-0.031371,-0.028943,0.050266,0.001186,0.007592,-0.011089,-0.005167,-0.538513,0.050572,0.39093,-258.375643,-1.294584,72.472191
0.5964,-0.031221,-0.029263,0.049389,0.001165,0.007607,-0.011089,-0.005167,-0.538513,0.050572,0.39093,-258.375643,-1.294584,72.472191
0.6162,-0.031283,-0.029844,0.049036,0.001147,0.007619,-0.011089,-0.006046,-0.538621,0.049359,0.46602,-258.375605,-1.369674,72.471815
0.6362,-0.031179,-0.029062,0.049956,0.001162,0.007622,-0.011093,-0.006144,-0.538866,0.049224,0.46602,-258.375605,-1.369674,72.471815
0.6563,-0.031113,-0.029311,0.049066,0.001175,0.007624,-0.011095,-0.005716,-0.538383,0.049893,0.540923,-258.375505,-1.444577,72.470802
0.6763,-0.031141,-0.029057,0.049287,0.001184,0.007626,-0.011097,-0.006064,-0.538666,0.049139,0.540923,-258.375505,-1.444577,72.470802
0.6964,-0.03099,-0.029625,0.049986,0.001192,0.007628,-0.011099,-0.006064,-0.538666,0.049139,0.540923,-258.375505,-1.444577,72.470802
0.7165,-0.031037,-0.028645,0.05044,0.001199,0.007629,-0.0111,-0.00551,-0.538846,0.049778,0.615928,-258.375246,-1.519582,72.468213
0.7367,-0.03108,-0.028961,0.049115,0.001185,0.007635,-0.011099,-0.005432,-0.538473,0.050032,0.615928,-258.375246,-1.519582,72.468213
0.7564,-0.030543,-0.028464,0.050358,0.001174,0.007641,-0.011098,-0.006032,-0.538163,0.04885,0.616736,-258.374808,-1.594936,72.463902
0.7768,-0.030554,-0.028781,0.048034,0.001154,0.007648,-0.011178,-0.004974,-0.537839,0.05021,0.616736,-258.374808,-1.594936,72.463902
0.7965,-0.031126,-0.028954,0.048326,0.001138,0.007654,-0.011243,-0.004974,-0.537839,0.05021,0.616736,-258.374808,-1.594936,72.463902
0.8162,-0.030675,-0.028363,0.047196,0.001124,0.007659,-0.011296,-0.006458,-0.538055,0.047888,0.633552,-258.374257,-1.652055,72.458435
0.8367,-0.030096,-0.028576,0.047723,0.001163,0.007649,-0.011392,-0.006518,-0.537913,0.047555,0.633552,-258.374257,-1.652055,72.458435
0.8565,-0.029908,-0.027848,0.049711,0.001196,0.007641,-0.01147,-0.005743,-0.537756,0.047371,0.594449,-258.373727,-1.647863,72.452737
0.8767,-0.030235,-0.028183,0.048109,0.001165,0.007651,-0.011574,-0.004673,-0.537255,0.049477,0.594449,-258.373727,-1.647863,72.452737
0.8964,-0.029981,-0.028158,0.046775,0.001139,0.007659,-0.011659,-0.004673,-0.537255,0.049477,0.594449,-258.373727,-1.647863,72.452737
0.9163,-0.029897,-0.027446,0.048561,0.001117,0.007665,-0.011729,-0.006106,-0.53733,0.046374,0.519469,-258.373273,-1.652261,72.447803
0.9363,-0.029867,-0.027758,0.047793,0.001136,0.007662,-0.011827,-0.0057,-0.537097,0.047239,0.519469,-258.373273,-1.652261,72.447803
0.9564,-0.029531,-0.027239,0.047106,0.001151,0.007659,-0.011907,-0.005481,-0.536966,0.047475,0.44416,-258.372854,-1.646008,72.442716
0.9764,-0.029623,-0.027042,0.045465,0.00116,0.007657,-0.012008,-0.005512,-0.536689,0.047123,0.44416,-258.372854,-1.646008,72.442716
0.9968,-0.029237,-0.027506,0.047898,0.001167,0.007656,-0.01209,-0.005512,-0.536689,0.047123,0.44416,-258.372854,-1.646008,72.442716
1.0165,-0.029276,-0.027312,0.048021,0.001173,0.007656,-0.012157,-0.004793,-0.536664,0.047502,0.369469,-258.372469,-1.647731,72.43797
1.0366,-0.029151,-0.027054,0.04739,0.001153,0.007662,-0.012238,-0.004791,-0.536658,0.047662,0.369469,-258.372469,-1.647731,72.43797
1.0563,-0.028558,-0.02643,0.046091,0.001135,0.007668,-0.012306,-0.004976,-0.536331,0.047155,0.294471,-258.372177,-1.648446,72.434272
1.0765,-0.028958,-0.026705,0.045576,0.001135,0.007669,-0.012382,-0.005052,-0.535921,0.046174,0.294471,-258.372177,-1.648446,72.434272
1.0968,-0.029125,-0.026956,0.045167,0.001135,0.00767,-0.012445,-0.005052,-0.535921,0.046174,0.294471,-258.372177,-1.648446,72.434272
1.1161,-0.02897,-0.026706,0.045475,0.001135,0.007671,-0.012498,-0.006076,-0.536221,0.04483,0.219496,-258.371875,-1.645441,72.430259
1.1366,-0.02903,-0.026036,0.045147,0.001165,0.007663,-0.012562,-0.005955,-0.53618,0.045054,0.219496,-258.371875,-1.645441,72.430259
1.1564,-0.028924,-0.02624,0.045044,0.00119,0.007657,-0.012614,-0.005999,-0.535374,0.044921,0.1445,-258.371614,-1.644802,72.42674
1.1764,-0.028385,-0.026135,0.04496,0.001215,0.00765,-0.012669,-0.005962,-0.535686,0.045022,0.1445,-258.371614,-1.644802,72.42674
1.1964,-0.028752,-0.026693,0.045708,0.001236,0.007644,-0.012714,-0.005962,-0.535686,0.045022,0.1445,-258.371614,-1.644802,72.42674
1.2167,-0.028417,-0.025688,0.044296,0.001254,0.00764,-0.012752,-0.005429,-0.535973,0.045405,0.069396,-258.371339,-1.648106,72.423182
1.2365,-0.028541,-0.025843,0.044275,0.001254,0.00764,-0.012786,-0.005592,-0.53563,0.044917,0.069396,-258.371339,-1.648106,72.423182
1.2567,-0.028399,-0.025659,0.044054,0.001255,0.007641,-0.012814,-0.005952,-0.535202,0.044046,-0.005549,-258.371052,-1.651874,72.419658
1.2764,-0.028217,-0.025721,0.045059,0.001272,0.007636,-0.012837,-0.005939,-0.53516,0.044041,-0.005549,-258.371052,-1.651874,72.419658
1.2966,-0.028513,-0.025718,0.044743,0.001286,0.007632,-0.012856,-0.005939,-0.53516,0.044041,-0.005549,-258.371052,-1.651874,72.419658
1.3164,-0.028144,-0.025231,0.044936,0.001298,0.007629,-0.012872,-0.005674,-0.534973,0.044356,-0.080502,-258.370683,-1.651765,72.415148
1.337,-0.028125,-0.0254,0.043868,0.001294,0.00763,-0.012881,-0.005491,-0.534841,0.044548,-0.080502,-258.370683,-1.651765,72.415148
1.3565,-0.027588,-0.02514,0.042365,0.001291,0.007631,-0.012888,-0.005733,-0.534698,0.043515,-0.15565,-258.37023,-1.654406,72.409814
1.3768,-0.027845,-0.025135,0.043475,0.001306,0.007627,-0.012896,-0.005963,-0.534673,0.042454,-0.15565,-258.37023,-1.654406,72.409814
1.3963,-0.027803,-0.025179,0.042095,0.001318,0.007623,-0.012903,-0.005963,-0.534673,0.042454,-0.15565,-258.37023,-1.654406,72.409814
1.4169,-0.027264,-0.024919,0.044372,0.001328,0.00762,-0.012908,-0.0063,-0.534409,0.04156,-0.18405,-258.369712,-1.65385,72.403671
1.4367,-0.027404,-0.024639,0.041584,0.001327,0.007621,-0.012918,-0.00563,-0.534376,0.042628,-0.18405,-258.369712,-1.65385,72.403671
1.4563,-0.026929,-0.024507,0.041609,0.001326,0.007621,-0.012926,-0.00617,-0.533954,0.041173,-0.19591,-258.369172,-1.656265,72.397462
1.4762,-0.026636,-0.024156,0.042251,0.001332,0.007619,-0.01294,-0.005754,-0.534043,0.041548,-0.19591,-258.369172,-1.656265,72.397462
1.4961,-0.026983,-0.024578,0.042129,0.001337,0.007617,-0.012952,-0.005754,-0.534043,0.041548,-0.19591,-258.369172,-1.656265,72.397462
1.5164,-0.026286,-0.024128,0.040396,0.001342,0.007616,-0.012961,-0.005461,-0.533805,0.041589,-0.203683,-258.36863,-1.656039,72.391228
1.5363,-0.026568,-0.024035,0.040872,0.00134,0.007617,-0.012976,-0.00555,-0.533729,0.041036,-0.203683,-258.36863,-1.656039,72.391228
1.5563,-0.026247,-0.023872,0.040767,0.001338,0.007617,-0.012989,-0.005696,-0.533367,0.040462,-0.219942,-258.368083,-1.656961,72.385029
1.5763,-0.026075,-0.024002,0.041393,0.001335,0.007618,-0.013011,-0.005481,-0.533429,0.040719,-0.219942,-258.368083,-1.656961,72.385029
1.5963,-0.026395,-0.023498,0.041183,0.001332,0.007619,-0.01303,-0.005481,-0.533429,0.040719,-0.219942,-258.368083,-1.656961,72.385029
1.617,-0.025901,-0.022839,0.039495,0.00133,0.007619,-0.013046,-0.005355,-0.532746,0.040641,-0.231858,-258.367535,-1.656634,72.378801
1.6365,-0.025808,-0.023246,0.039587,0.001337,0.007616,-0.013071,-0.005517,-0.532585,0.040111,-0.231858,-258.367535,-1.656634,72.378801
1.6562,-0.025371,-0.023089,0.039039,0.001344,0.007614,-0.013091,-0.005591,-0.532604,0.039176,-0.256499,-258.36699,-1.655886,72.372604
1.6761,-0.025359,-0.022671,0.03894,0.001345,0.007614,-0.013121,-0.005476,-0.53268,0.03903,-0.256499,-258.36699,-1.655886,72.372604
1.6964,-0.025424,-0.022469,0.039011,0.001346,0.007613,-0.013145,-0.005476,-0.53268,0.03903,-0.256499,-258.36699,-1.655886,72.372604
1.7165,-0.02487,-0.022255,0.036308,0.001347,0.007613,-0.013165,-0.00549,-0.531761,0.038465,-0.276458,-258.366435,-1.656679,72.366377
1.7365,-0.024817,-0.022222,0.038918,0.001372,0.007604,-0.013197,-0.005836,-0.531789,0.037528,-0.276458,-258.366435,-1.656679,72.366377
1.7568,-0.024356,-0.021995,0.036933,0.001393,0.007597,-0.013224,-0.004941,-0.531596,0.038505,-0.307532,-258.365878,-1.656654,72.360189
1.7766,-0.024752,-0.022117,0.038463,0.001395,0.007596,-0.013257,-0.005471,-0.531631,0.037052,-0.307532,-258.365878,-1.656654,72.360189
1.7966,-0.024302,-0.02217,0.037295,0.001397,0.007596,-0.013284,-0.005471,-0.531631,0.037052,-0.307532,-258.365878,-1.656654,72.360189
1.816,-0.024267,-0.021662,0.037562,0.001399,0.007595,-0.013307,-0.00524,-0.531498,0.036746,-0.331264,-258.365294,-1.65944,72.353952
1.8367,-0.024193,-0.021752,0.036376,0.00139,0.007598,-0.013333,-0.005184,-0.531382,0.037015,-0.331264,-258.365294,-1.65944,72.353952
1.8561,-0.024083,-0.021294,0.036062,0.001383,0.0076,-0.013355,-0.00561,-0.531176,0.03596,-0.363496,-258.364705,-1.659526,72.347734
1.8765,-0.024271,-0.021172,0.03538,0.001404,0.007593,-0.013381,-0.005686,-0.530969,0.036032,-0.363496,-258.364705,-1.659526,72.347734
1.8965,-0.023768,-0.02136,0.037193,0.001421,0.007587,-0.013402,-0.005686,-0.530969,0.036032,-0.363496,-258.364705,-1.659526,72.347734
1.9163,-0.023573,-0.020706,0.035614,0.001435,0.007582,-0.013419,-0.004759,-0.53069,0.036638,-0.382908,-258.364113,-1.658319,72.341454
1.9365,-0.023465,-0.020994,0.036755,0.001421,0.007586,-0.013432,-0.005021,-0.530528,0.036155,-0.382908,-258.364113,-1.658319,72.341454
1.9565,-0.023147,-0.020567,0.035998,0.00141,0.00759,-0.013443,-0.004687,-0.530408,0.03633,-0.404158,-258.363492,-1.661484,72.335149
1.9766,-0.023206,-0.020243,0.035595,0.001393,0.007595,-0.013452,-0.004782,-0.530239,0.036005,-0.404158,-258.363492,-1.661484,72.335149
1.9967,-0.02281,-0.020136,0.036766,0.001378,0.007599,-0.01346,-0.004782,-0.530239,0.036005,-0.404158,-258.363492,-1.661484,72.335149
2.0161,-0.022694,-0.019722,0.035015,0.001366,0.007602,-0.013467,-0.004016,-0.529473,0.036205,-0.414553,-258.362878,-1.659797,72.328829
2.0363,-0.022364,-0.019916,0.036129,0.001345,0.007609,-0.013473,-0.004345,-0.529411,0.035658,-0.414553,-258.362878,-1.659797,72.328829
2.0562,-0.022455,-0.019917,0.034498,0.001326,0.007613,-0.013478,-0.003907,-0.529341,0.035701,-0.42743,-258.362279,-1.656911,72.322493
2.0765,-0.022077,-0.019856,0.034358,0.00133,0.007612,-0.013485,-0.004777,-0.529576,0.034584,-0.42743,-258.362279,-1.656911,72.322493
2.0965,-0.022221,-0.019854,0.034636,0.001333,0.007611,-0.013492,-0.004777,-0.529576,0.034584,-0.42743,-258.362279,-1.656911,72.322493
2.1165,-0.022204,-0.019366,0.032875,0.001336,0.00761,-0.013497,-0.004515,-0.529228,0.034072,-0.435989,-258.361695,-1.654319,72.316141
2.1363,-0.021899,-0.019362,0.035009,0.001348,0.007606,-0.013504,-0.004882,-0.529136,0.033527,-0.435989,-258.361695,-1.654319,72.316141
2.156,-0.02154,-0.018855,0.033059,0.001358,0.007602,-0.013509,-0.004014,-0.528806,0.034578,-0.442762,-258.361104,-1.654859,72.309787
2.1762,-0.02147,-0.01907,0.032343,0.00136,0.007601,-0.013513,-0.004619,-0.528585,0.033178,-0.442762,-258.361104,-1.654859,72.309787
2.1964,-0.021572,-0.018454,0.031762,0.001361,0.0076,-0.013517,-0.004619,-0.528585,0.033178,-0.442762,-258.361104,-1.654859,72.309787
2.2165,-0.021354,-0.018621,0.032275,0.001362,0.0076,-0.01352,-0.005329,-0.527877,0.031196,-0.445277,-258.360502,-1.656239,72.303422
2.2368,-0.020987,-0.018531,0.030217,0.001398,0.007587,-0.013527,-0.005148,-0.528034,0.031568,-0.445277,-258.360502,-1.656239,72.303422
2.2565,-0.020854,-0.018245,0.03086,0.001427,0.007577,-0.013532,-0.005542,-0.528054,0.029786,-0.449834,-258.359897,-1.656491,72.297054
2.2766,-0.020761,-0.018205,0.031917,0.001451,0.007568,-0.013537,-0.005154,-0.527995,0.030742,-0.449834,-258.359897,-1.656491,72.297054
2.2965,-0.020622,-0.01789,0.031566,0.00147,0.007562,-0.013541,-0.005154,-0.527995,0.030742,-0.449834,-258.359897,-1.656491,72.297054
2.3165,-0.020256,-0.017695,0.03007,0.001487,0.007556,-0.013544,-0.004476,-0.527317,0.030999,-0.449296,-258.359264,-1.660622,72.290693
2.3365,-0.020437,-0.017563,0.031387,0.001483,0.007557,-0.013545,-0.004651,-0.52734,0.030557,-0.449296,-258.359264,-1.660622,72.290693
2.3565,-0.019992,-0.017281,0.030447,0.00148,0.007557,-0.013546,-0.004393,-0.52707,0.030956,-0.448913,-258.358602,-1.664442,72.284323
2.3764,-0.019958,-0.017517,0.032101,0.001471,0.007559,-0.013547,-0.004458,-0.527035,0.030469,-0.448913,-258.358602,-1.664442,72.284323
2.3964,-0.0201,-0.01716,0.031023,0.001464,0.007561,-0.013548,-0.004458,-0.527035,0.030469,-0.448913,-258.358602,-1.664442,72.284323
2.4164,-0.01951,-0.016904,0.029511,0.001458,0.007563,-0.013549,-0.004229,-0.526597,0.030457,-0.450699,-258.357946,-1.663999,72.277976
2.4366,-0.019264,-0.016764,0.029153,0.001452,0.007564,-0.01355,-0.004318,-0.526595,0.030005,-0.450699,-258.357946,-1.663999,72.277976
2.4563,-0.019009,-0.016311,0.029119,0.001447,0.007565,-0.013551,-0.004358,-0.526306,0.028722,-0.454599,-258.357297,-1.662601,72.271617
2.4762,-0.019393,-0.016657,0.030581,0.001441,0.007565,-0.013553,-0.004176,-0.526101,0.029061,-0.454599,-258.357297,-1.662601,72.271617
2.4964,-0.018845,-0.016443,0.027735,0.001436,0.007566,-0.013554,-0.004176,-0.526101,0.029061,-0.454599,-258.357297,-1.662601,72.271617
2.5164,-0.018511,-0.015874,0.028234,0.001432,0.007567,-0.013555,-0.004651,-0.525928,0.027168,-0.457289,-258.356653,-1.661857,72.265254
2.5362,-0.018635,-0.016453,0.029433,0.001449,0.00756,-0.013558,-0.004425,-0.525786,0.027538,-0.457289,-258.356653,-1.661857,72.265254
2.5563,-0.018082,-0.015912,0.027852,0.001462,0.007555,-0.01356,-0.003588,-0.52599,0.029002,-0.461289,-258.356009,-1.660956,72.25885
2.5765,-0.01837,-0.016157,0.028111,0.001438,0.007562,-0.013558,-0.003856,-0.525724,0.027917,-0.461289,-258.356009,-1.660956,72.25885
2.5965,-0.0183,-0.015562,0.028446,0.001419,0.007567,-0.013557,-0.003856,-0.525724,0.027917,-0.461289,-258.356009,-1.660956,72.25885
2.6167,-0.018125,-0.015174,0.026861,0.001403,0.007572,-0.013557,-0.003742,-0.525041,0.027883,-0.461476,-258.35536,-1.662831,72.252531
2.6363,-0.017589,-0.015679,0.02747,0.001413,0.007567,-0.013559,-0.004017,-0.524983,0.027399,-0.461476,-258.35536,-1.662831,72.252531
2.6565,-0.017477,-0.014862,0.023865,0.001422,0.007563,-0.013561,-0.003543,-0.525245,0.027039,-0.46743,-258.354732,-1.659089,72.246168
2.6764,-0.017595,-0.014856,0.025533,0.001502,0.007532,-0.013569,-0.005148,-0.524751,0.024124,-0.46743,-258.354732,-1.659089,72.246168
2.6962,-0.017497,-0.01469,0.025754,0.001567,0.007506,-0.013575,-0.005148,-0.524751,0.024124,-0.46743,-258.354732,-1.659089,72.246168
2.7169,-0.016794,-0.014625,0.024602,0.00162,0.007486,-0.013578,-0.004313,-0.524203,0.025187,-0.46828,-258.354095,-1.660274,72.239807
2.7362,-0.017233,-0.014816,0.023688,0.001619,0.007486,-0.013575,-0.004281,-0.524276,0.024882,-0.46828,-258.354095,-1.660274,72.239807
2.7562,-0.016609,-0.014131,0.025274,0.001618,0.007486,-0.013573,-0.005107,-0.524434,0.023257,-0.462036,-258.35337,-1.673134,72.233455
2.7762,-0.016486,-0.014586,0.025454,0.001593,0.007494,-0.013569,-0.003827,-0.523993,0.025096,-0.462036,-258.35337,-1.673134,72.233455
2.7963,-0.016902,-0.014306,0.02516,0.001572,0.0075,-0.013565,-0.003827,-0.523993,0.025096,-0.462036,-258.35337,-1.673134,72.233455
2.8166,-0.016235,-0.013821,0.022969,0.001554,0.007506,-0.013563,-0.004012,-0.523832,0.024594,-0.461132,-258.352651,-1.673033,72.227146
2.8361,-0.016223,-0.013767,0.024074,0.001572,0.007498,-0.013564,-0.004211,-0.523737,0.023872,-0.461132,-258.352651,-1.673033,72.227146
2.8561,-0.01596,-0.01356,0.023688,0.001586,0.007492,-0.013565,-0.003903,-0.523379,0.023642,-0.463955,-258.351952,-1.66893,72.220766
2.8762,-0.015704,-0.0137,0.024669,0.001581,0.007492,-0.013563,-0.00388,-0.523403,0.023665,-0.463955,-258.351952,-1.66893,72.220766
2.8963,-0.015881,-0.013111,0.022905,0.001576,0.007493,-0.013561,-0.00388,-0.523403,0.023665,-0.463955,-258.351952,-1.66893,72.220766
2.9167,-0.015653,-0.012885,0.023696,0.001573,0.007493,-0.01356,-0.004141,-0.522664,0.022339,-0.463391,-258.351247,-1.670965,72.21446
2.9364,-0.015812,-0.012907,0.023616,0.00159,0.007484,-0.01356,-0.00391,-0.522658,0.022805,-0.463391,-258.351247,-1.670965,72.21446
2.956,-0.014799,-0.012605,0.021968,0.001603,0.007477,-0.01356,-0.003724,-0.522524,0.023183,-0.464996,-258.350542,-1.67019,72.208114
2.9762,-0.014929,-0.012498,0.021917,0.001594,0.007477,-0.013556,-0.003606,-0.522474,0.022056,-0.464996,-258.350542,-1.67019,72.208114
2.9963,-0.01479,-0.012767,0.022068,0.001586,0.007478,-0.013553,-0.003606,-0.522474,0.022056,-0.464996,-258.350542,-1.67019,72.208114
3.0161,-0.01416,-0.012472,0.021141,0.00158,0.007478,-0.01355,-0.003476,-0.522327,0.021497,-0.465351,-258.349825,-1.672159,72.201778
3.0369,-0.01457,-0.012151,0.021609,0.001564,0.007481,-0.013546,-0.00343,-0.522304,0.02129,-0.465351,-258.349825,-1.672159,72.201778
3.0561,-0.014075,-0.011628,0.019854,0.001551,0.007484,-0.013542,-0.003504,-0.52179,0.021172,-0.467593,-258.349117,-1.670742,72.195445
3.0761,-0.014107,-0.011905,0.019617,0.001598,0.007461,-0.013541,-0.003907,-0.521539,0.019952,-0.467593,-258.349117,-1.670742,72.195445
3.0961,-0.014019,-0.011851,0.021288,0.001636,0.007443,-0.013539,-0.003907,-0.521539,0.019952,-0.467593,-258.349117,-1.670742,72.195445
3.1172,-0.013574,-0.011592,0.020092,0.001667,0.007429,-0.013536,-0.003104,-0.521421,0.020721,-0.469646,-258.348421,-1.668917,72.189114
3.1368,-0.013612,-0.011422,0.021513,0.001634,0.007437,-0.013529,-0.003188,-0.521413,0.0204,-0.469646,-258.348421,-1.668917,72.189114
3.1565,-0.013046,-0.011028,0.019912,0.001608,0.007444,-0.013524,-0.002593,-0.521066,0.021081,-0.466154,-258.347675,-1.676591,72.182798
3.1765,-0.013111,-0.011086,0.019665,0.001568,0.007453,-0.013516,-0.002864,-0.520928,0.019991,-0.466154,-258.347675,-1.676591,72.182798
3.1964,-0.013114,-0.011209,0.018948,0.001537,0.00746,-0.01351,-0.002864,-0.520928,0.019991,-0.466154,-258.347675,-1.676591,72.182798
3.2162,-0.012811,-0.010758,0.017509,0.001511,0.007466,-0.013506,-0.00339,-0.520805,0.018383,-0.469403,-258.346955,-1.672806,72.176496
3.2362,-0.013007,-0.010664,0.018475,0.00156,0.007443,-0.013493,-0.003584,-0.520718,0.017961,-0.469403,-258.346955,-1.672806,72.176496
3.2561,-0.012395,-0.009909,0.018089,0.001599,0.007425,-0.013482,-0.003541,-0.520338,0.018046,-0.477856,-258.346276,-1.666659,72.170192
3.2762,-0.012347,-0.009893,0.017254,0.001623,0.007408,-0.013472,-0.003202,-0.51986,0.018063,-0.477856,-258.346276,-1.666659,72.170192
3.2961,-0.012306,-0.010522,0.016275,0.001642,0.007395,-0.013464,-0.003202,-0.51986,0.018063,-0.477856,-258.346276,-1.666659,72.170192
3.3162,-0.012132,-0.009811,0.016127,0.001657,0.007384,-0.013457,-0.003945,-0.520143,0.015712,-0.468636,-258.345558,-1.672534,72.163885
3.336,-0.011834,-0.009791,0.017328,0.001729,0.007347,-0.013415,-0.003922,-0.519941,0.015819,-0.468636,-258.345558,-1.672534,72.163885
3.3561,-0.01204,-0.009456,0.017058,0.001787,0.007318,-0.01338,-0.002948,-0.51948,0.016903,-0.466689,-258.344818,-1.676584,72.157633
3.3763,-0.011303,-0.009667,0.016159,0.001798,0.007308,-0.013375,-0.003302,-0.519378,0.017022,-0.466689,-258.344818,-1.676584,72.157633
3.3968,-0.011494,-0.009671,0.017431,0.001807,0.0073,-0.01337,-0.003302,-0.519378,0.017022,-0.466689,-258.344818,-1.676584,72.157633
3.4167,-0.011271,-0.009497,0.015765,0.001815,0.007293,-0.013366,-0.002535,-0.519286,0.016872,-0.445866,-258.344029,-1.68564,72.151418
3.4364,-0.011107,-0.008868,0.015411,0.001768,0.007305,-0.013343,-0.002812,-0.519312,0.016355,-0.445866,-258.344029,-1.68564,72.151418
3.4562,-0.010558,-0.008681,0.014456,0.001731,0.007314,-0.013325,-0.003194,-0.518576,0.014989,-0.447244,-258.343226,-1.687665,72.14521
3.4763,-0.010947,-0.008796,0.01638,0.001763,0.007285,-0.013248,-0.003184,-0.518612,0.01448,-0.447244,-258.343226,-1.687665,72.14521
3.4963,-0.010765,-0.008897,0.014965,0.001788,0.007263,-0.013188,-0.003184,-0.518612,0.01448,-0.447244,-258.343226,-1.687665,72.14521
3.5162,-0.010479,-0.008297,0.015253,0.001808,0.007244,-0.01314,-0.003065,-0.518533,0.014408,-0.44427,-258.34246,-1.68238,72.138998
3.5366,-0.010261,-0.008953,0.014659,0.001802,0.007236,-0.013111,-0.002908,-0.518377,0.01469,-0.44427,-258.34246,-1.68238,72.138998
3.5562,-0.010096,-0.007994,0.014688,0.001797,0.00723,-0.013088,-0.002732,-0.518673,0.014251,-0.407907,-258.341689,-1.688627,72.13298
3.5761,-0.009722,-0.008147,0.01415,0.001773,0.007226,-0.013064,-0.002614,-0.517991,0.01463,-0.407907,-258.341689,-1.688627,72.13298
3.5963,-0.00974,-0.007973,0.013039,0.001753,0.007223,-0.013045,-0.002614,-0.517991,0.01463,-0.407907,-258.341689,-1.688627,72.13298
3.6162,-0.009758,-0.007822,0.012553,0.001737,0.00722,-0.013031,-0.003019,-0.517627,0.012493,-0.40184,-258.340909,-1.688303,72.12685
3.6371,-0.009514,-0.007627,0.012058,0.001798,0.007171,-0.012877,-0.00315,-0.517656,0.012455,-0.40184,-258.340909,-1.688303,72.12685
3.6562,-0.009192,-0.007637,0.012198,0.001846,0.007132,-0.012761,-0.003312,-0.51736,0.011645,-0.402174,-258.340155,-1.684726,72.120746
3.6761,-0.009285,-0.007229,0.011137,0.001869,0.007105,-0.012638,-0.002998,-0.517567,0.01213,-0.402174,-258.340155,-1.684726,72.120746
3.6965,-0.009185,-0.007465,0.012506,0.001887,0.007083,-0.012546,-0.002998,-0.517567,0.01213,-0.402174,-258.340155,-1.684726,72.120746
3.7166,-0.008422,-0.006969,0.011641,0.001902,0.007065,-0.012477,-0.002737,-0.517141,0.012,-0.344143,-258.339413,-1.693855,72.115059
3.7366,-0.008577,-0.006851,0.011668,0.001889,0.007048,-0.012387,-0.002628,-0.517025,0.011797,-0.344143,-258.339413,-1.693855,72.115059
3.7563,-0.008569,-0.007217,0.01087,0.001879,0.007033,-0.012319,-0.002571,-0.516603,0.011293,-0.283902,-258.338665,-1.69957,72.109464
3.7764,-0.007953,-0.006526,0.012954,0.001911,0.007006,-0.012163,-0.002984,-0.517127,0.010888,-0.283902,-258.338665,-1.69957,72.109464
3.7967,-0.008355,-0.00649,0.011807,0.001937,0.006983,-0.012048,-0.002984,-0.517127,0.010888,-0.283902,-258.338665,-1.69957,72.109464
3.8165,-0.008004,-0.006019,0.01134,0.001957,0.006965,-0.011963,-0.002259,-0.516163,0.011298,-0.255373,-258.337899,-1.699172,72.103678
3.8365,-0.007995,-0.006234,0.011469,0.001918,0.006937,-0.011938,-0.002235,-0.516058,0.011257,-0.255373,-258.337899,-1.699172,72.103678
3.8563,-0.007456,-0.006235,0.011162,0.001886,0.006914,-0.01192,-0.002093,-0.516002,0.011128,-0.180489,-258.337187,-1.707069,72.098516
3.8761,-0.007669,-0.005923,0.01176,0.001777,0.006924,-0.011879,-0.00179,-0.516175,0.011142,-0.180489,-258.337187,-1.707069,72.098516
3.8961,-0.007409,-0.005725,0.010999,0.001692,0.006931,-0.01185,-0.00179,-0.516175,0.011142,-0.180489,-258.337187,-1.707069,72.098516
3.9163,-0.007009,-0.005696,0.009507,0.001625,0.006935,-0.01183,-0.001724,-0.515405,0.010502,-0.191764,-258.336419,-1.702876,72.092794
3.9362,-0.00726,-0.005839,0.007678,0.001621,0.006886,-0.011669,-0.001896,-0.515482,0.010033,-0.191764,-258.336419,-1.702876,72.092794
3.9562,-0.006754,-0.005299,0.008094,0.001616,0.006847,-0.011553,-0.003295,-0.515605,0.007305,-0.17689,-258.335766,-1.685052,72.08715
3.9762,-0.006669,-0.005626,0.009061,0.001754,0.006754,-0.011064,-0.002685,-0.5153,0.008003,-0.17689,-258.335766,-1.685052,72.08715
3.9962,-0.006796,-0.005698,0.008839,0.001864,0.006682,-0.010726,-0.002685,-0.5153,0.008003,-0.17689,-258.335766,-1.685052,72.08715
4.0166,-0.006237,-0.004801,0.009041,0.00195,0.006625,-0.010491,-0.002226,-0.515402,0.008374,-0.128733,-258.335138,-1.686527,72.081756
4.0366,-0.006365,-0.004586,0.008269,0.001905,0.006609,-0.010442,-0.001976,-0.515119,0.008589,-0.128733,-258.335138,-1.686527,72.081756
4.0562,-0.005975,-0.004719,0.00809,0.001869,0.006595,-0.01041,-0.002124,-0.514489,0.008136,-0.053737,-258.334833,-1.719349,72.079711
4.0764,-0.006453,-0.005246,0.008186,0.001843,0.006549,-0.010271,-0.001872,-0.514679,0.008087,-0.053737,-258.334833,-1.719349,72.079711
4.0962,-0.006383,-0.004676,0.006409,0.001822,0.006512,-0.010173,-0.001872,-0.514679,0.008087,-0.053737,-258.334833,-1.719349,72.079711
4.1164,-0.005992,-0.004539,0.007985,0.001806,0.006482,-0.010105,-0.003069,-0.514503,0.006146,0.021262,-258.334385,-1.71409,72.076597
4.1368,-0.005627,-0.004659,0.006752,0.001934,0.006394,-0.00976,-0.002596,-0.514493,0.006864,0.021262,-258.334385,-1.71409,72.076597
4.1564,-0.005869,-0.004457,0.00675,0.002036,0.006324,-0.00952,-0.002144,-0.514504,0.006524,0.09626,-258.333871,-1.712571,72.073012
4.1769,-0.005981,-0.004967,0.006851,0.002082,0.006281,-0.009305,-0.0024,-0.514444,0.00672,0.09626,-258.333871,-1.712571,72.073012
4.1967,-0.005575,-0.004526,0.008996,0.00212,0.006246,-0.009156,-0.0024,-0.514444,0.00672,0.09626,-258.333871,-1.712571,72.073012
4.2167,-0.005585,-0.004201,0.007133,0.002151,0.006218,-0.009052,-0.000929,-0.514324,0.008717,0.171434,-258.33329,-1.736954,72.069603
4.2363,-0.005709,-0.004075,0.007365,0.001959,0.006232,-0.009247,-0.001341,-0.514247,0.008033,0.171434,-258.33329,-1.736954,72.069603
4.2561,-0.005871,-0.004134,0.008193,0.001812,0.006241,-0.009391,-0.001953,-0.514061,0.007365,0.246436,-258.33329,-1.661952,72.069603
4.2769,-0.00566,-0.004406,0.009019,0.001793,0.006215,-0.00951,-0.001717,-0.514112,0.008115,0.246436,-258.33329,-1.661952,72.069603
4.2965,-0.005882,-0.003982,0.007035,0.001778,0.006194,-0.009594,-0.001717,-0.514112,0.008115,0.246436,-258.33329,-1.661952,72.069603
4.316,-0.005194,-0.00406,0.008182,0.001765,0.006178,-0.009652,-0.00224,-0.51383,0.00684,0.272294,-258.332585,-1.720959,72.067108
4.3366,-0.005333,-0.004157,0.006036,0.001769,0.006139,-0.009517,-0.001737,-0.513901,0.007364,0.272294,-258.332585,-1.720959,72.067108
4.356,-0.005185,-0.003739,0.007037,0.001772,0.00611,-0.009418,-0.00221,-0.513986,0.005787,0.197323,-258.332004,-1.715946,72.063142
4.3763,-0.005415,-0.004027,0.005714,0.00176,0.006071,-0.009226,-0.00165,-0.513741,0.00691,0.197323,-258.332004,-1.715946,72.063142
4.3964,-0.005289,-0.003333,0.007139,0.001751,0.00604,-0.009089,-0.00165,-0.513741,0.00691,0.197323,-258.332004,-1.715946,72.063142
4.4168,-0.0048,-0.003296,0.006974,0.001744,0.006015,-0.008991,-0.001576,-0.513064,0.006744,0.199054,-258.331282,-1.719069,72.058345
4.4366,-0.004666,-0.003465,0.007014,0.001717,0.005905,-0.008871,-0.001435,-0.513122,0.00679,0.199054,-258.331282,-1.719069,72.058345
4.456,-0.004547,-0.00312,0.00551,0.001696,0.00582,-0.008787,-0.001041,-0.513286,0.006763,0.274059,-258.330646,-1.721247,72.054286
4.4762,-0.0045,-0.003197,0.005665,0.001729,0.005748,-0.008397,-0.001671,-0.513119,0.005611,0.274059,-258.330646,-1.721247,72.054286
4.4966,-0.004472,-0.003109,0.006351,0.001755,0.005691,-0.008128,-0.001671,-0.513119,0.005611,0.274059,-258.330646,-1.721247,72.054286
4.5161,-0.004211,-0.003387,0.003208,0.001777,0.005646,-0.007945,-0.001163,-0.512854,0.005982,0.261349,-258.329946,-1.721278,72.049773
4.5367,-0.004276,-0.002919,0.005251,0.001801,0.0056,-0.007563,-0.001717,-0.513038,0.004836,0.261349,-258.329946,-1.721278,72.049773
4.5564,-0.004253,-0.002667,0.005981,0.001821,0.005562,-0.007304,-0.00156,-0.512794,0.005081,0.336302,-258.32943,-1.738453,72.046949
4.5764,-0.003899,-0.002781,0.004259,0.001735,0.005476,-0.007428,-0.001233,-0.512664,0.005891,0.336302,-258.32943,-1.738453,72.046949
4.5962,-0.004013,-0.002915,0.005082,0.00167,0.00541,-0.00752,-0.001233,-0.512664,0.005891,0.336302,-258.32943,-1.738453,72.046949
4.6164,-0.003742,-0.003149,0.004491,0.001621,0.005358,-0.007587,-0.001421,-0.512909,0.005082,0.411305,-258.32943,-1.66345,72.04695
4.6369,-0.004135,-0.002545,0.005511,0.001609,0.005385,-0.007324,-0.001433,-0.513004,0.004842,0.411305,-258.32943,-1.66345,72.04695
4.6562,-0.0038,-0.00255,0.00404,0.001603,0.005403,-0.007144,-0.001285,-0.512429,0.005368,0.420376,-258.328772,-1.731582,72.04445
4.6764,-0.003836,-0.00299,0.00528,0.001687,0.005312,-0.006769,-0.001697,-0.51253,0.004152,0.420376,-258.328772,-1.731582,72.04445
4.697,-0.003986,-0.00262,0.004251,0.001752,0.005241,-0.006513,-0.001697,-0.51253,0.004152,0.420376,-258.328772,-1.731582,72.04445
4.716,-0.003554,-0.002404,0.002659,0.001804,0.005186,-0.00634,-0.001772,-0.512464,0.004045,0.495368,-258.328253,-1.733471,72.041762
4.7362,-0.003774,-0.002429,0.004029,0.001902,0.005109,-0.005956,-0.00194,-0.512421,0.003456,0.495368,-258.328253,-1.733471,72.041762
4.756,-0.003662,-0.002322,0.004398,0.00198,0.005049,-0.005696,-0.001719,-0.512425,0.004029,0.570375,-258.328253,-1.658464,72.041762
4.7763,-0.003731,-0.002709,0.002778,0.001927,0.005004,-0.005842,-0.001445,-0.512326,0.004367,0.570375,-258.328253,-1.658464,72.041762
4.7962,-0.003573,-0.002773,0.004637,0.001887,0.004969,-0.005946,-0.001445,-0.512326,0.004367,0.570375,-258.328253,-1.658464,72.041762
4.8164,-0.003757,-0.002487,0.005044,0.001856,0.004941,-0.006021,-0.001208,-0.512768,0.004637,0.645546,-258.328252,-1.583294,72.041762
4.8369,-0.003373,-0.002664,0.006753,0.001766,0.005001,-0.006222,-0.001198,-0.512651,0.004803,0.645546,-258.328252,-1.583294,72.041762
4.8562,-0.003605,-0.002603,0.004831,0.001697,0.005047,-0.006362,7.1e-05,-0.512653,0.006753,0.59808,-258.328252,-1.508468,72.041763
4.8769,-0.003536,-0.001917,0.005544,0.001599,0.005084,-0.006511,-0.001035,-0.512602,0.004998,0.59808,-258.328252,-1.508468,72.041763
4.8968,-0.00361,-0.002715,0.004208,0.001524,0.005112,-0.006614,-0.001035,-0.512602,0.004998,0.59808,-258.328252,-1.508468,72.041763
4.9166,-0.003669,-0.002469,0.005511,0.001467,0.005135,-0.006685,-0.001464,-0.512711,0.004208,0.600142,-258.328252,-1.433379,72.041763
4.9363,-0.00377,-0.002177,0.004563,0.001473,0.005152,-0.006651,-0.001224,-0.512612,0.004725,0.600142,-258.328252,-1.433379,72.041763
4.9563,-0.003482,-0.002661,0.004357,0.001477,0.005166,-0.006623,-0.00144,-0.512132,0.004511,0.622037,-258.328078,-1.508293,72.040863
4.9763,-0.003818,-0.002161,0.004074,0.00149,0.005179,-0.006482,-0.001276,-0.512606,0.004369,0.622037,-258.328078,-1.508293,72.040863
4.997,-0.003519,-0.002688,0.00454,0.0015,0.005189,-0.00638,-0.001276,-0.512606,0.004369,0.622037,-258.328078,-1.508293,72.040863
5.0169,-0.003768,-0.002179,0.004268,0.001509,0.005196,-0.006307,-0.001189,-0.512585,0.004414,0.648997,-258.327744,-1.583299,72.03918
5.0364,-0.003618,-0.002382,0.004772,0.001549,0.005158,-0.006239,-0.001359,-0.512399,0.004338,0.648997,-258.327744,-1.583299,72.03918
5.0562,-0.003376,-0.002088,0.004529,0.00158,0.005128,-0.006189,-0.001162,-0.512273,0.004645,0.724543,-258.327243,-1.658845,72.036909
5.0764,-0.003421,-0.002292,0.00393,0.001534,0.005048,-0.006196,-0.001074,-0.512094,0.004533,0.724543,-258.327243,-1.658845,72.036909
5.0969,-0.003327,-0.002003,0.004923,0.001499,0.004988,-0.006199,-0.001074,-0.512094,0.004533,0.724543,-258.327243,-1.658845,72.036909
5.1161,-0.003944,-0.00226,0.006187,0.001472,0.004942,-0.006201,-0.000816,-0.511997,0.004923,0.706341,-258.327243,-1.584238,72.036909
5.1365,-0.003391,-0.001785,0.003803,0.001372,0.004914,-0.00646,-0.000805,-0.5121,0.005438,0.706341,-258.327243,-1.584238,72.036909
5.1562,-0.003016,-0.001961,0.003384,0.001295,0.004893,-0.006643,-0.001428,-0.511675,0.00367,0.665111,-258.326744,-1.659083,72.034548
5.1763,-0.002863,-0.002035,0.004139,0.001373,0.004827,-0.006085,-0.001301,-0.511929,0.003402,0.665111,-258.326744,-1.659083,72.034548
5.197,-0.003424,-0.001915,0.00474,0.001435,0.004775,-0.005704,-0.001301,-0.511929,0.003402,0.665111,-258.326744,-1.659083,72.034548
5.2161,-0.002955,-0.001417,0.002725,0.001485,0.004734,-0.005444,-0.000963,-0.511737,0.004507,0.589993,-258.326232,-1.714449,72.031541
5.2361,-0.002911,-0.00177,0.004281,0.001515,0.004608,-0.005393,-0.001196,-0.511591,0.003778,0.589993,-258.326232,-1.714449,72.031541
5.2563,-0.002675,-0.001804,0.002164,0.001538,0.004513,-0.005361,-0.000728,-0.511765,0.004281,0.664868,-258.326232,-1.639575,72.031541
5.2765,-0.003025,-0.001699,0.002821,0.001608,0.004498,-0.004768,-0.001495,-0.5118,0.002355,0.664868,-258.326232,-1.639575,72.031541
5.2968,-0.002966,-0.001496,0.002214,0.001667,0.004483,-0.004365,-0.001495,-0.5118,0.002355,0.664868,-258.326232,-1.639575,72.031541
5.316,-0.003101,-0.001505,0.00359,0.001716,0.004469,-0.004092,-0.001836,-0.511494,0.002214,0.678188,-258.326232,-1.564563,72.031541
5.3366,-0.003222,-0.0017,0.003107,0.001814,0.00436,-0.004082,-0.001607,-0.511497,0.002771,0.678188,-258.326232,-1.564563,72.031541
5.3563,-0.002943,-0.001791,0.003604,0.001888,0.004277,-0.004079,-0.001637,-0.511698,0.003107,0.753172,-258.326232,-1.489578,72.031541
5.3764,-0.003311,-0.001523,0.00195,0.001803,0.004311,-0.004386,-0.001152,-0.51178,0.00356,0.753172,-258.326232,-1.489578,72.031541
5.3966,-0.003076,-0.001728,0.004578,0.001738,0.004338,-0.004602,-0.001152,-0.51178,0.00356,0.753172,-258.326232,-1.489578,72.031541
5.4165,-0.003201,-0.001693,0.003654,0.001687,0.004359,-0.004754,-0.000741,-0.511722,0.004578,0.757284,-258.326231,-1.414576,72.031542
5.4362,-0.002983,-0.001574,0.003474,0.001604,0.00436,-0.005076,-0.000984,-0.511709,0.004203,0.757284,-258.326231,-1.414576,72.031542
5.4563,-0.00313,-0.00202,0.002154,0.00154,0.004361,-0.005302,-0.001212,-0.51157,0.003474,0.711681,-258.326231,-1.339572,72.031542
5.476,-0.003106,-0.001491,0.003455,0.001716,0.004392,-0.004727,-0.001959,-0.51198,0.00227,0.711681,-258.326231,-1.339572,72.031542
5.4962,-0.003009,-0.001739,0.004692,0.001858,0.004415,-0.004333,-0.001959,-0.51198,0.00227,0.711681,-258.326231,-1.339572,72.031542
5.5171,-0.003012,-0.001629,0.004353,0.001972,0.004432,-0.004064,-0.000615,-0.511733,0.004692,0.636572,-258.326231,-1.264463,72.031542
5.5361,-0.002846,-0.00154,0.004368,0.001715,0.004421,-0.004675,-0.000688,-0.511689,0.004553,0.636572,-258.326231,-1.264463,72.031542
5.5567,-0.003235,-0.001625,0.005077,0.001522,0.004414,-0.005111,-0.000618,-0.511535,0.004368,0.711475,-258.326231,-1.189559,72.031542
5.5762,-0.002735,-0.001591,0.0041,0.0,0.0,0.0,-0.000643,-0.511611,0.005013,0.711475,-258.326231,-1.189559,72.031542
5.5962,-0.002978,-0.001591,0.004168,0.0,0.0,0.0,-0.000643,-0.511611,0.005013,0.711475,-258.326231,-1.189559,72.031542
5.616,-0.003243,-0.001643,0.004489,0.0,0.0,0.0,-0.000852,-0.511587,0.004169,0.703745,-258.326231,-1.114579,72.031543
5.6361,-0.002766,-0.001484,0.004252,0.0,0.0,0.0,-0.000894,-0.511608,0.004299,0.703745,-258.326231,-1.114579,72.031543
5.6563,-0.002995,-0.001754,0.0042,0.0,0.0,0.0,-0.000597,-0.511479,0.004252,0.703745,-258.326231,-1.114579,72.031543
5.6764,-0.002779,-0.001232,0.002912,0.0,0.0,0.0,-0.000832,-0.511727,0.004204,0.703745,-258.326231,-1.114579,72.031543
5.6962,-0.003085,-0.001454,0.003977,0.0,0.0,0.0,-0.000832,-0.511727,0.004204,0.703745,-258.326231,-1.114579,72.031543
5.7163,-0.002921,-0.001639,0.00538,0.0,0.0,0.0,-0.001057,-0.51145,0.003977,0.703745,-258.326231,-1.114579,72.031543
5.7365,-0.003482,-0.001542,0.004643,0.0,0.0,0.0,-0.000697,-0.511524,0.004551,0.703745,-258.326231,-1.114579,72.031543
5.7562,-0.003073,-0.001971,0.004293,0.0,0.0,0.0,-0.001114,-0.511537,0.004643,0.703745,-258.326231,-1.114579,72.031543
5.7766,-0.003154,-0.001844,0.005186,0.0,0.0,0.0,-0.000902,-0.511932,0.004321,0.703745,-258.326231,-1.114579,72.031543
5.7963,-0.002802,-0.001845,0.002737,0.0,0.0,0.0,-0.000902,-0.511932,0.004321,0.703745,-258.326231,-1.114579,72.031543
5.8163,-0.003037,-0.001714,0.003578,0.0,0.0,0.0,-0.001406,-0.511843,0.002737,0.703745,-258.326231,-1.114579,72.031543
5.8367,-0.002979,-0.001587,0.003948,0.0,0.0,0.0,-0.001326,-0.511789,0.003082,0.703745,-258.326231,-1.114579,72.031543
5.856,-0.002908,-0.001479,0.005161,0.0,0.0,0.0,-0.000966,-0.511583,0.003948,0.703745,-258.326231,-1.114579,72.031543
5.8761,-0.003067,-0.001867,0.00357,0.0,0.0,0.0,-0.000338,-0.511482,0.005051,0.703745,-258.326231,-1.114579,72.031543
5.8964,-0.003166,-0.001784,0.003239,0.0,0.0,0.0,-0.000338,-0.511482,0.005051,0.703745,-258.326231,-1.114579,72.031543
5.9162,-0.003104,-0.001335,0.005536,0.0,0.0,0.0,-0.001514,-0.511781,0.003239,0.703745,-258.326231,-1.114579,72.031543
5.9365,-0.003003,-0.001661,0.003579,0.0,0.0,0.0,-0.00101,-0.511595,0.004178,0.703745,-258.326231,-1.114579,72.031543
5.9563,-0.003246,-0.001852,0.003686,0.0,0.0,0.0,-0.001177,-0.511658,0.003579,0.703745,-258.326231,-1.114579,72.031543
5.9766,-0.002961,-0.001393,0.004769,0.0,0.0,0.0,-0.00135,-0.511831,0.003676,0.703745,-258.326231,-1.114579,72.031543
5.9963,-0.003113,-0.001754,0.003738,0.0,0.0,0.0,-0.00135,-0.511831,0.003676,0.703745,-258.326231,-1.114579,72.031543
6.0163,-0.002966,-0.001436,0.002912,0.0,0.0,0.0,-0.001207,-0.51175,0.003738,0.703745,-258.326231,-1.114579,72.031543
6.0367,-0.003309,-0.001827,0.002625,0.0,0.0,0.0,-0.001318,-0.511622,0.003402,0.703745,-258.326231,-1.114579,72.031543
6.0564,-0.003593,-0.001882,0.005728,0.0,0.0,0.0,-0.001971,-0.511825,0.002625,0.703745,-258.326231,-1.114579,72.031543
6.0764,-0.003296,-0.001882,0.003938,0.0,0.0,0.0,-0.000791,-0.511869,0.005441,0.703745,-258.326231,-1.114579,72.031543
6.0964,-0.003312,-0.001706,0.004235,0.0,0.0,0.0,-0.000791,-0.511869,0.005441,0.703745,-258.326231,-1.114579,72.031543
6.1166,-0.002912,-0.002058,0.004299,0.0,0.0,0.0,-0.001153,-0.511701,0.004235,0.703745,-258.326231,-1.114579,72.031543
6.1362,-0.0029,-0.001484,0.004354,0.0,0.0,0.0,-0.000979,-0.511843,0.00426,0.703745,-258.326231,-1.114579,72.031543
6.1565,-0.00323,-0.001698,0.003317,0.0,0.0,0.0,-0.00068,-0.511479,0.004354,0.703745,-258.326231,-1.114579,72.031543
6.1764,-0.00301,-0.0018,0.002282,0.0,0.0,0.0,-0.001463,-0.511676,0.003408,0.703745,-258.326231,-1.114579,72.031543
6.1964,-0.003311,-0.001556,0.004576,0.0,0.0,0.0,-0.001463,-0.511676,0.003408,0.703745,-258.326231,-1.114579,72.031543
6.2167,-0.003332,-0.001468,0.004527,0.0,0.0,0.0,-0.000977,-0.51155,0.004576,0.703745,-258.326231,-1.114579,72.031543
6.2364,-0.003,-0.001746,0.003729,0.0,0.0,0.0,-0.000996,-0.511514,0.004556,0.703745,-258.326231,-1.114579,72.031543
6.2566,-0.003086,-0.001266,0.003781,0.0,0.0,0.0,-0.001098,-0.511743,0.003729,0.703745,-258.326231,-1.114579,72.031543
6.2762,-0.003125,-0.001452,0.003574,0.0,0.0,0.0,-0.001152,-0.511305,0.003776,0.703745,-258.326231,-1.114579,72.031543
6.2963,-0.002938,-0.001551,0.004149,0.0,0.0,0.0,-0.001152,-0.511305,0.003776,0.703745,-258.326231,-1.114579,72.031543
6.3166,-0.003134,-0.001762,0.00473,0.0,0.0,0.0,-0.000822,-0.511547,0.004149,0.703745,-258.326231,-1.114579,72.031543
6.3367,-0.003136,-0.001565,0.004605,0.0,0.0,0.0,-0.000781,-0.511632,0.004386,0.703745,-258.326231,-1.114579,72.031543
6.3564,-0.002647,-0.001465,0.003863,0.0,0.0,0.0,-0.000787,-0.51156,0.004605,0.703745,-258.326231,-1.114579,72.031543
6.3761,-0.003226,-0.002172,0.003029,0.0,0.0,0.0,-0.000686,-0.51147,0.003928,0.703745,-258.326231,-1.114579,72.031543
6.3962,-0.003139,-0.001728,0.002081,0.0,0.0,0.0,-0.000686,-0.51147,0.003928,0.703745,-258.326231,-1.114579,72.031543
6.4169,-0.003266,-0.001571,0.003459,0.0,0.0,0.0,-0.002078,-0.511727,0.002081,0.703745,-258.326231,-1.114579,72.031543
6.4366,-0.003201,-0.001647,0.003939,0.0,0.0,0.0,-0.001842,-0.511662,0.002646,0.703745,-258.326231,-1.114579,72.031543
6.4568,-0.003397,-0.001995,0.004296,0.0,0.0,0.0,-0.001192,-0.511644,0.003939,0.703745,-258.326231,-1.114579,72.031543
6.4765,-0.003092,-0.001514,0.003625,0.0,0.0,0.0,-0.001205,-0.511955,0.004259,0.703745,-258.326231,-1.114579,72.031543
6.4966,-0.003233,-0.001722,0.004438,0.0,0.0,0.0,-0.001205,-0.511955,0.004259,0.703745,-258.326231,-1.114579,72.031543
6.5163,-0.003206,-0.001764,0.003588,0.0,0.0,0.0,-0.00097,-0.511717,0.004438,0.703745,-258.326231,-1.114579,72.031543
6.5364,-0.002966,-0.001908,0.00384,0.0,0.0,0.0,-0.001138,-0.511735,0.004085,0.703745,-258.326231,-1.114579,72.031543
6.5564,-0.002873,-0.001643,0.00414,0.0,0.0,0.0,-0.001007,-0.511904,0.00384,0.703745,-258.326231,-1.114579,72.031543
6.5761,-0.003088,-0.001676,0.00536,0.0,0.0,0.0,-0.000783,-0.511662,0.004113,0.703745,-258.326231,-1.114579,72.031543
6.5965,-0.002908,-0.001581,0.003628,0.0,0.0,0.0,-0.000783,-0.511662,0.004113,0.703745,-258.326231,-1.114579,72.031543
6.6165,-0.003148,-0.001952,0.003209,0.0,0.0,0.0,-0.001058,-0.511577,0.003628,0.703745,-258.326231,-1.114579,72.031543
6.6362,-0.003245,-0.001756,0.003769,0.0,0.0,0.0,-0.001244,-0.51173,0.003456,0.703745,-258.326231,-1.114579,72.031543
6.6565,-0.00291,-0.001797,0.00489,0.0,0.0,0.0,-0.001323,-0.511752,0.003769,0.703745,-258.326231,-1.114579,72.031543
6.6762,-0.002964,-0.001784,0.003611,0.0,0.0,0.0,-0.000495,-0.511787,0.004793,0.703745,-258.326231,-1.114579,72.031543
6.6962,-0.003448,-0.001895,0.005086,0.0,0.0,0.0,-0.000495,-0.511787,0.004793,0.703745,-258.326231,-1.114579,72.031543
6.7167,-0.002945,-0.001687,0.005366,0.0,0.0,0.0,-0.000854,-0.511888,0.005086,0.703745,-258.326231,-1.114579,72.031543
6.7365,-0.003412,-0.001486,0.00479,0.0,0.0,0.0,-0.000591,-0.511804,0.0052,0.703745,-258.326231,-1.114579,72.031543
6.7565,-0.003091,-0.001988,0.004369,0.0,0.0,0.0,-0.000969,-0.51148,0.00479,0.703745,-258.326231,-1.114579,72.031543
6.7762,-0.002987,-0.001967,0.004377,0.0,0.0,0.0,-0.000872,-0.511939,0.004405,0.703745,-258.326231,-1.114579,72.031543
6.7965,-0.00272,-0.001421,0.003888,0.0,0.0,0.0,-0.000872,-0.511939,0.004405,0.703745,-258.326231,-1.114579,72.031543
6.8164,-0.003067,-0.001264,0.004192,0.0,0.0,0.0,-0.000736,-0.511417,0.003888,0.703745,-258.326231,-1.114579,72.031543
6.8364,-0.002763,-0.001568,0.003292,0.0,0.0,0.0,-0.000816,-0.511352,0.004013,0.703745,-258.326231,-1.114579,72.031543
6.8561,-0.003157,-0.001928,0.003094,0.0,0.0,0.0,-0.001084,-0.511565,0.003292,0.703745,-258.326231,-1.114579,72.031543
6.8764,-0.003143,-0.001666,0.002588,0.0,0.0,0.0,-0.001537,-0.511895,0.003111,0.703745,-258.326231,-1.114579,72.031543
6.8962,-0.003417,-0.001736,0.004769,0.0,0.0,0.0,-0.001537,-0.511895,0.003111,0.703745,-258.326231,-1.114579,72.031543
6.9162,-0.003075,-0.00168,0.003065,0.0,0.0,0.0,-0.000985,-0.51173,0.004769,0.703745,-258.326231,-1.114579,72.031543
6.9364,-0.00293,-0.001684,0.00306,0.0,0.0,0.0,-0.001203,-0.511709,0.004065,0.703745,-258.326231,-1.114579,72.031543
6.956,-0.003015,-0.001397,0.003906,0.0,0.0,0.0,-0.001369,-0.511682,0.00306,0.703745,-258.326231,-1.114579,72.031543
6.9766,-0.003451,-0.001784,0.004419,0.0,0.0,0.0,-0.00105,-0.511416,0.003839,0.703745,-258.326231,-1.114579,72.031543
6.9961,-0.003327,-0.001775,0.00364,0.0,0.0,0.0,-0.00105,-0.511416,0.003839,0.703745,-258.326231,-1.114579,72.031543
7.0164,-0.003061,-0.001763,0.001573,0.0,0.0,0.0,-0.001471,-0.511771,0.00364,0.703745,-258.326231,-1.114579,72.031543
7.036,-0.003496,-0.001797,0.005323,0.0,0.0,0.0,-0.001794,-0.511768,0.002793,0.703745,-258.326231,-1.114579,72.031543
7.056,-0.003217,-0.001402,0.004878,0.0,0.0,0.0,-0.000781,-0.511789,0.005323,0.703745,-258.326231,-1.114579,72.031543
7.0762,-0.003012,-0.001517,0.004643,0.0,0.0,0.0,-0.000734,-0.511432,0.004918,0.703745,-258.326231,-1.114579,72.031543
7.0965,-0.003407,-0.001676,0.003615,0.0,0.0,0.0,-0.000734,-0.511432,0.004918,0.703745,-258.326231,-1.114579,72.031543
7.1164,-0.003206,-0.001825,0.003744,0.0,0.0,0.0,-0.001563,-0.511673,0.003615,0.703745,-258.326231,-1.114579,72.031543
7.1364,-0.003312,-0.00175,0.002988,0.0,0.0,0.0,-0.001453,-0.511734,0.003669,0.703745,-258.326231,-1.114579,72.031543
7.1561,-0.003421,-0.001987,0.00376,0.0,0.0,0.0,-0.001788,-0.511747,0.002988,0.703745,-258.326231,-1.114579,72.031543
7.1766,-0.002953,-0.001668,0.004371,0.0,0.0,0.0,-0.001528,-0.511963,0.003693,0.703745,-258.326231,-1.114579,72.031543
7.1961,-0.003033,-0.001742,0.003537,0.0,0.0,0.0,-0.001528,-0.511963,0.003693,0.703745,-258.326231,-1.114579,72.031543
7.2162,-0.003033,-0.001756,0.004312,0.0,0.0,0.0,-0.001229,-0.511739,0.003537,0.703745,-258.326231,-1.114579,72.031543
7.2363,-0.002955,-0.001864,0.004131,0.0,0.0,0.0,-0.001067,-0.511744,0.003855,0.703745,-258.326231,-1.114579,72.031543
7.2559,-0.002802,-0.00179,0.003133,0.0,0.0,0.0,-0.000848,-0.511859,0.004131,0.703745,-258.326231,-1.114579,72.031543
7.2762,-0.00298,-0.001748,0.003375,0.0,0.0,0.0,-0.001174,-0.511793,0.003219,0.703745,-258.326231,-1.114579,72.031543
7.2963,-0.003325,-0.001764,0.003556,0.0,0.0,0.0,-0.001174,-0.511793,0.003219,0.703745,-258.326231,-1.114579,72.031543
7.3164,-0.00302,-0.001557,0.002051,0.0,0.0,0.0,-0.001511,-0.511761,0.003556,0.703745,-258.326231,-1.114579,72.031543
7.3367,-0.003024,-0.001423,0.004022,0.0,0.0,0.0,-0.0017,-0.511677,0.002943,0.703745,-258.326231,-1.114579,72.031543
7.356,-0.003206,-0.001485,0.00342,0.0,0.0,0.0,-0.000973,-0.511419,0.004022,0.703745,-258.326231,-1.114579,72.031543
7.3762,-0.003183,-0.001736,0.003319,0.0,0.0,0.0,-0.00142,-0.511477,0.003472,0.703745,-258.326231,-1.114579,72.031543
7.3963,-0.002955,-0.001833,0.003879,0.0,0.0,0.0,-0.00142,-0.511477,0.003472,0.703745,-258.326231,-1.114579,72.031543
7.4162,-0.003412,-0.002011,0.004029,0.0,0.0,0.0,-0.000977,-0.511829,0.003879,0.703745,-258.326231,-1.114579,72.031543
7.4362,-0.003002,-0.001554,0.003414,0.0,0.0,0.0,-0.001132,-0.511901,0.00394,0.703745,-258.326231,-1.114579,72.031543
7.4563,-0.003235,-0.001659,0.001398,0.0,0.0,0.0,-0.001261,-0.511551,0.003414,0.703745,-258.326231,-1.114579,72.031543
7.4762,-0.003109,-0.002065,0.00359,0.0,0.0,0.0,-0.002414,-0.51165,0.001571,0.703745,-258.326231,-1.114579,72.031543
7.4964,-0.003022,-0.001865,0.003886,0.0,0.0,0.0,-0.002414,-0.51165,0.001571,0.703745,-258.326231,-1.114579,72.031543
7.5163,-0.003185,-0.001564,0.004493,0.0,0.0,0.0,-0.001041,-0.511861,0.003886,0.703745,-258.326231,-1.114579,72.031543
7.5361,-0.003454,-0.001549,0.003751,0.0,0.0,0.0,-0.000979,-0.511735,0.004139,0.703745,-258.326231,-1.114579,72.031543
7.5567,-0.002802,-0.001648,0.002583,0.0,0.0,0.0,-0.001541,-0.511545,0.003751,0.703745,-258.326231,-1.114579,72.031543
7.5764,-0.003163,-0.001955,0.002919,0.0,0.0,0.0,-0.00149,-0.511637,0.002684,0.703745,-258.326231,-1.114579,72.031543
7.5965,-0.00292,-0.001487,0.002474,0.0,0.0,0.0,-0.00149,-0.511637,0.002684,0.703745,-258.326231,-1.114579,72.031543
7.6164,-0.002925,-0.001692,0.003586,0.0,0.0,0.0,-0.001658,-0.511485,0.002474,0.703745,-258.326231,-1.114579,72.031543
7.6365,-0.003062,-0.001544,0.005052,0.0,0.0,0.0,-0.001429,-0.511568,0.002927,0.703745,-258.326231,-1.114579,72.031543
7.6563,-0.003039,-0.001761,0.003742,0.0,0.0,0.0,-0.000486,-0.511537,0.005052,0.703745,-258.326231,-1.114579,72.031543
7.6763,-0.003289,-0.001608,0.002674,0.0,0.0,0.0,-0.001076,-0.511738,0.003855,0.703745,-258.326231,-1.114579,72.031543
7.6966,-0.003227,-0.001539,0.003925,0.0,0.0,0.0,-0.001076,-0.511738,0.003855,0.703745,-258.326231,-1.114579,72.031543
7.7168,-0.003351,-0.001754,0.004084,0.0,0.0,0.0,-0.001225,-0.511535,0.003925,0.703745,-258.326231,-1.114579,72.031543
7.7367,-0.003226,-0.002103,0.004587,0.0,0.0,0.0,-0.001243,-0.511625,0.003991,0.703745,-258.326231,-1.114579,72.031543
7.7566,-0.002992,-0.001605,0.003406,0.0,0.0,0.0,-0.000887,-0.512098,0.004587,0.703745,-258.326231,-1.114579,72.031543
7.7764,-0.002768,-0.001493,0.005,0.0,0.0,0.0,-0.001225,-0.511643,0.003504,0.703745,-258.326231,-1.114579,72.031543
7.7967,-0.003404,-0.001706,0.004416,0.0,0.0,0.0,-0.001225,-0.511643,0.003504,0.703745,-258.326231,-1.114579,72.031543
7.8164,-0.002622,-0.001771,0.004689,0.0,0.0,0.0,-0.001152,-0.511701,0.004416,0.703745,-258.326231,-1.114579,72.031543
7.8365,-0.003315,-0.001889,0.005194,0.0,0.0,0.0,-0.000772,-0.511728,0.004529,0.703745,-258.326231,-1.114579,72.031543
7.8564,-0.003039,-0.001874,0.003255,0.0,0.0,0.0,-0.000666,-0.511882,0.005194,0.703745,-258.326231,-1.114579,72.031543
7.8765,-0.002664,-0.001453,0.003696,0.0,0.0,0.0,-0.001314,-0.511872,0.003429,0.703745,-258.326231,-1.114579,72.031543
7.8964,-0.003047,-0.00187,0.003759,0.0,0.0,0.0,-0.001314,-0.511872,0.003429,0.703745,-258.326231,-1.114579,72.031543
7.9164,-0.003443,-0.001778,0.003386,0.0,0.0,0.0,-0.00113,-0.511867,0.003759,0.703745,-258.326231,-1.114579,72.031543
7.9366,-0.002725,-0.001448,0.003704,0.0,0.0,0.0,-0.001371,-0.511829,0.003605,0.703745,-258.326231,-1.114579,72.031543
7.956,-0.003055,-0.001708,0.004508,0.0,0.0,0.0,-0.000836,-0.511445,0.003704,0.703745,-258.326231,-1.114579,72.031543
7.9762,-0.003231,-0.002087,0.003495,0.0,0.0,0.0,-0.000763,-0.511681,0.004439,0.703745,-258.326231,-1.114579,72.031543
7.9965,-0.00291,-0.001505,0.005333,0.0,0.0,0.0,-0.000763,-0.511681,0.004439,0.703745,-258.326231,-1.114579,72.031543
8.0162,-0.003119,-0.00156,0.003205,0.0,0.0,0.0,-0.00019,-0.511498,0.005333,0.703745,-258.326231,-1.114579,72.031543
8.0364,-0.002832,-0.00153,0.002229,0.0,0.0,0.0,-0.00072,-0.511522,0.004461,0.703745,-258.326231,-1.114579,72.031543
8.056,-0.002996,-0.001572,0.005235,0.0,0.0,0.0,-0.001695,-0.511529,0.002229,0.703745,-258.326231,-1.114579,72.031543
8.0764,-0.003068,-0.001758,0.00272,0.0,0.0,0.0,-0.00043,-0.511563,0.005007,0.703745,-258.326231,-1.114579,72.031543
8.0964,-0.003034,-0.001762,0.003435,0.0,0.0,0.0,-0.00043,-0.511563,0.005007,0.703745,-258.326231,-1.114579,72.031543
8.1164,-0.003378,-0.001461,0.003926,0.0,0.0,0.0,-0.001282,-0.511759,0.003435,0.703745,-258.326231,-1.114579,72.031543
8.1365,-0.002849,-0.001654,0.006697,0.0,0.0,0.0,-0.00132,-0.511636,0.003636,0.703745,-258.326231,-1.114579,72.031543
8.157,-0.003591,-0.001457,0.003329,0.0,0.0,0.0,0.000566,-0.511642,0.006697,0.703745,-258.326231,-1.114579,72.031543
8.1768,-0.00292,-0.001744,0.003942,0.0,0.0,0.0,-0.001671,-0.511471,0.003634,0.703745,-258.326231,-1.114579,72.031543
8.1965,-0.003141,-0.00167,0.003458,0.0,0.0,0.0,-0.001671,-0.511471,0.003634,0.703745,-258.326231,-1.114579,72.031543
8.2163,-0.00285,-0.001798,0.003463,0.0,0.0,0.0,-0.001378,-0.511667,0.003458,0.703745,-258.326231,-1.114579,72.031543
8.2361,-0.002623,-0.001412,0.004974,0.0,0.0,0.0,-0.001258,-0.51172,0.00346,0.703745,-258.326231,-1.114579,72.031543
8.2566,-0.003047,-0.001574,0.002894,0.0,0.0,0.0,-8.6e-05,-0.511406,0.004974,0.703745,-258.326231,-1.114579,72.031543
8.2768,-0.002531,-0.001998,0.004751,0.0,0.0,0.0,-0.001437,-0.511557,0.003082,0.703745,-258.326231,-1.114579,72.031543
8.2968,-0.003058,-0.001529,0.003576,0.0,0.0,0.0,-0.001437,-0.511557,0.003082,0.703745,-258.326231,-1.114579,72.031543
8.3161,-0.003023,-0.001569,0.003824,0.0,0.0,0.0,-0.001234,-0.511526,0.003576,0.703745,-258.326231,-1.114579,72.031543
8.3361,-0.003284,-0.00161,0.00331,0.0,0.0,0.0,-0.001168,-0.511542,0.003677,0.703745,-258.326231,-1.114579,72.031543
8.3562,-0.003168,-0.001573,0.004041,0.0,0.0,0.0,-0.001596,-0.511607,0.00331,0.703745,-258.326231,-1.114579,72.031543
8.3765,-0.002969,-0.001696,0.005123,0.0,0.0,0.0,-0.001149,-0.511572,0.003978,0.703745,-258.326231,-1.114579,72.031543
8.3961,-0.003375,-0.001315,0.004546,0.0,0.0,0.0,-0.001149,-0.511572,0.003978,0.703745,-258.326231,-1.114579,72.031543
8.4161,-0.00268,-0.002045,0.003962,0.0,0.0,0.0,-0.001056,-0.51131,0.004546,0.703745,-258.326231,-1.114579,72.031543
8.4362,-0.002925,-0.002174,0.003173,0.0,0.0,0.0,-0.000892,-0.511612,0.004305,0.703745,-258.326231,-1.114579,72.031543
8.4564,-0.002931,-0.001924,0.004087,0.0,0.0,0.0,-0.001307,-0.512172,0.003173,0.703745,-258.326231,-1.114579,72.031543
8.4764,-0.003056,-0.001703,0.001671,0.0,0.0,0.0,-0.000887,-0.511941,0.004008,0.703745,-258.326231,-1.114579,72.031543
8.4964,-0.003058,-0.00187,0.003685,0.0,0.0,0.0,-0.000887,-0.511941,0.004008,0.703745,-258.326231,-1.114579,72.031543
8.5162,-0.003073,-0.001897,0.002795,0.0,0.0,0.0,-0.001179,-0.511866,0.003685,0.703745,-258.326231,-1.114579,72.031543
8.5364,-0.002996,-0.001548,0.002393,0.0,0.0,0.0,-0.001371,-0.511878,0.00332,0.703745,-258.326231,-1.114579,72.031543
8.5561,-0.003166,-0.001711,0.005695,0.0,0.0,0.0,-0.001775,-0.511547,0.002393,0.703745,-258.326231,-1.114579,72.031543
8.5767,-0.003082,-0.001465,0.004111,0.0,0.0,0.0,-0.000393,-0.511689,0.005408,0.703745,-258.326231,-1.114579,72.031543
8.5966,-0.003019,-0.001748,0.005307,0.0,0.0,0.0,-0.000393,-0.511689,0.005408,0.703745,-258.326231,-1.114579,72.031543
8.6167,-0.002955,-0.001435,0.003632,0.0,0.0,0.0,-0.000313,-0.511741,0.005307,0.703745,-258.326231,-1.114579,72.031543
8.6369,-0.003188,-0.001784,0.005471,0.0,0.0,0.0,-0.000633,-0.511616,0.004628,0.703745,-258.326231,-1.114579,72.031543
8.6562,-0.002758,-0.001783,0.005055,0.0,0.0,0.0,-0.000397,-0.511776,0.005471,0.703745,-258.326231,-1.114579,72.031543
8.6764,-0.003002,-0.001622,0.0035,0.0,0.0,0.0,-0.000198,-0.511776,0.005091,0.703745,-258.326231,-1.114579,72.031543
8.6969,-0.003165,-0.00207,0.003412,0.0,0.0,0.0,-0.000198,-0.511776,0.005091,0.703745,-258.326231,-1.114579,72.031543
8.717,-0.00304,-0.001616,0.002752,0.0,0.0,0.0,-0.001425,-0.512067,0.003412,0.703745,-258.326231,-1.114579,72.031543
8.7364,-0.002692,-0.001769,0.003755,0.0,0.0,0.0,-0.00151,-0.511883,0.003145,0.703745,-258.326231,-1.114579,72.031543
8.7561,-0.003036,-0.002175,0.003609,0.0,0.0,0.0,-0.000776,-0.511765,0.003755,0.703745,-258.326231,-1.114579,72.031543
8.7764,-0.003048,-0.002031,0.004594,0.0,0.0,0.0,-0.00116,-0.512137,0.003622,0.703745,-258.326231,-1.114579,72.031543
8.7967,-0.002744,-0.001546,0.004194,0.0,0.0,0.0,-0.00116,-0.512137,0.003622,0.703745,-258.326231,-1.114579,72.031543
8.8164,-0.002978,-0.001882,0.004117,0.0,0.0,0.0,-0.000605,-0.511541,0.004194,0.703745,-258.326231,-1.114579,72.031543
8.8366,-0.003093,-0.001712,0.004365,0.0,0.0,0.0,-0.000718,-0.51168,0.004162,0.703745,-258.326231,-1.114579,72.031543
8.8563,-0.00321,-0.001959,0.004775,0.0,0.0,0.0,-0.000867,-0.511707,0.004365,0.703745,-258.326231,-1.114579,72.031543
8.8764,-0.002923,-0.001763,0.004562,0.0,0.0,0.0,-0.000783,-0.511931,0.004737,0.703745,-258.326231,-1.114579,72.031543
8.8966,-0.002789,-0.001929,0.003276,0.0,0.0,0.0,-0.000783,-0.511931,0.004737,0.703745,-258.326231,-1.114579,72.031543
8.9163,-0.002829,-0.001624,0.003792,0.0,0.0,0.0,-0.001118,-0.511926,0.003276,0.703745,-258.326231,-1.114579,72.031543
8.9366,-0.003367,-0.002043,0.002346,0.0,0.0,0.0,-0.001029,-0.511803,0.003483,0.703745,-258.326231,-1.114579,72.031543
8.9562,-0.003155,-0.00164,0.005394,0.0,0.0,0.0,-0.002171,-0.512042,0.002346,0.703745,-258.326231,-1.114579,72.031543
8.9763,-0.003131,-0.001351,0.004486,0.0,0.0,0.0,-0.000557,-0.511668,0.005129,0.703745,-258.326231,-1.114579,72.031543
8.9965,-0.0032,-0.001394,0.005127,0.0,0.0,0.0,-0.000557,-0.511668,0.005129,0.703745,-258.326231,-1.114579,72.031543
9.0167,-0.003392,-0.001598,0.004218,0.0,0.0,0.0,-0.000585,-0.511387,0.005127,0.703745,-258.326231,-1.114579,72.031543
9.0362,-0.00325,-0.001709,0.004746,0.0,0.0,0.0,-0.000848,-0.51147,0.004763,0.703745,-258.326231,-1.114579,72.031543
9.0564,-0.00313,-0.001795,0.005511,0.0,0.0,0.0,-0.00083,-0.511703,0.004746,0.703745,-258.326231,-1.114579,72.031543
9.0763,-0.003062,-0.001513,0.00429,0.0,0.0,0.0,-0.000365,-0.51178,0.005443,0.703745,-258.326231,-1.114579,72.031543
9.0964,-0.003365,-0.001431,0.004038,0.0,0.0,0.0,-0.000365,-0.51178,0.005443,0.703745,-258.326231,-1.114579,72.031543
9.1166,-0.003207,-0.001596,0.004334,0.0,0.0,0.0,-0.001305,-0.511427,0.004038,0.703745,-258.326231,-1.114579,72.031543
9.1364,-0.003239,-0.002027,0.003137,0.0,0.0,0.0,-0.00118,-0.511494,0.004158,0.703745,-258.326231,-1.114579,72.031543
9.1563,-0.00293,-0.001829,0.002019,0.0,0.0,0.0,-0.001639,-0.512025,0.003137,0.703745,-258.326231,-1.114579,72.031543
9.1766,-0.003189,-0.00162,0.002481,0.0,0.0,0.0,-0.001883,-0.511841,0.002094,0.703745,-258.326231,-1.114579,72.031543
9.1969,-0.002796,-0.001608,0.002348,0.0,0.0,0.0,-0.001883,-0.511841,0.002094,0.703745,-258.326231,-1.114579,72.031543
9.2165,-0.002792,-0.001541,0.004046,0.0,0.0,0.0,-0.001599,-0.511606,0.002348,0.703745,-258.326231,-1.114579,72.031543
9.2364,-0.002943,-0.001878,0.003875,0.0,0.0,0.0,-0.001245,-0.511578,0.003038,0.703745,-258.326231,-1.114579,72.031543
9.2562,-0.002949,-0.001694,0.003557,0.0,0.0,0.0,-0.000967,-0.511874,0.003875,0.703745,-258.326231,-1.114579,72.031543
9.2764,-0.003149,-0.001468,0.002539,0.0,0.0,0.0,-0.00112,-0.511707,0.003586,0.703745,-258.326231,-1.114579,72.031543
9.2963,-0.003429,-0.001537,0.004174,0.0,0.0,0.0,-0.00112,-0.511707,0.003586,0.703745,-258.326231,-1.114579,72.031543
9.3164,-0.003294,-0.00182,0.005219,0.0,0.0,0.0,-0.0013,-0.511533,0.004174,0.703745,-258.326231,-1.114579,72.031543
9.3364,-0.003424,-0.001521,0.005261,0.0,0.0,0.0,-0.001028,-0.511647,0.004601,0.703745,-258.326231,-1.114579,72.031543
9.3561,-0.003313,-0.001911,0.003401,0.0,0.0,0.0,-0.000741,-0.511514,0.005261,0.703745,-258.326231,-1.114579,72.031543
9.3765,-0.00319,-0.001671,0.004103,0.0,0.0,0.0,-0.001502,-0.511872,0.00357,0.703745,-258.326231,-1.114579,72.031543
9.3963,-0.002817,-0.00145,0.003554,0.0,0.0,0.0,-0.001502,-0.511872,0.00357,0.703745,-258.326231,-1.114579,72.031543
9.4161,-0.003427,-0.001719,0.00457,0.0,0.0,0.0,-0.001005,-0.511447,0.003554,0.703745,-258.326231,-1.114579,72.031543
9.4361,-0.003377,-0.001973,0.002713,0.0,0.0,0.0,-0.001042,-0.511556,0.00397,0.703745,-258.326231,-1.114579,72.031543
9.4564,-0.003206,-0.001594,0.004541,0.0,0.0,0.0,-0.001993,-0.511971,0.002713,0.703745,-258.326231,-1.114579,72.031543
9.4763,-0.003181,-0.002106,0.003293,0.0,0.0,0.0,-0.000985,-0.511621,0.004383,0.703745,-258.326231,-1.114579,72.031543
9.4964,-0.003239,-0.001692,0.002688,0.0,0.0,0.0,-0.000985,-0.511621,0.004383,0.703745,-258.326231,-1.114579,72.031543
9.5165,-0.002826,-0.002044,0.003302,0.0,0.0,0.0,-0.001869,-0.511691,0.002688,0.703745,-258.326231,-1.114579,72.031543
9.5363,-0.002982,-0.002004,0.004102,0.0,0.0,0.0,-0.001571,-0.511834,0.002939,0.703745,-258.326231,-1.114579,72.031543
9.5562,-0.003007,-0.002197,0.00357,0.0,0.0,0.0,-0.00089,-0.512,0.004102,0.703745,-258.326231,-1.114579,72.031543
9.5767,-0.003057,-0.001513,0.004725,0.0,0.0,0.0,-0.001165,-0.51218,0.003608,0.703745,-258.326231,-1.114579,72.031543
9.597,-0.00301,-0.00173,0.003668,0.0,0.0,0.0,-0.001165,-0.51218,0.003608,0.703745,-258.326231,-1.114579,72.031543
9.6167,-0.00302,-0.00157,0.0034,0.0,0.0,0.0,-0.001139,-0.511726,0.003668,0.703745,-258.326231,-1.114579,72.031543
9.6365,-0.003163,-0.001693,0.00494,0.0,0.0,0.0,-0.001199,-0.511661,0.003558,0.703745,-258.326231,-1.114579,72.031543
9.6566,-0.002911,-0.001788,0.004229,0.0,0.0,0.0,-0.000644,-0.511687,0.00494,0.703745,-258.326231,-1.114579,72.031543
9.6765,-0.00282,-0.001986,0.002324,0.0,0.0,0.0,-0.000744,-0.511775,0.004292,0.703745,-258.326231,-1.114579,72.031543
9.6966,-0.002528,-0.001431,0.003473,0.0,0.0,0.0,-0.000744,-0.511775,0.004292,0.703745,-258.326231,-1.114579,72.031543
